bundles/resolve-cinematic-luts/Phantom Luts/P4k & P6k Phntm Arri LUTs - V6/P4K/Gen 4 Colour/White Balance Offset (Magenta Boost)/P4k IceBlue Gen4-Legacy WBO.cube
TITLE "Generated by Resolve"
LUT_3D_SIZE 33
0.033402 0.0457313 0.0450446
0.0334173 0.0457313 0.0450294
0.0389563 0.0455787 0.0461738
0.0487373 0.0459602 0.0476997
0.0610819 0.0471199 0.0503395
0.0768292 0.0486305 0.0530404
0.0953689 0.0500801 0.0552987
0.117647 0.0512398 0.0568246
0.147066 0.0524147 0.0590219
0.181735 0.0534981 0.061387
0.219852 0.0541848 0.0640879
0.261509 0.0545205 0.066453
0.307179 0.0552224 0.0690776
0.354269 0.0558175 0.0724651
0.402564 0.0567025 0.0769665
0.450874 0.0583352 0.0830091
0.496345 0.0607919 0.0903639
0.534417 0.0642405 0.0988174
0.567376 0.0695506 0.10927
0.598413 0.0771954 0.121889
0.631739 0.0853132 0.135164
0.663951 0.0948501 0.149447
0.692241 0.105074 0.163424
0.711559 0.115389 0.174075
0.720851 0.123919 0.181201
0.725109 0.129732 0.185809
0.728038 0.134051 0.189029
0.730983 0.137789 0.192737
0.733028 0.140612 0.19556
0.735775 0.14287 0.200702
0.73814 0.144442 0.205875
0.740703 0.144915 0.213367
0.74284 0.144549 0.220951
0.0334936 0.045655 0.0447852
0.0334478 0.0457008 0.0449378
0.0345769 0.0457771 0.0453193
0.0443885 0.0471504 0.047837
0.0562753 0.0493629 0.0498665
0.0716259 0.0512856 0.0526436
0.0898146 0.0523537 0.0545357
0.111833 0.0530709 0.0563058
0.139895 0.0534066 0.0572213
0.173724 0.0537118 0.0588083
0.211292 0.0537575 0.0602426
0.25359 0.0536355 0.0623178
0.300999 0.0537423 0.0638132
0.349889 0.054078 0.066804
0.399405 0.0547036 0.0707866
0.449012 0.0556191 0.0759442
0.495033 0.0577859 0.0830549
0.533043 0.0616312 0.092256
0.565209 0.0675975 0.103456
0.596704 0.0746777 0.115877
0.630701 0.0833295 0.130358
0.662776 0.0920729 0.144686
0.6916 0.102831 0.159106
0.710887 0.113222 0.170291
0.717571 0.119814 0.175463
0.720577 0.123888 0.178836
0.723674 0.128115 0.182284
0.726192 0.13135 0.185534
0.728542 0.134264 0.188769
0.731228 0.136416 0.193744
0.733349 0.137606 0.198672
0.735546 0.13753 0.205982
0.737942 0.137423 0.213672
0.0335851 0.0492103 0.0463417
0.0335241 0.0479286 0.0450294
0.0340276 0.0469673 0.0455634
0.0396887 0.0488136 0.0467994
0.0506447 0.0512398 0.0495766
0.0640879 0.0530556 0.0518349
0.0817578 0.0543374 0.0543526
0.103517 0.054902 0.05626
0.13051 0.0545815 0.0568704
0.164858 0.0543069 0.0577401
0.202426 0.054078 0.0586862
0.244175 0.0537118 0.0593271
0.290257 0.053315 0.0602884
0.338735 0.0532082 0.0615854
0.387304 0.0531014 0.0635538
0.4374 0.0536965 0.0671092
0.486427 0.0553597 0.0732891
0.526665 0.0588388 0.0826429
0.558953 0.0650034 0.0951705
0.591302 0.0720531 0.108186
0.625315 0.079942 0.122454
0.659068 0.089662 0.138537
0.687327 0.0987411 0.152285
0.707301 0.108843 0.163439
0.713573 0.115145 0.168505
0.716594 0.118929 0.171832
0.718791 0.12195 0.17438
0.720974 0.12459 0.177172
0.723186 0.127153 0.180301
0.725597 0.129046 0.184909
0.727764 0.130175 0.190021
0.730266 0.13022 0.19762
0.732586 0.129885 0.205219
0.0353246 0.0588388 0.0543832
0.0352483 0.0587167 0.0527504
0.0393378 0.057084 0.0496071
0.043183 0.0561074 0.049073
0.0518044 0.0579995 0.0510109
0.0630655 0.0593118 0.0532082
0.0795453 0.0597696 0.0556039
0.0995651 0.0595254 0.057084
0.124575 0.0585794 0.0578012
0.157565 0.0572671 0.0580301
0.19408 0.0557107 0.0576638
0.233845 0.0543679 0.0575875
0.279026 0.0536965 0.0575113
0.327153 0.0534524 0.057969
0.376638 0.0532387 0.0594034
0.426566 0.0531777 0.0614023
0.474861 0.0541085 0.0649729
0.515816 0.0563973 0.0713817
0.547906 0.0615396 0.0823224
0.58262 0.0688945 0.0975204
0.617853 0.0770581 0.113344
0.652537 0.0861677 0.129824
0.682231 0.0958267 0.145098
0.703349 0.105089 0.156497
0.710796 0.111757 0.162493
0.713069 0.1149 0.164996
0.715297 0.117647 0.167666
0.717281 0.120089 0.170169
0.71899 0.12195 0.172839
0.720851 0.122988 0.176959
0.723003 0.124025 0.181888
0.725643 0.124102 0.189578
0.728054 0.123705 0.197436
0.036347 0.0742962 0.0652171
0.0362402 0.0747234 0.0619516
0.0383154 0.0736095 0.0580453
0.0459907 0.071397 0.0549935
0.0553292 0.0712291 0.0543526
0.0673686 0.0721294 0.054963
0.0835126 0.0725414 0.0582742
0.102678 0.0712902 0.0598154
0.127535 0.069276 0.0601205
0.159152 0.0667277 0.0602731
0.195163 0.0645609 0.0601358
0.233646 0.0616312 0.0589303
0.27538 0.0590677 0.0574502
0.322255 0.057023 0.0563973
0.370169 0.0549935 0.0559243
0.418616 0.0539712 0.0581064
0.466896 0.0542458 0.0614023
0.508705 0.0563058 0.0664378
0.539284 0.0601816 0.0741741
0.571481 0.0656901 0.0849775
0.60557 0.0727855 0.098909
0.641672 0.0819562 0.117174
0.673701 0.0914168 0.134295
0.697398 0.101106 0.147646
0.707057 0.108171 0.154177
0.710002 0.111559 0.157687
0.712215 0.114488 0.160388
0.714153 0.116747 0.163088
0.716106 0.118776 0.165988
0.718196 0.120104 0.17026
0.720043 0.120668 0.174929
0.722332 0.120272 0.182193
0.724468 0.119478 0.189609
0.0349279 0.0934462 0.0729076
0.0343938 0.0948806 0.0682841
0.0352026 0.0943618 0.0631113
0.0416419 0.0917983 0.0579995
0.0509041 0.0906233 0.0568093
0.067277 0.0903334 0.0560464
0.0854047 0.0909133 0.0555276
0.106371 0.0903944 0.0584573
0.132738 0.0877546 0.0612955
0.164691 0.0822919 0.0618601
0.20087 0.0780499 0.0618906
0.239368 0.0743572 0.0608072
0.281926 0.0712596 0.0597696
0.327855 0.0677958 0.0586862
0.374578 0.0642557 0.0582589
0.42034 0.0610513 0.0576333
0.465293 0.0589151 0.0590677
0.504967 0.0581826 0.0630198
0.535409 0.060853 0.0713207
0.566583 0.0655375 0.0805524
0.598642 0.0713664 0.0918135
0.631281 0.0785992 0.106218
0.662959 0.0871138 0.121935
0.687526 0.09514 0.134325
0.70135 0.102358 0.142367
0.704921 0.106035 0.146548
0.707485 0.109255 0.150134
0.710002 0.112001 0.153521
0.711971 0.114122 0.156481
0.713664 0.115282 0.160021
0.715602 0.11606 0.164431
0.718059 0.115892 0.171618
0.720195 0.115068 0.178775
0.0322728 0.116014 0.0805371
0.0313115 0.118273 0.0740215
0.0311742 0.11873 0.0674754
0.0330358 0.116945 0.0601205
0.0439155 0.114122 0.0565652
0.0576791 0.113191 0.0563363
0.0831464 0.112673 0.0553597
0.105379 0.112505 0.0540932
0.132677 0.111299 0.0554971
0.167803 0.107454 0.0584726
0.206485 0.0988937 0.0606546
0.247089 0.0914321 0.0616617
0.289647 0.0873426 0.0614633
0.335668 0.0839094 0.0610208
0.382269 0.0803388 0.0601205
0.428962 0.0767834 0.0611734
0.474388 0.0737011 0.0632944
0.513619 0.071809 0.0662089
0.54374 0.0716564 0.072282
0.571435 0.0729992 0.0804913
0.599359 0.0756085 0.0898604
0.627558 0.0794537 0.101869
0.657237 0.086305 0.116075
0.681895 0.093492 0.127337
0.697993 0.0998398 0.134356
0.700343 0.102174 0.135622
0.702861 0.105165 0.138247
0.704845 0.107652 0.14049
0.706233 0.10959 0.141939
0.707881 0.110765 0.144396
0.709392 0.111513 0.147356
0.711116 0.111467 0.151659
0.713069 0.111818 0.156268
0.0292973 0.141741 0.0905165
0.0284123 0.144915 0.0812543
0.0275883 0.146715 0.0723735
0.0277867 0.146059 0.065095
0.0332647 0.142992 0.0565499
0.0471199 0.140795 0.0546273
0.0677501 0.139956 0.0551156
0.100191 0.138659 0.0531624
0.127794 0.138857 0.0521553
0.164477 0.137179 0.0517128
0.205005 0.133257 0.0546578
0.252461 0.122484 0.0594644
0.300954 0.11046 0.063386
0.346227 0.105486 0.0646067
0.392676 0.102754 0.0650187
0.439887 0.100221 0.0658427
0.48574 0.0983444 0.0673075
0.525811 0.0973526 0.0701457
0.560754 0.0968185 0.0780957
0.590738 0.0975052 0.0884108
0.617105 0.0985122 0.0977493
0.642634 0.100252 0.108629
0.667262 0.102815 0.11989
0.688518 0.106569 0.129824
0.704189 0.111147 0.136812
0.705516 0.110658 0.136858
0.705745 0.110994 0.136919
0.7075 0.113573 0.138155
0.709102 0.116075 0.139193
0.710445 0.117662 0.140734
0.712032 0.119005 0.143252
0.71429 0.120089 0.147662
0.717586 0.122454 0.153216
0.0267338 0.171969 0.100679
0.0265507 0.17554 0.0914626
0.0260624 0.178607 0.0792859
0.025864 0.179248 0.0696269
0.0257877 0.177584 0.0603494
0.0358892 0.173816 0.0534981
0.0498665 0.173785 0.0523384
0.078706 0.172396 0.0524605
0.119005 0.17116 0.050721
0.155138 0.171649 0.0491646
0.200809 0.170306 0.0482338
0.246998 0.168017 0.0504311
0.303105 0.156558 0.0582589
0.358633 0.141512 0.0660868
0.407584 0.134722 0.0697032
0.454612 0.132418 0.0721447
0.500587 0.131472 0.0748455
0.542199 0.131365 0.0792706
0.578073 0.132418 0.0854353
0.609735 0.13492 0.0942092
0.63856 0.138308 0.10515
0.666911 0.141207 0.120104
0.692882 0.144213 0.13489
0.713283 0.148287 0.145251
0.728923 0.15404 0.153292
0.731243 0.153689 0.15436
0.729946 0.151263 0.153475
0.729046 0.149859 0.152834
0.728496 0.148913 0.152453
0.728237 0.14789 0.152789
0.728939 0.147906 0.154559
0.731441 0.149447 0.159152
0.736019 0.154803 0.165515
0.0259251 0.20528 0.11162
0.0255589 0.20914 0.101823
0.0251011 0.213001 0.0895247
0.0248264 0.21471 0.0764324
0.0246586 0.213779 0.0666056
0.0247654 0.211215 0.0565957
0.0361181 0.208774 0.0522469
0.0548104 0.210529 0.0510872
0.0925002 0.209735 0.0506447
0.144259 0.208911 0.048249
0.189609 0.210178 0.0469368
0.242832 0.209628 0.0457771
0.2972 0.20911 0.0471962
0.358053 0.20061 0.057145
0.418509 0.187427 0.0687877
0.470253 0.175525 0.0768597
0.514794 0.172213 0.0821698
0.557626 0.172076 0.08748
0.595529 0.173587 0.0955367
0.629526 0.177142 0.105684
0.6598 0.181781 0.117449
0.68957 0.187625 0.13193
0.716426 0.193545 0.146227
0.738338 0.200275 0.158236
0.754849 0.208377 0.167819
0.759197 0.21033 0.170565
0.757565 0.207584 0.169253
0.756252 0.205158 0.168307
0.755444 0.203662 0.167712
0.755779 0.203677 0.168536
0.757488 0.20557 0.170871
0.761196 0.209079 0.176471
0.765881 0.214527 0.182818
0.0250706 0.241932 0.122759
0.0247044 0.246189 0.114107
0.0242313 0.24979 0.101564
0.0240024 0.252613 0.0879683
0.0238499 0.252659 0.0751202
0.0239261 0.251179 0.0645914
0.0253758 0.24802 0.0547189
0.0395666 0.24799 0.0515602
0.0621653 0.251926 0.0497292
0.110353 0.25185 0.0483711
0.176684 0.25211 0.0459907
0.231708 0.254459 0.0453803
0.292302 0.255756 0.0456397
0.35285 0.256001 0.0463874
0.413718 0.250462 0.0554055
0.475441 0.238575 0.0699931
0.527794 0.227207 0.082826
0.57171 0.220768 0.0943465
0.611399 0.219715 0.105531
0.647837 0.222965 0.118181
0.68043 0.228107 0.131731
0.712016 0.234989 0.147265
0.740398 0.2421 0.1626
0.764004 0.25066 0.176364
0.780713 0.259174 0.186831
0.786435 0.262501 0.19057
0.785382 0.260334 0.189776
0.784802 0.259022 0.18938
0.784512 0.258396 0.189181
0.785046 0.258824 0.190127
0.786358 0.260304 0.192157
0.789853 0.264088 0.197269
0.794186 0.269535 0.203098
0.0242466 0.284337 0.135897
0.0239261 0.288563 0.127352
0.0236515 0.292393 0.116243
0.0231785 0.295308 0.102296
0.0230716 0.297032 0.0889754
0.0230259 0.296635 0.0751507
0.0229191 0.294575 0.0620127
0.0270542 0.292134 0.053254
0.0443427 0.294942 0.0498665
0.0734264 0.299763 0.0473487
0.135607 0.300328 0.0465858
0.21622 0.301427 0.044892
0.279286 0.30396 0.044892
0.343969 0.305211 0.0457465
0.407721 0.306447 0.0466621
0.467628 0.304372 0.0528573
0.528801 0.294743 0.0706951
0.581918 0.285878 0.0902571
0.624842 0.28072 0.108812
0.662943 0.276463 0.128038
0.698802 0.277272 0.145907
0.732937 0.283421 0.163516
0.763638 0.290959 0.18085
0.787778 0.299443 0.195544
0.804379 0.307362 0.206271
0.811399 0.311742 0.211124
0.810651 0.310094 0.210575
0.810391 0.309483 0.210452
0.810285 0.309117 0.210468
0.810925 0.309789 0.211368
0.812467 0.312062 0.213321
0.815076 0.315709 0.216876
0.819425 0.322026 0.222171
0.0235904 0.331685 0.153552
0.0232395 0.335668 0.144228
0.0229801 0.339376 0.134157
0.0228428 0.342565 0.121798
0.0224002 0.346029 0.107774
0.0223087 0.346532 0.0936294
0.0222171 0.345205 0.0770428
0.0221714 0.342596 0.0604562
0.0287785 0.341665 0.0514229
0.0521859 0.345815 0.0482032
0.0899825 0.350286 0.0464179
0.168582 0.350362 0.0460059
0.260594 0.351125 0.0435798
0.329458 0.35375 0.0442359
0.395865 0.355596 0.0473793
0.461891 0.358007 0.0499275
0.520317 0.35819 0.0560769
0.577981 0.351843 0.0769513
0.630838 0.344656 0.104128
0.67483 0.340688 0.129427
0.712749 0.339178 0.152285
0.750942 0.333516 0.177798
0.783536 0.338766 0.19762
0.808896 0.346685 0.213931
0.826139 0.354101 0.225544
0.834592 0.359823 0.231769
0.834226 0.359091 0.231449
0.833951 0.358343 0.231266
0.833997 0.358312 0.231403
0.834623 0.359442 0.23212
0.835996 0.361913 0.233555
0.838132 0.366201 0.235996
0.841718 0.372519 0.24033
0.0233005 0.379049 0.175463
0.0230869 0.383017 0.166674
0.0229496 0.386572 0.15671
0.0227817 0.390005 0.145052
0.0226596 0.393118 0.131289
0.0225071 0.395377 0.117082
0.0225223 0.39527 0.101411
0.0224155 0.393591 0.0823835
0.0222629 0.391272 0.0618448
0.0328985 0.391699 0.0520485
0.0644846 0.395758 0.0482643
0.113115 0.399161 0.046891
0.208469 0.399802 0.0457313
0.311299 0.401328 0.0440986
0.382864 0.404593 0.0466926
0.448142 0.407462 0.0530556
0.513787 0.409689 0.0584573
0.568872 0.411154 0.0685893
0.623987 0.408484 0.0919356
0.678126 0.403174 0.124758
0.724254 0.400244 0.155077
0.763897 0.399878 0.181933
0.799741 0.397528 0.20824
0.826902 0.395895 0.229191
0.845502 0.402396 0.242756
0.855589 0.409247 0.250568
0.855573 0.409171 0.250599
0.85539 0.408835 0.250401
0.855512 0.409354 0.250431
0.856092 0.410788 0.250874
0.857008 0.414359 0.251408
0.859327 0.420005 0.25362
0.862272 0.427604 0.256703
0.0239872 0.426886 0.20238
0.0239109 0.430823 0.194736
0.0237278 0.434363 0.185122
0.0236515 0.437339 0.173419
0.0236515 0.440314 0.160342
0.023682 0.443336 0.145769
0.0236667 0.444739 0.129061
0.0238041 0.444266 0.112627
0.0238804 0.442161 0.0907301
0.0247654 0.440055 0.0669413
0.0416876 0.441169 0.0544289
0.082948 0.445914 0.0495003
0.147097 0.449821 0.048188
0.256428 0.451453 0.0478065
0.366903 0.453574 0.0479896
0.437079 0.457038 0.0530861
0.498192 0.460349 0.0632029
0.562325 0.462898 0.0755169
0.617792 0.46537 0.0916609
0.670726 0.465721 0.115953
0.725139 0.461509 0.151095
0.774258 0.459037 0.186633
0.811749 0.459709 0.213931
0.840009 0.462638 0.235554
0.860899 0.465263 0.252613
0.872602 0.469581 0.262623
0.873365 0.470756 0.263447
0.873274 0.470344 0.263401
0.873365 0.470787 0.263447
0.873701 0.472847 0.263615
0.874754 0.476539 0.264393
0.87628 0.48275 0.265736
0.87837 0.491295 0.267704
0.026215 0.475441 0.235904
0.0263523 0.478996 0.228885
0.0265965 0.482414 0.22002
0.026688 0.484993 0.208865
0.0269474 0.487511 0.197559
0.0271916 0.490242 0.183352
0.027863 0.493339 0.166735
0.0281682 0.493339 0.149477
0.0284886 0.49189 0.13019
0.029099 0.48986 0.106065
0.0333715 0.48835 0.0791028
0.0615702 0.491798 0.0608225
0.111727 0.497353 0.0548714
0.190188 0.501488 0.0532082
0.31104 0.503792 0.0540627
0.422934 0.506661 0.0585336
0.489113 0.510765 0.0682231
0.547372 0.5149 0.0843977
0.61091 0.517449 0.102586
0.665751 0.519295 0.122316
0.717174 0.520867 0.146914
0.773724 0.518944 0.184848
0.819608 0.517601 0.219226
0.850294 0.521111 0.243259
0.870802 0.526589 0.259632
0.884092 0.531838 0.271122
0.886625 0.534737 0.273976
0.886625 0.534768 0.274037
0.886793 0.535729 0.27422
0.887144 0.537377 0.27454
0.887709 0.540764 0.275029
0.888869 0.546624 0.276326
0.890364 0.55494 0.278218
0.0328832 0.523369 0.274876
0.0329747 0.526757 0.268315
0.0334173 0.529976 0.260929
0.033753 0.532326 0.252033
0.0341344 0.534646 0.241871
0.0347601 0.537179 0.229236
0.0356909 0.540017 0.213504
0.0366522 0.542138 0.195605
0.0370794 0.541009 0.176364
0.0377356 0.539284 0.154589
0.03888 0.537224 0.128191
0.0478676 0.536599 0.0966506
0.0953536 0.542641 0.0739452
0.157595 0.548806 0.0668803
0.243275 0.553811 0.0649119
0.370748 0.557382 0.0686046
0.479057 0.560433 0.0803388
0.540383 0.564767 0.0939345
0.596017 0.568338 0.113375
0.658625 0.570871 0.135348
0.713848 0.572534 0.158175
0.766735 0.574945 0.185626
0.819257 0.575097 0.221195
0.85687 0.576776 0.250599
0.880537 0.581613 0.270893
0.893782 0.589105 0.282429
0.897322 0.593851 0.286412
0.897398 0.594263 0.286671
0.89752 0.595041 0.286915
0.898009 0.596918 0.287541
0.898207 0.600092 0.287892
0.899428 0.606012 0.289586
0.900359 0.614191 0.291417
0.0453193 0.570916 0.316564
0.0456855 0.574228 0.312322
0.0457465 0.577066 0.306676
0.0457618 0.5794 0.299458
0.0459754 0.581689 0.290196
0.0466163 0.583993 0.278645
0.0475319 0.586618 0.264988
0.0487678 0.589258 0.248005
0.0497749 0.589899 0.229023
0.0505074 0.588846 0.208545
0.0513619 0.586313 0.183093
0.0536965 0.583261 0.151965
0.0692149 0.583703 0.114656
0.145449 0.594156 0.0929885
0.215808 0.601556 0.0876631
0.30425 0.607889 0.0875868
0.433295 0.611704 0.0953536
0.533578 0.61442 0.110857
0.590906 0.618662 0.126558
0.644297 0.622324 0.147585
0.706661 0.62501 0.172778
0.763073 0.626337 0.198672
0.815229 0.630014 0.228229
0.858091 0.632471 0.258015
0.886961 0.636011 0.282521
0.902739 0.642222 0.297566
0.907332 0.649409 0.303365
0.907408 0.650446 0.303807
0.907286 0.65124 0.30396
0.907423 0.653178 0.304479
0.908125 0.656672 0.30573
0.908751 0.662364 0.307378
0.909957 0.670146 0.309941
0.0632944 0.619257 0.360906
0.0639658 0.622461 0.357748
0.0647135 0.625849 0.353674
0.0648966 0.628244 0.347387
0.0648051 0.630076 0.33962
0.0648356 0.632197 0.330663
0.0648661 0.634241 0.318883
0.0658885 0.636912 0.303227
0.0678416 0.639963 0.285145
0.0683909 0.638834 0.265538
0.0691997 0.63679 0.242069
0.0709697 0.633616 0.213123
0.0775921 0.631022 0.177218
0.115816 0.63592 0.136156
0.208118 0.647852 0.119112
0.280659 0.65594 0.116533
0.367971 0.66302 0.118379
0.495552 0.66656 0.130129
0.587381 0.669627 0.147707
0.642771 0.674372 0.16524
0.694423 0.678584 0.18764
0.755978 0.680827 0.214954
0.814374 0.683131 0.244816
0.858824 0.687297 0.273289
0.892012 0.691463 0.299733
0.911604 0.696284 0.318379
0.917601 0.701854 0.326558
0.918074 0.70454 0.327962
0.918166 0.705608 0.32842
0.918395 0.707439 0.329213
0.919478 0.711086 0.331197
0.920348 0.716106 0.333455
0.922148 0.723613 0.337407
0.0877394 0.669169 0.404837
0.088838 0.67248 0.402319
0.0899367 0.675776 0.39913
0.090486 0.678111 0.394705
0.0907759 0.680003 0.388602
0.090959 0.682063 0.381384
0.09131 0.684565 0.371908
0.0915847 0.686885 0.359243
0.0923323 0.689479 0.343297
0.0935531 0.690318 0.324208
0.0947127 0.688975 0.302281
0.0962234 0.686198 0.27602
0.100496 0.682918 0.242817
0.113359 0.682124 0.204334
0.187198 0.692576 0.16408
0.276509 0.703624 0.152316
0.348775 0.712566 0.151995
0.431189 0.719966 0.1561
0.555718 0.723445 0.170947
0.642069 0.727535 0.19086
0.69604 0.733166 0.209857
0.746624 0.737972 0.233463
0.808438 0.740063 0.263767
0.861295 0.743389 0.294835
0.897307 0.748348 0.323049
0.920409 0.752163 0.344274
0.929656 0.756268 0.356222
0.931105 0.759945 0.360174
0.931075 0.761196 0.360174
0.931411 0.763485 0.360967
0.932372 0.767239 0.36286
0.933608 0.772671 0.365789
0.935836 0.780591 0.370779
0.120439 0.721218 0.449287
0.121996 0.724498 0.447333
0.123598 0.727718 0.445289
0.124407 0.729946 0.441398
0.125109 0.732052 0.436637
0.125765 0.734264 0.430701
0.126268 0.736339 0.422629
0.126528 0.738231 0.412024
0.127291 0.740764 0.3991
0.128588 0.74342 0.382513
0.128954 0.741939 0.362127
0.130861 0.7402 0.337881
0.133974 0.737118 0.308614
0.141726 0.733944 0.27219
0.162966 0.733791 0.228061
0.265003 0.749752 0.197436
0.348333 0.759777 0.190311
0.415656 0.767956 0.191501
0.493751 0.775723 0.198016
0.616754 0.780133 0.216495
0.698604 0.786053 0.238972
0.751202 0.792767 0.259724
0.80116 0.797559 0.284611
0.857908 0.799908 0.316396
0.900847 0.803967 0.348348
0.927642 0.80795 0.371984
0.941085 0.811231 0.388418
0.94342 0.814267 0.395621
0.943557 0.815915 0.396521
0.943847 0.818006 0.397635
0.944381 0.821363 0.399466
0.945556 0.826169 0.402426
0.94699 0.831891 0.406546
0.15903 0.771328 0.493584
0.160601 0.774166 0.49218
0.161776 0.776593 0.489693
0.162585 0.778454 0.486381
0.16347 0.780377 0.482429
0.163943 0.781857 0.476814
0.164385 0.783352 0.469871
0.164599 0.784894 0.460655
0.164584 0.786389 0.449073
0.165255 0.78851 0.434974
0.165713 0.788739 0.417075
0.166094 0.786679 0.395026
0.168063 0.784314 0.368551
0.171954 0.780514 0.335195
0.184649 0.778851 0.295613
0.229419 0.784512 0.253513
0.338247 0.797971 0.228458
0.414908 0.806226 0.224598
0.479255 0.814389 0.228504
0.555673 0.822461 0.237903
0.679561 0.829114 0.262364
0.758816 0.835828 0.287083
0.806653 0.842878 0.308934
0.853559 0.846525 0.33669
0.90013 0.850172 0.370779
0.931792 0.853834 0.397879
0.947967 0.857069 0.416724
0.951904 0.858976 0.427344
0.951858 0.860563 0.430274
0.951217 0.862318 0.431205
0.950988 0.864713 0.43267
0.951522 0.86804 0.434989
0.952819 0.872511 0.438453
0.192905 0.811475 0.534142
0.193927 0.813535 0.532555
0.19498 0.81561 0.530831
0.195346 0.816922 0.527443
0.195483 0.817838 0.523171
0.195605 0.818769 0.51812
0.195529 0.819638 0.51136
0.195193 0.820478 0.502724
0.194705 0.82153 0.491829
0.194186 0.822568 0.47837
0.193881 0.823209 0.461906
0.193744 0.821668 0.4421
0.194797 0.819364 0.417792
0.197864 0.816571 0.38883
0.205234 0.813687 0.353521
0.224537 0.812818 0.308919
0.294423 0.823133 0.274022
0.403052 0.834302 0.255222
0.475013 0.841856 0.254917
0.536645 0.849546 0.261036
0.617075 0.857603 0.273793
0.741787 0.865721 0.303899
0.812573 0.872694 0.329793
0.853056 0.878904 0.353338
0.894133 0.884016 0.386099
0.930938 0.888151 0.418051
0.95024 0.890654 0.439673
0.955947 0.892058 0.452308
0.955917 0.892775 0.45803
0.955398 0.893828 0.45893
0.9552 0.895537 0.460517
0.955245 0.897826 0.462562
0.955932 0.900832 0.465339
0.219471 0.840177 0.570336
0.219989 0.841581 0.568719
0.220401 0.842969 0.566873
0.220264 0.843778 0.563195
0.219989 0.844404 0.559243
0.219516 0.84477 0.554116
0.218799 0.845029 0.547265
0.217899 0.845335 0.538842
0.216556 0.845335 0.528252
0.215167 0.84538 0.515206
0.213764 0.845014 0.49929
0.213733 0.843961 0.481804
0.214405 0.842237 0.460853
0.21651 0.840284 0.435584
0.220874 0.837217 0.40267
0.231998 0.835416 0.364767
0.275914 0.841627 0.327031
0.356832 0.85272 0.299596
0.458045 0.860441 0.281819
0.527733 0.866682 0.28304
0.58703 0.872892 0.289998
0.673976 0.880629 0.306325
0.798459 0.889494 0.341085
0.854414 0.89662 0.366964
0.89134 0.903304 0.396155
0.925917 0.90837 0.430076
0.949264 0.911238 0.456184
0.956847 0.912398 0.472953
0.957076 0.91313 0.481621
0.956268 0.913649 0.483024
0.955749 0.914336 0.484443
0.955627 0.915206 0.486671
0.955901 0.916411 0.489311
0.236622 0.855924 0.601267
0.236057 0.856229 0.598993
0.235523 0.856565 0.596658
0.234546 0.856596 0.592966
0.233478 0.856489 0.588663
0.23241 0.856306 0.583429
0.231189 0.856077 0.576959
0.229252 0.855283 0.568032
0.227146 0.853986 0.557061
0.225498 0.853223 0.545113
0.224582 0.852674 0.532097
0.223896 0.851972 0.516655
0.22414 0.851148 0.49691
0.225681 0.85005 0.472877
0.229084 0.848753 0.44416
0.236576 0.847059 0.409445
0.267948 0.85127 0.375128
0.330114 0.861524 0.347173
0.405753 0.868849 0.324971
0.500679 0.874052 0.310918
0.570397 0.878721 0.311864
0.637247 0.883711 0.319478
0.725673 0.890059 0.336996
0.841047 0.899992 0.375021
0.885588 0.906569 0.402747
0.918013 0.912062 0.432547
0.945754 0.916655 0.463798
0.956374 0.919646 0.48806
0.9561 0.920546 0.501656
0.955367 0.920775 0.503166
0.954955 0.920943 0.504173
0.954803 0.921172 0.505455
0.954894 0.921477 0.507103
0.242069 0.860594 0.616144
0.240986 0.860273 0.613184
0.239918 0.859922 0.609812
0.238773 0.859525 0.60557
0.237644 0.859113 0.60119
0.23621 0.858503 0.595575
0.234501 0.857664 0.588373
0.232502 0.856718 0.579416
0.230304 0.855802 0.568795
0.228275 0.854734 0.556527
0.227008 0.853956 0.543313
0.226154 0.853193 0.528817
0.227192 0.853193 0.513222
0.229191 0.852949 0.494408
0.23212 0.852461 0.472175
0.237995 0.851728 0.44358
0.266117 0.856825 0.413748
0.317998 0.866712 0.387945
0.380621 0.874784 0.365103
0.450874 0.879606 0.348837
0.548531 0.883024 0.337606
0.618875 0.887755 0.341924
0.69691 0.893172 0.353841
0.786282 0.899718 0.37525
0.874678 0.908263 0.410513
0.913588 0.913024 0.437293
0.941375 0.917098 0.465797
0.955077 0.920424 0.493416
0.955718 0.921996 0.512261
0.955169 0.922469 0.516091
0.954726 0.922576 0.515785
0.954528 0.922652 0.515236
0.954589 0.922683 0.514946
0.243717 0.861631 0.622644
0.242939 0.861433 0.619684
0.242023 0.861082 0.616312
0.24094 0.860563 0.612314
0.239673 0.860014 0.607645
0.238315 0.859403 0.602029
0.236606 0.85864 0.595041
0.234485 0.857572 0.586038
0.232181 0.856519 0.57528
0.229557 0.855314 0.56202
0.227771 0.854307 0.548089
0.226642 0.853437 0.532998
0.227268 0.853284 0.51696
0.229175 0.853147 0.49836
0.231998 0.852689 0.475868
0.237476 0.852049 0.448142
