bundles/resolve-cinematic-luts/Phantom Luts/P4k & P6k Phntm Arri LUTs - V6/P4K/Gen 4 Colour/White Balance Offset (Magenta Boost)/P4k Tungsten Gen4 WBO.cube
TITLE "Generated by Resolve"
LUT_3D_SIZE 5
0 0 0.0062562
0.18999 0.00450141 0.0448768
0.585733 0.0444953 0.146426
0.812757 0.152056 0.262394
0.825376 0.16231 0.282734
0.00463874 0.212711 0.102068
0.153399 0.217258 0.00138857
0.615381 0.174533 0.0926986
0.822919 0.205783 0.20145
0.817029 0.193896 0.200229
0 0.527413 0.271946
0 0.531487 0.104982
0.560265 0.558648 0.0111696
0.916655 0.630884 0.232685
0.928771 0.646998 0.247395
0.115526 0.800153 0.56994
0.0975662 0.791424 0.517449
0.134371 0.769558 0.218387
0.887785 0.852613 0.337865
0.953429 0.882109 0.497932
0.147066 0.82002 0.632853
0.116823 0.802823 0.561517
0.137911 0.780133 0.290394
0.880644 0.853895 0.364294
0.953368 0.888472 0.537072
0.0122835 0.0110628 0.205615
0.206134 0.0116426 0.191928
0.581888 0.0334173 0.284825
0.79324 0.105272 0.364309
0.803006 0.114305 0.386099
0.00779736 0.187106 0.188418
0.164736 0.186862 0.205051
0.664668 0.1252 0.215808
0.821805 0.160998 0.273274
0.82826 0.164569 0.2878
0 0.519356 0.371908
0 0.512032 0.277104
0.550256 0.544732 0.0179599
0.937804 0.60766 0.263111
0.941955 0.618112 0.271626
0.132464 0.806622 0.615503
0.118349 0.801785 0.574411
0.0864576 0.76733 0.286259
0.884047 0.851011 0.32781
0.954498 0.878614 0.493751
0.170916 0.833402 0.680186
0.145144 0.818723 0.626993
0.0911116 0.778317 0.361486
0.856046 0.847425 0.345266
0.953506 0.889311 0.541375
0.127916 0.0367132 0.559045
0.320409 0.0263371 0.550988
0.589044 0.0387274 0.530694
0.766567 0.090135 0.563684
0.766201 0.0927291 0.579644
0 0.0873884 0.467781
0.132937 0.0353704 0.550027
0.563622 0.0352789 0.506874
0.77322 0.0901656 0.525597
0.774014 0.092607 0.539834
0.00595102 0.53608 0.524773
0.00590524 0.534463 0.526375
0.561181 0.538201 0.558541
0.990906 0.528328 0.594537
0.990631 0.522789 0.597864
0.169253 0.815351 0.702983
0.165057 0.814313 0.692271
0.112596 0.7906 0.553658
0.859648 0.840238 0.387533
0.959426 0.870375 0.529442
0.228443 0.864195 0.779293
0.217868 0.858412 0.7608
0.147448 0.819196 0.619318
0.706508 0.815518 0.310658
0.954452 0.893217 0.562722
0.33106 0.074342 0.755673
0.418662 0.0713207 0.76083
0.599954 0.0773785 0.739361
0.72752 0.116258 0.742977
0.727275 0.120211 0.753017
0.119829 0.072282 0.68333
0.325048 0.0731212 0.752285
0.573159 0.0733501 0.741039
0.729335 0.114595 0.736049
0.728725 0.118837 0.747524
0.0607767 0.508476 0.758923
0.0629435 0.488609 0.768383
0.630625 0.379538 0.991958
0.876692 0.289342 0.873411
0.879042 0.293675 0.875669
0.225666 0.833127 0.819928
0.229313 0.835843 0.82388
0.283757 0.854826 0.84712
0.877653 0.860227 0.875502
0.957046 0.864897 0.88925
0.332586 0.917937 0.891981
0.336599 0.918273 0.889647
0.3449 0.913466 0.870512
0.784314 0.93727 0.887968
0.977203 0.963256 0.893645
0.396963 0.0783856 0.772976
0.463691 0.0783551 0.774334
0.62417 0.0877546 0.753902
0.726406 0.120165 0.754131
0.727962 0.121935 0.7561
0.269764 0.0799725 0.750805
0.394553 0.0784924 0.772946
0.599619 0.0846876 0.757946
0.726833 0.120378 0.753933
0.728405 0.122408 0.756512
0.171511 0.468666 0.876127
0.164706 0.436606 0.867338
0.62446 0.272999 0.94754
0.819883 0.224048 0.845945
0.827283 0.233707 0.854322
0.311025 0.868574 0.924681
0.311666 0.869261 0.925429
0.440589 0.892714 0.970626
0.900282 0.823041 0.95903
0.945235 0.822171 0.950011
0.379065 0.936873 0.928771
0.388022 0.939116 0.931701
0.4215 0.944289 0.937407
0.838193 0.966659 0.965194
0.974411 0.972274 0.972686
