bundles/resolve-cinematic-luts/Phantom Luts/P4k & P6k Phntm Arri LUTs - V6/P4K/Gen 4 Colour/White Balance Offset (Magenta Boost)/P4k Tungsten Gen4 WBO.cube
TITLE "Generated by Resolve"
LUT_3D_SIZE 9
0 0 0.0062562
0.0459907 0.000976577 0.0155032
0.18999 0.00450141 0.0448768
0.390555 0.0149996 0.0887465
0.585733 0.0444953 0.146426
0.744701 0.098497 0.213962
0.812757 0.152056 0.262394
0.821286 0.159915 0.274159
0.825376 0.16231 0.282734
0.0103761 0.0781109 0.0498512
0.0258183 0.0748302 0.0174411
0.17911 0.0588235 0.0321202
0.367666 0.0311742 0.049012
0.549844 0.0307927 0.0851759
0.702296 0.0695354 0.154162
0.779339 0.120943 0.211856
0.793744 0.136538 0.226047
0.802762 0.145861 0.235477
0.00463874 0.212711 0.102068
1.5259e-05 0.216999 0.0231785
0.153399 0.217258 0.00138857
0.407095 0.204852 0.0305791
0.615381 0.174533 0.0926986
0.761608 0.180896 0.152361
0.822919 0.205783 0.20145
0.817243 0.195102 0.199374
0.817029 0.193896 0.200229
0 0.363455 0.142931
0 0.367742 0.075349
0 0.361517 0
0.354284 0.379461 0
0.615854 0.40943 0.0204776
0.814374 0.407034 0.158053
0.923552 0.414435 0.251911
0.925475 0.410925 0.254215
0.927413 0.416632 0.255528
0 0.527413 0.271946
0 0.529198 0.225849
0 0.531487 0.104982
0.0784772 0.527459 0
0.560265 0.558648 0.0111696
0.805005 0.596674 0.137377
0.916655 0.630884 0.232685
0.927916 0.638758 0.244846
0.928771 0.646998 0.247395
0.0175174 0.69218 0.434409
0.0133822 0.693141 0.416022
0.000366217 0.691341 0.353017
0 0.677745 0.194247
0.314443 0.690074 0.0230869
0.747066 0.737072 0.152941
0.938048 0.778607 0.311299
0.967468 0.793973 0.363622
0.96759 0.799237 0.367239
0.115526 0.800153 0.56994
0.111757 0.798779 0.558221
0.0975662 0.791424 0.517449
0.0791485 0.779126 0.42649
0.134371 0.769558 0.218387
0.561975 0.792386 0.164721
0.887785 0.852613 0.337865
0.953841 0.880644 0.494835
0.953429 0.882109 0.497932
0.137224 0.814481 0.612757
0.130526 0.810636 0.597238
0.113436 0.80087 0.55494
0.0897383 0.786221 0.467308
0.114412 0.778073 0.306294
0.50222 0.787259 0.220127
0.870604 0.850858 0.353002
0.953643 0.886915 0.530968
0.953429 0.888289 0.536492
0.147066 0.82002 0.632853
0.136934 0.814343 0.610056
0.116823 0.802823 0.561517
0.0897383 0.786053 0.462684
0.137911 0.780133 0.290394
0.540093 0.791012 0.224948
0.880644 0.853895 0.364294
0.953643 0.887617 0.534249
0.953368 0.888472 0.537072
0.0016022 0.00350958 0.0753948
0.0568246 0.00421149 0.0708934
0.195804 0.0104982 0.107179
0.395499 0.0158999 0.151034
0.578378 0.0260471 0.196155
0.741161 0.0800793 0.25745
0.803662 0.126894 0.300069
0.811139 0.133227 0.313085
0.815793 0.136782 0.322606
0.00666819 0.0603189 0.0674449
0.0112459 0.0527352 0.0656291
0.197086 0.0379644 0.0739605
0.38706 0.0225223 0.0963455
0.579736 0.0445716 0.148089
0.74432 0.0991073 0.216312
0.815473 0.154726 0.265568
0.822751 0.160754 0.277012
0.82652 0.163333 0.284352
0.00891127 0.194583 0.143633
0.00793469 0.193378 0.117205
0.136995 0.207736 0.0118257
0.426154 0.162234 0.0726024
0.618814 0.140017 0.106416
0.748226 0.139528 0.161501
0.798383 0.156466 0.202426
0.790951 0.144549 0.201022
0.794003 0.146471 0.205219
0 0.353307 0.203861
0 0.353902 0.159686
0 0.355917 0
0.352255 0.371664 0
0.62501 0.393149 0.0363775
0.82739 0.38204 0.177768
0.920272 0.396094 0.252903
0.920485 0.391836 0.253529
0.922911 0.397864 0.255375
0 0.523201 0.319173
0 0.523049 0.285054
0 0.525277 0.160143
0.0334936 0.523873 0
0.556802 0.55346 0.0112306
0.809918 0.592126 0.142779
0.923613 0.624155 0.24062
0.93019 0.629877 0.248051
0.930571 0.638361 0.250065
0.0243839 0.691112 0.461326
0.0201724 0.691966 0.444648
0.00608835 0.690181 0.387869
0 0.67892 0.230152
0.294759 0.687709 0.024979
0.7449 0.734356 0.151354
0.940963 0.776944 0.317433
0.966949 0.791104 0.367544
0.967575 0.796887 0.372259
0.122423 0.803143 0.58854
0.119295 0.802441 0.57818
0.105562 0.795575 0.540002
0.0811475 0.781125 0.446387
0.110353 0.767437 0.240604
0.549294 0.791104 0.161593
0.886824 0.852049 0.334539
0.954025 0.880064 0.493187
0.953597 0.881392 0.496742
0.146166 0.819532 0.632151
0.139849 0.81593 0.617868
0.122972 0.806271 0.5785
0.0928664 0.788556 0.486885
0.100938 0.777478 0.328908
0.480369 0.785168 0.221714
0.864195 0.849317 0.34847
0.953704 0.88716 0.532448
0.953506 0.888487 0.537713
0.156054 0.82501 0.651499
0.146273 0.819486 0.630472
0.12694 0.80853 0.585916
0.0932021 0.788632 0.484443
0.117861 0.779583 0.313664
0.515282 0.788449 0.224933
0.872602 0.851759 0.357275
0.953658 0.887648 0.534371
0.953414 0.888747 0.538628
0.0122835 0.0110628 0.205615
0.0977646 0.00888075 0.202853
0.206134 0.0116426 0.191928
0.39205 0.0202182 0.242786
0.581888 0.0334173 0.284825
0.733257 0.0626688 0.3299
0.79324 0.105272 0.364309
0.799146 0.110933 0.376059
0.803006 0.114305 0.386099
0 0.0420996 0.15436
0 0.0152438 0.179461
0.177234 0.0121004 0.175952
0.378103 0.0191958 0.198749
0.57232 0.0286259 0.244709
0.739605 0.0731823 0.29366
0.804196 0.120806 0.333577
0.810636 0.126589 0.345647
0.814893 0.129976 0.355901
0.00779736 0.187106 0.188418
0.00729381 0.182208 0.186679
0.164736 0.186862 0.205051
0.443336 0.161807 0.209689
0.664668 0.1252 0.215808
0.777432 0.13196 0.243702
0.821805 0.160998 0.273274
0.824659 0.162188 0.280735
0.82826 0.164569 0.2878
0 0.34873 0.266575
0 0.345083 0.249073
0 0.341817 0.167178
0.359258 0.371756 0.0746929
0.650431 0.363027 0.144869
0.853178 0.336828 0.221012
0.917906 0.357382 0.270039
0.914519 0.34902 0.268605
0.917769 0.354894 0.271748
0 0.519356 0.371908
0 0.518349 0.355169
0 0.512032 0.277104
0 0.520317 0.0222019
0.550256 0.544732 0.0179599
0.819684 0.58349 0.163989
0.937804 0.60766 0.263111
0.941039 0.6094 0.267353
0.941955 0.618112 0.271626
0.0340429 0.688457 0.496574
0.0315099 0.689982 0.486244
0.018143 0.687633 0.441581
0 0.679698 0.292927
0.24506 0.683467 0.0335393
0.740398 0.728969 0.148592
0.945296 0.772869 0.329137
0.966018 0.785626 0.375036
0.966827 0.791058 0.380774
0.132464 0.806622 0.615503
0.130266 0.806821 0.60734
0.118349 0.801785 0.574411
0.0869764 0.785061 0.481483
0.0864576 0.76733 0.286259
0.524865 0.788418 0.155261
0.884047 0.851011 0.32781
0.954925 0.877302 0.490196
0.954498 0.878614 0.493751
0.16054 0.827543 0.66157
0.155062 0.824491 0.650065
0.139483 0.815641 0.615915
0.104219 0.795544 0.528054
0.0883345 0.778363 0.371374
0.43653 0.782162 0.226444
0.850767 0.845899 0.339239
0.953689 0.887358 0.533806
0.953582 0.888884 0.540154
0.170916 0.833402 0.680186
0.162997 0.828931 0.664637
0.145144 0.818723 0.626993
0.106172 0.796597 0.530861
0.0911116 0.778317 0.361486
0.463783 0.783566 0.229374
0.856046 0.847425 0.345266
0.95349 0.886458 0.527764
0.953506 0.889311 0.541375
0.0540932 0.0231327 0.383886
0.135332 0.0192264 0.382177
0.252277 0.0184176 0.360616
0.402564 0.0202182 0.358007
0.583795 0.0345617 0.413993
0.74374 0.0701305 0.431266
0.778149 0.0892042 0.456016
0.778714 0.0900282 0.46302
0.779644 0.0912032 0.47187
0 0.0247349 0.320027
0.0276493 0.0225071 0.364202
0.214191 0.0162203 0.363699
0.386236 0.0196536 0.343359
0.575372 0.034287 0.38909
0.74078 0.0690623 0.411597
0.779889 0.090135 0.430732
0.782742 0.0931868 0.439292
0.784604 0.0951247 0.449119
0 0.17023 0.318715
0 0.155962 0.331518
0.141268 0.118135 0.42359
0.406302 0.0838941 0.369665
0.584665 0.057908 0.356466
0.733944 0.0661784 0.366537
0.797101 0.108141 0.3935
0.80322 0.114305 0.404059
0.80621 0.117144 0.413962
0 0.353902 0.347311
0 0.352148 0.347356
0 0.349767 0.350103
0.377569 0.360372 0.381796
0.668803 0.337407 0.390021
0.901198 0.298558 0.391516
0.922621 0.281743 0.385977
0.917769 0.272725 0.384878
0.922347 0.278264 0.394202
0 0.524193 0.439109
0 0.5234 0.433616
0 0.514794 0.404929
0.026627 0.51017 0.304463
0.54493 0.54493 0.233448
0.848081 0.568338 0.300114
0.971527 0.577371 0.349462
0.973251 0.574441 0.355001
0.973846 0.583368 0.362585
0.05037 0.687266 0.545556
0.0497749 0.689204 0.541329
0.0423133 0.686931 0.518013
0.0117952 0.676966 0.424521
0.105013 0.683101 0.129366
0.731487 0.720531 0.156252
0.95172 0.766171 0.361364
0.961776 0.775311 0.394049
0.962509 0.780148 0.401343
0.145907 0.809033 0.652003
0.145434 0.810101 0.648478
0.136522 0.806271 0.627085
0.109224 0.793408 0.557031
0.0764324 0.773877 0.374731
0.471839 0.783581 0.148379
0.878126 0.847456 0.313863
0.95697 0.871931 0.486976
0.956451 0.873793 0.49192
0.182605 0.839872 0.703151
0.178927 0.837888 0.695903
0.167086 0.831174 0.672786
0.136431 0.81384 0.607065
0.0895552 0.785168 0.448722
0.348424 0.780346 0.242893
0.812207 0.836378 0.318502
0.952926 0.885206 0.522148
0.953735 0.889677 0.544427
0.19382 0.845731 0.722927
0.188067 0.842695 0.711788
0.175113 0.835645 0.686549
0.141833 0.816709 0.617487
0.090486 0.785504 0.449729
0.361761 0.780255 0.244602
0.809476 0.836072 0.320623
0.952651 0.883894 0.512352
0.953689 0.890181 0.546471
0.127916 0.0367132 0.559045
0.199084 0.0326238 0.561898
0.320409 0.0263371 0.550988
0.431846 0.0253147 0.523049
0.589044 0.0387274 0.530694
0.734112 0.0734722 0.556054
0.766567 0.090135 0.563684
0.766461 0.0912032 0.570108
0.766201 0.0927291 0.579644
0 0.0361486 0.501839
0.106905 0.0366064 0.549294
0.275196 0.0275273 0.555398
0.416556 0.0305791 0.523644
0.580468 0.0373693 0.522576
0.732174 0.0717174 0.546456
0.769223 0.0902266 0.551049
0.769177 0.0911269 0.556786
0.769207 0.092668 0.566232
0 0.0873884 0.467781
0 0.051545 0.46688
0.132937 0.0353704 0.550027
0.378851 0.0278935 0.522103
0.563622 0.0352789 0.506874
0.728695 0.0684825 0.524437
0.77322 0.0901656 0.525597
0.773907 0.0914015 0.530617
0.774014 0.092607 0.539834
0 0.349783 0.506432
0 0.341939 0.514336
0 0.315724 0.537972
0.388556 0.263554 0.648844
0.633753 0.222309 0.582513
0.827787 0.182223 0.558907
0.840589 0.159701 0.544839
0.833829 0.151492 0.53933
0.836057 0.15491 0.54931
0.00595102 0.53608 0.524773
0.00598154 0.537285 0.52726
0.00590524 0.534463 0.526375
0.131548 0.548821 0.549203
0.561181 0.538201 0.558541
0.862623 0.536782 0.583947
0.990906 0.528328 0.594537
0.990951 0.516289 0.589624
0.990631 0.522789 0.597864
0.0741588 0.6916 0.608774
0.0756542 0.694163 0.609949
0.073518 0.692683 0.601144
0.0628519 0.682918 0.568231
0.25391 0.676036 0.48191
0.720363 0.723507 0.456153
0.945708 0.762249 0.524193
0.957702 0.76173 0.513054
0.957076 0.76643 0.520806
0.169253 0.815351 0.702983
0.170047 0.816785 0.702892
0.165057 0.814313 0.692271
0.148959 0.805524 0.658717
0.112596 0.7906 0.553658
0.37113 0.774334 0.32285
0.859648 0.840238 0.387533
0.959777 0.869017 0.525429
0.959426 0.870375 0.529442
0.217197 0.858167 0.762173
0.215702 0.857359 0.759472
0.208713 0.85359 0.7467
0.190051 0.843641 0.711101
0.140612 0.815534 0.607156
0.236225 0.786908 0.346731
0.726085 0.818235 0.305409
0.951431 0.884321 0.517983
0.954467 0.89308 0.562249
0.228443 0.864195 0.779293
0.225452 0.862577 0.774044
0.217868 0.858412 0.7608
0.198093 0.847807 0.724254
0.147448 0.819196 0.619318
0.244617 0.787503 0.359777
0.706508 0.815518 0.310658
0.938674 0.876905 0.482795
0.954452 0.893217 0.562722
0.234714 0.0549783 0.691432
0.283986 0.0514687 0.697002
0.373785 0.0466163 0.699168
0.480507 0.0467384 0.68484
0.585184 0.0522011 0.667323
0.717311 0.0870527 0.658763
0.746487 0.100511 0.666133
0.745296 0.102022 0.67332
0.744549 0.10425 0.681804
0.140597 0.0561532 0.66009
0.218601 0.0548714 0.685939
0.336263 0.0480354 0.698543
0.463142 0.0455482 0.685817
0.576089 0.0504311 0.666224
0.714855 0.0853437 0.655268
0.747402 0.10013 0.662928
0.747448 0.10161 0.667521
0.746685 0.103792 0.676097
0 0.0477302 0.550759
0.0198672 0.0527047 0.596613
0.236469 0.0530709 0.686854
0.425803 0.0443427 0.688853
0.557946 0.0472572 0.663737
0.710063 0.0818647 0.647547
0.747265 0.0991989 0.66006
0.747799 0.100465 0.662943
0.747951 0.102495 0.669337
0 0.260365 0.631846
0 0.242664 0.632136
0 0.190097 0.628473
0.342687 0.0899062 0.742931
0.549096 0.0719158 0.698039
0.70338 0.0787518 0.639246
0.752544 0.0975509 0.641917
0.752895 0.0984512 0.64419
0.752834 0.100725 0.652354
0.035523 0.542977 0.669795
0.0365148 0.542092 0.675212
0.0365148 0.534066 0.682918
0.162112 0.550851 0.777584
0.601312 0.482887 0.847715
0.828 0.43801 0.769421
0.930114 0.402808 0.768063
0.92784 0.386343 0.765072
0.927794 0.393866 0.774548
0.103136 0.701457 0.687846
0.106767 0.705196 0.692805
0.108751 0.706218 0.694957
0.109682 0.703838 0.694972
0.398917 0.732113 0.735393
0.736934 0.713268 0.734188
0.953857 0.720394 0.760418
0.970138 0.716869 0.763836
0.969329 0.721553 0.769589
0.197284 0.823499 0.761913
0.199588 0.825681 0.764431
0.197986 0.82446 0.760464
0.193301 0.82031 0.748165
0.220172 0.822034 0.723918
0.544198 0.823484 0.691936
0.878202 0.869596 0.692149
0.965469 0.888823 0.735592
0.965377 0.890486 0.741466
0.256809 0.87985 0.820447
0.256809 0.879942 0.820279
0.253788 0.878187 0.814939
0.245808 0.873671 0.800946
0.226856 0.862715 0.765576
0.406226 0.843793 0.687922
0.696117 0.877638 0.642924
0.954482 0.917723 0.685023
0.966613 0.928283 0.725292
0.270588 0.887694 0.837888
0.269444 0.887037 0.835492
0.265522 0.884779 0.828626
0.255604 0.878981 0.811963
0.235889 0.867369 0.775387
0.417517 0.848432 0.701808
0.678492 0.876844 0.649058
0.934234 0.910872 0.662684
0.965331 0.926284 0.714611
0.33106 0.074342 0.755673
0.358968 0.0730297 0.758236
0.418662 0.0713207 0.76083
0.506142 0.0723125 0.756008
0.599954 0.0773785 0.739361
0.700633 0.104417 0.73611
0.72752 0.116258 0.742977
0.727153 0.118318 0.748547
0.727275 0.120211 0.753017
0.278874 0.0749218 0.744457
0.320302 0.0742199 0.753246
0.390646 0.0716716 0.759655
0.489616 0.0715038 0.757031
0.591318 0.0760967 0.740063
0.696971 0.102892 0.735027
0.728222 0.115862 0.740963
0.727687 0.118044 0.747112
0.727825 0.119829 0.751293
0.119829 0.072282 0.68333
0.20351 0.0742657 0.719509
0.325048 0.0731212 0.752285
0.455924 0.0702678 0.758129
0.573159 0.0733501 0.741039
0.689372 0.100114 0.733532
0.729335 0.114595 0.736049
0.728923 0.116609 0.74165
0.728725 0.118837 0.747524
0 0.126986 0.640131
0 0.0991073 0.629053
0.0288243 0.0661326 0.629923
0.358251 0.0712139 0.754803
0.530297 0.0691844 0.744961
0.67126 0.0940261 0.730953
0.732418 0.112902 0.726894
0.732341 0.11429 0.730495
0.732082 0.116411 0.736385
0.0607767 0.508476 0.758923
0.061677 0.504829 0.762249
0.0629435 0.488609 0.768383
0.231098 0.482841 0.907637
0.630625 0.379538 0.991958
0.821347 0.332174 0.918776
0.876692 0.289342 0.873411
0.872908 0.28072 0.864713
0.879042 0.293675 0.875669
0.144411 0.710338 0.790799
0.14876 0.713756 0.796353
0.151431 0.713207 0.801785
0.176944 0.717815 0.830243
0.472862 0.77792 0.952941
0.779019 0.68159 0.941756
0.925017 0.655543 0.890776
0.937926 0.645151 0.889494
0.937423 0.651759 0.893797
0.225666 0.833127 0.819928
0.228534 0.83563 0.823133
0.229313 0.835843 0.82388
0.231464 0.835691 0.824643
0.283757 0.854826 0.84712
0.652354 0.871275 0.875425
0.877653 0.860227 0.875502
0.957366 0.863539 0.886061
0.957046 0.864897 0.88925
0.310597 0.908095 0.875196
0.314549 0.910063 0.877623
0.317739 0.910948 0.877043
0.318395 0.908843 0.87129
0.322362 0.903593 0.858152
0.569589 0.912566 0.866682
0.804837 0.932967 0.882795
0.960601 0.952209 0.880888
0.97525 0.954772 0.89868
0.332586 0.917937 0.891981
0.334356 0.918303 0.891981
0.336599 0.918273 0.889647
0.339635 0.917327 0.884016
0.3449 0.913466 0.870512
0.566674 0.917861 0.872526
0.784314 0.93727 0.887968
0.932555 0.955535 0.869886
0.977203 0.963256 0.893645
0.38761 0.0786755 0.772442
0.409903 0.0784009 0.773953
0.456962 0.078233 0.774456
0.531823 0.0803845 0.768994
0.619638 0.087068 0.754543
0.705531 0.110246 0.750637
0.726879 0.120668 0.75462
0.727443 0.121141 0.754864
0.727764 0.121706 0.755825
0.353353 0.0793927 0.768841
0.381125 0.0789044 0.772076
0.43447 0.0781567 0.774594
0.517403 0.0800031 0.770916
0.611505 0.0859693 0.755825
0.702083 0.109453 0.751278
0.727016 0.120806 0.754742
0.727642 0.121492 0.755459
0.728008 0.122042 0.756283
0.247883 0.0799878 0.744259
0.302785 0.0803845 0.760128
0.38558 0.0788891 0.772534
0.488518 0.0789044 0.773205
0.595132 0.084123 0.758541
0.694957 0.107561 0.751995
0.727184 0.120745 0.754284
0.727886 0.121508 0.755062
0.728283 0.122271 0.75639
0.0778668 0.0759289 0.671427
0.090135 0.0761425 0.677882
0.167865 0.0790112 0.7149
0.414343 0.0783703 0.774166
0.554559 0.0805066 0.764553
0.678981 0.104051 0.754543
0.72755 0.121035 0.754421
0.728405 0.12192 0.75523
0.728862 0.122805 0.756756
0.128664 0.481331 0.839414
0.136446 0.477684 0.846723
0.153399 0.456397 0.860197
0.320287 0.402686 0.952865
0.631662 0.294377 0.960922
0.799603 0.264073 0.900084
0.832151 0.239063 0.858152
0.826261 0.231617 0.851942
0.838041 0.247242 0.864912
0.193774 0.718929 0.863554
0.200076 0.72343 0.869734
0.208331 0.725002 0.879118
0.259953 0.735134 0.924514
0.527718 0.761669 1
0.813748 0.640009 0.990127
0.930556 0.616953 0.950469
0.93611 0.608209 0.94847
0.935805 0.615351 0.949538
0.25948 0.845106 0.87953
0.262882 0.847669 0.882811
0.269306 0.850553 0.888823
0.302068 0.863355 0.912322
0.428885 0.893797 0.964981
0.709407 0.895903 0.977829
0.897597 0.833326 0.958831
0.946059 0.829618 0.947341
0.946075 0.831083 0.948714
0.348013 0.924361 0.913207
0.351507 0.925856 0.915587
0.353887 0.92575 0.916152
0.357092 0.924605 0.915358
0.368704 0.923384 0.914961
0.616663 0.942931 0.940398
0.84654 0.945434 0.948837
0.951247 0.94168 0.949615
0.965316 0.942016 0.950912
0.378149 0.936736 0.92871
0.381613 0.937713 0.930144
0.385306 0.938155 0.929961
0.393164 0.938842 0.929137
0.405646 0.937209 0.92221
0.621485 0.948684 0.936202
0.841199 0.961044 0.951034
0.940047 0.969284 0.959075
0.976287 0.972564 0.957
0.396963 0.0783856 0.772976
0.418341 0.0783093 0.774289
0.463691 0.0783551 0.774334
0.536614 0.0797589 0.76733
0.62417 0.0877546 0.753902
0.708843 0.111101 0.750195
0.726406 0.120165 0.754131
0.727657 0.121447 0.755322
0.727962 0.121935 0.7561
0.36466 0.0789502 0.770031
0.390753 0.0785382 0.772656
0.441733 0.0782025 0.774685
0.523095 0.080354 0.770474
0.616053 0.0866102 0.755184
0.705135 0.109941 0.750332
0.726574 0.120348 0.754314
0.727825 0.121691 0.755642
0.728176 0.122255 0.756527
0.269764 0.0799725 0.750805
0.320699 0.0804456 0.764248
0.394553 0.0784924 0.772946
0.494591 0.0790875 0.772808
0.599619 0.0846876 0.757946
0.697749 0.108156 0.751476
0.726833 0.120378 0.753933
0.728038 0.12166 0.755215
0.728405 0.122408 0.756512
0.0839094 0.0757305 0.674632
0.0964218 0.076585 0.681407
0.19971 0.079942 0.728069
0.42266 0.0781262 0.774273
0.559304 0.0808881 0.763943
0.681422 0.10457 0.754162
0.727413 0.120897 0.754284
0.728511 0.122026 0.755337
0.728923 0.122866 0.756802
0.171511 0.468666 0.876127
0.170245 0.462913 0.8748
0.164706 0.436606 0.867338
0.31873 0.374182 0.943175
0.62446 0.272999 0.94754
0.788205 0.246967 0.888151
0.819883 0.224048 0.845945
0.813016 0.215885 0.838972
0.827283 0.233707 0.854322
0.250645 0.738506 0.91809
0.252583 0.741176 0.919341
0.251225 0.738125 0.918944
0.273075 0.733516 0.936172
0.529 0.752728 1
0.814786 0.629023 0.989487
0.930922 0.607233 0.950607
0.935714 0.59881 0.949111
0.93547 0.607401 0.94966
0.311025 0.868574 0.924681
0.312032 0.870085 0.925277
0.311666 0.869261 0.925429
0.339605 0.876051 0.940841
0.440589 0.892714 0.970626
0.71191 0.891051 0.981247
0.900282 0.823041 0.95903
0.945312 0.819745 0.949554
0.945235 0.822171 0.950011
0.349081 0.925246 0.921416
0.353887 0.927123 0.924041
0.361059 0.92874 0.926696
0.376333 0.93109 0.93225
0.412238 0.934432 0.942031
0.645396 0.950729 0.962341
0.857725 0.946731 0.96463
0.952819 0.933761 0.963668
0.963043 0.934508 0.962417
0.379065 0.936873 0.928771
0.382254 0.93785 0.930297
0.388022 0.939116 0.931701
0.399298 0.941131 0.933898
0.4215 0.944289 0.937407
0.626596 0.956924 0.95288
0.838193 0.966659 0.965194
0.944488 0.972213 0.971862
0.974411 0.972274 0.972686
