bundles/resolve-cinematic-luts/Phantom Luts/P4k & P6k Phntm Arri LUTs - V6/P4K/Gen 4 Colour/White Balance Offset (Magenta Boost)/P4k Utopia Gen4-Legacy WBO.cube
TITLE "Generated by Resolve"
LUT_3D_SIZE 9
0.00621042 0.0319371 0.0404364
0.0496223 0.0328069 0.0487373
0.1514 0.0350805 0.0531472
0.309468 0.0333257 0.0587015
0.502602 0.033875 0.0782025
0.687495 0.0497292 0.118334
0.812421 0.0801862 0.161822
0.823636 0.0978103 0.176822
0.837949 0.106966 0.185046
0 0.0749371 0.0565347
0.0331121 0.0712596 0.0369879
0.127916 0.061677 0.0538033
0.272328 0.0441444 0.0443275
0.457435 0.0257572 0.0391241
0.641337 0.0319829 0.0627604
0.796185 0.0587778 0.118517
0.808743 0.0719768 0.132387
0.83061 0.0744182 0.136004
0 0.18616 0.0630503
0 0.187945 0
0.119036 0.179873 0.0208743
0.304799 0.158724 0.0547036
0.50013 0.128618 0.0729686
0.678309 0.12369 0.0870832
0.828519 0.127626 0.116045
0.833661 0.121004 0.116136
0.839246 0.109407 0.109529
0 0.370809 0.0981155
0 0.384527 0.0238956
0.00917067 0.380118 0
0.298054 0.367681 0.0354772
0.52285 0.368338 0.050782
0.728527 0.334157 0.135988
0.896147 0.327337 0.190082
0.914046 0.330251 0.196826
0.915053 0.326604 0.194141
0 0.588769 0.228183
0 0.604486 0.159701
0 0.612345 0.0484932
0.142321 0.614099 0
0.533639 0.571664 0.0771649
0.732296 0.569528 0.113222
0.907988 0.559777 0.198596
0.934585 0.568368 0.217777
0.934585 0.566644 0.216648
0 0.802304 0.401129
0 0.81529 0.356817
0 0.839597 0.25771
0.0476387 0.83621 0.0813458
0.4056 0.829206 0.0663462
0.745556 0.77969 0.162402
0.92668 0.77351 0.248936
0.964355 0.780179 0.30869
0.964858 0.780102 0.303777
0.0375067 0.970901 0.540627
0.033753 0.977142 0.510643
0.0343328 0.987808 0.448081
0.0594797 0.997101 0.325414
0.235462 0.998093 0.128969
0.64329 0.959426 0.193042
0.930465 0.924132 0.305776
0.989517 0.922728 0.454688
0.989273 0.923003 0.452964
0.0488289 0.976532 0.599741
0.045182 0.979248 0.573693
0.043061 0.984482 0.521523
0.0586252 0.996109 0.432944
0.173068 0.999969 0.288914
0.591684 0.985367 0.28098
0.898604 0.932616 0.361883
0.988098 0.930983 0.498161
0.986068 0.932082 0.518791
0.0462806 0.976761 0.61912
0.0446479 0.978836 0.594232
0.0438697 0.982971 0.544839
0.0542306 0.994842 0.448386
0.145983 0.999969 0.297642
0.565667 0.989883 0.27892
0.881575 0.9337 0.357321
0.988418 0.930541 0.488106
0.985092 0.93225 0.51957
0.00747692 0.0344549 0.0794537
0.0496223 0.0336767 0.0840162
0.161715 0.0314946 0.0990768
0.324193 0.0255283 0.108553
0.513161 0.0271153 0.125017
0.698482 0.0489662 0.161975
0.824262 0.07953 0.203647
0.829679 0.0861982 0.217304
0.839887 0.0872511 0.225147
0.00416571 0.0591745 0.0700847
0.0264134 0.0556802 0.0670939
0.150652 0.0448157 0.0625772
0.300191 0.0350347 0.0606546
0.493782 0.0355383 0.0796826
0.683131 0.0505074 0.118791
0.822782 0.0790723 0.161639
0.832731 0.0971542 0.176989
0.846159 0.106172 0.184909
0 0.160632 0.114275
0 0.167178 0.0631571
0.116716 0.165881 0.0337987
0.319936 0.116854 0.06804
0.501747 0.0989242 0.066331
0.678645 0.0905013 0.0820172
0.815702 0.0837415 0.104097
0.814694 0.0742504 0.10248
0.82417 0.0677043 0.100023
0 0.340215 0.158282
0 0.354437 0.0944228
0 0.368215 0
0.293355 0.355962 0.0378729
0.533715 0.342672 0.0615091
0.736858 0.302327 0.145464
0.897292 0.309422 0.188403
0.909209 0.310384 0.192264
0.910201 0.306096 0.188891
0 0.565362 0.279225
0 0.578576 0.221378
0 0.603265 0.0924697
0.110292 0.607584 0
0.527596 0.563806 0.0767681
0.735714 0.558419 0.115831
0.912352 0.546761 0.206699
0.93431 0.552895 0.221973
0.93431 0.550866 0.220172
0 0.782818 0.43508
0 0.79353 0.396048
0 0.817182 0.309285
0.0323796 0.829526 0.121828
0.385077 0.825101 0.0643778
0.740063 0.772442 0.161486
0.92575 0.764996 0.25275
0.96141 0.771145 0.312398
0.961517 0.770413 0.308049
0.0381018 0.963058 0.562539
0.0340887 0.96878 0.53521
0.0324865 0.979553 0.478752
0.0502174 0.994797 0.351232
0.191363 0.998169 0.135714
0.633082 0.959686 0.188495
0.927749 0.922332 0.299779
0.989441 0.920623 0.453025
0.989212 0.920729 0.451713
0.0470588 0.975723 0.621897
0.0483253 0.976883 0.598856
0.045304 0.981353 0.551537
0.0514687 0.993576 0.455344
0.136584 0.999969 0.304143
0.561913 0.990723 0.280507
0.886229 0.933486 0.359197
0.988373 0.9308 0.494484
0.985061 0.932265 0.519875
0.0494392 0.974868 0.640757
0.050721 0.975952 0.618601
0.0466926 0.980117 0.572931
0.0488746 0.99173 0.472221
0.121965 0.999969 0.319097
0.532189 0.994629 0.278538
0.86302 0.935927 0.355535
0.988846 0.930282 0.482643
0.984237 0.932433 0.521096
0 0.0398566 0.179614
0.0637217 0.0351873 0.171618
0.164782 0.0324102 0.170184
0.329259 0.030045 0.191531
0.525734 0.0289921 0.205798
0.710201 0.0464942 0.240055
0.818128 0.0675822 0.270954
0.821164 0.0719921 0.28426
0.830076 0.0724804 0.2934
0 0.0549477 0.134874
0.00404364 0.0394751 0.1682
0.14136 0.0333257 0.152224
0.318349 0.029572 0.151278
0.515099 0.0257725 0.168338
0.701411 0.0469062 0.197696
0.82359 0.0756847 0.235904
0.82829 0.0818341 0.248966
0.837797 0.0826886 0.257527
0 0.149264 0.156786
0 0.144427 0.154314
0.11751 0.144884 0.161196
0.336461 0.120684 0.144183
0.545785 0.0894179 0.130816
0.726665 0.0853742 0.149767
0.83061 0.100496 0.177661
0.833814 0.107897 0.184985
0.842847 0.10985 0.1906
0 0.314336 0.219486
0 0.313024 0.19292
0 0.336629 0.0981765
0.29807 0.341314 0.0897231
0.552682 0.298314 0.131868
0.763851 0.261555 0.165209
0.896773 0.273838 0.195926
0.896925 0.268894 0.194919
0.898253 0.262501 0.19089
0 0.537087 0.33698
0 0.540795 0.306004
0 0.561517 0.208179
0.0268711 0.59823 0.000350958
0.51841 0.551705 0.0817731
0.747341 0.537026 0.13756
0.921584 0.519738 0.230472
0.935485 0.521798 0.241337
0.935531 0.51873 0.240635
0 0.75613 0.476493
0 0.761746 0.451316
0 0.77789 0.38645
0.00831617 0.814176 0.19556
0.340032 0.820615 0.0627451
0.731334 0.760388 0.16144
0.924056 0.749554 0.262821
0.956786 0.754696 0.319585
0.956466 0.753002 0.317388
0.0389105 0.948806 0.594507
0.0340124 0.953811 0.572122
0.0316625 0.963195 0.525704
0.0361486 0.985763 0.402182
0.131182 0.997391 0.171466
0.612146 0.960098 0.180179
0.922667 0.919432 0.290333
0.989029 0.915908 0.450889
0.988556 0.915572 0.450324
0.0520027 0.973022 0.656809
0.0494698 0.974502 0.636454
0.0496681 0.97705 0.596704
0.0444648 0.987762 0.498436
0.100771 0.999954 0.344488
0.507561 0.99704 0.280598
0.859449 0.936416 0.356298
0.988754 0.930495 0.488716
0.984955 0.932342 0.521401
0.0553597 0.972763 0.674098
0.0525978 0.973983 0.655177
0.0528878 0.975937 0.616236
0.0463264 0.985153 0.522438
0.0897993 0.999741 0.362921
0.478828 0.998596 0.280293
0.826963 0.942229 0.353109
0.988067 0.930098 0.472389
0.983963 0.932555 0.523186
0 0.0449836 0.333059
0.0742962 0.0381018 0.322576
0.174838 0.0332341 0.309209
0.330465 0.0328832 0.303502
0.509148 0.0394598 0.340826
0.725155 0.0606546 0.353826
0.807889 0.0737774 0.385077
0.808423 0.0756085 0.395071
0.814969 0.0743725 0.402548
0 0.0547341 0.284184
0.00350958 0.0440833 0.323857
0.142458 0.0334936 0.308278
0.315602 0.0326238 0.290028
0.503349 0.0384527 0.315648
0.718746 0.0569467 0.326253
0.809689 0.0694743 0.355581
0.810559 0.0715038 0.365286
0.817761 0.0705425 0.37261
0 0.136019 0.253666
0 0.123293 0.269749
0.080354 0.0931106 0.350103
0.318761 0.0685893 0.301183
0.511009 0.0520638 0.277089
0.70486 0.052903 0.283238
0.81529 0.0723125 0.304692
0.818173 0.0775006 0.31606
0.825696 0.0786145 0.324208
0 0.295659 0.294392
0 0.290654 0.291814
0 0.291615 0.299123
0.294118 0.300298 0.328023
0.556222 0.272496 0.304875
0.813031 0.24567 0.293278
0.883604 0.226688 0.284794
0.881132 0.21738 0.285985
0.882292 0.211368 0.285527
0 0.514702 0.405859
0 0.511788 0.393515
0 0.509194 0.359915
0.0331884 0.55256 0.28275
0.501396 0.525185 0.248402
0.761166 0.497475 0.269718
0.936355 0.468894 0.302159
0.93756 0.465797 0.306279
0.937331 0.462425 0.30634
0 0.727245 0.529686
0 0.727367 0.516472
0 0.730129 0.486107
0 0.755032 0.374166
0.199786 0.825666 0.12137
0.718288 0.742931 0.184939
0.92694 0.720363 0.299351
0.950896 0.72604 0.339986
0.950225 0.722362 0.339986
0.0421759 0.926757 0.638468
0.0363317 0.929534 0.62414
0.034226 0.933837 0.594263
0.0296483 0.950439 0.510964
0.0770581 0.991196 0.295827
0.566812 0.965774 0.197192
0.914321 0.912932 0.276051
0.987472 0.905272 0.449866
0.986694 0.903777 0.451331
0.0611734 0.970184 0.70724
0.0577401 0.971557 0.69308
0.0572213 0.97232 0.665125
0.0512245 0.977859 0.592447
0.0644999 0.996963 0.428412
0.415702 0.999969 0.288701
0.806928 0.946227 0.353445
0.98912 0.929992 0.477791
0.98468 0.932525 0.524941
0.0646677 0.969482 0.722194
0.0619211 0.970825 0.7084
0.0596475 0.97229 0.680949
0.0556802 0.976242 0.611994
0.0585794 0.995392 0.445899
0.377997 0.999969 0.293858
0.777722 0.952758 0.349035
0.981125 0.929778 0.451118
0.983932 0.932738 0.52752
0.0209201 0.0499733 0.49897
0.102373 0.0431373 0.4916
0.216373 0.035462 0.47921
0.34168 0.036759 0.460639
0.510811 0.0464485 0.459648
0.717586 0.0698711 0.488533
0.795361 0.0839704 0.50808
0.795056 0.0848096 0.518273
0.801236 0.0831311 0.528511
0 0.0571603 0.47097
0.0228885 0.0494392 0.49337
0.171695 0.0379034 0.482246
0.321233 0.0363775 0.458442
0.502495 0.045716 0.451637
0.709224 0.0683146 0.479316
0.797299 0.0831464 0.490852
0.797467 0.0839399 0.499672
0.803601 0.0818952 0.508751
0 0.0915694 0.420233
0 0.0723125 0.438666
0.0550088 0.0471046 0.493034
0.27863 0.0366522 0.458305
0.485573 0.0440223 0.436149
0.694301 0.065919 0.452567
0.796994 0.0825208 0.456123
0.797391 0.0834516 0.463752
0.803738 0.0816358 0.470817
0 0.273716 0.41236
0 0.263752 0.417365
0 0.244633 0.446555
0.263203 0.216342 0.53904
0.533776 0.191562 0.497749
0.775311 0.163134 0.471778
0.836637 0.142016 0.463981
0.833432 0.135195 0.458198
0.834165 0.128374 0.456443
0 0.495964 0.487114
0 0.492561 0.485695
0 0.48629 0.482094
0.076463 0.500221 0.50753
0.485512 0.475517 0.504326
0.754009 0.457725 0.486351
0.933608 0.438575 0.474693
0.935012 0.422248 0.466194
0.932845 0.412757 0.462028
0 0.702876 0.590463
0 0.700755 0.585351
0 0.69662 0.571893
0 0.694072 0.537606
0.26508 0.732845 0.487831
0.678355 0.693004 0.452232
0.919097 0.678172 0.469795
0.950149 0.675868 0.454994
0.949508 0.669245 0.449958
0.0494698 0.901778 0.691905
0.0445716 0.902098 0.68365
0.0427405 0.901259 0.667475
0.0400397 0.902358 0.62887
0.0500649 0.940444 0.518456
0.47422 0.979461 0.371542
0.892821 0.903014 0.420523
0.980682 0.888472 0.487694
0.979644 0.884413 0.484108
0.079118 0.965545 0.776272
0.0734112 0.96701 0.767346
0.0704814 0.968292 0.74902
0.0695811 0.970504 0.706874
0.0607462 0.978866 0.595834
0.287739 0.999969 0.397528
0.753872 0.961349 0.365927
0.985855 0.930465 0.47744
0.98352 0.933318 0.541314
0.0802625 0.965637 0.789578
0.0773327 0.966537 0.780362
0.0740978 0.967819 0.761456
0.072694 0.970031 0.719188
0.0624247 0.977478 0.611032
0.196948 0.999969 0.384329
0.698436 0.973053 0.346303
0.966445 0.929839 0.425376
0.983719 0.933181 0.538216
0.0870375 0.0564736 0.643977
0.156909 0.0515908 0.638163
0.260105 0.0458381 0.63061
0.377813 0.0439612 0.613916
0.513146 0.0568246 0.607202
0.716869 0.0807965 0.612467
0.782849 0.0942245 0.639246
0.780072 0.0965896 0.654231
0.787762 0.0941787 0.667475
0 0.0626078 0.631556
0.0873579 0.0561837 0.640223
0.217746 0.0478218 0.633005
0.35816 0.0436255 0.615366
0.501167 0.0558938 0.604761
0.710216 0.0792706 0.605432
0.783734 0.0935836 0.633188
0.783597 0.094789 0.645899
0.791302 0.0923018 0.658244
0 0.0696727 0.575357
0 0.066804 0.603037
0.114855 0.0540932 0.637003
0.313466 0.0435492 0.619165
0.477012 0.0539101 0.599496
0.693782 0.0772717 0.590936
0.779843 0.0945754 0.621408
0.78027 0.0955062 0.629572
0.788174 0.0929122 0.639246
0 0.222766 0.547646
0 0.205737 0.558114
0 0.169421 0.593698
0.220142 0.105013 0.682139
0.466468 0.0906691 0.638926
0.684031 0.0835279 0.586206
0.784192 0.0930495 0.588617
0.784421 0.0928511 0.586358
0.7906 0.0906691 0.592096
0 0.473838 0.603632
0 0.467735 0.605097
0 0.45568 0.607217
0.0319066 0.466209 0.659312
0.472892 0.415106 0.723125
0.745113 0.392157 0.67747
0.899077 0.362875 0.662699
0.893385 0.3411 0.656916
0.889494 0.328588 0.652796
0 0.681834 0.665339
0 0.679561 0.664622
0 0.674693 0.662165
0 0.666346 0.658106
0.31429 0.671107 0.680827
0.660487 0.638331 0.666041
0.908019 0.624842 0.651011
0.939879 0.616373 0.6495
0.93875 0.609796 0.645762
0.0558175 0.877134 0.751873
0.0501411 0.876448 0.748196
0.0492561 0.872618 0.739376
0.053315 0.866987 0.721538
0.148806 0.879484 0.69839
0.496941 0.895689 0.654154
0.859449 0.855833 0.635035
0.956619 0.852201 0.651606
0.955215 0.846738 0.648005
0.10193 0.963226 0.847654
0.0945602 0.965026 0.843458
0.0926375 0.965469 0.83328
0.0908827 0.96582 0.810788
0.0914015 0.966995 0.759152
0.344488 0.990845 0.694347
0.684108 0.993851 0.599496
0.972229 0.936965 0.624079
0.976074 0.938201 0.657023
0.10135 0.964721 0.861112
0.0990921 0.965133 0.855619
0.0969406 0.965606 0.844511
0.0945449 0.966308 0.820356
0.0925307 0.967636 0.765698
0.281682 0.988174 0.685344
0.615564 0.999207 0.59028
0.941543 0.939254 0.590387
0.975845 0.937453 0.635859
0.173236 0.0661784 0.7879
0.222309 0.063447 0.783993
0.304524 0.0607767 0.781155
0.414603 0.0595865 0.774746
0.545373 0.0691844 0.765545
0.713878 0.0960861 0.759716
0.76495 0.108064 0.769223
0.761578 0.110658 0.778637
0.768765 0.108415 0.79295
0.101808 0.0695354 0.781735
0.171862 0.0656291 0.78587
0.26865 0.061677 0.781628
0.392767 0.0593423 0.77499
0.531945 0.0672618 0.764309
0.706416 0.0944533 0.757259
0.765637 0.10779 0.764599
0.764752 0.109071 0.776379
0.770275 0.107454 0.788846
0 0.0775464 0.737606
0.0321355 0.0717479 0.766369
0.187839 0.0646372 0.781979
0.348318 0.0592813 0.774273
0.505135 0.0647135 0.761486
0.688899 0.0919814 0.752026
0.762249 0.109056 0.74934
0.761334 0.110002 0.759731
0.770367 0.106859 0.775448
0 0.148241 0.67805
0 0.127367 0.695415
0 0.0901808 0.721599
0.222843 0.0633707 0.780835
0.445335 0.0629282 0.760098
0.646754 0.08542 0.743572
0.764263 0.107103 0.725567
0.764263 0.10811 0.72958
0.773999 0.104601 0.74287
0 0.450889 0.696864
0 0.442267 0.704448
0 0.42356 0.71606
0.0271611 0.406516 0.826429
0.470085 0.335256 0.903853
0.727672 0.314763 0.869215
0.854658 0.281132 0.825528
0.84712 0.257404 0.810239
0.848203 0.251347 0.806027
0 0.66128 0.77818
0 0.657954 0.781826
0 0.650431 0.784649
0.00700389 0.641596 0.802304
0.289464 0.662608 0.851469
0.657816 0.600992 0.881971
0.893248 0.580789 0.837034
0.922118 0.566415 0.837491
0.920089 0.559701 0.835248
0.0586404 0.854978 0.830259
0.0522164 0.853986 0.830869
0.0513771 0.849836 0.827771
0.0541238 0.842313 0.822919
0.152422 0.849256 0.838712
0.532891 0.830274 0.840192
0.835584 0.802579 0.828107
0.950774 0.795224 0.827222
0.949737 0.788891 0.824491
0.128222 0.960906 0.898833
0.123369 0.961791 0.897826
0.126329 0.961044 0.892699
0.135927 0.95874 0.881849
0.169741 0.95668 0.863111
0.449592 0.960906 0.864897
0.701305 0.957473 0.83888
0.950713 0.936294 0.813275
0.960723 0.934203 0.829252
0.160876 0.967941 0.918715
0.157137 0.969207 0.918212
0.159792 0.969558 0.914488
0.16405 0.96965 0.904814
0.170474 0.969635 0.881132
0.382696 0.973434 0.872663
0.631586 0.968643 0.854261
0.899046 0.953201 0.796139
0.962844 0.945434 0.825422
0.267491 0.0693828 0.83946
0.30454 0.0683757 0.841352
0.369024 0.0676432 0.840299
0.46479 0.0688029 0.835492
0.597665 0.0799268 0.822126
0.73521 0.103929 0.799634
0.763104 0.112139 0.795087
0.760708 0.113634 0.79234
0.766049 0.111498 0.798718
0.219287 0.0708782 0.837995
0.26772 0.0691081 0.842115
0.33904 0.0678111 0.841031
0.444099 0.0682078 0.837003
0.582452 0.0777295 0.824094
0.729595 0.102937 0.801312
0.763149 0.1122 0.795132
0.763851 0.112367 0.796124
0.768566 0.110491 0.801816
0.076112 0.0765545 0.824369
0.168612 0.0723125 0.841093
0.274601 0.0690318 0.842237
0.402686 0.0679332 0.839506
0.552865 0.0738842 0.827543
0.716548 0.101457 0.803738
0.758968 0.114107 0.79028
0.759869 0.114244 0.791287
0.767132 0.111315 0.800031
0 0.102495 0.783963
0 0.0864271 0.794858
0.00643931 0.079469 0.819348
0.297475 0.0683909 0.84126
0.486076 0.070634 0.833219
0.681407 0.0964523 0.813001
0.757168 0.114763 0.788159
0.757412 0.115526 0.788327
0.765377 0.112428 0.797848
0 0.422034 0.804318
0 0.409659 0.815869
0 0.382437 0.830045
0.138628 0.324422 0.902922
0.500618 0.259449 0.910201
0.744305 0.239277 0.882963
0.823911 0.222568 0.850919
0.814862 0.205692 0.84213
0.816968 0.199207 0.846555
0 0.654398 0.854795
0 0.65153 0.858534
0 0.644923 0.860853
0.0348974 0.638041 0.873976
0.335012 0.625666 0.937591
0.703548 0.56054 0.958007
0.897108 0.542657 0.931777
0.912825 0.530648 0.925582
0.910063 0.523705 0.925475
0.0585489 0.835874 0.910765
0.0522316 0.83386 0.913954
0.05449 0.827359 0.915862
0.0882582 0.818586 0.92372
0.254337 0.818692 0.942733
0.541711 0.816358 0.936477
0.850111 0.760708 0.946334
0.937774 0.752895 0.929488
0.936278 0.746532 0.927718
0.149279 0.954116 0.93518
0.142336 0.955169 0.937346
0.14583 0.95378 0.936355
0.15639 0.950591 0.933516
0.189609 0.946319 0.931014
0.462882 0.949569 0.942641
0.738247 0.933227 0.93669
0.936904 0.917891 0.926711
0.953719 0.915206 0.92665
0.213428 0.970367 0.952544
0.212024 0.971222 0.953124
0.216663 0.97142 0.951247
0.22594 0.971603 0.946807
0.246006 0.971633 0.938659
0.439841 0.971817 0.943526
0.693263 0.962493 0.94284
0.885344 0.954009 0.933471
0.954101 0.949035 0.92578
0.287037 0.068925 0.839246
0.321614 0.0683146 0.841199
0.381476 0.0676585 0.839963
0.475761 0.0692302 0.834699
0.608606 0.0813001 0.820691
0.740856 0.104799 0.798108
0.762829 0.111772 0.794827
0.762402 0.113039 0.794354
0.76672 0.11133 0.799451
0.244327 0.0700999 0.838148
0.286931 0.0686503 0.841917
0.353307 0.0677958 0.840803
0.454841 0.0683757 0.836133
0.592676 0.0790417 0.823194
0.734295 0.104082 0.79852
0.762905 0.111879 0.794903
0.764019 0.112428 0.796292
0.768399 0.110689 0.801587
0.122866 0.0746014 0.829908
0.204639 0.0709087 0.842344
0.294667 0.0683757 0.84184
0.415122 0.0677806 0.838743
0.562936 0.0749371 0.826719
0.721813 0.102205 0.802106
0.758724 0.113893 0.790036
0.75996 0.114321 0.791348
0.766857 0.111528 0.799603
0 0.0904555 0.802029
0 0.0838636 0.809201
0.0686809 0.0767071 0.831495
0.32076 0.0682383 0.841657
0.49897 0.0708629 0.833127
0.689662 0.0974594 0.811719
0.757107 0.114809 0.788083
0.757733 0.115541 0.788678
0.765423 0.11249 0.797879
0 0.391669 0.851835
0 0.375967 0.856382
0 0.343267 0.856489
0.135927 0.275639 0.897719
0.48661 0.215137 0.897765
0.723522 0.202167 0.871458
0.808438 0.192157 0.836606
0.795422 0.170199 0.824216
0.798749 0.164263 0.829557
0.0387274 0.656641 0.885756
0.035935 0.652003 0.886503
0.0300145 0.641871 0.883314
0.062089 0.623728 0.883421
0.335607 0.601022 0.940475
0.705028 0.536385 0.956695
0.894865 0.51902 0.928756
0.908293 0.507164 0.923079
0.906142 0.500069 0.922698
0.124529 0.828855 0.945251
0.120516 0.8262 0.946899
0.117876 0.819226 0.945434
0.153674 0.807858 0.944137
0.280369 0.803479 0.94432
0.545098 0.795224 0.942504
0.862409 0.735714 0.951736
0.935164 0.730297 0.939986
0.93315 0.724651 0.940688
0.175753 0.949081 0.954208
0.178378 0.94931 0.956756
0.191501 0.947372 0.958144
0.219684 0.94255 0.959915
0.27155 0.934874 0.962646
0.497108 0.936889 0.966964
0.755047 0.921599 0.955779
0.940063 0.900084 0.94818
0.949416 0.898451 0.94667
0.231937 0.970718 0.958816
0.229725 0.971695 0.961074
0.236576 0.971969 0.961593
0.250156 0.972259 0.962097
0.274311 0.972427 0.962829
0.443549 0.972305 0.965774
0.69221 0.963134 0.960327
0.897719 0.952865 0.952605
0.95256 0.949722 0.948852
