bundles/resolve-cinematic-luts/Phantom Luts/P4k & P6k Phntm Arri LUTs - V6/P4K/Gen 4 Colour/White Balance Offset (Magenta Boost)/P4k Jamaica Gen4 WBO.cube
TITLE "Generated by Resolve"
LUT_3D_SIZE 5
0 0.0250553 0
0.218402 0.0254978 0.0275731
0.581994 0.0489357 0.10396
0.72668 0.160067 0.224018
0.744015 0.179355 0.244648
0 0.247089 0.0911116
0.168276 0.237873 0.00169375
0.603891 0.172168 0.0767376
0.749355 0.230426 0.195926
0.740063 0.213886 0.188907
0.0606241 0.6607 0.38117
0.0858778 0.679866 0.230701
0.595956 0.65771 0.11078
0.916075 0.665766 0.303456
0.934279 0.670329 0.321233
0.359823 0.938521 0.748821
0.357534 0.944396 0.705287
0.439719 0.975875 0.51191
0.941207 0.968978 0.469398
1 0.977371 0.583368
0.377508 0.945754 0.79028
0.370703 0.947677 0.75375
0.397314 0.974136 0.613428
0.905104 0.979904 0.490074
1 0.988495 0.646967
0.0297246 0.025864 0.197177
0.251881 0.024155 0.213199
0.614771 0.033875 0.261921
0.726116 0.118318 0.321294
0.736416 0.128008 0.340352
0.000137331 0.19501 0.185443
0.176883 0.188617 0.175784
0.637888 0.112566 0.153033
0.733806 0.170092 0.229526
0.741054 0.176516 0.241062
0.0467536 0.613825 0.449607
0.04654 0.637598 0.346227
0.58114 0.638086 0.103975
0.929549 0.632227 0.311925
0.938827 0.628611 0.320851
0.352941 0.92694 0.768154
0.350774 0.933272 0.733669
0.388327 0.958434 0.546258
0.93402 0.963638 0.460517
1 0.97116 0.578683
0.382757 0.943084 0.814908
0.376242 0.944457 0.78761
0.38024 0.964736 0.654078
0.878355 0.9823 0.487892
1 0.988602 0.64976
0.147875 0.0285801 0.536553
0.33666 0.0292058 0.54435
0.586358 0.0427558 0.538216
0.707042 0.103395 0.539773
0.705989 0.105257 0.548257
0 0.0712749 0.468132
0.167742 0.0282139 0.528878
0.573983 0.0369879 0.517479
0.717311 0.103075 0.495918
0.717769 0.10515 0.500572
0.0453956 0.559258 0.553506
0.0385748 0.550652 0.538796
0.56846 0.545678 0.540932
0.978439 0.523278 0.538262
0.974014 0.492729 0.516167
0.334951 0.895109 0.801511
0.32929 0.896254 0.783948
0.332937 0.923674 0.69897
0.917754 0.953933 0.475547
0.998154 0.946181 0.586069
0.395758 0.935866 0.864897
0.393423 0.938277 0.852522
0.376852 0.948318 0.776379
0.795758 0.998932 0.515358
1 0.987716 0.661402
0.303288 0.0555581 0.66067
0.393896 0.0612497 0.670207
0.546822 0.0799115 0.664164
0.679042 0.122332 0.69601
0.677546 0.125963 0.701656
0.0968032 0.0426642 0.592233
0.306401 0.0542763 0.659739
0.522042 0.0741131 0.662165
0.68043 0.121035 0.68896
0.678752 0.124269 0.692546
0.0912642 0.441169 0.708934
0.0880903 0.40943 0.706706
0.584787 0.343755 0.888548
0.858686 0.311421 0.843076
0.833005 0.282506 0.807263
0.324926 0.851179 0.848402
0.31899 0.84889 0.839841
0.332937 0.865583 0.849607
0.865019 0.862562 0.846006
0.972015 0.858701 0.856794
0.432486 0.943984 0.931228
0.431891 0.946319 0.926207
0.427893 0.950912 0.912398
0.759365 0.997375 0.910689
0.988785 0.979232 0.868589
0.38146 0.0684215 0.68217
0.444022 0.0750744 0.687663
0.579934 0.0939498 0.690349
0.678706 0.127932 0.712764
0.679774 0.129931 0.713466
0.263355 0.058381 0.658991
0.383871 0.0686656 0.682429
0.554772 0.0895857 0.689082
0.67921 0.128466 0.713588
0.680079 0.130434 0.713771
0.19321 0.370703 0.795865
0.184527 0.323568 0.775921
0.576516 0.221485 0.839078
0.740185 0.21709 0.772274
0.716197 0.185916 0.748577
0.34873 0.826078 0.91606
0.341909 0.817182 0.912215
0.400626 0.809552 0.946273
0.882033 0.792096 0.954452
0.958099 0.782635 0.96907
0.470176 0.962142 0.973556
0.473594 0.965194 0.973342
0.490532 0.971481 0.979171
0.808194 0.980941 0.984588
0.982666 0.977401 0.980484
