bundles/resolve-cinematic-luts/Phantom Luts/P4k & P6k Phntm Arri LUTs - V6/P4K/Gen 4 Colour/White Balance Offset (Magenta Boost)/P4k Utopia Gen4-Legacy WBO.cube
TITLE "Generated by Resolve"
LUT_3D_SIZE 5
0.00621042 0.0319371 0.0404364
0.1514 0.0350805 0.0531472
0.502602 0.033875 0.0782025
0.812421 0.0801862 0.161822
0.837949 0.106966 0.185046
0 0.18616 0.0630503
0.119036 0.179873 0.0208743
0.50013 0.128618 0.0729686
0.828519 0.127626 0.116045
0.839246 0.109407 0.109529
0 0.588769 0.228183
0 0.612345 0.0484932
0.533639 0.571664 0.0771649
0.907988 0.559777 0.198596
0.934585 0.566644 0.216648
0.0375067 0.970901 0.540627
0.0343328 0.987808 0.448081
0.235462 0.998093 0.128969
0.930465 0.924132 0.305776
0.989273 0.923003 0.452964
0.0462806 0.976761 0.61912
0.0438697 0.982971 0.544839
0.145983 0.999969 0.297642
0.881575 0.9337 0.357321
0.985092 0.93225 0.51957
0 0.0398566 0.179614
0.164782 0.0324102 0.170184
0.525734 0.0289921 0.205798
0.818128 0.0675822 0.270954
0.830076 0.0724804 0.2934
0 0.149264 0.156786
0.11751 0.144884 0.161196
0.545785 0.0894179 0.130816
0.83061 0.100496 0.177661
0.842847 0.10985 0.1906
0 0.537087 0.33698
0 0.561517 0.208179
0.51841 0.551705 0.0817731
0.921584 0.519738 0.230472
0.935531 0.51873 0.240635
0.0389105 0.948806 0.594507
0.0316625 0.963195 0.525704
0.131182 0.997391 0.171466
0.922667 0.919432 0.290333
0.988556 0.915572 0.450324
0.0553597 0.972763 0.674098
0.0528878 0.975937 0.616236
0.0897993 0.999741 0.362921
0.826963 0.942229 0.353109
0.983963 0.932555 0.523186
0.0209201 0.0499733 0.49897
0.216373 0.035462 0.47921
0.510811 0.0464485 0.459648
0.795361 0.0839704 0.50808
0.801236 0.0831311 0.528511
0 0.0915694 0.420233
0.0550088 0.0471046 0.493034
0.485573 0.0440223 0.436149
0.796994 0.0825208 0.456123
0.803738 0.0816358 0.470817
0 0.495964 0.487114
0 0.48629 0.482094
0.485512 0.475517 0.504326
0.933608 0.438575 0.474693
0.932845 0.412757 0.462028
0.0494698 0.901778 0.691905
0.0427405 0.901259 0.667475
0.0500649 0.940444 0.518456
0.892821 0.903014 0.420523
0.979644 0.884413 0.484108
0.0802625 0.965637 0.789578
0.0740978 0.967819 0.761456
0.0624247 0.977478 0.611032
0.698436 0.973053 0.346303
0.983719 0.933181 0.538216
0.173236 0.0661784 0.7879
0.304524 0.0607767 0.781155
0.545373 0.0691844 0.765545
0.76495 0.108064 0.769223
0.768765 0.108415 0.79295
0 0.0775464 0.737606
0.187839 0.0646372 0.781979
0.505135 0.0647135 0.761486
0.762249 0.109056 0.74934
0.770367 0.106859 0.775448
0 0.450889 0.696864
0 0.42356 0.71606
0.470085 0.335256 0.903853
0.854658 0.281132 0.825528
0.848203 0.251347 0.806027
0.0586404 0.854978 0.830259
0.0513771 0.849836 0.827771
0.152422 0.849256 0.838712
0.835584 0.802579 0.828107
0.949737 0.788891 0.824491
0.160876 0.967941 0.918715
0.159792 0.969558 0.914488
0.170474 0.969635 0.881132
0.631586 0.968643 0.854261
0.962844 0.945434 0.825422
0.287037 0.068925 0.839246
0.381476 0.0676585 0.839963
0.608606 0.0813001 0.820691
0.762829 0.111772 0.794827
0.76672 0.11133 0.799451
0.122866 0.0746014 0.829908
0.294667 0.0683757 0.84184
0.562936 0.0749371 0.826719
0.758724 0.113893 0.790036
0.766857 0.111528 0.799603
0 0.391669 0.851835
0 0.343267 0.856489
0.48661 0.215137 0.897765
0.808438 0.192157 0.836606
0.798749 0.164263 0.829557
0.124529 0.828855 0.945251
0.117876 0.819226 0.945434
0.280369 0.803479 0.94432
0.862409 0.735714 0.951736
0.93315 0.724651 0.940688
0.231937 0.970718 0.958816
0.236576 0.971969 0.961593
0.274311 0.972427 0.962829
0.69221 0.963134 0.960327
0.95256 0.949722 0.948852
