bundles/resolve-cinematic-luts/Phantom Luts/P4k & P6k Phntm Arri LUTs - V6/P4K/Gen 4 Colour/White Balance Offset (Magenta Boost)/P4k Jamaica Gen4 WBO.cube
TITLE "Generated by Resolve"
LUT_3D_SIZE 9
0 0.0250553 0
0.0716869 0.0251926 0.00717174
0.218402 0.0254978 0.0275731
0.41593 0.0290837 0.0529946
0.581994 0.0489357 0.10396
0.665965 0.101884 0.170779
0.72668 0.160067 0.224018
0.739666 0.174823 0.23888
0.744015 0.179355 0.244648
0 0.0869459 0.0328374
0.0473182 0.0787366 0.000701915
0.195254 0.0611734 0.0191958
0.38352 0.0408789 0.0208896
0.544884 0.0395514 0.0453498
0.616495 0.071519 0.100526
0.697002 0.126497 0.170581
0.708705 0.143343 0.18674
0.715251 0.153613 0.195071
0 0.247089 0.0911116
0 0.254032 0.0010071
0.168276 0.237873 0.00169375
0.412711 0.213092 0.0240177
0.603891 0.172168 0.0767376
0.700694 0.193347 0.140291
0.749355 0.230426 0.195926
0.745388 0.221332 0.193256
0.740063 0.213886 0.188907
0.00143435 0.459358 0.189502
0.000671397 0.47805 0.106004
0.0181735 0.474556 0.0282597
0.366491 0.447089 0.0133974
0.618341 0.445563 0.0537575
0.791699 0.428473 0.178195
0.871305 0.429328 0.270253
0.877043 0.427283 0.279774
0.873625 0.421881 0.277531
0.0606241 0.6607 0.38117
0.0668193 0.673915 0.324483
0.0858778 0.679866 0.230701
0.22269 0.691402 0.109438
0.595956 0.65771 0.11078
0.794827 0.659113 0.204273
0.916075 0.665766 0.303456
0.935729 0.674022 0.323232
0.934279 0.670329 0.321233
0.220035 0.829953 0.591775
0.222507 0.834623 0.566583
0.231739 0.843275 0.516838
0.253407 0.841901 0.398703
0.517159 0.880934 0.281651
0.793561 0.844877 0.306188
0.935744 0.852857 0.395819
0.977615 0.860121 0.439002
0.977768 0.858259 0.435126
0.359823 0.938521 0.748821
0.357671 0.939879 0.732509
0.357534 0.944396 0.705287
0.36141 0.951598 0.644221
0.439719 0.975875 0.51191
0.738857 0.988724 0.422904
0.941207 0.968978 0.469398
1 0.977188 0.583993
1 0.977371 0.583368
0.374304 0.944747 0.781247
0.371221 0.945083 0.76701
0.366888 0.946578 0.741558
0.368322 0.954147 0.694926
0.406027 0.979477 0.607416
0.67837 0.998932 0.516884
0.912947 0.979232 0.49218
1 0.986908 0.619547
1 0.987884 0.64799
0.377508 0.945754 0.79028
0.374563 0.945907 0.776852
0.370703 0.947677 0.75375
0.367987 0.953109 0.703136
0.397314 0.974136 0.613428
0.657374 0.998932 0.513741
0.905104 0.979904 0.490074
1 0.987305 0.611048
1 0.988495 0.646967
0.00799573 0.0252079 0.0593423
0.0818799 0.0248875 0.0704356
0.247852 0.0241855 0.0999161
0.444266 0.0244907 0.126421
0.592035 0.0341344 0.158648
0.671351 0.0873274 0.212451
0.725948 0.140429 0.259541
0.734081 0.146883 0.272816
0.738689 0.151293 0.280125
0.00030518 0.0632792 0.0554208
0.0333104 0.0563516 0.0402533
0.215381 0.0378576 0.0358892
0.401053 0.0302892 0.052079
0.574228 0.0473335 0.100557
0.664698 0.100786 0.168551
0.726192 0.160891 0.223636
0.737911 0.173571 0.237369
0.743389 0.179751 0.244007
0 0.214054 0.140475
0 0.223377 0.0814069
0.158053 0.222614 0.00190738
0.429725 0.161578 0.0441291
0.601358 0.140002 0.0774701
0.679591 0.158297 0.132586
0.725414 0.187457 0.181369
0.717342 0.172381 0.17583
0.715038 0.16791 0.175387
0.00166323 0.427726 0.242863
0 0.443839 0.176593
0.000961318 0.461738 0.0344396
0.358724 0.435233 0.0124361
0.630503 0.422339 0.0603952
0.793317 0.400717 0.184741
0.863111 0.408026 0.268528
0.865919 0.40676 0.273854
0.861845 0.400824 0.271046
0.0534218 0.640192 0.414816
0.0542 0.651759 0.368414
0.0704356 0.671473 0.264683
0.180987 0.681315 0.115389
0.589624 0.649638 0.106508
0.800244 0.647166 0.204227
0.918898 0.654551 0.304006
0.934936 0.660212 0.320134
0.932891 0.656458 0.317617
0.21149 0.818998 0.605676
0.21265 0.82385 0.582498
0.218448 0.832074 0.537728
0.239597 0.837736 0.422614
0.497047 0.878737 0.2813
0.788891 0.839719 0.300099
0.937346 0.847227 0.394766
0.977935 0.85359 0.43888
0.977142 0.85153 0.434623
0.358144 0.934859 0.757565
0.356283 0.936431 0.742977
0.355093 0.940276 0.717159
0.356893 0.948089 0.656275
0.416938 0.968002 0.523629
0.728954 0.989456 0.422217
0.93846 0.966918 0.465766
1 0.975326 0.581018
1 0.97528 0.58117
0.376455 0.943725 0.79173
0.373495 0.943877 0.779904
0.369497 0.945769 0.757031
0.366415 0.951354 0.707362
0.393118 0.972107 0.621332
0.656107 0.998932 0.524636
0.904005 0.979965 0.490532
1 0.986893 0.615946
1 0.9879 0.648859
0.379614 0.944579 0.801022
0.376287 0.944015 0.789151
0.372854 0.946487 0.767941
0.366415 0.950286 0.715938
0.388312 0.969421 0.629557
0.631189 0.998932 0.521798
0.894072 0.980529 0.488289
1 0.987243 0.605447
1 0.988479 0.648249
0.0297246 0.025864 0.197177
0.121492 0.025803 0.194186
0.251881 0.024155 0.213199
0.459861 0.0233768 0.250568
0.614771 0.033875 0.261921
0.674769 0.0707256 0.283253
0.726116 0.118318 0.321294
0.733059 0.124407 0.334218
0.736416 0.128008 0.340352
0 0.0459907 0.146258
0.0360571 0.0278477 0.179156
0.217227 0.0244297 0.179995
0.441566 0.0238956 0.181659
0.599741 0.0324559 0.205341
0.674662 0.0805371 0.241962
0.730602 0.134966 0.287022
0.737591 0.140948 0.299382
0.741115 0.144472 0.305455
0.000137331 0.19501 0.185443
0 0.18706 0.175006
0.176883 0.188617 0.175784
0.444938 0.154101 0.158709
0.637888 0.112566 0.153033
0.695171 0.134707 0.192721
0.733806 0.170092 0.229526
0.73518 0.169924 0.234241
0.741054 0.176516 0.241062
0.00318914 0.399603 0.293751
0.000396735 0.399329 0.264103
0 0.425345 0.16286
0.350759 0.419837 0.0602884
0.655879 0.375387 0.135088
0.802319 0.342855 0.214237
0.856107 0.373922 0.276539
0.851499 0.366171 0.274388
0.846708 0.359762 0.271092
0.0467536 0.613825 0.449607
0.0444038 0.619089 0.421973
0.04654 0.637598 0.346227
0.105272 0.666056 0.158175
0.58114 0.638086 0.103975
0.816098 0.626184 0.212436
0.929549 0.632227 0.311925
0.940505 0.632837 0.323171
0.938827 0.628611 0.320851
0.199664 0.801938 0.622232
0.199023 0.805753 0.604486
0.200595 0.813855 0.567132
0.219425 0.828763 0.459174
0.456886 0.875898 0.285985
0.78233 0.831998 0.291417
0.941024 0.837079 0.394476
0.978439 0.842008 0.439536
0.977432 0.839399 0.435477
0.352941 0.92694 0.768154
0.351736 0.929122 0.755413
0.350774 0.933272 0.733669
0.350118 0.941314 0.676585
0.388327 0.958434 0.546258
0.713726 0.990356 0.421622
0.93402 0.963638 0.460517
1 0.971572 0.57789
1 0.97116 0.578683
0.379889 0.942153 0.807202
0.377142 0.942641 0.796262
0.373281 0.944244 0.777844
0.36611 0.94815 0.728679
0.382727 0.966278 0.644556
0.620783 0.998932 0.535363
0.89044 0.980987 0.48896
1 0.986725 0.610544
1 0.987854 0.650156
0.382757 0.943084 0.814908
0.37998 0.942718 0.804944
0.376242 0.944457 0.78761
0.368856 0.948486 0.740902
0.38024 0.964736 0.654078
0.594568 0.998932 0.534096
0.878355 0.9823 0.487892
0.999954 0.986969 0.595987
1 0.988602 0.64976
0.0798962 0.0263676 0.378256
0.169833 0.0264591 0.373831
0.278813 0.0265202 0.374853
0.450675 0.0244755 0.398184
0.611048 0.0350652 0.427466
0.691081 0.0773632 0.398413
0.720882 0.101656 0.424323
0.721706 0.102449 0.433265
0.721721 0.103197 0.436255
0 0.0293889 0.327733
0.0802625 0.0263066 0.362615
0.238758 0.0262303 0.366415
0.433555 0.0240482 0.37763
0.610162 0.0336461 0.395026
0.68893 0.0754253 0.372351
0.721263 0.10193 0.391669
0.725429 0.106554 0.402167
0.727794 0.109819 0.406378
0 0.150835 0.315267
0 0.129564 0.326101
0.172107 0.0984207 0.38706
0.444953 0.0747387 0.386648
0.63386 0.054139 0.346014
0.684535 0.0747997 0.318776
0.735027 0.123751 0.346761
0.741756 0.13048 0.358129
0.745174 0.134081 0.363272
0.00347906 0.373831 0.36083
0.00180056 0.368277 0.35198
0.00273136 0.36492 0.34667
0.373571 0.367926 0.355398
0.661631 0.337285 0.340887
0.847654 0.307271 0.333059
0.858122 0.303822 0.337957
0.848432 0.290944 0.333333
0.844465 0.285664 0.331411
0.0443122 0.587137 0.497139
0.0403754 0.586725 0.481331
0.0370031 0.586496 0.451972
0.0921645 0.636606 0.359319
0.569253 0.612833 0.24213
0.854566 0.585901 0.299977
0.959319 0.584314 0.358221
0.95993 0.577371 0.360678
0.958679 0.57116 0.35938
0.187701 0.778012 0.647196
0.184741 0.779324 0.634501
0.181216 0.782712 0.612284
0.182177 0.79881 0.539712
0.342992 0.87219 0.343862
0.772763 0.820584 0.283116
0.953002 0.814481 0.404868
0.979538 0.818998 0.445487
0.979049 0.814954 0.443061
0.342535 0.912062 0.781079
0.341131 0.913802 0.771115
0.33904 0.916472 0.755871
0.338003 0.925277 0.714199
0.35845 0.947326 0.602304
0.674647 0.998306 0.432914
0.926085 0.956634 0.450935
1 0.962921 0.573678
1 0.961547 0.576425
0.385657 0.93991 0.829435
0.383597 0.940475 0.821698
0.380179 0.94168 0.808606
0.37319 0.945464 0.772961
0.371771 0.957565 0.685634
0.555718 0.998932 0.556344
0.864912 0.984665 0.490532
1 0.986404 0.599466
1 0.987808 0.652979
0.388388 0.940658 0.836667
0.386725 0.94078 0.829587
0.383307 0.942123 0.816587
0.375937 0.945388 0.783413
0.370306 0.955779 0.694484
0.528237 0.998932 0.558465
0.847669 0.989227 0.492699
0.992737 0.986023 0.5776
1 0.988418 0.653361
0.147875 0.0285801 0.536553
0.228199 0.0285191 0.539513
0.33666 0.0292058 0.54435
0.448631 0.0296635 0.540337
0.586358 0.0427558 0.538216
0.672984 0.0827649 0.531075
0.707042 0.103395 0.539773
0.706828 0.104356 0.547311
0.705989 0.105257 0.548257
0.0132448 0.0276493 0.498283
0.146838 0.0283207 0.528984
0.293492 0.0285039 0.540825
0.43006 0.0304417 0.535973
0.582422 0.0404669 0.531273
0.672724 0.0803388 0.519966
0.711345 0.102907 0.523659
0.710628 0.10428 0.529229
0.71017 0.10515 0.529885
0 0.0712749 0.468132
0 0.0436713 0.475715
0.167742 0.0282139 0.528878
0.388678 0.02916 0.527626
0.573983 0.0369879 0.517479
0.673198 0.0758373 0.49601
0.717311 0.103075 0.495918
0.717647 0.104433 0.499947
0.717769 0.10515 0.500572
0.00354009 0.314809 0.493034
0.00195315 0.299214 0.495201
0.00671397 0.267262 0.515312
0.368597 0.251591 0.578103
0.661402 0.223178 0.592096
0.81912 0.200488 0.54136
0.809979 0.192645 0.515694
0.800473 0.183581 0.505898
0.794446 0.177722 0.499336
0.0453956 0.559258 0.553506
0.0417487 0.556741 0.546258
0.0385748 0.550652 0.538796
0.150835 0.567651 0.553277
0.56846 0.545678 0.540932
0.845472 0.532372 0.540093
0.978439 0.523278 0.538262
0.976318 0.503746 0.524666
0.974014 0.492729 0.516167
0.181872 0.751736 0.681117
0.177905 0.751354 0.671717
0.172732 0.750027 0.659632
0.163638 0.750454 0.629709
0.351873 0.828977 0.580377
0.745953 0.782177 0.478111
0.963897 0.772992 0.528283
0.986969 0.773129 0.514382
0.986084 0.766461 0.506798
0.334951 0.895109 0.801511
0.332815 0.895811 0.794141
0.32929 0.896254 0.783948
0.323903 0.899245 0.761181
0.332937 0.923674 0.69897
0.575311 0.998932 0.549462
0.917754 0.953933 0.475547
1 0.949828 0.58558
0.998154 0.946181 0.586069
0.393774 0.9355 0.859602
0.392889 0.936507 0.854795
0.391287 0.938613 0.846418
0.38732 0.942077 0.828138
0.37467 0.948592 0.766629
0.443351 0.998932 0.615534
0.82475 0.997513 0.50631
0.995377 0.985702 0.587091
1 0.987671 0.660899
0.395758 0.935866 0.864897
0.395178 0.936324 0.860594
0.393423 0.938277 0.852522
0.389822 0.94226 0.834623
0.376852 0.948318 0.776379
0.42388 0.996628 0.63122
0.795758 0.998932 0.515358
0.980819 0.983749 0.553109
1 0.987716 0.661402
0.229862 0.0379034 0.627894
0.289509 0.0385138 0.63595
0.370352 0.0408179 0.641276
0.462745 0.0463569 0.635172
0.54963 0.0586252 0.618006
0.654643 0.0957504 0.613687
0.686 0.112108 0.638498
0.686412 0.113359 0.643366
0.684733 0.114656 0.640803
0.138766 0.0354925 0.601709
0.228412 0.0371557 0.62562
0.335195 0.0393225 0.639109
0.447257 0.0445716 0.635584
0.542855 0.0560006 0.617426
0.651865 0.0933394 0.608133
0.687709 0.111299 0.634562
0.685847 0.113283 0.637522
0.684245 0.114458 0.636378
0 0.0327153 0.540932
0.0459754 0.0327764 0.563317
0.244373 0.0369116 0.626703
0.411536 0.0415351 0.636469
0.529229 0.0514076 0.616648
0.647288 0.0893568 0.599695
0.690455 0.110262 0.624826
0.690059 0.111589 0.628504
0.689036 0.112459 0.628183
0.0168917 0.228977 0.603769
0.0153964 0.207156 0.601953
0.0178225 0.16083 0.602762
0.350713 0.100954 0.70016
0.556451 0.0978866 0.682582
0.662654 0.103395 0.607263
0.69868 0.11043 0.600458
0.69955 0.110414 0.597772
0.699275 0.109987 0.595407
0.0605325 0.50631 0.647791
0.0572366 0.498711 0.645899
0.0545968 0.481788 0.647974
0.154513 0.470481 0.7093
0.569909 0.454292 0.747906
0.851011 0.437049 0.76553
0.973678 0.407919 0.764736
0.963195 0.382666 0.756313
0.956405 0.370214 0.746746
0.18143 0.722667 0.7187
0.17792 0.721614 0.712764
0.173404 0.717632 0.707866
0.166781 0.711727 0.700084
0.412604 0.745098 0.728252
0.736355 0.712749 0.707179
0.947463 0.710124 0.717311
0.97586 0.704234 0.716381
0.974929 0.697139 0.709804
0.328435 0.87361 0.825422
0.325719 0.873838 0.818982
0.321538 0.872511 0.812161
0.314473 0.871305 0.79881
0.324712 0.892378 0.786313
0.598291 0.951339 0.758434
0.885466 0.914611 0.682765
0.987778 0.914153 0.719066
0.987076 0.910506 0.712596
0.406256 0.933593 0.891157
0.405478 0.934676 0.886748
0.404196 0.935546 0.882536
0.401724 0.93727 0.874174
0.39678 0.942535 0.852644
0.491646 0.998932 0.820478
0.77116 0.998932 0.733257
0.988815 0.983307 0.681315
1 0.984573 0.723232
0.408301 0.9346 0.894133
0.407919 0.934981 0.891508
0.406485 0.935836 0.887098
0.403662 0.937545 0.878157
0.398215 0.942489 0.856428
0.441337 0.995987 0.811627
0.727016 0.998932 0.727367
0.966628 0.984085 0.649821
0.999664 0.986267 0.713191
0.303288 0.0555581 0.66067
0.337667 0.0570993 0.665324
0.393896 0.0612497 0.670207
0.468254 0.0690929 0.67039
0.546822 0.0799115 0.664164
0.642084 0.109438 0.679942
0.679042 0.122332 0.69601
0.679088 0.124651 0.701381
0.677546 0.125963 0.701656
0.249348 0.0517586 0.648066
0.30074 0.0546731 0.659464
0.367712 0.058854 0.668116
0.452766 0.0666361 0.670069
0.538064 0.0776684 0.66302
0.637461 0.107973 0.677577
0.679454 0.121874 0.693431
0.67863 0.124193 0.697643
0.675334 0.12636 0.69633
0.0968032 0.0426642 0.592233
0.189502 0.0473335 0.629084
0.306401 0.0542763 0.659739
0.421958 0.0626993 0.669505
0.522042 0.0741131 0.662165
0.627649 0.10425 0.672419
0.68043 0.121035 0.68896
0.680583 0.122789 0.693416
0.678752 0.124269 0.692546
0.0337682 0.125856 0.606897
0.0343023 0.0983291 0.595758
0.0478065 0.0517891 0.577554
0.328862 0.0553902 0.662959
0.48484 0.0671855 0.662715
0.606531 0.0964218 0.663447
0.682277 0.119219 0.677378
0.683116 0.120851 0.679469
0.682857 0.121614 0.678676
0.0912642 0.441169 0.708934
0.0888533 0.430777 0.70695
0.0880903 0.40943 0.706706
0.205447 0.388998 0.80087
0.584787 0.343755 0.888548
0.80032 0.338216 0.893523
0.858686 0.311421 0.843076
0.835584 0.287831 0.816007
0.833005 0.282506 0.807263
0.1906 0.676417 0.768765
0.186481 0.67216 0.764736
0.182025 0.66215 0.763531
0.186084 0.647837 0.779034
0.406912 0.664668 0.863172
0.73962 0.646281 0.869886
0.94667 0.639475 0.889021
0.977523 0.62385 0.897734
0.976379 0.616114 0.892744
0.324926 0.851179 0.848402
0.322438 0.851301 0.843381
0.31899 0.84889 0.839841
0.314656 0.846235 0.835355
0.332937 0.865583 0.849607
0.640665 0.881682 0.863157
0.865019 0.862562 0.846006
0.973007 0.863447 0.862196
0.972015 0.858701 0.856794
0.421469 0.935439 0.919173
0.420096 0.936248 0.915267
0.418677 0.936263 0.912657
0.417121 0.93756 0.908568
0.414984 0.941405 0.900343
0.582208 0.989761 0.930938
0.79353 0.986053 0.8972
0.967956 0.969207 0.851972
0.987137 0.966506 0.874266
0.432486 0.943984 0.931228
0.432212 0.945281 0.928023
0.431891 0.946319 0.926207
0.430823 0.947951 0.92224
0.427893 0.950912 0.912398
0.533227 0.994079 0.93286
0.759365 0.997375 0.910689
0.934554 0.980316 0.843076
0.988785 0.979232 0.868589
0.368322 0.0672007 0.680507
0.394003 0.0695506 0.683467
0.435767 0.074052 0.687099
0.497704 0.0822766 0.68954
0.574792 0.0930037 0.690028
0.653712 0.116121 0.70425
0.67924 0.128801 0.713268
0.679454 0.129397 0.713603
0.679744 0.129671 0.713695
0.333745 0.0644236 0.675364
0.368078 0.0671702 0.680369
0.415381 0.0717937 0.685618
0.484154 0.080354 0.689311
0.566339 0.0916457 0.689708
0.649088 0.114839 0.703014
0.679316 0.128939 0.713344
0.679667 0.129534 0.713634
0.676555 0.131136 0.710063
0.229175 0.0558633 0.64918
0.297963 0.0612955 0.667781
0.369284 0.067216 0.680461
0.456336 0.076524 0.688197
0.549142 0.0886854 0.688914
0.64065 0.112963 0.701625
0.679606 0.129122 0.713985
0.680049 0.129854 0.714366
0.679072 0.130571 0.712703
0.0915541 0.0567636 0.604578
0.103182 0.0476387 0.602594
0.170474 0.0513771 0.628763
0.383017 0.0683909 0.681987
0.507988 0.0822156 0.687526
0.619089 0.107713 0.697444
0.679393 0.12871 0.713817
0.680385 0.130236 0.7149
0.680415 0.130861 0.714229
0.135882 0.397086 0.751125
0.139162 0.384451 0.752743
0.147875 0.359731 0.756374
0.30898 0.315129 0.843992
0.60351 0.267048 0.880049
0.747784 0.265385 0.844953
0.771725 0.252338 0.803311
0.754757 0.234119 0.786862
0.748486 0.22678 0.779812
0.210193 0.641581 0.812757
0.207889 0.635935 0.811597
0.206119 0.625666 0.812528
0.226856 0.616144 0.843656
0.465782 0.613458 0.932677
0.778515 0.587411 0.95555
0.935332 0.584848 0.976471
0.957809 0.568292 0.980468
0.955016 0.559091 0.97705
0.323476 0.825849 0.872587
0.320714 0.823926 0.869688
0.31809 0.819409 0.868894
0.318456 0.814511 0.873838
0.361608 0.830457 0.92134
0.637537 0.829725 0.934783
0.869352 0.821424 0.935485
0.966033 0.818265 0.950088
0.965179 0.811612 0.947082
0.431586 0.936141 0.939986
0.42945 0.936355 0.935607
0.428275 0.935805 0.934432
0.426703 0.935256 0.932906
0.426673 0.93608 0.931746
0.601785 0.967788 0.96173
0.827359 0.952285 0.947433
0.952453 0.945357 0.941665
0.982193 0.943694 0.948714
0.458778 0.958038 0.961868
0.458396 0.959686 0.959716
0.459754 0.961318 0.959426
0.46302 0.964416 0.959228
0.469932 0.96939 0.958495
0.588617 0.988785 0.975036
0.804456 0.983734 0.967391
0.922896 0.978759 0.95436
0.985885 0.976822 0.951232
0.38146 0.0684215 0.68217
0.405249 0.0706645 0.684596
0.444022 0.0750744 0.687663
0.503044 0.0819409 0.688441
0.579934 0.0939498 0.690349
0.657542 0.116854 0.704967
0.678706 0.127932 0.712764
0.679744 0.129641 0.713726
0.679774 0.129931 0.713466
0.352117 0.0658579 0.678248
0.381323 0.0683757 0.682063
0.424338 0.0726787 0.686213
0.490623 0.0813611 0.68954
0.571344 0.0925154 0.689998
0.652659 0.115434 0.70396
0.678828 0.12813 0.712871
0.67982 0.129809 0.713756
0.679759 0.130129 0.713191
0.263355 0.058381 0.658991
0.322683 0.0634318 0.673167
0.383871 0.0686656 0.682429
0.464988 0.0777447 0.688716
0.554772 0.0895857 0.689082
0.643778 0.113375 0.701915
0.67921 0.128466 0.713588
0.680171 0.130068 0.714458
0.680079 0.130434 0.713771
0.122637 0.0516823 0.61471
0.133532 0.0493935 0.616068
0.22153 0.0552682 0.646708
0.400565 0.0701915 0.684123
0.516579 0.0838178 0.688563
0.623896 0.108827 0.698909
0.679484 0.128893 0.713878
0.680568 0.130571 0.715023
0.680507 0.131029 0.714321
0.19321 0.370703 0.795865
0.189685 0.354757 0.788952
0.184527 0.323568 0.775921
0.307958 0.263203 0.819501
0.576516 0.221485 0.839078
0.704967 0.225071 0.80174
0.740185 0.21709 0.772274
0.721126 0.192508 0.753902
0.716197 0.185916 0.748577
0.251575 0.637751 0.869139
0.250629 0.6318 0.869184
0.246387 0.61973 0.866178
0.255329 0.599329 0.876539
0.467048 0.586038 0.931304
0.783047 0.558114 0.959289
0.936065 0.553841 0.977127
0.953719 0.537789 0.980179
0.951522 0.52665 0.978653
0.34873 0.826078 0.91606
0.346075 0.823255 0.914107
0.341909 0.817182 0.912215
0.345464 0.812222 0.921218
0.400626 0.809552 0.946273
0.647334 0.803479 0.945891
0.882033 0.792096 0.954452
0.959167 0.790234 0.969558
0.958099 0.782635 0.96907
0.435325 0.93193 0.952743
0.435203 0.932509 0.951949
0.436591 0.932845 0.953872
0.441535 0.933532 0.958679
0.45597 0.932433 0.965576
0.615091 0.945052 0.978882
0.828305 0.933394 0.968261
0.953536 0.928878 0.971389
0.974563 0.927214 0.976287
0.470176 0.962142 0.973556
0.470832 0.963912 0.972259
0.473594 0.965194 0.973342
0.479591 0.967727 0.975845
0.490532 0.971481 0.979171
0.595422 0.984649 0.991318
0.808194 0.980941 0.984588
0.937545 0.977615 0.979248
0.982666 0.977401 0.980484
