bundles/resolve-cinematic-luts/Phantom Luts/P4k & P6k Phntm Arri LUTs - V6/P4K/Gen 4 Colour/White Balance Offset (Magenta Boost)/P4k Jamaica Gen4 WBO.cube
TITLE "Generated by Resolve"
LUT_3D_SIZE 33
0 0.0250553 0
0 0.0250553 0
0.00918593 0.0249332 1.5259e-05
0.0381018 0.0250248 0.00325017
0.0716869 0.0251926 0.00717174
0.104143 0.0253452 0.0113527
0.137911 0.0254673 0.0161135
0.176181 0.0254826 0.0215915
0.218402 0.0254978 0.0275731
0.264698 0.0258793 0.0337835
0.314092 0.0263981 0.0398413
0.365118 0.0274968 0.0458381
0.41593 0.0290837 0.0529946
0.465675 0.0311284 0.0633555
0.513283 0.034638 0.0754406
0.554299 0.0399176 0.0885176
0.581994 0.0489357 0.10396
0.611231 0.0586404 0.119509
0.633448 0.0706493 0.135805
0.650553 0.0855726 0.153674
0.665965 0.101884 0.170779
0.683497 0.118288 0.187411
0.702708 0.134798 0.203387
0.7196 0.150652 0.217212
0.72668 0.160067 0.224018
0.732189 0.16701 0.229587
0.735424 0.170642 0.233326
0.737652 0.172808 0.236347
0.739666 0.174823 0.23888
0.741436 0.176532 0.24126
0.742718 0.177844 0.242939
0.743648 0.178882 0.244175
0.744015 0.179355 0.244648
0 0.025742 0
0 0.0253758 0
0.00163272 0.0250095 0
0.0232853 0.0254826 0.00164797
0.0555123 0.0257267 0.00419623
0.0889143 0.0261234 0.00796521
0.122652 0.0267033 0.0125582
0.160311 0.0269169 0.0177157
0.202487 0.0269932 0.0227359
0.248615 0.0270542 0.0274968
0.298711 0.0271458 0.0316472
0.351232 0.0275425 0.0350805
0.403647 0.0287938 0.038407
0.455512 0.0314641 0.0460517
0.503853 0.0338598 0.0570687
0.545419 0.037705 0.0709239
0.573495 0.0455024 0.0881971
0.602533 0.0541848 0.104799
0.623346 0.064744 0.121263
0.640101 0.0786908 0.140002
0.655329 0.0934462 0.157626
0.67277 0.108492 0.173861
0.69192 0.123507 0.189151
0.709194 0.138262 0.202731
0.715724 0.147021 0.209384
0.72076 0.153964 0.214557
0.725994 0.160922 0.219776
0.730434 0.166659 0.224338
0.734173 0.171511 0.227985
0.737804 0.176059 0.231601
0.740627 0.179736 0.234241
0.743069 0.18291 0.236484
0.744198 0.184466 0.237522
0 0.0309453 0.00442512
0 0.0298314 0
0.00178531 0.027985 1.5259e-05
0.0147707 0.0280461 0.000350958
0.0409857 0.0283665 0.000961318
0.0749371 0.029099 0.00517281
0.110933 0.0291142 0.0104982
0.148623 0.0297398 0.0153964
0.191058 0.0297093 0.0194247
0.237293 0.0288701 0.0219272
0.287266 0.0287327 0.0257115
0.339193 0.0283513 0.0285801
0.391562 0.0286259 0.0297398
0.440909 0.0284276 0.0301976
0.487358 0.0295415 0.0338903
0.529274 0.033463 0.0455329
0.560159 0.0408942 0.0660258
0.591424 0.0496834 0.0868849
0.614542 0.060853 0.107286
0.630426 0.0731212 0.126131
0.645899 0.0871595 0.144457
0.663554 0.101091 0.161059
0.682185 0.114214 0.175357
0.699916 0.127901 0.188525
0.70721 0.136706 0.195773
0.710979 0.142031 0.200137
0.714565 0.14699 0.204318
0.718349 0.152071 0.208499
0.721492 0.156313 0.212009
0.724498 0.160494 0.215122
0.72694 0.163821 0.217762
0.729076 0.166903 0.219913
0.730205 0.168719 0.22092
0 0.0559548 0.0171359
0 0.0554513 0.00308232
0.000381476 0.0522011 0.000381476
0.0232853 0.0497292 0.000488289
0.0492561 0.0505379 0.00231937
0.0789044 0.0495308 0.00766003
0.113756 0.0453498 0.010956
0.149615 0.0418402 0.0123751
0.188998 0.0371252 0.0120546
0.231724 0.0330663 0.0129397
0.27747 0.0315404 0.0178683
0.327245 0.0307469 0.0231022
0.380606 0.0307164 0.0253758
0.431479 0.0298314 0.0253758
0.480018 0.0309758 0.0303655
0.522118 0.0331731 0.0380255
0.548623 0.0386206 0.0497749
0.573877 0.043534 0.0597238
0.595239 0.0522621 0.0783093
0.616785 0.0664073 0.105287
0.635401 0.0811475 0.128908
0.654765 0.0956283 0.147692
0.675181 0.109819 0.163867
0.693889 0.123232 0.17734
0.702876 0.132357 0.18529
0.70576 0.136522 0.188968
0.708324 0.14023 0.192325
0.711131 0.144121 0.195712
0.713405 0.147372 0.198535
0.715801 0.150729 0.201312
0.717922 0.153811 0.2038
0.719356 0.156161 0.205463
0.720272 0.157748 0.20647
0 0.0869459 0.0328374
0 0.0882582 0.0124819
0 0.0851301 0.000656138
0.0089723 0.0810712 0.000259403
0.0473182 0.0787366 0.000701915
0.0825208 0.079118 0.00350958
0.115145 0.07776 0.0102235
0.154055 0.0698558 0.0145876
0.195254 0.0611734 0.0191958
0.239094 0.0554208 0.0196994
0.284871 0.0503548 0.0193637
0.334051 0.0456397 0.0191501
0.38352 0.0408789 0.0208896
0.430991 0.0369421 0.0218051
0.475319 0.0333257 0.0229953
0.516152 0.0343023 0.0329442
0.544884 0.0395514 0.0453498
0.573114 0.0454871 0.0580758
0.592599 0.0528725 0.0720531
0.604166 0.0612497 0.0851301
0.616495 0.071519 0.100526
0.638056 0.0854658 0.122545
0.661707 0.10013 0.142504
0.683955 0.115267 0.159487
0.697002 0.126497 0.170581
0.700328 0.131151 0.175311
0.703471 0.13576 0.179706
0.706111 0.13962 0.183322
0.708705 0.143343 0.18674
0.711009 0.146685 0.189807
0.71284 0.149569 0.192065
0.714443 0.152041 0.194064
0.715251 0.153613 0.195071
0 0.122927 0.043595
0 0.126345 0.0209506
0 0.1243 0.00154116
0 0.119829 0.000534066
0.0234531 0.117723 0
0.076463 0.114015 0.00135805
0.112779 0.113573 0.00424201
0.150973 0.11339 0.00505074
0.19884 0.101747 0.0164645
0.245899 0.0851453 0.0229953
0.293889 0.074342 0.0255894
0.343893 0.0663157 0.026276
0.391348 0.0614939 0.0267185
0.438834 0.0578622 0.028687
0.483131 0.0545815 0.0314336
0.523644 0.0518654 0.0383612
0.552621 0.0523995 0.0471962
0.576349 0.0535592 0.0563516
0.591134 0.0547494 0.0666667
0.604196 0.0633707 0.0814679
0.617258 0.0743877 0.098085
0.632563 0.0854505 0.111681
0.652689 0.0987106 0.125368
0.67393 0.112963 0.138552
0.689632 0.124453 0.149813
0.693034 0.128069 0.154757
0.696101 0.13135 0.159396
0.69868 0.134173 0.163195
0.700969 0.136629 0.166567
0.702892 0.138888 0.169406
0.70428 0.141039 0.171786
0.70576 0.143648 0.174182
0.706615 0.145296 0.17557
0 0.160494 0.0572671
0 0.165545 0.0318456
0 0.165652 0.00578317
0 0.161837 0
0.00323491 0.157488 0.000610361
0.0468605 0.155566 0
0.105806 0.150958 0.00175479
0.144427 0.150607 0.00453193
0.190951 0.14934 0.00608835
0.243214 0.139879 0.0146792
0.301305 0.119142 0.0239567
0.354406 0.100374 0.0310521
0.403632 0.0937819 0.0341802
0.450324 0.0881514 0.0371405
0.494148 0.0844434 0.0413519
0.533928 0.0830396 0.0472877
0.568963 0.082414 0.0552682
0.595758 0.0840925 0.0651408
0.615442 0.0862593 0.0788739
0.626551 0.0909895 0.0920424
0.634256 0.0968185 0.105455
0.642557 0.10074 0.1178
0.659327 0.111589 0.131792
0.68043 0.127352 0.146334
0.699001 0.142916 0.158984
0.702846 0.149203 0.161334
0.705242 0.154131 0.162646
0.707546 0.158587 0.16405
0.709117 0.161425 0.165194
0.711055 0.163577 0.167544
0.713054 0.16582 0.170199
0.714672 0.16788 0.172335
0.715358 0.168856 0.173404
0 0.201862 0.0744182
0 0.207248 0.0486305
0 0.210086 0.0199588
0 0.207904 0.00164797
0 0.202457 0.00210575
0.0123903 0.202274 0.000762951
0.0703899 0.199313 0
0.134493 0.192874 0.00157168
0.178668 0.192203 0.00474556
0.233158 0.190219 0.00698863
0.290486 0.184222 0.0110781
0.358114 0.163394 0.0251469
0.415274 0.140505 0.0363928
0.462821 0.131304 0.0431373
0.50837 0.127367 0.0494698
0.549767 0.125826 0.0573434
0.587625 0.126818 0.0673686
0.618723 0.128603 0.078645
0.641474 0.132021 0.091371
0.656794 0.137728 0.106081
0.667536 0.144884 0.121843
0.677501 0.15256 0.136492
0.690654 0.160342 0.151781
0.704036 0.168246 0.163058
0.716655 0.176013 0.17261
0.716594 0.172564 0.172519
0.715526 0.17084 0.171695
0.717769 0.174609 0.173419
0.719676 0.177844 0.174884
0.721309 0.180636 0.176196
0.722972 0.183429 0.177569
0.724269 0.185641 0.178714
0.724834 0.186831 0.179187
0 0.247089 0.0911116
0 0.252537 0.0673228
0 0.257496 0.0389868
0 0.257206 0.0117647
0 0.254032 0.0010071
0 0.250111 0.00369268
0.0276188 0.251942 0.00111391
0.0958114 0.246708 0
0.168276 0.237873 0.00169375
0.218418 0.237491 0.00538643
0.280491 0.235767 0.00814832
0.345098 0.232013 0.00933852
0.412711 0.213092 0.0240177
0.473167 0.192691 0.0397498
0.522225 0.175158 0.0538338
0.564599 0.171923 0.0644236
0.603891 0.172168 0.0767376
0.638453 0.174792 0.0902266
0.666072 0.179248 0.105486
0.685908 0.185 0.122225
0.700694 0.193347 0.140291
0.7131 0.202777 0.157809
0.724987 0.212131 0.172671
0.737469 0.221302 0.185351
0.749355 0.230426 0.195926
0.751598 0.231006 0.198001
0.748974 0.226963 0.196017
0.747219 0.224216 0.194675
0.745388 0.221332 0.193256
0.743755 0.218952 0.191913
0.742306 0.216754 0.190784
0.740902 0.214847 0.189609
0.740063 0.213886 0.188907
0 0.296666 0.109651
0 0.301991 0.0876936
0 0.307912 0.0615702
0 0.310063 0.0357366
0 0.308476 0.0111696
0 0.303761 0.00529488
0.000885023 0.304067 0.00607309
0.0471962 0.306065 0.00238041
0.125689 0.297795 0
0.207324 0.287938 0.00260929
0.263951 0.286763 0.00662242
0.332387 0.285588 0.00979629
0.400961 0.28191 0.0124361
0.466514 0.269352 0.0218662
0.529427 0.251118 0.044007
0.57821 0.2374 0.0639963
0.618662 0.229816 0.0833295
0.656046 0.225666 0.101579
0.687236 0.229297 0.118334
0.712337 0.235554 0.13695
0.731914 0.244022 0.157397
0.74638 0.252842 0.176379
0.759228 0.262562 0.193378
0.771435 0.272175 0.207828
0.782788 0.281437 0.219409
0.786709 0.284123 0.223529
0.78471 0.281117 0.222141
0.78262 0.277974 0.220676
0.780697 0.275212 0.219226
0.779156 0.272786 0.218219
0.777707 0.270573 0.217197
0.776318 0.268894 0.216007
0.775082 0.267475 0.214923
0 0.35021 0.130282
0 0.355795 0.110216
0 0.361105 0.0872206
0 0.365499 0.0621347
0 0.36527 0.0379187
0 0.363577 0.0146487
0 0.359731 0.0115206
0.015198 0.363241 0.00952163
0.0716716 0.365026 0.00482185
0.16228 0.353033 0
0.251713 0.341115 0.00401312
0.315312 0.339727 0.00810254
0.386313 0.339956 0.0129549
0.456626 0.337163 0.0177005
0.519722 0.330632 0.0235752
0.580423 0.314397 0.0504005
0.630198 0.304234 0.0786297
0.668894 0.299687 0.101167
0.703914 0.29366 0.125124
0.733822 0.287694 0.149905
0.757931 0.294469 0.171176
0.775952 0.302525 0.191943
0.790433 0.311574 0.210636
0.802838 0.320531 0.226398
0.81445 0.330144 0.239506
0.819669 0.33402 0.245457
0.817685 0.331167 0.244083
0.81622 0.328817 0.243229
0.814557 0.326375 0.242084
0.813077 0.324254 0.241062
0.8121 0.322881 0.24036
0.810834 0.321294 0.239353
0.809812 0.320119 0.238468
0 0.405219 0.156619
0 0.410163 0.136675
0 0.415259 0.115099
0 0.420462 0.0921492
0 0.422156 0.0694896
0 0.421271 0.043183
0 0.41944 0.0208743
0 0.418219 0.0193179
0.0410315 0.422202 0.0145724
0.102647 0.422812 0.00851453
0.208804 0.406226 0.00291447
0.305333 0.393805 0.00735485
0.370672 0.39353 0.0122683
0.440772 0.393912 0.018204
0.510338 0.392889 0.0263218
0.570138 0.388708 0.0358892
0.627527 0.377951 0.0637827
0.677317 0.368948 0.0967269
0.715679 0.364599 0.123598
0.748409 0.3626 0.149248
0.779095 0.357259 0.178271
0.801114 0.35288 0.2047
0.818112 0.360296 0.22504
0.832197 0.368948 0.242542
0.844175 0.377905 0.256703
0.850996 0.383215 0.2645
0.849577 0.38088 0.263691
0.848127 0.37847 0.262882
0.846983 0.376745 0.262135
0.845823 0.37499 0.261433
0.844678 0.373236 0.260731
0.84358 0.371771 0.259907
0.842664 0.370733 0.259083
0.00143435 0.459358 0.189502
0.000320439 0.464073 0.169818
0 0.469001 0.14905
0.000106813 0.473838 0.127718
0.000671397 0.47805 0.106004
0.00114443 0.477668 0.0833906
0.00239567 0.47657 0.0534524
0.00360113 0.473274 0.0307164
0.0181735 0.474556 0.0282597
0.0722057 0.480186 0.0217441
0.145373 0.479744 0.0139925
0.264927 0.458122 0.0074464
0.366491 0.447089 0.0133974
0.426612 0.447669 0.0189364
0.495277 0.448539 0.0272984
0.56109 0.448829 0.0395514
0.618341 0.445563 0.0537575
0.672419 0.440223 0.0838026
0.721202 0.431464 0.119921
0.759548 0.427787 0.150454
0.791699 0.428473 0.178195
0.820188 0.426795 0.206638
0.841932 0.426352 0.231861
0.858289 0.427146 0.252918
0.871305 0.429328 0.270253
0.880079 0.432532 0.281575
0.879011 0.430518 0.280995
0.87805 0.428977 0.280369
0.877043 0.427283 0.279774
0.876295 0.425772 0.279469
0.875425 0.424155 0.279026
0.874464 0.422766 0.278325
0.873625 0.421881 0.277531
0.00906386 0.512963 0.228824
0.00880446 0.517388 0.21146
0.0087129 0.522026 0.191699
0.00944533 0.526848 0.171649
0.0107881 0.53135 0.149645
0.0121309 0.532982 0.127153
0.0133516 0.531777 0.102388
0.0157168 0.529671 0.0696574
0.0178683 0.526894 0.0470283
0.0503243 0.532067 0.0417792
0.112169 0.538323 0.0332799
0.198337 0.535042 0.0225223
0.328649 0.509346 0.016022
0.425589 0.500725 0.023209
0.482033 0.501747 0.0323033
0.548318 0.503456 0.0460059
0.610513 0.504112 0.0601816
0.664439 0.501793 0.0825666
0.714702 0.499352 0.11104
0.761944 0.492363 0.148196
0.801465 0.49012 0.182025
0.830106 0.491691 0.208377
0.854536 0.492927 0.233234
0.875502 0.493996 0.256626
0.891356 0.496559 0.275166
0.902937 0.500343 0.288716
0.902953 0.499306 0.289006
0.902098 0.497078 0.288502
0.901488 0.494865 0.288304
0.90103 0.493019 0.288243
0.900557 0.491325 0.288136
0.900099 0.490211 0.287861
0.899519 0.489418 0.287327
0.0210117 0.564492 0.275731
0.0211643 0.568597 0.259709
0.0218051 0.573358 0.242054
0.0229343 0.577523 0.223148
0.0243992 0.581552 0.202579
0.0272221 0.585367 0.179126
0.0291142 0.584878 0.155138
0.032105 0.58352 0.128969
0.0368048 0.579919 0.0932174
0.0410925 0.577203 0.0717174
0.0998856 0.586923 0.0585641
0.163653 0.593668 0.0486152
0.261845 0.586221 0.0344091
0.396109 0.560296 0.0348974
0.484459 0.554238 0.0439765
0.536538 0.555825 0.0588693
0.599771 0.557321 0.076173
0.658656 0.5579 0.0943313
0.709194 0.556207 0.118013
0.756283 0.554711 0.147814
0.801007 0.550866 0.182605
0.837171 0.54931 0.214725
0.86276 0.552193 0.239124
0.88423 0.555764 0.260884
0.902388 0.558679 0.280217
0.915892 0.562982 0.294957
0.917586 0.563226 0.296803
0.917144 0.561257 0.296437
0.916548 0.559289 0.295918
0.916167 0.557565 0.295644
0.916014 0.556085 0.295613
0.915801 0.555367 0.29543
0.91516 0.554467 0.294759
0.0379339 0.614115 0.326711
0.0385138 0.617945 0.312871
0.0393225 0.62179 0.296803
0.0408637 0.62536 0.280537
0.042771 0.628916 0.26183
0.0464027 0.633143 0.240345
0.0506294 0.63566 0.216587
0.0539864 0.634333 0.190723
0.0589914 0.631861 0.161868
0.0671397 0.626169 0.1234
0.0912795 0.627756 0.0977493
0.15462 0.639826 0.0818189
0.226093 0.646403 0.0688182
0.332631 0.635401 0.0587625
0.464118 0.610437 0.0628977
0.540841 0.60647 0.073518
0.589151 0.608255 0.0907607
0.649561 0.609659 0.111635
0.705638 0.610498 0.133959
0.753429 0.609049 0.15967
0.796155 0.607736 0.188861
0.83592 0.606806 0.220478
0.86775 0.606226 0.248631
0.891371 0.610101 0.271275
0.908919 0.615396 0.288975
0.923766 0.619806 0.30428
0.92755 0.621714 0.308248
0.927306 0.620142 0.307897
0.927092 0.61854 0.307546
0.926925 0.617594 0.307317
0.92668 0.616281 0.306996
0.926146 0.615274 0.306386
0.925551 0.614496 0.30573
0.0606241 0.6607 0.38117
0.0614786 0.663874 0.369406
0.062623 0.667247 0.355581
0.0643778 0.670497 0.34107
0.0668193 0.673915 0.324483
0.070634 0.677745 0.30518
0.0763104 0.68162 0.282597
0.0806439 0.681651 0.258244
0.0858778 0.679866 0.230701
0.0936904 0.67628 0.19881
0.106477 0.669764 0.159808
0.152193 0.677729 0.127306
0.22269 0.691402 0.109438
0.294606 0.69781 0.101549
0.407828 0.681178 0.0899977
0.530175 0.659525 0.0966354
0.595956 0.65771 0.11078
0.640696 0.659297 0.129656
0.697887 0.660594 0.153201
0.749584 0.66041 0.177325
0.794827 0.659113 0.204273
0.834684 0.658442 0.232868
0.868864 0.658488 0.260441
0.895521 0.661418 0.284077
0.916075 0.665766 0.303456
0.930022 0.672297 0.317571
0.935699 0.675883 0.323552
0.935775 0.674754 0.323415
0.935729 0.674022 0.323232
0.93547 0.672923 0.322789
0.935241 0.671839 0.322393
0.934874 0.670985 0.321904
0.934279 0.670329 0.321233
0.0901808 0.704555 0.436072
0.09131 0.70724 0.426383
0.0926528 0.710079 0.415229
0.0944076 0.713008 0.403418
0.0970932 0.71635 0.390082
0.100755 0.719783 0.373007
0.106111 0.723461 0.352438
0.112535 0.726024 0.328984
0.117479 0.725109 0.303548
0.124422 0.72282 0.274113
0.134234 0.717937 0.23888
0.151125 0.710033 0.195895
0.222553 0.728923 0.161944
0.293843 0.742657 0.148241
0.368277 0.746242 0.139757
0.48423 0.725399 0.128283
0.593851 0.707607 0.138308
0.648814 0.706874 0.15436
0.689662 0.708125 0.173266
0.743221 0.709606 0.198306
0.791821 0.708476 0.223407
0.834714 0.708034 0.250813
0.870237 0.708293 0.27686
0.900679 0.708995 0.301228
0.923583 0.713176 0.321675
0.939239 0.719387 0.337072
0.94493 0.725719 0.343954
0.944915 0.7252 0.343771
0.94461 0.724269 0.343206
0.944259 0.72343 0.342611
0.94403 0.722652 0.342153
0.94374 0.722042 0.341695
0.943481 0.721782 0.341375
0.127687 0.746532 0.490013
0.128328 0.748302 0.481849
0.129549 0.750515 0.472892
0.131411 0.753124 0.463706
0.133501 0.755673 0.452949
0.136858 0.758984 0.439628
0.141222 0.762402 0.422522
0.148241 0.766644 0.40145
0.153536 0.767666 0.377981
0.15906 0.766537 0.350484
0.166598 0.763729 0.318624
0.177462 0.758083 0.279774
0.209308 0.757229 0.233295
0.294392 0.780148 0.203464
0.370169 0.792233 0.191257
0.44239 0.79237 0.18262
0.556008 0.768597 0.172137
0.652369 0.753658 0.18468
0.69836 0.753765 0.20119
0.736416 0.755703 0.22031
0.786526 0.757656 0.245914
0.833036 0.755962 0.271626
0.870619 0.756329 0.296681
0.902693 0.757351 0.320577
0.930388 0.759258 0.343328
0.948577 0.763836 0.360723
0.95581 0.769482 0.369741
0.956283 0.770855 0.370748
0.95613 0.770016 0.370245
0.955917 0.769238 0.369604
0.955734 0.768643 0.369039
0.955581 0.768368 0.368643
0.955459 0.767956 0.368277
0.172641 0.788724 0.541817
0.173556 0.790372 0.535729
0.174182 0.791699 0.52842
0.175006 0.793088 0.520546
0.176089 0.794522 0.512001
0.178164 0.796796 0.50164
0.181674 0.800046 0.488334
0.186877 0.803967 0.471763
0.193179 0.807584 0.450797
0.19707 0.807568 0.425971
0.202548 0.806394 0.39646
0.210269 0.803433 0.361486
0.223926 0.799283 0.319539
0.281559 0.810849 0.274708
0.372412 0.831495 0.248432
0.446387 0.839338 0.236881
0.513237 0.836378 0.228504
0.620462 0.811704 0.219791
0.70753 0.799054 0.234958
0.747189 0.800839 0.25243
0.782315 0.802976 0.271077
0.828916 0.804685 0.296925
0.870726 0.803845 0.321889
0.904555 0.805554 0.346014
0.933913 0.808454 0.369741
0.956176 0.810605 0.389578
0.96611 0.815045 0.401236
0.967285 0.817197 0.404028
0.966857 0.816526 0.403021
0.966537 0.815961 0.402106
0.966339 0.815534 0.401297
0.96614 0.814939 0.400565
0.966018 0.814496 0.400076
0.220035 0.829953 0.591775
0.220508 0.831067 0.586404
0.221042 0.832181 0.580392
0.221683 0.833356 0.573831
0.222507 0.834623 0.566583
0.223545 0.836027 0.558099
0.225391 0.837995 0.547875
0.227558 0.840009 0.534432
0.231739 0.843275 0.516838
0.235279 0.845014 0.495979
0.238621 0.844999 0.470329
0.244419 0.844541 0.4392
0.253407 0.841901 0.398703
0.275898 0.841398 0.352087
0.358068 0.861845 0.31397
0.449409 0.877821 0.291493
0.517159 0.880934 0.281651
0.579126 0.87541 0.274525
0.680705 0.851118 0.268925
0.757748 0.842176 0.287816
0.793561 0.844877 0.306188
0.82623 0.847318 0.324849
0.868315 0.848447 0.349035
0.905272 0.8495 0.372503
0.935744 0.852857 0.395819
0.959716 0.855909 0.416709
0.97615 0.858015 0.434592
0.978134 0.860563 0.440711
0.977615 0.860121 0.439002
0.977401 0.859892 0.437797
0.977325 0.859373 0.436667
0.977646 0.858717 0.435721
0.977768 0.858259 0.435126
0.262943 0.865858 0.638148
0.263111 0.866712 0.633219
0.26331 0.867582 0.627665
0.263584 0.868498 0.621927
0.264286 0.869734 0.616114
0.264973 0.871015 0.608927
0.265858 0.87248 0.599893
0.267109 0.87422 0.588647
0.26891 0.876265 0.574228
0.270848 0.878187 0.556146
0.272984 0.879057 0.534569
0.276814 0.879637 0.507469
0.28394 0.879545 0.472709
0.29807 0.879118 0.429419
0.332509 0.881773 0.379782
0.430335 0.904601 0.34818
0.520272 0.914885 0.330266
0.582162 0.914199 0.32282
0.643137 0.905882 0.316838
0.736599 0.885374 0.318013
0.803738 0.879835 0.338552
0.837751 0.883345 0.356771
0.868559 0.88661 0.374624
0.904616 0.887282 0.394888
0.938048 0.890471 0.418952
0.963043 0.893858 0.441505
0.981918 0.897276 0.463264
0.98764 0.898604 0.47776
0.987427 0.898924 0.477852
0.986831 0.898756 0.476188
0.986572 0.898497 0.474784
0.986648 0.898054 0.473732
0.986816 0.897673 0.473167
0.301183 0.896605 0.679957
0.301106 0.897231 0.67541
0.301122 0.897993 0.670375
0.301366 0.898924 0.665583
0.301701 0.899947 0.660365
0.301991 0.901015 0.654032
0.302419 0.902235 0.646464
0.303059 0.903746 0.636881
0.303883 0.905562 0.624765
0.305531 0.907912 0.609583
0.306783 0.909239 0.590875
0.308904 0.910109 0.567773
0.313191 0.91075 0.538659
0.32163 0.910704 0.500847
0.341527 0.912077 0.455375
0.397787 0.923156 0.412924
0.501076 0.942748 0.384405
0.585153 0.946899 0.36791
0.640055 0.944213 0.361944
0.700252 0.933822 0.356619
0.786114 0.917205 0.36286
0.846296 0.91429 0.383536
0.877989 0.91812 0.400717
0.904433 0.920714 0.415976
0.936812 0.923812 0.438132
0.964218 0.927245 0.463615
0.983719 0.93051 0.487907
0.993347 0.931273 0.507607
0.994217 0.931319 0.514626
0.993729 0.931319 0.513146
0.993439 0.931167 0.511559
0.9935 0.930953 0.510506
0.993927 0.93077 0.510231
0.334539 0.921508 0.717449
0.334157 0.921874 0.713359
0.334066 0.922591 0.708919
0.334096 0.923384 0.704616
0.334142 0.924193 0.700023
0.334218 0.925109 0.69456
0.334386 0.926192 0.688136
0.334661 0.927626 0.679973
0.335119 0.929244 0.669535
0.335729 0.931075 0.656214
0.336522 0.932708 0.640513
0.337713 0.934066 0.620432
0.340169 0.935149 0.595529
0.345693 0.936233 0.564599
0.357595 0.937713 0.526467
0.386404 0.941772 0.479683
0.460365 0.959762 0.445869
0.563256 0.976471 0.4177
0.641611 0.974868 0.400473
0.692927 0.969329 0.394583
0.751385 0.956863 0.390127
0.831205 0.943557 0.400687
0.884611 0.942519 0.421027
0.911849 0.945968 0.436179
0.937148 0.950378 0.454505
0.964523 0.954131 0.481926
0.984939 0.956634 0.510155
0.997848 0.958083 0.535012
0.999557 0.957839 0.549661
0.999115 0.957931 0.549615
0.998779 0.958083 0.548165
0.998566 0.958022 0.547005
0.998642 0.957794 0.54638
0.359823 0.938521 0.748821
0.358755 0.938293 0.745052
0.358099 0.938582 0.740932
0.35787 0.939208 0.736904
0.357671 0.939879 0.732509
0.357412 0.940642 0.72726
0.357137 0.941527 0.721172
0.356924 0.942657 0.713603
0.357534 0.944396 0.705287
0.3579 0.946151 0.694011
0.358434 0.948028 0.6804
0.359609 0.949889 0.664347
0.36141 0.951598 0.644221
0.365011 0.953414 0.618311
0.372519 0.955444 0.585718
0.389364 0.959167 0.546441
0.439719 0.975875 0.51191
0.519692 0.998932 0.481544
0.613581 0.998932 0.45156
0.687022 0.998932 0.431342
0.738857 0.988724 0.422904
0.795178 0.975021 0.419944
0.865492 0.964736 0.431662
0.915511 0.964614 0.451759
0.941207 0.968978 0.469398
0.964446 0.973129 0.495232
0.985687 0.975921 0.529168
1 0.977188 0.56109
1 0.977188 0.583993
1 0.97734 0.586374
1 0.977478 0.584894
1 0.977462 0.583886
1 0.977371 0.583368
0.370932 0.944686 0.76759
0.369985 0.944595 0.764019
0.368841 0.944488 0.759945
0.368017 0.944656 0.755901
0.36733 0.944991 0.751614
0.366598 0.945357 0.74667
0.365652 0.945769 0.740444
0.364446 0.946181 0.73312
0.363622 0.94696 0.7243
0.363912 0.948516 0.715328
0.364584 0.950408 0.704753
0.366262 0.952956 0.692531
0.368811 0.956008 0.676432
0.372473 0.959274 0.65594
0.379049 0.963272 0.630152
0.392096 0.968841 0.598505
0.425696 0.983932 0.566461
0.486275 0.998932 0.536233
0.563302 0.998932 0.50988
0.648783 0.998932 0.484886
0.722683 0.998932 0.461662
0.774716 0.996246 0.449393
0.829053 0.981094 0.445975
0.891554 0.974456 0.458793
0.936904 0.976043 0.480415
0.961975 0.979812 0.504692
0.983612 0.983841 0.53959
1 0.987045 0.580301
1 0.987808 0.614572
1 0.988037 0.621637
1 0.988174 0.620203
1 0.98822 0.618967
1 0.988205 0.618585
0.37203 0.944533 0.772457
0.37113 0.944503 0.768856
0.370489 0.944747 0.765377
0.369802 0.945022 0.761501
0.368856 0.945083 0.757458
0.367971 0.945342 0.752667
0.367086 0.945739 0.746929
0.365957 0.946151 0.739696
0.364538 0.946654 0.730785
0.364462 0.948013 0.721843
0.365164 0.949981 0.711803
0.366735 0.952529 0.700359
0.369345 0.955581 0.687678
0.373098 0.959258 0.672068
0.378973 0.963775 0.652461
0.388067 0.969085 0.627588
0.416526 0.985763 0.601358
0.467658 0.998932 0.574868
0.535424 0.998932 0.55201
0.610727 0.998932 0.533822
0.694621 0.998932 0.512322
0.762951 0.998932 0.490776
0.814847 0.995834 0.480964
0.866636 0.983322 0.480232
0.920562 0.979904 0.494423
0.957107 0.981598 0.516869
0.979599 0.984115 0.54612
0.99704 0.986938 0.586511
1 0.987732 0.627558
1 0.987884 0.642878
1 0.988022 0.643503
1 0.987945 0.642542
1 0.987671 0.642512
0.373236 0.944579 0.777432
0.372213 0.944274 0.774166
0.371344 0.944259 0.770748
0.370748 0.94461 0.76701
0.370169 0.945006 0.763027
0.369192 0.945174 0.758358
0.368231 0.945525 0.752834
