bundles/resolve-cinematic-luts/Phantom Luts/P4k & P6k Phntm Arri LUTs - V6/P4K/Gen 4 Colour/White Balance Offset (Magenta Boost)/P4k Neutral Gen4 WBO.cube
TITLE "Generated by Resolve"
LUT_3D_SIZE 33
0 0 0
0 0 0
0.0164492 0 0.00204471
0.0521859 0 0.00749218
0.0850233 0 0.0124208
0.116167 0 0.0177462
0.14995 0 0.0243076
0.188052 0 0.0315404
0.228992 1.5259e-05 0.0392157
0.273976 0.00109865 0.0476539
0.321111 0.00247196 0.05626
0.369757 0.00436408 0.0641337
0.419379 0.00630198 0.0741741
0.470954 0.00848402 0.0861524
0.524742 0.0127413 0.0990463
0.57995 0.0176394 0.111727
0.616037 0.0285039 0.125811
0.6701 0.0340887 0.138933
0.727077 0.0390173 0.152468
0.786969 0.0429236 0.165789
0.843763 0.0475166 0.178622
0.895109 0.0537881 0.191531
0.93814 0.0626841 0.203662
0.967987 0.0750744 0.214069
0.967926 0.0867475 0.219806
0.967666 0.094255 0.224552
0.967758 0.0975967 0.228458
0.96791 0.0990616 0.231861
0.968048 0.100374 0.234775
0.968154 0.101518 0.237583
0.968246 0.102495 0.239902
0.968185 0.103182 0.241978
0.968277 0.103807 0.243687
0 0 0
0 0 0
0.00299077 0 0.000350958
0.0354772 0.000564584 0.00427253
0.0676738 0.0015259 0.00894179
0.100175 0.002121 0.0136721
0.132906 0.00280766 0.0194858
0.170321 0.00288396 0.0258335
0.211292 0.00285344 0.0322881
0.256092 0.00303655 0.0384375
0.304204 0.00294499 0.0441444
0.355291 0.00402838 0.0493477
0.407492 0.00654612 0.0552224
0.460502 0.00915541 0.0665446
0.515724 0.0109712 0.0782788
0.572152 0.0135348 0.0918135
0.609491 0.0228122 0.108049
0.664576 0.0271611 0.12195
0.721431 0.0303655 0.135134
0.781811 0.0336919 0.149187
0.839353 0.0372625 0.162814
0.891722 0.0420996 0.175418
0.936034 0.0491646 0.186984
0.969848 0.059556 0.197635
0.971252 0.0699931 0.203082
0.970947 0.0768902 0.207416
0.970718 0.0836042 0.21146
0.970474 0.0897536 0.215427
0.970245 0.0947433 0.218708
0.970001 0.0993973 0.221836
0.969802 0.103304 0.224521
0.969497 0.106645 0.226932
0.969284 0.109255 0.228916
0 0.00679026 0.00177005
0 0.00454719 0
0.00167849 0.00192264 0
0.0184329 0.00401312 0.000808728
0.0499886 0.00331121 0.00300603
0.0861524 0.00352483 0.00866712
0.120668 0.00518807 0.0149844
0.158114 0.0056611 0.0215457
0.200198 0.00616464 0.0280461
0.245136 0.00611887 0.0337682
0.293919 0.0059968 0.0389105
0.34403 0.00535592 0.0423896
0.394827 0.00503548 0.0439155
0.446891 0.00485237 0.0482185
0.501167 0.00486763 0.053666
0.558114 0.00746166 0.0653086
0.59913 0.0161746 0.0849317
0.655818 0.0208133 0.102296
0.713497 0.0248112 0.118257
0.774182 0.0266575 0.132494
0.833432 0.0293431 0.14638
0.887037 0.0332494 0.159365
0.932906 0.0380865 0.170687
0.968627 0.046479 0.180667
0.974365 0.0560616 0.186419
0.974121 0.0624247 0.190524
0.973892 0.0684825 0.194369
0.973632 0.0743877 0.198138
0.973419 0.0795148 0.201389
0.973129 0.0844282 0.204425
0.972946 0.0884871 0.207034
0.972763 0.0922255 0.209491
0.972625 0.0949416 0.211322
0 0.045304 0.0130465
0 0.0433356 0.00265507
0.00457771 0.0391699 0
0.0294041 0.0380713 0
0.0545357 0.0411841 0.000579843
0.0869306 0.0374304 0.00839246
0.122286 0.0287327 0.0113527
0.157702 0.0241245 0.0132296
0.196811 0.0175784 0.0154879
0.238621 0.0107118 0.0187686
0.282673 0.00860609 0.026627
0.3308 0.0071107 0.0338903
0.383032 0.00669871 0.036408
0.436027 0.00627146 0.0394141
0.490761 0.00607309 0.044892
0.54757 0.00621042 0.0523995
0.585824 0.0125582 0.0648203
0.640253 0.0130312 0.0732586
0.698421 0.0149691 0.0876936
0.761425 0.0197452 0.108949
0.824216 0.0228428 0.126833
0.879393 0.0264897 0.141573
0.927108 0.0322118 0.154604
0.964614 0.039765 0.16466
0.977432 0.0486305 0.170977
0.977157 0.0536812 0.174548
0.976761 0.0587015 0.178149
0.976547 0.0633097 0.181323
0.976349 0.0677348 0.18439
0.976211 0.0716259 0.18706
0.976043 0.0753643 0.189654
0.975875 0.078645 0.191882
0.975753 0.0809644 0.193423
0 0.0828412 0.0273747
0 0.0827649 0.00781262
0 0.0790265 0
0.0192721 0.0749065 0
0.056672 0.0758373 0
0.0881514 0.0774395 0
0.123018 0.0742504 0.00918593
0.161334 0.0620737 0.0160372
0.201617 0.0510414 0.018677
0.243641 0.0455787 0.0204166
0.288823 0.0387427 0.0224918
0.336599 0.0313268 0.0252232
0.384268 0.0238804 0.0281376
0.432837 0.0166934 0.0312657
0.483421 0.00962844 0.0349889
0.537636 0.00814832 0.0447242
0.577722 0.0135958 0.0560311
0.632258 0.0147097 0.064683
0.688258 0.0145724 0.0735637
0.74641 0.0142214 0.0831617
0.806836 0.0134279 0.0928664
0.865538 0.0173648 0.110491
0.917449 0.0230106 0.127184
0.958114 0.031693 0.141024
0.97995 0.0405585 0.149935
0.980468 0.0459602 0.154757
0.980148 0.0512245 0.159091
0.979873 0.0559396 0.162829
0.979629 0.0603037 0.166201
0.979416 0.0641642 0.1691
0.979217 0.0678416 0.171832
0.979065 0.0707866 0.173968
0.978943 0.0730755 0.175616
0 0.118563 0.0359503
0 0.120272 0.0163119
0 0.117342 0
0.00318914 0.113222 0
0.0367895 0.113405 0
0.0858625 0.112764 0
0.117266 0.113634 0
0.158556 0.112596 0
0.20531 0.0976272 0.0165408
0.250889 0.0775616 0.0230411
0.295598 0.0677348 0.0252537
0.343618 0.0603342 0.0276646
0.390158 0.0534981 0.0303502
0.437324 0.0472877 0.033814
0.486107 0.0411994 0.0380255
0.53724 0.0347448 0.0427558
0.579507 0.0315251 0.0510262
0.628199 0.025803 0.057847
0.68043 0.0181735 0.0648966
0.73756 0.0169833 0.0729076
0.798169 0.0162966 0.0822156
0.854795 0.0167849 0.0911116
0.904631 0.0214542 0.100404
0.946288 0.0295262 0.108736
0.975967 0.0383612 0.116869
0.977996 0.0419471 0.122484
0.97969 0.0461128 0.127947
0.980972 0.0492561 0.132464
0.982055 0.0521706 0.136431
0.983032 0.0546273 0.139727
0.983215 0.0572061 0.14258
0.983001 0.0601511 0.14548
0.982818 0.0625467 0.147723
0 0.154604 0.0483864
0 0.158297 0.0242924
0 0.156802 0
0 0.153094 0
0.017319 0.150256 0
0.0642863 0.150729 0
0.11371 0.150011 0
0.146487 0.151186 0
0.19765 0.14873 0
0.247074 0.137697 0.0119631
0.303746 0.113207 0.0240024
0.351904 0.095613 0.0299687
0.397024 0.0911879 0.0325933
0.444099 0.0856947 0.0363928
0.490791 0.0800641 0.0410773
0.539071 0.0755169 0.0469825
0.588357 0.0706645 0.0534524
0.6365 0.0660716 0.0604715
0.68716 0.0594797 0.0665141
0.738979 0.0523079 0.0729534
0.793194 0.0442512 0.0801099
0.845792 0.0362402 0.0885786
0.895033 0.036347 0.0977646
0.938003 0.0450752 0.106325
0.971481 0.0568704 0.113191
0.974044 0.0629435 0.113664
0.973907 0.068452 0.113649
0.973907 0.0734417 0.113832
0.973617 0.0775464 0.113756
0.974838 0.0796674 0.116014
0.976089 0.0817121 0.118807
0.977111 0.0839704 0.121721
0.977859 0.0851606 0.123552
0 0.194385 0.0637064
0 0.198474 0.0379339
0 0.199252 0.0125887
0 0.196414 0
0 0.191333 0
0.0310216 0.193622 0
0.0896773 0.192248 0
0.141741 0.191669 0
0.179797 0.193194 0
0.238331 0.189746 0
0.291157 0.183322 0.00476081
0.355276 0.158465 0.0226444
0.407691 0.135988 0.0342107
0.451728 0.128893 0.0387274
0.498878 0.12549 0.0434272
0.546517 0.122133 0.0496071
0.5953 0.119402 0.0567941
0.6448 0.115755 0.0634318
0.695079 0.11133 0.0697948
0.746349 0.106874 0.0768139
0.79884 0.101625 0.0842451
0.849119 0.0977493 0.0919509
0.893309 0.0957198 0.0991989
0.93283 0.0951095 0.106294
0.964858 0.0969711 0.112856
0.973449 0.092958 0.114275
0.97348 0.0897993 0.114153
0.973419 0.0945602 0.114336
0.973266 0.0982223 0.114427
0.97319 0.101946 0.114565
0.973159 0.105196 0.114733
0.973129 0.108003 0.114885
0.973098 0.109926 0.114992
0 0.236637 0.0783093
0 0.240543 0.0544594
0 0.243275 0.0272221
0 0.241642 0.00222782
0 0.237903 0
0.00321965 0.235996 0
0.0478676 0.239872 0
0.114977 0.237079 0
0.174517 0.236103 0
0.217502 0.237903 0
0.281895 0.235004 0
0.341756 0.231128 0
0.403403 0.210437 0.0177615
0.460395 0.189334 0.0343786
0.508568 0.172305 0.0458381
0.554391 0.169024 0.0524147
0.602838 0.167514 0.0602121
0.651926 0.165774 0.0676432
0.701595 0.163821 0.0748302
0.751507 0.161501 0.0826734
0.802701 0.159243 0.0903792
0.851499 0.157885 0.0982223
0.894148 0.158297 0.105776
0.932036 0.160464 0.112703
0.962661 0.164263 0.118532
0.973159 0.163714 0.120302
0.972961 0.159426 0.119631
0.972915 0.155322 0.119142
0.972885 0.151492 0.118685
0.972915 0.148516 0.118364
0.972885 0.145449 0.118013
0.972885 0.142657 0.117723
0.972885 0.140719 0.117525
0 0.282231 0.0932021
0 0.286107 0.0714122
0 0.290349 0.0462959
0 0.289708 0.0225834
0 0.28719 0
0 0.28249 0
0.0178531 0.285466 0
0.0673686 0.288808 0
0.143526 0.285115 0
0.211566 0.284718 0
0.260304 0.286458 0
0.328664 0.284901 0
0.392615 0.28072 0
0.45156 0.267826 0.00846876
0.512169 0.248325 0.0315557
0.562249 0.234745 0.0486915
0.608072 0.22475 0.0630808
0.657069 0.219242 0.0743114
0.705699 0.218448 0.0826276
0.754192 0.217853 0.0908522
0.803998 0.217594 0.0991836
0.851377 0.217441 0.107103
0.893309 0.218647 0.114565
0.930724 0.221118 0.121324
0.961151 0.22475 0.127031
0.974395 0.225834 0.129641
0.974319 0.222461 0.129061
0.974227 0.219333 0.128527
0.97406 0.21648 0.127962
0.974121 0.214069 0.127642
0.974151 0.211765 0.127306
0.97409 0.209644 0.126955
0.974014 0.208209 0.12668
0 0.331167 0.109545
0 0.334874 0.0899825
0 0.338872 0.0671244
0 0.341039 0.043946
0 0.339788 0.0197299
0 0.336568 0
0 0.332921 0
0.0356298 0.338491 0
0.0903639 0.341314 0
0.177691 0.337118 0
0.252781 0.336583 0
0.307576 0.338766 0
0.376684 0.338445 0
0.442466 0.335073 0
0.500999 0.328634 0
0.56144 0.311849 0.0269017
0.612802 0.300511 0.0515145
0.657649 0.294575 0.0679942
0.704997 0.284703 0.0857557
0.754574 0.274372 0.101305
0.803693 0.274174 0.109789
0.850294 0.274372 0.117784
0.892271 0.275547 0.124987
0.929183 0.277317 0.131258
0.959426 0.281056 0.137301
0.97583 0.282811 0.140703
0.975647 0.280201 0.140063
0.97557 0.277714 0.139528
0.975509 0.27541 0.139055
0.975448 0.27332 0.138613
0.975494 0.271656 0.138338
0.975433 0.270161 0.137987
0.975402 0.269032 0.137758
0 0.380713 0.129717
0 0.384054 0.110338
0 0.387686 0.0899062
0 0.391745 0.0666056
0 0.391485 0.0450294
0 0.390143 0.0173495
0 0.386206 0
0 0.386145 0
0.0576486 0.39057 0
0.117906 0.392752 0
0.219608 0.388144 0
0.301228 0.388128 0
0.356878 0.390845 0
0.424506 0.39118 0
0.490608 0.389746 0
0.549569 0.385458 0
0.608133 0.373053 0.0258488
0.660517 0.362905 0.0540475
0.705776 0.356985 0.0739757
0.750439 0.351598 0.0920272
0.800549 0.341192 0.111162
0.84892 0.329747 0.128298
0.890425 0.329793 0.136324
0.927016 0.331563 0.14287
0.957549 0.334874 0.149172
0.977096 0.337591 0.153445
0.977111 0.335485 0.153002
0.977066 0.333349 0.152453
0.977035 0.331395 0.151965
0.976867 0.329671 0.151431
0.976837 0.328099 0.151049
0.976791 0.326711 0.150713
0.976776 0.325765 0.150484
0 0.429877 0.156085
0 0.433173 0.136675
0 0.436637 0.116228
0 0.440345 0.0949264
0 0.442924 0.0728466
0 0.442161 0.0486305
0 0.440772 0.0162051
0 0.436454 0
0.0224613 0.438911 0
0.0828717 0.442908 0
0.155535 0.44387 0
0.268818 0.438895 0
0.356054 0.43975 0
0.406027 0.44303 0
0.47335 0.443946 0
0.537774 0.443503 0
0.596857 0.439536 0
0.654353 0.432197 0.0246738
0.70724 0.422095 0.0569162
0.753368 0.416403 0.080827
0.797299 0.413352 0.0995804
0.843366 0.4065 0.118196
0.885481 0.400031 0.13431
0.922911 0.394705 0.148013
0.953979 0.392218 0.159258
0.977874 0.391653 0.167514
0.977859 0.389761 0.167025
0.977981 0.388205 0.16669
0.97792 0.386648 0.166232
0.977859 0.385168 0.165805
0.977844 0.383825 0.165454
0.977829 0.38262 0.165148
0.977813 0.381826 0.164935
0 0.479545 0.18819
0 0.482612 0.169909
0 0.485954 0.14995
0 0.48954 0.128786
0 0.493675 0.105104
0 0.494392 0.0820325
0 0.493675 0.0543679
0 0.491951 0.0159457
0 0.489189 0
0.0502785 0.491951 0
0.112581 0.495018 0
0.20177 0.494469 0
0.325887 0.489616 0
0.408072 0.491096 0
0.455009 0.494591 0.00228885
0.521233 0.495964 0.00453193
0.58497 0.495888 0
0.643198 0.492439 0.00883497
0.700679 0.487861 0.023682
0.753201 0.478676 0.0606546
0.801099 0.473182 0.0886244
0.841291 0.471519 0.106569
0.879911 0.468681 0.123293
0.916625 0.465431 0.140032
0.947448 0.463783 0.153353
0.972259 0.463996 0.163684
0.972808 0.463081 0.164355
0.972808 0.461204 0.164279
0.972946 0.459373 0.164416
0.973144 0.457847 0.164614
0.973342 0.456489 0.164797
0.973434 0.455146 0.164889
0.973495 0.454261 0.16492
0 0.528344 0.226154
0 0.531243 0.209323
0 0.534813 0.189441
0 0.538247 0.169345
0 0.542153 0.146517
0 0.545922 0.119661
0 0.545739 0.0931563
0 0.545235 0.062623
0 0.543709 0.0166323
0 0.542077 0
0.0824903 0.54403 0
0.151614 0.546304 0
0.255177 0.54461 0
0.383886 0.539986 0.00791943
0.457359 0.542458 0.00582895
0.503639 0.545785 0.0161135
0.568505 0.547402 0.0191043
0.631052 0.547234 0.0150759
0.688945 0.543923 0.0208743
0.744869 0.539574 0.0359655
0.799115 0.532723 0.0654765
0.84358 0.528267 0.0954452
0.878859 0.527977 0.114214
0.911467 0.52845 0.129702
0.94136 0.527718 0.145434
0.965621 0.528649 0.158404
0.968139 0.529305 0.161089
0.96817 0.527794 0.161089
0.968277 0.526375 0.161135
0.968353 0.525078 0.161181
0.968444 0.523888 0.161242
0.968505 0.522835 0.161288
0.968551 0.522164 0.161303
0 0.577279 0.268025
0 0.580102 0.251637
0 0.583154 0.234318
0 0.586419 0.215869
0 0.590143 0.194568
0 0.594949 0.167376
0 0.597009 0.138552
0 0.596887 0.107012
0 0.596277 0.0704814
0 0.594675 0.0164187
0.0349432 0.594141 0
0.120623 0.595376 0
0.198413 0.597162 0
0.31519 0.594781 0.0127871
0.44097 0.590478 0.0207675
0.506523 0.593561 0.0176852
0.551537 0.596475 0.0301366
0.614878 0.597864 0.0346532
0.676371 0.597269 0.0315862
0.733822 0.593973 0.0374609
0.788708 0.589776 0.0511482
0.841367 0.585367 0.0710918
0.879362 0.581872 0.104387
0.910704 0.582574 0.125216
0.936675 0.585184 0.138445
0.960357 0.586999 0.154147
0.96495 0.589059 0.160189
0.964996 0.5879 0.160174
0.965042 0.58677 0.16022
0.965072 0.585748 0.160266
0.965118 0.584817 0.160311
0.965148 0.583978 0.160281
0.965179 0.583444 0.160281
0 0.62594 0.31284
0 0.628412 0.298253
0 0.631189 0.281987
0 0.634119 0.264866
0 0.637568 0.244282
0 0.641917 0.219303
0 0.646784 0.189029
0 0.647105 0.158053
0 0.647135 0.121141
0 0.646494 0.0764019
0 0.64596 0.0137179
0.0806744 0.644923 0
0.169085 0.645762 0.000793469
0.251652 0.647608 0.0147707
0.379675 0.644175 0.0285496
0.496925 0.640665 0.0336309
0.554635 0.643931 0.032105
0.598321 0.646159 0.0468605
0.659892 0.647334 0.0522316
0.720043 0.645777 0.0508125
0.777035 0.642084 0.0570993
0.830274 0.638361 0.0713817
0.876036 0.634424 0.0931868
0.910124 0.634516 0.118044
0.93608 0.636088 0.142077
0.956634 0.640818 0.154833
0.963027 0.644572 0.164126
0.963104 0.643717 0.164096
0.963226 0.642969 0.164111
0.963272 0.642206 0.164019
0.963287 0.641443 0.163943
0.963302 0.640772 0.163851
0.963302 0.64036 0.16376
0 0.674479 0.35729
0 0.676646 0.344564
0 0.679026 0.3308
0 0.68159 0.315984
0 0.684764 0.29749
0 0.688792 0.27422
0 0.693721 0.245197
0 0.696803 0.212833
0 0.697154 0.177874
0 0.696971 0.135225
0 0.69601 0.0802472
0 0.696132 0.00231937
0.131731 0.69485 0.0034638
0.225101 0.695201 0.01944
0.311421 0.697292 0.0327459
0.444236 0.69276 0.0471351
0.550851 0.690044 0.0477913
0.601404 0.693172 0.0485237
0.643763 0.694697 0.0646372
0.703136 0.695537 0.071046
0.762509 0.692836 0.0726787
0.817853 0.689082 0.0829175
0.865812 0.686137 0.0991989
0.906859 0.683085 0.124681
0.934951 0.684413 0.152209
0.956329 0.68838 0.171054
0.962631 0.694911 0.179736
0.962615 0.694789 0.179995
0.962631 0.694179 0.179538
0.962646 0.693584 0.179095
0.962661 0.693065 0.178714
0.962737 0.692653 0.17847
0.962783 0.692393 0.178286
0 0.722683 0.398779
0 0.724575 0.387854
0 0.726574 0.376287
0 0.728786 0.36376
0 0.731517 0.348516
0 0.735042 0.328969
0 0.739513 0.30341
0 0.745205 0.269978
0 0.746014 0.236316
0 0.746288 0.196155
0 0.74583 0.146777
0 0.745083 0.082002
0.0381781 0.745434 0.00550851
0.192157 0.743267 0.0238499
0.287007 0.743725 0.040238
0.370596 0.746197 0.0520638
0.505638 0.740169 0.0660258
0.602457 0.738003 0.062501
0.646342 0.740902 0.0658732
0.68777 0.74197 0.0840925
0.745495 0.742947 0.0921645
0.803906 0.738994 0.0979782
0.853834 0.736431 0.113558
0.896681 0.734066 0.134951
0.931838 0.732067 0.170352
0.954955 0.733898 0.197818
0.962402 0.738888 0.213931
0.962539 0.740963 0.215518
0.962524 0.740459 0.215137
0.962524 0.739971 0.214755
0.962493 0.739528 0.214328
0.962432 0.739147 0.213931
0.962402 0.738903 0.213687
0.0105287 0.770672 0.438651
0.00833143 0.772412 0.429053
0.00588998 0.774289 0.418738
0.00321965 0.776349 0.407675
0.000167849 0.778729 0.39469
0 0.781842 0.378225
0 0.78587 0.356832
0 0.791043 0.329076
0 0.794675 0.29575
0 0.7953 0.257877
0 0.795422 0.211765
0 0.794812 0.154147
0.00424201 0.795285 0.0804761
0.114107 0.794644 0.0265507
0.257786 0.791409 0.0469215
0.349462 0.792279 0.0616922
0.427253 0.794812 0.0716564
0.563027 0.787228 0.0849928
0.652049 0.785489 0.0786297
0.691142 0.788907 0.0860304
0.731579 0.789837 0.105196
0.78851 0.790234 0.116197
0.842069 0.786419 0.13048
0.885664 0.784863 0.154635
0.922286 0.783444 0.191836
0.950881 0.781918 0.228016
0.96286 0.785168 0.248722
0.962753 0.787945 0.25568
0.962783 0.787594 0.253971
0.962783 0.787228 0.252506
0.962798 0.786877 0.251255
0.962814 0.786542 0.250187
0.962829 0.786343 0.24976
0.0228122 0.817792 0.476005
0.0209354 0.819242 0.467567
0.0189059 0.820783 0.458595
0.0165713 0.822522 0.448859
0.0137636 0.824582 0.4374
0.010193 0.827192 0.423117
0.00576791 0.830518 0.404715
6.10361e-05 0.834821 0.381079
0 0.840436 0.350195
0 0.841413 0.317769
0 0.842008 0.276204
0 0.841886 0.223575
0.00520333 0.840711 0.154604
0.0279545 0.842573 0.0695506
0.199908 0.839185 0.0509346
0.326589 0.835843 0.0711986
0.407645 0.837064 0.0834058
0.482048 0.838666 0.0922866
0.618341 0.830869 0.103304
0.698741 0.830732 0.0987411
0.735241 0.834409 0.110048
0.77554 0.83534 0.130968
0.829358 0.833982 0.147265
0.875975 0.831189 0.173358
0.912749 0.830671 0.217624
0.942611 0.830014 0.255848
0.962829 0.829404 0.291691
0.962676 0.831952 0.307408
0.962707 0.831815 0.304051
0.962753 0.831678 0.30103
0.962829 0.831571 0.298451
0.962875 0.831449 0.296269
0.96289 0.831373 0.295125
0.0357824 0.859312 0.511727
0.0342107 0.860487 0.504265
0.0323339 0.861799 0.496147
0.0302892 0.863233 0.487556
0.0278325 0.864942 0.47747
0.0247959 0.867094 0.464652
0.020737 0.869871 0.448692
0.0157168 0.873365 0.428305
0.00914015 0.877928 0.401755
0.00526436 0.881056 0.370687
0.00581369 0.881727 0.335378
0.00820935 0.882322 0.289769
0.0130312 0.882048 0.229221
0.0273899 0.882521 0.152605
0.0753796 0.883665 0.0587167
0.286549 0.875959 0.0782788
0.389822 0.873899 0.0944686
0.462776 0.875471 0.104692
0.543557 0.876173 0.115648
0.673411 0.869978 0.123522
0.742 0.871321 0.123644
0.778256 0.875059 0.137942
0.817563 0.875731 0.160983
0.866026 0.872709 0.185611
0.905745 0.870756 0.242252
0.935607 0.870604 0.287114
0.958724 0.87097 0.326543
0.962234 0.870985 0.355657
0.962234 0.871397 0.356146
0.962188 0.871412 0.353384
0.962142 0.871397 0.351049
0.962097 0.871321 0.349279
0.962097 0.87126 0.34815
0.0485542 0.895247 0.545403
0.0470588 0.896315 0.538231
0.0454414 0.897398 0.530892
0.0437476 0.898558 0.523095
0.0417182 0.899931 0.514076
0.0390631 0.901671 0.502983
0.0354925 0.903975 0.488701
0.0308995 0.90692 0.47071
0.0250095 0.910719 0.447562
0.0184482 0.915236 0.417823
0.0184176 0.915969 0.386877
0.0196841 0.916884 0.347936
0.0227359 0.917128 0.296635
0.0295567 0.916548 0.225849
0.0532845 0.918608 0.139452
0.17348 0.917327 0.082948
0.364202 0.907591 0.104891
0.449058 0.907576 0.118288
0.516197 0.909606 0.127947
0.605188 0.909194 0.14081
0.727764 0.905089 0.145602
0.784283 0.907622 0.151827
0.820401 0.910979 0.168383
0.855192 0.909316 0.203113
0.898619 0.906828 0.26276
0.930785 0.905791 0.317723
0.954299 0.90573 0.358587
0.963867 0.904768 0.392416
0.963943 0.904616 0.402808
0.963928 0.904677 0.400336
0.963912 0.904692 0.398062
0.963897 0.904692 0.396155
0.963882 0.904662 0.395102
0.0607309 0.925338 0.577157
0.0594034 0.926207 0.570581
0.0579843 0.927123 0.563912
0.0565347 0.928069 0.556893
0.0547799 0.929152 0.548791
0.0523842 0.930587 0.538506
0.0493172 0.932418 0.525811
0.0453346 0.934768 0.509667
0.0401465 0.937835 0.48893
0.0334783 0.941756 0.46247
0.0309453 0.943847 0.432883
0.0314183 0.944717 0.398413
0.0335241 0.945342 0.354406
0.0405432 0.944808 0.300282
0.0560006 0.945388 0.227756
0.0956436 0.947555 0.128832
0.272251 0.942153 0.118959
0.432105 0.934798 0.13817
0.506386 0.935607 0.149233
0.573831 0.937026 0.159792
0.664622 0.93611 0.170733
0.781323 0.933852 0.173953
0.824475 0.936721 0.187945
0.85684 0.93817 0.213306
0.890639 0.936721 0.277424
0.926772 0.934905 0.343465
0.951949 0.933944 0.38999
0.966659 0.933242 0.425849
0.966796 0.932479 0.44622
0.966781 0.932601 0.443854
0.966766 0.932677 0.441855
0.966766 0.932708 0.440085
0.966751 0.932723 0.439109
0.0721752 0.948775 0.60766
0.070985 0.949462 0.601617
0.0697032 0.950179 0.5953
0.0683757 0.950942 0.588769
0.0668498 0.951843 0.581155
0.0648356 0.953017 0.571771
0.0621653 0.954543 0.560189
0.0587778 0.956481 0.545556
0.0541238 0.958968 0.526894
0.0480812 0.962188 0.502922
0.0474556 0.963699 0.479515
0.049012 0.964172 0.450721
0.0518502 0.964614 0.41442
0.0565805 0.964706 0.368017
0.0654765 0.964385 0.308003
0.092607 0.966949 0.231662
0.213199 0.967498 0.191226
0.365499 0.961776 0.189334
0.494057 0.956817 0.18674
0.562707 0.957534 0.196597
0.635019 0.957656 0.207218
0.719127 0.957473 0.214527
0.820661 0.957046 0.21915
0.859922 0.959258 0.237125
0.889647 0.960296 0.288853
0.921752 0.95877 0.364065
0.949691 0.957061 0.418936
0.969192 0.955871 0.460639
0.969406 0.95494 0.488853
0.96939 0.955108 0.486702
0.96939 0.9552 0.484871
0.969375 0.955245 0.483574
0.96936 0.955261 0.482734
0.0798199 0.95906 0.636469
0.0786908 0.959197 0.630747
0.077409 0.959381 0.624811
0.0760052 0.959609 0.618418
0.0743725 0.959869 0.611093
0.0723125 0.960204 0.602106
0.0697032 0.960632 0.59118
0.066392 0.961196 0.577295
0.0646372 0.962173 0.562188
0.0650339 0.963256 0.546014
0.0651102 0.964645 0.526192
0.0671092 0.966522 0.500816
0.0692607 0.96875 0.4692
0.072694 0.971237 0.429099
0.0798199 0.97348 0.3776
0.0983597 0.974853 0.317632
0.196857 0.974472 0.281697
0.326024 0.971206 0.271611
0.442344 0.965896 0.272465
0.555108 0.962036 0.270039
0.623682 0.961135 0.274418
0.691875 0.960067 0.278172
0.767559 0.960143 0.278798
0.850431 0.963867 0.292088
0.887221 0.966033 0.324559
0.915404 0.967483 0.3776
0.946181 0.969238 0.438575
0.967681 0.970214 0.490455
0.971389 0.970703 0.529458
0.971389 0.970703 0.529427
0.971389 0.970703 0.527871
0.971405 0.970703 0.526528
0.971405 0.970703 0.525841
0.0828717 0.95874 0.645212
0.0818494 0.958999 0.639979
0.0806439 0.959182 0.634211
0.0793317 0.959381 0.628199
0.0778668 0.959564 0.621256
0.0759442 0.959854 0.612696
0.0734264 0.96025 0.60209
0.0702525 0.960769 0.589075
0.0674144 0.961471 0.573632
0.0683146 0.962417 0.558419
0.0689097 0.963699 0.539864
0.0724346 0.965255 0.520073
0.0773785 0.967132 0.497337
0.0839094 0.969284 0.469429
0.0931868 0.971557 0.434455
0.110674 0.973663 0.388922
0.202106 0.974441 0.363424
0.314366 0.973159 0.353216
0.413931 0.970428 0.349523
0.507561 0.966354 0.353033
0.6103 0.963149 0.351858
0.682673 0.961654 0.356603
0.745861 0.961517 0.360418
0.813031 0.962356 0.362402
0.877546 0.966125 0.377584
0.912047 0.967697 0.407691
0.939513 0.969177 0.451926
0.964263 0.970321 0.506691
0.971557 0.970932 0.555718
0.971633 0.971023 0.563409
0.971633 0.971008 0.561669
0.971618 0.970993 0.560204
0.971603 0.970977 0.559487
0.0857557 0.958541 0.652079
0.0846571 0.958679 0.646784
0.0835737 0.958892 0.641352
0.0824445 0.959197 0.635477
0.0809644 0.959411 0.628748
0.0791028 0.959686 0.620401
0.0767529 0.960021 0.610193
0.0737621 0.960494 0.597314
0.0698253 0.961135 0.581353
