bundles/resolve-cinematic-luts/Phantom Luts/P4k & P6K Phntm Film LUTs - V6/P4K/Gen 5 Colour/Standard (No WB Offset)/P4k Eterna Gen5-Legacy.cube
TITLE "Generated by Resolve"
LUT_3D_SIZE 33
0.0167849 0.0445258 0.0445716
0.0167849 0.0445258 0.0445563
0.016968 0.0444953 0.044358
0.0277256 0.0467079 0.0472572
0.0385748 0.049546 0.0495918
0.050782 0.0518807 0.0498207
0.0639506 0.0544442 0.0494698
0.0790112 0.0574807 0.0499123
0.0967727 0.0605631 0.0511635
0.117723 0.0630503 0.0536507
0.145571 0.0654459 0.0565957
0.180072 0.0692149 0.0620737
0.22446 0.0740368 0.0694896
0.27776 0.0814069 0.0808118
0.337758 0.0901045 0.0935531
0.40145 0.100053 0.108812
0.471168 0.110887 0.125261
0.5505 0.122393 0.143633
0.633692 0.135698 0.164218
0.697307 0.15285 0.185901
0.718441 0.160708 0.194049
0.723079 0.162921 0.196658
0.724926 0.164202 0.198184
0.726497 0.165133 0.199435
0.72781 0.166003 0.200534
0.728618 0.166567 0.201297
0.729625 0.166735 0.201953
0.731273 0.166705 0.202609
0.734234 0.166552 0.20354
0.738155 0.166049 0.204837
0.744442 0.165881 0.20795
0.750134 0.165148 0.209766
0.755611 0.164263 0.211551
0.0177768 0.0440528 0.0429694
0.0170596 0.0443885 0.0441138
0.016968 0.0444343 0.0442817
0.0260929 0.047013 0.0459602
0.0361486 0.0501869 0.046952
0.0467231 0.0526436 0.0465858
0.0615702 0.0554971 0.0466316
0.0775006 0.0576944 0.0463417
0.09514 0.0594034 0.0467231
0.116335 0.0613718 0.0487984
0.144869 0.0644694 0.0529946
0.180102 0.0682078 0.0586099
0.223865 0.0720684 0.0660563
0.276921 0.0788434 0.0762493
0.337224 0.0883803 0.0897993
0.402655 0.098558 0.105165
0.473762 0.109743 0.12224
0.556252 0.122057 0.142184
0.640803 0.136172 0.163989
0.700587 0.153124 0.185245
0.722744 0.161151 0.19382
0.724544 0.162097 0.195209
0.725872 0.162829 0.196307
0.726864 0.163516 0.197269
0.72784 0.164172 0.198245
0.728634 0.164706 0.198962
0.729549 0.165103 0.199542
0.73106 0.165316 0.20032
0.733562 0.165209 0.201083
0.736996 0.164706 0.202289
0.74165 0.163821 0.203525
0.746777 0.16286 0.20502
0.752346 0.161822 0.206622
0.0177462 0.0440681 0.0430304
0.0170596 0.0443885 0.0441291
0.016907 0.0444648 0.0443732
0.0224918 0.0467384 0.0457923
0.0326238 0.0505531 0.0475471
0.0424506 0.053666 0.0482185
0.0569924 0.057084 0.0486152
0.0742962 0.0593729 0.0484016
0.0924392 0.0607614 0.0482795
0.115007 0.0624857 0.0495003
0.144106 0.0656443 0.0527047
0.180392 0.0694285 0.0580606
0.224552 0.0737469 0.0654002
0.278141 0.0804303 0.0761273
0.33991 0.0888228 0.0893873
0.408942 0.0991836 0.105364
0.484565 0.11017 0.12282
0.57055 0.122667 0.14374
0.655848 0.137407 0.166384
0.7093 0.153445 0.186267
0.729046 0.160662 0.194202
0.73048 0.161273 0.195361
0.731304 0.161624 0.19617
0.73196 0.16202 0.196857
0.732555 0.162478 0.197559
0.73315 0.162921 0.198169
0.733654 0.163241 0.198642
0.734249 0.16347 0.199054
0.735363 0.1635 0.199573
0.737408 0.163287 0.200336
0.741161 0.162661 0.201205
0.745708 0.161822 0.202518
0.751202 0.160708 0.203937
0.0192264 0.0470893 0.0457313
0.0188754 0.0478981 0.0465248
0.0186465 0.0477913 0.0463264
0.0198672 0.0483101 0.0464027
0.0289921 0.052369 0.0485237
0.0383917 0.0557717 0.0501259
0.051957 0.0586404 0.0505379
0.070573 0.0609751 0.0509651
0.0912337 0.0625162 0.0512398
0.115068 0.064271 0.0519722
0.145205 0.0673686 0.0544289
0.182864 0.0713512 0.0592508
0.227314 0.0759136 0.0661936
0.279927 0.0829786 0.0765087
0.34136 0.0914931 0.0896925
0.411551 0.101946 0.105318
0.488884 0.113207 0.123674
0.576745 0.125643 0.144411
0.663355 0.1411 0.167819
0.712169 0.1561 0.186267
0.729625 0.162402 0.193606
0.731044 0.162661 0.194522
0.732006 0.162844 0.1953
0.732631 0.163134 0.196002
0.733104 0.163394 0.196582
0.733516 0.163622 0.19704
0.733776 0.163775 0.19736
0.734218 0.163836 0.197681
0.735134 0.163745 0.198047
0.737224 0.163378 0.198795
0.741054 0.162661 0.199817
0.745708 0.16173 0.200931
0.751293 0.160586 0.202304
0.0245212 0.0585946 0.0538949
0.0240635 0.0594186 0.054551
0.023743 0.0593576 0.0535286
0.0253147 0.0581979 0.0512856
0.0313726 0.0593423 0.0513771
0.0382239 0.0606699 0.0530709
0.0486915 0.0623178 0.0538949
0.0679026 0.0647135 0.0539101
0.0906844 0.0664988 0.0547036
0.115389 0.0675059 0.055436
0.147082 0.0698558 0.0577707
0.185367 0.0730449 0.0612955
0.231937 0.0781415 0.0682841
0.283986 0.0849775 0.077821
0.34461 0.094377 0.0906081
0.41384 0.105348 0.10576
0.492363 0.116136 0.123751
0.583215 0.128908 0.14548
0.670359 0.144945 0.169467
0.71574 0.159121 0.186816
0.730266 0.164248 0.193271
0.731975 0.164538 0.194064
0.733257 0.164782 0.194995
0.734249 0.16495 0.195789
0.734874 0.165042 0.196292
0.735088 0.165057 0.196612
0.735271 0.165087 0.196872
0.735576 0.165042 0.197131
0.736263 0.16492 0.197513
0.738491 0.164462 0.198138
0.742321 0.163592 0.198978
0.747051 0.162478 0.200183
0.752651 0.161181 0.201343
0.0283818 0.0674144 0.0607462
0.0278782 0.0683909 0.0611124
0.0279088 0.0688487 0.0610208
0.027451 0.0678721 0.0576486
0.0338293 0.0672618 0.0549935
0.0411078 0.0688029 0.0549783
0.051606 0.0696117 0.0575418
0.0692302 0.0716716 0.0589151
0.0935683 0.0742657 0.0594949
0.120729 0.075227 0.0607004
0.150408 0.0752575 0.0615091
0.189822 0.0768444 0.064622
0.23682 0.0800336 0.0701915
0.290013 0.0870527 0.0798199
0.34992 0.0970321 0.0917372
0.418143 0.108141 0.106493
0.496361 0.119768 0.124498
0.587869 0.132357 0.145571
0.676463 0.149081 0.170367
0.71928 0.162402 0.186923
0.731029 0.166369 0.192599
0.732555 0.166613 0.1935
0.733562 0.16669 0.193957
0.734386 0.166735 0.194553
0.73521 0.166842 0.195102
0.73579 0.16701 0.195605
0.736171 0.167132 0.195941
0.736706 0.167132 0.196231
0.737652 0.166979 0.196551
0.73994 0.166522 0.197162
0.744167 0.165637 0.198199
0.749432 0.164508 0.199557
0.755474 0.163241 0.200763
0.0327306 0.0781415 0.066453
0.0321965 0.0800183 0.0667582
0.0319066 0.08159 0.0669871
0.0318303 0.0815595 0.065568
0.0332036 0.0798657 0.0611734
0.0432746 0.0798199 0.0592203
0.0523384 0.0808118 0.0576944
0.0720073 0.0809491 0.0602884
0.0977188 0.0829786 0.0624247
0.129183 0.0867323 0.0648966
0.161929 0.0864118 0.0660716
0.198291 0.0864118 0.0682231
0.242252 0.086656 0.0726177
0.295506 0.091722 0.0819715
0.355795 0.100252 0.0934768
0.42359 0.111604 0.108202
0.500404 0.123827 0.125505
0.591531 0.137621 0.146304
0.681468 0.155459 0.171237
0.72253 0.168658 0.18732
0.729137 0.170382 0.190463
0.73019 0.170382 0.191272
0.730983 0.170397 0.192004
0.731701 0.170443 0.192615
0.732525 0.170733 0.193042
0.733364 0.171038 0.193347
0.733913 0.171206 0.19353
0.734432 0.171298 0.193698
0.735286 0.171359 0.193957
0.736751 0.171252 0.194446
0.739513 0.17084 0.195087
0.743603 0.170092 0.196048
0.74844 0.169162 0.197284
0.0408179 0.0933089 0.0703288
0.0389715 0.0966049 0.0720378
0.0375677 0.0994583 0.0733043
0.0368048 0.101076 0.0731518
0.0370031 0.100923 0.0709697
0.0409552 0.0986191 0.0658427
0.0540627 0.0994278 0.0642863
0.0684367 0.100023 0.0617685
0.0969406 0.0986648 0.0646983
0.134524 0.103471 0.0706798
0.177737 0.104356 0.0741741
0.217807 0.103944 0.0760662
0.258503 0.101656 0.0789807
0.307988 0.102998 0.0866255
0.366018 0.107439 0.0973373
0.435935 0.116533 0.111833
0.514061 0.128054 0.129076
0.605585 0.142565 0.149722
0.690318 0.160388 0.173068
0.734859 0.176135 0.190234
0.735958 0.176791 0.190509
0.737087 0.177249 0.190951
0.738506 0.177569 0.191669
0.739849 0.177905 0.19234
0.740917 0.178225 0.192889
0.741573 0.178592 0.193133
0.742077 0.178927 0.193286
0.742489 0.179202 0.193408
0.742977 0.179385 0.1935
0.74403 0.17937 0.193668
0.745739 0.179171 0.194034
0.748714 0.178622 0.194614
0.752621 0.177874 0.195529
0.0463874 0.11397 0.0803082
0.0442512 0.117739 0.0814679
0.0422675 0.12108 0.0823835
0.0411841 0.123842 0.0821393
0.0408484 0.12549 0.0804303
0.0419471 0.124697 0.0771038
0.0480201 0.122057 0.070985
0.0663767 0.124163 0.069337
0.0882124 0.124239 0.0657206
0.127581 0.123384 0.0711833
0.184222 0.129809 0.0805066
0.241123 0.127169 0.0853285
0.289204 0.125704 0.0892958
0.33489 0.124941 0.0953994
0.387808 0.126848 0.104631
0.455116 0.132494 0.118059
0.535103 0.14049 0.134493
0.624826 0.150546 0.153765
0.704051 0.165316 0.176074
0.751553 0.182223 0.194629
0.752544 0.183246 0.194842
0.753429 0.183948 0.195163
0.754131 0.184543 0.195377
0.755001 0.18529 0.195621
0.75584 0.185977 0.19585
0.756664 0.186542 0.196139
0.757336 0.187045 0.196338
0.757824 0.187488 0.196475
0.758282 0.187915 0.196597
0.758648 0.188144 0.196704
0.759365 0.188251 0.196872
0.760571 0.188159 0.197223
0.763027 0.187778 0.197803
0.0524453 0.140154 0.0941787
0.0505226 0.144396 0.0952926
0.0476692 0.148898 0.0957656
0.0461585 0.152773 0.0953994
0.0450141 0.155978 0.09337
0.0453346 0.157519 0.0904097
0.0467689 0.15613 0.0863203
0.0547341 0.152834 0.0779431
0.0836957 0.156909 0.0759594
0.113863 0.155932 0.0703746
0.168215 0.155581 0.0786755
0.248936 0.163073 0.0916152
0.322179 0.158999 0.100298
0.38172 0.16141 0.108537
0.440223 0.163836 0.118532
0.502113 0.166873 0.130205
0.575509 0.17232 0.144594
0.659052 0.180209 0.1617
0.737026 0.195438 0.184497
0.779538 0.20882 0.202228
0.778851 0.207446 0.202182
0.777646 0.206317 0.20177
0.778607 0.207385 0.20206
0.780331 0.208789 0.202594
0.78204 0.210254 0.203067
0.783703 0.211627 0.20351
0.785031 0.212909 0.203967
0.786038 0.213825 0.204105
0.786694 0.214511 0.20415
0.787274 0.21503 0.204318
0.7879 0.215244 0.204486
0.789075 0.21532 0.204807
0.79118 0.215351 0.205402
0.0599374 0.17641 0.113359
0.0574197 0.181857 0.114565
0.0542153 0.187549 0.115328
0.0521859 0.192676 0.114961
0.0507668 0.196963 0.113451
0.0501259 0.200702 0.110475
0.0503243 0.202914 0.105257
0.0522316 0.200229 0.0986191
0.0629892 0.195575 0.0867018
0.107271 0.203403 0.0843519
0.148318 0.201816 0.0771191
0.223499 0.201282 0.088777
0.336828 0.217487 0.105165
0.433265 0.214893 0.118853
0.512551 0.21976 0.131731
0.589212 0.224674 0.1458
0.665415 0.228977 0.160388
0.739513 0.236347 0.178119
0.792432 0.248936 0.199466
0.824842 0.259937 0.214466
0.829953 0.262333 0.216358
0.83061 0.263066 0.216526
0.831632 0.264164 0.216846
0.832883 0.265812 0.217319
0.834607 0.267796 0.217975
0.836408 0.269612 0.218524
0.838163 0.271733 0.21886
0.839506 0.273335 0.219303
0.840467 0.274495 0.219593
0.841245 0.275273 0.219974
0.84184 0.275807 0.220295
0.842588 0.275868 0.220584
0.843793 0.276173 0.221057
0.0695811 0.226627 0.137636
0.0654459 0.233875 0.139116
0.0610819 0.241184 0.140017
0.0586099 0.247715 0.140215
0.0568856 0.254917 0.140154
0.0565042 0.261265 0.138796
0.0558785 0.266804 0.135103
0.0562448 0.268956 0.127749
0.0596475 0.26479 0.116014
0.0738079 0.255818 0.0965896
0.136294 0.271275 0.0942702
0.199237 0.271946 0.0844282
0.301839 0.270726 0.0972152
0.447669 0.302464 0.105196
0.566369 0.299138 0.12932
0.663264 0.301411 0.150698
0.749508 0.305638 0.172351
0.81976 0.318303 0.200748
0.857389 0.331395 0.222583
0.87805 0.341009 0.23418
0.87921 0.343359 0.234791
0.880079 0.345006 0.235203
0.881025 0.34728 0.235584
0.882231 0.350179 0.236255
0.883406 0.352758 0.236667
0.884901 0.356207 0.237385
0.886305 0.359014 0.238071
0.887007 0.360769 0.238209
0.887419 0.361837 0.238361
0.887648 0.362325 0.238483
0.887694 0.362203 0.238499
0.887953 0.362127 0.23859
0.888457 0.362219 0.238773
0.0782788 0.30045 0.168154
0.0722972 0.310658 0.169543
0.0668956 0.320607 0.170825
0.0636149 0.330022 0.17171
0.0601511 0.33875 0.172091
0.059266 0.346166 0.17145
0.0588083 0.352514 0.169741
0.0581826 0.356741 0.163882
0.0586709 0.357885 0.151598
0.0656291 0.351019 0.133043
0.0843824 0.341543 0.101305
0.171923 0.363638 0.0974441
0.266407 0.364523 0.0805524
0.385748 0.355322 0.0931258
0.539208 0.393088 0.0997024
0.678523 0.408026 0.139345
0.778378 0.402029 0.176699
0.844816 0.404211 0.206928
0.894499 0.413474 0.238254
0.90985 0.427573 0.249866
0.91165 0.432685 0.251606
0.911986 0.433967 0.251774
0.912383 0.435752 0.252079
0.912947 0.437751 0.252415
0.913771 0.440009 0.252827
0.914092 0.44152 0.252934
0.91458 0.443244 0.253239
0.915007 0.444953 0.253468
0.915221 0.445579 0.253605
0.915114 0.44535 0.253513
0.915007 0.444907 0.253407
0.914763 0.443778 0.253178
0.914565 0.442634 0.252903
0.079942 0.395239 0.205051
0.0741283 0.406882 0.207202
0.0684215 0.417594 0.208469
0.063508 0.427955 0.209247
0.0595102 0.437873 0.210117
0.0572061 0.446342 0.210147
0.055787 0.4542 0.209384
0.0560311 0.459678 0.206165
0.0565805 0.46273 0.196292
0.0573739 0.462837 0.175998
0.066743 0.453696 0.145312
0.0904707 0.44303 0.0960861
0.224933 0.469703 0.0946059
0.350668 0.468132 0.0770428
0.473838 0.455955 0.0923476
0.618448 0.486931 0.112688
0.768505 0.533578 0.164172
0.859266 0.519509 0.214115
0.905943 0.519326 0.242054
0.928298 0.524178 0.260639
0.932738 0.532799 0.265919
0.933196 0.535546 0.26656
0.933684 0.538781 0.267033
0.934356 0.542702 0.267643
0.934691 0.545846 0.267826
0.935103 0.548486 0.268223
0.935393 0.550271 0.268574
0.935561 0.550958 0.268803
0.93547 0.550637 0.268696
0.935286 0.549599 0.268452
0.935088 0.548501 0.268177
0.934646 0.546395 0.267674
0.934127 0.544152 0.266941
0.0733196 0.505547 0.254307
0.0682383 0.517205 0.257633
0.0636454 0.527321 0.259876
0.0593729 0.537102 0.261707
0.0565347 0.545968 0.262959
0.0548257 0.554467 0.264134
0.0543984 0.561547 0.264271
0.0552834 0.566979 0.261707
0.0568093 0.570092 0.255238
0.0593729 0.571435 0.240131
0.0627146 0.569284 0.207843
0.0724498 0.555444 0.161166
0.129107 0.549584 0.0995956
0.317983 0.575525 0.109087
0.446967 0.572961 0.0915236
0.560098 0.560143 0.112428
0.702144 0.585428 0.145373
0.845884 0.646342 0.20914
0.922621 0.645243 0.262058
0.942977 0.637781 0.28249
0.94612 0.638804 0.287465
0.946349 0.643488 0.287861
0.946639 0.646876 0.28864
0.946868 0.648966 0.289189
0.94696 0.650965 0.289464
0.947692 0.653178 0.291585
0.948104 0.654353 0.292912
0.94818 0.654337 0.293187
0.948043 0.653513 0.292729
0.947555 0.651362 0.291173
0.946853 0.648371 0.289082
0.946334 0.645319 0.287755
0.945998 0.64213 0.286915
0.0783551 0.615732 0.318746
0.0773175 0.62594 0.322621
0.0746471 0.635966 0.326009
0.0708629 0.645136 0.328542
0.0678874 0.653605 0.330663
0.0670634 0.661479 0.332769
0.0680705 0.668025 0.333425
0.0700084 0.672969 0.331685
0.0723583 0.676387 0.326925
0.0758679 0.677821 0.316075
0.0812543 0.675547 0.291829
0.0873579 0.667445 0.247257
0.102068 0.649119 0.179583
0.225238 0.654215 0.130373
0.433585 0.680064 0.140826
0.549416 0.675883 0.123247
0.646143 0.661433 0.148501
0.784024 0.682643 0.197055
0.90695 0.733059 0.266453
0.956756 0.75671 0.345556
0.964096 0.761135 0.401572
0.964416 0.764004 0.410376
0.964492 0.766308 0.413352
0.96463 0.76817 0.41561
0.964721 0.769863 0.417639
0.964675 0.771084 0.418677
0.964553 0.771572 0.418585
0.964401 0.77113 0.417334
0.964187 0.76939 0.414496
0.963851 0.766064 0.410025
0.963806 0.76228 0.405264
0.963439 0.757763 0.399344
0.963317 0.75375 0.394385
0.110491 0.722637 0.390066
0.111925 0.732494 0.394949
0.110903 0.742 0.398932
0.108949 0.751308 0.402914
0.107774 0.759533 0.405554
0.108827 0.766949 0.407935
0.111116 0.772335 0.409064
0.11368 0.776211 0.407767
0.11632 0.779049 0.40473
0.119066 0.780133 0.396948
0.122866 0.778256 0.379522
0.128588 0.773571 0.344182
0.135149 0.758206 0.287129
0.163043 0.737865 0.193454
0.362478 0.763012 0.178103
0.551202 0.785534 0.187884
0.646723 0.778515 0.180072
0.727947 0.762066 0.20351
0.842359 0.770184 0.254643
0.930983 0.801877 0.310307
0.957443 0.819394 0.357153
0.95964 0.818296 0.381353
0.959915 0.819532 0.38584
0.959792 0.819593 0.385489
0.95967 0.819837 0.385595
0.959503 0.819913 0.385183
0.959289 0.820111 0.384924
0.959182 0.819577 0.385061
0.959167 0.818433 0.385595
0.959213 0.81677 0.386404
0.959411 0.814862 0.387594
0.959701 0.812818 0.388968
0.959976 0.810941 0.390127
0.172381 0.82031 0.466758
0.175692 0.829755 0.472023
0.175051 0.837919 0.475898
0.172793 0.845335 0.478553
0.17113 0.852003 0.480919
0.171756 0.857649 0.483024
0.173205 0.861799 0.483833
0.175311 0.864378 0.48278
0.177264 0.865858 0.479576
0.179263 0.866423 0.473655
0.181292 0.864408 0.460487
0.185611 0.860365 0.435157
0.190341 0.85098 0.389822
0.199207 0.83299 0.319982
0.288838 0.831601 0.229679
0.508858 0.858152 0.235233
0.661509 0.87306 0.247395
0.737118 0.865156 0.250126
0.805753 0.848295 0.271717
0.896941 0.850843 0.308797
0.950301 0.875715 0.354345
0.961013 0.89041 0.40354
0.961959 0.893004 0.424399
0.961883 0.892302 0.423575
0.961776 0.892012 0.423041
0.961593 0.891951 0.422522
0.961334 0.891691 0.42182
0.961044 0.890349 0.42005
0.960769 0.888304 0.417716
0.960678 0.885435 0.415579
0.960571 0.881819 0.413382
0.960555 0.87866 0.411719
0.960555 0.87538 0.409583
0.232319 0.897566 0.533944
0.233692 0.902815 0.536721
0.230671 0.907164 0.538338
0.226459 0.911665 0.539391
0.222599 0.915404 0.540169
0.221485 0.918227 0.540658
0.221073 0.919738 0.540047
0.222507 0.920653 0.538354
0.22356 0.921035 0.534981
0.224811 0.920913 0.529351
0.22652 0.919509 0.518883
0.230518 0.917082 0.501076
0.237339 0.912902 0.471473
0.243946 0.902861 0.419944
0.267323 0.890471 0.328557
0.441917 0.909102 0.282139
0.629908 0.921584 0.297597
0.745769 0.927611 0.307332
0.814618 0.922515 0.318212
0.875746 0.910903 0.345861
0.936034 0.913085 0.388357
0.962478 0.929397 0.458579
0.964904 0.935119 0.50399
0.964889 0.93463 0.506539
0.964752 0.934218 0.504723
0.964492 0.933715 0.502403
0.964157 0.933211 0.49987
0.963714 0.93254 0.4963
0.963455 0.931456 0.492454
0.9635 0.930144 0.488472
0.963561 0.928466 0.484703
0.963745 0.926543 0.480812
0.963623 0.924849 0.476509
0.266758 0.929931 0.574151
0.264057 0.930739 0.573251
0.259495 0.932067 0.572106
0.254047 0.933639 0.571115
0.248997 0.935073 0.569772
0.245457 0.93608 0.568231
0.243626 0.936522 0.566384
0.242924 0.936629 0.563653
0.242847 0.936538 0.559838
0.24329 0.936233 0.554269
0.244556 0.935714 0.545571
0.249027 0.934722 0.532982
0.256733 0.933013 0.513451
0.270497 0.932311 0.484688
0.285801 0.928923 0.432105
0.379522 0.936873 0.363104
0.568185 0.941726 0.347707
0.716411 0.942336 0.357641
0.801572 0.944625 0.363943
0.871138 0.94345 0.389059
0.923064 0.939513 0.434485
0.95491 0.942779 0.499214
0.965499 0.949844 0.563363
0.965637 0.949783 0.576059
0.965454 0.94963 0.57322
0.965225 0.949584 0.570077
0.964889 0.949569 0.567498
0.964477 0.949477 0.565057
0.964187 0.949233 0.562051
0.964111 0.948913 0.559655
0.964187 0.948379 0.557214
0.964385 0.947768 0.554604
0.964431 0.947265 0.551797
0.261891 0.931258 0.579522
0.260304 0.931746 0.578424
0.256687 0.932784 0.57734
0.252461 0.934096 0.576272
0.248005 0.935409 0.574975
0.244831 0.936339 0.573571
0.243107 0.936828 0.571588
0.242481 0.936934 0.568841
0.242451 0.936812 0.56527
0.242802 0.936538 0.559686
0.24361 0.936095 0.551446
0.246372 0.935454 0.538796
0.252705 0.934112 0.521111
0.264118 0.933089 0.494636
0.282353 0.933227 0.460319
0.341344 0.938628 0.409262
0.509514 0.946197 0.378607
0.673579 0.94522 0.394217
0.778851 0.946975 0.40058
0.855512 0.949569 0.426261
0.91577 0.950195 0.464714
0.941344 0.947829 0.511528
0.961288 0.953994 0.578302
0.963043 0.955077 0.607507
0.96289 0.955154 0.607874
0.962661 0.955261 0.605264
0.962417 0.955383 0.603067
0.962188 0.955489 0.601282
0.962051 0.95555 0.599802
0.962005 0.95552 0.598703
0.962036 0.955489 0.597452
0.962097 0.955428 0.596307
0.962219 0.955337 0.595254
0.253956 0.93344 0.583871
0.255802 0.932921 0.582788
0.257221 0.932555 0.58146
0.257557 0.932509 0.58024
0.256458 0.932845 0.578897
0.255055 0.933318 0.577432
0.253925 0.933684 0.575494
0.253681 0.933791 0.573129
0.253971 0.933623 0.569436
0.254429 0.933303 0.564294
0.254765 0.932937 0.55642
0.256428 0.932509 0.543847
0.261448 0.931487 0.527138
0.270314 0.929931 0.502693
0.287358 0.930129 0.471229
0.326772 0.933257 0.428077
0.465766 0.943267 0.388739
0.638483 0.94342 0.401068
0.761715 0.944228 0.413504
0.844923 0.947494 0.438941
0.912016 0.94873 0.477211
0.937407 0.946563 0.513283
0.960342 0.95111 0.572473
0.965423 0.953521 0.614267
0.965591 0.953765 0.62417
0.965362 0.953902 0.623606
0.965011 0.954086 0.622339
0.964416 0.954421 0.620752
0.963668 0.954818 0.61912
0.962966 0.955184 0.617578
0.962509 0.955428 0.616464
0.96231 0.95552 0.615641
0.962325 0.955474 0.614511
0.253132 0.933577 0.587274
0.254688 0.93315 0.586099
0.255985 0.93283 0.584665
0.256443 0.932723 0.583383
0.255695 0.932967 0.582086
0.25449 0.933394 0.580606
0.25333 0.933776 0.578622
0.252918 0.933959 0.575982
0.253132 0.933944 0.572686
0.253559 0.9337 0.567437
0.254002 0.933288 0.559991
0.255329 0.932876 0.548196
0.259373 0.932067 0.531777
0.266209 0.930541 0.508659
0.280858 0.930816 0.47982
0.306966 0.932418 0.440101
0.413138 0.941924 0.393057
0.593103 0.94435 0.393698
0.732448 0.94406 0.409201
0.823255 0.946639 0.428748
0.897337 0.948516 0.466575
0.930816 0.947127 0.502556
0.955077 0.949645 0.553704
0.964416 0.952956 0.602045
0.965499 0.95375 0.620951
0.965331 0.953918 0.623636
0.965026 0.954131 0.623667
0.964446 0.954467 0.623453
0.963714 0.954879 0.623072
0.963012 0.955245 0.621851
0.962554 0.955489 0.620661
0.962402 0.95555 0.620005
0.9626 0.955444 0.619806
0.252323 0.9337 0.589853
0.253559 0.933394 0.588678
0.254719 0.933104 0.58735
0.25507 0.933043 0.585962
0.254551 0.933257 0.584482
0.253559 0.933577 0.583062
0.252735 0.933883 0.581033
0.252445 0.934051 0.578439
0.252522 0.934096 0.575036
0.252766 0.934005 0.570199
0.252979 0.933669 0.562951
0.254063 0.933303 0.551629
0.257237 0.932677 0.535668
0.263279 0.931365 0.513802
0.275792 0.931289 0.486213
0.29247 0.931807 0.450797
0.367071 0.939651 0.401617
0.544244 0.94548 0.387808
0.697551 0.944488 0.404471
0.800397 0.946258 0.420569
0.879057 0.948394 0.45478
0.923232 0.947662 0.492332
0.949203 0.948577 0.53756
0.96257 0.952178 0.589151
0.965377 0.953826 0.617029
0.96524 0.953948 0.622889
0.964965 0.954131 0.623011
0.964401 0.954467 0.622812
0.963699 0.954864 0.622339
0.963012 0.955245 0.621836
0.96257 0.955489 0.621393
0.962554 0.955505 0.621332
0.96289 0.955322 0.621668
0.250401 0.934157 0.591699
0.251698 0.933837 0.590646
0.252796 0.933577 0.589334
0.253101 0.933547 0.587976
0.252644 0.93373 0.586526
0.251942 0.934005 0.584802
0.251347 0.934218 0.583001
0.251118 0.934356 0.580484
0.251835 0.934203 0.576989
0.252232 0.934234 0.572381
0.252369 0.933944 0.565423
0.253117 0.933608 0.554757
0.255818 0.933043 0.539391
0.261204 0.931945 0.51873
0.271946 0.931502 0.49221
0.287449 0.932113 0.458595
0.333623 0.936706 0.412055
0.495857 0.946334 0.383932
0.657252 0.945434 0.398596
0.776181 0.946227 0.413947
0.857527 0.948302 0.441855
0.914336 0.948363 0.48191
0.94258 0.947799 0.52282
0.960189 0.951019 0.574807
0.965393 0.953796 0.613046
0.965255 0.953918 0.622232
0.964981 0.954116 0.6224
0.964431 0.954437 0.622232
0.963729 0.954849 0.621805
0.963058 0.955215 0.621332
0.962676 0.955428 0.621073
0.962692 0.955428 0.621241
0.962982 0.955276 0.621668
0.249088 0.934447 0.593256
0.250248 0.934188 0.59202
0.251423 0.933898 0.590875
0.251728 0.933883 0.589395
0.250965 0.934157 0.587945
0.249683 0.934569 0.586358
0.248722 0.934905 0.584375
0.248631 0.935027 0.582055
0.249073 0.934981 0.578668
0.249882 0.93489 0.574197
0.250477 0.9346 0.5673
0.251331 0.934173 0.557473
0.253391 0.93373 0.542672
0.258228 0.932769 0.523095
0.267567 0.932128 0.49752
0.282246 0.932555 0.465736
0.317006 0.935454 0.423224
0.446769 0.945632 0.385763
0.614878 0.945998 0.393713
0.749477 0.946197 0.408637
0.832868 0.948852 0.428717
0.902373 0.949615 0.470085
0.934585 0.948257 0.508446
0.955932 0.94992 0.558465
0.964828 0.95407 0.607095
0.964767 0.954223 0.620996
0.964385 0.954437 0.62118
0.96376 0.954803 0.620935
0.962966 0.955245 0.620447
0.962249 0.955642 0.619974
0.961822 0.955886 0.619745
0.961746 0.955932 0.619791
0.961898 0.955856 0.620066
0.245319 0.935409 0.594675
0.246372 0.93518 0.593317
0.247608 0.934905 0.591943
0.248371 0.934737 0.590677
0.248264 0.934844 0.589136
0.247547 0.935088 0.587564
0.246891 0.935347 0.585702
0.246967 0.935424 0.583383
0.247791 0.935347 0.580118
0.248905 0.935149 0.575616
0.249897 0.934813 0.56936
0.250904 0.93434 0.560006
0.252705 0.933883 0.546227
0.256825 0.933104 0.52755
0.264576 0.932357 0.503273
0.277668 0.932754 0.473564
0.303288 0.934524 0.434577
0.398856 0.943572 0.392065
0.56585 0.946654 0.387869
0.712596 0.94609 0.403372
0.806867 0.948577 0.418296
0.886381 0.950347 0.457237
0.925216 0.949767 0.493553
0.949035 0.949096 0.537972
