bundles/resolve-cinematic-luts/Phantom Luts/P4k & P6K Phntm Film LUTs - V6/P4K/Gen 5 Colour/Standard (No WB Offset)/P4k Bleach Gen5.cube
TITLE "Generated by Resolve"
LUT_3D_SIZE 5
0.0153353 0.0269474 0.0176242
0.046067 0.0320592 0.0206607
0.31017 0.0490272 0.0357519
0.752499 0.113832 0.103532
0.811307 0.140978 0.127581
0.0294652 0.0950027 0.0466773
0.0806744 0.118456 0.0356451
0.549874 0.118456 0.0716869
0.840391 0.203479 0.154879
0.868681 0.24744 0.183871
0 0.484154 0.143679
0.00408942 0.511254 0.102419
0.608164 0.676707 0.0915541
0.941619 0.792767 0.329091
0.940063 0.822293 0.344442
0.0811475 0.788815 0.462699
0.0946212 0.782254 0.384695
0.664164 0.815869 0.32781
0.9093 0.892058 0.47921
0.926329 0.900633 0.537987
0.0812085 0.789258 0.481468
0.119066 0.776379 0.349035
0.76144 0.854383 0.349416
0.91931 0.896986 0.506432
0.926223 0.900557 0.536858
0.0146639 0.0291447 0.0365148
0.0462196 0.0311437 0.041886
0.355367 0.0445106 0.0818189
0.806455 0.147326 0.169451
0.836164 0.150408 0.214115
0.0272221 0.0908217 0.0722972
0.0928969 0.10808 0.094255
0.572015 0.0951247 0.0788739
0.81593 0.149233 0.131106
0.826535 0.163745 0.143343
0 0.489723 0.199176
0 0.513603 0.166415
0.611872 0.677653 0.0968338
0.945754 0.790372 0.34931
0.940108 0.809934 0.382956
0.0853895 0.79057 0.532952
0.082002 0.788876 0.465812
0.593881 0.798611 0.311574
0.899321 0.888106 0.466819
0.926818 0.901167 0.54873
0.0962844 0.792462 0.595483
0.0850538 0.789364 0.483436
0.692897 0.82649 0.353613
0.902754 0.889555 0.478279
0.927199 0.901549 0.553124
0.0163577 0.035111 0.190066
0.0650339 0.0371557 0.225696
0.411734 0.0465553 0.303059
0.818067 0.0883803 0.501213
0.848692 0.1364 0.612665
0.0103304 0.0449378 0.293797
0.0381323 0.04094 0.348943
0.590845 0.05832 0.468421
0.854459 0.146349 0.593835
0.842268 0.125002 0.632685
0 0.48777 0.425544
0.000442512 0.512047 0.453971
0.695857 0.679088 0.65922
0.950164 0.731731 0.690852
0.953384 0.762066 0.723156
0.149737 0.797223 0.690867
0.130892 0.795529 0.67686
0.526589 0.815503 0.646403
0.920455 0.911818 0.697871
0.949828 0.918898 0.732723
0.258152 0.801465 0.72871
0.2168 0.799817 0.707774
0.668986 0.86479 0.737163
0.933349 0.925963 0.767422
0.95169 0.925597 0.75462
0.045594 0.045304 0.482475
0.0931106 0.0518196 0.550927
0.507729 0.0628519 0.652323
0.849668 0.118257 0.734173
0.890913 0.16083 0.804578
0.030808 0.0673686 0.605386
0.0982528 0.0836042 0.659403
0.655589 0.102464 0.745907
0.88423 0.151858 0.791348
0.904341 0.18439 0.822553
0.021149 0.5402 0.708492
0.0252689 0.55848 0.725841
0.644541 0.648402 0.859953
0.961883 0.694972 0.896452
0.961776 0.730632 0.900557
0.250141 0.796185 0.748074
0.239994 0.793866 0.745861
0.647196 0.850767 0.805234
0.943496 0.921035 0.881651
0.962631 0.92726 0.885252
0.476295 0.823255 0.779828
0.400031 0.816831 0.766186
0.785168 0.910002 0.85713
0.943694 0.942077 0.892866
0.962615 0.943267 0.889616
0.117372 0.102968 0.695384
0.190188 0.124498 0.737423
0.608911 0.146166 0.804273
0.897276 0.171664 0.816648
0.901091 0.177401 0.81976
0.101152 0.126665 0.717205
0.175357 0.135424 0.744457
0.715694 0.156359 0.81294
0.905837 0.18613 0.825208
0.908446 0.191577 0.828016
0.0326848 0.57496 0.767071
0.0354009 0.58558 0.770092
0.659358 0.656901 0.877958
0.961791 0.70692 0.912413
0.96173 0.739284 0.912749
0.374136 0.804593 0.778225
0.361563 0.800397 0.778927
0.744518 0.880415 0.86334
0.941802 0.920531 0.899779
0.962463 0.922637 0.900755
0.499306 0.826078 0.783917
0.512993 0.828061 0.786252
0.826703 0.921752 0.877775
0.949187 0.941985 0.90045
0.962585 0.942687 0.901869
