bundles/resolve-cinematic-luts/Phantom Luts/P4k & P6K Phntm Film LUTs - V6/P4K/Gen 5 Colour/Standard (No WB Offset)/P4k Bleach Gen5-Legacy.cube
TITLE "Generated by Resolve"
LUT_3D_SIZE 33
0.0252842 0.0381933 0.0270085
0.0252842 0.0381933 0.0270085
0.0252842 0.0381933 0.0270085
0.0252842 0.0381933 0.0270085
0.0252842 0.0381933 0.0270085
0.0316167 0.0405585 0.0289311
0.0372931 0.04271 0.0310063
0.0418708 0.0448005 0.0316014
0.0479133 0.0473182 0.0320897
0.0592203 0.0489967 0.0331121
0.0713207 0.049897 0.0339208
0.08748 0.0510414 0.0354772
0.107469 0.0516518 0.0369116
0.134661 0.052781 0.0393988
0.169406 0.0539406 0.0416724
0.21091 0.0555734 0.043534
0.255268 0.0580453 0.0453346
0.304631 0.0611582 0.0477455
0.36022 0.0645609 0.0504005
0.429053 0.0665141 0.0534524
0.499748 0.0691386 0.0568093
0.558801 0.0745708 0.0625315
0.613413 0.0823377 0.0712902
0.671138 0.0922408 0.0827039
0.725597 0.103532 0.0951095
0.779171 0.115785 0.108537
0.799786 0.122057 0.114641
0.810712 0.125597 0.117952
0.81117 0.126207 0.118639
0.811536 0.126711 0.119295
0.811841 0.127153 0.119875
0.81207 0.127504 0.120272
0.812192 0.127825 0.120562
0.0252842 0.0381933 0.0270085
0.0252842 0.0381933 0.0270085
0.0252842 0.0381933 0.0270085
0.0252842 0.0381933 0.0270085
0.0268864 0.0389563 0.0275731
0.0336919 0.0413367 0.0296178
0.0387579 0.0433661 0.031342
0.0441138 0.0459297 0.0319524
0.0539712 0.0483406 0.0327459
0.0679332 0.049958 0.0338293
0.0837873 0.0511177 0.0353399
0.104448 0.0518044 0.03682
0.132494 0.0527962 0.0392462
0.167681 0.0540932 0.0416266
0.209293 0.0556954 0.043473
0.25478 0.0582284 0.0453498
0.305089 0.0614176 0.0478523
0.362051 0.0648661 0.0507515
0.432853 0.0667887 0.0536355
0.502113 0.0697032 0.0570993
0.561364 0.0753033 0.062974
0.61532 0.0829175 0.0715343
0.67248 0.0929122 0.0830243
0.72668 0.104067 0.095201
0.778286 0.116167 0.108385
0.799588 0.122454 0.11458
0.810697 0.126055 0.1178
0.8112 0.12668 0.118441
0.811627 0.127108 0.118944
0.811994 0.127474 0.119417
0.812131 0.127764 0.119722
0.812222 0.128038 0.120043
0.81236 0.128389 0.120317
0.0252842 0.0381933 0.0270085
0.0252842 0.0381933 0.0270085
0.0252842 0.0381933 0.0270085
0.0252842 0.0381933 0.0270085
0.0280919 0.0393225 0.0278172
0.0343023 0.041825 0.0299535
0.0397192 0.0441138 0.0316625
0.0461891 0.0471962 0.032578
0.0588693 0.0496223 0.033402
0.0728466 0.0510109 0.0344244
0.0911116 0.0519265 0.0358434
0.117098 0.0526436 0.0376745
0.150118 0.0538949 0.0399634
0.189059 0.0553597 0.0422827
0.232929 0.0575265 0.0442359
0.280751 0.0606851 0.046952
0.334844 0.0641337 0.0496529
0.400748 0.066804 0.0521401
0.474464 0.0688945 0.0552224
0.535897 0.0737011 0.0599832
0.592233 0.0803845 0.0679942
0.648051 0.0895705 0.078172
0.702373 0.100191 0.0896925
0.756069 0.112215 0.102632
0.788663 0.120653 0.111376
0.809476 0.127184 0.117342
0.810575 0.12752 0.117861
0.811475 0.12781 0.118288
0.811887 0.128023 0.118547
0.81207 0.128313 0.118776
0.812207 0.128679 0.119066
0.812573 0.129061 0.119509
0.813016 0.129381 0.120058
0.0252842 0.0381933 0.0270085
0.0252842 0.0381933 0.0270085
0.0252842 0.0381933 0.0270085
0.0252842 0.0381933 0.0270085
0.0262608 0.039292 0.027512
0.0330358 0.042298 0.0300755
0.0385138 0.0450599 0.0318914
0.045716 0.0487831 0.033463
0.057847 0.0510262 0.0336614
0.0739452 0.0520333 0.0349889
0.0941329 0.0529793 0.0365759
0.1196 0.0537881 0.0381781
0.154116 0.0552834 0.0402533
0.195361 0.0568246 0.0425879
0.240253 0.0594034 0.0450752
0.290028 0.0627604 0.0479744
0.343969 0.0663005 0.051133
0.411444 0.0687572 0.0529641
0.483452 0.071519 0.0551919
0.545464 0.0762951 0.0611124
0.600381 0.0834058 0.0692302
0.656931 0.0930495 0.079942
0.711681 0.104204 0.0920272
0.764126 0.116182 0.104814
0.791318 0.123842 0.112337
0.808545 0.129015 0.117174
0.809735 0.129198 0.117769
0.811017 0.129503 0.118502
0.8121 0.129854 0.119097
0.812741 0.130251 0.119524
0.81326 0.130648 0.119875
0.813519 0.131044 0.120104
0.813779 0.131441 0.120287
0.0268711 0.0420386 0.0295109
0.0278172 0.0438849 0.0308537
0.0282902 0.0450446 0.031281
0.0282444 0.0449378 0.0307927
0.02916 0.0446021 0.0299687
0.0350347 0.047303 0.0317388
0.0394141 0.0493629 0.0334173
0.0459144 0.051545 0.0354314
0.0573281 0.0539406 0.0354162
0.0766766 0.0551003 0.0367895
0.0970626 0.0556039 0.0379187
0.123644 0.0563211 0.0394446
0.157321 0.0572213 0.0413977
0.19881 0.0584573 0.0433204
0.245411 0.0611276 0.0460365
0.295308 0.0642557 0.0489662
0.349615 0.0681468 0.052079
0.41735 0.0707866 0.0538033
0.488655 0.0738842 0.0564584
0.551202 0.0790723 0.062623
0.605066 0.086305 0.0701457
0.662181 0.0961471 0.080827
0.715663 0.107546 0.0928817
0.768353 0.119951 0.106386
0.793057 0.127214 0.113191
0.807691 0.131258 0.117464
0.808743 0.131838 0.118013
0.80972 0.132296 0.118471
0.810559 0.132784 0.118868
0.811124 0.133211 0.119112
0.811658 0.133623 0.119356
0.811978 0.13431 0.119631
0.812268 0.135058 0.119905
0.0305638 0.0509651 0.0352331
0.0311742 0.0522621 0.036286
0.0317082 0.052842 0.0367895
0.031693 0.0526436 0.035523
0.0332647 0.0525368 0.0335699
0.0388647 0.0541085 0.0343481
0.0437018 0.0556954 0.035996
0.0494698 0.0569924 0.0383001
0.0609903 0.059968 0.0388342
0.0821546 0.0615396 0.0393988
0.105974 0.0624247 0.0411994
0.131609 0.0618601 0.0415351
0.164508 0.0615854 0.0426184
0.205554 0.0619211 0.044892
0.252201 0.0630503 0.0473335
0.302281 0.0665141 0.0505226
0.358206 0.0700236 0.0528878
0.427207 0.0729076 0.0549477
0.496559 0.0763409 0.0578622
0.556435 0.0823835 0.0631113
0.612085 0.0901961 0.0723888
0.665446 0.100145 0.0823072
0.720699 0.112551 0.0948806
0.76817 0.124483 0.107103
0.795697 0.13228 0.114534
0.8065 0.135851 0.117754
0.807691 0.136797 0.118532
0.808545 0.137499 0.118914
0.809293 0.138293 0.119265
0.810086 0.138918 0.119753
0.810575 0.139406 0.120043
0.811017 0.140459 0.120363
0.811505 0.141833 0.12079
0.033463 0.0585946 0.0400244
0.0337224 0.059678 0.0404212
0.0339361 0.0609751 0.0404974
0.034165 0.0611276 0.0397955
0.0357061 0.0609445 0.0381476
0.0415198 0.0621805 0.0373693
0.046479 0.064744 0.0376287
0.0553445 0.0665446 0.0401007
0.0673381 0.0689708 0.0411994
0.0889143 0.0701915 0.0420081
0.116213 0.0733196 0.0441901
0.150546 0.0734569 0.0457618
0.184909 0.0724041 0.0467231
0.222004 0.0716259 0.0481727
0.262486 0.0712139 0.0501869
0.31429 0.0729686 0.0539101
0.371313 0.0749371 0.0558785
0.440833 0.0759442 0.0570077
0.508049 0.0797436 0.0598459
0.565454 0.0860914 0.0656443
0.62063 0.0949874 0.0748455
0.673167 0.105837 0.0855421
0.72726 0.1187 0.0979324
0.769879 0.130251 0.109133
0.803784 0.141039 0.118685
0.807599 0.142992 0.120104
0.80911 0.143938 0.120745
0.810254 0.145006 0.121462
0.811246 0.146197 0.12192
0.811872 0.147539 0.12253
0.812573 0.148348 0.123156
0.813062 0.149615 0.123659
0.813855 0.151019 0.124437
0.0367285 0.0705577 0.0451972
0.0376135 0.073167 0.0461891
0.0378576 0.075288 0.046128
0.037995 0.0757 0.0452888
0.0385595 0.0753948 0.0432136
0.0418708 0.076173 0.0418097
0.0500801 0.0791791 0.0418708
0.0574197 0.0814374 0.0412757
0.0716564 0.0830091 0.0436713
0.0921187 0.0854505 0.0432136
0.126619 0.0879683 0.0460822
0.1664 0.08925 0.0483711
0.212284 0.0888533 0.050782
0.253544 0.0869306 0.0530861
0.294621 0.0853742 0.0556497
0.338003 0.0845502 0.0584421
0.396612 0.085069 0.0609751
0.462959 0.0852522 0.0623178
0.525826 0.088426 0.0656443
0.58085 0.0956436 0.0715648
0.632563 0.103166 0.0791943
0.685069 0.114015 0.0906081
0.736721 0.125628 0.102205
0.779034 0.13817 0.11368
0.813352 0.150057 0.123888
0.814771 0.152209 0.125261
0.815259 0.152789 0.125582
0.816175 0.153933 0.126207
0.817517 0.155444 0.127153
0.818906 0.156603 0.128161
0.81976 0.157519 0.128496
0.820996 0.158953 0.129107
0.824323 0.163912 0.131975
0.0399634 0.0869001 0.0509651
0.0408179 0.0905165 0.0522316
0.0409705 0.0933394 0.0522774
0.0409705 0.0943923 0.0512703
0.041413 0.0946059 0.0490883
0.042771 0.0945754 0.0466163
0.0488746 0.0961624 0.0436561
0.0606851 0.0999313 0.0451667
0.0720073 0.102083 0.0437629
0.0919661 0.103365 0.0449836
0.126833 0.107134 0.044831
0.177356 0.109926 0.0492714
0.232944 0.107286 0.0529793
0.285786 0.107652 0.0570535
0.335882 0.106691 0.0610819
0.390463 0.104799 0.0648966
0.449851 0.102663 0.0667887
0.508385 0.104158 0.0712444
0.558129 0.108049 0.0770123
0.610147 0.115846 0.0847944
0.658274 0.125048 0.0932479
0.71017 0.13698 0.104433
0.762463 0.151278 0.117357
0.806821 0.164904 0.129091
0.830365 0.17319 0.136278
0.831601 0.174609 0.137362
0.833509 0.176791 0.13846
0.836439 0.180835 0.14107
0.839429 0.185168 0.144274
0.843717 0.190829 0.147463
0.846693 0.195041 0.150652
0.850752 0.200214 0.154314
0.855039 0.206165 0.158038
0.0424201 0.106813 0.0574197
0.0427253 0.111681 0.0592813
0.042771 0.115206 0.0592966
0.0424964 0.116991 0.0572213
0.0427558 0.117586 0.0548714
0.0435798 0.117525 0.0525368
0.0469673 0.117968 0.0480812
0.0573281 0.120806 0.0462806
0.0740368 0.126436 0.0472725
0.0908675 0.128466 0.0458076
0.118532 0.129564 0.0454261
0.170748 0.134401 0.0458076
0.238743 0.138598 0.0529183
0.312276 0.132342 0.0601663
0.382239 0.134234 0.0651102
0.456947 0.133806 0.0695659
0.519097 0.135454 0.0764935
0.568933 0.139712 0.08542
0.615061 0.145922 0.0960708
0.660151 0.15491 0.107057
0.708263 0.166842 0.119524
0.754086 0.179706 0.131853
0.803677 0.196384 0.146654
0.847074 0.213199 0.161654
0.863172 0.221042 0.168338
0.870481 0.227985 0.173846
0.873915 0.234012 0.177661
0.878737 0.240467 0.182422
0.883635 0.248066 0.188403
0.888808 0.255772 0.193561
0.894743 0.265553 0.200626
0.901396 0.276341 0.208225
0.906737 0.286076 0.215152
0.0435035 0.132143 0.0670329
0.0438392 0.139162 0.0691539
0.0437018 0.143664 0.0689708
0.0430762 0.145037 0.0662699
0.043122 0.146258 0.0629435
0.0434119 0.147494 0.0589761
0.0449531 0.147372 0.0553597
0.0528725 0.148714 0.0493629
0.0691539 0.154406 0.0482948
0.0934615 0.163058 0.0500496
0.114702 0.164279 0.0467842
0.155932 0.166995 0.0462043
0.229465 0.174838 0.0487373
0.318181 0.184863 0.0577401
0.42797 0.178058 0.0672618
0.512612 0.180362 0.0750591
0.573739 0.187366 0.086717
0.628046 0.199451 0.1028
0.677394 0.210636 0.119387
0.728359 0.223835 0.138979
0.777356 0.23856 0.157931
0.826947 0.255955 0.178759
0.87097 0.275273 0.199268
0.911238 0.298543 0.22298
0.915572 0.306203 0.227771
0.919646 0.313649 0.232868
0.923384 0.322621 0.237949
0.92726 0.333883 0.244083
0.931899 0.345785 0.250309
0.935439 0.358358 0.256153
0.939116 0.371649 0.261601
0.941833 0.383795 0.265934
0.944228 0.396719 0.269856
0.0441444 0.166217 0.0777447
0.0440528 0.174701 0.0798962
0.0436866 0.180316 0.0797436
0.0435492 0.182391 0.0777447
0.0431067 0.18381 0.0741436
0.0430152 0.185321 0.0690623
0.0436561 0.186755 0.0631571
0.046067 0.185809 0.0568704
0.0591897 0.189837 0.0500649
0.0842603 0.200412 0.0502022
0.118563 0.212802 0.053254
0.149126 0.214298 0.0488899
0.209567 0.220478 0.0494087
0.303517 0.235233 0.0522164
0.433387 0.250965 0.0588235
0.547372 0.254322 0.0768292
0.61677 0.263569 0.0975509
0.676402 0.277256 0.121675
0.738003 0.300908 0.149386
0.795239 0.318074 0.178515
0.856611 0.34403 0.213291
0.907118 0.367453 0.242237
0.929412 0.387427 0.259678
0.945159 0.402411 0.27126
0.946609 0.411994 0.273762
0.947204 0.420035 0.274632
0.947768 0.429053 0.27538
0.948058 0.437598 0.275608
0.947738 0.446555 0.274937
0.947265 0.456214 0.274113
0.946715 0.466728 0.273411
0.946303 0.476631 0.272618
0.946029 0.485863 0.271839
0.0430152 0.208377 0.0885786
0.0432898 0.218799 0.0914015
0.0426032 0.225406 0.0911727
0.0425116 0.227451 0.0894636
0.0420386 0.229404 0.0861219
0.0414282 0.231296 0.0805676
0.0412299 0.233524 0.073106
0.0429389 0.233875 0.0648966
0.0471199 0.232624 0.0550851
0.0675212 0.240787 0.049073
0.104067 0.257893 0.0517891
0.151049 0.272328 0.0548714
0.195163 0.275517 0.0490883
0.270832 0.285863 0.0508583
0.385107 0.305104 0.053193
0.532341 0.335866 0.0614328
0.6365 0.364401 0.0989853
0.716457 0.392737 0.140398
0.781933 0.413977 0.179751
0.837751 0.426078 0.209461
0.885908 0.442664 0.234195
0.92549 0.464958 0.255619
0.941512 0.474144 0.266804
0.945693 0.488258 0.269902
0.945296 0.499489 0.270039
0.944778 0.505592 0.269062
0.944335 0.511727 0.268437
0.944167 0.519249 0.267918
0.943954 0.530449 0.267033
0.943542 0.540703 0.265858
0.943481 0.551064 0.265522
0.943145 0.561502 0.265141
0.943343 0.572259 0.26482
0.0411078 0.259693 0.0998245
0.0402991 0.269917 0.101564
0.0397192 0.275914 0.101686
0.0391089 0.27808 0.0996567
0.0385901 0.279103 0.0965133
0.0379797 0.281102 0.0914321
0.0372168 0.283375 0.0833143
0.0376287 0.284642 0.0737469
0.0413672 0.284123 0.0631266
0.049134 0.284688 0.0485847
0.0792859 0.298054 0.0454871
0.129824 0.319402 0.0500343
0.194553 0.337697 0.0539101
0.247044 0.343496 0.0480201
0.339788 0.36022 0.0514839
0.479927 0.386877 0.0546273
0.603708 0.441413 0.0758068
0.704021 0.490898 0.12166
0.778271 0.522072 0.161547
0.840558 0.533165 0.198672
0.884138 0.541665 0.223133
0.913832 0.549157 0.240055
0.936767 0.554955 0.255833
0.943084 0.566201 0.263127
0.943603 0.579339 0.265064
0.943877 0.586679 0.26537
0.944167 0.594537 0.265583
0.944244 0.603037 0.265721
0.944228 0.611429 0.265812
0.944762 0.619974 0.26743
0.945266 0.629511 0.268559
0.945937 0.638239 0.270375
0.946426 0.646799 0.271824
0.0359503 0.311147 0.110536
0.0345312 0.321324 0.111666
0.0337377 0.328115 0.112169
0.0332799 0.330053 0.109957
0.0328832 0.330739 0.10631
0.0325322 0.331899 0.100862
0.0321965 0.333547 0.0927596
0.0310826 0.33608 0.0822003
0.0335699 0.33727 0.0711376
0.0387884 0.336233 0.0558785
0.0502632 0.338216 0.0384222
0.0945296 0.358358 0.0387579
0.166323 0.390539 0.0456703
0.248234 0.419715 0.0522011
0.306889 0.431388 0.0462654
0.431037 0.457374 0.0547951
0.562432 0.497612 0.0715648
0.667659 0.542626 0.0992447
0.758846 0.588464 0.141436
0.833249 0.619669 0.182116
0.886992 0.623972 0.219272
0.919295 0.629007 0.244556
0.938369 0.63447 0.25922
0.943542 0.641733 0.268086
0.9467 0.651362 0.272984
0.947158 0.658625 0.274113
0.947631 0.6654 0.275624
0.947936 0.672358 0.276967
0.94876 0.680262 0.278752
0.949142 0.687922 0.280018
0.950027 0.69662 0.286656
0.951232 0.7066 0.300526
0.952529 0.716503 0.315114
0.0273442 0.365743 0.120928
0.0253758 0.377462 0.121965
0.0238193 0.383688 0.121172
0.0237278 0.384985 0.118257
0.0241398 0.38558 0.114748
0.0241855 0.386892 0.109545
0.0238193 0.389532 0.101167
0.0234531 0.391882 0.0891127
0.024094 0.393805 0.0761273
0.0271153 0.393133 0.0632029
0.0324102 0.39205 0.0428473
0.0547646 0.400854 0.0274357
0.124071 0.43476 0.0352636
0.232746 0.483268 0.0539406
0.33698 0.523735 0.0710918
0.414557 0.536736 0.0648203
0.534325 0.558511 0.0785382
0.633875 0.587564 0.100603
0.72987 0.624308 0.129183
0.819577 0.666667 0.169848
0.898207 0.704082 0.210742
0.931441 0.706462 0.249302
0.949218 0.710155 0.286503
0.951492 0.713573 0.306386
0.952804 0.720394 0.320562
0.953902 0.72932 0.331899
0.954864 0.738186 0.345739
0.955749 0.746242 0.360037
0.95642 0.754788 0.374243
0.957275 0.763851 0.391852
0.957763 0.772931 0.410147
0.958129 0.781186 0.427131
0.957412 0.785626 0.424903
0.0146792 0.427253 0.128313
0.0131838 0.439551 0.13048
0.0127413 0.445853 0.1308
0.0129091 0.446891 0.128115
0.0132906 0.447776 0.124529
0.0136263 0.449256 0.119341
0.014374 0.450919 0.112108
0.0152438 0.453086 0.100969
0.0166629 0.455467 0.0870222
0.0188144 0.456107 0.071809
0.022858 0.454994 0.0558785
0.0365301 0.458289 0.0338903
0.0870985 0.479912 0.0301213
0.212909 0.535134 0.0609445
0.351904 0.589868 0.0944686
0.459144 0.613428 0.0987411
0.53077 0.621698 0.0895399
0.616556 0.639445 0.109194
0.696681 0.662715 0.133867
0.791485 0.695659 0.165331
0.876448 0.731487 0.204364
0.933272 0.763058 0.240253
0.94995 0.776196 0.318975
0.957748 0.789776 0.430045
0.957259 0.791318 0.425238
0.956725 0.793484 0.421225
0.956085 0.795666 0.410834
0.954925 0.798306 0.40119
0.953796 0.801724 0.390417
0.953185 0.804593 0.382849
0.951949 0.807431 0.375326
0.951034 0.810559 0.368414
0.950256 0.813519 0.362081
0.0107576 0.492836 0.150225
0.0116121 0.50663 0.157107
0.0124056 0.513787 0.159899
0.0129091 0.515175 0.15816
0.0135195 0.515587 0.153964
0.0143435 0.516182 0.148882
0.0155032 0.517647 0.142138
0.0176089 0.519875 0.132128
0.0202487 0.522866 0.117494
0.0230716 0.52459 0.100526
0.0275273 0.524117 0.0813001
0.0349279 0.523613 0.0599374
0.0784619 0.540246 0.0474098
0.188815 0.5841 0.0691386
0.346578 0.638086 0.113619
0.48629 0.669978 0.128237
0.564767 0.687846 0.126284
0.616037 0.69546 0.119753
0.680308 0.709545 0.142535
0.752026 0.729198 0.170001
0.83624 0.755047 0.200671
0.905348 0.781949 0.235813
0.936095 0.8038 0.259312
0.947066 0.814191 0.307179
0.948257 0.816175 0.337011
0.947738 0.818601 0.341787
0.947173 0.824491 0.343633
0.946578 0.829267 0.343725
0.945907 0.834043 0.343282
0.945235 0.839429 0.341711
0.944259 0.844465 0.340459
0.94345 0.849531 0.339086
0.942473 0.854185 0.337545
0.0235447 0.572824 0.202213
0.027924 0.589166 0.214115
0.0305333 0.597391 0.219394
0.0311131 0.598459 0.217411
0.0317082 0.598062 0.213046
0.0328222 0.599283 0.208362
0.0348211 0.600504 0.201724
0.0375982 0.602335 0.192538
0.0416724 0.605432 0.178134
0.0455482 0.607767 0.158755
0.0507668 0.606744 0.1364
0.0598001 0.605615 0.10837
0.0783246 0.60914 0.0751965
0.18967 0.645228 0.0932937
0.331655 0.683803 0.125673
0.496483 0.712642 0.152117
0.587976 0.740093 0.156741
0.640711 0.753994 0.15465
0.682612 0.76141 0.152789
0.737911 0.773266 0.177813
0.798642 0.786038 0.206119
0.871275 0.808072 0.223056
0.917723 0.829175 0.230365
0.935347 0.847623 0.265156
0.939849 0.856596 0.302586
0.940246 0.86273 0.323522
0.939803 0.867536 0.334447
0.938872 0.872084 0.333455
0.937881 0.875669 0.332677
0.937362 0.878126 0.336828
0.937011 0.880659 0.341222
0.936568 0.883268 0.345693
0.935958 0.885115 0.349828
0.0488594 0.655604 0.266682
0.053727 0.669795 0.277348
0.05626 0.675853 0.280476
0.0570535 0.676539 0.278721
0.0574655 0.675929 0.274266
0.0583352 0.675837 0.269123
0.0604105 0.676753 0.262287
0.0633402 0.679164 0.25333
0.0678721 0.680598 0.239567
0.0723735 0.682582 0.220417
0.0784161 0.680705 0.195666
0.0866865 0.678096 0.166339
0.110964 0.681071 0.13193
0.176242 0.697902 0.109529
0.324681 0.727581 0.140764
0.487098 0.750195 0.162539
0.60264 0.776913 0.182193
0.658579 0.799924 0.181186
0.701686 0.811978 0.183474
0.740978 0.81915 0.186755
0.790036 0.825849 0.214099
0.840269 0.835416 0.235782
0.900603 0.856703 0.232807
0.925139 0.872038 0.267445
0.933486 0.884123 0.312779
0.934478 0.88925 0.342916
0.934371 0.891905 0.361288
0.933761 0.89395 0.368292
0.933013 0.895949 0.373266
0.93254 0.898054 0.378454
0.931853 0.900008 0.382818
0.931258 0.902113 0.388357
0.930968 0.902785 0.392035
0.0720836 0.722133 0.317754
0.0757458 0.731853 0.32491
0.0775616 0.735561 0.326635
0.0779431 0.735363 0.323735
0.0782177 0.734691 0.319341
0.0793164 0.73492 0.314458
0.0814069 0.735348 0.307561
0.0846571 0.735546 0.297505
0.0889754 0.735988 0.28394
0.0941787 0.736873 0.26537
0.10013 0.734356 0.242985
0.108736 0.73106 0.215228
0.125154 0.730358 0.174777
0.187549 0.741238 0.146258
0.316564 0.762005 0.156771
0.475242 0.776516 0.179568
0.598901 0.79942 0.199161
0.670436 0.825284 0.210178
0.7131 0.843061 0.209445
0.753552 0.853986 0.215137
0.796582 0.863081 0.225437
0.835416 0.86833 0.254002
0.874556 0.874342 0.285023
0.909987 0.889036 0.313283
0.928695 0.898421 0.344472
0.930205 0.903029 0.379614
0.930556 0.904433 0.401144
0.930404 0.904891 0.410361
0.930159 0.90544 0.414862
0.929931 0.90602 0.419669
0.929885 0.906584 0.422843
0.929747 0.907057 0.426642
0.929488 0.907607 0.430594
0.0896162 0.770825 0.356817
0.0914931 0.775082 0.360845
0.0923171 0.776272 0.360876
0.0928664 0.776104 0.357855
0.0936446 0.775799 0.353429
0.094789 0.77528 0.347982
0.0964828 0.774823 0.340337
0.0999924 0.774273 0.329885
0.104295 0.773556 0.316228
0.11014 0.772564 0.299657
0.117708 0.769619 0.280232
0.126436 0.766323 0.254994
0.141192 0.765164 0.218341
0.19086 0.770581 0.186938
0.308888 0.784817 0.186328
0.459983 0.794675 0.203342
0.591485 0.808026 0.224384
0.668116 0.832105 0.24152
0.715526 0.850004 0.245396
0.75697 0.86453 0.251789
0.798764 0.874189 0.263172
0.842481 0.885725 0.277531
0.874449 0.889494 0.310857
0.900694 0.894865 0.347387
0.917662 0.902815 0.380499
0.928878 0.908904 0.418067
0.928908 0.909224 0.435294
0.929046 0.909148 0.451072
0.92903 0.909102 0.452644
0.928985 0.909056 0.454047
0.928969 0.90901 0.455772
0.928954 0.90898 0.45713
0.928923 0.908904 0.45922
0.0985885 0.794064 0.382147
0.100359 0.797726 0.385977
0.100938 0.798459 0.384787
0.101534 0.798047 0.381613
0.102388 0.797574 0.376196
0.103395 0.796994 0.369833
0.105074 0.796414 0.361791
0.108782 0.795041 0.351995
0.114366 0.792981 0.339879
0.122057 0.791165 0.325872
0.130709 0.789044 0.307378
0.139544 0.786862 0.285512
0.151797 0.784649 0.255375
0.211002 0.789151 0.229877
0.304662 0.797421 0.221332
0.454459 0.802609 0.23064
0.582177 0.811978 0.247456
0.662547 0.831418 0.268894
0.715358 0.850217 0.277409
0.759686 0.865858 0.289052
0.802853 0.878782 0.299458
0.846891 0.889891 0.313985
0.873182 0.894469 0.333608
0.897139 0.897337 0.371954
0.916365 0.903624 0.402289
0.926909 0.908141 0.436866
0.928786 0.908812 0.46157
0.928939 0.908858 0.472679
0.928954 0.908858 0.476387
0.928954 0.908858 0.478676
0.929 0.908873 0.479896
0.928985 0.908858 0.479545
0.928969 0.908858 0.479301
0.100023 0.798978 0.391318
0.100053 0.798993 0.391196
0.100298 0.798856 0.389441
0.100832 0.798505 0.385367
0.101762 0.797894 0.380209
0.102876 0.797238 0.372976
0.104692 0.796613 0.363485
0.108721 0.795163 0.352499
0.114549 0.793042 0.33991
0.12224 0.790906 0.324987
0.132769 0.789685 0.30811
0.143893 0.788479 0.288655
0.160204 0.787778 0.266758
0.218326 0.790753 0.245808
0.318379 0.797101 0.2421
0.458045 0.801572 0.248768
0.582406 0.810498 0.26717
0.659754 0.829297 0.287083
0.717113 0.849332 0.303761
0.76408 0.866056 0.316579
0.809384 0.879744 0.330037
0.851392 0.89041 0.341878
0.873976 0.893751 0.361898
0.895842 0.898131 0.385
0.915877 0.904295 0.416281
0.926238 0.907729 0.445151
0.928344 0.908537 0.467796
0.928954 0.908843 0.478477
0.929015 0.908888 0.480171
0.92903 0.908904 0.480537
0.92903 0.908904 0.480537
0.92903 0.908904 0.480461
0.92903 0.908904 0.480812
0.099382 0.799252 0.395743
0.0994736 0.799222 0.395209
0.0998703 0.799084 0.392691
0.100374 0.798764 0.388617
0.101289 0.798199 0.382864
0.102586 0.797452 0.374899
0.10454 0.796719 0.364691
0.108858 0.795193 0.352544
0.115129 0.792889 0.338857
0.123308 0.790738 0.323278
0.13431 0.789532 0.306203
0.145953 0.788739 0.286564
0.172045 0.788937 0.264836
0.227329 0.791531 0.244633
0.342184 0.798642 0.245487
0.481941 0.801831 0.25214
0.597513 0.813153 0.271458
0.673838 0.833799 0.291783
0.725582 0.852415 0.305577
0.771252 0.868635 0.316655
0.81709 0.881788 0.331151
0.852613 0.890211 0.345129
0.875563 0.893736 0.363378
0.898268 0.89929 0.388128
0.918486 0.904509 0.417197
0.924544 0.906935 0.443763
0.928878 0.908812 0.467216
0.928939 0.908858 0.473762
0.929015 0.908888 0.480064
0.92903 0.908888 0.480247
0.929046 0.908904 0.480476
0.929046 0.908904 0.480674
0.929046 0.908904 0.480903
0.0988174 0.799435 0.398978
0.0989853 0.79939 0.398123
0.0994278 0.799222 0.395285
0.100145 0.798962 0.39057
0.101076 0.798367 0.383963
0.102571 0.797528 0.375692
0.104524 0.79678 0.365255
0.109316 0.795102 0.352224
0.11606 0.79263 0.337148
0.125063 0.7906 0.320867
0.136446 0.789334 0.303212
0.148302 0.788617 0.283116
0.182177 0.789441 0.259876
0.250645 0.792966 0.244587
0.370199 0.800122 0.246921
0.509453 0.802792 0.254551
0.615671 0.817227 0.275074
0.688167 0.838422 0.296178
0.73489 0.856016 0.307042
0.779843 0.871061 0.318517
0.825605 0.884199 0.332769
0.85626 0.890562 0.347509
0.879469 0.894484 0.366064
0.901244 0.899489 0.390356
0.91841 0.904219 0.419379
0.926055 0.907622 0.446189
0.928878 0.908827 0.465171
0.928954 0.908843 0.474739
0.928985 0.908873 0.479881
0.929 0.908873 0.480003
0.929015 0.908888 0.48014
0.92903 0.908904 0.480278
0.929046 0.908904 0.480446
0.0983597 0.799573 0.401938
0.0985428 0.799512 0.400671
0.0990768 0.799329 0.397208
0.0999466 0.799054 0.391989
0.100938 0.798444 0.384863
0.102739 0.797528 0.375555
0.105241 0.796582 0.364019
0.10988 0.794965 0.350683
0.117281 0.792309 0.334874
0.12726 0.790463 0.317845
0.138811 0.789258 0.29868
