bundles/resolve-cinematic-luts/Phantom Luts/P4k & P6K Phntm Film LUTs - V6/P4K/Gen 5 Colour/Standard (No WB Offset)/P4k Eastman Gen5.cube
TITLE "Generated by Resolve"
LUT_3D_SIZE 5
0.0390021 0.0390021 0.0390021
0.110887 0.0390021 0.0390021
0.441123 0.0878004 0.0449836
0.62855 0.164462 0.105165
0.62063 0.169894 0.109545
0.060029 0.10869 0.071107
0.110109 0.122911 0.0589303
0.512581 0.15642 0.0761273
0.680568 0.225849 0.138705
0.682292 0.237507 0.142382
0.166888 0.654566 0.379522
0.162051 0.641047 0.330327
0.58703 0.657923 0.137362
0.831724 0.699672 0.287755
0.829862 0.710185 0.291905
0.277729 0.865553 0.587335
0.26804 0.8439 0.543114
0.612329 0.809567 0.36051
0.816114 0.813214 0.410163
0.822217 0.818082 0.437613
0.2813 0.867643 0.600992
0.268223 0.847974 0.543893
0.598688 0.808362 0.35697
0.813718 0.8103 0.396674
0.82475 0.816938 0.432227
0.0390021 0.0390021 0.0627909
0.102342 0.0390021 0.0757
0.439719 0.0390021 0.0526131
0.640558 0.117556 0.159609
0.619211 0.113283 0.178592
0.052491 0.101061 0.0893721
0.116411 0.113268 0.114015
0.500893 0.128283 0.0667582
0.630854 0.179477 0.119814
0.619898 0.178729 0.1178
0.172183 0.66569 0.421775
0.166247 0.654673 0.390616
0.581994 0.650431 0.135653
0.833356 0.68954 0.292485
0.829862 0.69575 0.297612
0.290028 0.881193 0.631754
0.27895 0.866117 0.591501
0.564172 0.808286 0.378897
0.808209 0.81062 0.402564
0.822538 0.818998 0.443732
0.293431 0.883864 0.643488
0.280385 0.869825 0.595743
0.548516 0.806973 0.374945
0.802594 0.807431 0.386511
0.8215 0.819425 0.446128
0.0390021 0.0497597 0.298436
0.0658732 0.0498512 0.339284
0.432059 0.0402991 0.33817
0.593332 0.0983291 0.41619
0.555703 0.0779126 0.41033
0.0390021 0.059144 0.313313
0.0390021 0.0544289 0.336431
0.456519 0.0493629 0.360998
0.597528 0.0993668 0.423636
0.571969 0.0885786 0.420645
0.160372 0.674296 0.560357
0.162173 0.675242 0.56495
0.651057 0.677333 0.657038
0.850446 0.628214 0.591211
0.847456 0.637171 0.600565
0.364736 0.930938 0.776211
0.339422 0.922621 0.75967
0.543206 0.888823 0.712627
0.82945 0.860548 0.612604
0.855283 0.854322 0.615335
0.381521 0.933715 0.788891
0.346654 0.925338 0.765759
0.518212 0.893721 0.707835
0.829129 0.873503 0.647379
0.861189 0.866331 0.6477
0.0557717 0.109239 0.469657
0.129809 0.115206 0.512398
0.528435 0.132403 0.578912
0.649073 0.158862 0.585489
0.650111 0.159548 0.586969
0.0390021 0.116136 0.453819
0.0811475 0.128649 0.499016
0.560143 0.150637 0.60209
0.658473 0.166033 0.595331
0.660243 0.167437 0.596811
0.165621 0.684901 0.717189
0.16405 0.680339 0.720119
0.548867 0.636255 0.834272
0.856474 0.573877 0.799542
0.856687 0.580743 0.799878
0.486976 0.94966 0.852293
0.453452 0.942367 0.840635
0.638163 0.925246 0.85658
0.881651 0.90811 0.878996
0.908919 0.907393 0.874434
0.542336 0.956573 0.867643
0.515724 0.955566 0.858946
0.660227 0.943816 0.865354
0.873121 0.933104 0.891829
0.910109 0.934569 0.884092
0.118547 0.141375 0.526177
0.193637 0.145388 0.56286
0.56849 0.153109 0.604746
0.653681 0.162158 0.590265
0.652399 0.161105 0.589075
0.0508278 0.132799 0.4813
0.121874 0.141772 0.528054
0.580255 0.155566 0.605402
0.660334 0.167483 0.596902
0.661219 0.168002 0.597665
0.177935 0.695338 0.741466
0.171893 0.684092 0.73695
0.548928 0.626535 0.841093
0.856077 0.564813 0.806638
0.856352 0.56875 0.807309
0.528176 0.948806 0.86804
0.506889 0.942367 0.8645
0.682139 0.914534 0.881086
0.877638 0.905089 0.901213
0.910521 0.900816 0.902449
0.568414 0.956008 0.874495
0.569833 0.956008 0.874876
0.710918 0.942489 0.885603
0.88687 0.936614 0.908812
0.914748 0.938659 0.907866
