bundles/resolve-cinematic-luts/Phantom Luts/P4k & P6K Phntm Film LUTs - V6/P4K/Gen 5 Colour/Standard (No WB Offset)/P4k VisionTeal Gen5-Legacy.cube
TITLE "Generated by Resolve"
LUT_3D_SIZE 9
0.022385 0.0343633 0.0323796
0.0277562 0.0371557 0.0346075
0.0855421 0.0399939 0.0334173
0.267353 0.0425574 0.0267185
0.529381 0.0785992 0.0549325
0.7776 0.149798 0.129992
0.782452 0.150866 0.132631
0.782254 0.155734 0.132876
0.784726 0.162905 0.137118
0.0217288 0.0497139 0.0397955
0.0267491 0.0483253 0.0359503
0.0870527 0.0492561 0.0392767
0.274723 0.0455024 0.0292058
0.542412 0.0849928 0.0597543
0.774914 0.156786 0.129244
0.780636 0.161547 0.133043
0.782406 0.165728 0.134157
0.789837 0.174899 0.141329
0.0218662 0.10811 0.0552987
0.0205539 0.10695 0.0468757
0.0672923 0.105974 0.043183
0.318746 0.0911421 0.0403601
0.561502 0.114214 0.0706645
0.785443 0.180804 0.133898
0.787335 0.189776 0.135134
0.793912 0.217395 0.142565
0.805173 0.257969 0.155901
0.0286259 0.317037 0.114473
0.0247044 0.316823 0.105074
0.0366827 0.30396 0.0812695
0.234531 0.310842 0.0540017
0.661799 0.372854 0.139406
0.816464 0.407004 0.214252
0.816251 0.407004 0.214176
0.817975 0.423377 0.221714
0.820294 0.459937 0.23769
0.0971542 0.650568 0.35613
0.0919509 0.650202 0.347707
0.0920577 0.64271 0.315679
0.141497 0.589624 0.180514
0.543786 0.605646 0.105058
0.847395 0.725216 0.355459
0.845914 0.728695 0.366201
0.845258 0.729595 0.360159
0.848859 0.724712 0.372442
0.228901 0.907378 0.584573
0.22388 0.908553 0.580102
0.221805 0.906813 0.564355
0.249943 0.881239 0.494759
0.548104 0.787427 0.353353
0.78648 0.819074 0.336416
0.826154 0.824552 0.432837
0.826032 0.824445 0.431205
0.826047 0.823865 0.42443
0.227405 0.909865 0.598474
0.226734 0.909468 0.592294
0.224643 0.90724 0.574929
0.244068 0.883085 0.500099
0.523064 0.791806 0.372839
0.770733 0.814038 0.355566
0.825925 0.825177 0.445274
0.826078 0.825589 0.448768
0.826047 0.825635 0.449317
0.227863 0.910246 0.601511
0.227863 0.909239 0.595132
0.228489 0.906035 0.577401
0.244755 0.883421 0.504891
0.502266 0.793896 0.371756
0.762737 0.812558 0.350896
0.82591 0.824735 0.440299
0.826108 0.825406 0.448218
0.825833 0.825483 0.448539
0.224811 0.912245 0.604623
0.224521 0.911269 0.598093
0.226917 0.908629 0.585184
0.234699 0.894072 0.531945
0.391699 0.821683 0.397269
0.714763 0.802884 0.346487
0.821134 0.821439 0.418036
0.826032 0.825422 0.446754
0.825833 0.825483 0.447471
0.0222477 0.0367895 0.0444343
0.0293584 0.0364385 0.0492103
0.101274 0.0342412 0.0538491
0.331044 0.0348821 0.0370336
0.598093 0.0777295 0.0742962
0.788754 0.136156 0.135637
0.789746 0.141924 0.137682
0.789349 0.147982 0.138918
0.786694 0.156527 0.138979
0.0219272 0.0455482 0.0415351
0.0237888 0.0452277 0.0426184
0.0940566 0.0426337 0.0382696
0.278202 0.0415351 0.0311894
0.544915 0.0756695 0.0613718
0.783749 0.144045 0.13547
0.78497 0.150286 0.136889
0.783551 0.15845 0.135668
0.789837 0.169421 0.142092
0.0200504 0.10251 0.0637369
0.0199435 0.101869 0.0540932
0.0632944 0.101656 0.0433967
0.315709 0.0836042 0.0395514
0.560327 0.107103 0.0699474
0.785458 0.168841 0.136767
0.789166 0.184527 0.137179
0.793057 0.208148 0.141695
0.807111 0.257527 0.158206
0.0286717 0.312078 0.127901
0.0254826 0.31104 0.115068
0.0324407 0.303777 0.0888075
0.230289 0.306462 0.0546731
0.66154 0.363134 0.140154
0.816541 0.39617 0.209598
0.816449 0.395895 0.20943
0.818677 0.42295 0.22208
0.820874 0.463004 0.239124
0.0957046 0.647791 0.364706
0.0901656 0.646128 0.35613
0.0889448 0.641199 0.328237
0.13756 0.590234 0.191302
0.540291 0.601236 0.104295
0.847593 0.724041 0.358968
0.847486 0.725139 0.366873
0.846586 0.726131 0.362371
0.849638 0.719799 0.370932
0.229053 0.908492 0.591379
0.224826 0.90988 0.587381
0.22211 0.908019 0.571771
0.241047 0.884153 0.500359
0.538262 0.787808 0.350622
0.784894 0.819257 0.33019
0.826062 0.824491 0.431495
0.825956 0.824323 0.428763
0.826093 0.823102 0.420981
0.227649 0.910994 0.605463
0.227008 0.910201 0.59855
0.225406 0.908675 0.582498
0.241184 0.887144 0.510613
0.509316 0.793286 0.372488
0.767178 0.813764 0.354192
0.82591 0.825177 0.445167
0.826108 0.825666 0.449683
0.826062 0.825696 0.450233
0.228122 0.911223 0.607935
0.227604 0.910521 0.601968
0.229129 0.907423 0.585245
0.242252 0.887602 0.515312
0.487724 0.796826 0.37293
0.757977 0.811856 0.349737
0.82594 0.824674 0.438834
0.826185 0.825513 0.449165
0.825895 0.825574 0.449516
0.225422 0.913054 0.61062
0.225834 0.911772 0.604288
0.227665 0.909072 0.591699
0.231968 0.898558 0.542382
0.376059 0.827146 0.403082
0.709117 0.802411 0.346609
0.819379 0.820676 0.415808
0.826108 0.825513 0.447974
0.825879 0.825574 0.448478
0.0212406 0.0448615 0.102083
0.0300603 0.0433967 0.105715
0.0988479 0.0350652 0.103822
0.326604 0.0173953 0.106569
0.647028 0.0759594 0.12369
0.791455 0.130419 0.160357
0.791638 0.133776 0.158206
0.791058 0.133318 0.1514
0.792081 0.129305 0.140963
0.0214847 0.0514839 0.0855268
0.0213016 0.0439155 0.0975814
0.0857404 0.0353246 0.0971542
0.315953 0.0228733 0.0849165
0.650645 0.07776 0.102419
0.790234 0.128847 0.146807
0.789899 0.131044 0.144106
0.790372 0.132769 0.13991
0.790997 0.145144 0.14078
0.0202335 0.0979782 0.0819104
0.020325 0.0966049 0.0816968
0.0734112 0.100114 0.0939345
0.318608 0.0625162 0.0496376
0.588357 0.0918898 0.0748913
0.783017 0.149981 0.134157
0.785794 0.165072 0.136568
0.789303 0.1888 0.137011
0.804211 0.24097 0.153048
0.0267338 0.302022 0.153964
0.0255894 0.299916 0.142321
0.0242008 0.294621 0.110567
0.222995 0.299001 0.0573739
0.661891 0.339971 0.140291
0.814862 0.373816 0.19884
0.815427 0.387167 0.205783
0.818601 0.421149 0.220722
0.821363 0.464515 0.239719
0.0937514 0.641032 0.38024
0.0877546 0.639673 0.372351
0.0864271 0.633585 0.348424
0.129839 0.593927 0.217044
0.534768 0.594919 0.103731
0.847883 0.716381 0.357275
0.847486 0.716655 0.363378
0.846693 0.717372 0.360952
0.847791 0.715938 0.358984
0.230182 0.909667 0.605341
0.225834 0.911315 0.601282
0.223545 0.910445 0.588403
0.235111 0.890471 0.518563
0.521263 0.789807 0.347478
0.783597 0.819409 0.32018
0.826032 0.824353 0.429633
0.825986 0.824247 0.426322
0.826474 0.821988 0.415808
0.229023 0.912627 0.621683
0.2271 0.912993 0.615442
0.226886 0.910353 0.599115
0.234333 0.894453 0.530694
0.483803 0.798154 0.374517
0.760754 0.812345 0.353262
0.825925 0.825208 0.445624
0.826215 0.825818 0.451972
0.826169 0.825849 0.452262
0.229786 0.91281 0.624186
0.227054 0.913359 0.618769
0.228351 0.910048 0.602304
0.235386 0.895552 0.536233
0.459968 0.802472 0.375525
0.749966 0.810132 0.350195
0.825345 0.824201 0.434363
0.826322 0.825666 0.451484
0.826001 0.825711 0.451591
0.225986 0.914305 0.622431
0.225742 0.913619 0.615778
0.227588 0.910811 0.603922
0.229572 0.902007 0.55668
0.355688 0.834333 0.413108
0.700282 0.800473 0.348272
0.815961 0.81915 0.41236
0.826185 0.825666 0.449744
0.82594 0.825711 0.450202
0.0196689 0.0718853 0.289311
0.0195468 0.068452 0.293599
0.078233 0.0493477 0.302846
0.302312 0.0285039 0.265476
0.593149 0.0375372 0.3243
0.766888 0.0766003 0.379095
0.782666 0.0964218 0.334813
0.791165 0.113985 0.293278
0.796796 0.131533 0.249393
0.0196384 0.0763561 0.286641
0.0195621 0.0712291 0.286946
0.0583047 0.0628977 0.302129
0.293141 0.0291752 0.259602
0.59263 0.0385138 0.315129
0.775738 0.0863203 0.346136
0.790387 0.111574 0.302983
0.793744 0.120653 0.280842
0.797772 0.137209 0.237415
0.0196841 0.101839 0.255085
0.0196078 0.0940414 0.268132
0.0196231 0.0822309 0.293935
0.277836 0.0324559 0.249653
0.582849 0.0366369 0.280583
0.791989 0.118196 0.289479
0.795026 0.130846 0.257664
0.796262 0.140764 0.228153
0.794995 0.134478 0.162127
0.0192111 0.292638 0.230869
0.0190433 0.290288 0.230579
0.0189059 0.283391 0.225086
0.308415 0.32076 0.297414
0.660258 0.279606 0.230091
0.811704 0.288899 0.22002
0.813016 0.304646 0.212314
0.814694 0.343359 0.21326
0.819074 0.404425 0.231418
0.073106 0.628199 0.439185
0.070222 0.627131 0.436683
0.072343 0.620218 0.419883
0.0849928 0.603555 0.332692
0.52636 0.578286 0.156161
0.848814 0.676936 0.359869
0.848936 0.679194 0.366613
0.847715 0.682902 0.366186
0.848554 0.695979 0.363653
0.233127 0.909575 0.649348
0.227008 0.911208 0.646632
0.222751 0.908934 0.632807
0.218311 0.898512 0.577676
0.434806 0.803586 0.353216
0.776287 0.819028 0.29366
0.82649 0.822965 0.427192
0.826596 0.822431 0.425101
0.827222 0.818143 0.412619
0.237217 0.918364 0.674052
0.236179 0.918547 0.668513
0.231632 0.917205 0.6542
0.228931 0.909987 0.599649
0.392035 0.825986 0.414191
0.734051 0.807019 0.36022
0.824887 0.824338 0.438972
0.826658 0.826551 0.459541
0.826535 0.82649 0.458961
0.233936 0.920012 0.677867
0.235752 0.919005 0.670817
0.232639 0.917266 0.655756
0.230442 0.909606 0.603449
0.366995 0.833783 0.422431
0.718624 0.803723 0.359335
0.817884 0.82005 0.42092
0.826932 0.826535 0.458701
0.826673 0.82649 0.45803
0.233646 0.918029 0.66273
0.231968 0.91751 0.655589
0.228763 0.916228 0.643748
0.229191 0.910201 0.605249
0.311162 0.857237 0.458732
0.673198 0.795468 0.361257
0.802899 0.814404 0.399527
0.826673 0.826352 0.456657
0.826429 0.826413 0.456855
0.0193027 0.124605 0.512108
0.0193027 0.123384 0.516533
0.0598001 0.120363 0.531746
0.300649 0.0534676 0.521141
0.590188 0.0699626 0.54258
0.775464 0.143328 0.612924
0.771389 0.133089 0.632914
0.778943 0.150927 0.605066
0.771069 0.0868544 0.514458
0.0192721 0.125277 0.506996
0.0193027 0.124468 0.511711
0.0384985 0.122255 0.526238
0.286061 0.0536049 0.52192
0.585534 0.0694591 0.538201
0.777127 0.146548 0.604669
0.774777 0.137713 0.625544
0.781445 0.1579 0.584878
0.768048 0.0802014 0.501686
0.019379 0.129625 0.493431
0.0192264 0.125383 0.497978
0.0192416 0.122484 0.508858
0.243107 0.0549172 0.522835
0.57232 0.0675822 0.526146
0.78024 0.145342 0.587243
0.779171 0.147463 0.589761
0.777691 0.125154 0.548837
0.76286 0.0740368 0.48072
0.019501 0.31075 0.499748
0.0193484 0.305913 0.504906
0.0192569 0.292638 0.511849
0.120455 0.245518 0.576654
0.612558 0.150576 0.564553
0.791165 0.147433 0.558389
0.780484 0.112856 0.527489
0.762127 0.0792706 0.486976
0.782345 0.116976 0.428717
0.0654917 0.623636 0.547402
0.0610819 0.622705 0.548592
0.0594797 0.618036 0.544274
0.0632792 0.605325 0.533349
0.622705 0.615946 0.589349
0.865934 0.616129 0.560494
0.866499 0.611795 0.542275
0.863188 0.609766 0.519844
0.858412 0.6121 0.474617
0.184863 0.914122 0.753521
0.175845 0.91519 0.7514
0.169604 0.911192 0.742504
0.173175 0.89398 0.704677
0.450889 0.839399 0.622477
0.764584 0.808087 0.502739
0.849012 0.814542 0.529381
0.848997 0.812421 0.525322
0.844541 0.803998 0.487266
0.237186 0.940017 0.77937
0.22359 0.942397 0.774701
0.209384 0.942992 0.765194
0.207568 0.935912 0.732891
0.378714 0.889601 0.642222
0.703334 0.823774 0.53463
0.822324 0.827634 0.492103
0.837079 0.841291 0.552728
0.835569 0.838727 0.541527
0.238911 0.941009 0.782269
0.226596 0.942092 0.776074
0.211032 0.942794 0.765377
0.206027 0.936233 0.733135
0.327291 0.896117 0.633173
0.676051 0.81944 0.526314
0.805524 0.820584 0.468284
0.836225 0.839902 0.547036
0.834897 0.837858 0.536507
0.202426 0.94258 0.758923
0.197757 0.942306 0.751492
0.199512 0.939651 0.740932
0.213275 0.930877 0.713924
0.253346 0.907073 0.613993
0.601251 0.806363 0.47219
0.790204 0.818143 0.424338
0.831647 0.833844 0.514
0.833112 0.835813 0.524422
0.0198062 0.230793 0.731914
0.0328832 0.230808 0.737453
0.0880598 0.230518 0.750637
0.304494 0.148196 0.779202
0.661234 0.179568 0.80415
0.790524 0.162448 0.836027
0.791287 0.166049 0.839414
0.791348 0.166049 0.83946
0.791516 0.165972 0.839536
0.0197757 0.230655 0.727123
0.0197757 0.229862 0.730327
0.059617 0.229999 0.742641
0.295399 0.166918 0.776394
0.651667 0.175051 0.800122
0.790311 0.160845 0.832273
0.791196 0.166979 0.839521
0.791196 0.166934 0.839521
0.791333 0.16434 0.836789
0.0194705 0.227131 0.713512
0.0195163 0.227237 0.717662
0.0195621 0.225635 0.724514
0.261372 0.199634 0.765911
0.629389 0.165148 0.792447
0.78854 0.158053 0.82414
0.79118 0.165682 0.836515
0.791623 0.167697 0.838819
0.788571 0.154635 0.816373
0.0194095 0.293523 0.684733
0.0194247 0.284733 0.683574
0.0193942 0.26244 0.680842
0.0508431 0.243778 0.739834
0.557198 0.149798 0.775097
0.788083 0.152789 0.794507
0.788708 0.155123 0.799466
0.788907 0.157061 0.80238
0.770489 0.121401 0.744717
0.0210117 0.686122 0.784375
0.02121 0.682078 0.784649
0.0208286 0.675471 0.786496
0.0211795 0.657435 0.804028
0.528237 0.585351 0.856184
0.879469 0.540475 0.842145
0.879805 0.534279 0.837095
0.872892 0.525124 0.817182
0.855879 0.473793 0.749615
0.225132 0.907591 0.834241
0.217685 0.906905 0.83328
0.209689 0.903914 0.830457
0.209354 0.890867 0.820218
0.482628 0.848127 0.796872
0.828519 0.83595 0.816602
0.905669 0.821042 0.788373
0.903548 0.814389 0.777905
0.900938 0.812222 0.755947
0.389715 0.931701 0.842298
0.380041 0.932891 0.840467
0.36939 0.933425 0.836561
0.353567 0.934035 0.827405
0.469932 0.916701 0.806622
0.749554 0.909743 0.811612
0.880644 0.899641 0.774182
0.895811 0.900557 0.780484
0.891173 0.895064 0.765164
0.399496 0.930495 0.843931
0.385061 0.932586 0.8421
0.372137 0.933394 0.8374
0.351263 0.934371 0.827268
0.431189 0.91957 0.800305
0.71548 0.908537 0.801495
0.864057 0.901518 0.779568
0.88455 0.891783 0.749126
0.880827 0.887587 0.736019
0.363088 0.933089 0.833005
0.351308 0.934676 0.82974
0.338796 0.935714 0.826383
0.311543 0.937819 0.816922
0.313512 0.929747 0.780514
0.65098 0.898222 0.769787
0.83299 0.88484 0.73637
0.872892 0.878676 0.709041
0.874693 0.88098 0.716243
0.0435492 0.250416 0.763149
0.0651255 0.250874 0.769146
0.125963 0.249302 0.781979
0.331914 0.156512 0.805646
0.688807 0.20148 0.82594
0.792432 0.167971 0.841077
0.791699 0.166964 0.839963
0.791608 0.166873 0.839765
0.791547 0.166812 0.839658
0.0260471 0.249042 0.756191
0.0431983 0.25037 0.763073
0.0994888 0.25069 0.776318
0.321202 0.179232 0.803204
0.678355 0.19794 0.823957
0.792996 0.168963 0.842039
0.79263 0.168322 0.841474
0.792523 0.168139 0.84126
0.792432 0.167987 0.841093
0.0195926 0.245594 0.742687
0.0196231 0.246815 0.748043
0.0427863 0.250324 0.762966
0.294453 0.220096 0.79704
0.655039 0.18938 0.82298
0.793637 0.170748 0.843336
0.793805 0.171054 0.843595
0.793835 0.17116 0.843656
0.793744 0.170901 0.843473
0.0196384 0.302846 0.738247
0.0195468 0.291676 0.732509
0.0198062 0.266789 0.720378
0.0783551 0.259144 0.775143
0.563287 0.163119 0.815686
0.796017 0.178134 0.846159
0.796658 0.180423 0.847135
0.796658 0.18143 0.847181
0.796719 0.180896 0.847242
0.0212558 0.708843 0.853483
0.0211185 0.703212 0.852201
0.0212406 0.694957 0.851194
0.0210117 0.66714 0.845914
0.514214 0.583719 0.904005
0.864179 0.532433 0.902602
0.868132 0.525277 0.899947
0.867887 0.523644 0.899413
0.860929 0.493004 0.894224
0.306844 0.89897 0.895659
0.302815 0.897078 0.895827
0.292454 0.894072 0.89601
0.275547 0.886107 0.898054
0.501152 0.860655 0.899474
0.791608 0.822583 0.924834
0.919921 0.795148 0.917449
0.919341 0.790326 0.916106
0.9187 0.762966 0.900984
0.489509 0.927245 0.867994
0.484306 0.928115 0.867552
0.475807 0.929091 0.866484
0.447883 0.929839 0.861067
0.512245 0.921324 0.857099
0.771603 0.920775 0.880781
0.918837 0.932158 0.911025
0.922225 0.920638 0.892592
0.916762 0.909926 0.877272
0.497566 0.927092 0.869825
0.495369 0.927794 0.869657
0.489219 0.927977 0.868223
0.462608 0.929839 0.861845
0.509056 0.923949 0.851621
0.758831 0.928847 0.879866
0.892973 0.941527 0.91046
0.927016 0.93814 0.893187
0.926879 0.937987 0.892592
0.479912 0.92871 0.866773
0.473762 0.929412 0.86595
0.463142 0.930114 0.863661
0.43917 0.930907 0.857481
0.434882 0.927993 0.84213
0.700435 0.923827 0.859724
0.864942 0.938262 0.896239
0.9252 0.936721 0.88658
0.924453 0.935439 0.881193
0.0522316 0.250935 0.765606
0.0766003 0.250935 0.771572
0.138399 0.247776 0.783627
0.345129 0.154238 0.805859
0.698268 0.200351 0.826719
0.791653 0.166049 0.839628
0.792279 0.167773 0.840864
0.792004 0.167361 0.840452
0.791882 0.167224 0.840253
0.0333867 0.249393 0.759121
0.0516365 0.25098 0.765545
0.110399 0.250019 0.778881
0.329168 0.164965 0.805402
0.689784 0.201846 0.825971
0.791638 0.166613 0.83975
0.793057 0.169131 0.842206
0.792905 0.168795 0.841947
0.792828 0.168627 0.841794
0.0195926 0.245945 0.744808
0.0196994 0.24744 0.750454
0.0510414 0.251011 0.765469
0.303181 0.213718 0.797879
0.663691 0.192187 0.823484
0.792676 0.168399 0.841489
0.793851 0.171557 0.843748
0.793866 0.171557 0.843763
0.793851 0.171359 0.843717
0.0199435 0.297185 0.735286
0.0196994 0.28484 0.729
0.019501 0.259998 0.71632
0.0847486 0.254978 0.774807
0.569345 0.164202 0.816281
0.79527 0.176791 0.845548
0.796674 0.180438 0.84715
0.796674 0.181308 0.847196
0.796735 0.180789 0.847257
0.0212406 0.708797 0.853956
0.0211185 0.702052 0.852384
0.0208743 0.692226 0.850614
0.0208896 0.661128 0.844297
0.512322 0.57467 0.90309
0.861524 0.522957 0.90042
0.866484 0.514778 0.898451
0.865675 0.512261 0.897612
0.859953 0.486656 0.893385
0.356985 0.893492 0.894057
0.351781 0.892103 0.89453
0.341375 0.888747 0.895338
0.314183 0.881621 0.897292
0.494743 0.857084 0.901915
0.785962 0.818173 0.931182
0.917235 0.788769 0.924086
0.916808 0.783246 0.924315
0.914748 0.764599 0.925383
0.496025 0.927596 0.869688
0.495262 0.927825 0.869642
0.493187 0.927535 0.869596
0.470375 0.928023 0.871717
0.542031 0.918318 0.875608
0.793835 0.921477 0.903212
0.911345 0.927321 0.922988
0.932479 0.92195 0.923537
0.931945 0.915236 0.923339
0.495384 0.927794 0.869657
0.495262 0.927825 0.869642
0.495262 0.927825 0.869642
0.500023 0.927581 0.869917
0.562982 0.924865 0.872358
0.775128 0.931533 0.895201
0.904341 0.943435 0.923293
0.933837 0.945174 0.927016
0.933837 0.945174 0.927001
0.495262 0.927825 0.869642
0.495262 0.927825 0.869642
0.495262 0.927825 0.869642
0.497063 0.927855 0.869886
0.512551 0.926726 0.868208
0.728099 0.928222 0.887861
0.887556 0.942275 0.919615
0.933776 0.944991 0.927184
0.933928 0.945159 0.926894
0.0555428 0.250797 0.766308
0.0807507 0.251148 0.772534
0.1411 0.247517 0.783978
0.344564 0.154238 0.805829
0.697536 0.200549 0.826673
0.791455 0.164843 0.839445
0.792447 0.168032 0.841123
0.792172 0.167651 0.840696
0.792081 0.167498 0.840558
0.035523 0.249638 0.760082
0.0546273 0.250797 0.766094
0.112505 0.249882 0.779431
0.329061 0.165316 0.805402
0.688045 0.20116 0.825864
0.791638 0.165637 0.839521
0.793118 0.16939 0.842313
0.793011 0.169009 0.84213
0.792935 0.168856 0.841993
0.0195926 0.246159 0.745785
0.0197757 0.247822 0.751766
0.0536507 0.250828 0.76585
0.303075 0.213748 0.797818
0.662013 0.191638 0.823194
0.791684 0.166918 0.839918
0.793851 0.171695 0.843778
0.793851 0.171633 0.843763
0.793851 0.17145 0.843732
0.0195315 0.291066 0.731716
0.019501 0.279164 0.726558
0.0198978 0.25568 0.714611
0.0854658 0.253376 0.774227
0.567025 0.162615 0.815473
0.795102 0.176104 0.845335
0.796658 0.180285 0.847105
0.796719 0.181079 0.847242
0.796704 0.180514 0.847196
0.0211337 0.701198 0.85211
0.0212406 0.695018 0.851347
0.02121 0.685908 0.849683
0.0213321 0.65481 0.84361
0.505089 0.567147 0.900542
0.858595 0.512413 0.897597
0.863752 0.503517 0.89633
0.86302 0.500389 0.895842
0.856672 0.473884 0.891066
0.351766 0.891981 0.894499
0.345342 0.890043 0.894972
0.335348 0.886625 0.895888
0.304677 0.878813 0.897475
0.481437 0.853574 0.902312
0.780194 0.811002 0.932342
0.916762 0.780255 0.924712
0.91606 0.773892 0.924849
0.913542 0.755169 0.925612
0.495811 0.927657 0.869673
0.495262 0.927825 0.869642
0.487922 0.927367 0.869993
0.460044 0.927306 0.871809
0.530907 0.916259 0.876005
0.78703 0.917845 0.903151
0.908415 0.923522 0.922347
0.932067 0.917037 0.92372
0.932052 0.910628 0.92401
0.495354 0.92781 0.869657
0.495262 0.927825 0.869642
0.495262 0.927825 0.869642
0.499626 0.927626 0.869932
0.556817 0.924788 0.871611
0.772412 0.931197 0.894545
0.909651 0.943603 0.923888
0.933822 0.945174 0.927031
0.933837 0.945159 0.927016
0.49836 0.926818 0.869368
0.495415 0.927779 0.869627
0.495262 0.927825 0.869642
0.497078 0.927855 0.869902
0.521263 0.926589 0.870848
0.738369 0.92845 0.888518
0.889815 0.942382 0.919966
0.933867 0.945113 0.926955
0.933944 0.945144 0.926894
