bundles/resolve-cinematic-luts/Phantom Luts/P4k & P6K Phntm Film LUTs - V6/P4K/Gen 5 Colour/Standard (No WB Offset)/P4k Eastman Gen5.cube
TITLE "Generated by Resolve"
LUT_3D_SIZE 9
0.0390021 0.0390021 0.0390021
0.0426795 0.0390021 0.0390021
0.110887 0.0390021 0.0390021
0.272725 0.0517128 0.0390021
0.441123 0.0878004 0.0449836
0.585534 0.145449 0.0798352
0.62855 0.164462 0.105165
0.631373 0.165682 0.108675
0.62063 0.169894 0.109545
0.0390021 0.0390021 0.0390021
0.0421759 0.0390021 0.0390021
0.109712 0.0454414 0.0432441
0.264698 0.0580453 0.0390021
0.440024 0.101793 0.0446326
0.595834 0.162799 0.0917067
0.630655 0.178866 0.111666
0.631754 0.17911 0.113115
0.613413 0.185565 0.113542
0.060029 0.10869 0.071107
0.0599527 0.108888 0.0605631
0.110109 0.122911 0.0589303
0.357092 0.123491 0.0612039
0.512581 0.15642 0.0761273
0.653849 0.210895 0.126513
0.680568 0.225849 0.138705
0.687007 0.231388 0.141131
0.682292 0.237507 0.142382
0.0994278 0.339529 0.162005
0.100206 0.345968 0.154131
0.0953078 0.342901 0.116335
0.331304 0.39823 0.0927901
0.6925 0.45272 0.142
0.822568 0.466072 0.210788
0.836088 0.494362 0.224186
0.836698 0.509712 0.224582
0.834852 0.520928 0.226169
0.166888 0.654566 0.379522
0.164843 0.652308 0.375921
0.162051 0.641047 0.330327
0.23122 0.628428 0.197604
0.58703 0.657923 0.137362
0.789685 0.674968 0.22269
0.831724 0.699672 0.287755
0.831113 0.706554 0.289876
0.829862 0.710185 0.291905
0.264027 0.844968 0.560113
0.262165 0.84033 0.554833
0.256382 0.826078 0.524346
0.255802 0.781857 0.413092
0.611658 0.795361 0.286625
0.75172 0.796643 0.288136
0.821103 0.803754 0.386023
0.824353 0.807401 0.398505
0.82739 0.806241 0.393744
0.277729 0.865553 0.587335
0.275288 0.860746 0.578164
0.26804 0.8439 0.543114
0.283726 0.81059 0.457221
0.612329 0.809567 0.36051
0.761898 0.813581 0.349401
0.816114 0.813214 0.410163
0.823377 0.817563 0.435248
0.822217 0.818082 0.437613
0.278737 0.868559 0.588937
0.275319 0.863722 0.576303
0.267414 0.846326 0.534401
0.285115 0.809644 0.443366
0.613046 0.808713 0.351324
0.764141 0.81236 0.341909
0.816648 0.810254 0.397513
0.82797 0.815869 0.427695
0.828565 0.815808 0.427817
0.2813 0.867643 0.600992
0.277302 0.863523 0.586725
0.268223 0.847974 0.543893
0.280049 0.812116 0.454582
0.598688 0.808362 0.35697
0.759609 0.81294 0.342153
0.813718 0.8103 0.396674
0.826398 0.816297 0.429328
0.82475 0.816938 0.432227
0.0390021 0.0390021 0.0390021
0.0396582 0.0390021 0.0390021
0.102571 0.0390021 0.0486458
0.278096 0.0390021 0.0395819
0.453513 0.0939803 0.0505074
0.589456 0.152712 0.0977798
0.623392 0.167025 0.118379
0.629313 0.168017 0.126085
0.618845 0.172915 0.129564
0.0390021 0.0390021 0.0390021
0.0390021 0.0390021 0.0390021
0.106691 0.0390021 0.0411383
0.2692 0.0567483 0.0390021
0.436591 0.0985733 0.0437018
0.57763 0.157092 0.0860456
0.609339 0.171786 0.106203
0.612009 0.172885 0.109483
0.603021 0.176654 0.110307
0.057145 0.103243 0.0768902
0.0558175 0.104921 0.0711223
0.10544 0.118761 0.0582895
0.345037 0.114397 0.0560464
0.494453 0.148196 0.0693217
0.637491 0.20528 0.122744
0.661891 0.218524 0.134493
0.666911 0.222492 0.136278
0.66154 0.227115 0.137621
0.0990921 0.339864 0.176486
0.0957198 0.343313 0.167636
0.0972457 0.346258 0.12871
0.331121 0.396384 0.0926528
0.699596 0.446342 0.145983
0.823804 0.458122 0.2121
0.835172 0.485206 0.223728
0.836072 0.499489 0.224262
0.834089 0.510475 0.225544
0.168811 0.658595 0.391974
0.166857 0.656504 0.388418
0.1626 0.644709 0.344808
0.215839 0.624903 0.198169
0.58616 0.656458 0.137377
0.791989 0.673381 0.222934
0.832288 0.697139 0.287098
0.831998 0.703746 0.290089
0.83032 0.706081 0.291661
0.265797 0.847761 0.568032
0.263691 0.843351 0.563012
0.257557 0.829923 0.53431
0.253132 0.78323 0.421698
0.605463 0.794003 0.284977
0.749523 0.794629 0.282338
0.821118 0.802106 0.382544
0.823331 0.805997 0.397131
0.823529 0.805539 0.394369
0.28159 0.869123 0.601572
0.278157 0.865553 0.588937
0.270069 0.849989 0.555169
0.27837 0.812696 0.466484
0.600092 0.80911 0.364202
0.759808 0.81442 0.348669
0.813825 0.812238 0.407904
0.823514 0.817807 0.437018
0.822126 0.818357 0.439292
0.283772 0.871992 0.610315
0.278889 0.868727 0.589471
0.269703 0.853193 0.548577
0.278492 0.812787 0.455085
0.599023 0.808225 0.355016
0.759823 0.81297 0.341634
0.81384 0.809369 0.394125
0.828138 0.816129 0.429648
0.821912 0.81828 0.438499
0.284276 0.872541 0.612375
0.280018 0.869215 0.593988
0.271382 0.854749 0.557794
0.275822 0.815305 0.464622
0.585626 0.807874 0.359701
0.755093 0.813397 0.342
0.810788 0.809705 0.394141
0.826734 0.81651 0.431067
0.821302 0.818433 0.438788
0.0390021 0.0390021 0.0627909
0.0433051 0.0390021 0.0715343
0.102342 0.0390021 0.0757
0.286015 0.0390021 0.0733196
0.439719 0.0390021 0.0526131
0.615366 0.113588 0.134676
0.640558 0.117556 0.159609
0.634974 0.112902 0.171527
0.619211 0.113283 0.178592
0.0390021 0.0390021 0.0615244
0.0390021 0.0390021 0.0675822
0.0970474 0.0390021 0.0754559
0.29453 0.0390021 0.06215
0.459251 0.0665904 0.0529793
0.628748 0.141222 0.13959
0.645212 0.141009 0.155398
0.642847 0.124636 0.157076
0.62974 0.124269 0.166232
0.052491 0.101061 0.0893721
0.0503853 0.101488 0.0902113
0.116411 0.113268 0.114015
0.334615 0.107118 0.0872358
0.500893 0.128283 0.0667582
0.611887 0.17026 0.107515
0.630854 0.179477 0.119814
0.629877 0.178134 0.119051
0.619898 0.178729 0.1178
0.100771 0.341634 0.21326
0.0985428 0.345556 0.209216
0.0966964 0.342794 0.171679
0.334554 0.394659 0.104219
0.709728 0.415564 0.168185
0.821256 0.426307 0.214145
0.829099 0.444633 0.224643
0.831708 0.454398 0.229053
0.831159 0.463752 0.233127
0.172183 0.66569 0.421775
0.171237 0.664073 0.420691
0.166247 0.654673 0.390616
0.177935 0.615885 0.216922
0.581994 0.650431 0.135653
0.802701 0.669993 0.233936
0.833356 0.68954 0.292485
0.8318 0.693828 0.295399
0.829862 0.69575 0.297612
0.269306 0.854475 0.589746
0.267369 0.850217 0.585214
0.260807 0.838941 0.561044
0.248569 0.791257 0.45182
0.583947 0.79089 0.288167
0.744915 0.791272 0.269459
0.82118 0.797223 0.375082
0.824018 0.801984 0.393027
0.824201 0.801236 0.39086
0.290028 0.881193 0.631754
0.287648 0.876967 0.622751
0.27895 0.866117 0.591501
0.272175 0.823728 0.497536
0.564172 0.808286 0.378897
0.751019 0.815106 0.350286
0.808209 0.81062 0.402564
0.824155 0.818479 0.441489
0.822538 0.818998 0.443732
0.293233 0.883909 0.642573
0.289967 0.880461 0.631754
0.279561 0.869673 0.591226
0.271885 0.825818 0.490303
0.562036 0.807462 0.371115
0.746502 0.813901 0.343587
0.806348 0.807446 0.387198
0.829313 0.816754 0.434928
0.822507 0.819059 0.444205
0.293431 0.883864 0.643488
0.290272 0.880461 0.632654
0.280385 0.869825 0.595743
0.270817 0.827802 0.497398
0.548516 0.806973 0.374945
0.742382 0.814313 0.344381
0.802594 0.807431 0.386511
0.827771 0.817334 0.437354
0.8215 0.819425 0.446128
0.0390021 0.0390021 0.16907
0.0390021 0.0390021 0.182101
0.0937972 0.0390021 0.210895
0.263218 0.0390021 0.190188
0.434669 0.0390021 0.206226
0.567361 0.0647135 0.251301
0.583352 0.0730602 0.27187
0.58175 0.0751965 0.288502
0.570871 0.0787976 0.29752
0.0390021 0.0390021 0.181659
0.0390021 0.0390021 0.187686
0.0701305 0.0390021 0.219852
0.270542 0.0390021 0.197955
0.443732 0.0390021 0.208865
0.570153 0.066865 0.249546
0.58201 0.0741436 0.272206
0.581704 0.0762188 0.29015
0.574624 0.0814984 0.300908
0.0390021 0.0924239 0.203769
0.0390021 0.0831464 0.212909
0.0420691 0.0687419 0.237873
0.290044 0.039353 0.222477
0.465064 0.0390021 0.205753
0.579339 0.0665293 0.233722
0.58407 0.0690776 0.248096
0.583688 0.0710307 0.262486
0.577096 0.0744335 0.2701
0.085832 0.34583 0.280415
0.0849165 0.351751 0.28719
0.0860914 0.355657 0.291539
0.403937 0.414435 0.407462
0.656672 0.36141 0.34789
0.807111 0.349493 0.315129
0.813764 0.355413 0.321752
0.815641 0.363546 0.333303
0.811658 0.372061 0.341787
0.170901 0.673091 0.486976
0.171862 0.673228 0.492027
0.172366 0.671656 0.47985
0.200931 0.65742 0.421073
0.587289 0.651484 0.294957
0.81825 0.649592 0.373892
0.837659 0.667414 0.391424
0.837095 0.671519 0.398489
0.835309 0.673091 0.400961
0.273854 0.861662 0.638956
0.272816 0.858274 0.637232
0.268894 0.85214 0.62121
0.255467 0.82533 0.550729
0.501472 0.789532 0.405875
0.738979 0.788144 0.300374
0.82565 0.788113 0.39794
0.82887 0.790951 0.418692
0.829099 0.789441 0.415244
0.306188 0.901793 0.695628
0.30547 0.898955 0.690455
0.300954 0.893233 0.670787
0.285618 0.868955 0.597513
0.437736 0.813443 0.449042
0.726116 0.818647 0.378149
0.799146 0.810193 0.410391
0.830091 0.824186 0.477073
0.828183 0.824537 0.477409
0.309529 0.904341 0.709117
0.307683 0.901839 0.70016
0.302647 0.895598 0.678019
0.286488 0.872236 0.599619
0.42089 0.812436 0.445426
0.71342 0.817823 0.368338
0.792096 0.808621 0.389044
0.831907 0.82179 0.46482
0.827253 0.825422 0.482612
0.309468 0.903716 0.708202
0.307317 0.901228 0.698878
0.302342 0.895247 0.676844
0.286595 0.872831 0.602197
0.403128 0.811795 0.445472
0.706905 0.817487 0.370031
0.78677 0.808316 0.389425
0.828321 0.821027 0.461372
0.82826 0.827649 0.492317
0.0390021 0.0497597 0.298436
0.0390021 0.0508583 0.311543
0.0658732 0.0498512 0.339284
0.27837 0.0390021 0.351064
0.432059 0.0402991 0.33817
0.590234 0.101717 0.401984
0.593332 0.0983291 0.41619
0.568811 0.0836042 0.410773
0.555703 0.0779126 0.41033
0.0390021 0.0512551 0.304021
0.0390021 0.051667 0.314733
0.0517281 0.0522469 0.343557
0.281773 0.0390021 0.363821
0.441886 0.0430304 0.347204
0.590967 0.0998398 0.40676
0.585077 0.0925612 0.415091
0.56582 0.0805676 0.412695
0.559899 0.0812238 0.417258
0.0390021 0.059144 0.313313
0.0390021 0.0544137 0.314992
0.0390021 0.0544289 0.336431
0.268879 0.0390021 0.381323
0.456519 0.0493629 0.360998
0.594873 0.101869 0.41265
0.597528 0.0993668 0.423636
0.582895 0.0922713 0.422415
0.571969 0.0885786 0.420645
0.061738 0.348043 0.441352
0.061326 0.347616 0.446754
0.0577096 0.334554 0.452827
0.25922 0.320317 0.547601
0.632517 0.262272 0.541131
0.757992 0.256703 0.524102
0.770779 0.25536 0.537758
0.772335 0.262974 0.549279
0.768917 0.27071 0.553872
0.160372 0.674296 0.560357
0.16144 0.674739 0.563973
0.162173 0.675242 0.56495
0.229618 0.689525 0.590082
0.651057 0.677333 0.657038
0.811048 0.636698 0.606683
0.850446 0.628214 0.591211
0.84979 0.63505 0.599008
0.847456 0.637171 0.600565
0.275319 0.863569 0.700694
0.274891 0.860777 0.700267
0.271611 0.856596 0.692271
0.273747 0.848371 0.668132
0.563256 0.824384 0.675944
0.77789 0.824582 0.614939
0.862348 0.813779 0.636271
0.86482 0.814893 0.634989
0.863432 0.812451 0.631891
0.364736 0.930938 0.776211
0.356573 0.927916 0.772107
0.339422 0.922621 0.75967
0.329488 0.914473 0.727993
0.543206 0.888823 0.712627
0.749279 0.87921 0.678904
0.82945 0.860548 0.612604
0.856031 0.855421 0.617472
0.855283 0.854322 0.615335
0.384161 0.934829 0.790295
0.371771 0.931411 0.782666
0.349203 0.925811 0.767178
0.331777 0.915526 0.731365
0.530068 0.89308 0.711833
0.729931 0.877531 0.682872
0.827451 0.868879 0.633234
0.8477 0.853346 0.601572
0.857557 0.862409 0.63328
0.381521 0.933715 0.788891
0.368688 0.930831 0.780774
0.346654 0.925338 0.765759
0.329091 0.914794 0.729976
0.518212 0.893721 0.707835
0.722957 0.877562 0.686046
0.829129 0.873503 0.647379
0.847501 0.857466 0.613947
0.861189 0.866331 0.6477
0.0390021 0.0661936 0.391348
0.0390021 0.0673228 0.402899
0.0749371 0.067277 0.430564
0.26424 0.0501564 0.467582
0.457038 0.0647746 0.45774
0.583841 0.108934 0.486473
0.601801 0.119371 0.51014
0.608774 0.125444 0.526162
0.613718 0.130175 0.536858
0.0390021 0.0684977 0.392859
0.0390021 0.0710002 0.404349
0.0636759 0.0721447 0.433173
0.266468 0.0551308 0.478813
0.467842 0.0697032 0.467475
0.589654 0.112245 0.494942
0.604425 0.121813 0.516091
0.61149 0.128038 0.531975
0.619135 0.134371 0.544244
0.0390021 0.0699016 0.380819
0.0390021 0.0705577 0.388739
0.0390021 0.0778515 0.42208
0.248966 0.0641337 0.492515
0.481437 0.0773175 0.480858
0.59675 0.117128 0.504616
0.609125 0.124956 0.522057
0.619654 0.133623 0.537697
0.624338 0.138064 0.545205
0.0492256 0.290745 0.501564
0.0483101 0.286641 0.5019
0.0439918 0.260471 0.492988
0.18883 0.23772 0.586053
0.586267 0.196765 0.629694
0.695903 0.193286 0.593942
0.710185 0.203769 0.604242
0.724437 0.216068 0.619852
0.731121 0.222858 0.628
0.159777 0.67747 0.673961
0.16051 0.677806 0.676356
0.160723 0.677546 0.681041
0.204074 0.682643 0.7205
0.576074 0.644053 0.786435
0.821729 0.592096 0.752148
0.850599 0.576791 0.741695
0.851652 0.584253 0.745113
0.850355 0.585443 0.74464
0.27689 0.861936 0.74316
0.274693 0.859617 0.741009
0.273136 0.856931 0.738125
0.281361 0.85359 0.736584
0.613214 0.8542 0.791974
0.814176 0.842298 0.815885
0.883772 0.83714 0.803418
0.893019 0.834073 0.798901
0.891905 0.830518 0.795743
0.445289 0.945632 0.827131
0.435904 0.94287 0.823163
0.420569 0.938918 0.81532
0.409354 0.931029 0.801007
0.63093 0.921645 0.827405
0.789807 0.899901 0.834104
0.873137 0.905348 0.813718
0.900755 0.901839 0.820951
0.900526 0.901015 0.819974
0.470146 0.950668 0.838056
0.462089 0.948821 0.83444
0.448936 0.946578 0.827756
0.440543 0.94258 0.814862
0.623407 0.937697 0.833356
0.772396 0.915114 0.839689
0.862135 0.923125 0.835523
0.891493 0.915908 0.808591
0.897734 0.914504 0.807706
0.469474 0.950332 0.838224
0.461067 0.948714 0.834104
0.447791 0.946532 0.827466
0.437675 0.942397 0.813962
0.615167 0.938552 0.831571
0.769818 0.915084 0.839521
0.858564 0.923903 0.840116
0.891646 0.920333 0.823301
0.899825 0.917998 0.819898
0.0557717 0.109239 0.469657
0.0739605 0.111681 0.482933
0.129809 0.115206 0.512398
0.302693 0.119478 0.570733
0.528435 0.132403 0.578912
0.635782 0.150866 0.574243
0.649073 0.158862 0.585489
0.650034 0.159503 0.586892
0.650111 0.159548 0.586969
0.051194 0.11696 0.471702
0.0655528 0.119158 0.483558
0.123262 0.122667 0.515373
0.308904 0.126879 0.579629
0.543389 0.139116 0.586755
0.642206 0.155734 0.581872
0.652522 0.161318 0.589181
0.652506 0.161288 0.589166
0.652689 0.16144 0.589364
0.0390021 0.116136 0.453819
0.0421759 0.121492 0.466361
0.0811475 0.128649 0.499016
0.299763 0.138552 0.589899
0.560143 0.150637 0.60209
0.653544 0.163729 0.59321
0.658473 0.166033 0.595331
0.65951 0.166903 0.596185
0.660243 0.167437 0.596811
0.0439765 0.256321 0.507149
0.0437171 0.25481 0.507485
0.0399939 0.230564 0.496696
0.200595 0.228977 0.612436
0.565164 0.193164 0.660395
0.689754 0.194507 0.62887
0.716777 0.21181 0.648402
0.732296 0.225803 0.664698
0.73753 0.231205 0.669749
0.165621 0.684901 0.717189
0.165103 0.684016 0.717983
0.16405 0.680339 0.720119
0.212116 0.682567 0.760967
0.548867 0.636255 0.834272
0.823362 0.583062 0.817655
0.856474 0.573877 0.799542
0.856992 0.580697 0.800397
0.856687 0.580743 0.799878
0.313832 0.869459 0.795651
0.311574 0.866819 0.794949
0.307713 0.861463 0.794049
0.334005 0.855024 0.805951
0.625376 0.852949 0.855634
0.791348 0.832685 0.8654
0.88658 0.81976 0.858305
0.893523 0.81416 0.85481
0.893217 0.810147 0.85304
0.486976 0.94966 0.852293
0.472648 0.946822 0.847517
0.453452 0.942367 0.840635
0.434485 0.933715 0.829923
0.638163 0.925246 0.85658
0.809628 0.904479 0.869551
0.881651 0.90811 0.878996
0.908003 0.90869 0.875761
0.908919 0.907393 0.874434
0.539483 0.956741 0.867048
0.529381 0.95671 0.86421
0.514748 0.955428 0.858396
0.503822 0.953979 0.849882
0.664912 0.943206 0.866255
0.809644 0.926589 0.879606
0.875135 0.930419 0.889754
0.904448 0.93196 0.881071
0.911727 0.932448 0.886809
0.542336 0.956573 0.867643
0.531838 0.956725 0.864851
0.515724 0.955566 0.858946
0.502052 0.953719 0.848966
0.660227 0.943816 0.865354
0.809079 0.928695 0.880461
0.873121 0.933104 0.891829
0.90309 0.93579 0.887404
0.910109 0.934569 0.884092
0.104479 0.140352 0.51841
0.126299 0.14197 0.53051
0.17995 0.145129 0.556786
0.343404 0.147066 0.607431
0.559731 0.151995 0.60528
0.644923 0.156619 0.58352
0.652659 0.16141 0.589303
0.651621 0.160708 0.588571
0.651423 0.160586 0.588418
0.0852064 0.138827 0.507713
0.106554 0.140398 0.519448
0.165393 0.143725 0.549493
0.344778 0.147082 0.60763
0.568093 0.153079 0.604822
0.643778 0.155993 0.582757
0.654139 0.162524 0.59057
0.653651 0.162127 0.590234
0.653651 0.162127 0.590234
0.0462501 0.130694 0.476448
0.0584573 0.135424 0.488655
0.11162 0.140627 0.522484
0.326467 0.146975 0.60412
0.573861 0.154589 0.605722
0.648127 0.158846 0.586343
0.659693 0.167041 0.596307
0.660304 0.167468 0.596857
0.660777 0.167758 0.59733
0.0439765 0.254444 0.513222
0.0423896 0.243748 0.506477
0.0390021 0.19942 0.480964
0.187732 0.190799 0.586847
0.551537 0.177371 0.642603
0.696239 0.199557 0.638041
0.710643 0.207172 0.644587
0.718288 0.213291 0.651835
0.720943 0.215915 0.654521
0.174899 0.693767 0.738506
0.174151 0.691341 0.738445
0.172549 0.685817 0.737438
0.216922 0.677714 0.766552
0.548302 0.630457 0.840696
0.821317 0.578439 0.826062
0.856748 0.569238 0.807767
0.857282 0.575784 0.809155
0.856992 0.574975 0.808743
0.413001 0.883375 0.842512
0.409049 0.880018 0.841703
0.405066 0.874708 0.841215
0.404395 0.860349 0.841199
0.619593 0.851316 0.867979
0.780301 0.83035 0.88098
0.886778 0.817121 0.87895
0.895125 0.811307 0.874479
0.894713 0.807614 0.873671
0.530968 0.949416 0.868544
0.523415 0.947646 0.867628
0.510323 0.943374 0.86482
0.497108 0.93492 0.861509
0.677653 0.916869 0.879545
0.820691 0.906416 0.890303
0.879896 0.906218 0.899016
0.909819 0.903456 0.897948
0.910231 0.901961 0.896727
0.568399 0.956024 0.874479
0.56849 0.955962 0.874678
0.570047 0.956008 0.874907
0.563729 0.956603 0.872114
0.687892 0.943984 0.880552
0.81648 0.928923 0.890455
0.881895 0.929747 0.902022
0.906172 0.932082 0.902266
0.913451 0.932662 0.901961
0.568414 0.956008 0.87451
0.56849 0.955978 0.874662
0.569619 0.955993 0.874846
0.560586 0.95671 0.871305
0.689754 0.945083 0.880171
0.825055 0.93254 0.893416
0.884535 0.935805 0.905089
0.904555 0.938476 0.906416
0.912322 0.938216 0.903502
0.118547 0.141375 0.526177
0.139651 0.142336 0.537118
0.193637 0.145388 0.56286
0.357748 0.14667 0.609354
0.56849 0.153109 0.604746
0.645167 0.156207 0.582589
0.653681 0.162158 0.590265
0.652598 0.161349 0.589227
0.652399 0.161105 0.589075
0.0979477 0.140337 0.515175
0.118837 0.141436 0.526299
0.178576 0.145159 0.55642
0.359564 0.146685 0.609598
0.575723 0.153689 0.603967
0.643977 0.155642 0.582025
0.655207 0.163348 0.591592
0.654368 0.162692 0.590738
0.654261 0.162585 0.590646
0.0508278 0.132799 0.4813
0.0640726 0.13637 0.493462
0.121874 0.141772 0.528054
0.338781 0.147204 0.606806
0.580255 0.155566 0.605402
0.645197 0.156115 0.5823
0.660334 0.167483 0.596902
0.660761 0.167742 0.597314
0.661219 0.168002 0.597665
0.0423896 0.243488 0.506371
0.0400549 0.229984 0.498451
0.0390021 0.181445 0.471199
0.180545 0.172702 0.573159
0.559884 0.180163 0.64535
0.695171 0.19823 0.636332
0.70663 0.20383 0.64062
0.711223 0.207584 0.645167
0.712428 0.208606 0.646372
0.177935 0.695338 0.741466
0.175891 0.692058 0.740215
0.171893 0.684092 0.73695
0.214847 0.673899 0.764721
0.548928 0.626535 0.841093
0.821012 0.573861 0.824781
0.856077 0.564813 0.806638
0.856947 0.570474 0.808194
0.856352 0.56875 0.807309
0.423072 0.884474 0.846647
0.416876 0.880369 0.845045
0.407736 0.874128 0.842802
0.399481 0.857969 0.839902
0.616693 0.84802 0.866941
0.778698 0.826581 0.881376
0.885496 0.812039 0.877424
0.895415 0.806271 0.87364
0.895247 0.80029 0.872129
0.528176 0.948806 0.86804
0.519722 0.946715 0.866651
0.506889 0.942367 0.8645
0.50367 0.933074 0.863661
0.682139 0.914534 0.881086
0.816938 0.904051 0.891752
0.877638 0.905089 0.901213
0.909712 0.902068 0.902754
0.910521 0.900816 0.902449
0.565774 0.957488 0.867475
0.565942 0.957412 0.867842
0.566735 0.957397 0.867964
0.575799 0.957153 0.869444
0.697353 0.941466 0.879499
0.832517 0.927596 0.894865
0.892943 0.929717 0.906752
0.905715 0.932189 0.908705
0.914061 0.931594 0.907698
0.568414 0.956008 0.874495
0.56849 0.955978 0.874662
0.569833 0.956008 0.874876
0.580499 0.955978 0.876402
0.710918 0.942489 0.885603
0.834348 0.934264 0.899245
0.88687 0.936614 0.908812
0.906264 0.93901 0.910277
0.914748 0.938659 0.907866
