bundles/resolve-cinematic-luts/Phantom Luts/P4k & P6K Phntm Film LUTs - V6/P4K/Gen 5 Colour/Standard (No WB Offset)/P4k Bleach Gen5.cube
TITLE "Generated by Resolve"
LUT_3D_SIZE 9
0.0153353 0.0269474 0.0176242
0.0153353 0.0269474 0.0176242
0.046067 0.0320592 0.0206607
0.126085 0.0372168 0.0260929
0.31017 0.0490272 0.0357519
0.572869 0.0702068 0.0591287
0.752499 0.113832 0.103532
0.808377 0.138964 0.124651
0.811307 0.140978 0.127581
0.0159457 0.0295415 0.0187686
0.0170291 0.0308537 0.0186923
0.062501 0.0427863 0.0239872
0.197116 0.0482185 0.0328832
0.438087 0.0639811 0.0455634
0.666804 0.0966201 0.0794537
0.7991 0.142061 0.120302
0.811002 0.148775 0.126192
0.813184 0.151965 0.127932
0.0294652 0.0950027 0.0466773
0.0310826 0.10518 0.0411994
0.0806744 0.118456 0.0356451
0.309361 0.124544 0.0477455
0.549874 0.118456 0.0716869
0.719768 0.151339 0.111223
0.840391 0.203479 0.154879
0.850584 0.219318 0.165255
0.868681 0.24744 0.183871
0.0265202 0.256657 0.0932326
0.0282444 0.277501 0.086656
0.02916 0.278019 0.0412757
0.234577 0.332998 0.0391699
0.709072 0.479072 0.107378
0.895628 0.550027 0.225269
0.942138 0.593271 0.265888
0.94519 0.630365 0.269703
0.947021 0.663035 0.272038
0 0.484154 0.143679
0 0.506355 0.146746
0.00408942 0.511254 0.102419
0.110216 0.54406 0.0352636
0.608164 0.676707 0.0915541
0.86833 0.749813 0.211872
0.941619 0.792767 0.329091
0.941405 0.807736 0.341024
0.940063 0.822293 0.344442
0.0588083 0.738872 0.371344
0.063035 0.746197 0.370855
0.0716259 0.743099 0.324834
0.122881 0.730404 0.196963
0.650095 0.803174 0.218921
0.825467 0.860212 0.240085
0.918975 0.881346 0.377325
0.926589 0.891112 0.465797
0.925689 0.894133 0.482948
0.0811475 0.788815 0.462699
0.0810254 0.788067 0.444755
0.0946212 0.782254 0.384695
0.175906 0.772473 0.298802
0.664164 0.815869 0.32781
0.846067 0.880262 0.38172
0.9093 0.892058 0.47921
0.926253 0.900572 0.537087
0.926329 0.900633 0.537987
0.0810712 0.789059 0.475837
0.0810254 0.788174 0.447669
0.103151 0.779934 0.370031
0.241993 0.774975 0.27602
0.717556 0.836515 0.340871
0.864759 0.88365 0.394934
0.914031 0.89453 0.492332
0.926177 0.900511 0.536324
0.926253 0.900572 0.537026
0.0812085 0.789258 0.481468
0.0818189 0.787854 0.438712
0.119066 0.776379 0.349035
0.387549 0.784222 0.276173
0.76144 0.854383 0.349416
0.874846 0.884184 0.411872
0.91931 0.896986 0.506432
0.926177 0.900511 0.536278
0.926223 0.900557 0.536858
0.0152438 0.0269322 0.0180362
0.0153353 0.0269474 0.0176242
0.048249 0.0299382 0.0278325
0.142596 0.0367132 0.0358129
0.351461 0.0546426 0.0551003
0.609583 0.0822461 0.0819562
0.772045 0.122225 0.119066
0.81239 0.140398 0.133577
0.817227 0.149172 0.145724
0.0153658 0.0276646 0.018143
0.016495 0.0287175 0.0189975
0.0704356 0.0361028 0.0238499
0.218769 0.0433051 0.0316777
0.470314 0.0586709 0.0462043
0.685023 0.0937362 0.084596
0.80267 0.135866 0.121294
0.810575 0.140749 0.126741
0.812772 0.14255 0.128756
0.0291142 0.09308 0.0551156
0.0305333 0.104173 0.0513161
0.0810864 0.118853 0.0363012
0.320272 0.116579 0.0496681
0.555886 0.114534 0.0721904
0.727932 0.149096 0.111238
0.83505 0.195071 0.149142
0.843198 0.208515 0.157427
0.858488 0.230716 0.1729
0.0255894 0.2607 0.105348
0.0230411 0.279911 0.0991684
0.0260777 0.2851 0.0505074
0.23946 0.339498 0.038529
0.722927 0.487465 0.115114
0.90135 0.553582 0.229038
0.943023 0.595987 0.266423
0.945556 0.628336 0.270329
0.94699 0.659281 0.272145
0 0.491798 0.158785
0 0.513787 0.163043
0.00384527 0.517662 0.118044
0.102113 0.548562 0.0356298
0.615549 0.682597 0.0950637
0.873793 0.753231 0.217456
0.942779 0.795392 0.330953
0.941726 0.808209 0.341726
0.940002 0.821118 0.347066
0.058732 0.741283 0.385443
0.0626688 0.74844 0.384939
0.0701457 0.746044 0.339971
0.120577 0.733089 0.208911
0.64799 0.803204 0.219669
0.826932 0.861326 0.242023
0.919768 0.881621 0.382193
0.926711 0.890715 0.465827
0.925902 0.89366 0.482475
0.0812085 0.789258 0.481407
0.0811475 0.788861 0.464698
0.0894484 0.784222 0.399329
0.166049 0.772305 0.30312
0.654307 0.813046 0.323568
0.844724 0.88014 0.382132
0.908186 0.891173 0.47808
0.926436 0.900725 0.539544
0.926467 0.900771 0.540627
0.0822156 0.790112 0.504677
0.0810864 0.789105 0.477012
0.0932631 0.783108 0.391531
0.211688 0.773571 0.281514
0.706645 0.832105 0.34081
0.860533 0.882551 0.395651
0.911086 0.893202 0.48777
0.926436 0.900725 0.539467
0.926467 0.900755 0.54049
0.0837568 0.790311 0.521431
0.0812695 0.789319 0.482811
0.101442 0.78114 0.376852
0.313588 0.780789 0.272511
0.744991 0.847623 0.351354
0.86949 0.883116 0.40856
0.916213 0.895582 0.500542
0.926467 0.900755 0.540276
0.926482 0.900786 0.540917
0.0146639 0.0291447 0.0365148
0.0201877 0.0291142 0.0345617
0.0462196 0.0311437 0.041886
0.137713 0.0356756 0.0623941
0.355367 0.0445106 0.0818189
0.631968 0.0797436 0.110109
0.806455 0.147326 0.169451
0.831128 0.163561 0.193011
0.836164 0.150408 0.214115
0.0159762 0.0327306 0.037583
0.0139162 0.0292973 0.0478218
0.0695964 0.0323796 0.058854
0.249989 0.0396124 0.0808728
0.514672 0.0565347 0.0904402
0.735241 0.115312 0.142138
0.826886 0.162402 0.17998
0.833448 0.164248 0.198093
0.837003 0.155749 0.212909
0.0272221 0.0908217 0.0722972
0.0278782 0.100069 0.0808728
0.0928969 0.10808 0.094255
0.314229 0.11223 0.0943313
0.572015 0.0951247 0.0788739
0.739956 0.1187 0.105699
0.81593 0.149233 0.131106
0.82121 0.155276 0.136416
0.826535 0.163745 0.143343
0.0238651 0.256474 0.144259
0.020798 0.275563 0.145892
0.0247959 0.281987 0.102708
0.255299 0.343374 0.0601205
0.744244 0.468544 0.170092
0.912627 0.50985 0.254566
0.941039 0.556878 0.278584
0.942596 0.584741 0.286519
0.945907 0.618753 0.299458
0 0.489723 0.199176
0 0.511986 0.207431
0 0.513603 0.166415
0.0482643 0.528283 0.0456703
0.611872 0.677653 0.0968338
0.887114 0.751934 0.236469
0.945754 0.790372 0.34931
0.943755 0.800519 0.363272
0.940108 0.809934 0.382956
0.056199 0.737346 0.423606
0.0597848 0.745129 0.425711
0.0615702 0.744427 0.3832
0.0995804 0.732357 0.260533
0.611627 0.790219 0.212024
0.820798 0.856962 0.233616
0.92105 0.878645 0.377905
0.92784 0.887434 0.465537
0.927291 0.890517 0.480598
0.0853895 0.79057 0.532952
0.0838178 0.790295 0.521431
0.082002 0.788876 0.465812
0.130953 0.775494 0.340551
0.593881 0.798611 0.311574
0.828428 0.875593 0.38497
0.899321 0.888106 0.466819
0.92665 0.900999 0.545754
0.926818 0.901167 0.54873
0.0906386 0.791333 0.566995
0.0874342 0.790692 0.547356
0.0830854 0.789197 0.478035
0.146532 0.774151 0.328679
0.659358 0.814374 0.341573
0.84535 0.879744 0.397574
0.899519 0.888441 0.470787
0.925963 0.900542 0.540459
0.926955 0.901335 0.550668
0.0962844 0.792462 0.595483
0.0909133 0.791348 0.568566
0.0850538 0.789364 0.483436
0.16817 0.773083 0.312673
0.692897 0.82649 0.353613
0.860227 0.88365 0.404761
0.902754 0.889555 0.478279
0.925704 0.90042 0.539681
0.927199 0.901549 0.553124
0.012604 0.0310063 0.0846876
0.0240635 0.0316777 0.0843977
0.0607004 0.0325933 0.0957046
0.152453 0.0353552 0.117357
0.390463 0.0447242 0.165713
0.650004 0.052903 0.219135
0.807614 0.0846113 0.256565
0.839963 0.0839551 0.313481
0.839841 0.0745861 0.381552
0.0121462 0.0340581 0.111177
0.0143282 0.0328832 0.133776
0.0737926 0.0350347 0.167285
0.251957 0.0402686 0.190723
0.535149 0.0480812 0.232654
0.742168 0.0628824 0.297795
0.838834 0.0811933 0.319997
0.838529 0.0742504 0.368521
0.840574 0.074052 0.431067
0.018677 0.086183 0.164355
0.017258 0.0872511 0.193332
0.0540475 0.0728008 0.225391
0.312886 0.0677043 0.242817
0.588861 0.0547494 0.244541
0.763439 0.0684062 0.268269
0.842618 0.095201 0.297536
0.840238 0.0814984 0.328603
0.840482 0.0762188 0.368154
0.0201419 0.251209 0.218524
0.0171359 0.269993 0.235721
0.0182498 0.273289 0.239109
0.353689 0.353979 0.338109
0.711833 0.403281 0.361318
0.910887 0.450797 0.390677
0.943557 0.471977 0.401801
0.940795 0.506722 0.436027
0.939452 0.548837 0.487846
0 0.485756 0.294484
0 0.507179 0.310948
0 0.508949 0.290593
0.0570077 0.535378 0.232532
0.642695 0.680491 0.297887
0.899947 0.731029 0.468772
0.945159 0.763836 0.514672
0.944564 0.774563 0.537377
0.943862 0.790158 0.563348
0.0595865 0.727993 0.52018
0.0627756 0.735866 0.527855
0.0603342 0.735363 0.497902
0.06804 0.735561 0.381933
0.503548 0.762783 0.321523
0.819608 0.848569 0.336889
0.928481 0.87306 0.457511
0.936126 0.87982 0.537087
0.936416 0.883787 0.553918
0.100557 0.793545 0.615763
0.0995956 0.793149 0.610849
0.0937362 0.791775 0.580957
0.0949111 0.788739 0.474052
0.412009 0.788251 0.369757
0.800961 0.866499 0.45124
0.892699 0.886625 0.496269
0.931304 0.904982 0.599695
0.933715 0.907103 0.615595
0.112886 0.796078 0.652262
0.108263 0.795361 0.641596
0.100008 0.79295 0.606592
0.113054 0.788525 0.49485
0.5187 0.796704 0.443122
0.816022 0.872221 0.502831
0.893904 0.888884 0.515557
0.927428 0.903426 0.593301
0.934981 0.908537 0.62797
0.136049 0.798657 0.679133
0.119936 0.797284 0.66508
0.106401 0.793927 0.624643
0.159426 0.787671 0.520195
0.605035 0.815808 0.530465
0.846418 0.883772 0.561074
0.898207 0.890425 0.543008
0.928145 0.904173 0.60354
0.936568 0.909743 0.640558
0.0163577 0.035111 0.190066
0.0301823 0.035874 0.197757
0.0650339 0.0371557 0.225696
0.181506 0.0399481 0.268833
0.411734 0.0465553 0.303059
0.654521 0.0768597 0.396246
0.818067 0.0883803 0.501213
0.847684 0.120638 0.56434
0.848692 0.1364 0.612665
0.0110323 0.0371557 0.25182
0.024445 0.0387427 0.285847
0.0749371 0.0407721 0.326848
0.278447 0.0468452 0.390768
0.554681 0.0524453 0.42269
0.745098 0.103365 0.521752
0.849577 0.130541 0.584192
0.850996 0.144305 0.617334
0.835981 0.113985 0.631907
0.0103304 0.0449378 0.293797
0.00943008 0.0425879 0.317311
0.0381323 0.04094 0.348943
0.282582 0.0479744 0.445365
0.590845 0.05832 0.468421
0.772107 0.108888 0.545876
0.854459 0.146349 0.593835
0.847471 0.131838 0.61416
0.842268 0.125002 0.632685
0.0155947 0.237736 0.431617
0.0140841 0.254536 0.467155
0.0144503 0.248066 0.494942
0.257115 0.268177 0.593896
0.729503 0.297841 0.643107
0.912947 0.346883 0.669749
0.947417 0.355749 0.679728
0.952377 0.399527 0.709224
0.956771 0.44329 0.73817
0 0.48777 0.425544
0 0.509819 0.450874
0.000442512 0.512047 0.453971
0.103746 0.554681 0.505165
0.695857 0.679088 0.65922
0.889662 0.709392 0.677836
0.950164 0.731731 0.690852
0.952132 0.745525 0.705562
0.953384 0.762066 0.723156
0.0668193 0.722072 0.61088
0.0711833 0.73019 0.620249
0.0705119 0.728008 0.611521
0.0868391 0.724544 0.580758
0.578317 0.78674 0.638666
0.853437 0.857053 0.662303
0.94789 0.874144 0.717632
0.955337 0.884062 0.728969
0.955886 0.889769 0.740932
0.149737 0.797223 0.690867
0.148745 0.797696 0.68986
0.130892 0.795529 0.67686
0.134127 0.790204 0.637736
0.526589 0.815503 0.646403
0.823087 0.891173 0.71075
0.920455 0.911818 0.697871
0.946441 0.915724 0.713069
0.949828 0.918898 0.732723
0.216541 0.800809 0.714931
0.205371 0.800671 0.711025
0.179553 0.799786 0.697108
0.193133 0.794675 0.66067
0.601907 0.840894 0.69485
0.828214 0.901534 0.747906
0.926558 0.921019 0.740429
0.941665 0.919936 0.722301
0.949966 0.922988 0.736736
0.258152 0.801465 0.72871
0.240833 0.801175 0.723049
0.2168 0.799817 0.707774
0.291432 0.796994 0.67953
0.668986 0.86479 0.737163
0.860334 0.912139 0.7794
0.933349 0.925963 0.767422
0.943999 0.92401 0.748608
0.95169 0.925597 0.75462
0.0279088 0.0402686 0.322896
0.0433356 0.0407721 0.340948
0.0730602 0.0419928 0.379095
0.192294 0.0454414 0.46566
0.47454 0.0520027 0.515084
0.678508 0.0671092 0.563592
0.807248 0.082063 0.6309
0.822324 0.0819867 0.666514
0.836316 0.0949416 0.701183
0.0252995 0.0421912 0.413458
0.0435645 0.0441901 0.465324
0.0901808 0.0474708 0.512566
0.283864 0.0536355 0.583749
0.594202 0.063386 0.607446
0.763577 0.0853742 0.644694
0.826429 0.0859846 0.678904
0.841993 0.102983 0.707698
0.856703 0.120516 0.734707
0.00880446 0.0445563 0.45713
0.011902 0.0444495 0.484474
0.0594034 0.0504158 0.53637
0.274907 0.0581521 0.615045
0.619242 0.0675669 0.635493
0.790173 0.0968185 0.670008
0.833097 0.0927138 0.690486
0.844022 0.104097 0.712108
0.856474 0.118624 0.733471
0.0149081 0.195315 0.599084
0.0154726 0.216953 0.625116
0.0155032 0.199466 0.635523
0.199374 0.188235 0.695155
0.695415 0.200687 0.752117
0.889433 0.235065 0.768856
0.906981 0.203647 0.76524
0.941543 0.285328 0.815412
0.96495 0.373571 0.857114
0.00965896 0.513359 0.615534
0.0132143 0.535424 0.633768
0.0141909 0.53666 0.645563
0.104417 0.565133 0.696925
0.662593 0.658366 0.802625
0.91487 0.681743 0.828305
0.961669 0.688502 0.837171
0.961913 0.704616 0.845457
0.961715 0.724361 0.850965
0.0721904 0.72459 0.67422
0.0766003 0.732601 0.682307
0.0780957 0.731167 0.681315
0.102037 0.729732 0.68043
0.629938 0.801938 0.76228
0.879606 0.855222 0.824216
0.94699 0.869993 0.830976
0.960479 0.880308 0.837049
0.960861 0.887419 0.844388
0.219944 0.796414 0.725841
0.220584 0.796567 0.725856
0.206592 0.793759 0.720195
0.226108 0.787808 0.708095
0.633661 0.846799 0.769696
0.864927 0.911711 0.841459
0.941238 0.924117 0.83476
0.960693 0.926894 0.853483
0.962554 0.928191 0.856001
0.30869 0.805753 0.743954
0.300572 0.805066 0.741833
0.289342 0.803128 0.735729
0.313954 0.803769 0.727535
0.687785 0.877134 0.800458
0.872999 0.926619 0.856321
0.938888 0.937087 0.856092
0.956313 0.938445 0.849699
0.961715 0.93875 0.85539
0.347799 0.810925 0.755596
0.329992 0.808316 0.750591
0.31548 0.805936 0.743008
0.412284 0.815579 0.746807
0.742077 0.895491 0.826871
0.893217 0.93167 0.86833
0.938903 0.938994 0.867048
0.958022 0.940749 0.862318
0.960891 0.93991 0.858061
0.045594 0.045304 0.482475
0.0623941 0.0474861 0.513512
0.0931106 0.0518196 0.550927
0.21117 0.0596323 0.613504
0.507729 0.0628519 0.652323
0.721401 0.086183 0.686229
0.849668 0.118257 0.734173
0.867887 0.130098 0.768246
0.890913 0.16083 0.804578
0.0537118 0.0581979 0.580697
0.075761 0.0673381 0.615076
0.127321 0.0748302 0.647135
0.312703 0.0860456 0.701442
0.628656 0.090013 0.722271
0.805524 0.1149 0.746624
0.87425 0.139055 0.776471
0.892119 0.162753 0.806119
0.899413 0.174716 0.817243
0.030808 0.0673686 0.605386
0.0467384 0.0755474 0.629786
0.0982528 0.0836042 0.659403
0.311955 0.0979171 0.724025
0.655589 0.102464 0.745907
0.832166 0.132265 0.767941
0.88423 0.151858 0.791348
0.89572 0.169146 0.809323
0.904341 0.18439 0.822553
0.0155032 0.161456 0.661189
0.0158999 0.172381 0.672084
0.0155642 0.153567 0.66923
0.195895 0.158877 0.741939
0.67042 0.178866 0.807401
0.878004 0.199969 0.816434
0.923079 0.22707 0.829511
0.952132 0.298924 0.869093
0.967727 0.363058 0.893568
0.021149 0.5402 0.708492
0.0254673 0.561059 0.719219
0.0252689 0.55848 0.725841
0.0990005 0.575296 0.767452
0.644541 0.648402 0.859953
0.930007 0.685496 0.894102
0.961883 0.694972 0.896452
0.961959 0.71191 0.897963
0.961776 0.730632 0.900557
0.116152 0.726299 0.741909
0.121843 0.733471 0.745693
0.125368 0.730358 0.748669
0.192157 0.726299 0.763272
0.662852 0.805844 0.835416
0.873152 0.84863 0.872633
0.949981 0.853925 0.87422
0.961913 0.861234 0.876768
0.960983 0.871015 0.87776
0.250141 0.796185 0.748074
0.251225 0.796353 0.748302
0.239994 0.793866 0.745861
0.255528 0.789532 0.741451
0.647196 0.850767 0.805234
0.887129 0.915541 0.876356
0.943496 0.921035 0.881651
0.959152 0.925078 0.883421
0.962631 0.92726 0.885252
0.403204 0.817121 0.768566
0.389364 0.815778 0.765942
0.370687 0.813535 0.760296
0.397742 0.815549 0.758373
0.732158 0.89189 0.836896
0.902296 0.931533 0.884794
0.942 0.937194 0.887694
0.958923 0.93901 0.885786
0.962631 0.939666 0.890318
0.476295 0.823255 0.779828
0.442634 0.820081 0.77467
0.400031 0.816831 0.766186
0.499077 0.826123 0.771069
0.785168 0.910002 0.85713
0.914977 0.937346 0.891127
0.943694 0.942077 0.892866
0.958343 0.943297 0.890532
0.962615 0.943267 0.889616
0.0737011 0.0653544 0.608591
0.0960861 0.0737469 0.63769
0.133364 0.0826734 0.66511
0.260746 0.0968032 0.714336
0.557641 0.100206 0.748653
0.780529 0.135393 0.783719
0.88893 0.162661 0.806409
0.900069 0.175875 0.818631
0.900145 0.176013 0.818723
0.0957046 0.0959793 0.680522
0.123507 0.107774 0.703395
0.180713 0.116686 0.727596
0.369177 0.130571 0.772427
0.673869 0.140871 0.79881
0.860716 0.17319 0.819043
0.902266 0.179629 0.821454
0.902068 0.179141 0.821164
0.902312 0.179736 0.821515
0.0760967 0.110124 0.692973
0.0921187 0.117098 0.705379
0.151797 0.126589 0.730556
0.369772 0.144717 0.785641
0.696635 0.154253 0.81117
0.871244 0.175433 0.820066
0.905821 0.186099 0.825193
0.906874 0.188067 0.826322
0.908156 0.1906 0.827558
0.0155489 0.157351 0.685191
0.0168002 0.17908 0.699733
0.016907 0.161654 0.695018
0.230808 0.174365 0.773129
0.674815 0.191257 0.830198
0.889372 0.222782 0.845655
0.941527 0.264729 0.864424
0.956268 0.308858 0.88217
0.967498 0.368551 0.898955
0.0273136 0.555245 0.747631
0.0315404 0.575418 0.754986
0.0320134 0.573526 0.760708
0.138613 0.592309 0.796963
0.649287 0.653086 0.8757
0.9308 0.69427 0.911208
0.961837 0.703746 0.912093
0.961898 0.72015 0.912596
0.961761 0.737026 0.91281
0.194064 0.736416 0.776928
0.208347 0.741085 0.779034
0.208148 0.739193 0.780911
0.26305 0.736873 0.789166
0.656657 0.803586 0.848722
0.869917 0.850446 0.891478
0.951965 0.855894 0.898329
0.962158 0.862226 0.896696
0.962203 0.870481 0.895705
0.309804 0.797879 0.765789
0.309133 0.797726 0.76585
0.286275 0.793484 0.763912
0.320439 0.792462 0.768582
0.695552 0.864607 0.841443
0.903761 0.918746 0.893355
0.942016 0.919936 0.894667
0.95996 0.921401 0.895796
0.962448 0.92311 0.896086
0.490639 0.824781 0.782162
0.485283 0.82414 0.78114
0.468437 0.822431 0.777935
0.474113 0.822019 0.776089
0.744045 0.895644 0.84921
0.905684 0.932418 0.892164
0.945464 0.936767 0.895415
0.958709 0.937758 0.897032
0.962661 0.938918 0.898039
0.499306 0.826078 0.783917
0.499855 0.826139 0.784009
0.499199 0.826185 0.783169
0.565225 0.840055 0.793179
0.806119 0.916335 0.868666
0.922225 0.938933 0.897581
0.948745 0.941985 0.898543
0.958633 0.942687 0.899336
0.962631 0.943252 0.898848
0.117372 0.102968 0.695384
0.148074 0.115587 0.719097
0.190188 0.124498 0.737423
0.323796 0.140581 0.776379
0.608911 0.146166 0.804273
0.824399 0.173236 0.82063
0.897276 0.171664 0.816648
0.901381 0.177783 0.820157
0.901091 0.177401 0.81976
0.144869 0.132174 0.734142
0.165682 0.13431 0.741192
0.223606 0.139574 0.758221
0.420279 0.145174 0.790997
0.701198 0.155245 0.811963
0.869993 0.173144 0.818738
0.901534 0.178027 0.820371
0.902586 0.180438 0.821912
0.90277 0.180819 0.822187
0.101152 0.126665 0.717205
0.113024 0.128634 0.722164
0.175357 0.135424 0.744457
0.402487 0.145617 0.789776
0.715694 0.156359 0.81294
0.877531 0.17319 0.818402
0.905837 0.18613 0.825208
0.907683 0.189517 0.827085
0.908446 0.191577 0.828016
0.016907 0.177874 0.704143
0.017731 0.195377 0.713573
0.0175631 0.163119 0.698009
0.244175 0.17293 0.776562
0.677165 0.177249 0.823423
0.90634 0.246418 0.856764
0.944625 0.273671 0.868238
0.955718 0.305852 0.881514
0.967056 0.378058 0.900572
0.0326848 0.57496 0.767071
0.036347 0.592416 0.771237
0.0354009 0.58558 0.770092
0.150851 0.596384 0.798611
0.659358 0.656901 0.877958
0.934386 0.697169 0.911528
0.961791 0.70692 0.912413
0.961852 0.722728 0.912749
0.96173 0.739284 0.912749
0.251789 0.745159 0.787839
0.261585 0.748012 0.788342
0.257816 0.74493 0.789975
0.289311 0.74078 0.794812
0.667414 0.807279 0.853513
0.87245 0.853101 0.895277
0.951843 0.859617 0.902602
0.962142 0.86537 0.90222
0.962341 0.872312 0.901076
0.374136 0.804593 0.778225
0.373159 0.804135 0.778271
0.361563 0.800397 0.778927
0.408072 0.80145 0.786465
0.744518 0.880415 0.86334
0.903563 0.918578 0.897398
0.941802 0.920531 0.899779
0.959396 0.921263 0.900649
0.962463 0.922637 0.900755
0.499306 0.826078 0.783917
0.499306 0.826078 0.783917
0.501854 0.826169 0.784665
0.539315 0.831449 0.792676
0.775586 0.904067 0.865248
0.916442 0.933471 0.899016
0.948745 0.937194 0.900832
0.958312 0.937438 0.901076
0.962676 0.938018 0.901534
0.499306 0.826078 0.783917
0.500099 0.826169 0.78407
0.512993 0.828061 0.786252
0.610956 0.853162 0.809781
0.826703 0.921752 0.877775
0.923659 0.939223 0.900008
0.949187 0.941985 0.90045
0.959564 0.942412 0.901534
0.962585 0.942687 0.901869
