bundles/resolve-cinematic-luts/Phantom Luts/P4k & P6K Phntm Film LUTs - V6/P4K/Gen 5 Colour/Standard (No WB Offset)/P4k Eastman Gen5.cube
TITLE "Generated by Resolve"
LUT_3D_SIZE 33
0.0390021 0.0390021 0.0390021
0.0390021 0.0390021 0.0390021
0.0390021 0.0390021 0.0390021
0.0390021 0.0390021 0.0390021
0.0426795 0.0390021 0.0390021
0.0528878 0.0390021 0.0390021
0.0681926 0.0390021 0.0390021
0.08748 0.0390021 0.0390021
0.110887 0.0390021 0.0390021
0.140429 0.0390021 0.0390021
0.180972 0.0390478 0.0390021
0.226871 0.0446021 0.0390021
0.272725 0.0517128 0.0390021
0.316182 0.0570687 0.0390021
0.359182 0.0635843 0.040528
0.400183 0.0740368 0.0427863
0.441123 0.0878004 0.0449836
0.480064 0.10222 0.0468757
0.518013 0.116609 0.053254
0.553552 0.132174 0.0657054
0.585534 0.145449 0.0798352
0.611063 0.156359 0.0938277
0.624399 0.162631 0.101991
0.627222 0.164034 0.104005
0.62855 0.164462 0.105165
0.629679 0.164889 0.106355
0.630564 0.165103 0.107118
0.631144 0.165377 0.107927
0.631373 0.165682 0.108675
0.629236 0.166659 0.109148
0.625223 0.168124 0.109331
0.621256 0.169574 0.109361
0.62063 0.169894 0.109545
0.0390021 0.0390021 0.0390021
0.0390021 0.0390021 0.0390021
0.0390021 0.0390021 0.0390021
0.0390021 0.0390021 0.0390021
0.0391546 0.0390021 0.0390021
0.047364 0.0390021 0.0390021
0.0612345 0.0390021 0.0390021
0.0804761 0.0390021 0.0390021
0.104005 0.0390021 0.0390021
0.132876 0.0390021 0.0390021
0.172564 0.0408179 0.0390021
0.218952 0.0455329 0.0390021
0.265705 0.0525216 0.0390021
0.310277 0.0587472 0.0390021
0.35433 0.0662089 0.0401312
0.396902 0.0764172 0.0424964
0.439078 0.0905928 0.0446174
0.479347 0.104982 0.0469673
0.51725 0.119249 0.0539101
0.554116 0.134905 0.0669871
0.587472 0.148791 0.0821393
0.612619 0.159686 0.0959029
0.626963 0.166369 0.104402
0.628428 0.167025 0.105562
0.629007 0.16701 0.106065
0.629633 0.167071 0.106661
0.630442 0.167315 0.107546
0.631067 0.16762 0.108309
0.631144 0.167926 0.108843
0.628916 0.168902 0.109041
0.624933 0.170352 0.109041
0.621042 0.171664 0.109102
0.620676 0.171878 0.109361
0.0390021 0.0390021 0.0390021
0.0390021 0.0390021 0.0390021
0.0390021 0.0390021 0.0390021
0.0390021 0.0390021 0.0390021
0.0390021 0.0390021 0.0390021
0.0442054 0.0390021 0.0390021
0.0566567 0.0390021 0.0390021
0.0747387 0.0390021 0.0390021
0.0991379 0.0390021 0.0390021
0.129259 0.0390021 0.0390021
0.16994 0.0419013 0.0390021
0.216266 0.047013 0.0390021
0.263706 0.0542458 0.0390021
0.30927 0.0604715 0.0390021
0.352438 0.0684977 0.0402686
0.396048 0.0805676 0.0425116
0.438788 0.094377 0.0444343
0.479362 0.108171 0.0472725
0.518395 0.123278 0.0552529
0.556725 0.138994 0.0695048
0.590173 0.152987 0.0852369
0.614374 0.163653 0.0983139
0.62826 0.169924 0.106432
0.628626 0.16994 0.106813
0.629084 0.169848 0.107225
0.629465 0.169802 0.107622
0.629877 0.169802 0.108049
0.630137 0.169894 0.1084
0.630213 0.170138 0.108721
0.628168 0.170993 0.108873
0.624933 0.172183 0.109453
0.621363 0.17351 0.109636
0.621088 0.173739 0.109773
0.0390021 0.0390021 0.0390021
0.0390021 0.0390021 0.0390021
0.0390021 0.0390021 0.0390021
0.0390021 0.0390021 0.0390021
0.0396582 0.0390021 0.0390021
0.0472877 0.0390021 0.0390021
0.0601205 0.0390021 0.0390021
0.0783093 0.0390021 0.0390021
0.100084 0.0390021 0.0390021
0.128878 0.0390021 0.0390784
0.168414 0.0439765 0.0390021
0.215961 0.0485237 0.0390021
0.263188 0.0559701 0.0390021
0.30959 0.0625162 0.0390021
0.352972 0.0710918 0.0404059
0.396475 0.0840009 0.0423133
0.439414 0.0988785 0.0445411
0.480415 0.112169 0.0484779
0.520211 0.127672 0.0578927
0.559075 0.142977 0.0719463
0.593072 0.157168 0.0879835
0.615534 0.166979 0.100603
0.628595 0.173098 0.108431
0.629282 0.173236 0.109041
0.629969 0.173373 0.109468
0.630564 0.173541 0.109895
0.631159 0.173617 0.110246
0.631403 0.173754 0.110475
0.631373 0.173953 0.110735
0.629419 0.174731 0.110918
0.626017 0.175921 0.111086
0.618753 0.178424 0.111009
0.611673 0.180865 0.111452
0.0390021 0.0390021 0.0390021
0.0390021 0.0390021 0.0390021
0.0390021 0.0390021 0.0390021
0.0390021 0.0390021 0.0390021
0.0421759 0.0390021 0.0390021
0.0494698 0.0390021 0.0390021
0.0660105 0.0406195 0.0394446
0.0888075 0.0445563 0.0425574
0.109712 0.0454414 0.0432441
0.137255 0.0465705 0.0426642
0.172625 0.0487526 0.0392157
0.217823 0.0521553 0.0390021
0.264698 0.0580453 0.0390021
0.310307 0.0655222 0.0390021
0.355184 0.0749065 0.0405585
0.398184 0.0881361 0.0425574
0.440024 0.101793 0.0446326
0.481651 0.116121 0.0499428
0.52221 0.132586 0.060502
0.561715 0.148669 0.0754101
0.595834 0.162799 0.0917067
0.618418 0.172839 0.104646
0.62974 0.178683 0.110903
0.630381 0.178882 0.111467
0.630655 0.178866 0.111666
0.631067 0.178912 0.112062
0.631434 0.178912 0.112383
0.631678 0.178988 0.112749
0.631754 0.17911 0.113115
0.630381 0.179644 0.113542
0.627344 0.180743 0.113619
0.620645 0.183001 0.113527
0.613413 0.185565 0.113542
0.0439155 0.048249 0.0449836
0.0432746 0.0481117 0.0440681
0.0425269 0.0467384 0.0426032
0.0426184 0.0458839 0.0412299
0.0460059 0.0479744 0.0420233
0.0524453 0.0514687 0.0428321
0.0647593 0.0513924 0.0426337
0.0933242 0.059617 0.0470436
0.120378 0.0622873 0.0493782
0.149996 0.0594186 0.0469673
0.187579 0.0578927 0.0412604
0.228534 0.0603952 0.0390021
0.269215 0.0634775 0.0390021
0.31429 0.0703136 0.0393225
0.358206 0.0808576 0.0408942
0.399512 0.0918441 0.0424353
0.441733 0.105715 0.0454719
0.482933 0.121172 0.0520333
0.524071 0.138689 0.0640116
0.563546 0.154803 0.0793317
0.599527 0.170367 0.0974441
0.621393 0.181064 0.11014
0.63154 0.186618 0.115801
0.632013 0.186831 0.116381
0.632715 0.187381 0.117189
0.63328 0.187594 0.117601
0.633829 0.187778 0.117845
0.634256 0.187976 0.117998
0.634455 0.188159 0.118166
0.633494 0.188678 0.118349
0.631601 0.189517 0.118486
0.625681 0.19173 0.118608
0.619333 0.194293 0.119097
0.0496223 0.0668345 0.0539101
0.0489357 0.0670939 0.0526894
0.0511788 0.0652476 0.0499886
0.0508888 0.0639506 0.0478828
0.0525978 0.0644388 0.046891
0.0601968 0.0680095 0.0483864
0.0709544 0.0717784 0.0487678
0.0899062 0.0691844 0.0474708
0.125765 0.0769207 0.0506142
0.166873 0.0749523 0.0517586
0.211749 0.0713207 0.0464485
0.256245 0.0724193 0.0418555
0.294255 0.0754864 0.0404212
0.329473 0.0796674 0.0403601
0.370077 0.0885176 0.0417792
0.409491 0.0989853 0.0434272
0.449958 0.11133 0.0471962
0.49131 0.125643 0.0558328
0.533898 0.14287 0.0687419
0.573922 0.159518 0.0852979
0.609995 0.175814 0.103593
0.633005 0.18822 0.117082
0.641245 0.193652 0.121736
0.641901 0.194659 0.122927
0.642359 0.195514 0.123674
0.643061 0.196338 0.124315
0.643656 0.196811 0.124804
0.644358 0.197436 0.125231
0.645151 0.198001 0.12549
0.64506 0.198657 0.125734
0.644068 0.199435 0.125826
0.640131 0.201129 0.122499
0.636011 0.203006 0.123262
0.0556497 0.0854658 0.061387
0.0552529 0.0857252 0.0597543
0.0552987 0.0855116 0.0578317
0.0555276 0.0854047 0.0556954
0.0561074 0.0849317 0.0531624
0.0590524 0.0858625 0.0516365
0.0730297 0.0901503 0.0535744
0.0881971 0.0929122 0.0522164
0.113466 0.0885634 0.0509346
0.166918 0.0962997 0.0549477
0.226932 0.0920577 0.054612
0.280842 0.0903639 0.0502937
0.323888 0.0951705 0.0476539
0.3608 0.0998245 0.0464942
0.394751 0.105669 0.0472877
0.429725 0.114031 0.0501564
0.467338 0.125383 0.055375
0.50901 0.139864 0.0643778
0.549233 0.15494 0.0766003
0.585702 0.170123 0.0949264
0.618372 0.184787 0.111269
0.646479 0.19968 0.123232
0.651896 0.20293 0.12604
0.651911 0.203571 0.126528
0.652064 0.204074 0.126833
0.652247 0.20441 0.126986
0.652949 0.205005 0.127214
0.653834 0.205783 0.127672
0.654643 0.206516 0.128115
0.654994 0.20737 0.128542
0.654719 0.208225 0.128985
0.652354 0.209705 0.12961
0.648524 0.211597 0.130037
0.060029 0.10869 0.071107
0.0594797 0.109178 0.0687419
0.0596475 0.109743 0.066331
0.0598764 0.109331 0.0635386
0.0599527 0.108888 0.0605631
0.060914 0.108507 0.0577249
0.0663767 0.111177 0.0563058
0.0902113 0.12047 0.06009
0.110109 0.122911 0.0589303
0.148104 0.116945 0.0579232
0.225483 0.125948 0.0613107
0.298833 0.122011 0.062501
0.357092 0.123491 0.0612039
0.400717 0.130541 0.0628519
0.440345 0.138567 0.0655985
0.476432 0.146838 0.0699321
0.512581 0.15642 0.0761273
0.549615 0.168521 0.0856641
0.586404 0.18172 0.0979324
0.621729 0.196323 0.112566
0.653849 0.210895 0.126513
0.679759 0.223865 0.137728
0.681041 0.224979 0.138537
0.680949 0.22562 0.138735
0.680568 0.225849 0.138705
0.68191 0.227161 0.139361
0.683162 0.228458 0.13991
0.685267 0.230182 0.140673
0.687007 0.231388 0.141131
0.68751 0.23209 0.141482
0.687816 0.233433 0.141787
0.685527 0.235431 0.142199
0.682292 0.237507 0.142382
0.0630198 0.142947 0.0823224
0.0622721 0.143496 0.079881
0.0623178 0.144671 0.0768444
0.0626383 0.14551 0.0741436
0.0628214 0.145449 0.0711833
0.062501 0.144198 0.0663462
0.0645151 0.14406 0.0623026
0.0761273 0.151278 0.0622721
0.111543 0.166827 0.0681163
0.138781 0.169421 0.066331
0.19971 0.161044 0.0646677
0.295995 0.180362 0.0718395
0.384329 0.181506 0.0829328
0.449683 0.183902 0.0851606
0.493355 0.189487 0.0899062
0.538293 0.199893 0.0981613
0.575906 0.208148 0.105165
0.611994 0.217288 0.113207
0.646647 0.227817 0.122713
0.675334 0.238804 0.132952
0.700038 0.250462 0.142046
0.721752 0.26157 0.150072
0.725567 0.265171 0.151293
0.727703 0.267582 0.152285
0.729854 0.269551 0.153231
0.731167 0.271229 0.153353
0.733562 0.273777 0.154498
0.735363 0.275349 0.154894
0.737255 0.27715 0.155474
0.738125 0.278721 0.155688
0.739025 0.280842 0.15639
0.737758 0.283406 0.157229
0.735164 0.286656 0.157824
0.0677806 0.192401 0.0977035
0.0660258 0.193317 0.0957198
0.0653391 0.195712 0.0944533
0.0642557 0.197314 0.0914015
0.0633707 0.19855 0.0877852
0.0635538 0.198581 0.0833448
0.0644388 0.196735 0.0763256
0.0686351 0.196979 0.0700999
0.0960403 0.212848 0.0736553
0.146761 0.237812 0.0852216
0.18967 0.239429 0.0820172
0.271427 0.23006 0.07776
0.378897 0.258503 0.0841077
0.476097 0.268498 0.0967117
0.549706 0.266972 0.113085
0.59881 0.273808 0.119875
0.641428 0.278553 0.126574
0.678614 0.284398 0.135225
0.712215 0.292027 0.144564
0.73727 0.300069 0.152636
0.757855 0.308949 0.16083
0.771069 0.316777 0.167605
0.77499 0.321126 0.170642
0.776272 0.324254 0.171969
0.777157 0.326711 0.172793
0.778836 0.329747 0.173968
0.78114 0.333165 0.175174
0.782193 0.335317 0.175692
0.783429 0.337713 0.176745
0.784558 0.34049 0.177722
0.784985 0.342611 0.178302
0.783764 0.346105 0.179614
0.781369 0.349493 0.180652
0.0822919 0.261097 0.125307
0.080766 0.262196 0.123903
0.0822003 0.264698 0.123583
0.0826734 0.26743 0.122484
0.0825971 0.269917 0.119814
0.0829023 0.27245 0.115358
0.0821393 0.272023 0.108797
0.0783856 0.26714 0.096788
0.0876936 0.270695 0.0886397
0.133867 0.296361 0.0965591
0.19823 0.322942 0.105806
0.259342 0.320363 0.0945602
0.347921 0.309087 0.0886091
0.455055 0.33669 0.0896925
0.550576 0.350362 0.104265
0.63357 0.361624 0.127321
0.686809 0.360113 0.149874
0.724559 0.363638 0.159747
0.755779 0.370108 0.16968
0.781674 0.376349 0.181308
0.797879 0.381689 0.189853
0.807233 0.387106 0.195865
0.808759 0.392645 0.198306
0.809567 0.396567 0.199329
0.811399 0.401297 0.200855
0.812924 0.405417 0.202426
0.814481 0.410117 0.203937
0.816083 0.414588 0.205509
0.817731 0.418509 0.206836
0.819379 0.422614 0.208408
0.820462 0.426184 0.21001
0.820218 0.429236 0.2112
0.819074 0.432929 0.21265
0.0994278 0.339529 0.162005
0.0977798 0.339971 0.160143
0.0986648 0.342168 0.159701
0.0984665 0.344228 0.157946
0.100206 0.345968 0.154131
0.10071 0.348272 0.149401
0.0999466 0.350637 0.142092
0.0986801 0.349294 0.133364
0.0953078 0.342901 0.116335
0.114809 0.351873 0.107195
0.177066 0.381857 0.114519
0.265354 0.405158 0.112322
0.331304 0.39823 0.0927901
0.419562 0.385214 0.0899825
0.516854 0.403525 0.0945296
0.605936 0.423285 0.113588
0.6925 0.45272 0.142
0.744472 0.452308 0.167544
0.777874 0.454719 0.184863
0.803555 0.459419 0.198642
0.822568 0.466072 0.210788
0.833051 0.474968 0.218753
0.836362 0.485435 0.223651
0.835966 0.489738 0.223804
0.836088 0.494362 0.224186
0.836316 0.498573 0.224521
0.836393 0.502434 0.224475
0.836805 0.506111 0.224765
0.836698 0.509712 0.224582
0.836912 0.512703 0.224643
0.837598 0.515618 0.225208
0.836774 0.518242 0.225681
0.834852 0.520928 0.226169
0.113283 0.421439 0.205173
0.112001 0.421225 0.202823
0.111315 0.422019 0.201282
0.110918 0.423026 0.198596
0.110369 0.424292 0.194842
0.11107 0.425895 0.188876
0.11194 0.427268 0.180362
0.111437 0.427726 0.169162
0.108721 0.42446 0.156222
0.110338 0.417914 0.132723
0.14287 0.433845 0.123125
0.231785 0.462913 0.127092
0.337301 0.478737 0.111467
0.399329 0.468544 0.0894636
0.482353 0.456291 0.0963912
0.569848 0.468162 0.108522
0.652689 0.492821 0.128649
0.735851 0.53257 0.15729
0.781506 0.535576 0.183459
0.812131 0.541894 0.202625
0.829084 0.546563 0.213794
0.838605 0.555306 0.222446
0.841169 0.563592 0.227405
0.840558 0.567895 0.228061
0.840421 0.572274 0.229236
0.839963 0.575799 0.229786
0.840192 0.579644 0.230488
0.840589 0.583642 0.231449
0.840116 0.586023 0.231373
0.840345 0.588678 0.231937
0.840497 0.590845 0.232334
0.839872 0.59321 0.233112
0.838254 0.595422 0.233692
0.125261 0.50309 0.258244
0.123873 0.501991 0.255238
0.123095 0.502342 0.253895
0.123049 0.503395 0.252293
0.122713 0.503975 0.248508
0.122301 0.50367 0.240925
0.121981 0.502861 0.229801
0.121294 0.502007 0.214359
0.120684 0.49955 0.196704
0.121477 0.495415 0.177981
0.127565 0.489982 0.145388
0.186969 0.512413 0.142992
0.311818 0.534401 0.140398
0.41146 0.545007 0.117052
0.465675 0.535698 0.0953231
0.54168 0.525765 0.111666
0.619058 0.532082 0.128985
0.696147 0.555779 0.149035
0.759701 0.585855 0.175235
0.80206 0.59942 0.201846
0.831983 0.614267 0.225269
0.840162 0.622156 0.23537
0.841535 0.62974 0.240162
0.840742 0.636347 0.240177
0.840024 0.640009 0.240864
0.840055 0.643442 0.2421
0.840146 0.644083 0.243427
0.840635 0.644755 0.245151
0.84062 0.645533 0.246433
0.840406 0.646189 0.247547
0.840009 0.646799 0.248402
0.83917 0.647486 0.249409
0.838041 0.648173 0.250523
0.144579 0.582132 0.320195
0.143526 0.580957 0.318105
0.143145 0.58117 0.317662
0.142687 0.581125 0.315572
0.142184 0.58085 0.311635
0.141817 0.580316 0.305272
0.140993 0.578286 0.294926
0.140307 0.575235 0.279164
0.139849 0.571267 0.256626
0.140383 0.565042 0.230015
0.142809 0.557794 0.201129
0.168414 0.560632 0.170062
0.272145 0.582284 0.168597
0.399145 0.602243 0.152148
0.483421 0.60824 0.127474
0.529427 0.598962 0.111086
0.59556 0.591134 0.133272
0.666651 0.595728 0.15407
0.731136 0.611307 0.175631
0.775769 0.62948 0.197589
0.811429 0.646357 0.223758
0.83241 0.65655 0.250355
0.835676 0.660258 0.26186
0.835355 0.663127 0.269902
0.834104 0.664485 0.272145
0.833341 0.665507 0.273869
0.832807 0.666682 0.275196
0.832883 0.667582 0.276677
0.832868 0.668559 0.277989
0.832563 0.669871 0.277974
0.832547 0.671092 0.278294
0.832181 0.672053 0.278767
0.831281 0.672892 0.279454
0.166888 0.654566 0.379522
0.166247 0.653544 0.378393
0.165789 0.653193 0.378515
0.165423 0.652873 0.377813
0.164843 0.652308 0.375921
0.16408 0.651102 0.371313
0.163653 0.649729 0.36437
0.16257 0.646464 0.350912
0.162051 0.641047 0.330327
0.161929 0.63238 0.299916
0.163989 0.622934 0.261158
0.173602 0.615961 0.221256
0.23122 0.628428 0.197604
0.377264 0.647959 0.191135
0.480598 0.663615 0.168124
0.548241 0.666453 0.145998
0.58703 0.657923 0.137362
0.644419 0.651865 0.161181
0.70486 0.652979 0.18352
0.757122 0.663752 0.205585
0.789685 0.674968 0.22269
0.816266 0.686336 0.237675
0.829587 0.692912 0.26865
0.831159 0.696254 0.282216
0.831724 0.699672 0.287755
0.831205 0.701747 0.288136
0.83151 0.703716 0.289143
0.831403 0.705394 0.289616
0.831113 0.706554 0.289876
0.831189 0.707668 0.290272
0.831144 0.708568 0.290608
0.830701 0.709361 0.291127
0.829862 0.710185 0.291905
0.192798 0.719615 0.435203
0.191852 0.718303 0.433875
0.191562 0.717556 0.433845
0.191363 0.717021 0.433249
0.191119 0.716518 0.431754
0.190799 0.71577 0.42855
0.190234 0.713817 0.42269
0.188891 0.710277 0.411749
0.187671 0.704784 0.395087
0.186511 0.696376 0.370108
0.186831 0.685191 0.335332
0.193332 0.673381 0.282414
0.220951 0.672282 0.236973
0.351156 0.688106 0.221134
0.475441 0.706004 0.208148
0.553735 0.715419 0.187411
0.603189 0.717281 0.171923
0.640101 0.710338 0.172259
0.687709 0.703197 0.191913
0.734401 0.703151 0.214633
0.778424 0.711238 0.234226
0.806485 0.720653 0.240543
0.821271 0.729107 0.266819
0.827024 0.73463 0.296712
0.827604 0.738811 0.30808
0.827634 0.74107 0.310994
0.827359 0.743175 0.312749
0.8271 0.74461 0.313726
0.826917 0.745769 0.314366
0.826688 0.746593 0.314702
0.826612 0.747219 0.314946
0.82678 0.747784 0.31545
0.826871 0.748104 0.315847
0.218891 0.772793 0.484901
0.218433 0.771527 0.483436
0.218082 0.770672 0.48307
0.217945 0.770047 0.482521
0.217777 0.769345 0.481239
0.217212 0.768109 0.47776
0.216312 0.765743 0.471931
0.215122 0.762005 0.462364
0.212787 0.75613 0.447486
0.210742 0.747707 0.425269
0.210605 0.736736 0.39588
0.211948 0.722774 0.353155
0.233051 0.714687 0.291264
0.318868 0.722057 0.250797
0.462898 0.736858 0.239155
0.552377 0.748989 0.222965
0.612879 0.754086 0.205783
0.65098 0.755062 0.198108
0.689006 0.750423 0.20618
0.723156 0.742519 0.223713
0.758984 0.741436 0.241886
0.795621 0.748272 0.256809
0.814008 0.758221 0.286244
0.824643 0.766613 0.313695
0.826123 0.771695 0.335775
0.82591 0.773236 0.338872
0.825574 0.77406 0.340002
0.82533 0.774594 0.34078
0.825147 0.77496 0.341512
0.825055 0.775204 0.342061
0.82501 0.775555 0.342641
0.824964 0.775586 0.342702
0.824948 0.775525 0.342611
0.244083 0.815076 0.527535
0.243275 0.813565 0.525612
0.24329 0.813031 0.525704
0.242817 0.811933 0.524392
0.242451 0.810666 0.522866
0.241443 0.808927 0.519036
0.24033 0.806394 0.513664
0.238315 0.802701 0.504234
0.23653 0.796735 0.490745
0.233478 0.787884 0.469871
0.233143 0.776974 0.445701
0.23328 0.76463 0.41265
0.238788 0.748837 0.350881
0.302968 0.750622 0.290593
0.444862 0.760983 0.270085
0.551141 0.771572 0.255726
0.615671 0.778317 0.239918
0.658137 0.781903 0.227405
0.692927 0.781369 0.229206
0.726192 0.777569 0.240177
0.752865 0.771405 0.259083
0.779721 0.770565 0.281392
0.804364 0.775616 0.307103
0.817197 0.784543 0.335851
0.824445 0.792096 0.361456
0.824475 0.79321 0.36759
0.824308 0.793759 0.369757
0.824277 0.794141 0.37052
0.824231 0.794537 0.371221
0.824216 0.79472 0.371466
0.824201 0.794766 0.371588
0.82417 0.794705 0.371511
0.82417 0.794553 0.371313
0.264027 0.844968 0.560113
0.263478 0.843854 0.558709
0.263157 0.843076 0.558206
0.263005 0.842145 0.557275
0.262165 0.84033 0.554833
0.260914 0.838437 0.551324
0.259541 0.835462 0.545113
0.258305 0.831876 0.536767
0.256382 0.826078 0.524346
0.254032 0.817929 0.507164
0.253605 0.808164 0.485985
0.253529 0.796262 0.457893
0.255802 0.781857 0.413092
0.296345 0.775769 0.352346
0.428046 0.781994 0.31754
0.540948 0.790463 0.30573
0.611658 0.795361 0.286625
0.660563 0.799252 0.269215
0.69752 0.801205 0.264286
0.731685 0.799481 0.276081
0.75172 0.796643 0.288136
0.774411 0.792096 0.3131
0.79707 0.792599 0.34049
0.812238 0.797864 0.363363
0.821103 0.803754 0.386023
0.823301 0.806867 0.399649
0.82324 0.807309 0.400458
0.823545 0.807507 0.400076
0.824353 0.807401 0.398505
0.825788 0.806989 0.396445
0.826795 0.806622 0.394888
0.827375 0.806317 0.393896
0.82739 0.806241 0.393744
0.274983 0.861997 0.575067
0.274418 0.861051 0.573816
0.274083 0.859968 0.573037
0.274022 0.859037 0.571908
0.273075 0.857176 0.569696
0.271992 0.854948 0.566064
0.270039 0.85182 0.559487
0.268437 0.847593 0.550958
0.26775 0.842863 0.540307
0.266957 0.835599 0.525948
0.268147 0.827741 0.508812
0.26894 0.816648 0.48455
0.270939 0.804425 0.449866
0.313573 0.795727 0.400732
0.415976 0.798291 0.365408
0.532372 0.801923 0.350545
0.611231 0.805737 0.331792
0.661891 0.807843 0.31223
0.700832 0.810834 0.304967
0.73637 0.810941 0.311147
0.757855 0.808103 0.321981
0.773724 0.804028 0.335622
0.793973 0.801495 0.360693
0.810849 0.805798 0.381079
0.821744 0.809628 0.401755
0.826123 0.81323 0.41857
0.826185 0.813504 0.419989
0.826246 0.813428 0.41883
0.82649 0.813245 0.417487
0.826932 0.813016 0.416358
0.827237 0.812863 0.415763
0.827329 0.812696 0.415137
0.827283 0.812543 0.414588
0.275853 0.863386 0.579202
0.2757 0.86273 0.578164
0.275441 0.86183 0.577356
0.274678 0.860441 0.575708
0.274174 0.858915 0.573663
0.272831 0.856428 0.569284
0.270909 0.853315 0.562631
0.269032 0.848875 0.553246
0.267781 0.843412 0.541634
0.26714 0.835874 0.526452
0.268315 0.827573 0.508293
0.27248 0.819532 0.487846
0.27718 0.812161 0.464775
0.322515 0.802411 0.419654
0.421912 0.803418 0.392233
0.529564 0.805875 0.37882
0.610407 0.808286 0.360769
0.659602 0.811078 0.341909
0.700786 0.813474 0.334829
0.735164 0.814069 0.340185
0.75938 0.812772 0.348745
0.774716 0.808667 0.360769
0.789487 0.80589 0.37554
0.80763 0.809674 0.393759
0.819318 0.813321 0.412116
0.826154 0.816342 0.429526
0.826276 0.816648 0.431434
0.826383 0.816632 0.431479
0.826581 0.816434 0.430564
0.826917 0.816251 0.429374
0.827085 0.816129 0.428763
0.827146 0.816052 0.42829
0.827085 0.815991 0.427817
0.276738 0.864713 0.582864
0.276356 0.863783 0.581582
0.276051 0.862776 0.580621
0.2757 0.861738 0.578988
0.27454 0.859815 0.576043
0.273564 0.857618 0.571588
0.271702 0.854353 0.565118
0.269261 0.849668 0.554513
0.267872 0.843656 0.542397
0.266926 0.835645 0.526055
0.268528 0.827298 0.507607
0.272755 0.819196 0.486671
0.281025 0.811566 0.461357
0.323903 0.801801 0.416556
0.433371 0.803662 0.390906
0.535363 0.806149 0.378744
0.610605 0.809049 0.361181
0.662226 0.811368 0.342107
0.702846 0.813642 0.334173
0.734783 0.814069 0.339483
0.761807 0.813321 0.348714
0.774289 0.809216 0.360601
0.789242 0.807721 0.375875
0.806363 0.809445 0.393698
0.817075 0.813367 0.411566
0.82417 0.816144 0.42623
0.824674 0.816922 0.432059
0.824903 0.817075 0.43331
0.825147 0.817044 0.43331
0.825498 0.816983 0.433112
0.825711 0.816938 0.432929
0.825818 0.816907 0.432792
0.825772 0.816892 0.43267
0.277729 0.865553 0.587335
0.277287 0.864759 0.585565
0.276753 0.863645 0.583688
0.276219 0.862425 0.581582
0.275288 0.860746 0.578164
0.274022 0.858427 0.573449
0.272145 0.854887 0.566339
0.269612 0.850217 0.55555
0.26804 0.8439 0.543114
0.266972 0.835599 0.525933
0.268818 0.827039 0.506966
0.272969 0.818631 0.485512
0.283726 0.81059 0.457221
0.326894 0.801389 0.413947
0.44213 0.803754 0.389685
0.541131 0.806363 0.377722
0.612329 0.809567 0.36051
0.664103 0.811566 0.342901
0.703929 0.813733 0.33434
0.73521 0.814511 0.340078
0.761898 0.813581 0.349401
0.774319 0.809674 0.360464
0.788922 0.807904 0.375326
0.805615 0.808988 0.392905
0.816114 0.813214 0.410163
0.822828 0.815885 0.424475
0.824155 0.81706 0.432441
0.823911 0.817334 0.434089
0.823377 0.817563 0.435248
0.822614 0.817868 0.4365
0.82211 0.818067 0.437461
0.821836 0.818189 0.437995
0.822217 0.818082 0.437613
0.279042 0.865888 0.592645
0.278233 0.865354 0.589441
0.277409 0.864424 0.586511
0.276616 0.863005 0.583352
0.275853 0.861463 0.58024
0.274342 0.859007 0.574762
0.272404 0.855222 0.566979
0.269993 0.850599 0.556466
0.268177 0.844083 0.543481
0.267033 0.835569 0.525856
0.269169 0.826978 0.506737
0.273198 0.818326 0.484657
0.285603 0.809781 0.45478
0.33135 0.801328 0.412711
0.449149 0.803983 0.388739
0.544381 0.806607 0.377142
0.612512 0.809781 0.359823
0.664973 0.811566 0.343069
0.704097 0.81387 0.33431
0.734386 0.814527 0.340566
0.761425 0.813901 0.349905
0.773846 0.810193 0.360357
0.788296 0.808331 0.374655
0.804334 0.808301 0.391684
0.814923 0.812604 0.408728
0.821744 0.815763 0.423423
0.823743 0.817121 0.432563
0.823621 0.817365 0.433997
0.823148 0.817563 0.435142
0.82237 0.817884 0.436377
0.821851 0.818082 0.437278
0.821576 0.818189 0.437781
0.821576 0.818219 0.437919
0.279637 0.866224 0.595666
0.279149 0.865629 0.593393
0.278294 0.864729 0.590326
0.277211 0.863432 0.586221
0.276295 0.861891 0.581918
0.274479 0.859342 0.575952
0.272648 0.855573 0.568017
0.270329 0.85095 0.557198
0.268254 0.844114 0.543572
0.267063 0.835706 0.526146
0.269337 0.827008 0.506767
0.273304 0.818204 0.484199
0.28632 0.809369 0.453162
0.333928 0.801099 0.411841
0.451652 0.804089 0.388296
0.545342 0.806622 0.376852
0.612131 0.809873 0.359716
0.665156 0.811551 0.343221
0.703166 0.81413 0.334066
0.733227 0.814633 0.340963
0.76054 0.813916 0.350545
