bundles/resolve-cinematic-luts/Phantom Luts/P4k & P6K Phntm Film LUTs - V6/P4K/Gen 5 Colour/Standard (No WB Offset)/P4k Vision Gen5-Legacy.cube
TITLE "Generated by Resolve"
LUT_3D_SIZE 33
0.0236057 0.0332036 0.0244907
0.0236057 0.0332036 0.0244907
0.0236057 0.0332036 0.0244907
0.0261387 0.0348516 0.0247044
0.0301976 0.0371557 0.0255131
0.0346838 0.0394293 0.0249027
0.0458839 0.0412909 0.0242466
0.0594186 0.0412451 0.0271458
0.0793927 0.0417334 0.0285801
0.105653 0.0425116 0.0283513
0.142885 0.0442969 0.0275273
0.195834 0.0440375 0.0261997
0.251331 0.0459907 0.0272221
0.31075 0.0491798 0.0307317
0.374426 0.0560616 0.0339818
0.441611 0.0674601 0.0405432
0.526909 0.0869306 0.0562295
0.620722 0.108461 0.0780652
0.715343 0.132677 0.102892
0.768109 0.149096 0.118807
0.779782 0.153323 0.12256
0.781674 0.154726 0.123568
0.781872 0.155077 0.123629
0.781933 0.155352 0.123705
0.784375 0.15462 0.125093
0.784298 0.155062 0.125124
0.783993 0.15584 0.124987
0.783703 0.15668 0.124895
0.784024 0.157748 0.124941
0.784558 0.158801 0.124895
0.785061 0.159915 0.124865
0.784955 0.161318 0.124331
0.784726 0.162631 0.12398
0.0235904 0.0332036 0.0244755
0.0236057 0.0332036 0.0244907
0.0236515 0.0332647 0.024506
0.0266575 0.0351873 0.0247807
0.0302586 0.0376135 0.0259403
0.0342107 0.040238 0.0255589
0.0467842 0.0419928 0.0245518
0.0609445 0.0419776 0.0278172
0.081117 0.041886 0.028809
0.108797 0.0430457 0.0284733
0.146731 0.04477 0.0278325
0.199756 0.0445869 0.0264744
0.255772 0.0467079 0.0277562
0.314565 0.0496986 0.0309606
0.377859 0.0571756 0.0347906
0.448493 0.0685893 0.0421149
0.529625 0.088838 0.057084
0.620874 0.110735 0.0771954
0.717952 0.134478 0.103685
0.767422 0.150546 0.118532
0.77937 0.155047 0.122866
0.780468 0.155474 0.123308
0.780758 0.155718 0.123339
0.78117 0.156741 0.123476
0.783398 0.155673 0.124437
0.783215 0.156374 0.124453
0.783123 0.157229 0.124575
0.783093 0.158343 0.124773
0.783429 0.159426 0.124971
0.783688 0.160555 0.124865
0.783764 0.161791 0.124422
0.783764 0.162921 0.124056
0.781872 0.165393 0.120333
0.0236515 0.0333715 0.0244907
0.0235904 0.0334783 0.0245518
0.0236515 0.033463 0.0245212
0.0243534 0.0350042 0.0248722
0.0295109 0.0383001 0.0267796
0.0331121 0.0412146 0.0272221
0.0450294 0.0429236 0.0251621
0.0611276 0.0431067 0.0285801
0.0813764 0.0426947 0.0293126
0.108782 0.0436255 0.0287175
0.146426 0.0455177 0.0286107
0.20029 0.0453346 0.0268711
0.256855 0.047364 0.0281224
0.316075 0.0507973 0.0315862
0.380819 0.0579843 0.0350805
0.450263 0.0694285 0.0426184
0.530999 0.0900893 0.0579538
0.624918 0.112734 0.0791028
0.717372 0.135637 0.103609
0.768704 0.15201 0.119081
0.778302 0.15584 0.12256
0.778836 0.156512 0.122789
0.779156 0.157366 0.122942
0.779492 0.158251 0.123003
0.780194 0.159442 0.123659
0.782086 0.157977 0.124132
0.782254 0.15906 0.124605
0.782345 0.160082 0.125017
0.782177 0.161318 0.124788
0.78233 0.162432 0.12462
0.782406 0.163409 0.124132
0.781079 0.165667 0.120806
0.783154 0.16669 0.121767
0.0251469 0.041825 0.0299382
0.0249943 0.0413977 0.0293278
0.024918 0.0409552 0.0282292
0.0263218 0.0406958 0.0277104
0.0297551 0.0422522 0.0280156
0.0329442 0.0434882 0.0298466
0.0402686 0.0453193 0.0278172
0.0610056 0.0444343 0.0291752
0.0819715 0.0446326 0.0299687
0.109087 0.0451514 0.0294347
0.147677 0.0465095 0.0292973
0.200565 0.0460212 0.0272831
0.258518 0.0477607 0.028397
0.317525 0.0516365 0.0318914
0.381506 0.0585794 0.0351415
0.45214 0.0703288 0.0429236
0.535409 0.0916457 0.0595407
0.624811 0.113497 0.0792401
0.718135 0.137346 0.103944
0.770687 0.153643 0.119936
0.776822 0.157076 0.122164
0.776822 0.158053 0.122194
0.777569 0.158755 0.122591
0.778683 0.159945 0.123369
0.781826 0.160464 0.124834
0.781491 0.159854 0.124468
0.781292 0.161059 0.124636
0.781003 0.162173 0.124788
0.780819 0.163272 0.124636
0.778271 0.165499 0.121248
0.780468 0.166262 0.121736
0.782635 0.166934 0.122454
0.784146 0.167727 0.122927
0.0262608 0.0481117 0.033463
0.0263828 0.0478065 0.0330968
0.0263371 0.0468605 0.0317235
0.027924 0.046128 0.0298466
0.0307164 0.0477455 0.0295567
0.033753 0.0484169 0.0303502
0.04065 0.0506905 0.0324865
0.0604105 0.0501564 0.0288548
0.0856641 0.0493477 0.0320134
0.112093 0.0482338 0.0314488
0.14931 0.0480812 0.0299992
0.201984 0.0474861 0.0280919
0.259663 0.0488594 0.0291295
0.318379 0.0520027 0.0319066
0.383352 0.0597543 0.0357519
0.453925 0.0714885 0.0433967
0.537545 0.0925765 0.0600748
0.628489 0.114855 0.0801099
0.721477 0.138766 0.105501
0.772335 0.155962 0.120684
0.775006 0.158724 0.121553
0.775174 0.159579 0.121965
0.779797 0.160327 0.123751
0.780789 0.161639 0.124422
0.780972 0.162951 0.124865
0.776806 0.165301 0.12137
0.780133 0.16347 0.124651
0.777356 0.165698 0.121706
0.778759 0.166476 0.122499
0.780758 0.167132 0.123262
0.782238 0.167636 0.123186
0.783703 0.168795 0.123369
0.785672 0.171344 0.124041
0.0280766 0.0556802 0.0370031
0.0282292 0.0554208 0.0365148
0.0282139 0.0544594 0.0356146
0.0282902 0.0535592 0.0331426
0.0321813 0.0539101 0.0327611
0.0343023 0.0556344 0.0319066
0.0400397 0.0567788 0.0329442
0.0614328 0.0569314 0.0306096
0.0857252 0.0562295 0.0336309
0.117403 0.0560922 0.0354162
0.156069 0.0534371 0.0323186
0.203479 0.0502022 0.0295109
0.26099 0.050721 0.0299077
0.320348 0.0537881 0.032578
0.38468 0.060914 0.0365454
0.457435 0.0736095 0.0447089
0.541772 0.094667 0.0616007
0.631739 0.116258 0.0809949
0.724468 0.1402 0.105913
0.774868 0.158145 0.121263
0.779263 0.16051 0.123186
0.780377 0.161791 0.12372
0.780987 0.163043 0.124193
0.777829 0.165331 0.121141
0.778698 0.166125 0.121981
0.780026 0.167071 0.123247
0.779706 0.166873 0.122942
0.780652 0.167468 0.12343
0.781155 0.168139 0.123384
0.782147 0.169604 0.123629
0.78378 0.171588 0.124392
0.785245 0.17348 0.124819
0.787854 0.175296 0.125536
0.0292668 0.0685283 0.0415961
0.0294347 0.0684977 0.0407874
0.0294347 0.0674296 0.0398566
0.0295109 0.0664836 0.0384527
0.0317235 0.0654917 0.0362554
0.0364843 0.0674601 0.0370031
0.0399023 0.0695964 0.0353704
0.0514687 0.0700542 0.033875
0.0859693 0.0668803 0.0324712
0.120073 0.067216 0.0361486
0.167285 0.0630503 0.035462
0.216861 0.0598764 0.0332647
0.264393 0.057145 0.0322881
0.322301 0.0576944 0.0338903
0.38703 0.063447 0.0372168
0.459617 0.0763409 0.045655
0.543618 0.0969863 0.0628672
0.634363 0.119158 0.0835126
0.721874 0.143435 0.104112
0.779126 0.161929 0.123674
0.780728 0.163653 0.124514
0.778012 0.165972 0.121904
0.779034 0.166796 0.122942
0.77998 0.167605 0.123583
0.780209 0.168368 0.123491
0.780911 0.169726 0.123781
0.781857 0.171939 0.124849
0.781826 0.171588 0.124727
0.78265 0.17348 0.125521
0.78323 0.174823 0.125795
0.784802 0.176699 0.126925
0.785534 0.178058 0.126757
0.787671 0.18349 0.127382
0.0308385 0.0850843 0.0476387
0.0308537 0.0853132 0.0467994
0.0308232 0.0851759 0.0456855
0.0312352 0.0844282 0.0439612
0.0315099 0.0831311 0.0419013
0.0349889 0.0826276 0.0400092
0.0416266 0.0858778 0.0412451
0.0482643 0.0875563 0.0384375
0.0709544 0.0860151 0.0334936
0.118151 0.0835737 0.035935
0.174212 0.0764782 0.0389258
0.229892 0.0719921 0.0374914
0.283268 0.0691844 0.0371557
0.331807 0.0684825 0.0375372
0.387778 0.0721904 0.0403906
0.464027 0.0836805 0.0492409
0.547051 0.101244 0.0652934
0.635706 0.122759 0.0852522
0.722423 0.146273 0.10634
0.779171 0.166812 0.122927
0.780026 0.167575 0.123568
0.780118 0.168383 0.123476
0.780926 0.170214 0.123873
0.781903 0.172213 0.124956
0.782528 0.173983 0.125597
0.783154 0.175692 0.126238
0.784146 0.177554 0.127153
0.783978 0.178943 0.127001
0.783871 0.179217 0.126864
0.785183 0.184085 0.12813
0.786542 0.189105 0.128908
0.788663 0.193774 0.130205
0.789776 0.199145 0.131273
0.0325322 0.105394 0.0561685
0.0326238 0.105531 0.0546426
0.0325628 0.105791 0.0534218
0.0327611 0.105303 0.051667
0.0332799 0.103883 0.0496071
0.0334783 0.102159 0.0475929
0.0389563 0.102678 0.0447547
0.0500496 0.107454 0.0469062
0.0593118 0.108431 0.0413367
0.0980392 0.102449 0.0324712
0.168536 0.102235 0.0390936
0.240208 0.0896468 0.042237
0.301823 0.0885939 0.0424353
0.35848 0.0897841 0.0454261
0.413062 0.0928817 0.0500191
0.476341 0.102525 0.0596475
0.551949 0.115526 0.0718395
0.641993 0.133654 0.0902571
0.725444 0.154345 0.109606
0.782422 0.176181 0.126238
0.784009 0.177905 0.127047
0.784039 0.177768 0.127092
0.783917 0.176638 0.12694
0.784054 0.178241 0.127031
0.7841 0.182376 0.12752
0.785611 0.187488 0.129534
0.785779 0.191638 0.129931
0.786892 0.196841 0.131395
0.787533 0.200961 0.132586
0.788128 0.203067 0.133135
0.789487 0.208179 0.134463
0.79086 0.216083 0.136385
0.792889 0.224506 0.140078
0.0330816 0.132723 0.0673533
0.0333257 0.133074 0.0653849
0.033341 0.133257 0.0635233
0.0332189 0.133455 0.0612497
0.0338293 0.132448 0.0591897
0.0341802 0.130419 0.0569619
0.0348974 0.127642 0.0531624
0.04271 0.129839 0.0500191
0.0603037 0.137758 0.0523995
0.0724193 0.136812 0.0438544
0.134844 0.127581 0.0322423
0.23357 0.131609 0.0436408
0.318608 0.119966 0.0533303
0.389288 0.125978 0.0604257
0.456107 0.135409 0.0700389
0.512657 0.139513 0.0775769
0.579431 0.148638 0.0885634
0.648997 0.159976 0.101549
0.729381 0.180209 0.117922
0.783459 0.196719 0.130678
0.786999 0.197406 0.13167
0.786938 0.198016 0.131853
0.786999 0.199802 0.132357
0.787289 0.202701 0.133043
0.787884 0.207477 0.134234
0.788602 0.21062 0.13521
0.78938 0.216861 0.137285
0.789624 0.223453 0.140032
0.790906 0.231373 0.143526
0.791394 0.239261 0.146609
0.792737 0.243626 0.148562
0.794293 0.251072 0.151553
0.795865 0.25893 0.15462
0.0307317 0.174304 0.0781415
0.0308537 0.174441 0.0764172
0.0309453 0.174487 0.0745861
0.0309606 0.174975 0.0716259
0.0307164 0.174624 0.0683452
0.0312657 0.172656 0.0654612
0.0322881 0.170092 0.0628214
0.0339208 0.165209 0.0573892
0.0460822 0.171054 0.0542611
0.0738689 0.189181 0.0598917
0.0910201 0.185061 0.0462806
0.196551 0.171435 0.0327153
0.315129 0.18996 0.0547036
0.40705 0.183032 0.0717327
0.476738 0.184924 0.0822919
0.547616 0.197848 0.0943008
0.612345 0.203311 0.105699
0.679606 0.212116 0.11783
0.742779 0.224445 0.132036
0.786175 0.237034 0.144381
0.791257 0.237858 0.146014
0.791226 0.236225 0.145174
0.791226 0.236667 0.145266
0.791379 0.24097 0.147402
0.791897 0.246235 0.149981
0.792615 0.251408 0.151888
0.792966 0.25832 0.155398
0.793545 0.264454 0.158282
0.792721 0.273182 0.161196
0.792706 0.282521 0.166064
0.792508 0.291279 0.169345
0.792798 0.298009 0.172213
0.793729 0.307439 0.176593
0.0385595 0.237781 0.105104
0.0386664 0.237934 0.103273
0.0386053 0.238758 0.101411
0.038468 0.238483 0.0990768
0.0379187 0.237461 0.0952163
0.037705 0.237552 0.0916304
0.0381018 0.23505 0.0869001
0.0390478 0.2309 0.0806592
0.0399939 0.22211 0.0699016
0.0627451 0.237964 0.071931
0.10457 0.262242 0.0814679
0.132128 0.256107 0.0597238
0.274022 0.238605 0.0357977
0.399588 0.260014 0.0663767
0.487587 0.258839 0.0870832
0.560006 0.261936 0.111376
0.634668 0.268025 0.125597
0.710292 0.279774 0.14374
0.763638 0.290471 0.160006
0.792905 0.299672 0.173495
0.79292 0.299184 0.173632
0.79237 0.297337 0.171939
0.79237 0.296468 0.17145
0.792386 0.296818 0.171588
0.792737 0.298177 0.172625
0.792142 0.305486 0.175692
0.79234 0.31313 0.179385
0.791821 0.320363 0.182803
0.791775 0.328298 0.186725
0.791638 0.336858 0.190585
0.791928 0.344701 0.19469
0.792401 0.350469 0.196826
0.793423 0.35758 0.199451
0.0521096 0.313878 0.14432
0.0522316 0.314382 0.141878
0.0522164 0.314107 0.140185
0.0517586 0.313741 0.137179
0.0510262 0.313069 0.133288
0.0504921 0.312169 0.128618
0.0496681 0.311864 0.122988
0.050248 0.309148 0.11487
0.0524605 0.304219 0.106813
0.0547036 0.294926 0.0906691
0.0894484 0.317311 0.0963149
0.145052 0.341176 0.10634
0.192111 0.331075 0.0713054
0.349981 0.311116 0.0399786
0.468727 0.32781 0.0739757
0.565499 0.342245 0.108797
0.64123 0.343572 0.138598
0.703883 0.342763 0.164111
0.770184 0.355062 0.188586
0.792401 0.367208 0.204242
0.792416 0.368902 0.205997
0.792462 0.367712 0.205631
0.792355 0.367651 0.205585
0.792325 0.368277 0.205859
0.792096 0.368872 0.205905
0.79205 0.369894 0.206134
0.791897 0.370932 0.206256
0.792569 0.375845 0.208408
0.791882 0.382589 0.211109
0.792523 0.390082 0.214633
0.792737 0.396735 0.217227
0.793042 0.403723 0.220615
0.793866 0.40853 0.222522
0.0697948 0.391882 0.201114
0.0701305 0.391791 0.198291
0.0703441 0.39118 0.195178
0.0695354 0.390585 0.191821
0.0685435 0.389761 0.187533
0.0676738 0.389425 0.183291
0.0666819 0.388098 0.174166
0.0664836 0.388052 0.164019
0.0679637 0.384695 0.151553
0.0699474 0.378027 0.136263
0.0720226 0.369833 0.112444
0.126238 0.39617 0.123919
0.209125 0.417746 0.132967
0.261723 0.406348 0.0840467
0.425452 0.385412 0.0478523
0.539315 0.398962 0.0844739
0.646815 0.429969 0.138064
0.713268 0.426032 0.173632
0.75816 0.425498 0.200122
0.791089 0.428504 0.226963
0.793469 0.439002 0.23154
0.793423 0.438651 0.231617
0.793713 0.439582 0.231647
0.794125 0.440986 0.231769
0.794507 0.442649 0.231891
0.79501 0.444343 0.23212
0.79469 0.445853 0.231403
0.795041 0.447532 0.23154
0.795605 0.450065 0.231754
0.796124 0.454505 0.23183
0.797391 0.461357 0.232288
0.798093 0.466773 0.232013
0.800198 0.472908 0.233539
0.0897841 0.470939 0.262364
0.0906996 0.471275 0.259968
0.091722 0.470924 0.256779
0.0929274 0.47042 0.254444
0.0928664 0.470069 0.25124
0.0922713 0.46862 0.246815
0.0916915 0.467704 0.240345
0.0895857 0.466651 0.229801
0.0882429 0.465644 0.215503
0.0901656 0.460166 0.19855
0.0910964 0.452277 0.176135
0.101686 0.448218 0.144366
0.187289 0.474372 0.159213
0.279698 0.495048 0.159731
0.342107 0.48304 0.100893
0.498741 0.462776 0.0648508
0.616144 0.475257 0.10132
0.729397 0.522148 0.172686
0.774548 0.514626 0.218601
0.798627 0.512398 0.23563
0.80557 0.517372 0.24509
0.80618 0.519799 0.246052
0.806607 0.521218 0.246632
0.807202 0.523461 0.247318
0.807675 0.525643 0.247776
0.80798 0.528191 0.248051
0.808637 0.531258 0.249104
0.809201 0.533486 0.25008
0.809644 0.534874 0.25069
0.809735 0.535103 0.250782
0.809308 0.533471 0.250034
0.810178 0.53724 0.251316
0.811383 0.541741 0.252949
0.112078 0.550698 0.329412
0.112551 0.550362 0.326833
0.112871 0.549752 0.323537
0.113832 0.549813 0.321065
0.114641 0.549065 0.317906
0.115846 0.548379 0.314122
0.117388 0.547784 0.310292
0.117037 0.545892 0.301625
0.116136 0.54432 0.2878
0.114092 0.541665 0.269215
0.114168 0.534066 0.246143
0.116167 0.523674 0.215427
0.151369 0.527565 0.190936
0.264073 0.552041 0.211658
0.352682 0.573327 0.191928
0.422904 0.559533 0.121477
0.571283 0.540642 0.0941482
0.696483 0.557504 0.125765
0.792416 0.606531 0.201785
0.82533 0.611109 0.281117
0.82475 0.611002 0.305531
0.825772 0.615946 0.310903
0.826246 0.619287 0.314916
0.827161 0.623529 0.319966
0.827314 0.627283 0.324971
0.828717 0.632334 0.330587
0.828641 0.635599 0.334493
0.82887 0.637919 0.336706
0.829511 0.639338 0.338643
0.829282 0.638666 0.337591
0.828824 0.635737 0.334661
0.828534 0.630762 0.328466
0.827924 0.625299 0.323201
0.139513 0.633753 0.398886
0.140215 0.633951 0.39646
0.14081 0.633249 0.3935
0.141466 0.632303 0.390707
0.142458 0.631937 0.388006
0.14345 0.631083 0.384802
0.144961 0.630121 0.380911
0.14815 0.629755 0.375174
0.148165 0.627054 0.363958
0.14725 0.624186 0.345953
0.145647 0.61944 0.323262
0.144732 0.609644 0.29456
0.149935 0.598032 0.25124
0.232441 0.609644 0.242878
0.350225 0.634119 0.266453
0.42768 0.655528 0.227115
0.50074 0.641428 0.155276
0.634363 0.624765 0.135027
0.760174 0.63949 0.154238
0.831739 0.679438 0.226383
0.843626 0.709026 0.352789
0.844221 0.713237 0.372519
0.84387 0.714885 0.371939
0.843854 0.715526 0.369039
0.843839 0.715862 0.365927
0.843854 0.716121 0.362844
0.843809 0.716365 0.360357
0.843793 0.716518 0.359014
0.843809 0.716594 0.357992
0.843809 0.716472 0.357778
0.843915 0.715465 0.360006
0.844068 0.713603 0.364691
0.843931 0.709911 0.372732
0.182467 0.716442 0.46508
0.182818 0.715816 0.462745
0.183093 0.714778 0.460258
0.183566 0.714244 0.457755
0.184268 0.713558 0.455253
0.185443 0.712657 0.453101
0.187304 0.712322 0.44976
0.189364 0.71133 0.444236
0.191089 0.709926 0.436103
0.191379 0.707042 0.422141
0.190402 0.703807 0.401099
0.188128 0.69575 0.373541
0.187991 0.682719 0.336706
0.207126 0.675837 0.287053
0.330861 0.694469 0.301152
0.435966 0.718669 0.318303
0.504952 0.738582 0.2654
0.572381 0.726055 0.21117
0.692393 0.711391 0.192874
0.800305 0.715999 0.175784
0.847105 0.742794 0.221836
0.849638 0.7514 0.29163
0.849515 0.756603 0.309514
0.85034 0.758831 0.310689
0.850752 0.760418 0.311025
0.850721 0.761975 0.31043
0.850828 0.76318 0.309987
0.851133 0.764004 0.309911
0.851148 0.764141 0.309804
0.850935 0.76321 0.309911
0.850935 0.760754 0.31104
0.849607 0.756039 0.310857
0.8486 0.748348 0.311971
0.235691 0.789288 0.52929
0.235737 0.788602 0.526772
0.23592 0.788022 0.524315
0.235935 0.787274 0.522133
0.236118 0.78674 0.519982
0.236362 0.785733 0.517479
0.237659 0.784695 0.514199
0.239338 0.783871 0.510277
0.238926 0.783276 0.503624
0.239429 0.781247 0.491722
0.239765 0.777447 0.474311
0.237369 0.77113 0.449378
0.231449 0.760952 0.415747
0.237247 0.749599 0.369299
0.310262 0.754238 0.341466
0.432319 0.768704 0.363363
0.519631 0.789654 0.354253
0.582269 0.802518 0.303059
0.650187 0.793103 0.264195
0.750668 0.78201 0.251865
0.830289 0.78175 0.220691
0.847288 0.803311 0.301762
0.847105 0.811322 0.348409
0.847074 0.812558 0.353658
0.846769 0.81294 0.35462
0.846738 0.813672 0.35639
0.846738 0.814023 0.356847
0.846693 0.81442 0.357488
0.846784 0.814038 0.356573
0.846922 0.813428 0.355016
0.847333 0.812238 0.352392
0.847959 0.808911 0.346716
0.848875 0.804547 0.337957
0.27744 0.838315 0.581689
0.27808 0.837995 0.579767
0.278599 0.837751 0.578241
0.278965 0.837522 0.576272
0.279194 0.837201 0.574273
0.279469 0.836805 0.572061
0.280125 0.836103 0.569177
0.281971 0.835431 0.565438
0.282567 0.834394 0.559487
0.281971 0.832441 0.549935
0.282841 0.829267 0.535668
0.282292 0.823743 0.516075
0.280385 0.815442 0.488945
0.277699 0.80676 0.449516
0.311971 0.802319 0.405707
0.42974 0.807965 0.405783
0.521675 0.816007 0.420096
0.588403 0.83093 0.379446
0.647227 0.837507 0.33608
0.727138 0.831022 0.310552
0.792874 0.824643 0.321675
0.835752 0.82948 0.352773
0.840497 0.839796 0.402625
0.84033 0.841291 0.415
0.840345 0.841505 0.415854
0.840421 0.841642 0.416052
0.840482 0.841718 0.416175
0.840513 0.841749 0.416159
0.840497 0.841611 0.415671
0.840452 0.841306 0.414603
0.840665 0.840742 0.412665
0.840833 0.839826 0.409857
0.841398 0.838117 0.404334
0.290929 0.856886 0.605295
0.291386 0.856779 0.604089
0.292042 0.856672 0.602197
0.292805 0.85655 0.600351
0.293492 0.856428 0.59881
0.294499 0.856138 0.597391
0.295338 0.855863 0.594751
0.296986 0.855283 0.591089
0.300008 0.854154 0.585992
0.30219 0.852781 0.578668
0.302892 0.8495 0.567254
0.305333 0.845243 0.552453
0.310552 0.840787 0.534295
0.312688 0.835172 0.507851
0.336996 0.829313 0.473655
0.428397 0.830549 0.461662
0.524117 0.83064 0.464561
0.583078 0.836011 0.444495
0.640436 0.843702 0.400305
0.704051 0.845457 0.37731
0.779934 0.84593 0.365209
0.815625 0.841825 0.398016
0.837232 0.849058 0.431754
0.838911 0.851499 0.452873
0.838941 0.851774 0.454765
0.838972 0.851667 0.453971
0.838972 0.851606 0.453178
0.838972 0.851545 0.452613
0.838941 0.851469 0.452018
0.838926 0.851392 0.451484
0.838911 0.851286 0.450553
0.838926 0.851087 0.448478
0.839063 0.850019 0.444053
0.288808 0.857389 0.609232
0.28954 0.857298 0.607675
0.290288 0.857145 0.606119
0.29099 0.856962 0.605035
0.291508 0.85684 0.603494
0.292485 0.856596 0.601129
0.293797 0.856214 0.598566
0.29546 0.855604 0.595132
0.297932 0.854597 0.590127
0.303365 0.85304 0.582101
0.303441 0.850462 0.57145
0.30573 0.845548 0.555764
0.311604 0.841291 0.537667
0.316991 0.836439 0.516655
0.343008 0.832746 0.492638
0.42916 0.832242 0.482628
0.524102 0.832044 0.483818
0.584329 0.836286 0.474861
0.636286 0.844663 0.437018
0.699443 0.847379 0.413581
0.772168 0.847196 0.400015
0.807874 0.846372 0.414298
0.835065 0.849287 0.44155
0.838148 0.852949 0.470649
0.838941 0.85391 0.47599
0.838926 0.853788 0.475212
0.838911 0.85362 0.473686
0.838865 0.853468 0.472419
0.838819 0.853346 0.471504
0.838758 0.853223 0.470558
0.838727 0.853132 0.469291
0.838605 0.852949 0.467582
0.838392 0.852598 0.464103
0.287541 0.857649 0.6121
0.288182 0.857633 0.610422
0.288548 0.857618 0.609323
0.289281 0.857572 0.607645
0.290089 0.85742 0.606012
0.290929 0.85713 0.604685
0.292256 0.856703 0.60148
0.29427 0.856016 0.59791
0.296605 0.855131 0.592554
0.301854 0.853513 0.584482
0.303395 0.851331 0.573739
0.305592 0.846006 0.557794
0.311254 0.841688 0.538872
0.316716 0.836652 0.517449
0.341985 0.832822 0.493004
0.424536 0.831891 0.482521
0.520607 0.832471 0.483787
0.581643 0.835966 0.476661
0.632013 0.844343 0.43856
0.693355 0.847425 0.412726
0.765225 0.846876 0.399588
0.802457 0.846784 0.409506
0.832029 0.848066 0.433661
0.83798 0.852384 0.463142
0.838865 0.853468 0.472343
0.839017 0.853849 0.474586
0.839063 0.853925 0.474769
0.839139 0.853986 0.474693
0.8392 0.854032 0.474449
0.839231 0.854017 0.473884
0.839246 0.853895 0.47274
0.83917 0.853773 0.471992
0.839124 0.85359 0.471153
0.286671 0.857954 0.613703
0.287221 0.857893 0.61268
0.287678 0.857923 0.611078
0.288182 0.857908 0.609705
0.288792 0.857832 0.60824
0.289876 0.857572 0.606226
0.291173 0.857069 0.604044
0.293278 0.856413 0.599619
0.29572 0.855512 0.594476
0.300725 0.85388 0.586343
0.303258 0.851713 0.57499
0.305257 0.846464 0.558877
0.311009 0.841978 0.53994
0.316442 0.836927 0.518364
0.339513 0.833051 0.493523
0.421439 0.831815 0.482689
0.517861 0.832364 0.483162
0.579782 0.835813 0.477211
0.629496 0.843656 0.43888
0.689052 0.847227 0.412222
0.760632 0.846952 0.399893
0.799252 0.846891 0.40708
0.828946 0.84715 0.427543
0.838392 0.852003 0.456718
0.83888 0.853239 0.469596
0.839155 0.853712 0.471977
0.8392 0.853803 0.472114
0.839246 0.853864 0.472114
0.839307 0.853925 0.472068
0.839338 0.853956 0.471992
0.839368 0.853956 0.47187
0.839353 0.853971 0.471839
0.839338 0.853941 0.471824
0.285771 0.85832 0.614618
0.286381 0.858213 0.613581
0.287037 0.858076 0.612589
0.287556 0.858061 0.611048
0.288045 0.858015 0.609689
0.288945 0.857877 0.607752
0.290562 0.857359 0.60531
0.292424 0.856687 0.600961
0.295232 0.855726 0.595773
0.299886 0.854139 0.587701
0.303288 0.852003 0.576318
0.304891 0.846769 0.559853
0.310735 0.842252 0.540902
0.31632 0.837095 0.51902
0.337575 0.833082 0.493385
0.419944 0.831891 0.482628
0.515114 0.832471 0.482918
0.577783 0.835615 0.47808
0.627192 0.843366 0.439475
0.686412 0.847333 0.412375
0.756954 0.846922 0.400153
0.796963 0.847089 0.405402
0.826185 0.84593 0.423774
0.838056 0.851423 0.452461
0.838773 0.853086 0.467903
0.839139 0.853605 0.471061
0.83917 0.853681 0.471305
0.839231 0.853773 0.471366
0.839292 0.853803 0.471305
0.839307 0.853849 0.471199
0.839338 0.85388 0.471168
0.839368 0.85391 0.471305
0.839353 0.853925 0.471595
0.285069 0.858549 0.615274
0.285771 0.858381 0.61445
0.286442 0.858228 0.613413
0.287083 0.858106 0.61236
0.287663 0.858091 0.610636
0.288411 0.857984 0.608896
0.289906 0.857664 0.606058
0.29189 0.856886 0.602304
0.294728 0.855894 0.596948
0.29926 0.854398 0.588693
0.303349 0.852186 0.577188
0.304723 0.847105 0.560601
0.310475 0.842527 0.541619
0.316075 0.837308 0.519677
0.335302 0.833051 0.493324
0.416068 0.832029 0.482704
0.512856 0.832731 0.483177
0.57615 0.835386 0.478447
0.624689 0.843229 0.440772
0.684352 0.847303 0.412451
0.753262 0.846998 0.400641
0.795239 0.847242 0.403571
0.82385 0.845243 0.421103
0.837827 0.851102 0.449577
0.838651 0.852918 0.466407
0.839078 0.853513 0.470787
0.839155 0.853605 0.470909
0.839185 0.853666 0.470924
0.839246 0.853712 0.470893
0.839292 0.853758 0.470848
0.839307 0.853773 0.470832
0.839338 0.853803 0.470924
0.839323 0.853834 0.471061
0.284428 0.858671 0.616266
0.285359 0.858488 0.615
0.286015 0.858351 0.613962
0.286671 0.858213 0.613062
0.287358 0.858137 0.611505
0.287999 0.858091 0.609613
0.289281 0.857862 0.606989
0.291447 0.857099 0.603189
0.294331 0.856107 0.597635
0.29868 0.854627 0.589578
0.303319 0.852384 0.578088
0.304524 0.84741 0.561425
0.310201 0.842802 0.542245
0.315679 0.837629 0.52047
0.332784 0.83331 0.493828
0.412329 0.832334 0.482963
0.50959 0.8327 0.482811
0.574426 0.834882 0.478767
0.622492 0.842939 0.4421
0.679545 0.847562 0.41355
