bundles/resolve-cinematic-luts/Phantom Luts/P4k & P6K Phntm Film LUTs - V6/P4K/Gen 5 Colour/Standard (No WB Offset)/P4k Vision Gen5-Legacy.cube
TITLE "Generated by Resolve"
LUT_3D_SIZE 9
0.0236057 0.0332036 0.0244907
0.0301976 0.0371557 0.0255131
0.0793927 0.0417334 0.0285801
0.251331 0.0459907 0.0272221
0.526909 0.0869306 0.0562295
0.779782 0.153323 0.12256
0.784375 0.15462 0.125093
0.784024 0.157748 0.124941
0.784726 0.162631 0.12398
0.0262608 0.0481117 0.033463
0.0307164 0.0477455 0.0295567
0.0856641 0.0493477 0.0320134
0.259663 0.0488594 0.0291295
0.537545 0.0925765 0.0600748
0.775006 0.158724 0.121553
0.780972 0.162951 0.124865
0.778759 0.166476 0.122499
0.785672 0.171344 0.124041
0.0325322 0.105394 0.0561685
0.0332799 0.103883 0.0496071
0.0593118 0.108431 0.0413367
0.301823 0.0885939 0.0424353
0.551949 0.115526 0.0718395
0.784009 0.177905 0.127047
0.7841 0.182376 0.12752
0.787533 0.200961 0.132586
0.792889 0.224506 0.140078
0.0521096 0.313878 0.14432
0.0510262 0.313069 0.133288
0.0524605 0.304219 0.106813
0.192111 0.331075 0.0713054
0.64123 0.343572 0.138598
0.792416 0.368902 0.205997
0.792096 0.368872 0.205905
0.791882 0.382589 0.211109
0.793866 0.40853 0.222522
0.139513 0.633753 0.398886
0.142458 0.631937 0.388006
0.148165 0.627054 0.363958
0.149935 0.598032 0.25124
0.50074 0.641428 0.155276
0.843626 0.709026 0.352789
0.843839 0.715862 0.365927
0.843809 0.716594 0.357992
0.843931 0.709911 0.372732
0.290929 0.856886 0.605295
0.293492 0.856428 0.59881
0.300008 0.854154 0.585992
0.310552 0.840787 0.534295
0.524117 0.83064 0.464561
0.779934 0.84593 0.365209
0.838941 0.851774 0.454765
0.838941 0.851469 0.452018
0.839063 0.850019 0.444053
0.285771 0.85832 0.614618
0.288045 0.858015 0.609689
0.295232 0.855726 0.595773
0.310735 0.842252 0.540902
0.515114 0.832471 0.482918
0.756954 0.846922 0.400153
0.838773 0.853086 0.467903
0.839292 0.853803 0.471305
0.839353 0.853925 0.471595
0.283879 0.85864 0.617792
0.286915 0.858045 0.612985
0.293782 0.855955 0.599435
0.310216 0.842817 0.546044
0.498512 0.831693 0.482155
0.74052 0.846799 0.402335
0.838392 0.852491 0.46363
0.839033 0.853544 0.471672
0.839246 0.853651 0.470253
0.283055 0.859098 0.618097
0.286244 0.858427 0.61326
0.290929 0.857069 0.604639
0.304738 0.847684 0.564401
0.397086 0.83125 0.48397
0.665309 0.84712 0.418387
0.83331 0.848783 0.437339
0.839063 0.853391 0.469581
0.839323 0.853544 0.468406
0.0223697 0.0348821 0.0327764
0.0346685 0.0353094 0.03505
0.104814 0.0339361 0.0356909
0.325429 0.047303 0.0375525
0.609552 0.0958114 0.076524
0.791547 0.144518 0.124453
0.793057 0.148959 0.126314
0.792569 0.152392 0.126421
0.789975 0.158343 0.123674
0.0251316 0.0441444 0.0335699
0.0314488 0.0435645 0.0347753
0.0936446 0.0428626 0.030869
0.275044 0.0453651 0.0285496
0.558572 0.0892195 0.0630655
0.788174 0.151232 0.123445
0.788968 0.154635 0.1243
0.787015 0.159838 0.12459
0.785733 0.167193 0.122164
0.0299229 0.0998245 0.0625925
0.031693 0.0986801 0.0540017
0.0564431 0.103929 0.0411078
0.301732 0.0814679 0.0406195
0.555779 0.109941 0.0700694
0.782452 0.168826 0.123369
0.78526 0.176333 0.126497
0.789014 0.192172 0.129931
0.794675 0.220188 0.137911
0.0482795 0.306752 0.151858
0.049836 0.30631 0.140658
0.0497902 0.302083 0.112215
0.188449 0.326314 0.070634
0.64033 0.334585 0.139483
0.792737 0.358557 0.200504
0.792538 0.358267 0.200168
0.793042 0.379431 0.209842
0.794339 0.407202 0.221683
0.133425 0.630259 0.404379
0.135119 0.627649 0.392996
0.144854 0.624338 0.372656
0.147478 0.596628 0.257603
0.498466 0.638514 0.153994
0.843061 0.70753 0.357565
0.843275 0.710246 0.366369
0.843565 0.71136 0.360464
0.842863 0.703227 0.371649
0.288136 0.857771 0.610147
0.290623 0.857359 0.604944
0.29659 0.855421 0.591943
0.308995 0.841932 0.539101
0.515938 0.829786 0.460914
0.776852 0.846021 0.359075
0.838972 0.85153 0.452522
0.838987 0.851179 0.448585
0.838956 0.848722 0.438575
0.282536 0.85893 0.620295
0.285756 0.85832 0.614664
0.29218 0.856733 0.601602
0.308888 0.84358 0.54696
0.504662 0.832273 0.482383
0.750393 0.847013 0.40145
0.838804 0.853086 0.467674
0.839368 0.854002 0.472145
0.839445 0.854124 0.472343
0.28072 0.859312 0.623194
0.283864 0.858579 0.618051
0.290639 0.856992 0.605661
0.308659 0.844373 0.552956
0.486442 0.831922 0.481621
0.732052 0.846799 0.403586
0.838529 0.852399 0.46186
0.839109 0.853773 0.472663
0.839338 0.85388 0.471229
0.280034 0.859739 0.623331
0.28304 0.859022 0.618418
0.288167 0.857908 0.609766
0.304509 0.85034 0.572198
0.38146 0.830991 0.483803
0.659068 0.846876 0.420844
0.832197 0.84831 0.435142
0.83917 0.85362 0.470802
0.839384 0.853758 0.469749
0.0262913 0.0357824 0.0935378
0.0424353 0.0369116 0.0902113
0.101198 0.037232 0.0813153
0.32462 0.0254978 0.0906844
0.65507 0.0796826 0.107271
0.798886 0.137438 0.146258
0.798108 0.139361 0.144076
0.797314 0.14052 0.13875
0.797101 0.142504 0.127581
0.024918 0.0437171 0.0793317
0.0263828 0.035523 0.088426
0.0896925 0.0373693 0.0743572
0.315862 0.0284276 0.0683452
0.64773 0.0956436 0.0965591
0.795682 0.139101 0.13373
0.795193 0.140948 0.131777
0.794736 0.143252 0.127718
0.797177 0.151019 0.125795
0.0266117 0.0954299 0.0787976
0.0268406 0.0935225 0.078172
0.0812543 0.0983139 0.0864271
0.311147 0.0693065 0.0488594
0.595575 0.101122 0.0742657
0.786435 0.153903 0.123964
0.786267 0.16112 0.125566
0.786145 0.175692 0.126467
0.792248 0.200778 0.131945
0.0393683 0.294881 0.17583
0.0417639 0.293141 0.162478
0.0480507 0.290745 0.13434
0.183276 0.317189 0.0714275
0.640162 0.314122 0.141787
0.792157 0.337957 0.191135
0.792111 0.347234 0.19559
0.792752 0.372702 0.206455
0.794339 0.402274 0.218799
0.121218 0.6224 0.415778
0.12285 0.620172 0.405798
0.129961 0.615961 0.385763
0.142504 0.595422 0.274403
0.49514 0.631479 0.150805
0.841093 0.697734 0.35816
0.840452 0.699428 0.364889
0.840574 0.700282 0.361837
0.841093 0.695399 0.360265
0.281971 0.858854 0.622003
0.284596 0.858701 0.615793
0.290394 0.857557 0.605127
0.305226 0.844572 0.551385
0.502205 0.829465 0.457069
0.772335 0.845304 0.349004
0.838926 0.85127 0.450278
0.838926 0.850843 0.445579
0.8392 0.847013 0.431601
0.275517 0.86067 0.634043
0.278264 0.859953 0.628412
0.285603 0.858396 0.614816
0.305333 0.847486 0.561913
0.484108 0.832151 0.480964
0.73843 0.84712 0.405417
0.838819 0.853132 0.468162
0.839551 0.854414 0.474952
0.839628 0.854459 0.474876
0.274372 0.861051 0.637736
0.276844 0.86041 0.631113
0.28365 0.858518 0.618677
0.305272 0.848844 0.568139
0.461021 0.831861 0.481392
0.717037 0.847196 0.409461
0.83801 0.851774 0.457206
0.839231 0.8542 0.475731
0.839475 0.854261 0.473533
0.275395 0.861036 0.633722
0.278065 0.860136 0.628397
0.28304 0.858793 0.619379
0.303899 0.852903 0.583627
0.36231 0.83183 0.486229
0.648707 0.845914 0.425772
0.828199 0.847364 0.432547
0.839323 0.854017 0.472602
0.839536 0.854109 0.471443
0.0430152 0.0455329 0.286351
0.0586252 0.0464942 0.28275
0.114717 0.0429847 0.265568
0.304768 0.0340581 0.226749
0.607095 0.0637827 0.308675
0.779706 0.0881208 0.346975
0.793545 0.102174 0.308064
0.802167 0.114183 0.266072
0.808194 0.122683 0.213062
0.0343481 0.0473182 0.288426
0.0423743 0.0452583 0.283513
0.0922103 0.0423133 0.273777
0.2972 0.0336004 0.220645
0.607782 0.0620127 0.297444
0.789532 0.0966354 0.314397
0.801999 0.114412 0.271061
0.805127 0.118685 0.248905
0.808835 0.125948 0.193423
0.0325322 0.0754559 0.271275
0.0337835 0.0652476 0.277775
0.0529335 0.0569772 0.292439
0.282856 0.0362554 0.208972
0.596658 0.0536507 0.259449
0.80499 0.120806 0.247227
0.8065 0.126375 0.22446
0.806577 0.131563 0.194476
0.80209 0.142321 0.145052
0.0218509 0.280247 0.263096
0.0218662 0.277852 0.260349
0.022446 0.272145 0.254185
0.304326 0.322026 0.296864
0.655863 0.282734 0.236088
0.810529 0.275517 0.212863
0.80647 0.275959 0.202106
0.802152 0.294209 0.201022
0.797086 0.336828 0.206104
0.0726635 0.603891 0.474571
0.0747082 0.601633 0.466331
0.0822766 0.59646 0.448341
0.124224 0.588418 0.368856
0.500847 0.615793 0.205692
0.829328 0.650507 0.365942
0.828351 0.653681 0.371695
0.829374 0.655909 0.371771
0.833234 0.661692 0.357153
0.259571 0.85922 0.661295
0.260121 0.858869 0.654948
0.26305 0.856565 0.642145
0.28278 0.846433 0.593149
0.434287 0.828367 0.455497
0.75404 0.842969 0.326162
0.839658 0.848875 0.44654
0.839582 0.847944 0.443198
0.841199 0.84123 0.42681
0.255711 0.867781 0.686442
0.261387 0.866712 0.678386
0.265507 0.86508 0.663172
0.286702 0.858289 0.615122
0.40087 0.833371 0.495872
0.694438 0.849134 0.426108
0.837736 0.852384 0.460807
0.840085 0.855573 0.483589
0.840055 0.855436 0.482307
0.252476 0.868559 0.690761
0.259174 0.867216 0.681666
0.264408 0.865293 0.665766
0.284566 0.858473 0.619486
0.374334 0.832715 0.49575
0.674266 0.848508 0.430762
0.829953 0.848661 0.444282
0.839826 0.855451 0.485161
0.839994 0.855375 0.482109
0.262669 0.866239 0.672526
0.264469 0.86537 0.665232
0.268437 0.86389 0.654185
0.283055 0.858701 0.620539
0.33019 0.834974 0.511147
0.626276 0.843229 0.450492
0.816281 0.847593 0.421347
0.839765 0.855085 0.48069
0.839963 0.855131 0.479225
0.086244 0.0785229 0.511986
0.100557 0.0789502 0.509758
0.14696 0.0785229 0.506203
0.341253 0.0675975 0.46865
0.601648 0.071809 0.487236
0.784237 0.157534 0.560388
0.778363 0.148577 0.57499
0.788724 0.165866 0.557443
0.78378 0.114672 0.477256
0.0708934 0.0769513 0.512688
0.0861219 0.0783398 0.511452
0.12726 0.0796368 0.508675
0.328161 0.0658579 0.469566
0.597757 0.071397 0.483711
0.787045 0.161746 0.556237
0.782666 0.152773 0.569497
0.792065 0.173693 0.542397
0.780591 0.10811 0.461036
0.0543984 0.0804608 0.509544
0.0551766 0.0744182 0.508949
0.088304 0.0775311 0.506615
0.294408 0.0630961 0.470237
0.584085 0.0699321 0.472251
0.790799 0.160342 0.543511
0.790722 0.162966 0.544182
0.784085 0.129854 0.499657
0.775372 0.104112 0.440146
0.0518196 0.265675 0.570596
0.0531167 0.258732 0.573831
0.0551766 0.241154 0.578332
0.218219 0.199741 0.586038
0.625071 0.162066 0.52137
0.802976 0.164889 0.526375
0.792721 0.137469 0.492958
0.772763 0.105699 0.447166
0.802167 0.127977 0.389242
0.0386053 0.588922 0.595483
0.0379339 0.586862 0.593652
0.0370336 0.582086 0.588754
0.0411383 0.571618 0.577295
0.604654 0.620829 0.59881
0.852811 0.606043 0.561822
0.850141 0.600351 0.543008
0.842939 0.596017 0.522042
0.829816 0.575967 0.469306
0.151827 0.85687 0.773388
0.146883 0.855665 0.768185
0.141085 0.851408 0.756725
0.159472 0.838697 0.716228
0.485084 0.826444 0.655344
0.76144 0.842695 0.557092
0.857816 0.829175 0.545937
0.858473 0.8262 0.54049
0.85655 0.814221 0.498772
0.214176 0.88867 0.817334
0.202441 0.889174 0.81091
0.18407 0.888884 0.799329
0.202792 0.881621 0.757107
0.409598 0.860731 0.666987
0.701778 0.86183 0.617548
0.833692 0.858885 0.52166
0.846464 0.871214 0.582712
0.845777 0.86894 0.572106
0.216709 0.889418 0.820706
0.20618 0.889311 0.812757
0.185931 0.888899 0.799573
0.200977 0.881758 0.757321
0.35964 0.860212 0.653925
0.680873 0.857038 0.614618
0.817731 0.855024 0.500145
0.846082 0.869886 0.575723
0.845365 0.868025 0.565713
0.176806 0.888411 0.793103
0.180346 0.887068 0.782467
0.190402 0.884184 0.767407
0.220478 0.876417 0.730114
0.299428 0.85951 0.629908
0.611444 0.845319 0.572168
0.796567 0.852644 0.462867
0.843015 0.864118 0.541421
0.84387 0.865766 0.550835
0.183566 0.157733 0.744045
0.202014 0.156817 0.742321
0.245075 0.156481 0.741878
0.39649 0.137591 0.737789
0.684199 0.187198 0.73727
0.799573 0.171389 0.761517
0.800641 0.173678 0.766171
0.800717 0.173693 0.766232
0.800793 0.173846 0.766308
0.165805 0.157626 0.743999
0.182605 0.156725 0.742
0.224491 0.156359 0.740826
0.382635 0.135744 0.736477
0.675685 0.183871 0.733959
0.798611 0.170352 0.758144
0.800809 0.175097 0.766491
0.800793 0.175067 0.766506
0.79971 0.172946 0.761227
0.13228 0.152758 0.739422
0.146151 0.154147 0.739437
0.18027 0.153597 0.73608
0.345983 0.132372 0.734127
0.656153 0.176974 0.727062
0.797284 0.169604 0.750057
0.800168 0.17438 0.762402
0.800916 0.176135 0.765606
0.793759 0.167102 0.732738
0.0908217 0.21799 0.742992
0.0898756 0.208423 0.739864
0.0910506 0.186725 0.731182
0.216526 0.170489 0.743679
0.593729 0.165957 0.717418
0.796323 0.163302 0.720592
0.796872 0.166247 0.725795
0.798489 0.168719 0.729168
0.775509 0.120394 0.650202
0.0337835 0.607065 0.83888
0.035874 0.602869 0.839582
0.0395361 0.597513 0.843519
0.0652934 0.582727 0.867491
0.566949 0.55671 0.868162
0.883284 0.561837 0.818067
0.884871 0.556054 0.813993
0.879927 0.549783 0.792447
0.866224 0.503349 0.717952
0.16051 0.850065 0.861784
0.153933 0.84802 0.860014
0.143954 0.844129 0.854887
0.144793 0.832395 0.842512
0.471962 0.823346 0.81973
0.815671 0.839399 0.823911
0.896223 0.834241 0.804944
0.895903 0.834165 0.797467
0.891035 0.824735 0.772015
0.355734 0.897047 0.891325
0.348837 0.896544 0.888594
0.339803 0.896147 0.884153
0.326497 0.895216 0.872206
0.455116 0.891402 0.839002
0.747707 0.907332 0.827527
0.863493 0.918654 0.79855
0.879911 0.919539 0.799771
0.877226 0.91606 0.785367
0.360845 0.897459 0.894133
0.352178 0.897185 0.890578
0.342428 0.896056 0.884855
0.323583 0.895186 0.872129
0.417121 0.891096 0.833463
0.71284 0.903349 0.817945
0.8495 0.919783 0.80824
0.873564 0.914229 0.768277
0.872694 0.911299 0.756756
0.332006 0.89543 0.879911
0.321431 0.895491 0.875761
0.31075 0.895338 0.871336
0.28574 0.894774 0.860258
0.300755 0.887922 0.813886
0.655573 0.890715 0.78999
0.822431 0.907591 0.775784
0.86717 0.90518 0.733089
0.867933 0.9066 0.739498
0.219974 0.173358 0.767758
0.237568 0.174121 0.768948
0.279667 0.174182 0.771023
0.427558 0.156847 0.768261
0.710094 0.206821 0.76054
0.801389 0.175814 0.767636
0.801007 0.175097 0.766812
0.801007 0.175006 0.766705
0.800961 0.174945 0.766598
0.201984 0.172396 0.766445
0.219471 0.173358 0.767773
0.260914 0.174395 0.770291
0.414221 0.155856 0.769268
0.70222 0.204791 0.760388
0.801877 0.176501 0.768383
0.801602 0.176074 0.767926
0.801541 0.175952 0.767788
0.801434 0.17583 0.767666
0.162219 0.170062 0.764553
0.178912 0.171283 0.765255
0.218952 0.173342 0.767758
0.379705 0.153826 0.771191
0.681987 0.199908 0.760266
0.802716 0.178347 0.769436
0.802945 0.178653 0.769772
0.802991 0.178744 0.769879
0.802853 0.178531 0.769635
0.110597 0.222522 0.788891
0.108736 0.211719 0.780606
0.105928 0.188357 0.764172
0.247272 0.182254 0.774655
0.605219 0.178485 0.762676
0.805035 0.185077 0.773556
0.805631 0.187411 0.774945
0.806134 0.188647 0.775326
0.805859 0.187961 0.775174
0.0703593 0.622202 0.921965
0.0721141 0.617899 0.921798
0.0765698 0.610636 0.920897
0.0963607 0.586328 0.919478
0.5617 0.546349 0.917815
0.879927 0.550103 0.868299
0.884947 0.543435 0.866743
0.884627 0.542138 0.866361
0.879149 0.51725 0.860578
0.299535 0.840131 0.931151
0.295003 0.837598 0.931228
0.285054 0.833509 0.931167
0.268162 0.82179 0.931289
0.500877 0.820768 0.932464
0.791974 0.814496 0.936812
0.90988 0.804242 0.910597
0.910277 0.800015 0.908873
0.911025 0.777127 0.888289
0.476295 0.89572 0.916625
0.471839 0.896056 0.916548
0.461845 0.895766 0.915663
0.430182 0.895613 0.910674
0.492409 0.895003 0.90161
0.75462 0.915602 0.901289
0.899351 0.93637 0.919234
0.915694 0.935271 0.918013
0.911437 0.93051 0.90898
0.48397 0.895964 0.917189
0.48397 0.895964 0.917189
0.477455 0.896101 0.916671
0.44509 0.896498 0.911025
0.485374 0.898955 0.897383
0.743862 0.921004 0.902251
0.871138 0.944991 0.916991
0.913497 0.942763 0.91162
0.913146 0.942565 0.911223
0.466789 0.895979 0.91606
0.459709 0.896071 0.915129
0.446403 0.896422 0.912337
0.41738 0.897063 0.907301
0.407523 0.896391 0.888197
0.683986 0.912139 0.886549
0.845884 0.940078 0.903563
0.910613 0.941558 0.907454
0.909041 0.940856 0.9028
0.227222 0.173999 0.76846
0.24506 0.173831 0.768948
0.287816 0.17377 0.771237
0.437003 0.157351 0.767544
0.718685 0.20499 0.761166
0.800809 0.173785 0.766278
0.801221 0.175631 0.767407
0.801038 0.175357 0.767071
0.801022 0.175265 0.766934
0.209857 0.172595 0.766842
0.226673 0.173983 0.768429
0.268956 0.174533 0.770657
0.423194 0.156603 0.76875
0.710842 0.207019 0.760525
0.801038 0.174746 0.766613
0.801892 0.176593 0.768475
0.801816 0.17641 0.768292
0.80174 0.176303 0.768139
0.16788 0.170672 0.764797
0.185855 0.171878 0.765881
0.226123 0.173968 0.768383
0.388556 0.154284 0.770733
0.689494 0.201343 0.760113
0.801617 0.17615 0.767941
0.803204 0.179156 0.77023
0.803204 0.179141 0.770214
0.803113 0.178943 0.770047
0.109941 0.217075 0.784131
0.108049 0.205447 0.775448
0.105394 0.181521 0.75906
0.250111 0.178805 0.772427
0.609308 0.178882 0.761395
0.804608 0.183886 0.772793
0.805646 0.187442 0.774945
0.806088 0.18851 0.775296
0.805814 0.187854 0.775128
0.0720531 0.622278 0.922026
0.0748913 0.617166 0.92192
0.0784924 0.608042 0.920897
0.0981918 0.580346 0.918853
0.560555 0.537118 0.916732
0.876951 0.540856 0.865812
0.882521 0.533104 0.864012
0.882811 0.531106 0.864195
0.876127 0.504387 0.857237
0.351263 0.840925 0.930449
0.346777 0.838727 0.93106
0.336385 0.83386 0.930831
0.30988 0.821973 0.931105
0.495216 0.815183 0.935256
0.788342 0.808515 0.940993
0.909636 0.798184 0.91664
0.909361 0.792615 0.915679
0.909697 0.775021 0.913405
0.48397 0.895964 0.917189
0.48397 0.895964 0.917189
0.481117 0.895781 0.917556
0.458488 0.892927 0.919753
0.531304 0.889708 0.918486
0.779507 0.916594 0.923232
0.887434 0.931777 0.932555
0.910002 0.927672 0.931472
0.910246 0.920851 0.932113
0.48397 0.895964 0.917189
0.48397 0.895964 0.917189
0.48397 0.895964 0.917189
0.487648 0.896056 0.91722
0.549676 0.898863 0.914702
0.760388 0.924163 0.917311
0.882063 0.946807 0.930724
0.914061 0.949981 0.932815
0.914061 0.949981 0.932815
0.48397 0.895964 0.917189
0.48397 0.895964 0.917189
0.48397 0.895964 0.917189
0.485771 0.89601 0.917174
0.499413 0.896986 0.914565
0.712169 0.917082 0.915663
0.865248 0.944503 0.92874
0.913802 0.949798 0.933257
0.914061 0.949981 0.932815
0.22977 0.17406 0.768536
0.247395 0.173953 0.769192
0.289662 0.173816 0.771405
0.436576 0.157351 0.767636
0.718166 0.205203 0.760998
0.800275 0.172381 0.765484
0.80145 0.17586 0.767681
0.801114 0.17554 0.767254
0.801068 0.175433 0.767132
0.212161 0.172824 0.767193
0.229252 0.173983 0.76846
0.270817 0.174365 0.770535
0.42298 0.156573 0.76875
0.709499 0.206607 0.760449
0.800595 0.173251 0.765957
0.801953 0.176745 0.768566
0.801877 0.176516 0.768444
0.801831 0.17644 0.768338
0.171221 0.17052 0.764691
0.189014 0.171969 0.765927
0.228473 0.173968 0.768414
0.388449 0.154269 0.770703
0.687877 0.200946 0.760082
0.801007 0.175067 0.766735
0.80322 0.179294 0.770306
0.80322 0.179232 0.770275
0.803143 0.179034 0.770123
0.109148 0.211368 0.780331
0.107805 0.199756 0.772213
0.105165 0.1776 0.75668
0.250919 0.176837 0.771695
0.607935 0.178134 0.761517
0.804089 0.182879 0.772091
0.80557 0.187259 0.774884
0.805951 0.18819 0.775204
0.805676 0.187533 0.77499
0.0759594 0.616129 0.921996
0.0776074 0.610651 0.920882
0.0810712 0.602716 0.920165
0.101122 0.573434 0.917861
0.55523 0.528542 0.914672
0.874403 0.530205 0.863432
0.880613 0.52195 0.861692
0.879591 0.518807 0.860975
0.873075 0.491173 0.854047
0.346532 0.838666 0.93109
0.341299 0.836271 0.930968
0.330083 0.830991 0.931167
0.299962 0.818402 0.931182
0.482261 0.810056 0.935683
0.783261 0.800763 0.941085
0.909728 0.789868 0.915648
0.909499 0.784039 0.914519
0.909865 0.766018 0.912291
0.48397 0.895964 0.917189
0.48397 0.895964 0.917189
0.47686 0.895079 0.917754
0.448783 0.891493 0.920546
0.522454 0.886687 0.920119
0.773709 0.9122 0.924437
0.884459 0.927687 0.932433
0.909834 0.922835 0.93167
0.910597 0.916442 0.932189
0.48397 0.895964 0.917189
0.48397 0.895964 0.917189
0.48397 0.895964 0.917189
0.487373 0.896056 0.917205
0.54374 0.898711 0.91545
0.757183 0.923491 0.916899
0.886931 0.947326 0.931273
0.914061 0.949981 0.932815
0.914061 0.949981 0.932815
0.48397 0.895964 0.917189
0.48397 0.895964 0.917189
0.48397 0.895964 0.917189
0.485771 0.89601 0.917174
0.509636 0.896605 0.916793
0.72311 0.918868 0.916426
0.86743 0.944762 0.928893
0.913924 0.94995 0.93283
0.914061 0.949981 0.932815
