bundles/resolve-cinematic-luts/Phantom Luts/P4k & P6K Phntm Film LUTs - V6/P4K/Gen 5 Colour/Standard (No WB Offset)/P4k Eterna Gen5-Legacy.cube
TITLE "Generated by Resolve"
LUT_3D_SIZE 9
0.0167849 0.0445258 0.0445716
0.0385748 0.049546 0.0495918
0.0967727 0.0605631 0.0511635
0.22446 0.0740368 0.0694896
0.471168 0.110887 0.125261
0.718441 0.160708 0.194049
0.72781 0.166003 0.200534
0.734234 0.166552 0.20354
0.755611 0.164263 0.211551
0.0245212 0.0585946 0.0538949
0.0313726 0.0593423 0.0513771
0.0906844 0.0664988 0.0547036
0.231937 0.0781415 0.0682841
0.492363 0.116136 0.123751
0.730266 0.164248 0.193271
0.734874 0.165042 0.196292
0.736263 0.16492 0.197513
0.752651 0.161181 0.201343
0.0463874 0.11397 0.0803082
0.0408484 0.12549 0.0804303
0.0882124 0.124239 0.0657206
0.289204 0.125704 0.0892958
0.535103 0.14049 0.134493
0.752544 0.183246 0.194842
0.75584 0.185977 0.19585
0.758282 0.187915 0.196597
0.763027 0.187778 0.197803
0.0782788 0.30045 0.168154
0.0601511 0.33875 0.172091
0.0586709 0.357885 0.151598
0.266407 0.364523 0.0805524
0.778378 0.402029 0.176699
0.91165 0.432685 0.251606
0.913771 0.440009 0.252827
0.915221 0.445579 0.253605
0.914565 0.442634 0.252903
0.110491 0.722637 0.390066
0.107774 0.759533 0.405554
0.11632 0.779049 0.40473
0.135149 0.758206 0.287129
0.646723 0.778515 0.180072
0.957443 0.819394 0.357153
0.95967 0.819837 0.385595
0.959167 0.818433 0.385595
0.959976 0.810941 0.390127
0.261891 0.931258 0.579522
0.248005 0.935409 0.574975
0.242451 0.936812 0.56527
0.252705 0.934112 0.521111
0.509514 0.946197 0.378607
0.91577 0.950195 0.464714
0.96289 0.955154 0.607874
0.962051 0.95555 0.599802
0.962219 0.955337 0.595254
0.250401 0.934157 0.591699
0.252644 0.93373 0.586526
0.251835 0.934203 0.576989
0.255818 0.933043 0.539391
0.333623 0.936706 0.412055
0.857527 0.948302 0.441855
0.965393 0.953796 0.613046
0.963729 0.954849 0.621805
0.962982 0.955276 0.621668
0.240909 0.936538 0.596719
0.251438 0.933898 0.590997
0.265629 0.930053 0.582361
0.267643 0.929366 0.553994
0.301015 0.928176 0.458747
0.760784 0.943526 0.415106
0.959472 0.949752 0.567788
0.964538 0.954345 0.621134
0.960388 0.956664 0.617304
0.236515 0.937713 0.599008
0.240711 0.936721 0.593072
0.253712 0.933455 0.585855
0.26453 0.930388 0.56286
0.288029 0.928374 0.48333
0.626902 0.943542 0.397436
0.934951 0.947524 0.507103
0.964004 0.954635 0.619852
0.959228 0.957259 0.615686
0.0181888 0.0466163 0.0547799
0.0383917 0.0478065 0.0577096
0.0849622 0.0539864 0.0620127
0.219867 0.0692607 0.086183
0.483726 0.113146 0.146044
0.743938 0.161761 0.209949
0.756069 0.169726 0.218021
0.762631 0.171923 0.222812
0.778866 0.171008 0.229877
0.0214847 0.051606 0.0502022
0.0262455 0.0500649 0.0514076
0.0979629 0.0630961 0.0609598
0.249836 0.0749981 0.0782788
0.501579 0.106615 0.131121
0.746563 0.157259 0.201068
0.751934 0.161318 0.206729
0.755932 0.164096 0.210849
0.769268 0.163546 0.216526
0.0443885 0.106981 0.0860151
0.0403601 0.11577 0.0852064
0.0872816 0.12108 0.0669413
0.286931 0.1178 0.0882887
0.520409 0.130846 0.130449
0.753216 0.175921 0.194369
0.756741 0.1776 0.196277
0.758038 0.178622 0.196902
0.762081 0.177859 0.197925
0.0729839 0.287587 0.173526
0.0623941 0.321813 0.177508
0.0612955 0.352682 0.165118
0.265507 0.361532 0.0809949
0.765576 0.400046 0.172244
0.911315 0.431144 0.251225
0.914076 0.441169 0.252659
0.916274 0.44918 0.253864
0.914778 0.443778 0.252537
0.0977646 0.703319 0.386404
0.0918135 0.733196 0.396948
0.101656 0.755032 0.3935
0.126207 0.749813 0.28896
0.636667 0.769787 0.172305
0.956344 0.817838 0.353994
0.958419 0.821042 0.385763
0.95848 0.818738 0.38764
0.95935 0.809888 0.390631
0.258091 0.932097 0.58822
0.246189 0.935622 0.583673
0.242237 0.937041 0.570214
0.253025 0.934234 0.517479
0.497597 0.946502 0.37525
0.913375 0.950423 0.459709
0.962402 0.955398 0.60708
0.961547 0.95581 0.598932
0.96173 0.955581 0.593759
0.247532 0.934432 0.605295
0.250584 0.933806 0.598886
0.251469 0.934127 0.585229
0.257542 0.932891 0.535286
0.343984 0.937728 0.406744
0.852705 0.948272 0.439811
0.96527 0.953887 0.612894
0.963577 0.95494 0.622644
0.962844 0.955367 0.622599
0.240284 0.936461 0.613367
0.251682 0.933242 0.605829
0.264927 0.929976 0.592676
0.268299 0.929503 0.553277
0.309621 0.928893 0.445243
0.758953 0.943343 0.415
0.958404 0.949187 0.564935
0.964553 0.95436 0.622354
0.960388 0.956695 0.618448
0.236286 0.937636 0.617334
0.240406 0.9364 0.609567
0.252949 0.933165 0.59823
0.264637 0.930571 0.566964
0.293523 0.928725 0.470527
0.650599 0.943648 0.398917
0.933822 0.947646 0.505821
0.964019 0.95465 0.621073
0.959243 0.957275 0.616815
0.0195926 0.0477913 0.0848249
0.0448005 0.0503548 0.0912337
0.0962692 0.0552682 0.0816205
0.227878 0.0618601 0.10164
0.471916 0.108782 0.154177
0.7608 0.17232 0.228595
0.775296 0.181018 0.244434
0.782971 0.181476 0.257053
0.795377 0.175174 0.268376
0.0248112 0.0581216 0.0671702
0.0205081 0.0500191 0.0916609
0.0964828 0.0569924 0.0872663
0.251865 0.069337 0.104112
0.503273 0.113527 0.161273
0.768215 0.172351 0.229618
0.782925 0.18027 0.251072
0.786892 0.178592 0.264683
0.795911 0.17084 0.276783
0.0436103 0.103609 0.0929885
0.0400244 0.108629 0.101503
0.0912947 0.109407 0.106447
0.296895 0.104036 0.107729
0.548211 0.117617 0.148379
0.754299 0.163607 0.209293
0.766842 0.172427 0.223011
0.776425 0.179156 0.235248
0.785031 0.178759 0.247364
0.0728771 0.269139 0.186343
0.0644388 0.300114 0.198062
0.0647288 0.325597 0.186648
0.261997 0.353841 0.0836194
0.762585 0.378302 0.173266
0.90544 0.41001 0.249149
0.910475 0.424384 0.252186
0.911131 0.425864 0.252735
0.908614 0.415076 0.251759
0.0836194 0.671885 0.397986
0.0754711 0.698924 0.412268
0.0827802 0.721935 0.404929
0.112551 0.736416 0.307958
0.624445 0.754849 0.165042
0.957092 0.804044 0.359518
0.958831 0.811353 0.401694
0.958694 0.809964 0.40354
0.959014 0.798199 0.398138
0.259525 0.930312 0.61622
0.243992 0.934752 0.616739
0.23917 0.936065 0.599222
0.249577 0.934447 0.533135
0.455253 0.94522 0.370535
0.905333 0.950271 0.440742
0.96257 0.955306 0.606394
0.961578 0.95581 0.599741
0.961654 0.955612 0.592721
0.249348 0.934905 0.649927
0.250538 0.934401 0.646677
0.250965 0.93373 0.628107
0.255146 0.934264 0.565011
0.354116 0.939666 0.409918
0.836378 0.947753 0.437415
0.96527 0.953887 0.611643
0.963623 0.955001 0.626307
0.96286 0.955444 0.6262
0.245045 0.937057 0.66949
0.247684 0.935927 0.662074
0.265827 0.929854 0.64152
0.266285 0.929992 0.588891
0.312551 0.929152 0.44918
0.750744 0.943069 0.418326
0.954452 0.947433 0.553887
0.964675 0.954391 0.625895
0.960433 0.956741 0.622568
0.242908 0.938064 0.677028
0.24332 0.937469 0.668666
0.255268 0.933257 0.65095
0.262623 0.93019 0.606851
0.290639 0.928969 0.481209
0.668666 0.943542 0.40824
0.930663 0.948684 0.502724
0.964111 0.954696 0.624643
0.958938 0.957488 0.620386
0.033051 0.0507515 0.172869
0.0489357 0.053666 0.199985
0.10985 0.0594644 0.166323
0.254841 0.0708629 0.146487
0.47866 0.0911269 0.183871
0.773495 0.171298 0.26099
0.770886 0.160372 0.279133
0.761059 0.139284 0.297658
0.76611 0.116197 0.325338
0.0244755 0.0584726 0.146197
0.0253758 0.0512245 0.190723
0.0897078 0.0579995 0.216236
0.267262 0.0751354 0.166979
0.489097 0.0830091 0.200244
0.772076 0.1552 0.28014
0.757015 0.128298 0.30721
0.74052 0.10573 0.335683
0.757259 0.0992599 0.379782
0.0397345 0.102327 0.135454
0.0320897 0.0999466 0.176608
0.0295872 0.0640574 0.232837
0.291997 0.0929732 0.202869
0.526177 0.0837415 0.228397
0.755825 0.141711 0.296635
0.729564 0.110994 0.325582
0.729854 0.106706 0.359228
0.74786 0.102586 0.393988
0.0726329 0.253605 0.212085
0.0657206 0.27834 0.237552
0.0665446 0.298177 0.26096
0.304601 0.322591 0.294087
0.720806 0.31603 0.293782
0.908797 0.333104 0.326192
0.919005 0.337942 0.355459
0.923003 0.332906 0.37966
0.92047 0.316136 0.391516
0.081178 0.626139 0.438605
0.0654459 0.654017 0.473899
0.0709239 0.672541 0.485222
0.0749065 0.683452 0.402808
0.605463 0.728237 0.195315
0.960616 0.758175 0.441886
0.960113 0.759701 0.483284
0.959899 0.757351 0.48925
0.960525 0.734966 0.465141
0.257328 0.920577 0.671839
0.241032 0.926986 0.688182
0.234058 0.927138 0.680308
0.225498 0.925322 0.611597
0.327077 0.938964 0.421622
0.884199 0.945785 0.404303
0.965927 0.949523 0.608881
0.965072 0.949035 0.607416
0.96495 0.947753 0.598993
0.269642 0.936538 0.742504
0.266636 0.938811 0.751934
0.267674 0.937011 0.739284
0.259831 0.934508 0.672694
0.312993 0.940368 0.516396
0.780789 0.945357 0.449149
0.959243 0.950668 0.585321
0.963897 0.955276 0.646616
0.963012 0.955764 0.646036
0.286275 0.937377 0.774121
0.278721 0.939467 0.776944
0.287892 0.934722 0.759976
0.279194 0.930816 0.702495
0.298802 0.935225 0.561944
0.694057 0.943771 0.462409
0.937179 0.946365 0.523095
0.964874 0.954589 0.640986
0.960601 0.95697 0.638956
0.278462 0.940948 0.787015
0.277836 0.940856 0.784863
0.274052 0.939864 0.771923
0.280385 0.931914 0.72166
0.284901 0.934936 0.598352
0.60795 0.947234 0.480186
0.912139 0.949538 0.500786
0.964736 0.954559 0.634913
0.960739 0.956847 0.636667
0.0603494 0.0603799 0.358465
0.0770123 0.0639506 0.394781
0.11812 0.0671244 0.390417
0.293172 0.0793774 0.324819
0.538827 0.102205 0.311772
0.723247 0.104021 0.3346
0.728115 0.106706 0.350057
0.736019 0.106004 0.382208
0.758373 0.100481 0.427207
0.0369573 0.0557259 0.312963
0.0487068 0.0587625 0.353399
0.0882734 0.0651102 0.39559
0.28278 0.0789197 0.369741
0.532265 0.125216 0.333776
0.732662 0.10518 0.368429
0.736309 0.106401 0.398856
0.771756 0.130053 0.455055
0.818235 0.160967 0.528374
0.0339361 0.0694438 0.262715
0.0302129 0.0665141 0.32108
0.0421607 0.0591135 0.380819
0.260349 0.0794385 0.441169
0.558755 0.120912 0.386603
0.733928 0.108568 0.398657
0.76318 0.13193 0.451728
0.8103 0.175616 0.523796
0.801633 0.162371 0.568139
0.0665599 0.242435 0.300664
0.0449378 0.265354 0.35906
0.0412451 0.285725 0.436179
0.119783 0.249195 0.531533
0.675166 0.213413 0.511208
0.847105 0.195544 0.499916
0.860059 0.212284 0.525948
0.868498 0.228397 0.551797
0.868879 0.226078 0.575998
0.0819257 0.592432 0.499031
0.0660563 0.615641 0.531807
0.0701762 0.635065 0.558282
0.076173 0.634974 0.563531
0.599344 0.636408 0.592264
0.937163 0.643595 0.598138
0.963043 0.65481 0.61854
0.963073 0.658198 0.639399
0.962478 0.639765 0.643565
0.251972 0.895018 0.729259
0.238041 0.900954 0.749096
0.23035 0.897841 0.755215
0.220569 0.889479 0.725032
0.44097 0.918791 0.673228
0.878691 0.932204 0.619272
0.965133 0.914244 0.67628
0.964233 0.910948 0.698604
0.96405 0.906065 0.69633
0.342763 0.941924 0.833799
0.33315 0.948501 0.851316
0.327031 0.949615 0.852842
0.320317 0.944808 0.810651
0.464485 0.956603 0.752712
0.720348 0.951766 0.696483
0.956436 0.949752 0.687556
0.96762 0.956283 0.774197
0.967376 0.956466 0.776547
0.365667 0.948898 0.871611
0.361715 0.951949 0.880247
0.350973 0.953124 0.879118
0.345388 0.947219 0.840742
0.479698 0.953475 0.787045
0.724544 0.950744 0.761364
0.948425 0.950576 0.732677
0.969619 0.954849 0.76231
0.965835 0.957168 0.775464
0.363409 0.953155 0.885527
0.367025 0.95375 0.889921
0.359915 0.954208 0.888045
0.350484 0.949828 0.8589
0.437873 0.952575 0.802853
0.719493 0.951583 0.796429
0.929442 0.953033 0.768704
0.966247 0.9561 0.742809
0.962448 0.958663 0.766979
0.110689 0.0892195 0.558862
0.126223 0.0982834 0.598428
0.155993 0.103395 0.615671
0.308446 0.0990311 0.596521
0.584222 0.107378 0.532494
0.817929 0.184634 0.537102
0.808362 0.174258 0.526375
0.814054 0.176699 0.541314
0.81059 0.163546 0.574228
0.0813764 0.0796368 0.507378
0.0958572 0.0872663 0.554208
0.128771 0.0974746 0.594217
0.260243 0.104295 0.617639
0.583993 0.110979 0.577188
0.78558 0.157839 0.560891
0.774639 0.150134 0.56228
0.745815 0.128618 0.575631
0.746273 0.117113 0.623697
0.0395361 0.0710307 0.446387
0.0443275 0.0753948 0.503319
0.078706 0.0849165 0.549996
0.197208 0.103548 0.614328
0.58555 0.112673 0.634714
0.746944 0.137987 0.565744
0.732769 0.132158 0.564523
0.719066 0.122408 0.594995
0.764218 0.146654 0.682643
0.051606 0.225803 0.481285
0.0431678 0.229068 0.532784
0.0461128 0.234058 0.586557
0.0515145 0.195682 0.634546
0.530495 0.140658 0.708217
0.762112 0.149233 0.589471
0.784344 0.167819 0.59646
0.741588 0.13872 0.592752
0.747921 0.132845 0.632807
0.0933242 0.580438 0.605509
0.0853895 0.591852 0.642466
0.0883803 0.607874 0.684688
0.094667 0.610254 0.735653
0.464668 0.614252 0.86894
0.946715 0.560372 0.808988
0.9635 0.575616 0.792752
0.965011 0.5635 0.81677
0.965927 0.53933 0.843259
0.26331 0.87396 0.781445
0.236301 0.878721 0.793667
0.228977 0.875227 0.798489
0.229801 0.868544 0.792996
0.476295 0.882673 0.819318
0.845747 0.870878 0.837247
0.968475 0.885237 0.858198
0.968811 0.884657 0.864332
0.966751 0.880796 0.863447
0.403326 0.950423 0.896651
0.390097 0.955245 0.907088
0.387869 0.956451 0.910628
0.387411 0.955962 0.897688
0.578973 0.955077 0.893019
0.80383 0.953994 0.894133
0.965408 0.955367 0.877684
0.972137 0.956466 0.904173
0.970581 0.957397 0.913832
0.437537 0.952377 0.918242
0.426749 0.956527 0.926558
0.420676 0.958038 0.928908
0.414145 0.957565 0.91725
0.614206 0.954879 0.911513
0.819409 0.953872 0.914427
0.936355 0.955352 0.898085
0.971283 0.957824 0.88922
0.968322 0.959823 0.908003
0.444327 0.954726 0.927474
0.441596 0.957076 0.9337
0.436042 0.958495 0.935927
0.427207 0.958373 0.926955
0.592706 0.956069 0.920302
0.836301 0.954635 0.92961
0.938842 0.957549 0.929259
0.969436 0.958206 0.90483
0.968902 0.959533 0.90634
0.172503 0.138064 0.696956
0.179263 0.140414 0.703716
0.20296 0.142702 0.712825
0.310063 0.150774 0.74966
0.643702 0.156329 0.787289
0.782788 0.160021 0.750484
0.776471 0.153155 0.731899
0.768734 0.147066 0.713527
0.768627 0.144747 0.71191
0.144106 0.127306 0.675502
0.157977 0.137377 0.694392
0.182162 0.140795 0.704952
0.263081 0.147784 0.73431
0.623301 0.162493 0.802365
0.788006 0.168383 0.776928
0.789227 0.17052 0.780591
0.788312 0.168368 0.775799
0.790005 0.171527 0.783261
0.0932326 0.110384 0.636378
0.110903 0.12256 0.662409
0.142382 0.13611 0.688762
0.204959 0.142947 0.71368
0.564157 0.158251 0.799847
0.792996 0.175479 0.789685
0.790661 0.173007 0.783322
0.791638 0.174197 0.785107
0.793378 0.175891 0.789563
0.0507973 0.191669 0.627176
0.0499275 0.19234 0.647135
0.0517891 0.191196 0.665095
0.0600137 0.177905 0.676829
0.397498 0.165896 0.784665
0.797498 0.179492 0.791577
0.791165 0.173129 0.763149
0.790616 0.171954 0.755901
0.795666 0.175814 0.77438
0.102358 0.603708 0.779034
0.108949 0.605264 0.800031
0.116365 0.611368 0.820279
0.125429 0.611887 0.847669
0.314839 0.613916 0.94931
0.892821 0.535454 0.961257
0.960967 0.519417 0.932433
0.962539 0.542489 0.920348
0.960693 0.523369 0.940322
0.258808 0.872572 0.853773
0.253346 0.869825 0.862776
0.252399 0.860777 0.866529
0.252079 0.849058 0.873838
0.378531 0.856718 0.927977
0.769009 0.86334 0.946395
0.962432 0.830518 0.932998
0.964767 0.832715 0.928008
0.962692 0.823209 0.933074
0.445655 0.956573 0.933455
0.439841 0.958679 0.937453
0.434974 0.958465 0.936675
0.41088 0.956985 0.928923
0.521385 0.954849 0.926726
0.817502 0.952575 0.940795
0.954498 0.956954 0.953124
0.967025 0.956481 0.952041
0.966766 0.957366 0.953933
0.494575 0.954879 0.942824
0.480247 0.959289 0.949477
0.479393 0.959548 0.949706
0.464988 0.959289 0.943557
0.619242 0.958663 0.943587
0.856474 0.959045 0.953719
0.945678 0.9626 0.958526
0.970779 0.961425 0.949401
0.973373 0.961898 0.954635
0.505776 0.957671 0.950378
0.508644 0.959152 0.953811
0.509743 0.959716 0.955077
0.491936 0.959747 0.950484
0.63592 0.958556 0.949554
0.876081 0.959503 0.957229
0.950118 0.963516 0.962158
0.967254 0.96495 0.961013
0.969207 0.963394 0.9561
0.187793 0.141314 0.707012
0.187564 0.141299 0.706935
0.209171 0.143252 0.715099
0.280598 0.148959 0.740001
0.618555 0.162005 0.802152
0.790295 0.172 0.786114
0.790784 0.172534 0.786801
0.790433 0.172152 0.786313
0.790311 0.17203 0.78616
0.16939 0.1393 0.699916
0.169024 0.139269 0.699779
0.189776 0.141558 0.707881
0.242786 0.146227 0.727382
0.568383 0.158816 0.800366
0.790448 0.172168 0.786328
0.791913 0.173754 0.788251
0.791653 0.17348 0.787915
0.791547 0.173358 0.787808
0.128832 0.133608 0.682811
0.12903 0.133684 0.682857
0.148791 0.137026 0.691798
0.190417 0.141619 0.708171
0.48275 0.155077 0.789776
0.789883 0.171572 0.785595
0.793637 0.175891 0.790814
0.793652 0.175906 0.790829
0.793835 0.17612 0.791089
0.0691539 0.209812 0.70428
0.0744488 0.214481 0.712337
0.07393 0.204715 0.70544
0.0696574 0.176638 0.684413
0.286458 0.155612 0.747494
0.78172 0.17879 0.797711
0.800076 0.18291 0.799374
0.800549 0.183673 0.800153
0.801236 0.184436 0.800855
0.135256 0.624903 0.871
0.138079 0.629541 0.877516
0.138613 0.627359 0.880156
0.135943 0.616007 0.878172
0.174456 0.583795 0.891768
0.738888 0.526986 0.96257
0.956985 0.479957 0.956985
0.956878 0.478706 0.956863
0.957229 0.482658 0.957229
0.315419 0.88127 0.932082
0.323796 0.87985 0.939269
0.325872 0.87248 0.942412
0.323583 0.860075 0.944503
0.349248 0.849989 0.953964
0.680552 0.853376 0.960159
0.952682 0.812985 0.958389
0.958602 0.80267 0.958511
0.958282 0.812528 0.95787
0.497551 0.959503 0.954482
0.49691 0.959335 0.955001
0.486442 0.958801 0.954742
0.454368 0.956176 0.952636
0.441993 0.949523 0.951049
0.762921 0.948608 0.956222
0.941176 0.954131 0.960616
0.961166 0.951766 0.961151
0.961273 0.952316 0.961166
0.542962 0.95935 0.958679
0.54522 0.959319 0.958907
0.54522 0.959319 0.958907
0.530602 0.959548 0.957366
0.560433 0.959365 0.952712
0.830259 0.958648 0.957717
0.949767 0.963485 0.963531
0.966705 0.966705 0.966705
0.966705 0.966705 0.966705
0.54522 0.959319 0.958907
0.54522 0.959319 0.958907
0.54522 0.959319 0.958907
0.548638 0.959274 0.958953
0.604318 0.958877 0.956329
0.872297 0.959335 0.959457
0.95584 0.964309 0.96434
0.966522 0.966552 0.966628
0.966705 0.966705 0.966705
0.192905 0.14168 0.70901
0.194705 0.141833 0.709712
0.208515 0.143206 0.714885
0.253986 0.147051 0.731136
0.546029 0.157488 0.798367
0.787503 0.169238 0.782681
0.791638 0.173465 0.7879
0.791104 0.172885 0.787213
0.791058 0.172839 0.787152
0.176638 0.140139 0.702907
0.178363 0.140322 0.703471
0.190158 0.141604 0.708049
0.225071 0.144625 0.720806
0.48481 0.155169 0.790051
0.787533 0.169299 0.782773
0.792477 0.174517 0.789258
0.792187 0.17409 0.788693
0.792126 0.173999 0.788556
0.132708 0.134401 0.684749
0.134295 0.134661 0.685512
0.146136 0.136675 0.690639
0.177935 0.140276 0.703334
0.401434 0.154086 0.774502
0.787045 0.169574 0.783398
0.793973 0.176287 0.791287
0.793881 0.176181 0.791135
0.793957 0.176257 0.791257
0.076173 0.219959 0.716976
0.0768749 0.223865 0.719951
0.076051 0.214115 0.712551
0.0733959 0.190173 0.694957
0.194919 0.149264 0.715328
0.71635 0.172259 0.801602
0.799817 0.182559 0.798978
0.800198 0.183093 0.799619
0.800366 0.183337 0.799893
0.149859 0.651469 0.886259
0.151446 0.654795 0.887083
0.148867 0.650355 0.885786
0.140673 0.631098 0.881178
0.127337 0.576028 0.871199
0.60235 0.512581 0.96054
0.95259 0.442573 0.952575
0.948867 0.420432 0.948867
0.946548 0.409506 0.946548
0.393378 0.902556 0.957473
0.393835 0.900175 0.957626
0.388418 0.893874 0.957351
0.37322 0.879316 0.956115
0.331807 0.845747 0.94992
0.580102 0.835157 0.96286
0.911513 0.801495 0.959426
0.959625 0.768658 0.959625
0.959899 0.756985 0.959899
0.533639 0.958846 0.95903
0.528725 0.958602 0.959091
0.520088 0.958022 0.959106
0.500633 0.95639 0.959258
0.464698 0.947402 0.959518
0.70605 0.944488 0.958343
0.915602 0.948425 0.959319
0.960266 0.946685 0.960266
0.959869 0.943816 0.959869
0.54522 0.959319 0.958907
0.54522 0.959319 0.958907
0.54522 0.959319 0.958907
0.54522 0.959319 0.958907
0.558831 0.959213 0.959167
0.778744 0.958038 0.958175
0.934462 0.962036 0.962112
0.966415 0.966522 0.966583
0.966705 0.966705 0.966705
0.54522 0.959319 0.958907
0.54522 0.959319 0.958907
0.54522 0.959319 0.958907
0.545922 0.959304 0.958907
0.562417 0.959197 0.959258
0.816754 0.958343 0.95848
0.947768 0.963333 0.963394
0.966583 0.966583 0.966644
0.966705 0.966705 0.966705
