bundles/resolve-cinematic-luts/Phantom Luts/P4k & P6K Phntm Film LUTs - V6/P4K/Gen 5 Colour/Standard (No WB Offset)/P4k Bleach Gen5-Legacy.cube
TITLE "Generated by Resolve"
LUT_3D_SIZE 9
0.0252842 0.0381933 0.0270085
0.0252842 0.0381933 0.0270085
0.0479133 0.0473182 0.0320897
0.107469 0.0516518 0.0369116
0.255268 0.0580453 0.0453346
0.499748 0.0691386 0.0568093
0.725597 0.103532 0.0951095
0.81117 0.126207 0.118639
0.812192 0.127825 0.120562
0.0268711 0.0420386 0.0295109
0.02916 0.0446021 0.0299687
0.0573281 0.0539406 0.0354162
0.157321 0.0572213 0.0413977
0.349615 0.0681468 0.052079
0.605066 0.086305 0.0701457
0.793057 0.127214 0.113191
0.810559 0.132784 0.118868
0.812268 0.135058 0.119905
0.0399634 0.0869001 0.0509651
0.041413 0.0946059 0.0490883
0.0720073 0.102083 0.0437629
0.232944 0.107286 0.0529793
0.449851 0.102663 0.0667887
0.658274 0.125048 0.0932479
0.830365 0.17319 0.136278
0.839429 0.185168 0.144274
0.855039 0.206165 0.158038
0.0430152 0.208377 0.0885786
0.0420386 0.229404 0.0861219
0.0471199 0.232624 0.0550851
0.195163 0.275517 0.0490883
0.6365 0.364401 0.0989853
0.885908 0.442664 0.234195
0.945296 0.499489 0.270039
0.943954 0.530449 0.267033
0.943343 0.572259 0.26482
0.0146792 0.427253 0.128313
0.0132906 0.447776 0.124529
0.0166629 0.455467 0.0870222
0.0870985 0.479912 0.0301213
0.53077 0.621698 0.0895399
0.876448 0.731487 0.204364
0.957259 0.791318 0.425238
0.953796 0.801724 0.390417
0.950256 0.813519 0.362081
0.0720836 0.722133 0.317754
0.0782177 0.734691 0.319341
0.0889754 0.735988 0.28394
0.125154 0.730358 0.174777
0.598901 0.79942 0.199161
0.796582 0.863081 0.225437
0.928695 0.898421 0.344472
0.930159 0.90544 0.414862
0.929488 0.907607 0.430594
0.099382 0.799252 0.395743
0.101289 0.798199 0.382864
0.115129 0.792889 0.338857
0.172045 0.788937 0.264836
0.597513 0.813153 0.271458
0.81709 0.881788 0.331151
0.918486 0.904509 0.417197
0.929015 0.908888 0.480064
0.929046 0.908904 0.480903
0.0978561 0.799756 0.405341
0.101061 0.798413 0.384375
0.121859 0.791501 0.327504
0.225254 0.791409 0.245792
0.676097 0.834165 0.292988
0.846662 0.889021 0.342306
0.92221 0.90605 0.433051
0.928985 0.908858 0.4795
0.929 0.908873 0.480003
0.0973373 0.799908 0.409506
0.10248 0.797787 0.378622
0.132586 0.789944 0.309712
0.337514 0.799084 0.243702
0.722301 0.851209 0.303838
0.872282 0.894438 0.355047
0.928756 0.909041 0.450599
0.928985 0.908858 0.479469
0.929 0.908873 0.479912
0.0253452 0.038468 0.0281987
0.02533 0.0382696 0.0270237
0.0449836 0.042359 0.0361334
0.117189 0.0508583 0.0453346
0.28777 0.0635386 0.0557565
0.539727 0.0763561 0.0705425
0.755245 0.112535 0.110094
0.813733 0.130007 0.127352
0.817517 0.136584 0.134966
0.0258793 0.0399634 0.0284886
0.0273594 0.0409705 0.0292668
0.0666819 0.0514839 0.0365148
0.178531 0.0546273 0.0425879
0.382467 0.0656291 0.0518959
0.63006 0.0852674 0.0742046
0.803601 0.123476 0.115831
0.812085 0.127581 0.120027
0.812543 0.128756 0.121019
0.0401923 0.0851759 0.0554055
0.0411688 0.0936751 0.0537728
0.0726177 0.102541 0.0445716
0.243137 0.103517 0.0537423
0.458717 0.0995346 0.0666972
0.669551 0.124285 0.0937819
0.826123 0.16582 0.133501
0.833417 0.176806 0.138415
0.846601 0.194247 0.150134
0.0438239 0.212314 0.098558
0.0428321 0.232303 0.0952163
0.0447395 0.239155 0.0608377
0.200229 0.2813 0.0497139
0.653834 0.375036 0.106096
0.896605 0.450263 0.239094
0.945403 0.496971 0.270405
0.943893 0.530282 0.266728
0.943221 0.570306 0.26479
0.0126955 0.433616 0.138628
0.0118105 0.454261 0.13579
0.0153658 0.461234 0.0981003
0.0804608 0.48452 0.0297093
0.54049 0.628656 0.0925612
0.887083 0.73872 0.210437
0.956542 0.789761 0.410986
0.95349 0.799878 0.389105
0.950469 0.811887 0.372778
0.0716411 0.725597 0.328725
0.0779278 0.737896 0.331197
0.0876326 0.738659 0.296162
0.124086 0.734432 0.185077
0.596704 0.800549 0.199466
0.798367 0.864698 0.226795
0.929412 0.89836 0.348104
0.930327 0.905058 0.414984
0.929519 0.907591 0.430732
0.0973373 0.799893 0.40943
0.0991684 0.799313 0.396963
0.110307 0.794934 0.349996
0.164721 0.788693 0.268894
0.588434 0.811643 0.26891
0.813916 0.880903 0.331502
0.916472 0.903639 0.41532
0.929061 0.908888 0.482918
0.929091 0.908888 0.484169
0.0941176 0.800549 0.428901
0.0977493 0.799771 0.406241
0.113802 0.793988 0.343999
0.200824 0.789914 0.250599
0.665614 0.830106 0.292607
0.841382 0.887984 0.341924
0.919738 0.90486 0.428763
0.929061 0.908904 0.482826
0.929076 0.908888 0.483986
0.0922713 0.801144 0.445747
0.0971542 0.799954 0.410697
0.120134 0.792416 0.332815
0.280552 0.79559 0.241443
0.704463 0.844358 0.303243
0.867079 0.894301 0.351019
0.925414 0.907362 0.441901
0.929076 0.908888 0.483711
0.929091 0.908888 0.484581
0.0255741 0.0412451 0.0421454
0.0325933 0.0411688 0.041001
0.0480659 0.0434882 0.0463874
0.113191 0.0507668 0.0581521
0.291875 0.0548409 0.0732128
0.566079 0.0790875 0.0920882
0.798566 0.138964 0.149599
0.829984 0.156344 0.170672
0.835172 0.155169 0.187411
0.027863 0.0461128 0.0431983
0.0250858 0.0412299 0.0501259
0.0661936 0.0459297 0.0589609
0.202274 0.0488746 0.072221
0.429511 0.0666361 0.0810254
0.689433 0.107469 0.119234
0.825971 0.151644 0.160037
0.831922 0.158099 0.174533
0.835676 0.157137 0.185992
0.0386664 0.0832532 0.0666819
0.0395361 0.0901656 0.0725414
0.079881 0.0943313 0.0806287
0.235843 0.0999924 0.0831311
0.486519 0.0850996 0.0696422
0.699611 0.104555 0.09337
0.816144 0.133791 0.123217
0.818311 0.137057 0.126238
0.822385 0.143893 0.131289
0.0433051 0.209216 0.124117
0.043183 0.227619 0.128344
0.0450752 0.234363 0.098146
0.211841 0.283482 0.0708934
0.665568 0.349004 0.139864
0.917174 0.41883 0.260182
0.947555 0.467033 0.281071
0.946426 0.496086 0.28191
0.945251 0.529412 0.287251
0.00967422 0.430289 0.17113
0.00798047 0.450965 0.170657
0.0118105 0.454368 0.138308
0.0447852 0.470359 0.0402838
0.536355 0.622858 0.0928511
0.899336 0.735546 0.229023
0.95581 0.771893 0.388708
0.954208 0.78381 0.398795
0.95256 0.799634 0.436149
0.0643778 0.718822 0.355428
0.069688 0.731487 0.359487
0.0748913 0.731106 0.327947
0.106722 0.730358 0.225742
0.555535 0.788678 0.19086
0.789319 0.858091 0.219898
0.931685 0.895109 0.343999
0.93135 0.902388 0.415045
0.930159 0.905745 0.430686
0.0914168 0.801602 0.458045
0.0923934 0.801144 0.445853
0.099733 0.799359 0.398001
0.139864 0.789349 0.301915
0.520836 0.802686 0.262486
0.792233 0.874464 0.333654
0.904646 0.898222 0.404166
0.929229 0.908949 0.489815
0.92932 0.90898 0.49247
0.0898451 0.802823 0.497627
0.0903792 0.801984 0.474235
0.0990921 0.799847 0.407126
0.150515 0.78883 0.291081
0.589563 0.810727 0.280552
0.812146 0.880476 0.342275
0.905165 0.900175 0.406363
0.929091 0.908904 0.484245
0.929381 0.90901 0.49453
0.0903029 0.804288 0.533425
0.0898909 0.802915 0.499397
0.0996567 0.799969 0.411536
0.16527 0.788952 0.276783
0.641154 0.822751 0.29514
0.836439 0.886687 0.349248
0.908766 0.899886 0.415137
0.929076 0.908888 0.48368
0.929473 0.909072 0.497093
0.0244602 0.0426337 0.0771649
0.0342718 0.0437018 0.0763409
0.0587625 0.0463569 0.0849012
0.12607 0.0490272 0.100786
0.323659 0.0522011 0.134737
0.577386 0.0505074 0.164706
0.794903 0.104433 0.20531
0.836881 0.102678 0.247608
0.832868 0.0756847 0.291997
0.0242771 0.0478065 0.0977646
0.0280919 0.0445106 0.114183
0.068925 0.0481422 0.136721
0.202457 0.0516976 0.154665
0.468635 0.0508888 0.184131
0.685084 0.0586862 0.226093
0.837507 0.100511 0.251026
0.83888 0.0878004 0.287434
0.839246 0.0785077 0.334905
0.0279088 0.0789349 0.129442
0.0263676 0.079881 0.149935
0.0525673 0.0709087 0.1729
0.241566 0.0689555 0.188281
0.521889 0.0517433 0.188678
0.714229 0.074052 0.201587
0.84155 0.117327 0.238819
0.843427 0.105211 0.259052
0.84332 0.0941329 0.286641
0.0398566 0.2056 0.175601
0.0389105 0.222919 0.192279
0.0404212 0.225818 0.194736
0.276158 0.280537 0.267903
0.622293 0.302388 0.270466
0.896132 0.371283 0.325567
0.943786 0.401785 0.348669
0.947616 0.435706 0.377661
0.947723 0.478553 0.411597
0.00891127 0.425498 0.254444
0.00729381 0.445289 0.26157
0.00721752 0.44744 0.2439
0.056611 0.476982 0.191012
0.578805 0.627634 0.251926
0.902022 0.698161 0.415274
0.958022 0.72166 0.476204
0.958618 0.740734 0.518639
0.95874 0.761273 0.551751
0.0572824 0.704982 0.439567
0.0610819 0.717571 0.449928
0.0606088 0.71725 0.415564
0.0776989 0.717067 0.324987
0.416587 0.758724 0.274586
0.782727 0.842466 0.297459
0.938079 0.884886 0.400046
0.938674 0.889082 0.482689
0.937453 0.894041 0.502739
0.0920119 0.805615 0.559609
0.0914473 0.805234 0.553567
0.090135 0.803632 0.515831
0.108476 0.799542 0.404501
0.348165 0.796094 0.315343
0.757198 0.860838 0.37496
0.894728 0.895598 0.430259
0.931746 0.91043 0.544869
0.933013 0.911559 0.561456
0.0997024 0.80885 0.606836
0.0967117 0.807843 0.593057
0.0920272 0.80499 0.547967
0.121157 0.800137 0.422354
0.419684 0.79942 0.35671
0.774853 0.865965 0.422126
0.89337 0.895537 0.449149
0.931472 0.910216 0.539452
0.934157 0.912551 0.574426
0.11667 0.81207 0.645258
0.104524 0.810407 0.624353
0.0957351 0.806485 0.570565
0.153307 0.80061 0.448722
0.512367 0.804822 0.416434
0.802579 0.875273 0.485725
0.898589 0.896788 0.477729
0.932082 0.910704 0.54931
0.935225 0.913634 0.587167
0.0292668 0.046479 0.159045
0.0368658 0.0474403 0.162463
0.0623331 0.0492561 0.184726
0.1458 0.0526436 0.221073
0.334249 0.0578012 0.253697
0.603433 0.0814984 0.310567
0.822553 0.0720073 0.404562
0.844617 0.0773022 0.477211
0.859937 0.099382 0.533349
0.0236667 0.0482948 0.219287
0.0332647 0.0502937 0.247639
0.0693523 0.0527047 0.277943
0.223758 0.0586709 0.326223
0.482002 0.0614939 0.34583
0.712001 0.100862 0.429465
0.849027 0.0828717 0.497795
0.858564 0.0979782 0.535607
0.869917 0.136645 0.576394
0.0209812 0.0585794 0.258564
0.0206149 0.0569314 0.284413
0.0424811 0.053193 0.304417
0.227497 0.0599374 0.370459
0.524346 0.065156 0.384085
0.74728 0.104952 0.458366
0.847272 0.081651 0.504616
0.859022 0.104921 0.538903
0.870344 0.126848 0.569284
0.0191958 0.194171 0.337911
0.0182345 0.208087 0.368444
0.0169223 0.201572 0.391821
0.197299 0.21326 0.503059
0.633799 0.217746 0.542062
0.885145 0.263066 0.573632
0.928618 0.247272 0.593271
0.947082 0.301488 0.64033
0.960662 0.376287 0.67715
0.00862135 0.423011 0.357992
0.00698863 0.443244 0.375998
0.0075227 0.44564 0.379202
0.0836805 0.486824 0.429984
0.636255 0.621332 0.601129
0.869184 0.659068 0.626535
0.956786 0.684642 0.643595
0.958801 0.699016 0.659464
0.961303 0.716167 0.677699
0.0599985 0.691844 0.554452
0.0644083 0.704387 0.567315
0.0633707 0.701305 0.555596
0.076463 0.697948 0.517906
0.497734 0.757198 0.576303
0.812284 0.83267 0.60528
0.960037 0.871153 0.688731
0.96231 0.883345 0.699748
0.962295 0.888609 0.706874
0.125872 0.810529 0.662623
0.125216 0.810849 0.661509
0.112184 0.807523 0.64123
0.11516 0.801358 0.589151
0.411383 0.807935 0.574899
0.754284 0.870924 0.630198
0.913649 0.910979 0.637736
0.945006 0.921126 0.663081
0.947646 0.923659 0.682582
0.174899 0.817304 0.701534
0.165286 0.816831 0.695064
0.14638 0.814603 0.672877
0.158877 0.809186 0.620111
0.492454 0.821149 0.62092
0.756603 0.880369 0.669123
0.915984 0.917128 0.680354
0.942428 0.921141 0.664012
0.947219 0.92488 0.685115
0.210681 0.819745 0.725353
0.195041 0.818662 0.715846
0.174945 0.816175 0.691173
0.23508 0.808743 0.643656
0.568322 0.838453 0.664149
0.798611 0.896483 0.711467
0.926375 0.923064 0.710903
0.94519 0.924315 0.688624
0.950118 0.927367 0.702861
0.0348669 0.0516365 0.281788
0.0459754 0.0529183 0.295827
0.0692454 0.0547494 0.326177
0.152621 0.0584726 0.390204
0.385397 0.0664378 0.45037
0.624018 0.0690471 0.498665
0.855451 0.166369 0.603082
0.860838 0.132967 0.647883
0.846662 0.101167 0.674601
0.0335393 0.0551003 0.367987
0.0460517 0.0578622 0.412665
0.0800183 0.0610056 0.456352
0.223636 0.0653544 0.530571
0.528374 0.0724498 0.558099
0.718975 0.0727092 0.587976
0.857511 0.124849 0.660212
0.845777 0.0990616 0.676234
0.842435 0.0874495 0.693645
0.0199435 0.0598001 0.423224
0.0243992 0.0588083 0.4551
0.0568856 0.0633402 0.492454
0.21387 0.0698558 0.566751
0.557321 0.0760967 0.590188
0.749279 0.0758984 0.614221
0.84445 0.102174 0.661219
0.836789 0.0856184 0.67425
0.850965 0.0998856 0.701213
0.0146792 0.157137 0.518181
0.0145113 0.169741 0.546212
0.0145266 0.156664 0.560906
0.146792 0.151919 0.62977
0.608087 0.158465 0.689708
0.836423 0.154955 0.696712
0.900114 0.183276 0.722515
0.92668 0.232334 0.766644
0.952682 0.289235 0.818173
0.00514229 0.438834 0.566262
0.00643931 0.460838 0.58204
0.00541695 0.461921 0.594507
0.0676738 0.492485 0.652811
0.59588 0.598444 0.769039
0.90515 0.630793 0.805325
0.962036 0.644358 0.802823
0.961837 0.660929 0.816846
0.961883 0.680934 0.830762
0.0650034 0.694362 0.63888
0.0695811 0.706615 0.650446
0.0703441 0.70428 0.648692
0.088777 0.702754 0.647654
0.555032 0.765789 0.724453
0.849638 0.826123 0.799985
0.958129 0.848188 0.810071
0.962203 0.861921 0.818677
0.962188 0.872572 0.829114
0.179278 0.812589 0.719585
0.179568 0.813016 0.719768
0.168521 0.808698 0.710033
0.184802 0.799893 0.692256
0.526314 0.824765 0.721141
0.807675 0.904906 0.806622
0.942687 0.930083 0.807416
0.962448 0.92842 0.815335
0.962448 0.930663 0.818952
0.251057 0.822095 0.747951
0.245228 0.821881 0.744945
0.236164 0.82063 0.735759
0.252964 0.817441 0.716472
0.579309 0.852491 0.752148
0.809934 0.91931 0.826185
0.934401 0.940642 0.839155
0.961746 0.940948 0.81915
0.962661 0.942855 0.829023
0.278264 0.82295 0.761044
0.266484 0.822828 0.75581
0.255177 0.821424 0.744198
0.314199 0.819944 0.730571
0.64065 0.871733 0.785443
0.845609 0.929152 0.849867
0.936034 0.942901 0.85713
0.962722 0.944442 0.845045
0.962692 0.94316 0.83151
0.0474556 0.0590524 0.432135
0.0596475 0.0614328 0.465156
0.0805829 0.0644694 0.503334
0.161624 0.0706493 0.564446
0.41593 0.075349 0.617426
0.671489 0.0906233 0.648722
0.840253 0.0979477 0.700664
0.882399 0.137469 0.764462
0.90132 0.161852 0.810376
0.0513924 0.0688792 0.547127
0.0662699 0.07393 0.582193
0.0996567 0.0780652 0.609598
0.231998 0.0869764 0.662547
0.550835 0.0888228 0.695018
0.778027 0.11545 0.727672
0.887892 0.144259 0.774258
0.902419 0.163485 0.813077
0.908171 0.172549 0.825925
0.0349279 0.0740215 0.58674
0.0449531 0.0785687 0.609201
0.0793774 0.083238 0.631266
0.228519 0.0936141 0.688243
0.577447 0.0965286 0.723079
0.814069 0.130846 0.756374
0.894926 0.153002 0.791913
0.904799 0.168032 0.814404
0.912093 0.180606 0.830198
0.0178836 0.132235 0.614725
0.0158083 0.142596 0.63006
0.0163424 0.131151 0.637034
0.143008 0.136019 0.710414
0.578332 0.147356 0.784329
0.857053 0.181949 0.806745
0.923812 0.210529 0.820844
0.950515 0.270619 0.864424
0.967712 0.326894 0.892973
0.0113527 0.469581 0.683253
0.0141909 0.493156 0.696666
0.0152438 0.491768 0.708476
0.0587625 0.511696 0.757946
0.572549 0.58851 0.859998
0.923659 0.640726 0.906325
0.961929 0.652613 0.904128
0.961746 0.670512 0.907317
0.961715 0.691112 0.9122
0.109712 0.700832 0.739681
0.117739 0.710491 0.747158
0.121218 0.706081 0.751934
0.153353 0.709453 0.770733
0.573907 0.76643 0.826246
0.836103 0.81706 0.880522
0.962081 0.827237 0.889433
0.962036 0.836698 0.893675
0.962158 0.849622 0.894987
0.207218 0.813443 0.757671
0.207752 0.81387 0.758083
0.19765 0.809369 0.753567
0.211856 0.802991 0.746883
0.542489 0.827619 0.777279
0.842817 0.91458 0.870802
0.94966 0.92752 0.888014
0.962432 0.932647 0.889799
0.962585 0.935332 0.891249
0.313085 0.824369 0.773312
0.304417 0.823911 0.770703
0.292546 0.823178 0.764279
0.308309 0.821897 0.754772
0.627451 0.867994 0.805615
0.862837 0.935103 0.880888
0.943999 0.948135 0.897383
0.962631 0.949538 0.890425
0.962631 0.949279 0.894041
0.355352 0.827115 0.782864
0.335027 0.82565 0.778881
0.310735 0.823819 0.769787
0.369909 0.826978 0.766384
0.687526 0.888365 0.832929
0.887114 0.9411 0.893111
0.946151 0.949798 0.903456
0.96289 0.95111 0.897826
0.962676 0.949905 0.891569
0.0650187 0.0730907 0.57525
0.0792706 0.0775158 0.605112
0.102724 0.0829023 0.630457
0.188418 0.0923934 0.677577
0.447608 0.0972152 0.729458
0.726909 0.125032 0.776196
0.899016 0.162661 0.812924
0.908583 0.173236 0.827665
0.90866 0.173419 0.827787
0.0767529 0.0915389 0.658824
0.0937514 0.0993515 0.68188
0.130526 0.105486 0.703334
0.266072 0.118685 0.750317
0.586801 0.122942 0.790112
0.840314 0.162966 0.824918
0.91017 0.176562 0.829877
0.909957 0.176135 0.829587
0.910201 0.176654 0.829938
0.0637827 0.101778 0.681392
0.0743877 0.106783 0.692973
0.111986 0.112963 0.712657
0.265538 0.129213 0.766812
0.611673 0.132753 0.805173
0.860563 0.167071 0.826551
0.913069 0.18201 0.83331
0.914076 0.183612 0.834485
0.915282 0.185779 0.835966
0.0159152 0.134264 0.664408
0.0181735 0.149264 0.67982
0.0232548 0.13489 0.682033
0.165805 0.147005 0.751369
0.578805 0.156359 0.81799
0.865156 0.199954 0.845777
0.941573 0.244236 0.865705
0.954543 0.278904 0.88101
0.968917 0.331167 0.899336
0.0186007 0.493462 0.744488
0.022385 0.517067 0.754101
0.0222629 0.514824 0.756252
0.0780957 0.530098 0.778302
0.577981 0.59382 0.87953
0.922454 0.649729 0.923903
0.961837 0.661616 0.922103
0.961929 0.678965 0.923995
0.961898 0.697932 0.925368
0.140719 0.72874 0.792447
0.152071 0.735897 0.795712
0.149386 0.732967 0.797955
0.194247 0.729168 0.803235
0.56141 0.763363 0.846677
0.829053 0.818357 0.906691
0.962112 0.834165 0.920501
0.962081 0.842115 0.920668
0.962005 0.853101 0.919936
0.254841 0.814481 0.782559
0.254246 0.814359 0.782773
0.237797 0.809827 0.782376
0.263355 0.803235 0.784497
0.595438 0.838361 0.824018
0.870741 0.921233 0.900664
0.946288 0.925582 0.907378
0.962692 0.927031 0.907439
0.962432 0.929091 0.908492
0.364904 0.827741 0.785138
0.360922 0.827665 0.784466
0.350774 0.82678 0.781369
0.354131 0.826001 0.777279
0.640955 0.872145 0.824002
0.867994 0.936767 0.893004
0.949966 0.94902 0.908736
0.962676 0.949844 0.909178
0.962768 0.950362 0.910353
0.370962 0.828275 0.786297
0.371374 0.828305 0.786343
0.371054 0.828229 0.785351
0.433188 0.832166 0.785672
0.712337 0.896635 0.85008
0.901823 0.944381 0.903365
0.95404 0.951415 0.911467
0.962646 0.951843 0.910903
0.962661 0.951858 0.909819
0.0903182 0.0959029 0.673152
0.109209 0.104677 0.69752
0.13611 0.111467 0.714473
0.2309 0.124193 0.753429
0.501137 0.127916 0.795056
0.777981 0.15639 0.822614
0.906737 0.170214 0.825406
0.909407 0.17496 0.828809
0.909255 0.174655 0.82858
0.106065 0.117296 0.717784
0.120516 0.118914 0.723522
0.158465 0.122301 0.73756
0.299077 0.13196 0.776303
0.617624 0.133577 0.805982
0.857694 0.165301 0.825422
0.909621 0.175463 0.829114
0.910536 0.177264 0.830289
0.910735 0.177523 0.830549
0.0794537 0.113558 0.706035
0.0871595 0.114961 0.709712
0.126314 0.119326 0.725917
0.286671 0.131395 0.773312
0.633768 0.135073 0.807507
0.873426 0.167025 0.82565
0.9131 0.18204 0.83331
0.914717 0.184817 0.835294
0.91603 0.186587 0.83682
0.0247044 0.146365 0.6907
0.0246738 0.158801 0.699001
0.0269627 0.135729 0.687022
0.17351 0.145556 0.753567
0.584543 0.147478 0.813931
0.888029 0.220295 0.855711
0.94403 0.249653 0.868269
0.95349 0.275471 0.879728
0.968582 0.340612 0.901747
0.0225071 0.516396 0.75668
0.0256962 0.535912 0.760021
0.0248417 0.528984 0.759228
0.090898 0.536034 0.783032
0.588952 0.597925 0.880949
0.927443 0.653086 0.923873
0.962051 0.66479 0.922652
0.961852 0.681697 0.924071
0.961624 0.70013 0.925353
0.185153 0.741894 0.800732
0.195758 0.74522 0.800824
0.190326 0.740307 0.801404
0.216602 0.731701 0.805234
0.575738 0.766384 0.850156
0.833906 0.822065 0.909316
0.962081 0.838636 0.92134
0.962036 0.845991 0.92166
0.96199 0.855177 0.919905
0.29575 0.814267 0.788327
0.295537 0.813733 0.788724
0.288731 0.809339 0.790051
0.317189 0.803754 0.793393
0.647196 0.855253 0.843412
0.871687 0.920516 0.903014
0.945541 0.926452 0.90988
0.962646 0.926802 0.90901
0.962478 0.928466 0.90956
0.370962 0.828275 0.786297
0.370962 0.828275 0.786297
0.372625 0.828382 0.786603
0.404746 0.829313 0.789883
0.674632 0.882856 0.840665
0.889616 0.940795 0.901671
0.954696 0.949523 0.911192
0.962676 0.94931 0.911559
0.962676 0.949615 0.911742
0.370962 0.828275 0.786297
0.371542 0.828321 0.786358
0.381781 0.828931 0.787335
0.48809 0.836622 0.794903
0.738186 0.904738 0.860471
0.904662 0.944915 0.904509
0.954452 0.951461 0.911528
0.962661 0.951873 0.911284
0.962661 0.952102 0.911376
