bundles/resolve-cinematic-luts/Phantom Luts/P4k & P6K Phntm Film LUTs - V6/P4K/Gen 5 Colour/Standard (No WB Offset)/P4k Vision Gen5-Legacy.cube
TITLE "Generated by Resolve"
LUT_3D_SIZE 5
0.0236057 0.0332036 0.0244907
0.0793927 0.0417334 0.0285801
0.526909 0.0869306 0.0562295
0.784375 0.15462 0.125093
0.784726 0.162631 0.12398
0.0325322 0.105394 0.0561685
0.0593118 0.108431 0.0413367
0.551949 0.115526 0.0718395
0.7841 0.182376 0.12752
0.792889 0.224506 0.140078
0.139513 0.633753 0.398886
0.148165 0.627054 0.363958
0.50074 0.641428 0.155276
0.843839 0.715862 0.365927
0.843931 0.709911 0.372732
0.285771 0.85832 0.614618
0.295232 0.855726 0.595773
0.515114 0.832471 0.482918
0.838773 0.853086 0.467903
0.839353 0.853925 0.471595
0.283055 0.859098 0.618097
0.290929 0.857069 0.604639
0.397086 0.83125 0.48397
0.83331 0.848783 0.437339
0.839323 0.853544 0.468406
0.0262913 0.0357824 0.0935378
0.101198 0.037232 0.0813153
0.65507 0.0796826 0.107271
0.798108 0.139361 0.144076
0.797101 0.142504 0.127581
0.0266117 0.0954299 0.0787976
0.0812543 0.0983139 0.0864271
0.595575 0.101122 0.0742657
0.786267 0.16112 0.125566
0.792248 0.200778 0.131945
0.121218 0.6224 0.415778
0.129961 0.615961 0.385763
0.49514 0.631479 0.150805
0.840452 0.699428 0.364889
0.841093 0.695399 0.360265
0.275517 0.86067 0.634043
0.285603 0.858396 0.614816
0.484108 0.832151 0.480964
0.838819 0.853132 0.468162
0.839628 0.854459 0.474876
0.275395 0.861036 0.633722
0.28304 0.858793 0.619379
0.36231 0.83183 0.486229
0.828199 0.847364 0.432547
0.839536 0.854109 0.471443
0.086244 0.0785229 0.511986
0.14696 0.0785229 0.506203
0.601648 0.071809 0.487236
0.778363 0.148577 0.57499
0.78378 0.114672 0.477256
0.0543984 0.0804608 0.509544
0.088304 0.0775311 0.506615
0.584085 0.0699321 0.472251
0.790722 0.162966 0.544182
0.775372 0.104112 0.440146
0.0386053 0.588922 0.595483
0.0370336 0.582086 0.588754
0.604654 0.620829 0.59881
0.850141 0.600351 0.543008
0.829816 0.575967 0.469306
0.214176 0.88867 0.817334
0.18407 0.888884 0.799329
0.409598 0.860731 0.666987
0.833692 0.858885 0.52166
0.845777 0.86894 0.572106
0.176806 0.888411 0.793103
0.190402 0.884184 0.767407
0.299428 0.85951 0.629908
0.796567 0.852644 0.462867
0.84387 0.865766 0.550835
0.219974 0.173358 0.767758
0.279667 0.174182 0.771023
0.710094 0.206821 0.76054
0.801007 0.175097 0.766812
0.800961 0.174945 0.766598
0.162219 0.170062 0.764553
0.218952 0.173342 0.767758
0.681987 0.199908 0.760266
0.802945 0.178653 0.769772
0.802853 0.178531 0.769635
0.0703593 0.622202 0.921965
0.0765698 0.610636 0.920897
0.5617 0.546349 0.917815
0.884947 0.543435 0.866743
0.879149 0.51725 0.860578
0.476295 0.89572 0.916625
0.461845 0.895766 0.915663
0.492409 0.895003 0.90161
0.899351 0.93637 0.919234
0.911437 0.93051 0.90898
0.466789 0.895979 0.91606
0.446403 0.896422 0.912337
0.407523 0.896391 0.888197
0.845884 0.940078 0.903563
0.909041 0.940856 0.9028
0.22977 0.17406 0.768536
0.289662 0.173816 0.771405
0.718166 0.205203 0.760998
0.80145 0.17586 0.767681
0.801068 0.175433 0.767132
0.171221 0.17052 0.764691
0.228473 0.173968 0.768414
0.687877 0.200946 0.760082
0.80322 0.179294 0.770306
0.803143 0.179034 0.770123
0.0759594 0.616129 0.921996
0.0810712 0.602716 0.920165
0.55523 0.528542 0.914672
0.880613 0.52195 0.861692
0.873075 0.491173 0.854047
0.48397 0.895964 0.917189
0.47686 0.895079 0.917754
0.522454 0.886687 0.920119
0.884459 0.927687 0.932433
0.910597 0.916442 0.932189
0.48397 0.895964 0.917189
0.48397 0.895964 0.917189
0.509636 0.896605 0.916793
0.86743 0.944762 0.928893
0.914061 0.949981 0.932815
