bundles/resolve-cinematic-luts/Phantom Luts/P4k & P6K Phntm Film LUTs - V6/P4K/Gen 5 Colour/Standard (No WB Offset)/P4k Eterna Gen5-Legacy.cube
TITLE "Generated by Resolve"
LUT_3D_SIZE 5
0.0167849 0.0445258 0.0445716
0.0967727 0.0605631 0.0511635
0.471168 0.110887 0.125261
0.72781 0.166003 0.200534
0.755611 0.164263 0.211551
0.0463874 0.11397 0.0803082
0.0882124 0.124239 0.0657206
0.535103 0.14049 0.134493
0.75584 0.185977 0.19585
0.763027 0.187778 0.197803
0.110491 0.722637 0.390066
0.11632 0.779049 0.40473
0.646723 0.778515 0.180072
0.95967 0.819837 0.385595
0.959976 0.810941 0.390127
0.250401 0.934157 0.591699
0.251835 0.934203 0.576989
0.333623 0.936706 0.412055
0.965393 0.953796 0.613046
0.962982 0.955276 0.621668
0.236515 0.937713 0.599008
0.253712 0.933455 0.585855
0.288029 0.928374 0.48333
0.934951 0.947524 0.507103
0.959228 0.957259 0.615686
0.0195926 0.0477913 0.0848249
0.0962692 0.0552682 0.0816205
0.471916 0.108782 0.154177
0.775296 0.181018 0.244434
0.795377 0.175174 0.268376
0.0436103 0.103609 0.0929885
0.0912947 0.109407 0.106447
0.548211 0.117617 0.148379
0.766842 0.172427 0.223011
0.785031 0.178759 0.247364
0.0836194 0.671885 0.397986
0.0827802 0.721935 0.404929
0.624445 0.754849 0.165042
0.958831 0.811353 0.401694
0.959014 0.798199 0.398138
0.249348 0.934905 0.649927
0.250965 0.93373 0.628107
0.354116 0.939666 0.409918
0.96527 0.953887 0.611643
0.96286 0.955444 0.6262
0.242908 0.938064 0.677028
0.255268 0.933257 0.65095
0.290639 0.928969 0.481209
0.930663 0.948684 0.502724
0.958938 0.957488 0.620386
0.0603494 0.0603799 0.358465
0.11812 0.0671244 0.390417
0.538827 0.102205 0.311772
0.728115 0.106706 0.350057
0.758373 0.100481 0.427207
0.0339361 0.0694438 0.262715
0.0421607 0.0591135 0.380819
0.558755 0.120912 0.386603
0.76318 0.13193 0.451728
0.801633 0.162371 0.568139
0.0819257 0.592432 0.499031
0.0701762 0.635065 0.558282
0.599344 0.636408 0.592264
0.963043 0.65481 0.61854
0.962478 0.639765 0.643565
0.342763 0.941924 0.833799
0.327031 0.949615 0.852842
0.464485 0.956603 0.752712
0.956436 0.949752 0.687556
0.967376 0.956466 0.776547
0.363409 0.953155 0.885527
0.359915 0.954208 0.888045
0.437873 0.952575 0.802853
0.929442 0.953033 0.768704
0.962448 0.958663 0.766979
0.172503 0.138064 0.696956
0.20296 0.142702 0.712825
0.643702 0.156329 0.787289
0.776471 0.153155 0.731899
0.768627 0.144747 0.71191
0.0932326 0.110384 0.636378
0.142382 0.13611 0.688762
0.564157 0.158251 0.799847
0.790661 0.173007 0.783322
0.793378 0.175891 0.789563
0.102358 0.603708 0.779034
0.116365 0.611368 0.820279
0.314839 0.613916 0.94931
0.960967 0.519417 0.932433
0.960693 0.523369 0.940322
0.445655 0.956573 0.933455
0.434974 0.958465 0.936675
0.521385 0.954849 0.926726
0.954498 0.956954 0.953124
0.966766 0.957366 0.953933
0.505776 0.957671 0.950378
0.509743 0.959716 0.955077
0.63592 0.958556 0.949554
0.950118 0.963516 0.962158
0.969207 0.963394 0.9561
0.192905 0.14168 0.70901
0.208515 0.143206 0.714885
0.546029 0.157488 0.798367
0.791638 0.173465 0.7879
0.791058 0.172839 0.787152
0.132708 0.134401 0.684749
0.146136 0.136675 0.690639
0.401434 0.154086 0.774502
0.793973 0.176287 0.791287
0.793957 0.176257 0.791257
0.149859 0.651469 0.886259
0.148867 0.650355 0.885786
0.127337 0.576028 0.871199
0.95259 0.442573 0.952575
0.946548 0.409506 0.946548
0.533639 0.958846 0.95903
0.520088 0.958022 0.959106
0.464698 0.947402 0.959518
0.915602 0.948425 0.959319
0.959869 0.943816 0.959869
0.54522 0.959319 0.958907
0.54522 0.959319 0.958907
0.562417 0.959197 0.959258
0.947768 0.963333 0.963394
0.966705 0.966705 0.966705
