bundles/resolve-cinematic-luts/Phantom Luts/P4k & P6K Phntm Film LUTs - V6/P4K/Gen 5 Colour/Standard (No WB Offset)/P4k VisionTeal Gen5-Legacy.cube
TITLE "Generated by Resolve"
LUT_3D_SIZE 5
0.022385 0.0343633 0.0323796
0.0855421 0.0399939 0.0334173
0.529381 0.0785992 0.0549325
0.782452 0.150866 0.132631
0.784726 0.162905 0.137118
0.0218662 0.10811 0.0552987
0.0672923 0.105974 0.043183
0.561502 0.114214 0.0706645
0.787335 0.189776 0.135134
0.805173 0.257969 0.155901
0.0971542 0.650568 0.35613
0.0920577 0.64271 0.315679
0.543786 0.605646 0.105058
0.845914 0.728695 0.366201
0.848859 0.724712 0.372442
0.227405 0.909865 0.598474
0.224643 0.90724 0.574929
0.523064 0.791806 0.372839
0.825925 0.825177 0.445274
0.826047 0.825635 0.449317
0.224811 0.912245 0.604623
0.226917 0.908629 0.585184
0.391699 0.821683 0.397269
0.821134 0.821439 0.418036
0.825833 0.825483 0.447471
0.0212406 0.0448615 0.102083
0.0988479 0.0350652 0.103822
0.647028 0.0759594 0.12369
0.791638 0.133776 0.158206
0.792081 0.129305 0.140963
0.0202335 0.0979782 0.0819104
0.0734112 0.100114 0.0939345
0.588357 0.0918898 0.0748913
0.785794 0.165072 0.136568
0.804211 0.24097 0.153048
0.0937514 0.641032 0.38024
0.0864271 0.633585 0.348424
0.534768 0.594919 0.103731
0.847486 0.716655 0.363378
0.847791 0.715938 0.358984
0.229023 0.912627 0.621683
0.226886 0.910353 0.599115
0.483803 0.798154 0.374517
0.825925 0.825208 0.445624
0.826169 0.825849 0.452262
0.225986 0.914305 0.622431
0.227588 0.910811 0.603922
0.355688 0.834333 0.413108
0.815961 0.81915 0.41236
0.82594 0.825711 0.450202
0.0193027 0.124605 0.512108
0.0598001 0.120363 0.531746
0.590188 0.0699626 0.54258
0.771389 0.133089 0.632914
0.771069 0.0868544 0.514458
0.019379 0.129625 0.493431
0.0192416 0.122484 0.508858
0.57232 0.0675822 0.526146
0.779171 0.147463 0.589761
0.76286 0.0740368 0.48072
0.0654917 0.623636 0.547402
0.0594797 0.618036 0.544274
0.622705 0.615946 0.589349
0.866499 0.611795 0.542275
0.858412 0.6121 0.474617
0.237186 0.940017 0.77937
0.209384 0.942992 0.765194
0.378714 0.889601 0.642222
0.822324 0.827634 0.492103
0.835569 0.838727 0.541527
0.202426 0.94258 0.758923
0.199512 0.939651 0.740932
0.253346 0.907073 0.613993
0.790204 0.818143 0.424338
0.833112 0.835813 0.524422
0.0435492 0.250416 0.763149
0.125963 0.249302 0.781979
0.688807 0.20148 0.82594
0.791699 0.166964 0.839963
0.791547 0.166812 0.839658
0.0195926 0.245594 0.742687
0.0427863 0.250324 0.762966
0.655039 0.18938 0.82298
0.793805 0.171054 0.843595
0.793744 0.170901 0.843473
0.0212558 0.708843 0.853483
0.0212406 0.694957 0.851194
0.514214 0.583719 0.904005
0.868132 0.525277 0.899947
0.860929 0.493004 0.894224
0.489509 0.927245 0.867994
0.475807 0.929091 0.866484
0.512245 0.921324 0.857099
0.918837 0.932158 0.911025
0.916762 0.909926 0.877272
0.479912 0.92871 0.866773
0.463142 0.930114 0.863661
0.434882 0.927993 0.84213
0.864942 0.938262 0.896239
0.924453 0.935439 0.881193
0.0555428 0.250797 0.766308
0.1411 0.247517 0.783978
0.697536 0.200549 0.826673
0.792447 0.168032 0.841123
0.792081 0.167498 0.840558
0.0195926 0.246159 0.745785
0.0536507 0.250828 0.76585
0.662013 0.191638 0.823194
0.793851 0.171695 0.843778
0.793851 0.17145 0.843732
0.0211337 0.701198 0.85211
0.02121 0.685908 0.849683
0.505089 0.567147 0.900542
0.863752 0.503517 0.89633
0.856672 0.473884 0.891066
0.495811 0.927657 0.869673
0.487922 0.927367 0.869993
0.530907 0.916259 0.876005
0.908415 0.923522 0.922347
0.932052 0.910628 0.92401
0.49836 0.926818 0.869368
0.495262 0.927825 0.869642
0.521263 0.926589 0.870848
0.889815 0.942382 0.919966
0.933944 0.945144 0.926894
