bundles/resolve-cinematic-luts/Phantom Luts/P4k & P6K Phntm Film LUTs - V6/P4K/Gen 5 Colour/Standard (No WB Offset)/P4k Vision Gen5.cube
TITLE "Generated by Resolve"
LUT_3D_SIZE 9
0.0224155 0.0224155 0.0224155
0.0241855 0.0241398 0.022385
0.0919356 0.0329747 0.0204471
0.305852 0.0416266 0.0191653
0.599847 0.104311 0.0689555
0.772824 0.165698 0.122866
0.778744 0.166125 0.127443
0.775235 0.170871 0.124956
0.776303 0.178378 0.124132
0.0222171 0.0396887 0.0229038
0.0226596 0.0391089 0.0222324
0.103136 0.0434272 0.0212558
0.315801 0.0470893 0.0232548
0.610239 0.110506 0.0725414
0.769451 0.173159 0.121874
0.772885 0.178561 0.124666
0.772671 0.182422 0.124697
0.777264 0.189578 0.126146
0.0256809 0.122927 0.0573587
0.0266575 0.119112 0.0453498
0.0657816 0.129839 0.03682
0.375723 0.110338 0.0479133
0.619715 0.140856 0.0867933
0.772854 0.196155 0.127321
0.773724 0.202838 0.129519
0.773754 0.224979 0.136034
0.777081 0.253025 0.146197
0.0483864 0.378515 0.182528
0.0548867 0.378622 0.166339
0.0514687 0.366598 0.123796
0.244022 0.392447 0.0728618
0.696696 0.417288 0.15349
0.789746 0.437934 0.230808
0.789883 0.43801 0.230335
0.795392 0.460716 0.232044
0.80383 0.500175 0.240284
0.131548 0.686015 0.451041
0.134203 0.684459 0.43888
0.14667 0.679423 0.411978
0.161639 0.64567 0.276768
0.576654 0.683482 0.146532
0.833677 0.705028 0.280278
0.836027 0.717678 0.319417
0.837156 0.721294 0.319127
0.835431 0.710399 0.318318
0.252018 0.848493 0.637644
0.253529 0.847791 0.629816
0.258808 0.845319 0.613382
0.303761 0.830976 0.561227
0.562142 0.820111 0.480079
0.785534 0.834653 0.3991
0.836515 0.84445 0.497826
0.836408 0.8439 0.49482
0.836362 0.841062 0.484779
0.248356 0.850767 0.650004
0.250263 0.849958 0.643732
0.254765 0.847013 0.625452
0.301015 0.832486 0.567529
0.557244 0.822934 0.507164
0.77998 0.841001 0.431647
0.836393 0.849058 0.515541
0.837034 0.85008 0.51957
0.837125 0.850217 0.519936
0.247501 0.85098 0.653834
0.249638 0.850278 0.647196
0.253864 0.847242 0.630106
0.295918 0.833341 0.572061
0.539361 0.822538 0.507179
0.77348 0.840925 0.429694
0.834882 0.848157 0.510353
0.83682 0.849805 0.519219
0.836957 0.849867 0.517922
0.247059 0.851331 0.6542
0.248737 0.850828 0.647623
0.251987 0.848707 0.636515
0.276905 0.838254 0.589837
0.424796 0.818891 0.506508
0.706279 0.840116 0.43592
0.826688 0.843061 0.48275
0.836759 0.849577 0.517693
0.836912 0.849714 0.516808
0.0223545 0.0230411 0.0250095
0.0301976 0.0239872 0.0283207
0.128222 0.021622 0.0331426
0.38407 0.0364233 0.0350347
0.668925 0.106828 0.0891737
0.784482 0.155795 0.127214
0.786664 0.160006 0.129274
0.785855 0.163439 0.128664
0.781689 0.171801 0.123919
0.0225071 0.0326238 0.0225071
0.0222171 0.0307927 0.0222629
0.111376 0.0328985 0.0198978
0.329152 0.0409247 0.0209964
0.629969 0.104631 0.0766613
0.782666 0.161074 0.126238
0.783078 0.166217 0.126925
0.778515 0.174334 0.124422
0.778531 0.184527 0.124743
0.0218051 0.114351 0.0657664
0.0251011 0.112978 0.0547341
0.0624552 0.122499 0.0362707
0.373037 0.0982528 0.0433814
0.623316 0.131975 0.0836652
0.774777 0.186725 0.125765
0.774792 0.194919 0.127108
0.774548 0.214939 0.132143
0.779507 0.247807 0.143618
0.0415198 0.372259 0.193698
0.0454566 0.370672 0.178454
0.0544442 0.367254 0.134691
0.240223 0.388022 0.0718853
0.694911 0.40795 0.152407
0.7888 0.421408 0.225818
0.789151 0.426062 0.227253
0.796414 0.46096 0.232486
0.803906 0.498573 0.239704
0.126009 0.683742 0.458259
0.127321 0.681178 0.446067
0.137636 0.676616 0.420859
0.15787 0.644709 0.28542
0.573999 0.680293 0.145266
0.834821 0.703273 0.28275
0.836072 0.714061 0.318059
0.836927 0.71751 0.3178
0.835508 0.706508 0.315999
0.250385 0.849699 0.644312
0.251621 0.849119 0.637217
0.255879 0.846754 0.621164
0.299687 0.832029 0.565881
0.55465 0.81886 0.478035
0.783291 0.834241 0.390585
0.83653 0.843259 0.494484
0.836362 0.842741 0.489876
0.836912 0.839017 0.477623
0.246967 0.851286 0.656138
0.248341 0.850767 0.650095
0.252674 0.84831 0.632929
0.294255 0.834119 0.573373
0.545708 0.822904 0.506737
0.777264 0.840955 0.430961
0.83624 0.848966 0.51519
0.837156 0.850324 0.520592
0.837232 0.850462 0.520775
0.246403 0.851469 0.66009
0.247669 0.850858 0.654154
0.251835 0.848661 0.638071
0.289143 0.835203 0.578195
0.527306 0.821805 0.50602
0.76997 0.840757 0.428824
0.834058 0.847822 0.508019
0.836957 0.85008 0.520546
0.83711 0.850126 0.519127
0.245823 0.851804 0.660761
0.247044 0.851286 0.654429
0.250385 0.849836 0.643702
0.271366 0.840345 0.596765
0.405921 0.818524 0.505959
0.69839 0.840421 0.437537
0.82504 0.842741 0.480949
0.836896 0.849882 0.518929
0.837049 0.849989 0.517998
0.0232395 0.0281834 0.111803
0.0415503 0.0272374 0.1037
0.11696 0.023209 0.0891585
0.380255 0.0239719 0.112032
0.703716 0.0864576 0.142245
0.797391 0.144381 0.161227
0.797147 0.147127 0.157961
0.795224 0.148257 0.148486
0.79382 0.153079 0.133013
0.0216526 0.0324254 0.0914931
0.0231327 0.0278935 0.103807
0.102678 0.0232395 0.0800336
0.367346 0.0216068 0.0802472
0.700313 0.104067 0.114214
0.792538 0.146471 0.140169
0.792172 0.149905 0.137255
0.791791 0.154574 0.133486
0.790387 0.162585 0.128725
0.0200504 0.106874 0.0913558
0.020325 0.10486 0.090425
0.0979934 0.115801 0.102495
0.38706 0.0814221 0.0567178
0.658213 0.117403 0.0882429
0.781201 0.164752 0.126619
0.77705 0.175555 0.125139
0.775448 0.193286 0.127352
0.77847 0.224826 0.135271
0.0309911 0.362325 0.225635
0.0336309 0.359686 0.210636
0.0431067 0.356558 0.16997
0.232746 0.377142 0.0648661
0.691417 0.386007 0.153079
0.787808 0.395682 0.213855
0.789075 0.413596 0.222141
0.795346 0.451804 0.233249
0.80296 0.488457 0.238941
0.116335 0.677729 0.473655
0.117006 0.675761 0.461997
0.122118 0.670985 0.438621
0.150484 0.644724 0.306859
0.56939 0.674861 0.143954
0.835828 0.700984 0.289281
0.836362 0.708293 0.317037
0.836805 0.710063 0.316777
0.836835 0.705989 0.314092
0.247059 0.851072 0.658122
0.247807 0.851011 0.651621
0.251331 0.849363 0.637583
0.286381 0.835309 0.576944
0.539712 0.816785 0.47248
0.779858 0.833097 0.376898
0.836637 0.841642 0.489799
0.836484 0.840894 0.484596
0.837201 0.83595 0.46833
0.238041 0.853452 0.674372
0.242969 0.852491 0.666987
0.248157 0.850843 0.650477
0.279698 0.83798 0.58706
0.525246 0.822065 0.505196
0.772 0.841199 0.432654
0.835645 0.84892 0.515679
0.837293 0.850767 0.523247
0.837324 0.850813 0.523232
0.234867 0.854139 0.678508
0.240116 0.853132 0.670573
0.247684 0.850843 0.654505
0.275227 0.839124 0.593118
0.502022 0.821607 0.505669
0.761242 0.840818 0.432349
0.832731 0.846998 0.503853
0.837125 0.850584 0.523354
0.837324 0.850614 0.521309
0.237552 0.853758 0.674113
0.242634 0.852644 0.667063
0.247257 0.851072 0.655299
0.263264 0.843626 0.609522
0.380911 0.818219 0.507668
0.688853 0.840375 0.440681
0.821866 0.841947 0.478218
0.837156 0.850355 0.520928
0.837278 0.850416 0.519921
0.0378882 0.0374914 0.334981
0.0614786 0.0377203 0.330037
0.13727 0.0317998 0.304952
0.351247 0.020676 0.269917
0.645884 0.0745708 0.367269
0.775204 0.102342 0.413794
0.782544 0.0971084 0.368612
0.793988 0.108461 0.32697
0.804974 0.123369 0.265446
0.0284733 0.0367285 0.334936
0.037644 0.0372778 0.332387
0.105608 0.0314488 0.315282
0.344167 0.0205539 0.263386
0.645792 0.0734417 0.358297
0.78117 0.0965133 0.375341
0.795239 0.108766 0.331884
0.79968 0.117464 0.307759
0.80621 0.128511 0.242069
0.0323339 0.085771 0.340032
0.0321355 0.0685435 0.340352
0.0547646 0.0501411 0.34432
0.329335 0.0224155 0.25098
0.646052 0.0716869 0.331075
0.799512 0.120211 0.304509
0.802945 0.127703 0.277852
0.804974 0.136202 0.242069
0.799283 0.151415 0.159136
0.0194247 0.34815 0.338216
0.019379 0.344869 0.334874
0.0194553 0.338842 0.328313
0.375189 0.391653 0.367071
0.704021 0.343221 0.290486
0.803784 0.324529 0.249866
0.797894 0.320378 0.232761
0.792508 0.340047 0.229374
0.790646 0.390509 0.234089
0.0619059 0.662531 0.542107
0.0636606 0.660365 0.533013
0.0698711 0.655039 0.513893
0.119387 0.646525 0.423453
0.565835 0.663951 0.222202
0.83093 0.694102 0.37763
0.831052 0.69604 0.380652
0.831922 0.696681 0.373251
0.83473 0.695064 0.346227
0.202197 0.854398 0.709194
0.206088 0.853712 0.701762
0.215793 0.850584 0.685985
0.24596 0.840787 0.625849
0.470283 0.813107 0.47071
0.770535 0.827497 0.335882
0.838407 0.835538 0.481071
0.838468 0.834669 0.477989
0.83917 0.828336 0.460914
0.189899 0.863508 0.73698
0.196292 0.862333 0.72874
0.210163 0.859449 0.710002
0.25069 0.850523 0.650752
0.432258 0.821729 0.520912
0.746944 0.841489 0.446845
0.831891 0.847669 0.508415
0.837964 0.852247 0.532677
0.83801 0.852186 0.53138
0.186343 0.864225 0.741634
0.193103 0.862974 0.732464
0.207706 0.859892 0.713344
0.249424 0.850797 0.655146
0.397879 0.820371 0.519326
0.724285 0.841306 0.449989
0.824414 0.843137 0.492088
0.837812 0.852171 0.533852
0.83798 0.85211 0.530892
0.200931 0.861372 0.722362
0.207858 0.859937 0.712917
0.218814 0.857679 0.699077
0.24773 0.851072 0.656168
0.337743 0.823484 0.536309
0.666499 0.839734 0.462394
0.813291 0.840146 0.468025
0.837888 0.851835 0.529686
0.83801 0.851865 0.528328
0.0915084 0.0701152 0.550347
0.111437 0.0706798 0.547875
0.166995 0.0499886 0.539666
0.401419 0.0674601 0.515023
0.651347 0.0779889 0.546242
0.74963 0.114549 0.599542
0.748379 0.106416 0.6112
0.749371 0.116274 0.595178
0.774136 0.137667 0.528267
0.0700389 0.068101 0.550469
0.0917525 0.0700694 0.550057
0.150729 0.0700847 0.544289
0.387167 0.0629282 0.513085
0.647089 0.0766461 0.542641
0.753002 0.12285 0.597803
0.748653 0.109789 0.605325
0.750027 0.115724 0.579446
0.774319 0.132464 0.511894
0.0482338 0.0719921 0.547845
0.0469215 0.0635691 0.544396
0.0947738 0.0692912 0.545998
0.348623 0.055024 0.508247
0.637797 0.0760662 0.533486
0.756268 0.127871 0.586023
0.755871 0.127382 0.586282
0.766629 0.141253 0.548012
0.771893 0.119341 0.487465
0.0649119 0.33727 0.664042
0.0682994 0.329152 0.66894
0.0705272 0.309758 0.674449
0.281239 0.251667 0.66714
0.686549 0.205768 0.589303
0.788495 0.203403 0.576883
0.792508 0.199329 0.5449
0.796735 0.157 0.512612
0.79585 0.139818 0.453788
0.034226 0.649088 0.66331
0.0326696 0.647471 0.661677
0.0315557 0.643046 0.656367
0.036759 0.633753 0.646189
0.663447 0.682277 0.661967
0.844221 0.668849 0.62324
0.842939 0.665873 0.605966
0.836789 0.662455 0.584009
0.828275 0.640116 0.523339
0.146883 0.854093 0.811536
0.141955 0.853193 0.807279
0.135576 0.849836 0.798383
0.140276 0.84065 0.765759
0.518837 0.831571 0.696956
0.788998 0.844663 0.605783
0.853223 0.834775 0.60737
0.853223 0.833173 0.604196
0.850217 0.823011 0.563195
0.232151 0.874647 0.838514
0.217136 0.875135 0.834867
0.194858 0.874647 0.827588
0.178332 0.870817 0.798917
0.417044 0.853452 0.702876
0.742504 0.864057 0.653971
0.830335 0.857206 0.575982
0.847791 0.869917 0.635294
0.846464 0.867323 0.62327
0.239689 0.875105 0.840574
0.22121 0.874907 0.835325
0.19646 0.87451 0.827665
0.175753 0.871046 0.79942
0.349279 0.852186 0.689418
0.721172 0.858534 0.650965
0.817548 0.852567 0.554437
0.846693 0.868223 0.627665
0.846601 0.86688 0.61825
0.180301 0.875227 0.82417
0.175967 0.873518 0.816434
0.172457 0.872084 0.80647
0.162646 0.869139 0.779477
0.271809 0.851438 0.665431
0.661112 0.842924 0.605554
0.801175 0.847639 0.511849
0.843061 0.86186 0.592477
0.845029 0.864225 0.603586
0.221271 0.167865 0.754147
0.244617 0.166445 0.753216
0.29778 0.152651 0.752987
0.472206 0.151095 0.741085
0.72253 0.177798 0.738384
0.790402 0.171328 0.750973
0.791653 0.174746 0.754559
0.791699 0.174731 0.754604
0.791745 0.174868 0.754681
0.196445 0.166735 0.753384
0.220386 0.166674 0.752743
0.278126 0.164385 0.751522
0.45832 0.150103 0.741283
0.71725 0.178042 0.736385
0.789654 0.169879 0.748959
0.792401 0.176501 0.755856
0.792462 0.176608 0.755932
0.791089 0.173953 0.752132
0.1411 0.16112 0.747829
0.162142 0.162661 0.748943
0.216693 0.162432 0.74786
0.422095 0.146227 0.740887
0.702876 0.178714 0.731075
0.788174 0.167697 0.743084
0.791348 0.175097 0.752239
0.793027 0.17792 0.755428
0.78436 0.163134 0.732601
0.100359 0.261677 0.78883
0.0995499 0.248005 0.783276
0.0959793 0.217685 0.768124
0.26392 0.185687 0.75996
0.654108 0.190829 0.726253
0.785229 0.167895 0.725444
0.786389 0.169818 0.728649
0.787518 0.172183 0.730617
0.778698 0.141573 0.686046
0.023621 0.658106 0.854917
0.0242771 0.654658 0.856077
0.0251316 0.649744 0.859419
0.0438849 0.635523 0.876005
0.626184 0.616938 0.873426
0.874754 0.617792 0.829602
0.881041 0.614328 0.827054
0.878813 0.607248 0.814145
0.864485 0.551766 0.765698
0.196612 0.847181 0.865675
0.188159 0.846906 0.865232
0.174685 0.844907 0.862837
0.177432 0.838087 0.854994
0.534737 0.834546 0.83241
0.828946 0.854826 0.838209
0.884077 0.854688 0.826307
0.884047 0.851209 0.816739
0.880217 0.838163 0.790494
0.430869 0.877195 0.875624
0.422553 0.877241 0.874525
0.412116 0.87657 0.872526
0.3953 0.875395 0.866194
0.519677 0.877577 0.845808
0.784421 0.902983 0.843824
0.865232 0.91574 0.83476
0.876814 0.912917 0.831983
0.874617 0.908568 0.818341
0.436622 0.878172 0.877333
0.427176 0.877546 0.875395
0.414939 0.876738 0.873091
0.392233 0.875395 0.8663
0.480583 0.875822 0.842405
0.757809 0.901549 0.835431
0.860731 0.918151 0.839551
0.870192 0.912764 0.808896
0.869245 0.910155 0.797513
0.403937 0.87541 0.86981
0.391226 0.875654 0.868421
0.378531 0.874937 0.86595
0.351827 0.874266 0.860166
0.346212 0.871794 0.832288
0.70161 0.88983 0.813153
0.840528 0.908568 0.81323
0.861784 0.906447 0.784649
0.867689 0.906233 0.784009
0.266712 0.185443 0.772732
0.290242 0.184741 0.772702
0.335744 0.162493 0.774685
0.500206 0.173861 0.761563
0.73962 0.195682 0.75491
0.793408 0.177981 0.757061
0.792691 0.176791 0.756207
0.792508 0.176486 0.755962
0.79234 0.176303 0.755734
0.242191 0.185107 0.772107
0.265873 0.185458 0.772732
0.317342 0.173434 0.774304
0.487068 0.173709 0.763424
0.734096 0.198322 0.753933
0.793805 0.178668 0.757519
0.79353 0.178241 0.757229
0.793454 0.178119 0.757122
0.793408 0.177996 0.757092
0.184024 0.180758 0.767056
0.210803 0.183185 0.76994
0.265141 0.185412 0.772717
0.453758 0.172259 0.766537
0.721111 0.204868 0.752926
0.794095 0.18088 0.758175
0.794247 0.181369 0.758312
0.794293 0.181537 0.758358
0.794171 0.18114 0.758251
0.107057 0.265827 0.814725
0.104906 0.249653 0.805097
0.0990921 0.215335 0.782391
0.303105 0.195972 0.77969
0.663218 0.206882 0.753094
0.796628 0.189792 0.761517
0.797848 0.193469 0.763317
0.798108 0.194995 0.763836
0.798001 0.194217 0.763622
0.045243 0.668498 0.916396
0.0483101 0.664332 0.91783
0.0542763 0.65864 0.920226
0.0790417 0.635935 0.921904
0.620706 0.607294 0.908934
0.871855 0.603433 0.865064
0.880919 0.597742 0.864317
0.880842 0.596735 0.864164
0.87602 0.570092 0.858061
0.355276 0.839704 0.901473
0.352224 0.838163 0.902052
0.343664 0.834623 0.901778
0.332738 0.825284 0.903349
0.573892 0.828702 0.909331
0.811154 0.836805 0.908827
0.892302 0.831983 0.891051
0.891691 0.828275 0.888579
0.892058 0.809964 0.875166
0.534707 0.885222 0.894591
0.531151 0.885008 0.894224
0.521279 0.884443 0.892958
0.491478 0.881086 0.889601
0.560479 0.881407 0.884092
0.793286 0.90544 0.887633
0.882887 0.919371 0.900984
0.900145 0.91931 0.902144
0.897276 0.91635 0.895674
0.542519 0.885664 0.895674
0.542519 0.885664 0.895674
0.536461 0.885298 0.894667
0.506325 0.883314 0.889601
0.5579 0.885451 0.880308
0.784955 0.915221 0.888441
0.870024 0.932204 0.903899
0.902296 0.933196 0.905547
0.903593 0.933227 0.90602
0.526452 0.884688 0.893187
0.519203 0.884413 0.892393
0.506889 0.883421 0.890929
0.482002 0.881727 0.886732
0.481773 0.879728 0.874296
0.740887 0.905776 0.876539
0.855573 0.929671 0.895705
0.899977 0.932937 0.902892
0.9028 0.932952 0.902953
0.277699 0.185321 0.772656
0.301045 0.184543 0.772839
0.346136 0.163592 0.774395
0.508583 0.173663 0.760143
0.744884 0.192874 0.75552
0.791714 0.174777 0.75462
0.793332 0.177783 0.756954
0.793057 0.17734 0.756634
0.792935 0.177142 0.756481
0.252247 0.184863 0.772213
0.276829 0.185397 0.772732
0.321904 0.161975 0.774884
0.495521 0.173831 0.762234
0.740063 0.195468 0.75491
0.792096 0.175769 0.755352
0.793942 0.178836 0.757641
0.793774 0.178546 0.757473
0.793698 0.178439 0.757397
0.195636 0.182177 0.768978
0.220295 0.183902 0.770657
0.275853 0.185458 0.772763
0.46215 0.17261 0.765469
0.726223 0.202365 0.753155
0.793484 0.17821 0.757214
0.794476 0.182223 0.758511
0.794476 0.182208 0.758526
0.7944 0.181888 0.75845
0.106111 0.258091 0.810529
0.103517 0.241581 0.799939
0.0975204 0.20618 0.776028
0.308629 0.190143 0.775784
0.667353 0.20676 0.75259
0.796582 0.187884 0.76144
0.797848 0.1935 0.763348
0.798077 0.194858 0.763806
0.797986 0.194095 0.763592
0.0568246 0.669657 0.922896
0.0569619 0.664347 0.922316
0.0589151 0.656443 0.92256
0.0816358 0.630198 0.921798
0.620081 0.598611 0.907805
0.8701 0.593637 0.863264
0.879591 0.587335 0.861708
0.879515 0.584695 0.861585
0.873396 0.557763 0.854917
0.416724 0.840085 0.907393
0.412695 0.83801 0.907469
0.405463 0.834348 0.908507
0.384451 0.823651 0.909514
0.569635 0.824948 0.912749
0.808194 0.832013 0.916854
0.89099 0.826429 0.90103
0.892119 0.822522 0.900465
0.892042 0.807584 0.897841
0.542519 0.885664 0.895674
0.542519 0.885664 0.895674
0.540383 0.885191 0.89572
0.516167 0.880217 0.8963
0.591394 0.880491 0.898512
0.808881 0.905303 0.910475
0.873228 0.916381 0.915419
0.895354 0.914687 0.914626
0.895262 0.910903 0.913512
0.542519 0.885664 0.895674
0.542519 0.885664 0.895674
0.542519 0.885664 0.895674
0.547036 0.885786 0.895354
0.610086 0.89192 0.89543
0.796521 0.919982 0.904326
0.872969 0.933394 0.914626
0.899641 0.936446 0.919142
0.900954 0.935866 0.92015
0.542519 0.885664 0.895674
0.542519 0.885664 0.895674
0.542519 0.885664 0.895674
0.544305 0.885649 0.895476
0.559853 0.88748 0.893355
0.762768 0.912367 0.897444
0.863722 0.933623 0.912108
0.896056 0.938094 0.918975
0.904341 0.93727 0.92137
0.280766 0.18529 0.772717
0.304479 0.184665 0.773037
0.347906 0.16379 0.77438
0.508278 0.173693 0.760266
0.74461 0.193042 0.755505
0.791562 0.173617 0.754391
0.793408 0.178042 0.757092
0.79321 0.1776 0.756802
0.793103 0.177417 0.756664
0.255711 0.185183 0.772488
0.280186 0.185214 0.772625
0.323964 0.161624 0.774853
0.495247 0.173846 0.76228
0.739315 0.195834 0.754864
0.791592 0.174411 0.754467
0.794049 0.179141 0.757778
0.793866 0.178714 0.757565
0.793774 0.178576 0.757473
0.19971 0.182498 0.769268
0.224765 0.184375 0.771221
0.279362 0.185199 0.77258
0.462104 0.17258 0.765454
0.725399 0.202853 0.753155
0.792432 0.176379 0.755917
0.794476 0.182406 0.758541
0.794476 0.182315 0.758541
0.794446 0.18204 0.75848
0.105104 0.250446 0.805478
0.102159 0.233921 0.795361
0.0974136 0.200046 0.772473
0.309651 0.187533 0.774182
0.665995 0.205798 0.752285
0.796292 0.186786 0.761227
0.797787 0.193286 0.763226
0.798016 0.194507 0.763668
0.797879 0.193606 0.763409
0.0569619 0.663371 0.922423
0.057969 0.658579 0.92253
0.0601205 0.65066 0.922133
0.0826276 0.623514 0.921813
0.614282 0.590036 0.905806
0.867811 0.582773 0.86099
0.877684 0.575845 0.860075
0.875975 0.571939 0.858076
0.871199 0.544732 0.852735
0.412467 0.837949 0.907454
0.408469 0.835813 0.907759
0.400244 0.831952 0.908537
0.377661 0.82034 0.910018
0.557717 0.820722 0.91252
0.80473 0.826169 0.917144
0.891173 0.819821 0.900252
0.891844 0.814954 0.899062
0.891997 0.800214 0.896895
0.542519 0.885664 0.895674
0.542519 0.885664 0.895674
0.535363 0.884276 0.895705
0.506798 0.878447 0.897215
0.582177 0.877348 0.899474
0.803677 0.902007 0.910231
0.87155 0.913207 0.915877
0.895369 0.912154 0.915877
0.894606 0.907515 0.915572
0.542519 0.885664 0.895674
0.542519 0.885664 0.895674
0.542519 0.885664 0.895674
0.546685 0.885771 0.895354
0.60473 0.891447 0.895567
0.794614 0.91841 0.90605
0.874784 0.933059 0.917723
0.896406 0.935821 0.920455
0.900191 0.93521 0.920256
0.542519 0.885664 0.895674
0.542519 0.885664 0.895674
0.542519 0.885664 0.895674
0.54432 0.885649 0.895476
0.568536 0.888014 0.895308
0.770092 0.914137 0.903136
0.864622 0.9346 0.916594
0.89662 0.938521 0.921035
0.902129 0.938933 0.921477
