bundles/resolve-cinematic-luts/Phantom Luts/P4k & P6K Phntm Film LUTs - V6/P4K/Gen 5 Colour/Standard (No WB Offset)/P4k Vision Gen5.cube
TITLE "Generated by Resolve"
LUT_3D_SIZE 5
0.0224155 0.0224155 0.0224155
0.0919356 0.0329747 0.0204471
0.599847 0.104311 0.0689555
0.778744 0.166125 0.127443
0.776303 0.178378 0.124132
0.0256809 0.122927 0.0573587
0.0657816 0.129839 0.03682
0.619715 0.140856 0.0867933
0.773724 0.202838 0.129519
0.777081 0.253025 0.146197
0.131548 0.686015 0.451041
0.14667 0.679423 0.411978
0.576654 0.683482 0.146532
0.836027 0.717678 0.319417
0.835431 0.710399 0.318318
0.248356 0.850767 0.650004
0.254765 0.847013 0.625452
0.557244 0.822934 0.507164
0.836393 0.849058 0.515541
0.837125 0.850217 0.519936
0.247059 0.851331 0.6542
0.251987 0.848707 0.636515
0.424796 0.818891 0.506508
0.826688 0.843061 0.48275
0.836912 0.849714 0.516808
0.0232395 0.0281834 0.111803
0.11696 0.023209 0.0891585
0.703716 0.0864576 0.142245
0.797147 0.147127 0.157961
0.79382 0.153079 0.133013
0.0200504 0.106874 0.0913558
0.0979934 0.115801 0.102495
0.658213 0.117403 0.0882429
0.77705 0.175555 0.125139
0.77847 0.224826 0.135271
0.116335 0.677729 0.473655
0.122118 0.670985 0.438621
0.56939 0.674861 0.143954
0.836362 0.708293 0.317037
0.836835 0.705989 0.314092
0.238041 0.853452 0.674372
0.248157 0.850843 0.650477
0.525246 0.822065 0.505196
0.835645 0.84892 0.515679
0.837324 0.850813 0.523232
0.237552 0.853758 0.674113
0.247257 0.851072 0.655299
0.380911 0.818219 0.507668
0.821866 0.841947 0.478218
0.837278 0.850416 0.519921
0.0915084 0.0701152 0.550347
0.166995 0.0499886 0.539666
0.651347 0.0779889 0.546242
0.748379 0.106416 0.6112
0.774136 0.137667 0.528267
0.0482338 0.0719921 0.547845
0.0947738 0.0692912 0.545998
0.637797 0.0760662 0.533486
0.755871 0.127382 0.586282
0.771893 0.119341 0.487465
0.034226 0.649088 0.66331
0.0315557 0.643046 0.656367
0.663447 0.682277 0.661967
0.842939 0.665873 0.605966
0.828275 0.640116 0.523339
0.232151 0.874647 0.838514
0.194858 0.874647 0.827588
0.417044 0.853452 0.702876
0.830335 0.857206 0.575982
0.846464 0.867323 0.62327
0.180301 0.875227 0.82417
0.172457 0.872084 0.80647
0.271809 0.851438 0.665431
0.801175 0.847639 0.511849
0.845029 0.864225 0.603586
0.266712 0.185443 0.772732
0.335744 0.162493 0.774685
0.73962 0.195682 0.75491
0.792691 0.176791 0.756207
0.79234 0.176303 0.755734
0.184024 0.180758 0.767056
0.265141 0.185412 0.772717
0.721111 0.204868 0.752926
0.794247 0.181369 0.758312
0.794171 0.18114 0.758251
0.045243 0.668498 0.916396
0.0542763 0.65864 0.920226
0.620706 0.607294 0.908934
0.880919 0.597742 0.864317
0.87602 0.570092 0.858061
0.534707 0.885222 0.894591
0.521279 0.884443 0.892958
0.560479 0.881407 0.884092
0.882887 0.919371 0.900984
0.897276 0.91635 0.895674
0.526452 0.884688 0.893187
0.506889 0.883421 0.890929
0.481773 0.879728 0.874296
0.855573 0.929671 0.895705
0.9028 0.932952 0.902953
0.280766 0.18529 0.772717
0.347906 0.16379 0.77438
0.74461 0.193042 0.755505
0.793408 0.178042 0.757092
0.793103 0.177417 0.756664
0.19971 0.182498 0.769268
0.279362 0.185199 0.77258
0.725399 0.202853 0.753155
0.794476 0.182406 0.758541
0.794446 0.18204 0.75848
0.0569619 0.663371 0.922423
0.0601205 0.65066 0.922133
0.614282 0.590036 0.905806
0.877684 0.575845 0.860075
0.871199 0.544732 0.852735
0.542519 0.885664 0.895674
0.535363 0.884276 0.895705
0.582177 0.877348 0.899474
0.87155 0.913207 0.915877
0.894606 0.907515 0.915572
0.542519 0.885664 0.895674
0.542519 0.885664 0.895674
0.568536 0.888014 0.895308
0.864622 0.9346 0.916594
0.902129 0.938933 0.921477
