bundles/resolve-cinematic-luts/Phantom Luts/P4k & P6K Phntm Film LUTs - V6/P4K/Gen 5 Colour/Standard (No WB Offset)/P4k Vision Gen5.cube
TITLE "Generated by Resolve"
LUT_3D_SIZE 33
0.0224155 0.0224155 0.0224155
0.0224155 0.0224155 0.0224155
0.0224155 0.0224155 0.0224155
0.0224155 0.0224155 0.0224155
0.0241855 0.0241398 0.022385
0.0324712 0.0247044 0.0222629
0.04477 0.027863 0.0224765
0.0642863 0.0303502 0.0215
0.0919356 0.0329747 0.0204471
0.12845 0.0353094 0.0198062
0.1832 0.0356909 0.0184939
0.244724 0.0379492 0.0178225
0.305852 0.0416266 0.0191653
0.369146 0.0491798 0.0264897
0.440131 0.0620432 0.0344396
0.516365 0.0818036 0.0487373
0.599847 0.104311 0.0689555
0.674434 0.12604 0.0888991
0.738476 0.146899 0.111406
0.765759 0.161624 0.119478
0.772824 0.165698 0.122866
0.773877 0.167269 0.123903
0.774182 0.167926 0.124269
0.774227 0.168612 0.124361
0.778744 0.166125 0.127443
0.775906 0.16788 0.125307
0.775982 0.168627 0.125643
0.775158 0.169665 0.125002
0.775235 0.170871 0.124956
0.775692 0.172351 0.12488
0.776059 0.174395 0.124697
0.776165 0.176074 0.124254
0.776303 0.178378 0.124132
0.0224155 0.0224155 0.0224155
0.0224155 0.0224155 0.0224155
0.0224155 0.0224155 0.0224155
0.0224155 0.0224155 0.0224155
0.024155 0.0243992 0.0224155
0.0325628 0.0250401 0.0223087
0.0456397 0.0281682 0.0223239
0.0663462 0.030869 0.0214389
0.0949722 0.0337072 0.0204318
0.133074 0.035523 0.019791
0.189273 0.0362707 0.0185397
0.249531 0.0385748 0.0179141
0.310628 0.0430304 0.0208133
0.373571 0.0506294 0.026978
0.443915 0.063386 0.0348516
0.523095 0.0838331 0.0502785
0.601755 0.106432 0.0699168
0.67744 0.127871 0.0905776
0.736919 0.149874 0.109392
0.766217 0.16347 0.120241
0.772946 0.167834 0.123476
0.773297 0.168597 0.123751
0.773251 0.169223 0.123735
0.773129 0.170199 0.123705
0.775479 0.168597 0.125322
0.775021 0.169406 0.124865
0.774563 0.170443 0.124636
0.774624 0.171725 0.124849
0.774655 0.173495 0.124773
0.774899 0.175372 0.124712
0.775143 0.176684 0.124483
0.775372 0.17882 0.124285
0.77612 0.180865 0.124376
0.0224155 0.0224155 0.0224155
0.0224155 0.0224155 0.0224155
0.0224155 0.0224155 0.0224155
0.0224155 0.0224155 0.0224155
0.022446 0.0245212 0.022446
0.0312352 0.0260777 0.0223697
0.0441444 0.0287327 0.0223239
0.066453 0.031754 0.0214389
0.0948959 0.0341039 0.0204623
0.132906 0.0359655 0.019852
0.189334 0.0370489 0.0186465
0.251133 0.0397803 0.0181735
0.312215 0.0441596 0.0213169
0.375921 0.0521706 0.0275883
0.447532 0.0653849 0.0360876
0.525536 0.0850385 0.0511482
0.602975 0.108003 0.0706188
0.679576 0.129503 0.0918135
0.736553 0.151492 0.109682
0.766613 0.166323 0.120638
0.771923 0.169467 0.123095
0.771969 0.170047 0.122942
0.772168 0.17084 0.123278
0.77229 0.17232 0.123522
0.772442 0.173922 0.123949
0.773953 0.171466 0.124529
0.773648 0.173083 0.12462
0.773388 0.174823 0.124727
0.773587 0.176242 0.124865
0.773617 0.177798 0.124437
0.774166 0.179629 0.124468
0.775219 0.181247 0.124331
0.775738 0.182666 0.124041
0.0222019 0.0270695 0.0222019
0.0223392 0.0263981 0.0223392
0.0224002 0.0254978 0.0224002
0.0224002 0.0253452 0.0224002
0.0221714 0.0274662 0.0221714
0.0282597 0.0326543 0.0226291
0.0445869 0.03299 0.022385
0.0667277 0.0330205 0.0216373
0.0957656 0.0350347 0.0205997
0.133669 0.0375067 0.0196994
0.190723 0.0384985 0.0188144
0.252049 0.0407263 0.0184329
0.314473 0.0450752 0.0217441
0.378744 0.0531472 0.0281529
0.449302 0.0661631 0.0363622
0.528542 0.0872663 0.0528573
0.607492 0.109346 0.0717479
0.680171 0.13138 0.0926528
0.738323 0.153979 0.110674
0.767727 0.167681 0.121813
0.770428 0.170794 0.122499
0.770367 0.171893 0.122408
0.771084 0.173388 0.123125
0.77145 0.174945 0.123537
0.773236 0.175525 0.124819
0.773022 0.174685 0.124437
0.773098 0.176074 0.124788
0.772702 0.177371 0.124559
0.772747 0.17911 0.124605
0.77351 0.180926 0.124819
0.774029 0.182177 0.124346
0.77499 0.183368 0.124376
0.77644 0.185351 0.125048
0.0222171 0.0396887 0.0229038
0.0221866 0.0390326 0.0225834
0.0221714 0.0373693 0.0221714
0.0221561 0.0363012 0.0221561
0.0226596 0.0391089 0.0222324
0.0275731 0.0404059 0.0224918
0.0459297 0.045304 0.0221256
0.0734264 0.0447242 0.0217594
0.103136 0.0434272 0.0212558
0.138338 0.0416419 0.0203861
0.193347 0.0411688 0.019089
0.254856 0.0430762 0.018967
0.315801 0.0470893 0.0232548
0.380682 0.0543832 0.0290227
0.452033 0.0676127 0.0372778
0.531029 0.0887465 0.0538338
0.610239 0.110506 0.0725414
0.684184 0.132982 0.0935378
0.741146 0.154894 0.111604
0.767941 0.170397 0.121508
0.769451 0.173159 0.121874
0.76968 0.174914 0.122271
0.772747 0.175601 0.123995
0.773083 0.176806 0.12459
0.772885 0.178561 0.124666
0.772519 0.180514 0.124788
0.772473 0.179355 0.124544
0.772732 0.181186 0.12488
0.772671 0.182422 0.124697
0.773007 0.183337 0.124651
0.774639 0.184924 0.125261
0.775662 0.186725 0.125673
0.777264 0.189578 0.126146
0.0214694 0.0514076 0.0277256
0.0215 0.0509804 0.026566
0.0218204 0.0493782 0.0251316
0.0216373 0.0475471 0.0231327
0.0233921 0.0489357 0.0236667
0.0283818 0.0527352 0.0235142
0.0375525 0.0534524 0.0224918
0.0783856 0.0578927 0.0223239
0.109087 0.0584421 0.0233463
0.151781 0.0534218 0.023743
0.203769 0.0491951 0.0220798
0.257374 0.0478828 0.0217746
0.318791 0.0506294 0.025742
0.383017 0.0572061 0.030457
0.453727 0.0692149 0.0381018
0.534874 0.0914778 0.0557259
0.613046 0.112505 0.0738537
0.686839 0.135027 0.0945754
0.742641 0.157488 0.112245
0.769543 0.172702 0.121904
0.772457 0.176028 0.123598
0.77261 0.17731 0.123919
0.772915 0.178943 0.124361
0.773266 0.180652 0.124788
0.772885 0.181933 0.124544
0.772595 0.183093 0.12462
0.772717 0.182834 0.124666
0.772976 0.184131 0.125261
0.773251 0.185702 0.125612
0.77409 0.187518 0.126085
0.775158 0.189944 0.126467
0.776257 0.191882 0.126833
0.777173 0.193515 0.126604
0.021088 0.0693675 0.0348821
0.0213016 0.0692149 0.0332952
0.0212253 0.0680247 0.0316167
0.0216983 0.0660105 0.0292363
0.0227054 0.0645151 0.0268254
0.0291447 0.0686961 0.0280919
0.0364996 0.0723278 0.027512
0.0589609 0.0708629 0.0228428
0.113024 0.0766766 0.0249943
0.160906 0.0716564 0.0262608
0.218677 0.0618906 0.0272984
0.273762 0.0602274 0.0280766
0.324819 0.0597848 0.0296178
0.386496 0.0635233 0.0323949
0.45774 0.0743572 0.0402228
0.537163 0.0953689 0.0571603
0.614801 0.115679 0.0760357
0.687221 0.138201 0.0955215
0.742977 0.160403 0.11371
0.771725 0.177615 0.123903
0.77261 0.179858 0.124605
0.772534 0.181674 0.124773
0.772168 0.182849 0.124773
0.772366 0.184207 0.125307
0.772442 0.185901 0.125719
0.772793 0.187762 0.126238
0.772946 0.190143 0.126589
0.772992 0.18999 0.126574
0.773663 0.192035 0.127474
0.773541 0.193347 0.127306
0.774121 0.195087 0.127275
0.774853 0.197269 0.127428
0.775372 0.204211 0.128832
0.0233616 0.092607 0.0441444
0.023682 0.0929274 0.042237
0.0236057 0.0921798 0.0403296
0.0236057 0.0905776 0.0370336
0.0238804 0.0884565 0.0338903
0.0261692 0.0880751 0.0319219
0.0379034 0.0956436 0.0345769
0.0498665 0.0983749 0.0323644
0.0881514 0.0923171 0.0233768
0.167849 0.0979934 0.0285801
0.23093 0.0833448 0.031754
0.292668 0.078172 0.0337682
0.348882 0.0788586 0.0361791
0.400336 0.0804761 0.0392615
0.462531 0.087892 0.0466621
0.542077 0.104387 0.0623636
0.616464 0.120912 0.0784314
0.688106 0.143114 0.0976577
0.742229 0.16434 0.114641
0.772335 0.182803 0.124804
0.772396 0.184146 0.125292
0.772381 0.185916 0.125704
0.772686 0.188037 0.126223
0.772946 0.190585 0.12665
0.773495 0.192401 0.127581
0.7729 0.193988 0.127184
0.773007 0.195911 0.127413
0.773037 0.19826 0.127733
0.77319 0.199039 0.127962
0.773312 0.20473 0.12929
0.774517 0.210773 0.131991
0.774655 0.216373 0.132876
0.775967 0.223209 0.134951
0.0256809 0.122927 0.0573587
0.0262455 0.123049 0.0549172
0.0263371 0.123491 0.0521248
0.0263218 0.121889 0.0489662
0.0266575 0.119112 0.0453498
0.0275578 0.11577 0.0407568
0.0319371 0.117708 0.03888
0.0499733 0.129412 0.0416724
0.0657816 0.129839 0.03682
0.126986 0.119402 0.0242313
0.234516 0.126055 0.0315404
0.310506 0.108644 0.0407416
0.375723 0.110338 0.0479133
0.436973 0.116258 0.0559548
0.491737 0.121019 0.0635996
0.5505 0.127886 0.0725261
0.619715 0.140856 0.0867933
0.69131 0.157702 0.103471
0.742535 0.175647 0.117632
0.772198 0.194553 0.127062
0.772854 0.196155 0.127321
0.7729 0.196109 0.127382
0.773083 0.195087 0.127382
0.773007 0.197284 0.127565
0.773724 0.202838 0.129519
0.772976 0.207919 0.130343
0.77319 0.214038 0.132753
0.773449 0.218936 0.134478
0.773754 0.224979 0.136034
0.77406 0.227359 0.136751
0.774685 0.232807 0.13901
0.775662 0.242878 0.142885
0.777081 0.253025 0.146197
0.0238804 0.166217 0.070161
0.0241855 0.166903 0.067628
0.024567 0.167178 0.0642863
0.0246281 0.167117 0.0604715
0.0256352 0.16463 0.0576333
0.0260471 0.161013 0.0535439
0.0268254 0.154849 0.0460059
0.0348058 0.160723 0.043122
0.0622416 0.179065 0.0472877
0.0834363 0.177096 0.0379492
0.186374 0.16022 0.0239109
0.312642 0.180209 0.039704
0.399237 0.163958 0.0603189
0.463249 0.164202 0.070573
0.524392 0.171466 0.0803845
0.577432 0.174823 0.0900282
0.634241 0.182437 0.100893
0.689494 0.192538 0.11191
0.740459 0.207614 0.124254
0.771969 0.219364 0.134142
0.773831 0.219394 0.134585
0.773648 0.220295 0.134707
0.773831 0.22359 0.135531
0.773983 0.226917 0.136538
0.773541 0.231479 0.138323
0.773938 0.235966 0.140444
0.77467 0.243503 0.143206
0.774868 0.252354 0.147082
0.775204 0.261723 0.150408
0.77586 0.270893 0.153826
0.777218 0.276783 0.15671
0.778531 0.285817 0.159365
0.780285 0.295216 0.163668
0.0280919 0.229938 0.0953078
0.0287633 0.230198 0.092607
0.0307164 0.231006 0.0908217
0.0305638 0.231052 0.0866865
0.0347295 0.232212 0.0838788
0.0309148 0.227085 0.0768292
0.0306401 0.222156 0.0702678
0.0288243 0.211093 0.0555276
0.0471504 0.225238 0.0559396
0.0910201 0.251377 0.0653544
0.120882 0.246601 0.0502937
0.259678 0.222232 0.0252232
0.393454 0.244327 0.0483711
0.480766 0.238956 0.0738689
0.542504 0.239948 0.0949569
0.605341 0.245197 0.109056
0.658488 0.246769 0.119402
0.707668 0.251621 0.131197
0.746151 0.260151 0.142351
0.771695 0.268849 0.151415
0.775479 0.269306 0.152789
0.776059 0.267323 0.152377
0.776135 0.267842 0.152575
0.776867 0.27335 0.155444
0.776684 0.27924 0.157229
0.777661 0.285878 0.159594
0.7785 0.293782 0.163561
0.778897 0.30132 0.166735
0.779187 0.311711 0.172427
0.7794 0.32253 0.177203
0.780529 0.332815 0.183337
0.781933 0.340536 0.18645
0.783505 0.351858 0.192081
0.0373083 0.303365 0.130831
0.038117 0.303487 0.128191
0.0441291 0.30663 0.127886
0.0442206 0.305928 0.123735
0.0443427 0.305013 0.118395
0.044831 0.304982 0.113008
0.0440223 0.301381 0.105531
0.0397498 0.294347 0.0955673
0.0393835 0.282368 0.074876
0.0720378 0.303075 0.0774243
0.124681 0.327123 0.0860914
0.175982 0.320012 0.0652018
0.337972 0.291661 0.0263371
0.464912 0.313344 0.0582589
0.561013 0.324727 0.0944533
0.623392 0.329305 0.120195
0.677333 0.331456 0.148379
0.726497 0.332921 0.16379
0.758724 0.337896 0.176455
0.778805 0.343862 0.187015
0.782238 0.343465 0.188235
0.782132 0.341436 0.187366
0.781826 0.339727 0.186465
0.781765 0.339666 0.186343
0.781872 0.340993 0.186938
0.782635 0.349844 0.191608
0.783047 0.357977 0.195758
0.783505 0.366598 0.199924
0.784192 0.37557 0.205005
0.785382 0.385138 0.20885
0.786374 0.398169 0.21442
0.788022 0.409537 0.220233
0.789425 0.421485 0.224918
0.0483864 0.378515 0.182528
0.0489662 0.378882 0.179568
0.0534981 0.379232 0.176379
0.0539101 0.378897 0.171695
0.0548867 0.378622 0.166339
0.0561074 0.37818 0.159686
0.0567178 0.377951 0.150164
0.0565652 0.374716 0.138445
0.0514687 0.366598 0.123796
0.0523384 0.354543 0.0958267
0.102388 0.380011 0.100786
0.178698 0.402197 0.109789
0.244022 0.392447 0.0728618
0.412055 0.363928 0.0306249
0.529137 0.381308 0.0697795
0.635142 0.410056 0.119478
0.696696 0.417288 0.15349
0.736996 0.422736 0.180896
0.770382 0.428885 0.209522
0.789212 0.436286 0.22948
0.789746 0.437934 0.230808
0.789349 0.435462 0.230426
0.789334 0.435203 0.230304
0.789746 0.436439 0.230533
0.789883 0.43801 0.230335
0.790692 0.440269 0.230594
0.791257 0.442466 0.230564
0.792935 0.450385 0.231067
0.795392 0.460716 0.232044
0.797742 0.472145 0.234455
0.800244 0.483772 0.237736
0.802838 0.494697 0.239811
0.80383 0.500175 0.240284
0.0637522 0.455482 0.241474
0.064332 0.455329 0.238941
0.0653086 0.455131 0.235065
0.0668498 0.454948 0.231495
0.0661173 0.453559 0.226261
0.0692912 0.45362 0.22179
0.0694896 0.451911 0.213062
0.0699016 0.45066 0.198734
0.0702068 0.446616 0.182498
0.0677501 0.438956 0.159274
0.0716106 0.428672 0.118532
0.147753 0.456962 0.130343
0.2495 0.476829 0.137224
0.321889 0.464866 0.0816663
0.487129 0.439231 0.0393072
0.593225 0.449744 0.0829633
0.707912 0.497368 0.148836
0.758114 0.504005 0.197681
0.784329 0.513191 0.218982
0.80322 0.521309 0.237629
0.808179 0.529198 0.247303
0.808148 0.528939 0.247318
0.808194 0.530037 0.247379
0.808728 0.531762 0.247745
0.809049 0.533379 0.247944
0.809918 0.535409 0.248646
0.810086 0.536843 0.248783
0.810086 0.538491 0.24889
0.810529 0.54081 0.249577
0.812192 0.545846 0.251499
0.813382 0.552254 0.253544
0.814786 0.558526 0.254765
0.816678 0.564111 0.256001
0.0831159 0.533074 0.308965
0.0839246 0.533394 0.30605
0.0846113 0.53257 0.30277
0.0852827 0.531914 0.298024
0.0861524 0.53167 0.294911
0.0877394 0.53106 0.289921
0.0873274 0.528817 0.28188
0.0865492 0.526894 0.270466
0.0862593 0.523964 0.251347
0.0870527 0.518349 0.230106
0.0905318 0.510231 0.20322
0.110109 0.506935 0.157565
0.221012 0.530571 0.177081
0.326131 0.550973 0.167086
0.405295 0.536355 0.0966354
0.557931 0.515709 0.0621653
0.662181 0.522988 0.102586
0.758862 0.57171 0.169253
0.803998 0.58941 0.240757
0.820249 0.596246 0.260731
0.826123 0.604974 0.272145
0.826993 0.606882 0.273243
0.826886 0.607599 0.273396
0.826795 0.609003 0.273777
0.827314 0.611292 0.2748
0.828031 0.613931 0.275944
0.829007 0.616587 0.277272
0.828717 0.618082 0.277317
0.82884 0.61915 0.27805
0.828855 0.619455 0.278141
0.828687 0.618082 0.277348
0.829435 0.622187 0.279042
0.831479 0.626429 0.279408
0.104463 0.610468 0.380636
0.105028 0.610162 0.377447
0.105745 0.60943 0.373434
0.10692 0.609155 0.370489
0.107713 0.608286 0.36643
0.109056 0.607324 0.362478
0.110674 0.606806 0.35668
0.114168 0.604974 0.347097
0.112367 0.601831 0.330648
0.11191 0.596613 0.307347
0.113939 0.5888 0.279652
0.120546 0.578592 0.241886
0.17293 0.58146 0.209613
0.305974 0.603098 0.232395
0.403174 0.624201 0.193744
0.496468 0.609384 0.113664
0.62388 0.59115 0.0994888
0.727245 0.60061 0.127611
0.787213 0.628473 0.193713
0.826902 0.658579 0.262959
0.835889 0.670069 0.28809
0.835752 0.672312 0.291142
0.835508 0.673381 0.292165
0.835203 0.674067 0.293278
0.834943 0.675044 0.294499
0.834806 0.676387 0.295735
0.834974 0.677241 0.297734
0.835126 0.677913 0.298665
0.835142 0.678157 0.299062
0.835111 0.677852 0.29865
0.834791 0.676829 0.297093
0.834867 0.674998 0.295064
0.835218 0.67303 0.293706
0.131548 0.686015 0.451041
0.132403 0.686091 0.448081
0.132647 0.685573 0.444877
0.133181 0.684764 0.44184
0.134203 0.684459 0.43888
0.13521 0.683589 0.435538
0.13724 0.682612 0.43064
0.140993 0.681544 0.423697
0.14667 0.679423 0.411978
0.148013 0.674876 0.391943
0.149996 0.667765 0.364843
0.151797 0.657984 0.33077
0.161639 0.64567 0.276768
0.265354 0.654169 0.263066
0.395819 0.675196 0.283284
0.478523 0.6963 0.223972
0.576654 0.683482 0.146532
0.679011 0.666133 0.144411
0.772747 0.675395 0.159289
0.810117 0.688136 0.216602
0.833677 0.705028 0.280278
0.834669 0.711604 0.316945
0.834821 0.714153 0.319631
0.835172 0.715801 0.319432
0.836027 0.717678 0.319417
0.836851 0.719051 0.31989
0.83714 0.720043 0.319783
0.837247 0.720928 0.319402
0.837156 0.721294 0.319127
0.837186 0.721279 0.319112
0.837232 0.719707 0.319463
0.835996 0.716152 0.318242
0.835431 0.710399 0.318318
0.168795 0.754376 0.516045
0.16907 0.753979 0.513481
0.169421 0.753216 0.510643
0.169802 0.752636 0.50808
0.170626 0.752071 0.505302
0.171267 0.751019 0.50164
0.172793 0.750286 0.497108
0.174609 0.748653 0.49041
0.180194 0.746624 0.481239
0.190356 0.744076 0.468208
0.192477 0.738872 0.444694
0.19646 0.727962 0.413046
0.198215 0.716442 0.36849
0.222126 0.706447 0.303944
0.369421 0.719661 0.317632
0.478294 0.740948 0.312795
0.554009 0.757534 0.247761
0.649226 0.747417 0.193088
0.728115 0.732845 0.203601
0.798795 0.739193 0.21973
0.837598 0.751553 0.219776
0.843595 0.758862 0.303304
0.844312 0.76437 0.328145
0.844465 0.765667 0.329747
0.844465 0.766674 0.330938
0.844572 0.767559 0.331884
0.844739 0.768719 0.332341
0.844892 0.769482 0.332631
0.844968 0.76968 0.332738
0.844831 0.76875 0.332204
0.844663 0.766812 0.331182
0.844419 0.764096 0.329168
0.843397 0.757824 0.325246
0.211429 0.803449 0.571603
0.211566 0.802838 0.568994
0.211658 0.802319 0.566659
0.211673 0.801724 0.564187
0.211933 0.801221 0.56173
0.212604 0.800244 0.558679
0.213306 0.799084 0.554589
0.214542 0.79823 0.549386
0.218372 0.797116 0.541665
0.224537 0.794888 0.529488
0.235248 0.791608 0.512978
0.238376 0.782681 0.485176
0.239597 0.770871 0.448798
0.244327 0.758526 0.388983
0.336919 0.759014 0.349828
0.468986 0.770062 0.36965
0.55462 0.791089 0.330205
0.626703 0.799023 0.273793
0.71606 0.792096 0.23975
0.765637 0.780102 0.263783
0.817472 0.783902 0.273259
0.838346 0.795834 0.335912
0.841398 0.803937 0.384924
0.841199 0.804807 0.390311
0.841352 0.805325 0.391257
0.841321 0.806043 0.392554
0.841199 0.806271 0.392889
0.841031 0.806516 0.39324
0.84123 0.806271 0.392538
0.841428 0.805814 0.391516
0.841169 0.804425 0.388769
0.841703 0.802808 0.38468
0.842145 0.799451 0.377218
0.240757 0.835416 0.614908
0.241306 0.835111 0.613016
0.241749 0.834943 0.610742
0.242039 0.834684 0.608988
0.242618 0.834287 0.606378
0.242969 0.833783 0.603861
0.243671 0.833097 0.60061
0.245151 0.832105 0.595605
0.247242 0.830549 0.588876
0.252445 0.828107 0.577829
0.261326 0.824842 0.563119
0.273518 0.820478 0.545998
0.277928 0.809995 0.516548
0.280751 0.797864 0.471977
0.323568 0.790982 0.413748
0.460594 0.795468 0.411353
0.552193 0.808209 0.403204
0.622736 0.821653 0.352926
0.697032 0.822583 0.315297
0.757763 0.819959 0.307408
0.793606 0.810239 0.33846
0.825269 0.814038 0.379629
0.836316 0.82562 0.432624
0.837858 0.828367 0.447898
0.837797 0.828717 0.44892
0.837781 0.828931 0.449302
0.837812 0.829053 0.449546
0.837827 0.829114 0.449546
0.837842 0.828931 0.44892
0.837934 0.828428 0.447395
0.838102 0.827604 0.444511
0.837858 0.826352 0.441016
0.83798 0.823926 0.433783
0.252018 0.848493 0.637644
0.252415 0.848325 0.635645
0.252674 0.848188 0.633463
0.25301 0.848035 0.631754
0.253529 0.847791 0.629816
0.254047 0.847486 0.627359
0.254887 0.84712 0.62414
0.25626 0.846662 0.620127
0.258808 0.845319 0.613382
0.263279 0.843214 0.604303
0.272206 0.840055 0.592569
0.285954 0.83592 0.57792
0.303761 0.830976 0.561227
0.313207 0.822492 0.532036
0.349432 0.814878 0.493294
0.464134 0.81677 0.479103
0.562142 0.820111 0.480079
0.620233 0.831495 0.441001
0.680659 0.836316 0.404273
0.75404 0.836484 0.387625
0.785534 0.834653 0.3991
0.81207 0.831464 0.433875
0.831388 0.838712 0.471015
0.836011 0.843565 0.495125
0.836515 0.84445 0.497826
0.836469 0.844358 0.496788
0.836423 0.844236 0.496193
0.836423 0.844129 0.495521
0.836408 0.8439 0.49482
0.836347 0.843671 0.493889
0.836362 0.843397 0.492653
0.836255 0.842817 0.490257
0.836362 0.841062 0.484779
0.251194 0.848997 0.642451
0.25156 0.848829 0.640467
0.251606 0.848722 0.6392
0.252049 0.848524 0.63743
0.252476 0.848386 0.634989
0.252872 0.848096 0.63238
0.253773 0.847501 0.629343
0.255009 0.846876 0.624537
0.257557 0.845884 0.618204
0.261936 0.843717 0.607813
0.270588 0.840558 0.595987
0.283345 0.8365 0.581476
0.304326 0.831647 0.564736
0.318181 0.825727 0.542565
0.363088 0.819684 0.518135
0.465583 0.821286 0.506752
0.567102 0.823529 0.508782
0.624903 0.832609 0.481086
0.67805 0.839368 0.448173
0.747677 0.839826 0.434104
0.784466 0.839857 0.438193
0.807111 0.838178 0.457145
0.82742 0.843473 0.4878
0.835676 0.848905 0.517769
0.836957 0.850309 0.52343
0.836912 0.850172 0.522515
0.83682 0.849943 0.520958
0.836728 0.849729 0.520012
0.836713 0.849561 0.518791
0.836652 0.849393 0.517769
0.836591 0.84921 0.516732
0.836469 0.848829 0.514565
0.836591 0.84799 0.510643
0.250278 0.84976 0.645838
0.250568 0.849546 0.644572
0.250858 0.849424 0.642725
0.251255 0.849271 0.640528
0.251453 0.849088 0.639048
0.251987 0.848753 0.636576
0.25272 0.848249 0.632807
0.253941 0.847379 0.628199
0.255863 0.846464 0.621851
0.260655 0.844419 0.611093
0.269123 0.841138 0.598367
0.281895 0.836988 0.582696
0.303426 0.831876 0.565881
0.317449 0.826032 0.543435
0.361578 0.819913 0.518624
0.459998 0.820951 0.506783
0.563561 0.823301 0.508278
0.620905 0.832029 0.483391
0.674601 0.839139 0.448798
0.74078 0.840009 0.432944
0.782483 0.840284 0.434714
0.804044 0.838651 0.452064
0.824979 0.842268 0.48069
0.835142 0.848081 0.509468
0.836759 0.849714 0.519677
0.836973 0.850217 0.521843
0.837034 0.850294 0.522118
0.837079 0.850355 0.522118
0.837125 0.850416 0.52195
0.83714 0.85037 0.521309
0.837064 0.850217 0.520531
0.836988 0.85005 0.519753
0.836881 0.849836 0.518883
0.249454 0.850309 0.648173
0.249943 0.850126 0.646769
0.249989 0.849943 0.645518
0.250477 0.849744 0.643671
0.250889 0.849622 0.641337
0.25127 0.849271 0.639307
0.25211 0.848707 0.635798
0.253376 0.847837 0.630411
0.255222 0.846769 0.623758
0.259617 0.844984 0.613382
0.26772 0.841657 0.600153
0.280705 0.837293 0.584009
0.302159 0.832181 0.566674
0.316793 0.826459 0.544335
0.358892 0.820203 0.519249
0.455634 0.820493 0.506645
0.559991 0.823102 0.507561
0.617166 0.831632 0.484932
0.671077 0.839048 0.449226
0.737026 0.840177 0.431785
0.781476 0.840787 0.432837
0.802167 0.839277 0.448936
0.82237 0.84094 0.474464
0.834043 0.847257 0.503273
0.836545 0.849302 0.517372
0.836927 0.850019 0.52018
0.836988 0.850111 0.520409
0.837049 0.850172 0.520439
0.837095 0.850217 0.520409
0.837125 0.850263 0.520302
0.83714 0.850248 0.52015
0.83714 0.850263 0.520134
0.837125 0.850233 0.520134
0.248356 0.850767 0.650004
0.249119 0.850553 0.648203
0.249607 0.85034 0.646815
0.249882 0.850172 0.645579
0.250263 0.849958 0.643732
0.250935 0.849653 0.640757
0.251606 0.849073 0.637781
0.252796 0.848234 0.632334
0.254765 0.847013 0.625452
0.259037 0.845396 0.614923
0.266712 0.842039 0.601419
0.279988 0.837446 0.584817
0.301015 0.832486 0.567529
0.316487 0.826719 0.544976
0.35642 0.820172 0.518822
0.453223 0.820233 0.506355
0.557244 0.822934 0.507164
0.614328 0.831144 0.486107
0.66923 0.83888 0.449226
0.733532 0.840116 0.431434
0.77998 0.841001 0.431647
0.800427 0.839536 0.446693
0.820737 0.839658 0.470726
0.833051 0.846433 0.499153
0.836393 0.849058 0.515541
0.836881 0.849867 0.519219
0.836927 0.849958 0.519539
0.836988 0.850034 0.519615
0.837034 0.85008 0.51957
0.837079 0.850126 0.519463
0.83711 0.850156 0.519463
0.83711 0.850187 0.519615
0.837125 0.850217 0.519936
0.247913 0.850935 0.651301
0.248341 0.850813 0.649683
0.249088 0.850599 0.647791
0.249546 0.850401 0.64651
0.249851 0.850248 0.645212
0.250446 0.849928 0.642344
0.251225 0.849378 0.639094
0.252445 0.848524 0.633707
0.254353 0.847257 0.626719
0.258595 0.845701 0.616358
0.265965 0.842359 0.602396
0.279362 0.837674 0.585748
0.300175 0.832685 0.56817
0.31606 0.826993 0.545708
0.352483 0.820203 0.518868
0.448554 0.820264 0.506447
0.554208 0.82295 0.506783
0.612863 0.830701 0.486732
0.66627 0.838804 0.450202
0.730571 0.84004 0.431281
0.778958 0.840818 0.430716
0.799176 0.839582 0.444343
0.819211 0.83917 0.467842
0.83209 0.845716 0.496025
0.836088 0.848737 0.513848
0.836835 0.849775 0.51873
0.836881 0.849851 0.51902
0.836927 0.849912 0.519112
0.836973 0.849973 0.519081
0.837003 0.850004 0.519036
0.837034 0.85005 0.51902
0.837064 0.85008 0.519142
0.837064 0.850111 0.519356
0.247776 0.85098 0.652125
0.248005 0.850889 0.650889
0.248646 0.850736 0.648997
0.249241 0.850538 0.647227
0.249592 0.850385 0.645884
0.25005 0.850141 0.64361
0.251072 0.849622 0.63975
0.252216 0.848768 0.634836
0.253971 0.847456 0.627802
0.258335 0.845945 0.617639
0.265461 0.842664 0.603281
0.278737 0.837934 0.586542
0.299474 0.832883 0.568704
0.31545 0.827329 0.546853
0.349523 0.820462 0.519402
0.444312 0.820386 0.506554
0.551034 0.823026 0.506676
0.610346 0.830304 0.4878
0.662852 0.838666 0.451591
0.725383 0.840436 0.431861
0.776989 0.840787 0.429755
