bundles/resolve-cinematic-luts/Phantom Luts/P4k & P6K Phntm Film LUTs - V6/P4K/Gen 5 Colour/Standard (No WB Offset)/P4k Bleach Gen5-Legacy.cube
TITLE "Generated by Resolve"
LUT_3D_SIZE 5
0.0252842 0.0381933 0.0270085
0.0479133 0.0473182 0.0320897
0.255268 0.0580453 0.0453346
0.725597 0.103532 0.0951095
0.812192 0.127825 0.120562
0.0399634 0.0869001 0.0509651
0.0720073 0.102083 0.0437629
0.449851 0.102663 0.0667887
0.830365 0.17319 0.136278
0.855039 0.206165 0.158038
0.0146792 0.427253 0.128313
0.0166629 0.455467 0.0870222
0.53077 0.621698 0.0895399
0.957259 0.791318 0.425238
0.950256 0.813519 0.362081
0.099382 0.799252 0.395743
0.115129 0.792889 0.338857
0.597513 0.813153 0.271458
0.918486 0.904509 0.417197
0.929046 0.908904 0.480903
0.0973373 0.799908 0.409506
0.132586 0.789944 0.309712
0.722301 0.851209 0.303838
0.928756 0.909041 0.450599
0.929 0.908873 0.479912
0.0255741 0.0412451 0.0421454
0.0480659 0.0434882 0.0463874
0.291875 0.0548409 0.0732128
0.798566 0.138964 0.149599
0.835172 0.155169 0.187411
0.0386664 0.0832532 0.0666819
0.079881 0.0943313 0.0806287
0.486519 0.0850996 0.0696422
0.816144 0.133791 0.123217
0.822385 0.143893 0.131289
0.00967422 0.430289 0.17113
0.0118105 0.454368 0.138308
0.536355 0.622858 0.0928511
0.95581 0.771893 0.388708
0.95256 0.799634 0.436149
0.0914168 0.801602 0.458045
0.099733 0.799359 0.398001
0.520836 0.802686 0.262486
0.904646 0.898222 0.404166
0.92932 0.90898 0.49247
0.0903029 0.804288 0.533425
0.0996567 0.799969 0.411536
0.641154 0.822751 0.29514
0.908766 0.899886 0.415137
0.929473 0.909072 0.497093
0.0292668 0.046479 0.159045
0.0623331 0.0492561 0.184726
0.334249 0.0578012 0.253697
0.822553 0.0720073 0.404562
0.859937 0.099382 0.533349
0.0209812 0.0585794 0.258564
0.0424811 0.053193 0.304417
0.524346 0.065156 0.384085
0.847272 0.081651 0.504616
0.870344 0.126848 0.569284
0.00862135 0.423011 0.357992
0.0075227 0.44564 0.379202
0.636255 0.621332 0.601129
0.956786 0.684642 0.643595
0.961303 0.716167 0.677699
0.125872 0.810529 0.662623
0.112184 0.807523 0.64123
0.411383 0.807935 0.574899
0.913649 0.910979 0.637736
0.947646 0.923659 0.682582
0.210681 0.819745 0.725353
0.174945 0.816175 0.691173
0.568322 0.838453 0.664149
0.926375 0.923064 0.710903
0.950118 0.927367 0.702861
0.0474556 0.0590524 0.432135
0.0805829 0.0644694 0.503334
0.41593 0.075349 0.617426
0.840253 0.0979477 0.700664
0.90132 0.161852 0.810376
0.0349279 0.0740215 0.58674
0.0793774 0.083238 0.631266
0.577447 0.0965286 0.723079
0.894926 0.153002 0.791913
0.912093 0.180606 0.830198
0.0113527 0.469581 0.683253
0.0152438 0.491768 0.708476
0.572549 0.58851 0.859998
0.961929 0.652613 0.904128
0.961715 0.691112 0.9122
0.207218 0.813443 0.757671
0.19765 0.809369 0.753567
0.542489 0.827619 0.777279
0.94966 0.92752 0.888014
0.962585 0.935332 0.891249
0.355352 0.827115 0.782864
0.310735 0.823819 0.769787
0.687526 0.888365 0.832929
0.946151 0.949798 0.903456
0.962676 0.949905 0.891569
0.0903182 0.0959029 0.673152
0.13611 0.111467 0.714473
0.501137 0.127916 0.795056
0.906737 0.170214 0.825406
0.909255 0.174655 0.82858
0.0794537 0.113558 0.706035
0.126314 0.119326 0.725917
0.633768 0.135073 0.807507
0.9131 0.18204 0.83331
0.91603 0.186587 0.83682
0.0225071 0.516396 0.75668
0.0248417 0.528984 0.759228
0.588952 0.597925 0.880949
0.962051 0.66479 0.922652
0.961624 0.70013 0.925353
0.29575 0.814267 0.788327
0.288731 0.809339 0.790051
0.647196 0.855253 0.843412
0.945541 0.926452 0.90988
0.962478 0.928466 0.90956
0.370962 0.828275 0.786297
0.381781 0.828931 0.787335
0.738186 0.904738 0.860471
0.954452 0.951461 0.911528
0.962661 0.952102 0.911376
