bundles/resolve-cinematic-luts/Phantom Luts/P4k & P6K Phntm Film LUTs - V6/P4K/Gen 5 Colour/Standard (No WB Offset)/P4k Bleach Gen5.cube
TITLE "Generated by Resolve"
LUT_3D_SIZE 33
0.0153353 0.0269474 0.0176242
0.0153353 0.0269474 0.0176242
0.0153353 0.0269474 0.0176242
0.0153353 0.0269474 0.0176242
0.0153353 0.0269474 0.0176242
0.0220951 0.0282597 0.0190585
0.0276493 0.029984 0.0200809
0.0361181 0.0312657 0.0200504
0.046067 0.0320592 0.0206607
0.0595254 0.0331426 0.0220645
0.0759594 0.0342107 0.0231022
0.097673 0.0356909 0.0242771
0.126085 0.0372168 0.0260929
0.161852 0.0392767 0.0280766
0.208011 0.0422827 0.0304265
0.258488 0.0453803 0.0333715
0.31017 0.0490272 0.0357519
0.369146 0.0530098 0.0391699
0.442145 0.0565347 0.0433661
0.512963 0.0622873 0.0499428
0.572869 0.0702068 0.0591287
0.624308 0.0797436 0.0691081
0.672648 0.0904097 0.0810101
0.715099 0.101656 0.0926375
0.752499 0.113832 0.103532
0.786206 0.126787 0.114427
0.799588 0.133928 0.12015
0.807202 0.138247 0.123384
0.808377 0.138964 0.124651
0.809262 0.139452 0.125566
0.810132 0.140078 0.126436
0.810742 0.140536 0.127062
0.811307 0.140978 0.127581
0.0153353 0.0269474 0.0176242
0.0153353 0.0269474 0.0176242
0.0153353 0.0269474 0.0176242
0.0153353 0.0269474 0.0176242
0.0166934 0.026978 0.0176852
0.0232853 0.0285801 0.0193179
0.0302434 0.0306401 0.0199588
0.040589 0.0316625 0.0203708
0.0535744 0.0327916 0.0215763
0.0711986 0.0343328 0.0230106
0.0930495 0.0356909 0.0240787
0.121935 0.0372473 0.0259251
0.158633 0.0393988 0.0280766
0.205966 0.0424964 0.0305943
0.256977 0.045716 0.0335241
0.30988 0.049485 0.0359655
0.370382 0.0536507 0.0395056
0.445289 0.0570687 0.0438544
0.516762 0.0631113 0.0504616
0.57554 0.0710918 0.0597086
0.626841 0.0806744 0.0701305
0.674342 0.0914321 0.0814984
0.716381 0.102632 0.0930343
0.753704 0.114809 0.104097
0.785931 0.127504 0.114382
0.799771 0.134737 0.120302
0.807446 0.138888 0.123461
0.808438 0.139467 0.124468
0.809201 0.140032 0.125185
0.809918 0.140566 0.125856
0.810483 0.141054 0.126436
0.811063 0.141527 0.126986
0.811597 0.141955 0.127504
0.0153353 0.0269474 0.0176242
0.0153353 0.0269474 0.0176242
0.0153353 0.0269474 0.0176242
0.0153353 0.0269474 0.0176242
0.0168765 0.0271153 0.0177615
0.0234379 0.0289464 0.019501
0.0317693 0.0311894 0.0200656
0.0431067 0.0321813 0.0207065
0.0591287 0.033753 0.0222782
0.078172 0.0353552 0.0234073
0.104433 0.0373083 0.0249027
0.139773 0.0394903 0.0273289
0.183474 0.042237 0.0297398
0.234104 0.0456703 0.0330358
0.286152 0.0495613 0.0354925
0.341955 0.0536507 0.0386053
0.412451 0.0573739 0.0423285
0.490196 0.0620432 0.0480964
0.552865 0.0692607 0.0555581
0.605341 0.0782635 0.0649271
0.654078 0.0883497 0.0760204
0.698054 0.0993515 0.087602
0.738964 0.111101 0.0996872
0.772854 0.123949 0.110613
0.793606 0.13315 0.117861
0.807355 0.140444 0.123262
0.808133 0.140856 0.123796
0.808804 0.141146 0.1243
0.809415 0.141543 0.124773
0.810117 0.142031 0.125383
0.810788 0.142626 0.125994
0.811292 0.143175 0.126436
0.811795 0.143709 0.126894
0.0153353 0.0269474 0.0176242
0.0153353 0.0269474 0.0176242
0.0153353 0.0269474 0.0176242
0.0153353 0.0269474 0.0176242
0.0157473 0.0272526 0.0176242
0.0215763 0.029221 0.0191958
0.0289616 0.0317082 0.0209506
0.0416419 0.0332341 0.0211948
0.0582437 0.0353704 0.0224918
0.0796368 0.0373236 0.0237278
0.108019 0.0394446 0.025391
0.14432 0.0416571 0.027924
0.190829 0.0448463 0.0314336
0.243442 0.0487221 0.0343481
0.296407 0.0528267 0.0373541
0.356573 0.0571908 0.0412146
0.427573 0.0608377 0.0439155
0.501534 0.0657816 0.0484016
0.562509 0.0731212 0.0570993
0.614755 0.0823377 0.0671397
0.662516 0.0923171 0.0781109
0.706157 0.103853 0.0899825
0.745113 0.11635 0.101534
0.779019 0.129046 0.11281
0.79646 0.137499 0.119097
0.807904 0.143465 0.123766
0.80882 0.143923 0.124346
0.809705 0.144396 0.124956
0.810407 0.1449 0.125444
0.810956 0.145373 0.125826
0.81149 0.145815 0.126192
0.811902 0.14638 0.126497
0.812268 0.146944 0.126772
0.0159457 0.0295415 0.0187686
0.0162051 0.0305791 0.0192569
0.0164797 0.0311894 0.0195773
0.0163729 0.0309453 0.0191501
0.0170291 0.0308537 0.0186923
0.0225223 0.0337835 0.0208591
0.030457 0.036759 0.022797
0.0424353 0.0407874 0.0230411
0.062501 0.0427863 0.0239872
0.0848402 0.0435645 0.0254215
0.113771 0.0447852 0.0272068
0.151369 0.0462348 0.0300755
0.197116 0.0482185 0.0328832
0.249622 0.0512551 0.035523
0.304738 0.0558022 0.0396735
0.365316 0.0603189 0.0429084
0.438087 0.0639811 0.0455634
0.510018 0.0691691 0.0502022
0.567666 0.0773938 0.057908
0.620142 0.0865187 0.068452
0.666804 0.0966201 0.0794537
0.711406 0.108476 0.091371
0.74905 0.120653 0.102831
0.783215 0.13402 0.114168
0.7991 0.142061 0.120302
0.808499 0.147341 0.124407
0.80972 0.147951 0.125383
0.810498 0.148333 0.125887
0.811002 0.148775 0.126192
0.811536 0.149371 0.126543
0.81207 0.149966 0.126909
0.812573 0.150942 0.127352
0.813184 0.151965 0.127932
0.0192569 0.0403601 0.0233005
0.0203555 0.04271 0.0244907
0.020798 0.0443275 0.0247501
0.0207675 0.0440223 0.0238193
0.0221408 0.0435492 0.0230411
0.0280461 0.0467994 0.0237736
0.0367437 0.0483101 0.0252232
0.0509194 0.0547951 0.0276188
0.0752728 0.0602121 0.0277714
0.0997787 0.0599374 0.0286564
0.129839 0.0569314 0.0304417
0.165469 0.0563058 0.0328069
0.210925 0.0564279 0.0361181
0.261799 0.0575875 0.0390478
0.314137 0.0596628 0.0416571
0.375891 0.0635386 0.0447242
0.450599 0.0666209 0.0472877
0.519753 0.0728161 0.05243
0.575952 0.0810712 0.060441
0.625269 0.0914321 0.0694438
0.672709 0.101915 0.0816663
0.716274 0.114565 0.093431
0.754009 0.127825 0.105303
0.78526 0.140566 0.116152
0.803388 0.149828 0.123369
0.810193 0.153658 0.126207
0.811414 0.154772 0.127062
0.812207 0.155779 0.127764
0.813413 0.156847 0.128695
0.81384 0.157855 0.129046
0.81387 0.158526 0.129137
0.814435 0.159884 0.129793
0.815274 0.161685 0.130541
0.0231785 0.0537881 0.0298466
0.0235752 0.0563363 0.0308385
0.023682 0.05832 0.0308537
0.0238041 0.0584115 0.0293278
0.0247959 0.0580453 0.0268559
0.0309606 0.0601816 0.0266117
0.0420386 0.0641642 0.0281376
0.0548867 0.0658579 0.0301213
0.0806439 0.0747387 0.0301671
0.118563 0.0814679 0.0326085
0.152743 0.0792096 0.0335851
0.19707 0.0747234 0.0374456
0.240314 0.0725719 0.0411536
0.286152 0.0720989 0.0442664
0.334142 0.0722057 0.0475013
0.398703 0.0729076 0.0498054
0.470451 0.0740826 0.0517128
0.532097 0.0778973 0.0562295
0.586236 0.0867628 0.0640269
0.63418 0.0964675 0.0729229
0.680476 0.108415 0.0851759
0.7243 0.121996 0.0977035
0.760891 0.136461 0.109392
0.78967 0.149203 0.119768
0.810559 0.16144 0.127092
0.813581 0.163684 0.128679
0.814755 0.164904 0.1299
0.815854 0.166323 0.130953
0.816953 0.167712 0.13196
0.817868 0.169345 0.132815
0.818555 0.170871 0.133455
0.819608 0.172778 0.134478
0.820966 0.174594 0.135943
0.0262455 0.0720378 0.0382544
0.026566 0.0760052 0.0396277
0.0270695 0.0788434 0.0393683
0.0272831 0.0792248 0.0365759
0.027863 0.0786603 0.0331731
0.0314794 0.0795911 0.0306249
0.0444495 0.0840009 0.0317693
0.0590066 0.0884413 0.0322881
0.0781415 0.0890516 0.0327764
0.119875 0.099855 0.0328527
0.175006 0.10605 0.0357824
0.22385 0.100862 0.0402533
0.279057 0.096376 0.0457313
0.32903 0.092958 0.0506142
0.37882 0.0909438 0.0537118
0.437751 0.0884718 0.0561227
0.501381 0.0893111 0.0598001
0.554696 0.093431 0.0656291
0.604028 0.100511 0.0729076
0.650446 0.110536 0.0823682
0.69279 0.119982 0.0916304
0.733837 0.133059 0.102831
0.769894 0.146227 0.113954
0.798062 0.160143 0.125139
0.819959 0.173281 0.134783
0.822248 0.176104 0.137133
0.82295 0.176974 0.137682
0.823682 0.178561 0.138338
0.824811 0.180423 0.139284
0.826154 0.182376 0.14052
0.828031 0.184268 0.142229
0.829435 0.186328 0.143755
0.833005 0.19234 0.147189
0.0294652 0.0950027 0.0466773
0.0301213 0.0999313 0.0484627
0.0304417 0.103716 0.0482185
0.0305943 0.105165 0.0456397
0.0310826 0.10518 0.0411994
0.0322271 0.10486 0.0363317
0.040528 0.107729 0.0331273
0.0610056 0.114656 0.0355993
0.0806744 0.118456 0.0356451
0.109209 0.11902 0.0343328
0.170397 0.128206 0.0337072
0.241352 0.134417 0.0384375
0.309361 0.124544 0.0477455
0.375692 0.122805 0.0547494
0.442542 0.118959 0.0584573
0.501274 0.117037 0.0645609
0.549874 0.118456 0.0716869
0.594232 0.123018 0.0802625
0.634836 0.129671 0.0895094
0.679561 0.140352 0.10074
0.719768 0.151339 0.111223
0.759075 0.164691 0.123354
0.796094 0.180743 0.136263
0.824903 0.195071 0.14786
0.840391 0.203479 0.154879
0.841886 0.205753 0.155962
0.843427 0.20885 0.157687
0.847135 0.213779 0.161425
0.850584 0.219318 0.165255
0.855451 0.226581 0.170138
0.8589 0.232746 0.173816
0.863615 0.239506 0.178561
0.868681 0.24744 0.183871
0.0319219 0.123293 0.0566567
0.0323949 0.130739 0.059266
0.0322118 0.135775 0.0585641
0.0324559 0.137987 0.0552987
0.0328222 0.138781 0.050721
0.0336156 0.138231 0.0451667
0.0361639 0.138827 0.0377203
0.0510872 0.144488 0.0356756
0.0815442 0.154604 0.0389868
0.106889 0.157717 0.0376135
0.149737 0.159213 0.0349126
0.230625 0.168246 0.0349584
0.321935 0.176013 0.0421149
0.42092 0.163363 0.0543069
0.499031 0.161532 0.0633097
0.555947 0.163378 0.0739605
0.604654 0.169329 0.0862593
0.647242 0.175799 0.0997635
0.68687 0.184161 0.113787
0.725322 0.194842 0.127291
0.767285 0.208927 0.143267
0.8009 0.222232 0.156161
0.836866 0.240238 0.172793
0.865553 0.257084 0.187945
0.877073 0.265934 0.194842
0.884291 0.27512 0.201358
0.889311 0.283375 0.206775
0.894804 0.292897 0.212909
0.900603 0.303212 0.219257
0.905577 0.313909 0.22504
0.911055 0.326146 0.231724
0.916777 0.338735 0.238254
0.920989 0.349859 0.243168
0.0329442 0.16112 0.0700084
0.0328832 0.170871 0.0721599
0.0327611 0.176333 0.0717937
0.0325628 0.178729 0.0680552
0.032517 0.180423 0.0622721
0.0329137 0.181674 0.0552377
0.0341802 0.18088 0.047715
0.0411841 0.182177 0.0384375
0.0663767 0.19202 0.0369879
0.106737 0.205158 0.0402075
0.140414 0.208118 0.0376745
0.202258 0.211307 0.0347753
0.300526 0.223209 0.0349279
0.429313 0.235019 0.0413672
0.539727 0.231128 0.0626383
0.603143 0.23563 0.0811475
0.654292 0.245411 0.100435
0.703944 0.260456 0.122881
0.748028 0.271855 0.144167
0.791074 0.287083 0.166567
0.833402 0.305425 0.190097
0.869413 0.323888 0.211551
0.898665 0.343282 0.230137
0.922393 0.363607 0.24744
0.927443 0.372793 0.252186
0.931319 0.381064 0.256214
0.933104 0.39057 0.25922
0.935134 0.401633 0.261921
0.937118 0.414054 0.2645
0.938567 0.426749 0.266224
0.939742 0.440177 0.267109
0.939941 0.453056 0.266758
0.940108 0.466499 0.265675
0.0314488 0.206973 0.082475
0.030518 0.217258 0.0843824
0.0302739 0.223697 0.0838788
0.0297246 0.226184 0.0803693
0.0297093 0.227573 0.0751659
0.0327306 0.229511 0.0678416
0.0340429 0.23061 0.0585946
0.0332494 0.228626 0.0473182
0.0482185 0.233799 0.036286
0.0858167 0.247715 0.0353094
0.134859 0.261891 0.0383764
0.183749 0.266804 0.0411231
0.264225 0.273411 0.0357214
0.386145 0.2934 0.0341497
0.53547 0.323796 0.0420233
0.638209 0.344198 0.0822309
0.707195 0.367742 0.119951
0.765728 0.390143 0.156649
0.816815 0.402655 0.189044
0.857557 0.419776 0.214343
0.891234 0.43444 0.235172
0.914855 0.449943 0.249271
0.929366 0.461997 0.259892
0.938415 0.475181 0.265553
0.938949 0.483848 0.266224
0.939391 0.492058 0.265522
0.939208 0.501122 0.264225
0.938613 0.514565 0.263066
0.939406 0.528481 0.262867
0.939727 0.542565 0.262455
0.940108 0.557214 0.262821
0.94107 0.570809 0.2636
0.941772 0.583078 0.264622
0.0265202 0.256657 0.0932326
0.0251469 0.26685 0.0947433
0.0243076 0.27303 0.094316
0.0266117 0.27538 0.0914168
0.0282444 0.277501 0.086656
0.0307622 0.279759 0.0792096
0.031342 0.281636 0.0695201
0.030518 0.28098 0.0570993
0.02916 0.278019 0.0412757
0.0572061 0.287221 0.030518
0.107622 0.306355 0.0311437
0.17203 0.324605 0.037232
0.234577 0.332998 0.0391699
0.330358 0.345113 0.0347143
0.475517 0.370062 0.0351873
0.60679 0.42771 0.0583352
0.709072 0.479072 0.107378
0.777111 0.508034 0.14789
0.829526 0.524224 0.184176
0.866865 0.536858 0.206271
0.895628 0.550027 0.225269
0.919081 0.559762 0.242145
0.933165 0.570642 0.254444
0.940398 0.581827 0.262379
0.942138 0.593271 0.265888
0.943038 0.602136 0.266911
0.943862 0.611017 0.267811
0.94493 0.621942 0.269581
0.94519 0.630365 0.269703
0.945937 0.638392 0.270573
0.946365 0.646571 0.271077
0.946624 0.654536 0.271458
0.947021 0.663035 0.272038
0.0186923 0.306447 0.102266
0.0172274 0.316411 0.1037
0.0164797 0.322286 0.10309
0.0175326 0.324666 0.100237
0.0205539 0.326101 0.0961013
0.0212558 0.328267 0.0890669
0.0219883 0.330663 0.0788434
0.0225834 0.331609 0.0661021
0.0211032 0.329427 0.0513008
0.0277104 0.329442 0.0316014
0.0704967 0.344961 0.0233921
0.137362 0.371298 0.0271916
0.220874 0.398489 0.0355688
0.290517 0.41352 0.0331731
0.414542 0.434852 0.0344701
0.55613 0.477211 0.0500038
0.663172 0.526238 0.0793622
0.757961 0.577905 0.124605
0.8271 0.608042 0.165682
0.875303 0.617502 0.202701
0.90428 0.630076 0.22565
0.923049 0.640116 0.241489
0.939635 0.650324 0.257679
0.945037 0.660105 0.266667
0.947494 0.668986 0.272358
0.94786 0.675029 0.272786
0.948394 0.68162 0.273274
0.948669 0.688457 0.27361
0.948653 0.695445 0.273579
0.949386 0.702785 0.275547
0.949859 0.710323 0.27744
0.950057 0.717388 0.278813
0.9505 0.724559 0.280003
0.0102083 0.358297 0.112001
0.00877394 0.369146 0.113451
0.00762951 0.375982 0.112566
0.00753796 0.377676 0.109468
0.0077821 0.378241 0.104555
0.00857557 0.379553 0.0979171
0.0109255 0.38204 0.0881819
0.0111238 0.384924 0.0743572
0.00946059 0.384894 0.0607614
0.0140536 0.383474 0.0411536
0.0292668 0.387045 0.0197452
0.089128 0.412436 0.0178683
0.186618 0.454673 0.0294652
0.304372 0.499626 0.0484169
0.388815 0.517006 0.0432136
0.522835 0.539498 0.055314
0.628046 0.571054 0.0784924
0.714672 0.601343 0.107164
0.801282 0.648432 0.14818
0.871778 0.682658 0.188693
0.909926 0.693019 0.226123
0.931899 0.703731 0.250492
0.94406 0.71136 0.264897
0.948577 0.720333 0.276341
0.950759 0.728847 0.281315
0.950973 0.734676 0.28217
0.950912 0.740414 0.28304
0.951156 0.746471 0.284688
0.951293 0.753262 0.285664
0.951232 0.759823 0.286625
0.951125 0.765026 0.289387
0.950256 0.767239 0.294148
0.949355 0.769711 0.298787
0.000732433 0.417807 0.120424
0 0.430671 0.12253
0 0.437324 0.122454
0 0.438499 0.119463
0 0.438956 0.114824
0 0.439963 0.108598
1.5259e-05 0.442176 0.0994888
0.000686656 0.444465 0.0867781
0.00221256 0.446357 0.0716564
0.00508125 0.445914 0.0555276
0.0129397 0.446632 0.0306859
0.0442512 0.457588 0.0136568
0.144854 0.498085 0.0292973
0.300542 0.560845 0.0652171
0.427588 0.595453 0.078172
0.51603 0.605661 0.0643168
0.60798 0.62237 0.0839246
0.688563 0.644007 0.111727
0.767742 0.669673 0.140581
0.83827 0.701823 0.177432
0.89276 0.725994 0.213642
0.92575 0.748028 0.251423
0.944808 0.762676 0.281636
0.949035 0.76849 0.294957
0.949416 0.771786 0.304051
0.948653 0.774777 0.306233
0.947662 0.776669 0.310353
0.946685 0.778286 0.314672
0.946181 0.780499 0.319844
0.945434 0.782742 0.325216
0.944305 0.785336 0.330602
0.943252 0.787259 0.334798
0.94316 0.790494 0.336873
0 0.484154 0.143679
0 0.497765 0.151171
0 0.504784 0.153658
0 0.505699 0.151308
0 0.506355 0.146746
0 0.507317 0.140734
0.00062562 0.508095 0.131426
0.00187686 0.5093 0.118425
0.00408942 0.511254 0.102419
0.00782788 0.511711 0.0840467
0.0139315 0.51107 0.0624247
0.0358587 0.516335 0.0354467
0.110216 0.54406 0.0352636
0.28127 0.604379 0.0794232
0.440742 0.646555 0.106508
0.544686 0.667063 0.102907
0.608164 0.676707 0.0915541
0.676509 0.690639 0.118868
0.74255 0.707424 0.147784
0.812512 0.728389 0.178729
0.86833 0.749813 0.211872
0.901549 0.763485 0.240955
0.924681 0.777447 0.278035
0.941451 0.789029 0.315373
0.941619 0.792767 0.329091
0.942138 0.796597 0.34049
0.941833 0.799786 0.340124
0.941848 0.803601 0.340627
0.941405 0.807736 0.341024
0.941329 0.811337 0.342
0.941039 0.815091 0.342809
0.940414 0.818631 0.343481
0.940063 0.822293 0.344442
0.00518807 0.556497 0.195483
0.00802625 0.571694 0.208423
0.00982681 0.57966 0.213687
0.0102235 0.58085 0.211368
0.0106508 0.580987 0.206912
0.0113375 0.58117 0.200595
0.0126497 0.581872 0.192203
0.0146487 0.583032 0.179355
0.017731 0.583932 0.159426
0.0231785 0.583566 0.136965
0.03093 0.581872 0.110689
0.0417487 0.581445 0.0803235
0.104265 0.601144 0.0647593
0.246067 0.642222 0.0883955
0.436286 0.682795 0.130526
0.562707 0.711849 0.137636
0.626612 0.728588 0.13077
0.67805 0.73785 0.123964
0.731868 0.748669 0.152987
0.786389 0.761654 0.183963
0.846036 0.780118 0.214237
0.889006 0.795712 0.244083
0.916091 0.808789 0.246006
0.931899 0.819013 0.274739
0.937331 0.824094 0.320165
0.938674 0.827939 0.33666
0.938399 0.832624 0.3458
0.938216 0.836088 0.34995
0.937697 0.839551 0.352544
0.93724 0.843198 0.355612
0.936568 0.846845 0.357855
0.936141 0.85037 0.360723
0.935561 0.853742 0.363821
0.0237888 0.633692 0.265187
0.0272984 0.647364 0.277058
0.0294499 0.653803 0.281453
0.0298466 0.654398 0.279088
0.0302129 0.653849 0.273899
0.0312505 0.654261 0.268772
0.0327764 0.654521 0.26041
0.0352941 0.654734 0.248371
0.0396735 0.655238 0.231693
0.0464179 0.654169 0.207904
0.0544137 0.651469 0.177844
0.0672923 0.64976 0.139116
0.0916762 0.653468 0.0929122
0.232166 0.683955 0.109422
0.403342 0.715389 0.141054
0.572473 0.741039 0.166232
0.640711 0.76672 0.162493
0.691142 0.781155 0.157519
0.736446 0.790005 0.157702
0.781674 0.797879 0.188067
0.823499 0.80618 0.220706
0.872862 0.822263 0.244923
0.905821 0.836103 0.253315
0.924056 0.847684 0.280278
0.932967 0.855207 0.326375
0.933852 0.859617 0.354269
0.9337 0.863264 0.371298
0.933227 0.86627 0.374273
0.932555 0.869245 0.376776
0.932342 0.870832 0.381201
0.931807 0.872297 0.385214
0.931411 0.873808 0.390265
0.931136 0.875273 0.394614
0.0426032 0.694896 0.323339
0.0459144 0.704326 0.332723
0.0473945 0.708156 0.335195
0.047837 0.708492 0.332311
0.0481422 0.707744 0.32726
0.0488594 0.707378 0.321279
0.0505074 0.707225 0.312963
0.0533303 0.707515 0.30135
0.0577249 0.706691 0.28455
0.0639048 0.705074 0.262348
0.073991 0.701213 0.235737
0.0858625 0.69781 0.198917
0.116823 0.699611 0.150591
0.203784 0.715023 0.119219
0.385092 0.741238 0.153979
0.557534 0.761456 0.17612
0.649363 0.790112 0.192462
0.700267 0.811185 0.183536
0.745464 0.823728 0.186053
0.786877 0.831662 0.1944
0.819913 0.834638 0.226825
0.853071 0.84033 0.254322
0.893126 0.854994 0.269062
0.913893 0.864302 0.304784
0.926482 0.873045 0.346975
0.92987 0.878004 0.383505
0.930053 0.879927 0.406409
0.929412 0.880903 0.414405
0.929046 0.882322 0.41912
0.92871 0.883864 0.42472
0.928283 0.885145 0.429343
0.927825 0.886625 0.434379
0.927398 0.887297 0.438926
0.0588083 0.738872 0.371344
0.0616617 0.744839 0.37847
0.0626078 0.746975 0.379889
0.0627451 0.74667 0.376394
0.063035 0.746197 0.370855
0.0636759 0.745983 0.364584
0.0651408 0.745556 0.355657
0.0677043 0.744595 0.342473
0.0716259 0.743099 0.324834
0.0782483 0.741039 0.302968
0.0895399 0.736324 0.278813
0.10248 0.731884 0.248066
0.122881 0.730404 0.196963
0.203769 0.740154 0.15758
0.371328 0.760906 0.171374
0.556954 0.775586 0.198596
0.650095 0.803174 0.218921
0.706981 0.82649 0.219303
0.75172 0.843549 0.215473
0.790326 0.853498 0.223285
0.825467 0.860212 0.240085
0.852018 0.86276 0.269032
0.878019 0.865675 0.301946
0.903212 0.874327 0.339239
0.918975 0.881346 0.377325
0.924559 0.886976 0.422507
0.926833 0.889494 0.449958
0.926711 0.890333 0.460075
0.926589 0.891112 0.465797
0.926406 0.891981 0.47071
0.925963 0.892576 0.474632
0.925856 0.893339 0.478737
0.925689 0.894133 0.482948
0.0718853 0.769512 0.413001
0.0728313 0.77232 0.417472
0.0734264 0.773342 0.417121
0.07364 0.773114 0.412833
0.0738537 0.77261 0.407279
0.074464 0.77203 0.399725
0.0756237 0.771237 0.389792
0.0785992 0.769985 0.37557
0.0833906 0.767819 0.358251
0.0911116 0.765286 0.338491
0.10367 0.76051 0.316457
0.117601 0.755703 0.288762
0.137316 0.753048 0.244739
0.200595 0.758679 0.206058
0.354986 0.773999 0.205921
0.54284 0.784665 0.227253
0.650767 0.809506 0.258289
0.708843 0.833326 0.26659
0.754635 0.851392 0.266621
0.798856 0.865873 0.273747
0.83357 0.872923 0.290364
0.853101 0.875837 0.309819
0.876158 0.878233 0.344991
0.896559 0.881651 0.385428
0.910506 0.887541 0.426627
0.921248 0.89305 0.466377
0.923247 0.895048 0.487068
0.92546 0.896819 0.504952
0.92546 0.897063 0.506737
0.92549 0.897322 0.508354
0.925551 0.897627 0.51075
0.925521 0.897871 0.512428
0.925444 0.898085 0.514748
0.0795605 0.785229 0.445121
0.0806897 0.787762 0.449119
0.0809491 0.78822 0.448112
0.0811322 0.788022 0.442649
0.0814221 0.787793 0.436088
0.0819409 0.787243 0.426444
0.0834363 0.786267 0.414984
0.0871138 0.784665 0.402152
0.0936599 0.782437 0.386221
0.10309 0.779416 0.367575
0.116564 0.77528 0.346319
0.132189 0.77084 0.321828
0.148974 0.767422 0.287678
0.224155 0.771374 0.257237
0.341985 0.781323 0.247913
0.535241 0.788922 0.261906
0.642725 0.810727 0.290562
0.708614 0.834455 0.309682
0.755795 0.853788 0.313222
0.802808 0.869078 0.326726
0.839048 0.878813 0.339254
0.859373 0.881575 0.358144
0.874067 0.882475 0.381552
0.893156 0.884657 0.42446
0.907912 0.89041 0.458381
0.918425 0.895064 0.491844
0.924071 0.898054 0.516594
0.925872 0.899565 0.52932
0.926024 0.899947 0.532357
0.926146 0.900252 0.534874
0.926223 0.900542 0.536828
0.926192 0.900511 0.53637
0.926162 0.900481 0.536004
0.0809949 0.788602 0.457069
0.0809949 0.788602 0.456962
0.0809949 0.788495 0.453986
0.0809644 0.788251 0.4486
0.0812238 0.787976 0.440558
0.081651 0.787518 0.43061
0.0831922 0.786526 0.417273
0.087129 0.784756 0.402731
0.0938735 0.782467 0.386282
0.103136 0.779156 0.366186
0.119539 0.775921 0.347234
0.137072 0.773114 0.325597
0.161395 0.771527 0.301167
0.235096 0.774411 0.275959
0.359411 0.781994 0.273121
0.538308 0.789883 0.286229
0.653284 0.812329 0.32285
0.709453 0.833326 0.33872
0.757946 0.852583 0.351247
0.807965 0.869673 0.365866
0.840162 0.878233 0.380621
0.864286 0.883314 0.396139
0.877653 0.884047 0.419989
0.891981 0.886213 0.447059
0.907103 0.8916 0.477836
0.917723 0.896117 0.502922
0.923796 0.899184 0.524865
0.926055 0.90042 0.535027
0.926268 0.900587 0.537255
0.926314 0.900618 0.537713
0.926314 0.900618 0.537728
0.926299 0.900603 0.537636
0.926314 0.900633 0.537926
0.0811475 0.788815 0.462699
0.0811017 0.7888 0.461967
0.0810559 0.788678 0.458396
0.0809796 0.788449 0.452628
0.0810254 0.788067 0.444755
0.0815137 0.787717 0.434043
0.0831159 0.786664 0.419196
0.0873274 0.784787 0.402777
0.0946212 0.782254 0.384695
0.104601 0.778836 0.364477
0.122103 0.77557 0.344701
0.14107 0.773236 0.323461
0.175906 0.772473 0.298802
0.246784 0.775723 0.275288
0.391928 0.783536 0.278141
0.560098 0.792767 0.293584
0.664164 0.815869 0.32781
0.719158 0.837247 0.341436
0.767224 0.856062 0.353231
0.815793 0.872358 0.365438
0.846067 0.880262 0.38172
0.866697 0.883925 0.398596
0.879438 0.884413 0.420859
0.894469 0.887831 0.44918
0.9093 0.892058 0.47921
0.91754 0.895918 0.502739
0.924895 0.899641 0.524071
0.925628 0.900114 0.531014
0.926253 0.900572 0.537087
0.926299 0.900603 0.537362
0.926314 0.900618 0.537667
0.926314 0.900633 0.537835
0.926329 0.900633 0.537987
0.0812238 0.788937 0.467231
0.081178 0.788922 0.466102
0.0810864 0.7888 0.462089
0.0809949 0.788556 0.455909
0.0809644 0.788159 0.446998
0.08159 0.787778 0.435386
0.0831311 0.78677 0.420096
0.0879988 0.784634 0.40235
0.0958419 0.781842 0.382452
0.107668 0.778302 0.3617
0.125399 0.775158 0.34139
0.14464 0.772946 0.320012
0.188861 0.773007 0.292378
0.27361 0.776806 0.275257
0.432471 0.78497 0.279454
0.585458 0.796811 0.300145
0.675135 0.820081 0.330358
0.728664 0.841215 0.342977
0.777447 0.859724 0.354681
0.820798 0.873671 0.367041
0.852155 0.881865 0.383688
0.869352 0.884413 0.40148
0.882078 0.885115 0.423575
0.896651 0.888121 0.452399
0.910277 0.892271 0.480751
0.918441 0.89633 0.504402
0.923873 0.899184 0.522087
0.925582 0.900114 0.531624
0.926223 0.900542 0.536812
0.926253 0.900572 0.537026
0.926268 0.900587 0.537224
0.926284 0.900587 0.537408
0.926299 0.900603 0.537621
0.0811017 0.788968 0.471183
0.0811627 0.788952 0.469505
0.0811017 0.788861 0.465003
0.0810254 0.788647 0.457679
0.0809796 0.788205 0.448188
0.0817884 0.787747 0.435111
0.0838788 0.786557 0.418357
0.0885939 0.784421 0.400351
0.097261 0.781353 0.379294
0.111269 0.777798 0.357961
0.129381 0.774716 0.336583
0.150851 0.772534 0.314672
0.199725 0.77322 0.285451
0.304646 0.778576 0.275212
