bundles/resolve-cinematic-luts/Phantom Luts/P4k & P6K Phntm Film LUTs - V6/P4K/Gen 5 Colour/Standard (No WB Offset)/P4k VisionTeal Gen5-Legacy.cube
TITLE "Generated by Resolve"
LUT_3D_SIZE 33
0.022385 0.0343633 0.0323796
0.022385 0.0343633 0.0323796
0.022385 0.0343633 0.0323796
0.0221866 0.0354772 0.0328832
0.0277562 0.0371557 0.0346075
0.0340581 0.0389105 0.0354314
0.0439918 0.0405737 0.0357061
0.0609903 0.0411078 0.0353857
0.0855421 0.0399939 0.0334173
0.115587 0.0404669 0.0317998
0.159167 0.0412909 0.0294804
0.211368 0.0412146 0.0268864
0.267353 0.0425574 0.0267185
0.325475 0.0449378 0.0294499
0.386679 0.0503395 0.0329595
0.449256 0.0603342 0.0391241
0.529381 0.0785992 0.0549325
0.616129 0.10071 0.0775006
0.708797 0.125383 0.104692
0.763729 0.142916 0.123629
0.7776 0.149798 0.129992
0.78085 0.147814 0.131411
0.781659 0.149004 0.131838
0.782086 0.149844 0.132128
0.782452 0.150866 0.132631
0.782635 0.151995 0.13283
0.782742 0.153368 0.133013
0.782589 0.154665 0.132967
0.782254 0.155734 0.132876
0.781979 0.157046 0.133135
0.782284 0.158724 0.134005
0.783047 0.160464 0.135134
0.784726 0.162905 0.137118
0.022385 0.0343023 0.0323186
0.022385 0.0343481 0.0323644
0.022385 0.0343938 0.0323949
0.0221408 0.0359045 0.0332036
0.0278782 0.0377508 0.0349279
0.0335851 0.0398108 0.0357061
0.0442206 0.0415656 0.0361486
0.062089 0.041886 0.0362707
0.0878614 0.0405737 0.0337987
0.118578 0.0407874 0.0320439
0.161089 0.0418708 0.0299229
0.215412 0.0419165 0.0276036
0.272206 0.0431525 0.0272221
0.329046 0.0453956 0.0296025
0.389746 0.0521401 0.0321355
0.457954 0.0611887 0.0404059
0.532738 0.080293 0.0554055
0.619959 0.103227 0.0785992
0.709819 0.12723 0.105257
0.764981 0.1458 0.124315
0.777295 0.151095 0.130037
0.778683 0.151736 0.131014
0.77908 0.153246 0.131487
0.781781 0.151659 0.132204
0.781964 0.152667 0.132372
0.782147 0.15404 0.132555
0.781903 0.155276 0.132326
0.781369 0.156512 0.13193
0.781338 0.158007 0.132219
0.781781 0.159319 0.133272
0.782513 0.160983 0.134493
0.784085 0.163119 0.135943
0.785367 0.164599 0.137484
0.022385 0.0343633 0.0323186
0.022385 0.0345922 0.0324865
0.022385 0.0345617 0.0324254
0.0221408 0.0360113 0.0325322
0.0255589 0.03888 0.0349889
0.0325017 0.0408789 0.0363165
0.042771 0.0426032 0.0367742
0.0610056 0.0433204 0.0373999
0.0865339 0.0419471 0.0351263
0.117891 0.0415503 0.0329595
0.16054 0.0428016 0.0307012
0.214694 0.0425727 0.0281376
0.272908 0.0436713 0.0278019
0.331594 0.0463569 0.0302434
0.392721 0.0531014 0.0329747
0.459983 0.0622568 0.0406806
0.537453 0.0816663 0.0568856
0.623835 0.104433 0.0798962
0.710933 0.129137 0.10573
0.765606 0.147845 0.124636
0.776791 0.152483 0.129931
0.777356 0.154086 0.130343
0.778103 0.155352 0.130739
0.778515 0.156573 0.130877
0.781186 0.154726 0.132128
0.781094 0.155886 0.132006
0.780575 0.157244 0.131685
0.780728 0.158801 0.132113
0.781155 0.160204 0.13286
0.78201 0.161837 0.133806
0.783444 0.163577 0.135271
0.784604 0.164904 0.136309
0.786023 0.16643 0.138033
0.0222477 0.0433814 0.0368353
0.0222477 0.0430304 0.0358587
0.0222171 0.0424506 0.0341802
0.0221714 0.0418555 0.0334173
0.0254978 0.0429999 0.0352331
0.0311742 0.0434119 0.0375219
0.0405585 0.0443122 0.0380102
0.0602121 0.0449073 0.0377508
0.0860609 0.044419 0.0365911
0.117586 0.0438392 0.0339513
0.16051 0.0439002 0.031342
0.214984 0.0432136 0.0286412
0.274159 0.0444495 0.0285649
0.33228 0.0471351 0.0308843
0.394324 0.0535592 0.0334936
0.461326 0.0633097 0.0410315
0.539803 0.0834669 0.0579995
0.625223 0.105867 0.0803235
0.717113 0.130831 0.108232
0.767285 0.149233 0.125826
0.775814 0.154757 0.12958
0.776043 0.156191 0.129717
0.776379 0.157366 0.129686
0.779919 0.157107 0.131563
0.780667 0.158801 0.132097
0.77995 0.158206 0.131701
0.780529 0.159731 0.13228
0.780362 0.161471 0.132372
0.781659 0.162951 0.133364
0.782956 0.164569 0.134585
0.783825 0.165469 0.135317
0.785306 0.166934 0.136965
0.788327 0.170367 0.139849
0.0217288 0.0497139 0.0397955
0.0217594 0.0494087 0.0395514
0.0217746 0.0486763 0.0371405
0.0217136 0.0477607 0.0352026
0.0267491 0.0483253 0.0359503
0.0321202 0.0484932 0.0372015
0.0421454 0.0497597 0.0416114
0.0584421 0.0499886 0.0399176
0.0870527 0.0492561 0.0392767
0.118074 0.0469215 0.0353094
0.162066 0.0460975 0.0326085
0.215976 0.0449836 0.0294957
0.274723 0.0455024 0.0292058
0.332631 0.0476997 0.0313878
0.395682 0.0542916 0.0340429
0.462425 0.0643168 0.0421149
0.542412 0.0849928 0.0597543
0.627894 0.106752 0.0819562
0.71783 0.132296 0.109407
0.769192 0.151965 0.127214
0.774914 0.156786 0.129244
0.777615 0.157092 0.13106
0.778637 0.158221 0.131624
0.78024 0.159747 0.132662
0.780636 0.161547 0.133043
0.779873 0.163378 0.13283
0.780972 0.162829 0.133318
0.781826 0.164431 0.134051
0.782406 0.165728 0.134157
0.783246 0.166644 0.134829
0.785428 0.168917 0.136904
0.78793 0.171633 0.1393
0.789837 0.174899 0.141329
0.0213626 0.0578164 0.0416419
0.0213931 0.0576791 0.0409247
0.0215457 0.0567483 0.0399939
0.0213321 0.0554665 0.0372778
0.0271153 0.0550393 0.0383154
0.0316625 0.0558328 0.0370031
0.041474 0.0561532 0.0402686
0.0582742 0.0564889 0.0420233
0.0837262 0.0575418 0.0419623
0.121065 0.0560311 0.0398413
0.167163 0.0521401 0.034638
0.217334 0.0485695 0.0311894
0.27541 0.0476387 0.0300145
0.334691 0.0498665 0.0320897
0.39646 0.0558175 0.0347906
0.465492 0.0660563 0.0433661
0.545586 0.0868544 0.0618296
0.631418 0.108812 0.0844587
0.719676 0.134096 0.110979
0.773541 0.154788 0.129824
0.778424 0.157855 0.131594
0.779919 0.15935 0.132555
0.781018 0.160952 0.133379
0.781689 0.162753 0.134051
0.782467 0.164721 0.134569
0.782437 0.165927 0.13431
0.783185 0.16733 0.134981
0.782986 0.166964 0.134737
0.784253 0.169497 0.13576
0.785901 0.172107 0.137301
0.786206 0.176287 0.134569
0.787442 0.177371 0.135378
0.790158 0.181308 0.138674
0.0208286 0.0711376 0.0449378
0.0208133 0.0711376 0.043473
0.0208133 0.0700694 0.0421607
0.0207675 0.0689403 0.0409247
0.0241245 0.0672465 0.0395666
0.0320592 0.0686198 0.0406043
0.0396124 0.0691386 0.0399481
0.0560006 0.0682078 0.0425727
0.0834211 0.067689 0.0420081
0.12221 0.0691386 0.0425727
0.178729 0.0628977 0.0371099
0.2318 0.0590372 0.0332341
0.281346 0.0548104 0.0314946
0.338735 0.0545663 0.0322881
0.400458 0.0589761 0.0356298
0.469825 0.0715343 0.0442969
0.547768 0.0915694 0.0605478
0.635416 0.112154 0.0854047
0.722606 0.136889 0.111849
0.777356 0.15877 0.131212
0.78146 0.161822 0.133227
0.782116 0.163653 0.133852
0.782528 0.165255 0.134112
0.782483 0.166369 0.133898
0.783566 0.168002 0.13463
0.782757 0.173358 0.131609
0.784253 0.175357 0.133516
0.785107 0.177523 0.134096
0.78529 0.177264 0.134234
0.78526 0.178622 0.133867
0.787182 0.182879 0.135225
0.789471 0.190921 0.137255
0.791623 0.199588 0.140383
0.0206455 0.0880446 0.0486458
0.0203861 0.088426 0.047425
0.0204318 0.0881056 0.0464637
0.0204929 0.0872816 0.0446174
0.0211643 0.0856794 0.0424506
0.0270695 0.0842298 0.0400397
0.0390478 0.0863508 0.0433814
0.0508583 0.0861677 0.0416266
0.075288 0.0843824 0.0417945
0.115465 0.0865339 0.0425269
0.182742 0.0783551 0.0413367
0.244343 0.0730144 0.0372473
0.300496 0.0687572 0.0348363
0.349508 0.0672007 0.0352331
0.403784 0.0693217 0.0384833
0.47538 0.0794385 0.0475776
0.552544 0.0964523 0.063859
0.637324 0.119112 0.0855726
0.722545 0.14078 0.11223
0.782666 0.164813 0.134249
0.782452 0.165988 0.133883
0.783551 0.1682 0.13463
0.782498 0.173053 0.131319
0.783871 0.174853 0.132921
0.785153 0.17702 0.134264
0.784772 0.178531 0.133593
0.785748 0.181003 0.134035
0.787655 0.185901 0.135546
0.789014 0.192325 0.136492
0.789822 0.197253 0.13753
0.791547 0.204318 0.139986
0.793744 0.211139 0.14255
0.796918 0.219867 0.145235
0.0218662 0.10811 0.0552987
0.0208438 0.108476 0.0531472
0.0201572 0.109148 0.051133
0.0201572 0.108476 0.0491188
0.0205539 0.10695 0.0468757
0.021973 0.105074 0.04448
0.0327611 0.103807 0.0429541
0.049134 0.107393 0.0471046
0.0672923 0.105974 0.043183
0.0964218 0.101762 0.0411994
0.164569 0.108553 0.0419623
0.252323 0.0929427 0.0419623
0.318746 0.0911421 0.0403601
0.377325 0.0915084 0.0419013
0.432212 0.0947738 0.0481575
0.490944 0.102266 0.0573434
0.561502 0.114214 0.0706645
0.646754 0.131945 0.0917678
0.727138 0.154101 0.114076
0.783856 0.178653 0.133257
0.785443 0.180804 0.133898
0.785275 0.180377 0.133806
0.784863 0.178927 0.133608
0.786282 0.182544 0.13431
0.787335 0.189776 0.135134
0.789487 0.197452 0.137057
0.791119 0.203998 0.138964
0.791699 0.210575 0.140169
0.793912 0.217395 0.142565
0.795483 0.224491 0.144152
0.798398 0.232944 0.147601
0.800992 0.2448 0.151293
0.805173 0.257969 0.155901
0.0212558 0.135882 0.0629282
0.0196078 0.136751 0.060502
0.01944 0.137026 0.0572519
0.0193942 0.137102 0.0543832
0.0193484 0.13579 0.051606
0.0195163 0.133913 0.0495613
0.0216068 0.130648 0.0452125
0.0371099 0.130327 0.0448005
0.0625925 0.136461 0.0492409
0.0907912 0.132738 0.043473
0.130922 0.127291 0.0408179
0.232502 0.141649 0.045243
0.335805 0.12639 0.0517128
0.409567 0.133043 0.0574655
0.476158 0.142168 0.0651102
0.530739 0.145602 0.072755
0.5935 0.153704 0.0863966
0.658412 0.164935 0.100816
0.735363 0.185885 0.119829
0.788174 0.205463 0.137621
0.791135 0.206516 0.138933
0.790997 0.207843 0.139025
0.791623 0.211185 0.14023
0.793256 0.216266 0.141924
0.794354 0.221653 0.143145
0.796384 0.228412 0.1449
0.798093 0.237507 0.147601
0.799496 0.247257 0.150393
0.801984 0.257221 0.152758
0.804746 0.268025 0.156542
0.806378 0.279271 0.159472
0.808713 0.287221 0.163149
0.811093 0.301167 0.168307
0.0188296 0.177691 0.0668803
0.0188296 0.178317 0.0643778
0.0188449 0.178561 0.061387
0.0188907 0.179049 0.0585336
0.0188449 0.178561 0.05449
0.0188602 0.176471 0.0516976
0.018967 0.173877 0.0485695
0.020737 0.16788 0.0460975
0.0401923 0.170275 0.0440528
0.0812238 0.185611 0.0518502
0.116793 0.178103 0.0433509
0.188006 0.170367 0.0404517
0.312276 0.202869 0.0514839
0.421851 0.195529 0.069688
0.495109 0.197147 0.0756695
0.566995 0.212299 0.0891432
0.630137 0.218509 0.101289
0.695552 0.228214 0.116777
0.755566 0.242206 0.134249
0.796902 0.256474 0.151705
0.801419 0.257649 0.153719
0.800931 0.255756 0.15285
0.801205 0.25658 0.153262
0.802426 0.262852 0.155261
0.804074 0.269657 0.157397
0.805554 0.277317 0.159258
0.806912 0.286748 0.162264
0.808072 0.296529 0.165591
0.808942 0.307881 0.169131
0.8103 0.320012 0.174197
0.811231 0.332128 0.178775
0.813001 0.342657 0.18407
0.814328 0.355215 0.190402
0.0201114 0.241245 0.0868391
0.0187839 0.24152 0.0845502
0.0187686 0.24239 0.0827497
0.0187381 0.24184 0.0793011
0.0189517 0.240833 0.0748455
0.0189059 0.240482 0.0695354
0.0186465 0.236957 0.0636454
0.0230106 0.231983 0.0626841
0.0268101 0.221851 0.0519417
0.0569924 0.234485 0.0546578
0.116869 0.254871 0.0673381
0.169345 0.243168 0.0498054
0.261158 0.236332 0.0480354
0.393729 0.276097 0.0591592
0.500908 0.278355 0.0852522
0.579797 0.282231 0.108125
0.655879 0.290776 0.122423
0.732006 0.306477 0.143404
0.782818 0.320272 0.163546
0.811673 0.331395 0.178897
0.811704 0.330983 0.179049
0.811688 0.32871 0.178286
0.811536 0.327565 0.177783
0.811719 0.328084 0.178058
0.811688 0.329671 0.178515
0.812268 0.339132 0.182513
0.813123 0.348287 0.187137
0.813367 0.357641 0.190768
0.814145 0.367987 0.196475
0.814572 0.378012 0.200793
0.815427 0.388037 0.206317
0.816022 0.398505 0.210483
0.817411 0.405112 0.214481
0.0286259 0.317037 0.114473
0.0269627 0.317769 0.113207
0.025742 0.31754 0.110994
0.0252232 0.317205 0.107469
0.0247044 0.316823 0.105074
0.0243381 0.31577 0.0990768
0.0289006 0.315129 0.0974594
0.0332189 0.311192 0.0911421
0.0366827 0.30396 0.0812695
0.0416724 0.292363 0.0648203
0.0861677 0.308537 0.0695811
0.170062 0.325109 0.0824598
0.234531 0.310842 0.0540017
0.334691 0.304204 0.0559396
0.460212 0.342245 0.0691844
0.574243 0.367742 0.103548
0.661799 0.372854 0.139406
0.729015 0.373754 0.165362
0.794873 0.391455 0.195804
0.816678 0.405432 0.213001
0.816464 0.407004 0.214252
0.816602 0.405859 0.213977
0.816495 0.405737 0.213916
0.816419 0.406516 0.21413
0.816251 0.407004 0.214176
0.816373 0.408072 0.214664
0.816632 0.409094 0.215213
0.817151 0.415244 0.217502
0.817975 0.423377 0.221714
0.818479 0.431983 0.224491
0.818982 0.440558 0.228977
0.819837 0.45005 0.232624
0.820294 0.459937 0.23769
0.0408942 0.396506 0.158068
0.039765 0.396704 0.155291
0.03888 0.396582 0.152514
0.0378729 0.396124 0.14963
0.0369879 0.394751 0.144961
0.0364843 0.394186 0.140688
0.0438544 0.392584 0.137942
0.047425 0.390951 0.130327
0.0505684 0.385153 0.11754
0.055024 0.375799 0.102327
0.0627604 0.363439 0.0783398
0.123659 0.379919 0.0863203
0.249287 0.392432 0.0991226
0.30605 0.37847 0.0592508
0.406668 0.374014 0.0676585
0.527977 0.410895 0.0874037
0.650187 0.461143 0.128725
0.734478 0.462211 0.180011
0.783642 0.466087 0.209735
0.818784 0.4701 0.23592
0.8215 0.480568 0.242145
0.821469 0.480232 0.242145
0.821408 0.481147 0.242023
0.821546 0.482704 0.242237
0.821698 0.484596 0.242435
0.822721 0.486702 0.243503
0.822889 0.488426 0.243503
0.823011 0.490227 0.243412
0.82298 0.492485 0.243198
0.824475 0.498787 0.24448
0.82594 0.507561 0.245533
0.827253 0.515526 0.246372
0.828855 0.524651 0.248081
0.0556344 0.477272 0.218311
0.0544289 0.478019 0.21622
0.0530709 0.477714 0.213397
0.0518807 0.47715 0.210513
0.0518044 0.476936 0.207538
0.0517433 0.475395 0.203021
0.0514839 0.473899 0.194873
0.0657969 0.471702 0.190417
0.0703899 0.468315 0.173861
0.0757458 0.460456 0.151537
0.07953 0.448341 0.12723
0.0948653 0.436454 0.0963302
0.197482 0.449302 0.10837
0.333639 0.459586 0.113512
0.385367 0.449332 0.0683146
0.478126 0.446891 0.0882582
0.603433 0.485847 0.114626
0.732235 0.556802 0.160204
0.794781 0.556237 0.221363
0.824842 0.557397 0.246265
0.834287 0.562478 0.25716
0.833951 0.564843 0.25684
0.834257 0.56611 0.257252
0.835172 0.568399 0.258701
0.835615 0.570748 0.25948
0.835309 0.573404 0.259342
0.836042 0.575875 0.260487
0.836423 0.578485 0.261189
0.836423 0.579919 0.26128
0.836423 0.580209 0.261295
0.8365 0.578485 0.261295
0.837125 0.58381 0.262715
0.838758 0.590906 0.264881
0.0750134 0.561074 0.285496
0.0730144 0.561044 0.282841
0.0714885 0.560525 0.280537
0.0705425 0.560693 0.278279
0.0695354 0.559869 0.274067
0.0687114 0.559121 0.270344
0.0686961 0.558129 0.263523
0.0700694 0.555505 0.253605
0.083299 0.552316 0.242283
0.0951553 0.545602 0.224002
0.100649 0.534051 0.196429
0.107149 0.518212 0.153887
0.14609 0.508827 0.120348
0.293751 0.516503 0.140063
0.412192 0.530312 0.126772
0.463661 0.522377 0.0829023
0.550225 0.521553 0.113954
0.68394 0.567269 0.148028
0.795911 0.639597 0.205768
0.841276 0.653529 0.275029
0.844739 0.648905 0.303029
0.845151 0.65388 0.306096
0.845487 0.655467 0.310765
0.845792 0.659129 0.314702
0.846494 0.662455 0.319509
0.846479 0.665446 0.323842
0.847013 0.668681 0.327169
0.848707 0.67097 0.331273
0.848783 0.672068 0.332616
0.84892 0.671611 0.332326
0.847425 0.668833 0.327916
0.847242 0.664424 0.324178
0.847227 0.662303 0.320958
0.0971542 0.650568 0.35613
0.0957504 0.651225 0.354574
0.0942397 0.651057 0.352804
0.0931411 0.650462 0.350362
0.0919509 0.650202 0.347707
0.0911269 0.649302 0.343969
0.090425 0.647684 0.338033
0.0902571 0.646586 0.330129
0.0920577 0.64271 0.315679
0.104005 0.637278 0.296757
0.122835 0.627619 0.276143
0.130495 0.611765 0.241154
0.141497 0.589624 0.180514
0.231388 0.582177 0.154498
0.394934 0.589761 0.183383
0.492226 0.609171 0.147173
0.543786 0.605646 0.105058
0.615228 0.601358 0.146914
0.747204 0.646357 0.195468
0.832624 0.706722 0.249271
0.847395 0.725216 0.355459
0.847974 0.72636 0.371695
0.847456 0.727626 0.371603
0.846708 0.728267 0.368795
0.845914 0.728695 0.366201
0.845548 0.72903 0.36379
0.845365 0.729244 0.362387
0.845289 0.729473 0.360952
0.845258 0.729595 0.360159
0.845289 0.729519 0.359945
0.845472 0.72871 0.361227
0.846708 0.72694 0.365637
0.848859 0.724712 0.372442
0.126726 0.744991 0.428397
0.1252 0.745159 0.426886
0.123888 0.745037 0.425162
0.12192 0.7449 0.423285
0.120592 0.744503 0.421332
0.119768 0.743526 0.417777
0.11902 0.742763 0.413001
0.117876 0.740719 0.405234
0.11841 0.738659 0.395163
0.120302 0.734401 0.37705
0.143069 0.726116 0.355795
0.159869 0.711238 0.325292
0.172274 0.689281 0.279255
0.202243 0.665904 0.202564
0.348043 0.65687 0.205417
0.49514 0.669306 0.224369
0.576883 0.694636 0.181415
0.62536 0.693736 0.143709
0.678218 0.68426 0.197238
0.784619 0.71693 0.235966
0.838666 0.755093 0.271916
0.839307 0.757839 0.318898
0.839002 0.761624 0.333867
0.838682 0.763073 0.334722
0.838636 0.76405 0.335286
0.838636 0.765164 0.335607
0.838254 0.765774 0.335607
0.838041 0.7664 0.335622
0.83801 0.766613 0.335668
0.838239 0.765789 0.335714
0.838666 0.764248 0.33576
0.839078 0.761013 0.335195
0.839414 0.754818 0.333669
0.169024 0.829862 0.503807
0.167208 0.829679 0.502159
0.165606 0.829709 0.500633
0.163851 0.829633 0.498726
0.162631 0.829572 0.496925
0.161196 0.828992 0.494194
0.160281 0.828473 0.489784
0.159457 0.827405 0.484184
0.158892 0.825833 0.475486
0.159976 0.821256 0.459571
0.162402 0.814817 0.435157
0.198825 0.800519 0.409949
0.212406 0.781155 0.367041
0.229831 0.756436 0.301427
0.311894 0.735698 0.241032
0.471626 0.725887 0.258061
0.589654 0.744579 0.255543
0.657328 0.765545 0.220783
0.70135 0.765713 0.203922
0.739956 0.75346 0.254292
0.818952 0.77969 0.267842
0.834607 0.796796 0.326833
0.833158 0.800092 0.358175
0.832792 0.800855 0.361227
0.832532 0.801251 0.362081
0.832319 0.80177 0.363241
0.832395 0.802014 0.363867
0.832471 0.802319 0.364401
0.83238 0.802029 0.363836
0.832303 0.801617 0.362722
0.832883 0.800534 0.360601
0.833356 0.798459 0.35758
0.834089 0.795758 0.351995
0.213779 0.886915 0.561334
0.21268 0.88658 0.559396
0.211078 0.886915 0.55816
0.20943 0.887343 0.557031
0.207538 0.887617 0.555795
0.206531 0.887526 0.553552
0.205722 0.887007 0.550286
0.205127 0.886229 0.545785
0.204532 0.885161 0.538567
0.205097 0.882292 0.525963
0.207736 0.875868 0.506203
0.212329 0.866316 0.479225
0.250889 0.847684 0.449546
0.266697 0.827146 0.397787
0.311192 0.801938 0.322652
0.445747 0.775097 0.297002
0.574258 0.771435 0.312963
0.657435 0.788907 0.288029
0.717784 0.804288 0.264607
0.757931 0.806729 0.269261
0.782223 0.79559 0.31809
0.824216 0.811673 0.354833
0.827558 0.818158 0.392874
0.827115 0.818708 0.402167
0.827024 0.818799 0.40296
0.826978 0.818891 0.403296
0.826932 0.818921 0.403555
0.826886 0.818936 0.403647
0.826917 0.818875 0.403296
0.827039 0.818692 0.402228
0.827192 0.818311 0.400763
0.82739 0.817792 0.398856
0.827756 0.816968 0.394339
0.228901 0.907378 0.584573
0.228138 0.9075 0.583398
0.227024 0.907774 0.582071
0.225284 0.908248 0.581613
0.22388 0.908553 0.580102
0.223056 0.908507 0.577966
0.222278 0.908202 0.574823
0.222171 0.907958 0.571054
0.221805 0.906813 0.564355
0.223041 0.904158 0.554543
0.227863 0.899672 0.54078
0.235142 0.891371 0.520272
0.249943 0.881239 0.494759
0.287831 0.864378 0.463767
0.330404 0.84007 0.410071
0.426352 0.808011 0.360204
0.548104 0.787427 0.353353
0.635706 0.789151 0.343786
0.698558 0.800824 0.322988
0.748074 0.811551 0.31841
0.78648 0.819074 0.336416
0.805417 0.813703 0.381033
0.825284 0.82324 0.414771
0.826139 0.82446 0.431418
0.826154 0.824552 0.432837
0.826123 0.824521 0.432181
0.826093 0.824491 0.431754
0.826062 0.824491 0.43154
0.826032 0.824445 0.431205
0.826032 0.824399 0.43064
0.826047 0.824369 0.42977
0.826047 0.824292 0.428229
0.826047 0.823865 0.42443
0.230472 0.907423 0.589197
0.23003 0.907439 0.587427
0.229129 0.907652 0.586191
0.228138 0.907912 0.584802
0.227268 0.908019 0.583459
0.226123 0.907988 0.581796
0.225345 0.90753 0.578454
0.224918 0.907042 0.574334
0.224414 0.906294 0.56762
0.224933 0.903868 0.557305
0.228855 0.899825 0.543328
0.236301 0.891356 0.522637
0.247349 0.881498 0.495766
0.288899 0.867216 0.472953
0.334997 0.845197 0.431769
0.424582 0.811902 0.385016
0.536355 0.79028 0.372808
0.622354 0.789044 0.369574
0.686458 0.797223 0.352178
0.739971 0.808087 0.349035
0.780118 0.816052 0.360082
0.79704 0.81326 0.390249
0.82298 0.822431 0.420523
0.826017 0.824994 0.445075
0.826673 0.825574 0.449439
0.826658 0.825528 0.448905
0.826581 0.825467 0.448066
0.826505 0.825406 0.447303
0.826398 0.82536 0.446677
0.82623 0.825269 0.446296
0.826078 0.825208 0.445716
0.825971 0.825101 0.444312
0.825864 0.824857 0.441291
0.230747 0.90782 0.592294
0.230045 0.908049 0.590997
0.229267 0.908263 0.590127
0.228305 0.908598 0.589136
0.227726 0.908766 0.587427
0.226703 0.908812 0.585428
0.225666 0.908446 0.582147
0.224994 0.907454 0.57734
0.22472 0.906813 0.57113
0.224598 0.90457 0.560235
0.228107 0.900893 0.546273
0.235065 0.892149 0.524712
0.245212 0.882292 0.497322
0.287861 0.867918 0.474479
0.333364 0.846357 0.433722
0.419821 0.813367 0.387106
0.531426 0.790661 0.372717
0.617014 0.788739 0.369894
0.682521 0.796765 0.352438
0.735348 0.807141 0.347326
0.775525 0.814801 0.357977
0.792325 0.813062 0.385916
0.819471 0.820523 0.414206
0.825544 0.824491 0.439612
0.826215 0.825345 0.448173
0.826276 0.825498 0.450004
0.82623 0.825513 0.450477
0.826185 0.825544 0.450828
0.826123 0.825574 0.451057
0.826078 0.825574 0.450874
0.826032 0.825544 0.45005
0.826001 0.825498 0.449348
0.825971 0.825437 0.448554
0.229404 0.908492 0.595712
0.229129 0.908553 0.593988
0.22826 0.908827 0.59292
0.227741 0.909026 0.591592
0.227405 0.909133 0.590219
0.226764 0.90927 0.588495
0.226017 0.909041 0.584939
0.225116 0.908034 0.580316
0.224704 0.907088 0.573678
0.224506 0.905241 0.562478
0.228046 0.901488 0.548562
0.234211 0.892775 0.526543
0.244572 0.882673 0.49868
0.287007 0.868589 0.475807
0.330999 0.847532 0.435096
0.416312 0.814603 0.38941
0.527092 0.791302 0.372869
0.614282 0.78854 0.370062
0.679408 0.796658 0.352956
0.732494 0.806592 0.3467
0.772961 0.814481 0.356664
0.790082 0.813092 0.383246
0.816587 0.819409 0.408896
0.825452 0.824399 0.435187
0.825925 0.825254 0.446601
0.826078 0.825483 0.448981
0.826078 0.825528 0.449348
0.826047 0.825559 0.449607
0.826017 0.825589 0.449805
0.825986 0.825605 0.449958
0.825956 0.825605 0.449958
0.825956 0.825605 0.449989
0.82594 0.825589 0.449866
0.227405 0.909865 0.598474
0.22739 0.909651 0.597116
0.227375 0.909514 0.5953
0.227192 0.909499 0.593561
0.226734 0.909468 0.592294
0.226429 0.909499 0.59028
0.226047 0.909453 0.587289
0.225162 0.908614 0.582071
0.224643 0.90724 0.574929
0.224521 0.905715 0.56466
0.227649 0.902037 0.550088
0.233387 0.893294 0.527916
0.244068 0.883085 0.500099
0.286259 0.86894 0.476738
0.328664 0.848402 0.435752
0.414496 0.815229 0.390036
0.523064 0.791806 0.372839
0.611734 0.788312 0.370474
0.677394 0.796475 0.353185
0.730724 0.806149 0.345937
0.770733 0.814038 0.355566
0.789624 0.81384 0.379812
0.813748 0.81796 0.404837
0.825147 0.824048 0.431495
0.825925 0.825177 0.445274
0.826185 0.825498 0.447913
0.826154 0.825528 0.448249
0.826108 0.825559 0.448554
0.826078 0.825589 0.448768
0.826047 0.825605 0.448966
0.826017 0.82562 0.449073
0.826017 0.825635 0.449195
0.826047 0.825635 0.449317
0.22678 0.910628 0.600092
0.22678 0.910292 0.598428
0.226886 0.909911 0.596887
0.226963 0.909728 0.595148
0.226749 0.909667 0.593393
0.226184 0.909651 0.591501
0.225879 0.909621 0.588907
0.225208 0.90901 0.583703
0.224201 0.907591 0.576379
0.224414 0.906203 0.566293
0.227115 0.902464 0.551339
0.232654 0.89398 0.529473
0.243412 0.883757 0.501839
0.284779 0.869566 0.478111
0.325597 0.849454 0.437232
0.410163 0.8168 0.39144
0.519707 0.792142 0.372824
0.6094 0.788235 0.370962
0.675074 0.795911 0.353872
0.728405 0.805966 0.346151
0.769146 0.813962 0.354803
0.789319 0.814542 0.377035
0.81149 0.8168 0.401892
0.82501 0.823911 0.429282
0.825849 0.825086 0.444083
0.826154 0.825467 0.447532
0.826139 0.825498 0.447898
0.826108 0.825528 0.448173
0.826047 0.825544 0.448356
0.826032 0.825574 0.448539
0.826001 0.825589 0.448676
0.826001 0.825605 0.448798
0.826032 0.825605 0.44889
0.226658 0.910903 0.601129
0.226612 0.910597 0.599695
0.226535 0.910277 0.598016
0.226429 0.910063 0.596536
0.2262 0.910018 0.594705
0.225498 0.910048 0.592752
0.225101 0.909941 0.590143
0.224903 0.909529 0.585
0.223667 0.908125 0.577707
0.224079 0.906737 0.567666
0.226322 0.902892 0.552392
0.232029 0.894835 0.53077
0.242741 0.884489 0.503319
0.283116 0.87039 0.479179
0.322301 0.85069 0.439139
0.406088 0.818265 0.39263
0.51516 0.79292 0.373114
0.6065 0.788113 0.371496
0.671595 0.795361 0.354696
