bundles/resolve-cinematic-luts/Phantom Luts/Canon Film LUT/C-Log 2/Bleach Canon CL2.cube
TITLE "Generated by Resolve"
LUT_3D_SIZE 5
0.0176089 0.0296635 0.0198062
0.0590219 0.0341497 0.0266423
0.312047 0.0449531 0.0535897
0.706752 0.0605325 0.162402
0.781353 0.068101 0.255924
0.0303044 0.119188 0.0338293
0.10602 0.130861 0.0335699
0.486763 0.0528878 0.0311284
0.724376 0.0645457 0.107225
0.735134 0.0654307 0.112047
0.0117342 0.491524 0.0124056
0.0157321 0.510369 0.00541695
0.619532 0.653269 0.073167
0.915572 0.707301 0.128756
0.931044 0.734112 0.13434
0.0959182 0.782345 0.0855421
0.0987411 0.782391 0.0737011
0.550515 0.821942 0.106966
0.910857 0.906645 0.24683
0.9281 0.911162 0.33901
0.0830701 0.782956 0.150286
0.0987411 0.782391 0.0737011
0.631891 0.837491 0.122362
0.918685 0.90898 0.307622
0.929244 0.911528 0.400458
0.0177768 0.0329747 0.0427405
0.0583963 0.0353399 0.0526894
0.345907 0.043122 0.114946
0.734676 0.0619974 0.256413
0.794919 0.0689097 0.390982
0.0289921 0.109575 0.0879377
0.113893 0.125536 0.111864
0.530068 0.0628977 0.106355
0.77174 0.0673533 0.220829
0.784207 0.0682689 0.269032
0.00154116 0.479438 0.0805676
0.0107729 0.4981 0.020264
0.611124 0.644129 0.0703441
0.920378 0.648951 0.139284
0.929122 0.658198 0.146059
0.0673686 0.788327 0.275639
0.0927749 0.782361 0.0988479
0.48307 0.816419 0.100725
0.903517 0.904463 0.212512
0.926955 0.909117 0.276097
0.0569009 0.797482 0.436652
0.0805676 0.783215 0.166598
0.510842 0.818051 0.102632
0.910414 0.906874 0.261494
0.929229 0.911528 0.400732
0.0165866 0.0413672 0.173816
0.0686656 0.0417334 0.224659
0.387228 0.0462806 0.319112
0.774044 0.0690623 0.542123
0.82237 0.0790875 0.640085
0.0150149 0.083299 0.255329
0.0316472 0.0563821 0.314748
0.519219 0.0475776 0.430243
0.811521 0.0751965 0.586038
0.821408 0.0786908 0.633692
0 0.457313 0.390967
0 0.467857 0.404562
0.645563 0.630747 0.609384
0.944015 0.598779 0.634562
0.952529 0.59881 0.666911
0.0541543 0.801877 0.622095
0.0530098 0.796674 0.571984
0.193896 0.7841 0.314702
0.89868 0.896788 0.572106
0.946242 0.907546 0.624323
0.0606241 0.81471 0.715007
0.0565652 0.80943 0.657908
0.117662 0.790387 0.300969
0.882704 0.899565 0.460533
0.942153 0.92163 0.645823
0.0228122 0.0563058 0.399283
0.0798657 0.052781 0.49691
0.465217 0.0545968 0.622858
0.804685 0.0806744 0.717891
0.843992 0.0888228 0.777539
0.0118563 0.0934615 0.518349
0.0285496 0.0754101 0.56231
0.556344 0.061677 0.701518
0.840085 0.0872816 0.755611
0.844068 0.0888991 0.77879
0.0103914 0.50132 0.647181
0.0129091 0.506081 0.669154
0.541131 0.571374 0.832364
0.951904 0.482826 0.870176
0.964172 0.482506 0.879393
0.0626535 0.797833 0.75407
0.0614176 0.791409 0.74815
0.155047 0.777234 0.732982
0.927275 0.903899 0.865492
0.962203 0.901396 0.876768
0.0671702 0.821149 0.779293
0.0660563 0.82034 0.770748
0.0623789 0.816495 0.732372
0.925948 0.943267 0.876127
0.962768 0.951461 0.899825
0.0270237 0.0916915 0.610864
0.0929122 0.0931258 0.683391
0.537133 0.0772869 0.775799
0.834363 0.0880446 0.788144
0.845945 0.089662 0.789273
0.0145571 0.137667 0.665293
0.0225223 0.129519 0.685908
0.592401 0.0811933 0.789532
0.84596 0.089662 0.789288
0.845975 0.089662 0.789303
0.0224613 0.533928 0.731609
0.0229953 0.529213 0.741344
0.458961 0.561013 0.85864
0.95198 0.461173 0.911192
0.96495 0.452201 0.909453
0.0655222 0.803235 0.779751
0.0648508 0.797086 0.779553
0.110979 0.783688 0.784451
0.916793 0.896269 0.903975
0.96231 0.881666 0.90631
0.0673228 0.821256 0.780697
0.0673228 0.821256 0.780697
0.067277 0.821088 0.780194
0.924453 0.943893 0.904326
0.962768 0.950179 0.90956
