bundles/resolve-cinematic-luts/Phantom Luts/Canon Film LUT/C-Log 2/Bleach Canon-Legacy CL2.cube
TITLE "Generated by Resolve"
LUT_3D_SIZE 5
0.0282597 0.041413 0.0299077
0.0555123 0.0439307 0.0341039
0.270268 0.0534371 0.0507668
0.677623 0.0675669 0.125689
0.765713 0.0768139 0.202075
0.0386664 0.100404 0.0412146
0.0875257 0.10811 0.0427863
0.441062 0.0589303 0.0383917
0.702174 0.0717632 0.0869764
0.715221 0.0730602 0.0908827
0.01561 0.453742 0.0132448
0.0183413 0.472465 0.00735485
0.57818 0.615702 0.0698711
0.916243 0.681071 0.13872
0.934936 0.709575 0.144854
0.106249 0.783368 0.0916457
0.108736 0.783429 0.0822156
0.516167 0.817899 0.110765
0.917006 0.908049 0.23801
0.92784 0.911131 0.317556
0.0964218 0.783459 0.13817
0.108736 0.783429 0.0822156
0.607034 0.831418 0.125246
0.924773 0.91014 0.290776
0.92874 0.911406 0.370428
0.0283207 0.0433509 0.0464179
0.0540475 0.0448615 0.0516976
0.298528 0.0531624 0.0901503
0.708385 0.0700542 0.20061
0.784619 0.0767529 0.327367
0.0373541 0.0933242 0.0738537
0.0919661 0.103548 0.0905013
0.47985 0.0654917 0.0847334
0.753628 0.0758068 0.171069
0.769131 0.0771344 0.213855
0.00886549 0.441489 0.0641642
0.0145266 0.460288 0.0182193
0.56878 0.605844 0.0670329
0.920165 0.618204 0.145861
0.930739 0.629206 0.152041
0.0799725 0.786938 0.248127
0.103914 0.783322 0.100969
0.439246 0.814618 0.106172
0.909682 0.906188 0.210895
0.926253 0.910094 0.26363
0.0674144 0.795865 0.399847
0.0939345 0.783658 0.151049
0.469947 0.815473 0.107637
0.916503 0.90808 0.250111
0.928756 0.911421 0.370733
0.0257572 0.0496529 0.14638
0.0603342 0.0497292 0.184604
0.334386 0.0556344 0.27718
0.756771 0.0755474 0.502754
0.815351 0.0857404 0.613245
0.0229648 0.0771344 0.215442
0.0341192 0.0600748 0.278187
0.473167 0.0566415 0.380041
0.804913 0.0823987 0.553338
0.815213 0.086183 0.606622
0.00375372 0.417136 0.352926
0.00282292 0.427665 0.363317
0.605615 0.589593 0.56878
0.942763 0.561791 0.602029
0.951415 0.562005 0.635843
0.0619364 0.801053 0.594415
0.0614328 0.796765 0.540398
0.18436 0.786297 0.292531
0.897856 0.899413 0.548653
0.942092 0.908217 0.601678
0.0679789 0.813642 0.70367
0.0632639 0.807523 0.634546
0.118608 0.789395 0.276249
0.884871 0.900526 0.431662
0.939208 0.919097 0.6224
0.0272526 0.0610971 0.362097
0.066392 0.0592355 0.450843
0.40412 0.0637522 0.597681
0.78909 0.0868391 0.699092
0.840223 0.0977646 0.778149
0.0188449 0.0847791 0.478126
0.0301976 0.0737163 0.528084
0.513298 0.0678111 0.680797
0.834409 0.0953994 0.747692
0.840299 0.0977951 0.780148
0.0128023 0.454765 0.622217
0.0148775 0.459861 0.647623
0.484398 0.522744 0.815946
0.945693 0.424842 0.859251
0.964935 0.423804 0.871122
0.0702678 0.798321 0.75317
0.0681315 0.789731 0.744595
0.147936 0.771084 0.725261
0.924285 0.900359 0.862776
0.962478 0.897688 0.875761
0.0762493 0.821485 0.780926
0.0768902 0.820905 0.775189
0.0707408 0.815824 0.726101
0.923232 0.944228 0.875578
0.962646 0.95285 0.90396
0.0285801 0.0840467 0.578714
0.0729534 0.0859693 0.653483
0.479606 0.0802014 0.771298
0.827054 0.0968795 0.793561
0.842359 0.0988174 0.795254
0.0204623 0.117357 0.640711
0.0261234 0.112337 0.665537
0.544656 0.0824292 0.78819
0.842359 0.0988174 0.795254
0.84239 0.0988174 0.79527
0.023209 0.489387 0.722652
0.0242313 0.485298 0.736904
0.390311 0.513313 0.855848
0.940658 0.402365 0.909819
0.962936 0.39736 0.906828
0.074342 0.804822 0.781979
0.0735485 0.796674 0.782391
0.10927 0.778683 0.786145
0.910399 0.890105 0.909545
0.962234 0.873793 0.914992
0.0761273 0.821485 0.780941
0.0761273 0.821485 0.780941
0.0762341 0.821485 0.780926
0.920287 0.947585 0.90753
0.962646 0.953292 0.912642
