bundles/resolve-cinematic-luts/Phantom Luts/Canon Film LUT/C-Log 2/Bleach Canon-Legacy CL2.cube
TITLE "Generated by Resolve"
LUT_3D_SIZE 9
0.0282597 0.041413 0.0299077
0.0321508 0.0419623 0.0312505
0.0555123 0.0439307 0.0341039
0.120485 0.0464332 0.0402686
0.270268 0.0534371 0.0507668
0.498131 0.0562295 0.0727855
0.677623 0.0675669 0.125689
0.760662 0.0764935 0.179721
0.765713 0.0768139 0.202075
0.030045 0.0464027 0.0316625
0.0332952 0.0469215 0.0321355
0.0720989 0.0460822 0.0336614
0.16997 0.0486305 0.0398413
0.35964 0.0559396 0.0512703
0.583886 0.0601358 0.0775921
0.735317 0.0741436 0.138018
0.755596 0.0762646 0.159884
0.758373 0.0764935 0.17055
0.0386664 0.100404 0.0412146
0.0404974 0.107958 0.0375677
0.0875257 0.10811 0.0427863
0.235645 0.0904555 0.0409247
0.441062 0.0589303 0.0383917
0.608835 0.0626535 0.0550851
0.702174 0.0717632 0.0869764
0.715373 0.0730449 0.0915084
0.715221 0.0730602 0.0908827
0.0396735 0.246571 0.0379034
0.0382239 0.263035 0.0311589
0.0501717 0.26302 0.0321202
0.247318 0.288899 0.0416266
0.567941 0.29482 0.0456092
0.706706 0.165621 0.0719158
0.788983 0.113603 0.0703288
0.793637 0.113237 0.0703899
0.804868 0.125307 0.0766003
0.01561 0.453742 0.0132448
0.0176089 0.472236 0.00888075
0.0183413 0.472465 0.00735485
0.101472 0.500526 0.0139315
0.57818 0.615702 0.0698711
0.786908 0.673396 0.100816
0.916243 0.681071 0.13872
0.933486 0.67924 0.147448
0.934936 0.709575 0.144854
0.085359 0.722759 0.0737774
0.0914168 0.733974 0.0673991
0.0916915 0.734951 0.0681163
0.151843 0.740597 0.07187
0.499275 0.773785 0.103868
0.800473 0.837674 0.141772
0.921035 0.872084 0.15108
0.926009 0.878965 0.153475
0.925231 0.886137 0.155642
0.106249 0.783368 0.0916457
0.108705 0.783429 0.0823377
0.108736 0.783429 0.0822156
0.179156 0.791012 0.0856336
0.516167 0.817899 0.110765
0.805615 0.884047 0.164324
0.917006 0.908049 0.23801
0.927474 0.910842 0.299397
0.92784 0.911131 0.317556
0.100557 0.783291 0.117052
0.108309 0.783413 0.0836194
0.108736 0.783429 0.0822156
0.219348 0.795621 0.0886091
0.564523 0.823545 0.11693
0.834806 0.890837 0.174365
0.923125 0.909667 0.28011
0.928542 0.91133 0.360616
0.92874 0.911406 0.370428
0.0964218 0.783459 0.13817
0.10811 0.783413 0.0844282
0.108736 0.783429 0.0822156
0.280003 0.802167 0.0941787
0.607034 0.831418 0.125246
0.872709 0.898573 0.189639
0.924773 0.91014 0.290776
0.928527 0.91133 0.359289
0.92874 0.911406 0.370428
0.0282139 0.0417792 0.0322576
0.0315862 0.0420691 0.0329747
0.0557565 0.0443122 0.0383459
0.12607 0.0475319 0.0443885
0.284642 0.0541238 0.0603342
0.515206 0.0562753 0.0856031
0.691783 0.0690318 0.146761
0.766415 0.0769055 0.205921
0.771542 0.0770733 0.23386
0.0300603 0.0455024 0.0335546
0.0332647 0.0464637 0.0346532
0.0768749 0.0471351 0.0389258
0.186328 0.049836 0.0441444
0.38378 0.0564584 0.0634012
0.601099 0.0611124 0.0977188
0.748547 0.0753948 0.16437
0.763439 0.0767224 0.190875
0.767056 0.076936 0.208927
0.0388952 0.100481 0.0471656
0.0393072 0.108446 0.0425574
0.0875105 0.107576 0.0439155
0.245212 0.0802777 0.0425422
0.459083 0.0585184 0.0401007
0.607294 0.0632486 0.062211
0.71606 0.0729839 0.0979782
0.730266 0.0744182 0.109926
0.736034 0.0747234 0.116152
0.0390478 0.249241 0.0469215
0.0378271 0.264454 0.0366979
0.0439002 0.265202 0.0311437
0.249744 0.290684 0.0413977
0.577569 0.280385 0.048127
0.70956 0.149157 0.0715343
0.786908 0.107515 0.0673228
0.786862 0.106096 0.066331
0.796857 0.114687 0.0713054
0.0137026 0.454292 0.0232395
0.0162661 0.473075 0.0151369
0.018143 0.475715 0.00726329
0.0936599 0.502419 0.0135195
0.581094 0.618158 0.0705272
0.792477 0.673777 0.102113
0.919158 0.67129 0.140368
0.932708 0.666377 0.146014
0.934051 0.690593 0.14493
0.0804303 0.720592 0.0921187
0.0882887 0.732265 0.0782635
0.0915847 0.734661 0.0679942
0.132723 0.738689 0.0706188
0.484428 0.774502 0.102525
0.800336 0.837385 0.141619
0.921111 0.869566 0.150423
0.926543 0.875486 0.152895
0.92578 0.882231 0.154589
0.0984512 0.783352 0.127108
0.105425 0.783352 0.0948653
0.108736 0.783429 0.0822156
0.147539 0.787915 0.0837415
0.49868 0.816678 0.109361
0.793469 0.881086 0.158801
0.915862 0.907729 0.230106
0.927092 0.910567 0.286656
0.927657 0.910979 0.306767
0.0878462 0.784421 0.188693
0.0999313 0.783307 0.120043
0.108736 0.783429 0.0822156
0.165499 0.789761 0.0849317
0.535363 0.82005 0.112612
0.816388 0.886763 0.167941
0.921645 0.909392 0.272007
0.928435 0.911284 0.3552
0.928756 0.911406 0.370474
0.0804456 0.786664 0.244144
0.0956436 0.783505 0.14197
0.108736 0.783429 0.0822156
0.19617 0.793027 0.0869001
0.569345 0.824262 0.117632
0.84448 0.892927 0.17438
0.922789 0.90959 0.276936
0.928389 0.911269 0.35285
0.92874 0.911406 0.370428
0.0283207 0.0433509 0.0464179
0.0329747 0.0433661 0.0461738
0.0540475 0.0448615 0.0516976
0.132296 0.0465095 0.0682536
0.298528 0.0531624 0.0901503
0.532708 0.0562295 0.122789
0.708385 0.0700542 0.20061
0.7776 0.076997 0.272755
0.784619 0.0767529 0.327367
0.0281376 0.0457008 0.0466773
0.0293584 0.0450599 0.0558328
0.0737621 0.0456092 0.0662242
0.197772 0.0479744 0.0843671
0.4056 0.0545052 0.106996
0.61915 0.0614176 0.153399
0.76733 0.0767834 0.236027
0.77789 0.0770123 0.274937
0.782712 0.0768139 0.311788
0.0373541 0.0933242 0.0738537
0.0373999 0.0988785 0.0793011
0.0919661 0.103548 0.0905013
0.272084 0.0908064 0.0843519
0.47985 0.0654917 0.0847334
0.625238 0.0626383 0.110002
0.753628 0.0758068 0.171069
0.765469 0.0768902 0.197223
0.769131 0.0771344 0.213855
0.0370031 0.24184 0.0918898
0.0361639 0.256703 0.0848707
0.0385748 0.256046 0.0438544
0.249577 0.281315 0.0614023
0.577234 0.223148 0.074403
0.703334 0.123201 0.0821546
0.803159 0.10692 0.100038
0.808408 0.112428 0.11075
0.813138 0.120104 0.117098
0.00886549 0.441489 0.0641642
0.00932326 0.457847 0.0545815
0.0145266 0.460288 0.0182193
0.0576028 0.484794 0.00933852
0.56878 0.605844 0.0670329
0.797406 0.658167 0.102007
0.920165 0.618204 0.145861
0.928512 0.607858 0.150469
0.930739 0.629206 0.152041
0.0629282 0.705333 0.156222
0.0696727 0.717144 0.140108
0.0819867 0.718685 0.0802625
0.0879683 0.718608 0.0635843
0.410971 0.769146 0.0985122
0.787366 0.825406 0.137072
0.919387 0.857633 0.147738
0.927993 0.862287 0.150027
0.927398 0.868391 0.151293
0.0799725 0.786938 0.248127
0.0855879 0.785016 0.204013
0.103914 0.783322 0.100969
0.108644 0.783429 0.0822003
0.439246 0.814618 0.106172
0.749187 0.869459 0.158251
0.909682 0.906188 0.210895
0.925948 0.909972 0.251102
0.926253 0.910094 0.26363
0.072343 0.791989 0.333043
0.0774853 0.788296 0.271214
0.098497 0.783352 0.126894
0.109117 0.783459 0.0822309
0.440528 0.814633 0.106401
0.759579 0.872877 0.155138
0.916091 0.908003 0.250797
0.928191 0.911177 0.343694
0.928756 0.911406 0.370993
0.0674144 0.795865 0.399847
0.0731212 0.791287 0.321477
0.0939345 0.783658 0.151049
0.108736 0.783429 0.0822156
0.469947 0.815473 0.107637
0.774166 0.876616 0.154253
0.916503 0.90808 0.250111
0.9281 0.911177 0.338766
0.928756 0.911421 0.370733
0.026688 0.0457771 0.0788128
0.0319677 0.0453803 0.0814069
0.0581979 0.0466773 0.0941024
0.136309 0.0476234 0.115206
0.318395 0.0522164 0.168627
0.564095 0.0552377 0.232517
0.73431 0.0710613 0.333974
0.796674 0.0783093 0.4224
0.805829 0.0799878 0.4813
0.0240635 0.0478676 0.0899977
0.0263371 0.0477607 0.109087
0.0714885 0.048127 0.142596
0.204547 0.0500343 0.169589
0.436835 0.0532235 0.227558
0.648096 0.0624399 0.304082
0.793515 0.0778821 0.401114
0.801007 0.0792096 0.451911
0.807263 0.080354 0.489998
0.0310521 0.0915694 0.127123
0.0294194 0.0939803 0.143648
0.061677 0.084596 0.183139
0.244419 0.0663005 0.202274
0.465995 0.0534676 0.208865
0.653178 0.0622568 0.270253
0.780728 0.0763256 0.344015
0.792737 0.0778821 0.389593
0.797513 0.0784619 0.42623
0.0311894 0.223117 0.189029
0.0298009 0.236835 0.202579
0.0305486 0.233524 0.199756
0.28098 0.283574 0.268482
0.611322 0.234348 0.243854
0.770367 0.189273 0.270161
0.84802 0.125856 0.304799
0.846891 0.122576 0.323247
0.852674 0.13228 0.34966
0.00277714 0.434531 0.180072
0.00189212 0.449287 0.178073
0.00363165 0.44506 0.138491
0.0417639 0.454185 0.074876
0.574716 0.59736 0.189471
0.82501 0.612039 0.270817
0.929686 0.557031 0.316945
0.940475 0.553857 0.341421
0.941466 0.575097 0.358709
0.0437476 0.691188 0.292393
0.0474098 0.70164 0.288823
0.050782 0.695705 0.227985
0.0685893 0.690501 0.0881361
0.36524 0.74667 0.11252
0.776562 0.807111 0.185
0.919615 0.837308 0.171756
0.934752 0.834928 0.198047
0.935973 0.839216 0.217868
0.0664988 0.796658 0.416999
0.0678721 0.795407 0.391546
0.0739605 0.790478 0.308766
0.100587 0.783276 0.11693
0.270024 0.801434 0.0931563
0.686946 0.851774 0.14905
0.901717 0.904616 0.200198
0.924666 0.909331 0.215152
0.925155 0.908873 0.223636
0.0627604 0.799908 0.522499
0.0639811 0.798398 0.47866
0.0692454 0.794125 0.369924
0.0966506 0.783429 0.136919
0.263172 0.800473 0.0923934
0.670497 0.847761 0.138857
0.905318 0.905577 0.22826
0.928038 0.911192 0.333761
0.928786 0.911421 0.372824
0.0619669 0.803723 0.586984
0.0624094 0.800778 0.540078
0.0662547 0.796719 0.420951
0.092134 0.783764 0.160403
0.26743 0.800961 0.0927901
0.674998 0.84918 0.139635
0.903288 0.905043 0.222843
0.92784 0.911101 0.321645
0.928725 0.911406 0.36936
0.0257572 0.0496529 0.14638
0.0317693 0.0488899 0.157
0.0603342 0.0497292 0.184604
0.146304 0.0505989 0.228656
0.334386 0.0556344 0.27718
0.581827 0.0593576 0.380529
0.756771 0.0755474 0.502754
0.812863 0.0840314 0.570184
0.815351 0.0857404 0.613245
0.0211643 0.0521859 0.180468
0.0257725 0.0529183 0.219974
0.0705425 0.0527352 0.269215
0.213581 0.0546426 0.323613
0.459205 0.0563363 0.366949
0.660151 0.0660105 0.487984
0.810056 0.0835584 0.567224
0.814771 0.085893 0.600595
0.81912 0.0872663 0.629175
0.0229648 0.0771344 0.215442
0.0224765 0.0749676 0.236683
0.0341192 0.0600748 0.278187
0.192676 0.0563058 0.351049
0.473167 0.0566415 0.380041
0.670985 0.0671397 0.486168
0.804913 0.0823987 0.553338
0.813321 0.0847028 0.583398
0.815213 0.086183 0.606622
0.0267948 0.224002 0.332555
0.0251926 0.236805 0.360327
0.0251621 0.223117 0.382223
0.194949 0.220447 0.507607
0.580972 0.156146 0.505501
0.733455 0.106401 0.517143
0.820981 0.0835126 0.533272
0.823743 0.0846265 0.550027
0.82768 0.0856794 0.571069
0.00375372 0.417136 0.352926
0.00263981 0.431647 0.365774
0.00282292 0.427665 0.363317
0.0379187 0.439216 0.376638
0.605615 0.589593 0.56878
0.835157 0.586709 0.582666
0.942763 0.561791 0.602029
0.949691 0.550576 0.619699
0.951415 0.562005 0.635843
0.0349279 0.675776 0.468788
0.0372625 0.686137 0.476249
0.0357519 0.679805 0.439582
0.0338598 0.665858 0.351843
0.323995 0.710369 0.364446
0.773037 0.788006 0.498131
0.943832 0.791012 0.593683
0.961807 0.786786 0.614893
0.96199 0.79295 0.628672
0.0619364 0.801053 0.594415
0.0618448 0.80058 0.584573
0.0614328 0.796765 0.540398
0.0649271 0.790646 0.421759
0.18436 0.786297 0.292531
0.65713 0.827222 0.328084
0.897856 0.899413 0.548653
0.939071 0.908385 0.583642
0.942092 0.908217 0.601678
0.0643015 0.809857 0.662989
0.0633555 0.80824 0.644617
0.062501 0.804593 0.6
0.0637675 0.798733 0.487602
0.0921187 0.786984 0.237247
0.642222 0.832197 0.2598
0.886229 0.900267 0.478218
0.935668 0.916182 0.596857
0.944198 0.923934 0.662043
0.0679789 0.813642 0.70367
0.0657664 0.81181 0.681529
0.0632639 0.807523 0.634546
0.0627909 0.799847 0.521202
0.118608 0.789395 0.276249
0.63595 0.830762 0.255543
0.884871 0.900526 0.431662
0.932815 0.913436 0.560281
0.939208 0.919097 0.6224
0.0259403 0.0543069 0.25301
0.0330816 0.0541085 0.271595
0.0627909 0.0544289 0.309453
0.154147 0.0557717 0.377096
0.363836 0.0586404 0.448005
0.599054 0.0619974 0.520256
0.775051 0.0817578 0.621668
0.828809 0.0906996 0.674907
0.833936 0.0933394 0.707759
0.0216831 0.0594797 0.304021
0.0271763 0.059968 0.346944
0.0726787 0.0577249 0.412711
0.219226 0.0596933 0.50457
0.48893 0.0588388 0.544976
0.673198 0.06981 0.595743
0.823514 0.0898451 0.672999
0.832929 0.0927443 0.700084
0.835065 0.0941787 0.721279
0.0203403 0.0752575 0.334005
0.0197299 0.0721294 0.353368
0.0303044 0.0623484 0.397284
0.179477 0.0603342 0.520867
0.492287 0.0597848 0.56524
0.683101 0.0711223 0.605142
0.824048 0.0898451 0.672618
0.832273 0.0922255 0.694163
0.834287 0.0935225 0.710781
0.0222019 0.215778 0.494041
0.0217899 0.225574 0.522454
0.0216068 0.201984 0.538659
0.124544 0.172457 0.613275
0.538048 0.115877 0.647135
0.714656 0.0935836 0.633143
0.820081 0.0895247 0.65951
0.828702 0.0904555 0.671351
0.831525 0.0914015 0.683574
0.00721752 0.429328 0.528054
0.00675975 0.44448 0.541588
0.00779736 0.439933 0.553368
0.0154879 0.423316 0.573831
0.548653 0.553552 0.726207
0.819806 0.521233 0.751339
0.947402 0.460197 0.77612
0.9635 0.434653 0.790402
0.962737 0.453361 0.797406
0.0368658 0.658045 0.609751
0.0392309 0.667048 0.618647
0.0370947 0.658595 0.611444
0.0332952 0.644129 0.59736
0.348608 0.703868 0.66183
0.79147 0.770153 0.746761
0.943496 0.769406 0.757412
0.961761 0.75935 0.765881
0.961776 0.763546 0.777462
0.0654307 0.804425 0.692638
0.0653391 0.803815 0.688731
0.0632792 0.797467 0.668254
0.0602121 0.787732 0.630381
0.151492 0.777646 0.584558
0.680461 0.8448 0.665217
0.910811 0.904005 0.727764
0.962402 0.908339 0.776043
0.962402 0.908736 0.785245
0.0719921 0.817472 0.74049
0.0709697 0.816403 0.731273
0.0687572 0.81445 0.711574
0.0647746 0.810651 0.67042
0.0635386 0.803525 0.584009
0.639658 0.850599 0.639963
0.862287 0.910399 0.704234
0.957824 0.941421 0.803296
0.962661 0.944823 0.826963
0.0749523 0.819776 0.764218
0.0732891 0.818753 0.752987
0.0710002 0.816449 0.73164
0.0661326 0.812146 0.686961
0.062089 0.804578 0.598718
0.615473 0.843305 0.630488
0.855451 0.90782 0.694545
0.950118 0.93785 0.777249
0.962615 0.949859 0.867948
0.0272526 0.0610971 0.362097
0.0355993 0.0609598 0.395544
0.066392 0.0592355 0.450843
0.166812 0.0613565 0.535851
0.40412 0.0637522 0.597681
0.622477 0.0665599 0.629541
0.78909 0.0868391 0.699092
0.836545 0.0958114 0.749447
0.840223 0.0977646 0.778149
0.0220188 0.0682536 0.440223
0.0282444 0.0692607 0.48806
0.0759289 0.0645609 0.547402
0.233082 0.0684672 0.625254
0.518441 0.0665904 0.663905
0.689738 0.0750896 0.691875
0.827222 0.0942397 0.743267
0.838758 0.0971084 0.769726
0.840742 0.0978866 0.784588
0.0188449 0.0847791 0.478126
0.0183871 0.0821393 0.493019
0.0301976 0.0737163 0.528084
0.187961 0.0700847 0.633204
0.513298 0.0678111 0.680797
0.697383 0.0760815 0.702617
0.834409 0.0953994 0.747692
0.838254 0.096849 0.765545
0.840299 0.0977951 0.780148
0.022034 0.20383 0.594156
0.0221103 0.211856 0.614176
0.0220645 0.184726 0.618631
0.0868849 0.147219 0.674662
0.484352 0.098024 0.731167
0.700053 0.0828107 0.722957
0.819821 0.0926986 0.733135
0.836698 0.0956893 0.746807
0.838682 0.0966354 0.75491
0.0128023 0.454765 0.622217
0.0136721 0.46923 0.634943
0.0148775 0.459861 0.647623
0.0183108 0.439094 0.673243
0.484398 0.522744 0.815946
0.818708 0.491112 0.86067
0.945693 0.424842 0.859251
0.964096 0.40708 0.866087
0.964935 0.423804 0.871122
0.0477455 0.664805 0.701137
0.0497444 0.672236 0.709361
0.0486763 0.663844 0.710613
0.0465248 0.648295 0.71429
0.284016 0.669261 0.758343
0.765332 0.753185 0.853162
0.935607 0.73904 0.864073
0.961975 0.725917 0.869596
0.961715 0.731853 0.87422
0.0702678 0.798321 0.75317
0.0699016 0.797391 0.751919
0.0681315 0.789731 0.744595
0.0650645 0.778698 0.734051
0.147936 0.771084 0.725261
0.704967 0.857374 0.812329
0.924285 0.900359 0.862776
0.962371 0.900221 0.87216
0.962478 0.897688 0.875761
0.0771191 0.821103 0.776867
0.0766613 0.820737 0.774121
0.0751202 0.819944 0.766125
0.0724346 0.818341 0.74934
0.0711986 0.815 0.719966
0.644541 0.868391 0.770611
0.913848 0.937713 0.864225
0.96257 0.94551 0.871946
0.962646 0.946426 0.88481
0.0762493 0.821485 0.780926
0.0772564 0.821439 0.779858
0.0768902 0.820905 0.775189
0.0737774 0.819104 0.756451
0.0707408 0.815824 0.726101
0.572763 0.850095 0.74612
0.923232 0.944228 0.875578
0.960708 0.950027 0.874891
0.962646 0.95285 0.90396
0.0282139 0.0690623 0.483543
0.0377203 0.0695964 0.521157
0.0706798 0.0677958 0.565896
0.187045 0.0707408 0.639139
0.445197 0.0707408 0.697276
0.652216 0.0746014 0.72578
0.804181 0.0921035 0.76408
0.842359 0.0988174 0.795254
0.842359 0.0988174 0.795254
0.0215915 0.0828107 0.552819
0.0284581 0.0856336 0.585611
0.0755322 0.0805676 0.636988
0.247761 0.0806744 0.714809
0.540032 0.0755474 0.751141
0.710277 0.0814679 0.766247
0.833661 0.0973831 0.78822
0.842329 0.0988022 0.795102
0.842359 0.0988174 0.795254
0.0189517 0.10042 0.575814
0.0189212 0.0994278 0.585824
0.0278935 0.0936141 0.613611
0.19559 0.0835889 0.717479
0.528481 0.077409 0.76289
0.713344 0.0826581 0.77232
0.842176 0.0987106 0.793866
0.842374 0.0988174 0.795254
0.842374 0.0988174 0.79527
0.0230106 0.198611 0.65716
0.0235447 0.207721 0.671382
0.022797 0.175769 0.666545
0.0594797 0.138354 0.702266
0.446097 0.0941482 0.781353
0.696284 0.0856641 0.778927
0.827222 0.0964981 0.785458
0.842206 0.0986801 0.793362
0.842634 0.0988785 0.795575
0.0187228 0.472129 0.685023
0.0204929 0.485771 0.695171
0.0205997 0.47219 0.704616
0.0214694 0.447196 0.725155
0.420523 0.515862 0.849775
0.805585 0.48069 0.90782
0.941924 0.410773 0.899779
0.961059 0.385168 0.895796
0.963378 0.405234 0.900603
0.0563363 0.680293 0.751766
0.0577401 0.686366 0.757137
0.0570077 0.679103 0.759426
0.0559396 0.666362 0.764202
0.237827 0.672251 0.791836
0.740887 0.743328 0.890379
0.937804 0.734661 0.906935
0.961715 0.713436 0.905638
0.961913 0.718914 0.908568
0.0731365 0.800122 0.775952
0.0732433 0.798993 0.776165
0.0722972 0.791608 0.77435
0.0711986 0.781003 0.77322
0.122988 0.774212 0.778103
0.67715 0.835492 0.849668
0.915846 0.892348 0.896681
0.962203 0.886091 0.897276
0.962295 0.882933 0.899504
0.0763256 0.821485 0.780941
0.0762951 0.821485 0.780941
0.076112 0.821454 0.780697
0.0751202 0.820081 0.778744
0.0751965 0.816495 0.77377
0.635737 0.863111 0.81593
0.920043 0.939422 0.89926
0.962631 0.943984 0.903197
0.962631 0.944869 0.905943
0.0761273 0.821485 0.780941
0.0761273 0.821485 0.780941
0.0757153 0.821469 0.780911
0.0777905 0.82153 0.780758
0.0770428 0.82092 0.775158
0.515785 0.839567 0.779507
0.923842 0.94754 0.90164
0.962646 0.952605 0.907729
0.962631 0.953201 0.910567
0.0285801 0.0840467 0.578714
0.0380102 0.0877241 0.61146
0.0729534 0.0859693 0.653483
0.204501 0.0849317 0.724269
0.479606 0.0802014 0.771298
0.682567 0.0836194 0.785077
0.827054 0.0968795 0.793561
0.842359 0.0988174 0.795254
0.842359 0.0988174 0.795254
0.0205539 0.106172 0.633799
0.0260624 0.108156 0.654734
0.0706493 0.103197 0.699336
0.257359 0.0941329 0.769131
0.55996 0.0823224 0.788739
0.731487 0.0860761 0.787686
0.839338 0.0982528 0.794705
0.842359 0.0988174 0.795254
0.842359 0.0988174 0.795254
0.0204623 0.117357 0.640711
0.0205081 0.115007 0.63946
0.0261234 0.112337 0.665537
0.203082 0.0937514 0.754818
0.544656 0.0824292 0.78819
0.725399 0.0849317 0.785351
0.842359 0.0988174 0.795254
0.84239 0.0988174 0.795285
0.84239 0.0988174 0.79527
0.0241855 0.201572 0.697215
0.0246738 0.210117 0.707271
0.0234073 0.176837 0.69836
0.051133 0.132555 0.710704
0.435157 0.091371 0.790921
0.704387 0.0886702 0.794827
0.832578 0.0976425 0.794339
0.842527 0.0988479 0.795468
0.842618 0.0988785 0.795575
0.023209 0.489387 0.722652
0.02533 0.501457 0.730938
0.0242313 0.485298 0.736904
0.0227207 0.451667 0.744137
0.390311 0.513313 0.855848
0.799847 0.473396 0.917647
0.940658 0.402365 0.909819
0.960403 0.375555 0.903487
0.962936 0.39736 0.906828
0.0623026 0.702052 0.774823
0.0632486 0.706294 0.777295
0.0624247 0.699519 0.778454
0.0608072 0.685206 0.780163
0.199908 0.684474 0.802167
0.719997 0.742168 0.895949
0.936812 0.735668 0.924514
0.961883 0.709438 0.918273
0.96173 0.713542 0.918791
0.074342 0.804822 0.781979
0.0741741 0.803159 0.782132
0.0735485 0.796674 0.782391
0.0728161 0.786084 0.7832
0.10927 0.778683 0.786145
0.654643 0.830686 0.853498
0.910399 0.890105 0.909545
0.962341 0.882048 0.913832
0.962234 0.873793 0.914992
0.0761273 0.821485 0.780941
0.0761273 0.821485 0.780941
0.076112 0.821485 0.780926
0.0758984 0.820279 0.780987
0.0754711 0.817182 0.781201
0.592569 0.848981 0.819242
0.912032 0.936294 0.907698
0.962509 0.942153 0.91104
0.962554 0.942397 0.911925
0.0761273 0.821485 0.780941
0.0761273 0.821485 0.780941
0.0761273 0.821485 0.780941
0.0759594 0.821485 0.780926
0.0762341 0.821485 0.780926
0.469169 0.833204 0.790372
0.920287 0.947585 0.90753
0.962661 0.952728 0.911833
0.962646 0.953292 0.912642
