bundles/resolve-cinematic-luts/Phantom Luts/Canon Film LUT/C-Log 2/Bleach Canon CL2.cube
TITLE "Generated by Resolve"
LUT_3D_SIZE 33
0.0176089 0.0296635 0.0198062
0.0177005 0.0296941 0.0198367
0.0183413 0.0298009 0.0199741
0.0200504 0.0301213 0.0204776
0.0229648 0.0306859 0.0216068
0.0275425 0.0318608 0.0231785
0.0343633 0.0329137 0.023682
0.0453651 0.033341 0.0247654
0.0590219 0.0341497 0.0266423
0.0749218 0.034638 0.0285801
0.0943465 0.0358129 0.0306554
0.117357 0.0368963 0.0316472
0.146548 0.0385595 0.0335393
0.181186 0.0401312 0.0358892
0.221836 0.041825 0.0398871
0.265568 0.0435492 0.045594
0.312047 0.0449531 0.0535897
0.362661 0.046067 0.0614481
0.421607 0.0459602 0.068452
0.483955 0.0456397 0.0770275
0.538674 0.0468452 0.0885786
0.585245 0.0494698 0.103456
0.627634 0.0527352 0.120623
0.668818 0.0563973 0.140581
0.706752 0.0605325 0.162402
0.742931 0.0643931 0.186374
0.764401 0.0667582 0.208637
0.775937 0.0679484 0.223468
0.777417 0.0679942 0.230915
0.778546 0.068101 0.23743
0.779553 0.0681315 0.243824
0.780346 0.0680705 0.250034
0.781353 0.068101 0.255924
0.0176242 0.0297704 0.0198367
0.0176394 0.0297093 0.0198215
0.018265 0.0298161 0.0199588
0.0201419 0.0302129 0.0205234
0.0234531 0.0309758 0.0219272
0.0287633 0.0321202 0.0234684
0.0372625 0.0329442 0.0237736
0.0514382 0.0336004 0.0255283
0.0685435 0.0346838 0.0280766
0.0888838 0.0355077 0.0300603
0.113008 0.0368048 0.0315251
0.142412 0.0383307 0.0329442
0.17792 0.0399481 0.0353552
0.219913 0.041825 0.0393835
0.263676 0.0435798 0.0450446
0.311025 0.0449836 0.0529793
0.362524 0.046067 0.0608377
0.42298 0.0458686 0.06804
0.48603 0.0457313 0.0770123
0.540124 0.0469215 0.0884413
0.586709 0.0495308 0.103243
0.628855 0.0528725 0.120333
0.669505 0.0565042 0.140124
0.707149 0.0606088 0.161868
0.742229 0.0644083 0.185077
0.763912 0.0667124 0.206806
0.775509 0.0679026 0.221576
0.776867 0.0679789 0.228061
0.778042 0.0680552 0.234272
0.779065 0.0681315 0.240314
0.779828 0.068101 0.245991
0.780514 0.0680858 0.250904
0.781323 0.0680858 0.255695
0.0177462 0.0303349 0.0199588
0.0177462 0.0302739 0.0199435
0.0178225 0.0299382 0.0198978
0.0195468 0.030396 0.0203403
0.0232395 0.0310216 0.0216373
0.0291142 0.0322881 0.0234073
0.0400702 0.0330358 0.0237736
0.0556344 0.0340124 0.0258335
0.0749828 0.0346685 0.0279088
0.0982223 0.0361791 0.0303502
0.126436 0.0373083 0.0315251
0.160433 0.0388342 0.0332799
0.201495 0.0407874 0.0363012
0.245365 0.0428168 0.04094
0.290547 0.0444953 0.0473945
0.339757 0.0455787 0.0550546
0.396399 0.046128 0.063035
0.461845 0.0458381 0.0707256
0.519326 0.0463722 0.0809033
0.567437 0.0484627 0.0935988
0.610346 0.0513924 0.10927
0.651499 0.0549477 0.127718
0.690333 0.0589609 0.147875
0.725887 0.0626535 0.169619
0.752468 0.065568 0.191379
0.773617 0.0678416 0.212894
0.775036 0.0679026 0.219135
0.776211 0.0679637 0.224918
0.777325 0.0679789 0.23061
0.778195 0.0680705 0.235309
0.778958 0.0681163 0.239902
0.779522 0.0681315 0.243778
0.780056 0.0680705 0.24799
0.0185855 0.0323491 0.020798
0.0189364 0.0328069 0.0211032
0.0192264 0.0328222 0.0211032
0.0205692 0.0327306 0.0213016
0.0237278 0.0332647 0.0223392
0.0298772 0.0331884 0.023331
0.0404364 0.0335546 0.0234989
0.0572671 0.0343175 0.0248112
0.0767987 0.035111 0.0272374
0.100496 0.0363165 0.0294804
0.130648 0.0374609 0.0308232
0.165011 0.0389868 0.0320592
0.206622 0.0415198 0.0350347
0.251652 0.0431983 0.0387732
0.297719 0.044892 0.0448157
0.34873 0.0458534 0.0517739
0.407691 0.0462348 0.0588083
0.471321 0.0455634 0.0665446
0.526757 0.0467994 0.0771496
0.573693 0.0491493 0.0895399
0.616053 0.0518807 0.105119
0.656855 0.0556954 0.123369
0.694438 0.0594034 0.142687
0.72961 0.0632944 0.163928
0.754223 0.0659648 0.185901
0.772076 0.0677653 0.204273
0.773159 0.0678111 0.210315
0.774258 0.0678874 0.215412
0.775341 0.0679026 0.220676
0.776181 0.0679637 0.224704
0.777081 0.0679942 0.229191
0.777737 0.0680247 0.232242
0.778241 0.0680705 0.235523
0.0203098 0.0378119 0.0225528
0.0204623 0.0388952 0.0225681
0.0209201 0.0392615 0.0225376
0.0218509 0.0386511 0.0225071
0.0255894 0.0392309 0.0233616
0.0321813 0.0408789 0.0245212
0.0430915 0.039826 0.0235142
0.0624094 0.0380713 0.0242161
0.0829175 0.0371099 0.0256657
0.108431 0.0369879 0.027863
0.135576 0.0378119 0.0295872
0.168612 0.0393072 0.0308995
0.205768 0.0414435 0.0330358
0.250446 0.0437476 0.0364691
0.296971 0.0450904 0.0407568
0.347585 0.0467842 0.0466926
0.404807 0.0462501 0.0522927
0.469841 0.0457313 0.0594339
0.526345 0.046952 0.06981
0.574319 0.0494087 0.0822614
0.616342 0.0521553 0.0971389
0.657969 0.0560616 0.114763
0.694774 0.0597696 0.133425
0.729549 0.0635538 0.153887
0.755077 0.0662394 0.176684
0.769558 0.0677043 0.19205
0.77055 0.067689 0.19704
0.771679 0.0677195 0.20238
0.772564 0.0677958 0.206683
0.773312 0.0678264 0.210803
0.77409 0.0678874 0.214405
0.774685 0.0679026 0.217197
0.775265 0.0679179 0.219852
0.0230716 0.0482948 0.0250706
0.0231174 0.050248 0.0250248
0.0233005 0.0517281 0.0248264
0.0243992 0.0517281 0.0243839
0.0279545 0.0511635 0.0251621
0.0365911 0.0518502 0.0268406
0.0488136 0.0555276 0.0284733
0.0678264 0.0526131 0.0257877
0.0898146 0.049012 0.026154
0.116899 0.0426642 0.0269322
0.147158 0.0405127 0.0272984
0.182666 0.0413977 0.029984
0.221149 0.0423133 0.0315251
0.259937 0.0440223 0.0340887
0.299504 0.045182 0.0368963
0.347234 0.0472725 0.0419471
0.402548 0.047715 0.0470436
0.464225 0.0463874 0.0525521
0.520439 0.0468757 0.0611887
0.570108 0.0493629 0.0729686
0.613474 0.0522011 0.0873579
0.654169 0.0559396 0.103288
0.692119 0.059968 0.121401
0.726467 0.0634928 0.141176
0.753872 0.066392 0.163195
0.764996 0.067628 0.174746
0.766079 0.0676585 0.179294
0.76791 0.0678111 0.18439
0.768856 0.0678111 0.188037
0.76968 0.0677348 0.191287
0.770306 0.0676738 0.194491
0.770764 0.0677348 0.19646
0.771252 0.0677501 0.198505
0.025742 0.0662547 0.0285954
0.0262455 0.0705119 0.02916
0.0267643 0.0730297 0.0286717
0.027863 0.0729076 0.0273899
0.0314488 0.0717327 0.0277714
0.0389715 0.0721141 0.0292058
0.0549172 0.0724346 0.0317388
0.0728923 0.0776532 0.0290837
0.0993973 0.0744945 0.0276951
0.129335 0.0668956 0.0291752
0.161471 0.0554208 0.0298619
0.198383 0.0494698 0.030457
0.239612 0.0463111 0.0307622
0.280797 0.0456092 0.0316472
0.324178 0.0467842 0.034226
0.36556 0.0471351 0.0370031
0.417685 0.0472877 0.0412604
0.468894 0.0469062 0.0460822
0.518624 0.0473335 0.0535286
0.562081 0.0492866 0.0628519
0.607401 0.0522469 0.0763256
0.64715 0.055436 0.0898756
0.686 0.0595102 0.106905
0.720058 0.0633249 0.125521
0.750042 0.0663615 0.144137
0.754864 0.0668956 0.150393
0.75729 0.0670481 0.155489
0.758877 0.0672465 0.158755
0.760342 0.0673686 0.162325
0.762112 0.0675669 0.16582
0.762798 0.0676127 0.167895
0.764111 0.0677043 0.170275
0.764355 0.0677043 0.171145
0.0284886 0.0910506 0.0319524
0.0289006 0.0965133 0.0322576
0.0290684 0.0994736 0.031632
0.0299687 0.0994278 0.0293736
0.0327611 0.0982681 0.0286717
0.0391241 0.0982376 0.0295415
0.0521248 0.0990616 0.0317693
0.0785687 0.0994125 0.0342565
0.101335 0.104158 0.0285344
0.139025 0.10132 0.0274968
0.180529 0.0935683 0.030396
0.220493 0.0784772 0.0324865
0.26389 0.0621653 0.0339818
0.304509 0.0547036 0.0335851
0.347204 0.0515297 0.0325933
0.401343 0.0485695 0.0317693
0.454246 0.0475929 0.0342107
0.503883 0.0481727 0.0400549
0.539239 0.0489509 0.0479896
0.575784 0.0504311 0.0569162
0.602625 0.0521401 0.067689
0.638865 0.0551919 0.0790112
0.674907 0.0587015 0.0892958
0.709911 0.062501 0.106401
0.738476 0.0656443 0.121675
0.74229 0.0660258 0.12665
0.744274 0.0662089 0.129
0.745556 0.0663615 0.131289
0.746471 0.0664988 0.133227
0.747341 0.0665751 0.134981
0.748257 0.0666056 0.136156
0.74905 0.0666209 0.137133
0.749142 0.0666209 0.137255
0.0303044 0.119188 0.0338293
0.0306401 0.125765 0.0339055
0.03093 0.129229 0.032929
0.0310826 0.129824 0.030457
0.0332799 0.128603 0.0293126
0.0384985 0.127993 0.0297704
0.0494545 0.129458 0.0311437
0.0689097 0.129931 0.0329137
0.10602 0.130861 0.0335699
0.137072 0.135256 0.0269474
0.187335 0.134234 0.0263371
0.239918 0.128084 0.0290684
0.290455 0.105394 0.0345312
0.336812 0.0794537 0.0366674
0.3823 0.0655375 0.0365606
0.435462 0.0577096 0.0337377
0.486763 0.0528878 0.0311284
0.531044 0.0514534 0.0329442
0.573938 0.0507973 0.0378119
0.603235 0.0522164 0.0462043
0.636194 0.0553445 0.0606241
0.658167 0.0576181 0.073106
0.684215 0.0603952 0.0867933
0.708202 0.0626993 0.0990616
0.724376 0.0645457 0.107225
0.732708 0.0652018 0.111131
0.735149 0.0654307 0.112459
0.735637 0.0654765 0.112856
0.73547 0.0654612 0.113024
0.737285 0.0655833 0.115465
0.736416 0.0655222 0.114244
0.736065 0.065507 0.113542
0.735134 0.0654307 0.112047
0.0318456 0.153399 0.0345159
0.0322881 0.161486 0.0344396
0.032517 0.165576 0.0329595
0.0325322 0.166232 0.0305638
0.0328222 0.165042 0.0294957
0.0359503 0.163729 0.0295262
0.0451972 0.165194 0.0302434
0.0604562 0.167865 0.0313573
0.0892958 0.168643 0.0335546
0.13991 0.170352 0.0332647
0.182696 0.174441 0.0272679
0.242481 0.177539 0.026215
0.306569 0.172641 0.0294652
0.370916 0.138201 0.0352178
0.42916 0.107836 0.0370336
0.481483 0.0854505 0.0384222
0.524681 0.0697337 0.0376135
0.560235 0.0639658 0.0360418
0.592584 0.0603342 0.0353246
0.625208 0.0577859 0.0362249
0.654826 0.0582589 0.0433967
0.690044 0.0616159 0.0590524
0.711681 0.0639658 0.0735943
0.732906 0.0659648 0.0907149
0.739071 0.0664225 0.0992294
0.740291 0.0663615 0.106737
0.743481 0.0667887 0.106279
0.745754 0.0671702 0.107027
0.747967 0.0676127 0.108278
0.748943 0.0680095 0.108873
0.747478 0.0683452 0.110735
0.746014 0.0679179 0.110018
0.7411 0.0666209 0.108904
0.0323644 0.193179 0.0336767
0.032166 0.202487 0.0328985
0.0319829 0.207034 0.03093
0.0320745 0.20734 0.0281529
0.0321355 0.206363 0.0271916
0.0323186 0.2047 0.0272679
0.0373541 0.204898 0.0277409
0.0514839 0.209461 0.028687
0.0733959 0.212757 0.0305638
0.114351 0.213657 0.0339513
0.182864 0.218601 0.0334783
0.237507 0.223896 0.0266423
0.305425 0.229435 0.0266423
0.384619 0.224643 0.0290837
0.466865 0.184283 0.0333104
0.520439 0.151339 0.0377966
0.560952 0.122042 0.042237
0.596201 0.097261 0.0454261
0.623148 0.0842451 0.0450904
0.650675 0.0775006 0.0437629
0.676631 0.0728313 0.0430457
0.697993 0.0694438 0.044007
0.725811 0.0699321 0.0548104
0.746624 0.0683909 0.0635233
0.761944 0.0700694 0.0780499
0.772457 0.0713664 0.0894179
0.769696 0.071107 0.0871443
0.7691 0.0711528 0.0873274
0.766766 0.0711376 0.0863355
0.768017 0.0713207 0.0867781
0.766415 0.0715801 0.0853285
0.768139 0.0716564 0.0849317
0.769589 0.071397 0.0838941
0.0302129 0.236835 0.0300298
0.0296635 0.24567 0.0289006
0.0294347 0.250278 0.0268559
0.0294804 0.251118 0.0244755
0.029572 0.250507 0.0238804
0.029633 0.24947 0.0239719
0.0309911 0.24802 0.0242618
0.0390784 0.250233 0.0243992
0.0579538 0.256687 0.0252384
0.0902876 0.260288 0.0274052
0.145159 0.262745 0.0332952
0.233646 0.273762 0.0322118
0.30164 0.282811 0.0264286
0.381582 0.290135 0.0261845
0.474189 0.287816 0.0276799
0.546792 0.256718 0.035111
0.594079 0.222217 0.043122
0.631189 0.184375 0.0507973
0.659358 0.144869 0.0552834
0.684993 0.124331 0.0580758
0.710384 0.110704 0.0589914
0.729046 0.100771 0.0572519
0.742916 0.0917983 0.0544442
0.759503 0.0868391 0.0554818
0.765988 0.0755322 0.0518959
0.770275 0.0751049 0.0543679
0.769711 0.0732738 0.052369
0.773754 0.0774548 0.0575113
0.778149 0.082536 0.0631266
0.778592 0.0842756 0.063386
0.781064 0.0879072 0.0658885
0.779446 0.0868391 0.0628519
0.77966 0.0883955 0.0622873
0.0263218 0.280995 0.0254826
0.0255741 0.289891 0.0242161
0.0248569 0.294682 0.0221103
0.0249638 0.295262 0.0193027
0.0250095 0.295659 0.0180056
0.0250248 0.295567 0.0180362
0.02533 0.294575 0.0183566
0.0274815 0.294224 0.0184634
0.0420081 0.297261 0.0191348
0.0676127 0.305089 0.0202182
0.110735 0.309697 0.023682
0.184894 0.317159 0.0318303
0.292653 0.337682 0.0301823
0.376532 0.350668 0.025864
0.470603 0.360693 0.0259098
0.545144 0.371298 0.0318914
0.615457 0.35938 0.04448
0.664744 0.328084 0.0569009
0.701183 0.284306 0.0673228
0.72668 0.24361 0.0710765
0.750118 0.209522 0.0750286
0.771725 0.177081 0.0774395
0.781903 0.145846 0.0759442
0.794629 0.134096 0.0757458
0.804456 0.12282 0.0737011
0.80502 0.119493 0.0720531
0.80589 0.119066 0.0723735
0.805386 0.119478 0.0719615
0.808011 0.122957 0.0740673
0.81004 0.126055 0.0750744
0.812879 0.129686 0.0770123
0.815717 0.133806 0.0787366
0.819669 0.138842 0.0808881
0.0215457 0.326406 0.0204318
0.0202945 0.335515 0.0190127
0.0198367 0.340826 0.0171664
0.0200198 0.342123 0.0141604
0.0201724 0.342321 0.0124666
0.0202029 0.343374 0.0124666
0.0201572 0.342458 0.0124361
0.0205081 0.340429 0.0127108
0.0280308 0.341711 0.0128786
0.0503243 0.347616 0.0135042
0.0818189 0.357244 0.0145418
0.139391 0.363668 0.0196841
0.233631 0.380118 0.0303197
0.357809 0.414969 0.0278782
0.466392 0.436347 0.0264286
0.549111 0.460121 0.0337987
0.605356 0.479759 0.043183
0.670604 0.487404 0.0577554
0.724926 0.476844 0.0752575
0.77438 0.435279 0.0962844
0.809888 0.395239 0.10869
0.834165 0.353597 0.115969
0.841611 0.289143 0.108263
0.847257 0.253315 0.105455
0.858579 0.236774 0.106966
0.851164 0.200076 0.100145
0.852934 0.200031 0.100587
0.853559 0.200519 0.100908
0.855467 0.204425 0.102144
0.86247 0.219852 0.106355
0.870954 0.240513 0.11165
0.878706 0.260685 0.116915
0.886549 0.279728 0.122957
0.0158083 0.375174 0.0151369
0.0143435 0.385611 0.0135653
0.0140383 0.392157 0.0115663
0.0142824 0.39382 0.00894179
0.0146944 0.394095 0.00666819
0.0147707 0.394659 0.00662242
0.0148013 0.395331 0.00666819
0.0148928 0.392599 0.00672923
0.0177768 0.392828 0.00680552
0.0321355 0.395865 0.00677501
0.0624552 0.405447 0.00737011
0.099855 0.417014 0.00895705
0.17937 0.429984 0.0175021
0.294636 0.464012 0.0318456
0.457145 0.507469 0.037705
0.555428 0.532464 0.0425574
0.620813 0.552712 0.0507362
0.664698 0.567269 0.0589456
0.717418 0.582895 0.0706951
0.766766 0.587015 0.083711
0.812619 0.561746 0.0996414
0.847807 0.537011 0.113558
0.879347 0.505623 0.130983
0.899687 0.471931 0.143862
0.915129 0.439796 0.155016
0.92195 0.402197 0.159167
0.923964 0.403525 0.160311
0.925063 0.417304 0.162188
0.926116 0.434546 0.162936
0.925902 0.452033 0.1617
0.924941 0.467826 0.159442
0.923812 0.481147 0.156466
0.923247 0.494682 0.153948
0.0104829 0.431815 0.0105287
0.00978103 0.443915 0.00979629
0.00988785 0.449744 0.00830091
0.0104524 0.451133 0.00575265
0.0109102 0.45153 0.00326543
0.0110933 0.452384 0.00239567
0.0110781 0.45417 0.00230411
0.0110933 0.453498 0.00233463
0.0110933 0.450843 0.00244144
0.0185855 0.45182 0.00248722
0.043595 0.458839 0.00318914
0.0856031 0.47248 0.00610361
0.140719 0.487556 0.0120546
0.253651 0.513985 0.0298772
0.398032 0.555352 0.0518807
0.549126 0.587945 0.0556344
0.626322 0.608362 0.0601205
0.682383 0.623774 0.0677806
0.720256 0.635294 0.0751354
0.766171 0.648356 0.0850996
0.811429 0.655116 0.0962539
0.847898 0.649729 0.105501
0.877638 0.640375 0.115496
0.899916 0.620111 0.129198
0.912963 0.599481 0.136568
0.922164 0.579095 0.143816
0.924208 0.580026 0.146029
0.923873 0.586313 0.144762
0.924544 0.594049 0.144778
0.924849 0.603159 0.143969
0.925841 0.61297 0.144488
0.926696 0.621378 0.144823
0.927184 0.629587 0.14461
0.0117342 0.491524 0.0124056
0.0127108 0.502754 0.013077
0.013611 0.508598 0.0125124
0.0145113 0.509453 0.00972
0.0154116 0.510018 0.00660716
0.0157321 0.510918 0.00540169
0.0157626 0.511757 0.00540169
0.0157473 0.511513 0.00540169
0.0157321 0.510369 0.00541695
0.0182956 0.511055 0.00544747
0.0354314 0.514153 0.00648508
0.0802625 0.530709 0.0110018
0.145388 0.553964 0.0210575
0.228077 0.574258 0.0345006
0.359518 0.602594 0.0588235
0.510613 0.626276 0.0695659
0.619532 0.653269 0.073167
0.687312 0.671489 0.0777905
0.737957 0.684886 0.0850538
0.773724 0.694575 0.0917525
0.813046 0.704585 0.0999161
0.845747 0.712764 0.107652
0.875563 0.719387 0.114717
0.899901 0.726207 0.121462
0.915572 0.707301 0.128756
0.926116 0.698741 0.133791
0.928847 0.694697 0.137606
0.930373 0.697444 0.139055
0.930724 0.705394 0.138827
0.930785 0.712245 0.137743
0.930678 0.718898 0.136568
0.930556 0.726619 0.135195
0.931044 0.734112 0.13434
0.0210575 0.553552 0.0221866
0.0243839 0.566445 0.0248569
0.0265965 0.573236 0.0247196
0.0277562 0.574395 0.0215457
0.0286564 0.574655 0.0176394
0.0291142 0.574746 0.0157321
0.0293736 0.575845 0.0159304
0.0297246 0.577325 0.0162051
0.028809 0.573678 0.0155032
0.0318456 0.574151 0.0157168
0.0456092 0.580438 0.0179141
0.0869612 0.593149 0.0235599
0.155795 0.61735 0.0350805
0.238254 0.637552 0.048188
0.327321 0.652476 0.0632792
0.475959 0.667063 0.0797131
0.593774 0.687388 0.0867781
0.677882 0.710842 0.0897993
0.737453 0.727001 0.0940261
0.78822 0.7402 0.101061
0.82063 0.749249 0.106538
0.852842 0.758389 0.112856
0.874998 0.764355 0.117693
0.896498 0.770321 0.122774
0.912673 0.775204 0.127626
0.921965 0.778408 0.130312
0.928588 0.782666 0.132464
0.929641 0.784146 0.133043
0.929564 0.784787 0.133013
0.929381 0.787213 0.132891
0.929473 0.787976 0.133013
0.929335 0.791318 0.133181
0.929381 0.793545 0.133379
0.0413062 0.62417 0.0416571
0.0458686 0.637049 0.0452277
0.0486305 0.643259 0.0445411
0.0499123 0.643854 0.0406653
0.0508736 0.643534 0.035935
0.0515755 0.644144 0.0344854
0.0518196 0.644968 0.034638
0.0521248 0.64593 0.0348211
0.0520638 0.645716 0.0347906
0.0504463 0.642237 0.0335241
0.061799 0.646189 0.035111
0.0962539 0.656809 0.0402228
0.1673 0.672938 0.0492714
0.246204 0.692729 0.0610971
0.329412 0.704829 0.0727855
0.436866 0.709987 0.0843214
0.572931 0.721004 0.0971237
0.661753 0.741848 0.103914
0.729656 0.762982 0.105608
0.786191 0.77847 0.109667
0.830304 0.790204 0.115068
0.859586 0.798566 0.120058
0.882963 0.804837 0.123812
0.897337 0.809277 0.127169
0.911543 0.813962 0.13048
0.918807 0.817304 0.132311
0.92491 0.82031 0.134051
0.926497 0.822721 0.13489
0.927092 0.824887 0.134829
0.927108 0.8271 0.135058
0.927428 0.829358 0.13576
0.927306 0.832258 0.135988
0.926894 0.833951 0.135744
0.0632792 0.686137 0.0608072
0.0666209 0.695857 0.0624247
0.0690471 0.699672 0.0610056
0.0703288 0.70013 0.0563668
0.0711833 0.699718 0.052491
0.0714275 0.699672 0.0511177
0.0715343 0.700206 0.0512245
0.0717021 0.701427 0.0513619
0.0716259 0.700999 0.0513008
0.0709697 0.698466 0.050721
0.0727092 0.698436 0.0507668
0.101839 0.704921 0.0533761
0.163821 0.716747 0.0598764
0.252323 0.733623 0.0705882
0.331548 0.747402 0.0809796
0.42945 0.751476 0.0895552
0.544625 0.753506 0.100267
0.647044 0.769558 0.116106
0.719493 0.790112 0.120455
0.776989 0.809018 0.119905
0.824369 0.82153 0.123049
0.862379 0.831067 0.126741
0.887434 0.838239 0.130343
0.902724 0.843 0.133028
0.9122 0.846555 0.13521
0.917861 0.849439 0.136355
0.923247 0.851835 0.137957
0.925566 0.853742 0.138735
0.926162 0.85565 0.138933
0.926024 0.85832 0.139239
0.926238 0.860273 0.139849
0.92604 0.862654 0.14023
0.925826 0.864118 0.140383
0.0798505 0.732647 0.0726482
0.0824292 0.738735 0.0733654
0.0836042 0.741115 0.0708019
0.0846265 0.741024 0.0659037
0.0851911 0.740688 0.0629282
0.0852979 0.740917 0.0629129
0.0855116 0.741421 0.0630961
0.0855726 0.74165 0.0631418
0.0855116 0.741421 0.0630961
0.0848249 0.738994 0.0625772
0.0859998 0.737346 0.0621195
0.106126 0.742184 0.0636606
0.167697 0.749645 0.0680705
0.254871 0.763561 0.0769207
0.342229 0.776791 0.0869459
0.431418 0.782452 0.0943313
0.540078 0.782834 0.102159
0.627939 0.793851 0.116793
0.711711 0.810803 0.134844
0.771435 0.828748 0.136919
0.817395 0.845777 0.134646
0.853788 0.855329 0.134707
0.885039 0.862882 0.136049
0.902922 0.868086 0.139361
0.914305 0.871794 0.140505
0.91931 0.873915 0.141497
0.922469 0.87602 0.142687
0.92462 0.877043 0.143084
0.925124 0.878599 0.143542
0.924804 0.879866 0.143694
0.924849 0.881117 0.144259
0.924681 0.882506 0.144549
0.924773 0.88397 0.145144
0.0912337 0.765255 0.0800641
0.0919966 0.767559 0.0792859
0.0932937 0.768475 0.076173
0.0944991 0.768536 0.0716564
0.0946975 0.76846 0.0706188
0.0946822 0.768444 0.0706035
0.094667 0.768429 0.0705882
0.0947127 0.768475 0.0706188
0.0944381 0.768063 0.0703746
0.0938582 0.766476 0.0699016
0.0949416 0.763775 0.0693523
0.110597 0.767086 0.0702525
0.170932 0.773526 0.0736553
0.262028 0.784268 0.0816815
0.352468 0.796445 0.0913252
0.44416 0.801282 0.0971695
0.535485 0.804089 0.103258
0.618677 0.812696 0.118715
0.694652 0.828016 0.136934
0.766522 0.844053 0.151293
0.815076 0.859236 0.150973
0.848951 0.870939 0.148791
0.878553 0.878004 0.14873
0.90016 0.883345 0.148882
0.911498 0.887297 0.148196
0.92015 0.890364 0.146426
0.922286 0.892073 0.147982
0.924254 0.893477 0.152331
0.924407 0.893996 0.155703
0.924605 0.894667 0.15819
0.924559 0.89546 0.160555
0.924468 0.895872 0.163607
0.924331 0.896544 0.16463
0.0957046 0.779461 0.0829328
0.0966354 0.781781 0.0821546
0.0976883 0.782422 0.0780041
0.0985733 0.782406 0.0742962
0.0987411 0.782391 0.0737011
0.0987411 0.782391 0.0737011
0.0987411 0.782391 0.0737011
0.0987411 0.782391 0.0737011
0.0986648 0.782101 0.0736553
0.0983444 0.780835 0.0734722
0.101808 0.780285 0.0733654
0.116762 0.781796 0.0736858
0.173266 0.787472 0.0768597
0.26537 0.797559 0.0843671
0.362631 0.808072 0.0941329
0.458442 0.812802 0.0989242
0.544167 0.816297 0.105791
0.614298 0.82623 0.119432
0.684794 0.840299 0.137758
0.752789 0.856413 0.158999
0.813779 0.86978 0.170336
0.850584 0.880781 0.170153
0.874647 0.88806 0.172244
0.896925 0.893141 0.172808
0.910552 0.896834 0.177523
0.91902 0.899275 0.178973
0.923415 0.901274 0.182971
0.924651 0.902205 0.186358
0.924651 0.902953 0.189975
0.924697 0.903593 0.192554
0.92459 0.904143 0.194308
0.924758 0.904448 0.199817
0.924971 0.904784 0.204349
0.0968032 0.78233 0.0821698
0.0971542 0.782376 0.0803693
0.0980545 0.782422 0.076524
0.0986343 0.782391 0.074052
0.0987411 0.782391 0.0737011
0.0987411 0.782391 0.0737011
0.0987411 0.782391 0.0737011
0.0987411 0.782391 0.0737011
0.0987106 0.782315 0.0736858
0.0986954 0.782208 0.0736858
0.100984 0.782193 0.0736706
0.124804 0.78468 0.0749371
0.180163 0.790646 0.0781872
0.276417 0.801816 0.0860609
0.372183 0.811475 0.095201
0.476509 0.815854 0.100359
0.555535 0.822507 0.107897
0.621759 0.834089 0.121126
0.683192 0.849195 0.140108
0.749386 0.864713 0.166567
0.806424 0.878233 0.177981
0.854887 0.888365 0.187243
0.878492 0.894972 0.191531
0.894987 0.899611 0.205341
0.909255 0.902983 0.210529
0.918593 0.90518 0.226978
0.923476 0.906645 0.232517
0.925994 0.907698 0.244221
0.926421 0.908019 0.253376
0.926543 0.90837 0.259327
0.926741 0.908782 0.265476
0.926741 0.90901 0.270344
0.926879 0.909392 0.27454
0.0959182 0.782345 0.0855421
0.0963302 0.782345 0.0839094
0.0973831 0.782406 0.0792096
0.0985428 0.782422 0.0744793
0.0987411 0.782391 0.0737011
0.0987411 0.782391 0.0737011
0.0987411 0.782391 0.0737011
0.0987411 0.782391 0.0737011
0.0987411 0.782391 0.0737011
0.0987411 0.782391 0.0737011
0.100206 0.782544 0.0737316
0.127626 0.78555 0.0751659
0.192157 0.792615 0.078996
0.284566 0.802808 0.0868696
0.386145 0.812818 0.0959793
0.4757 0.816037 0.100252
0.550515 0.821942 0.106966
0.61561 0.83357 0.119295
0.681865 0.851072 0.133181
0.748516 0.868254 0.149111
0.817563 0.885786 0.15436
0.86215 0.895125 0.167483
0.887938 0.900679 0.192599
0.901015 0.904326 0.216571
0.910857 0.906645 0.24683
0.917815 0.908644 0.267994
0.924453 0.910063 0.290532
0.926467 0.910597 0.304814
0.92784 0.911131 0.319371
0.927886 0.911116 0.326665
0.927977 0.911162 0.330739
0.928069 0.911177 0.336294
0.9281 0.911162 0.33901
0.0939345 0.782345 0.0938277
0.0944533 0.78233 0.0917067
0.0963607 0.782345 0.0838026
0.098085 0.782422 0.0763867
0.0987411 0.782391 0.0737011
0.0987411 0.782391 0.0737011
0.0987411 0.782391 0.0737011
0.0987411 0.782391 0.0737011
0.0987411 0.782391 0.0737011
0.0987411 0.782391 0.0737011
0.100526 0.782574 0.0737469
0.130739 0.78584 0.0752575
0.203891 0.793866 0.0796216
0.294499 0.804211 0.0879377
0.396948 0.813413 0.0966964
0.483528 0.816434 0.10074
0.557198 0.822995 0.108232
0.619516 0.83473 0.119844
0.688869 0.853208 0.133593
0.7561 0.872084 0.144549
0.824277 0.888533 0.151751
0.869474 0.898131 0.179507
0.894896 0.903288 0.209003
0.905806 0.905715 0.241428
0.914214 0.907942 0.274128
0.918791 0.909026 0.310735
0.924681 0.910414 0.334752
0.927306 0.910979 0.354772
