bundles/resolve-cinematic-luts/Phantom Luts/Canon Film LUT/C-Log 2/Bleach Canon CL2.cube
TITLE "Generated by Resolve"
LUT_3D_SIZE 9
0.0176089 0.0296635 0.0198062
0.0229648 0.0306859 0.0216068
0.0590219 0.0341497 0.0266423
0.146548 0.0385595 0.0335393
0.312047 0.0449531 0.0535897
0.538674 0.0468452 0.0885786
0.706752 0.0605325 0.162402
0.777417 0.0679942 0.230915
0.781353 0.068101 0.255924
0.0203098 0.0378119 0.0225528
0.0255894 0.0392309 0.0233616
0.0829175 0.0371099 0.0256657
0.205768 0.0414435 0.0330358
0.404807 0.0462501 0.0522927
0.616342 0.0521553 0.0971389
0.755077 0.0662394 0.176684
0.772564 0.0677958 0.206683
0.775265 0.0679179 0.219852
0.0303044 0.119188 0.0338293
0.0332799 0.128603 0.0293126
0.10602 0.130861 0.0335699
0.290455 0.105394 0.0345312
0.486763 0.0528878 0.0311284
0.636194 0.0553445 0.0606241
0.724376 0.0645457 0.107225
0.73547 0.0654612 0.113024
0.735134 0.0654307 0.112047
0.0263218 0.280995 0.0254826
0.0250095 0.295659 0.0180056
0.0420081 0.297261 0.0191348
0.292653 0.337682 0.0301823
0.615457 0.35938 0.04448
0.750118 0.209522 0.0750286
0.804456 0.12282 0.0737011
0.808011 0.122957 0.0740673
0.819669 0.138842 0.0808881
0.0117342 0.491524 0.0124056
0.0154116 0.510018 0.00660716
0.0157321 0.510369 0.00541695
0.145388 0.553964 0.0210575
0.619532 0.653269 0.073167
0.813046 0.704585 0.0999161
0.915572 0.707301 0.128756
0.930724 0.705394 0.138827
0.931044 0.734112 0.13434
0.0798505 0.732647 0.0726482
0.0851911 0.740688 0.0629282
0.0855116 0.741421 0.0630961
0.167697 0.749645 0.0680705
0.540078 0.782834 0.102159
0.817395 0.845777 0.134646
0.914305 0.871794 0.140505
0.925124 0.878599 0.143542
0.924773 0.88397 0.145144
0.0959182 0.782345 0.0855421
0.0987411 0.782391 0.0737011
0.0987411 0.782391 0.0737011
0.192157 0.792615 0.078996
0.550515 0.821942 0.106966
0.817563 0.885786 0.15436
0.910857 0.906645 0.24683
0.92784 0.911131 0.319371
0.9281 0.911162 0.33901
0.0881056 0.782513 0.122194
0.0985275 0.782391 0.074403
0.0987411 0.782391 0.0737011
0.241749 0.798062 0.0829023
0.593286 0.828946 0.114321
0.842985 0.892668 0.167178
0.916869 0.908629 0.296666
0.929061 0.911498 0.389273
0.929244 0.911528 0.400458
0.0830701 0.782956 0.150286
0.098146 0.782422 0.076173
0.0987411 0.782391 0.0737011
0.312657 0.806134 0.0895094
0.631891 0.837491 0.122362
0.873686 0.898711 0.18674
0.918685 0.90898 0.307622
0.929061 0.911513 0.388205
0.929244 0.911528 0.400458
0.0174105 0.0303807 0.0227054
0.0222629 0.0309911 0.0234989
0.0587625 0.0347143 0.0323644
0.154833 0.039292 0.0420233
0.32903 0.0455482 0.0691844
0.555535 0.0475166 0.108385
0.719707 0.0613413 0.191089
0.782086 0.0681315 0.259907
0.785946 0.0681163 0.291112
0.0203708 0.0364233 0.0246586
0.0255283 0.038468 0.0272068
0.0901045 0.0393225 0.0335393
0.22446 0.0420233 0.0408942
0.435157 0.0456855 0.0710002
0.634134 0.0530861 0.12491
0.766827 0.0668345 0.211902
0.779431 0.0681315 0.243046
0.782635 0.0681468 0.263264
0.0300755 0.119463 0.0447089
0.0307927 0.129351 0.035874
0.106493 0.13048 0.0360113
0.299123 0.0898909 0.0367895
0.50042 0.0522774 0.0341802
0.636774 0.0566567 0.0721904
0.736858 0.0653849 0.122133
0.749325 0.0665904 0.13785
0.753887 0.0668345 0.14638
0.0252995 0.283619 0.0384833
0.0242771 0.29749 0.024918
0.0325322 0.298451 0.0184176
0.295811 0.340047 0.0301061
0.625086 0.342885 0.0466773
0.750515 0.184756 0.0738537
0.799786 0.114061 0.0699779
0.797955 0.110491 0.0669718
0.80972 0.123323 0.0745251
0.00875868 0.492348 0.0271763
0.013138 0.510781 0.0162203
0.0162356 0.513542 0.00581369
0.133837 0.554711 0.019913
0.622293 0.65568 0.0737774
0.817411 0.704768 0.100954
0.918318 0.697719 0.131167
0.929763 0.69276 0.13814
0.930251 0.71603 0.133181
0.0733806 0.73106 0.100404
0.0817578 0.739452 0.0770886
0.0854353 0.741176 0.0630198
0.141436 0.747189 0.0662242
0.527611 0.782864 0.100603
0.817105 0.845563 0.134447
0.914488 0.870085 0.140124
0.925261 0.875792 0.142962
0.924773 0.880796 0.14406
0.0855573 0.782742 0.135698
0.0948348 0.782315 0.0901198
0.0987411 0.782391 0.0737011
0.150332 0.788159 0.0762036
0.535119 0.820325 0.10486
0.807111 0.883665 0.150042
0.909392 0.906386 0.237491
0.927611 0.910872 0.304707
0.927962 0.910887 0.326101
0.0743572 0.784695 0.211948
0.0873579 0.782574 0.12607
0.0987411 0.782391 0.0737011
0.173907 0.79057 0.0779126
0.566674 0.824186 0.109514
0.827878 0.889418 0.162127
0.915175 0.90811 0.28661
0.928847 0.911452 0.383124
0.929244 0.911528 0.400504
0.0678416 0.788113 0.271534
0.0823682 0.782971 0.1552
0.0987411 0.782391 0.0737011
0.215244 0.795209 0.0802625
0.597284 0.829816 0.115404
0.851728 0.894362 0.167483
0.916304 0.908431 0.292546
0.928923 0.911467 0.380697
0.929244 0.911528 0.400458
0.0177768 0.0329747 0.0427405
0.024094 0.0332799 0.0429847
0.0583963 0.0353399 0.0526894
0.16466 0.036759 0.0821698
0.345907 0.043122 0.114946
0.572427 0.0473335 0.161746
0.734676 0.0619974 0.256413
0.789883 0.0683604 0.331716
0.794919 0.0689097 0.390982
0.0174563 0.0365911 0.0442969
0.0193027 0.0358129 0.0582132
0.0867628 0.0367437 0.0758068
0.240787 0.0388952 0.106203
0.462058 0.0434577 0.137514
0.653407 0.0535134 0.203098
0.782269 0.0675822 0.293294
0.790158 0.0684062 0.333883
0.793637 0.0686961 0.373587
0.0289921 0.109575 0.0879377
0.0293278 0.118059 0.0956436
0.113893 0.125536 0.111864
0.330709 0.104784 0.102266
0.530068 0.0628977 0.106355
0.658274 0.0552682 0.142519
0.77174 0.0673533 0.220829
0.781033 0.0681468 0.250324
0.784207 0.0682689 0.269032
0.0219577 0.278798 0.1028
0.0211337 0.2925 0.0932174
0.0251164 0.290135 0.0352483
0.297414 0.332372 0.059266
0.627604 0.279438 0.0870832
0.743511 0.147204 0.0987106
0.81033 0.110658 0.120058
0.816403 0.117311 0.134951
0.824231 0.130159 0.145296
0.00154116 0.479438 0.0805676
0.00387579 0.496315 0.0710613
0.0107729 0.4981 0.020264
0.0768902 0.52929 0.0106508
0.611124 0.644129 0.0703441
0.821591 0.68983 0.100771
0.920378 0.648951 0.139284
0.927245 0.63917 0.14403
0.929122 0.658198 0.146059
0.0562142 0.721325 0.187488
0.0620127 0.729183 0.165164
0.0763561 0.729183 0.0829786
0.0839246 0.729198 0.0598764
0.462333 0.77705 0.0949416
0.807248 0.836484 0.130602
0.913344 0.861173 0.138033
0.925551 0.865553 0.140566
0.925902 0.870314 0.141726
0.0673686 0.788327 0.275639
0.0726635 0.785443 0.22855
0.0927749 0.782361 0.0988479
0.0987411 0.782391 0.0737011
0.48307 0.816419 0.100725
0.768139 0.873976 0.150881
0.903517 0.904463 0.212512
0.926604 0.908888 0.261891
0.926955 0.909117 0.276097
0.0609751 0.793988 0.363989
0.0652018 0.789792 0.299535
0.0856336 0.782727 0.135271
0.0987411 0.782391 0.0737011
0.483986 0.816449 0.100771
0.777615 0.877501 0.146654
0.910079 0.906844 0.262531
0.927626 0.911147 0.369802
0.929229 0.911528 0.400961
0.0569009 0.797482 0.436652
0.0618143 0.793256 0.351568
0.0805676 0.783215 0.166598
0.0987411 0.782391 0.0737011
0.510842 0.818051 0.102632
0.792981 0.881514 0.145754
0.910414 0.906874 0.261494
0.92697 0.910903 0.363653
0.929229 0.911528 0.400732
0.0166629 0.0364691 0.0903182
0.0239719 0.0359503 0.0949569
0.0647288 0.0372931 0.11458
0.172396 0.0393988 0.144167
0.36759 0.0443275 0.20972
0.598993 0.0494392 0.283268
0.754665 0.0646525 0.393805
0.802899 0.0701915 0.480186
0.810498 0.072221 0.526162
0.0132906 0.0394446 0.104524
0.0167544 0.0388952 0.129122
0.0851911 0.0395209 0.177417
0.251179 0.0426184 0.210529
0.489052 0.0451667 0.270161
0.677928 0.0567483 0.357473
0.800916 0.0697795 0.462699
0.806271 0.0712139 0.502937
0.811551 0.0725872 0.53283
0.0214084 0.106676 0.159533
0.0210575 0.109133 0.181292
0.0715801 0.0972 0.23415
0.30016 0.068101 0.251957
0.513924 0.0462348 0.254597
0.68368 0.056733 0.324361
0.791943 0.0685283 0.409064
0.800198 0.0696269 0.453361
0.803479 0.0703593 0.483116
0.0175631 0.262043 0.224781
0.0162814 0.2748 0.237583
0.0167391 0.271565 0.235935
0.343572 0.344732 0.327474
0.66836 0.300023 0.312276
0.81912 0.241032 0.340917
0.860838 0.137728 0.375113
0.858015 0.130571 0.397848
0.86595 0.146044 0.430808
0 0.47245 0.211734
0 0.487541 0.211749
0 0.483436 0.1691
0.0458839 0.493172 0.0944533
0.616983 0.637201 0.230732
0.855055 0.648646 0.314076
0.933761 0.596078 0.357076
0.941634 0.592584 0.384329
0.943008 0.610758 0.407797
0.0408942 0.714305 0.333761
0.043473 0.721965 0.328283
0.046067 0.71664 0.267063
0.0642252 0.70901 0.101534
0.409339 0.760555 0.118776
0.799176 0.822263 0.198245
0.913756 0.845487 0.16791
0.933974 0.845609 0.202747
0.935378 0.849393 0.227451
0.0559701 0.797284 0.456291
0.057145 0.796399 0.426642
0.0624399 0.791409 0.337652
0.088014 0.78175 0.121492
0.297536 0.804547 0.0882734
0.708171 0.856977 0.143984
0.896788 0.900954 0.198032
0.925383 0.905806 0.215564
0.925826 0.905959 0.22565
0.0536507 0.801755 0.555703
0.0544137 0.799939 0.51632
0.0583658 0.796002 0.403403
0.0833448 0.78294 0.148547
0.288869 0.803479 0.0872816
0.692561 0.854429 0.134325
0.900298 0.904707 0.23508
0.925811 0.910597 0.357031
0.929244 0.911513 0.403403
0.0544594 0.805707 0.614374
0.0537881 0.802792 0.571328
0.0556802 0.797864 0.461189
0.0789044 0.783566 0.178897
0.291173 0.803723 0.0874495
0.697108 0.855787 0.135149
0.898573 0.904341 0.228733
0.923247 0.91014 0.343603
0.929229 0.911543 0.399435
0.0165866 0.0413672 0.173816
0.0254826 0.0406806 0.188525
0.0686656 0.0417334 0.224659
0.185611 0.0431373 0.27248
0.387228 0.0462806 0.319112
0.615564 0.0530556 0.434775
0.774044 0.0690623 0.542123
0.817624 0.0764019 0.60087
0.82237 0.0790875 0.640085
0.0119326 0.0452583 0.211215
0.0185702 0.0454414 0.250736
0.0845045 0.0447395 0.310445
0.260761 0.0468757 0.370352
0.508186 0.0473793 0.417334
0.68983 0.0606851 0.527199
0.815808 0.0759289 0.598047
0.820829 0.0783246 0.628656
0.825925 0.0802319 0.654231
0.0150149 0.083299 0.255329
0.0141299 0.0803235 0.275731
0.0316472 0.0563821 0.314748
0.240024 0.0493477 0.402975
0.519219 0.0475776 0.430243
0.699565 0.0617838 0.52665
0.811521 0.0751965 0.586038
0.81857 0.0772412 0.612955
0.821408 0.0786908 0.633692
0.015198 0.261646 0.37525
0.0141299 0.274205 0.406088
0.0145113 0.2607 0.432273
0.248219 0.273167 0.566888
0.637568 0.202564 0.569207
0.77116 0.120653 0.567376
0.822766 0.0757305 0.569039
0.82443 0.0761273 0.58323
0.828595 0.0776837 0.602136
0 0.457313 0.390967
0 0.47187 0.408362
0 0.467857 0.404562
0.0435035 0.481895 0.422461
0.645563 0.630747 0.609384
0.863203 0.625116 0.61941
0.944015 0.598779 0.634562
0.9514 0.588388 0.65185
0.952529 0.59881 0.666911
0.0345769 0.703288 0.517754
0.0361028 0.710826 0.522744
0.0350958 0.705592 0.491432
0.0336004 0.695277 0.400778
0.362158 0.732967 0.404746
0.798367 0.80972 0.534615
0.942992 0.812177 0.616739
0.961913 0.809018 0.63682
0.961883 0.814817 0.64947
0.0541543 0.801877 0.622095
0.0538033 0.801343 0.612909
0.0530098 0.796674 0.571984
0.0541085 0.789792 0.461555
0.193896 0.7841 0.314702
0.679606 0.829984 0.36144
0.89868 0.896788 0.572106
0.9402 0.906111 0.605798
0.946242 0.907546 0.624323
0.057969 0.811719 0.682261
0.0569314 0.810162 0.667109
0.0550546 0.806775 0.627222
0.0543069 0.800351 0.524071
0.0819409 0.787961 0.263325
0.66276 0.836606 0.282673
0.885191 0.900389 0.506157
0.934142 0.917784 0.619394
0.947463 0.926772 0.685313
0.0606241 0.81471 0.715007
0.0593118 0.813184 0.696971
0.0565652 0.80943 0.657908
0.0536355 0.801663 0.554391
0.117662 0.790387 0.300969
0.657191 0.835508 0.27332
0.882704 0.899565 0.460533
0.929183 0.91397 0.583124
0.942153 0.92163 0.645823
0.0193942 0.0477913 0.282643
0.0292821 0.0470893 0.304219
0.0735637 0.0466468 0.35024
0.197452 0.0481575 0.433082
0.422065 0.0478676 0.489616
0.630762 0.055787 0.554864
0.793484 0.0764477 0.647639
0.835492 0.083772 0.695766
0.839796 0.0857099 0.724071
0.0134279 0.0544747 0.334279
0.0225986 0.054963 0.382361
0.0884108 0.0506447 0.463844
0.270665 0.0529335 0.545785
0.53312 0.050309 0.574029
0.703258 0.0649424 0.624872
0.831968 0.0833448 0.694926
0.839414 0.0853742 0.717708
0.840589 0.0863966 0.735088
0.012314 0.0787518 0.373693
0.0119326 0.0735485 0.392813
0.0270848 0.058381 0.439872
0.228779 0.0542458 0.562463
0.537057 0.0516365 0.593194
0.712383 0.0660716 0.633844
0.832258 0.08336 0.694484
0.838941 0.0850843 0.713344
0.839918 0.085832 0.726619
0.0140078 0.254307 0.534615
0.0142672 0.265278 0.559106
0.014435 0.242298 0.57496
0.163302 0.215442 0.660716
0.595163 0.140398 0.691295
0.751217 0.0990768 0.668147
0.828733 0.0827649 0.682155
0.83534 0.0836194 0.692851
0.838117 0.084535 0.704372
0.00228885 0.474891 0.556054
0.0037232 0.490013 0.571069
0.00402838 0.485679 0.581277
0.012253 0.470893 0.598184
0.5953 0.59884 0.759762
0.852079 0.571145 0.781979
0.949218 0.515999 0.798306
0.961822 0.492988 0.81207
0.960876 0.511055 0.81709
0.0379797 0.690959 0.643214
0.0399176 0.698573 0.651606
0.038407 0.692164 0.645884
0.0352026 0.679805 0.633539
0.390921 0.730816 0.687938
0.821118 0.799176 0.773922
0.94548 0.794842 0.782452
0.961837 0.785092 0.789837
0.961913 0.78854 0.799741
0.0588235 0.802808 0.706798
0.0586099 0.802228 0.703777
0.0564431 0.797147 0.687678
0.0534371 0.789166 0.65594
0.162982 0.779583 0.612207
0.715785 0.859159 0.70016
0.916487 0.906752 0.750805
0.962264 0.909529 0.794141
0.962295 0.910246 0.802304
0.0632792 0.817502 0.743465
0.0627909 0.816938 0.736492
0.0612039 0.815305 0.721187
0.0584268 0.812314 0.688518
0.0552682 0.805508 0.611612
0.673045 0.862699 0.672633
0.876143 0.913939 0.728389
0.954986 0.939437 0.816892
0.962615 0.942473 0.837415
0.0648966 0.819455 0.761822
0.0642405 0.818662 0.753155
0.0628367 0.816983 0.736873
0.0595407 0.813474 0.701411
0.0558022 0.806638 0.625971
0.648798 0.856764 0.662654
0.870039 0.914107 0.719249
0.947448 0.939315 0.796185
0.96257 0.949752 0.870817
0.0228122 0.0563058 0.399283
0.0349889 0.0560311 0.439033
0.0798657 0.052781 0.49691
0.214618 0.0559243 0.576516
0.465217 0.0545968 0.622858
0.652964 0.060853 0.655589
0.804685 0.0806744 0.717891
0.841428 0.0874342 0.756893
0.843992 0.0888228 0.777539
0.0156252 0.0672465 0.478538
0.0259251 0.0686351 0.523644
0.0954147 0.0614176 0.585031
0.287098 0.0639506 0.65832
0.560708 0.0596475 0.68603
0.719768 0.0700236 0.711406
0.835019 0.0864424 0.752056
0.843091 0.0883803 0.77174
0.844587 0.0890669 0.78201
0.0118563 0.0934615 0.518349
0.0113832 0.0885939 0.529915
0.0285496 0.0754101 0.56231
0.239063 0.0670634 0.668498
0.556344 0.061677 0.701518
0.726772 0.0713054 0.720302
0.840085 0.0872816 0.755611
0.84271 0.0881666 0.768551
0.844068 0.0888991 0.77879
0.0157778 0.244678 0.62707
0.0162203 0.254658 0.645701
0.0161746 0.222812 0.649668
0.112108 0.179843 0.712062
0.545266 0.107362 0.75642
0.731579 0.0783246 0.738277
0.829343 0.0852979 0.744228
0.841611 0.0873884 0.755108
0.843015 0.0879988 0.760723
0.0103914 0.50132 0.647181
0.0131228 0.516121 0.66099
0.0129091 0.506081 0.669154
0.0137484 0.484977 0.685603
0.541131 0.571374 0.832364
0.850156 0.547158 0.872587
0.951904 0.482826 0.870176
0.964462 0.464302 0.877516
0.964172 0.482506 0.879393
0.0463264 0.695415 0.718135
0.0481117 0.702281 0.724712
0.0470588 0.69485 0.725567
0.0456245 0.680812 0.728985
0.320409 0.698924 0.77145
0.797391 0.782284 0.86244
0.940978 0.764401 0.871977
0.961807 0.750256 0.876493
0.961791 0.755932 0.880262
0.0626535 0.797833 0.75407
0.0623941 0.797131 0.753307
0.0614176 0.791409 0.74815
0.0597086 0.783383 0.7402
0.155047 0.777234 0.732982
0.737835 0.871412 0.826658
0.927275 0.903899 0.865492
0.962448 0.903502 0.872786
0.962203 0.901396 0.876768
0.0662852 0.820493 0.772625
0.0658885 0.820249 0.769543
0.0650187 0.819348 0.763455
0.0638437 0.81706 0.750408
0.0641947 0.813275 0.727321
0.681315 0.87747 0.790616
0.91841 0.935058 0.868055
0.959411 0.9411 0.872618
0.962676 0.941665 0.883085
0.0671702 0.821149 0.779293
0.0668345 0.820874 0.776303
0.0660563 0.82034 0.770748
0.0644999 0.818936 0.755871
0.0623789 0.816495 0.732372
0.608011 0.859586 0.7608
0.925948 0.943267 0.876127
0.956252 0.947646 0.874678
0.962768 0.951461 0.899825
0.0255894 0.0682536 0.520226
0.0406195 0.0697032 0.557336
0.0887007 0.0660868 0.602792
0.237461 0.0682078 0.673777
0.50309 0.0640574 0.715251
0.683146 0.0676585 0.737072
0.817044 0.0846876 0.76701
0.845945 0.089662 0.789273
0.845945 0.089662 0.789273
0.016083 0.0896162 0.584482
0.0271916 0.0941329 0.618219
0.097261 0.0845045 0.669825
0.304387 0.0794232 0.738033
0.584772 0.071397 0.759365
0.740337 0.0754711 0.76788
0.839384 0.0885176 0.784375
0.84593 0.0896468 0.789197
0.845945 0.089662 0.789273
0.0129702 0.114931 0.608408
0.0131228 0.11339 0.616968
0.0265965 0.105211 0.643671
0.249149 0.0848859 0.741344
0.576318 0.0738537 0.768902
0.74226 0.0760967 0.772061
0.845808 0.0895857 0.788571
0.845975 0.089662 0.789288
0.845975 0.089662 0.789288
0.0174258 0.239826 0.682689
0.0176852 0.247898 0.693446
0.0173342 0.212909 0.690303
0.0729381 0.165301 0.72639
0.516533 0.0968948 0.789914
0.727947 0.0803388 0.77911
0.834913 0.0878309 0.782406
0.845823 0.0895552 0.788159
0.846143 0.0897078 0.789441
0.0171969 0.518318 0.701076
0.0202182 0.531212 0.710704
0.0187381 0.517861 0.715801
0.0166629 0.490776 0.726452
0.487617 0.563409 0.854444
0.839933 0.538247 0.908537
0.951431 0.467964 0.90251
0.965133 0.443046 0.903914
0.964584 0.461845 0.903777
0.0525673 0.708003 0.755962
0.0539101 0.712825 0.759976
0.053254 0.70663 0.761852
0.0519417 0.694881 0.765362
0.265904 0.698528 0.793072
0.774929 0.773373 0.891951
0.943206 0.75906 0.905058
0.96173 0.737209 0.906157
0.961944 0.742031 0.908263
0.0644388 0.799252 0.772213
0.0643626 0.798337 0.772198
0.063859 0.79321 0.771099
0.0632029 0.78526 0.770138
0.125978 0.77998 0.774365
0.71107 0.853773 0.85452
0.919982 0.898253 0.893477
0.959319 0.892546 0.890944
0.962234 0.889281 0.891951
0.0672465 0.820981 0.780026
0.0671244 0.820584 0.779644
0.0666514 0.819547 0.777707
0.0662089 0.81619 0.774578
0.0668956 0.812268 0.770001
0.673518 0.872419 0.826276
0.9234 0.93521 0.895857
0.959777 0.938872 0.898116
0.962646 0.939788 0.900664
0.0673228 0.821256 0.780697
0.0673228 0.821256 0.780697
0.067277 0.821225 0.78024
0.0668193 0.820905 0.77615
0.0660105 0.82031 0.770474
0.55465 0.84538 0.783627
0.926604 0.944595 0.897871
0.962646 0.949432 0.902449
0.962829 0.950668 0.905882
0.0270237 0.0916915 0.610864
0.0419318 0.0968948 0.643687
0.0929122 0.0931258 0.683391
0.258854 0.0862745 0.746838
0.537133 0.0772869 0.775799
0.71574 0.0774395 0.782818
0.834363 0.0880446 0.788144
0.845945 0.089662 0.789273
0.845945 0.089662 0.789273
0.0143587 0.121416 0.657557
0.022797 0.124544 0.677012
0.0902571 0.117144 0.722332
0.318791 0.0972305 0.783459
0.605646 0.0809033 0.78967
0.75816 0.0781567 0.782666
0.843534 0.0893111 0.789029
0.845945 0.089662 0.789273
0.845945 0.089662 0.789273
0.0145571 0.137667 0.665293
0.0145876 0.134325 0.663767
0.0225223 0.129519 0.685908
0.258366 0.0991226 0.772915
0.592401 0.0811933 0.789532
0.755047 0.0785382 0.782147
0.84596 0.089662 0.789288
0.845975 0.089662 0.789303
0.845975 0.089662 0.789303
0.0184482 0.24062 0.714244
0.0188754 0.248783 0.721828
0.0180667 0.213153 0.714473
0.0603952 0.157763 0.730358
0.507301 0.0914778 0.794903
0.736568 0.0839246 0.790951
0.838621 0.0886702 0.788769
0.846082 0.0896925 0.78938
0.846143 0.0897078 0.789425
0.0224613 0.533928 0.731609
0.0243381 0.543984 0.737728
0.0229953 0.529213 0.741344
0.0183566 0.494759 0.740993
0.458961 0.561013 0.85864
0.834699 0.532189 0.915602
0.95198 0.461173 0.911192
0.965362 0.433082 0.910445
0.96495 0.452201 0.909453
0.0568093 0.725017 0.772396
0.0578622 0.728313 0.774365
0.0569772 0.72253 0.775265
0.0556039 0.710491 0.777447
0.225315 0.707851 0.799268
0.753872 0.772808 0.896651
0.943206 0.759564 0.919814
0.961868 0.733242 0.916243
0.961761 0.736858 0.916899
0.0655222 0.803235 0.779751
0.0655528 0.80206 0.779934
0.0648508 0.797086 0.779553
0.0645914 0.789288 0.780667
0.110979 0.783688 0.784451
0.68864 0.84802 0.857053
0.916793 0.896269 0.903975
0.958511 0.888228 0.906233
0.96231 0.881666 0.90631
0.0673381 0.821057 0.780743
0.0673228 0.820783 0.780804
0.0671244 0.820005 0.780743
0.0668193 0.816831 0.780682
0.0666209 0.813169 0.78085
0.631525 0.857496 0.827512
0.917891 0.932784 0.903914
0.958007 0.937285 0.905898
0.962692 0.937484 0.906981
0.0673228 0.821256 0.780697
0.0673228 0.821256 0.780697
0.0673228 0.821256 0.780697
0.0673075 0.821256 0.780621
0.067277 0.821088 0.780194
0.513313 0.835294 0.791928
0.924453 0.943893 0.904326
0.9626 0.948699 0.907408
0.962768 0.950179 0.90956
