bundles/resolve-cinematic-luts/Phantom Luts/Canon Film LUT/C-Log 2/Bleach Canon-Legacy CL2.cube
TITLE "Generated by Resolve"
LUT_3D_SIZE 33
0.0282597 0.041413 0.0299077
0.0283513 0.0414282 0.0299382
0.0288396 0.0414893 0.0300603
0.0300908 0.0416266 0.0304723
0.0321508 0.0419623 0.0312505
0.0356756 0.0424506 0.0325017
0.0403601 0.0429847 0.0334936
0.0461433 0.0435492 0.0333104
0.0555123 0.0439307 0.0341039
0.0671702 0.044419 0.0356603
0.0806592 0.0450904 0.0374456
0.0978408 0.0453956 0.038819
0.120485 0.0464332 0.0402686
0.148333 0.0478065 0.0413519
0.182422 0.049485 0.0436408
0.225269 0.0515602 0.0467994
0.270268 0.0534371 0.0507668
0.31873 0.0551919 0.0558022
0.371618 0.0562905 0.0611276
0.435065 0.0559701 0.065919
0.498131 0.0562295 0.0727855
0.549355 0.0578317 0.0818189
0.594079 0.0605783 0.0939498
0.636606 0.0638285 0.109392
0.677623 0.0675669 0.125689
0.719356 0.0721904 0.144366
0.745205 0.0749218 0.161776
0.758968 0.076463 0.173678
0.760662 0.0764935 0.179721
0.762051 0.0766461 0.185641
0.763577 0.0767224 0.191562
0.764736 0.0767681 0.196872
0.765713 0.0768139 0.202075
0.0282902 0.041474 0.0299535
0.028275 0.0414435 0.0299229
0.0287785 0.0415045 0.030045
0.0301671 0.0416571 0.0305028
0.0327001 0.0420386 0.0314183
0.0363622 0.0425727 0.0327611
0.0415961 0.0432441 0.0334936
0.0508583 0.0436255 0.0334783
0.0622873 0.0442054 0.0349279
0.076585 0.0449531 0.0367895
0.0945144 0.0452735 0.0384985
0.117403 0.0463417 0.0400702
0.145693 0.0475929 0.0411536
0.180407 0.0492714 0.0432746
0.223651 0.0514687 0.0463722
0.269718 0.0534218 0.0504311
0.3187 0.0551919 0.0555428
0.372793 0.0563058 0.0608988
0.437736 0.0560006 0.0658427
0.500023 0.05626 0.0726024
0.550881 0.0578317 0.0817121
0.59556 0.0607004 0.0938888
0.637369 0.0639506 0.109209
0.678325 0.0677043 0.125399
0.718349 0.0721141 0.143145
0.744701 0.0748913 0.160128
0.758556 0.0764782 0.171878
0.759991 0.076463 0.177386
0.761379 0.076585 0.183047
0.762783 0.0766918 0.188312
0.763882 0.0767071 0.193133
0.764889 0.0767987 0.197757
0.765743 0.0768292 0.202121
0.0284733 0.0417792 0.0301366
0.0284733 0.0417487 0.0301213
0.0284428 0.0415503 0.0300145
0.0297551 0.0417487 0.0303655
0.0323491 0.0420539 0.0312047
0.0366369 0.0426795 0.0327611
0.0425727 0.0434119 0.0331884
0.0535286 0.0439307 0.0336919
0.0666209 0.0444343 0.03505
0.0831464 0.0452277 0.0370489
0.104723 0.0459449 0.0388647
0.13196 0.046891 0.0401923
0.165057 0.0484474 0.0414893
0.205219 0.0503395 0.0438697
0.250034 0.0525368 0.047425
0.297871 0.0546731 0.0522774
0.35021 0.0558328 0.057145
0.411795 0.0562295 0.0621958
0.476631 0.0558785 0.067689
0.53051 0.0571756 0.0752728
0.576776 0.0596017 0.086717
0.618967 0.0623789 0.0996262
0.659251 0.06598 0.114748
0.700084 0.0701915 0.131807
0.730877 0.0735485 0.148425
0.756771 0.0763256 0.164858
0.758144 0.076463 0.169955
0.759274 0.076463 0.174868
0.760555 0.0764935 0.179248
0.761547 0.0766003 0.18378
0.762646 0.0766918 0.187732
0.763516 0.0767071 0.191516
0.764324 0.0767376 0.194797
0.0292058 0.0429236 0.0308843
0.0293278 0.0432441 0.0309453
0.0294957 0.0432898 0.0309453
0.0305333 0.0431983 0.0310521
0.0326696 0.043473 0.0314946
0.0369268 0.0433509 0.0325475
0.0424506 0.0437018 0.0327916
0.0542611 0.0441138 0.0333104
0.0682078 0.0447547 0.0345769
0.0848249 0.0452735 0.0362554
0.108034 0.0460517 0.0382239
0.135668 0.046952 0.0393225
0.169665 0.0487831 0.0410468
0.211872 0.05066 0.0426642
0.257542 0.0529183 0.046128
0.30695 0.0547646 0.0504158
0.360739 0.0560464 0.0550393
0.423087 0.0562753 0.0593423
0.485832 0.0561532 0.0650492
0.538323 0.0576944 0.0726482
0.583047 0.0599374 0.0831617
0.624781 0.0629282 0.0967575
0.665125 0.0666667 0.111604
0.704372 0.0706798 0.127977
0.733928 0.0738994 0.144457
0.755016 0.0762036 0.158221
0.756268 0.0763104 0.162646
0.757336 0.0764019 0.167117
0.758404 0.0764782 0.17113
0.759258 0.0764477 0.174853
0.760281 0.0764782 0.178195
0.761013 0.0765393 0.181201
0.761639 0.0766155 0.184268
0.030045 0.0464027 0.0316625
0.0301213 0.0469825 0.0317388
0.0303655 0.0471504 0.0316625
0.0309453 0.0467994 0.0314946
0.0332952 0.0469215 0.0321355
0.0378882 0.0479438 0.0331273
0.0448463 0.0475013 0.0332952
0.0576486 0.0463569 0.0328832
0.0720989 0.0460822 0.0336614
0.0904555 0.0456703 0.0349584
0.111315 0.0463874 0.0370336
0.13814 0.0472267 0.0383154
0.16997 0.0486305 0.0398413
0.211185 0.0507668 0.0414435
0.257115 0.0528573 0.043946
0.306127 0.0550546 0.0479744
0.35964 0.0559396 0.0512703
0.422889 0.0562295 0.0549935
0.486305 0.0562753 0.0601053
0.539406 0.0578622 0.0680247
0.583886 0.0601358 0.0775921
0.626154 0.0632334 0.0904707
0.665858 0.0669871 0.105058
0.704509 0.0708476 0.120104
0.735317 0.0741436 0.138018
0.752361 0.0762188 0.149462
0.753521 0.0762036 0.153216
0.754589 0.076173 0.156527
0.755596 0.0762646 0.159884
0.75642 0.0763104 0.162875
0.757122 0.0763714 0.166232
0.757809 0.0764324 0.168414
0.758373 0.0764935 0.17055
0.0318151 0.0528115 0.0335088
0.0321508 0.0539864 0.0338445
0.0324102 0.0547951 0.0335699
0.033051 0.0547189 0.0333562
0.0353704 0.0543984 0.033753
0.0410468 0.0547951 0.03505
0.0486152 0.0567636 0.0359655
0.0583658 0.0560616 0.0342107
0.0762036 0.0535134 0.0341955
0.0954757 0.049546 0.0342107
0.11902 0.0480812 0.0348363
0.148745 0.0485847 0.037232
0.183108 0.0493172 0.0386664
0.220798 0.0510109 0.0402991
0.260075 0.0527352 0.0415503
0.306127 0.055024 0.0450599
0.357397 0.0563516 0.0482795
0.417731 0.0562142 0.05066
0.481102 0.0560616 0.0547951
0.536233 0.0577249 0.0621958
0.581979 0.0602884 0.0712596
0.623133 0.0631113 0.0823835
0.663981 0.0669108 0.0961929
0.701457 0.0709239 0.111406
0.734478 0.0742351 0.128511
0.747311 0.0757458 0.137301
0.748775 0.0758831 0.140566
0.750729 0.0760815 0.143908
0.75172 0.0761578 0.146731
0.752605 0.0762646 0.148974
0.753368 0.0762493 0.151232
0.75378 0.0762646 0.152728
0.754253 0.0762341 0.154177
0.0341192 0.064271 0.0359655
0.0345312 0.0668345 0.0363165
0.0345922 0.0685588 0.0357519
0.0352026 0.0683909 0.0354009
0.0373541 0.0674296 0.0355993
0.0421454 0.0678264 0.036347
0.0526284 0.0679484 0.0379797
0.0638437 0.0711223 0.038117
0.0800488 0.0703746 0.0357214
0.102693 0.0646677 0.0363012
0.127398 0.0575418 0.0362707
0.159045 0.0535897 0.0368811
0.198596 0.0521096 0.0373541
0.239796 0.0522469 0.0383307
0.28397 0.0538949 0.0404059
0.324346 0.0551919 0.0424506
0.372488 0.0563516 0.0454871
0.424048 0.0563821 0.0471046
0.480125 0.056199 0.0502785
0.528038 0.0573892 0.0554055
0.575845 0.06009 0.063859
0.617227 0.0627604 0.073228
0.657313 0.0663157 0.085832
0.694881 0.0704356 0.100099
0.730816 0.0743877 0.114504
0.736706 0.0747234 0.119463
0.739147 0.0750896 0.123049
0.741115 0.0752575 0.125551
0.742626 0.0752575 0.127825
0.744549 0.0754559 0.130358
0.745129 0.0755169 0.131945
0.746303 0.0757 0.133761
0.746578 0.0757153 0.134264
0.036759 0.0804456 0.0389868
0.0372473 0.0839857 0.0394293
0.0370184 0.0859388 0.0385443
0.0373541 0.0860151 0.0372625
0.039292 0.0850538 0.0368658
0.0430152 0.0852674 0.0377966
0.0512398 0.0859083 0.0391852
0.0682841 0.0857252 0.0412451
0.0826276 0.0890364 0.0381781
0.107927 0.087953 0.0360723
0.139635 0.0823072 0.0373388
0.173449 0.0719158 0.0387121
0.217426 0.0621653 0.0398566
0.259052 0.0580301 0.0398108
0.303471 0.0570535 0.0398108
0.357153 0.0563211 0.0395056
0.409323 0.0564126 0.0403906
0.46537 0.0562295 0.0435645
0.504509 0.0569467 0.0472114
0.544182 0.0584878 0.0518807
0.57171 0.060029 0.0586404
0.609277 0.0624552 0.0664378
0.646265 0.0656443 0.0737011
0.685557 0.0695506 0.0859236
0.718227 0.0733043 0.0975814
0.722454 0.0737316 0.10135
0.724254 0.0738537 0.102754
0.726024 0.0739757 0.104768
0.727352 0.074052 0.106188
0.728313 0.0741436 0.107317
0.729198 0.0742809 0.108293
0.729854 0.074403 0.108858
0.730053 0.074403 0.109224
0.0386664 0.100404 0.0412146
0.0388647 0.105165 0.0413519
0.0390021 0.108202 0.0408789
0.0392767 0.108797 0.0392004
0.0404974 0.107958 0.0375677
0.0438849 0.1075 0.0383459
0.0505074 0.107851 0.0392157
0.0629587 0.108263 0.0412604
0.0875257 0.10811 0.0427863
0.108644 0.111101 0.0372473
0.1458 0.110369 0.035462
0.188449 0.105837 0.0371405
0.235645 0.0904555 0.0409247
0.28426 0.0747234 0.0432136
0.330312 0.0667277 0.0428626
0.380407 0.0625162 0.0408637
0.441062 0.0589303 0.0383917
0.494713 0.0578622 0.0385595
0.543938 0.0583658 0.0402838
0.575982 0.0599374 0.0463111
0.608835 0.0626535 0.0550851
0.630045 0.0648966 0.0633555
0.655924 0.0673991 0.0720989
0.683101 0.0697032 0.0806897
0.702174 0.0717632 0.0869764
0.712581 0.0726635 0.0900282
0.715175 0.0729992 0.0911727
0.715587 0.0730755 0.0914321
0.715373 0.0730449 0.0915084
0.717189 0.0732586 0.0931868
0.716365 0.073167 0.0922408
0.71603 0.073106 0.0918593
0.715221 0.0730602 0.0908827
0.0393683 0.126345 0.0422065
0.0401465 0.132921 0.0425116
0.0404059 0.136355 0.0417029
0.0407416 0.136919 0.0397498
0.040238 0.136019 0.0376287
0.0433051 0.134874 0.0383459
0.0492866 0.135805 0.0390936
0.0590982 0.137438 0.0408179
0.0776379 0.137148 0.0419471
0.112718 0.137087 0.0429847
0.143252 0.140276 0.0365148
0.193225 0.141924 0.0350652
0.248661 0.139284 0.0373999
0.307836 0.115023 0.0430152
0.360632 0.0953994 0.045243
0.417838 0.0800336 0.045182
0.47599 0.0690471 0.0423743
0.521569 0.0654765 0.0403601
0.560372 0.063508 0.0401007
0.598795 0.0631266 0.0411688
0.629969 0.0645457 0.0458228
0.668605 0.0687572 0.0555581
0.691707 0.0716869 0.0651102
0.715572 0.0742351 0.0767224
0.722087 0.0745251 0.0825055
0.722881 0.0745251 0.0876173
0.726955 0.0749218 0.0873884
0.729824 0.0754101 0.0878614
0.73257 0.0760967 0.0887922
0.733379 0.0764172 0.08925
0.730648 0.0765393 0.0902724
0.729183 0.0761883 0.0897688
0.723369 0.0750896 0.0891737
0.0422217 0.160052 0.0430457
0.0423438 0.168154 0.042771
0.0421759 0.172305 0.0416114
0.042298 0.172503 0.0392309
0.042237 0.171511 0.0379492
0.0421454 0.170169 0.0386358
0.0463417 0.169787 0.0389563
0.0549935 0.173068 0.0395972
0.0697642 0.175128 0.0407568
0.0970169 0.17438 0.0429999
0.145785 0.176608 0.0432288
0.190249 0.181094 0.0366369
0.252186 0.185626 0.0360266
0.319722 0.183169 0.0389868
0.392569 0.151064 0.0433814
0.457755 0.125154 0.0450446
0.509865 0.102983 0.0474098
0.553368 0.0865187 0.0480964
0.584726 0.0784924 0.0464485
0.616953 0.0751202 0.0456855
0.647303 0.0734875 0.0454871
0.675502 0.0731975 0.0474403
0.710552 0.075639 0.0548409
0.738231 0.077348 0.0614633
0.756771 0.0799268 0.0713207
0.768994 0.0815747 0.0781415
0.765347 0.0809796 0.0770123
0.76463 0.0809949 0.0770123
0.761685 0.081117 0.076585
0.763195 0.081239 0.0765698
0.761273 0.0812695 0.0757458
0.763668 0.0814374 0.0755016
0.766033 0.0815595 0.0750134
0.0419013 0.199802 0.0414282
0.0418097 0.209323 0.0410468
0.0415503 0.214435 0.0395819
0.0416876 0.215396 0.0368505
0.0417182 0.214847 0.0359503
0.0416114 0.214099 0.0360723
0.0423438 0.212863 0.036408
0.0483406 0.214008 0.0365454
0.0611887 0.219577 0.0375219
0.0822919 0.221607 0.0396735
0.121431 0.2215 0.0432746
0.189715 0.227344 0.0434272
0.250553 0.235004 0.035874
0.324666 0.241352 0.0357824
0.408301 0.240177 0.037644
0.488914 0.207111 0.041825
0.543572 0.176379 0.0472419
0.585107 0.145983 0.0534066
0.617655 0.119753 0.0570535
0.644694 0.105791 0.0576486
0.672724 0.0977951 0.0570535
0.696971 0.0928054 0.0560616
0.719173 0.0888228 0.05449
0.746014 0.0883497 0.0567941
0.761898 0.0831617 0.0547341
0.769329 0.0830701 0.0574807
0.770199 0.0821851 0.056611
0.773556 0.0848707 0.0603189
0.777157 0.0885023 0.0637827
0.776684 0.0894331 0.0639048
0.777386 0.09131 0.0652323
0.774929 0.0910658 0.0618143
0.774304 0.0917372 0.0618906
0.0396735 0.246571 0.0379034
0.0387121 0.256016 0.0366064
0.0380255 0.261799 0.0349432
0.0380407 0.262562 0.0322271
0.0382239 0.263035 0.0311589
0.0381781 0.262989 0.03122
0.0379492 0.26186 0.0311742
0.0409247 0.261601 0.0314336
0.0501717 0.26302 0.0321202
0.0670939 0.269505 0.0328069
0.0974441 0.27158 0.0353704
0.153964 0.274205 0.0417792
0.247318 0.288899 0.0416266
0.322438 0.30045 0.0352941
0.411109 0.307378 0.0348211
0.496605 0.311177 0.0371557
0.567941 0.29482 0.0456092
0.617838 0.26479 0.0552529
0.654627 0.224567 0.06421
0.680583 0.193133 0.0678111
0.706706 0.165621 0.0719158
0.73312 0.145525 0.0741436
0.750195 0.124605 0.07187
0.770367 0.118685 0.0711986
0.788983 0.113603 0.0703288
0.791577 0.111299 0.0690623
0.792721 0.110842 0.0691844
0.791791 0.11075 0.0687572
0.793637 0.113237 0.0703899
0.795926 0.115892 0.071809
0.798444 0.118685 0.0730755
0.801175 0.121599 0.0747234
0.804868 0.125307 0.0766003
0.0341497 0.294041 0.0314488
0.0329595 0.303212 0.0299992
0.032517 0.308431 0.0284276
0.0324712 0.309789 0.0263523
0.0326085 0.310094 0.0239567
0.0323796 0.311177 0.0238956
0.0325628 0.310262 0.024094
0.0336004 0.308415 0.0244144
0.0393225 0.309239 0.0247349
0.0538033 0.313726 0.0248112
0.0758831 0.32137 0.0260777
0.119814 0.32398 0.0309911
0.199924 0.332738 0.0403296
0.31133 0.35935 0.0391394
0.407996 0.374975 0.0340581
0.500664 0.390341 0.0353552
0.563882 0.408347 0.0430762
0.633875 0.415625 0.0579232
0.689006 0.403433 0.0752117
0.729473 0.356497 0.0875868
0.758221 0.317128 0.092958
0.782376 0.277775 0.0971847
0.802792 0.234302 0.0973831
0.815381 0.203372 0.0969863
0.833753 0.193942 0.0995499
0.830793 0.166049 0.0931258
0.83328 0.166201 0.0936141
0.833631 0.166064 0.0936751
0.835142 0.168139 0.0943313
0.841993 0.181155 0.0986038
0.85034 0.198199 0.103578
0.857984 0.214923 0.108385
0.864256 0.229618 0.111772
0.0276188 0.341695 0.0247959
0.026276 0.351278 0.0230564
0.0255741 0.356939 0.021149
0.0256352 0.358434 0.0189517
0.0258335 0.358495 0.0174105
0.025803 0.358984 0.0167086
0.025864 0.359686 0.0167544
0.0261234 0.357198 0.0170596
0.0285191 0.357458 0.0172122
0.0395209 0.360098 0.0175937
0.0607919 0.367254 0.0176852
0.0885328 0.375433 0.0187381
0.151415 0.3823 0.0258488
0.251881 0.406363 0.0369116
0.387564 0.44741 0.0376898
0.500771 0.472984 0.0387579
0.578393 0.497261 0.0478523
0.627741 0.51487 0.0571603
0.684504 0.535119 0.0705882
0.735332 0.541024 0.0846723
0.784222 0.512032 0.102647
0.82771 0.482963 0.120134
0.867308 0.445594 0.138476
0.890791 0.40943 0.148455
0.903883 0.375723 0.151293
0.907607 0.341192 0.147799
0.91075 0.34403 0.149538
0.915541 0.359289 0.154269
0.919173 0.375631 0.15906
0.92256 0.392599 0.162646
0.924392 0.407553 0.16434
0.925872 0.422156 0.165423
0.92694 0.438514 0.165423
0.0201724 0.393378 0.0177768
0.0190127 0.404807 0.0161288
0.018143 0.41088 0.0141451
0.0185397 0.411994 0.0122835
0.0189975 0.412192 0.0102541
0.0193179 0.413001 0.00949111
0.0190433 0.414694 0.00949111
0.0191501 0.413947 0.00956741
0.0188907 0.411521 0.00943008
0.0252079 0.412314 0.00970474
0.0416571 0.418235 0.0093843
0.0699779 0.429129 0.010193
0.108858 0.439719 0.0138094
0.199863 0.456611 0.025391
0.329915 0.49865 0.0456245
0.493034 0.540032 0.0518654
0.584741 0.564462 0.0569162
0.647318 0.582956 0.0661936
0.686992 0.596338 0.07393
0.736049 0.611673 0.0853895
0.78291 0.619821 0.0975662
0.826795 0.615457 0.109453
0.86389 0.606424 0.121157
0.892989 0.584741 0.134325
0.911177 0.562615 0.143618
0.924025 0.538888 0.151431
0.92607 0.540688 0.153277
0.925887 0.548272 0.152163
0.926406 0.557275 0.151965
0.92668 0.567483 0.151217
0.926986 0.578958 0.150759
0.928374 0.588724 0.151492
0.92874 0.597696 0.150774
0.01561 0.453742 0.0132448
0.0162051 0.465278 0.0135042
0.0165866 0.470756 0.0126345
0.0171511 0.471641 0.0110628
0.0176089 0.472236 0.00888075
0.0180056 0.473503 0.00732433
0.0180972 0.474357 0.00726329
0.0180514 0.473945 0.00727855
0.0183413 0.472465 0.00735485
0.0209049 0.473182 0.00730907
0.031342 0.474586 0.00759899
0.059617 0.485908 0.00947585
0.101472 0.500526 0.0139315
0.163851 0.515969 0.0228275
0.293782 0.548699 0.046952
0.447288 0.585184 0.06598
0.57818 0.615702 0.0698711
0.652781 0.636439 0.0759442
0.706294 0.651255 0.0839094
0.743755 0.662257 0.09131
0.786908 0.673396 0.100816
0.827237 0.683406 0.11078
0.865614 0.691142 0.120485
0.897398 0.699825 0.130175
0.916243 0.681071 0.13872
0.928374 0.672496 0.143633
0.931441 0.668132 0.146715
0.933089 0.671077 0.147601
0.933486 0.67924 0.147448
0.933852 0.686671 0.14696
0.934157 0.69369 0.146319
0.934569 0.701671 0.145754
0.934936 0.709575 0.144854
0.0208591 0.515114 0.0180514
0.0227054 0.527291 0.0195773
0.0240482 0.533379 0.0196384
0.0247349 0.534569 0.0175021
0.0253452 0.53463 0.0149386
0.0258335 0.534752 0.0131075
0.025803 0.5355 0.0130007
0.0260777 0.536721 0.0131685
0.0257267 0.533761 0.0130465
0.0279088 0.533928 0.0131075
0.0370642 0.538369 0.0141909
0.0617533 0.546334 0.0171817
0.110872 0.567422 0.02533
0.178302 0.588037 0.036759
0.265766 0.60621 0.0522164
0.411383 0.631281 0.0765087
0.551232 0.6533 0.0856184
0.644755 0.67895 0.0885328
0.707073 0.696468 0.0932937
0.761196 0.711452 0.101167
0.799054 0.721782 0.1084
0.838651 0.731777 0.116304
0.868544 0.739132 0.123583
0.896559 0.745983 0.130983
0.916991 0.751736 0.137377
0.928054 0.755566 0.141192
0.934722 0.761028 0.143801
0.935714 0.762676 0.144045
0.935576 0.763775 0.14403
0.935424 0.766567 0.144137
0.93547 0.767895 0.144244
0.935073 0.771725 0.143908
0.935302 0.77435 0.144427
0.0372015 0.58616 0.0334173
0.0416724 0.600443 0.0368048
0.0440833 0.607156 0.0372778
0.0450752 0.607858 0.0347295
0.0454261 0.607324 0.0317693
0.0461128 0.607965 0.0302586
0.0462959 0.608621 0.0301823
0.046479 0.609537 0.0303044
0.0463417 0.608881 0.0302129
0.0446174 0.604547 0.0290684
0.0524605 0.608042 0.0302586
0.0775464 0.617624 0.0342565
0.128023 0.632975 0.0421149
0.196185 0.655024 0.0538186
0.277165 0.669902 0.0665446
0.377554 0.679255 0.0810254
0.530419 0.691478 0.0966201
0.629892 0.713405 0.104814
0.700816 0.736339 0.107317
0.76054 0.754116 0.111696
0.813184 0.768093 0.118013
0.849531 0.778637 0.124163
0.880888 0.786633 0.130297
0.899367 0.79202 0.134966
0.917464 0.798032 0.139849
0.925658 0.801984 0.14229
0.932204 0.805508 0.144656
0.932754 0.808377 0.145144
0.932616 0.81059 0.144915
0.932616 0.813199 0.145373
0.932418 0.81619 0.145663
0.93193 0.819699 0.145663
0.931746 0.821744 0.145876
0.0626078 0.660182 0.0553445
0.0671855 0.673625 0.0587778
0.0697185 0.679026 0.0587015
0.0705119 0.679423 0.0558022
0.0712444 0.678859 0.0525521
0.0715343 0.678752 0.0513619
0.0716716 0.679332 0.0512398
0.0724041 0.681117 0.0518807
0.0720684 0.680537 0.0515755
0.0708324 0.676738 0.0507515
0.0729839 0.677089 0.0509957
0.0936904 0.68307 0.0534218
0.139696 0.694209 0.0591135
0.212894 0.711833 0.0690929
0.2869 0.727337 0.0791485
0.376989 0.733303 0.0897993
0.500954 0.733684 0.100145
0.616632 0.747692 0.117418
0.692378 0.76965 0.123857
0.752178 0.791165 0.125521
0.808164 0.806897 0.128435
0.854765 0.819196 0.13228
0.887373 0.828214 0.137774
0.906859 0.834653 0.141512
0.918227 0.838849 0.144381
0.92462 0.842771 0.146426
0.928985 0.845136 0.147799
0.928954 0.847242 0.147951
0.929183 0.849775 0.148363
0.92903 0.85275 0.14876
0.928634 0.85507 0.148898
0.928344 0.858305 0.14934
0.928405 0.860258 0.14992
0.085359 0.722759 0.0737774
0.0885328 0.731075 0.0755322
0.0902571 0.734707 0.0742657
0.0907607 0.734462 0.0714427
0.0914168 0.733974 0.0673991
0.0914778 0.734325 0.0677653
0.0916762 0.734936 0.068101
0.0917525 0.73518 0.0681926
0.0916915 0.734951 0.0681163
0.0906386 0.731304 0.0671397
0.0915694 0.729397 0.0667277
0.106889 0.734524 0.0683452
0.151843 0.740597 0.07187
0.223774 0.753674 0.0790875
0.302464 0.768215 0.0890364
0.384283 0.775845 0.0975357
0.499275 0.773785 0.103868
0.599313 0.781048 0.119188
0.686 0.796551 0.137285
0.74876 0.816785 0.141558
0.800473 0.837674 0.141772
0.845701 0.850584 0.142596
0.885252 0.860334 0.145388
0.907744 0.867521 0.149218
0.921035 0.872084 0.15108
0.925414 0.874617 0.152819
0.926436 0.87657 0.15314
0.926345 0.877348 0.153307
0.926009 0.878965 0.153475
0.925856 0.880659 0.154055
0.925719 0.882536 0.15465
0.925689 0.884306 0.155306
0.925231 0.886137 0.155642
0.100877 0.767254 0.0854353
0.101961 0.769421 0.085481
0.102617 0.770413 0.083299
0.103532 0.770489 0.0801862
0.103914 0.770352 0.0783093
0.103899 0.770245 0.0782177
0.103868 0.770108 0.0781872
0.103853 0.770016 0.078172
0.1037 0.76939 0.0780499
0.103044 0.767742 0.0775006
0.103166 0.764157 0.0764782
0.116182 0.767788 0.0779889
0.160388 0.772915 0.080354
0.235096 0.781338 0.0865644
0.315648 0.794034 0.0954452
0.399252 0.800549 0.102831
0.498146 0.802228 0.107134
0.591638 0.806485 0.121263
0.670375 0.820539 0.14078
0.744701 0.836896 0.155932
0.798489 0.85568 0.157534
0.84004 0.87071 0.157061
0.877379 0.88014 0.158206
0.905226 0.887388 0.160143
0.916213 0.89189 0.160433
0.924422 0.895766 0.16025
0.924041 0.896956 0.160388
0.923919 0.897826 0.162829
0.924056 0.898253 0.165347
0.924254 0.898695 0.168093
0.924453 0.899458 0.170565
0.924498 0.899977 0.173022
0.924437 0.900877 0.174533
0.105592 0.780926 0.0890516
0.106615 0.78294 0.0887465
0.107652 0.783413 0.086244
0.108629 0.783429 0.0825818
0.108812 0.783429 0.082002
0.108736 0.783429 0.0822156
0.108736 0.783429 0.0822156
0.108736 0.783429 0.0822156
0.108736 0.783429 0.0822156
0.108736 0.783429 0.0822156
0.111727 0.783886 0.0824903
0.123796 0.785153 0.0826429
0.164477 0.789639 0.0848707
0.241871 0.797955 0.0905318
0.327611 0.807584 0.0984512
0.414542 0.814145 0.105226
0.509316 0.815671 0.109911
0.588678 0.823911 0.122744
0.662104 0.836072 0.142397
0.732113 0.853666 0.163531
0.798169 0.869108 0.174594
0.842817 0.883177 0.175921
0.873457 0.891966 0.178653
0.901213 0.898619 0.181033
0.916426 0.902434 0.185351
0.923049 0.904936 0.186847
0.9243 0.905699 0.189776
0.924285 0.906523 0.192096
0.924346 0.907408 0.194949
0.924208 0.908019 0.197055
0.924041 0.908675 0.198779
0.924239 0.908751 0.202853
0.924422 0.908705 0.20705
0.106966 0.783383 0.0890059
0.10724 0.783383 0.0878614
0.107927 0.783429 0.0851453
0.108644 0.783429 0.0825208
0.108782 0.783429 0.082063
0.108736 0.783429 0.0822156
0.108736 0.783429 0.0822156
0.108736 0.783429 0.0822156
0.108736 0.783429 0.0822156
0.108736 0.783429 0.0822156
0.111086 0.783764 0.0824445
0.128557 0.785641 0.0828107
0.169131 0.790219 0.0851301
0.24892 0.798932 0.0912032
0.336339 0.808408 0.0992294
0.432349 0.814527 0.105669
0.521874 0.818402 0.11165
0.596918 0.829221 0.125216
0.662364 0.844785 0.145068
0.729091 0.862745 0.16997
0.792325 0.879057 0.18204
0.848859 0.891432 0.189944
0.87866 0.89868 0.194385
0.898421 0.903883 0.205722
0.914916 0.90724 0.210819
0.923339 0.909209 0.224704
0.924865 0.909636 0.228534
0.925475 0.909758 0.237964
0.925719 0.90985 0.245609
0.925917 0.909957 0.250385
0.926055 0.909972 0.255146
0.926131 0.909941 0.259052
0.926207 0.909987 0.262364
0.106249 0.783368 0.0916457
0.106538 0.783368 0.0905776
0.107408 0.783398 0.0871443
0.10837 0.783429 0.0833906
0.108705 0.783429 0.0823377
0.108736 0.783429 0.0822156
0.108736 0.783429 0.0822156
0.108736 0.783429 0.0822156
0.108736 0.783429 0.0822156
0.108736 0.783429 0.0822156
0.109865 0.783536 0.0822919
0.130297 0.785855 0.0829023
0.179156 0.791012 0.0856336
0.255207 0.799512 0.0916152
0.349569 0.809659 0.101167
0.431388 0.814542 0.105852
0.516167 0.817899 0.110765
0.589151 0.827832 0.121767
0.659998 0.844709 0.137926
0.728161 0.863737 0.155764
0.805615 0.884047 0.164324
0.858396 0.895247 0.175113
0.890745 0.902113 0.194583
0.906523 0.905638 0.214084
0.917006 0.908049 0.23801
0.922179 0.909331 0.255558
0.926711 0.910323 0.274372
0.927092 0.910567 0.286793
0.927474 0.910842 0.299397
0.927626 0.910964 0.306249
0.927733 0.911055 0.309377
0.92784 0.911147 0.314687
0.92784 0.911131 0.317556
0.104753 0.783337 0.0975357
0.105165 0.783337 0.0959335
0.106569 0.783368 0.0905165
0.107988 0.783429 0.0849317
0.108736 0.783429 0.0822461
0.108736 0.783429 0.0822156
0.108736 0.783429 0.0822156
0.108736 0.783429 0.0822156
0.108736 0.783429 0.0822156
0.108736 0.783429 0.0822156
0.109331 0.783475 0.0822461
0.13196 0.786099 0.0830091
0.18851 0.792065 0.0862593
0.265263 0.800717 0.0925917
0.359091 0.81033 0.101701
0.440146 0.814618 0.106386
0.523674 0.818616 0.11133
0.594125 0.828763 0.122362
0.666468 0.846586 0.138079
0.736919 0.866773 0.151553
0.812833 0.886152 0.161181
0.867552 0.897795 0.184237
0.89955 0.904295 0.207462
0.911803 0.90692 0.234424
0.920668 0.909026 0.261479
0.924697 0.910155 0.294194
0.92781 0.911131 0.313863
0.928008 0.911192 0.331106
0.928222 0.911208 0.345159
0.92845 0.911299 0.355856
