bundles/resolve-cinematic-luts/Phantom Luts/Canon Film LUT/C-Log 2/EastmanRM Canon CL2.cube
TITLE "Generated by Resolve"
LUT_3D_SIZE 9
0.0422065 0.0322271 0.0366064
0.055848 0.0312047 0.0362402
0.158938 0.0283055 0.0360266
0.321111 0.0248264 0.0405432
0.485588 0.0266423 0.0550546
0.578485 0.0359655 0.0970626
0.606607 0.0443732 0.129824
0.607538 0.0470893 0.145892
0.570459 0.0549325 0.196658
0.0435798 0.0523079 0.0402533
0.0476997 0.0496529 0.0399786
0.13872 0.033341 0.0368505
0.311986 0.0255436 0.038056
0.482002 0.0271305 0.0527504
0.579263 0.0361181 0.0940871
0.602548 0.0428931 0.122194
0.603769 0.0449989 0.13402
0.567086 0.0518502 0.18056
0.053727 0.144808 0.0463417
0.0500649 0.145129 0.0455634
0.136233 0.141741 0.0447242
0.345983 0.076051 0.0404212
0.492332 0.0280766 0.0429694
0.559396 0.0342107 0.0755932
0.581582 0.0374609 0.0941024
0.588495 0.0392615 0.106081
0.568368 0.0429389 0.13228
0.0506752 0.322194 0.0395972
0.0458381 0.329076 0.0396124
0.0526131 0.328527 0.0397955
0.375479 0.385 0.0513771
0.64976 0.294606 0.0654459
0.604578 0.104646 0.076463
0.582071 0.0485389 0.0722972
0.580896 0.04654 0.0811017
0.568597 0.0459144 0.0845808
0.0838636 0.536095 0.05243
0.0725567 0.54139 0.0673686
0.0745251 0.544564 0.0685588
0.169986 0.564889 0.057908
0.666728 0.673869 0.134646
0.841886 0.67599 0.26006
0.854719 0.572412 0.210483
0.853727 0.552117 0.196506
0.846952 0.554208 0.206378
0.21268 0.683726 0.164614
0.197925 0.685527 0.177249
0.197467 0.6869 0.181353
0.213687 0.686275 0.179553
0.528389 0.78114 0.272923
0.852796 0.867658 0.406073
0.912367 0.86743 0.438376
0.913359 0.867445 0.434745
0.916136 0.867536 0.428214
0.211154 0.696574 0.207889
0.212009 0.695247 0.185229
0.211536 0.694972 0.180484
0.215412 0.695293 0.180835
0.512459 0.779599 0.275959
0.849775 0.895933 0.43801
0.911772 0.913756 0.550774
0.912276 0.916503 0.572625
0.911101 0.916915 0.576928
0.216556 0.699474 0.239506
0.218448 0.695872 0.200458
0.228016 0.694697 0.160159
0.232364 0.695064 0.160616
0.526055 0.785657 0.261341
0.85005 0.895613 0.423835
0.913725 0.912337 0.535424
0.916594 0.914916 0.557504
0.911391 0.916808 0.575845
0.198276 0.708492 0.297047
0.204227 0.699626 0.235935
0.220615 0.694697 0.168841
0.231006 0.695003 0.16054
0.547204 0.795621 0.271534
0.864164 0.896819 0.433707
0.913802 0.912291 0.535729
0.914763 0.915587 0.563912
0.911254 0.916869 0.576364
0.0416724 0.0346227 0.0426032
0.049012 0.0342565 0.0440986
0.130785 0.0327306 0.0465095
0.290852 0.0292058 0.0575723
0.461967 0.0286259 0.0783551
0.558465 0.0399939 0.128573
0.586084 0.0497139 0.166186
0.58616 0.0530556 0.184817
0.563058 0.0597848 0.223621
0.0434577 0.0478676 0.0452277
0.0470893 0.0462806 0.0463264
0.127153 0.0368658 0.0474556
0.292332 0.027451 0.0533455
0.462959 0.0293736 0.0780499
0.560159 0.0407111 0.127733
0.582452 0.0480507 0.155627
0.583398 0.0509041 0.172885
0.561044 0.056733 0.207401
0.0513924 0.141817 0.0589151
0.0475013 0.142687 0.0513771
0.124849 0.139116 0.0478828
0.336095 0.0617075 0.0424659
0.483085 0.0287022 0.0495308
0.55848 0.035584 0.0894636
0.5823 0.0411841 0.118044
0.58616 0.0430152 0.129152
0.565744 0.0469215 0.155535
0.0489509 0.321798 0.0505531
0.0453803 0.325429 0.0448463
0.0485237 0.322789 0.0393988
0.371572 0.379904 0.0512856
0.642039 0.262379 0.0630045
0.590646 0.0839094 0.0687419
0.581842 0.0473182 0.0785229
0.576608 0.0442969 0.0816205
0.565499 0.0438087 0.0879377
0.074876 0.537499 0.06215
0.0668498 0.541909 0.0757153
0.074052 0.543206 0.0673228
0.152407 0.56083 0.0574044
0.665812 0.672282 0.132799
0.842405 0.672511 0.258579
0.853513 0.556878 0.200427
0.85211 0.534066 0.186542
0.844419 0.535592 0.196582
0.206104 0.683711 0.192554
0.194125 0.685389 0.192081
0.196262 0.686122 0.180331
0.201755 0.684306 0.17763
0.519646 0.77734 0.269261
0.852308 0.867002 0.404166
0.912291 0.866285 0.437552
0.912306 0.865476 0.437201
0.912612 0.865797 0.43769
0.204974 0.701701 0.254337
0.208164 0.697475 0.217563
0.211536 0.694972 0.180484
0.212604 0.695155 0.180697
0.499809 0.773678 0.269551
0.843748 0.89482 0.432197
0.911772 0.913451 0.549233
0.912276 0.916487 0.572595
0.910979 0.91696 0.577401
0.202594 0.711604 0.314504
0.212589 0.701045 0.251484
0.2271 0.694606 0.164675
0.228016 0.694697 0.160159
0.513069 0.780041 0.254688
0.843168 0.893965 0.417624
0.912825 0.912352 0.532464
0.916915 0.914794 0.556588
0.911086 0.916915 0.576974
0.199908 0.72076 0.355154
0.204562 0.706981 0.290089
0.219608 0.69482 0.176593
0.229862 0.694865 0.160388
0.53373 0.789303 0.264744
0.854566 0.895476 0.424567
0.913542 0.911727 0.530602
0.914763 0.915587 0.563912
0.909606 0.917464 0.583185
0.0407874 0.0409552 0.0685893
0.0442206 0.0386053 0.0817578
0.118151 0.0375067 0.0839857
0.291356 0.0329595 0.0835431
0.465248 0.0312963 0.107027
0.565499 0.044358 0.158465
0.592859 0.0569772 0.204059
0.594339 0.0627146 0.231418
0.571359 0.0714885 0.274449
0.0410925 0.0484627 0.0657359
0.0410468 0.0439155 0.0755322
0.106813 0.0391241 0.0889754
0.289769 0.0326085 0.0822309
0.468071 0.0308995 0.103624
0.570047 0.0453193 0.155367
0.590799 0.0545815 0.192706
0.59173 0.0596933 0.218692
0.569238 0.0682536 0.260578
0.0504311 0.132021 0.09514
0.0468299 0.13225 0.104128
0.121614 0.14049 0.122087
0.359152 0.0677195 0.0886549
0.492821 0.0292668 0.0800946
0.574472 0.041001 0.123629
0.592264 0.0474556 0.150057
0.595483 0.0497292 0.163745
0.574716 0.0545663 0.194598
0.0499275 0.318425 0.101366
0.0459144 0.322744 0.0977188
0.045716 0.313893 0.0514839
0.358434 0.36669 0.0681773
0.612116 0.193591 0.0715648
0.597589 0.062623 0.0940566
0.591653 0.0481575 0.111727
0.582635 0.044007 0.111238
0.574899 0.0447395 0.121157
0.0603494 0.538781 0.10927
0.0551003 0.544381 0.122744
0.0624399 0.538766 0.0796979
0.106828 0.547524 0.0573739
0.65861 0.663859 0.126238
0.839521 0.642512 0.238972
0.848493 0.507332 0.176287
0.844739 0.4822 0.1691
0.834363 0.482765 0.179492
0.193484 0.689128 0.265415
0.183703 0.691341 0.268559
0.189578 0.684459 0.203128
0.194858 0.681849 0.17499
0.489326 0.763607 0.254231
0.850507 0.863249 0.393118
0.911604 0.861051 0.43241
0.912139 0.858701 0.430732
0.912108 0.858503 0.430442
0.205982 0.720714 0.356207
0.200671 0.714595 0.328527
0.20473 0.699077 0.230716
0.211536 0.694972 0.180484
0.461173 0.75671 0.249851
0.828 0.89189 0.419669
0.911055 0.91284 0.543603
0.912276 0.916426 0.572122
0.910857 0.916991 0.57789
0.212146 0.736416 0.418296
0.205035 0.728985 0.38822
0.211582 0.702617 0.263066
0.228016 0.694697 0.160159
0.479591 0.76495 0.238056
0.818875 0.888502 0.397711
0.911833 0.910506 0.518288
0.917525 0.914565 0.553918
0.911345 0.916838 0.576059
0.214588 0.746822 0.456123
0.208331 0.737865 0.423163
0.20885 0.707225 0.291676
0.228016 0.694697 0.160159
0.480232 0.765225 0.238361
0.829114 0.890593 0.404547
0.910948 0.910857 0.520546
0.914763 0.915602 0.563943
0.90927 0.917586 0.584543
0.0400702 0.0552529 0.136446
0.0421454 0.055787 0.153979
0.0924697 0.0450599 0.190921
0.270344 0.040116 0.188159
0.471946 0.0405127 0.212238
0.578866 0.0614176 0.251514
0.608804 0.0802014 0.290669
0.611337 0.0875563 0.314443
0.590036 0.0982071 0.357733
0.0402075 0.0589609 0.132586
0.0402075 0.0576181 0.146059
0.0721294 0.0455482 0.199603
0.270405 0.0413977 0.205219
0.482628 0.0413672 0.217884
0.586404 0.0645151 0.255131
0.608728 0.0800336 0.289876
0.611246 0.0872206 0.312978
0.589471 0.0971542 0.354818
0.0425116 0.131579 0.15668
0.0417182 0.12546 0.172213
0.0539406 0.109407 0.221302
0.278096 0.0586709 0.233906
0.494713 0.0371862 0.179583
0.592447 0.0573129 0.220829
0.611719 0.0700999 0.254231
0.615198 0.0758221 0.272923
0.595178 0.0838026 0.309026
0.049836 0.307118 0.229328
0.0460975 0.310185 0.245792
0.0458534 0.304097 0.242298
0.362005 0.373617 0.348638
0.676326 0.220447 0.295201
0.67274 0.112627 0.246036
0.604807 0.0613413 0.196994
0.592874 0.0544594 0.189944
0.584802 0.0568704 0.204196
0.0582284 0.557046 0.279927
0.0530404 0.566781 0.308141
0.0515908 0.559533 0.263645
0.057145 0.534386 0.111482
0.638956 0.65481 0.200778
0.846738 0.537621 0.229816
0.858778 0.413718 0.216648
0.855192 0.387015 0.217304
0.847639 0.388739 0.234028
0.192157 0.713054 0.406165
0.180941 0.718807 0.419745
0.175479 0.70927 0.377493
0.177752 0.67866 0.220722
0.399435 0.72488 0.21323
0.844388 0.85452 0.372457
0.911604 0.847745 0.42089
0.911131 0.841443 0.415366
0.910918 0.840299 0.414267
0.238743 0.753368 0.483543
0.224277 0.75555 0.491051
0.212543 0.743008 0.442603
0.204013 0.701244 0.250446
0.327092 0.710933 0.195743
0.771939 0.87921 0.38584
0.908461 0.912016 0.533211
0.912398 0.916182 0.570138
0.911147 0.916884 0.576715
0.240391 0.768078 0.541131
0.234577 0.765942 0.531868
0.222751 0.754559 0.486381
0.211322 0.705608 0.282918
0.305715 0.70602 0.172824
0.749355 0.872694 0.362478
0.910109 0.90695 0.489891
0.917586 0.914626 0.554055
0.911345 0.916884 0.576562
0.241871 0.774716 0.570077
0.238911 0.772045 0.55697
0.228595 0.760845 0.51043
0.21091 0.710094 0.307942
0.314275 0.707958 0.174578
0.749279 0.872679 0.362585
0.907088 0.907134 0.494911
0.914763 0.915557 0.563668
0.909606 0.917525 0.583658
0.0414893 0.0775158 0.259327
0.0416876 0.0759899 0.281147
0.0652323 0.0728466 0.32134
0.24181 0.0491035 0.368643
0.445548 0.0497444 0.363043
0.591638 0.0906844 0.374075
0.629709 0.110643 0.410681
0.629694 0.11519 0.435599
0.605814 0.12401 0.476463
0.0415503 0.0812848 0.249653
0.0416419 0.0808881 0.276219
0.0536202 0.0767834 0.326162
0.240345 0.0506447 0.385962
0.455497 0.0524453 0.377676
0.601328 0.0967727 0.385565
0.630121 0.111574 0.418143
0.630014 0.116091 0.441382
0.605661 0.124605 0.481331
0.0416571 0.109972 0.257115
0.0416266 0.0999161 0.270069
0.0416876 0.085359 0.29839
0.189532 0.0525826 0.391028
0.451606 0.0534981 0.384878
0.609415 0.0957351 0.373617
0.63917 0.107866 0.399008
0.640818 0.110842 0.41619
0.618387 0.119585 0.454185
0.0428931 0.311955 0.367315
0.0431067 0.310491 0.386114
0.043122 0.290623 0.391012
0.155856 0.269078 0.488777
0.558312 0.171679 0.510292
0.618601 0.0977188 0.352255
0.63975 0.0996567 0.345495
0.640864 0.100969 0.353765
0.619394 0.107713 0.386389
0.0604562 0.548211 0.449241
0.0548562 0.55436 0.476616
0.0544747 0.554406 0.479118
0.0601053 0.552209 0.479225
0.618387 0.632593 0.602274
0.885313 0.51429 0.568658
0.92253 0.43888 0.57116
0.91989 0.417319 0.568185
0.91107 0.411734 0.575753
0.212573 0.730312 0.538216
0.194751 0.737987 0.564095
0.191928 0.737377 0.555398
0.181964 0.728756 0.514488
0.281315 0.71809 0.384054
0.824689 0.862425 0.538582
0.920012 0.807431 0.57142
0.917678 0.791379 0.562966
0.916014 0.788922 0.567315
0.270817 0.783108 0.616312
0.257008 0.785718 0.62768
0.25211 0.783429 0.614328
0.241688 0.7738 0.56553
0.20238 0.706691 0.287968
0.703319 0.862516 0.376318
0.911925 0.916838 0.562875
0.915663 0.92665 0.669825
0.914351 0.927321 0.677913
0.26537 0.788174 0.651347
0.261494 0.788296 0.65069
0.256855 0.786801 0.636606
0.247623 0.778561 0.588312
0.208255 0.709957 0.305821
0.667384 0.846616 0.32723
0.908064 0.911223 0.512398
0.914855 0.926696 0.667445
0.909453 0.930266 0.698604
0.268696 0.789868 0.667018
0.264393 0.790265 0.665766
0.260197 0.788479 0.651392
0.250538 0.781064 0.602579
0.209552 0.715526 0.333516
0.674067 0.848753 0.331731
0.903471 0.913176 0.527047
0.912154 0.929122 0.689067
0.907271 0.931884 0.718135
0.0422217 0.105928 0.367056
0.0422522 0.104723 0.388098
0.0542763 0.0994125 0.421286
0.192432 0.0656901 0.485817
0.409659 0.0720836 0.492638
0.562905 0.114153 0.509957
0.612726 0.137377 0.551904
0.612131 0.139361 0.563073
0.606332 0.141482 0.573724
0.0420386 0.110826 0.363241
0.0421454 0.10956 0.380026
0.0474708 0.102907 0.42031
0.185183 0.0683909 0.493553
0.417456 0.0769818 0.502083
0.575219 0.120851 0.523369
0.614588 0.138033 0.556039
0.610086 0.140215 0.567941
0.602457 0.142748 0.578927
0.0423438 0.129458 0.377005
0.0421759 0.120241 0.372824
0.0422065 0.112367 0.387839
0.12845 0.0747845 0.488319
0.411048 0.0789807 0.508965
0.579065 0.122957 0.527733
0.622049 0.136248 0.550408
0.617609 0.138537 0.561379
0.605875 0.14168 0.575036
0.0439002 0.283131 0.462211
0.0439307 0.277104 0.466255
0.0432746 0.243091 0.455055
0.0547341 0.194659 0.50576
0.413138 0.111879 0.557412
0.566842 0.116564 0.515297
0.627024 0.132219 0.529015
0.624994 0.133989 0.537636
0.609934 0.137987 0.553872
0.0602426 0.550835 0.576791
0.0598459 0.554665 0.586831
0.0602121 0.553094 0.591974
0.0560769 0.536065 0.596078
0.447807 0.538399 0.729534
0.837613 0.476066 0.796658
0.892454 0.384573 0.765805
0.881178 0.361593 0.756695
0.862974 0.362829 0.762341
0.195972 0.718135 0.642618
0.187655 0.722911 0.655863
0.187243 0.722789 0.656336
0.181125 0.717617 0.651545
0.300298 0.746029 0.678874
0.80415 0.829129 0.795911
0.919371 0.776516 0.784665
0.920027 0.761013 0.786435
0.913146 0.75938 0.79411
0.280705 0.791806 0.69723
0.270512 0.79382 0.70457
0.269352 0.793378 0.701732
0.266804 0.791821 0.690608
0.258671 0.787015 0.648264
0.696193 0.87361 0.724422
0.891112 0.931029 0.827558
0.909255 0.933242 0.842039
0.909224 0.932052 0.843503
0.286503 0.791989 0.706538
0.272389 0.794781 0.715114
0.270985 0.794461 0.711727
0.269139 0.793286 0.699016
0.26154 0.788785 0.654658
0.611811 0.85272 0.667765
0.863218 0.927901 0.790661
0.908385 0.947173 0.887236
0.910124 0.947677 0.889509
0.277195 0.794415 0.720516
0.274113 0.794903 0.721675
0.271839 0.795056 0.718471
0.270054 0.793927 0.705058
0.262638 0.789471 0.659846
0.617807 0.856504 0.681239
0.859648 0.926635 0.794476
0.906676 0.947143 0.889448
0.908705 0.949157 0.898039
0.0425574 0.142901 0.429236
0.04271 0.142489 0.446708
0.0512856 0.135882 0.475013
0.158221 0.105531 0.534264
0.407233 0.113542 0.570794
0.55697 0.132082 0.58201
0.605676 0.147326 0.600656
0.607416 0.146914 0.599374
0.606394 0.147158 0.600183
0.0425574 0.149279 0.427649
0.0426032 0.148516 0.437507
0.0460212 0.143557 0.471565
0.158831 0.113268 0.536461
0.421958 0.117128 0.576501
0.56968 0.136873 0.588281
0.605936 0.147265 0.600488
0.605676 0.147326 0.600656
0.603983 0.147723 0.601923
0.0426947 0.157229 0.431769
0.0426795 0.154467 0.430503
0.0426184 0.152667 0.441077
0.127367 0.136995 0.520836
0.413565 0.120958 0.581811
0.572427 0.137774 0.590539
0.607004 0.147021 0.599588
0.606897 0.147051 0.59968
0.604883 0.147524 0.60119
0.0433051 0.247669 0.482902
0.0432593 0.239002 0.480049
0.0427863 0.202136 0.460395
0.042771 0.159533 0.462821
0.337514 0.114778 0.572351
0.552621 0.13167 0.583429
0.607309 0.146822 0.599084
0.607767 0.146868 0.599298
0.605585 0.147402 0.600793
0.064332 0.5505 0.631479
0.0644846 0.552651 0.635462
0.0632486 0.548241 0.637705
0.0559091 0.521904 0.633524
0.314015 0.501091 0.749935
0.793301 0.435599 0.879271
0.813321 0.337697 0.796902
0.796628 0.317143 0.77937
0.788067 0.317662 0.779416
0.190524 0.715724 0.695674
0.18941 0.719463 0.700084
0.189639 0.719524 0.701579
0.185168 0.713817 0.702037
0.236622 0.720287 0.723934
0.737484 0.790082 0.862974
0.905425 0.74435 0.883757
0.919417 0.725216 0.882979
0.91458 0.724681 0.885435
0.279133 0.78999 0.725643
0.270359 0.791913 0.732128
0.269276 0.791302 0.73138
0.266316 0.789395 0.729442
0.261616 0.78497 0.724727
0.708141 0.889754 0.842573
0.887846 0.926665 0.893538
0.906035 0.926696 0.895293
0.906523 0.924712 0.895506
0.28719 0.793774 0.728817
0.275425 0.796201 0.736568
0.275013 0.796109 0.736049
0.274617 0.795987 0.734173
0.273289 0.795468 0.725978
0.534447 0.862348 0.782147
0.897719 0.945632 0.901488
0.916823 0.951293 0.910704
0.917311 0.951537 0.911269
0.276982 0.795972 0.736171
0.27599 0.796155 0.736828
0.275319 0.796231 0.736812
0.274861 0.796033 0.735134
0.273243 0.795468 0.725826
0.535637 0.862715 0.783169
0.896071 0.946212 0.903792
0.909941 0.951492 0.91133
0.913237 0.952972 0.917128
0.0428473 0.156741 0.451987
0.0432136 0.155825 0.467689
0.0566415 0.149645 0.493339
0.171649 0.114015 0.548501
0.423606 0.121431 0.582803
0.568124 0.136828 0.589548
0.605661 0.147341 0.600656
0.606119 0.147219 0.600381
0.60531 0.147417 0.600885
0.042771 0.157504 0.441184
0.0428779 0.156573 0.453666
0.0495918 0.1523 0.48661
0.170901 0.114824 0.547784
0.435386 0.121538 0.583383
0.578195 0.139559 0.592477
0.605753 0.147311 0.600595
0.60557 0.147356 0.600717
0.603983 0.147723 0.601923
0.04271 0.158053 0.434333
0.0427253 0.158663 0.436072
0.0428779 0.156542 0.454231
0.140551 0.139544 0.529015
0.423987 0.121447 0.582895
0.578729 0.13994 0.593088
0.606607 0.147112 0.599985
0.606607 0.147112 0.599985
0.604868 0.147539 0.60119
0.0433051 0.24477 0.492042
0.0432441 0.23151 0.48423
0.0428321 0.194263 0.46009
0.0428931 0.156893 0.465461
0.342702 0.116686 0.575433
0.553231 0.132387 0.586038
0.606653 0.147143 0.600061
0.606638 0.147143 0.600076
0.605417 0.147433 0.6009
0.0647135 0.548852 0.649592
0.0649271 0.550866 0.65185
0.0617685 0.542 0.648066
0.0529335 0.506661 0.633097
0.27921 0.47393 0.743557
0.767483 0.39765 0.866148
0.775235 0.300404 0.767376
0.75845 0.27866 0.748104
0.75259 0.278904 0.748074
0.202945 0.728618 0.713466
0.202853 0.730648 0.715404
0.201984 0.729809 0.715846
0.192599 0.722469 0.71426
0.224765 0.719051 0.723674
0.69929 0.772854 0.863767
0.892943 0.726833 0.908171
0.908125 0.703349 0.908629
0.907256 0.703471 0.908721
0.279469 0.790433 0.730571
0.271122 0.79237 0.736538
0.270542 0.791913 0.736522
0.268193 0.790082 0.735805
0.263005 0.785473 0.734524
0.647578 0.875776 0.843671
0.883177 0.922225 0.905486
0.908217 0.919188 0.907988
0.911757 0.916121 0.904982
0.27892 0.79556 0.734951
0.275563 0.796246 0.737163
0.275425 0.796277 0.737255
0.275425 0.796277 0.737255
0.275563 0.796246 0.737163
0.34052 0.80679 0.74995
0.892576 0.944701 0.908766
0.913848 0.951308 0.913909
0.915511 0.951217 0.912993
0.276051 0.796155 0.736797
0.275639 0.796231 0.737102
0.275425 0.796277 0.737255
0.275425 0.796277 0.737255
0.275532 0.796262 0.737179
0.368399 0.816861 0.759533
0.892836 0.945998 0.908598
0.912276 0.953216 0.918059
0.912169 0.953231 0.918196
0.0429084 0.156176 0.460014
0.0443122 0.154589 0.474662
0.0646983 0.147662 0.499062
0.182544 0.10695 0.553597
0.432731 0.121447 0.583108
0.574182 0.13814 0.590982
0.605661 0.147341 0.600656
0.605997 0.14725 0.600443
0.605234 0.147448 0.600931
0.0428168 0.157275 0.445945
0.0429084 0.15613 0.46128
0.0544289 0.150591 0.491768
0.179385 0.106737 0.552895
0.443351 0.12137 0.583612
0.584207 0.14107 0.594278
0.605753 0.147311 0.600595
0.60557 0.147356 0.600717
0.603983 0.147723 0.601923
0.0426947 0.158907 0.435004
0.0427253 0.158511 0.436851
0.0429084 0.156161 0.460883
0.148135 0.137118 0.53254
0.430991 0.121416 0.583108
0.583307 0.141192 0.594812
0.606622 0.147112 0.59997
0.606607 0.147112 0.599985
0.604868 0.147539 0.601205
0.0433204 0.24184 0.489891
0.0432136 0.227466 0.481682
0.0428931 0.187778 0.456031
0.0434424 0.15555 0.470069
0.349355 0.117266 0.57615
0.555444 0.133242 0.586862
0.605936 0.147295 0.600549
0.606363 0.147204 0.600336
0.605417 0.147433 0.600916
0.0623331 0.541741 0.64715
0.0624704 0.543267 0.648997
0.059144 0.533227 0.644297
0.0510567 0.494942 0.628229
0.271366 0.456397 0.739971
0.756176 0.376516 0.85391
0.757549 0.27805 0.747524
0.740154 0.25977 0.729458
0.736568 0.261814 0.731853
0.203037 0.728679 0.71545
0.202579 0.730236 0.716793
0.20061 0.72842 0.716396
0.184237 0.720119 0.713939
0.216709 0.713069 0.721508
0.694118 0.76231 0.862806
0.892271 0.717708 0.909133
0.908766 0.693645 0.909407
0.907912 0.694118 0.909438
0.27921 0.79118 0.731502
0.271504 0.792889 0.736706
0.270848 0.792203 0.736568
0.268315 0.790127 0.735836
0.261204 0.784024 0.734234
0.638712 0.872648 0.842527
0.879942 0.918975 0.905989
0.913542 0.912108 0.901747
0.912261 0.910979 0.903258
0.278645 0.795621 0.735103
0.275547 0.796262 0.737163
0.275425 0.796277 0.737255
0.275425 0.796277 0.737255
0.275425 0.796277 0.737255
0.331472 0.804837 0.748699
0.886961 0.943069 0.908965
0.915007 0.950713 0.913527
0.91545 0.950866 0.912947
0.27602 0.796155 0.736812
0.275624 0.796231 0.737102
0.275425 0.796277 0.737255
0.275425 0.796277 0.737255
0.275425 0.796277 0.737255
0.315236 0.801938 0.74464
0.883833 0.944015 0.908202
0.911849 0.953307 0.918441
0.912108 0.953246 0.918242
