bundles/resolve-cinematic-luts/Phantom Luts/Canon Film LUT/C-Log 2/Eastman Canon CL2.cube
TITLE "Generated by Resolve"
LUT_3D_SIZE 9
0.0390021 0.0390021 0.0390021
0.0488441 0.0390021 0.0390021
0.129793 0.0390021 0.0390021
0.278309 0.0395056 0.0390021
0.417517 0.0436561 0.0466773
0.527306 0.0390021 0.075761
0.5635 0.0422065 0.15172
0.563409 0.0453346 0.177615
0.551553 0.0515602 0.192782
0.042649 0.0431983 0.0403296
0.0493477 0.0398871 0.0390021
0.122301 0.0390021 0.0390021
0.266484 0.0491493 0.0390021
0.410819 0.0572061 0.0440986
0.526406 0.059266 0.0577859
0.556786 0.0391089 0.109941
0.558511 0.0420844 0.140032
0.539834 0.0492866 0.15668
0.0606851 0.134768 0.0588693
0.0609293 0.1308 0.0559396
0.136828 0.132372 0.0576333
0.319585 0.0926528 0.04065
0.432212 0.0896468 0.0416114
0.513191 0.0952926 0.0484779
0.535103 0.0925154 0.0529946
0.536934 0.0892195 0.0540322
0.526482 0.0898756 0.0539712
0.102296 0.364523 0.103456
0.0980087 0.367864 0.103075
0.108568 0.366384 0.103197
0.372198 0.386603 0.0860609
0.601541 0.371328 0.0979324
0.639033 0.215885 0.0793774
0.612696 0.182345 0.0663615
0.600122 0.174166 0.0611124
0.585763 0.17055 0.0573587
0.16408 0.607431 0.178668
0.161883 0.607492 0.181216
0.161563 0.60621 0.179934
0.263813 0.627955 0.17229
0.590616 0.621225 0.123095
0.753597 0.631388 0.156146
0.81355 0.623713 0.171435
0.813916 0.61912 0.170687
0.811521 0.608545 0.169635
0.239719 0.755825 0.264805
0.239109 0.754101 0.268681
0.238727 0.753918 0.270115
0.27744 0.76321 0.262592
0.531594 0.782132 0.214923
0.74931 0.776516 0.216068
0.817334 0.778515 0.233127
0.822736 0.777523 0.231296
0.826749 0.772839 0.225086
0.243076 0.767117 0.281819
0.245747 0.762982 0.269566
0.245472 0.76289 0.271351
0.287282 0.776654 0.26807
0.529137 0.802792 0.232578
0.756832 0.810636 0.235798
0.821073 0.819776 0.300175
0.830854 0.823545 0.331319
0.828641 0.823194 0.328374
0.239704 0.773617 0.30544
0.245594 0.764538 0.267124
0.247868 0.763195 0.25774
0.275792 0.772396 0.256062
0.517479 0.800671 0.223438
0.73431 0.809781 0.220417
0.823865 0.817441 0.28571
0.836927 0.824109 0.342428
0.835966 0.824384 0.343709
0.23563 0.777722 0.338766
0.241978 0.767147 0.287709
0.246799 0.763058 0.263706
0.259739 0.76733 0.259266
0.484337 0.797498 0.23064
0.711437 0.80914 0.212268
0.819791 0.815885 0.276875
0.835431 0.824002 0.340398
0.831327 0.825681 0.350134
0.0390021 0.0390021 0.0390021
0.0446937 0.0390021 0.0390021
0.121675 0.0390021 0.0557565
0.27277 0.0390021 0.0489052
0.408377 0.0390021 0.0531319
0.51632 0.0390021 0.122927
0.551553 0.0500038 0.184497
0.550973 0.0530098 0.205112
0.540002 0.0593729 0.22121
0.0396735 0.0390021 0.042771
0.0464942 0.0390021 0.0432288
0.125078 0.0390021 0.0437629
0.267506 0.0415198 0.0390021
0.407034 0.0472267 0.0459602
0.51545 0.0390021 0.0843671
0.546227 0.0472572 0.154864
0.547799 0.0504158 0.179309
0.538476 0.0554818 0.193545
0.0593576 0.129686 0.0714275
0.0559548 0.127565 0.0602884
0.129747 0.12668 0.058381
0.309392 0.0830091 0.0390021
0.429816 0.0857862 0.0420996
0.505837 0.0898756 0.0492561
0.536721 0.0775006 0.0597391
0.541436 0.0584878 0.0682841
0.535058 0.0466621 0.0757458
0.0995041 0.359594 0.119753
0.0946822 0.360296 0.108385
0.0997177 0.358602 0.101305
0.367269 0.379965 0.0860609
0.601938 0.338491 0.0995041
0.618769 0.196582 0.0711986
0.592416 0.169345 0.0577554
0.579278 0.161059 0.0534829
0.567956 0.159487 0.0523995
0.158816 0.606409 0.199512
0.157961 0.603769 0.1897
0.160708 0.60293 0.177279
0.24419 0.623667 0.172747
0.587106 0.616175 0.12105
0.753994 0.624201 0.153903
0.81297 0.607889 0.168521
0.813046 0.594446 0.167147
0.810224 0.580621 0.166445
0.233646 0.760128 0.290181
0.235798 0.753841 0.275853
0.23714 0.751476 0.268223
0.257939 0.755261 0.26186
0.518212 0.780209 0.216007
0.74493 0.773266 0.21294
0.816449 0.773983 0.230015
0.820478 0.772335 0.230152
0.820752 0.768215 0.228595
0.236622 0.777325 0.329244
0.241856 0.767346 0.288045
0.245502 0.762905 0.271229
0.262623 0.76875 0.269688
0.51429 0.801465 0.234638
0.742382 0.810132 0.230274
0.818952 0.818647 0.292012
0.830442 0.822461 0.324376
0.827695 0.821836 0.32076
0.233249 0.789517 0.384512
0.239246 0.774014 0.309102
0.247883 0.763195 0.257664
0.256199 0.76582 0.257496
0.493919 0.798367 0.227955
0.719646 0.809094 0.214389
0.821851 0.816403 0.279576
0.83682 0.824018 0.341527
0.828199 0.82652 0.354025
0.233463 0.796185 0.409491
0.23653 0.778729 0.331289
0.246784 0.763134 0.2636
0.24976 0.763745 0.259586
0.466682 0.795697 0.233234
0.694636 0.808499 0.208499
0.816739 0.815183 0.271702
0.835294 0.82385 0.338537
0.827314 0.826734 0.355383
0.0390021 0.0390021 0.0677348
0.0428931 0.0390021 0.0821088
0.116777 0.0390021 0.0932174
0.271107 0.0390021 0.102403
0.407187 0.0390021 0.135546
0.519982 0.0425574 0.195651
0.55462 0.0585336 0.242863
0.556313 0.063508 0.267704
0.545464 0.0682994 0.28043
0.0390021 0.0390021 0.067628
0.0390021 0.0390021 0.0762188
0.109972 0.0390021 0.0909743
0.270954 0.0390021 0.0883955
0.410071 0.0390021 0.110201
0.521721 0.0418402 0.176562
0.551415 0.0561379 0.223117
0.55259 0.0604105 0.247944
0.543832 0.0667582 0.263279
0.055024 0.120531 0.101427
0.0525216 0.117968 0.101228
0.136721 0.130495 0.131807
0.33608 0.0751354 0.0824598
0.437919 0.0390021 0.0527657
0.524666 0.0390021 0.100114
0.551751 0.0465095 0.162005
0.554116 0.0495003 0.18468
0.54493 0.0538643 0.196872
0.102495 0.35404 0.174777
0.0966964 0.352789 0.161059
0.0918288 0.344472 0.111818
0.356771 0.368444 0.104112
0.584756 0.267353 0.109972
0.598795 0.176333 0.0770428
0.600427 0.155276 0.0846113
0.596353 0.146441 0.0849012
0.586664 0.139147 0.0847334
0.151995 0.607584 0.265049
0.148913 0.602197 0.246387
0.151522 0.59263 0.191714
0.198291 0.607813 0.171817
0.578378 0.605356 0.118013
0.75613 0.60853 0.149996
0.812619 0.55787 0.164248
0.812543 0.53904 0.163897
0.808408 0.52221 0.164523
0.22298 0.775692 0.376852
0.223087 0.764614 0.346136
0.230106 0.748837 0.279759
0.232792 0.741588 0.259236
0.48777 0.777035 0.221332
0.737819 0.766613 0.206287
0.816114 0.765057 0.225483
0.820844 0.761715 0.224903
0.819928 0.755642 0.22153
0.238911 0.814603 0.456596
0.233463 0.796002 0.406958
0.24097 0.768444 0.295171
0.246052 0.763104 0.271473
0.484504 0.798535 0.241032
0.715373 0.809781 0.221714
0.81442 0.81593 0.278401
0.829374 0.818601 0.30605
0.826703 0.816999 0.297124
0.248371 0.831769 0.506157
0.23769 0.811643 0.454902
0.238346 0.775723 0.316777
0.247669 0.763165 0.258915
0.45658 0.794705 0.234607
0.687343 0.808164 0.207584
0.816449 0.814817 0.269657
0.836545 0.823606 0.338018
0.828367 0.82649 0.353887
0.251575 0.836728 0.520668
0.240681 0.817166 0.471885
0.235798 0.780789 0.340673
0.247425 0.763134 0.260349
0.426902 0.791531 0.239231
0.660822 0.806668 0.207324
0.809934 0.813809 0.262684
0.834531 0.823438 0.332525
0.826734 0.826886 0.356313
0.0390021 0.0390021 0.152407
0.0390021 0.0393835 0.175509
0.101549 0.0390021 0.213779
0.255634 0.0390021 0.208743
0.4056 0.0390021 0.23859
0.530709 0.0561379 0.288121
0.565713 0.0695811 0.325689
0.568032 0.0717784 0.347082
0.559213 0.0756542 0.359396
0.0390021 0.0418708 0.144442
0.0390021 0.0397192 0.164782
0.0786297 0.0406958 0.216571
0.257191 0.0390021 0.211093
0.409552 0.0390021 0.234745
0.533257 0.0578164 0.285298
0.563592 0.0697642 0.319707
0.566278 0.0716411 0.338308
0.558495 0.0756237 0.350164
0.0390021 0.118151 0.185107
0.0390021 0.109087 0.19173
0.0553445 0.0935683 0.241062
0.272831 0.0395209 0.228458
0.411109 0.0390021 0.210986
0.532509 0.0534981 0.260822
0.561868 0.0656291 0.293507
0.565438 0.0679179 0.31014
0.55874 0.0711681 0.319341
0.0882124 0.352728 0.283238
0.0854505 0.352148 0.285374
0.0834821 0.343648 0.279988
0.388479 0.397528 0.389105
0.60853 0.27071 0.328618
0.702937 0.175463 0.327886
0.653391 0.122637 0.309545
0.623743 0.103441 0.293065
0.599283 0.0942397 0.282414
0.16463 0.640894 0.413565
0.162387 0.635218 0.410407
0.155993 0.619638 0.374289
0.161898 0.584207 0.253559
0.566171 0.598276 0.23006
0.781674 0.542489 0.260487
0.83241 0.455604 0.273655
0.828153 0.437476 0.272389
0.819242 0.423117 0.268284
0.238834 0.818067 0.520729
0.234028 0.806989 0.507774
0.221592 0.784588 0.456458
0.216678 0.734676 0.285023
0.437232 0.766323 0.231907
0.726604 0.754269 0.202228
0.814328 0.747845 0.219638
0.819242 0.73991 0.218967
0.818296 0.730571 0.214649
0.271794 0.873533 0.600015
0.267414 0.862852 0.580392
0.251316 0.836271 0.519585
0.238895 0.772244 0.313039
0.372412 0.786755 0.255619
0.65922 0.807874 0.216022
0.806287 0.811154 0.26099
0.82739 0.810056 0.272328
0.824384 0.806912 0.266484
0.278111 0.883452 0.631952
0.273198 0.873213 0.606317
0.25861 0.848051 0.546929
0.235828 0.778622 0.337896
0.304234 0.779553 0.257053
0.607919 0.80557 0.212268
0.803815 0.812329 0.253803
0.835309 0.823285 0.33196
0.828428 0.826505 0.354345
0.27924 0.88455 0.637644
0.274556 0.875242 0.61207
0.261006 0.852033 0.55581
0.234043 0.784604 0.36231
0.269963 0.770703 0.259983
0.576211 0.8047 0.216388
0.78584 0.811414 0.244373
0.829343 0.821561 0.318166
0.827222 0.826795 0.3561
0.0390021 0.0525216 0.264164
0.0390021 0.0516976 0.284016
0.0772106 0.0494392 0.32491
0.262364 0.0390021 0.33727
0.399542 0.0390021 0.340124
0.528023 0.0635996 0.38529
0.565316 0.0802014 0.420981
0.56669 0.0852064 0.441291
0.566888 0.0876326 0.453864
0.0390021 0.0554971 0.258259
0.0390021 0.0543526 0.275746
0.0572061 0.0522774 0.323629
0.259113 0.0390021 0.34667
0.403952 0.0390021 0.344869
0.532891 0.0651408 0.388083
0.566064 0.0798199 0.420691
0.567651 0.0845502 0.439948
0.566659 0.0872358 0.451072
0.0390021 0.0936904 0.276204
0.0390021 0.0816968 0.276371
0.0390021 0.059678 0.299992
0.223896 0.0390021 0.358434
0.404135 0.0390021 0.3449
0.532403 0.0638285 0.380896
0.567529 0.0767681 0.409155
0.567452 0.0800488 0.424338
0.564675 0.0837415 0.432853
0.0738231 0.37734 0.416587
0.07187 0.372473 0.42034
0.0637369 0.347921 0.421103
0.246921 0.318502 0.514702
0.527062 0.181033 0.468574
0.571878 0.0911727 0.39237
0.572442 0.0764782 0.378546
0.568704 0.0750591 0.382208
0.560143 0.0750439 0.382101
0.14699 0.636942 0.527871
0.146563 0.634165 0.527779
0.144625 0.628565 0.523461
0.167025 0.623545 0.524025
0.601022 0.624903 0.6056
0.782742 0.50753 0.540307
0.832685 0.430091 0.523415
0.828809 0.412207 0.529
0.819226 0.395071 0.529183
0.24361 0.838834 0.630671
0.242954 0.832898 0.627115
0.239658 0.824887 0.60943
0.230335 0.802243 0.558404
0.402731 0.768414 0.498299
0.72108 0.77026 0.465705
0.848127 0.72842 0.494148
0.863813 0.702266 0.493446
0.861418 0.685893 0.485939
0.285039 0.906447 0.710216
0.286091 0.902861 0.701595
0.283589 0.896254 0.677333
0.274327 0.87509 0.614649
0.272923 0.82092 0.458564
0.620157 0.830304 0.367788
0.804761 0.833921 0.467033
0.838743 0.825269 0.466011
0.838071 0.81886 0.451514
0.285893 0.909636 0.729381
0.286976 0.906691 0.718517
0.285176 0.900343 0.692561
0.27776 0.881788 0.629709
0.233265 0.786191 0.374212
0.542977 0.810162 0.254108
0.782788 0.821286 0.287709
0.83006 0.833448 0.425605
0.836713 0.842283 0.48542
0.28751 0.909377 0.733516
0.287098 0.906767 0.720409
0.285389 0.900923 0.694774
0.278599 0.883238 0.6336
0.233204 0.787823 0.379385
0.500008 0.803876 0.251972
0.751446 0.817411 0.259373
0.823407 0.83035 0.38732
0.835386 0.842878 0.48806
0.0390021 0.0677958 0.344091
0.0390021 0.0665751 0.36376
0.0710918 0.0609293 0.404425
0.258305 0.0416724 0.443717
0.407843 0.0437171 0.433066
0.528603 0.0763256 0.460716
0.568521 0.0937057 0.491539
0.567926 0.0951247 0.503792
0.568353 0.0967575 0.511955
0.0390021 0.0729381 0.339651
0.0390021 0.0707256 0.353841
0.0514687 0.0645304 0.400153
0.248722 0.0438849 0.451164
0.412207 0.045655 0.440131
0.533913 0.0782025 0.466163
0.569131 0.0935683 0.492943
0.568383 0.0950484 0.504356
0.567819 0.0964675 0.510719
0.0390021 0.10219 0.355535
0.0390021 0.089189 0.350973
0.0390021 0.0723125 0.364446
0.200305 0.0498054 0.455726
0.407889 0.0460365 0.446448
0.53286 0.0781872 0.465568
0.568765 0.0934768 0.48986
0.568139 0.094255 0.498054
0.568185 0.0951858 0.503471
0.0632334 0.365728 0.49749
0.0608835 0.35581 0.497307
0.0532235 0.316869 0.486671
0.140215 0.258015 0.550576
0.462303 0.12604 0.549508
0.530159 0.0804456 0.463416
0.569314 0.0902419 0.4701
0.569635 0.0909438 0.475196
0.568933 0.0916304 0.476524
0.143359 0.642115 0.627253
0.142199 0.639399 0.628779
0.140093 0.63328 0.63183
0.13254 0.61004 0.633936
0.504784 0.579904 0.743755
0.748119 0.454124 0.686458
0.809415 0.359457 0.648005
0.804898 0.340948 0.645975
0.79556 0.325246 0.638712
0.23154 0.825376 0.706172
0.229038 0.820462 0.70251
0.225071 0.813275 0.695994
0.216159 0.798154 0.681956
0.456504 0.8215 0.736263
0.76144 0.790219 0.76434
0.868482 0.724224 0.730343
0.875792 0.675502 0.712871
0.869749 0.652094 0.70489
0.286671 0.912184 0.766934
0.286717 0.909499 0.762798
0.285023 0.905226 0.75256
0.280354 0.897749 0.728878
0.308583 0.899184 0.699062
0.65771 0.867964 0.710414
0.839384 0.877409 0.71426
0.895323 0.861341 0.727596
0.896345 0.85124 0.721599
0.290166 0.915358 0.780133
0.290242 0.914504 0.774716
0.289342 0.913268 0.764141
0.288182 0.910796 0.741726
0.283772 0.896422 0.676341
0.531823 0.867155 0.631724
0.773175 0.885176 0.637034
0.900099 0.927001 0.803357
0.912978 0.930297 0.821118
0.290364 0.915404 0.781826
0.290379 0.914733 0.776104
0.289433 0.913451 0.765896
0.288258 0.910948 0.74284
0.283513 0.895613 0.673838
0.459174 0.862486 0.603693
0.73225 0.873594 0.591165
0.869307 0.904418 0.713252
0.907118 0.927047 0.800748
0.0390021 0.095552 0.404379
0.0390021 0.0937209 0.423194
0.0708934 0.0802777 0.462394
0.253193 0.0647746 0.516533
0.42446 0.0644083 0.510781
0.535454 0.0868086 0.510964
0.56936 0.0997177 0.525139
0.569512 0.0999924 0.526925
0.569589 0.0999619 0.526955
0.0390021 0.103777 0.401709
0.0390021 0.101747 0.413291
0.0502327 0.0895094 0.455009
0.241535 0.0682078 0.519829
0.427054 0.0664073 0.514534
0.539162 0.0887007 0.514336
0.569421 0.0999313 0.526467
0.569436 0.100023 0.526894
0.569451 0.100008 0.526909
0.0390021 0.129793 0.416922
0.0390021 0.11635 0.409369
0.0390021 0.10576 0.418433
0.191424 0.0750439 0.516503
0.418448 0.0670024 0.519722
0.538125 0.0886397 0.515404
0.569421 0.0995499 0.523857
0.569467 0.0998703 0.526162
0.569436 0.100008 0.526833
0.0601968 0.347921 0.538308
0.0571603 0.33257 0.532662
0.0488594 0.286946 0.512093
0.0783093 0.218021 0.536187
0.398062 0.0992142 0.56585
0.521248 0.0849775 0.513008
0.568673 0.0976883 0.515389
0.568872 0.0983749 0.518685
0.569131 0.0988327 0.520165
0.14963 0.651682 0.682185
0.148226 0.647105 0.682658
0.144564 0.635737 0.683314
0.133913 0.603403 0.682322
0.441352 0.558221 0.80119
0.725505 0.418341 0.777325
0.793851 0.330282 0.712795
0.788571 0.311345 0.705806
0.779461 0.293568 0.69691
0.230335 0.821241 0.747189
0.227497 0.815503 0.745235
0.222522 0.807507 0.742885
0.213153 0.790051 0.740001
0.375937 0.802731 0.808438
0.706523 0.764248 0.848463
0.853651 0.685069 0.811215
0.868849 0.626734 0.783047
0.863584 0.603876 0.773907
0.28574 0.906203 0.791409
0.283925 0.902678 0.788952
0.28072 0.898116 0.783948
0.274296 0.88925 0.774701
0.286152 0.88809 0.774243
0.689387 0.899382 0.842893
0.862562 0.889357 0.860746
0.91397 0.866117 0.852186
0.913787 0.850752 0.845151
0.29192 0.916869 0.799512
0.292531 0.916365 0.798413
0.292195 0.916152 0.795117
0.291341 0.91545 0.786313
0.289555 0.913664 0.767407
0.587442 0.955184 0.82678
0.837598 0.931075 0.857542
0.909773 0.938674 0.873716
0.922499 0.938079 0.881666
0.292271 0.916671 0.800732
0.292546 0.916487 0.799252
0.292271 0.916197 0.796094
0.291386 0.915496 0.786725
0.289281 0.913176 0.763348
0.436454 0.954482 0.791272
0.812848 0.932738 0.847761
0.897642 0.94078 0.854612
0.926818 0.953872 0.918746
0.0390021 0.132692 0.447501
0.0390021 0.131487 0.463325
0.0740978 0.117983 0.501396
0.263722 0.0870069 0.553292
0.441672 0.0777295 0.538705
0.545068 0.0924239 0.52462
0.569436 0.100023 0.526894
0.569436 0.100023 0.526894
0.569467 0.100008 0.526909
0.0390021 0.134432 0.440299
0.0390021 0.13254 0.448218
0.054078 0.125078 0.488853
0.252247 0.0886549 0.552468
0.442405 0.0776837 0.538399
0.547326 0.0932174 0.52488
0.569436 0.100023 0.526894
0.569436 0.100023 0.526894
0.569467 0.100008 0.526909
0.0390021 0.148669 0.446235
0.0390021 0.135149 0.436423
0.0390021 0.132433 0.448753
0.199268 0.094667 0.543984
0.430518 0.0775311 0.541421
0.543908 0.0919509 0.524346
0.569451 0.100023 0.526909
0.569436 0.100023 0.526894
0.569436 0.100023 0.526879
0.0598154 0.33518 0.556832
0.0561379 0.318212 0.547738
0.0455482 0.262318 0.515175
0.0454871 0.168673 0.495521
0.368521 0.0884108 0.562478
0.516457 0.0853895 0.525277
0.569512 0.100053 0.526955
0.569528 0.100053 0.526955
0.569528 0.100053 0.526955
0.153506 0.653223 0.710246
0.151034 0.646815 0.709102
0.146777 0.633844 0.707652
0.131807 0.593072 0.695918
0.394568 0.55317 0.808606
0.705287 0.401938 0.811307
0.781888 0.313298 0.734493
0.773312 0.288533 0.7196
0.762432 0.269871 0.708431
0.238941 0.833005 0.770108
0.236408 0.828428 0.768811
0.231922 0.821088 0.766735
0.223362 0.80531 0.763882
0.309285 0.817578 0.813107
0.660563 0.754284 0.874037
0.840238 0.657847 0.853712
0.858961 0.58468 0.813382
0.854826 0.561944 0.806729
0.286152 0.906249 0.798825
0.284489 0.902693 0.797955
0.280903 0.897642 0.795727
0.274815 0.888823 0.791684
0.267521 0.877073 0.788693
0.646586 0.900557 0.883055
0.840772 0.878553 0.898375
0.907042 0.845777 0.886137
0.907897 0.826047 0.878309
0.293004 0.916838 0.803479
0.293126 0.916793 0.803647
0.293126 0.916793 0.803647
0.292531 0.916075 0.802411
0.289799 0.912627 0.79823
0.55935 0.962997 0.878111
0.840284 0.933562 0.899077
0.913054 0.939422 0.909499
0.92491 0.938048 0.909972
0.292927 0.916869 0.803388
0.293126 0.916793 0.803647
0.293126 0.916793 0.803647
0.293004 0.916686 0.802823
0.292439 0.91632 0.797879
0.328939 0.936553 0.813901
0.806058 0.946838 0.89395
0.921248 0.953811 0.919829
0.927459 0.954955 0.924727
0.0390021 0.131868 0.454856
0.0390021 0.130282 0.472709
0.0912947 0.112352 0.508431
0.279072 0.0855421 0.554284
0.450904 0.0781262 0.536965
0.551308 0.0944381 0.52549
0.569436 0.100023 0.526894
0.569436 0.100023 0.526894
0.569451 0.100008 0.526894
0.0390021 0.133455 0.44271
0.0390021 0.131899 0.455406
0.0647288 0.121401 0.496147
0.266941 0.0868391 0.553689
0.450462 0.0780652 0.53698
0.552941 0.0947127 0.525429
0.569436 0.100023 0.526894
0.569436 0.100023 0.526894
0.569451 0.100008 0.526909
0.0390021 0.142275 0.441871
0.0390021 0.135515 0.436881
0.0390021 0.131853 0.455299
0.212833 0.0932937 0.547387
0.436851 0.0775769 0.539773
0.548394 0.0935531 0.524987
0.569436 0.100023 0.526894
0.569451 0.100023 0.526894
0.569436 0.100023 0.526894
0.0556802 0.315007 0.548379
0.0506752 0.289235 0.532631
0.0390021 0.215259 0.487922
0.0390021 0.134981 0.472953
0.366369 0.0817121 0.554543
0.514824 0.0842756 0.523827
0.569497 0.100038 0.52694
0.569512 0.100053 0.52694
0.569528 0.100053 0.526955
0.154742 0.654124 0.718425
0.151507 0.645563 0.715648
0.14435 0.626337 0.708995
0.125002 0.574899 0.689296
0.382574 0.527626 0.802853
0.692927 0.375006 0.800931
0.767437 0.290013 0.722332
0.757076 0.261402 0.703105
0.741207 0.24184 0.687968
0.242908 0.838026 0.77731
0.239277 0.832563 0.775525
0.234272 0.823575 0.773007
0.221836 0.801968 0.766308
0.286244 0.804868 0.804883
0.644739 0.739528 0.873976
0.831571 0.6374 0.854368
0.855344 0.559823 0.812924
0.853025 0.536065 0.809171
0.28751 0.908186 0.800778
0.286381 0.905058 0.800168
0.282628 0.899916 0.798184
0.275242 0.889525 0.794369
0.26424 0.872389 0.788281
0.62034 0.906096 0.889311
0.822522 0.870848 0.904311
0.901976 0.83003 0.891997
0.903456 0.804105 0.882475
0.285145 0.920104 0.794141
0.285283 0.920058 0.794308
0.285283 0.920058 0.794308
0.285161 0.919905 0.794232
0.282673 0.916259 0.793027
0.467262 0.96286 0.867796
0.81912 0.934127 0.904479
0.910338 0.937163 0.919829
0.925231 0.934493 0.918837
0.292836 0.916915 0.803311
0.293126 0.916793 0.803647
0.293126 0.916793 0.803647
0.293126 0.916793 0.803647
0.293126 0.916793 0.803647
0.293126 0.916793 0.803647
0.757519 0.955535 0.903319
0.919387 0.953216 0.924834
0.928923 0.954498 0.923598
