bundles/resolve-cinematic-luts/Phantom Luts/Canon Film LUT/C-Log 2/Eastman Canon CL2.cube
TITLE "Generated by Resolve"
LUT_3D_SIZE 33
0.0390021 0.0390021 0.0390021
0.0390021 0.0390021 0.0390021
0.0390021 0.0390021 0.0390021
0.0403449 0.0390021 0.0390021
0.0488441 0.0390021 0.0390021
0.0630503 0.0390021 0.0390021
0.0829633 0.0390021 0.0390021
0.105013 0.0390021 0.0390021
0.129793 0.0390021 0.0390021
0.162097 0.0390021 0.0390021
0.200198 0.0390021 0.0390021
0.239933 0.0390021 0.0390021
0.278309 0.0395056 0.0390021
0.315801 0.0398718 0.041001
0.35172 0.0396124 0.0428473
0.385443 0.0413367 0.0448615
0.417517 0.0436561 0.0466773
0.448859 0.0451514 0.0492103
0.477928 0.0439918 0.0529335
0.504494 0.0390021 0.0583047
0.527306 0.0390021 0.075761
0.547005 0.0390021 0.105898
0.560464 0.0398413 0.133135
0.562783 0.0413214 0.143374
0.5635 0.0422065 0.15172
0.563378 0.0424048 0.158572
0.563821 0.0432746 0.16556
0.563958 0.0442817 0.171771
0.563409 0.0453346 0.177615
0.560845 0.0469368 0.182925
0.557412 0.0487373 0.186542
0.55314 0.0505989 0.190341
0.551553 0.0515602 0.192782
0.0390021 0.0390021 0.0390021
0.0390021 0.0390021 0.0390021
0.0390021 0.0390021 0.0390021
0.0390021 0.0390021 0.0390021
0.0449378 0.0390021 0.0390021
0.0568246 0.0390021 0.0390021
0.0756085 0.0390021 0.0390021
0.0984817 0.0390021 0.0390021
0.1243 0.0390021 0.0390021
0.157763 0.0390021 0.0390021
0.196445 0.0390021 0.0390021
0.236606 0.0397498 0.0390021
0.275288 0.0426337 0.0390021
0.313741 0.0433356 0.0400854
0.350317 0.0429236 0.0420233
0.3841 0.0436713 0.0442054
0.417258 0.0465705 0.0464637
0.448661 0.0489509 0.0487678
0.477546 0.0484321 0.0520333
0.504112 0.0429999 0.0568551
0.527062 0.0390021 0.0692302
0.545769 0.0390021 0.0976272
0.559823 0.0396429 0.127062
0.561288 0.0408637 0.136706
0.56202 0.0417792 0.145266
0.5626 0.0424811 0.15317
0.562524 0.04271 0.159396
0.5626 0.0436866 0.165805
0.562371 0.0446937 0.171466
0.560006 0.0462348 0.176959
0.55671 0.0479744 0.181338
0.552697 0.0497902 0.184863
0.55108 0.0508278 0.18761
0.0390021 0.0390021 0.0390021
0.0390021 0.0390021 0.0390021
0.0390021 0.0390021 0.0390021
0.0401312 0.0390021 0.0390021
0.0455329 0.0390021 0.0390021
0.0563058 0.0390021 0.0390021
0.074464 0.0390021 0.0390021
0.095201 0.0390021 0.0390021
0.11931 0.0390021 0.0390021
0.15201 0.0390021 0.0390021
0.191867 0.0390021 0.0390021
0.232502 0.0414893 0.0390021
0.272221 0.0450904 0.0390021
0.311788 0.0467384 0.0394293
0.349462 0.0461585 0.0414282
0.384085 0.0469825 0.0438239
0.417105 0.0504921 0.0457771
0.448798 0.053193 0.0482643
0.477623 0.0536355 0.0512398
0.504128 0.0496681 0.0555276
0.527153 0.0390021 0.0636301
0.544976 0.0390021 0.0888685
0.559091 0.0394903 0.120134
0.559731 0.0404364 0.128893
0.560296 0.0411841 0.137041
0.560998 0.0420386 0.144991
0.561593 0.042771 0.152346
0.56112 0.0430457 0.157961
0.560891 0.0439307 0.163714
0.558892 0.0453346 0.169665
0.555764 0.0470588 0.174243
0.548867 0.0497292 0.177722
0.542092 0.0523232 0.180529
0.0390021 0.0390021 0.0390021
0.0390021 0.0390021 0.0390021
0.0390021 0.0390021 0.0390021
0.0413062 0.0390021 0.0390021
0.0486305 0.0390021 0.0390021
0.0589456 0.0390021 0.0390021
0.0756847 0.0390021 0.0390021
0.095613 0.0390021 0.0390021
0.120409 0.0390021 0.0390021
0.151171 0.0390021 0.0390021
0.186694 0.0390021 0.0390021
0.228214 0.0428321 0.0390021
0.268162 0.047013 0.0390021
0.307729 0.0496681 0.0390021
0.345022 0.0499733 0.0406043
0.381918 0.0506905 0.0430915
0.415854 0.0537575 0.0451514
0.447517 0.0575723 0.0470436
0.476921 0.0596933 0.0497902
0.503777 0.0580911 0.0537423
0.527092 0.0467842 0.0609445
0.54461 0.0390021 0.0767071
0.557549 0.0390021 0.108171
0.558114 0.0395514 0.11754
0.558724 0.0404364 0.126543
0.559289 0.0411383 0.134234
0.559853 0.0419013 0.141665
0.560265 0.0427253 0.148409
0.560006 0.0432441 0.15436
0.55787 0.0440681 0.159152
0.554711 0.0457923 0.163622
0.547936 0.0483558 0.1682
0.541146 0.0509651 0.170672
0.042649 0.0431983 0.0403296
0.0416724 0.0427405 0.0396887
0.0417487 0.041413 0.0393378
0.0435035 0.0404212 0.0393072
0.0493477 0.0398871 0.0390021
0.0626688 0.0419623 0.0394598
0.0797436 0.0390021 0.0398413
0.0992294 0.0390021 0.0395361
0.122301 0.0390021 0.0390021
0.152285 0.0401617 0.0390021
0.192844 0.0416571 0.0390021
0.228931 0.0444495 0.0390021
0.266484 0.0491493 0.0390021
0.304814 0.0522621 0.0390021
0.341878 0.0540475 0.0395514
0.376043 0.0542458 0.0419471
0.410819 0.0572061 0.0440986
0.444007 0.0618143 0.0462501
0.474296 0.0652171 0.048661
0.501945 0.0663005 0.0520485
0.526406 0.059266 0.0577859
0.544503 0.0438697 0.070222
0.555489 0.0390021 0.090837
0.556435 0.0390021 0.101061
0.556786 0.0391089 0.109941
0.557458 0.0398718 0.118441
0.558145 0.04065 0.126696
0.558419 0.0413672 0.133867
0.558511 0.0420844 0.140032
0.557046 0.0433051 0.145357
0.55407 0.0449073 0.150423
0.546777 0.0470893 0.154376
0.539834 0.0492866 0.15668
0.0483864 0.0630808 0.0469825
0.0471809 0.0625925 0.0459449
0.0469978 0.0610819 0.045182
0.0483711 0.0596323 0.0452125
0.05243 0.059678 0.0458381
0.0638437 0.0593423 0.0450599
0.0841382 0.0616007 0.045594
0.105486 0.0566262 0.0462043
0.129305 0.0502174 0.0437324
0.156909 0.0474708 0.0390021
0.19443 0.048249 0.0390021
0.234714 0.0504158 0.0390021
0.274357 0.0531472 0.0390021
0.308324 0.0552987 0.0390021
0.342275 0.057557 0.0390784
0.373083 0.058381 0.0410163
0.404517 0.0614786 0.0431373
0.437812 0.0658579 0.045243
0.468254 0.0704814 0.0469978
0.496605 0.0738231 0.0498665
0.522972 0.0725109 0.0543526
0.541375 0.0598459 0.0629587
0.551629 0.048249 0.0729381
0.552728 0.041062 0.0763409
0.553887 0.0390021 0.0850843
0.55491 0.0390021 0.0948653
0.55552 0.0392004 0.103639
0.555795 0.0395972 0.111238
0.556313 0.0402686 0.117998
0.555291 0.0413519 0.124208
0.552209 0.0427863 0.129198
0.545388 0.045304 0.13373
0.538506 0.0476844 0.136522
0.052369 0.0843519 0.0521553
0.0514229 0.083711 0.0512703
0.0547036 0.082063 0.0497749
0.0557565 0.0806744 0.0495766
0.0585184 0.0802014 0.0499428
0.0660105 0.0802167 0.0504768
0.0866255 0.0788281 0.0487678
0.108949 0.0789807 0.0472877
0.137392 0.0742351 0.0482338
0.171176 0.064271 0.044419
0.20737 0.0577249 0.0390021
0.245121 0.0559701 0.0390021
0.281804 0.0590677 0.0390021
0.322438 0.0611582 0.0390021
0.354147 0.0630503 0.0390936
0.382925 0.0638132 0.041062
0.407614 0.0651713 0.0429694
0.434012 0.0687572 0.0443885
0.463981 0.0746166 0.0458534
0.490059 0.0798352 0.0480049
0.517327 0.083299 0.0510567
0.53814 0.0777295 0.0564431
0.546548 0.0712291 0.0617075
0.548089 0.065095 0.0649271
0.549294 0.0588998 0.067689
0.550607 0.0530404 0.0709392
0.550973 0.0464942 0.0738384
0.552224 0.0401923 0.0771344
0.553124 0.0390021 0.0843671
0.552895 0.0392004 0.0913405
0.551324 0.040116 0.0972
0.547341 0.0416266 0.10193
0.542321 0.043122 0.105715
0.0576791 0.104814 0.0547951
0.0567178 0.104295 0.0536965
0.0565194 0.10367 0.052491
0.0576638 0.102296 0.0522011
0.0597391 0.101488 0.0521553
0.0655528 0.101778 0.0526741
0.0778821 0.102678 0.054551
0.108217 0.101045 0.0517891
0.138186 0.100191 0.0515297
0.179706 0.0959793 0.0520638
0.223087 0.0831006 0.0465705
0.262531 0.0715953 0.0390021
0.294026 0.0659495 0.0390021
0.328038 0.0684977 0.0390021
0.361959 0.072694 0.0390021
0.395224 0.074342 0.0404822
0.423377 0.0767071 0.042359
0.446082 0.0776532 0.044007
0.463172 0.0783703 0.0455787
0.48452 0.0830396 0.0467842
0.508309 0.0885634 0.049073
0.530861 0.089662 0.0523842
0.538628 0.0875563 0.0542153
0.540093 0.0850233 0.055436
0.540902 0.0818799 0.0565957
0.542046 0.0794995 0.0577707
0.543664 0.0759899 0.060029
0.545052 0.0713512 0.0617838
0.545876 0.0673991 0.0637369
0.546593 0.0647593 0.0659648
0.545373 0.0617227 0.0671092
0.54139 0.0594186 0.0681926
0.537011 0.0580758 0.0697185
0.0606851 0.134768 0.0588693
0.0599832 0.134279 0.0575418
0.0596323 0.133562 0.0563058
0.0596933 0.132128 0.0558785
0.0609293 0.1308 0.0559396
0.0650187 0.130709 0.0565194
0.0744182 0.132555 0.0577401
0.096025 0.133928 0.0602274
0.136828 0.132372 0.0576333
0.179522 0.129366 0.0571603
0.233799 0.129625 0.0579843
0.283818 0.110964 0.0530404
0.319585 0.0926528 0.04065
0.346944 0.0847486 0.0390021
0.374197 0.0818036 0.0390021
0.401846 0.0849622 0.040116
0.432212 0.0896468 0.0416114
0.457893 0.0924697 0.0430457
0.483223 0.0949569 0.0451209
0.498894 0.0953231 0.0463111
0.513191 0.0952926 0.0484779
0.527718 0.0954452 0.0506905
0.533104 0.0931716 0.0524453
0.535256 0.0925307 0.0529793
0.535103 0.0925154 0.0529946
0.535409 0.0917983 0.0533303
0.535622 0.0914015 0.0534981
0.536492 0.0900435 0.0538033
0.536934 0.0892195 0.0540322
0.535714 0.0898756 0.0538186
0.534615 0.0895247 0.0538643
0.530953 0.0896773 0.0539101
0.526482 0.0898756 0.0539712
0.0627756 0.175402 0.0620279
0.0604562 0.174929 0.0608377
0.0588235 0.174594 0.0599222
0.0584726 0.173953 0.059678
0.0589456 0.171542 0.0592508
0.061799 0.16965 0.059144
0.0690013 0.171908 0.0601663
0.0853437 0.176303 0.0631113
0.116579 0.178698 0.0674449
0.175998 0.1785 0.0637369
0.235676 0.175631 0.0645304
0.296162 0.182422 0.0678416
0.349798 0.154513 0.0668345
0.383673 0.128328 0.05037
0.40354 0.112856 0.0413214
0.422507 0.1028 0.0409247
0.443122 0.10222 0.0412146
0.463767 0.104967 0.0420081
0.482612 0.108461 0.0430762
0.508354 0.111986 0.0449378
0.527077 0.113405 0.0464637
0.540398 0.110643 0.049546
0.541588 0.10486 0.0514687
0.542245 0.101869 0.052903
0.541192 0.101823 0.05243
0.541192 0.101213 0.0525826
0.540841 0.0985428 0.0535439
0.539834 0.097322 0.0534524
0.537697 0.0957046 0.053315
0.533257 0.094667 0.0523079
0.532158 0.0945296 0.0523079
0.528283 0.0953231 0.0520638
0.523888 0.096376 0.0516976
0.0719921 0.22948 0.0719615
0.069337 0.229175 0.0711376
0.0674144 0.229679 0.0704814
0.0665293 0.229725 0.070573
0.0661631 0.22884 0.0706035
0.0661479 0.226123 0.06981
0.0696117 0.225528 0.0700084
0.0816968 0.230274 0.0720684
0.108248 0.238285 0.0768139
0.152224 0.241642 0.0827344
0.236851 0.243748 0.0757458
0.305669 0.241856 0.0764019
0.368307 0.25098 0.0784924
0.422339 0.226017 0.0813458
0.458885 0.190249 0.0712291
0.475563 0.158648 0.0565957
0.480705 0.136278 0.0447547
0.490837 0.129549 0.0422827
0.503517 0.127565 0.0424201
0.511742 0.125963 0.0428931
0.525383 0.128328 0.0441444
0.537026 0.126543 0.0453956
0.550591 0.124743 0.0493935
0.551659 0.123156 0.0497139
0.551431 0.121889 0.0500038
0.550057 0.120729 0.0500496
0.550301 0.118639 0.0506752
0.550286 0.116808 0.0515145
0.549142 0.11519 0.0515145
0.547402 0.114137 0.0511177
0.546426 0.113344 0.0512856
0.543709 0.114107 0.0513619
0.539773 0.114946 0.051194
0.0879377 0.295933 0.088426
0.0852216 0.296391 0.088014
0.0827649 0.297093 0.08748
0.0819409 0.297795 0.0877699
0.0817121 0.298741 0.0881361
0.0812695 0.29662 0.0876326
0.0814527 0.294377 0.0872358
0.0875563 0.295445 0.0876936
0.106355 0.303151 0.0910201
0.142519 0.311757 0.0961166
0.202853 0.314031 0.0982986
0.304936 0.316014 0.0840467
0.379705 0.314763 0.0840467
0.439597 0.323125 0.0847791
0.490837 0.305516 0.088716
0.536156 0.273289 0.0937667
0.55613 0.227573 0.0776379
0.563302 0.194797 0.0665751
0.567208 0.177951 0.0600137
0.558831 0.160159 0.0514992
0.559503 0.155047 0.0496223
0.557748 0.149447 0.047776
0.552224 0.143618 0.0463417
0.552636 0.142519 0.0472572
0.552392 0.142031 0.0474098
0.557778 0.143908 0.0502785
0.557992 0.142657 0.0505837
0.557 0.140719 0.0501717
0.557076 0.139956 0.0502785
0.555474 0.138842 0.0498512
0.552605 0.137438 0.0492256
0.548699 0.137224 0.0485389
0.542794 0.137499 0.0476081
0.102296 0.364523 0.103456
0.0995804 0.36495 0.103761
0.0971847 0.366049 0.103716
0.0961776 0.366995 0.103731
0.0980087 0.367864 0.103075
0.0982223 0.368872 0.103288
0.0974899 0.365316 0.102632
0.0984665 0.363714 0.102174
0.108568 0.366384 0.103197
0.134661 0.377157 0.106401
0.180606 0.383841 0.109911
0.267033 0.384939 0.102419
0.372198 0.386603 0.0860609
0.448371 0.38352 0.085832
0.501579 0.388602 0.086305
0.550286 0.382742 0.089662
0.601541 0.371328 0.0979324
0.637095 0.315663 0.106737
0.651789 0.28069 0.0936904
0.65745 0.252522 0.0876326
0.639033 0.215885 0.0793774
0.629725 0.199939 0.0742199
0.620752 0.188556 0.0695964
0.617563 0.185977 0.0684977
0.612696 0.182345 0.0663615
0.609339 0.180133 0.0646677
0.606622 0.178744 0.0635996
0.602701 0.176333 0.0621958
0.600122 0.174166 0.0611124
0.597681 0.172793 0.0604105
0.595651 0.171557 0.0595407
0.591363 0.170626 0.0582895
0.585763 0.17055 0.0573587
0.114321 0.430838 0.117494
0.112215 0.430991 0.117922
0.111009 0.431785 0.118334
0.110765 0.432776 0.117968
0.110842 0.434592 0.118105
0.111177 0.435904 0.118273
0.111162 0.43566 0.118166
0.110063 0.431128 0.117052
0.113176 0.43093 0.116838
0.13193 0.436957 0.117784
0.167666 0.448615 0.119738
0.228458 0.451591 0.118029
0.32987 0.448875 0.098436
0.432563 0.44976 0.0878004
0.506996 0.446204 0.0915999
0.555062 0.45124 0.0940414
0.599008 0.454673 0.0989395
0.647852 0.459892 0.107271
0.690257 0.416846 0.118547
0.718166 0.374472 0.12845
0.732448 0.341543 0.120516
0.732555 0.312001 0.111498
0.725567 0.288228 0.1066
0.70396 0.258198 0.100877
0.696513 0.249149 0.0991073
0.69514 0.246799 0.0988327
0.696391 0.248798 0.0992599
0.697978 0.250263 0.0997787
0.697612 0.250019 0.0997482
0.697047 0.2495 0.0995956
0.696117 0.248569 0.0991989
0.693095 0.24773 0.0989853
0.688075 0.247944 0.0986038
0.125902 0.493355 0.132418
0.124376 0.493278 0.133043
0.123186 0.494011 0.133852
0.12314 0.495369 0.133043
0.123186 0.496406 0.132967
0.123491 0.49723 0.133089
0.123598 0.497353 0.133089
0.123262 0.495903 0.132753
0.12314 0.494118 0.132235
0.131197 0.494606 0.131502
0.161471 0.505257 0.13254
0.209506 0.513069 0.132723
0.291234 0.511452 0.1234
0.39585 0.508186 0.100053
0.488807 0.509407 0.0950332
0.560815 0.506432 0.101839
0.606821 0.511772 0.106508
0.64538 0.51696 0.111666
0.688746 0.523735 0.12018
0.726879 0.501762 0.129747
0.75581 0.480873 0.139315
0.774487 0.445518 0.147784
0.783185 0.409583 0.153292
0.784543 0.381323 0.145037
0.784115 0.378012 0.144274
0.783856 0.37821 0.144167
0.782315 0.375891 0.142535
0.781079 0.373648 0.141527
0.779599 0.371374 0.140169
0.77821 0.368307 0.138628
0.776638 0.365179 0.137331
0.773877 0.362707 0.136477
0.768994 0.360739 0.135607
0.143313 0.551904 0.153338
0.142031 0.551736 0.154437
0.141009 0.552331 0.155764
0.140688 0.552895 0.156039
0.140475 0.553414 0.156146
0.140658 0.554208 0.156374
0.141299 0.555032 0.156222
0.141482 0.554162 0.154879
0.141176 0.551629 0.15314
0.144854 0.552499 0.152834
0.1617 0.555138 0.151522
0.205798 0.568811 0.153063
0.267063 0.571359 0.147204
0.358221 0.568933 0.128206
0.460792 0.564782 0.105272
0.541466 0.566339 0.106508
0.610239 0.564004 0.115862
0.654185 0.567666 0.122545
0.689235 0.572992 0.128511
0.724712 0.578271 0.136065
0.753964 0.572747 0.142565
0.777981 0.574182 0.150469
0.79472 0.547692 0.15639
0.806607 0.52076 0.160891
0.809171 0.508995 0.162692
0.809461 0.504906 0.16289
0.809445 0.5028 0.163012
0.809705 0.500603 0.1635
0.809659 0.497871 0.163622
0.809232 0.495674 0.163195
0.809171 0.492515 0.16318
0.808026 0.489769 0.163561
0.804974 0.487251 0.163882
0.16408 0.607431 0.178668
0.16321 0.607095 0.179477
0.162325 0.60705 0.181018
0.161975 0.607141 0.18117
0.161883 0.607492 0.181216
0.161944 0.608148 0.181796
0.162097 0.608942 0.182544
0.162417 0.609277 0.182254
0.161563 0.60621 0.179934
0.162997 0.604608 0.177707
0.173938 0.608209 0.176272
0.206806 0.616495 0.173938
0.263813 0.627955 0.17229
0.333745 0.62739 0.160266
0.423667 0.62359 0.135668
0.51751 0.618967 0.115572
0.590616 0.621225 0.123095
0.656214 0.619471 0.133913
0.698299 0.622583 0.142428
0.727398 0.627176 0.149248
0.753597 0.631388 0.156146
0.77528 0.634852 0.1617
0.794049 0.6383 0.167361
0.80676 0.62359 0.168627
0.81355 0.623713 0.171435
0.814191 0.62211 0.171572
0.814115 0.622095 0.171527
0.814023 0.621118 0.171252
0.813916 0.61912 0.170687
0.813931 0.616373 0.170184
0.813611 0.613428 0.16936
0.812512 0.61062 0.168978
0.811521 0.608545 0.169635
0.186419 0.659785 0.205203
0.185992 0.658946 0.205905
0.18558 0.65864 0.207538
0.185397 0.658564 0.208011
0.185397 0.658824 0.208408
0.185412 0.659312 0.208957
0.185473 0.65977 0.209445
0.185657 0.660273 0.209644
0.185153 0.658717 0.208881
0.18349 0.65568 0.206012
0.189975 0.657572 0.204669
0.214542 0.664851 0.201801
0.267308 0.675288 0.197757
0.333257 0.683711 0.19118
0.399619 0.679164 0.173709
0.488029 0.673579 0.148775
0.571191 0.67039 0.133806
0.636667 0.673533 0.144671
0.697047 0.671519 0.156237
0.734981 0.673884 0.165866
0.760174 0.678157 0.173327
0.778637 0.680797 0.178775
0.792065 0.683131 0.182971
0.804852 0.684871 0.187121
0.812802 0.685557 0.189273
0.815366 0.685634 0.189914
0.815564 0.685283 0.189746
0.815641 0.682811 0.188907
0.815656 0.681727 0.188418
0.815869 0.679393 0.187701
0.815869 0.676585 0.186587
0.815518 0.674952 0.186069
0.814786 0.67393 0.186084
0.20856 0.702968 0.229419
0.207935 0.701991 0.229618
0.207385 0.701503 0.231296
0.207263 0.701274 0.231968
0.207233 0.701488 0.233204
0.207202 0.701823 0.234028
0.207202 0.702083 0.234653
0.207248 0.702174 0.234699
0.207065 0.701793 0.234455
0.205249 0.698116 0.232212
0.206882 0.698497 0.231632
0.223819 0.703197 0.228367
0.265339 0.71339 0.223514
0.338552 0.72253 0.214969
0.401083 0.727932 0.205951
0.468681 0.722774 0.183734
0.553414 0.715785 0.163912
0.622217 0.713954 0.157763
0.681529 0.717968 0.169848
0.730388 0.71722 0.181064
0.764309 0.718441 0.190372
0.786496 0.72108 0.196918
0.797696 0.72224 0.200076
0.806149 0.723751 0.203479
0.814038 0.723842 0.205509
0.816449 0.724025 0.206409
0.817517 0.723552 0.206439
0.817227 0.722667 0.205737
0.817029 0.72195 0.205142
0.81709 0.721004 0.20473
0.817227 0.719997 0.204486
0.817197 0.718593 0.204044
0.817029 0.71722 0.203418
0.226917 0.735485 0.250141
0.226902 0.734615 0.24976
0.226734 0.734234 0.251484
0.226352 0.733928 0.253117
0.225986 0.733822 0.254337
0.225986 0.733989 0.255558
0.225956 0.734066 0.256092
0.226078 0.734188 0.256199
0.225803 0.733883 0.25594
0.224399 0.731273 0.254063
0.223148 0.728328 0.25214
0.234073 0.733242 0.251011
0.271275 0.742489 0.245579
0.345037 0.752056 0.23595
0.410224 0.759182 0.227329
0.468956 0.76022 0.212787
0.534554 0.755169 0.193484
0.613993 0.748348 0.178744
0.671 0.74815 0.186236
0.719326 0.752392 0.194705
0.756817 0.751476 0.203021
0.78407 0.752255 0.210758
0.802045 0.75407 0.216754
0.810895 0.755947 0.219821
0.815717 0.756558 0.22092
0.819059 0.755886 0.221302
0.820233 0.755322 0.221225
0.820264 0.754604 0.22092
0.820172 0.753765 0.220661
0.820172 0.753033 0.220417
0.81973 0.752132 0.219776
0.819303 0.75079 0.219104
0.819242 0.749493 0.218677
0.239719 0.755825 0.264805
0.239887 0.755047 0.264134
0.23975 0.754482 0.265003
0.239429 0.754177 0.266789
0.239109 0.754101 0.268681
0.238956 0.754116 0.26978
0.238956 0.754269 0.270344
0.238895 0.754162 0.270268
0.238727 0.753918 0.270115
0.237522 0.752132 0.268635
0.235615 0.749462 0.266941
0.245136 0.753262 0.266499
0.27744 0.76321 0.262592
0.351858 0.77145 0.250843
0.41883 0.779522 0.242405
0.474403 0.783093 0.23093
0.531594 0.782132 0.214923
0.59939 0.777417 0.201953
0.663401 0.773022 0.197848
0.714458 0.77409 0.209476
0.74931 0.776516 0.216068
0.778698 0.77586 0.222553
0.799588 0.776333 0.228229
0.811139 0.777478 0.230976
0.817334 0.778515 0.233127
0.819944 0.778851 0.23389
0.820676 0.778668 0.23389
0.821393 0.778317 0.233005
0.822736 0.777523 0.231296
0.824948 0.776287 0.229252
0.826261 0.774868 0.226963
0.826703 0.773739 0.225483
0.826749 0.772839 0.225086
0.246113 0.764172 0.264225
0.246464 0.763653 0.263615
0.246586 0.763165 0.264576
0.24622 0.762997 0.266896
0.245792 0.762951 0.269291
0.245609 0.762921 0.270512
0.245518 0.762905 0.271107
0.245502 0.762905 0.271199
0.245487 0.762875 0.27126
0.245396 0.762783 0.27126
0.244587 0.761196 0.270039
0.250828 0.763577 0.269474
0.283482 0.77377 0.266346
0.355947 0.782666 0.256123
0.428351 0.789929 0.245853
0.483711 0.795712 0.23563
0.536278 0.796811 0.221775
0.596948 0.795438 0.211261
0.659541 0.793194 0.206622
0.711376 0.790463 0.216678
0.75172 0.791455 0.224781
0.77705 0.79321 0.23035
0.800198 0.79237 0.235309
0.814542 0.792523 0.238804
0.822721 0.793256 0.241474
0.826444 0.793896 0.243229
0.826658 0.793957 0.243427
0.826886 0.793484 0.242832
0.827222 0.792798 0.242084
0.827482 0.79202 0.240589
0.827527 0.791318 0.239338
0.827588 0.790524 0.238468
0.827558 0.789593 0.23801
0.245884 0.76405 0.265538
0.246342 0.763577 0.264637
0.246509 0.763134 0.265049
0.246174 0.762997 0.26714
0.245792 0.762951 0.269306
0.245609 0.762921 0.270527
0.245518 0.762905 0.271107
0.245502 0.762905 0.271199
0.245487 0.762905 0.27129
0.245472 0.76289 0.271366
0.246113 0.763119 0.271214
0.253407 0.765484 0.270466
0.285374 0.776043 0.268116
0.360998 0.785718 0.257969
0.431601 0.792721 0.248554
0.490028 0.799039 0.238819
0.540948 0.803479 0.228031
0.594995 0.804791 0.219379
0.657084 0.804318 0.215351
0.707118 0.805173 0.223819
0.75108 0.803662 0.23534
0.777264 0.804364 0.243015
0.795956 0.805936 0.250202
0.812345 0.805615 0.254444
0.822675 0.806287 0.259663
0.82884 0.80676 0.262043
0.829648 0.807065 0.263828
0.829709 0.806851 0.263279
0.829755 0.806348 0.261845
0.829908 0.805829 0.260563
0.829908 0.805112 0.258778
0.829725 0.804318 0.257221
0.829313 0.803586 0.255451
0.244846 0.765377 0.272709
0.245258 0.764355 0.269261
0.245686 0.763607 0.268086
0.24593 0.763165 0.268055
0.245792 0.762951 0.269352
0.245609 0.762921 0.270527
0.245518 0.762905 0.271107
0.245502 0.762905 0.271214
0.245487 0.762905 0.271305
0.245472 0.762905 0.271382
0.245457 0.76289 0.271473
0.254505 0.765942 0.27039
0.287678 0.776745 0.267964
0.363058 0.786007 0.257847
0.430488 0.792645 0.249256
0.481346 0.798184 0.241581
0.529961 0.802792 0.231617
0.581857 0.805249 0.222995
0.651484 0.806622 0.215091
0.704707 0.808759 0.219226
0.75967 0.807996 0.233768
0.783413 0.809293 0.245991
0.800473 0.811414 0.257374
0.811795 0.814237 0.270481
0.821546 0.815381 0.280369
0.82858 0.816999 0.290639
0.830503 0.817899 0.297948
0.830594 0.818143 0.299382
0.82977 0.818082 0.298894
0.828702 0.81799 0.298039
0.828702 0.817716 0.29604
0.829557 0.817075 0.292393
0.830808 0.816144 0.288441
0.243076 0.767117 0.281819
0.244404 0.765621 0.276036
0.244755 0.764309 0.27187
0.245533 0.763424 0.269551
0.245747 0.762982 0.269566
0.245609 0.762921 0.270542
0.245518 0.762905 0.271092
0.245518 0.762905 0.271153
0.245472 0.76289 0.271351
0.245472 0.762905 0.271412
0.245457 0.76289 0.271489
0.253361 0.765469 0.270497
0.287282 0.776654 0.26807
0.361105 0.785733 0.257984
0.42771 0.792432 0.249821
0.481468 0.798245 0.24181
0.529137 0.802792 0.232578
0.580896 0.805646 0.224765
0.648814 0.807019 0.217243
0.70161 0.810147 0.220142
0.756832 0.810636 0.235798
0.786618 0.81207 0.251804
0.80351 0.814145 0.265248
0.814603 0.816175 0.279271
0.821073 0.819776 0.300175
0.827649 0.820966 0.314305
0.831159 0.822568 0.325078
0.831571 0.823468 0.330922
0.830854 0.823545 0.331319
0.829648 0.823651 0.331441
0.828809 0.823758 0.331762
0.828367 0.823621 0.330739
0.828641 0.823194 0.328374
0.241001 0.768719 0.29514
0.242252 0.767132 0.286061
0.243931 0.765438 0.278294
0.244678 0.763928 0.272587
0.245518 0.763149 0.270481
0.245609 0.762921 0.270588
0.245518 0.762905 0.271138
0.245502 0.762905 0.271214
0.245487 0.76289 0.271321
0.245472 0.762905 0.271397
0.245457 0.76289 0.271504
0.253483 0.765515 0.270481
0.284245 0.775723 0.268193
0.356207 0.785092 0.258442
0.423682 0.792203 0.250538
0.47718 0.797864 0.242527
0.530617 0.802976 0.232547
0.582666 0.805753 0.225132
0.647959 0.807126 0.218296
0.699687 0.810239 0.221653
0.750576 0.811704 0.237736
0.78436 0.813153 0.254688
0.803738 0.815167 0.26978
0.815122 0.817426 0.284977
0.821149 0.820401 0.306493
0.826886 0.82324 0.327367
0.831556 0.824521 0.338979
0.831693 0.825177 0.346395
0.831083 0.825742 0.350469
0.83006 0.826017 0.351904
0.829313 0.826215 0.352682
0.828916 0.826337 0.353002
0.828916 0.826337 0.352972
0.239902 0.770626 0.304616
0.240925 0.768536 0.295583
0.24242 0.766766 0.286168
0.243839 0.764721 0.277485
0.245045 0.763394 0.272221
0.245563 0.762936 0.270787
0.245502 0.762905 0.271183
0.245502 0.762905 0.27126
0.245472 0.76289 0.271351
0.245457 0.762905 0.271427
0.245457 0.762905 0.271519
0.252247 0.765209 0.270756
