bundles/resolve-cinematic-luts/Phantom Luts/Canon Film LUT/C-Log 2/Eastman Canon CL2.cube
TITLE "Generated by Resolve"
LUT_3D_SIZE 5
0.0390021 0.0390021 0.0390021
0.129793 0.0390021 0.0390021
0.417517 0.0436561 0.0466773
0.5635 0.0422065 0.15172
0.551553 0.0515602 0.192782
0.0606851 0.134768 0.0588693
0.136828 0.132372 0.0576333
0.432212 0.0896468 0.0416114
0.535103 0.0925154 0.0529946
0.526482 0.0898756 0.0539712
0.16408 0.607431 0.178668
0.161563 0.60621 0.179934
0.590616 0.621225 0.123095
0.81355 0.623713 0.171435
0.811521 0.608545 0.169635
0.243076 0.767117 0.281819
0.245472 0.76289 0.271351
0.529137 0.802792 0.232578
0.821073 0.819776 0.300175
0.828641 0.823194 0.328374
0.23563 0.777722 0.338766
0.246799 0.763058 0.263706
0.484337 0.797498 0.23064
0.819791 0.815885 0.276875
0.831327 0.825681 0.350134
0.0390021 0.0390021 0.0677348
0.116777 0.0390021 0.0932174
0.407187 0.0390021 0.135546
0.55462 0.0585336 0.242863
0.545464 0.0682994 0.28043
0.055024 0.120531 0.101427
0.136721 0.130495 0.131807
0.437919 0.0390021 0.0527657
0.551751 0.0465095 0.162005
0.54493 0.0538643 0.196872
0.151995 0.607584 0.265049
0.151522 0.59263 0.191714
0.578378 0.605356 0.118013
0.812619 0.55787 0.164248
0.808408 0.52221 0.164523
0.238911 0.814603 0.456596
0.24097 0.768444 0.295171
0.484504 0.798535 0.241032
0.81442 0.81593 0.278401
0.826703 0.816999 0.297124
0.251575 0.836728 0.520668
0.235798 0.780789 0.340673
0.426902 0.791531 0.239231
0.809934 0.813809 0.262684
0.826734 0.826886 0.356313
0.0390021 0.0525216 0.264164
0.0772106 0.0494392 0.32491
0.399542 0.0390021 0.340124
0.565316 0.0802014 0.420981
0.566888 0.0876326 0.453864
0.0390021 0.0936904 0.276204
0.0390021 0.059678 0.299992
0.404135 0.0390021 0.3449
0.567529 0.0767681 0.409155
0.564675 0.0837415 0.432853
0.14699 0.636942 0.527871
0.144625 0.628565 0.523461
0.601022 0.624903 0.6056
0.832685 0.430091 0.523415
0.819226 0.395071 0.529183
0.285039 0.906447 0.710216
0.283589 0.896254 0.677333
0.272923 0.82092 0.458564
0.804761 0.833921 0.467033
0.838071 0.81886 0.451514
0.28751 0.909377 0.733516
0.285389 0.900923 0.694774
0.233204 0.787823 0.379385
0.751446 0.817411 0.259373
0.835386 0.842878 0.48806
0.0390021 0.095552 0.404379
0.0708934 0.0802777 0.462394
0.42446 0.0644083 0.510781
0.56936 0.0997177 0.525139
0.569589 0.0999619 0.526955
0.0390021 0.129793 0.416922
0.0390021 0.10576 0.418433
0.418448 0.0670024 0.519722
0.569421 0.0995499 0.523857
0.569436 0.100008 0.526833
0.14963 0.651682 0.682185
0.144564 0.635737 0.683314
0.441352 0.558221 0.80119
0.793851 0.330282 0.712795
0.779461 0.293568 0.69691
0.28574 0.906203 0.791409
0.28072 0.898116 0.783948
0.286152 0.88809 0.774243
0.862562 0.889357 0.860746
0.913787 0.850752 0.845151
0.292271 0.916671 0.800732
0.292271 0.916197 0.796094
0.289281 0.913176 0.763348
0.812848 0.932738 0.847761
0.926818 0.953872 0.918746
0.0390021 0.131868 0.454856
0.0912947 0.112352 0.508431
0.450904 0.0781262 0.536965
0.569436 0.100023 0.526894
0.569451 0.100008 0.526894
0.0390021 0.142275 0.441871
0.0390021 0.131853 0.455299
0.436851 0.0775769 0.539773
0.569436 0.100023 0.526894
0.569436 0.100023 0.526894
0.154742 0.654124 0.718425
0.14435 0.626337 0.708995
0.382574 0.527626 0.802853
0.767437 0.290013 0.722332
0.741207 0.24184 0.687968
0.28751 0.908186 0.800778
0.282628 0.899916 0.798184
0.26424 0.872389 0.788281
0.822522 0.870848 0.904311
0.903456 0.804105 0.882475
0.292836 0.916915 0.803311
0.293126 0.916793 0.803647
0.293126 0.916793 0.803647
0.757519 0.955535 0.903319
0.928923 0.954498 0.923598
