bundles/resolve-cinematic-luts/Phantom Luts/Canon Film LUT/C-Log 2/Eastman Canon-Legacy CL2.cube
TITLE "Generated by Resolve"
LUT_3D_SIZE 33
0.0430304 0.0390021 0.0390021
0.0436408 0.0390021 0.0390021
0.0454719 0.0390021 0.0390021
0.0486 0.0390021 0.0390021
0.0545663 0.0390021 0.0390021
0.0639506 0.0390021 0.039292
0.0764935 0.0390021 0.0402838
0.0925154 0.0390021 0.0417792
0.111192 0.0390021 0.0421149
0.13463 0.0390021 0.0419318
0.165896 0.0390021 0.041474
0.203738 0.0390021 0.0391546
0.244038 0.0398871 0.0390021
0.284108 0.0438087 0.0397498
0.32369 0.0456092 0.0421454
0.360616 0.0478828 0.0435187
0.395941 0.0527504 0.045304
0.428809 0.057969 0.0469978
0.459342 0.0622568 0.0489204
0.489448 0.0648356 0.052079
0.517418 0.0625467 0.057084
0.5411 0.0566415 0.0673381
0.556924 0.0470283 0.0793774
0.558419 0.0408331 0.0852979
0.55938 0.0416266 0.0954452
0.560327 0.0424964 0.105333
0.560952 0.0432441 0.113863
0.561151 0.0441901 0.121706
0.560754 0.0451667 0.12874
0.557687 0.046128 0.134203
0.553841 0.0477302 0.139467
0.549813 0.0495918 0.143572
0.548211 0.0506294 0.147906
0.0431373 0.0390021 0.0390021
0.0433204 0.0390021 0.0390021
0.0446479 0.0390021 0.0390021
0.0469062 0.0390021 0.0390021
0.051545 0.0390021 0.0390021
0.0596628 0.0390021 0.0390021
0.071519 0.0390021 0.0399481
0.0879225 0.0390021 0.0412909
0.107805 0.0390021 0.0413367
0.131594 0.0390021 0.0416876
0.162081 0.0390021 0.0412299
0.200565 0.0395209 0.0390021
0.241779 0.0418555 0.0390021
0.283146 0.045655 0.0394751
0.322881 0.0477607 0.0417334
0.359899 0.049897 0.043122
0.395377 0.0549325 0.0450294
0.42826 0.060029 0.0465248
0.459129 0.0646372 0.0486152
0.488869 0.0679789 0.0513924
0.516854 0.0666514 0.0558328
0.53991 0.0607919 0.0652628
0.556695 0.051957 0.0768902
0.557977 0.0451057 0.0811627
0.558007 0.0411078 0.0874342
0.558877 0.0419623 0.0974289
0.55964 0.0427558 0.106325
0.559762 0.0436255 0.114153
0.559579 0.0445716 0.121355
0.557351 0.0460822 0.127794
0.553338 0.0473487 0.132677
0.549249 0.0487984 0.136812
0.547478 0.0498054 0.140703
0.0446326 0.0390021 0.0390021
0.0448615 0.0390021 0.0390021
0.0460365 0.0390021 0.0390021
0.0480507 0.0390021 0.0390021
0.0516365 0.0390021 0.0390021
0.0587778 0.0390021 0.0390021
0.0703746 0.0390021 0.0397498
0.0855726 0.0390021 0.0413519
0.104402 0.0390021 0.0410315
0.127291 0.0390021 0.0414588
0.158465 0.0390021 0.0415656
0.197162 0.0409705 0.0390021
0.238758 0.0434424 0.0390021
0.281209 0.0479286 0.0390021
0.321263 0.0498054 0.0407568
0.359731 0.0527047 0.0426642
0.395926 0.0573281 0.04477
0.428519 0.0625162 0.046128
0.458991 0.0675364 0.0480201
0.48896 0.0716869 0.050782
0.517357 0.0717632 0.0550088
0.539971 0.0665446 0.0639048
0.556924 0.0581826 0.0753033
0.55697 0.0516976 0.078233
0.557198 0.0450141 0.0811933
0.557427 0.0412604 0.0869917
0.558083 0.0420844 0.0961776
0.558404 0.0429694 0.104479
0.558358 0.0438239 0.111986
0.556344 0.0451972 0.118364
0.552941 0.0469368 0.124254
0.545754 0.0494698 0.128573
0.538231 0.0517281 0.131914
0.0438087 0.0390021 0.0412604
0.0434882 0.0390021 0.0408331
0.0442206 0.0390021 0.0402838
0.0477302 0.0390021 0.0397345
0.0527504 0.0390021 0.0398871
0.0603647 0.0390021 0.0399786
0.071046 0.0390021 0.0405127
0.0857252 0.0390021 0.0415351
0.104799 0.0390021 0.0413062
0.126223 0.0390021 0.0415656
0.15436 0.0390021 0.0412146
0.19353 0.0419928 0.0390021
0.23418 0.0445106 0.0390021
0.276173 0.049546 0.0390021
0.317205 0.0522164 0.0401465
0.357839 0.0551156 0.0421454
0.39408 0.0598611 0.0438697
0.428153 0.0652323 0.0456855
0.458747 0.070985 0.0475929
0.488029 0.0761425 0.0495613
0.516655 0.0778973 0.0535134
0.538781 0.0728313 0.061387
0.554726 0.0653239 0.0716259
0.555673 0.06009 0.0744945
0.555627 0.0537118 0.0767681
0.556573 0.0481117 0.0804456
0.556237 0.0416114 0.0824445
0.556619 0.0419318 0.0913252
0.556802 0.042771 0.0993668
0.555123 0.0440681 0.106142
0.551675 0.0457923 0.111818
0.544671 0.0483864 0.116533
0.53753 0.0509499 0.120485
0.0476997 0.0452583 0.0452125
0.0466011 0.04477 0.0446174
0.0463874 0.0436408 0.0441596
0.0476539 0.0429694 0.0438544
0.0524147 0.0429389 0.0436255
0.061738 0.0435035 0.0437476
0.0730755 0.0406653 0.0436713
0.0878157 0.0390021 0.0437934
0.105562 0.0390021 0.0434577
0.12697 0.0391546 0.0428626
0.160082 0.0410468 0.0408331
0.194827 0.0432593 0.0390021
0.232853 0.0461891 0.0390021
0.272877 0.0513466 0.0390021
0.314229 0.0542611 0.0397192
0.351904 0.0572519 0.0413672
0.389548 0.0618753 0.0431525
0.424521 0.0679789 0.0449683
0.45658 0.0740368 0.0465248
0.486076 0.0801862 0.0487526
0.514885 0.0843214 0.0522164
0.538048 0.0804456 0.0586557
0.552087 0.0744488 0.067277
0.553384 0.0700236 0.0700084
0.553765 0.0647135 0.0720226
0.554681 0.0598001 0.0747387
0.554849 0.0538186 0.0768902
0.55555 0.0489052 0.0802625
0.554665 0.0433356 0.0819257
0.552697 0.04271 0.0876478
0.549783 0.0442664 0.0939193
0.542809 0.0469062 0.0992752
0.535714 0.0494545 0.102785
0.0512703 0.0581064 0.0495308
0.0502937 0.0577249 0.0488289
0.0502937 0.0568856 0.0486
0.0509804 0.0558328 0.0484169
0.0538338 0.0559396 0.0488441
0.0617227 0.0553292 0.0481117
0.0750134 0.0565042 0.0482795
0.0913558 0.0535897 0.0488289
0.108904 0.047837 0.047837
0.12958 0.0458228 0.0455329
0.160632 0.0463417 0.0415961
0.200855 0.0476997 0.0390021
0.242435 0.0499275 0.0390021
0.277974 0.0534524 0.0390021
0.315038 0.0571756 0.0392615
0.349111 0.059968 0.0405737
0.382788 0.0644999 0.0422522
0.418616 0.0700389 0.0442512
0.450858 0.0766461 0.0455787
0.481315 0.0837415 0.0475166
0.510628 0.0896468 0.0502327
0.534783 0.0891737 0.0552224
0.548257 0.085893 0.0615702
0.549676 0.0817884 0.0632792
0.551095 0.0772869 0.0659495
0.552117 0.0730907 0.0682383
0.553079 0.0688182 0.0704814
0.553399 0.0643473 0.0724346
0.553826 0.0604715 0.0747692
0.551873 0.0567025 0.0763104
0.548837 0.0539254 0.0779126
0.541497 0.0531777 0.0794995
0.533669 0.0521401 0.0800946
0.0553292 0.0733196 0.0542458
0.0541695 0.0728771 0.0533608
0.057084 0.071397 0.0518044
0.0579232 0.0703899 0.0515297
0.060029 0.0700847 0.0519722
0.0648051 0.0703288 0.0526589
0.0786297 0.0693217 0.0513161
0.095079 0.0692302 0.0506752
0.1149 0.0658732 0.0510109
0.13901 0.0588998 0.0496529
0.169055 0.0535592 0.0439918
0.208682 0.0528267 0.0390021
0.248524 0.0559854 0.0390021
0.293355 0.0583963 0.0390021
0.328939 0.0615091 0.0392462
0.359808 0.0641642 0.0406653
0.386114 0.0674449 0.0420233
0.414099 0.0720226 0.043534
0.445609 0.0788281 0.0450141
0.474662 0.0859846 0.0464637
0.50312 0.0928359 0.0484169
0.528618 0.0966506 0.0516518
0.540154 0.0965896 0.0546731
0.542199 0.093904 0.056672
0.54432 0.0913405 0.0580606
0.546517 0.0883497 0.0601053
0.548119 0.08542 0.062089
0.549508 0.0814527 0.0639048
0.550546 0.0780957 0.0661021
0.549798 0.0754559 0.0673686
0.548592 0.0734875 0.0691386
0.543801 0.0726635 0.0699474
0.538415 0.0718395 0.0705272
0.0601205 0.0888228 0.0567025
0.0592966 0.0884413 0.0559854
0.0589914 0.0879988 0.0549477
0.0598611 0.0870069 0.0543526
0.0615396 0.0863966 0.0546731
0.0654612 0.0865949 0.0552834
0.0742504 0.0869001 0.0560616
0.0931106 0.0844892 0.0535439
0.113954 0.0836957 0.0525521
0.142702 0.0808881 0.0529641
0.17847 0.0712902 0.0501717
0.220783 0.0637675 0.0406348
0.259663 0.0611429 0.0390021
0.298238 0.0645914 0.0390021
0.338079 0.069337 0.0390021
0.374075 0.0724041 0.0403754
0.404654 0.0767834 0.0420691
0.428046 0.0799573 0.0434272
0.445411 0.0824598 0.0445106
0.46894 0.0875257 0.0457465
0.493996 0.0948806 0.0471046
0.520699 0.101366 0.0493324
0.530465 0.102525 0.0509041
0.53257 0.101793 0.0516365
0.533806 0.100832 0.0522011
0.535058 0.0999924 0.0530098
0.537285 0.0986038 0.0538643
0.539086 0.09691 0.0548257
0.540642 0.0955215 0.0560311
0.541085 0.0944381 0.057084
0.540413 0.0934768 0.0578164
0.536446 0.0933852 0.0582895
0.532006 0.093431 0.0588083
0.0629282 0.109636 0.0602121
0.0627146 0.109377 0.0594186
0.0623331 0.108843 0.058381
0.0627298 0.107851 0.0573587
0.0637217 0.106737 0.0574197
0.0663157 0.106523 0.057847
0.0718853 0.107256 0.0586252
0.0855268 0.107347 0.0592813
0.112444 0.104891 0.0566873
0.142382 0.103273 0.05626
0.185 0.102281 0.0576333
0.234028 0.0897078 0.0527047
0.276921 0.079118 0.0414588
0.311177 0.0752728 0.0390021
0.347234 0.0765087 0.0390021
0.379187 0.0813153 0.0398413
0.413123 0.0866255 0.041413
0.443137 0.0917983 0.042649
0.468452 0.0961776 0.0442206
0.484688 0.0984207 0.0455177
0.500786 0.10161 0.0468605
0.517693 0.104814 0.0483406
0.523751 0.105058 0.0493935
0.527016 0.105104 0.0497292
0.52694 0.105074 0.0497292
0.52726 0.104768 0.0498817
0.527581 0.104585 0.0500038
0.52845 0.104082 0.0504005
0.52903 0.103746 0.0505989
0.527932 0.104082 0.0504005
0.526925 0.104189 0.05037
0.522805 0.10515 0.050309
0.518257 0.106249 0.0500954
0.0654917 0.139696 0.0634165
0.0632334 0.139467 0.0629282
0.0613565 0.13933 0.0619211
0.0609293 0.138781 0.0614939
0.0619211 0.137301 0.0621042
0.0649271 0.13579 0.0618296
0.0696574 0.136233 0.0615091
0.081239 0.138689 0.0633097
0.101076 0.138491 0.0650645
0.140703 0.137102 0.0623636
0.185687 0.133822 0.0619821
0.241535 0.135546 0.0635996
0.296635 0.118517 0.0594034
0.336294 0.104128 0.046891
0.364874 0.0963302 0.0403906
0.394171 0.0931563 0.0406195
0.420996 0.095964 0.0414282
0.446754 0.100481 0.041825
0.4692 0.105608 0.042771
0.49868 0.112963 0.0445563
0.519799 0.117433 0.0460365
0.535393 0.118608 0.048661
0.53666 0.115724 0.0498207
0.536995 0.114336 0.0505226
0.535592 0.113497 0.0500038
0.535958 0.113191 0.0502022
0.534752 0.111376 0.0506142
0.533242 0.110277 0.0505531
0.530236 0.108522 0.0501564
0.525231 0.106767 0.0493477
0.523919 0.106905 0.0492714
0.520043 0.107774 0.0489204
0.515251 0.108873 0.0485847
0.0687877 0.182452 0.0679026
0.0664988 0.18204 0.0669871
0.0644846 0.182727 0.0662547
0.0635843 0.182666 0.06598
0.0629435 0.181659 0.0659495
0.0632486 0.179477 0.0654307
0.0665293 0.178866 0.0656291
0.0753033 0.182239 0.0672618
0.0927901 0.187076 0.0702373
0.122576 0.186465 0.0735485
0.18352 0.18822 0.0701915
0.246754 0.186175 0.0708476
0.31165 0.194491 0.0753948
0.36791 0.172457 0.0767834
0.406699 0.148775 0.0618753
0.427451 0.129183 0.0491493
0.443809 0.118471 0.0421607
0.462989 0.116243 0.0420691
0.482765 0.118578 0.0427863
0.497963 0.121035 0.0430304
0.519173 0.127047 0.0442969
0.537148 0.130983 0.0462654
0.552331 0.132723 0.049958
0.553826 0.132113 0.05037
0.553155 0.131197 0.05066
0.55082 0.129549 0.0504311
0.550973 0.12842 0.0508583
0.550713 0.127245 0.0514076
0.548043 0.125292 0.0509804
0.546105 0.124178 0.0505684
0.545098 0.123735 0.0505684
0.542626 0.124788 0.0505531
0.538537 0.125978 0.0503853
0.0813916 0.244556 0.0807202
0.0785534 0.245151 0.0805219
0.076463 0.245808 0.0799725
0.0756542 0.246342 0.0797131
0.0751812 0.246983 0.0798962
0.0750439 0.245472 0.0796826
0.0751049 0.243336 0.0789502
0.080354 0.244099 0.0797589
0.0936751 0.249592 0.0826734
0.118822 0.255299 0.0869917
0.162493 0.255375 0.09131
0.251347 0.261051 0.0835584
0.326894 0.261326 0.0841993
0.390341 0.271199 0.0862898
0.443305 0.252598 0.088838
0.486534 0.224323 0.0866255
0.505669 0.18587 0.0700542
0.514336 0.16286 0.0580453
0.52343 0.152621 0.0516213
0.527611 0.143648 0.0467842
0.538781 0.143908 0.0468452
0.547967 0.144045 0.0471809
0.553735 0.143664 0.0471656
0.555825 0.143359 0.0484169
0.555779 0.143206 0.0486
0.559091 0.144961 0.0505226
0.559091 0.144808 0.0511635
0.558801 0.144411 0.0515755
0.558923 0.143755 0.0520485
0.557321 0.142473 0.0513008
0.554376 0.141436 0.0504616
0.549813 0.141131 0.0494698
0.54377 0.141665 0.0488136
0.0988174 0.317082 0.0985275
0.0958419 0.317784 0.0988785
0.0933547 0.318975 0.0986954
0.0926833 0.320012 0.0982834
0.0943465 0.321218 0.098024
0.0945296 0.322118 0.0982834
0.0936751 0.31873 0.0972915
0.0948501 0.316884 0.0970016
0.102556 0.318822 0.0982376
0.121355 0.327092 0.101289
0.155322 0.331853 0.105348
0.22031 0.332967 0.106142
0.325185 0.338659 0.0905776
0.404913 0.338018 0.0898604
0.461097 0.344366 0.089601
0.511284 0.337285 0.0932174
0.562707 0.323919 0.0986954
0.589761 0.270558 0.0957046
0.602564 0.238239 0.0834211
0.60911 0.213901 0.0773938
0.598398 0.188022 0.0685283
0.597253 0.179171 0.06421
0.597513 0.174029 0.0620432
0.596658 0.17293 0.0618753
0.59379 0.17084 0.0602274
0.591119 0.169558 0.059144
0.588815 0.168093 0.0582132
0.587228 0.166827 0.0575265
0.586343 0.166125 0.0573434
0.584192 0.164858 0.0567636
0.582238 0.163928 0.0560159
0.578866 0.163455 0.055375
0.573632 0.163973 0.0549783
0.111849 0.38793 0.11284
0.109682 0.388281 0.113512
0.108034 0.389227 0.113787
0.107378 0.39028 0.112871
0.107286 0.391974 0.112673
0.107713 0.393378 0.113222
0.107637 0.392981 0.113039
0.107271 0.388678 0.112413
0.110201 0.388556 0.112291
0.123949 0.393561 0.113939
0.148836 0.403479 0.116304
0.195377 0.40589 0.117647
0.287938 0.406378 0.106874
0.392187 0.409903 0.0898604
0.470817 0.406668 0.090486
0.521111 0.411551 0.092195
0.567498 0.415503 0.0960861
0.617807 0.420035 0.104143
0.659388 0.372717 0.113817
0.686687 0.332341 0.114595
0.700984 0.301869 0.106264
0.700236 0.275517 0.102159
0.694118 0.254627 0.0995804
0.673396 0.229404 0.0934005
0.667185 0.222736 0.0912337
0.66598 0.221683 0.090898
0.669047 0.224109 0.0922866
0.670848 0.225589 0.0928817
0.670207 0.225147 0.0925154
0.6701 0.225071 0.0925154
0.669139 0.224384 0.0922713
0.665568 0.223545 0.0915999
0.66038 0.224094 0.0912795
0.122789 0.454551 0.126726
0.120928 0.454673 0.127687
0.119753 0.455604 0.128374
0.119387 0.456733 0.127947
0.119326 0.457816 0.127413
0.119326 0.458762 0.127047
0.119387 0.458961 0.127031
0.119417 0.457099 0.126879
0.119722 0.45568 0.126696
0.126253 0.455817 0.126513
0.147799 0.464958 0.127367
0.181308 0.472663 0.127733
0.250217 0.472892 0.123568
0.355062 0.471153 0.102571
0.453208 0.473899 0.0941176
0.528328 0.47097 0.0988632
0.57612 0.47628 0.102388
0.616464 0.482002 0.106783
0.662715 0.489723 0.114733
0.705043 0.465934 0.125628
0.739254 0.44303 0.135882
0.761822 0.405051 0.14583
0.770565 0.375463 0.140459
0.77203 0.348165 0.133303
0.77116 0.34461 0.132174
0.770748 0.344533 0.13193
0.768933 0.342596 0.130617
0.767086 0.340261 0.129458
0.765469 0.337102 0.127993
0.763806 0.334157 0.12668
0.761791 0.330968 0.125307
0.758511 0.328756 0.124208
0.753262 0.327108 0.123461
0.135866 0.517769 0.143114
0.134447 0.51783 0.144411
0.133104 0.518715 0.145876
0.132708 0.519478 0.146456
0.132433 0.520058 0.146242
0.132601 0.520867 0.146365
0.132952 0.521737 0.14638
0.133318 0.520775 0.145144
0.133013 0.518013 0.143374
0.13666 0.51873 0.14313
0.148791 0.519265 0.142245
0.17937 0.531762 0.143908
0.228534 0.535637 0.142153
0.318364 0.533333 0.128481
0.424002 0.530892 0.104829
0.509651 0.533364 0.102068
0.581476 0.531655 0.110643
0.626276 0.536156 0.115251
0.664103 0.541802 0.121111
0.704265 0.547662 0.12903
0.741115 0.542229 0.138399
0.771679 0.543847 0.148592
0.793332 0.515953 0.156924
0.806531 0.486809 0.162234
0.808911 0.474601 0.163928
0.809079 0.470573 0.164218
0.809186 0.468513 0.164584
0.808911 0.46566 0.164569
0.80885 0.462806 0.164721
0.808423 0.460472 0.164279
0.808179 0.457404 0.164248
0.80618 0.454231 0.164401
0.802792 0.45124 0.164614
0.155062 0.576486 0.165866
0.15404 0.576394 0.167376
0.153079 0.576593 0.169162
0.15256 0.577081 0.169711
0.152239 0.577356 0.169772
0.152392 0.577829 0.170092
0.152575 0.578592 0.170794
0.15285 0.578851 0.17055
0.151934 0.57586 0.168475
0.153597 0.574639 0.16672
0.162219 0.577401 0.165347
0.186618 0.583734 0.164508
0.228305 0.595422 0.164767
0.29369 0.594629 0.155474
0.388754 0.591089 0.132937
0.487694 0.587716 0.11191
0.562173 0.591638 0.11577
0.629862 0.590433 0.125887
0.674846 0.594156 0.133501
0.709926 0.599222 0.140551
0.742412 0.603769 0.14818
0.770626 0.608225 0.155947
0.793988 0.613016 0.164141
0.81033 0.598276 0.168429
0.816709 0.597879 0.171389
0.818509 0.596414 0.172457
0.818463 0.596338 0.172457
0.818463 0.595239 0.17232
0.817929 0.592676 0.171542
0.817746 0.589532 0.171023
0.817609 0.58648 0.170565
0.816541 0.58352 0.170321
0.814664 0.581048 0.170703
0.178241 0.634577 0.193027
0.177478 0.633951 0.193942
0.176745 0.633906 0.195987
0.176287 0.634089 0.196994
0.176074 0.634348 0.197513
0.176242 0.634852 0.197894
0.176333 0.635218 0.198489
0.176471 0.635477 0.198642
0.175708 0.6336 0.197467
0.174456 0.630335 0.194888
0.179706 0.631861 0.193439
0.198657 0.637385 0.191455
0.235599 0.646876 0.189197
0.292027 0.656275 0.185
0.362722 0.650614 0.169268
0.455879 0.646159 0.143099
0.544732 0.643305 0.125826
0.610834 0.648096 0.135164
0.675242 0.646876 0.147066
0.71986 0.650294 0.156802
0.751904 0.65565 0.165637
0.77644 0.659602 0.172808
0.79379 0.66276 0.177874
0.8103 0.664866 0.182574
0.819211 0.665858 0.185382
0.82118 0.665934 0.186084
0.821118 0.665705 0.185885
0.820752 0.66331 0.184985
0.820905 0.662074 0.184848
0.820783 0.659342 0.184131
0.820478 0.656611 0.183047
0.82002 0.654704 0.182803
0.819059 0.653727 0.183368
0.204318 0.689357 0.222034
0.203296 0.688457 0.223056
0.202731 0.688212 0.22501
0.202548 0.688258 0.226429
0.202487 0.688533 0.227649
0.202533 0.688807 0.228351
0.202579 0.689052 0.229007
0.202594 0.689097 0.229053
0.202304 0.688563 0.228626
0.19968 0.683772 0.225299
0.201663 0.684199 0.224598
0.214359 0.68748 0.222232
0.244434 0.696681 0.218753
0.304082 0.70695 0.213672
0.368261 0.71252 0.204913
0.437644 0.705516 0.183047
0.52491 0.69807 0.159609
0.599603 0.696452 0.149844
0.657343 0.703593 0.161746
0.716747 0.702876 0.174212
0.75816 0.704768 0.184634
0.786694 0.708751 0.193606
0.800595 0.710719 0.19791
0.810544 0.713008 0.201877
0.818952 0.713695 0.204395
0.819486 0.713603 0.204486
0.820066 0.713146 0.204471
0.820203 0.712016 0.204196
0.820157 0.710872 0.20383
0.820203 0.709606 0.203372
0.82005 0.708339 0.202594
0.819898 0.706432 0.201892
0.819394 0.704768 0.201129
0.228397 0.733562 0.249546
0.227848 0.73254 0.249805
0.227512 0.732479 0.252476
0.227222 0.732082 0.253422
0.226856 0.732097 0.25536
0.226902 0.732265 0.256138
0.226871 0.732341 0.256519
0.227024 0.73257 0.256718
0.226688 0.732113 0.256367
0.224887 0.728267 0.254108
0.222904 0.724651 0.251438
0.233127 0.729686 0.251575
0.259525 0.73608 0.246326
0.318013 0.746899 0.239796
0.383948 0.754223 0.231327
0.442634 0.754772 0.218341
0.510018 0.748318 0.195529
0.593957 0.739559 0.177798
0.652445 0.740154 0.178424
0.704448 0.747936 0.191043
0.750896 0.747005 0.200626
0.785183 0.748501 0.210788
0.807126 0.751553 0.21796
0.817472 0.753979 0.221836
0.821622 0.754925 0.22298
0.821927 0.754009 0.222568
0.821912 0.753231 0.222126
0.821881 0.752483 0.221744
0.821668 0.751492 0.221118
0.821561 0.750118 0.220539
0.821515 0.748714 0.220066
0.821485 0.747005 0.219623
0.821164 0.745235 0.21886
0.244221 0.758999 0.267994
0.244175 0.758328 0.268101
0.243915 0.7579 0.269932
0.243748 0.757519 0.270924
0.243305 0.757443 0.272999
0.243061 0.757458 0.27422
0.24303 0.757519 0.2748
0.242924 0.757397 0.274693
0.24271 0.757153 0.274464
0.24155 0.755184 0.272908
0.239658 0.752331 0.270817
0.24773 0.755703 0.270558
0.272419 0.763882 0.267918
0.33048 0.772061 0.258595
0.397009 0.780224 0.249958
0.452537 0.783536 0.239399
0.511849 0.782757 0.222156
0.577371 0.778012 0.207355
0.647517 0.77229 0.197436
0.698619 0.774823 0.208499
0.741604 0.779461 0.216358
0.778653 0.778866 0.224643
0.805631 0.780102 0.232425
0.816907 0.782162 0.23624
0.82211 0.783322 0.237842
0.822217 0.784131 0.237812
0.822232 0.783963 0.237659
0.822858 0.783536 0.237018
0.823941 0.782361 0.235111
0.825879 0.780758 0.231937
0.827482 0.779339 0.229999
0.828183 0.777737 0.228885
0.828244 0.776638 0.228412
0.250446 0.766934 0.267369
0.250584 0.766491 0.267506
0.250492 0.766079 0.268986
0.250278 0.765805 0.270863
0.249805 0.765728 0.273365
0.249607 0.765682 0.274678
0.2495 0.765667 0.275364
0.249485 0.765667 0.275441
0.249485 0.765652 0.275532
0.249454 0.765652 0.275624
0.24976 0.765759 0.275593
0.25539 0.76788 0.275212
0.280095 0.775906 0.27277
0.33669 0.784894 0.264668
0.408072 0.791257 0.25333
0.46334 0.797253 0.244327
0.518822 0.799695 0.230396
0.577829 0.799588 0.21944
0.645914 0.797543 0.213001
0.700328 0.795041 0.215595
0.74464 0.797864 0.226383
0.776944 0.799558 0.233265
0.806073 0.798795 0.239719
0.821485 0.7991 0.244694
0.827298 0.799863 0.246403
0.827619 0.800198 0.246448
0.82771 0.800412 0.246662
0.827939 0.800153 0.246357
0.828183 0.799527 0.24593
0.828382 0.798917 0.2448
0.828473 0.798062 0.243641
0.828565 0.797131 0.242802
0.828412 0.79617 0.241962
0.250202 0.766827 0.268772
0.250446 0.7664 0.268421
0.250477 0.765988 0.269306
0.250248 0.765774 0.27097
0.249805 0.765728 0.273365
0.249607 0.765682 0.274678
0.2495 0.765667 0.275364
0.249485 0.765667 0.275441
0.24947 0.765652 0.275532
0.24947 0.765652 0.275624
0.250202 0.76585 0.27541
0.256779 0.768277 0.274968
0.279911 0.775876 0.272953
0.338979 0.784924 0.265003
0.409979 0.79176 0.254749
0.468696 0.797833 0.245777
0.522332 0.802823 0.233646
0.57673 0.8065 0.22591
0.641443 0.808362 0.221912
0.696956 0.811048 0.225437
0.744869 0.810559 0.237644
0.777752 0.810285 0.245197
0.800885 0.811109 0.252277
0.819562 0.810162 0.256748
0.827527 0.810208 0.260792
0.828977 0.810468 0.261906
0.829236 0.810956 0.263371
0.829282 0.81088 0.263035
0.829374 0.81062 0.262104
0.829572 0.810178 0.261036
0.829648 0.809689 0.259709
0.829694 0.809277 0.258595
0.829725 0.808927 0.257771
0.249226 0.767865 0.274922
0.249485 0.767086 0.272557
0.249683 0.7664 0.272099
0.249897 0.765942 0.27216
0.249805 0.765728 0.273396
0.249607 0.765682 0.274693
0.2495 0.765667 0.275364
0.249485 0.765667 0.275441
0.24947 0.765652 0.275532
0.249454 0.765652 0.275639
0.24979 0.765759 0.275578
0.257771 0.768658 0.27483
0.281636 0.776455 0.272862
0.340444 0.785107 0.264866
0.409186 0.791714 0.25565
0.4598 0.797208 0.248478
0.510231 0.802106 0.238224
0.563668 0.806271 0.228763
0.633127 0.807889 0.219348
0.693996 0.810346 0.219425
0.755001 0.81059 0.235218
0.784909 0.810666 0.24715
0.80618 0.811475 0.257481
0.818555 0.813001 0.268025
0.826627 0.814191 0.275273
0.830808 0.815534 0.282094
0.831785 0.816571 0.287358
0.83151 0.816754 0.288518
0.83064 0.8168 0.288579
0.82919 0.816815 0.288579
0.828687 0.816526 0.287297
0.829252 0.815991 0.284657
0.830579 0.815305 0.281224
0.248096 0.769162 0.281468
0.248814 0.768078 0.277241
0.249134 0.76701 0.275013
0.249485 0.766217 0.273671
0.249744 0.765759 0.273625
0.249607 0.765682 0.274693
0.2495 0.765667 0.275349
0.2495 0.765667 0.27538
0.24947 0.765652 0.275593
0.249454 0.765652 0.275654
0.249516 0.765667 0.2757
0.25687 0.768307 0.274983
0.281727 0.776486 0.272862
0.338643 0.784924 0.265171
0.405753 0.791226 0.255909
0.46009 0.797299 0.248966
0.509239 0.80209 0.239551
0.56228 0.806317 0.230701
0.629587 0.807904 0.221454
0.690349 0.810452 0.219852
0.751568 0.81181 0.236576
0.789181 0.811887 0.25185
0.808988 0.813092 0.263783
0.821393 0.814527 0.275471
0.827161 0.817761 0.292073
0.830381 0.819074 0.303075
0.830747 0.820325 0.311543
0.830716 0.821256 0.317052
0.830121 0.821332 0.317678
0.828824 0.821469 0.318151
0.827939 0.821591 0.318471
0.827482 0.821485 0.317601
0.827893 0.821088 0.315206
0.246235 0.770306 0.293019
0.247288 0.769207 0.286152
0.248219 0.76791 0.280262
0.248936 0.766674 0.276005
0.249409 0.765957 0.274952
0.249592 0.765682 0.274739
0.2495 0.765667 0.275364
0.249485 0.765667 0.275456
0.24947 0.765667 0.275547
0.249454 0.765652 0.275639
0.249439 0.765652 0.275731
0.256596 0.7682 0.275044
0.280156 0.775937 0.272953
0.334905 0.784939 0.266041
0.40145 0.790646 0.256443
0.455467 0.796597 0.249348
0.510796 0.802274 0.239368
0.563455 0.806455 0.231357
0.628305 0.808103 0.223041
0.688457 0.81059 0.221714
0.744076 0.812497 0.237919
0.786053 0.812863 0.253971
0.809308 0.813931 0.267536
0.822202 0.815503 0.280018
0.827573 0.81825 0.296712
0.830381 0.820798 0.314473
0.831067 0.822446 0.324208
0.831327 0.823499 0.331136
0.830793 0.824079 0.334813
0.829664 0.824384 0.3364
0.828916 0.824598 0.337392
0.82855 0.824704 0.337743
0.82855 0.824704 0.337728
0.245029 0.771328 0.300023
0.246174 0.770169 0.293645
0.24715 0.768841 0.286687
0.248157 0.767346 0.280125
0.249012 0.766186 0.276234
0.249439 0.765759 0.275349
0.249485 0.765667 0.275395
0.249485 0.765667 0.275486
0.24947 0.765652 0.275563
0.249454 0.765652 0.275669
0.249439 0.765652 0.275731
0.25565 0.767941 0.275196
