bundles/resolve-cinematic-luts/Phantom Luts/Canon Film LUT/C-Log 2/Eastman Canon-Legacy CL2.cube
TITLE "Generated by Resolve"
LUT_3D_SIZE 9
0.0430304 0.0390021 0.0390021
0.0545663 0.0390021 0.0390021
0.111192 0.0390021 0.0421149
0.244038 0.0398871 0.0390021
0.395941 0.0527504 0.045304
0.517418 0.0625467 0.057084
0.55938 0.0416266 0.0954452
0.560754 0.0451667 0.12874
0.548211 0.0506294 0.147906
0.0476997 0.0452583 0.0452125
0.0524147 0.0429389 0.0436255
0.105562 0.0390021 0.0434577
0.232853 0.0461891 0.0390021
0.389548 0.0618753 0.0431525
0.514885 0.0843214 0.0522164
0.553765 0.0647135 0.0720226
0.554665 0.0433356 0.0819257
0.535714 0.0494545 0.102785
0.0629282 0.109636 0.0602121
0.0637217 0.106737 0.0574197
0.112444 0.104891 0.0566873
0.276921 0.079118 0.0414588
0.413123 0.0866255 0.041413
0.500786 0.10161 0.0468605
0.52694 0.105074 0.0497292
0.52903 0.103746 0.0505989
0.518257 0.106249 0.0500954
0.0988174 0.317082 0.0985275
0.0943465 0.321218 0.098024
0.102556 0.318822 0.0982376
0.325185 0.338659 0.0905776
0.562707 0.323919 0.0986954
0.598398 0.188022 0.0685283
0.59379 0.17084 0.0602274
0.586343 0.166125 0.0573434
0.573632 0.163973 0.0549783
0.155062 0.576486 0.165866
0.152239 0.577356 0.169772
0.151934 0.57586 0.168475
0.228305 0.595422 0.164767
0.562173 0.591638 0.11577
0.742412 0.603769 0.14818
0.816709 0.597879 0.171389
0.817929 0.592676 0.171542
0.814664 0.581048 0.170703
0.244221 0.758999 0.267994
0.243305 0.757443 0.272999
0.24271 0.757153 0.274464
0.272419 0.763882 0.267918
0.511849 0.782757 0.222156
0.741604 0.779461 0.216358
0.82211 0.783322 0.237842
0.823941 0.782361 0.235111
0.828244 0.776638 0.228412
0.248096 0.769162 0.281468
0.249744 0.765759 0.273625
0.24947 0.765652 0.275593
0.281727 0.776486 0.272862
0.509239 0.80209 0.239551
0.751568 0.81181 0.236576
0.827161 0.817761 0.292073
0.830121 0.821332 0.317678
0.827893 0.821088 0.315206
0.245457 0.773709 0.297826
0.249928 0.767239 0.270176
0.251987 0.766003 0.261585
0.273945 0.773373 0.2607
0.494911 0.799435 0.231525
0.725338 0.810681 0.219547
0.830945 0.815274 0.278264
0.836652 0.822477 0.326894
0.835569 0.822782 0.328267
0.241398 0.77641 0.326207
0.246952 0.769223 0.288014
0.25098 0.765866 0.267201
0.262013 0.769421 0.262806
0.462623 0.796429 0.237491
0.698894 0.80972 0.212497
0.826139 0.81416 0.272663
0.834974 0.822385 0.32546
0.830823 0.824079 0.334783
0.0390021 0.0390021 0.0417029
0.0510262 0.0390021 0.0443732
0.104875 0.0390021 0.0552834
0.239094 0.0390021 0.0434272
0.385626 0.045304 0.0466163
0.504387 0.0390021 0.0662699
0.54818 0.0490578 0.136217
0.549203 0.0529641 0.165042
0.536858 0.0582284 0.185657
0.0450446 0.04094 0.0466468
0.0505684 0.0391699 0.0471656
0.105287 0.0390021 0.0499733
0.234623 0.0423285 0.0390021
0.386435 0.0577859 0.0445258
0.504845 0.0645609 0.0585336
0.542275 0.0471351 0.10016
0.544503 0.0499123 0.130922
0.534676 0.0548257 0.149142
0.0620279 0.10573 0.0681621
0.0582742 0.104295 0.0606699
0.107759 0.101442 0.0575723
0.270634 0.0734264 0.0390021
0.410452 0.0843061 0.0415961
0.492058 0.0975967 0.0466926
0.529656 0.10045 0.0534371
0.536629 0.0927596 0.0581674
0.529747 0.0885328 0.0625315
0.0961166 0.310933 0.109148
0.0907454 0.312856 0.10132
0.0957504 0.31133 0.0957504
0.319463 0.330922 0.0901961
0.558541 0.28838 0.100069
0.581613 0.173785 0.0609445
0.579538 0.161532 0.0547341
0.572427 0.156741 0.0524605
0.56231 0.156054 0.0513161
0.151553 0.574014 0.179568
0.149157 0.5729 0.175921
0.151568 0.572747 0.166094
0.212985 0.590509 0.163806
0.557931 0.58648 0.113985
0.742397 0.596323 0.146532
0.816541 0.580194 0.169863
0.816831 0.566369 0.168551
0.813886 0.551843 0.169177
0.239033 0.760891 0.285008
0.239948 0.756161 0.277958
0.240986 0.754391 0.272312
0.256977 0.756664 0.266606
0.497841 0.780621 0.223865
0.736522 0.77525 0.212894
0.821942 0.777523 0.234928
0.822141 0.775784 0.23386
0.822095 0.770001 0.230442
0.242329 0.776318 0.317327
0.246967 0.769436 0.288243
0.24947 0.765667 0.275502
0.263966 0.770748 0.274357
0.492454 0.80029 0.242634
0.733593 0.811124 0.230808
0.825513 0.816663 0.285405
0.829938 0.820325 0.311452
0.827588 0.820157 0.308507
0.237812 0.784787 0.360678
0.24509 0.774029 0.30045
0.251987 0.766003 0.261585
0.259266 0.768582 0.261845
0.471626 0.79736 0.235431
0.707881 0.809888 0.213443
0.828946 0.814359 0.273671
0.836652 0.822324 0.326024
0.827832 0.824933 0.338766
0.236622 0.790143 0.383703
0.242405 0.777249 0.317922
0.250828 0.766003 0.267582
0.253635 0.766644 0.263264
0.444526 0.794522 0.239826
0.680949 0.808652 0.209796
0.823194 0.813504 0.268223
0.834791 0.822187 0.323888
0.826825 0.825208 0.340352
0.0390021 0.0390021 0.064744
0.047303 0.0390021 0.0737621
0.0998703 0.0390021 0.0815442
0.240101 0.0390021 0.0839246
0.388434 0.0390021 0.0946517
0.509331 0.0396277 0.156435
0.55314 0.0577249 0.211139
0.554864 0.0629435 0.23917
0.544411 0.0696269 0.255009
0.0400244 0.041001 0.0639963
0.0393835 0.0390021 0.0703288
0.0941329 0.0390021 0.0797284
0.239979 0.0390021 0.0727703
0.391226 0.0390021 0.070161
0.511193 0.0396277 0.130648
0.548867 0.055024 0.187839
0.550744 0.0594492 0.216785
0.542199 0.0658427 0.234409
0.0579232 0.098558 0.0877699
0.055024 0.0968948 0.0874495
0.111482 0.103975 0.106355
0.294667 0.0680095 0.0681163
0.416754 0.0568551 0.0482032
0.51516 0.055314 0.0623026
0.549401 0.0464942 0.108934
0.551125 0.0484321 0.136522
0.542046 0.0535134 0.153857
0.0966201 0.298329 0.143511
0.0912032 0.298924 0.134447
0.0871901 0.294804 0.101686
0.306828 0.316091 0.102708
0.533013 0.222263 0.0948043
0.56936 0.160174 0.0621347
0.591241 0.155612 0.0743114
0.588098 0.149264 0.0740063
0.57789 0.14609 0.0736858
0.145068 0.568322 0.225025
0.14168 0.565652 0.214878
0.143221 0.560128 0.175326
0.179202 0.574289 0.161715
0.548669 0.574868 0.111635
0.744762 0.580407 0.143999
0.81474 0.527535 0.166293
0.813794 0.507347 0.166064
0.808606 0.489219 0.166247
0.226886 0.769924 0.350637
0.227863 0.760983 0.32636
0.233936 0.749844 0.279667
0.235157 0.74258 0.261784
0.464317 0.775967 0.229419
0.727031 0.766842 0.205097
0.821469 0.76614 0.228367
0.822309 0.76141 0.226398
0.821897 0.753811 0.222507
0.239109 0.806607 0.430625
0.236774 0.78996 0.381201
0.246204 0.770138 0.29337
0.25005 0.765835 0.275593
0.463004 0.797406 0.247868
0.704509 0.810483 0.220523
0.820935 0.814511 0.274937
0.829664 0.817853 0.295979
0.827268 0.816953 0.289281
0.245838 0.822583 0.480446
0.238346 0.804044 0.428824
0.244114 0.775204 0.306294
0.251728 0.765957 0.262715
0.434546 0.793301 0.240558
0.673457 0.808591 0.209918
0.823056 0.813107 0.265919
0.836301 0.821912 0.322805
0.828016 0.824903 0.338598
0.248875 0.827329 0.495598
0.239826 0.809644 0.446647
0.241932 0.778668 0.323659
0.251606 0.765972 0.263661
0.404166 0.790204 0.245014
0.643397 0.807431 0.211887
0.815396 0.812589 0.260761
0.834257 0.821256 0.318334
0.82623 0.825376 0.341375
0.0390021 0.0421759 0.123995
0.0390021 0.0432593 0.143099
0.0847181 0.0441291 0.175082
0.223026 0.0390021 0.177279
0.383841 0.0390021 0.208789
0.520699 0.0554208 0.26215
0.567041 0.0731518 0.304006
0.569253 0.0758679 0.325612
0.560082 0.079942 0.338567
0.0390021 0.0445411 0.117723
0.0390021 0.0434119 0.135821
0.0691081 0.0456703 0.178332
0.223651 0.0390021 0.179278
0.389181 0.0390021 0.206256
0.524117 0.0572366 0.259342
0.565164 0.072755 0.297139
0.568124 0.0760204 0.317266
0.55938 0.0796674 0.329366
0.041413 0.0967422 0.147723
0.0390021 0.0909743 0.155428
0.0518349 0.0806439 0.201328
0.2374 0.0429847 0.194919
0.392523 0.0390021 0.181231
0.524102 0.0525521 0.233127
0.562264 0.0675669 0.269306
0.566094 0.0703441 0.286625
0.55935 0.0743267 0.296681
0.080766 0.286305 0.229679
0.0779126 0.286 0.231067
0.0757305 0.277653 0.225055
0.331823 0.334188 0.328984
0.556832 0.221515 0.276493
0.664027 0.143893 0.270756
0.6392 0.108507 0.262974
0.614893 0.0939498 0.25156
0.592813 0.086717 0.244312
0.15668 0.596536 0.372137
0.152529 0.590311 0.36788
0.144717 0.573053 0.32752
0.15082 0.545403 0.217929
0.537835 0.563928 0.196857
0.764752 0.509117 0.229984
0.823468 0.425696 0.240497
0.817823 0.407858 0.237995
0.807095 0.393759 0.233005
0.233402 0.803372 0.491371
0.227741 0.791379 0.478035
0.216846 0.769894 0.425589
0.217594 0.728267 0.275502
0.413108 0.76289 0.236622
0.711803 0.750103 0.197665
0.819638 0.744244 0.22034
0.819898 0.732952 0.217365
0.819333 0.721202 0.212131
0.270512 0.866163 0.578897
0.264912 0.854139 0.558022
0.248524 0.826871 0.494301
0.243961 0.77261 0.306386
0.350225 0.785885 0.262119
0.642298 0.808255 0.220005
0.813458 0.811933 0.260838
0.827787 0.81265 0.270054
0.824094 0.810636 0.266667
0.278111 0.877424 0.61265
0.271946 0.865904 0.585611
0.255375 0.838712 0.52311
0.241917 0.777249 0.323232
0.294194 0.779065 0.260731
0.588083 0.806012 0.217838
0.807889 0.81146 0.252689
0.835889 0.820798 0.315969
0.828321 0.824887 0.33875
0.27895 0.878843 0.61799
0.273594 0.868101 0.591714
0.257862 0.842634 0.531823
0.239933 0.781384 0.341222
0.270085 0.772335 0.263523
0.556542 0.804929 0.222126
0.786465 0.811322 0.244297
0.832944 0.819425 0.305882
0.826825 0.825284 0.341009
0.0390021 0.0551461 0.239918
0.0390021 0.0551308 0.258503
0.0598917 0.0549325 0.292805
0.228458 0.0390021 0.316503
0.378317 0.0390021 0.319524
0.519631 0.0618753 0.367147
0.569497 0.0803693 0.404913
0.5691 0.0855268 0.424735
0.56762 0.0886549 0.43801
0.0390021 0.0571756 0.234104
0.0390021 0.0567025 0.2533
0.0482795 0.0562905 0.293736
0.224033 0.0390021 0.326452
0.382483 0.0390021 0.323888
0.525765 0.0634318 0.369436
0.570489 0.0798505 0.404334
0.570871 0.0846723 0.423255
0.567437 0.088365 0.434943
0.0390021 0.0824598 0.24712
0.0390021 0.0748913 0.250034
0.0390021 0.0609598 0.277577
0.183139 0.0399634 0.33669
0.382467 0.0390021 0.324041
0.524468 0.0623941 0.362127
0.57229 0.0767681 0.39292
0.571481 0.0802014 0.408179
0.565637 0.0842756 0.415763
0.0641031 0.311666 0.364614
0.0616922 0.307347 0.369039
0.0544747 0.283223 0.370596
0.189334 0.254765 0.450431
0.470268 0.141009 0.413123
0.556741 0.0862135 0.363424
0.578103 0.0808423 0.359167
0.575586 0.0800488 0.363943
0.564141 0.0800488 0.363729
0.139284 0.595819 0.491295
0.13875 0.59321 0.491981
0.137316 0.587427 0.488045
0.153826 0.5794 0.485237
0.567056 0.586908 0.56936
0.76257 0.468894 0.503929
0.830304 0.390845 0.488075
0.827283 0.372213 0.493248
0.81529 0.356802 0.491798
0.239231 0.824002 0.604578
0.238285 0.817166 0.60177
0.233875 0.807294 0.583215
0.222019 0.779492 0.528359
0.374197 0.749203 0.469306
0.701289 0.753674 0.437995
0.851987 0.702342 0.463996
0.86537 0.67013 0.463279
0.86305 0.652018 0.45568
0.287877 0.904967 0.694087
0.288182 0.900313 0.684779
0.28571 0.892882 0.660121
0.274372 0.869368 0.595468
0.268055 0.814145 0.436225
0.604593 0.830839 0.35314
0.808392 0.836255 0.445151
0.836057 0.829023 0.445045
0.835554 0.822492 0.430686
0.289326 0.90901 0.717586
0.289906 0.905104 0.704204
0.287556 0.897734 0.676051
0.27776 0.875532 0.610666
0.238712 0.783108 0.353765
0.526238 0.80856 0.254643
0.785412 0.82002 0.282032
0.830533 0.831632 0.40589
0.833844 0.83798 0.461021
0.290394 0.909072 0.721965
0.290089 0.905425 0.706477
0.288273 0.898436 0.678584
0.278569 0.877073 0.614572
0.238163 0.783841 0.356847
0.480385 0.802228 0.254917
0.74757 0.816892 0.254566
0.828351 0.827832 0.369329
0.832547 0.838575 0.464012
0.0390021 0.0676738 0.326787
0.0390021 0.0672313 0.343481
0.0510719 0.0652934 0.377127
0.220478 0.0470436 0.426215
0.388922 0.0447852 0.41915
0.518105 0.0751354 0.446799
0.569604 0.0960708 0.48571
0.569726 0.0987869 0.50248
0.569833 0.100771 0.513252
0.0390021 0.0713054 0.322698
0.0390021 0.070222 0.337072
0.0409094 0.0669261 0.375006
0.210712 0.0494087 0.433021
0.392981 0.045655 0.425681
0.523964 0.0773175 0.452583
0.570611 0.0958877 0.487449
0.57023 0.0987259 0.503471
0.569406 0.100572 0.512306
0.0390021 0.0902876 0.334127
0.0390021 0.08159 0.331273
0.0390021 0.0717937 0.348272
0.160403 0.0562295 0.434501
0.388006 0.0465248 0.433433
0.522744 0.0772869 0.452873
0.570169 0.0953078 0.482856
0.570138 0.0973526 0.494682
0.569986 0.0988022 0.501839
0.0541085 0.303822 0.448844
0.0519417 0.293553 0.449546
0.0445411 0.255573 0.441871
0.0931868 0.199847 0.490349
0.414954 0.101198 0.508141
0.514961 0.0774243 0.445762
0.570123 0.0920119 0.457252
0.570489 0.0929122 0.463203
0.569726 0.0937057 0.465797
0.132097 0.60293 0.595422
0.13138 0.600458 0.597055
0.129366 0.593957 0.601068
0.121004 0.567712 0.602228
0.467964 0.540673 0.708721
0.714534 0.413886 0.650187
0.79321 0.319371 0.609491
0.786831 0.300175 0.605982
0.775738 0.283803 0.598093
0.222721 0.806043 0.686275
0.219989 0.799802 0.681743
0.215 0.791058 0.673915
0.205447 0.772702 0.65687
0.422583 0.792294 0.705119
0.736538 0.763516 0.738827
0.862776 0.684291 0.69482
0.867979 0.635508 0.67837
0.862089 0.612161 0.669688
0.291539 0.915618 0.765377
0.291661 0.913222 0.759945
0.289799 0.909895 0.746914
0.285481 0.900267 0.717739
0.305577 0.895293 0.679011
0.628107 0.86244 0.682475
0.832883 0.873716 0.685588
0.89369 0.854551 0.700908
0.893492 0.841932 0.693675
0.294209 0.918227 0.781628
0.294392 0.917052 0.774578
0.293278 0.915282 0.761166
0.291356 0.911208 0.732113
0.285573 0.8925 0.658747
0.507424 0.861021 0.608347
0.75761 0.878447 0.609644
0.903685 0.923369 0.787015
0.910018 0.929793 0.809339
0.295064 0.918242 0.784192
0.29456 0.917296 0.776547
0.2934 0.915496 0.763058
0.291508 0.911498 0.733684
0.285405 0.891798 0.656214
0.436561 0.856977 0.582223
0.713329 0.867506 0.565942
0.870375 0.894484 0.682307
0.903395 0.922377 0.783123
0.0390021 0.0875105 0.38851
0.0390021 0.0869764 0.404471
0.0492103 0.0810407 0.439429
0.212467 0.0686198 0.505302
0.401358 0.0664988 0.51223
0.525658 0.0878614 0.513054
0.571618 0.10486 0.533135
0.571908 0.105379 0.535668
0.572015 0.105348 0.535729
0.0390021 0.0929732 0.386236
0.0390021 0.0917678 0.396628
0.0390021 0.0861524 0.434043
0.2 0.0717937 0.508705
0.403418 0.0678874 0.516655
0.530907 0.0904402 0.517952
0.571771 0.105303 0.535012
0.571786 0.105425 0.535576
0.571817 0.105425 0.535592
0.0390021 0.111192 0.397345
0.0390021 0.102159 0.392004
0.0390021 0.0947127 0.402899
0.149508 0.0778515 0.499931
0.393042 0.0690776 0.522972
0.529061 0.0901045 0.519127
0.571481 0.104311 0.531075
0.571847 0.10518 0.534752
0.571786 0.105409 0.5355
0.0505531 0.287388 0.497597
0.0482338 0.274052 0.494041
0.0406653 0.230564 0.477317
0.0530098 0.171206 0.495216
0.354208 0.0906386 0.554986
0.504952 0.0847028 0.513664
0.569986 0.101625 0.518517
0.570336 0.102358 0.522713
0.570611 0.102998 0.525399
0.138476 0.613092 0.662089
0.136751 0.608606 0.662684
0.133059 0.596536 0.664149
0.121096 0.56109 0.663081
0.399023 0.518624 0.780758
0.686122 0.37789 0.759121
0.771466 0.291569 0.684672
0.763699 0.271855 0.675547
0.751263 0.254246 0.664378
0.221073 0.801068 0.739559
0.217746 0.794324 0.737316
0.212802 0.784665 0.735088
0.20145 0.762921 0.731395
0.33785 0.767956 0.791012
0.671397 0.734569 0.84065
0.845396 0.648707 0.796185
0.865843 0.588327 0.764279
0.860121 0.566049 0.754574
0.292531 0.913619 0.798032
0.289815 0.90959 0.794186
0.286427 0.903212 0.788663
0.277806 0.891051 0.776333
0.284428 0.884886 0.770016
0.666804 0.89987 0.838895
0.861326 0.887663 0.859327
0.917128 0.859739 0.849241
0.914839 0.84007 0.840681
0.297215 0.92018 0.805631
0.297795 0.919722 0.804944
0.297139 0.919249 0.80061
0.295949 0.918318 0.789899
0.293523 0.915724 0.765438
0.567834 0.959182 0.819699
0.831205 0.9355 0.855222
0.917342 0.944335 0.875364
0.92343 0.945449 0.886656
0.29749 0.920211 0.805814
0.297826 0.91989 0.805493
0.297292 0.919371 0.802029
0.295964 0.918334 0.790341
0.293248 0.915175 0.759991
0.41973 0.949676 0.776776
0.799893 0.930388 0.841245
0.902358 0.940581 0.848066
0.92755 0.954864 0.924315
0.0390021 0.115633 0.433753
0.0390021 0.114656 0.446204
0.0494698 0.107195 0.477134
0.216556 0.088304 0.544091
0.414694 0.0801099 0.547234
0.538903 0.0954757 0.533165
0.571786 0.105425 0.535576
0.571786 0.105425 0.535576
0.571801 0.105425 0.535592
0.0390021 0.116152 0.425437
0.0390021 0.115496 0.434516
0.0398718 0.110735 0.467002
0.203937 0.0891432 0.541238
0.415473 0.0800488 0.547036
0.542138 0.0963607 0.533486
0.571786 0.105425 0.535576
0.571786 0.105425 0.535576
0.571817 0.105425 0.535592
0.0390021 0.125902 0.429236
0.0390021 0.116136 0.420188
0.0390021 0.115557 0.43508
0.152728 0.09337 0.526253
0.401602 0.0796063 0.54873
0.536599 0.094789 0.53283
0.571801 0.10544 0.535592
0.571801 0.105425 0.535576
0.571786 0.105425 0.535576
0.05037 0.277958 0.524132
0.047425 0.262287 0.517021
0.0390021 0.20972 0.488563
0.0390021 0.139086 0.470848
0.326268 0.0866865 0.559899
0.50074 0.0875715 0.534218
0.571878 0.10547 0.535683
0.571893 0.10547 0.535698
0.571893 0.10547 0.535698
0.142214 0.614649 0.698268
0.140444 0.608454 0.697765
0.135546 0.594354 0.695979
0.119585 0.550942 0.683253
0.350851 0.513573 0.791119
0.6598 0.362997 0.802396
0.75491 0.275959 0.713588
0.744701 0.252186 0.69572
0.731502 0.236439 0.682933
0.232273 0.816052 0.769802
0.228809 0.81001 0.767865
0.223728 0.80119 0.765881
0.214206 0.781994 0.762387
0.278767 0.78703 0.802304
0.623468 0.723445 0.872282
0.829175 0.622599 0.852491
0.855924 0.548272 0.806394
0.850431 0.525811 0.798825
0.292683 0.913436 0.803586
0.289998 0.909117 0.802502
0.286931 0.902571 0.801205
0.278981 0.890715 0.796826
0.268513 0.874708 0.791348
0.620859 0.897932 0.887358
0.831556 0.872267 0.903853
0.912001 0.83122 0.887221
0.910399 0.806424 0.877836
0.296956 0.919341 0.805875
0.297063 0.919295 0.806027
0.296666 0.919036 0.805768
0.297154 0.919356 0.806104
0.296788 0.919097 0.805249
0.540475 0.971374 0.882139
0.835004 0.944045 0.906615
0.921981 0.948608 0.91873
0.927962 0.94728 0.919402
0.29688 0.919387 0.805798
0.297063 0.919295 0.806027
0.297063 0.919295 0.806027
0.297337 0.919478 0.806241
0.297719 0.919676 0.804318
0.329656 0.937041 0.81709
0.793408 0.953902 0.900191
0.926406 0.954849 0.924285
0.927459 0.954971 0.924758
0.0390021 0.115114 0.440009
0.0390021 0.113802 0.453681
0.0586404 0.104173 0.48368
0.233097 0.0868696 0.547112
0.425299 0.0803082 0.545586
0.546059 0.0973678 0.533364
0.571786 0.105425 0.535576
0.571786 0.105425 0.535576
0.571801 0.105425 0.535576
0.0390021 0.11603 0.429343
0.0390021 0.115129 0.440406
0.0449226 0.108721 0.472862
0.219455 0.0881514 0.544549
0.424842 0.0803693 0.545739
0.549218 0.098436 0.533639
0.571786 0.105425 0.535576
0.571786 0.105425 0.535576
0.571817 0.105425 0.535592
0.0390021 0.121019 0.42504
0.0390021 0.116411 0.420722
0.0390021 0.11516 0.440406
0.165225 0.0919814 0.530175
0.409369 0.0800183 0.548058
0.542535 0.0964218 0.533425
0.571786 0.105425 0.535576
0.571801 0.105425 0.535576
0.571801 0.105425 0.535576
0.0471504 0.258976 0.518853
0.0427558 0.233173 0.503471
0.0390021 0.173144 0.466194
0.0390021 0.117174 0.453651
0.326757 0.0824598 0.555383
0.498833 0.0864271 0.532204
0.571847 0.105455 0.535653
0.571893 0.10547 0.535683
0.571878 0.10547 0.535683
0.144488 0.616312 0.709575
0.141192 0.607187 0.706233
0.132616 0.585946 0.69778
0.112245 0.531685 0.674998
0.337255 0.486748 0.783444
0.64564 0.334508 0.788998
0.736416 0.252598 0.698451
0.724743 0.229221 0.676493
0.707668 0.212543 0.660227
0.236286 0.822843 0.775021
0.232151 0.815473 0.773281
0.225727 0.803876 0.769787
0.211505 0.776745 0.762264
0.257725 0.771435 0.792859
0.607172 0.708324 0.870939
0.81825 0.602533 0.854368
0.851759 0.523659 0.80705
0.848554 0.500572 0.802915
0.294423 0.915419 0.804913
0.29221 0.912093 0.803601
0.288792 0.905333 0.802487
0.279225 0.891096 0.796887
0.264149 0.867903 0.789151
0.596185 0.903685 0.892714
0.810132 0.862745 0.906645
0.906584 0.810742 0.891844
0.905547 0.779568 0.880171
0.289342 0.922484 0.797086
0.289479 0.922438 0.797208
0.289479 0.922438 0.797208
0.289479 0.922438 0.797208
0.289418 0.922377 0.797177
0.451316 0.967529 0.863249
0.809583 0.943999 0.908476
0.918944 0.946059 0.924926
0.928603 0.942931 0.923796
0.296788 0.919417 0.805722
0.297063 0.919295 0.806027
0.297063 0.919295 0.806027
0.297063 0.919295 0.806027
0.297063 0.919295 0.806027
0.296757 0.919097 0.805814
0.740993 0.963668 0.908644
0.925292 0.954955 0.925353
0.928908 0.954498 0.923613
