bundles/resolve-cinematic-luts/Phantom Luts/Canon Film LUT/C-Log 2/EastmanRM Canon-Legacy CL2.cube
TITLE "Generated by Resolve"
LUT_3D_SIZE 9
0.0467994 0.0427558 0.0430152
0.0624552 0.0400397 0.0400092
0.140429 0.035523 0.0376745
0.277943 0.0317998 0.0413825
0.46424 0.0287633 0.0509957
0.574762 0.0356909 0.0843519
0.606394 0.0449073 0.117693
0.607309 0.0473945 0.12929
0.570352 0.0551461 0.175296
0.047303 0.0564279 0.0452125
0.0503853 0.0545663 0.0451667
0.122271 0.0404974 0.0403601
0.268757 0.0328069 0.0399481
0.463035 0.02916 0.0491188
0.578256 0.0367895 0.0811475
0.602625 0.0429389 0.107622
0.604623 0.0453498 0.120531
0.56672 0.0522927 0.164721
0.0576181 0.122438 0.0492409
0.052369 0.123598 0.0497292
0.112367 0.118578 0.0482185
0.2963 0.06981 0.0433814
0.481224 0.0306096 0.0429999
0.556115 0.0363928 0.0683146
0.579202 0.0403601 0.0838941
0.586435 0.0408179 0.0932174
0.566995 0.0440833 0.118181
0.0594186 0.280476 0.0464637
0.0502327 0.288655 0.0471656
0.0577859 0.28658 0.0475013
0.308766 0.3252 0.0587472
0.599191 0.237446 0.0632486
0.58262 0.0827039 0.0679179
0.585351 0.0535439 0.072343
0.584222 0.052018 0.0788128
0.57232 0.0513313 0.0822156
0.0718242 0.509483 0.0446021
0.0618448 0.516686 0.0575265
0.063386 0.519036 0.0576333
0.124086 0.53521 0.0505837
0.631281 0.640711 0.11046
0.82826 0.640879 0.233417
0.853697 0.530724 0.18912
0.852338 0.51046 0.180194
0.843381 0.5131 0.192142
0.223606 0.685924 0.172168
0.208789 0.687572 0.188388
0.20766 0.688502 0.191959
0.219455 0.686839 0.188907
0.499153 0.768368 0.26569
0.847486 0.870741 0.405386
0.912642 0.87216 0.446601
0.912978 0.87245 0.445884
0.91635 0.87245 0.436179
0.224109 0.697047 0.206928
0.223163 0.696178 0.194232
0.221576 0.696101 0.191562
0.22533 0.696208 0.191669
0.484611 0.766705 0.267292
0.843214 0.895857 0.435386
0.913069 0.911772 0.538827
0.912291 0.914153 0.556573
0.910979 0.914626 0.560815
0.22359 0.699458 0.235874
0.230243 0.696696 0.200275
0.238254 0.695628 0.171054
0.242954 0.69601 0.171466
0.4972 0.772564 0.252216
0.843076 0.895384 0.421546
0.916152 0.910124 0.524071
0.91725 0.912413 0.538003
0.911696 0.914366 0.558541
0.208774 0.705653 0.279072
0.216587 0.699092 0.229801
0.231876 0.695567 0.178683
0.240467 0.695842 0.171283
0.518761 0.782376 0.262913
0.860487 0.897383 0.433051
0.915831 0.910094 0.524742
0.914794 0.913268 0.547326
0.909865 0.914992 0.564981
0.0449378 0.0448615 0.0487526
0.0535897 0.0436255 0.0479286
0.115511 0.0406195 0.0472725
0.247181 0.0367895 0.0549477
0.439048 0.0313115 0.0701457
0.555718 0.0396582 0.115434
0.586007 0.0502022 0.149691
0.586755 0.0534371 0.162188
0.563241 0.0595102 0.196292
0.0468299 0.0537423 0.0492714
0.0498207 0.0527199 0.0499886
0.110155 0.0439155 0.049134
0.248356 0.0356146 0.0523079
0.442634 0.0317388 0.0697642
0.559228 0.0402533 0.112032
0.583062 0.0484169 0.141634
0.583688 0.0511025 0.154467
0.56083 0.0569772 0.185336
0.0550698 0.12015 0.0573892
0.0497902 0.121538 0.0544747
0.103227 0.116152 0.0502632
0.28806 0.0594339 0.0455482
0.47068 0.0312657 0.0480659
0.553689 0.0379187 0.0801556
0.580346 0.042298 0.104662
0.585412 0.0432593 0.11426
0.564828 0.0471351 0.140017
0.056733 0.278401 0.0558785
0.0500191 0.284245 0.052018
0.0540322 0.281865 0.0469978
0.305058 0.31902 0.0584726
0.588586 0.210758 0.0610208
0.576715 0.0710918 0.0645609
0.585672 0.0526436 0.0768749
0.579812 0.0496376 0.078996
0.569009 0.0496834 0.0843214
0.066392 0.509361 0.0498817
0.058732 0.515541 0.0617685
0.0632181 0.51809 0.0572061
0.111269 0.532067 0.0501259
0.630274 0.639017 0.109712
0.829465 0.637095 0.23212
0.852247 0.515496 0.182803
0.848875 0.493477 0.174975
0.839719 0.495247 0.186938
0.217929 0.684703 0.189792
0.205173 0.686732 0.198001
0.206394 0.687388 0.190661
0.211627 0.686259 0.187976
0.490684 0.765026 0.262364
0.847242 0.869947 0.402701
0.912703 0.871229 0.445777
0.912581 0.870344 0.445243
0.912902 0.870268 0.444724
0.218372 0.700145 0.240787
0.219471 0.697917 0.216266
0.221576 0.696101 0.191562
0.223072 0.696117 0.191577
0.471778 0.760952 0.26096
0.835721 0.894423 0.429847
0.913085 0.911543 0.537392
0.912306 0.914153 0.556542
0.910903 0.914641 0.561181
0.212451 0.707988 0.292424
0.225376 0.699641 0.236713
0.237537 0.695766 0.174472
0.238254 0.695628 0.171054
0.484993 0.767102 0.24625
0.834592 0.893477 0.415045
0.916075 0.909743 0.521248
0.917433 0.912367 0.537392
0.911192 0.914549 0.55996
0.208103 0.714916 0.328374
0.215198 0.704402 0.271794
0.231769 0.695827 0.183566
0.24007 0.695811 0.171252
0.505638 0.776318 0.256443
0.847822 0.895506 0.423026
0.915541 0.909514 0.520012
0.914794 0.913268 0.547326
0.909361 0.91519 0.566979
0.0432593 0.0483711 0.0668345
0.0477607 0.0472572 0.0758984
0.102556 0.0451667 0.0728923
0.248981 0.0400092 0.0715648
0.441245 0.0339666 0.088426
0.56257 0.0435492 0.135943
0.592142 0.0558633 0.175906
0.594446 0.0612497 0.201236
0.572778 0.0703288 0.244083
0.0441138 0.0539712 0.0637675
0.0436561 0.050721 0.0717784
0.0914168 0.0470588 0.0774395
0.247715 0.0397192 0.071931
0.44744 0.0337224 0.090837
0.567941 0.0446784 0.137423
0.5906 0.0542153 0.16643
0.591608 0.0587472 0.189624
0.568948 0.0659648 0.229404
0.053727 0.111299 0.0803388
0.0486458 0.112032 0.0879225
0.0986496 0.117067 0.0992905
0.311482 0.0618906 0.0746319
0.474205 0.0318914 0.0699626
0.572076 0.0404669 0.109804
0.592111 0.0478828 0.13669
0.595331 0.049958 0.145647
0.574853 0.0550393 0.17261
0.0575265 0.269535 0.0903487
0.0507515 0.275349 0.0893263
0.0504005 0.271015 0.0569924
0.292546 0.303273 0.0709697
0.556146 0.150317 0.0624094
0.588312 0.0606851 0.0847028
0.590799 0.0525216 0.100755
0.581277 0.0483558 0.100206
0.573648 0.0491493 0.109606
0.057023 0.50634 0.0730602
0.0517891 0.513191 0.0884871
0.0558175 0.510796 0.0643168
0.0822156 0.519524 0.0502632
0.622721 0.630381 0.104692
0.826673 0.604578 0.210819
0.844678 0.467506 0.168185
0.839155 0.441993 0.158068
0.828733 0.443015 0.168505
0.20354 0.685283 0.243259
0.19324 0.688746 0.251545
0.199619 0.685481 0.205554
0.20412 0.682826 0.183841
0.462211 0.752468 0.248692
0.843778 0.865644 0.391455
0.912779 0.86479 0.440253
0.912154 0.861326 0.436957
0.912154 0.86096 0.436713
0.216358 0.713985 0.324834
0.210407 0.710018 0.304097
0.216968 0.698756 0.226658
0.221576 0.696101 0.191562
0.433875 0.74522 0.242756
0.816037 0.890425 0.41593
0.912871 0.910811 0.533227
0.912291 0.914092 0.556115
0.910796 0.914687 0.561654
0.216815 0.730037 0.390555
0.211521 0.722393 0.360235
0.224033 0.700801 0.246647
0.238254 0.695628 0.171054
0.450614 0.752316 0.230167
0.806592 0.887633 0.39617
0.916106 0.907897 0.509133
0.917556 0.912337 0.536873
0.911177 0.914565 0.560037
0.217655 0.739986 0.429831
0.212634 0.731182 0.395773
0.219837 0.704219 0.270771
0.238254 0.695628 0.171054
0.452461 0.753033 0.230991
0.815854 0.889158 0.4009
0.915007 0.9084 0.513207
0.914778 0.913298 0.547356
0.909072 0.915312 0.568414
0.0413519 0.059678 0.120684
0.0443885 0.0604868 0.133547
0.0769055 0.0528267 0.157214
0.229053 0.0491493 0.149966
0.448814 0.0429541 0.174289
0.57789 0.0583658 0.224216
0.612833 0.0792859 0.263706
0.615854 0.0869306 0.289052
0.594614 0.0971389 0.332204
0.0408484 0.0618448 0.116304
0.0411536 0.0614023 0.128466
0.0636912 0.0532692 0.163394
0.228885 0.0505989 0.165209
0.461494 0.0430152 0.179034
0.585184 0.0613718 0.226688
0.612787 0.0792096 0.263279
0.615747 0.0864729 0.287205
0.594018 0.0962234 0.328984
0.0454108 0.112413 0.128969
0.0428626 0.108537 0.143664
0.0529641 0.0979629 0.178302
0.23209 0.0632792 0.188113
0.474525 0.0395819 0.141833
0.590616 0.0546731 0.190875
0.61326 0.0686351 0.225864
0.618677 0.0745556 0.24506
0.598917 0.0825513 0.281483
0.0564889 0.25095 0.183642
0.0502632 0.25539 0.198932
0.0501106 0.249775 0.194934
0.296727 0.307851 0.285649
0.609186 0.167636 0.227909
0.64651 0.092607 0.208637
0.604959 0.0593576 0.170794
0.595483 0.0539559 0.162402
0.585779 0.0567788 0.17792
0.0544137 0.517678 0.223087
0.0497597 0.527016 0.249729
0.0489052 0.518914 0.202838
0.0533303 0.500679 0.0839246
0.605341 0.616175 0.164172
0.831708 0.49778 0.197589
0.841672 0.371252 0.192493
0.83447 0.343252 0.192325
0.826703 0.345144 0.207645
0.188174 0.701762 0.370108
0.178958 0.707851 0.385351
0.176745 0.699077 0.342397
0.18587 0.675624 0.212467
0.374212 0.716533 0.210285
0.834073 0.854597 0.36875
0.912047 0.84712 0.425025
0.911284 0.838849 0.417899
0.911589 0.837873 0.41735
0.240558 0.747356 0.457633
0.226505 0.749767 0.465766
0.216281 0.736294 0.415427
0.215763 0.700343 0.241337
0.312535 0.7075 0.200305
0.752453 0.875425 0.381994
0.912505 0.909758 0.525887
0.912795 0.91368 0.552529
0.911635 0.914366 0.558618
0.243336 0.763317 0.518395
0.236271 0.7608 0.508644
0.22501 0.748272 0.460365
0.222797 0.702907 0.26215
0.300847 0.704952 0.179767
0.726543 0.867048 0.357244
0.915724 0.904555 0.487068
0.917556 0.912398 0.537346
0.911208 0.914626 0.560464
0.2448 0.771115 0.549767
0.241627 0.767758 0.535485
0.230228 0.754849 0.485481
0.221714 0.706508 0.284504
0.304845 0.705577 0.180423
0.72668 0.867094 0.357534
0.912245 0.904967 0.493523
0.914778 0.913252 0.547112
0.909361 0.915282 0.567468
0.0417029 0.0802777 0.234913
0.0420996 0.0801404 0.253697
0.0562295 0.078996 0.287129
0.194064 0.0587778 0.337331
0.426352 0.0551308 0.338003
0.591165 0.0912184 0.35787
0.636179 0.11635 0.394202
0.636088 0.119997 0.417807
0.612268 0.129335 0.459892
0.0417639 0.0828107 0.225452
0.0415961 0.0836194 0.252689
0.0497597 0.0819104 0.295033
0.192279 0.0598001 0.356069
0.438392 0.0573129 0.354955
0.602533 0.0981155 0.369329
0.637766 0.11812 0.402945
0.635737 0.120287 0.423789
0.612345 0.129839 0.464836
0.0413519 0.102144 0.224537
0.0414893 0.0956893 0.24152
0.0415351 0.0872053 0.274952
0.144778 0.0600595 0.360143
0.43473 0.0585031 0.363287
0.611292 0.0964218 0.354681
0.647105 0.113481 0.381064
0.648356 0.115755 0.398627
0.625467 0.124315 0.437675
0.0432441 0.258717 0.323293
0.0428626 0.258427 0.344045
0.0429694 0.238972 0.35021
0.116686 0.215137 0.430365
0.498497 0.136767 0.444419
0.618173 0.0957046 0.328664
0.646097 0.0996109 0.322789
0.647837 0.103105 0.333425
0.626566 0.111238 0.366262
0.0567788 0.512596 0.411978
0.051194 0.518212 0.43978
0.0508431 0.518196 0.4421
0.055436 0.513664 0.440375
0.580865 0.592157 0.56347
0.875776 0.46714 0.530602
0.917327 0.38732 0.532586
0.911467 0.363973 0.527611
0.900374 0.35761 0.534401
0.201434 0.71873 0.50959
0.185351 0.727672 0.53814
0.182803 0.727214 0.529076
0.170489 0.716152 0.483253
0.253635 0.703243 0.352087
0.811368 0.853315 0.506935
0.91812 0.784512 0.536049
0.915831 0.76321 0.521798
0.913466 0.760922 0.52726
0.275654 0.781277 0.598718
0.261372 0.784024 0.610498
0.256565 0.781109 0.596445
0.2448 0.769985 0.545007
0.213016 0.704402 0.271473
0.680537 0.854597 0.366552
0.917617 0.914122 0.548043
0.916182 0.924727 0.649271
0.914549 0.925902 0.659739
0.270024 0.787655 0.636561
0.265934 0.787518 0.635447
0.261875 0.785794 0.620432
0.25095 0.775402 0.568841
0.219562 0.706142 0.282902
0.642481 0.837446 0.319677
0.914336 0.908583 0.502464
0.915923 0.924117 0.643565
0.909957 0.928328 0.679515
0.274571 0.7897 0.654795
0.270207 0.789899 0.652857
0.265049 0.787839 0.636515
0.25478 0.778881 0.584298
0.219455 0.71017 0.305806
0.649317 0.840085 0.324788
0.910002 0.910399 0.517281
0.913695 0.92668 0.666194
0.908705 0.930312 0.698802
0.0419928 0.104845 0.35227
0.0421149 0.104128 0.370977
0.047715 0.101579 0.40058
0.144427 0.0691691 0.468971
0.398016 0.0747845 0.489433
0.563241 0.114488 0.497902
0.622309 0.143603 0.546059
0.621042 0.14641 0.561135
0.612818 0.149493 0.575174
0.0421302 0.108537 0.352117
0.0422522 0.108339 0.367971
0.044358 0.104509 0.402274
0.13843 0.0711223 0.477836
0.407309 0.0790875 0.500023
0.57612 0.122469 0.513237
0.624125 0.144442 0.552224
0.617914 0.14786 0.568383
0.608026 0.151202 0.582712
0.0421607 0.120943 0.359945
0.0421607 0.114611 0.360281
0.0421302 0.110155 0.376669
0.106096 0.100328 0.460609
0.40058 0.0809033 0.508553
0.580819 0.124956 0.518547
0.634577 0.141909 0.543282
0.628077 0.145403 0.559426
0.612268 0.149889 0.577279
0.0431373 0.234699 0.430213
0.0431067 0.228046 0.436103
0.0427253 0.201419 0.430823
0.0464027 0.162799 0.470436
0.380056 0.103014 0.540536
0.564355 0.117464 0.504997
0.638788 0.136934 0.516289
0.63566 0.139055 0.527916
0.618265 0.144594 0.54934
0.0515145 0.517235 0.549325
0.0513161 0.521447 0.560998
0.0513313 0.5196 0.567697
0.0484474 0.500481 0.573144
0.400122 0.49688 0.697658
0.806958 0.423285 0.758038
0.871107 0.334112 0.707759
0.857542 0.312535 0.695796
0.835676 0.317052 0.706462
0.182528 0.701457 0.622919
0.172793 0.706996 0.637537
0.172503 0.706996 0.638483
0.166033 0.701106 0.633402
0.264057 0.724025 0.654124
0.783764 0.806195 0.773846
0.923018 0.745007 0.760678
0.922301 0.72903 0.762753
0.915618 0.727764 0.772
0.290379 0.79266 0.693156
0.278874 0.794675 0.700984
0.277638 0.7944 0.697002
0.274739 0.792981 0.68307
0.265202 0.787427 0.633997
0.669718 0.866285 0.697398
0.896391 0.936461 0.8262
0.909758 0.938293 0.839353
0.909651 0.936797 0.840253
0.298299 0.793332 0.706264
0.283009 0.795621 0.714519
0.280507 0.795483 0.710399
0.277256 0.794141 0.694469
0.26685 0.788235 0.640314
0.580621 0.840452 0.635782
0.864027 0.927657 0.775509
0.909224 0.94696 0.884092
0.911223 0.947356 0.88603
0.288762 0.795712 0.723033
0.28542 0.796139 0.723873
0.282765 0.796017 0.719219
0.278599 0.794797 0.701793
0.268254 0.789014 0.646433
0.587884 0.845487 0.651591
0.8589 0.925963 0.779538
0.907317 0.947402 0.887968
0.908583 0.949111 0.897704
0.0425116 0.133501 0.418723
0.0426337 0.132967 0.431846
0.0453193 0.129335 0.456321
0.131014 0.126116 0.511727
0.371069 0.114748 0.57052
0.548516 0.138827 0.589975
0.610132 0.157748 0.614008
0.612192 0.157321 0.612619
0.611505 0.157458 0.613123
0.0426032 0.13817 0.419562
0.0425727 0.137819 0.427436
0.0435492 0.1346 0.453346
0.129412 0.130236 0.514626
0.385489 0.118486 0.576074
0.564126 0.143862 0.596597
0.610437 0.157687 0.613809
0.610239 0.157717 0.613947
0.60914 0.157961 0.614603
0.0425116 0.143389 0.422034
0.0425116 0.141649 0.421714
0.0425727 0.140627 0.430762
0.092256 0.132998 0.50219
0.372961 0.12047 0.579934
0.567666 0.145708 0.600427
0.611566 0.157458 0.613077
0.611307 0.157504 0.613245
0.60972 0.157824 0.614298
0.0428931 0.207034 0.462455
0.0428931 0.20119 0.461479
0.0427253 0.173754 0.447028
0.04271 0.145403 0.447044
0.283955 0.108476 0.562753
0.543481 0.138537 0.592416
0.612421 0.157168 0.611627
0.612787 0.157259 0.612375
0.610224 0.157778 0.614099
0.0551614 0.51577 0.615946
0.0560616 0.518364 0.621195
0.0552224 0.513283 0.623499
0.0509041 0.484916 0.620218
0.258854 0.462638 0.73344
0.742443 0.381353 0.851667
0.778653 0.300633 0.763348
0.763561 0.283665 0.748348
0.755642 0.283909 0.748867
0.172 0.698253 0.69102
0.172869 0.702235 0.696071
0.173068 0.702541 0.69836
0.166247 0.696269 0.698756
0.207218 0.697169 0.716625
0.697185 0.755825 0.854734
0.910445 0.718059 0.886458
0.926284 0.69865 0.886687
0.921523 0.697917 0.888548
0.293584 0.794263 0.730373
0.283818 0.795865 0.736278
0.282795 0.795239 0.735821
0.280278 0.793973 0.734569
0.273075 0.788785 0.728435
0.683299 0.887465 0.8374
0.892836 0.932631 0.898589
0.908202 0.932097 0.900893
0.908721 0.929488 0.900816
0.299016 0.795163 0.731365
0.285817 0.797223 0.73901
0.287144 0.797513 0.739345
0.287449 0.797543 0.738689
0.285283 0.796735 0.729107
0.510033 0.856809 0.776181
0.900816 0.948531 0.9084
0.91725 0.951812 0.912398
0.917632 0.951766 0.912245
0.287816 0.796933 0.737911
0.286671 0.797162 0.738766
0.286275 0.797299 0.739162
0.287633 0.797604 0.739223
0.285222 0.796735 0.728954
0.510201 0.85687 0.776883
0.900053 0.948562 0.909178
0.911864 0.952422 0.915007
0.913161 0.952987 0.917189
0.042649 0.143984 0.439567
0.0427405 0.143053 0.450919
0.0472419 0.139269 0.473045
0.141207 0.134524 0.52575
0.384436 0.12166 0.582116
0.560876 0.143816 0.598795
0.610132 0.157748 0.614023
0.610422 0.157687 0.613825
0.610162 0.157748 0.613993
0.0425879 0.144396 0.431617
0.0426642 0.143877 0.44126
0.0446174 0.140383 0.4663
0.139956 0.135393 0.525002
0.39823 0.122942 0.583932
0.575006 0.147738 0.603006
0.610254 0.157717 0.613931
0.610132 0.157748 0.614023
0.60914 0.157961 0.614603
0.0425269 0.144045 0.425025
0.0425422 0.144549 0.426535
0.0426642 0.143893 0.441627
0.101976 0.134752 0.509102
0.384985 0.121691 0.582177
0.57528 0.147982 0.603387
0.610773 0.15761 0.613611
0.610758 0.15761 0.613626
0.609705 0.157824 0.614313
0.0429541 0.206622 0.474022
0.0429389 0.195026 0.467155
0.0426795 0.169009 0.448218
0.0427253 0.14374 0.449943
0.28864 0.110582 0.56669
0.54406 0.139116 0.594949
0.610422 0.157748 0.613977
0.610391 0.157748 0.613977
0.610071 0.157824 0.614191
0.0575265 0.514565 0.639979
0.0579538 0.516899 0.642741
0.0556039 0.507179 0.63798
0.0497139 0.468391 0.620264
0.225879 0.434638 0.724514
0.710292 0.34432 0.833448
0.743633 0.270985 0.741253
0.72958 0.2542 0.724956
0.725048 0.254231 0.724834
0.187335 0.714473 0.712932
0.188388 0.717083 0.71426
0.187015 0.715679 0.714183
0.176318 0.706096 0.71107
0.197604 0.697017 0.717784
0.655543 0.736324 0.854414
0.897124 0.700664 0.916457
0.913069 0.67602 0.914702
0.911986 0.675975 0.914611
0.292866 0.794324 0.732906
0.284047 0.795956 0.738354
0.283375 0.795422 0.738231
0.282032 0.794491 0.738033
0.27541 0.788937 0.736294
0.622232 0.872267 0.83827
0.886763 0.926635 0.91014
0.916411 0.920668 0.908644
0.919005 0.917388 0.906462
0.289265 0.796643 0.73698
0.286198 0.797269 0.739071
0.286091 0.797284 0.739132
0.286091 0.797284 0.739132
0.286137 0.797269 0.739101
0.343862 0.808454 0.751949
0.898238 0.948562 0.913237
0.914366 0.952697 0.916274
0.915206 0.952499 0.915373
0.28661 0.797177 0.738811
0.286275 0.797238 0.739025
0.286091 0.797284 0.739132
0.286091 0.797284 0.739132
0.286137 0.797269 0.739101
0.369162 0.817456 0.761151
0.897002 0.948211 0.912718
0.912093 0.953246 0.918257
0.912077 0.953262 0.918273
0.0426947 0.143557 0.445457
0.0429847 0.142275 0.456809
0.0502022 0.137957 0.477836
0.147189 0.128695 0.530648
0.395346 0.122576 0.583368
0.569085 0.146319 0.601419
0.610132 0.157748 0.614023
0.610361 0.157687 0.613855
0.610101 0.157748 0.614038
0.0426184 0.144305 0.43563
0.04271 0.143526 0.446235
0.0464027 0.13959 0.471595
0.146044 0.129686 0.529702
0.407797 0.123919 0.585245
0.582162 0.149599 0.605051
0.610254 0.157717 0.613931
0.610117 0.157748 0.614023
0.60914 0.157961 0.614603
0.0425422 0.144701 0.425788
0.0425422 0.144533 0.427466
0.04271 0.143557 0.445945
0.109987 0.13518 0.512795
0.39324 0.122454 0.5832
0.58056 0.149462 0.605127
0.610788 0.15761 0.613611
0.610758 0.15761 0.613626
0.609705 0.157824 0.614313
0.0429389 0.203494 0.471946
0.042771 0.192203 0.464408
0.0427405 0.164843 0.445182
0.0427558 0.142748 0.45275
0.29604 0.111421 0.567864
0.546853 0.139864 0.59559
0.61004 0.157794 0.61416
0.610422 0.157748 0.613962
0.610071 0.157809 0.614191
0.0558328 0.506889 0.637522
0.0560006 0.50811 0.638941
0.0538796 0.497734 0.634165
0.0486915 0.456382 0.614725
0.218814 0.41593 0.718898
0.69604 0.324819 0.818647
0.729641 0.254551 0.725261
0.715053 0.240208 0.710353
0.711086 0.240711 0.710979
0.187137 0.714321 0.713176
0.187579 0.716228 0.714397
0.185245 0.713726 0.713726
0.172625 0.702785 0.710201
0.189258 0.690211 0.715023
0.648646 0.725124 0.852552
0.895033 0.690959 0.916548
0.912978 0.665583 0.915221
0.912367 0.666194 0.915297
0.292393 0.79472 0.733623
0.284382 0.796216 0.738552
0.283726 0.795727 0.738308
0.282109 0.794553 0.738048
0.27303 0.787243 0.736156
0.611643 0.868666 0.83592
0.883223 0.922316 0.909514
0.919188 0.913024 0.904952
0.917082 0.91136 0.907134
0.289036 0.796689 0.737118
0.286183 0.797269 0.739086
0.286091 0.797284 0.739132
0.286091 0.797284 0.739132
0.286091 0.797284 0.739132
0.33489 0.806455 0.750057
0.890883 0.946639 0.910872
0.915038 0.952529 0.915557
0.915328 0.952468 0.915236
0.286595 0.797177 0.738811
0.286275 0.797238 0.739025
0.286091 0.797284 0.739132
0.286091 0.797284 0.739132
0.286091 0.797284 0.739132
0.31577 0.802045 0.744717
0.885298 0.945159 0.908995
0.911818 0.953307 0.918471
0.912032 0.953262 0.918303
