bundles/resolve-cinematic-luts/Phantom Luts/Canon Film LUT/C-Log 2/EastmanRM Canon-Legacy CL2.cube
TITLE "Generated by Resolve"
LUT_3D_SIZE 33
0.0467994 0.0427558 0.0430152
0.0486152 0.0419776 0.041886
0.0517891 0.0411231 0.0406806
0.0559396 0.0405127 0.040177
0.0624552 0.0400397 0.0400092
0.0747234 0.0387579 0.0393683
0.0958267 0.0373693 0.0384222
0.118303 0.0359808 0.0374762
0.140429 0.035523 0.0376745
0.16556 0.0346227 0.0380255
0.196704 0.0340734 0.0388342
0.232471 0.0333257 0.039765
0.277943 0.0317998 0.0413825
0.329 0.0302892 0.0423743
0.376989 0.0298314 0.0443122
0.421988 0.0293126 0.0471962
0.46424 0.0287633 0.0509957
0.501549 0.0289616 0.0565042
0.531334 0.0299687 0.0634928
0.55523 0.0319829 0.0730907
0.574762 0.0356909 0.0843519
0.592782 0.0400549 0.0984054
0.603601 0.0433814 0.10988
0.605295 0.0442512 0.114214
0.606394 0.0449073 0.117693
0.60708 0.0454871 0.120714
0.607828 0.0461891 0.1234
0.608545 0.0466926 0.125689
0.607309 0.0473945 0.12929
0.602731 0.0486 0.136645
0.59646 0.0500343 0.145586
0.583337 0.0525673 0.160082
0.570352 0.0551461 0.175296
0.0468605 0.0432441 0.0431373
0.0468147 0.0429084 0.0430152
0.0490883 0.0422065 0.0418708
0.0530098 0.0412299 0.0406348
0.058854 0.0404669 0.0402228
0.0680095 0.0396735 0.0400397
0.0846265 0.0384985 0.0395972
0.110643 0.0367437 0.0383459
0.135454 0.0359197 0.0378729
0.162356 0.0348974 0.0378424
0.192416 0.0345464 0.0390478
0.22768 0.0337835 0.0402075
0.276066 0.0320745 0.0413062
0.330648 0.0301823 0.0419013
0.380514 0.0296483 0.0438849
0.425605 0.0291905 0.0465248
0.467536 0.0287175 0.0505379
0.504021 0.0290532 0.0559854
0.533211 0.0301366 0.0630808
0.556741 0.0321965 0.0727703
0.576288 0.0360876 0.0843671
0.593668 0.0401923 0.0981308
0.602899 0.043061 0.1084
0.604715 0.0439002 0.112917
0.606058 0.0447089 0.116381
0.606806 0.045182 0.119432
0.607416 0.0458991 0.122179
0.608148 0.0463874 0.124315
0.607034 0.0470741 0.127916
0.602167 0.0482338 0.135042
0.595773 0.0496223 0.143984
0.582788 0.0521096 0.158404
0.56965 0.0546883 0.173724
0.0468147 0.046128 0.0439765
0.0464942 0.046128 0.0443885
0.0473945 0.045594 0.0438239
0.0509041 0.0439765 0.0423743
0.0567636 0.0422065 0.0408179
0.0654612 0.0405432 0.0401923
0.0799573 0.039292 0.040177
0.101503 0.0380713 0.0398871
0.128435 0.0365911 0.0387579
0.157504 0.0353094 0.038056
0.18941 0.0348211 0.0387579
0.224292 0.034226 0.0402533
0.271427 0.0326543 0.041474
0.32665 0.0305791 0.0425116
0.379736 0.0298161 0.0435798
0.428183 0.0291295 0.0458228
0.470298 0.0287327 0.049897
0.506416 0.0291447 0.055314
0.534646 0.0302739 0.0624857
0.557809 0.0324407 0.0720684
0.577661 0.0364233 0.0838941
0.594491 0.0403296 0.0977493
0.602029 0.0426947 0.106142
0.603845 0.0434882 0.110658
0.605402 0.0443275 0.114534
0.606363 0.044892 0.117693
0.607004 0.0454108 0.120409
0.607569 0.0460365 0.122744
0.606592 0.0466468 0.126101
0.601556 0.0478218 0.133318
0.595071 0.0491035 0.141817
0.582223 0.0514382 0.156237
0.568643 0.0540475 0.171405
0.0470741 0.0497444 0.0444953
0.0462654 0.0499886 0.0452735
0.0465248 0.0494087 0.045243
0.048661 0.0487221 0.0442359
0.0540932 0.0473793 0.0430915
0.0641489 0.0441901 0.0414588
0.0799115 0.0413062 0.0405737
0.0993057 0.0390936 0.0400244
0.123812 0.0378119 0.0400549
0.15108 0.0361334 0.0387884
0.184649 0.0352026 0.0386969
0.221714 0.0345159 0.0396277
0.26862 0.0327764 0.0408637
0.322438 0.0310979 0.0424659
0.374243 0.0299229 0.0435492
0.423529 0.0294652 0.0458839
0.469474 0.0288548 0.0495308
0.507744 0.0292058 0.0542611
0.535546 0.0304112 0.0612192
0.558206 0.0326848 0.070634
0.578332 0.0366369 0.0827344
0.595071 0.0403601 0.0968185
0.601297 0.0421454 0.103807
0.602625 0.0429389 0.107698
0.604257 0.0437018 0.111681
0.605661 0.04448 0.115282
0.606439 0.0449226 0.117937
0.606973 0.0453651 0.120272
0.605783 0.046128 0.123919
0.600748 0.0472419 0.130556
0.594186 0.0485695 0.139284
0.581415 0.0508125 0.154086
0.567605 0.0533455 0.16907
0.047303 0.0564279 0.0452125
0.0464179 0.056733 0.0458686
0.0463264 0.0564126 0.0462501
0.0473182 0.0556344 0.0462196
0.0503853 0.0545663 0.0451667
0.0603189 0.0537728 0.0441291
0.0747845 0.049073 0.0425574
0.0969711 0.0446784 0.0413214
0.122271 0.0404974 0.0403601
0.151156 0.0379034 0.0397345
0.184955 0.0361334 0.0393072
0.220386 0.0346838 0.0394751
0.268757 0.0328069 0.0399481
0.319707 0.031281 0.0417487
0.370169 0.0301518 0.0428931
0.417823 0.0296941 0.0451057
0.463035 0.02916 0.0491188
0.50251 0.0295415 0.0543984
0.532967 0.0306554 0.0607614
0.556786 0.0329595 0.0694285
0.578256 0.0367895 0.0811475
0.595376 0.0403906 0.0951247
0.600153 0.041474 0.100465
0.601343 0.0421759 0.104036
0.602625 0.0429389 0.107622
0.604105 0.0436255 0.111284
0.605386 0.0442969 0.114443
0.606165 0.0448005 0.116838
0.604623 0.0453498 0.120531
0.599649 0.0464179 0.127199
0.592966 0.0477607 0.135882
0.580285 0.0499275 0.15021
0.56672 0.0522927 0.164721
0.0482032 0.0688945 0.0464942
0.0467842 0.0694285 0.0468147
0.0465095 0.0687419 0.0469215
0.0472267 0.0673228 0.0469368
0.0488594 0.0670939 0.0472725
0.055024 0.0665141 0.046891
0.0696727 0.0654917 0.0462043
0.0916609 0.0605173 0.044831
0.117891 0.051606 0.0426795
0.146777 0.0435492 0.0413367
0.179171 0.0394751 0.0404059
0.22414 0.0361181 0.0402075
0.274083 0.033402 0.0401312
0.323857 0.0310521 0.0405737
0.372 0.0299687 0.0415503
0.416358 0.0297856 0.0437324
0.457969 0.0292058 0.0471351
0.496345 0.0295872 0.0528573
0.526558 0.0309758 0.0604868
0.548501 0.0336309 0.0701457
0.568994 0.0376135 0.0826429
0.588098 0.041062 0.0975052
0.591821 0.041825 0.102632
0.593164 0.0421454 0.105562
0.594553 0.0427405 0.108766
0.595773 0.0432746 0.112093
0.597147 0.0438697 0.115221
0.598001 0.0444953 0.117968
0.598611 0.0450752 0.120409
0.596048 0.0459144 0.125124
0.590799 0.0469368 0.131502
0.578759 0.0487984 0.145327
0.565316 0.0510109 0.160052
0.0491493 0.0842603 0.0479744
0.0476692 0.0852064 0.0482643
0.0488899 0.0837415 0.047013
0.0506752 0.0820325 0.0462654
0.0535744 0.0807507 0.0457618
0.0581979 0.0802319 0.0457771
0.0728466 0.0786145 0.0448768
0.099443 0.0765393 0.044419
0.127626 0.0714885 0.043595
0.155215 0.0619211 0.042298
0.186206 0.0510414 0.0416571
0.226795 0.0404974 0.0400854
0.279438 0.0350195 0.0390784
0.338354 0.0315404 0.0403449
0.382971 0.0301366 0.0409552
0.422934 0.0296635 0.0425116
0.458625 0.029221 0.0451667
0.492821 0.0295415 0.0497292
0.522362 0.0308232 0.0568399
0.545312 0.0335241 0.0661631
0.565087 0.0371862 0.078294
0.585351 0.0406653 0.0919966
0.588083 0.0411688 0.0965744
0.590219 0.0415961 0.100252
0.59176 0.0419928 0.103456
0.592676 0.042237 0.105898
0.593866 0.0426795 0.108644
0.594583 0.0430762 0.111086
0.595544 0.0435035 0.113512
0.594598 0.0440681 0.117189
0.591394 0.0449378 0.121828
0.583413 0.0463722 0.130587
0.574762 0.0478828 0.140429
0.0549325 0.100816 0.0468452
0.051545 0.102388 0.048127
0.0498054 0.103075 0.0483253
0.0504768 0.102266 0.0480201
0.0533608 0.100618 0.0474708
0.0579232 0.0994736 0.0470893
0.0654612 0.0994583 0.0475013
0.0905623 0.0977035 0.0464637
0.122454 0.0944686 0.0459297
0.157076 0.0901045 0.0455177
0.190448 0.0792859 0.0436866
0.231861 0.0604257 0.04271
0.285252 0.0420844 0.0407111
0.337636 0.0354314 0.0399176
0.39379 0.0313726 0.0400702
0.437842 0.0300145 0.0417945
0.470619 0.0295109 0.0442664
0.497169 0.0298009 0.0485237
0.519905 0.0308385 0.0543679
0.540459 0.0329442 0.0612802
0.559945 0.0366979 0.0722972
0.578546 0.0402075 0.0833143
0.581827 0.0404669 0.0876783
0.584833 0.0406958 0.0911421
0.587091 0.0408942 0.0946059
0.589242 0.0414435 0.0978714
0.590631 0.0416419 0.100633
0.591623 0.0419318 0.103044
0.592294 0.0421302 0.104631
0.591089 0.0424353 0.107637
0.588113 0.0430304 0.11252
0.580682 0.0441901 0.121248
0.572045 0.0455634 0.129992
0.0576181 0.122438 0.0492409
0.0538796 0.124102 0.0501717
0.0509346 0.125399 0.0505837
0.0506752 0.125017 0.049958
0.052369 0.123598 0.0497292
0.0573129 0.122133 0.0492714
0.0652018 0.121538 0.0490883
0.0766613 0.121386 0.0497749
0.112367 0.118578 0.0482185
0.151659 0.113664 0.0479896
0.193423 0.110719 0.0474861
0.241459 0.0951858 0.0455024
0.2963 0.06981 0.0433814
0.345983 0.0495613 0.043122
0.395666 0.0368353 0.0410925
0.439445 0.0322576 0.040177
0.481224 0.0306096 0.0429999
0.508675 0.0306859 0.0468299
0.527153 0.0318761 0.0533761
0.541039 0.0334783 0.0600137
0.556115 0.0363928 0.0683146
0.572259 0.0396887 0.0773175
0.575021 0.0400244 0.0800946
0.577371 0.0401465 0.0818341
0.579202 0.0403601 0.0838941
0.581399 0.0404822 0.0870069
0.583413 0.0406958 0.0894026
0.585382 0.0407263 0.0915541
0.586435 0.0408179 0.0932174
0.585504 0.0411231 0.0962081
0.582361 0.0417792 0.100465
0.574929 0.0429389 0.109133
0.566995 0.0440833 0.118181
0.061677 0.148394 0.0513619
0.0570535 0.150332 0.0527962
0.0537575 0.151568 0.0531624
0.05243 0.151736 0.0531014
0.0525978 0.150729 0.0529335
0.0554513 0.149126 0.0526436
0.0624857 0.148333 0.0517586
0.0739757 0.148653 0.0517586
0.0925917 0.148302 0.0525216
0.139788 0.145724 0.0507515
0.190402 0.139071 0.052369
0.2477 0.13608 0.0502632
0.307744 0.113344 0.0471351
0.36144 0.0838483 0.0436103
0.405631 0.0600748 0.0437018
0.447303 0.0424659 0.0428931
0.479622 0.0360113 0.0421302
0.508766 0.0334478 0.0448157
0.53019 0.0346075 0.0515602
0.547631 0.0367742 0.0599222
0.560754 0.0382849 0.0682841
0.569497 0.0396277 0.0749371
0.57351 0.0401312 0.0770886
0.573205 0.0400244 0.0771649
0.573709 0.0400092 0.0780194
0.574563 0.0400549 0.0791638
0.575509 0.0400549 0.0801862
0.57644 0.040116 0.081117
0.577218 0.040177 0.0814221
0.575952 0.0404974 0.0834211
0.572793 0.0409552 0.0871595
0.565148 0.0419928 0.094316
0.556909 0.0430915 0.1028
0.0649119 0.179965 0.0535134
0.0594644 0.182025 0.0542916
0.0558175 0.183459 0.0547799
0.0542306 0.183963 0.0546731
0.0536355 0.183551 0.0552834
0.0543069 0.181872 0.0552071
0.057908 0.180758 0.0549325
0.0670176 0.181292 0.0541848
0.0832532 0.182513 0.0542
0.1122 0.182376 0.0561532
0.174746 0.18143 0.0540475
0.250477 0.171954 0.0551308
0.325139 0.170794 0.0541543
0.383459 0.142519 0.0506142
0.425162 0.109804 0.04477
0.46125 0.0791485 0.0446021
0.489754 0.0552529 0.0464332
0.511803 0.0452735 0.04654
0.525643 0.0396277 0.0475776
0.543542 0.0411383 0.0577554
0.563973 0.0428931 0.0676127
0.578668 0.0435645 0.0763561
0.579843 0.0428168 0.0784314
0.577829 0.0417792 0.076936
0.578012 0.0416419 0.0771954
0.577783 0.0414893 0.0776226
0.57583 0.0410315 0.0776074
0.573526 0.0402686 0.0769055
0.573175 0.040116 0.0769818
0.571328 0.0403449 0.0782483
0.567285 0.0408026 0.0808576
0.559411 0.041825 0.0870222
0.551003 0.0429084 0.0945754
0.0612802 0.222416 0.049546
0.0564279 0.224872 0.0502022
0.052903 0.226932 0.0505989
0.0516365 0.227939 0.05037
0.0510109 0.228824 0.050721
0.0510414 0.227741 0.0507668
0.0513313 0.226001 0.0505989
0.0552987 0.225895 0.0508125
0.0655833 0.229175 0.051133
0.088426 0.232929 0.0520638
0.129122 0.234897 0.0563516
0.225803 0.243442 0.0571298
0.334966 0.234714 0.0603494
0.418326 0.23801 0.0609598
0.474784 0.204959 0.0593576
0.505135 0.157916 0.0522164
0.520928 0.113024 0.0488746
0.530388 0.0773785 0.0504616
0.541207 0.0668345 0.0547646
0.546883 0.0523384 0.0548409
0.559228 0.0492256 0.0634623
0.573999 0.0487221 0.073991
0.581903 0.0488136 0.0814832
0.580545 0.0481575 0.0830396
0.578378 0.0475471 0.0842603
0.575952 0.0472572 0.0861524
0.57258 0.0464332 0.0863661
0.569909 0.0455024 0.0859388
0.568566 0.0449683 0.0859541
0.568353 0.0448157 0.0864576
0.568414 0.0449226 0.0870527
0.565744 0.0454871 0.0893416
0.560067 0.0464485 0.0941024
0.0594186 0.280476 0.0464637
0.0547799 0.283314 0.0475624
0.0514992 0.285771 0.0478676
0.0499886 0.287266 0.0474708
0.0502327 0.288655 0.0471656
0.050721 0.289448 0.0470588
0.0510414 0.286687 0.0467689
0.0525521 0.285405 0.0470588
0.0577859 0.28658 0.0475013
0.0719921 0.292271 0.0481422
0.103655 0.298238 0.049897
0.159701 0.305486 0.0565805
0.308766 0.3252 0.0587472
0.432471 0.318639 0.0634318
0.509987 0.321248 0.064271
0.564553 0.295537 0.0623484
0.599191 0.237446 0.0632486
0.603357 0.177249 0.0608225
0.59498 0.133349 0.0632486
0.584054 0.103075 0.0677195
0.58262 0.0827039 0.0679179
0.585779 0.0630198 0.0661021
0.585992 0.0561837 0.0688182
0.584833 0.0541238 0.0696727
0.585351 0.0535439 0.072343
0.58674 0.0535744 0.0758526
0.586877 0.0533913 0.0778821
0.585504 0.0525521 0.0785687
0.584222 0.052018 0.0788128
0.583032 0.0515297 0.0789197
0.582086 0.0508278 0.0785382
0.578576 0.050721 0.0796826
0.57232 0.0513313 0.0822156
0.0565347 0.341238 0.0417639
0.0525978 0.343618 0.0426337
0.0500496 0.345968 0.0433204
0.049073 0.347585 0.0430915
0.0484932 0.349538 0.0429389
0.0484016 0.350866 0.0430304
0.0487068 0.351354 0.0427253
0.0491035 0.34728 0.0426184
0.0507668 0.34725 0.0427558
0.0582132 0.350484 0.0429847
0.0767681 0.358251 0.0432136
0.118318 0.365347 0.0451057
0.209522 0.382788 0.0534218
0.399298 0.412146 0.0571756
0.522622 0.406073 0.0672007
0.587411 0.407767 0.0725872
0.643229 0.397925 0.0737316
0.680766 0.348455 0.0738689
0.69456 0.273182 0.076585
0.687526 0.218128 0.0855116
0.656809 0.160388 0.0919051
0.64654 0.135286 0.0931106
0.635004 0.116655 0.0894026
0.625345 0.103304 0.0825208
0.618524 0.0957046 0.0789807
0.613611 0.0892958 0.0764782
0.60943 0.0835584 0.0743572
0.605966 0.079057 0.0722057
0.604089 0.0759594 0.0713359
0.603052 0.074464 0.0709392
0.602701 0.0738384 0.0708934
0.600137 0.0741588 0.0722972
0.594842 0.0752422 0.0755779
0.0531472 0.399496 0.0374609
0.0504311 0.401831 0.0390784
0.0483711 0.403998 0.0403601
0.047776 0.405432 0.0406806
0.0473182 0.407279 0.0406653
0.0471809 0.408682 0.0405737
0.047364 0.410117 0.0404669
0.0476997 0.408545 0.0399023
0.0479896 0.406073 0.0395972
0.0504311 0.406622 0.0394141
0.0608682 0.412573 0.0390478
0.0876326 0.42211 0.0394293
0.144762 0.431342 0.0415656
0.29337 0.469139 0.0537423
0.485283 0.495293 0.0611124
0.598596 0.490822 0.0785534
0.655024 0.492042 0.0909438
0.703487 0.493477 0.100877
0.740673 0.460929 0.103746
0.762554 0.388251 0.108003
0.769055 0.327657 0.109941
0.758999 0.273594 0.114855
0.733944 0.215595 0.119158
0.716182 0.191546 0.116457
0.708324 0.183398 0.114687
0.705516 0.180407 0.114
0.702663 0.177935 0.113161
0.701045 0.176242 0.112795
0.700191 0.17557 0.112551
0.699565 0.175174 0.112276
0.699611 0.175235 0.112291
0.697002 0.176501 0.114733
0.691768 0.178653 0.119631
0.0561379 0.455833 0.0377661
0.0529335 0.457862 0.0401007
0.0512703 0.459922 0.0426795
0.05037 0.461875 0.0436866
0.0501411 0.463218 0.0440986
0.0501869 0.46453 0.0440986
0.0504311 0.466133 0.0445716
0.0507515 0.466438 0.0442359
0.0507973 0.463966 0.043061
0.0518654 0.464179 0.0423743
0.057435 0.46511 0.0416876
0.0770581 0.474067 0.041062
0.119203 0.485023 0.0412451
0.209949 0.502312 0.0454108
0.397452 0.553506 0.0647746
0.562615 0.571374 0.0770733
0.66508 0.566613 0.103593
0.713954 0.56788 0.124483
0.754025 0.571252 0.14464
0.786282 0.555184 0.155886
0.806256 0.51519 0.153567
0.820935 0.448264 0.153033
0.821729 0.390677 0.142657
0.818631 0.374655 0.138598
0.814404 0.365393 0.135592
0.810895 0.357122 0.133318
0.808026 0.350103 0.131914
0.805386 0.344274 0.130632
0.80351 0.339651 0.129931
0.801984 0.336492 0.129473
0.801419 0.335241 0.129244
0.797879 0.335805 0.132326
0.79115 0.338109 0.139208
0.0718242 0.509483 0.0446021
0.0666819 0.511421 0.0492714
0.0633707 0.513466 0.0537118
0.0622873 0.515084 0.0559701
0.0618448 0.516686 0.0575265
0.0623789 0.517708 0.057557
0.0623789 0.518746 0.0586557
0.0630503 0.519646 0.058732
0.063386 0.519036 0.0576333
0.0636454 0.516716 0.0556344
0.0679179 0.518959 0.0543374
0.082948 0.52311 0.0514992
0.124086 0.53521 0.0505837
0.190417 0.548608 0.0512093
0.30811 0.580438 0.0631266
0.496834 0.627024 0.0891585
0.631281 0.640711 0.11046
0.722408 0.638148 0.146593
0.768017 0.640513 0.178943
0.800763 0.642863 0.210117
0.82826 0.640879 0.233417
0.848157 0.627985 0.239994
0.852323 0.575265 0.21413
0.852598 0.543038 0.197238
0.853697 0.530724 0.18912
0.853544 0.523079 0.185092
0.853056 0.517555 0.182727
0.852461 0.513024 0.181125
0.852338 0.51046 0.180194
0.851804 0.50901 0.179294
0.851682 0.508598 0.17908
0.848615 0.51014 0.183383
0.843381 0.5131 0.192142
0.105791 0.559808 0.0605783
0.098558 0.561624 0.0691386
0.0927291 0.563409 0.0765087
0.0904555 0.565087 0.0807355
0.0896773 0.566217 0.0832685
0.0909133 0.567163 0.0837415
0.0917372 0.568612 0.0849928
0.092195 0.569696 0.0859693
0.092958 0.570352 0.0860151
0.0925612 0.568521 0.0840162
0.0943618 0.567285 0.0813764
0.1075 0.570977 0.078294
0.1467 0.577981 0.0731212
0.207721 0.59295 0.0735943
0.287648 0.615961 0.081529
0.418662 0.658595 0.106508
0.584909 0.695186 0.134859
0.694392 0.708156 0.165484
0.774777 0.707378 0.216083
0.818357 0.710307 0.257053
0.846189 0.713008 0.285039
0.865843 0.713649 0.304173
0.878889 0.708751 0.314778
0.884993 0.707362 0.318959
0.884978 0.707088 0.318364
0.883604 0.702266 0.314458
0.881544 0.695766 0.309194
0.879988 0.690349 0.305089
0.87921 0.686244 0.301671
0.878386 0.683391 0.299245
0.877791 0.681453 0.297719
0.87744 0.680613 0.297734
0.87718 0.681102 0.299001
0.144549 0.607401 0.10193
0.141985 0.608835 0.107012
0.138308 0.610178 0.113878
0.136294 0.611917 0.118715
0.135058 0.613504 0.121782
0.136248 0.614679 0.122286
0.136919 0.615579 0.123461
0.137621 0.616632 0.124773
0.138491 0.617365 0.125689
0.138094 0.616968 0.125109
0.137377 0.614893 0.121965
0.145068 0.616068 0.12047
0.172763 0.619074 0.114565
0.23505 0.632364 0.11574
0.308553 0.655604 0.129885
0.396506 0.686732 0.150774
0.523995 0.731685 0.180301
0.665049 0.759441 0.210254
0.751751 0.774624 0.249393
0.82211 0.775509 0.295857
0.862898 0.778347 0.333196
0.88513 0.779934 0.354208
0.897124 0.779736 0.364996
0.903105 0.778531 0.37055
0.903181 0.776791 0.36936
0.902983 0.775372 0.368399
0.902541 0.773999 0.367163
0.902373 0.772763 0.366308
0.902296 0.772107 0.36585
0.902281 0.772015 0.365805
0.902327 0.772274 0.365988
0.902373 0.772671 0.366247
0.902419 0.773358 0.36672
0.190707 0.652049 0.143023
0.188052 0.653193 0.14667
0.183185 0.654414 0.152972
0.180896 0.655558 0.158282
0.179187 0.656779 0.160937
0.178897 0.657893 0.162203
0.17908 0.658839 0.164294
0.179904 0.659831 0.164935
0.180514 0.660517 0.165454
0.180835 0.661082 0.165911
0.178393 0.658152 0.163546
0.179522 0.656764 0.161517
0.200839 0.66041 0.160906
0.252644 0.666255 0.160143
0.331487 0.688014 0.176379
0.410697 0.717281 0.203113
0.497353 0.751461 0.23212
0.620493 0.793698 0.267613
0.735943 0.815152 0.298558
0.806104 0.830823 0.334051
0.860533 0.831281 0.367498
0.894133 0.832807 0.395422
0.907546 0.833829 0.409613
0.911543 0.834119 0.414237
0.911406 0.832609 0.413214
0.911269 0.831754 0.412299
0.911101 0.831113 0.411551
0.910994 0.830777 0.411185
0.910857 0.830442 0.410834
0.910811 0.830228 0.410681
0.910811 0.830274 0.410712
0.910979 0.830732 0.411154
0.911208 0.831388 0.411902
0.223606 0.685924 0.172168
0.220661 0.686229 0.175006
0.214878 0.686717 0.181659
0.211627 0.687083 0.185824
0.208789 0.687572 0.188388
0.207721 0.687938 0.190433
0.207385 0.688258 0.191684
0.207599 0.688426 0.191867
0.20766 0.688502 0.191959
0.20763 0.688441 0.191913
0.206348 0.687327 0.1906
0.205097 0.685832 0.188769
0.219455 0.686839 0.188907
0.264393 0.692226 0.191669
0.342962 0.70808 0.20473
0.424689 0.73724 0.234333
0.499153 0.768368 0.26569
0.591608 0.806638 0.301793
0.703105 0.841932 0.341146
0.79556 0.859419 0.375845
0.847486 0.870741 0.405386
0.887648 0.870649 0.428077
0.907912 0.87129 0.442573
0.912703 0.872068 0.447059
0.912642 0.87216 0.446601
0.912657 0.872236 0.446967
0.912657 0.87219 0.446906
0.912657 0.872206 0.446921
0.912978 0.87245 0.445884
0.913619 0.872786 0.443626
0.915022 0.872419 0.439597
0.915877 0.872328 0.437308
0.91635 0.87245 0.436179
0.244785 0.695857 0.16936
0.240894 0.695735 0.172961
0.233692 0.695659 0.179461
0.22768 0.695827 0.184131
0.22414 0.695903 0.188174
0.222416 0.69604 0.190417
0.221576 0.696101 0.191562
0.221576 0.696101 0.191562
0.221576 0.696101 0.191562
0.221576 0.696101 0.191562
0.221576 0.696101 0.191562
0.221576 0.696101 0.191562
0.231556 0.696895 0.192325
0.272969 0.700862 0.195102
0.348333 0.71635 0.209201
0.439765 0.747707 0.240284
0.514351 0.780346 0.273747
0.594507 0.816297 0.31043
0.688853 0.852369 0.35169
0.781247 0.877516 0.39324
0.846922 0.889525 0.427466
0.881224 0.894011 0.448997
0.906813 0.893095 0.461784
0.915251 0.89308 0.463401
0.916609 0.893233 0.461524
0.91693 0.893645 0.461357
0.916976 0.893858 0.461479
0.916655 0.894392 0.463004
0.915816 0.894804 0.465965
0.915068 0.895262 0.469169
0.915084 0.895552 0.469459
0.915938 0.895415 0.466651
0.916884 0.895171 0.464149
0.245197 0.69601 0.168734
0.241062 0.69575 0.172229
0.233783 0.695613 0.179049
0.227756 0.695811 0.183658
0.224109 0.695903 0.188373
0.222416 0.69604 0.190417
0.221576 0.696101 0.191562
0.221576 0.696101 0.191562
0.221576 0.696101 0.191562
0.221576 0.696101 0.191562
0.221576 0.696101 0.191562
0.221836 0.696117 0.191577
0.228244 0.696605 0.19205
0.268879 0.700481 0.195392
0.342504 0.714809 0.209415
0.428748 0.743038 0.238041
0.504067 0.775525 0.27039
0.581552 0.811444 0.306462
0.671763 0.849088 0.348028
0.767514 0.879789 0.393194
0.850324 0.89601 0.438514
0.8851 0.899931 0.466346
0.901701 0.902434 0.483101
0.912535 0.903258 0.492561
0.915373 0.903899 0.492943
0.916625 0.904204 0.490776
0.917464 0.90396 0.487587
0.917433 0.90396 0.487587
0.916854 0.904112 0.489845
0.916014 0.904372 0.493904
0.91574 0.904524 0.495079
0.916121 0.904524 0.494331
0.917144 0.904387 0.490425
0.242649 0.695888 0.176913
0.239384 0.695827 0.178424
0.232685 0.695827 0.184207
0.227268 0.695979 0.187961
0.223758 0.695949 0.190433
0.222385 0.69604 0.190585
0.221576 0.696101 0.191562
0.221576 0.696101 0.191562
0.221576 0.696101 0.191562
0.221576 0.696101 0.191562
0.221576 0.696101 0.191562
0.221576 0.696101 0.191562
0.226551 0.696345 0.191821
0.263691 0.699855 0.194751
0.337545 0.713649 0.209216
0.417639 0.738964 0.235874
0.494667 0.771267 0.269688
0.568582 0.805463 0.302815
0.662501 0.845365 0.344244
0.763058 0.878096 0.387549
0.850767 0.896406 0.438148
0.890867 0.901381 0.473899
0.905486 0.904128 0.493935
0.910918 0.90808 0.516365
0.913008 0.910491 0.530968
0.913085 0.911894 0.540124
0.913008 0.9122 0.542489
0.912688 0.912367 0.544045
0.912367 0.912657 0.546944
0.911711 0.913176 0.550988
0.911223 0.913603 0.554147
0.911284 0.913848 0.555535
0.911894 0.913924 0.555352
0.224109 0.697047 0.206928
0.226001 0.696666 0.200946
0.226261 0.696361 0.197162
0.225223 0.696162 0.195209
0.223163 0.696178 0.194232
0.222065 0.696086 0.192554
0.221546 0.696117 0.191699
0.221576 0.696101 0.191562
0.221576 0.696101 0.191562
0.221576 0.696101 0.191562
0.221576 0.696101 0.191562
0.221576 0.696101 0.191562
0.22533 0.696208 0.191669
0.256199 0.699062 0.193973
0.330709 0.711757 0.207507
0.410513 0.7364 0.234028
0.484611 0.766705 0.267292
0.566018 0.804196 0.30573
0.659632 0.844343 0.347265
0.760296 0.877501 0.388815
0.843214 0.895857 0.435386
0.891569 0.901976 0.475547
0.90663 0.904723 0.496559
0.911757 0.908385 0.518593
0.913069 0.911772 0.538827
0.912902 0.913268 0.549477
0.913039 0.913893 0.553521
0.91284 0.91397 0.554406
0.912291 0.914153 0.556573
0.911437 0.914458 0.559091
0.910979 0.914626 0.5608
0.910796 0.914687 0.561654
0.910979 0.914626 0.560815
0.218769 0.698375 0.221683
0.221744 0.697612 0.213901
0.223651 0.697078 0.207141
0.223865 0.69662 0.201801
0.222293 0.696422 0.199084
0.221592 0.696254 0.195148
0.221653 0.696086 0.191089
0.221592 0.696101 0.191485
0.221576 0.696101 0.191562
0.221576 0.696101 0.191562
0.221576 0.696101 0.191562
0.221576 0.696101 0.191562
0.226032 0.696315 0.191775
0.25359 0.698741 0.193713
0.324422 0.710506 0.205951
0.409262 0.736034 0.23357
0.479667 0.764675 0.265354
0.559319 0.800855 0.304204
0.653269 0.841947 0.34818
0.752895 0.875746 0.390387
0.836805 0.895033 0.436072
0.888365 0.902083 0.475685
0.906355 0.904433 0.49601
0.911467 0.907759 0.515862
0.913024 0.911269 0.535515
0.912886 0.913237 0.549386
0.913039 0.913893 0.553521
0.91284 0.91397 0.554406
0.912306 0.914153 0.556603
0.911452 0.914458 0.559106
0.910979 0.914626 0.56083
0.910796 0.914687 0.561654
0.910796 0.914687 0.561654
0.216648 0.699413 0.233875
0.217823 0.698772 0.227192
0.219318 0.698131 0.219181
0.220813 0.69749 0.211322
