bundles/resolve-cinematic-luts/Phantom Luts/Canon Film LUT/C-Log 2/EastmanRM Canon-Legacy CL2.cube
TITLE "Generated by Resolve"
LUT_3D_SIZE 5
0.0467994 0.0427558 0.0430152
0.140429 0.035523 0.0376745
0.46424 0.0287633 0.0509957
0.606394 0.0449073 0.117693
0.570352 0.0551461 0.175296
0.0576181 0.122438 0.0492409
0.112367 0.118578 0.0482185
0.481224 0.0306096 0.0429999
0.579202 0.0403601 0.0838941
0.566995 0.0440833 0.118181
0.0718242 0.509483 0.0446021
0.063386 0.519036 0.0576333
0.631281 0.640711 0.11046
0.853697 0.530724 0.18912
0.843381 0.5131 0.192142
0.224109 0.697047 0.206928
0.221576 0.696101 0.191562
0.484611 0.766705 0.267292
0.913069 0.911772 0.538827
0.910979 0.914626 0.560815
0.208774 0.705653 0.279072
0.231876 0.695567 0.178683
0.518761 0.782376 0.262913
0.915831 0.910094 0.524742
0.909865 0.914992 0.564981
0.0432593 0.0483711 0.0668345
0.102556 0.0451667 0.0728923
0.441245 0.0339666 0.088426
0.592142 0.0558633 0.175906
0.572778 0.0703288 0.244083
0.053727 0.111299 0.0803388
0.0986496 0.117067 0.0992905
0.474205 0.0318914 0.0699626
0.592111 0.0478828 0.13669
0.574853 0.0550393 0.17261
0.057023 0.50634 0.0730602
0.0558175 0.510796 0.0643168
0.622721 0.630381 0.104692
0.844678 0.467506 0.168185
0.828733 0.443015 0.168505
0.216358 0.713985 0.324834
0.216968 0.698756 0.226658
0.433875 0.74522 0.242756
0.912871 0.910811 0.533227
0.910796 0.914687 0.561654
0.217655 0.739986 0.429831
0.219837 0.704219 0.270771
0.452461 0.753033 0.230991
0.915007 0.9084 0.513207
0.909072 0.915312 0.568414
0.0417029 0.0802777 0.234913
0.0562295 0.078996 0.287129
0.426352 0.0551308 0.338003
0.636179 0.11635 0.394202
0.612268 0.129335 0.459892
0.0413519 0.102144 0.224537
0.0415351 0.0872053 0.274952
0.43473 0.0585031 0.363287
0.647105 0.113481 0.381064
0.625467 0.124315 0.437675
0.0567788 0.512596 0.411978
0.0508431 0.518196 0.4421
0.580865 0.592157 0.56347
0.917327 0.38732 0.532586
0.900374 0.35761 0.534401
0.275654 0.781277 0.598718
0.256565 0.781109 0.596445
0.213016 0.704402 0.271473
0.917617 0.914122 0.548043
0.914549 0.925902 0.659739
0.274571 0.7897 0.654795
0.265049 0.787839 0.636515
0.219455 0.71017 0.305806
0.910002 0.910399 0.517281
0.908705 0.930312 0.698802
0.0425116 0.133501 0.418723
0.0453193 0.129335 0.456321
0.371069 0.114748 0.57052
0.610132 0.157748 0.614008
0.611505 0.157458 0.613123
0.0425116 0.143389 0.422034
0.0425727 0.140627 0.430762
0.372961 0.12047 0.579934
0.611566 0.157458 0.613077
0.60972 0.157824 0.614298
0.0551614 0.51577 0.615946
0.0552224 0.513283 0.623499
0.258854 0.462638 0.73344
0.778653 0.300633 0.763348
0.755642 0.283909 0.748867
0.293584 0.794263 0.730373
0.282795 0.795239 0.735821
0.273075 0.788785 0.728435
0.892836 0.932631 0.898589
0.908721 0.929488 0.900816
0.287816 0.796933 0.737911
0.286275 0.797299 0.739162
0.285222 0.796735 0.728954
0.900053 0.948562 0.909178
0.913161 0.952987 0.917189
0.0426947 0.143557 0.445457
0.0502022 0.137957 0.477836
0.395346 0.122576 0.583368
0.610132 0.157748 0.614023
0.610101 0.157748 0.614038
0.0425422 0.144701 0.425788
0.04271 0.143557 0.445945
0.39324 0.122454 0.5832
0.610788 0.15761 0.613611
0.609705 0.157824 0.614313
0.0558328 0.506889 0.637522
0.0538796 0.497734 0.634165
0.218814 0.41593 0.718898
0.729641 0.254551 0.725261
0.711086 0.240711 0.710979
0.292393 0.79472 0.733623
0.283726 0.795727 0.738308
0.27303 0.787243 0.736156
0.883223 0.922316 0.909514
0.917082 0.91136 0.907134
0.286595 0.797177 0.738811
0.286091 0.797284 0.739132
0.286091 0.797284 0.739132
0.885298 0.945159 0.908995
0.912032 0.953262 0.918303
