bundles/resolve-cinematic-luts/Phantom Luts/Canon Film LUT/C-Log 2/EastmanRM Canon CL2.cube
TITLE "Generated by Resolve"
LUT_3D_SIZE 33
0.0422065 0.0322271 0.0366064
0.0429389 0.0320592 0.0364233
0.0448768 0.031754 0.0362554
0.0489052 0.0315557 0.036286
0.055848 0.0312047 0.0362402
0.0708171 0.0306706 0.035996
0.0984665 0.0297856 0.0358587
0.128786 0.0290227 0.0356756
0.158938 0.0283055 0.0360266
0.190173 0.027863 0.0369268
0.226062 0.0272068 0.0380713
0.271 0.0261387 0.0392462
0.321111 0.0248264 0.0405432
0.367102 0.0243992 0.04271
0.409354 0.0252079 0.0457008
0.449058 0.0258183 0.0496376
0.485588 0.0266423 0.0550546
0.516976 0.0275425 0.0620279
0.540932 0.028336 0.0708476
0.560815 0.0312657 0.0822461
0.578485 0.0359655 0.0970626
0.594385 0.0402533 0.112261
0.604105 0.0432136 0.123354
0.605692 0.0438849 0.126772
0.606607 0.0443732 0.129824
0.607294 0.0451057 0.133867
0.607935 0.0457008 0.137575
0.608621 0.0462196 0.140749
0.607538 0.0470893 0.145892
0.602808 0.0484016 0.153979
0.596445 0.0498512 0.164157
0.58352 0.0523842 0.179904
0.570459 0.0549325 0.196658
0.0424048 0.0330205 0.0367132
0.0423285 0.0325933 0.0366217
0.0434424 0.0326085 0.0365911
0.0465553 0.0320897 0.0363622
0.0526741 0.0314794 0.0362554
0.0639658 0.0310979 0.0362402
0.085893 0.0304417 0.0362097
0.119814 0.0294804 0.0358129
0.151827 0.0288853 0.0359808
0.186847 0.0281834 0.0366674
0.222705 0.0274052 0.0378882
0.267643 0.0262455 0.0394598
0.318242 0.0250248 0.0407416
0.367407 0.0243534 0.0422065
0.412146 0.0252232 0.0445716
0.451911 0.025864 0.0488136
0.488197 0.0267185 0.0542916
0.518471 0.0276341 0.061326
0.542275 0.028397 0.0702525
0.56199 0.0313726 0.0818036
0.57969 0.0361944 0.0969253
0.595102 0.0402991 0.111971
0.603601 0.0429389 0.122057
0.60502 0.0436408 0.125551
0.606317 0.0441749 0.12874
0.606943 0.04477 0.131899
0.607691 0.0454414 0.135714
0.608225 0.0459144 0.138766
0.607126 0.0466621 0.143404
0.602274 0.0479438 0.151751
0.595895 0.0494087 0.161715
0.583047 0.0518654 0.177874
0.569848 0.0545205 0.194156
0.0426184 0.0365301 0.0377966
0.0424964 0.0361486 0.0376745
0.0430457 0.0357366 0.0374456
0.0453346 0.0348363 0.0368505
0.0512245 0.0331121 0.036286
0.0618906 0.0318303 0.0361791
0.0806592 0.0310979 0.0364538
0.109407 0.0304875 0.0366064
0.143816 0.0294652 0.0364385
0.181277 0.028397 0.0365454
0.220096 0.0276341 0.0373236
0.264469 0.0267491 0.0389715
0.314794 0.0254063 0.0405432
0.363363 0.024445 0.0422522
0.41004 0.025452 0.0445106
0.452659 0.0259709 0.0482643
0.490043 0.0267796 0.0534524
0.519966 0.0276799 0.0604562
0.543175 0.0284276 0.0695659
0.563027 0.0314641 0.0813001
0.580667 0.0363317 0.0966049
0.595758 0.0403143 0.111452
0.602899 0.0425269 0.120348
0.604273 0.0433204 0.123766
0.605783 0.0439307 0.127031
0.606592 0.044358 0.129793
0.607156 0.0449836 0.133257
0.607797 0.0455482 0.136492
0.606638 0.0461738 0.140795
0.601617 0.0473793 0.148592
0.595254 0.0487984 0.158648
0.582467 0.0511482 0.174594
0.568948 0.0538338 0.190875
0.0432593 0.042298 0.0390936
0.0430457 0.0420233 0.0391546
0.0432593 0.0411383 0.0390631
0.04477 0.0407874 0.0386358
0.0502327 0.039826 0.0380102
0.0617227 0.0363775 0.0368048
0.0829328 0.0333562 0.0366979
0.109834 0.0317235 0.0368505
0.139254 0.0304417 0.0370031
0.174426 0.0290227 0.0368505
0.215061 0.0280003 0.0369573
0.261418 0.0270542 0.0381476
0.312306 0.0254978 0.0391852
0.360586 0.0248875 0.0416724
0.405661 0.0254215 0.0441138
0.448508 0.0262303 0.0482948
0.487633 0.026978 0.0532998
0.519951 0.0277409 0.0594949
0.543893 0.0284276 0.0679637
0.56347 0.0315251 0.0803388
0.581247 0.0362707 0.0951247
0.59646 0.0401312 0.11043
0.602045 0.0419928 0.11812
0.603326 0.0427863 0.121477
0.604623 0.0434882 0.124636
0.605997 0.0439918 0.127642
0.606638 0.0444038 0.129946
0.607126 0.0449683 0.133089
0.605997 0.045655 0.137636
0.600961 0.0467689 0.14522
0.594202 0.0481117 0.154345
0.581521 0.0502632 0.170428
0.56791 0.052903 0.186297
0.0435798 0.0523079 0.0402533
0.0431525 0.0521706 0.0399786
0.0433661 0.0513466 0.0401923
0.0442817 0.050248 0.0404974
0.0476997 0.0496529 0.0399786
0.0589456 0.0492714 0.039704
0.0786908 0.043595 0.038407
0.107103 0.038529 0.0376287
0.13872 0.033341 0.0368505
0.173571 0.0309453 0.0372168
0.214221 0.0289616 0.0375982
0.258122 0.0271305 0.0377508
0.311986 0.0255436 0.038056
0.358679 0.0250553 0.0403906
0.403098 0.02533 0.0430915
0.443748 0.0261997 0.0464942
0.482002 0.0271305 0.0527504
0.513954 0.027985 0.0598917
0.539025 0.0286259 0.0684825
0.559731 0.0317082 0.0801862
0.579263 0.0361181 0.0940871
0.595376 0.0400702 0.10985
0.600061 0.041474 0.116106
0.601389 0.0421302 0.119112
0.602548 0.0428931 0.122194
0.603922 0.0434882 0.125093
0.605051 0.0439918 0.127718
0.604822 0.0444495 0.130541
0.603769 0.0449989 0.13402
0.599344 0.046067 0.141009
0.592996 0.047364 0.149493
0.58053 0.0494087 0.164767
0.567086 0.0518502 0.18056
0.0440375 0.0710155 0.0419318
0.0433814 0.0711376 0.0413062
0.0434272 0.0699626 0.0410773
0.0441596 0.0683757 0.0413214
0.0461433 0.0680858 0.0420386
0.0537881 0.0672923 0.0418402
0.0762036 0.0672618 0.0421302
0.106432 0.0598611 0.0414282
0.13753 0.0485695 0.0392767
0.169726 0.0394903 0.0384833
0.209476 0.0328985 0.0372625
0.263783 0.0282902 0.0377203
0.315511 0.026276 0.0382391
0.361578 0.0248112 0.0392004
0.404883 0.0253147 0.0412451
0.442649 0.0261082 0.0439612
0.478233 0.026978 0.0496834
0.50959 0.0278325 0.0571298
0.53373 0.0286564 0.0666056
0.554055 0.0317693 0.0795911
0.572824 0.0359503 0.0941482
0.589624 0.0402686 0.111376
0.592569 0.0413367 0.116991
0.593622 0.0420081 0.120668
0.594629 0.0426032 0.123781
0.595895 0.0432288 0.127047
0.597177 0.0437934 0.129946
0.59791 0.0442969 0.131975
0.598566 0.0447395 0.133852
0.596139 0.0454108 0.138109
0.590967 0.0463264 0.144503
0.578882 0.0482643 0.158038
0.565713 0.0504921 0.173693
0.0450752 0.0955062 0.0436713
0.0439307 0.0959945 0.0432746
0.0451209 0.0939803 0.0420081
0.0469215 0.0916609 0.0413672
0.050248 0.0899519 0.0413977
0.0567636 0.090074 0.0420081
0.0793622 0.0884108 0.0412757
0.116258 0.086717 0.0410925
0.151675 0.0796979 0.0413977
0.183749 0.0655985 0.0395361
0.221622 0.0492103 0.0388952
0.270954 0.0351415 0.0369268
0.321859 0.0283665 0.036286
0.372808 0.0257877 0.0382849
0.412161 0.025864 0.0401312
0.447593 0.0262455 0.0424048
0.478294 0.0269169 0.0469215
0.506157 0.0276493 0.053315
0.52929 0.028397 0.0617227
0.55021 0.0314794 0.0744335
0.568948 0.035111 0.0877089
0.587366 0.0388952 0.104341
0.590005 0.0400092 0.10956
0.59173 0.0407568 0.113985
0.592706 0.041413 0.117556
0.593683 0.0420081 0.120607
0.594461 0.0424506 0.12311
0.595346 0.0429541 0.125566
0.596231 0.0433509 0.127596
0.595285 0.0439002 0.131411
0.59205 0.0446937 0.136019
0.584146 0.0460365 0.144961
0.575357 0.0475319 0.154376
0.049958 0.11754 0.0438087
0.0476234 0.118807 0.0441596
0.0462196 0.119173 0.043534
0.0472267 0.117891 0.0429084
0.0504921 0.116228 0.0428779
0.0564431 0.115251 0.0427558
0.0684062 0.115511 0.0438697
0.106859 0.113909 0.0432136
0.148623 0.110262 0.0432288
0.190188 0.104707 0.0433509
0.232944 0.0877699 0.0416114
0.281468 0.0624704 0.0394293
0.329717 0.0398871 0.0384833
0.375265 0.0304417 0.03682
0.420768 0.0267643 0.0385138
0.458091 0.0269322 0.0410925
0.486137 0.0272679 0.045243
0.508843 0.0276951 0.0511025
0.527138 0.0283207 0.0587015
0.5449 0.0310826 0.0680247
0.564569 0.0346685 0.0810101
0.581064 0.0374304 0.0936751
0.583902 0.0379492 0.0979934
0.586847 0.0386969 0.103334
0.589014 0.0395056 0.107454
0.590967 0.0403143 0.111543
0.59205 0.0408637 0.114488
0.59266 0.0413214 0.116854
0.593103 0.0416114 0.1187
0.591882 0.0422065 0.122103
0.588891 0.0428168 0.127031
0.581537 0.0438849 0.136324
0.572946 0.0452277 0.145876
0.053727 0.144808 0.0463417
0.0510872 0.146227 0.0467079
0.049012 0.147189 0.0464179
0.0484932 0.146654 0.0458534
0.0500649 0.145129 0.0455634
0.055436 0.143938 0.0451209
0.0663615 0.143984 0.045594
0.0844434 0.144335 0.0466773
0.136233 0.141741 0.0447242
0.186664 0.135943 0.0461433
0.243671 0.130495 0.0457771
0.298131 0.108751 0.0438392
0.345983 0.076051 0.0404212
0.387366 0.0494545 0.0408179
0.426307 0.0361639 0.0391394
0.460609 0.0290379 0.038468
0.492332 0.0280766 0.0429694
0.513298 0.0282444 0.0489052
0.531426 0.029572 0.0576944
0.545113 0.0313115 0.0665293
0.559396 0.0342107 0.0755932
0.574914 0.036759 0.0855879
0.578866 0.0371557 0.08925
0.580346 0.0373693 0.0917983
0.581582 0.0374609 0.0941024
0.583398 0.0378424 0.0972
0.585687 0.0382696 0.100526
0.587396 0.0388342 0.103792
0.588495 0.0392615 0.106081
0.587289 0.039765 0.109361
0.584268 0.0404974 0.113878
0.576699 0.0417487 0.122377
0.568368 0.0429389 0.13228
0.0565957 0.176272 0.0483253
0.0527962 0.178012 0.0485695
0.0502327 0.179004 0.0482948
0.0493935 0.179049 0.0480812
0.0491798 0.177707 0.0478828
0.0519112 0.17615 0.0476539
0.0607767 0.175967 0.0474708
0.0771801 0.177157 0.0479286
0.105791 0.178561 0.0500343
0.170886 0.177539 0.0482643
0.242756 0.168215 0.0495918
0.314931 0.166491 0.0489052
0.368307 0.135332 0.0461738
0.40795 0.0991989 0.041062
0.443076 0.0681468 0.0412757
0.471763 0.0455787 0.0424659
0.49424 0.0363775 0.0415656
0.511543 0.0317082 0.0451057
0.529152 0.0328222 0.0544442
0.548302 0.0342718 0.0653086
0.563516 0.035584 0.0754101
0.572473 0.0363928 0.0822003
0.576623 0.0371405 0.0852216
0.576257 0.0370489 0.085481
0.57702 0.0370642 0.0866102
0.578256 0.0371405 0.0881056
0.579248 0.0372015 0.0893721
0.579889 0.0372625 0.0903944
0.580255 0.0373541 0.0911727
0.578836 0.0376135 0.0936446
0.575448 0.0380713 0.097322
0.568185 0.0389258 0.10576
0.559594 0.0400092 0.114214
0.0542763 0.215137 0.0455634
0.0506447 0.216953 0.0453651
0.0483864 0.218143 0.0449378
0.0475776 0.218616 0.0449073
0.0472725 0.218463 0.0451209
0.0475624 0.216236 0.045182
0.0506142 0.215747 0.0454108
0.0598917 0.217685 0.0452277
0.0821393 0.221851 0.0463569
0.123781 0.226459 0.0499123
0.21883 0.231006 0.0502937
0.317082 0.220691 0.053254
0.397848 0.223453 0.0542611
0.450935 0.185046 0.0527352
0.477546 0.137484 0.0449989
0.498436 0.0974899 0.0434577
0.512139 0.0632944 0.0455329
0.52224 0.0517739 0.0479133
0.52871 0.0399939 0.0480354
0.543969 0.0395056 0.0611887
0.560601 0.0392157 0.0737163
0.573999 0.0395056 0.0850385
0.576288 0.0388647 0.0890059
0.575265 0.0385138 0.0878767
0.575921 0.0383764 0.0880903
0.576272 0.0382696 0.0885328
0.575555 0.0381476 0.088716
0.573419 0.0375219 0.0876326
0.573159 0.0374456 0.0877394
0.571649 0.037583 0.0889143
0.568551 0.0379034 0.0911421
0.56228 0.0386053 0.0976577
0.554208 0.0395514 0.105409
0.0522621 0.265949 0.0426795
0.0492714 0.267872 0.0426947
0.0472572 0.269215 0.0424353
0.0463417 0.270054 0.0420691
0.0459754 0.270771 0.0422522
0.0460365 0.269993 0.0423896
0.0460975 0.267948 0.0423285
0.0498665 0.268574 0.0426337
0.0618296 0.274708 0.0432746
0.0949722 0.282597 0.0456397
0.150927 0.29163 0.0505226
0.291432 0.305135 0.0518807
0.405005 0.296529 0.0564736
0.485267 0.299153 0.0573281
0.53666 0.263722 0.056672
0.565377 0.202777 0.0556191
0.567391 0.148089 0.051606
0.5561 0.0967269 0.0519875
0.557671 0.0816205 0.0576638
0.556848 0.0589151 0.0567941
0.562356 0.0468757 0.0633402
0.570809 0.043183 0.0754711
0.576516 0.0429236 0.0856184
0.575601 0.0425269 0.0885023
0.574289 0.042237 0.090547
0.572808 0.0419165 0.0935378
0.570825 0.0416114 0.0947585
0.567544 0.0406653 0.0942245
0.566735 0.0403754 0.0944381
0.566842 0.0403601 0.0949722
0.567056 0.0403906 0.0952316
0.564889 0.0407263 0.0972763
0.559548 0.041474 0.102296
0.0506752 0.322194 0.0395972
0.048188 0.324407 0.0401923
0.0463264 0.326421 0.0400549
0.0457465 0.327779 0.0397498
0.0458381 0.329076 0.0396124
0.046067 0.329824 0.0394293
0.0462806 0.326925 0.0393225
0.0468299 0.32578 0.0392767
0.0526131 0.328527 0.0397955
0.069749 0.336263 0.0401923
0.112596 0.346593 0.042298
0.194125 0.363348 0.0486
0.375479 0.385 0.0513771
0.493874 0.378363 0.0580758
0.563775 0.380835 0.0628061
0.616999 0.356146 0.0628672
0.64976 0.294606 0.0654459
0.656428 0.227283 0.0664378
0.642741 0.175784 0.0727855
0.616526 0.129564 0.0755627
0.604578 0.104646 0.076463
0.591882 0.0648203 0.0658579
0.585641 0.0529488 0.0670787
0.582238 0.0497292 0.0685283
0.582071 0.0485389 0.0722972
0.583154 0.0483406 0.0771649
0.583413 0.0480964 0.0801251
0.581979 0.0471809 0.0807965
0.580896 0.04654 0.0811017
0.57966 0.0458534 0.0811017
0.578622 0.0451514 0.0806287
0.574777 0.0451972 0.0816205
0.568597 0.0459144 0.0845808
0.0492561 0.378637 0.0363165
0.047364 0.380652 0.0370184
0.0461128 0.382879 0.0375372
0.0456245 0.384131 0.0372473
0.0453346 0.38584 0.0372168
0.0453346 0.38706 0.0371862
0.0455329 0.387564 0.0370184
0.0457008 0.383597 0.0369421
0.0470588 0.383551 0.0368048
0.0549935 0.38822 0.0365606
0.0798505 0.398581 0.0368963
0.134417 0.410819 0.03888
0.2645 0.441077 0.0476997
0.459098 0.465675 0.0531777
0.570352 0.46006 0.0657969
0.630533 0.46154 0.0761578
0.680644 0.452659 0.0820172
0.71632 0.407279 0.0832227
0.733135 0.327749 0.0875563
0.729381 0.272633 0.0924544
0.699596 0.199237 0.101442
0.678599 0.16202 0.101656
0.659403 0.138552 0.0969558
0.64686 0.12639 0.0923781
0.638056 0.11809 0.0891585
0.629953 0.108186 0.0841688
0.622766 0.0991531 0.0802014
0.617075 0.0918135 0.0772717
0.613428 0.0864729 0.0745403
0.611811 0.0836042 0.0738079
0.610376 0.0820478 0.0732586
0.607004 0.0814374 0.0740673
0.601846 0.0821241 0.0774701
0.0502632 0.43389 0.0357671
0.0484474 0.435859 0.037171
0.047364 0.437766 0.0385595
0.0470588 0.439231 0.0387121
0.0468147 0.440696 0.038941
0.0468299 0.442115 0.0393072
0.0469215 0.443153 0.0391241
0.0472267 0.442054 0.0385748
0.0472572 0.439628 0.0380407
0.0502937 0.440543 0.0373999
0.0656138 0.448661 0.0369116
0.105577 0.461128 0.0371252
0.185779 0.477577 0.0404364
0.359457 0.52311 0.0542
0.535302 0.540597 0.0635386
0.638315 0.535561 0.085832
0.68893 0.536721 0.103807
0.731991 0.538293 0.119463
0.764782 0.51043 0.125078
0.782956 0.441733 0.123232
0.793652 0.376623 0.123644
0.784466 0.323079 0.118059
0.762097 0.25832 0.11989
0.746761 0.229343 0.120287
0.739193 0.218799 0.119463
0.73579 0.214343 0.118898
0.733745 0.211307 0.118944
0.731182 0.208743 0.118074
0.730251 0.207187 0.1178
0.729503 0.206363 0.117739
0.72932 0.206226 0.117693
0.726436 0.207431 0.120241
0.720989 0.2103 0.125566
0.059617 0.486336 0.0404669
0.0565805 0.488426 0.0436561
0.0547036 0.489998 0.0465553
0.0538796 0.491157 0.0475319
0.0535897 0.492164 0.0478676
0.0535897 0.493477 0.0485084
0.054078 0.494926 0.0489967
0.0546883 0.495216 0.0485695
0.0546578 0.492851 0.0467384
0.0559396 0.493095 0.0459144
0.0651255 0.496086 0.0441901
0.0989548 0.50808 0.0429999
0.162051 0.522728 0.0437934
0.27097 0.550393 0.0514687
0.456504 0.596796 0.0722667
0.6038 0.608774 0.0893568
0.69633 0.604761 0.121614
0.741863 0.606836 0.147189
0.777813 0.610178 0.172763
0.805661 0.596185 0.187213
0.820676 0.559274 0.178714
0.828305 0.492119 0.165057
0.832303 0.432166 0.153933
0.83061 0.416037 0.147738
0.827512 0.407065 0.145434
0.824872 0.399405 0.142
0.821942 0.393072 0.139544
0.819898 0.388525 0.138186
0.81854 0.383658 0.13698
0.817548 0.380819 0.135912
0.816831 0.378912 0.135332
0.813001 0.379248 0.138857
0.80647 0.381628 0.146304
0.0838636 0.536095 0.05243
0.0782788 0.537484 0.0580453
0.0736095 0.538994 0.0635996
0.0726635 0.540124 0.0660258
0.0725567 0.54139 0.0673686
0.0730755 0.542519 0.0679789
0.0734875 0.544045 0.0696117
0.07393 0.544945 0.0697032
0.0745251 0.544564 0.0685588
0.0742809 0.541726 0.0658122
0.0813916 0.544488 0.0640269
0.108659 0.55053 0.0592966
0.169986 0.564889 0.057908
0.24889 0.58526 0.0628977
0.373037 0.624979 0.0818647
0.543694 0.662974 0.107607
0.666728 0.673869 0.134646
0.749065 0.671794 0.175708
0.790982 0.674174 0.211933
0.820081 0.676966 0.240986
0.841886 0.67599 0.26006
0.857542 0.665064 0.265812
0.856336 0.615747 0.238529
0.854215 0.584176 0.21976
0.854719 0.572412 0.210483
0.854688 0.565301 0.20499
0.854124 0.559289 0.20116
0.854047 0.554955 0.19855
0.853727 0.552117 0.196506
0.853498 0.550378 0.195407
0.853422 0.550072 0.195132
0.851331 0.551446 0.19881
0.846952 0.554208 0.206378
0.118563 0.581994 0.075288
0.112749 0.58352 0.0833753
0.107332 0.585092 0.0910048
0.105913 0.586023 0.0941329
0.10544 0.587167 0.095964
0.106172 0.58822 0.0959182
0.106386 0.589548 0.0972915
0.107347 0.590677 0.0978866
0.108446 0.591257 0.098436
0.107317 0.589593 0.0964065
0.109346 0.588418 0.0933394
0.130724 0.591867 0.089601
0.189212 0.601923 0.0851148
0.263233 0.623285 0.0926528
0.348837 0.652644 0.109773
0.474815 0.695918 0.138201
0.623529 0.725429 0.164233
0.723888 0.736843 0.200793
0.796918 0.736217 0.248402
0.834455 0.739467 0.282856
0.856916 0.741848 0.304494
0.873701 0.742718 0.320027
0.885496 0.738277 0.328649
0.890974 0.736996 0.332708
0.890852 0.73698 0.332494
0.889235 0.732433 0.329244
0.887434 0.726558 0.32459
0.885893 0.721416 0.320943
0.884718 0.71725 0.31812
0.883894 0.714366 0.316213
0.88365 0.712749 0.315221
0.883604 0.711803 0.31458
0.883635 0.712123 0.314855
0.153216 0.623697 0.118059
0.151629 0.624933 0.120699
0.14818 0.626215 0.125887
0.145632 0.627573 0.128756
0.144457 0.628702 0.129839
0.145037 0.629664 0.129961
0.145418 0.630457 0.131579
0.146426 0.631205 0.132357
0.147066 0.63183 0.133089
0.146731 0.631373 0.132601
0.145296 0.629816 0.130129
0.154543 0.630671 0.128359
0.195315 0.635126 0.123888
0.274525 0.652338 0.130404
0.356161 0.680613 0.153262
0.443381 0.714031 0.180179
0.565545 0.756542 0.212482
0.695888 0.781415 0.243519
0.776791 0.79266 0.277897
0.835492 0.792844 0.315251
0.868406 0.79527 0.34345
0.886137 0.796262 0.359991
0.896849 0.79617 0.369253
0.902693 0.794614 0.374014
0.904036 0.79295 0.374319
0.90367 0.791913 0.37351
0.903243 0.791012 0.372702
0.903227 0.79028 0.372229
0.903212 0.789883 0.372
0.903243 0.789822 0.371984
0.903319 0.790097 0.372213
0.903365 0.790448 0.372473
0.903487 0.791043 0.372992
0.188556 0.658549 0.145464
0.186053 0.659464 0.147799
0.181292 0.660487 0.15256
0.178439 0.661372 0.155764
0.176669 0.662211 0.158236
0.176242 0.663172 0.159625
0.176303 0.663874 0.161212
0.177035 0.664576 0.162112
0.177386 0.665141 0.162417
0.177676 0.665568 0.162615
0.175677 0.66334 0.160616
0.177661 0.66212 0.158892
0.205341 0.665736 0.158679
0.274846 0.674479 0.161517
0.365438 0.702022 0.185245
0.446387 0.734524 0.217594
0.534493 0.770367 0.25005
0.652552 0.808133 0.285191
0.759762 0.826429 0.319326
0.820371 0.836759 0.347478
0.864134 0.836118 0.372122
0.891127 0.837064 0.392233
0.903426 0.838117 0.404028
0.908553 0.837949 0.4094
0.910796 0.836896 0.410925
0.910719 0.836316 0.410559
0.910674 0.835966 0.410193
0.910613 0.835737 0.409964
0.910521 0.835462 0.409689
0.910445 0.835248 0.409506
0.91043 0.83534 0.409552
0.91043 0.835645 0.409735
0.91046 0.836118 0.410071
0.21268 0.683726 0.164614
0.209461 0.684077 0.166781
0.204257 0.684504 0.171481
0.20029 0.684993 0.173953
0.197925 0.685527 0.177249
0.196948 0.686061 0.179477
0.196796 0.686519 0.180728
0.197208 0.686778 0.181109
0.197467 0.6869 0.181353
0.197559 0.686946 0.181445
0.196201 0.686061 0.180285
0.194568 0.68426 0.17882
0.213687 0.686275 0.179553
0.273838 0.692363 0.184039
0.367803 0.715023 0.205035
0.452537 0.747753 0.239368
0.528389 0.78114 0.272923
0.622385 0.818219 0.309499
0.728328 0.847868 0.348806
0.810681 0.860853 0.383642
0.852796 0.867658 0.406073
0.885588 0.866789 0.421546
0.903655 0.866682 0.431388
0.910445 0.867277 0.43653
0.912367 0.86743 0.438376
0.912367 0.867308 0.4383
0.912367 0.867384 0.438346
0.912718 0.867384 0.437354
0.913359 0.867445 0.434745
0.914733 0.867369 0.431022
0.915541 0.867231 0.429129
0.916106 0.867277 0.427802
0.916136 0.867536 0.428214
0.233677 0.694652 0.1608
0.229541 0.694774 0.16318
0.222644 0.694713 0.168963
0.217945 0.694728 0.172595
0.213245 0.694957 0.177844
0.211994 0.694987 0.179675
0.211536 0.694972 0.180484
0.211536 0.694972 0.180484
0.211536 0.694972 0.180484
0.211536 0.694972 0.180484
0.211536 0.694972 0.180484
0.210407 0.693782 0.17966
0.222827 0.694835 0.180575
0.279408 0.700847 0.186328
0.370611 0.721981 0.20798
0.46595 0.758083 0.245365
0.542489 0.792615 0.281117
0.622522 0.826947 0.316228
0.712886 0.857542 0.354253
0.798108 0.876783 0.395575
0.851896 0.884306 0.4262
0.879499 0.887816 0.443946
0.901961 0.887083 0.454566
0.9131 0.887144 0.457694
0.916793 0.887221 0.457176
0.917174 0.887358 0.456107
0.917144 0.887236 0.455665
0.917098 0.887221 0.455283
0.917052 0.887312 0.4551
0.917021 0.88748 0.455024
0.91696 0.887709 0.455009
0.916945 0.887892 0.455299
0.916945 0.888136 0.455863
0.23418 0.69482 0.159762
0.22974 0.694804 0.162249
0.222889 0.694713 0.167819
0.21799 0.694713 0.172366
0.213214 0.694957 0.177981
0.211994 0.694987 0.179675
0.211536 0.694972 0.180484
0.211536 0.694972 0.180484
0.211536 0.694972 0.180484
0.211536 0.694972 0.180484
0.211536 0.694972 0.180484
0.211749 0.695003 0.180514
0.219379 0.695415 0.180972
0.275608 0.701274 0.187839
0.365469 0.721263 0.209689
0.455528 0.754269 0.245319
0.531273 0.788144 0.279652
0.609827 0.823682 0.315648
0.696498 0.85658 0.352926
0.786221 0.881575 0.396231
0.855482 0.893629 0.43714
0.882902 0.897688 0.4636
0.896819 0.901518 0.481025
0.908843 0.903044 0.494484
0.914015 0.904204 0.501045
0.915404 0.904646 0.501427
0.916274 0.90454 0.498436
0.91635 0.904631 0.498116
0.915862 0.904921 0.500313
0.914977 0.905455 0.503807
0.914839 0.905837 0.505592
0.915175 0.906188 0.505028
0.916228 0.906188 0.502235
0.227268 0.694743 0.175265
0.225498 0.694789 0.174395
0.220157 0.694865 0.177722
0.216358 0.694896 0.179065
0.212985 0.694972 0.179156
0.211994 0.694987 0.179706
0.211536 0.694972 0.180484
0.211536 0.694972 0.180484
0.211536 0.694972 0.180484
0.211536 0.694972 0.180484
0.211536 0.694972 0.180484
0.211536 0.694972 0.180484
0.216358 0.695308 0.18085
0.26833 0.700313 0.186725
0.35996 0.719829 0.208698
0.445121 0.749905 0.242802
0.521111 0.783551 0.278523
0.596765 0.817823 0.313191
0.687739 0.854292 0.3514
0.781537 0.881636 0.392248
0.856474 0.895903 0.438499
0.887205 0.901915 0.47219
0.900771 0.905608 0.493339
0.906905 0.910292 0.521157
0.911971 0.912398 0.542123
0.913054 0.914 0.554116
0.913146 0.914473 0.557397
0.912917 0.914717 0.559091
0.912352 0.915129 0.562295
0.911528 0.915663 0.566842
0.911147 0.916045 0.570428
0.911147 0.916274 0.57203
0.911604 0.916396 0.572442
0.211154 0.696574 0.207889
0.213214 0.695903 0.199908
0.214099 0.69543 0.193606
0.213321 0.695354 0.188693
0.212009 0.695247 0.185229
0.211963 0.694987 0.180087
0.211521 0.694972 0.180514
0.211536 0.694972 0.180484
0.211536 0.694972 0.180484
0.211536 0.694972 0.180484
0.211536 0.694972 0.180484
0.211536 0.694972 0.180484
0.215412 0.695293 0.180835
0.258457 0.698955 0.185382
0.352422 0.717647 0.205936
0.438788 0.747448 0.240375
0.512459 0.779599 0.275959
0.594888 0.816999 0.315831
0.685283 0.853559 0.355108
0.778149 0.880934 0.393988
0.849775 0.895933 0.43801
0.887816 0.902876 0.474861
0.901473 0.906538 0.49688
0.907286 0.910811 0.524483
0.911772 0.913756 0.550774
0.913207 0.915557 0.565011
0.913161 0.916182 0.569894
0.912856 0.916274 0.570794
0.912276 0.916503 0.572625
0.91162 0.916732 0.575204
0.911101 0.916899 0.576913
0.910857 0.916991 0.57789
0.911101 0.916915 0.576928
0.207141 0.698329 0.225742
0.210361 0.6972 0.215274
0.211734 0.696483 0.206165
0.211963 0.695796 0.198093
0.211322 0.695445 0.192309
0.211292 0.695125 0.185977
0.211521 0.694987 0.180529
0.211536 0.694972 0.180484
0.211536 0.694972 0.180484
0.211536 0.694972 0.180484
0.211536 0.694972 0.180484
0.211536 0.694972 0.180484
0.216785 0.695308 0.18085
0.254124 0.69836 0.184817
0.346044 0.71574 0.204181
0.437049 0.746593 0.239399
0.507576 0.77731 0.273548
0.589364 0.814511 0.314122
0.680095 0.851698 0.355612
0.771862 0.879713 0.395407
0.843671 0.895384 0.438895
0.885115 0.902724 0.475578
0.901137 0.906203 0.496498
0.906828 0.910246 0.520851
0.911711 0.913176 0.547478
0.913207 0.915526 0.564828
0.913161 0.916182 0.569894
0.912856 0.916274 0.570794
0.912276 0.916487 0.572641
0.91162 0.916732 0.575204
0.911101 0.916915 0.576928
0.910857 0.916991 0.57789
0.910857 0.916991 0.57789
0.204456 0.700282 0.241154
0.205783 0.699199 0.232593
0.207782 0.697948 0.222217
0.209751 0.696818 0.210742
0.210056 0.695857 0.200732
0.210452 0.695399 0.190967
0.211185 0.695018 0.182864
