bundles/resolve-cinematic-luts/Phantom Luts/Canon Film LUT/C-Log 2/Eastman Canon-Legacy CL2.cube
TITLE "Generated by Resolve"
LUT_3D_SIZE 5
0.0430304 0.0390021 0.0390021
0.111192 0.0390021 0.0421149
0.395941 0.0527504 0.045304
0.55938 0.0416266 0.0954452
0.548211 0.0506294 0.147906
0.0629282 0.109636 0.0602121
0.112444 0.104891 0.0566873
0.413123 0.0866255 0.041413
0.52694 0.105074 0.0497292
0.518257 0.106249 0.0500954
0.155062 0.576486 0.165866
0.151934 0.57586 0.168475
0.562173 0.591638 0.11577
0.816709 0.597879 0.171389
0.814664 0.581048 0.170703
0.248096 0.769162 0.281468
0.24947 0.765652 0.275593
0.509239 0.80209 0.239551
0.827161 0.817761 0.292073
0.827893 0.821088 0.315206
0.241398 0.77641 0.326207
0.25098 0.765866 0.267201
0.462623 0.796429 0.237491
0.826139 0.81416 0.272663
0.830823 0.824079 0.334783
0.0390021 0.0390021 0.064744
0.0998703 0.0390021 0.0815442
0.388434 0.0390021 0.0946517
0.55314 0.0577249 0.211139
0.544411 0.0696269 0.255009
0.0579232 0.098558 0.0877699
0.111482 0.103975 0.106355
0.416754 0.0568551 0.0482032
0.549401 0.0464942 0.108934
0.542046 0.0535134 0.153857
0.145068 0.568322 0.225025
0.143221 0.560128 0.175326
0.548669 0.574868 0.111635
0.81474 0.527535 0.166293
0.808606 0.489219 0.166247
0.239109 0.806607 0.430625
0.246204 0.770138 0.29337
0.463004 0.797406 0.247868
0.820935 0.814511 0.274937
0.827268 0.816953 0.289281
0.248875 0.827329 0.495598
0.241932 0.778668 0.323659
0.404166 0.790204 0.245014
0.815396 0.812589 0.260761
0.82623 0.825376 0.341375
0.0390021 0.0551461 0.239918
0.0598917 0.0549325 0.292805
0.378317 0.0390021 0.319524
0.569497 0.0803693 0.404913
0.56762 0.0886549 0.43801
0.0390021 0.0824598 0.24712
0.0390021 0.0609598 0.277577
0.382467 0.0390021 0.324041
0.57229 0.0767681 0.39292
0.565637 0.0842756 0.415763
0.139284 0.595819 0.491295
0.137316 0.587427 0.488045
0.567056 0.586908 0.56936
0.830304 0.390845 0.488075
0.81529 0.356802 0.491798
0.287877 0.904967 0.694087
0.28571 0.892882 0.660121
0.268055 0.814145 0.436225
0.808392 0.836255 0.445151
0.835554 0.822492 0.430686
0.290394 0.909072 0.721965
0.288273 0.898436 0.678584
0.238163 0.783841 0.356847
0.74757 0.816892 0.254566
0.832547 0.838575 0.464012
0.0390021 0.0875105 0.38851
0.0492103 0.0810407 0.439429
0.401358 0.0664988 0.51223
0.571618 0.10486 0.533135
0.572015 0.105348 0.535729
0.0390021 0.111192 0.397345
0.0390021 0.0947127 0.402899
0.393042 0.0690776 0.522972
0.571481 0.104311 0.531075
0.571786 0.105409 0.5355
0.138476 0.613092 0.662089
0.133059 0.596536 0.664149
0.399023 0.518624 0.780758
0.771466 0.291569 0.684672
0.751263 0.254246 0.664378
0.292531 0.913619 0.798032
0.286427 0.903212 0.788663
0.284428 0.884886 0.770016
0.861326 0.887663 0.859327
0.914839 0.84007 0.840681
0.29749 0.920211 0.805814
0.297292 0.919371 0.802029
0.293248 0.915175 0.759991
0.799893 0.930388 0.841245
0.92755 0.954864 0.924315
0.0390021 0.115114 0.440009
0.0586404 0.104173 0.48368
0.425299 0.0803082 0.545586
0.571786 0.105425 0.535576
0.571801 0.105425 0.535576
0.0390021 0.121019 0.42504
0.0390021 0.11516 0.440406
0.409369 0.0800183 0.548058
0.571786 0.105425 0.535576
0.571801 0.105425 0.535576
0.144488 0.616312 0.709575
0.132616 0.585946 0.69778
0.337255 0.486748 0.783444
0.736416 0.252598 0.698451
0.707668 0.212543 0.660227
0.294423 0.915419 0.804913
0.288792 0.905333 0.802487
0.264149 0.867903 0.789151
0.810132 0.862745 0.906645
0.905547 0.779568 0.880171
0.296788 0.919417 0.805722
0.297063 0.919295 0.806027
0.297063 0.919295 0.806027
0.740993 0.963668 0.908644
0.928908 0.954498 0.923613
