bundles/resolve-cinematic-luts/Phantom Luts/Canon Film LUT/C-Log 2/EastmanRM Canon CL2.cube
TITLE "Generated by Resolve"
LUT_3D_SIZE 5
0.0422065 0.0322271 0.0366064
0.158938 0.0283055 0.0360266
0.485588 0.0266423 0.0550546
0.606607 0.0443732 0.129824
0.570459 0.0549325 0.196658
0.053727 0.144808 0.0463417
0.136233 0.141741 0.0447242
0.492332 0.0280766 0.0429694
0.581582 0.0374609 0.0941024
0.568368 0.0429389 0.13228
0.0838636 0.536095 0.05243
0.0745251 0.544564 0.0685588
0.666728 0.673869 0.134646
0.854719 0.572412 0.210483
0.846952 0.554208 0.206378
0.211154 0.696574 0.207889
0.211536 0.694972 0.180484
0.512459 0.779599 0.275959
0.911772 0.913756 0.550774
0.911101 0.916915 0.576928
0.198276 0.708492 0.297047
0.220615 0.694697 0.168841
0.547204 0.795621 0.271534
0.913802 0.912291 0.535729
0.911254 0.916869 0.576364
0.0407874 0.0409552 0.0685893
0.118151 0.0375067 0.0839857
0.465248 0.0312963 0.107027
0.592859 0.0569772 0.204059
0.571359 0.0714885 0.274449
0.0504311 0.132021 0.09514
0.121614 0.14049 0.122087
0.492821 0.0292668 0.0800946
0.592264 0.0474556 0.150057
0.574716 0.0545663 0.194598
0.0603494 0.538781 0.10927
0.0624399 0.538766 0.0796979
0.65861 0.663859 0.126238
0.848493 0.507332 0.176287
0.834363 0.482765 0.179492
0.205982 0.720714 0.356207
0.20473 0.699077 0.230716
0.461173 0.75671 0.249851
0.911055 0.91284 0.543603
0.910857 0.916991 0.57789
0.214588 0.746822 0.456123
0.20885 0.707225 0.291676
0.480232 0.765225 0.238361
0.910948 0.910857 0.520546
0.90927 0.917586 0.584543
0.0414893 0.0775158 0.259327
0.0652323 0.0728466 0.32134
0.445548 0.0497444 0.363043
0.629709 0.110643 0.410681
0.605814 0.12401 0.476463
0.0416571 0.109972 0.257115
0.0416876 0.085359 0.29839
0.451606 0.0534981 0.384878
0.63917 0.107866 0.399008
0.618387 0.119585 0.454185
0.0604562 0.548211 0.449241
0.0544747 0.554406 0.479118
0.618387 0.632593 0.602274
0.92253 0.43888 0.57116
0.91107 0.411734 0.575753
0.270817 0.783108 0.616312
0.25211 0.783429 0.614328
0.20238 0.706691 0.287968
0.911925 0.916838 0.562875
0.914351 0.927321 0.677913
0.268696 0.789868 0.667018
0.260197 0.788479 0.651392
0.209552 0.715526 0.333516
0.903471 0.913176 0.527047
0.907271 0.931884 0.718135
0.0425574 0.142901 0.429236
0.0512856 0.135882 0.475013
0.407233 0.113542 0.570794
0.605676 0.147326 0.600656
0.606394 0.147158 0.600183
0.0426947 0.157229 0.431769
0.0426184 0.152667 0.441077
0.413565 0.120958 0.581811
0.607004 0.147021 0.599588
0.604883 0.147524 0.60119
0.064332 0.5505 0.631479
0.0632486 0.548241 0.637705
0.314015 0.501091 0.749935
0.813321 0.337697 0.796902
0.788067 0.317662 0.779416
0.279133 0.78999 0.725643
0.269276 0.791302 0.73138
0.261616 0.78497 0.724727
0.887846 0.926665 0.893538
0.906523 0.924712 0.895506
0.276982 0.795972 0.736171
0.275319 0.796231 0.736812
0.273243 0.795468 0.725826
0.896071 0.946212 0.903792
0.913237 0.952972 0.917128
0.0429084 0.156176 0.460014
0.0646983 0.147662 0.499062
0.432731 0.121447 0.583108
0.605661 0.147341 0.600656
0.605234 0.147448 0.600931
0.0426947 0.158907 0.435004
0.0429084 0.156161 0.460883
0.430991 0.121416 0.583108
0.606622 0.147112 0.59997
0.604868 0.147539 0.601205
0.0623331 0.541741 0.64715
0.059144 0.533227 0.644297
0.271366 0.456397 0.739971
0.757549 0.27805 0.747524
0.736568 0.261814 0.731853
0.27921 0.79118 0.731502
0.270848 0.792203 0.736568
0.261204 0.784024 0.734234
0.879942 0.918975 0.905989
0.912261 0.910979 0.903258
0.27602 0.796155 0.736812
0.275425 0.796277 0.737255
0.275425 0.796277 0.737255
0.883833 0.944015 0.908202
0.912108 0.953246 0.918242
