bundles/resolve-cinematic-luts/Phantom Luts/Canon Film LUT/C-Log 2/Eterna Canon CL2.cube
TITLE "Generated by Resolve"
LUT_3D_SIZE 33
0.00480659 0.0325628 0.0330968
0.0071107 0.0328985 0.0334173
0.0132601 0.033051 0.0347906
0.024506 0.0340276 0.0357671
0.0403143 0.0345617 0.0358129
0.0597696 0.0356909 0.0367437
0.0782788 0.0367437 0.037705
0.0971695 0.0383459 0.0395056
0.119112 0.0407874 0.0440375
0.146685 0.0434882 0.0495766
0.179858 0.0468757 0.0580911
0.218235 0.0510414 0.0691081
0.26276 0.0556039 0.0829328
0.310552 0.0603952 0.0987716
0.362631 0.0654459 0.117571
0.417472 0.0707866 0.139071
0.47422 0.0758984 0.162615
0.531228 0.0818036 0.187655
0.587427 0.0881514 0.214282
0.633433 0.0951247 0.239826
0.656428 0.0994583 0.259663
0.660853 0.100313 0.267185
0.662196 0.100496 0.27306
0.663462 0.100664 0.278233
0.664546 0.100847 0.28304
0.665537 0.100954 0.287358
0.666835 0.100923 0.291371
0.669184 0.100511 0.295506
0.672984 0.0996567 0.300252
0.678569 0.0981155 0.305562
0.68571 0.0960708 0.31194
0.693782 0.093904 0.318547
0.702373 0.0916304 0.325261
0.00457771 0.0324254 0.0310063
0.0055848 0.0326696 0.0321508
0.0105287 0.0332799 0.03299
0.0200198 0.0339055 0.0339055
0.0351568 0.0345617 0.0343786
0.0552529 0.0355993 0.0352026
0.0768139 0.0368048 0.0364843
0.097322 0.038407 0.0385595
0.120439 0.0408179 0.0420691
0.148272 0.0435187 0.0473487
0.183124 0.0469062 0.0556954
0.223087 0.0510262 0.0667887
0.268132 0.0551766 0.0807813
0.316732 0.0598611 0.0977035
0.368795 0.0650187 0.11635
0.423682 0.0706645 0.137697
0.479484 0.0760967 0.161089
0.536873 0.0823987 0.186603
0.592264 0.0888991 0.213458
0.635874 0.0956283 0.23888
0.658427 0.100038 0.258824
0.660166 0.100221 0.264759
0.66157 0.10042 0.270283
0.662928 0.100603 0.275578
0.66392 0.100771 0.280522
0.664927 0.100877 0.284764
0.66627 0.100847 0.288792
0.668711 0.10045 0.292973
0.67248 0.0996109 0.297704
0.678126 0.0981918 0.303044
0.685328 0.0961471 0.309178
0.693645 0.0938277 0.315663
0.70277 0.0913863 0.322591
0.0056611 0.0353399 0.0324559
0.00550851 0.0350042 0.0328222
0.00834669 0.0349737 0.0331273
0.0155947 0.0353399 0.0336767
0.029221 0.0350347 0.0336004
0.0488746 0.0356909 0.0345159
0.071519 0.0368505 0.0359503
0.0946212 0.0389258 0.0385595
0.119844 0.0413825 0.0419776
0.149844 0.0438239 0.0465248
0.185885 0.0469215 0.0539864
0.226825 0.0508278 0.0641031
0.272786 0.0552224 0.0782788
0.322133 0.0596017 0.0956283
0.376028 0.0643931 0.115434
0.4327 0.0695964 0.137484
0.48986 0.0755016 0.161608
0.546441 0.0821088 0.18735
0.599176 0.0887617 0.213626
0.638743 0.0957198 0.238346
0.65774 0.0999771 0.256367
0.659556 0.100175 0.262516
0.661112 0.100359 0.268116
0.662348 0.100526 0.273518
0.663493 0.100679 0.278355
0.664424 0.100832 0.282536
0.665537 0.100862 0.286549
0.668009 0.100481 0.290517
0.671809 0.0996414 0.29546
0.677485 0.0982528 0.300618
0.684871 0.0962539 0.306783
0.69366 0.0937362 0.313451
0.70338 0.0911116 0.320607
0.00784314 0.0420386 0.0353246
0.00766003 0.0421149 0.0350958
0.00985733 0.0407111 0.0349889
0.0157015 0.0407874 0.0354162
0.0275578 0.0395209 0.0341192
0.0471199 0.0375525 0.0339666
0.0699168 0.037583 0.0356146
0.0934768 0.0391699 0.0386816
0.119158 0.0412146 0.0420539
0.149905 0.0436561 0.0458381
0.187213 0.0478676 0.0534676
0.228931 0.0513161 0.0623026
0.275257 0.0550851 0.0749218
0.325811 0.0595865 0.0921798
0.380545 0.0643626 0.112734
0.438666 0.0691081 0.13547
0.498329 0.0747234 0.16112
0.558572 0.0807355 0.188556
0.613977 0.0868696 0.216373
0.651621 0.09337 0.241794
0.666651 0.0973526 0.25803
0.668177 0.0975967 0.264363
0.669688 0.0977798 0.270054
0.670817 0.0979934 0.275257
0.67155 0.0982223 0.280079
0.67219 0.0984512 0.284077
0.672694 0.0986343 0.287816
0.673533 0.0986954 0.291035
0.675349 0.098436 0.294545
0.679133 0.0975967 0.29865
0.685573 0.0959487 0.304173
0.694453 0.093431 0.310842
0.704265 0.0906844 0.317998
0.0107576 0.0533455 0.0390478
0.0101778 0.0540169 0.0382696
0.0112459 0.0534066 0.0373388
0.0159304 0.0503853 0.0375219
0.0275883 0.0508583 0.0380865
0.0466163 0.0479744 0.0366217
0.071107 0.0435492 0.0355077
0.0962692 0.0418708 0.0373236
0.122057 0.0422217 0.0407416
0.15172 0.0444495 0.0454566
0.187655 0.0475929 0.0520333
0.229831 0.0510872 0.0594186
0.276875 0.0562142 0.072221
0.326101 0.0594339 0.0869917
0.381598 0.0641947 0.107561
0.440635 0.0690929 0.130556
0.501091 0.0749065 0.156481
0.561547 0.0809644 0.18439
0.61619 0.0875563 0.212604
0.653468 0.093843 0.238926
0.666697 0.0969253 0.254002
0.667994 0.0972152 0.260075
0.66923 0.0974594 0.265888
0.670192 0.0977188 0.270985
0.670985 0.0979629 0.275486
0.671733 0.098146 0.279789
0.672602 0.0982528 0.283497
0.673594 0.0982528 0.286778
0.675273 0.0980545 0.290044
0.679667 0.0970474 0.294545
0.68661 0.0953078 0.300069
0.69604 0.0928206 0.307073
0.705562 0.0901503 0.313664
0.0147097 0.0716716 0.0437324
0.0133364 0.0731365 0.0425269
0.0131075 0.0740673 0.0404822
0.0166476 0.0714275 0.0406653
0.0249332 0.0672313 0.04094
0.0452888 0.0673381 0.0420386
0.0713207 0.0649729 0.0415045
0.0979019 0.0564584 0.0407111
0.126619 0.0491493 0.0403449
0.158389 0.0479133 0.0438087
0.194781 0.0485084 0.0498207
0.235691 0.0513161 0.0579538
0.280079 0.0557259 0.0689555
0.328084 0.0592203 0.0816205
0.380758 0.0639658 0.100771
0.439765 0.068925 0.123583
0.500801 0.0747387 0.149126
0.562325 0.081178 0.177356
0.617411 0.0879377 0.206104
0.654704 0.0944381 0.234073
0.665721 0.0970016 0.247822
0.667048 0.0968338 0.253788
0.668666 0.0969406 0.259663
0.670115 0.0970779 0.265232
0.671229 0.097261 0.269749
0.672099 0.0974136 0.273732
0.672816 0.0975357 0.277302
0.673777 0.0975662 0.280476
0.675471 0.0973526 0.28365
0.679286 0.0965133 0.287724
0.685634 0.0949569 0.29276
0.694987 0.0925307 0.29929
0.704936 0.0899367 0.305959
0.0198672 0.0974899 0.0496223
0.0185702 0.0999008 0.0485542
0.0172274 0.101625 0.0463722
0.0189212 0.101366 0.0444953
0.0247196 0.0968948 0.0443885
0.0387274 0.092668 0.0450599
0.0713664 0.0907759 0.0457008
0.103136 0.0888838 0.0458534
0.133913 0.0760357 0.0460365
0.164202 0.0628977 0.0438087
0.20267 0.0554971 0.0456703
0.243793 0.0549325 0.0527199
0.286549 0.0564126 0.0630655
0.331243 0.0601511 0.0757916
0.378958 0.0640574 0.0919966
0.433585 0.0690166 0.112978
0.492454 0.0747234 0.137102
0.554284 0.0816358 0.165103
0.611643 0.0889601 0.194659
0.649439 0.0959335 0.223285
0.65832 0.097734 0.235477
0.660502 0.0979934 0.242145
0.662242 0.0980545 0.247852
0.663401 0.0979171 0.252903
0.664576 0.0980087 0.25745
0.665705 0.0981155 0.261311
0.666667 0.0981918 0.264729
0.667704 0.0982223 0.267903
0.669062 0.098085 0.27068
0.671412 0.097673 0.273793
0.675639 0.0966964 0.27744
0.681697 0.095201 0.282078
0.68925 0.0932631 0.287007
0.0289158 0.125353 0.0548104
0.0267185 0.128847 0.0538949
0.0243534 0.13196 0.052491
0.0232853 0.134188 0.0501411
0.0259709 0.13286 0.0488289
0.035172 0.127565 0.0487526
0.0540932 0.123629 0.0498207
0.101122 0.119951 0.0512398
0.139513 0.119005 0.052018
0.178775 0.105241 0.0538949
0.216175 0.082475 0.0515908
0.256382 0.0656901 0.0500343
0.302892 0.0622721 0.0576333
0.347692 0.0609751 0.0685893
0.393866 0.0642252 0.0863203
0.439399 0.0682689 0.105745
0.491997 0.0736706 0.127855
0.547494 0.0797131 0.150805
0.604334 0.0878462 0.179492
0.644633 0.0957656 0.20763
0.649592 0.0963912 0.216526
0.654032 0.0971389 0.224918
0.656748 0.0975509 0.231296
0.658915 0.0977798 0.236866
0.660563 0.0980087 0.241413
0.661921 0.0981308 0.245274
0.662684 0.0980392 0.248493
0.663447 0.0979171 0.251377
0.664759 0.0977646 0.254063
0.667414 0.0972457 0.257206
0.671656 0.0963302 0.260487
0.678019 0.0947738 0.26479
0.685695 0.0928664 0.269413
0.0359808 0.159503 0.0630655
0.0337072 0.164126 0.0617227
0.0309758 0.168383 0.0598306
0.0298161 0.171679 0.0573587
0.0296635 0.172793 0.0551461
0.0326085 0.16968 0.0545205
0.0474861 0.164279 0.0540627
0.074342 0.160189 0.0548714
0.135714 0.155108 0.0568856
0.18352 0.155276 0.0589761
0.234546 0.14284 0.0615396
0.2804 0.103655 0.0596475
0.320592 0.0817121 0.0574655
0.367727 0.0705425 0.0599985
0.418326 0.0686351 0.0753185
0.465568 0.0691997 0.0971542
0.507301 0.0729381 0.12108
0.548089 0.0778821 0.14287
0.597131 0.0841993 0.163973
0.634379 0.0922103 0.18558
0.638437 0.0937819 0.192996
0.641199 0.0948959 0.199191
0.643961 0.095552 0.204517
0.646937 0.0960403 0.21001
0.649363 0.0962234 0.215061
0.65182 0.0966964 0.219348
0.65333 0.0969406 0.222736
0.654887 0.0971237 0.225742
0.65658 0.0972 0.228733
0.659876 0.09691 0.231983
0.664607 0.0961318 0.235782
0.671199 0.0946822 0.239643
0.679042 0.0927901 0.244038
0.0451972 0.203204 0.07187
0.0421912 0.20856 0.0692912
0.038468 0.214176 0.0667582
0.0364538 0.218555 0.0639506
0.0356298 0.221057 0.0612497
0.0364538 0.22089 0.0612955
0.0399023 0.215915 0.0608835
0.0607004 0.210986 0.060914
0.0994125 0.207385 0.0615396
0.178439 0.199847 0.0627451
0.238148 0.201373 0.0648203
0.305119 0.187518 0.068513
0.354116 0.13901 0.0683146
0.395163 0.106554 0.0666056
0.437919 0.0864729 0.0667124
0.487266 0.0779278 0.0762951
0.537133 0.0755779 0.0989395
0.581659 0.0808881 0.13286
0.611765 0.0848096 0.158694
0.633219 0.0884108 0.177401
0.644297 0.0905623 0.184192
0.644236 0.0902419 0.184268
0.64596 0.090074 0.186664
0.64802 0.0901503 0.189487
0.649409 0.0902266 0.191318
0.650111 0.0902876 0.192508
0.650736 0.0904707 0.193698
0.651118 0.0907301 0.195407
0.651179 0.0909743 0.196475
0.65214 0.0912032 0.198337
0.654322 0.0911421 0.200641
0.658259 0.0905928 0.203265
0.664363 0.0893721 0.206378
0.0530709 0.25861 0.0789044
0.048661 0.265538 0.0757763
0.0439307 0.273121 0.0724346
0.04094 0.278889 0.0685893
0.0396582 0.283284 0.0652934
0.0403296 0.285527 0.0650797
0.042237 0.284337 0.0652934
0.0456855 0.27689 0.0654154
0.0734112 0.271687 0.0656138
0.125963 0.267399 0.0657511
0.229404 0.257923 0.0659037
0.308003 0.258915 0.0659037
0.386877 0.246983 0.06804
0.442191 0.194598 0.0734722
0.480064 0.144762 0.0759136
0.516747 0.11281 0.0766613
0.554665 0.0981613 0.0805524
0.592386 0.0911421 0.0976883
0.627878 0.0914321 0.128618
0.654597 0.096437 0.162051
0.658732 0.0966506 0.176959
0.656245 0.0951247 0.176654
0.65687 0.0948501 0.178805
0.656992 0.0944381 0.183352
0.654368 0.0937057 0.185397
0.648859 0.090837 0.183108
0.647654 0.0900282 0.183078
0.647364 0.0898451 0.183383
0.647242 0.0898451 0.183505
0.64741 0.0898146 0.183795
0.648127 0.0896468 0.184268
0.649927 0.089189 0.184894
0.654139 0.0881514 0.186053
0.0565042 0.328237 0.0825208
0.0493477 0.337743 0.0780499
0.0433967 0.346716 0.0739757
0.0393072 0.354452 0.0695964
0.0371557 0.361334 0.0645304
0.0365454 0.366278 0.0623789
0.0373541 0.369985 0.0623178
0.0396124 0.367224 0.0628061
0.0457465 0.356985 0.06392
0.0833906 0.349813 0.0635843
0.154971 0.344381 0.062089
0.289479 0.334218 0.0590372
0.394064 0.336095 0.056611
0.4757 0.331044 0.0566262
0.545434 0.276768 0.067689
0.584741 0.211521 0.0816815
0.612039 0.16846 0.0885634
0.632059 0.140749 0.0949722
0.643275 0.125383 0.103182
0.650843 0.109987 0.114366
0.664118 0.107286 0.135531
0.660868 0.103792 0.136248
0.661387 0.102296 0.141573
0.665064 0.102373 0.150683
0.667292 0.102098 0.156893
0.667887 0.101518 0.159823
0.66836 0.100786 0.162539
0.669383 0.100603 0.165255
0.669673 0.100389 0.167742
0.669596 0.100038 0.169665
0.669779 0.099443 0.171054
0.671412 0.0985275 0.172305
0.675303 0.0971542 0.173892
0.0510414 0.413642 0.0812848
0.0430762 0.424949 0.0763104
0.0360418 0.435386 0.0716716
0.0322728 0.44419 0.0673381
0.0289464 0.452827 0.0621042
0.028809 0.459068 0.0579232
0.0296635 0.46392 0.0554513
0.0312505 0.465492 0.0554208
0.0347143 0.459937 0.0562448
0.0458228 0.447196 0.0573281
0.100038 0.441459 0.0550546
0.193378 0.432425 0.0517586
0.361456 0.421164 0.0480354
0.483452 0.423835 0.0488746
0.556985 0.426444 0.0528725
0.637324 0.393988 0.0629282
0.692729 0.321324 0.082826
0.716594 0.266056 0.100465
0.712902 0.209918 0.1131
0.714168 0.185092 0.12108
0.708659 0.16437 0.124468
0.703349 0.156466 0.124468
0.699687 0.152148 0.125444
0.693172 0.146365 0.123476
0.687495 0.141146 0.121614
0.681361 0.135409 0.119738
0.676036 0.130282 0.117296
0.673396 0.127352 0.117052
0.670176 0.123766 0.116365
0.667216 0.120333 0.115969
0.665095 0.11722 0.115679
0.664302 0.113527 0.115373
0.665949 0.110491 0.115358
0.0487526 0.50602 0.0832227
0.0429541 0.516335 0.0794842
0.0378729 0.525719 0.0759594
0.0338903 0.534356 0.0720226
0.0311894 0.54229 0.0679789
0.0302739 0.548653 0.062501
0.0314336 0.554238 0.0572061
0.0330053 0.557015 0.0576638
0.035462 0.556909 0.0581979
0.0376287 0.548302 0.0578012
0.054963 0.537377 0.0559548
0.135576 0.534722 0.0515297
0.253101 0.520897 0.0476692
0.440513 0.51107 0.0502327
0.565118 0.513878 0.0590524
0.630121 0.519997 0.0689708
0.70576 0.521904 0.0890974
0.763684 0.459022 0.108782
0.796826 0.396017 0.128023
0.80679 0.336858 0.135042
0.801938 0.288029 0.137682
0.786191 0.251728 0.13666
0.775921 0.237156 0.135317
0.772931 0.232822 0.135195
0.769207 0.228153 0.134752
0.767468 0.225467 0.134752
0.764843 0.2224 0.134417
0.761196 0.218036 0.133761
0.757229 0.213184 0.133272
0.752697 0.207965 0.132586
0.748623 0.202869 0.131701
0.744762 0.197147 0.130877
0.742245 0.191455 0.130175
0.0621958 0.594797 0.102083
0.0585946 0.604242 0.0998093
0.0552071 0.612482 0.0977646
0.0532998 0.620218 0.0957046
0.05243 0.626551 0.0926833
0.0542 0.63238 0.0899672
0.0572824 0.636637 0.086305
0.0610513 0.639094 0.0838483
0.06392 0.639811 0.0850233
0.0659037 0.638117 0.0849622
0.0642405 0.627008 0.0805371
0.095552 0.620295 0.0719615
0.195422 0.62269 0.0633555
0.335698 0.606592 0.0578012
0.520104 0.597833 0.0655375
0.641245 0.601328 0.0852522
0.703487 0.606851 0.104952
0.767025 0.614816 0.130632
0.817838 0.589014 0.146426
0.850935 0.536782 0.157992
0.866072 0.47921 0.16495
0.868574 0.435737 0.167559
0.866133 0.427741 0.166598
0.863386 0.42089 0.164782
0.860883 0.414221 0.163516
0.857771 0.406561 0.161456
0.854643 0.397879 0.159304
0.851087 0.38819 0.157229
0.8477 0.377874 0.155413
0.843915 0.366979 0.153399
0.839551 0.355459 0.151049
0.835874 0.345052 0.149432
0.83241 0.335668 0.147646
0.105745 0.675044 0.143404
0.104524 0.68394 0.142702
0.102007 0.692561 0.141756
0.0998703 0.69984 0.139971
0.099321 0.706142 0.137713
0.100969 0.711681 0.135027
0.104448 0.715373 0.131899
0.108431 0.717662 0.128038
0.111696 0.718914 0.128542
0.114168 0.717952 0.129061
0.114 0.712337 0.127337
0.114092 0.700175 0.120333
0.172549 0.699046 0.104555
0.282139 0.704189 0.0909743
0.433463 0.687739 0.0825971
0.60296 0.679423 0.100603
0.713832 0.683391 0.132448
0.775418 0.688273 0.154986
0.823331 0.693568 0.173266
0.864805 0.693935 0.188098
0.891814 0.664652 0.192187
0.902495 0.624369 0.190311
0.903822 0.601511 0.190082
0.902556 0.592859 0.188983
0.901442 0.585 0.188159
0.899916 0.576761 0.18677
0.898466 0.568414 0.185794
0.897002 0.559731 0.184543
0.895186 0.550011 0.183001
0.892973 0.538933 0.181369
0.890654 0.527855 0.179736
0.888197 0.516838 0.177981
0.885832 0.507088 0.176257
0.150744 0.75729 0.188098
0.151705 0.765332 0.187289
0.150118 0.773129 0.185809
0.148058 0.780621 0.183505
0.146715 0.786404 0.180026
0.147204 0.791028 0.176226
0.149218 0.793973 0.171969
0.15227 0.795682 0.167712
0.154757 0.796613 0.168307
0.157107 0.796048 0.169085
0.158282 0.792554 0.168383
0.15494 0.781857 0.163851
0.16965 0.775189 0.157702
0.26717 0.779156 0.142931
0.384421 0.783215 0.133562
0.532143 0.761959 0.126726
0.681987 0.756329 0.152682
0.780652 0.762249 0.183459
0.838819 0.767529 0.204334
0.874296 0.770291 0.217426
0.902525 0.771313 0.227634
0.919509 0.763485 0.231296
0.925902 0.756817 0.232151
0.925521 0.753017 0.230533
0.924239 0.747677 0.227878
0.92282 0.739284 0.224079
0.921386 0.731411 0.2206
0.919814 0.721935 0.216693
0.918181 0.711467 0.212757
0.916579 0.70013 0.209216
0.915084 0.689021 0.206332
0.913481 0.678218 0.203387
0.912261 0.668406 0.200931
0.192081 0.827863 0.220722
0.192874 0.834745 0.219257
0.190051 0.840467 0.216327
0.186679 0.845823 0.212985
0.184054 0.850462 0.208942
0.183413 0.853803 0.204578
0.184421 0.856016 0.200595
0.185962 0.857008 0.198032
0.187198 0.857664 0.198718
0.18883 0.857527 0.199435
0.190082 0.854841 0.198993
0.1906 0.849912 0.197757
0.187304 0.837674 0.19202
0.237873 0.83827 0.185595
0.366384 0.849302 0.178027
0.484825 0.846601 0.1729
0.627634 0.825818 0.17673
0.755962 0.823041 0.204486
0.838483 0.83006 0.230747
0.889555 0.834348 0.25066
0.915221 0.835325 0.260929
0.928481 0.833844 0.266148
0.93579 0.83035 0.267628
0.936721 0.825925 0.265843
0.936019 0.822248 0.263279
0.935241 0.818753 0.260777
0.934234 0.814359 0.257786
0.933196 0.80914 0.254261
0.932403 0.803662 0.251102
0.931243 0.797406 0.247547
0.930327 0.791058 0.244663
0.929732 0.785 0.242451
0.928695 0.778912 0.239414
0.22182 0.877073 0.245396
0.220966 0.880735 0.242634
0.217273 0.884321 0.238788
0.212284 0.887648 0.233616
0.208713 0.890272 0.228122
0.207492 0.89192 0.222721
0.20798 0.892485 0.218997
0.208988 0.892866 0.217746
0.209873 0.89305 0.218158
0.211002 0.892805 0.21854
0.212161 0.89134 0.218616
0.213077 0.888884 0.218265
0.212406 0.882994 0.216205
0.230106 0.879652 0.213138
0.338018 0.887404 0.206668
0.470298 0.898207 0.20766
0.581323 0.890059 0.206989
0.714717 0.874434 0.222751
0.822217 0.874968 0.253742
0.885557 0.881453 0.276051
0.923033 0.883635 0.29189
0.938979 0.884489 0.300771
0.944915 0.88275 0.303212
0.946715 0.878813 0.301442
0.945937 0.87541 0.298634
0.945068 0.872343 0.295735
0.94432 0.869093 0.292515
0.943389 0.865583 0.289433
0.942473 0.862043 0.286244
0.94168 0.85803 0.28336
0.941039 0.854292 0.281254
0.940826 0.850294 0.279713
0.9402 0.846571 0.277562
0.236683 0.897276 0.258885
0.23447 0.897932 0.253834
0.230076 0.899428 0.248646
0.225223 0.901106 0.242405
0.22092 0.902495 0.236042
0.218616 0.903151 0.229969
0.217578 0.903304 0.224811
0.217075 0.903471 0.224277
0.217121 0.903471 0.224277
0.217655 0.903258 0.22443
0.218784 0.902815 0.224765
0.220447 0.902144 0.225345
0.222675 0.901259 0.226001
0.229374 0.898985 0.225254
0.302693 0.906691 0.223438
0.445762 0.918288 0.222919
0.556405 0.922393 0.228153
0.664225 0.916701 0.236408
0.787198 0.909804 0.266041
0.872374 0.912077 0.296239
0.917922 0.916182 0.315312
0.941878 0.917342 0.32842
0.951003 0.917556 0.333211
0.953613 0.915877 0.333913
0.953079 0.913497 0.331395
0.952346 0.911345 0.328313
0.951568 0.908965 0.325216
0.950729 0.906462 0.321843
0.949889 0.903746 0.318593
0.949538 0.901183 0.316167
0.949111 0.898054 0.313863
0.948745 0.894911 0.312184
0.948577 0.892302 0.310613
0.236179 0.897414 0.257404
0.233997 0.898131 0.254017
0.229618 0.899702 0.250217
0.224643 0.901488 0.245121
0.220279 0.902937 0.239063
0.217807 0.903639 0.233249
0.216907 0.903685 0.22707
0.216678 0.90367 0.224948
0.216831 0.903578 0.224201
0.217273 0.903395 0.224323
0.218021 0.903105 0.224552
0.219135 0.902663 0.224872
0.22034 0.902174 0.225299
0.222904 0.901671 0.225757
0.268971 0.906706 0.225116
0.40148 0.919692 0.22475
0.535988 0.928435 0.231724
0.634516 0.931411 0.24303
0.74432 0.93164 0.269047
0.851438 0.931273 0.311009
0.910353 0.93489 0.337118
0.937743 0.937362 0.353872
0.952621 0.937987 0.365423
0.95758 0.93753 0.370153
0.95816 0.936034 0.36968
0.957977 0.934478 0.366415
0.957366 0.932967 0.362341
0.956573 0.931426 0.358099
0.956008 0.929808 0.354101
0.955749 0.928069 0.350866
0.955749 0.926406 0.348592
0.95555 0.924651 0.346197
0.955459 0.923033 0.344305
0.239475 0.897139 0.280201
0.238529 0.897429 0.275792
0.235737 0.898344 0.270466
0.232013 0.899489 0.264057
0.228733 0.90042 0.256199
0.226642 0.900816 0.247913
0.225864 0.900694 0.239658
0.226322 0.900099 0.232029
0.226825 0.899672 0.228748
0.227375 0.899382 0.227375
0.227924 0.899153 0.227543
0.228733 0.898833 0.227787
0.229572 0.898482 0.228122
0.23064 0.898039 0.228428
0.251881 0.900298 0.22826
0.364721 0.913069 0.227634
0.499641 0.923735 0.232639
0.599496 0.929213 0.243641
0.704555 0.933486 0.264332
0.824338 0.937301 0.305943
0.912764 0.940932 0.348196
0.940063 0.945495 0.377798
0.953933 0.947845 0.402106
0.960998 0.949004 0.41828
0.962524 0.949248 0.42266
0.961883 0.948669 0.415488
0.960967 0.947982 0.406775
0.960006 0.947433 0.398795
0.958709 0.946838 0.3906
0.957427 0.946136 0.383215
0.956527 0.94522 0.377401
0.955993 0.944152 0.373175
0.956161 0.942824 0.37116
0.223102 0.904341 0.296696
0.225315 0.903334 0.293004
0.226139 0.9028 0.288365
0.225742 0.902632 0.282063
0.224674 0.902602 0.27303
0.224125 0.902617 0.262547
0.223865 0.902113 0.251545
0.224582 0.901274 0.240864
0.225803 0.900267 0.231296
0.226642 0.899687 0.227375
0.227237 0.899443 0.227329
0.228092 0.899107 0.227588
0.228992 0.898726 0.227893
0.229694 0.898421 0.228153
0.230762 0.898207 0.228351
0.31667 0.908904 0.226993
0.454551 0.92134 0.229496
0.569406 0.928206 0.238926
0.66775 0.932647 0.254932
0.787442 0.937423 0.286046
0.897124 0.943145 0.335241
0.940307 0.94847 0.383139
0.954192 0.951537 0.427573
0.961273 0.953262 0.477577
0.964645 0.954086 0.506722
0.964813 0.954269 0.512032
0.96434 0.954452 0.503532
0.963592 0.954696 0.493523
0.962661 0.95494 0.482399
0.9617 0.954864 0.469566
0.960967 0.954498 0.457038
0.960632 0.953918 0.446738
0.960571 0.953216 0.438773
0.218067 0.907149 0.314534
0.220142 0.906126 0.310155
0.221317 0.905425 0.305119
0.221546 0.905013 0.298405
0.221164 0.90483 0.289769
0.220798 0.904418 0.27895
0.221241 0.903746 0.265843
0.222553 0.902663 0.251957
0.22414 0.901381 0.239399
0.225681 0.900175 0.229053
0.226184 0.899855 0.227024
0.226703 0.899657 0.227176
0.227573 0.899306 0.227436
0.228519 0.898924 0.22771
0.228977 0.898726 0.227893
0.272725 0.904463 0.226841
0.409293 0.918715 0.226734
0.526543 0.926726 0.23331
0.635218 0.932036 0.247761
0.749523 0.936324 0.27393
0.865995 0.941665 0.319219
0.932158 0.948028 0.376287
0.953231 0.951736 0.43151
0.960662 0.953658 0.496025
0.964477 0.95465 0.545342
0.965545 0.955245 0.566445
0.96527 0.955566 0.570794
0.964752 0.955856 0.567987
0.963973 0.956146 0.560525
0.963195 0.956405 0.552071
0.962646 0.956542 0.54374
0.962417 0.956481 0.536553
0.96257 0.956222 0.53048
0.21561 0.908705 0.331151
0.217685 0.90782 0.32665
0.218845 0.907149 0.321004
0.218906 0.906783 0.313619
0.218082 0.906645 0.304524
0.217502 0.906386 0.2934
0.217762 0.905684 0.280461
0.21886 0.904616 0.264576
0.221958 0.902739 0.248493
0.22356 0.90135 0.234562
0.22446 0.900572 0.227268
0.224643 0.900465 0.226581
0.225101 0.900298 0.226703
0.225864 0.899992 0.226932
0.22652 0.899718 0.227131
0.248798 0.90248 0.226719
0.362814 0.915648 0.225193
0.488075 0.925948 0.229053
0.592157 0.931472 0.239124
0.70457 0.935805 0.260441
0.824872 0.940139 0.297902
0.914458 0.946273 0.354665
0.948104 0.951034 0.41117
0.958358 0.953185 0.471641
0.963256 0.954452 0.528603
0.965408 0.9552 0.560555
0.965255 0.955581 0.570764
0.964782 0.955871 0.56997
0.964141 0.956268 0.569055
0.96347 0.956649 0.568063
0.963027 0.956893 0.567407
0.963012 0.956909 0.567346
0.963378 0.956695 0.567849
0.212528 0.910262 0.34548
0.21474 0.909224 0.340627
0.216434 0.908446 0.335012
0.216922 0.908156 0.327749
0.21593 0.908095 0.318074
0.214862 0.907988 0.306371
0.214771 0.907439 0.293263
0.216114 0.906203 0.277867
0.218784 0.904555 0.258885
0.221393 0.902602 0.241367
0.223514 0.90103 0.22858
0.223987 0.90074 0.226383
0.224155 0.900664 0.226444
0.224582 0.900496 0.226566
0.225177 0.900267 0.226734
0.236103 0.901473 0.226734
0.320409 0.911528 0.224964
0.450355 0.923552 0.226627
0.550072 0.92987 0.233295
0.659983 0.935149 0.249439
0.779339 0.939498 0.279728
0.888243 0.944549 0.329152
0.940902 0.950454 0.390906
0.955581 0.952941 0.448249
0.961746 0.95436 0.509438
0.965209 0.955123 0.553506
0.965225 0.955596 0.570703
0.964782 0.955886 0.56997
0.964141 0.956268 0.569055
0.96347 0.956649 0.568093
0.963058 0.956878 0.567498
0.963058 0.956878 0.567514
0.963409 0.95668 0.568002
0.209827 0.911788 0.358389
0.211933 0.910811 0.352697
0.213687 0.909895 0.346975
0.214343 0.909331 0.339437
0.213748 0.909346 0.330083
0.21268 0.909346 0.318639
0.212314 0.908888 0.305043
0.213291 0.907835 0.289601
0.215885 0.905943 0.270481
0.219333 0.903899 0.250172
0.222248 0.901808 0.233005
0.223667 0.900862 0.226383
0.223911 0.900771 0.226368
0.224109 0.900679 0.226429
0.224292 0.900618 0.226474
0.228779 0.901061 0.226474
