bundles/resolve-cinematic-luts/Phantom Luts/Canon Film LUT/C-Log 2/Eterna Canon CL2.cube
TITLE "Generated by Resolve"
LUT_3D_SIZE 5
0.00480659 0.0325628 0.0330968
0.119112 0.0407874 0.0440375
0.47422 0.0758984 0.162615
0.664546 0.100847 0.28304
0.702373 0.0916304 0.325261
0.0359808 0.159503 0.0630655
0.135714 0.155108 0.0568856
0.507301 0.0729381 0.12108
0.649363 0.0962234 0.215061
0.679042 0.0927901 0.244038
0.150744 0.75729 0.188098
0.154757 0.796613 0.168307
0.681987 0.756329 0.152682
0.924239 0.747677 0.227878
0.912261 0.668406 0.200931
0.21561 0.908705 0.331151
0.221958 0.902739 0.248493
0.362814 0.915648 0.225193
0.963256 0.954452 0.528603
0.963378 0.956695 0.567849
0.196643 0.917754 0.403067
0.216419 0.908217 0.324498
0.236866 0.895521 0.23003
0.927108 0.947372 0.367941
0.960861 0.958099 0.564599
0.00782788 0.0367742 0.0953078
0.128069 0.0433661 0.100206
0.464866 0.0694896 0.195056
0.695628 0.0950027 0.338872
0.726482 0.0898451 0.406195
0.0352178 0.138384 0.112902
0.13196 0.140581 0.137743
0.515709 0.0706951 0.188632
0.687602 0.095552 0.311254
0.711238 0.0918288 0.362875
0.0962081 0.716503 0.274144
0.102892 0.751583 0.221302
0.653193 0.732006 0.132723
0.914824 0.691203 0.204913
0.901274 0.595728 0.186358
0.202838 0.92047 0.553262
0.204547 0.917311 0.468452
0.309789 0.909621 0.225895
0.962325 0.954238 0.511925
0.962814 0.956863 0.561028
0.198947 0.923888 0.627482
0.208011 0.919203 0.564233
0.237186 0.895399 0.230137
0.905745 0.944793 0.345907
0.960525 0.958297 0.563989
0.0306249 0.0550546 0.356435
0.131426 0.0543679 0.407218
0.534371 0.0761883 0.386236
0.707927 0.103517 0.457588
0.729656 0.0990921 0.55491
0.0271611 0.106691 0.2701
0.0149691 0.0672465 0.348028
0.536522 0.0751202 0.437736
0.707057 0.106355 0.516854
0.718105 0.108003 0.616403
0.0620584 0.638956 0.497856
0.0504616 0.661891 0.555184
0.597421 0.641505 0.577508
0.962966 0.523552 0.632288
0.954025 0.417273 0.649088
0.243503 0.916457 0.789822
0.216907 0.9243 0.796155
0.205798 0.918898 0.53518
0.959823 0.952255 0.503258
0.967971 0.95465 0.706767
0.238437 0.920256 0.848478
0.225834 0.923552 0.844388
0.228809 0.916686 0.685817
0.794079 0.937926 0.295811
0.961181 0.958892 0.622171
0.0579995 0.139635 0.643275
0.108248 0.149523 0.691997
0.578927 0.093019 0.72108
0.716762 0.1093 0.715663
0.716197 0.11014 0.717037
0.0365454 0.138155 0.576989
0.0411688 0.143435 0.623362
0.517937 0.103685 0.749935
0.714549 0.111467 0.729091
0.715312 0.111543 0.736248
0.0967575 0.622461 0.756893
0.108476 0.627588 0.788449
0.152163 0.579126 0.847745
0.894453 0.302388 0.837751
0.866667 0.26157 0.825574
0.257603 0.916564 0.889616
0.235264 0.92047 0.895796
0.221805 0.909621 0.865263
0.933028 0.938979 0.927398
0.96643 0.925505 0.926833
0.261372 0.916838 0.911482
0.242374 0.922286 0.919158
0.237324 0.922652 0.899763
0.8925 0.959991 0.938323
0.972152 0.966461 0.965423
0.0826734 0.152117 0.680537
0.11902 0.148363 0.696468
0.528847 0.105211 0.752728
0.715358 0.11165 0.73785
0.715358 0.11165 0.73785
0.0487984 0.167468 0.659434
0.0464942 0.158434 0.650919
0.394644 0.11194 0.752865
0.715358 0.11165 0.73785
0.715358 0.11165 0.73785
0.140719 0.656229 0.869383
0.142962 0.658061 0.875242
0.120272 0.560571 0.856977
0.782376 0.188174 0.81297
0.739071 0.129595 0.757687
0.241199 0.919326 0.921462
0.239643 0.916854 0.921279
0.230915 0.902083 0.918624
0.785489 0.92076 0.954589
0.952163 0.868757 0.953567
0.243244 0.922255 0.922255
0.243244 0.922255 0.922255
0.243244 0.922255 0.922255
0.68893 0.956191 0.955322
0.968124 0.968124 0.968124
