bundles/resolve-cinematic-luts/Phantom Luts/Canon Film LUT/C-Log 2/Eterna Canon CL2.cube
TITLE "Generated by Resolve"
LUT_3D_SIZE 9
0.00480659 0.0325628 0.0330968
0.0403143 0.0345617 0.0358129
0.119112 0.0407874 0.0440375
0.26276 0.0556039 0.0829328
0.47422 0.0758984 0.162615
0.656428 0.0994583 0.259663
0.664546 0.100847 0.28304
0.672984 0.0996567 0.300252
0.702373 0.0916304 0.325261
0.0107576 0.0533455 0.0390478
0.0275883 0.0508583 0.0380865
0.122057 0.0422217 0.0407416
0.276875 0.0562142 0.072221
0.501091 0.0749065 0.156481
0.666697 0.0969253 0.254002
0.670985 0.0979629 0.275486
0.675273 0.0980545 0.290044
0.705562 0.0901503 0.313664
0.0359808 0.159503 0.0630655
0.0296635 0.172793 0.0551461
0.135714 0.155108 0.0568856
0.320592 0.0817121 0.0574655
0.507301 0.0729381 0.12108
0.638437 0.0937819 0.192996
0.649363 0.0962234 0.215061
0.65658 0.0972 0.228733
0.679042 0.0927901 0.244038
0.0510414 0.413642 0.0812848
0.0289464 0.452827 0.0621042
0.0347143 0.459937 0.0562448
0.361456 0.421164 0.0480354
0.692729 0.321324 0.082826
0.708659 0.16437 0.124468
0.687495 0.141146 0.121614
0.670176 0.123766 0.116365
0.665949 0.110491 0.115358
0.150744 0.75729 0.188098
0.146715 0.786404 0.180026
0.154757 0.796613 0.168307
0.16965 0.775189 0.157702
0.681987 0.756329 0.152682
0.902525 0.771313 0.227634
0.924239 0.747677 0.227878
0.918181 0.711467 0.212757
0.912261 0.668406 0.200931
0.236179 0.897414 0.257404
0.220279 0.902937 0.239063
0.216831 0.903578 0.224201
0.22034 0.902174 0.225299
0.535988 0.928435 0.231724
0.910353 0.93489 0.337118
0.95816 0.936034 0.36968
0.956008 0.929808 0.354101
0.955459 0.923033 0.344305
0.21561 0.908705 0.331151
0.218082 0.906645 0.304524
0.221958 0.902739 0.248493
0.225101 0.900298 0.226703
0.362814 0.915648 0.225193
0.824872 0.940139 0.297902
0.963256 0.954452 0.528603
0.964141 0.956268 0.569055
0.963378 0.956695 0.567849
0.201694 0.915419 0.377829
0.216724 0.908965 0.350942
0.229801 0.901671 0.295933
0.238025 0.895048 0.230365
0.247211 0.895582 0.230793
0.653605 0.930358 0.254231
0.956146 0.951675 0.445121
0.96495 0.955764 0.57023
0.960754 0.95816 0.564401
0.196643 0.917754 0.403067
0.205127 0.914076 0.374502
0.216419 0.908217 0.324498
0.234806 0.896757 0.236103
0.236866 0.895521 0.23003
0.522408 0.924743 0.235248
0.927108 0.947372 0.367941
0.964889 0.95581 0.570138
0.960861 0.958099 0.564599
0.00375372 0.0343633 0.0467689
0.0390936 0.0358282 0.0482032
0.115877 0.0411383 0.0622721
0.257374 0.0535744 0.101045
0.472923 0.0691844 0.177722
0.676371 0.0914931 0.279301
0.691081 0.0944381 0.309804
0.69752 0.093492 0.329732
0.720623 0.0881361 0.358358
0.0109102 0.0482032 0.045243
0.0230411 0.0450599 0.0466621
0.128725 0.0440986 0.05832
0.290791 0.0540169 0.0982986
0.505943 0.0690013 0.178286
0.69398 0.0913405 0.282429
0.699016 0.0919356 0.307851
0.701442 0.0918135 0.323583
0.718898 0.0876936 0.344625
0.0328069 0.149706 0.0787366
0.0269474 0.160388 0.0675364
0.132586 0.150866 0.057557
0.325429 0.0711223 0.0576944
0.50132 0.070222 0.127199
0.66331 0.0922103 0.219211
0.673487 0.0947433 0.247211
0.677913 0.0945449 0.262135
0.696651 0.0904555 0.279606
0.0445258 0.396857 0.107332
0.0298619 0.432074 0.0850843
0.0346685 0.456291 0.0564431
0.359762 0.416602 0.0481422
0.683268 0.313726 0.0815442
0.709361 0.161608 0.124132
0.682963 0.133333 0.11841
0.671458 0.11812 0.117861
0.675822 0.108522 0.129122
0.129046 0.741894 0.212421
0.123598 0.765484 0.199588
0.140352 0.776501 0.162463
0.153735 0.76495 0.152117
0.670695 0.748669 0.143847
0.896529 0.765148 0.220386
0.921828 0.741711 0.222019
0.915969 0.701091 0.207477
0.9093 0.653559 0.195514
0.225513 0.904356 0.317037
0.212741 0.907912 0.28658
0.216083 0.904051 0.227771
0.219684 0.902449 0.225025
0.520439 0.92755 0.229679
0.906615 0.933577 0.331594
0.956878 0.93489 0.363027
0.954818 0.92845 0.34844
0.954086 0.921492 0.339437
0.206882 0.914504 0.411368
0.210483 0.912291 0.378119
0.216464 0.906889 0.296376
0.22623 0.89984 0.227039
0.355657 0.914794 0.225269
0.813397 0.939696 0.2934
0.962936 0.954421 0.523919
0.963973 0.956344 0.56878
0.963149 0.956832 0.567437
0.197192 0.919738 0.468101
0.212955 0.913314 0.437568
0.223377 0.906905 0.361227
0.237644 0.895369 0.233219
0.259464 0.897108 0.230579
0.644175 0.929992 0.252659
0.955291 0.951415 0.439109
0.96495 0.955764 0.570214
0.960708 0.958175 0.56434
0.193698 0.921431 0.493523
0.199924 0.918746 0.465263
0.210925 0.912993 0.401572
0.23238 0.899062 0.259327
0.236835 0.895537 0.23003
0.5355 0.925536 0.236362
0.92163 0.946624 0.361608
0.964889 0.95581 0.570092
0.960845 0.958099 0.564599
0.00782788 0.0367742 0.0953078
0.0386206 0.0382849 0.110033
0.128069 0.0433661 0.100206
0.264851 0.0522621 0.12639
0.464866 0.0694896 0.195056
0.672694 0.0903639 0.297642
0.695628 0.0950027 0.338872
0.704112 0.0950637 0.37113
0.726482 0.0898451 0.406195
0.00865187 0.05066 0.0737469
0.00569162 0.0395972 0.103731
0.130007 0.0441749 0.111421
0.283391 0.0527962 0.135241
0.483879 0.0685283 0.207126
0.694057 0.0903487 0.313313
0.706081 0.0928511 0.3552
0.710613 0.0938125 0.385489
0.728069 0.0902724 0.416434
0.0352178 0.138384 0.112902
0.0295872 0.142992 0.123049
0.13196 0.140581 0.137743
0.348531 0.090959 0.143191
0.515709 0.0706951 0.188632
0.681453 0.0943923 0.281987
0.687602 0.095552 0.311254
0.691844 0.0958419 0.333837
0.711238 0.0918288 0.362875
0.045182 0.370016 0.165957
0.0305943 0.402029 0.164752
0.0313726 0.422644 0.104677
0.348821 0.402899 0.0496529
0.659968 0.259129 0.094255
0.697093 0.136416 0.145449
0.7066 0.127977 0.179492
0.711803 0.126482 0.203235
0.70399 0.110765 0.213306
0.0962081 0.716503 0.274144
0.0840467 0.739208 0.274128
0.102892 0.751583 0.221302
0.130968 0.745571 0.143969
0.653193 0.732006 0.132723
0.885298 0.735317 0.206058
0.914824 0.691203 0.204913
0.909545 0.649226 0.196002
0.901274 0.595728 0.186358
0.213825 0.910262 0.448905
0.197971 0.916289 0.436377
0.199329 0.912963 0.350912
0.218585 0.901091 0.224155
0.470268 0.922927 0.225177
0.894224 0.926085 0.316243
0.95523 0.927855 0.348562
0.952987 0.921843 0.336217
0.951446 0.913741 0.326986
0.202838 0.92047 0.553262
0.201938 0.920241 0.538155
0.204547 0.917311 0.468452
0.223194 0.902083 0.245365
0.309789 0.909621 0.225895
0.776349 0.93753 0.281498
0.962325 0.954238 0.511925
0.963989 0.956344 0.568643
0.962814 0.956863 0.561028
0.205112 0.921248 0.605371
0.204211 0.920928 0.587259
0.218036 0.914748 0.531701
0.22565 0.905303 0.343572
0.244648 0.894789 0.231006
0.621729 0.92871 0.24918
0.951782 0.950637 0.422492
0.96495 0.955764 0.570214
0.960693 0.95819 0.564309
0.198947 0.923888 0.627482
0.19675 0.92398 0.610178
0.208011 0.919203 0.564233
0.218311 0.910979 0.423728
0.237186 0.895399 0.230137
0.52343 0.924819 0.23534
0.905745 0.944793 0.345907
0.964767 0.955688 0.562875
0.960525 0.958297 0.563989
0.0142061 0.0422827 0.192279
0.0343481 0.0425422 0.227878
0.132967 0.0464637 0.208637
0.292683 0.0563516 0.197406
0.492866 0.0715343 0.258808
0.683009 0.0919051 0.343771
0.703212 0.0971389 0.391073
0.710582 0.0990158 0.426093
0.733349 0.0945449 0.470603
0.00575265 0.0469215 0.155016
0.00694286 0.044358 0.197116
0.110445 0.0466163 0.25185
0.301427 0.0560616 0.222538
0.498421 0.0698863 0.27541
0.691722 0.0920272 0.370184
0.708858 0.0988327 0.419745
0.71667 0.100389 0.459434
0.735149 0.0958877 0.50721
0.0317998 0.134676 0.16878
0.0251011 0.135653 0.206973
0.0296635 0.0999008 0.257542
0.318547 0.0606241 0.253681
0.509667 0.0738689 0.285679
0.691661 0.0962081 0.376303
0.705547 0.100664 0.422049
0.710018 0.102708 0.457115
0.725017 0.0991684 0.4963
0.0465858 0.339742 0.247959
0.033341 0.36202 0.278523
0.0319066 0.372061 0.298573
0.356802 0.37586 0.333074
0.720485 0.274418 0.347311
0.800671 0.171252 0.386923
0.751568 0.127993 0.383658
0.730922 0.115007 0.388022
0.722332 0.102022 0.39472
0.0695811 0.678279 0.37969
0.0505989 0.700648 0.413138
0.055787 0.712077 0.40383
0.0681163 0.710857 0.243442
0.618555 0.70695 0.145098
0.90396 0.658457 0.252598
0.938064 0.564294 0.298344
0.93611 0.529259 0.306889
0.927535 0.474006 0.303456
0.207431 0.903532 0.579034
0.188754 0.909834 0.593637
0.181094 0.908873 0.563928
0.184237 0.90341 0.409827
0.292988 0.904707 0.218692
0.870283 0.910613 0.29688
0.951461 0.909712 0.325063
0.948806 0.899672 0.312871
0.946258 0.88719 0.302556
0.214176 0.921324 0.692088
0.206973 0.923629 0.696376
0.206821 0.92256 0.665385
0.205966 0.918959 0.538521
0.231174 0.898482 0.228214
0.675227 0.932738 0.256947
0.958602 0.953201 0.471916
0.9635 0.955886 0.539986
0.961746 0.956146 0.514153
0.225559 0.91957 0.738796
0.214862 0.922576 0.736919
0.218082 0.92076 0.707347
0.222507 0.915892 0.608637
0.237461 0.89659 0.252522
0.537072 0.923705 0.238514
0.93695 0.94757 0.382574
0.966949 0.954543 0.573754
0.96408 0.956313 0.569543
0.215396 0.923262 0.759121
0.213001 0.923735 0.753384
0.210117 0.923796 0.727901
0.223377 0.917082 0.646403
0.221042 0.908385 0.377005
0.414984 0.916259 0.229694
0.843641 0.939498 0.308186
0.963668 0.955245 0.539803
0.960845 0.958099 0.565057
0.0306249 0.0550546 0.356435
0.0451514 0.0570382 0.393133
0.131426 0.0543679 0.407218
0.321386 0.057023 0.370306
0.534371 0.0761883 0.386236
0.702281 0.0992447 0.432654
0.707927 0.103517 0.457588
0.713588 0.103136 0.498009
0.729656 0.0990921 0.55491
0.0121462 0.054551 0.298497
0.0156558 0.056611 0.337255
0.0814527 0.0537423 0.400702
0.311284 0.0577554 0.405951
0.526726 0.0752422 0.405097
0.708263 0.0997635 0.45626
0.712139 0.103655 0.498024
0.71281 0.10576 0.550546
0.728084 0.103319 0.612634
0.0271611 0.106691 0.2701
0.0205997 0.0987869 0.310765
0.0149691 0.0672465 0.348028
0.269963 0.0603494 0.452781
0.536522 0.0751202 0.437736
0.701534 0.10135 0.467369
0.707057 0.106355 0.516854
0.705928 0.109789 0.565744
0.718105 0.108003 0.616403
0.0477913 0.320974 0.372747
0.0354009 0.345724 0.427176
0.034165 0.363806 0.491279
0.0970932 0.322164 0.566476
0.629862 0.163607 0.533272
0.701503 0.106905 0.465812
0.701244 0.107195 0.477607
0.701167 0.107988 0.502358
0.715206 0.104524 0.543786
0.0620584 0.638956 0.497856
0.0471046 0.653696 0.532265
0.0504616 0.661891 0.555184
0.0469368 0.651026 0.550362
0.597421 0.641505 0.577508
0.925078 0.576181 0.601633
0.962966 0.523552 0.632288
0.960098 0.486763 0.647868
0.954025 0.417273 0.649088
0.210681 0.879454 0.671519
0.183856 0.886946 0.691768
0.17496 0.882567 0.690135
0.16614 0.875212 0.644022
0.243336 0.89984 0.502754
0.842359 0.905089 0.491524
0.961685 0.85774 0.575998
0.961929 0.834272 0.602747
0.961227 0.814435 0.597391
0.243503 0.916457 0.789822
0.224445 0.922515 0.803937
0.216907 0.9243 0.796155
0.217456 0.921813 0.735286
0.205798 0.918898 0.53518
0.597848 0.936629 0.271199
0.959823 0.952255 0.503258
0.969635 0.954726 0.711635
0.967971 0.95465 0.706767
0.242206 0.918578 0.832898
0.232273 0.921553 0.838941
0.223056 0.92372 0.830488
0.224933 0.921355 0.779324
0.225147 0.915602 0.623316
0.44828 0.933013 0.330724
0.899657 0.942687 0.358373
0.968002 0.95494 0.624292
0.965255 0.957565 0.66601
0.238437 0.920256 0.848478
0.234745 0.921431 0.851438
0.225834 0.923552 0.844388
0.22504 0.922408 0.8056
0.228809 0.916686 0.685817
0.302876 0.923629 0.393698
0.794079 0.937926 0.295811
0.96083 0.956024 0.553429
0.961181 0.958892 0.622171
0.0504005 0.0827039 0.510231
0.0592508 0.0910964 0.546975
0.1252 0.0838026 0.582147
0.348455 0.0724804 0.598032
0.568643 0.0753338 0.57731
0.713191 0.107881 0.580362
0.716213 0.107607 0.594202
0.720699 0.106981 0.617746
0.725521 0.105852 0.646235
0.0215305 0.0782788 0.462501
0.0289616 0.0851759 0.495476
0.075227 0.0870069 0.549111
0.299138 0.0755016 0.609949
0.559792 0.0755474 0.600732
0.715663 0.108125 0.606912
0.715511 0.109209 0.623285
0.7178 0.108644 0.655009
0.722133 0.107256 0.689723
0.026154 0.103792 0.42356
0.0262913 0.106493 0.458671
0.0243076 0.0925154 0.483207
0.189197 0.0744945 0.584237
0.545892 0.0755474 0.628885
0.702968 0.108721 0.608667
0.704967 0.113298 0.617441
0.708431 0.112123 0.654719
0.71632 0.109453 0.696574
0.0405432 0.334401 0.544701
0.039826 0.341756 0.582513
0.0429847 0.345098 0.631067
0.0507973 0.288441 0.664607
0.496956 0.106004 0.688838
0.687861 0.101976 0.597086
0.705074 0.111513 0.579904
0.707897 0.112016 0.615351
0.718456 0.108476 0.661219
0.0616922 0.61146 0.632547
0.0605783 0.617411 0.658457
0.0716716 0.62565 0.686931
0.0836805 0.621302 0.724224
0.394537 0.590967 0.815
0.873518 0.463416 0.776928
0.939834 0.382818 0.751873
0.929183 0.350896 0.757549
0.914763 0.311284 0.773602
0.197299 0.860914 0.754635
0.179385 0.861418 0.766979
0.175021 0.853864 0.768978
0.16759 0.841932 0.757778
0.230365 0.850034 0.755657
0.799023 0.840177 0.784939
0.961135 0.798749 0.798138
0.966064 0.775967 0.813611
0.964721 0.758312 0.821775
0.24773 0.917815 0.851164
0.230304 0.923064 0.861357
0.228687 0.923415 0.85893
0.223713 0.922179 0.837385
0.214771 0.920501 0.771496
0.646738 0.95137 0.761257
0.945724 0.950759 0.809552
0.967086 0.946639 0.864973
0.965576 0.943587 0.868788
0.269413 0.913008 0.875731
0.240574 0.921553 0.889189
0.234897 0.923003 0.887831
0.230625 0.923278 0.868132
0.226169 0.922133 0.807385
0.427741 0.953964 0.737484
0.863264 0.956069 0.71545
0.969085 0.961913 0.901045
0.972549 0.962402 0.929091
0.252354 0.918578 0.893843
0.243412 0.921065 0.900298
0.237354 0.922637 0.899886
0.234165 0.923049 0.884321
0.229206 0.922286 0.836149
0.326802 0.946868 0.770947
0.856168 0.957534 0.798688
0.961715 0.9608 0.866514
0.969482 0.962676 0.914855
0.0579995 0.139635 0.643275
0.0588235 0.148974 0.661067
0.108248 0.149523 0.691997
0.325261 0.111604 0.73695
0.578927 0.093019 0.72108
0.71693 0.109133 0.713771
0.716762 0.1093 0.715663
0.717357 0.109499 0.717159
0.716197 0.11014 0.717037
0.0374762 0.128664 0.60737
0.0426032 0.143038 0.635096
0.0638437 0.148974 0.664363
0.251621 0.119966 0.727947
0.566064 0.0986038 0.737575
0.714092 0.110048 0.7252
0.715831 0.110918 0.729107
0.715709 0.111025 0.732235
0.715221 0.111589 0.736156
0.0365454 0.138155 0.576989
0.0398718 0.146471 0.605982
0.0411688 0.143435 0.623362
0.108339 0.142092 0.682719
0.517937 0.103685 0.749935
0.710628 0.110384 0.729824
0.714549 0.111467 0.729091
0.715206 0.111299 0.73257
0.715312 0.111543 0.736248
0.0513619 0.329244 0.687694
0.0560311 0.326268 0.706905
0.061326 0.31548 0.721935
0.0622568 0.267323 0.713527
0.356649 0.120455 0.746715
0.677562 0.104341 0.7196
0.715312 0.109972 0.708202
0.71577 0.109667 0.709453
0.716548 0.109682 0.720134
0.0967575 0.622461 0.756893
0.102525 0.625437 0.772702
0.108476 0.627588 0.788449
0.11429 0.620523 0.809033
0.152163 0.579126 0.847745
0.77612 0.406149 0.924758
0.894453 0.302388 0.837751
0.899931 0.307546 0.830457
0.866667 0.26157 0.825574
0.19205 0.839567 0.833387
0.183261 0.835355 0.839414
0.179187 0.824308 0.83949
0.175128 0.811124 0.842039
0.17026 0.788067 0.853132
0.669154 0.804364 0.923919
0.947814 0.726223 0.905196
0.959274 0.70164 0.893614
0.957244 0.668315 0.900496
0.257603 0.916564 0.889616
0.236851 0.922179 0.898238
0.235264 0.92047 0.895796
0.230457 0.916671 0.885863
0.221805 0.909621 0.865263
0.633722 0.938613 0.902174
0.933028 0.938979 0.927398
0.967926 0.928954 0.925826
0.96643 0.925505 0.926833
0.263752 0.915923 0.90576
0.242329 0.922042 0.913863
0.240726 0.922423 0.913054
0.238895 0.922545 0.906035
0.234043 0.923064 0.883879
0.348135 0.948852 0.891173
0.912459 0.960342 0.934386
0.973327 0.963531 0.956176
0.975967 0.964111 0.961471
0.261372 0.916838 0.911482
0.245731 0.921263 0.918013
0.242374 0.922286 0.919158
0.241276 0.922377 0.915175
0.237324 0.922652 0.899763
0.315969 0.939879 0.89807
0.8925 0.959991 0.938323
0.959976 0.963531 0.945373
0.972152 0.966461 0.965423
0.0685893 0.153384 0.672831
0.0682841 0.153368 0.673182
0.117052 0.148608 0.695766
0.279545 0.117372 0.734539
0.569162 0.103273 0.747311
0.714961 0.111604 0.737819
0.715358 0.11165 0.73785
0.715358 0.111666 0.737835
0.715084 0.111772 0.73727
0.0475776 0.15642 0.65832
0.0475471 0.156222 0.658198
0.0697337 0.153277 0.673991
0.207218 0.130571 0.721859
0.537301 0.105043 0.752224
0.714702 0.111574 0.737789
0.715358 0.11165 0.73785
0.715358 0.11165 0.73785
0.715236 0.111696 0.737606
0.0497749 0.171084 0.662913
0.049546 0.170428 0.662196
0.0465095 0.15848 0.651026
0.0748913 0.152819 0.676478
0.461143 0.108202 0.755978
0.710643 0.111116 0.737591
0.715358 0.11165 0.73785
0.715358 0.11165 0.73785
0.715328 0.111666 0.737789
0.0731365 0.324208 0.752712
0.0767681 0.326543 0.762356
0.0785687 0.315038 0.764767
0.0725109 0.268574 0.74052
0.209613 0.133165 0.724636
0.642542 0.102602 0.735317
0.715404 0.111666 0.737911
0.715404 0.111666 0.737896
0.715404 0.111666 0.737911
0.125933 0.640238 0.832517
0.129488 0.642954 0.84152
0.130526 0.637079 0.848722
0.128985 0.619471 0.85417
0.120333 0.561517 0.856794
0.654093 0.429129 0.953109
0.829084 0.233829 0.846494
0.813535 0.212284 0.827283
0.804669 0.200137 0.81651
0.196399 0.840223 0.884016
0.196338 0.838117 0.888121
0.193545 0.830228 0.888518
0.188281 0.815549 0.888395
0.182483 0.794507 0.892195
0.49279 0.811994 0.953857
0.910674 0.687297 0.956603
0.947616 0.618494 0.942473
0.948974 0.622187 0.93904
0.244236 0.918044 0.915068
0.238987 0.91812 0.916594
0.237171 0.915541 0.915373
0.232975 0.909575 0.911833
0.226169 0.898054 0.90753
0.363485 0.92311 0.941665
0.878416 0.925963 0.951064
0.959472 0.910506 0.946975
0.960678 0.905211 0.944564
0.244373 0.92192 0.92163
0.243229 0.922255 0.922194
0.243122 0.922255 0.921782
0.242756 0.92221 0.920272
0.241276 0.922377 0.91519
0.240543 0.922454 0.91223
0.890608 0.957809 0.952514
0.965179 0.965408 0.965026
0.967803 0.965179 0.964904
0.251896 0.919829 0.919402
0.243549 0.922164 0.922148
0.243244 0.922255 0.922255
0.243244 0.922255 0.922255
0.242405 0.922316 0.919249
0.248875 0.923796 0.91809
0.880766 0.95906 0.954345
0.966476 0.967391 0.966918
0.968277 0.968063 0.968032
0.0826734 0.152117 0.680537
0.0881208 0.151598 0.683162
0.11902 0.148363 0.696468
0.234775 0.123751 0.726421
0.528847 0.105211 0.752728
0.715358 0.11165 0.73785
0.715358 0.11165 0.73785
0.715358 0.11165 0.73785
0.715358 0.11165 0.73785
0.0502022 0.155215 0.662287
0.0521401 0.154971 0.663844
0.0721752 0.153048 0.675258
0.176379 0.138155 0.715541
0.484047 0.107271 0.755886
0.715358 0.11165 0.73785
0.715358 0.11165 0.73785
0.715358 0.11165 0.73785
0.715358 0.11165 0.73785
0.0487984 0.167468 0.659434
0.0484932 0.166293 0.65832
0.0464942 0.158434 0.650919
0.0573587 0.154849 0.665949
0.394644 0.11194 0.752865
0.695048 0.108843 0.736309
0.715358 0.11165 0.73785
0.715358 0.11165 0.73785
0.715358 0.11165 0.73785
0.0841993 0.335561 0.783505
0.0844129 0.336339 0.784161
0.0820783 0.319356 0.774624
0.0736248 0.271473 0.743877
0.0876173 0.152483 0.678599
0.59144 0.101518 0.742321
0.715389 0.111666 0.737881
0.715389 0.111666 0.737896
0.715389 0.111666 0.737896
0.140719 0.656229 0.869383
0.143038 0.661494 0.873396
0.142962 0.658061 0.875242
0.136919 0.633265 0.871397
0.120272 0.560571 0.856977
0.513878 0.42797 0.948363
0.782376 0.188174 0.81297
0.748653 0.138674 0.766659
0.739071 0.129595 0.757687
0.207507 0.854856 0.907042
0.207446 0.853727 0.908324
0.205325 0.848417 0.908354
0.199939 0.834257 0.907118
0.188632 0.804517 0.903532
0.272725 0.783169 0.927932
0.844785 0.694667 0.961425
0.94081 0.551156 0.948882
0.938628 0.525261 0.947265
0.241199 0.919326 0.921462
0.240818 0.918715 0.921614
0.239643 0.916854 0.921279
0.237232 0.912917 0.920592
0.230915 0.902083 0.918624
0.223529 0.887327 0.916472
0.785489 0.92076 0.954589
0.94992 0.891691 0.954452
0.952163 0.868757 0.953567
0.243244 0.922255 0.922255
0.243244 0.922255 0.922255
0.243244 0.922255 0.922255
0.243244 0.922255 0.922255
0.243229 0.922225 0.92224
0.242878 0.921691 0.922148
0.747631 0.953094 0.956085
0.959823 0.962448 0.963775
0.965133 0.964004 0.965133
0.243244 0.922255 0.922255
0.243244 0.922255 0.922255
0.243244 0.922255 0.922255
0.243244 0.922255 0.922255
0.243244 0.922255 0.922255
0.243244 0.922255 0.922255
0.68893 0.956191 0.955322
0.965652 0.967056 0.96698
0.968124 0.968124 0.968124
