bundles/resolve-cinematic-luts/Phantom Luts/Canon Film LUT/C-Log 2/Eterna Canon-Legacy CL2.cube
TITLE "Generated by Resolve"
LUT_3D_SIZE 33
0.0223087 0.0489815 0.0493019
0.0234989 0.0491646 0.0495308
0.0270542 0.0494545 0.0505379
0.0339208 0.0498817 0.0509651
0.0448005 0.0498817 0.0501259
0.0582589 0.0499733 0.0491188
0.0728618 0.05037 0.0483253
0.0873732 0.0508888 0.0482948
0.103975 0.0524453 0.0503548
0.125994 0.0546273 0.0542306
0.154452 0.0575875 0.0605936
0.187671 0.0609751 0.0678721
0.231983 0.0657969 0.0781415
0.281834 0.071046 0.0910048
0.335256 0.0766003 0.105913
0.390723 0.0820172 0.123522
0.447791 0.0868086 0.142519
0.504875 0.0917983 0.164202
0.563256 0.0971084 0.187488
0.62034 0.103349 0.211414
0.651392 0.108309 0.231006
0.65684 0.109346 0.238987
0.658381 0.109316 0.244465
0.659739 0.109194 0.249393
0.661173 0.109285 0.254231
0.66247 0.109438 0.25861
0.66392 0.109514 0.262486
0.666362 0.109239 0.266789
0.670466 0.108507 0.271412
0.675975 0.107256 0.276463
0.683207 0.105562 0.282368
0.690913 0.103731 0.288151
0.699321 0.10164 0.294041
0.0227359 0.0486305 0.0472419
0.0228428 0.0489509 0.0484932
0.0255589 0.049424 0.0493019
0.0310369 0.0497749 0.0499275
0.0410315 0.0501106 0.049897
0.0548562 0.0502022 0.0489967
0.0709087 0.0506142 0.0482643
0.0869306 0.0511177 0.0480201
0.104982 0.0527047 0.0495766
0.127657 0.0547951 0.0532998
0.156939 0.0577707 0.0588388
0.191623 0.0609903 0.0670024
0.236988 0.0658579 0.0773327
0.287007 0.0709392 0.0901808
0.34078 0.0763104 0.105303
0.396048 0.0817121 0.121782
0.453254 0.0870985 0.141436
0.510475 0.0923018 0.163378
0.569619 0.0977188 0.186938
0.623316 0.103792 0.210422
0.653971 0.108919 0.229999
0.655924 0.109224 0.236332
0.657771 0.109361 0.242069
0.659037 0.109209 0.246937
0.660349 0.109194 0.251637
0.661677 0.109346 0.255756
0.663218 0.109377 0.25977
0.665675 0.109117 0.263951
0.669673 0.1084 0.268406
0.675273 0.10721 0.273747
0.682506 0.105501 0.279347
0.690349 0.103563 0.284977
0.698817 0.101457 0.290776
0.0233005 0.0502937 0.0481422
0.0227512 0.0502632 0.0489815
0.0243381 0.0503243 0.0493477
0.0283207 0.0505837 0.0497292
0.0366979 0.0504616 0.0496834
0.0500038 0.0504158 0.0491493
0.0665751 0.0508278 0.0486458
0.0842603 0.051667 0.0486152
0.104219 0.0532845 0.0500038
0.128801 0.0551766 0.0529335
0.158968 0.057969 0.057847
0.195407 0.0612192 0.0653239
0.241733 0.0657206 0.0759442
0.292775 0.0708629 0.08925
0.346929 0.0756695 0.104448
0.40441 0.0812543 0.12192
0.462119 0.0868086 0.141772
0.518914 0.0923781 0.163592
0.576822 0.0979171 0.186877
0.6271 0.104295 0.210254
0.653086 0.108812 0.227924
0.655283 0.109102 0.234043
0.65716 0.109377 0.239857
0.658534 0.1093 0.244907
0.659724 0.109178 0.249348
0.661006 0.10927 0.253635
0.662333 0.109361 0.257481
0.664759 0.109087 0.26154
0.668833 0.108354 0.266102
0.674388 0.107179 0.271168
0.681804 0.10547 0.276753
0.690105 0.103471 0.282658
0.699031 0.101213 0.288777
0.0247654 0.0542763 0.0500801
0.0242618 0.0544442 0.0504921
0.0254063 0.0537881 0.0505379
0.0284581 0.053727 0.0506752
0.0354925 0.0529946 0.0498512
0.0485237 0.0515908 0.0490578
0.0649729 0.0514229 0.0490425
0.08336 0.0521096 0.049546
0.103365 0.0534371 0.0508583
0.128252 0.0552682 0.0530709
0.159136 0.0584878 0.0576333
0.197696 0.0616922 0.064332
0.244068 0.0657206 0.0738994
0.296193 0.0708171 0.0869154
0.351934 0.075761 0.102815
0.411643 0.0810101 0.121309
0.471458 0.0859541 0.142
0.531334 0.0908827 0.16463
0.593088 0.0961166 0.189761
0.641062 0.102235 0.213565
0.660868 0.106493 0.228458
0.662318 0.10692 0.234348
0.663584 0.107362 0.239918
0.664347 0.107652 0.245136
0.66453 0.107713 0.249165
0.664836 0.107958 0.252781
0.665354 0.108217 0.256397
0.666682 0.108248 0.259709
0.669367 0.107836 0.263493
0.674037 0.106905 0.267826
0.680919 0.105318 0.273274
0.689677 0.103197 0.279103
0.699413 0.100771 0.285283
0.0263981 0.0610056 0.052369
0.0257877 0.0615244 0.0523384
0.0263523 0.0611124 0.0519722
0.0287938 0.0593423 0.052018
0.0357519 0.059617 0.0522774
0.0482185 0.057847 0.0507668
0.0653544 0.0549477 0.0491798
0.0849165 0.0538796 0.0493782
0.10515 0.0541695 0.0511482
0.129229 0.0559854 0.0538338
0.159365 0.0584421 0.0577859
0.198795 0.0616159 0.0630655
0.245029 0.0663005 0.0724193
0.296651 0.0708019 0.0837415
0.353185 0.0757153 0.0990158
0.413794 0.081117 0.117693
0.474556 0.0860914 0.138399
0.534401 0.0908827 0.161074
0.596521 0.0966049 0.18645
0.643839 0.102663 0.211154
0.66154 0.105837 0.22504
0.663233 0.106142 0.230854
0.664515 0.106523 0.23653
0.665751 0.106889 0.241642
0.666819 0.107027 0.246174
0.667613 0.106874 0.250126
0.668589 0.106889 0.253635
0.669764 0.106905 0.257008
0.671489 0.106783 0.260105
0.675441 0.105974 0.264195
0.681956 0.104509 0.268925
0.690837 0.102342 0.27483
0.700618 0.0999161 0.280781
0.0291142 0.0729229 0.0553445
0.0281071 0.0738842 0.0550698
0.0277867 0.0742657 0.0540475
0.0296941 0.072343 0.054139
0.0347753 0.0695201 0.0541085
0.0475166 0.0693828 0.0542306
0.0645609 0.0679179 0.0529641
0.0849622 0.0627451 0.051606
0.107713 0.0583505 0.0510414
0.133288 0.0580301 0.0530556
0.164721 0.0590677 0.0568856
0.203296 0.0619821 0.062623
0.246464 0.0660868 0.0704204
0.297063 0.0707256 0.0805676
0.35108 0.0754559 0.0941176
0.41236 0.0806897 0.112139
0.474418 0.0859083 0.132662
0.535134 0.0910048 0.155459
0.598474 0.096849 0.180621
0.645731 0.103227 0.207004
0.659464 0.105516 0.218906
0.661753 0.105715 0.22475
0.663706 0.105943 0.230274
0.665461 0.106111 0.235584
0.666987 0.10631 0.240406
0.668421 0.106462 0.24477
0.66923 0.106371 0.247837
0.670115 0.106188 0.250874
0.671656 0.105959 0.25388
0.675242 0.105257 0.257542
0.681208 0.103914 0.261845
0.689998 0.101793 0.267491
0.699855 0.0993668 0.273259
0.0326848 0.0894484 0.058732
0.0315251 0.0910811 0.0586099
0.0306401 0.0923323 0.0578317
0.0314031 0.0921798 0.0569467
0.0345006 0.0889143 0.0565957
0.0430457 0.085893 0.056672
0.0639353 0.0844892 0.056611
0.0872358 0.0833448 0.0554055
0.111223 0.0747234 0.0540627
0.13724 0.0671244 0.0527352
0.172076 0.0633097 0.0541543
0.211353 0.0643626 0.059678
0.254582 0.0668956 0.0672618
0.300954 0.0708782 0.0767681
0.350347 0.0756085 0.0889296
0.406088 0.0806134 0.104189
0.466697 0.0859083 0.123781
0.528069 0.0914778 0.145785
0.591943 0.0976425 0.171099
0.641306 0.104616 0.198001
0.651713 0.106065 0.208408
0.654215 0.106386 0.214069
0.656245 0.106676 0.219364
0.658122 0.106844 0.224109
0.659586 0.10695 0.228321
0.661006 0.107088 0.231968
0.662165 0.107225 0.235569
0.66331 0.107301 0.238621
0.664729 0.10724 0.24155
0.667353 0.106767 0.244511
0.671397 0.105745 0.247623
0.677058 0.10428 0.251316
0.684306 0.102449 0.255497
0.0397803 0.108446 0.0607767
0.0377203 0.111437 0.0613565
0.0356451 0.113527 0.0612192
0.0346838 0.115114 0.0604715
0.0357671 0.114137 0.0595407
0.0410315 0.110597 0.0597543
0.0530404 0.10753 0.0599832
0.0844587 0.104524 0.0598154
0.113466 0.103532 0.0592508
0.145739 0.0947433 0.0598154
0.180316 0.0800336 0.0583352
0.221942 0.0711376 0.0587472
0.270375 0.070634 0.0646372
0.317937 0.0719921 0.0733501
0.365148 0.075761 0.0856641
0.411246 0.079942 0.099321
0.46453 0.0847944 0.116289
0.521218 0.0900435 0.13463
0.58294 0.0965438 0.158297
0.635218 0.103929 0.183337
0.641871 0.105074 0.191989
0.647288 0.105806 0.199832
0.650156 0.10602 0.205112
0.652506 0.106172 0.2094
0.654383 0.106432 0.213489
0.655833 0.10663 0.216999
0.656947 0.106752 0.220066
0.658106 0.106783 0.222721
0.65977 0.106691 0.22533
0.662501 0.106279 0.227817
0.666621 0.10544 0.230838
0.672496 0.104112 0.23447
0.680003 0.102327 0.238163
0.0440986 0.133837 0.0665141
0.0420996 0.137514 0.0669261
0.0397345 0.1411 0.0668345
0.0383307 0.143343 0.0656596
0.0380102 0.144274 0.0637675
0.0412451 0.142229 0.0628214
0.0497749 0.138064 0.0630961
0.0666819 0.134722 0.0635843
0.109834 0.1299 0.0642252
0.147616 0.12987 0.0641489
0.191104 0.12134 0.0664683
0.238575 0.0958419 0.0652628
0.284199 0.0829175 0.0649729
0.336431 0.0780346 0.0685283
0.389792 0.0786908 0.0793774
0.438605 0.0813306 0.0948348
0.480308 0.0849012 0.112261
0.519966 0.0886244 0.12813
0.573144 0.0937209 0.145251
0.620951 0.100969 0.164004
0.626917 0.102693 0.170855
0.631052 0.103609 0.176303
0.634363 0.103838 0.180652
0.638361 0.104387 0.185992
0.641642 0.104936 0.190585
0.644724 0.105364 0.194385
0.646601 0.105608 0.19762
0.64831 0.105882 0.200427
0.65037 0.105867 0.202777
0.653391 0.105364 0.205554
0.657969 0.104662 0.208453
0.664118 0.103426 0.211627
0.67155 0.101747 0.215106
0.0513771 0.168597 0.0741131
0.0492561 0.173068 0.0737774
0.0466468 0.177981 0.0733196
0.045182 0.18146 0.0721294
0.0443122 0.183536 0.0696727
0.0447547 0.183459 0.0693065
0.0482338 0.179583 0.0690776
0.0600443 0.175448 0.0687724
0.0851911 0.17116 0.0682536
0.143282 0.164324 0.0695659
0.192706 0.165347 0.0714733
0.252827 0.156237 0.0745403
0.307179 0.121324 0.0736248
0.355383 0.100649 0.0729992
0.405646 0.090013 0.0746166
0.460075 0.0865339 0.0821241
0.513359 0.0868696 0.0981613
0.558175 0.0911269 0.121782
0.592233 0.094667 0.142153
0.618952 0.0973983 0.157183
0.63331 0.0994278 0.163851
0.632654 0.0989548 0.163821
0.634119 0.0990158 0.165545
0.635752 0.0992599 0.167727
0.636423 0.0995041 0.169177
0.636255 0.0997635 0.16997
0.636133 0.100175 0.170901
0.636118 0.100649 0.171939
0.636011 0.100954 0.172839
0.637522 0.101106 0.174487
0.640665 0.100877 0.17673
0.645655 0.0999466 0.179034
0.652186 0.0985122 0.181277
0.0607462 0.215335 0.0824292
0.0577859 0.220645 0.081239
0.0543832 0.226795 0.0802014
0.0520943 0.231418 0.0784466
0.0510872 0.235248 0.0759442
0.0513313 0.23714 0.0757305
0.0523995 0.236164 0.0757
0.0551919 0.229847 0.0751659
0.0728923 0.224903 0.0750896
0.108156 0.220737 0.0753948
0.186496 0.213031 0.076463
0.252888 0.21416 0.078233
0.329519 0.205814 0.080705
0.387793 0.164324 0.0823529
0.433936 0.128496 0.0818952
0.479286 0.107729 0.0827192
0.525505 0.10016 0.0861372
0.573785 0.0973068 0.0981613
0.62266 0.10135 0.122423
0.652781 0.106905 0.148867
0.65594 0.107179 0.159915
0.652232 0.105043 0.158984
0.652354 0.104753 0.160586
0.65098 0.104265 0.163729
0.645274 0.102586 0.164431
0.6392 0.0999924 0.163195
0.637461 0.0989395 0.162982
0.636652 0.0985275 0.163149
0.636515 0.0985122 0.163256
0.636744 0.0984817 0.163516
0.637568 0.0983139 0.163806
0.639612 0.0978561 0.164218
0.643778 0.0968643 0.165072
0.0692607 0.278065 0.0889906
0.0638132 0.287129 0.0871748
0.0588235 0.295384 0.0850843
0.0555428 0.302647 0.0829175
0.0538491 0.309422 0.0801556
0.0535592 0.314199 0.0782788
0.0543221 0.318013 0.0779431
0.0561532 0.31545 0.078172
0.0617075 0.305776 0.078645
0.0855573 0.298268 0.0788434
0.133837 0.291646 0.0786297
0.239246 0.282216 0.0780499
0.338582 0.285023 0.0771038
0.419547 0.281483 0.0771801
0.486748 0.233951 0.0841535
0.527993 0.181628 0.090837
0.562829 0.148638 0.0927596
0.598489 0.128969 0.0965286
0.626871 0.120684 0.103624
0.650248 0.116121 0.11548
0.668147 0.11722 0.132692
0.665888 0.114839 0.133349
0.666194 0.114031 0.136675
0.669581 0.114366 0.142809
0.671534 0.114351 0.14728
0.671702 0.113878 0.149783
0.672038 0.113405 0.151598
0.672663 0.113176 0.153536
0.672419 0.112825 0.155138
0.671763 0.112322 0.156329
0.671351 0.111528 0.156985
0.672465 0.11043 0.157855
0.676051 0.108888 0.158953
0.0691081 0.360769 0.0907301
0.0617838 0.371878 0.0876478
0.0554818 0.38204 0.0844892
0.0515145 0.391379 0.0817273
0.0483253 0.400046 0.0784009
0.0477455 0.406683 0.0743267
0.047715 0.412238 0.0716259
0.0486915 0.414313 0.0722972
0.0515908 0.408728 0.0731823
0.0603037 0.395697 0.074403
0.0970626 0.388739 0.07364
0.164645 0.37908 0.0720684
0.310887 0.368872 0.0686198
0.433066 0.373129 0.0656138
0.50956 0.376287 0.0659037
0.590402 0.34432 0.0724956
0.641337 0.275532 0.0893416
0.66891 0.225711 0.100877
0.677607 0.181018 0.110674
0.690715 0.166049 0.120104
0.695064 0.153841 0.124178
0.692317 0.148333 0.124483
0.689311 0.14519 0.124971
0.684794 0.141512 0.123598
0.680354 0.137774 0.122164
0.676127 0.134035 0.120485
0.672511 0.130587 0.119249
0.671336 0.12874 0.119326
0.669535 0.126802 0.118898
0.667872 0.124636 0.118624
0.667018 0.122667 0.118517
0.667475 0.120455 0.118486
0.670008 0.118502 0.118654
0.0643931 0.457389 0.088426
0.0580758 0.467964 0.0852064
0.0524453 0.477745 0.0825666
0.047715 0.486793 0.0794232
0.0440528 0.495033 0.076173
0.0423133 0.502312 0.0726329
0.0416419 0.508293 0.068574
0.0425727 0.511727 0.0672313
0.0442817 0.511971 0.0675822
0.0469062 0.502785 0.0681468
0.0619516 0.490761 0.0678874
0.117708 0.486488 0.0653391
0.21178 0.472068 0.0624094
0.391501 0.4636 0.0605478
0.520516 0.467323 0.064744
0.588754 0.474037 0.0707561
0.668513 0.476112 0.0826886
0.731823 0.409796 0.0988022
0.768688 0.346273 0.119127
0.779644 0.293782 0.130938
0.776745 0.251957 0.136385
0.762051 0.221118 0.136278
0.751812 0.208835 0.134905
0.748531 0.205081 0.13463
0.745205 0.201251 0.134264
0.744076 0.199527 0.134142
0.741939 0.197314 0.133684
0.738872 0.194064 0.133135
0.735607 0.190539 0.132616
0.731548 0.186267 0.131746
0.728557 0.182742 0.131334
0.725475 0.177935 0.130266
0.723964 0.173205 0.129747
0.0661326 0.552773 0.0948196
0.0611734 0.563317 0.0928511
0.0567178 0.572152 0.0907759
0.0531624 0.580407 0.0887465
0.051194 0.587686 0.0865034
0.0508888 0.594263 0.0839704
0.0519265 0.599756 0.0817121
0.0538338 0.602655 0.0772564
0.0556191 0.6038 0.0784772
0.0577401 0.60206 0.0786297
0.0587778 0.589731 0.076112
0.084123 0.579828 0.0726177
0.161105 0.5794 0.0688487
0.287633 0.56231 0.0645609
0.47509 0.554528 0.0676585
0.601389 0.559136 0.0800031
0.666972 0.565332 0.0926223
0.734874 0.573602 0.114534
0.793973 0.546975 0.135134
0.835294 0.493797 0.151904
0.854505 0.434714 0.161151
0.858 0.391669 0.163897
0.855283 0.383505 0.162615
0.851774 0.376257 0.160723
0.848325 0.368872 0.158801
0.844175 0.360296 0.156481
0.840421 0.351354 0.154345
0.836057 0.342031 0.152148
0.831937 0.332479 0.150515
0.827115 0.322042 0.149218
0.821546 0.311009 0.147417
0.816892 0.301366 0.146044
0.812909 0.292744 0.144884
0.0946059 0.640665 0.1234
0.0925307 0.649683 0.122911
0.0896773 0.658213 0.12221
0.0873579 0.665888 0.121172
0.086183 0.672343 0.120363
0.0874495 0.677897 0.119356
0.0906844 0.68246 0.118502
0.0943618 0.685512 0.11635
0.0972457 0.6869 0.116045
0.0992752 0.686198 0.116701
0.098909 0.679957 0.11426
0.0974746 0.666835 0.107622
0.142275 0.662547 0.0957961
0.234211 0.664637 0.0867781
0.384756 0.647349 0.0798657
0.561547 0.640497 0.0905013
0.677592 0.645396 0.114137
0.74255 0.650462 0.136767
0.798138 0.656016 0.159197
0.850736 0.657481 0.179614
0.886397 0.628321 0.188388
0.901045 0.587808 0.189548
0.901823 0.564279 0.188571
0.900191 0.555032 0.187304
0.898772 0.546624 0.186404
0.897185 0.538155 0.185382
0.895811 0.529488 0.184237
0.893965 0.520394 0.183108
0.891615 0.510292 0.181552
0.888945 0.498512 0.179858
0.885954 0.486671 0.178332
0.882582 0.475273 0.176257
0.879896 0.465095 0.174197
0.143877 0.726177 0.169512
0.143984 0.735042 0.170214
0.141985 0.743603 0.170382
0.140169 0.751659 0.169238
0.139406 0.75877 0.168063
0.140642 0.764889 0.167147
0.143008 0.768948 0.165576
0.145678 0.771313 0.16321
0.147967 0.772808 0.163119
0.150011 0.772427 0.163561
0.150668 0.768231 0.162417
0.146227 0.755077 0.156664
0.156085 0.746014 0.149691
0.226062 0.745998 0.134096
0.330648 0.750225 0.121508
0.484733 0.727123 0.111009
0.643214 0.721508 0.133089
0.747967 0.727703 0.164523
0.814664 0.733562 0.189166
0.859663 0.736873 0.20621
0.897063 0.739147 0.22031
0.919493 0.732143 0.2271
0.926558 0.725597 0.228458
0.925978 0.721401 0.22681
0.925093 0.715633 0.224292
0.923644 0.706844 0.220966
0.922271 0.698909 0.217746
0.920439 0.688914 0.214069
0.918715 0.678141 0.21001
0.91693 0.666285 0.206714
0.915114 0.654734 0.20383
0.913542 0.643427 0.201389
0.912169 0.633204 0.199435
0.192645 0.813901 0.21294
0.194461 0.822293 0.213703
0.192874 0.829206 0.212375
0.190112 0.835828 0.210788
0.1879 0.84155 0.208789
0.187839 0.846326 0.207095
0.189303 0.849561 0.205173
0.191119 0.851072 0.20209
0.192035 0.851911 0.203128
0.193744 0.85185 0.203876
0.194766 0.848814 0.203296
0.194202 0.842161 0.201038
0.188724 0.826123 0.1935
0.223819 0.82298 0.186465
0.328023 0.832258 0.178225
0.442313 0.828016 0.167681
0.589273 0.803037 0.163531
0.723507 0.799664 0.190646
0.815717 0.80853 0.220356
0.878828 0.814054 0.243259
0.912871 0.815808 0.256657
0.92987 0.814649 0.263508
0.937926 0.810712 0.265736
0.937652 0.80531 0.262867
0.937087 0.800732 0.260349
0.936095 0.79649 0.257816
0.935119 0.791318 0.25449
0.933974 0.785122 0.251041
0.933013 0.778729 0.247623
0.931914 0.771786 0.244083
0.930816 0.764294 0.240772
0.930098 0.757809 0.238376
0.929091 0.751324 0.235676
0.2336 0.880568 0.248707
0.233356 0.884703 0.246998
0.229252 0.888212 0.244144
0.224826 0.891615 0.240269
0.220798 0.894331 0.236332
0.219364 0.895888 0.23267
0.219593 0.896437 0.229923
0.220401 0.896651 0.227619
0.220951 0.896925 0.228504
0.221637 0.896788 0.228733
0.222553 0.895582 0.228672
0.223728 0.893095 0.228412
0.222339 0.886687 0.225742
0.236057 0.881544 0.222354
0.317006 0.886015 0.216007
0.438529 0.897536 0.215244
0.549203 0.88629 0.208484
0.684291 0.865125 0.216098
0.798932 0.865492 0.246494
0.875517 0.874601 0.274861
0.923598 0.877974 0.294942
0.942641 0.879164 0.305226
0.947906 0.87689 0.307057
0.947341 0.871565 0.303304
0.946548 0.866957 0.299794
0.945647 0.862852 0.296498
0.944854 0.858656 0.292958
0.943893 0.854185 0.28925
0.943114 0.849363 0.28571
0.942245 0.844343 0.282338
0.941588 0.839658 0.279728
0.941238 0.83444 0.277607
0.940719 0.829816 0.275303
0.248112 0.899794 0.261799
0.246021 0.900465 0.257939
0.241917 0.901946 0.253758
0.236942 0.90367 0.248814
0.232715 0.905119 0.244175
0.23003 0.905989 0.240055
0.228824 0.906264 0.236439
0.228473 0.906325 0.234592
0.228321 0.906386 0.234562
0.228595 0.906279 0.234638
0.229282 0.905989 0.234943
0.230961 0.905348 0.235401
0.233219 0.904479 0.235996
0.240284 0.904128 0.236713
0.296818 0.910231 0.235935
0.421164 0.921141 0.23473
0.530175 0.925551 0.236896
0.639368 0.920119 0.241932
0.765057 0.910643 0.26482
0.861265 0.913603 0.297856
0.918761 0.919554 0.324269
0.94754 0.921599 0.342168
0.955413 0.92163 0.346838
0.954971 0.91899 0.343099
0.954482 0.916304 0.34052
0.953674 0.913085 0.336583
0.952743 0.910185 0.332708
0.951827 0.906813 0.328588
0.950881 0.903334 0.324742
0.950439 0.900008 0.321752
0.949859 0.895933 0.318746
0.949783 0.89192 0.316609
0.94931 0.888273 0.31397
0.2477 0.899916 0.26067
0.245533 0.900664 0.258259
0.24152 0.902144 0.25452
0.2365 0.90396 0.250813
0.232197 0.905455 0.246342
0.229435 0.90631 0.242161
0.228397 0.906538 0.237964
0.228168 0.906477 0.235325
0.228199 0.906432 0.234516
0.228397 0.906355 0.234577
0.228855 0.906172 0.23476
0.229786 0.905806 0.235096
0.231327 0.905196 0.235492
0.234226 0.90454 0.235996
0.269337 0.907973 0.235935
0.378103 0.91902 0.23476
0.5084 0.928695 0.23859
0.609277 0.932952 0.248722
0.722622 0.934905 0.272663
0.837201 0.935546 0.312093
0.909682 0.940352 0.344732
0.943633 0.942855 0.367498
0.958328 0.943511 0.381094
0.959808 0.942412 0.381659
0.960037 0.941161 0.381018
0.959777 0.939925 0.378073
0.958984 0.938552 0.373846
0.958221 0.936965 0.369589
0.957641 0.935332 0.365911
0.957397 0.933745 0.362966
0.956985 0.931975 0.359945
0.956771 0.930083 0.357748
0.956527 0.928374 0.355322
0.250446 0.89958 0.276249
0.249287 0.899855 0.273426
0.246601 0.900755 0.269398
0.243488 0.901778 0.264652
0.24033 0.902815 0.259083
0.238209 0.90338 0.252934
0.237308 0.903426 0.247028
0.237461 0.90309 0.242191
0.238041 0.902678 0.238682
0.238407 0.902449 0.237583
0.238727 0.902327 0.237644
0.239368 0.902083 0.237797
0.240528 0.90164 0.238071
0.242145 0.901045 0.238529
0.259663 0.902571 0.238727
0.347555 0.912505 0.238056
0.471824 0.923079 0.240497
0.572976 0.929152 0.248814
0.680797 0.934234 0.267308
0.804532 0.93962 0.306035
0.909987 0.944106 0.352316
0.943648 0.948287 0.383703
0.95845 0.950439 0.40798
0.962692 0.9514 0.420645
0.962982 0.951659 0.423514
0.962554 0.951492 0.418616
0.961944 0.951293 0.412467
0.961181 0.951202 0.406638
0.960403 0.950866 0.400443
0.959625 0.950439 0.395102
0.959152 0.94992 0.390814
0.958999 0.949004 0.388022
0.959243 0.947692 0.386252
0.241138 0.904005 0.289219
0.241856 0.903578 0.286336
0.241093 0.903655 0.282231
0.239429 0.904067 0.277363
0.237537 0.904479 0.270863
0.236378 0.90457 0.26334
0.235904 0.904448 0.255467
0.236332 0.903883 0.247684
0.236973 0.903273 0.241779
0.23772 0.90277 0.237995
0.238193 0.902525 0.237537
0.238849 0.902281 0.23769
0.23978 0.901915 0.237888
0.240772 0.901549 0.238117
0.242115 0.901198 0.238392
0.30724 0.909148 0.237507
0.427008 0.920653 0.238056
0.542062 0.928145 0.244816
0.642206 0.932754 0.25803
0.764599 0.937514 0.285939
0.889464 0.943481 0.33666
0.942779 0.948501 0.384344
0.957946 0.951415 0.422766
0.963333 0.952972 0.463264
0.96466 0.953674 0.486046
0.964523 0.953948 0.489998
0.963973 0.95404 0.482414
0.96318 0.954238 0.473289
0.962249 0.954482 0.463294
0.961318 0.954635 0.453269
0.960678 0.95462 0.444114
0.960357 0.954421 0.436728
0.96025 0.954101 0.430732
0.230198 0.908507 0.300786
0.232197 0.907713 0.297566
0.233875 0.907088 0.294011
0.234607 0.906584 0.289418
0.234592 0.906279 0.282734
0.234272 0.905974 0.274846
0.234241 0.905531 0.265583
0.234806 0.904891 0.255726
0.23592 0.90399 0.246616
0.236896 0.903166 0.239246
0.237369 0.902831 0.237156
0.237858 0.902647 0.237461
0.238712 0.902327 0.237644
0.239719 0.901946 0.237873
0.240482 0.901656 0.238041
0.273411 0.90573 0.237705
0.385061 0.917723 0.236591
0.49865 0.926131 0.240513
0.60943 0.931868 0.252125
0.726741 0.936477 0.275334
0.8533 0.941756 0.319753
0.932708 0.947951 0.376318
0.956817 0.951522 0.425361
0.963653 0.953429 0.480446
0.965179 0.95433 0.522744
0.965194 0.954772 0.540932
0.96495 0.955108 0.545235
0.964309 0.955444 0.542458
0.963531 0.955749 0.53521
0.962798 0.956008 0.527245
0.962264 0.956146 0.519509
0.96199 0.956146 0.512856
0.961944 0.955993 0.50695
0.22855 0.909743 0.314015
0.230015 0.908995 0.310536
0.231266 0.908354 0.306096
0.231861 0.907881 0.30042
0.231724 0.907851 0.293477
0.231235 0.907683 0.285283
0.231235 0.90721 0.275349
0.231937 0.906401 0.264454
0.233829 0.90515 0.252918
0.234913 0.904204 0.243336
0.23563 0.903593 0.237552
0.235782 0.903487 0.236744
0.236164 0.903334 0.236866
0.236789 0.903075 0.237125
0.237522 0.902785 0.237369
0.254765 0.90486 0.237217
0.343023 0.915038 0.235492
0.458717 0.92517 0.236622
0.565423 0.931426 0.244556
0.680201 0.935897 0.262898
0.80763 0.940383 0.299077
0.911482 0.946242 0.355367
0.951431 0.950774 0.408255
0.961975 0.952895 0.459159
0.964965 0.954101 0.507942
0.965118 0.954696 0.53547
0.96495 0.955093 0.545251
0.964355 0.955459 0.544305
0.963714 0.955856 0.543236
0.963073 0.956222 0.542397
0.962631 0.956481 0.541741
0.96257 0.956512 0.541604
0.96289 0.956329 0.542077
0.226001 0.911162 0.325933
0.227817 0.910353 0.321813
0.229221 0.909606 0.317327
0.229801 0.909117 0.31133
0.229206 0.90901 0.303746
0.228595 0.908995 0.294499
0.228428 0.908782 0.284871
0.229267 0.907866 0.273426
0.231205 0.906493 0.26006
0.233265 0.905104 0.247822
0.234821 0.90399 0.238376
0.235218 0.9037 0.236591
0.23534 0.903655 0.236622
0.235706 0.903517 0.236728
0.236286 0.903288 0.236912
0.244663 0.904128 0.237018
0.309316 0.911925 0.235645
0.422614 0.92285 0.235233
0.521553 0.929808 0.239399
0.633951 0.935271 0.252476
0.757153 0.939574 0.280232
0.879164 0.944717 0.330907
0.94342 0.95021 0.390249
0.959365 0.952605 0.439078
0.964111 0.954009 0.490684
0.964935 0.95465 0.528893
0.964889 0.955139 0.545159
0.96434 0.955474 0.544274
0.963699 0.955856 0.543252
0.963073 0.956222 0.542428
0.962661 0.956466 0.541863
0.962661 0.956451 0.541878
0.963012 0.956268 0.542336
0.223529 0.91252 0.33666
0.225238 0.911696 0.331838
0.227024 0.910811 0.327153
0.227817 0.910323 0.320882
0.227329 0.91017 0.31313
0.226383 0.910094 0.303883
0.226108 0.909865 0.293523
0.227176 0.909102 0.282109
0.229191 0.907668 0.268177
0.231846 0.905989 0.253956
0.23386 0.90457 0.242451
0.23505 0.903777 0.236606
0.235203 0.9037 0.236576
0.235355 0.903655 0.236622
0.235615 0.903548 0.236698
0.239277 0.903883 0.236789
0.280278 0.908858 0.236072
0.384894 0.919768 0.234791
0.484779 0.927474 0.237186
