bundles/resolve-cinematic-luts/Phantom Luts/Canon Film LUT/C-Log 2/Eterna Canon-Legacy CL2.cube
TITLE "Generated by Resolve"
LUT_3D_SIZE 9
0.0223087 0.0489815 0.0493019
0.0448005 0.0498817 0.0501259
0.103975 0.0524453 0.0503548
0.231983 0.0657969 0.0781415
0.447791 0.0868086 0.142519
0.651392 0.108309 0.231006
0.661173 0.109285 0.254231
0.670466 0.108507 0.271412
0.699321 0.10164 0.294041
0.0263981 0.0610056 0.052369
0.0357519 0.059617 0.0522774
0.10515 0.0541695 0.0511482
0.245029 0.0663005 0.0724193
0.474556 0.0860914 0.138399
0.66154 0.105837 0.22504
0.666819 0.107027 0.246174
0.671489 0.106783 0.260105
0.700618 0.0999161 0.280781
0.0440986 0.133837 0.0665141
0.0380102 0.144274 0.0637675
0.109834 0.1299 0.0642252
0.284199 0.0829175 0.0649729
0.480308 0.0849012 0.112261
0.626917 0.102693 0.170855
0.641642 0.104936 0.190585
0.65037 0.105867 0.202777
0.67155 0.101747 0.215106
0.0691081 0.360769 0.0907301
0.0483253 0.400046 0.0784009
0.0515908 0.408728 0.0731823
0.310887 0.368872 0.0686198
0.641337 0.275532 0.0893416
0.695064 0.153841 0.124178
0.680354 0.137774 0.122164
0.669535 0.126802 0.118898
0.670008 0.118502 0.118654
0.143877 0.726177 0.169512
0.139406 0.75877 0.168063
0.147967 0.772808 0.163119
0.156085 0.746014 0.149691
0.643214 0.721508 0.133089
0.897063 0.739147 0.22031
0.925093 0.715633 0.224292
0.918715 0.678141 0.21001
0.912169 0.633204 0.199435
0.2477 0.899916 0.26067
0.232197 0.905455 0.246342
0.228199 0.906432 0.234516
0.231327 0.905196 0.235492
0.5084 0.928695 0.23859
0.909682 0.940352 0.344732
0.960037 0.941161 0.381018
0.957641 0.935332 0.365911
0.956527 0.928374 0.355322
0.22855 0.909743 0.314015
0.231724 0.907851 0.293477
0.233829 0.90515 0.252918
0.236164 0.903334 0.236866
0.343023 0.915038 0.235492
0.80763 0.940383 0.299077
0.964965 0.954101 0.507942
0.963714 0.955856 0.543236
0.96289 0.956329 0.542077
0.218753 0.914961 0.353704
0.230686 0.909606 0.330816
0.24332 0.903075 0.287953
0.249714 0.898177 0.24094
0.257832 0.89836 0.241276
0.628077 0.930571 0.257832
0.959854 0.951461 0.437324
0.964538 0.955352 0.544579
0.960403 0.957778 0.53814
0.210483 0.918364 0.374121
0.218067 0.915068 0.350347
0.230579 0.908736 0.308995
0.246876 0.899413 0.245121
0.248661 0.89865 0.240558
0.493721 0.924224 0.241917
0.926482 0.947478 0.368582
0.964462 0.955398 0.544472
0.960555 0.957687 0.538415
0.021912 0.0499733 0.0570535
0.044419 0.0505989 0.057557
0.100053 0.0534371 0.0653391
0.223102 0.0639963 0.0917372
0.444038 0.0813153 0.154391
0.667628 0.100496 0.247761
0.687709 0.103807 0.279118
0.695277 0.102983 0.299748
0.716579 0.0966506 0.325856
0.0261997 0.0576791 0.0553445
0.0329747 0.0560922 0.057084
0.108751 0.0557107 0.0632029
0.25658 0.0656138 0.0910811
0.476341 0.0812543 0.155352
0.688258 0.100923 0.250446
0.694713 0.101259 0.2757
0.698436 0.101808 0.292454
0.715618 0.0975357 0.312551
0.0425116 0.126619 0.0762188
0.0372168 0.135042 0.0715648
0.107195 0.126833 0.0649577
0.290318 0.0763104 0.0662547
0.471794 0.0817731 0.115557
0.653376 0.101472 0.193347
0.666636 0.103548 0.217914
0.672267 0.103899 0.231769
0.691066 0.100053 0.24741
0.0630961 0.343969 0.106508
0.0497749 0.378729 0.0923323
0.0518959 0.404959 0.0733349
0.309697 0.364279 0.0687877
0.630747 0.267994 0.0893263
0.696544 0.151705 0.124361
0.678828 0.132525 0.120043
0.673335 0.123781 0.120211
0.679728 0.117845 0.12781
0.122423 0.70782 0.181704
0.115114 0.733257 0.174075
0.130938 0.74725 0.153903
0.140108 0.733318 0.142519
0.631769 0.713024 0.125185
0.890211 0.732494 0.213397
0.92282 0.709285 0.219074
0.916777 0.667185 0.206348
0.90956 0.617899 0.195758
0.238895 0.905379 0.30396
0.226444 0.90927 0.279606
0.227451 0.90695 0.238468
0.230381 0.905577 0.235264
0.492592 0.9281 0.236744
0.905058 0.938872 0.338766
0.958831 0.940444 0.375296
0.956451 0.933989 0.360403
0.955489 0.926345 0.350225
0.219608 0.915465 0.382635
0.223926 0.913085 0.353658
0.229984 0.908263 0.287343
0.237156 0.902922 0.237263
0.337804 0.914427 0.235782
0.794186 0.939742 0.294102
0.964752 0.954162 0.503426
0.963561 0.955947 0.542977
0.962646 0.956466 0.541588
0.213306 0.919295 0.437797
0.226017 0.914061 0.407645
0.237186 0.907546 0.33991
0.249302 0.89836 0.243442
0.265934 0.899413 0.241184
0.618173 0.930007 0.256397
0.958831 0.951232 0.432135
0.964538 0.955352 0.544579
0.960388 0.957794 0.538109
0.205127 0.922774 0.463615
0.210849 0.920058 0.434989
0.224216 0.913466 0.37348
0.244694 0.901183 0.26154
0.248417 0.898665 0.240543
0.50695 0.925216 0.242756
0.9196 0.946715 0.361868
0.964462 0.955398 0.544411
0.960555 0.957687 0.538399
0.0238956 0.0513313 0.0892958
0.0436255 0.0522927 0.0995804
0.109209 0.0550088 0.0907149
0.23122 0.0641794 0.110842
0.434836 0.0811627 0.168551
0.662501 0.0993515 0.26598
0.693004 0.103273 0.309163
0.70251 0.103182 0.3411
0.726009 0.0987564 0.375082
0.025391 0.0594644 0.0736248
0.0230106 0.0530709 0.0948653
0.109346 0.0560922 0.0995956
0.249439 0.0649271 0.118273
0.45333 0.0803235 0.178836
0.688014 0.099733 0.281804
0.703792 0.101442 0.324849
0.71043 0.102266 0.356176
0.729 0.0987411 0.386282
0.0431373 0.117937 0.0982681
0.0386053 0.121401 0.106584
0.106844 0.118929 0.116472
0.307897 0.0888838 0.122881
0.485252 0.082826 0.163348
0.675669 0.103838 0.251087
0.684901 0.105058 0.281453
0.69015 0.104738 0.305196
0.708492 0.0999924 0.331899
0.0631571 0.318334 0.145525
0.0511177 0.348959 0.145907
0.0513161 0.369512 0.104738
0.299535 0.349691 0.0713664
0.601434 0.22034 0.0993362
0.68896 0.134615 0.138766
0.701885 0.130877 0.164157
0.704295 0.12874 0.182849
0.698985 0.117113 0.190036
0.0899672 0.679728 0.228
0.0758984 0.703227 0.22768
0.0933242 0.717021 0.186313
0.118486 0.712474 0.132677
0.612909 0.695735 0.114229
0.876463 0.700679 0.198749
0.915541 0.657084 0.204273
0.909316 0.613703 0.195377
0.899184 0.557778 0.18529
0.227771 0.912673 0.420142
0.211826 0.918013 0.406882
0.214313 0.914565 0.330449
0.230625 0.905196 0.235187
0.443397 0.924239 0.234989
0.889082 0.930739 0.322133
0.957 0.933242 0.361044
0.954452 0.926055 0.347143
0.952575 0.916121 0.335409
0.212573 0.922179 0.524758
0.212558 0.921782 0.509392
0.216602 0.918273 0.43827
0.235386 0.904418 0.251041
0.302266 0.909819 0.236667
0.754528 0.937697 0.282475
0.964294 0.953918 0.493248
0.963561 0.955947 0.542809
0.96231 0.956527 0.535088
0.218082 0.921981 0.577508
0.21384 0.922744 0.559258
0.228626 0.916335 0.502876
0.23975 0.905959 0.32546
0.255329 0.897688 0.241505
0.594842 0.928679 0.253223
0.955398 0.950393 0.418021
0.964538 0.955352 0.544579
0.960372 0.957794 0.538094
0.207324 0.925994 0.600214
0.205386 0.92604 0.582681
0.217578 0.92079 0.535897
0.231128 0.911818 0.395682
0.248829 0.898512 0.240681
0.494713 0.924346 0.242039
0.900236 0.945006 0.346502
0.964355 0.955261 0.537087
0.960159 0.957916 0.537758
0.0283055 0.0549935 0.165438
0.0410163 0.0554513 0.195865
0.111269 0.0580606 0.17789
0.257984 0.0671855 0.168765
0.462531 0.082475 0.225605
0.673365 0.0986496 0.313085
0.704723 0.105501 0.363912
0.714702 0.107149 0.400107
0.739208 0.102983 0.444419
0.0226291 0.0576028 0.134005
0.0235904 0.0562295 0.170123
0.0939803 0.0584268 0.216953
0.266056 0.0680552 0.189853
0.46627 0.0800031 0.24036
0.685145 0.100496 0.340002
0.712459 0.106889 0.393118
0.723415 0.108415 0.434943
0.742351 0.104143 0.482597
0.0413825 0.115053 0.140337
0.0353857 0.116213 0.172534
0.0381628 0.0912032 0.219486
0.281041 0.0708629 0.2177
0.479194 0.0836957 0.252232
0.688701 0.103792 0.348226
0.710201 0.108568 0.396597
0.717098 0.110521 0.433768
0.732479 0.107179 0.472877
0.0619821 0.288365 0.207782
0.0522774 0.309117 0.232837
0.0517586 0.319173 0.251896
0.306096 0.324208 0.284489
0.655741 0.234089 0.299367
0.778836 0.159014 0.343832
0.746014 0.128771 0.348913
0.727367 0.118364 0.355367
0.722911 0.108827 0.364691
0.0690929 0.638621 0.329961
0.0488899 0.66183 0.362051
0.0524453 0.673808 0.352758
0.0637675 0.673426 0.203189
0.578164 0.667353 0.129519
0.889891 0.620829 0.231006
0.92845 0.526085 0.273213
0.924346 0.489982 0.277516
0.910658 0.432532 0.27126
0.217395 0.907332 0.551476
0.198596 0.913817 0.565698
0.192081 0.913008 0.535119
0.197803 0.905028 0.380911
0.286961 0.907134 0.230457
0.857954 0.912184 0.297536
0.95256 0.911025 0.332372
0.949416 0.897566 0.317861
0.946868 0.8813 0.305013
0.222843 0.923293 0.666728
0.214221 0.925963 0.670848
0.214664 0.924834 0.639384
0.216556 0.920516 0.509865
0.242634 0.90135 0.238315
0.649821 0.932845 0.259586
0.962005 0.953002 0.459693
0.963088 0.95552 0.516182
0.961456 0.956024 0.493507
0.231693 0.922164 0.714015
0.221103 0.925124 0.712093
0.226398 0.922774 0.681605
0.231128 0.917983 0.581918
0.249378 0.899184 0.259541
0.508888 0.923354 0.245014
0.938354 0.947372 0.383062
0.966995 0.953811 0.549294
0.963714 0.955871 0.543938
0.221515 0.92578 0.734173
0.219455 0.926177 0.728405
0.216846 0.926009 0.702312
0.231388 0.919066 0.620081
0.235294 0.908934 0.354345
0.394339 0.915923 0.239017
0.827893 0.939651 0.309239
0.964111 0.954879 0.517128
0.960555 0.957702 0.538949
0.039765 0.0640421 0.324514
0.0494545 0.0656291 0.361181
0.110475 0.064744 0.373098
0.284871 0.0700999 0.334401
0.502159 0.0848554 0.352087
0.705089 0.106737 0.407385
0.714977 0.111299 0.434104
0.7205 0.111315 0.474586
0.736797 0.1066 0.531426
0.0272221 0.0630808 0.266468
0.0299687 0.064744 0.305715
0.0730297 0.0637064 0.36759
0.273884 0.0701762 0.369757
0.495384 0.0850843 0.371374
0.713466 0.107622 0.43238
0.720394 0.111437 0.476478
0.719112 0.111772 0.527687
0.734401 0.109194 0.589288
0.0368658 0.0962539 0.231327
0.0318456 0.091249 0.273091
0.0290379 0.0711376 0.31516
0.231067 0.070573 0.416632
0.505806 0.08542 0.404242
0.705852 0.108659 0.444327
0.714778 0.113008 0.495644
0.712764 0.115724 0.544259
0.723613 0.113863 0.594354
0.0640421 0.270069 0.31928
0.0534981 0.293996 0.371588
0.0530251 0.312444 0.436271
0.0940566 0.271839 0.506218
0.573831 0.145632 0.478874
0.699504 0.11223 0.438819
0.709712 0.11487 0.456428
0.709392 0.115007 0.481895
0.721996 0.111772 0.520974
0.0643473 0.597986 0.451728
0.0468605 0.613565 0.487663
0.0476997 0.622477 0.512215
0.0459449 0.611078 0.506722
0.557198 0.600092 0.536233
0.912947 0.536004 0.56199
0.961105 0.483146 0.592508
0.958129 0.445151 0.606943
0.949157 0.374853 0.604547
0.216709 0.87808 0.642847
0.187457 0.885771 0.662379
0.176379 0.879652 0.659632
0.166171 0.869245 0.611246
0.22884 0.88957 0.470069
0.822919 0.899855 0.457832
0.963333 0.840742 0.542885
0.963516 0.810819 0.568627
0.963699 0.787411 0.563027
0.248539 0.918837 0.768383
0.229938 0.924575 0.782864
0.221759 0.926436 0.773236
0.224186 0.924132 0.709972
0.216678 0.920363 0.506554
0.572488 0.935714 0.271901
0.964141 0.951675 0.492805
0.969863 0.955428 0.694514
0.9682 0.956405 0.693462
0.249302 0.920851 0.819684
0.239826 0.923781 0.825605
0.229526 0.92604 0.81474
0.231189 0.923583 0.756176
0.233707 0.917739 0.596857
0.431968 0.929 0.319799
0.891417 0.942138 0.356085
0.967971 0.954391 0.599954
0.965011 0.957198 0.641245
0.250431 0.921431 0.836789
0.24358 0.923522 0.841245
0.233127 0.925887 0.832029
0.230655 0.924376 0.784558
0.236301 0.918975 0.660273
0.305135 0.922042 0.375372
0.774243 0.937942 0.296376
0.964126 0.955322 0.534463
0.960983 0.958465 0.596292
0.0534676 0.0830091 0.477317
0.0595254 0.0884413 0.513329
0.105455 0.0838178 0.546502
0.310506 0.080705 0.562539
0.537789 0.0847639 0.544259
0.716335 0.115129 0.552636
0.718715 0.114961 0.565881
0.722972 0.113954 0.589792
0.729122 0.112474 0.623514
0.035874 0.0797436 0.430594
0.0403449 0.0842451 0.463935
0.0695201 0.0854353 0.514916
0.259007 0.0814221 0.574411
0.530373 0.0845197 0.569924
0.717983 0.115038 0.579629
0.717052 0.116442 0.596765
0.719448 0.116197 0.634882
0.72488 0.114122 0.679606
0.0381781 0.0950637 0.382681
0.0367285 0.0971389 0.421729
0.0358434 0.0885328 0.449866
0.157412 0.0787671 0.548699
0.517876 0.0844587 0.600305
0.703471 0.11516 0.585061
0.705806 0.120668 0.593423
0.707668 0.120638 0.635279
0.716213 0.117296 0.687678
0.0583658 0.284184 0.487373
0.0561837 0.291447 0.526467
0.0573587 0.295613 0.575433
0.0605783 0.243915 0.611643
0.458824 0.104784 0.653803
0.683452 0.106981 0.572503
0.708003 0.118776 0.553216
0.709316 0.119203 0.590417
0.720272 0.116014 0.642939
0.0605783 0.570367 0.592584
0.0539101 0.578134 0.621668
0.060914 0.587884 0.652445
0.0708476 0.58381 0.692561
0.34931 0.54667 0.772885
0.842283 0.417472 0.731243
0.930404 0.339727 0.700557
0.914794 0.308797 0.705211
0.895872 0.272312 0.720073
0.200397 0.851164 0.723079
0.177584 0.851682 0.736721
0.170809 0.841535 0.738796
0.161379 0.826215 0.725948
0.203601 0.826108 0.720272
0.769955 0.815518 0.753674
0.965682 0.770092 0.77055
0.967895 0.745541 0.785916
0.966674 0.726223 0.794171
0.258137 0.9196 0.841932
0.239338 0.925231 0.853223
0.236637 0.925719 0.850126
0.231296 0.925734 0.824033
0.225559 0.924514 0.748318
0.625574 0.954452 0.737179
0.950256 0.955322 0.803143
0.969253 0.950774 0.857633
0.96762 0.947433 0.861112
0.282032 0.914687 0.874937
0.252583 0.923369 0.889296
0.245167 0.92517 0.887343
0.239414 0.925368 0.861738
0.23563 0.923095 0.785367
0.411612 0.951644 0.709834
0.848096 0.954849 0.688243
0.970138 0.961242 0.886961
0.972534 0.962036 0.922606
0.265583 0.920348 0.896651
0.256779 0.92311 0.904433
0.249409 0.924956 0.903334
0.244297 0.925185 0.882902
0.238697 0.923888 0.821332
0.31635 0.943114 0.74403
0.838483 0.956588 0.773648
0.964782 0.960647 0.852552
0.969421 0.962295 0.904509
0.0607156 0.122499 0.616037
0.0614786 0.12958 0.637675
0.0942855 0.13022 0.667445
0.283619 0.108034 0.722545
0.55642 0.100023 0.726055
0.717617 0.116564 0.712474
0.717205 0.116854 0.715358
0.718227 0.117021 0.717678
0.716838 0.117845 0.717769
0.0461891 0.113649 0.574517
0.0496071 0.124956 0.60589
0.064683 0.129473 0.640955
0.209705 0.111437 0.707729
0.539269 0.104723 0.744274
0.713298 0.117998 0.72842
0.715434 0.119356 0.73373
0.715663 0.119554 0.738949
0.715053 0.120134 0.74493
0.0451362 0.120684 0.538674
0.0475319 0.127123 0.5682
0.0484627 0.125292 0.589609
0.0939345 0.124453 0.656458
0.486473 0.107088 0.752544
0.70837 0.118425 0.735531
0.713893 0.120119 0.734173
0.714824 0.120012 0.738888
0.715129 0.120104 0.744991
0.061326 0.280919 0.635187
0.0637064 0.278279 0.658763
0.0667582 0.268605 0.681315
0.0667277 0.226352 0.678233
0.312978 0.114 0.728511
0.666148 0.11075 0.722255
0.715175 0.117815 0.704204
0.715434 0.11751 0.705348
0.716945 0.117357 0.72163
0.0843061 0.584619 0.728145
0.0909895 0.58761 0.745678
0.0988632 0.589471 0.764599
0.107485 0.581598 0.790005
0.139345 0.536294 0.831891
0.728267 0.358984 0.909361
0.869368 0.265919 0.797299
0.875685 0.270375 0.787518
0.842313 0.230182 0.7879
0.190265 0.823636 0.816526
0.18056 0.817792 0.823651
0.175418 0.803677 0.823438
0.170565 0.787045 0.826062
0.165087 0.756939 0.841154
0.634287 0.771817 0.921035
0.951476 0.692226 0.897902
0.963333 0.667582 0.883696
0.960922 0.633204 0.890471
0.271412 0.918349 0.891356
0.248524 0.92491 0.901213
0.247562 0.92491 0.898726
0.24303 0.923293 0.88661
0.23122 0.915709 0.859236
0.608698 0.94226 0.896193
0.935943 0.942763 0.928862
0.970733 0.93106 0.927443
0.969421 0.926802 0.929213
0.277852 0.918318 0.912444
0.256077 0.924437 0.920165
0.254246 0.924865 0.919432
0.251759 0.924895 0.911284
0.24416 0.9252 0.882353
0.335409 0.946731 0.881758
0.905089 0.960586 0.933364
0.974868 0.964279 0.958511
0.976608 0.964508 0.962768
0.269444 0.920699 0.918868
0.258869 0.923644 0.922683
0.255985 0.924651 0.924651
0.254932 0.924788 0.921386
0.249454 0.924971 0.903532
0.314717 0.939925 0.894484
0.880568 0.960296 0.93872
0.963058 0.96466 0.946914
0.972152 0.966628 0.966064
0.0678874 0.132906 0.650233
0.0671244 0.132708 0.650813
0.0999771 0.12929 0.670665
0.235752 0.110338 0.716106
0.540597 0.108476 0.754971
0.71458 0.12015 0.747189
0.715145 0.120226 0.74725
0.715129 0.120226 0.747219
0.71487 0.120333 0.746593
0.0528878 0.135027 0.634684
0.0556649 0.134951 0.635523
0.0685588 0.132906 0.651667
0.171038 0.117571 0.698268
0.506249 0.108614 0.756802
0.714229 0.120134 0.747189
0.715145 0.120226 0.74725
0.715145 0.120226 0.74725
0.715023 0.120272 0.746944
0.0551003 0.145632 0.634928
0.0549783 0.145235 0.634424
0.0526436 0.136309 0.623041
0.0719005 0.132479 0.653666
0.424811 0.108827 0.753094
0.708278 0.119448 0.746777
0.715145 0.120226 0.74725
0.715145 0.120226 0.74725
0.715114 0.120226 0.747189
0.0755627 0.278187 0.725658
0.0800488 0.281071 0.738643
0.0825971 0.270756 0.742763
0.0757916 0.22771 0.717723
0.173648 0.119829 0.701045
0.622934 0.10985 0.745357
0.715221 0.120241 0.747326
0.715206 0.120226 0.747311
0.715206 0.120241 0.747326
0.122133 0.601465 0.819242
0.12668 0.603967 0.831189
0.129137 0.598032 0.840955
0.128923 0.579858 0.848661
0.123186 0.520012 0.85449
0.607874 0.381262 0.947524
0.803494 0.209064 0.827192
0.79115 0.192386 0.810346
0.784344 0.182925 0.800549
0.197971 0.824094 0.88246
0.198199 0.821073 0.887633
0.194873 0.810605 0.887984
0.188769 0.79237 0.887922
0.182483 0.76643 0.893004
0.455802 0.778378 0.957168
0.90219 0.651484 0.960998
0.94876 0.581308 0.942214
0.950423 0.584985 0.937911
0.256275 0.923095 0.921614
0.252964 0.923293 0.922545
0.251804 0.921813 0.92192
0.246998 0.916182 0.918669
0.237644 0.901656 0.913191
0.3552 0.921538 0.943664
0.867597 0.926528 0.955962
0.960861 0.908492 0.95349
0.961547 0.902113 0.9514
0.255299 0.924071 0.923995
0.253742 0.924376 0.924376
0.253651 0.924361 0.924361
0.255604 0.924605 0.924605
0.254994 0.924773 0.92163
0.2542 0.92491 0.9187
0.884978 0.960754 0.957076
0.968002 0.968048 0.967971
0.969329 0.967651 0.967498
0.259052 0.923033 0.922744
0.254093 0.924392 0.924392
0.253986 0.924422 0.924422
0.253986 0.924422 0.924422
0.255222 0.92459 0.924254
0.260639 0.925628 0.923598
0.869322 0.960281 0.95819
0.967819 0.967987 0.967987
0.968154 0.968093 0.968093
0.0775464 0.132082 0.657481
0.0809339 0.131762 0.659754
0.101289 0.129091 0.67126
0.195193 0.11371 0.705043
0.497002 0.108568 0.756817
0.715145 0.120226 0.74725
0.715145 0.120226 0.74725
0.715145 0.120226 0.74725
0.715145 0.120226 0.74725
0.0557565 0.134371 0.640238
0.0578317 0.134173 0.642466
0.0701152 0.132662 0.65272
0.145144 0.122118 0.690303
0.449088 0.108736 0.755169
0.715145 0.120226 0.74725
0.715145 0.120226 0.74725
0.715145 0.120226 0.74725
0.715145 0.120226 0.74725
0.0546273 0.14313 0.631647
0.0543526 0.14226 0.630747
0.0526436 0.136278 0.622873
0.0603494 0.134066 0.643565
0.354864 0.110384 0.74464
0.687831 0.116732 0.74548
0.715145 0.120226 0.74725
0.715145 0.120226 0.74725
0.715145 0.120226 0.74725
0.089128 0.289784 0.763333
0.0894636 0.290547 0.764324
0.0864271 0.273915 0.753582
0.0767681 0.228916 0.720684
0.0803082 0.132113 0.65304
0.565332 0.108507 0.752575
0.715175 0.120226 0.747295
0.71519 0.120226 0.747295
0.715175 0.120226 0.747295
0.141497 0.617411 0.86775
0.143877 0.622675 0.872648
0.144045 0.619043 0.874784
0.138857 0.594339 0.870909
0.123049 0.518914 0.854658
0.467002 0.379065 0.93933
0.759152 0.173495 0.801221
0.743633 0.14023 0.769223
0.736263 0.133883 0.762982
0.21236 0.843214 0.910201
0.212131 0.84155 0.91133
0.209415 0.834485 0.910826
0.202121 0.815946 0.908003
0.188907 0.778653 0.902953
0.252552 0.7458 0.924254
0.819409 0.658442 0.964675
0.937697 0.511528 0.948211
0.933349 0.484871 0.945159
0.253285 0.923461 0.924239
0.253101 0.923232 0.924193
0.252537 0.922316 0.92401
0.250797 0.919615 0.923491
0.242832 0.906706 0.921309
0.232425 0.887098 0.918364
0.760937 0.919997 0.958495
0.954833 0.881743 0.95845
0.957198 0.853697 0.95845
0.253986 0.924422 0.924422
0.253986 0.924422 0.924422
0.253986 0.924422 0.924422
0.253986 0.924422 0.924422
0.253986 0.924422 0.924422
0.253986 0.924422 0.924422
0.730266 0.957671 0.958236
0.965194 0.966873 0.96698
0.968002 0.967971 0.968002
0.253986 0.924422 0.924422
0.253986 0.924422 0.924422
0.253986 0.924422 0.924422
0.253986 0.924422 0.924422
0.253986 0.924422 0.924422
0.252644 0.924147 0.924147
0.665965 0.957855 0.957855
0.967437 0.967834 0.967834
0.968124 0.968124 0.968124
