bundles/resolve-cinematic-luts/Phantom Luts/Canon Film LUT/C-Log 2/Eterna Canon-Legacy CL2.cube
TITLE "Generated by Resolve"
LUT_3D_SIZE 5
0.0223087 0.0489815 0.0493019
0.103975 0.0524453 0.0503548
0.447791 0.0868086 0.142519
0.661173 0.109285 0.254231
0.699321 0.10164 0.294041
0.0440986 0.133837 0.0665141
0.109834 0.1299 0.0642252
0.480308 0.0849012 0.112261
0.641642 0.104936 0.190585
0.67155 0.101747 0.215106
0.143877 0.726177 0.169512
0.147967 0.772808 0.163119
0.643214 0.721508 0.133089
0.925093 0.715633 0.224292
0.912169 0.633204 0.199435
0.22855 0.909743 0.314015
0.233829 0.90515 0.252918
0.343023 0.915038 0.235492
0.964965 0.954101 0.507942
0.96289 0.956329 0.542077
0.210483 0.918364 0.374121
0.230579 0.908736 0.308995
0.248661 0.89865 0.240558
0.926482 0.947478 0.368582
0.960555 0.957687 0.538415
0.0238956 0.0513313 0.0892958
0.109209 0.0550088 0.0907149
0.434836 0.0811627 0.168551
0.693004 0.103273 0.309163
0.726009 0.0987564 0.375082
0.0431373 0.117937 0.0982681
0.106844 0.118929 0.116472
0.485252 0.082826 0.163348
0.684901 0.105058 0.281453
0.708492 0.0999924 0.331899
0.0899672 0.679728 0.228
0.0933242 0.717021 0.186313
0.612909 0.695735 0.114229
0.915541 0.657084 0.204273
0.899184 0.557778 0.18529
0.212573 0.922179 0.524758
0.216602 0.918273 0.43827
0.302266 0.909819 0.236667
0.964294 0.953918 0.493248
0.96231 0.956527 0.535088
0.207324 0.925994 0.600214
0.217578 0.92079 0.535897
0.248829 0.898512 0.240681
0.900236 0.945006 0.346502
0.960159 0.957916 0.537758
0.039765 0.0640421 0.324514
0.110475 0.064744 0.373098
0.502159 0.0848554 0.352087
0.714977 0.111299 0.434104
0.736797 0.1066 0.531426
0.0368658 0.0962539 0.231327
0.0290379 0.0711376 0.31516
0.505806 0.08542 0.404242
0.714778 0.113008 0.495644
0.723613 0.113863 0.594354
0.0643473 0.597986 0.451728
0.0476997 0.622477 0.512215
0.557198 0.600092 0.536233
0.961105 0.483146 0.592508
0.949157 0.374853 0.604547
0.248539 0.918837 0.768383
0.221759 0.926436 0.773236
0.216678 0.920363 0.506554
0.964141 0.951675 0.492805
0.9682 0.956405 0.693462
0.250431 0.921431 0.836789
0.233127 0.925887 0.832029
0.236301 0.918975 0.660273
0.774243 0.937942 0.296376
0.960983 0.958465 0.596292
0.0607156 0.122499 0.616037
0.0942855 0.13022 0.667445
0.55642 0.100023 0.726055
0.717205 0.116854 0.715358
0.716838 0.117845 0.717769
0.0451362 0.120684 0.538674
0.0484627 0.125292 0.589609
0.486473 0.107088 0.752544
0.713893 0.120119 0.734173
0.715129 0.120104 0.744991
0.0843061 0.584619 0.728145
0.0988632 0.589471 0.764599
0.139345 0.536294 0.831891
0.869368 0.265919 0.797299
0.842313 0.230182 0.7879
0.271412 0.918349 0.891356
0.247562 0.92491 0.898726
0.23122 0.915709 0.859236
0.935943 0.942763 0.928862
0.969421 0.926802 0.929213
0.269444 0.920699 0.918868
0.255985 0.924651 0.924651
0.249454 0.924971 0.903532
0.880568 0.960296 0.93872
0.972152 0.966628 0.966064
0.0775464 0.132082 0.657481
0.101289 0.129091 0.67126
0.497002 0.108568 0.756817
0.715145 0.120226 0.74725
0.715145 0.120226 0.74725
0.0546273 0.14313 0.631647
0.0526436 0.136278 0.622873
0.354864 0.110384 0.74464
0.715145 0.120226 0.74725
0.715145 0.120226 0.74725
0.141497 0.617411 0.86775
0.144045 0.619043 0.874784
0.123049 0.518914 0.854658
0.759152 0.173495 0.801221
0.736263 0.133883 0.762982
0.253285 0.923461 0.924239
0.252537 0.922316 0.92401
0.242832 0.906706 0.921309
0.760937 0.919997 0.958495
0.957198 0.853697 0.95845
0.253986 0.924422 0.924422
0.253986 0.924422 0.924422
0.253986 0.924422 0.924422
0.665965 0.957855 0.957855
0.968124 0.968124 0.968124
