bundles/resolve-cinematic-luts/Phantom Luts/Canon Film LUT/C-Log 2/VisionTeal Canon CL2.cube
TITLE "Generated by Resolve"
LUT_3D_SIZE 5
0.0223392 0.0239872 0.0232853
0.1234 0.026154 0.0220493
0.537102 0.0159915 0.0749065
0.714717 0.0517433 0.272328
0.717159 0.0507973 0.271977
0.0190433 0.154742 0.0315709
0.113008 0.136889 0.0275273
0.559701 0.03122 0.0348516
0.693263 0.0362402 0.126284
0.693828 0.0353552 0.121981
0.141817 0.663142 0.161318
0.136416 0.655772 0.139971
0.59202 0.616022 0.100237
0.833555 0.635904 0.146395
0.824399 0.569467 0.143175
0.23566 0.847517 0.29987
0.236973 0.840864 0.234058
0.50457 0.80119 0.225177
0.8271 0.825803 0.383932
0.827085 0.825727 0.401099
0.230671 0.862165 0.369268
0.236316 0.841917 0.254597
0.357076 0.818112 0.214389
0.82327 0.828351 0.316396
0.827039 0.825803 0.400885
0.0209964 0.0426642 0.125032
0.128222 0.0231022 0.146151
0.576104 0.0314946 0.247608
0.713375 0.065568 0.368582
0.715984 0.0633555 0.360372
0.019791 0.136538 0.103731
0.114382 0.138064 0.129122
0.549462 0.018265 0.102098
0.716487 0.0492561 0.256703
0.710002 0.0423438 0.19559
0.12311 0.661494 0.258488
0.126345 0.637003 0.159594
0.576196 0.599695 0.0955367
0.82565 0.575677 0.143267
0.818021 0.527947 0.139178
0.210422 0.882933 0.453422
0.234058 0.849165 0.303639
0.455116 0.805585 0.219257
0.826993 0.825833 0.375433
0.827039 0.825696 0.400885
0.157336 0.898314 0.48249
0.2309 0.862287 0.373693
0.284642 0.829602 0.222568
0.821836 0.829282 0.303334
0.827024 0.825803 0.400885
0.0194247 0.122728 0.487633
0.0955215 0.104417 0.543038
0.573419 0.0473793 0.596231
0.744793 0.0884108 0.729946
0.754711 0.0988937 0.665644
0.0193942 0.147585 0.445441
0.0192874 0.117662 0.47866
0.539727 0.0401923 0.559167
0.748669 0.114046 0.685466
0.736645 0.0654917 0.601938
0.0498512 0.652522 0.576928
0.0441901 0.638331 0.564767
0.629572 0.622522 0.594369
0.846082 0.462959 0.562997
0.843275 0.444846 0.445441
0.118944 0.950927 0.765454
0.131518 0.944015 0.733822
0.233661 0.854307 0.327138
0.824094 0.826795 0.335531
0.835111 0.827573 0.322484
0.118776 0.948699 0.750774
0.145235 0.938262 0.717403
0.224201 0.871397 0.408865
0.797299 0.837949 0.216892
0.826627 0.82562 0.402808
0.0197452 0.266056 0.731823
0.0812543 0.245884 0.790906
0.637003 0.124819 0.817182
0.751751 0.111299 0.828397
0.751583 0.11133 0.82829
0.0194553 0.269932 0.700877
0.0197604 0.266148 0.730358
0.591959 0.111818 0.812711
0.751751 0.111299 0.828397
0.751736 0.111299 0.828382
0.0208591 0.716457 0.826276
0.0211337 0.695415 0.825467
0.414466 0.577462 0.875959
0.795026 0.26566 0.849073
0.784741 0.175204 0.844907
0.155154 0.963699 0.887709
0.151553 0.963226 0.886503
0.149767 0.953658 0.87602
0.894438 0.907622 0.884428
0.928588 0.868711 0.861631
0.156359 0.9635 0.887922
0.154894 0.964218 0.88571
0.138201 0.963363 0.860059
0.788434 0.91516 0.816342
0.935042 0.945571 0.921218
0.019852 0.264378 0.748241
0.122881 0.237201 0.79765
0.650721 0.129091 0.819989
0.751751 0.111299 0.828412
0.751736 0.111299 0.828397
0.0196841 0.263661 0.697093
0.0198215 0.264591 0.746288
0.601389 0.114321 0.813611
0.751751 0.111299 0.828397
0.751751 0.111299 0.828412
0.0210575 0.703395 0.842084
0.0210575 0.67483 0.835355
0.365484 0.519387 0.867094
0.786206 0.183886 0.849943
0.757076 0.116732 0.83122
0.150942 0.964736 0.890425
0.148409 0.963363 0.890867
0.132189 0.952972 0.895094
0.859937 0.882078 0.92137
0.916228 0.822171 0.917235
0.152255 0.964706 0.890303
0.151476 0.964935 0.890486
0.151476 0.964935 0.890486
0.574105 0.922332 0.871107
0.936934 0.947555 0.931273
