bundles/resolve-cinematic-luts/Phantom Luts/Canon Film LUT/C-Log 2/VisionTeal Canon CL2.cube
TITLE "Generated by Resolve"
LUT_3D_SIZE 33
0.0223392 0.0239872 0.0232853
0.022385 0.025391 0.0244602
0.0222782 0.026566 0.0251316
0.0223239 0.0263371 0.025742
0.027039 0.027039 0.0280156
0.0432136 0.0264897 0.0282292
0.0655222 0.024445 0.0263066
0.0923934 0.0242466 0.0236515
0.1234 0.026154 0.0220493
0.166598 0.0263828 0.0199893
0.219425 0.0238041 0.0174258
0.271336 0.0214542 0.0177157
0.323537 0.0148928 0.0187686
0.37467 0.012192 0.0234531
0.428031 0.0121004 0.0317235
0.482963 0.0122835 0.0488594
0.537102 0.0159915 0.0749065
0.598215 0.0227665 0.109804
0.658869 0.0333562 0.161944
0.701335 0.0439002 0.215259
0.714687 0.0482643 0.238163
0.714595 0.049424 0.253681
0.71458 0.0503853 0.261418
0.71458 0.0511177 0.268009
0.714717 0.0517433 0.272328
0.714885 0.0521859 0.275853
0.715068 0.0525521 0.277653
0.71519 0.0527504 0.278935
0.71545 0.0527657 0.279301
0.715831 0.0525521 0.279057
0.716411 0.0522469 0.278431
0.716884 0.0517739 0.277089
0.717159 0.0507973 0.271977
0.0224002 0.0260319 0.0243381
0.022385 0.0252995 0.0243076
0.0222324 0.0267948 0.0246433
0.0222629 0.0266423 0.0254978
0.0281376 0.0276188 0.0279545
0.0457008 0.0266423 0.0283207
0.0679026 0.0248569 0.0271611
0.0952163 0.024506 0.024094
0.128634 0.0261234 0.0225223
0.173449 0.0251926 0.0197757
0.2224 0.0244297 0.0176547
0.274464 0.0227207 0.0182956
0.326329 0.0166781 0.0194858
0.375601 0.012192 0.0215915
0.427405 0.0121004 0.029221
0.482109 0.012192 0.0458228
0.538933 0.0158846 0.0713664
0.600259 0.0228428 0.105791
0.658579 0.0328679 0.156847
0.702998 0.0436103 0.21059
0.714321 0.0474861 0.232212
0.714961 0.0484474 0.241932
0.714672 0.0487678 0.247929
0.714656 0.050309 0.261036
0.714733 0.0508736 0.265141
0.714763 0.0512245 0.268605
0.714855 0.051545 0.270481
0.7149 0.0515602 0.270619
0.715114 0.0514687 0.270527
0.715511 0.0513161 0.270481
0.716121 0.0510567 0.270191
0.716762 0.0503395 0.266957
0.717296 0.0495003 0.262119
0.0223545 0.0315862 0.0244907
0.0222171 0.030518 0.0241398
0.0222171 0.0299992 0.0244907
0.0222324 0.0302281 0.0251926
0.0281682 0.0281987 0.0273136
0.0458228 0.0273289 0.0276188
0.0692454 0.0257725 0.0260624
0.0975357 0.0255589 0.0242771
0.128191 0.0265507 0.0229801
0.17116 0.0263218 0.01944
0.221134 0.0258793 0.0176699
0.274418 0.0232853 0.0184024
0.325322 0.019089 0.0179141
0.377661 0.0149538 0.0231327
0.426001 0.0121614 0.0263828
0.481361 0.012192 0.0414893
0.537545 0.0155642 0.0661631
0.59736 0.0217136 0.0988632
0.659068 0.0327153 0.149065
0.704265 0.043473 0.205524
0.712093 0.0460212 0.223026
0.714458 0.047715 0.233967
0.715038 0.0484169 0.240909
0.714885 0.0486763 0.24622
0.714809 0.0499428 0.258457
0.714855 0.0503243 0.260945
0.714931 0.0504768 0.261845
0.714961 0.0505226 0.262211
0.715175 0.0504616 0.262562
0.715587 0.0502327 0.261692
0.716136 0.0497444 0.260258
0.716716 0.0490272 0.256596
0.71725 0.0483864 0.252583
0.0222171 0.0376745 0.0249485
0.0221561 0.0365148 0.0239567
0.0223392 0.0350652 0.0245212
0.0223545 0.0349737 0.0255283
0.0263828 0.0356146 0.0277714
0.0425727 0.031281 0.0272374
0.0699931 0.0284276 0.0246128
0.0983597 0.0276646 0.0243992
0.12813 0.0280766 0.0228122
0.17435 0.027512 0.0200351
0.222065 0.0264286 0.018265
0.272847 0.0251011 0.0175631
0.324346 0.0226749 0.0185702
0.376272 0.0167544 0.0226139
0.426307 0.0121157 0.0236973
0.478691 0.012192 0.0373083
0.535653 0.0154421 0.0601816
0.596063 0.0213016 0.0924697
0.658503 0.0322728 0.141436
0.701839 0.0422827 0.194171
0.710964 0.044892 0.212711
0.713893 0.0466011 0.225376
0.714794 0.0476997 0.233265
0.714992 0.0482795 0.23769
0.715129 0.0484321 0.241016
0.714977 0.049134 0.251728
0.715038 0.0493324 0.25275
0.715099 0.0494087 0.253147
0.715251 0.0491493 0.252277
0.71548 0.0488136 0.25069
0.715999 0.0484321 0.248615
0.716625 0.0480964 0.245838
0.716243 0.0471046 0.237919
0.0218051 0.0491646 0.0258335
0.0215915 0.0479133 0.0239872
0.0220035 0.0461738 0.0244602
0.0221561 0.0441444 0.02533
0.0253758 0.0438239 0.0286259
0.0399634 0.0450599 0.0287938
0.0622721 0.0393378 0.0273594
0.0953078 0.0326848 0.0241703
0.12958 0.0320439 0.0217594
0.177523 0.0303502 0.0202182
0.223285 0.0281071 0.0181582
0.276112 0.0261234 0.0182193
0.324651 0.022858 0.0180362
0.374823 0.0195468 0.020676
0.42359 0.0154116 0.0233005
0.474815 0.0120851 0.0316625
0.532631 0.0150759 0.0537423
0.591623 0.020676 0.0847181
0.654994 0.0311437 0.129168
0.700557 0.0409552 0.181552
0.709102 0.0437018 0.201389
0.710262 0.04448 0.209583
0.711757 0.0454261 0.217182
0.714046 0.0466163 0.224903
0.714717 0.0472267 0.22829
0.715068 0.047715 0.232654
0.715206 0.0484169 0.240177
0.715175 0.0483711 0.239567
0.71548 0.048249 0.2383
0.715953 0.0480354 0.237247
0.715633 0.0472114 0.23389
0.714427 0.0457618 0.22678
0.71339 0.0442206 0.21799
0.0208286 0.0687877 0.026978
0.020798 0.0671855 0.024445
0.0208133 0.0648051 0.023621
0.0206455 0.0618143 0.0242924
0.0208133 0.0605936 0.0266728
0.0386664 0.0592813 0.0306706
0.0579995 0.0601053 0.0274968
0.0908217 0.05449 0.0279088
0.128115 0.0425269 0.0247501
0.17554 0.0353246 0.0191958
0.229511 0.032578 0.017319
0.281743 0.0288548 0.0178683
0.327428 0.0247196 0.0182803
0.37702 0.0221408 0.0204776
0.425162 0.018265 0.02327
0.474937 0.0122225 0.0266423
0.527504 0.014374 0.0433814
0.58819 0.0197147 0.0747387
0.649241 0.0289769 0.115831
0.697704 0.0393988 0.167498
0.706065 0.0420386 0.184161
0.708019 0.0433051 0.194171
0.709667 0.0438087 0.203113
0.709987 0.0443732 0.208728
0.71043 0.04448 0.209949
0.710338 0.0446021 0.210925
0.712245 0.0452125 0.213733
0.714199 0.0464942 0.223819
0.713436 0.0458228 0.219928
0.711955 0.0448615 0.214664
0.711101 0.0438392 0.208743
0.710811 0.0429541 0.203052
0.710643 0.0422675 0.195468
0.019791 0.0922866 0.0275883
0.0199283 0.0915236 0.02533
0.0200046 0.0904097 0.0233005
0.0200656 0.0874495 0.0252079
0.0202029 0.0848249 0.0274968
0.0275273 0.0839399 0.0294041
0.060502 0.0808728 0.0316625
0.0848096 0.0812085 0.0258335
0.125658 0.0762493 0.0270085
0.179202 0.0555734 0.0218967
0.235157 0.0403296 0.0185092
0.28365 0.0364996 0.017319
0.33962 0.032166 0.0166934
0.386725 0.0264897 0.0206302
0.430838 0.0219883 0.0223087
0.478935 0.016907 0.0269932
0.527077 0.0143435 0.037705
0.581704 0.018204 0.0615244
0.643473 0.0271153 0.0963149
0.694972 0.0375525 0.144244
0.700633 0.0393683 0.158694
0.70277 0.0400397 0.167529
0.70486 0.0409552 0.176379
0.70634 0.0418708 0.181491
0.707256 0.0425574 0.185092
0.707485 0.0429694 0.188083
0.706981 0.042771 0.187335
0.70663 0.0422522 0.184497
0.70808 0.0430762 0.189639
0.707118 0.0423133 0.184817
0.70631 0.0412451 0.177874
0.704295 0.0397803 0.168505
0.701183 0.0385748 0.157427
0.019379 0.120027 0.0295872
0.0193332 0.11809 0.028809
0.0193484 0.115877 0.0280766
0.0194247 0.114336 0.0280919
0.019501 0.112093 0.0283513
0.0251469 0.110842 0.0284123
0.0382696 0.109361 0.0318761
0.0852216 0.105882 0.0297398
0.115694 0.103914 0.0250858
0.172061 0.100252 0.0249485
0.236454 0.0721599 0.0215457
0.29366 0.0479286 0.0184939
0.341238 0.0415656 0.0176699
0.393835 0.0369726 0.0168612
0.450156 0.0338598 0.0226902
0.48835 0.0226444 0.0267643
0.531579 0.014786 0.0328069
0.578332 0.0178073 0.0547799
0.636454 0.0250858 0.0863355
0.68867 0.0354467 0.123873
0.692897 0.036408 0.129137
0.696498 0.0375982 0.141405
0.699351 0.0388647 0.150744
0.698878 0.0387732 0.148684
0.698817 0.0388037 0.149752
0.699031 0.0388342 0.150225
0.698863 0.0388037 0.148974
0.70161 0.0393225 0.155825
0.701305 0.0390936 0.153536
0.699748 0.0387732 0.149554
0.697276 0.0376135 0.141909
0.695552 0.0366827 0.133486
0.69279 0.0353399 0.125063
0.0190433 0.154742 0.0315709
0.0188296 0.152987 0.0295262
0.018616 0.151537 0.0274815
0.0186465 0.149462 0.0274815
0.0188449 0.146197 0.0278019
0.0195163 0.143984 0.0284886
0.0303502 0.144076 0.0292058
0.0515602 0.141283 0.0336461
0.113008 0.136889 0.0275273
0.158053 0.132479 0.024979
0.227649 0.134813 0.0258183
0.301564 0.0939498 0.023743
0.35314 0.0667124 0.0196384
0.403037 0.0517586 0.0185092
0.450126 0.0476997 0.0181125
0.511131 0.0450294 0.0242924
0.559701 0.03122 0.0348516
0.585595 0.0183719 0.0487221
0.633753 0.0240482 0.0763867
0.680735 0.033051 0.110842
0.691615 0.0357671 0.121553
0.692775 0.0360876 0.1243
0.69163 0.0358129 0.122148
0.691356 0.0357061 0.121508
0.693263 0.0362402 0.126284
0.69482 0.03682 0.129305
0.695628 0.0369879 0.130571
0.695415 0.0368811 0.129
0.693736 0.0361944 0.124178
0.691707 0.0355077 0.119081
0.692119 0.0354314 0.119799
0.692912 0.0353704 0.120516
0.693828 0.0353552 0.121981
0.0183261 0.201129 0.0308385
0.0184787 0.199771 0.0288853
0.0182498 0.197955 0.0267796
0.018265 0.196109 0.0268711
0.0182956 0.193194 0.0265354
0.0184176 0.189792 0.0263981
0.018555 0.186633 0.0266423
0.0336156 0.189944 0.0285039
0.0720531 0.185946 0.0343633
0.150469 0.182269 0.0254673
0.216205 0.177508 0.0254368
0.292836 0.186053 0.0303655
0.370672 0.135286 0.0329747
0.420935 0.0997635 0.0260624
0.468467 0.0707256 0.0213626
0.513802 0.0656748 0.0218814
0.56936 0.0599527 0.0254063
0.633906 0.050309 0.0481727
0.658625 0.0267033 0.0598917
0.681071 0.0327459 0.101015
0.696635 0.0369116 0.117784
0.692332 0.0355077 0.116152
0.691844 0.0355077 0.116823
0.691875 0.0355077 0.116976
0.692088 0.035523 0.117174
0.695125 0.0366522 0.118257
0.692271 0.0353857 0.115068
0.692576 0.0354925 0.116289
0.692821 0.0354772 0.116075
0.693202 0.0354772 0.116014
0.693721 0.0354162 0.116182
0.694682 0.035462 0.117357
0.703822 0.0365148 0.11516
0.0216983 0.264088 0.04065
0.0212711 0.262837 0.0385748
0.0205386 0.260624 0.0361791
0.0198672 0.258869 0.0358282
0.0196078 0.256977 0.0357214
0.018967 0.252598 0.0349584
0.0191196 0.24889 0.0343175
0.0289769 0.246204 0.0346685
0.0519265 0.251759 0.0386816
0.104295 0.245106 0.0436103
0.207614 0.237934 0.0268559
0.282963 0.234424 0.0298161
0.357733 0.243809 0.0343633
0.430243 0.199161 0.0388647
0.491264 0.150011 0.03888
0.53904 0.107698 0.0336919
0.586923 0.0954757 0.0336461
0.630732 0.0864271 0.0345159
0.692668 0.0786297 0.0583505
0.721523 0.0477607 0.0762036
0.721843 0.0409705 0.10605
0.710689 0.0378576 0.105165
0.711025 0.0381476 0.107942
0.711864 0.0384527 0.110658
0.710445 0.0391394 0.116182
0.706935 0.0397955 0.11957
0.699489 0.0376898 0.115145
0.698039 0.0360571 0.108598
0.705608 0.0370794 0.105272
0.712703 0.0377813 0.1019
0.720623 0.0387427 0.0992447
0.72668 0.0396582 0.0995193
0.734524 0.040589 0.0987411
0.0318914 0.326711 0.0517739
0.0310674 0.325414 0.0488899
0.0301518 0.324041 0.0459449
0.0294957 0.322942 0.0450446
0.0295872 0.321996 0.0453498
0.0297398 0.321202 0.0455329
0.0280156 0.314519 0.0437171
0.0305791 0.310994 0.0433204
0.044892 0.309743 0.0442054
0.0759594 0.313985 0.0476081
0.146242 0.303059 0.052903
0.268193 0.297932 0.0283665
0.353307 0.297719 0.0351263
0.419272 0.308385 0.0396582
0.48954 0.27985 0.0464027
0.550408 0.217929 0.0490272
0.603464 0.160372 0.0446326
0.65449 0.132448 0.0445563
0.692485 0.119707 0.0474708
0.729702 0.103059 0.0564126
0.756191 0.0856489 0.0834058
0.751003 0.0736858 0.0826581
0.746319 0.063386 0.0818799
0.740291 0.0513008 0.082536
0.735225 0.0412757 0.0837415
0.735775 0.0415961 0.0850843
0.736446 0.0419318 0.0836652
0.738994 0.0449531 0.08336
0.745083 0.0470588 0.0846418
0.749081 0.0567788 0.0865187
0.750912 0.069398 0.0861067
0.753277 0.0824292 0.0851759
0.753826 0.0869459 0.0818341
0.0452277 0.391623 0.0665141
0.0442512 0.391333 0.0641184
0.0432746 0.390021 0.0614786
0.0428321 0.388952 0.0584878
0.0424048 0.388128 0.0581369
0.0421149 0.386969 0.0578622
0.0413367 0.384314 0.0569467
0.0404059 0.378332 0.056199
0.0455634 0.374487 0.0554208
0.0706645 0.373129 0.0559243
0.1066 0.374685 0.0584268
0.210117 0.357641 0.0622721
0.333837 0.358389 0.0333104
0.422187 0.362753 0.0433509
0.479698 0.373358 0.0487678
0.547433 0.367208 0.0564736
0.607019 0.301686 0.0666209
0.659648 0.244724 0.0585946
0.706264 0.186603 0.0551614
0.742992 0.163378 0.0621805
0.76257 0.142184 0.0645914
0.762463 0.133089 0.064332
0.763226 0.127886 0.0673838
0.764935 0.122332 0.0753643
0.764584 0.118578 0.0790112
0.762417 0.114382 0.0795911
0.76112 0.111116 0.0802319
0.75967 0.111528 0.0784466
0.758465 0.113497 0.0741894
0.75729 0.11548 0.0692454
0.756298 0.117159 0.0634928
0.757961 0.125002 0.0618448
0.762402 0.132219 0.064271
0.0635996 0.455833 0.0851759
0.0623331 0.455116 0.0817578
0.0614786 0.454414 0.0793469
0.0609445 0.453285 0.0758984
0.0601511 0.451728 0.0733806
0.0598764 0.451484 0.0733349
0.0593881 0.450187 0.0729534
0.0578927 0.446296 0.0717937
0.0570382 0.441321 0.071107
0.0692454 0.436454 0.0696422
0.104158 0.436042 0.0700999
0.155352 0.432502 0.0728466
0.285389 0.412512 0.0715801
0.396078 0.416968 0.0454871
0.488609 0.427405 0.0560311
0.539834 0.43798 0.0626993
0.607523 0.451728 0.0721904
0.667582 0.397864 0.0827802
0.712749 0.340734 0.0911727
0.748425 0.274449 0.0746624
0.773495 0.231739 0.0725719
0.779217 0.207797 0.0721904
0.777951 0.196216 0.0723583
0.775647 0.187991 0.0715496
0.775311 0.18265 0.0716106
0.774823 0.177218 0.0712444
0.774731 0.173739 0.0711833
0.774731 0.170459 0.0713054
0.77467 0.168246 0.0713054
0.775143 0.17084 0.0717021
0.775753 0.175692 0.0715801
0.777417 0.181888 0.0720684
0.778836 0.187747 0.0721447
0.087129 0.52076 0.106752
0.0861372 0.520577 0.1037
0.0850233 0.519371 0.100893
0.0840925 0.518242 0.0973068
0.0830701 0.516503 0.0924849
0.0824445 0.51577 0.0920729
0.0816815 0.514916 0.0914321
0.0815137 0.513954 0.0912795
0.0793469 0.507317 0.0892653
0.0813153 0.504143 0.088304
0.101076 0.497185 0.0859541
0.144305 0.496956 0.0865644
0.226047 0.485115 0.0890211
0.356008 0.470695 0.0783246
0.458274 0.477699 0.0626535
0.552529 0.491188 0.0711986
0.605112 0.503563 0.0804608
0.671046 0.523705 0.0903182
0.72604 0.496727 0.101411
0.759686 0.4448 0.111894
0.779583 0.393408 0.118044
0.792874 0.336202 0.101915
0.791913 0.318837 0.0967727
0.790814 0.310872 0.0941787
0.790356 0.306065 0.0931411
0.789822 0.304143 0.0919814
0.789639 0.302403 0.0914931
0.789746 0.299504 0.0909438
0.788968 0.295583 0.089128
0.788968 0.290715 0.0880446
0.787976 0.282811 0.0865492
0.78883 0.290364 0.0878614
0.789868 0.300603 0.0909895
0.113375 0.588525 0.131685
0.112322 0.588388 0.129015
0.111177 0.58764 0.125704
0.110399 0.58703 0.121782
0.109804 0.585275 0.117708
0.109346 0.584054 0.114534
0.108995 0.583169 0.114214
0.108553 0.581888 0.113634
0.107973 0.579812 0.112947
0.104982 0.571847 0.110277
0.112917 0.569207 0.109407
0.141817 0.559503 0.103868
0.210513 0.555001 0.103319
0.301183 0.539727 0.106157
0.428397 0.531441 0.0837415
0.522347 0.542306 0.0812085
0.619181 0.557839 0.0882582
0.670527 0.571984 0.0978866
0.729137 0.590265 0.107439
0.775387 0.593805 0.115419
0.800031 0.554788 0.129809
0.810697 0.507088 0.135149
0.81001 0.491447 0.13489
0.807828 0.48368 0.132937
0.806332 0.47805 0.132189
0.805447 0.473945 0.132158
0.805066 0.470436 0.13254
0.804211 0.465583 0.132525
0.803891 0.460609 0.132906
0.802106 0.453529 0.132616
0.80087 0.444144 0.133059
0.798825 0.432547 0.132891
0.798505 0.425177 0.133227
0.141817 0.663142 0.161318
0.141436 0.663523 0.158358
0.140124 0.662867 0.154788
0.138613 0.661707 0.150317
0.138155 0.661021 0.145525
0.137804 0.659602 0.140856
0.137224 0.658396 0.140551
0.136965 0.657465 0.140398
0.136416 0.655772 0.139971
0.134508 0.650126 0.137346
0.133211 0.644953 0.134905
0.148486 0.639109 0.131777
0.201343 0.626368 0.121981
0.282597 0.62063 0.123644
0.37818 0.600946 0.125795
0.502144 0.598856 0.0932479
0.59202 0.616022 0.100237
0.683879 0.630365 0.109468
0.733333 0.644282 0.120119
0.774411 0.658747 0.128817
0.809934 0.67274 0.138903
0.829557 0.656779 0.13875
0.834714 0.642145 0.145495
0.834791 0.638392 0.146853
0.833555 0.635904 0.146395
0.8327 0.631342 0.146441
0.832181 0.627192 0.146075
0.832074 0.622766 0.146212
0.831495 0.618647 0.145632
0.830594 0.613519 0.144991
0.829389 0.604181 0.14461
0.827131 0.589731 0.143771
0.824399 0.569467 0.143175
0.172808 0.735988 0.192782
0.17142 0.73611 0.189319
0.170565 0.736019 0.185031
0.169635 0.735744 0.180667
0.1691 0.735088 0.175616
0.169162 0.73431 0.170336
0.168719 0.733837 0.170108
0.168002 0.732738 0.169574
0.167178 0.730739 0.16849
0.166247 0.728756 0.167498
0.163027 0.720897 0.164477
0.167117 0.719402 0.163272
0.200275 0.707637 0.153109
0.275929 0.695201 0.145632
0.364675 0.68809 0.150362
0.460761 0.663752 0.152316
0.583734 0.670344 0.105928
0.662058 0.69102 0.120378
0.741207 0.7028 0.135119
0.782483 0.715709 0.149264
0.8094 0.724681 0.157061
0.831052 0.732067 0.16376
0.84419 0.734997 0.16759
0.84567 0.733867 0.167239
0.84535 0.732448 0.166094
0.844999 0.729366 0.16492
0.844892 0.725917 0.163714
0.844602 0.72311 0.162112
0.844465 0.719676 0.160494
0.843778 0.715587 0.158389
0.844022 0.710674 0.156756
0.843626 0.703563 0.154543
0.842435 0.693492 0.149645
0.206943 0.793439 0.220676
0.20618 0.793225 0.216373
0.205005 0.793332 0.213519
0.20444 0.793194 0.208301
0.203708 0.792966 0.204654
0.203037 0.792248 0.202518
0.202487 0.791562 0.202014
0.201862 0.790936 0.20145
0.201419 0.790555 0.201053
0.200992 0.78967 0.200641
0.198917 0.786221 0.19855
0.195712 0.77966 0.194339
0.214435 0.775586 0.189746
0.266361 0.760952 0.173297
0.365957 0.750408 0.174777
0.453788 0.73904 0.1823
0.548302 0.721767 0.174914
0.660822 0.733806 0.128649
0.725063 0.752743 0.151553
0.784619 0.7626 0.16733
0.817777 0.771054 0.182483
0.833417 0.774975 0.191638
0.84332 0.776394 0.197375
0.847257 0.775937 0.196262
0.848035 0.774823 0.194965
0.848035 0.773999 0.193637
0.847791 0.772686 0.192248
0.847715 0.771603 0.191028
0.847395 0.769467 0.189151
0.847745 0.767605 0.18822
0.84744 0.765087 0.186069
0.847562 0.761166 0.183658
0.846906 0.755367 0.179675
0.229847 0.828519 0.239216
0.229374 0.82826 0.235126
0.22887 0.828412 0.231525
0.228122 0.828458 0.228122
0.227634 0.828565 0.225605
0.227405 0.828687 0.225559
0.2271 0.82858 0.22533
0.226993 0.828565 0.225269
0.226612 0.828153 0.224842
0.226337 0.82771 0.224582
0.225452 0.826108 0.223789
0.223621 0.82266 0.22208
0.231037 0.818692 0.21828
0.274815 0.809171 0.206943
0.366934 0.791867 0.198718
0.461616 0.781888 0.206668
0.542885 0.769985 0.215534
0.631662 0.768902 0.182193
0.726833 0.781842 0.163012
0.77084 0.794629 0.194614
0.813733 0.800717 0.200534
0.837476 0.805966 0.209644
0.846326 0.808011 0.212116
0.85034 0.808225 0.213535
0.850767 0.807065 0.213275
0.850797 0.806287 0.213169
0.850462 0.80528 0.212482
0.850477 0.804639 0.211978
0.850553 0.803433 0.211322
0.850095 0.801541 0.209918
0.849729 0.799146 0.208652
0.849653 0.796582 0.207553
0.849271 0.79202 0.206149
0.238178 0.840391 0.245075
0.237995 0.840497 0.241932
0.237522 0.84062 0.239307
0.237064 0.840787 0.234348
0.236637 0.841199 0.234424
0.236286 0.84152 0.234607
0.236118 0.841688 0.234592
0.236042 0.841733 0.234562
0.236027 0.841749 0.234562
0.236042 0.841733 0.234577
0.236072 0.841703 0.234577
0.235828 0.841184 0.234302
0.241138 0.838361 0.231861
0.277348 0.831037 0.223072
0.358144 0.815946 0.213016
0.462699 0.801678 0.217899
0.543511 0.795102 0.229862
0.616953 0.791608 0.227481
0.708797 0.80322 0.191501
0.772534 0.812222 0.203067
0.799985 0.818296 0.228946
0.829602 0.822782 0.232654
0.84593 0.826703 0.232471
0.850141 0.827359 0.235187
0.850538 0.827054 0.235904
0.850614 0.826719 0.235676
0.850477 0.8262 0.234409
0.850492 0.82565 0.232776
0.850736 0.825086 0.231128
0.851072 0.824399 0.22977
0.851484 0.823621 0.227878
0.851789 0.821759 0.223575
0.851698 0.818738 0.219455
0.239078 0.839857 0.248829
0.239048 0.839765 0.24625
0.238712 0.839857 0.24181
0.238132 0.839872 0.237217
0.237552 0.840223 0.235096
0.237232 0.840497 0.233845
0.237125 0.840696 0.233967
0.237064 0.840742 0.233982
0.237064 0.840742 0.233982
0.237095 0.840726 0.233982
0.23714 0.840696 0.233967
0.237201 0.840589 0.233921
0.241764 0.839628 0.232944
0.274891 0.832273 0.224857
0.352438 0.819425 0.214725
0.457816 0.804822 0.219226
0.542473 0.798276 0.231296
0.614115 0.798657 0.239612
0.693065 0.811124 0.213519
0.764126 0.821576 0.216144
0.79884 0.825864 0.249317
0.817639 0.828443 0.265782
0.835508 0.830472 0.273808
0.842496 0.831601 0.279957
0.842756 0.831296 0.283803
0.843 0.831327 0.282246
0.843565 0.831403 0.2795
0.843992 0.83151 0.277134
0.844556 0.831647 0.273854
0.845335 0.8318 0.270085
0.84625 0.832074 0.264454
0.847395 0.831952 0.259098
0.848142 0.829969 0.252934
0.237873 0.841535 0.263981
0.237797 0.841062 0.259342
0.237644 0.840879 0.254093
0.237629 0.840986 0.248127
0.237446 0.840879 0.241474
0.237217 0.840681 0.23566
0.237095 0.840726 0.233982
0.237034 0.840787 0.234012
0.237049 0.840787 0.234012
0.237064 0.840757 0.233997
0.237064 0.840742 0.233982
0.237125 0.840711 0.233967
0.239811 0.840085 0.233158
0.269627 0.833539 0.2262
0.344656 0.820768 0.214908
0.444648 0.806256 0.21799
0.524224 0.800137 0.229099
0.594263 0.797406 0.243351
0.674601 0.811444 0.214664
0.763638 0.831739 0.186313
0.809827 0.837949 0.232151
0.821439 0.832654 0.275349
0.826017 0.829236 0.309758
0.830655 0.827955 0.335119
0.831617 0.827207 0.350927
0.831907 0.827207 0.35314
0.832242 0.827375 0.350607
0.832609 0.827649 0.34728
0.833143 0.828107 0.343526
0.8336 0.828443 0.339025
0.834409 0.828794 0.331823
0.835874 0.829114 0.322576
0.837949 0.829725 0.31075
0.23798 0.844312 0.282521
0.237797 0.843412 0.275746
0.237278 0.842695 0.268269
0.23682 0.842115 0.260166
0.236606 0.841596 0.250523
0.236973 0.841245 0.2421
0.237034 0.840818 0.234745
0.237018 0.840833 0.234028
0.237003 0.840833 0.234028
0.237034 0.840803 0.234028
0.237049 0.840787 0.233997
0.237049 0.840772 0.234012
0.237354 0.840696 0.23389
0.261784 0.835325 0.228122
0.328801 0.822995 0.21471
0.429862 0.80882 0.217227
0.515236 0.800687 0.22742
0.593286 0.797604 0.243397
0.669993 0.810513 0.216052
0.757458 0.830014 0.187778
0.805417 0.838148 0.23151
0.819547 0.830976 0.28777
0.824643 0.827756 0.323674
0.824613 0.825498 0.365667
0.8271 0.825696 0.385199
0.827405 0.825635 0.395056
0.827344 0.825605 0.396719
0.827314 0.82562 0.395987
0.827298 0.825635 0.393957
0.827344 0.825696 0.391272
0.827482 0.825772 0.387411
0.828 0.825971 0.382223
0.829053 0.826413 0.371603
0.23566 0.847517 0.29987
0.236484 0.846754 0.293797
0.236973 0.84622 0.28571
0.236423 0.84477 0.274403
0.235966 0.843107 0.262074
0.236133 0.841871 0.249851
0.236866 0.841215 0.239353
0.236896 0.84094 0.234119
0.236973 0.840864 0.234058
0.236973 0.840848 0.234028
0.236988 0.840848 0.234028
0.237003 0.840833 0.234043
0.236988 0.840848 0.234043
0.256062 0.836561 0.229923
0.317189 0.825116 0.215534
0.418875 0.810651 0.216297
0.50457 0.80119 0.225177
0.583001 0.797528 0.240711
0.658839 0.808087 0.220951
0.74905 0.828611 0.185351
0.801114 0.838773 0.22002
0.817441 0.831296 0.283574
0.824292 0.828336 0.318837
0.824384 0.825788 0.358343
0.8271 0.825803 0.383932
0.827451 0.825727 0.397986
0.827268 0.825727 0.401114
0.827222 0.825727 0.401114
0.827176 0.825727 0.401099
0.827131 0.825727 0.401083
0.8271 0.825742 0.401068
0.827085 0.825742 0.401083
0.827085 0.825727 0.401099
0.234073 0.850904 0.314137
0.234302 0.849302 0.306752
0.234958 0.848188 0.298497
0.236088 0.847181 0.288502
0.236103 0.845289 0.274235
0.235615 0.843061 0.258686
0.236194 0.841856 0.245274
0.236789 0.841154 0.235523
0.236789 0.841047 0.234272
0.23682 0.841016 0.234211
0.236851 0.840986 0.23418
0.236866 0.84097 0.234165
0.236851 0.840986 0.23418
0.25037 0.838117 0.231388
0.306111 0.826719 0.21709
0.406683 0.812131 0.215412
0.494102 0.802045 0.223438
0.573129 0.797925 0.238651
0.648157 0.806394 0.226108
0.739895 0.826947 0.185641
0.79588 0.838026 0.211246
0.815503 0.831678 0.277592
0.823941 0.828824 0.312123
0.824903 0.826322 0.349645
0.827558 0.826047 0.378592
0.827573 0.825788 0.396338
0.827314 0.825757 0.400977
0.827268 0.825757 0.400961
0.827237 0.825757 0.400946
0.827192 0.825772 0.400946
0.827161 0.825788 0.400931
0.827161 0.825788 0.400931
0.827176 0.825772 0.400946
0.234287 0.853712 0.327474
0.233997 0.852125 0.319234
0.233997 0.850187 0.310109
0.234653 0.848569 0.299062
0.235828 0.847303 0.286473
0.235569 0.84477 0.268162
0.235645 0.84242 0.250919
0.236515 0.841428 0.237446
0.236667 0.841169 0.234409
0.236713 0.841138 0.234348
0.236744 0.841093 0.234302
