bundles/resolve-cinematic-luts/Phantom Luts/Canon Film LUT/C-Log 2/VisionTeal Canon CL2.cube
TITLE "Generated by Resolve"
LUT_3D_SIZE 9
0.0223392 0.0239872 0.0232853
0.027039 0.027039 0.0280156
0.1234 0.026154 0.0220493
0.323537 0.0148928 0.0187686
0.537102 0.0159915 0.0749065
0.714687 0.0482643 0.238163
0.714717 0.0517433 0.272328
0.71545 0.0527657 0.279301
0.717159 0.0507973 0.271977
0.0218051 0.0491646 0.0258335
0.0253758 0.0438239 0.0286259
0.12958 0.0320439 0.0217594
0.324651 0.022858 0.0180362
0.532631 0.0150759 0.0537423
0.709102 0.0437018 0.201389
0.714717 0.0472267 0.22829
0.71548 0.048249 0.2383
0.71339 0.0442206 0.21799
0.0190433 0.154742 0.0315709
0.0188449 0.146197 0.0278019
0.113008 0.136889 0.0275273
0.35314 0.0667124 0.0196384
0.559701 0.03122 0.0348516
0.691615 0.0357671 0.121553
0.693263 0.0362402 0.126284
0.693736 0.0361944 0.124178
0.693828 0.0353552 0.121981
0.0452277 0.391623 0.0665141
0.0424048 0.388128 0.0581369
0.0455634 0.374487 0.0554208
0.333837 0.358389 0.0333104
0.607019 0.301686 0.0666209
0.76257 0.142184 0.0645914
0.764584 0.118578 0.0790112
0.758465 0.113497 0.0741894
0.762402 0.132219 0.064271
0.141817 0.663142 0.161318
0.138155 0.661021 0.145525
0.136416 0.655772 0.139971
0.201343 0.626368 0.121981
0.59202 0.616022 0.100237
0.809934 0.67274 0.138903
0.833555 0.635904 0.146395
0.831495 0.618647 0.145632
0.824399 0.569467 0.143175
0.238178 0.840391 0.245075
0.236637 0.841199 0.234424
0.236027 0.841749 0.234562
0.241138 0.838361 0.231861
0.543511 0.795102 0.229862
0.799985 0.818296 0.228946
0.850538 0.827054 0.235904
0.850736 0.825086 0.231128
0.851698 0.818738 0.219455
0.23566 0.847517 0.29987
0.235966 0.843107 0.262074
0.236973 0.840864 0.234058
0.236988 0.840848 0.234043
0.50457 0.80119 0.225177
0.801114 0.838773 0.22002
0.8271 0.825803 0.383932
0.827176 0.825727 0.401099
0.827085 0.825727 0.401099
0.232807 0.856062 0.345785
0.235218 0.848157 0.302693
0.238285 0.839292 0.234775
0.238514 0.838941 0.23357
0.465324 0.8038 0.219837
0.77557 0.834073 0.190234
0.825666 0.825681 0.361944
0.827329 0.82565 0.401404
0.827146 0.825727 0.401114
0.230671 0.862165 0.369268
0.233661 0.855039 0.331823
0.236316 0.841917 0.254597
0.238148 0.839384 0.233646
0.357076 0.818112 0.214389
0.670527 0.810712 0.215869
0.82327 0.828351 0.316396
0.827283 0.825757 0.400961
0.827039 0.825803 0.400885
0.0222934 0.0304723 0.0419013
0.030045 0.0273899 0.050248
0.143954 0.0222171 0.0590677
0.357412 0.0137636 0.0618448
0.573983 0.0223392 0.144396
0.716655 0.0528725 0.284688
0.715877 0.0552987 0.30454
0.716197 0.0556649 0.308568
0.718517 0.0535134 0.293233
0.0222477 0.0434424 0.0380865
0.0222477 0.0410773 0.0392615
0.136858 0.0252537 0.0324559
0.326131 0.013077 0.0300145
0.537804 0.0171969 0.089189
0.715557 0.048188 0.247929
0.716304 0.0506447 0.269245
0.716854 0.0503243 0.267613
0.717769 0.0471046 0.239612
0.0190738 0.151263 0.0439307
0.0190585 0.142382 0.0326543
0.105745 0.129519 0.0292973
0.349889 0.0506905 0.0185702
0.543038 0.0219272 0.0331121
0.694423 0.0366369 0.134844
0.700099 0.0386511 0.154192
0.696574 0.0371405 0.140398
0.695521 0.0357824 0.129397
0.0419623 0.389838 0.0829175
0.0404059 0.382193 0.0660258
0.0388952 0.368215 0.0545205
0.327413 0.352972 0.032929
0.607385 0.276814 0.06421
0.760571 0.130632 0.0640421
0.761639 0.107927 0.0823835
0.755306 0.108415 0.0686656
0.764889 0.132342 0.0648508
0.136599 0.661311 0.186908
0.13492 0.656962 0.160616
0.134249 0.648875 0.13698
0.183963 0.624613 0.122698
0.586496 0.611276 0.0971542
0.809216 0.668528 0.137163
0.831556 0.61883 0.14609
0.828794 0.597681 0.143755
0.821134 0.547585 0.140871
0.23682 0.844144 0.273869
0.235569 0.842222 0.247883
0.236011 0.841764 0.234562
0.237095 0.838422 0.232029
0.532311 0.795377 0.227726
0.797925 0.816938 0.224887
0.850797 0.825772 0.230732
0.851591 0.823331 0.226841
0.851591 0.815396 0.216953
0.233555 0.855299 0.34316
0.234684 0.848585 0.300572
0.236942 0.840909 0.234394
0.237018 0.840818 0.234028
0.490318 0.802441 0.223087
0.796704 0.838102 0.211414
0.827085 0.825879 0.381903
0.827146 0.825727 0.401099
0.827054 0.825711 0.401068
0.227955 0.86595 0.390951
0.232776 0.856046 0.346456
0.237949 0.840787 0.249882
0.238514 0.838926 0.233585
0.449531 0.804791 0.217899
0.766873 0.832334 0.185931
0.825284 0.825803 0.357473
0.827405 0.825681 0.401236
0.827207 0.825757 0.400992
0.224247 0.871412 0.407156
0.230991 0.861845 0.369863
0.236606 0.846616 0.285344
0.238163 0.839353 0.233661
0.328984 0.821866 0.214359
0.657679 0.807752 0.221515
0.822766 0.828733 0.311742
0.827268 0.825757 0.400961
0.827039 0.825803 0.400885
0.0209964 0.0426642 0.125032
0.0221103 0.0411688 0.142168
0.128222 0.0231022 0.146151
0.347799 0.0126345 0.1729
0.576104 0.0314946 0.247608
0.714397 0.0627146 0.352438
0.713375 0.065568 0.368582
0.713603 0.0659648 0.371069
0.715984 0.0633555 0.360372
0.0213016 0.0486763 0.100755
0.0210575 0.0425727 0.120302
0.110216 0.023682 0.129793
0.335973 0.0145113 0.143587
0.57966 0.0288548 0.219562
0.71606 0.0597086 0.332799
0.715434 0.0618448 0.346792
0.715694 0.0617838 0.347021
0.717906 0.0583352 0.327413
0.019791 0.136538 0.103731
0.0196689 0.130709 0.102251
0.114382 0.138064 0.129122
0.390158 0.0435645 0.0827649
0.549462 0.018265 0.102098
0.715648 0.0480964 0.243503
0.716487 0.0492561 0.256703
0.716152 0.048188 0.244953
0.710002 0.0423438 0.19559
0.0208591 0.390875 0.135958
0.0261387 0.382162 0.119722
0.0347906 0.35668 0.0657206
0.311406 0.337713 0.033051
0.605097 0.214099 0.0560922
0.766522 0.0962997 0.0921492
0.752697 0.0825666 0.0830854
0.757061 0.0883192 0.0777752
0.767269 0.121843 0.0805219
0.12311 0.661494 0.258488
0.122667 0.654597 0.233707
0.126345 0.637003 0.159594
0.141329 0.619806 0.124727
0.576196 0.599695 0.0955367
0.80856 0.646555 0.131182
0.82565 0.575677 0.143267
0.82092 0.54876 0.140871
0.818021 0.527947 0.139178
0.230884 0.859663 0.371283
0.231785 0.855207 0.339773
0.234134 0.842237 0.255894
0.233524 0.837812 0.231815
0.505974 0.795911 0.222675
0.793057 0.812802 0.218067
0.851713 0.821729 0.22388
0.85153 0.81796 0.220096
0.850675 0.807675 0.213046
0.210422 0.882933 0.453422
0.222797 0.872358 0.413062
0.234058 0.849165 0.303639
0.237034 0.840803 0.234012
0.455116 0.805585 0.219257
0.785229 0.836515 0.196292
0.826993 0.825833 0.375433
0.8271 0.825696 0.401083
0.827039 0.825696 0.400885
0.158785 0.898863 0.488365
0.206943 0.885328 0.457908
0.232242 0.856703 0.350301
0.238483 0.838941 0.233631
0.398169 0.811078 0.213947
0.746166 0.827909 0.183871
0.824872 0.826276 0.347631
0.827497 0.825711 0.401053
0.827237 0.825757 0.400946
0.157336 0.898314 0.48249
0.20647 0.885786 0.458396
0.2309 0.862287 0.373693
0.238178 0.839323 0.233661
0.284642 0.829602 0.222568
0.635935 0.803021 0.229969
0.821836 0.829282 0.303334
0.827298 0.825757 0.400656
0.827024 0.825803 0.400885
0.0197604 0.0726024 0.304173
0.0194705 0.0679789 0.326894
0.0971847 0.0333715 0.346075
0.326101 0.0149233 0.332677
0.576135 0.0273594 0.421897
0.723415 0.0573892 0.504036
0.722255 0.0578927 0.497429
0.720287 0.0581674 0.485664
0.718273 0.0587167 0.465248
0.0197757 0.0739452 0.274357
0.0195926 0.0715648 0.298528
0.0746166 0.0487526 0.341451
0.314733 0.0149844 0.322744
0.567773 0.0251316 0.400702
0.719997 0.0581674 0.483894
0.718578 0.0585946 0.475349
0.718242 0.0587778 0.471397
0.716426 0.0597086 0.447852
0.0191653 0.143862 0.265553
0.0192569 0.135576 0.27657
0.019379 0.108553 0.340566
0.294911 0.0202335 0.303471
0.543145 0.0233921 0.344137
0.713176 0.0614176 0.432197
0.7131 0.061326 0.431952
0.712047 0.0618448 0.420294
0.714107 0.0673686 0.390463
0.019501 0.371832 0.296651
0.0193179 0.366796 0.294652
0.0195315 0.351492 0.282185
0.373861 0.37908 0.348119
0.665125 0.222019 0.306905
0.755428 0.0923171 0.358526
0.742367 0.0736706 0.327932
0.736568 0.0621347 0.292836
0.756786 0.0761578 0.245563
0.0800183 0.667475 0.406592
0.0725109 0.663798 0.393683
0.0673838 0.651179 0.349554
0.109178 0.598611 0.175525
0.55317 0.57351 0.147997
0.798474 0.55697 0.21149
0.805097 0.471092 0.217151
0.801465 0.440513 0.194949
0.803464 0.450416 0.153262
0.158053 0.90193 0.546471
0.151873 0.901305 0.529488
0.16112 0.884657 0.468055
0.226276 0.835431 0.2766
0.415183 0.801328 0.210986
0.781765 0.804028 0.206592
0.851041 0.810391 0.214679
0.85098 0.80351 0.211398
0.848844 0.789502 0.204776
0.173068 0.916487 0.613001
0.16434 0.916884 0.593576
0.155077 0.911009 0.535393
0.233753 0.851347 0.314702
0.320439 0.824414 0.215503
0.74583 0.828168 0.184756
0.825238 0.825788 0.358236
0.827604 0.825788 0.384924
0.830045 0.826841 0.363668
0.176974 0.919219 0.637247
0.169574 0.918288 0.615885
0.157824 0.914427 0.562585
0.231327 0.859861 0.363638
0.263111 0.834241 0.228626
0.675776 0.811368 0.214847
0.823804 0.827405 0.323156
0.827207 0.825589 0.401755
0.827176 0.825757 0.40116
0.169238 0.918486 0.616083
0.16408 0.917052 0.595758
0.155489 0.913466 0.549401
0.228977 0.864088 0.384161
0.239521 0.839139 0.233722
0.59234 0.797116 0.243168
0.817014 0.831113 0.283742
0.827405 0.825727 0.395727
0.827024 0.825788 0.400977
0.0194247 0.122728 0.487633
0.0194095 0.116945 0.507164
0.0955215 0.104417 0.543038
0.33196 0.0372015 0.54078
0.573419 0.0473793 0.596231
0.748257 0.103441 0.706996
0.744793 0.0884108 0.729946
0.746059 0.0923476 0.724727
0.754711 0.0988937 0.665644
0.0194247 0.122942 0.461585
0.0192264 0.121767 0.485069
0.055375 0.108629 0.533532
0.31249 0.0361334 0.536553
0.56585 0.0461128 0.588296
0.748425 0.108522 0.697215
0.746029 0.0941939 0.72134
0.748394 0.102083 0.709438
0.748531 0.0858167 0.64268
0.0193942 0.147585 0.445441
0.0193484 0.134539 0.447028
0.0192874 0.117662 0.47866
0.24596 0.0379797 0.525826
0.539727 0.0401923 0.559167
0.755398 0.107637 0.675364
0.748669 0.114046 0.685466
0.753918 0.103685 0.668544
0.736645 0.0654917 0.601938
0.0202029 0.407874 0.518425
0.0198825 0.399649 0.522637
0.0199435 0.374609 0.529854
0.166323 0.314946 0.622263
0.572488 0.111376 0.57731
0.730861 0.0627909 0.589059
0.728786 0.0582895 0.573877
0.727718 0.0570077 0.554452
0.723201 0.0570993 0.502968
0.0498512 0.652522 0.576928
0.046891 0.648753 0.574334
0.0441901 0.638331 0.564767
0.0412451 0.614939 0.543359
0.629572 0.622522 0.594369
0.848447 0.526589 0.574182
0.846082 0.462959 0.562997
0.845075 0.448951 0.528817
0.843275 0.444846 0.445441
0.130282 0.9122 0.716655
0.128756 0.911086 0.709926
0.137331 0.901961 0.687388
0.160555 0.879316 0.627787
0.295659 0.816907 0.452155
0.751751 0.779721 0.417945
0.845518 0.771893 0.448539
0.849592 0.758724 0.451469
0.845411 0.735225 0.394903
0.118944 0.950927 0.765454
0.116609 0.950271 0.755718
0.131518 0.944015 0.733822
0.179599 0.924926 0.672267
0.233661 0.854307 0.327138
0.635676 0.804059 0.230503
0.824094 0.826795 0.335531
0.829435 0.825559 0.366537
0.835111 0.827573 0.322484
0.118029 0.953521 0.777584
0.116243 0.951888 0.764584
0.124651 0.946883 0.741512
0.173205 0.927596 0.681666
0.228702 0.864225 0.38201
0.559167 0.798993 0.236698
0.818463 0.830518 0.291356
0.826566 0.825574 0.404059
0.82678 0.825666 0.40354
0.118776 0.948699 0.750774
0.127825 0.945418 0.73901
0.145235 0.938262 0.717403
0.17879 0.92253 0.656825
0.224201 0.871397 0.408865
0.456092 0.806317 0.22034
0.797299 0.837949 0.216892
0.826093 0.825528 0.378103
0.826627 0.82562 0.402808
0.0195468 0.217365 0.664668
0.0195773 0.214237 0.688441
0.0872511 0.1953 0.733562
0.34818 0.0854353 0.756146
0.609979 0.110811 0.77731
0.746731 0.100603 0.813169
0.750515 0.10959 0.825437
0.751705 0.111315 0.828367
0.751629 0.111315 0.828229
0.0196536 0.216434 0.641627
0.0196994 0.215763 0.662409
0.03682 0.201572 0.717021
0.320974 0.0855421 0.753613
0.600122 0.107332 0.773495
0.745464 0.0985885 0.809812
0.749783 0.107774 0.82295
0.751034 0.110857 0.827314
0.750591 0.109529 0.825467
0.0193027 0.23357 0.633082
0.01944 0.215671 0.623987
0.0194247 0.206592 0.649912
0.255802 0.123552 0.7476
0.569314 0.0973678 0.760708
0.743084 0.0922103 0.79968
0.74789 0.102617 0.815335
0.749294 0.106538 0.821332
0.74612 0.0974746 0.808499
0.0200809 0.418051 0.696193
0.019852 0.405875 0.695857
0.0201724 0.36849 0.689982
0.0196689 0.282383 0.732418
0.49601 0.0871138 0.741329
0.730114 0.0863966 0.770626
0.743191 0.0905165 0.784344
0.742702 0.0908522 0.789532
0.745541 0.0886091 0.769604
0.0213016 0.696254 0.751934
0.0209354 0.692393 0.752117
0.0210575 0.683497 0.753338
0.0212253 0.655009 0.758083
0.510506 0.571191 0.82855
0.782254 0.400061 0.780041
0.814069 0.325383 0.782559
0.806287 0.285954 0.765667
0.798413 0.212192 0.724239
0.140856 0.906218 0.840543
0.138033 0.904463 0.838514
0.135134 0.897124 0.832181
0.12871 0.880903 0.817838
0.241596 0.838026 0.780331
0.803998 0.809781 0.78822
0.917647 0.758892 0.776867
0.915496 0.730755 0.767956
0.915389 0.708782 0.715663
0.140719 0.962051 0.858
0.133959 0.96289 0.853651
0.128191 0.962722 0.845411
0.116426 0.961852 0.826642
0.114168 0.951095 0.767987
0.656397 0.873686 0.703151
0.858213 0.882445 0.743191
0.893172 0.87982 0.748806
0.885893 0.863935 0.714656
0.147585 0.961975 0.863951
0.139025 0.963241 0.860349
0.131472 0.962768 0.850492
0.118303 0.962066 0.829236
0.115465 0.95285 0.766674
0.476265 0.870588 0.620539
0.789868 0.848447 0.593271
0.882338 0.89192 0.740963
0.874922 0.88426 0.718029
0.134157 0.962203 0.851209
0.128542 0.962554 0.84506
0.121767 0.962158 0.835081
0.11249 0.960998 0.813855
0.116808 0.949599 0.75082
0.176425 0.907912 0.536492
0.713268 0.811475 0.440803
0.840711 0.851545 0.597604
0.86096 0.869261 0.669566
0.0197452 0.266056 0.731823
0.0199893 0.263676 0.752117
0.0812543 0.245884 0.790906
0.368673 0.110018 0.808087
0.637003 0.124819 0.817182
0.751751 0.111299 0.828412
0.751751 0.111299 0.828397
0.75172 0.111315 0.828397
0.751583 0.11133 0.82829
0.019791 0.265309 0.712367
0.0197147 0.266133 0.731563
0.0263066 0.255238 0.777478
0.340352 0.112474 0.809537
0.626978 0.121187 0.815961
0.751751 0.111299 0.828397
0.751751 0.111299 0.828397
0.751751 0.111299 0.828412
0.75172 0.111299 0.828397
0.0194553 0.269932 0.700877
0.019501 0.261662 0.695628
0.0197604 0.266148 0.730358
0.284016 0.194263 0.808331
0.591959 0.111818 0.812711
0.751751 0.111299 0.828397
0.751751 0.111299 0.828397
0.751751 0.111299 0.828397
0.751736 0.111299 0.828382
0.0203403 0.417792 0.769223
0.0201877 0.401419 0.765011
0.0200656 0.354025 0.748898
0.0195621 0.275486 0.750225
0.485542 0.100755 0.804623
0.740429 0.11606 0.827024
0.751842 0.11133 0.828504
0.751842 0.111345 0.828504
0.751827 0.11133 0.828489
0.0208591 0.716457 0.826276
0.0213169 0.709468 0.825925
0.0211337 0.695415 0.825467
0.0210269 0.657954 0.82707
0.414466 0.577462 0.875959
0.745449 0.374777 0.848707
0.795026 0.26566 0.849073
0.79147 0.235142 0.848402
0.784741 0.175204 0.844907
0.108629 0.91545 0.892073
0.106538 0.912596 0.892409
0.100938 0.905653 0.891157
0.0772412 0.892943 0.889235
0.0793011 0.871214 0.886763
0.747799 0.785458 0.91043
0.894621 0.692836 0.890593
0.895598 0.660792 0.88452
0.887938 0.60943 0.861997
0.155154 0.963699 0.887709
0.152041 0.964233 0.888151
0.151553 0.963226 0.886503
0.150546 0.960449 0.883345
0.149767 0.953658 0.87602
0.647318 0.896147 0.849867
0.894438 0.907622 0.884428
0.929259 0.891585 0.879652
0.928588 0.868711 0.861631
0.154101 0.964187 0.889738
0.151598 0.964904 0.89044
0.152636 0.964706 0.888945
0.156024 0.964019 0.883848
0.144137 0.963317 0.867521
0.257038 0.943679 0.827573
0.868833 0.933837 0.873518
0.932052 0.943984 0.914
0.933196 0.942763 0.911131
0.156359 0.9635 0.887922
0.153094 0.964523 0.888502
0.154894 0.964218 0.88571
0.15494 0.963714 0.87982
0.138201 0.963363 0.860059
0.11606 0.959976 0.810727
0.788434 0.91516 0.816342
0.90518 0.929412 0.851713
0.935042 0.945571 0.921218
0.0198215 0.264958 0.742473
0.0199283 0.261265 0.760845
0.110109 0.240665 0.796658
0.384848 0.109453 0.808179
0.647944 0.128008 0.819059
0.751751 0.111299 0.828397
0.751751 0.111299 0.828412
0.751751 0.111299 0.828412
0.751751 0.111299 0.828412
0.019852 0.265751 0.721309
0.0198062 0.265034 0.741924
0.0493935 0.251774 0.785138
0.355474 0.11107 0.808591
0.636179 0.124544 0.817182
0.751751 0.111299 0.828412
0.751751 0.111299 0.828412
0.751751 0.111299 0.828397
0.75172 0.111315 0.828351
0.0196841 0.264912 0.697475
0.019501 0.262272 0.696239
0.0197757 0.265187 0.740658
0.293339 0.177096 0.810803
0.600473 0.114137 0.813581
0.751751 0.111299 0.828397
0.751751 0.111299 0.828397
0.751751 0.111299 0.828412
0.751751 0.111299 0.828397
0.020264 0.406516 0.772824
0.0200656 0.387289 0.765301
0.0195315 0.332998 0.741161
0.0199283 0.263966 0.750988
0.489616 0.0992447 0.803647
0.741512 0.115572 0.827253
0.751858 0.111345 0.828519
0.751842 0.11133 0.828489
0.751827 0.11133 0.828489
0.0213169 0.719707 0.845258
0.0212558 0.71136 0.843778
0.0209964 0.691875 0.839048
0.0210422 0.642298 0.828733
0.387793 0.545388 0.87129
0.731487 0.337804 0.847272
0.78967 0.220966 0.849882
0.787167 0.188571 0.850233
0.77528 0.142672 0.844083
0.106065 0.924392 0.903807
0.103227 0.921309 0.904341
0.0869154 0.916228 0.905852
0.0654002 0.903777 0.905501
0.0605783 0.87335 0.898116
0.712016 0.779751 0.927428
0.872618 0.664439 0.913085
0.873426 0.621729 0.902708
0.863508 0.577874 0.895567
0.151446 0.96492 0.890486
0.150927 0.964721 0.89041
0.149111 0.963928 0.89044
0.14464 0.961761 0.891463
0.135012 0.956436 0.893584
0.571344 0.896819 0.881987
0.870481 0.893584 0.917693
0.923674 0.864118 0.91664
0.920607 0.841703 0.914199
0.151476 0.964935 0.890486
0.151476 0.964935 0.890486
0.151476 0.964935 0.890486
0.151476 0.964935 0.890486
0.151476 0.964935 0.890486
0.151476 0.964935 0.890486
0.85185 0.934539 0.906142
0.932692 0.943847 0.925536
0.934691 0.941634 0.923995
0.154559 0.96405 0.889616
0.151614 0.964889 0.890455
0.151476 0.964935 0.890486
0.151476 0.964935 0.890486
0.151537 0.96492 0.890425
0.156085 0.964065 0.884352
0.7449 0.925917 0.872175
0.933196 0.946288 0.927672
0.93724 0.947463 0.930739
0.019852 0.264378 0.748241
0.0197757 0.260029 0.765042
0.122881 0.237201 0.79765
0.388235 0.109346 0.808194
0.650721 0.129091 0.819989
0.751751 0.111299 0.828412
0.751751 0.111299 0.828412
0.751751 0.111299 0.828412
0.751736 0.111299 0.828397
0.019852 0.266056 0.727398
0.019852 0.264408 0.747738
0.0624704 0.249287 0.787823
0.359442 0.110597 0.808209
0.637766 0.125109 0.817334
0.751751 0.111299 0.828412
0.751751 0.111299 0.828412
0.751751 0.111299 0.828412
0.75172 0.111299 0.828397
0.0196841 0.263661 0.697093
0.0195163 0.262608 0.69897
0.0198215 0.264591 0.746288
0.295735 0.171618 0.811673
0.601389 0.114321 0.813611
0.751751 0.111299 0.828397
0.751751 0.111299 0.828397
0.751751 0.111299 0.828412
0.751751 0.111299 0.828412
0.020325 0.392782 0.768856
0.0201267 0.373098 0.760555
0.0196536 0.322133 0.734874
0.0199741 0.263264 0.754345
0.489921 0.0992142 0.803647
0.741604 0.115511 0.827283
0.751842 0.11133 0.828504
0.751842 0.11133 0.828504
0.751827 0.11133 0.828489
0.0210575 0.703395 0.842084
0.02121 0.694255 0.839658
0.0210575 0.67483 0.835355
0.0209049 0.625925 0.826017
0.365484 0.519387 0.867094
0.719356 0.306111 0.845243
0.786206 0.183886 0.849943
0.779477 0.157519 0.847059
0.757076 0.116732 0.83122
0.102266 0.920073 0.90483
0.096437 0.916884 0.90518
0.0724956 0.912062 0.906233
0.0601968 0.895949 0.903746
0.0458076 0.861601 0.89456
0.699992 0.761913 0.929793
0.86334 0.639261 0.910124
0.865171 0.590387 0.897093
0.854063 0.543755 0.887922
0.150942 0.964736 0.890425
0.15024 0.964477 0.890333
0.148409 0.963363 0.890867
0.142885 0.960906 0.891463
0.132189 0.952972 0.895094
0.544747 0.893309 0.883558
0.859937 0.882078 0.92137
0.920104 0.845273 0.917494
0.916228 0.822171 0.917235
0.154681 0.964004 0.889143
0.151476 0.964935 0.890486
0.151476 0.964935 0.890486
0.151476 0.964935 0.890486
0.151476 0.964935 0.890486
0.151293 0.964874 0.890471
0.821912 0.930465 0.90692
0.928618 0.940871 0.925612
0.932601 0.938384 0.924849
0.152255 0.964706 0.890303
0.151476 0.964935 0.890486
0.151476 0.964935 0.890486
0.151476 0.964935 0.890486
0.151476 0.964935 0.890486
0.151476 0.964935 0.890486
0.574105 0.922332 0.871107
0.93228 0.946426 0.92932
0.936934 0.947555 0.931273
