bundles/resolve-cinematic-luts/Gamut/Orion/Orion.cube
TITLE "Orion by Gamut"
# Contributor - JVKE. Version 1.0 - 09/28/2023 - Designed for Rec.709 Color Space. Copyright 2023 Gamut, LLC
LUT_3D_SIZE 9
0.003154 0.022869 0.024446
0.072953 0.027501 0.018334
0.178076 0.029966 0.000000
0.304947 0.029966 0.000000
0.422157 0.024840 0.000000
0.537019 0.018630 0.000000
0.648937 0.006308 0.000000
0.747975 0.000000 0.000000
0.841838 0.000000 0.000000
0.000000 0.104398 0.018334
0.071467 0.101381 0.011927
0.205300 0.089340 0.017447
0.332402 0.098375 0.000000
0.453801 0.105707 0.000000
0.566367 0.100900 0.000000
0.678523 0.099380 0.000000
0.782293 0.103206 0.000000
0.877993 0.110328 0.000000
0.000000 0.203984 0.000000
0.072240 0.205322 0.012420
0.204601 0.192344 0.000000
0.390044 0.178632 0.016757
0.506911 0.186845 0.009660
0.619953 0.198637 0.001084
0.731025 0.208401 0.000000
0.833599 0.218617 0.000000
0.928793 0.230475 0.000000
0.028487 0.310962 0.005422
0.130097 0.310363 0.015081
0.194425 0.296147 0.000394
0.390104 0.290680 0.000000
0.565432 0.280617 0.007196
0.690834 0.288662 0.013701
0.803827 0.302725 0.006900
0.904820 0.318686 0.001971
0.985746 0.335532 0.000000
0.145084 0.406417 0.012617
0.201588 0.409527 0.009167
0.247271 0.400104 0.000000
0.326414 0.370824 0.000000
0.559377 0.397525 0.000000
0.739026 0.394224 0.003549
0.870579 0.397225 0.008280
0.967099 0.410152 0.008575
1.000000 0.427561 0.005125
0.236968 0.504793 0.013701
0.280920 0.510965 0.008379
0.320910 0.508133 0.000493
0.365154 0.485793 0.000000
0.501197 0.486985 0.000000
0.731384 0.513201 0.000000
0.907442 0.508590 0.000789
0.992038 0.508582 0.002070
1.000000 0.518477 0.004436
0.330490 0.608448 0.022474
0.366806 0.616846 0.015377
0.401484 0.616443 0.002169
0.434060 0.598733 0.000000
0.499040 0.578493 0.000000
0.672028 0.602448 0.000000
0.894655 0.625893 0.000000
0.994499 0.619691 0.000000
1.000000 0.617075 0.000000
0.420089 0.710821 0.034205
0.450433 0.719853 0.025628
0.480618 0.720329 0.005914
0.508327 0.704595 0.000000
0.543772 0.679921 0.000000
0.638537 0.673849 0.000000
0.837019 0.711329 0.000000
0.985416 0.730015 0.000000
1.000000 0.723922 0.000099
0.503686 0.809323 0.048985
0.528910 0.817883 0.038148
0.554968 0.817856 0.012026
0.580510 0.802142 0.000296
0.605114 0.778217 0.000000
0.655496 0.755027 0.000000
0.784623 0.769234 0.000000
0.960033 0.811513 0.000000
1.000000 0.828049 0.000000
0.000000 0.027501 0.107822
0.077763 0.022968 0.116964
0.204172 0.011730 0.082227
0.328656 0.000000 0.035680
0.440931 0.000000 0.001676
0.551895 0.000000 0.000000
0.663220 0.000000 0.000000
0.766403 0.000000 0.000000
0.859146 0.000000 0.000000
0.000000 0.102873 0.100262
0.059802 0.104243 0.101328
0.184044 0.100490 0.078437
0.320193 0.096585 0.049124
0.446399 0.096571 0.022968
0.568437 0.096920 0.003943
0.685409 0.098171 0.001380
0.790720 0.102383 0.000690
0.887116 0.109554 0.000690
0.000000 0.203511 0.112749
0.074439 0.215209 0.105714
0.208371 0.206990 0.078460
0.370156 0.199479 0.094760
0.487034 0.207266 0.066841
0.604560 0.214754 0.037937
0.720058 0.221265 0.016560
0.825578 0.229615 0.008576
0.922872 0.239969 0.005619
0.000493 0.329532 0.104725
0.139692 0.327110 0.104154
0.246138 0.314710 0.095273
0.388058 0.307763 0.052858
0.546865 0.299880 0.091308
0.668461 0.309716 0.089351
0.782012 0.324457 0.068115
0.885050 0.339542 0.046375
0.974648 0.355108 0.029473
0.094783 0.435702 0.090876
0.240237 0.426078 0.114980
0.295363 0.418111 0.094188
0.346825 0.386846 0.021587
0.547840 0.408134 0.037260
0.718308 0.409071 0.082810
0.846807 0.416640 0.098149
0.948742 0.432554 0.096560
0.999023 0.451256 0.086635
0.252736 0.519182 0.107562
0.315897 0.520944 0.113765
0.353807 0.517407 0.091519
0.386569 0.494141 0.032431
0.498536 0.491796 0.006604
0.716300 0.521232 0.032036
0.887789 0.521500 0.075585
0.983925 0.525444 0.096935
1.000000 0.538187 0.109127
0.355596 0.611611 0.117637
0.394375 0.618542 0.117800
0.423880 0.620255 0.096354
0.450705 0.605680 0.044825
0.505811 0.584101 0.008083
0.662539 0.605694 0.002366
0.880271 0.633297 0.024248
0.990858 0.630629 0.063373
1.000000 0.630997 0.085905
0.446788 0.709645 0.131474
0.474134 0.719171 0.128635
0.497004 0.723227 0.106125
0.518782 0.711940 0.053646
0.553222 0.686912 0.012124
0.636611 0.676830 0.000789
0.824582 0.713951 0.000887
0.981221 0.736602 0.014392
1.000000 0.732852 0.048293
0.528057 0.807063 0.147835
0.549376 0.816828 0.142444
0.567553 0.820562 0.117902
0.585446 0.810041 0.062339
0.612192 0.786191 0.016166
0.658821 0.759510 0.001478
0.775338 0.769542 0.000000
0.951014 0.813563 0.000000
0.999943 0.833779 0.000789
0.000000 0.032332 0.217483
0.044925 0.027797 0.229153
0.212139 0.004732 0.223648
0.364603 0.000000 0.173200
0.475666 0.000000 0.122532
0.584779 0.000000 0.079619
0.693807 0.000000 0.039292
0.794347 0.000000 0.011040
0.886384 0.000000 0.006111
0.000000 0.110064 0.194744
0.027798 0.113074 0.202183
0.197385 0.095117 0.210717
0.350912 0.089875 0.166961
0.474749 0.084596 0.133045
0.594754 0.077267 0.100271
0.709765 0.073277 0.067970
0.813821 0.081884 0.049645
0.909386 0.093380 0.038689
0.000000 0.208597 0.204203
0.026910 0.220736 0.215582
0.192196 0.220466 0.206393
0.351389 0.217162 0.178664
0.479948 0.217990 0.156403
0.603255 0.220049 0.133477
0.721834 0.223598 0.109968
0.829241 0.230421 0.091145
0.927598 0.240161 0.077514
0.001873 0.329734 0.241867
0.093907 0.341148 0.254259
0.236632 0.340525 0.233820
0.389917 0.334057 0.170015
0.525599 0.329067 0.193954
0.644858 0.336301 0.178712
0.760322 0.346397 0.156686
0.865881 0.358214 0.136336
0.961684 0.371444 0.120096
0.058546 0.460341 0.245895
0.157050 0.467542 0.241826
0.285409 0.454300 0.225544
0.399392 0.423847 0.167364
0.542083 0.430725 0.141434
0.694641 0.432955 0.189875
0.817785 0.443424 0.200742
0.923044 0.460775 0.194177
0.995216 0.479003 0.182615
0.132326 0.575528 0.220595
0.236196 0.570384 0.223458
0.347430 0.552031 0.218683
0.431505 0.518894 0.167346
0.508760 0.506367 0.081963
0.697426 0.533318 0.108998
0.860164 0.538250 0.182811
0.967531 0.547865 0.210258
0.999980 0.564404 0.221808
0.264159 0.662839 0.214080
0.341170 0.656630 0.220680
0.419768 0.641605 0.214442
0.481968 0.616462 0.169951
0.522493 0.593252 0.088767
0.650578 0.609677 0.031543
0.857985 0.641695 0.086644
0.982368 0.643825 0.168725
1.000000 0.648384 0.203265
0.391845 0.743802 0.223759
0.446863 0.740591 0.229611
0.500703 0.731140 0.220856
0.542818 0.715332 0.177879
0.571618 0.695203 0.106060
0.635228 0.681056 0.031444
0.806360 0.716061 0.010744
0.973020 0.744162 0.063432
1.000000 0.743457 0.150374
0.503700 0.825628 0.243512
0.542921 0.826202 0.246681
0.579604 0.821614 0.234163
0.606005 0.811116 0.189278
0.627899 0.794215 0.120425
0.664021 0.766905 0.044736
0.762803 0.769130 0.005126
0.937249 0.814803 0.000099
0.999866 0.840902 0.014391
0.000000 0.037556 0.337081
0.010843 0.033712 0.349532
0.178238 0.007787 0.355502
0.374072 0.000000 0.332280
0.516551 0.000000 0.288241
0.631389 0.000000 0.235871
0.740078 0.000000 0.194866
0.839903 0.000000 0.165357
0.931197 0.000000 0.143229
0.000000 0.116415 0.310461
0.001774 0.119182 0.322742
0.163700 0.102948 0.338763
0.374849 0.081192 0.329834
0.517521 0.081175 0.289609
0.636070 0.077076 0.247850
0.749297 0.070387 0.215296
0.852063 0.066388 0.191277
0.946349 0.065269 0.172823
0.000000 0.220513 0.305734
0.000690 0.235063 0.315135
0.139524 0.235615 0.320645
0.371394 0.212476 0.324520
0.506306 0.215131 0.287844
0.630269 0.213580 0.257690
0.747902 0.211895 0.232355
0.854378 0.214254 0.214230
0.951675 0.220720 0.201991
0.000000 0.341048 0.335658
0.005619 0.354946 0.348234
0.148102 0.357464 0.349673
0.370096 0.350253 0.321789
0.514196 0.349041 0.300066
0.640275 0.350833 0.280676
0.758083 0.355697 0.260844
0.865224 0.363737 0.245955
0.962848 0.374786 0.236291
0.007886 0.468826 0.378792
0.077347 0.481691 0.392938
0.210729 0.482960 0.396172
0.411498 0.467971 0.346090
0.547320 0.465819 0.293379
0.678363 0.465858 0.306476
0.795552 0.474412 0.301226
0.901343 0.488206 0.288967
0.989458 0.502896 0.278860
0.107400 0.595762 0.402514
0.183670 0.605750 0.406873
0.284350 0.601848 0.392854
0.443186 0.570396 0.344623
0.551787 0.548000 0.258626
0.691598 0.560927 0.247803
0.835636 0.564456 0.303931
0.945648 0.577226 0.321149
0.999785 0.596292 0.324431
0.199657 0.713954 0.389735
0.262563 0.718398 0.389413
0.343805 0.706470 0.371672
0.477345 0.662180 0.327926
0.565123 0.620987 0.252038
0.653573 0.625418 0.161246
0.834213 0.655333 0.202209
0.966846 0.660085 0.289233
1.000000 0.670032 0.322712
0.278472 0.818444 0.369266
0.333902 0.816866 0.368010
0.406965 0.797235 0.352329
0.526341 0.746387 0.315631
0.606226 0.707237 0.256663
0.647736 0.689417 0.159188
0.784640 0.720341 0.082681
0.958044 0.753632 0.162695
1.000000 0.754983 0.272544
0.364597 0.907849 0.359042
0.415509 0.902820 0.359538
0.484770 0.879518 0.348340
0.588706 0.829373 0.316584
0.657331 0.797112 0.265064
0.684671 0.774736 0.183444
0.750533 0.769724 0.072582
0.915499 0.817503 0.018926
0.999725 0.851681 0.120612
0.000000 0.042890 0.463041
0.000000 0.039133 0.474851
0.137130 0.013800 0.485337
0.350476 0.000000 0.475812
0.522782 0.000000 0.453110
0.667346 0.000000 0.416137
0.788869 0.000000 0.371298
0.891202 0.000000 0.334887
0.980712 0.000000 0.309918
0.000000 0.122615 0.435232
0.000000 0.126084 0.449779
0.126293 0.114891 0.467717
0.352648 0.085343 0.475875
0.535240 0.072675 0.460681
0.678557 0.072156 0.424895
0.796751 0.072018 0.383044
0.899169 0.069842 0.352493
0.987986 0.069842 0.331960
0.000000 0.231243 0.420471
0.000000 0.245120 0.435080
0.112020 0.243890 0.449164
0.345117 0.218896 0.467686
0.532335 0.206416 0.456074
0.669565 0.209159 0.420461
0.787522 0.211346 0.385675
0.892956 0.213187 0.361799
0.985751 0.216949 0.346048
0.000000 0.355849 0.439480
0.000000 0.372226 0.450210
0.048544 0.378505 0.450527
0.322958 0.365239 0.449470
0.526607 0.348298 0.448947
0.659819 0.351352 0.418740
0.780866 0.353975 0.391000
0.889102 0.358424 0.371696
0.985406 0.366129 0.360039
0.000000 0.482922 0.477580
0.004534 0.498040 0.491079
0.094955 0.502894 0.494460
0.337910 0.495033 0.477262
0.531869 0.492273 0.449357
0.670605 0.488907 0.429841
0.792366 0.492152 0.409963
0.899657 0.500046 0.394739
0.992977 0.510527 0.385532
0.015475 0.611102 0.524343
0.059708 0.624104 0.538245
0.179515 0.626946 0.542401
0.372867 0.616171 0.531450
0.569519 0.598312 0.473483
0.697926 0.601353 0.415954
0.823120 0.601277 0.429731
0.929306 0.611090 0.428466
0.999668 0.626462 0.422518
0.116931 0.733589 0.563198
0.183936 0.744723 0.573403
0.279087 0.745837 0.569978
0.428494 0.724525 0.531208
0.591411 0.684980 0.458211
0.693629 0.672105 0.361029
0.830663 0.686648 0.359153
0.952381 0.687435 0.418218
1.000000 0.699436 0.440372
0.244473 0.849541 0.574511
0.296580 0.857741 0.578472
0.361259 0.854345 0.564206
0.472137 0.819896 0.508474
0.608709 0.762674 0.437457
0.690636 0.723174 0.342392
0.789446 0.741154 0.254435
0.943908 0.768772 0.304289
1.000000 0.769304 0.397682
0.331767 0.956733 0.566105
0.369775 0.961557 0.564716
0.417172 0.952372 0.543102
0.509654 0.904164 0.480766
0.638316 0.835627 0.418793
0.718215 0.790280 0.344868
0.761904 0.779772 0.237708
0.894179 0.824536 0.151789
0.999208 0.862128 0.272146
0.000000 0.049242 0.589170
0.000000 0.046089 0.600864
0.092659 0.023854 0.611344
0.314275 0.000000 0.613446
0.504844 0.000000 0.599569
0.671680 0.000000 0.581341
0.816125 0.000000 0.552744
0.932507 0.000000 0.521446
0.999456 0.000000 0.493719
0.000000 0.129841 0.562111
0.000000 0.134461 0.578333
0.088042 0.125848 0.596745
0.317880 0.093844 0.612658
0.519216 0.075092 0.609551
0.689525 0.066185 0.593891
0.831132 0.067224 0.564491
0.942404 0.073117 0.533651
0.999829 0.076083 0.508008
0.000000 0.241820 0.544577
0.000000 0.254893 0.562485
0.077404 0.253288 0.579290
0.310104 0.229885 0.599363
0.517234 0.209281 0.606410
0.689522 0.201205 0.591196
0.826935 0.204049 0.561003
0.935892 0.211715 0.532112
0.999587 0.219275 0.510075
0.000000 0.367422 0.550947
0.000000 0.383903 0.563105
0.035729 0.389187 0.569093
0.282949 0.376119 0.580176
0.507686 0.353550 0.595809
0.681456 0.345223 0.583106
0.815260 0.349117 0.553611
0.924177 0.357088 0.527467
0.999356 0.365593 0.509724
0.000000 0.499217 0.580299
0.000000 0.515801 0.592041
0.016954 0.523492 0.593394
0.237589 0.517709 0.584638
0.493843 0.505002 0.581837
0.677894 0.491765 0.577427
0.807011 0.494488 0.550325
0.918342 0.500172 0.527928
0.999614 0.507489 0.513805
0.000000 0.626223 0.621373
0.003844 0.640837 0.634119
0.058555 0.646382 0.638022
0.274640 0.639389 0.627633
0.510806 0.632386 0.603570
0.684639 0.630796 0.577295
0.815946 0.626850 0.558434
0.927667 0.631325 0.540961
0.999966 0.640237 0.529705
0.013406 0.750666 0.668690
0.040459 0.763389 0.681536
0.132897 0.767041 0.686705
0.334950 0.756139 0.678225
0.526978 0.745144 0.656251
0.709729 0.723180 0.594591
0.836284 0.729418 0.538017
0.946553 0.727990 0.551319
1.000000 0.737030 0.553005
0.093759 0.868606 0.717209
0.150873 0.879202 0.728129
0.245908 0.880781 0.729851
0.405266 0.865292 0.711046
0.570150 0.837098 0.656767
0.722657 0.793481 0.568864
0.827962 0.791688 0.471007
0.947324 0.803881 0.471180
1.000000 0.798536 0.531910
0.238011 0.978135 0.754101
0.291589 0.986381 0.760655
0.361982 0.985057 0.754416
0.476732 0.962993 0.715169
0.604966 0.919168 0.640184
0.729798 0.855053 0.544448
0.809104 0.822256 0.437586
0.910846 0.853664 0.345332
0.998983 0.879620 0.413006
0.000000 0.056507 0.710315
0.000000 0.054052 0.722262
0.049020 0.034303 0.733131
0.275611 0.000296 0.741313
0.477365 0.000000 0.737049
0.658244 0.000000 0.725274
0.818078 0.000000 0.710612
0.948409 0.000000 0.691830
0.999960 0.000000 0.672824
0.000000 0.138035 0.685441
0.000000 0.143954 0.702833
0.050128 0.136860 0.721546
0.282066 0.106363 0.739994
0.491356 0.081825 0.746979
0.677050 0.068318 0.739451
0.837407 0.063158 0.725245
0.961394 0.067439 0.706152
1.000000 0.076168 0.686661
0.000000 0.252230 0.667731
0.000000 0.264649 0.686906
0.043100 0.263130 0.705253
0.274451 0.242792 0.725140
0.487627 0.217889 0.741171
0.678692 0.203072 0.739123
0.840785 0.197794 0.725271
0.961723 0.202940 0.705288
1.000000 0.214366 0.685040
0.000000 0.379422 0.664864
0.000000 0.395427 0.679731
0.019714 0.399457 0.691052
0.251764 0.386385 0.705703
0.475777 0.364411 0.725836
0.673214 0.346603 0.732297
0.836698 0.341260 0.718664
0.956016 0.347877 0.696361
1.000000 0.360533 0.675668
0.000000 0.512935 0.684646
0.000000 0.529923 0.696234
0.008871 0.537740 0.699309
0.190013 0.531436 0.698258
0.449491 0.516360 0.708743
0.665082 0.494681 0.722365
0.827708 0.488511 0.709489
0.945034 0.495452 0.685959
1.000000 0.506728 0.666710
0.000000 0.642714 0.719520
0.000000 0.658270 0.731056
0.008280 0.665840 0.733302
0.149683 0.662041 0.722629
0.423782 0.654564 0.711138
0.652348 0.641561 0.707868
0.819231 0.631288 0.699955
0.935731 0.634921 0.678863
1.000000 0.642167 0.660971
0.000000 0.766215 0.761835
0.001281 0.779829 0.773536
0.030360 0.785225 0.776949
0.210945 0.777205 0.767691
0.458382 0.768173 0.749861
0.666384 0.760939 0.720532
0.823854 0.759239 0.696433
0.939856 0.755929 0.680768
1.000000 0.760659 0.666338
0.005126 0.885609 0.808869
0.016757 0.896811 0.819806
0.077846 0.899727 0.823208
0.281517 0.888034 0.815705
0.494180 0.873861 0.798418
0.666581 0.863223 0.769180
0.837776 0.840685 0.706071
0.952653 0.847482 0.655141
1.000000 0.843162 0.669142
0.041589 0.995141 0.859175
0.082505 0.998698 0.868388
0.175508 0.998530 0.870343
0.356068 0.989707 0.861135
0.536255 0.970403 0.838654
0.697217 0.939547 0.771007
0.841127 0.892771 0.678060
0.945301 0.906132 0.583842
0.999772 0.918063 0.589434
0.000000 0.065225 0.826258
0.000000 0.062949 0.837873
0.011631 0.044994 0.849317
0.235317 0.006703 0.860496
0.446365 0.000000 0.864552
0.638048 0.000000 0.858360
0.807495 0.000000 0.848174
0.947036 0.000000 0.838811
0.999839 0.000000 0.828916
0.000000 0.147267 0.802593
0.000000 0.154316 0.821523
0.018038 0.148270 0.840622
0.245850 0.123123 0.859511
0.460653 0.091093 0.873259
0.655880 0.074140 0.872086
0.827738 0.065367 0.864002
0.961272 0.065504 0.855387
1.000000 0.070659 0.845499
0.000000 0.262713 0.785756
0.000000 0.274759 0.805789
0.015772 0.273254 0.824944
0.240843 0.254902 0.844596
0.457488 0.228405 0.864235
0.656176 0.210089 0.870598
0.832626 0.199787 0.865924
0.964894 0.198995 0.857778
1.000000 0.205884 0.846845
0.000000 0.391284 0.777460
0.000000 0.406560 0.794543
0.012223 0.409774 0.809027
0.220603 0.396834 0.825168
0.445101 0.376376 0.846190
0.649081 0.354773 0.861373
0.830349 0.342619 0.861070
0.964366 0.341799 0.851933
1.000000 0.349961 0.838418
0.000000 0.524885 0.788668
0.000000 0.541624 0.801384
0.007294 0.548828 0.807796
0.168436 0.541421 0.812358
0.417759 0.527525 0.826791
0.636417 0.504992 0.846525
0.823726 0.488997 0.852440
0.960466 0.487439 0.841699
1.000000 0.496345 0.824984
0.000000 0.657932 0.815876
0.000000 0.673954 0.826851
0.001676 0.682081 0.829060
0.088895 0.678766 0.820918
0.360028 0.670517 0.817975
0.611798 0.653387 0.827486
0.812547 0.631898 0.839690
0.951095 0.628968 0.827565
1.000000 0.637396 0.809217
0.000000 0.782844 0.853947
0.000000 0.797184 0.864723
0.002267 0.803892 0.866814
0.076612 0.799119 0.855407
0.343774 0.791364 0.840273
0.590841 0.783315 0.825049
0.796254 0.768383 0.822156
0.941446 0.761302 0.813148
1.000000 0.766445 0.797606
0.000000 0.900381 0.896706
0.000000 0.912001 0.906622
0.011829 0.915860 0.908552
0.147753 0.906473 0.897952
0.407473 0.894195 0.881945
0.621453 0.885256 0.858128
0.807980 0.875573 0.824823
0.944958 0.875770 0.805113
1.000000 0.874959 0.793047
0.000000 0.999390 0.941562
0.000690 1.000000 0.949535
0.029079 1.000000 0.950375
0.221372 0.998987 0.940313
0.454214 0.991300 0.926565
0.637338 0.978577 0.900878
0.795256 0.965157 0.868520
0.953466 0.948222 0.814080
1.000000 0.958595 0.765845
0.000000 0.074158 0.929495
0.000000 0.072169 0.941468
0.002365 0.055714 0.953320
0.199062 0.020700 0.966000
0.418505 0.000000 0.976770
0.616238 0.000000 0.976552
0.793093 0.000000 0.969692
0.939509 0.000000 0.964549
0.999812 0.000000 0.961542
0.000000 0.156962 0.908309
0.000000 0.164972 0.928152
0.004732 0.159443 0.947458
0.214294 0.137810 0.966993
0.433345 0.101759 0.984452
0.633025 0.081988 0.990238
0.812883 0.070595 0.986248
0.954922 0.067653 0.982461
0.999993 0.070271 0.980242
0.000000 0.273216 0.892238
0.000000 0.285223 0.913186
0.007097 0.283684 0.932777
0.210583 0.266525 0.952666
0.430156 0.241164 0.974225
0.632287 0.219039 0.987463
0.816981 0.205744 0.988618
0.959434 0.201589 0.986409
1.000000 0.204647 0.984309
0.000000 0.402808 0.881523
0.000000 0.417571 0.900120
0.006900 0.420314 0.916487
0.190971 0.407349 0.933897
0.417807 0.388627 0.955646
0.624242 0.364970 0.975385
0.812832 0.349493 0.982759
0.958988 0.343956 0.982083
1.000000 0.346948 0.979119
0.000000 0.536923 0.886512
0.000000 0.553217 0.900937
0.005520 0.559640 0.910575
0.147274 0.551225 0.919099
0.393711 0.537980 0.935543
0.609570 0.516431 0.957155
0.803933 0.496632 0.972043
0.955728 0.488413 0.973778
1.000000 0.490495 0.968838
0.000000 0.670009 0.907953
0.000000 0.686246 0.919145
0.001380 0.694316 0.922510
0.077672 0.689778 0.918191
0.333332 0.680964 0.921028
0.576921 0.664887 0.934913
0.788167 0.640967 0.953927
0.948076 0.628139 0.960558
1.000000 0.628577 0.952702
0.000000 0.799157 0.940040
0.000000 0.814021 0.950260
0.000000 0.821328 0.951716
0.020404 0.817698 0.939913
0.236648 0.811293 0.927423
0.530621 0.799345 0.922589
0.762668 0.779885 0.928726
0.937468 0.759775 0.942193
0.999926 0.758862 0.930764
0.000000 0.916025 0.979377
0.000000 0.927655 0.986865
0.000000 0.932290 0.987452
0.025234 0.926032 0.977031
0.260488 0.916211 0.961438
0.537055 0.906820 0.942450
0.738713 0.899713 0.920743
0.921048 0.883519 0.917356
1.000000 0.879650 0.910408
0.000789 1.000000 1.000000
0.000789 1.000000 1.000000
0.000789 1.000000 1.000000
0.082749 1.000000 1.000000
0.362009 1.000000 0.997473
0.592884 0.995351 0.976914
0.775883 0.985144 0.948004
0.937777 0.971001 0.918517
1.000000 0.979988 0.904643
