bundles/resolve-cinematic-luts/Gamut/Orion/Orion Cool +CON.cube
TITLE "Orion Cool +CON by Gamut"
# Contributor - JVKE. Version 1.0 - 09/28/2023 - Designed for Rec.709 Color Space. Copyright 2023 Gamut, LLC
LUT_3D_SIZE 9
0.001577 0.009463 0.018926
0.061315 0.010251 0.011336
0.140088 0.012420 0.000000
0.245445 0.009758 0.000000
0.368773 0.000000 0.000000
0.494367 0.000000 0.000000
0.605941 0.000000 0.000000
0.705373 0.000000 0.000000
0.790378 0.000000 0.000000
0.002465 0.071014 0.029966
0.074486 0.069031 0.016165
0.160264 0.064206 0.013702
0.273943 0.063061 0.000000
0.406543 0.057934 0.000000
0.537046 0.050680 0.000000
0.657913 0.049541 0.000000
0.760465 0.055186 0.000000
0.849286 0.066943 0.000000
0.000000 0.157784 0.019320
0.078444 0.160125 0.023657
0.192791 0.154722 0.008477
0.347549 0.141427 0.026812
0.478666 0.148966 0.010251
0.611272 0.159980 0.001380
0.729579 0.173600 0.000592
0.830245 0.191545 0.000000
0.919596 0.212338 0.000000
0.001971 0.276163 0.000493
0.114157 0.278253 0.023263
0.166084 0.262010 0.001282
0.357360 0.263178 0.003450
0.552702 0.256518 0.023361
0.693697 0.272590 0.030952
0.805441 0.298052 0.025629
0.899205 0.325888 0.018630
0.979441 0.353942 0.011138
0.116698 0.401648 0.028389
0.168619 0.405389 0.021489
0.211055 0.391063 0.000986
0.284786 0.356127 0.000000
0.537927 0.391907 0.004337
0.739331 0.402827 0.024544
0.866114 0.419170 0.042888
0.958028 0.446110 0.052749
0.999785 0.476012 0.053627
0.202868 0.531539 0.037654
0.246457 0.537400 0.026121
0.290266 0.530262 0.003844
0.337967 0.504211 0.000000
0.473472 0.493160 0.000000
0.720920 0.537517 0.007393
0.896051 0.555462 0.031445
0.985668 0.568015 0.050765
1.000000 0.587257 0.063166
0.307344 0.663666 0.055714
0.347093 0.670547 0.043530
0.386331 0.665946 0.014983
0.423986 0.644401 0.000493
0.491360 0.613741 0.000000
0.664047 0.631387 0.000099
0.880591 0.680704 0.008674
0.989550 0.692766 0.032726
1.000000 0.696642 0.048462
0.419554 0.782841 0.083336
0.453006 0.789010 0.069726
0.486446 0.785080 0.035683
0.519102 0.765991 0.002957
0.559336 0.734742 0.000000
0.654774 0.716502 0.000000
0.836330 0.757554 0.000099
0.980058 0.795673 0.006999
1.000000 0.798978 0.032627
0.525434 0.883422 0.111148
0.552804 0.887711 0.095853
0.580666 0.883398 0.058460
0.610202 0.865646 0.009069
0.640429 0.838051 0.000000
0.692921 0.807640 0.000000
0.808396 0.814028 0.000000
0.958290 0.859398 0.000000
0.999920 0.885568 0.000000
0.000000 0.013307 0.081663
0.069274 0.007886 0.088288
0.161280 0.000099 0.056614
0.266788 0.000000 0.015772
0.384282 0.000000 0.000000
0.504776 0.000000 0.000000
0.620506 0.000000 0.000000
0.718893 0.000000 0.000000
0.802924 0.000000 0.000000
0.000000 0.072508 0.083523
0.061822 0.073396 0.080026
0.154650 0.069348 0.060780
0.273240 0.063524 0.035978
0.409335 0.056262 0.007688
0.545404 0.050732 0.000690
0.667327 0.050699 0.000000
0.770179 0.057416 0.000000
0.858987 0.069503 0.000690
0.000000 0.159276 0.097627
0.072882 0.172324 0.086818
0.191110 0.169412 0.065690
0.331690 0.163589 0.083392
0.465628 0.169494 0.054011
0.603204 0.176526 0.029571
0.725992 0.187843 0.016067
0.829189 0.204236 0.011434
0.919714 0.224087 0.010054
0.000000 0.294793 0.085932
0.117299 0.301573 0.088097
0.206107 0.288974 0.072642
0.357617 0.283784 0.049203
0.538880 0.281354 0.089117
0.677472 0.297785 0.089197
0.791913 0.322253 0.076147
0.888259 0.348492 0.062404
0.972800 0.375072 0.050006
0.045314 0.438053 0.073963
0.201741 0.432044 0.101376
0.254004 0.419341 0.075495
0.306288 0.377352 0.013406
0.529846 0.405314 0.035091
0.725068 0.421234 0.087517
0.851305 0.441819 0.113256
0.945598 0.470974 0.121732
0.998707 0.501481 0.118498
0.200546 0.558321 0.102830
0.278598 0.555868 0.105481
0.319430 0.547636 0.078632
0.357548 0.518723 0.027403
0.474521 0.501781 0.005422
0.711158 0.547543 0.034599
0.883905 0.570405 0.092483
0.978331 0.586626 0.126109
1.000000 0.608294 0.144609
0.328206 0.676229 0.126852
0.373992 0.679751 0.120702
0.406733 0.677721 0.094577
0.438159 0.658702 0.045661
0.499681 0.624426 0.008083
0.659038 0.636806 0.002563
0.871603 0.688736 0.031642
0.985344 0.704062 0.090888
1.000000 0.710399 0.123357
0.445693 0.788355 0.156206
0.476513 0.794241 0.146877
0.501782 0.794169 0.119677
0.527168 0.779537 0.066812
0.567849 0.746545 0.016067
0.655514 0.722417 0.000789
0.828587 0.760717 0.001676
0.976307 0.801695 0.025530
1.000000 0.807068 0.087511
0.549168 0.885367 0.185403
0.572167 0.890606 0.173146
0.591856 0.890019 0.143623
0.612474 0.877628 0.088104
0.644457 0.849626 0.026614
0.696273 0.814526 0.001972
0.803208 0.815865 0.000000
0.952281 0.861252 0.000000
0.999943 0.890294 0.001577
0.000000 0.014983 0.189901
0.044952 0.008871 0.204697
0.169476 0.000000 0.192034
0.308536 0.000000 0.139573
0.424984 0.000000 0.079621
0.540806 0.000000 0.030853
0.648570 0.000000 0.004140
0.740896 0.000000 0.001084
0.820648 0.000000 0.000592
0.000000 0.076624 0.175522
0.040485 0.077348 0.186478
0.171506 0.062459 0.191704
0.313600 0.053575 0.146370
0.443646 0.043281 0.102164
0.574092 0.031642 0.063932
0.688749 0.027995 0.034106
0.788497 0.042223 0.024347
0.876423 0.060716 0.022474
0.000000 0.163342 0.182827
0.033515 0.175849 0.194702
0.169711 0.182418 0.188860
0.316935 0.181197 0.162746
0.463272 0.180701 0.139793
0.606574 0.183813 0.118556
0.731532 0.192703 0.102291
0.835583 0.208032 0.092087
0.926512 0.227458 0.086442
0.000000 0.296087 0.221132
0.079352 0.316189 0.242202
0.201745 0.327537 0.206361
0.360308 0.317967 0.157446
0.517265 0.317576 0.187848
0.655737 0.329581 0.173328
0.775135 0.347941 0.158074
0.875185 0.370513 0.145962
0.963754 0.394645 0.136593
0.031937 0.464240 0.233483
0.122811 0.480189 0.230836
0.259636 0.466752 0.209305
0.366754 0.429149 0.143908
0.525608 0.432652 0.127011
0.704604 0.449103 0.187187
0.828563 0.471855 0.209380
0.925186 0.502135 0.212188
0.994993 0.531570 0.205782
0.096291 0.616972 0.217870
0.208306 0.613376 0.221031
0.324507 0.591937 0.205596
0.404630 0.553522 0.148021
0.486527 0.521931 0.066079
0.695258 0.561002 0.098757
0.863250 0.588351 0.188344
0.962934 0.609503 0.229589
0.999966 0.634465 0.248861
0.237051 0.736621 0.232036
0.327044 0.725739 0.230773
0.411378 0.705275 0.210842
0.469817 0.677365 0.159103
0.516075 0.640996 0.078939
0.649377 0.642935 0.025136
0.854772 0.697049 0.085872
0.976181 0.716471 0.183846
1.000000 0.725957 0.227393
0.385230 0.832568 0.258651
0.452002 0.822282 0.254296
0.510142 0.807133 0.231156
0.550225 0.789247 0.180468
0.583556 0.761582 0.105086
0.654474 0.731137 0.028586
0.814478 0.762766 0.010744
0.968449 0.808032 0.074644
1.000000 0.815786 0.180591
0.515757 0.912055 0.289075
0.563846 0.905038 0.281825
0.603901 0.894970 0.255723
0.630386 0.882991 0.204232
0.655582 0.862069 0.130364
0.698528 0.826038 0.046626
0.793190 0.817067 0.004534
0.941730 0.861733 0.001479
0.999866 0.896189 0.037654
0.000000 0.014983 0.341891
0.013702 0.009660 0.357293
0.138136 0.000000 0.361015
0.306570 0.000000 0.325835
0.467102 0.000000 0.267729
0.595683 0.000000 0.194652
0.698351 0.000000 0.143314
0.784337 0.000000 0.109339
0.860066 0.000000 0.085432
0.000000 0.078031 0.321038
0.013603 0.078265 0.338073
0.140347 0.064740 0.359674
0.326675 0.043923 0.342602
0.495735 0.033909 0.294121
0.626984 0.027403 0.232193
0.733377 0.026023 0.191610
0.823962 0.027304 0.165401
0.905357 0.031247 0.147811
0.000000 0.171398 0.308715
0.002070 0.186257 0.320601
0.131815 0.192174 0.341315
0.339817 0.173437 0.352410
0.505211 0.173326 0.307603
0.643624 0.174659 0.265958
0.761271 0.179862 0.240698
0.859982 0.190891 0.226269
0.948113 0.206301 0.218534
0.000000 0.301029 0.332867
0.004830 0.321647 0.352318
0.132791 0.337777 0.366341
0.334818 0.343035 0.344829
0.505678 0.342821 0.317483
0.653363 0.346345 0.298085
0.774867 0.359497 0.280956
0.876166 0.378198 0.271443
0.965904 0.400310 0.267294
0.004633 0.463405 0.394477
0.067712 0.486168 0.419664
0.188249 0.497136 0.426039
0.377488 0.494744 0.363477
0.534838 0.479908 0.302114
0.687136 0.488229 0.329201
0.806840 0.507215 0.332560
0.904348 0.533118 0.326046
0.987302 0.558321 0.318628
0.081959 0.635634 0.442051
0.156986 0.652021 0.449591
0.258667 0.652122 0.430026
0.415159 0.621693 0.363487
0.536629 0.577330 0.252501
0.687749 0.591217 0.244718
0.839262 0.615036 0.330535
0.939207 0.638443 0.363914
0.999285 0.665670 0.373929
0.174893 0.788124 0.458916
0.242896 0.793325 0.454246
0.332378 0.779734 0.422047
0.469198 0.734472 0.353818
0.563484 0.678291 0.251313
0.649457 0.659211 0.144179
0.830552 0.708121 0.203683
0.957613 0.729903 0.321091
1.000000 0.743790 0.368421
0.268486 0.905007 0.465772
0.333088 0.900322 0.454885
0.417165 0.876806 0.419413
0.537084 0.826124 0.353185
0.618907 0.779493 0.266574
0.664453 0.743957 0.151706
0.791166 0.764605 0.076778
0.951165 0.814485 0.181583
1.000000 0.823553 0.316979
0.366085 0.983047 0.470252
0.428117 0.973950 0.458086
0.509360 0.950179 0.425207
0.613684 0.904677 0.364329
0.681635 0.868473 0.286246
0.713828 0.838331 0.186243
0.778560 0.819057 0.068907
0.919317 0.861107 0.025924
0.999654 0.904187 0.173380
0.000000 0.014983 0.501726
0.000000 0.010350 0.515837
0.100983 0.000000 0.527894
0.275239 0.000000 0.509418
0.459346 0.000000 0.469313
0.621225 0.000000 0.422630
0.740241 0.000000 0.370746
0.828847 0.000000 0.324920
0.906014 0.000000 0.290774
0.000000 0.078935 0.480688
0.000296 0.080002 0.500785
0.106599 0.070860 0.526138
0.297562 0.045283 0.529824
0.497834 0.025925 0.503900
0.663851 0.023362 0.466873
0.780766 0.027797 0.421431
0.871215 0.032726 0.383722
0.952597 0.038049 0.358030
0.000000 0.177690 0.457544
0.000296 0.192254 0.478519
0.104423 0.198067 0.508139
0.308066 0.179920 0.536996
0.522588 0.165410 0.525638
0.688438 0.168414 0.491485
0.806270 0.178993 0.453713
0.901074 0.190756 0.427704
0.983770 0.203130 0.411083
0.000000 0.311009 0.461658
0.000000 0.333704 0.477409
0.051155 0.354030 0.490982
0.286454 0.356714 0.514530
0.519767 0.339931 0.520105
0.681606 0.344221 0.486459
0.803306 0.356131 0.457503
0.901928 0.371695 0.440173
0.987780 0.389888 0.431308
0.000000 0.466228 0.507622
0.004534 0.490161 0.530143
0.088617 0.509265 0.547832
0.295128 0.517962 0.546441
0.519127 0.519181 0.512350
0.681001 0.519185 0.488403
0.804782 0.528328 0.474144
0.902550 0.546535 0.462733
0.988332 0.566379 0.456278
0.015771 0.633715 0.582216
0.061585 0.655811 0.606925
0.170034 0.668998 0.621313
0.348106 0.668358 0.605088
0.556460 0.659301 0.526676
0.699669 0.643648 0.459100
0.825196 0.654726 0.494188
0.920059 0.672790 0.502693
0.996517 0.694781 0.498614
0.111764 0.793645 0.665859
0.181615 0.808435 0.680793
0.275602 0.812727 0.677120
0.417221 0.798648 0.630701
0.583438 0.757325 0.520601
0.692771 0.712361 0.378695
0.821574 0.735017 0.388325
0.937853 0.752375 0.483753
0.999926 0.767711 0.518393
0.239856 0.922753 0.717270
0.297159 0.928617 0.718274
0.367172 0.924908 0.695964
0.477185 0.899102 0.625183
0.620229 0.842219 0.511903
0.706797 0.780078 0.367197
0.785587 0.776995 0.254561
0.930217 0.822489 0.343748
1.000000 0.832170 0.473358
0.332640 0.999812 0.732940
0.376318 0.999617 0.724428
0.431221 0.996989 0.691153
0.527105 0.974011 0.609391
0.659542 0.912350 0.501310
0.743901 0.855432 0.380861
0.781054 0.825107 0.241603
0.889903 0.859035 0.163077
0.998899 0.909223 0.343023
0.000000 0.016560 0.650043
0.000000 0.012223 0.663674
0.065094 0.000000 0.676131
0.234175 0.000000 0.673221
0.434247 0.000000 0.643814
0.613809 0.000000 0.614434
0.751671 0.000000 0.588867
0.856301 0.000000 0.560763
0.945544 0.000000 0.529792
0.000000 0.080959 0.633693
0.000000 0.083105 0.653488
0.075366 0.077814 0.678019
0.259479 0.051909 0.692057
0.476644 0.028191 0.677918
0.662296 0.021193 0.659274
0.801063 0.028882 0.642224
0.908011 0.040459 0.619684
0.989471 0.049240 0.594387
0.000000 0.183905 0.609877
0.000000 0.198618 0.633998
0.076059 0.204999 0.664754
0.271801 0.191407 0.695966
0.501843 0.170338 0.701192
0.696356 0.164865 0.690443
0.836710 0.175405 0.674697
0.940858 0.192342 0.653988
0.999346 0.207999 0.633338
0.000000 0.322275 0.600215
0.000000 0.346004 0.618302
0.038939 0.364388 0.639401
0.247373 0.369410 0.671693
0.494006 0.347900 0.693210
0.697802 0.339865 0.689229
0.838380 0.350876 0.671458
0.939164 0.369703 0.649905
0.999594 0.388492 0.631866
0.000000 0.474371 0.623767
0.000000 0.499061 0.641460
0.016363 0.520549 0.654855
0.205419 0.538958 0.670457
0.472393 0.531853 0.677791
0.692595 0.519038 0.680434
0.825611 0.529448 0.654536
0.924875 0.545055 0.634386
0.998358 0.560982 0.620384
0.000000 0.634522 0.679906
0.005323 0.657702 0.701098
0.062522 0.676949 0.718750
0.249634 0.688141 0.727011
0.483369 0.686897 0.709635
0.693154 0.685347 0.674742
0.818080 0.689244 0.652355
0.917572 0.694403 0.639671
0.997133 0.707375 0.628137
0.015673 0.791484 0.763999
0.050074 0.810675 0.784589
0.145256 0.822708 0.798779
0.324896 0.820817 0.798796
0.525520 0.809754 0.765559
0.722171 0.793062 0.679227
0.832115 0.783078 0.620919
0.927624 0.788631 0.650567
0.999624 0.799210 0.655982
0.101312 0.925574 0.851485
0.165534 0.936115 0.863894
0.263161 0.938146 0.866005
0.411984 0.926911 0.848941
0.578665 0.904485 0.787718
0.737602 0.862968 0.662650
0.819142 0.823896 0.520966
0.923882 0.846465 0.544349
1.000000 0.852731 0.636590
0.238595 0.999812 0.910262
0.297783 1.000000 0.912282
0.375937 1.000000 0.902212
0.492247 0.998731 0.866915
0.623706 0.979851 0.785177
0.752520 0.920994 0.646889
0.817925 0.861313 0.486482
0.886835 0.870508 0.372678
0.997999 0.918206 0.515958
0.000000 0.020700 0.767399
0.000000 0.016659 0.779066
0.033909 0.001380 0.790451
0.197995 0.000000 0.795148
0.405046 0.000000 0.777446
0.598777 0.000000 0.754708
0.747438 0.000000 0.741856
0.863677 0.000000 0.733366
0.966035 0.000000 0.723328
0.000000 0.085572 0.755902
0.000000 0.089257 0.774227
0.047890 0.086272 0.796259
0.227671 0.063493 0.813131
0.449906 0.036077 0.808929
0.650640 0.025530 0.796600
0.801536 0.030459 0.793145
0.921126 0.042801 0.791344
0.997897 0.058737 0.786614
0.000000 0.192020 0.736323
0.000000 0.207000 0.759047
0.049819 0.214239 0.787937
0.240287 0.207371 0.818252
0.474060 0.182371 0.831706
0.685557 0.170922 0.830531
0.842663 0.175938 0.831572
0.958110 0.191402 0.831458
1.000000 0.211510 0.826045
0.000000 0.334604 0.719586
0.000000 0.358568 0.740044
0.025136 0.375537 0.765363
0.220696 0.382203 0.798712
0.463347 0.362060 0.822941
0.686774 0.346131 0.833915
0.851123 0.349465 0.837272
0.963330 0.365963 0.834200
1.000000 0.387460 0.823702
0.000000 0.488485 0.729931
0.000000 0.513677 0.745961
0.008477 0.534587 0.760486
0.160856 0.554048 0.784251
0.426705 0.547803 0.804493
0.672774 0.527216 0.822042
0.841386 0.526440 0.824830
0.951501 0.540956 0.814954
1.000000 0.559164 0.798320
0.000000 0.640302 0.765752
0.000000 0.663606 0.783076
0.010153 0.684293 0.797761
0.136740 0.705956 0.813126
0.404450 0.709496 0.813067
0.655017 0.697330 0.806814
0.831277 0.686985 0.811669
0.930770 0.698099 0.788693
0.999826 0.706751 0.769772
0.000000 0.791812 0.835601
0.002760 0.811991 0.853940
0.044035 0.828257 0.868569
0.214317 0.837020 0.876726
0.453100 0.830059 0.862478
0.669102 0.819119 0.833311
0.826873 0.815899 0.804501
0.919486 0.821468 0.786118
0.999960 0.820638 0.771136
0.007393 0.926596 0.916637
0.027304 0.939843 0.930489
0.108675 0.947419 0.938963
0.294659 0.943565 0.937743
0.501291 0.927361 0.918246
0.687318 0.912238 0.882928
0.850058 0.892913 0.801246
0.934821 0.889880 0.765612
1.000000 0.888439 0.786725
0.053397 0.999758 0.982537
0.107979 1.000000 0.987363
0.210138 1.000000 0.987076
0.373528 1.000000 0.979836
0.553322 0.998220 0.959323
0.722782 0.985728 0.900193
0.854999 0.946035 0.783416
0.910497 0.910490 0.654373
0.997568 0.944120 0.711847
0.000000 0.026122 0.860231
0.000000 0.022277 0.871030
0.010054 0.008576 0.881949
0.165753 0.000000 0.890315
0.376857 0.000000 0.880779
0.582045 0.000000 0.862884
0.740015 0.000000 0.852455
0.863000 0.000000 0.851683
0.972816 0.000000 0.852609
0.000000 0.092272 0.851286
0.000000 0.097407 0.869524
0.026318 0.095883 0.890780
0.200239 0.081040 0.910819
0.423787 0.047288 0.912571
0.636042 0.032332 0.905174
0.796992 0.035782 0.904477
0.922949 0.046753 0.910209
0.998926 0.061064 0.915748
0.000000 0.201755 0.834537
0.000000 0.217253 0.856426
0.029177 0.225392 0.884685
0.215152 0.223294 0.916354
0.448873 0.196896 0.933631
0.669847 0.181672 0.938157
0.838906 0.182744 0.942576
0.960683 0.194962 0.949733
1.000000 0.212253 0.954241
0.000000 0.347787 0.815731
0.000000 0.371722 0.837713
0.014687 0.387980 0.864340
0.198236 0.395922 0.898481
0.436809 0.378391 0.923458
0.668139 0.358292 0.939700
0.846901 0.356417 0.948956
0.967594 0.368033 0.955713
1.000000 0.385533 0.957353
0.000000 0.504017 0.820002
0.000000 0.529213 0.836380
0.007491 0.549350 0.853511
0.146181 0.567302 0.881188
0.398793 0.563566 0.904823
0.648181 0.541120 0.925587
0.836139 0.532534 0.939143
0.960438 0.540204 0.943899
1.000000 0.554520 0.939940
0.000000 0.652055 0.841374
0.000000 0.675316 0.857281
0.001676 0.695885 0.871024
0.077298 0.720113 0.889949
0.338480 0.729315 0.902324
0.614884 0.710067 0.908097
0.818146 0.692223 0.921556
0.943639 0.692818 0.921785
1.000000 0.702383 0.909684
0.000000 0.794887 0.899003
0.000000 0.815212 0.915446
0.005027 0.832435 0.928226
0.091823 0.849717 0.940016
0.350612 0.852702 0.936723
0.606208 0.838259 0.915804
0.801583 0.825061 0.903902
0.932641 0.817284 0.906657
1.000000 0.825160 0.883711
0.000000 0.927755 0.968690
0.000789 0.941527 0.978141
0.027600 0.951008 0.983955
0.182799 0.954907 0.985935
0.427350 0.944055 0.976108
0.643424 0.927140 0.952107
0.813411 0.916715 0.924841
0.929619 0.915137 0.901832
1.000000 0.919401 0.885547
0.000690 0.999758 0.999601
0.005619 1.000000 0.999869
0.062230 1.000000 0.999876
0.255024 1.000000 0.999621
0.470954 0.999946 0.998079
0.662783 0.998281 0.988205
0.813595 0.992494 0.969783
0.947085 0.972661 0.891339
0.999718 0.977295 0.877720
0.000000 0.033120 0.940494
0.000000 0.029276 0.952033
0.001775 0.016363 0.963841
0.139690 0.000000 0.975624
0.351936 0.000000 0.971938
0.564336 0.000000 0.958408
0.731703 0.000000 0.949703
0.859959 0.000000 0.950657
0.974067 0.000000 0.956636
0.000000 0.100156 0.933239
0.000000 0.106663 0.953626
0.009463 0.106015 0.976048
0.178188 0.096090 0.998223
0.401577 0.058741 0.998627
0.620311 0.041124 0.995984
0.790755 0.041872 0.993789
0.921597 0.052694 0.994516
0.998986 0.065435 0.996615
0.000000 0.212562 0.917126
0.000000 0.228638 0.940216
0.014194 0.237295 0.970292
0.194272 0.238336 0.998499
0.427272 0.212734 1.000000
0.652945 0.193994 0.999987
0.832113 0.192077 0.999987
0.959483 0.202030 0.999987
1.000000 0.217370 1.000000
0.000000 0.361295 0.897459
0.000000 0.385029 0.921065
0.010350 0.401036 0.949576
0.178276 0.409620 0.984802
0.413991 0.395143 0.998748
0.648930 0.372237 1.000000
0.837603 0.366697 1.000000
0.965762 0.375153 1.000000
1.000000 0.389409 1.000000
0.000000 0.519391 0.897761
0.000000 0.544403 0.915941
0.006506 0.563837 0.935960
0.133821 0.580528 0.966526
0.379418 0.578282 0.990468
0.625892 0.556064 0.998899
0.823295 0.542841 0.999987
0.957584 0.545831 1.000000
1.000000 0.555435 0.999946
0.000000 0.666760 0.914654
0.000000 0.690269 0.930652
0.001380 0.710393 0.944734
0.066041 0.733291 0.965706
0.309883 0.743479 0.984041
0.583220 0.724845 0.991839
0.798686 0.702022 0.998644
0.939416 0.696124 0.999980
0.999946 0.699235 0.999604
0.000000 0.802109 0.958944
0.000000 0.822423 0.972508
0.000000 0.839646 0.981444
0.025037 0.859755 0.989873
0.246693 0.872843 0.995384
0.545617 0.856873 0.990506
0.773455 0.834124 0.989109
0.924330 0.819750 0.999091
0.999758 0.817391 0.996079
0.000000 0.929004 0.997019
0.000000 0.943215 0.998943
0.000592 0.953575 0.999658
0.053404 0.963080 0.999876
0.307061 0.962945 0.999946
0.573978 0.945816 0.998341
0.768234 0.931430 0.990196
0.910965 0.921544 0.984254
1.000000 0.914820 0.982134
0.000000 0.999758 1.000000
0.000789 1.000000 1.000000
0.007688 1.000000 1.000000
0.151745 1.000000 1.000000
0.411656 1.000000 1.000000
0.636882 1.000000 1.000000
0.802697 1.000000 1.000000
0.915510 0.998836 0.999993
1.000000 0.999517 0.983096
