bundles/resolve-cinematic-luts/Gamut/Orion/Orion.cube
TITLE "Orion by Gamut"
# Contributor - JVKE. Version 1.0 - 09/28/2023 - Designed for Rec.709 Color Space. Copyright 2023 Gamut, LLC
LUT_3D_SIZE 5
0.003154 0.022869 0.024446
0.178076 0.029966 0.000000
0.422157 0.024840 0.000000
0.648937 0.006308 0.000000
0.841838 0.000000 0.000000
0.000000 0.203984 0.000000
0.204601 0.192344 0.000000
0.506911 0.186845 0.009660
0.731025 0.208401 0.000000
0.928793 0.230475 0.000000
0.145084 0.406417 0.012617
0.247271 0.400104 0.000000
0.559377 0.397525 0.000000
0.870579 0.397225 0.008280
1.000000 0.427561 0.005125
0.330490 0.608448 0.022474
0.401484 0.616443 0.002169
0.499040 0.578493 0.000000
0.894655 0.625893 0.000000
1.000000 0.617075 0.000000
0.503686 0.809323 0.048985
0.554968 0.817856 0.012026
0.605114 0.778217 0.000000
0.784623 0.769234 0.000000
1.000000 0.828049 0.000000
0.000000 0.032332 0.217483
0.212139 0.004732 0.223648
0.475666 0.000000 0.122532
0.693807 0.000000 0.039292
0.886384 0.000000 0.006111
0.000000 0.208597 0.204203
0.192196 0.220466 0.206393
0.479948 0.217990 0.156403
0.721834 0.223598 0.109968
0.927598 0.240161 0.077514
0.058546 0.460341 0.245895
0.285409 0.454300 0.225544
0.542083 0.430725 0.141434
0.817785 0.443424 0.200742
0.995216 0.479003 0.182615
0.264159 0.662839 0.214080
0.419768 0.641605 0.214442
0.522493 0.593252 0.088767
0.857985 0.641695 0.086644
1.000000 0.648384 0.203265
0.503700 0.825628 0.243512
0.579604 0.821614 0.234163
0.627899 0.794215 0.120425
0.762803 0.769130 0.005126
0.999866 0.840902 0.014391
0.000000 0.042890 0.463041
0.137130 0.013800 0.485337
0.522782 0.000000 0.453110
0.788869 0.000000 0.371298
0.980712 0.000000 0.309918
0.000000 0.231243 0.420471
0.112020 0.243890 0.449164
0.532335 0.206416 0.456074
0.787522 0.211346 0.385675
0.985751 0.216949 0.346048
0.000000 0.482922 0.477580
0.094955 0.502894 0.494460
0.531869 0.492273 0.449357
0.792366 0.492152 0.409963
0.992977 0.510527 0.385532
0.116931 0.733589 0.563198
0.279087 0.745837 0.569978
0.591411 0.684980 0.458211
0.830663 0.686648 0.359153
1.000000 0.699436 0.440372
0.331767 0.956733 0.566105
0.417172 0.952372 0.543102
0.638316 0.835627 0.418793
0.761904 0.779772 0.237708
0.999208 0.862128 0.272146
0.000000 0.056507 0.710315
0.049020 0.034303 0.733131
0.477365 0.000000 0.737049
0.818078 0.000000 0.710612
0.999960 0.000000 0.672824
0.000000 0.252230 0.667731
0.043100 0.263130 0.705253
0.487627 0.217889 0.741171
0.840785 0.197794 0.725271
1.000000 0.214366 0.685040
0.000000 0.512935 0.684646
0.008871 0.537740 0.699309
0.449491 0.516360 0.708743
0.827708 0.488511 0.709489
1.000000 0.506728 0.666710
0.000000 0.766215 0.761835
0.030360 0.785225 0.776949
0.458382 0.768173 0.749861
0.823854 0.759239 0.696433
1.000000 0.760659 0.666338
0.041589 0.995141 0.859175
0.175508 0.998530 0.870343
0.536255 0.970403 0.838654
0.841127 0.892771 0.678060
0.999772 0.918063 0.589434
0.000000 0.074158 0.929495
0.002365 0.055714 0.953320
0.418505 0.000000 0.976770
0.793093 0.000000 0.969692
0.999812 0.000000 0.961542
0.000000 0.273216 0.892238
0.007097 0.283684 0.932777
0.430156 0.241164 0.974225
0.816981 0.205744 0.988618
1.000000 0.204647 0.984309
0.000000 0.536923 0.886512
0.005520 0.559640 0.910575
0.393711 0.537980 0.935543
0.803933 0.496632 0.972043
1.000000 0.490495 0.968838
0.000000 0.799157 0.940040
0.000000 0.821328 0.951716
0.236648 0.811293 0.927423
0.762668 0.779885 0.928726
0.999926 0.758862 0.930764
0.000789 1.000000 1.000000
0.000789 1.000000 1.000000
0.362009 1.000000 0.997473
0.775883 0.985144 0.948004
1.000000 0.979988 0.904643
