bundles/resolve-cinematic-luts/Gamut/Orion/Orion.cube
TITLE "Orion by Gamut"
# Contributor - JVKE. Version 1.0 - 09/28/2023 - Designed for Rec.709 Color Space. Copyright 2023 Gamut, LLC
LUT_3D_SIZE 33
0.003154 0.022869 0.024446
0.023312 0.023657 0.023682
0.038936 0.024397 0.022080
0.054821 0.025949 0.020577
0.072953 0.027501 0.018334
0.093325 0.026812 0.013233
0.120996 0.028241 0.000887
0.148174 0.029177 0.000000
0.178076 0.029966 0.000000
0.209778 0.030532 0.000000
0.242142 0.029966 0.000000
0.274242 0.029966 0.000000
0.304947 0.029966 0.000000
0.334898 0.029966 0.000000
0.364047 0.028734 0.000000
0.393249 0.026762 0.000000
0.422157 0.024840 0.000000
0.450939 0.023288 0.000000
0.479703 0.020947 0.000000
0.508170 0.020182 0.000000
0.537019 0.018630 0.000000
0.565402 0.017078 0.000000
0.593705 0.014490 0.000000
0.621775 0.011164 0.000000
0.648937 0.006308 0.000000
0.674063 0.001405 0.000000
0.698984 0.000000 0.000000
0.723929 0.000000 0.000000
0.747975 0.000000 0.000000
0.771375 0.000000 0.000000
0.794866 0.000000 0.000000
0.818235 0.000000 0.000000
0.841838 0.000000 0.000000
0.000049 0.042922 0.025234
0.020183 0.044375 0.019049
0.044667 0.041511 0.025777
0.061381 0.042198 0.026023
0.076606 0.043714 0.023780
0.095794 0.044424 0.017867
0.120173 0.044449 0.006432
0.148935 0.045737 0.000444
0.177951 0.045201 0.000000
0.208565 0.044679 0.000000
0.240248 0.043970 0.000000
0.271711 0.043277 0.000000
0.302608 0.043021 0.000000
0.332867 0.043021 0.000000
0.362528 0.043739 0.000000
0.391948 0.043320 0.000000
0.421336 0.042222 0.000000
0.451025 0.041081 0.000000
0.480912 0.040649 0.000000
0.510551 0.040309 0.000000
0.540272 0.039552 0.000000
0.569741 0.038763 0.000000
0.598893 0.036965 0.000000
0.627453 0.033638 0.000000
0.654953 0.029744 0.000000
0.678946 0.025086 0.000000
0.704440 0.021538 0.000000
0.729553 0.021045 0.000000
0.753788 0.021686 0.000000
0.777505 0.022549 0.000000
0.800989 0.023287 0.000000
0.824592 0.024790 0.000000
0.848450 0.025555 0.000000
0.000000 0.063882 0.023756
0.020133 0.062814 0.019763
0.036669 0.063309 0.016757
0.062305 0.060525 0.021317
0.086202 0.059352 0.024397
0.105589 0.058793 0.025185
0.128231 0.058793 0.018679
0.154414 0.059304 0.004411
0.184390 0.060593 0.000148
0.213534 0.060553 0.000000
0.244012 0.059957 0.000000
0.274944 0.059357 0.000000
0.306133 0.059687 0.000000
0.336192 0.060267 0.000000
0.366272 0.060842 0.000000
0.396445 0.061958 0.000000
0.427181 0.062440 0.000000
0.457589 0.062692 0.000000
0.488417 0.062692 0.000000
0.519143 0.062417 0.000000
0.549332 0.061308 0.000000
0.579014 0.059420 0.000000
0.607641 0.057058 0.000000
0.633337 0.053569 0.000000
0.659698 0.048735 0.000000
0.686420 0.046938 0.000000
0.712550 0.046790 0.000000
0.737902 0.046899 0.000000
0.762386 0.047531 0.000000
0.786076 0.048895 0.000000
0.809805 0.050189 0.000000
0.833334 0.051511 0.000000
0.857374 0.052762 0.000000
0.000000 0.084232 0.021440
0.017226 0.082450 0.018334
0.033490 0.082851 0.016609
0.052883 0.081967 0.015205
0.083121 0.080597 0.012346
0.112943 0.076009 0.021070
0.139077 0.073507 0.023017
0.164945 0.073014 0.018384
0.192732 0.073815 0.005667
0.225544 0.076552 0.000296
0.255009 0.077215 0.000000
0.285276 0.077590 0.000000
0.315713 0.078013 0.000000
0.346181 0.079250 0.000000
0.376448 0.080293 0.000000
0.407416 0.082360 0.000000
0.438966 0.084996 0.000000
0.470139 0.085456 0.000000
0.501087 0.085456 0.000000
0.531203 0.084411 0.000000
0.560605 0.082331 0.000000
0.586966 0.078939 0.000000
0.613459 0.075474 0.000000
0.640774 0.073886 0.000000
0.668286 0.072857 0.000000
0.695619 0.072524 0.000000
0.721950 0.072969 0.000000
0.747400 0.073923 0.000000
0.771907 0.074922 0.000000
0.795772 0.075956 0.000000
0.819495 0.077358 0.000000
0.843382 0.079222 0.000000
0.867237 0.080628 0.000000
0.000000 0.104398 0.018334
0.011188 0.103231 0.014539
0.032529 0.102516 0.016560
0.047042 0.103192 0.014342
0.071467 0.101381 0.011927
0.107385 0.100192 0.004115
0.145875 0.093079 0.016955
0.176639 0.089952 0.020010
0.205300 0.089340 0.017447
0.234939 0.090561 0.008527
0.266304 0.092104 0.001232
0.301757 0.096262 0.000173
0.332402 0.098375 0.000000
0.362178 0.100113 0.000000
0.392239 0.101974 0.000000
0.423040 0.103856 0.000000
0.453801 0.105707 0.000000
0.484566 0.107138 0.000000
0.514236 0.106645 0.000000
0.539032 0.102409 0.000000
0.566367 0.100900 0.000000
0.594333 0.099968 0.000000
0.622266 0.099149 0.000000
0.650395 0.099039 0.000000
0.678523 0.099380 0.000000
0.705792 0.099805 0.000000
0.732310 0.100652 0.000000
0.757712 0.101742 0.000000
0.782293 0.103206 0.000000
0.806346 0.104685 0.000000
0.830088 0.106473 0.000000
0.854133 0.108547 0.000000
0.877993 0.110328 0.000000
0.000000 0.126391 0.011656
0.005717 0.125143 0.009857
0.033071 0.123860 0.014958
0.046266 0.125035 0.013603
0.063506 0.124949 0.012026
0.097280 0.121783 0.001405
0.140823 0.120560 0.001134
0.184774 0.112753 0.014465
0.219284 0.109916 0.018310
0.250256 0.109454 0.017989
0.280814 0.110426 0.012740
0.311911 0.112468 0.004559
0.342118 0.114660 0.001503
0.371774 0.116890 0.000666
0.401281 0.118969 0.000222
0.431056 0.120876 0.000000
0.460674 0.122484 0.000000
0.490189 0.123774 0.000000
0.519302 0.124354 0.000000
0.547671 0.124609 0.000000
0.576048 0.124703 0.000000
0.604557 0.125223 0.000000
0.633080 0.125575 0.000000
0.661511 0.126365 0.000000
0.689511 0.127193 0.000000
0.716863 0.128135 0.000000
0.743216 0.129304 0.000000
0.768745 0.130817 0.000000
0.793329 0.132558 0.000000
0.817481 0.134355 0.000000
0.841405 0.136579 0.000000
0.865416 0.138768 0.000000
0.889212 0.140686 0.000000
0.000000 0.150168 0.004534
0.001774 0.148913 0.005150
0.032923 0.147629 0.013357
0.045695 0.149287 0.012051
0.061110 0.150096 0.011139
0.084546 0.149269 0.008551
0.128770 0.143755 0.000148
0.180148 0.142887 0.001060
0.227834 0.136081 0.012272
0.264923 0.132943 0.017275
0.297513 0.131783 0.018778
0.328285 0.132561 0.016363
0.357857 0.134466 0.011188
0.386402 0.136728 0.005742
0.415093 0.139241 0.001824
0.443837 0.141574 0.000863
0.472734 0.143801 0.000641
0.501836 0.145645 0.000000
0.530871 0.147455 0.000000
0.559600 0.148887 0.000000
0.588338 0.150098 0.000000
0.616853 0.151388 0.000000
0.645450 0.152624 0.000000
0.673719 0.153797 0.000000
0.701805 0.155155 0.000000
0.729002 0.156474 0.000000
0.755199 0.158169 0.000000
0.780586 0.160040 0.000000
0.805330 0.161970 0.000000
0.829606 0.164274 0.000000
0.853548 0.166769 0.000000
0.877467 0.169074 0.000000
0.901270 0.171318 0.000000
0.000000 0.175789 0.000345
0.000764 0.175073 0.002489
0.034229 0.174339 0.012371
0.047434 0.176194 0.011903
0.064015 0.177568 0.010966
0.084640 0.177300 0.009586
0.116582 0.173136 0.005594
0.163049 0.167284 0.000173
0.223636 0.166874 0.001700
0.273077 0.160144 0.010744
0.311258 0.156313 0.015722
0.344381 0.155096 0.018827
0.374685 0.155816 0.018753
0.403539 0.157429 0.015550
0.432199 0.160046 0.011040
0.460721 0.162793 0.005767
0.489244 0.165544 0.002415
0.517885 0.168303 0.001405
0.546234 0.170729 0.000616
0.574659 0.172974 0.000616
0.603050 0.174976 0.000000
0.631451 0.176946 0.000000
0.659771 0.178864 0.000000
0.687771 0.180648 0.000000
0.715502 0.182429 0.000000
0.742526 0.184242 0.000000
0.768760 0.186213 0.000000
0.794039 0.188521 0.000000
0.818770 0.190911 0.000000
0.842840 0.193506 0.000000
0.866821 0.196194 0.000000
0.890736 0.198842 0.000000
0.914432 0.201452 0.000000
0.000000 0.203984 0.000000
0.002119 0.203228 0.002908
0.038295 0.202171 0.012913
0.055521 0.203830 0.013283
0.072240 0.205322 0.012420
0.091497 0.204996 0.010966
0.115869 0.201843 0.008132
0.153527 0.194341 0.000518
0.204601 0.192344 0.000000
0.268985 0.190428 0.001725
0.318652 0.183955 0.009217
0.357176 0.180005 0.013652
0.390044 0.178632 0.016757
0.420015 0.179302 0.018014
0.449268 0.181337 0.017299
0.478118 0.183798 0.014145
0.506911 0.186845 0.009660
0.535386 0.189979 0.005569
0.563700 0.192968 0.002662
0.591832 0.195931 0.001651
0.619953 0.198637 0.001084
0.648106 0.201381 0.000789
0.675971 0.203801 0.000592
0.703665 0.206141 0.000000
0.731025 0.208401 0.000000
0.757816 0.210684 0.000000
0.783866 0.213156 0.000000
0.809119 0.215871 0.000000
0.833599 0.218617 0.000000
0.857690 0.221649 0.000000
0.881474 0.224589 0.000000
0.905208 0.227416 0.000000
0.928793 0.230475 0.000000
0.000000 0.232923 0.000000
0.007220 0.231314 0.004435
0.049725 0.229583 0.014465
0.067467 0.231008 0.014194
0.084103 0.232206 0.013406
0.102121 0.232111 0.012518
0.123297 0.229609 0.008970
0.150652 0.223318 0.003450
0.191171 0.214205 0.000197
0.251176 0.217484 0.000000
0.314971 0.214020 0.001774
0.363377 0.207747 0.007171
0.401754 0.204224 0.011040
0.434561 0.202971 0.014440
0.465100 0.203629 0.016659
0.494789 0.205552 0.016782
0.523988 0.208213 0.015722
0.553079 0.211414 0.012568
0.581608 0.214728 0.008896
0.609882 0.217987 0.005569
0.638069 0.221308 0.003204
0.666004 0.224519 0.002144
0.693650 0.227451 0.001355
0.721052 0.230339 0.000789
0.748211 0.233260 0.000567
0.774836 0.236070 0.000394
0.800613 0.238985 0.000000
0.825629 0.242056 0.000000
0.850005 0.245321 0.000000
0.873902 0.248536 0.000000
0.897482 0.251803 0.000000
0.920881 0.255074 0.000000
0.944157 0.258436 0.000000
0.000000 0.260145 0.000000
0.024594 0.257978 0.007270
0.063277 0.256558 0.015278
0.081212 0.257696 0.015057
0.097742 0.258820 0.014835
0.115443 0.258532 0.012740
0.134895 0.256164 0.009759
0.156269 0.251004 0.004461
0.184589 0.242157 0.000394
0.229094 0.235993 0.000000
0.297693 0.241863 0.000542
0.359966 0.237505 0.001799
0.406935 0.231996 0.004879
0.444961 0.229051 0.008231
0.478366 0.227856 0.011780
0.509628 0.228527 0.014194
0.540029 0.230519 0.015870
0.569791 0.233260 0.015771
0.599083 0.236556 0.014145
0.627884 0.239994 0.011237
0.656316 0.243484 0.008132
0.684412 0.246968 0.005298
0.712073 0.250297 0.003204
0.739473 0.253667 0.002440
0.766486 0.256940 0.001922
0.792849 0.260264 0.001158
0.818595 0.263684 0.000789
0.843425 0.267121 0.000419
0.867642 0.270732 0.000000
0.891338 0.274390 0.000000
0.914500 0.278017 0.000000
0.937260 0.281587 0.000000
0.959752 0.285219 0.000000
0.003622 0.286291 0.001035
0.048343 0.283411 0.011114
0.078647 0.282848 0.015623
0.096363 0.283823 0.015771
0.113124 0.284641 0.014983
0.130339 0.284366 0.013529
0.148203 0.282149 0.009907
0.166110 0.277335 0.003844
0.186981 0.269504 0.000394
0.220150 0.259620 0.000000
0.271795 0.259945 0.000000
0.344787 0.266046 0.000518
0.403738 0.261814 0.001060
0.448995 0.257225 0.003327
0.487342 0.254616 0.005914
0.521747 0.253640 0.009438
0.554189 0.254448 0.012248
0.585371 0.256427 0.014317
0.615435 0.259188 0.014983
0.645011 0.262336 0.014391
0.674077 0.265727 0.012568
0.702499 0.269250 0.010227
0.730551 0.272847 0.007368
0.758121 0.276427 0.005545
0.785243 0.280046 0.003992
0.811560 0.283640 0.002711
0.837279 0.287363 0.001947
0.862058 0.291177 0.001183
0.886187 0.295096 0.000789
0.909361 0.299060 0.000518
0.931652 0.302998 0.000000
0.953195 0.306926 0.000000
0.974137 0.310823 0.000000
0.028487 0.310962 0.005422
0.075470 0.308022 0.014515
0.095944 0.308646 0.015771
0.113193 0.309648 0.015771
0.130097 0.310363 0.015081
0.146531 0.310034 0.013036
0.162500 0.307821 0.009118
0.178031 0.303260 0.003179
0.194425 0.296147 0.000394
0.218436 0.286093 0.000000
0.257903 0.278802 0.000000
0.318956 0.286006 0.000000
0.390104 0.290680 0.000000
0.445392 0.286998 0.000789
0.490264 0.283287 0.002317
0.529586 0.281103 0.004165
0.565432 0.280617 0.007196
0.598688 0.281335 0.010300
0.630374 0.283134 0.012765
0.660997 0.285616 0.013702
0.690834 0.288662 0.013701
0.719993 0.291960 0.012839
0.748480 0.295401 0.010991
0.776445 0.299036 0.008650
0.803827 0.302725 0.006900
0.830425 0.306520 0.004756
0.856245 0.310466 0.003647
0.881074 0.314546 0.002735
0.904820 0.318686 0.001971
0.927163 0.322870 0.001282
0.947998 0.327095 0.000789
0.967370 0.331319 0.000468
0.985746 0.335532 0.000000
0.064299 0.334397 0.010079
0.095703 0.333216 0.014884
0.114467 0.333987 0.015032
0.131626 0.335022 0.014983
0.147848 0.335492 0.014515
0.162930 0.335171 0.012272
0.177490 0.333112 0.007861
0.191352 0.328906 0.002267
0.205017 0.322255 0.000197
0.222610 0.313081 0.000000
0.252255 0.303015 0.000000
0.297943 0.301685 0.000000
0.366404 0.312418 0.000000
0.433132 0.315967 0.000000
0.486318 0.313215 0.000789
0.531769 0.310501 0.001577
0.572220 0.308889 0.003401
0.608835 0.308372 0.006112
0.642993 0.308931 0.008748
0.675245 0.310444 0.011065
0.706270 0.312702 0.012149
0.736333 0.315412 0.012617
0.765600 0.318460 0.011829
0.794124 0.321864 0.011040
0.821912 0.325442 0.009413
0.848924 0.329292 0.007861
0.874960 0.333284 0.006309
0.899780 0.337419 0.004756
0.922921 0.341699 0.003622
0.943985 0.346088 0.002760
0.962555 0.350489 0.001996
0.978841 0.354920 0.001232
0.993582 0.359260 0.000000
0.096983 0.357759 0.013061
0.116569 0.358134 0.013726
0.134640 0.359005 0.014194
0.150725 0.359732 0.013751
0.165621 0.360339 0.013061
0.179611 0.360086 0.010399
0.192823 0.358257 0.006309
0.205718 0.354412 0.001306
0.217879 0.348347 0.000197
0.231450 0.339808 0.000000
0.253385 0.329592 0.000000
0.288821 0.322370 0.000000
0.342273 0.327982 0.000000
0.412072 0.339323 0.000000
0.475243 0.342272 0.000000
0.527638 0.340559 0.000789
0.573620 0.338634 0.001528
0.614773 0.337239 0.003080
0.652294 0.336728 0.005323
0.687079 0.337082 0.007319
0.719946 0.338181 0.009660
0.751292 0.340035 0.010424
0.781531 0.342463 0.011385
0.810898 0.345354 0.011040
0.839308 0.348616 0.010251
0.866772 0.352134 0.009463
0.893016 0.356056 0.008181
0.917572 0.360106 0.007073
0.939727 0.364446 0.005865
0.958925 0.368886 0.004756
0.974553 0.373320 0.003549
0.987137 0.377878 0.002785
0.997887 0.382403 0.001232
0.121637 0.382148 0.013406
0.138952 0.382781 0.012987
0.155016 0.383599 0.012987
0.169733 0.384412 0.012198
0.183403 0.384928 0.010719
0.196373 0.384736 0.008502
0.208956 0.383195 0.004608
0.220716 0.379739 0.001134
0.231936 0.374148 0.000000
0.243444 0.366461 0.000000
0.260088 0.356943 0.000000
0.287682 0.348043 0.000000
0.329893 0.346754 0.000000
0.389055 0.357033 0.000000
0.456759 0.367009 0.000000
0.517298 0.369621 0.000000
0.569310 0.368728 0.000789
0.615682 0.367402 0.001528
0.657418 0.366109 0.002735
0.695684 0.365458 0.004214
0.731066 0.365451 0.006186
0.764306 0.366168 0.008107
0.796003 0.367602 0.008871
0.826413 0.369791 0.009832
0.855660 0.372401 0.009832
0.883653 0.375576 0.009832
0.909986 0.379112 0.009463
0.933964 0.382998 0.008674
0.954654 0.387169 0.007516
0.971312 0.391559 0.006654
0.983748 0.395983 0.005520
0.992676 0.400486 0.004337
0.999613 0.405027 0.002785
0.145084 0.406417 0.012617
0.160573 0.407046 0.012223
0.175268 0.408007 0.011878
0.188814 0.408878 0.010719
0.201588 0.409527 0.009167
0.213833 0.409459 0.006161
0.225560 0.408168 0.003056
0.236717 0.405009 0.000961
0.247271 0.400104 0.000000
0.257854 0.393342 0.000000
0.271290 0.384851 0.000000
0.292900 0.376035 0.000000
0.326414 0.370824 0.000000
0.374023 0.375528 0.000000
0.435932 0.386951 0.000000
0.500887 0.395031 0.000000
0.559377 0.397525 0.000000
0.611233 0.397395 0.000789
0.657980 0.396447 0.001528
0.700385 0.395198 0.002292
0.739026 0.394224 0.003549
0.774900 0.393843 0.005002
0.808431 0.394213 0.006555
0.840302 0.395395 0.007319
0.870579 0.397225 0.008280
0.899182 0.399723 0.008847
0.925415 0.402784 0.009068
0.948400 0.406293 0.008674
0.967099 0.410152 0.008575
0.981009 0.414303 0.007886
0.990246 0.418635 0.007097
0.996067 0.423038 0.005890
1.000000 0.427561 0.005125
0.167961 0.430520 0.012617
0.182284 0.431452 0.011829
0.195729 0.432498 0.011040
0.208300 0.433437 0.009537
0.220436 0.434259 0.007985
0.231929 0.434347 0.005273
0.242958 0.433260 0.001873
0.253688 0.430683 0.000789
0.264025 0.426464 0.000000
0.274235 0.420635 0.000000
0.285941 0.413346 0.000000
0.303204 0.405123 0.000000
0.330016 0.398570 0.000000
0.368545 0.398070 0.000000
0.420115 0.405934 0.000000
0.482351 0.416572 0.000000
0.544656 0.423345 0.000000
0.601722 0.425914 0.000000
0.653587 0.426381 0.000764
0.700710 0.425576 0.000789
0.743473 0.424277 0.001577
0.782475 0.422998 0.002785
0.818472 0.422286 0.003573
0.852120 0.422332 0.005002
0.883670 0.423260 0.005767
0.912833 0.424910 0.006530
0.938816 0.427284 0.007295
0.960428 0.430219 0.007516
0.976819 0.433637 0.007615
0.987942 0.437452 0.007886
0.994595 0.441504 0.007516
0.998035 0.445664 0.007097
1.000000 0.449910 0.006259
0.190892 0.454898 0.012174
0.203937 0.456010 0.011829
0.216350 0.457161 0.010300
0.228412 0.458358 0.009537
0.239853 0.459270 0.007196
0.250744 0.459549 0.004189
0.261477 0.458876 0.001725
0.271906 0.456855 0.000789
0.282136 0.453353 0.000000
0.292092 0.448387 0.000000
0.302781 0.442035 0.000000
0.317137 0.434590 0.000000
0.338602 0.427538 0.000000
0.369669 0.424020 0.000000
0.412448 0.427389 0.000000
0.466731 0.436423 0.000000
0.527893 0.445795 0.000000
0.588202 0.451781 0.000000
0.644651 0.454802 0.000000
0.696580 0.455497 0.000444
0.743855 0.454759 0.000789
0.786552 0.453132 0.001232
0.825486 0.451631 0.002021
0.861334 0.450675 0.002809
0.894391 0.450529 0.003450
0.924273 0.451251 0.004214
0.949792 0.452732 0.004978
0.969950 0.455005 0.005742
0.983986 0.457804 0.005964
0.992642 0.461098 0.006752
0.997147 0.464770 0.006752
0.999085 0.468575 0.006752
1.000000 0.472465 0.007097
0.213692 0.479503 0.012617
0.225962 0.480989 0.011829
0.237730 0.482413 0.011040
0.249066 0.483751 0.009537
0.259974 0.484831 0.007196
0.270601 0.485451 0.004854
0.281030 0.485116 0.002193
0.291272 0.483603 0.000789
0.301272 0.480707 0.000000
0.310933 0.476348 0.000000
0.320958 0.470653 0.000000
0.333201 0.463788 0.000000
0.350688 0.456826 0.000000
0.375852 0.451793 0.000000
0.410724 0.451407 0.000000
0.456833 0.457245 0.000000
0.512585 0.466445 0.000000
0.572669 0.474936 0.000000
0.631823 0.480767 0.000000
0.687994 0.483962 0.000000
0.739835 0.484728 0.000000
0.786769 0.483712 0.000468
0.829105 0.481930 0.000789
0.867563 0.480226 0.001257
0.902456 0.479058 0.001577
0.933060 0.478732 0.002045
0.958219 0.479257 0.002834
0.976862 0.480654 0.003622
0.988920 0.482734 0.004189
0.995526 0.485431 0.004411
0.998518 0.488455 0.005199
0.999601 0.491784 0.005199
1.000000 0.495332 0.006456
0.236968 0.504793 0.013701
0.248432 0.506479 0.012938
0.259610 0.508121 0.012174
0.270365 0.509696 0.010621
0.280920 0.510965 0.008379
0.291265 0.511813 0.005643
0.301355 0.511781 0.002957
0.311272 0.510620 0.001257
0.320910 0.508133 0.000493
0.330279 0.504242 0.000000
0.339761 0.499002 0.000000
0.350618 0.492657 0.000000
0.365154 0.485793 0.000000
0.385486 0.480009 0.000000
0.413956 0.477248 0.000000
0.452431 0.479687 0.000000
0.501197 0.486985 0.000000
0.557584 0.496075 0.000000
0.616904 0.504238 0.000000
0.675639 0.510125 0.000000
0.731384 0.513201 0.000000
0.782619 0.513730 0.000000
0.828888 0.512451 0.000000
0.870537 0.510505 0.000493
0.907442 0.508590 0.000789
0.939075 0.507308 0.000789
0.964129 0.506883 0.001282
0.981570 0.507307 0.001577
0.992038 0.508582 0.002070
0.997200 0.510477 0.002858
0.999230 0.512861 0.002908
0.999829 0.515582 0.003647
1.000000 0.518477 0.004436
0.260492 0.530512 0.015525
0.271282 0.532413 0.014761
0.281850 0.534216 0.013726
0.292241 0.535951 0.012174
0.302354 0.537469 0.009931
0.312281 0.538438 0.006826
0.322012 0.538549 0.003721
0.331598 0.537659 0.001750
0.340962 0.535470 0.000789
0.349976 0.531939 0.000000
0.358995 0.527150 0.000000
0.368808 0.521192 0.000000
0.381136 0.514548 0.000000
0.397922 0.508302 0.000000
0.421146 0.504078 0.000000
0.452846 0.503727 0.000000
0.494399 0.508251 0.000000
0.544996 0.516382 0.000000
0.601610 0.525464 0.000000
0.660726 0.533647 0.000000
0.719100 0.539397 0.000000
0.774248 0.542185 0.000000
0.824624 0.542311 0.000000
0.869811 0.540851 0.000000
0.909355 0.538756 0.000000
0.942386 0.536742 0.000000
0.967595 0.535455 0.000518
0.984440 0.534961 0.000789
0.993829 0.535290 0.000789
0.998060 0.536362 0.001306
0.999567 0.537983 0.001577
0.999923 0.539926 0.001577
1.000000 0.542157 0.002637
0.284058 0.556477 0.017595
0.294165 0.558522 0.016831
0.304238 0.560512 0.015525
0.314137 0.562365 0.013726
0.323862 0.564005 0.011484
0.333385 0.565045 0.008379
0.342816 0.565322 0.005273
0.352070 0.564589 0.002538
0.361107 0.562643 0.000986
0.369848 0.559383 0.000222
0.378408 0.554946 0.000000
0.387425 0.549333 0.000000
0.398142 0.542934 0.000000
0.412214 0.536513 0.000000
0.431290 0.531323 0.000000
0.457349 0.528923 0.000000
0.492026 0.530667 0.000000
0.536059 0.536694 0.000000
0.587847 0.545439 0.000000
0.644898 0.554742 0.000000
0.704077 0.562806 0.000000
0.762033 0.568227 0.000000
0.816246 0.570619 0.000000
0.865224 0.570507 0.000000
0.907887 0.568862 0.000000
0.942931 0.566641 0.000000
0.968989 0.564707 0.000000
0.985784 0.563331 0.000000
0.994693 0.562844 0.000000
0.998506 0.563030 0.000542
0.999700 0.563837 0.000789
0.999955 0.565051 0.000814
1.000000 0.566449 0.000789
0.307344 0.582435 0.019936
0.317075 0.584710 0.019148
0.326670 0.586842 0.017842
0.336068 0.588771 0.016067
0.345363 0.590477 0.013258
0.354502 0.591644 0.009931
0.363594 0.592007 0.006826
0.372595 0.591405 0.003721
0.381288 0.589650 0.001774
0.389745 0.586665 0.000789
0.397956 0.582468 0.000000
0.406357 0.577155 0.000000
0.415876 0.571012 0.000000
0.427839 0.564594 0.000000
0.443696 0.558723 0.000000
0.465091 0.554777 0.000000
0.493832 0.554149 0.000000
0.531042 0.557624 0.000000
0.576975 0.564789 0.000000
0.630038 0.574053 0.000000
0.687801 0.583617 0.000000
0.746888 0.591495 0.000000
0.804123 0.596479 0.000000
0.856847 0.598522 0.000000
0.902979 0.598178 0.000000
0.940708 0.596418 0.000000
0.968379 0.594228 0.000000
0.985864 0.592288 0.000000
0.994931 0.591051 0.000000
0.998606 0.590414 0.000000
0.999788 0.590434 0.000000
0.999993 0.590843 0.000567
1.000000 0.591482 0.000789
0.330490 0.608448 0.022474
0.339667 0.610738 0.021489
0.348865 0.613015 0.019961
0.357881 0.615058 0.017891
0.366806 0.616846 0.015377
0.375576 0.618040 0.012272
0.384349 0.618525 0.008379
0.393009 0.618003 0.004485
0.401484 0.616443 0.002169
0.409724 0.613620 0.000789
0.417620 0.609693 0.000000
0.425513 0.604622 0.000000
0.434060 0.598733 0.000000
0.444390 0.592373 0.000000
0.457732 0.586186 0.000000
0.475367 0.581110 0.000000
0.499040 0.578493 0.000000
0.530216 0.579508 0.000000
0.569839 0.584375 0.000000
0.617554 0.592535 0.000000
0.672028 0.602448 0.000000
0.730315 0.612039 0.000000
0.788986 0.619571 0.000000
0.844793 0.624170 0.000000
0.894655 0.625893 0.000000
0.935603 0.625302 0.000000
0.965669 0.623587 0.000000
0.984714 0.621524 0.000000
0.994499 0.619691 0.000000
0.998505 0.618399 0.000000
0.999718 0.617626 0.000000
0.999928 0.617205 0.000025
1.000000 0.617075 0.000000
0.353310 0.634382 0.024791
0.362081 0.636741 0.024027
0.370873 0.639055 0.022474
0.379508 0.641231 0.020207
0.388027 0.642983 0.017718
0.396539 0.644309 0.013825
0.404957 0.644861 0.009931
0.413362 0.644475 0.006038
0.421566 0.642932 0.002933
0.429588 0.640308 0.001011
0.437235 0.636506 0.000247
0.444732 0.631703 0.000000
0.452538 0.626019 0.000000
0.461577 0.619803 0.000000
0.472881 0.613439 0.000000
0.487623 0.607649 0.000000
0.507175 0.603518 0.000000
0.533091 0.602305 0.000000
0.566710 0.604771 0.000000
0.608619 0.610982 0.000000
0.658247 0.620129 0.000000
0.713886 0.630432 0.000000
0.772278 0.639865 0.000000
0.829922 0.647007 0.000000
0.882935 0.651243 0.000000
0.927577 0.652659 0.000000
0.960892 0.652071 0.000000
0.982188 0.650411 0.000000
0.993486 0.648467 0.000000
0.998190 0.646710 0.000000
0.999658 0.645270 0.000000
0.999969 0.644207 0.000000
1.000000 0.643345 0.000173
0.375915 0.660082 0.027896
0.384239 0.662540 0.026343
0.392688 0.664915 0.024791
0.400943 0.667061 0.023091
0.409122 0.668950 0.020059
0.417279 0.670275 0.016165
0.425400 0.670907 0.011632
0.433514 0.670547 0.006974
0.441542 0.669141 0.003696
0.449286 0.666606 0.001799
0.456743 0.662982 0.000394
0.463910 0.658294 0.000000
0.471159 0.652856 0.000000
0.479220 0.646739 0.000000
0.488944 0.640363 0.000000
0.501381 0.634132 0.000000
0.517659 0.628988 0.000000
0.539289 0.625971 0.000000
0.567542 0.626106 0.000000
0.603593 0.630018 0.000000
0.647814 0.637560 0.000000
0.699143 0.647437 0.000000
0.755488 0.657869 0.000000
0.813436 0.667110 0.000000
0.868698 0.673872 0.000000
