bundles/resolve-cinematic-luts/Gamut/Orion/Orion Warm +CON.cube
TITLE "Orion Warm +CON by Gamut"
# Contributor - JVKE. Version 1.0 - 09/28/2023 - Designed for Rec.709 Color Space. Copyright 2023 Gamut, LLC
LUT_3D_SIZE 33
0.001577 0.020503 0.002366
0.024052 0.018162 0.008575
0.037408 0.020404 0.007146
0.048379 0.021932 0.005594
0.061901 0.023558 0.004830
0.078890 0.025111 0.001823
0.100435 0.025234 0.000148
0.126369 0.025234 0.000000
0.156476 0.025234 0.000000
0.189453 0.025234 0.000000
0.224240 0.023115 0.000000
0.258711 0.020256 0.000000
0.291042 0.017151 0.000000
0.322084 0.014047 0.000000
0.352471 0.010941 0.000000
0.382385 0.007836 0.000000
0.412017 0.004731 0.000000
0.441653 0.001996 0.000000
0.472354 0.000444 0.000000
0.503943 0.000000 0.000000
0.535266 0.000000 0.000000
0.565894 0.000000 0.000000
0.595830 0.000000 0.000000
0.624994 0.000000 0.000000
0.652446 0.000000 0.000000
0.677738 0.000000 0.000000
0.700381 0.000000 0.000000
0.719356 0.000000 0.000000
0.739746 0.000000 0.000000
0.760078 0.000000 0.000000
0.779743 0.000000 0.000000
0.799442 0.000000 0.000000
0.818791 0.000000 0.000000
0.000025 0.035978 0.003129
0.019418 0.034426 0.003179
0.041096 0.032874 0.007023
0.057817 0.033663 0.005594
0.071588 0.034475 0.006284
0.087724 0.035954 0.000493
0.106553 0.036077 0.000000
0.129904 0.036077 0.000000
0.158101 0.034722 0.000000
0.190636 0.033958 0.000000
0.224226 0.031863 0.000000
0.258972 0.030064 0.000000
0.291578 0.027994 0.000000
0.323050 0.025357 0.000000
0.354088 0.023017 0.000000
0.384408 0.020651 0.000000
0.414392 0.018310 0.000000
0.445491 0.016708 0.000000
0.477614 0.015155 0.000000
0.510568 0.013627 0.000000
0.543239 0.012100 0.000000
0.575021 0.010572 0.000000
0.605777 0.008798 0.000000
0.634937 0.006506 0.000000
0.662051 0.003647 0.000000
0.684753 0.002317 0.000000
0.706654 0.002317 0.000000
0.728496 0.002440 0.000000
0.749498 0.003080 0.000000
0.770271 0.003844 0.000000
0.790350 0.003894 0.000000
0.810290 0.004657 0.000000
0.829809 0.005397 0.000000
0.000789 0.050535 0.003943
0.014046 0.051183 0.000099
0.034253 0.048581 0.004682
0.055410 0.047205 0.006284
0.077273 0.046519 0.004140
0.096566 0.046523 0.004682
0.118912 0.047143 0.000345
0.140679 0.047231 0.000000
0.166202 0.046523 0.000000
0.195942 0.044614 0.000000
0.228928 0.042597 0.000000
0.263398 0.040914 0.000000
0.296676 0.039330 0.000000
0.328416 0.037778 0.000000
0.360228 0.036176 0.000000
0.392180 0.036151 0.000000
0.423421 0.035338 0.000000
0.455459 0.033786 0.000000
0.489433 0.032972 0.000000
0.523068 0.031100 0.000000
0.556409 0.029128 0.000000
0.588429 0.027305 0.000000
0.618843 0.024248 0.000000
0.647065 0.021144 0.000000
0.669998 0.017792 0.000000
0.693735 0.014539 0.000000
0.717118 0.014490 0.000000
0.739566 0.015401 0.000000
0.761248 0.016905 0.000000
0.782228 0.018532 0.000000
0.802507 0.020700 0.000000
0.822776 0.023016 0.000000
0.842793 0.025284 0.000000
0.000863 0.064934 0.002440
0.011681 0.066054 0.001528
0.027255 0.065921 0.000123
0.048308 0.062245 0.005446
0.072898 0.061561 0.004830
0.101888 0.059899 0.001897
0.126730 0.057575 0.001651
0.154817 0.058055 0.000099
0.181664 0.058131 0.000000
0.210155 0.057015 0.000000
0.242360 0.055784 0.000000
0.276131 0.054470 0.000000
0.309540 0.053601 0.000000
0.341854 0.052883 0.000000
0.374357 0.052592 0.000000
0.406786 0.052815 0.000000
0.439398 0.053399 0.000000
0.472574 0.052442 0.000000
0.506789 0.051513 0.000000
0.540393 0.049603 0.000000
0.572859 0.047568 0.000000
0.603463 0.044174 0.000000
0.629382 0.040541 0.000000
0.655126 0.037383 0.000000
0.681077 0.036102 0.000000
0.706097 0.035954 0.000000
0.730017 0.036669 0.000000
0.752870 0.038369 0.000000
0.774779 0.040003 0.000000
0.796036 0.042899 0.000000
0.816684 0.045688 0.000000
0.837256 0.048476 0.000000
0.857372 0.051656 0.000000
0.000099 0.080912 0.000099
0.011632 0.080550 0.000888
0.023411 0.081415 0.000000
0.041139 0.080422 0.000148
0.065029 0.076823 0.006210
0.097292 0.076143 0.001183
0.133161 0.072397 0.000099
0.162393 0.069346 0.000099
0.193167 0.068307 0.000000
0.230266 0.069628 0.000000
0.263571 0.069710 0.000000
0.297070 0.069639 0.000000
0.330263 0.069567 0.000000
0.362506 0.069495 0.000000
0.394981 0.069956 0.000000
0.427753 0.070307 0.000000
0.460079 0.071014 0.000000
0.492584 0.070770 0.000000
0.525877 0.069493 0.000000
0.557854 0.067465 0.000000
0.584668 0.063413 0.000000
0.612475 0.060954 0.000000
0.640578 0.059802 0.000000
0.668282 0.059196 0.000000
0.695051 0.059608 0.000000
0.720519 0.060698 0.000000
0.744885 0.062465 0.000000
0.767794 0.064728 0.000000
0.789755 0.067786 0.000000
0.811331 0.070868 0.000000
0.832342 0.074371 0.000000
0.853034 0.077773 0.000000
0.873509 0.081407 0.000000
0.000000 0.096560 0.000000
0.012395 0.096966 0.000099
0.022524 0.097745 0.000000
0.035781 0.098439 0.000000
0.056514 0.097180 0.000296
0.085652 0.093052 0.005274
0.130822 0.091670 0.000320
0.171343 0.086078 0.000000
0.206203 0.083201 0.000000
0.241280 0.081890 0.000000
0.277529 0.081440 0.000000
0.313311 0.081745 0.000000
0.347229 0.082299 0.000000
0.380462 0.083421 0.000000
0.413059 0.084325 0.000000
0.444417 0.084767 0.000000
0.474274 0.084528 0.000000
0.504399 0.084452 0.000000
0.535352 0.083994 0.000000
0.566460 0.083841 0.000000
0.596924 0.083146 0.000000
0.626561 0.083290 0.000000
0.655705 0.083731 0.000000
0.683825 0.084679 0.000000
0.710952 0.086301 0.000000
0.736579 0.088510 0.000000
0.760916 0.090999 0.000000
0.783957 0.094176 0.000000
0.806176 0.097714 0.000000
0.827842 0.101506 0.000000
0.848964 0.105791 0.000000
0.869966 0.110040 0.000000
0.890581 0.114099 0.000000
0.000000 0.114932 0.000000
0.011755 0.115196 0.000000
0.021144 0.116762 0.000000
0.032676 0.118074 0.000000
0.048983 0.118096 0.000000
0.077305 0.115367 0.000320
0.114012 0.112201 0.000937
0.171496 0.109028 0.000000
0.217946 0.103109 0.000000
0.257581 0.099282 0.000000
0.295083 0.097953 0.000000
0.330770 0.097502 0.000000
0.364062 0.098476 0.000000
0.395806 0.099563 0.000000
0.427073 0.100718 0.000000
0.458052 0.101784 0.000000
0.488328 0.102762 0.000000
0.519081 0.103556 0.000000
0.550893 0.104692 0.000000
0.582398 0.105794 0.000000
0.613441 0.106959 0.000000
0.643586 0.108381 0.000000
0.672875 0.110301 0.000000
0.701183 0.112360 0.000000
0.728186 0.114973 0.000000
0.753657 0.117942 0.000000
0.777956 0.121480 0.000000
0.801072 0.125407 0.000000
0.823286 0.129600 0.000000
0.844991 0.133990 0.000000
0.866196 0.138665 0.000000
0.887157 0.143319 0.000000
0.907807 0.148007 0.000000
0.000000 0.135646 0.000000
0.011015 0.136147 0.000000
0.020380 0.138080 0.000000
0.031815 0.140243 0.000000
0.045927 0.141520 0.000000
0.068459 0.139987 0.000000
0.107966 0.133786 0.000000
0.155791 0.134096 0.000000
0.219647 0.127757 0.000000
0.270626 0.121080 0.000000
0.312676 0.117501 0.000000
0.349837 0.116195 0.000000
0.383471 0.116564 0.000000
0.415595 0.117693 0.000000
0.447242 0.119275 0.000000
0.478287 0.121009 0.000000
0.509048 0.123113 0.000000
0.539851 0.125183 0.000000
0.571183 0.127354 0.000000
0.602505 0.129657 0.000000
0.633186 0.132031 0.000000
0.663094 0.134699 0.000000
0.691993 0.137675 0.000000
0.719842 0.140811 0.000000
0.746567 0.144199 0.000000
0.771758 0.148107 0.000000
0.795811 0.152420 0.000000
0.818774 0.157045 0.000000
0.840867 0.161823 0.000000
0.862434 0.166899 0.000000
0.883581 0.172063 0.000000
0.904485 0.177061 0.000000
0.924976 0.182269 0.000000
0.000000 0.159560 0.000000
0.008699 0.160050 0.000000
0.019369 0.162349 0.000000
0.032923 0.164355 0.000000
0.048130 0.165874 0.000000
0.067041 0.165127 0.000000
0.097549 0.159840 0.000000
0.141440 0.152747 0.000000
0.209514 0.156210 0.000000
0.274278 0.147287 0.000000
0.325796 0.140696 0.000000
0.367227 0.137467 0.000000
0.402859 0.136878 0.000000
0.436169 0.137698 0.000000
0.468586 0.139440 0.000000
0.500595 0.141751 0.000000
0.531821 0.144562 0.000000
0.562581 0.147500 0.000000
0.593564 0.150598 0.000000
0.624472 0.153853 0.000000
0.654684 0.157529 0.000000
0.684019 0.161202 0.000000
0.712387 0.165169 0.000000
0.739643 0.169196 0.000000
0.765855 0.173741 0.000000
0.790760 0.178317 0.000000
0.814314 0.183295 0.000000
0.837001 0.188507 0.000000
0.858828 0.193874 0.000000
0.880132 0.199417 0.000000
0.901137 0.204949 0.000000
0.921646 0.210685 0.000000
0.942126 0.216231 0.000000
0.000000 0.184725 0.000000
0.010424 0.185407 0.000000
0.023337 0.187399 0.000000
0.037876 0.189638 0.000000
0.053619 0.190908 0.000000
0.070831 0.190796 0.000000
0.094406 0.186822 0.000000
0.131522 0.177081 0.000000
0.183100 0.174594 0.000000
0.265542 0.176799 0.000000
0.330537 0.168014 0.000000
0.379938 0.162253 0.000000
0.419708 0.159734 0.000000
0.455309 0.159859 0.000000
0.489144 0.161356 0.000789
0.522103 0.163784 0.001208
0.553887 0.166862 0.001355
0.584971 0.170365 0.001355
0.616134 0.174283 0.001355
0.646954 0.178508 0.001355
0.676718 0.183001 0.000789
0.705515 0.187571 0.000789
0.733284 0.192495 0.000789
0.759951 0.197473 0.000789
0.785605 0.202692 0.000789
0.809880 0.208132 0.000789
0.833068 0.213739 0.000567
0.855371 0.219515 0.000567
0.876923 0.225389 0.000567
0.897826 0.231321 0.000567
0.918291 0.237334 0.000567
0.938420 0.243395 0.000000
0.958262 0.249423 0.000000
0.000000 0.211129 0.000000
0.017423 0.211108 0.000000
0.031247 0.213260 0.000000
0.045587 0.215259 0.000000
0.061065 0.216544 0.000000
0.077863 0.216349 0.000000
0.098013 0.213214 0.000000
0.126462 0.205133 0.000000
0.169072 0.193201 0.000000
0.240434 0.200111 0.000000
0.323472 0.198180 0.000000
0.384750 0.190734 0.000000
0.432080 0.186339 0.000000
0.471550 0.184838 0.000000
0.507685 0.185407 0.000444
0.541844 0.187494 0.001996
0.574510 0.190471 0.002908
0.606111 0.194224 0.003450
0.637545 0.198602 0.003696
0.668290 0.203368 0.003450
0.697932 0.208486 0.003154
0.726430 0.213944 0.002908
0.753767 0.219594 0.002908
0.779949 0.225247 0.002661
0.805053 0.231181 0.002661
0.828957 0.237154 0.002661
0.851735 0.243265 0.002119
0.873650 0.249606 0.002119
0.894792 0.255956 0.002119
0.915305 0.262349 0.001799
0.934985 0.268761 0.001331
0.954110 0.275228 0.001331
0.972801 0.281675 0.001331
0.001035 0.237123 0.000000
0.025579 0.237591 0.000000
0.040247 0.239512 0.000000
0.054975 0.241523 0.000000
0.070322 0.242906 0.000000
0.087237 0.242602 0.000000
0.106203 0.239902 0.000000
0.128438 0.232728 0.000000
0.160072 0.221212 0.000000
0.212345 0.215760 0.000000
0.301473 0.226280 0.000000
0.379977 0.222441 0.000000
0.437079 0.216649 0.000000
0.482899 0.213513 0.000000
0.522818 0.212638 0.000444
0.559152 0.213696 0.001208
0.593198 0.216237 0.003425
0.625607 0.219737 0.005101
0.657324 0.224143 0.006383
0.688205 0.229092 0.007344
0.717819 0.234606 0.007639
0.746120 0.240437 0.007861
0.773231 0.246511 0.007073
0.799189 0.252753 0.007073
0.823864 0.259102 0.006284
0.847490 0.265603 0.006284
0.870035 0.272258 0.005496
0.891624 0.278883 0.005496
0.912319 0.285713 0.004978
0.932045 0.292522 0.004633
0.950450 0.299344 0.004189
0.967863 0.306185 0.003401
0.984381 0.312912 0.003401
0.012026 0.263620 0.000000
0.035363 0.264779 0.000000
0.050919 0.266809 0.000000
0.065898 0.268655 0.000000
0.082172 0.270185 0.000000
0.098875 0.270065 0.000000
0.116981 0.267289 0.000000
0.135581 0.260956 0.000000
0.159060 0.250133 0.000000
0.199247 0.238105 0.000000
0.268037 0.244223 0.000000
0.361781 0.253579 0.000000
0.433035 0.249825 0.000000
0.486858 0.245564 0.000000
0.532529 0.243401 0.000000
0.572716 0.243216 0.000789
0.609062 0.244699 0.002661
0.642776 0.247487 0.004978
0.675080 0.251437 0.007442
0.706257 0.256195 0.009487
0.736067 0.261588 0.010745
0.764388 0.267537 0.011508
0.791481 0.273818 0.012272
0.817250 0.280225 0.012223
0.841887 0.286890 0.011730
0.865384 0.293742 0.011434
0.887789 0.300646 0.011286
0.909137 0.307767 0.010646
0.929190 0.314878 0.010153
0.947642 0.322022 0.009783
0.964211 0.329196 0.009019
0.978954 0.336363 0.008256
0.992560 0.343407 0.007491
0.031642 0.291190 0.000000
0.048250 0.293229 0.000000
0.063814 0.295248 0.000000
0.079921 0.297336 0.000000
0.096540 0.298807 0.000000
0.113285 0.298703 0.000000
0.129839 0.295920 0.000000
0.146118 0.289943 0.000000
0.164845 0.279953 0.000000
0.194772 0.267013 0.000000
0.246300 0.261628 0.000000
0.330825 0.276094 0.000000
0.417764 0.282729 0.000000
0.482629 0.280065 0.000000
0.535489 0.277277 0.000000
0.580922 0.276060 0.000740
0.620818 0.276356 0.001503
0.656790 0.277965 0.003524
0.690483 0.281013 0.006530
0.722393 0.285113 0.009635
0.752652 0.290087 0.012124
0.781264 0.295664 0.014145
0.808397 0.301763 0.015697
0.834288 0.308180 0.016388
0.858995 0.314943 0.017176
0.882615 0.321977 0.017644
0.904925 0.329084 0.017644
0.925864 0.336344 0.017324
0.944903 0.343771 0.016856
0.961665 0.351197 0.016461
0.975591 0.358492 0.015698
0.987159 0.365958 0.014933
0.997188 0.373304 0.014170
0.048001 0.320837 0.000000
0.064122 0.322952 0.000000
0.080711 0.325126 0.000000
0.097027 0.326964 0.000000
0.113418 0.328193 0.000000
0.129302 0.328161 0.000000
0.144729 0.325711 0.000000
0.159671 0.320134 0.000000
0.175154 0.310880 0.000000
0.197323 0.298288 0.000000
0.237329 0.287082 0.000000
0.301133 0.292376 0.000000
0.390912 0.309145 0.000000
0.469008 0.314234 0.000000
0.530737 0.312915 0.000000
0.582525 0.311424 0.000419
0.627188 0.310898 0.001183
0.666757 0.311503 0.002735
0.702803 0.313345 0.005767
0.736188 0.316392 0.008871
0.767301 0.320477 0.011977
0.796547 0.325378 0.014736
0.824176 0.330974 0.017497
0.850452 0.337155 0.019591
0.875403 0.343751 0.021587
0.899100 0.350662 0.022622
0.921310 0.357812 0.023559
0.941460 0.365163 0.023854
0.959065 0.372636 0.023953
0.973481 0.380148 0.024224
0.984478 0.387702 0.023509
0.992663 0.395187 0.023140
0.999235 0.402725 0.022819
0.066371 0.351636 0.000000
0.082778 0.353489 0.000000
0.099580 0.355479 0.000000
0.116143 0.357076 0.000000
0.131808 0.358529 0.000000
0.146937 0.358561 0.000000
0.161615 0.356457 0.000000
0.175610 0.351302 0.000000
0.189141 0.342973 0.000000
0.206523 0.331341 0.000000
0.237197 0.318908 0.000000
0.287603 0.315049 0.000000
0.361689 0.329013 0.000000
0.445677 0.343330 0.000000
0.517555 0.347608 0.000000
0.576717 0.347558 0.000000
0.627299 0.347206 0.000789
0.671621 0.347398 0.001947
0.711111 0.348234 0.004214
0.747008 0.350170 0.007319
0.779847 0.353156 0.010843
0.810325 0.357180 0.014588
0.838792 0.361993 0.017842
0.865651 0.367557 0.021366
0.891005 0.373729 0.023682
0.914780 0.380319 0.026245
0.936478 0.387308 0.027798
0.955519 0.394507 0.029350
0.971045 0.401865 0.030533
0.982785 0.409385 0.030853
0.990883 0.416942 0.031272
0.996162 0.424499 0.031272
0.999912 0.432020 0.031272
0.088106 0.383190 0.000000
0.104839 0.384902 0.000000
0.121565 0.386873 0.000000
0.137580 0.388571 0.000000
0.152547 0.389963 0.000000
0.167175 0.390384 0.000000
0.181132 0.388559 0.000000
0.194518 0.383927 0.000000
0.207275 0.376562 0.000000
0.221865 0.366364 0.000000
0.245534 0.354681 0.000000
0.285321 0.346393 0.000000
0.343679 0.351424 0.000000
0.419042 0.366805 0.000000
0.496672 0.378129 0.000000
0.563672 0.382361 0.000000
0.620812 0.383797 0.000789
0.670759 0.384552 0.001552
0.714983 0.385302 0.003450
0.754413 0.386462 0.006161
0.789841 0.388379 0.009660
0.822118 0.391276 0.013825
0.851934 0.395088 0.017694
0.879669 0.399828 0.021563
0.905515 0.405303 0.024840
0.929214 0.411299 0.028167
0.950122 0.417849 0.030656
0.967443 0.424700 0.032972
0.980588 0.431873 0.034796
0.989589 0.439155 0.036348
0.995073 0.446531 0.037457
0.998201 0.453995 0.037851
1.000000 0.461454 0.038640
0.113373 0.415606 0.000000
0.129576 0.417398 0.000000
0.145395 0.419332 0.000000
0.160588 0.421112 0.000000
0.175197 0.422738 0.000000
0.189396 0.423220 0.000000
0.203013 0.421906 0.000000
0.216139 0.418142 0.000000
0.228959 0.411826 0.000000
0.242468 0.403120 0.000000
0.261497 0.392684 0.000000
0.292566 0.383185 0.000000
0.338660 0.380772 0.000000
0.399933 0.390118 0.000000
0.472983 0.404040 0.000000
0.544553 0.413523 0.000000
0.607943 0.418496 0.000394
0.664014 0.421408 0.001158
0.713748 0.423270 0.002711
0.757732 0.424535 0.005002
0.796716 0.425821 0.008403
0.831536 0.427732 0.012272
0.863121 0.430482 0.016683
0.892060 0.434131 0.020799
0.918478 0.438704 0.024840
0.941979 0.443945 0.028734
0.961765 0.449750 0.031839
0.977054 0.456078 0.034525
0.987660 0.462721 0.037260
0.994136 0.469612 0.039157
0.997575 0.476648 0.040987
0.999211 0.483872 0.042488
1.000000 0.491006 0.043955
0.140670 0.448869 0.000345
0.156167 0.450901 0.000345
0.171046 0.452872 0.000000
0.185800 0.454916 0.000000
0.199862 0.456543 0.000000
0.213602 0.457311 0.000000
0.227111 0.456403 0.000000
0.240364 0.453413 0.000000
0.253113 0.448215 0.000000
0.266038 0.440681 0.000000
0.282213 0.431292 0.000000
0.306519 0.421645 0.000000
0.342914 0.415583 0.000000
0.392429 0.418206 0.000000
0.454565 0.428963 0.000000
0.523736 0.441108 0.000000
0.590503 0.450039 0.000000
0.651709 0.456180 0.000789
0.707096 0.460360 0.001922
0.756361 0.462943 0.004238
0.799590 0.464550 0.006900
0.837754 0.466001 0.010720
0.871674 0.467944 0.015032
0.902198 0.470502 0.019246
0.929319 0.473943 0.023904
0.952619 0.478162 0.027773
0.970997 0.483072 0.031494
0.984168 0.488511 0.034722
0.992448 0.494504 0.037704
0.996903 0.500801 0.040362
0.998896 0.507311 0.042183
0.999688 0.514017 0.044783
1.000000 0.520687 0.045777
0.169212 0.482975 0.001109
0.184087 0.485150 0.001109
0.198481 0.487399 0.001109
0.212675 0.489517 0.001109
0.226379 0.491254 0.000789
0.239987 0.492206 0.000321
0.253352 0.491687 0.000000
0.266336 0.489282 0.000000
0.278849 0.484710 0.000000
0.291187 0.478014 0.000000
0.305360 0.469534 0.000000
0.325077 0.460233 0.000000
0.353814 0.452754 0.000000
0.393359 0.450652 0.000000
0.444898 0.456470 0.000000
0.506239 0.467236 0.000000
0.571653 0.478410 0.000000
0.635457 0.487809 0.000789
0.695269 0.495126 0.001577
0.749757 0.500209 0.002686
0.797899 0.503315 0.005791
0.839967 0.505123 0.008896
0.876929 0.506649 0.013036
0.909397 0.508408 0.017472
0.937506 0.510759 0.022031
0.960574 0.513774 0.026220
0.977792 0.517601 0.029941
0.989125 0.522080 0.033835
0.995434 0.527153 0.036940
0.998369 0.532637 0.039256
0.999544 0.538453 0.042303
0.999900 0.544447 0.044463
1.000000 0.550529 0.046181
0.198981 0.517553 0.004041
0.213221 0.519912 0.003745
0.227400 0.522275 0.003450
0.241103 0.524460 0.002661
0.254671 0.526332 0.001873
0.267896 0.527416 0.001208
0.280902 0.527148 0.000789
0.293488 0.525079 0.000296
0.305560 0.520988 0.000000
0.317348 0.514988 0.000000
0.330093 0.507192 0.000000
0.346449 0.498371 0.000000
0.369345 0.490294 0.000000
0.400777 0.485575 0.000000
0.442600 0.486805 0.000000
0.494895 0.494240 0.000000
0.554879 0.505087 0.000000
0.617613 0.516374 0.000074
0.679576 0.526532 0.000838
0.738140 0.534661 0.001898
0.791082 0.540175 0.003943
0.837706 0.543551 0.006555
0.878289 0.545541 0.010448
0.913253 0.546908 0.015057
0.942692 0.548454 0.019714
0.965796 0.550421 0.023706
0.982196 0.553068 0.028093
0.992130 0.556447 0.031494
0.997127 0.560418 0.034599
0.999165 0.564929 0.037063
0.999804 0.569830 0.040505
0.999966 0.575028 0.043007
1.000000 0.580221 0.044916
0.230025 0.552273 0.007910
0.243830 0.554739 0.007147
0.257416 0.557153 0.006851
0.270817 0.559455 0.005347
0.283979 0.561390 0.004584
0.296852 0.562516 0.003031
0.309343 0.562427 0.001848
0.321482 0.560662 0.000789
0.333045 0.557061 0.000468
0.344253 0.551557 0.000000
0.355912 0.544380 0.000000
0.369779 0.535997 0.000000
0.388218 0.527748 0.000000
0.413358 0.521489 0.000000
0.446950 0.519446 0.000000
0.490292 0.522961 0.000000
0.542573 0.531381 0.000000
0.600989 0.542578 0.000000
0.662106 0.554469 0.000345
0.722665 0.565343 0.000838
0.779534 0.573863 0.002391
0.830671 0.579650 0.004731
0.875313 0.583110 0.008083
0.913363 0.584964 0.011952
0.944642 0.586169 0.016609
0.968481 0.587306 0.021095
0.984497 0.588953 0.025136
0.993693 0.591183 0.028881
0.997957 0.594102 0.031888
0.999509 0.597522 0.034894
0.999897 0.601410 0.037704
1.000000 0.605545 0.040209
1.000000 0.609847 0.042256
0.261987 0.586819 0.012568
0.275250 0.589382 0.011533
0.288397 0.591890 0.010252
0.301327 0.594295 0.009241
0.314049 0.596272 0.007688
0.326445 0.597426 0.005347
0.338551 0.597427 0.003549
0.350174 0.595935 0.001996
0.361176 0.592686 0.000789
0.371802 0.587673 0.000222
0.382443 0.580971 0.000000
0.394480 0.573069 0.000000
0.409641 0.564823 0.000000
0.429777 0.557598 0.000000
0.456708 0.553282 0.000000
0.491887 0.553300 0.000000
0.535956 0.558428 0.000000
0.587784 0.567726 0.000000
0.645379 0.579624 0.000000
0.705449 0.592181 0.000789
0.764438 0.603491 0.001577
0.819228 0.612159 0.002662
0.868031 0.617945 0.005520
0.909653 0.621251 0.008847
0.943433 0.622933 0.013258
0.968594 0.623795 0.017373
0.985187 0.624709 0.021784
0.994261 0.625966 0.025653
0.998239 0.627768 0.028783
0.999610 0.630168 0.031913
0.999949 0.632955 0.033662
1.000000 0.636053 0.036619
1.000000 0.639288 0.038690
0.294658 0.620982 0.017225
0.307303 0.623693 0.016436
0.319914 0.626294 0.014909
0.332426 0.628665 0.013356
0.344612 0.630683 0.011114
0.356521 0.631885 0.008576
0.368118 0.631995 0.005890
0.379313 0.630717 0.003549
0.389822 0.627771 0.001774
0.399825 0.623131 0.000789
0.409635 0.616889 0.000000
0.420223 0.609436 0.000000
0.432878 0.601374 0.000000
0.449162 0.593635 0.000000
0.470674 0.587665 0.000000
0.499015 0.584941 0.000000
0.535229 0.586607 0.000000
0.579708 0.592978 0.000000
0.631639 0.603350 0.000000
0.688661 0.616088 0.000000
0.747480 0.629097 0.000789
0.804414 0.640425 0.001626
0.856664 0.649009 0.003179
0.902065 0.654538 0.005742
0.938997 0.657531 0.009414
0.966472 0.658984 0.013258
0.984273 0.659660 0.017767
0.994011 0.660260 0.021661
0.998204 0.661156 0.024766
0.999599 0.662528 0.028512
0.999949 0.664312 0.030360
1.000000 0.666335 0.033293
1.000000 0.668537 0.034599
0.327540 0.654674 0.022080
0.339675 0.657375 0.021119
0.351773 0.659997 0.019764
0.363648 0.662429 0.018014
0.375363 0.664394 0.015673
0.386891 0.665704 0.012470
0.398015 0.665929 0.008921
0.408749 0.664760 0.005471
0.418899 0.662064 0.002957
0.428366 0.657773 0.001208
0.437439 0.651923 0.000444
0.446825 0.644875 0.000000
0.457470 0.637025 0.000000
0.470760 0.629105 0.000000
0.488056 0.622128 0.000000
0.510704 0.617368 0.000000
0.540127 0.616015 0.000000
0.577316 0.619172 0.000000
0.622553 0.626896 0.000000
0.674601 0.638315 0.000000
0.730866 0.651595 0.000000
0.787915 0.664681 0.000789
0.842337 0.675828 0.001626
0.890979 0.683975 0.003203
0.931472 0.689155 0.006112
0.961880 0.691807 0.009216
0.981917 0.693008 0.013110
0.992985 0.693475 0.016930
0.997881 0.693790 0.020109
0.999536 0.694370 0.023805
0.999949 0.695188 0.025530
1.000000 0.696304 0.028807
1.000000 0.697553 0.030360
0.360521 0.687575 0.028118
0.372112 0.690301 0.026738
0.383669 0.692911 0.025185
0.395000 0.695325 0.022918
0.406265 0.697306 0.020429
0.417255 0.698632 0.016658
0.427963 0.698908 0.012617
0.438270 0.697849 0.008403
0.448080 0.695294 0.004510
0.457143 0.691258 0.001972
0.465651 0.685780 0.000789
0.474056 0.679104 0.000000
0.483195 0.671579 0.000000
0.494187 0.663760 0.000000
0.508102 0.656284 0.000000
0.526267 0.650112 0.000000
0.550015 0.646482 0.000000
0.580558 0.646579 0.000000
0.618864 0.651140 0.000000
0.664760 0.660081 0.000000
0.716587 0.672269 0.000000
0.771609 0.685815 0.000099
0.826309 0.698705 0.000789
0.877225 0.709279 0.001626
0.921074 0.716937 0.003179
0.954976 0.721665 0.005520
0.978002 0.724051 0.008452
0.991135 0.725028 0.011558
0.997174 0.725240 0.015451
0.999365 0.725372 0.019172
0.999871 0.725533 0.021119
1.000000 0.725823 0.024741
1.000000 0.726243 0.028044
0.393399 0.719452 0.033711
0.404348 0.722161 0.032159
0.415371 0.724798 0.030607
0.426280 0.727152 0.028906
0.437004 0.729115 0.025875
0.447495 0.730326 0.021464
0.457819 0.730613 0.016658
0.467774 0.729638 0.011385
0.477175 0.727240 0.006851
0.485881 0.723370 0.003376
0.493982 0.718187 0.001183
0.501673 0.711855 0.000271
0.509695 0.704727 0.000000
0.518889 0.697109 0.000000
0.530258 0.689531 0.000000
0.544861 0.682620 0.000000
0.563940 0.677356 0.000000
0.588818 0.674952 0.000000
0.620661 0.676467 0.000000
0.660000 0.682399 0.000000
0.706094 0.692351 0.000000
0.757279 0.704996 0.000000
0.810473 0.718484 0.000000
0.862122 0.730814 0.000789
0.908483 0.740824 0.001626
