bundles/resolve-cinematic-luts/Gamut/Orion/Orion Cool +CON.cube
TITLE "Orion Cool +CON by Gamut"
# Contributor - JVKE. Version 1.0 - 09/28/2023 - Designed for Rec.709 Color Space. Copyright 2023 Gamut, LLC
LUT_3D_SIZE 5
0.001577 0.009463 0.018926
0.140088 0.012420 0.000000
0.368773 0.000000 0.000000
0.605941 0.000000 0.000000
0.790378 0.000000 0.000000
0.000000 0.157784 0.019320
0.192791 0.154722 0.008477
0.478666 0.148966 0.010251
0.729579 0.173600 0.000592
0.919596 0.212338 0.000000
0.116698 0.401648 0.028389
0.211055 0.391063 0.000986
0.537927 0.391907 0.004337
0.866114 0.419170 0.042888
0.999785 0.476012 0.053627
0.307344 0.663666 0.055714
0.386331 0.665946 0.014983
0.491360 0.613741 0.000000
0.880591 0.680704 0.008674
1.000000 0.696642 0.048462
0.525434 0.883422 0.111148
0.580666 0.883398 0.058460
0.640429 0.838051 0.000000
0.808396 0.814028 0.000000
0.999920 0.885568 0.000000
0.000000 0.014983 0.189901
0.169476 0.000000 0.192034
0.424984 0.000000 0.079621
0.648570 0.000000 0.004140
0.820648 0.000000 0.000592
0.000000 0.163342 0.182827
0.169711 0.182418 0.188860
0.463272 0.180701 0.139793
0.731532 0.192703 0.102291
0.926512 0.227458 0.086442
0.031937 0.464240 0.233483
0.259636 0.466752 0.209305
0.525608 0.432652 0.127011
0.828563 0.471855 0.209380
0.994993 0.531570 0.205782
0.237051 0.736621 0.232036
0.411378 0.705275 0.210842
0.516075 0.640996 0.078939
0.854772 0.697049 0.085872
1.000000 0.725957 0.227393
0.515757 0.912055 0.289075
0.603901 0.894970 0.255723
0.655582 0.862069 0.130364
0.793190 0.817067 0.004534
0.999866 0.896189 0.037654
0.000000 0.014983 0.501726
0.100983 0.000000 0.527894
0.459346 0.000000 0.469313
0.740241 0.000000 0.370746
0.906014 0.000000 0.290774
0.000000 0.177690 0.457544
0.104423 0.198067 0.508139
0.522588 0.165410 0.525638
0.806270 0.178993 0.453713
0.983770 0.203130 0.411083
0.000000 0.466228 0.507622
0.088617 0.509265 0.547832
0.519127 0.519181 0.512350
0.804782 0.528328 0.474144
0.988332 0.566379 0.456278
0.111764 0.793645 0.665859
0.275602 0.812727 0.677120
0.583438 0.757325 0.520601
0.821574 0.735017 0.388325
0.999926 0.767711 0.518393
0.332640 0.999812 0.732940
0.431221 0.996989 0.691153
0.659542 0.912350 0.501310
0.781054 0.825107 0.241603
0.998899 0.909223 0.343023
0.000000 0.020700 0.767399
0.033909 0.001380 0.790451
0.405046 0.000000 0.777446
0.747438 0.000000 0.741856
0.966035 0.000000 0.723328
0.000000 0.192020 0.736323
0.049819 0.214239 0.787937
0.474060 0.182371 0.831706
0.842663 0.175938 0.831572
1.000000 0.211510 0.826045
0.000000 0.488485 0.729931
0.008477 0.534587 0.760486
0.426705 0.547803 0.804493
0.841386 0.526440 0.824830
1.000000 0.559164 0.798320
0.000000 0.791812 0.835601
0.044035 0.828257 0.868569
0.453100 0.830059 0.862478
0.826873 0.815899 0.804501
0.999960 0.820638 0.771136
0.053397 0.999758 0.982537
0.210138 1.000000 0.987076
0.553322 0.998220 0.959323
0.854999 0.946035 0.783416
0.997568 0.944120 0.711847
0.000000 0.033120 0.940494
0.001775 0.016363 0.963841
0.351936 0.000000 0.971938
0.731703 0.000000 0.949703
0.974067 0.000000 0.956636
0.000000 0.212562 0.917126
0.014194 0.237295 0.970292
0.427272 0.212734 1.000000
0.832113 0.192077 0.999987
1.000000 0.217370 1.000000
0.000000 0.519391 0.897761
0.006506 0.563837 0.935960
0.379418 0.578282 0.990468
0.823295 0.542841 0.999987
1.000000 0.555435 0.999946
0.000000 0.802109 0.958944
0.000000 0.839646 0.981444
0.246693 0.872843 0.995384
0.773455 0.834124 0.989109
0.999758 0.817391 0.996079
0.000000 0.999758 1.000000
0.007688 1.000000 1.000000
0.411656 1.000000 1.000000
0.802697 1.000000 1.000000
1.000000 0.999517 0.983096
