bundles/resolve-cinematic-luts/Gamut/Orion/Orion Cool +CON.cube
TITLE "Orion Cool +CON by Gamut"
# Contributor - JVKE. Version 1.0 - 09/28/2023 - Designed for Rec.709 Color Space. Copyright 2023 Gamut, LLC
LUT_3D_SIZE 33
0.001577 0.009463 0.018926
0.020183 0.008699 0.019714
0.035092 0.009463 0.017448
0.048379 0.010251 0.015057
0.061315 0.010251 0.011336
0.077927 0.008797 0.006802
0.098220 0.006457 0.000444
0.117817 0.009906 0.000000
0.140088 0.012420 0.000000
0.163954 0.013184 0.000000
0.189389 0.012864 0.000000
0.216334 0.011311 0.000000
0.245445 0.009758 0.000000
0.275645 0.006950 0.000000
0.306650 0.003844 0.000000
0.337891 0.001158 0.000000
0.368773 0.000000 0.000000
0.400065 0.000000 0.000000
0.431359 0.000000 0.000000
0.462776 0.000000 0.000000
0.494367 0.000000 0.000000
0.525097 0.000000 0.000000
0.554534 0.000000 0.000000
0.582271 0.000000 0.000000
0.605941 0.000000 0.000000
0.631361 0.000000 0.000000
0.656867 0.000000 0.000000
0.681690 0.000000 0.000000
0.705373 0.000000 0.000000
0.727682 0.000000 0.000000
0.749174 0.000000 0.000000
0.770085 0.000000 0.000000
0.790378 0.000000 0.000000
0.003129 0.024175 0.022006
0.021735 0.024175 0.019714
0.035067 0.024914 0.018951
0.047025 0.025678 0.016659
0.060704 0.026442 0.014342
0.076847 0.025851 0.009882
0.095783 0.025062 0.002883
0.117940 0.024938 0.000148
0.141545 0.025777 0.000000
0.164808 0.025801 0.000000
0.190400 0.024470 0.000000
0.217321 0.022943 0.000000
0.246735 0.021390 0.000000
0.277146 0.019049 0.000000
0.308900 0.016240 0.000000
0.340400 0.013899 0.000000
0.372193 0.010818 0.000000
0.404317 0.008551 0.000000
0.437083 0.006259 0.000000
0.469727 0.003204 0.000000
0.501965 0.001232 0.000000
0.533562 0.000764 0.000000
0.563236 0.000764 0.000000
0.587754 0.000764 0.000000
0.614193 0.000764 0.000000
0.640796 0.000764 0.000000
0.667040 0.000764 0.000000
0.691969 0.000764 0.000000
0.715557 0.000764 0.000000
0.738142 0.001528 0.000000
0.759877 0.001528 0.000000
0.780886 0.002317 0.000000
0.801694 0.002317 0.000000
0.004682 0.039724 0.027452
0.021809 0.038985 0.020577
0.038838 0.039724 0.018186
0.054642 0.037532 0.022598
0.067873 0.038936 0.021981
0.081842 0.038961 0.016806
0.099598 0.039035 0.009167
0.120732 0.038246 0.000591
0.145132 0.038246 0.000000
0.170952 0.038246 0.000000
0.196209 0.037655 0.000000
0.223512 0.036102 0.000000
0.253355 0.034549 0.000000
0.284249 0.032258 0.000000
0.316182 0.030212 0.000000
0.348970 0.027846 0.000000
0.381974 0.025925 0.000000
0.415315 0.023583 0.000000
0.449114 0.020897 0.000000
0.482598 0.017792 0.000000
0.515162 0.014391 0.000000
0.541825 0.009093 0.000000
0.570118 0.006801 0.000000
0.598909 0.006580 0.000000
0.626595 0.004337 0.000000
0.653719 0.003746 0.000000
0.679928 0.003894 0.000000
0.705109 0.004657 0.000000
0.728929 0.006013 0.000000
0.751733 0.006998 0.000000
0.773455 0.009167 0.000000
0.794579 0.010744 0.000000
0.815841 0.012962 0.000000
0.004017 0.054755 0.029818
0.020330 0.054864 0.022129
0.041097 0.053645 0.021932
0.056085 0.054180 0.017571
0.075267 0.051211 0.023411
0.090895 0.051035 0.025012
0.107940 0.051040 0.019222
0.127399 0.051103 0.010079
0.149683 0.050535 0.000690
0.175655 0.050431 0.000000
0.207705 0.051035 0.000000
0.235807 0.049921 0.000000
0.265972 0.048571 0.000000
0.297905 0.047195 0.000000
0.330692 0.045315 0.000000
0.364288 0.043629 0.000000
0.398279 0.042087 0.000000
0.432250 0.039522 0.000000
0.463851 0.036422 0.000000
0.491982 0.033317 0.000000
0.522747 0.030212 0.000000
0.553439 0.027231 0.000000
0.583606 0.025851 0.000000
0.613045 0.025062 0.000000
0.641313 0.024914 0.000000
0.668754 0.024914 0.000000
0.694907 0.025629 0.000000
0.720144 0.026540 0.000000
0.744012 0.028093 0.000000
0.766830 0.029719 0.000000
0.788769 0.031962 0.000000
0.810405 0.034278 0.000000
0.831860 0.037309 0.000000
0.002465 0.071014 0.029966
0.018038 0.071138 0.022203
0.043917 0.068637 0.024298
0.055584 0.069974 0.021218
0.074486 0.069031 0.016165
0.098994 0.065404 0.024126
0.118960 0.063783 0.025924
0.138493 0.064206 0.022105
0.160264 0.064206 0.013702
0.184685 0.064294 0.003795
0.211836 0.064206 0.000838
0.242048 0.063759 0.000000
0.273943 0.063061 0.000000
0.307271 0.062063 0.000000
0.340529 0.060907 0.000000
0.373695 0.059336 0.000000
0.406543 0.057934 0.000000
0.439639 0.056092 0.000000
0.472433 0.054117 0.000000
0.504759 0.052182 0.000000
0.537046 0.050680 0.000000
0.569055 0.049925 0.000000
0.599685 0.049263 0.000000
0.629251 0.049374 0.000000
0.657913 0.049541 0.000000
0.685200 0.050200 0.000000
0.711544 0.051548 0.000000
0.736586 0.053291 0.000000
0.760465 0.055186 0.000000
0.783513 0.057619 0.000000
0.805608 0.060506 0.000000
0.827625 0.063786 0.000000
0.849286 0.066943 0.000000
0.000123 0.088548 0.028512
0.014243 0.089407 0.020848
0.045915 0.086499 0.025135
0.055734 0.087209 0.023017
0.071149 0.086915 0.019640
0.096485 0.086333 0.014564
0.127557 0.081683 0.024027
0.151767 0.079758 0.026763
0.175498 0.079699 0.025727
0.200278 0.080455 0.019714
0.227196 0.080973 0.011286
0.256740 0.081046 0.002834
0.287944 0.080966 0.000838
0.320686 0.080609 0.000197
0.353664 0.080066 0.000000
0.386708 0.079373 0.000000
0.420069 0.078569 0.000000
0.453623 0.077524 0.000000
0.487368 0.076765 0.000000
0.521032 0.076183 0.000000
0.554009 0.075595 0.000000
0.586041 0.075506 0.000000
0.616841 0.075659 0.000000
0.646479 0.076552 0.000000
0.675030 0.077555 0.000000
0.702451 0.079298 0.000000
0.728756 0.081095 0.000000
0.753728 0.083391 0.000000
0.777735 0.085979 0.000000
0.800856 0.089313 0.000000
0.823304 0.092988 0.000000
0.845408 0.096516 0.000000
0.867356 0.100625 0.000000
0.000000 0.108752 0.025530
0.008896 0.109828 0.017891
0.040533 0.107702 0.022228
0.056276 0.107982 0.022943
0.069136 0.109331 0.021341
0.091713 0.107396 0.015845
0.124506 0.107134 0.012420
0.161857 0.102311 0.023337
0.191241 0.099566 0.026910
0.218778 0.098898 0.028093
0.246417 0.098861 0.025629
0.275689 0.099593 0.018803
0.306519 0.100217 0.010695
0.338192 0.100674 0.002908
0.370569 0.101201 0.000838
0.403427 0.101606 0.000222
0.436969 0.101914 0.000000
0.470911 0.102143 0.000000
0.504935 0.102449 0.000000
0.538407 0.102522 0.000000
0.571545 0.102815 0.000000
0.603606 0.103792 0.000000
0.634656 0.104953 0.000000
0.664250 0.106568 0.000000
0.692749 0.108692 0.000000
0.719998 0.110907 0.000000
0.746187 0.113754 0.000000
0.771319 0.116731 0.000000
0.795304 0.120283 0.000000
0.818606 0.124295 0.000000
0.841113 0.128460 0.000000
0.863269 0.132805 0.000000
0.885261 0.137060 0.000000
0.000000 0.131780 0.022425
0.002736 0.132967 0.014662
0.035584 0.132303 0.019689
0.058621 0.132283 0.023509
0.071865 0.133446 0.022105
0.088816 0.133405 0.019739
0.116685 0.129426 0.011459
0.157048 0.130182 0.010769
0.199928 0.125075 0.022524
0.234337 0.121603 0.026269
0.265486 0.119735 0.027699
0.296365 0.119125 0.027526
0.327434 0.119701 0.023509
0.358844 0.120878 0.016609
0.390821 0.122523 0.009808
0.423438 0.124115 0.003401
0.456859 0.125699 0.001454
0.490538 0.127101 0.000863
0.524248 0.128414 0.000616
0.557658 0.129786 0.000616
0.590500 0.131377 0.000000
0.622397 0.133120 0.000000
0.653291 0.135639 0.000000
0.682612 0.138016 0.000000
0.710725 0.141058 0.000000
0.737810 0.144171 0.000000
0.763757 0.147587 0.000000
0.788843 0.151605 0.000000
0.812857 0.155804 0.000000
0.835986 0.160313 0.000000
0.858589 0.165036 0.000000
0.880712 0.169736 0.000000
0.902727 0.174730 0.000000
0.000000 0.157784 0.019320
0.000937 0.159451 0.011557
0.036423 0.158575 0.018680
0.065228 0.158700 0.025012
0.078444 0.160125 0.023657
0.092670 0.160266 0.021341
0.113386 0.157177 0.015919
0.143430 0.152284 0.006235
0.192791 0.154722 0.008477
0.240923 0.149401 0.021119
0.280101 0.145085 0.024742
0.314562 0.142512 0.026146
0.347549 0.141427 0.026812
0.379745 0.142248 0.025284
0.412351 0.144009 0.021784
0.445241 0.146447 0.016092
0.478666 0.148966 0.010251
0.512275 0.151636 0.005002
0.545738 0.154367 0.003006
0.578745 0.157119 0.001972
0.611272 0.159980 0.001380
0.642851 0.163115 0.001380
0.672964 0.166325 0.000789
0.701871 0.169862 0.000592
0.729579 0.173600 0.000592
0.756215 0.177743 0.000592
0.781824 0.181942 0.000592
0.806542 0.186605 0.000592
0.830245 0.191545 0.000000
0.853221 0.196592 0.000000
0.875542 0.201815 0.000000
0.897609 0.206910 0.000000
0.919596 0.212338 0.000000
0.000000 0.186283 0.012938
0.001898 0.186938 0.007417
0.042306 0.186289 0.019098
0.072373 0.186537 0.025801
0.085625 0.187774 0.024544
0.099593 0.187920 0.022203
0.116287 0.185664 0.017718
0.138416 0.179422 0.009882
0.172584 0.175480 0.001084
0.231182 0.179978 0.006753
0.284058 0.174866 0.017423
0.326694 0.169842 0.021637
0.363999 0.167212 0.024520
0.398750 0.166417 0.026146
0.432853 0.167363 0.026590
0.466584 0.169580 0.024938
0.500636 0.172599 0.021538
0.534632 0.176151 0.016831
0.568157 0.179989 0.012395
0.601127 0.184009 0.008280
0.633198 0.188160 0.005397
0.664029 0.192400 0.004362
0.693533 0.196740 0.003499
0.721756 0.201220 0.002710
0.748848 0.205961 0.002513
0.774957 0.210849 0.002144
0.800131 0.216008 0.001922
0.824294 0.221251 0.001355
0.847625 0.226689 0.001355
0.870296 0.232256 0.001281
0.892440 0.237980 0.000789
0.914252 0.243618 0.000567
0.935941 0.249334 0.000567
0.000000 0.215400 0.002809
0.010695 0.215573 0.007590
0.052777 0.215181 0.019862
0.080385 0.215646 0.025875
0.094178 0.216984 0.024643
0.107918 0.216929 0.021785
0.122434 0.214755 0.017250
0.139364 0.209304 0.009709
0.165214 0.200774 0.000789
0.205545 0.200207 0.000296
0.271738 0.206078 0.003893
0.328433 0.201863 0.014293
0.373923 0.197132 0.019813
0.413424 0.194682 0.022967
0.450332 0.193872 0.025283
0.486080 0.194871 0.026689
0.521223 0.197602 0.026713
0.555905 0.201399 0.025456
0.590097 0.206065 0.022869
0.623104 0.210931 0.019394
0.654920 0.216021 0.015821
0.685198 0.221273 0.012716
0.714126 0.226492 0.010104
0.741762 0.231902 0.008009
0.768337 0.237487 0.006900
0.793769 0.243127 0.006358
0.818307 0.248943 0.005570
0.842011 0.254852 0.004781
0.864961 0.260942 0.004238
0.887194 0.266978 0.003450
0.909063 0.273166 0.002661
0.930485 0.279300 0.002119
0.951803 0.285335 0.001331
0.000000 0.245271 0.000000
0.023732 0.245276 0.009044
0.066859 0.244869 0.022203
0.089571 0.245891 0.025357
0.103539 0.246962 0.023854
0.117012 0.246974 0.021021
0.130731 0.244740 0.015845
0.144410 0.239567 0.008921
0.162969 0.230882 0.000789
0.193296 0.221938 0.000000
0.242501 0.226218 0.000567
0.314200 0.234027 0.003425
0.373275 0.230904 0.011977
0.420836 0.226575 0.017472
0.462779 0.224250 0.021341
0.501718 0.223837 0.024249
0.539059 0.225383 0.026565
0.575317 0.228752 0.027970
0.610127 0.233186 0.028635
0.643453 0.238345 0.027576
0.675264 0.243932 0.025653
0.705376 0.249711 0.023066
0.734059 0.255777 0.020479
0.761275 0.261858 0.018162
0.787278 0.268106 0.015845
0.812293 0.274454 0.013972
0.836328 0.280832 0.012420
0.859666 0.287353 0.011138
0.882197 0.293904 0.009857
0.904024 0.300570 0.008379
0.925303 0.307136 0.007541
0.946120 0.313773 0.006259
0.966547 0.320267 0.004707
0.001971 0.276163 0.000493
0.042270 0.275778 0.012322
0.084091 0.275408 0.024594
0.100776 0.276954 0.024741
0.114157 0.278253 0.023263
0.126950 0.277877 0.019591
0.139759 0.275225 0.014293
0.152284 0.270094 0.007467
0.166084 0.262010 0.001282
0.188160 0.251597 0.000000
0.223310 0.245076 0.000000
0.282179 0.254106 0.000814
0.357360 0.263178 0.003450
0.417674 0.261309 0.009660
0.467472 0.257825 0.015870
0.511817 0.256212 0.019788
0.552702 0.256518 0.023361
0.591096 0.258756 0.026565
0.627295 0.262337 0.029374
0.661502 0.267125 0.030779
0.693697 0.272590 0.030952
0.724023 0.278565 0.030656
0.752583 0.284822 0.029029
0.779644 0.291361 0.027477
0.805441 0.298052 0.025629
0.830125 0.304846 0.024076
0.853934 0.311764 0.021735
0.876967 0.318790 0.020183
0.899205 0.325888 0.018630
0.920527 0.332965 0.017004
0.940942 0.339983 0.015032
0.960523 0.347031 0.013159
0.979441 0.353942 0.011138
0.018852 0.307723 0.004239
0.065845 0.306876 0.017423
0.097742 0.307247 0.024988
0.113195 0.308855 0.024520
0.125684 0.309703 0.021809
0.137875 0.309163 0.018039
0.150018 0.306400 0.012740
0.161827 0.301217 0.005741
0.173483 0.293631 0.001183
0.189665 0.283584 0.000000
0.215902 0.272680 0.000000
0.257563 0.270669 0.000049
0.325179 0.283895 0.000814
0.401069 0.293512 0.003154
0.462427 0.293090 0.008132
0.514209 0.291006 0.014317
0.560364 0.290467 0.018704
0.602328 0.291560 0.022672
0.640888 0.294050 0.026910
0.676566 0.297815 0.030138
0.709772 0.302641 0.032627
0.740548 0.308118 0.033859
0.769442 0.314228 0.034525
0.796651 0.320737 0.034525
0.822525 0.327549 0.033884
0.847256 0.334689 0.032923
0.871006 0.341938 0.031839
0.893946 0.349324 0.030286
0.915777 0.356779 0.028734
0.936327 0.364230 0.026861
0.955335 0.371641 0.025259
0.972765 0.378938 0.022942
0.989238 0.386217 0.020626
0.048162 0.339353 0.011681
0.093237 0.338300 0.023977
0.112773 0.339761 0.025678
0.126347 0.340904 0.023805
0.138517 0.341481 0.021489
0.150292 0.340730 0.017275
0.161701 0.337830 0.011188
0.172999 0.332804 0.004189
0.183688 0.325722 0.000986
0.196144 0.316172 0.000000
0.215947 0.304987 0.000000
0.247813 0.295876 0.000000
0.297335 0.299659 0.000049
0.371002 0.315625 0.000814
0.445795 0.325267 0.003154
0.507635 0.326274 0.007368
0.560615 0.325767 0.013209
0.607677 0.326295 0.018630
0.649925 0.327951 0.023017
0.688128 0.330681 0.027354
0.722936 0.334424 0.031543
0.754882 0.339094 0.034451
0.784463 0.344550 0.036767
0.812256 0.350730 0.038517
0.838460 0.357388 0.039377
0.863462 0.364467 0.040131
0.887313 0.371774 0.040050
0.910104 0.379295 0.039585
0.931434 0.386881 0.038832
0.950823 0.394548 0.037728
0.967790 0.402159 0.036176
0.982425 0.409734 0.034254
0.995468 0.417192 0.031937
0.083726 0.370516 0.021021
0.113432 0.370582 0.026319
0.128808 0.372005 0.026491
0.141189 0.373054 0.024520
0.152834 0.373290 0.021489
0.164067 0.372413 0.016511
0.175285 0.369705 0.010054
0.186013 0.364771 0.003253
0.196156 0.358034 0.000986
0.206717 0.349428 0.000000
0.221992 0.338932 0.000000
0.247008 0.328435 0.000000
0.285848 0.323795 0.000000
0.343206 0.333037 0.000789
0.419065 0.349246 0.001602
0.491737 0.358170 0.003573
0.552982 0.360528 0.007812
0.606233 0.361670 0.013258
0.653508 0.363115 0.018704
0.695473 0.365198 0.023682
0.732953 0.367966 0.028438
0.766802 0.371639 0.033096
0.797660 0.376196 0.036595
0.826276 0.381690 0.039869
0.853097 0.387789 0.042533
0.878471 0.394512 0.044363
0.902578 0.401599 0.046014
0.925123 0.409016 0.046967
0.945650 0.416555 0.047334
0.963414 0.424201 0.046994
0.977821 0.431823 0.046240
0.989152 0.439451 0.045193
0.998621 0.447033 0.043368
0.116698 0.401648 0.028389
0.132307 0.402707 0.028758
0.145683 0.404017 0.027255
0.157356 0.405135 0.024988
0.168619 0.405389 0.021489
0.179750 0.404513 0.016264
0.190515 0.401800 0.010054
0.200979 0.397208 0.003056
0.211055 0.391063 0.000986
0.221165 0.383352 0.000000
0.233824 0.374143 0.000000
0.253594 0.364012 0.000000
0.284786 0.356127 0.000000
0.330637 0.357014 0.000000
0.393573 0.369259 0.000789
0.468299 0.383794 0.001602
0.537927 0.391907 0.004337
0.598045 0.395698 0.008600
0.651106 0.398261 0.014046
0.698067 0.400497 0.019098
0.739331 0.402827 0.024544
0.775900 0.405731 0.029990
0.808576 0.409321 0.034894
0.838448 0.413858 0.039306
0.866114 0.419170 0.042888
0.892091 0.425265 0.046491
0.916389 0.431827 0.048895
0.938588 0.438819 0.051120
0.958028 0.446110 0.052749
0.973737 0.453468 0.053640
0.985466 0.460963 0.053957
0.993645 0.468488 0.053627
0.999785 0.476012 0.053627
0.139038 0.433597 0.031494
0.151573 0.434941 0.030360
0.163402 0.436257 0.028068
0.174710 0.437425 0.025752
0.185755 0.437764 0.021957
0.196558 0.436889 0.016930
0.207371 0.434457 0.010054
0.217939 0.430438 0.003672
0.228214 0.424974 0.000986
0.238491 0.418311 0.000000
0.250063 0.410388 0.000000
0.266532 0.401142 0.000000
0.291594 0.392523 0.000000
0.328285 0.387995 0.000000
0.379407 0.392989 0.000074
0.445551 0.406074 0.000838
0.517466 0.418632 0.002391
0.583803 0.426604 0.005101
0.643014 0.431760 0.009389
0.695571 0.435518 0.014835
0.741577 0.438373 0.020577
0.781707 0.440959 0.026097
0.816874 0.443810 0.031789
0.848415 0.447367 0.036989
0.877267 0.451844 0.041968
0.903978 0.457005 0.046157
0.928429 0.462809 0.049730
0.950128 0.469088 0.052551
0.968179 0.475781 0.055388
0.981742 0.482716 0.057225
0.990872 0.489826 0.058697
0.996408 0.497035 0.059784
1.000000 0.504223 0.060381
0.159474 0.465983 0.033465
0.171010 0.467353 0.031149
0.182253 0.468758 0.029226
0.193347 0.469919 0.026516
0.204168 0.470415 0.022721
0.214980 0.469792 0.017398
0.225848 0.467732 0.011188
0.236700 0.464393 0.004805
0.247486 0.459827 0.001774
0.258036 0.454085 0.000567
0.269209 0.447119 0.000000
0.283430 0.438762 0.000000
0.303881 0.429984 0.000000
0.333681 0.423181 0.000000
0.375268 0.422154 0.000000
0.430495 0.429945 0.000419
0.497220 0.442595 0.001183
0.565889 0.454016 0.003179
0.629847 0.462575 0.006309
0.687928 0.468944 0.010522
0.739266 0.473481 0.015919
0.783662 0.476686 0.022129
0.822074 0.479314 0.028340
0.855812 0.482172 0.033884
0.886191 0.485666 0.039330
0.913769 0.489784 0.043998
0.938434 0.494681 0.048377
0.959531 0.500091 0.052076
0.976010 0.505984 0.055448
0.987518 0.512230 0.058167
0.994386 0.518687 0.060538
0.998046 0.525337 0.062534
1.000000 0.532041 0.063880
0.180324 0.498483 0.035018
0.191731 0.500160 0.033022
0.202751 0.501616 0.030705
0.213550 0.502963 0.028068
0.224363 0.503545 0.024273
0.235180 0.503298 0.018950
0.246168 0.501807 0.012741
0.257366 0.499111 0.006358
0.268273 0.495063 0.002292
0.278867 0.489864 0.000789
0.289815 0.483480 0.000000
0.302603 0.475899 0.000000
0.319765 0.467407 0.000000
0.344018 0.459581 0.000000
0.378041 0.455136 0.000000
0.423992 0.457444 0.000000
0.482006 0.466848 0.000789
0.547785 0.479031 0.001626
0.613665 0.490360 0.003524
0.675883 0.499755 0.007097
0.732219 0.506885 0.011287
0.781304 0.511703 0.017201
0.823611 0.515002 0.023608
0.860226 0.517653 0.029892
0.892548 0.520405 0.035634
0.921275 0.523589 0.040868
0.946254 0.527412 0.045999
0.966655 0.531790 0.050112
0.981774 0.536784 0.053549
0.991417 0.542123 0.056683
0.996627 0.547792 0.059736
0.998983 0.553658 0.062044
1.000000 0.559658 0.064856
0.202868 0.531539 0.037654
0.213917 0.533344 0.035338
0.224843 0.535040 0.033022
0.235532 0.536432 0.029916
0.246457 0.537400 0.026121
0.257346 0.537463 0.021464
0.268414 0.536300 0.015081
0.279447 0.533943 0.008378
0.290266 0.530262 0.003844
0.300868 0.525452 0.001306
0.311477 0.519494 0.000542
0.323195 0.512394 0.000000
0.337967 0.504211 0.000000
0.358062 0.496024 0.000000
0.385910 0.489728 0.000000
0.423900 0.488092 0.000000
0.473472 0.493160 0.000000
0.532782 0.503474 0.000789
0.596978 0.515724 0.001626
0.660808 0.527529 0.003992
0.720920 0.537517 0.007393
0.774631 0.544880 0.012543
0.821203 0.549702 0.018236
0.861263 0.552967 0.024938
0.896051 0.555462 0.031445
0.926256 0.557916 0.036989
0.951811 0.560745 0.042371
0.971785 0.564100 0.046689
0.985668 0.568015 0.050765
0.993900 0.572423 0.054391
0.997894 0.577145 0.057629
0.999463 0.582142 0.060441
1.000000 0.587257 0.063166
0.227172 0.565070 0.041007
0.237907 0.566900 0.038714
0.248754 0.568748 0.036398
0.259449 0.570354 0.033293
0.270219 0.571358 0.029498
0.280973 0.571556 0.024569
0.291804 0.570617 0.018113
0.302620 0.568483 0.011484
0.313263 0.565124 0.005865
0.323667 0.560654 0.002588
0.333980 0.555059 0.001035
0.344867 0.548255 0.000000
0.357857 0.540412 0.000000
0.374816 0.532123 0.000000
0.397838 0.524793 0.000000
0.429219 0.520553 0.000000
0.470761 0.521602 0.000000
0.522605 0.528613 0.000099
0.582004 0.539707 0.000863
0.644640 0.552514 0.001947
0.706564 0.564810 0.004263
0.764033 0.574923 0.007886
0.814945 0.582237 0.012790
0.858888 0.587037 0.019000
0.896592 0.590043 0.025727
0.928701 0.592243 0.032209
0.955126 0.594351 0.038270
0.975033 0.596798 0.043098
0.988148 0.599573 0.047286
0.995371 0.602917 0.051119
0.998594 0.606670 0.054310
0.999676 0.610629 0.056835
1.000000 0.614887 0.060441
0.252921 0.598477 0.045411
0.263448 0.600446 0.043234
0.274076 0.602348 0.040255
0.284605 0.603991 0.037704
0.295095 0.605027 0.033367
0.305613 0.605345 0.028044
0.316153 0.604546 0.021587
0.326722 0.602607 0.014589
0.337124 0.599475 0.008378
0.347177 0.595208 0.003844
0.357196 0.589944 0.001824
0.367356 0.583479 0.000518
0.379019 0.575928 0.000000
0.393555 0.567739 0.000000
0.412845 0.559762 0.000000
0.438827 0.553693 0.000000
0.473401 0.551579 0.000000
0.517648 0.554830 0.000000
0.570666 0.563408 0.000099
0.629679 0.575431 0.000863
0.691044 0.588941 0.002415
0.750649 0.601566 0.004780
0.805175 0.611619 0.008674
0.853042 0.618645 0.013332
0.894174 0.623046 0.019517
0.928691 0.625774 0.026516
0.956332 0.627599 0.032726
0.976611 0.629261 0.038936
0.989479 0.631197 0.043584
0.996226 0.633497 0.047129
0.998975 0.636177 0.050297
0.999779 0.639223 0.053727
1.000000 0.642339 0.055802
0.279715 0.631396 0.050422
0.290028 0.633477 0.047717
0.300368 0.635411 0.045632
0.310586 0.637056 0.042532
0.320822 0.638135 0.038246
0.330968 0.638499 0.032701
0.341212 0.637855 0.025851
0.351477 0.636076 0.018877
0.361503 0.633119 0.011484
0.371293 0.629087 0.006407
0.380866 0.624030 0.002612
0.390553 0.617890 0.001060
0.401151 0.610661 0.000000
0.413857 0.602597 0.000000
0.430127 0.594319 0.000000
0.451789 0.587009 0.000000
0.480548 0.582456 0.000000
0.517751 0.582309 0.000000
0.563908 0.587546 0.000000
0.617668 0.597585 0.000099
0.676317 0.610787 0.000863
0.735964 0.624746 0.002415
0.792756 0.637282 0.004780
0.844111 0.647016 0.008674
0.888699 0.653563 0.013529
0.926040 0.657477 0.020306
0.955607 0.659762 0.026516
0.976798 0.661162 0.033515
0.989876 0.662358 0.038837
0.996516 0.663797 0.043371
0.999121 0.665504 0.046465
0.999831 0.667507 0.049639
1.000000 0.669637 0.051499
0.307344 0.663666 0.055714
0.317271 0.665726 0.053684
0.327260 0.667670 0.051095
0.337211 0.669346 0.047782
0.347093 0.670547 0.043530
0.356873 0.670976 0.038344
0.366799 0.670400 0.031149
0.376633 0.668728 0.023115
0.386331 0.665946 0.014983
0.395852 0.662081 0.008748
0.405067 0.657190 0.004091
0.414237 0.651330 0.001528
0.423986 0.644401 0.000493
0.435195 0.636591 0.000000
0.449237 0.628230 0.000000
0.467371 0.620120 0.000000
0.491360 0.613741 0.000000
0.522626 0.610789 0.000000
0.562139 0.612664 0.000000
0.609852 0.619824 0.000000
0.664047 0.631387 0.000099
0.721678 0.645423 0.000863
0.779027 0.659490 0.002415
0.832731 0.671602 0.004780
0.880591 0.680704 0.008674
0.921009 0.686617 0.013923
0.952949 0.690039 0.020257
0.975675 0.691760 0.026516
0.989550 0.692766 0.032726
0.996438 0.693528 0.038270
0.999111 0.694358 0.042231
0.999858 0.695433 0.046399
1.000000 0.696642 0.048462
0.335433 0.695164 0.061814
0.344984 0.697174 0.059498
0.354628 0.699099 0.057077
0.364182 0.700812 0.053882
0.373667 0.701988 0.049830
0.383054 0.702425 0.044358
0.392518 0.701954 0.036915
0.402032 0.700387 0.028192
0.411473 0.697692 0.019640
0.420656 0.693970 0.011705
0.429613 0.689277 0.005816
0.438379 0.683607 0.002292
0.447462 0.676990 0.000789
0.457542 0.669404 0.000000
0.469697 0.661102 0.000000
0.485167 0.652687 0.000000
0.505326 0.645100 0.000000
0.531543 0.639966 0.000000
0.565173 0.638866 0.000000
0.606667 0.642787 0.000000
0.655420 0.651811 0.000000
0.709405 0.664528 0.000099
0.765427 0.678993 0.000863
0.820018 0.692805 0.002415
0.870290 0.704208 0.004780
0.913713 0.712493 0.008502
0.948407 0.717708 0.013332
0.973214 0.720512 0.019517
0.988428 0.721779 0.026344
0.996031 0.722288 0.032553
0.998971 0.722573 0.037556
0.999816 0.722837 0.041494
1.000000 0.723210 0.045865
0.363629 0.725569 0.068552
0.372846 0.727589 0.066415
0.382094 0.729492 0.063550
0.391234 0.731140 0.060693
0.400300 0.732293 0.055946
0.409347 0.732767 0.050712
0.418390 0.732344 0.043012
0.427526 0.730814 0.033958
0.436592 0.728248 0.024495
0.445564 0.724628 0.015180
0.454275 0.720052 0.008378
0.462768 0.714584 0.003844
0.471292 0.708169 0.001232
0.480496 0.700887 0.000321
0.491277 0.692797 0.000000
0.504617 0.684220 0.000000
0.521715 0.675997 0.000000
0.543921 0.669353 0.000000
0.572392 0.665785 0.000000
0.608135 0.666683 0.000000
0.651115 0.672689 0.000000
0.700322 0.683265 0.000000
0.753442 0.696830 0.000099
0.807343 0.711215 0.000863
0.858751 0.724400 0.002415
