bundles/resolve-cinematic-luts/Gamut/Orion/Orion Cool.cube
TITLE "Orion Cool by Gamut"
# Contributor - JVKE. Version 1.0 - 09/28/2023 - Designed for Rec.709 Color Space. Copyright 2023 Gamut, LLC
LUT_3D_SIZE 9
0.002366 0.012617 0.023657
0.079700 0.012617 0.014391
0.175551 0.015377 0.000000
0.285068 0.018926 0.000000
0.399007 0.014194 0.000000
0.514937 0.006802 0.000000
0.621559 0.000000 0.000000
0.725543 0.000000 0.000000
0.824978 0.000000 0.000000
0.000986 0.089597 0.036373
0.093979 0.087405 0.018531
0.196174 0.082073 0.016067
0.309319 0.087356 0.000000
0.430169 0.090521 0.000000
0.548260 0.089891 0.000000
0.662655 0.091906 0.000000
0.770819 0.096099 0.000000
0.872463 0.102620 0.000000
0.000000 0.195232 0.025431
0.098257 0.194681 0.027403
0.226225 0.187170 0.007491
0.368806 0.177735 0.034894
0.484207 0.188198 0.015968
0.601264 0.199704 0.001676
0.714707 0.209363 0.000000
0.822364 0.219154 0.000000
0.924431 0.229953 0.000000
0.006802 0.314857 0.009857
0.144878 0.308211 0.028882
0.201633 0.292306 0.001380
0.372744 0.291426 0.003450
0.540702 0.284592 0.022474
0.668469 0.294690 0.027009
0.782584 0.310747 0.014194
0.887928 0.327343 0.004830
0.980496 0.343905 0.000493
0.145295 0.414056 0.034303
0.200712 0.414360 0.021292
0.243430 0.401746 0.000197
0.312933 0.373883 0.000000
0.527497 0.400186 0.002366
0.711491 0.402566 0.013603
0.845345 0.407743 0.021489
0.950817 0.421799 0.020799
0.999906 0.439581 0.012223
0.229877 0.518674 0.034993
0.270118 0.522938 0.019616
0.310062 0.517435 0.001282
0.353485 0.496826 0.000000
0.471676 0.488005 0.000000
0.694823 0.518404 0.001577
0.877243 0.521246 0.005126
0.982227 0.522302 0.011040
1.000000 0.531663 0.015673
0.315973 0.628905 0.045820
0.350108 0.635037 0.029867
0.385219 0.631996 0.005323
0.420660 0.614963 0.000000
0.482370 0.590216 0.000000
0.639886 0.603954 0.000000
0.861403 0.636073 0.000000
0.987223 0.635867 0.000690
1.000000 0.632609 0.002169
0.400609 0.735717 0.062514
0.429219 0.742341 0.044638
0.459573 0.740025 0.012223
0.491576 0.724033 0.000000
0.531621 0.697139 0.000000
0.622906 0.681677 0.000000
0.810582 0.715701 0.000000
0.976015 0.743513 0.000000
1.000000 0.740427 0.000888
0.479919 0.837478 0.081010
0.503766 0.843465 0.061489
0.529652 0.840692 0.022672
0.559556 0.824215 0.000789
0.592000 0.797684 0.000000
0.647724 0.768682 0.000000
0.772157 0.775419 0.000000
0.948272 0.818837 0.000000
0.999920 0.842881 0.000000
0.000000 0.016560 0.104776
0.089792 0.008773 0.113861
0.199054 0.000099 0.074330
0.305287 0.000000 0.030163
0.414565 0.000000 0.000690
0.525713 0.000000 0.000000
0.635957 0.000000 0.000000
0.740671 0.000000 0.000000
0.839818 0.000000 0.000000
0.000000 0.091687 0.105375
0.077408 0.092359 0.101045
0.189693 0.087990 0.076587
0.307885 0.086971 0.051124
0.431875 0.087859 0.022869
0.554862 0.088837 0.003253
0.670921 0.091360 0.001183
0.779846 0.095740 0.000690
0.881871 0.102565 0.000690
0.000000 0.196022 0.125168
0.090858 0.206953 0.108849
0.223678 0.201641 0.079249
0.352407 0.197917 0.103756
0.470244 0.205952 0.069999
0.591110 0.213172 0.038221
0.707712 0.220395 0.016461
0.817597 0.228694 0.008379
0.921072 0.238428 0.004337
0.000000 0.330644 0.121674
0.145042 0.326931 0.110930
0.237875 0.312801 0.086288
0.370941 0.307295 0.056055
0.525749 0.303518 0.102631
0.650074 0.314632 0.098643
0.765105 0.330435 0.074051
0.872224 0.345844 0.048199
0.970647 0.361033 0.026910
0.061822 0.448889 0.099354
0.226737 0.433404 0.117563
0.278259 0.421845 0.084308
0.328499 0.389170 0.014983
0.518353 0.409848 0.035880
0.694053 0.416573 0.089966
0.824951 0.425787 0.108919
0.932786 0.442172 0.106630
0.998368 0.460857 0.091542
0.222520 0.539715 0.115650
0.295189 0.535537 0.115518
0.331825 0.529065 0.082701
0.367207 0.506478 0.025037
0.470194 0.493282 0.004633
0.682720 0.525683 0.030557
0.860263 0.533201 0.079387
0.971348 0.537834 0.105639
1.000000 0.549947 0.118380
0.330993 0.637428 0.130988
0.370418 0.640537 0.122702
0.399414 0.639442 0.091528
0.429278 0.624549 0.038798
0.486818 0.597205 0.006013
0.632935 0.607357 0.001676
0.849078 0.642848 0.022179
0.981269 0.646145 0.067560
1.000000 0.645711 0.094479
0.421205 0.739431 0.149918
0.447575 0.745741 0.138228
0.470080 0.746664 0.106177
0.494989 0.734376 0.050427
0.535924 0.705858 0.009857
0.621163 0.685517 0.000394
0.800267 0.718163 0.000887
0.970899 0.749705 0.015278
1.000000 0.749165 0.059151
0.499976 0.839488 0.169334
0.519905 0.846264 0.155449
0.537826 0.846820 0.121566
0.558605 0.835040 0.062418
0.592683 0.807753 0.013898
0.648662 0.774148 0.000789
0.764803 0.776370 0.000000
0.940261 0.820729 0.000000
0.999943 0.848547 0.000789
0.000000 0.020503 0.228606
0.058567 0.011927 0.242281
0.209245 0.000000 0.231957
0.344077 0.000000 0.186337
0.451689 0.000000 0.126305
0.559086 0.000000 0.074945
0.665397 0.000000 0.030360
0.767598 0.000000 0.007590
0.865073 0.000000 0.002760
0.000000 0.098123 0.212317
0.049768 0.097909 0.222463
0.208395 0.080155 0.228776
0.344506 0.077529 0.188960
0.463047 0.073402 0.146927
0.582377 0.067170 0.108231
0.695474 0.064614 0.072494
0.802553 0.075424 0.051545
0.903065 0.087211 0.037726
0.000000 0.201680 0.221625
0.041800 0.211864 0.230936
0.200288 0.213415 0.220020
0.337714 0.213330 0.194122
0.466094 0.213829 0.170929
0.591516 0.216591 0.145818
0.710392 0.221107 0.121325
0.821489 0.228076 0.099359
0.925491 0.237298 0.081161
0.001183 0.330243 0.263430
0.099796 0.340233 0.274183
0.229385 0.343335 0.234035
0.370487 0.334055 0.181272
0.504217 0.331753 0.210714
0.626843 0.340007 0.192994
0.743796 0.351099 0.169437
0.853199 0.363246 0.145580
0.955669 0.376132 0.123541
0.041295 0.469380 0.267515
0.144112 0.475239 0.255961
0.277890 0.459273 0.229643
0.374014 0.427320 0.160764
0.510885 0.430050 0.138418
0.670347 0.438691 0.200032
0.796205 0.450930 0.215307
0.905472 0.468797 0.208464
0.991547 0.486837 0.192326
0.106028 0.594199 0.239543
0.222669 0.584800 0.235994
0.331380 0.563779 0.219222
0.402996 0.531718 0.158572
0.475844 0.506360 0.067630
0.663458 0.535209 0.100476
0.833548 0.548346 0.187295
0.950385 0.558393 0.221230
0.999876 0.574562 0.234150
0.237637 0.691880 0.235536
0.322360 0.680255 0.234470
0.398863 0.661551 0.215964
0.452405 0.637545 0.163076
0.496530 0.607847 0.078061
0.620042 0.610208 0.022868
0.827063 0.649779 0.079119
0.968433 0.658218 0.172514
1.000000 0.661970 0.213498
0.361083 0.781339 0.248321
0.421708 0.772120 0.246296
0.474775 0.758120 0.225909
0.512236 0.741624 0.175401
0.545496 0.716886 0.096839
0.616170 0.690727 0.023460
0.782002 0.719038 0.008280
0.959954 0.756293 0.063000
1.000000 0.759230 0.164854
0.467221 0.868073 0.269077
0.511128 0.862364 0.264529
0.548141 0.852700 0.241535
0.573553 0.840354 0.190379
0.599753 0.818955 0.113610
0.646944 0.783342 0.036064
0.751265 0.775926 0.002563
0.926184 0.821037 0.000592
0.999866 0.855558 0.022080
0.000000 0.024446 0.367205
0.022080 0.017250 0.379764
0.178715 0.000000 0.384350
0.345488 0.000000 0.362015
0.492896 0.000000 0.321024
0.612906 0.000000 0.261959
0.718948 0.000000 0.215104
0.819224 0.000000 0.179056
0.914312 0.000000 0.149413
0.000000 0.103728 0.347584
0.019024 0.103136 0.361747
0.177118 0.085924 0.380174
0.359084 0.070075 0.372743
0.511147 0.066481 0.337529
0.632475 0.062592 0.286553
0.741966 0.058349 0.248407
0.845961 0.054452 0.218310
0.944156 0.052597 0.193340
0.000000 0.213200 0.338834
0.003746 0.225770 0.347207
0.160034 0.224691 0.359061
0.357914 0.206009 0.368777
0.501424 0.206287 0.331084
0.624907 0.206088 0.293664
0.741057 0.206090 0.265789
0.849785 0.208402 0.244182
0.951819 0.213704 0.226966
0.000000 0.339993 0.367446
0.008379 0.351887 0.378341
0.157715 0.354538 0.379220
0.346326 0.353378 0.354924
0.491571 0.352845 0.328521
0.622870 0.353115 0.310387
0.741354 0.359370 0.289690
0.851527 0.367916 0.272838
0.954775 0.378606 0.259582
0.006407 0.473535 0.413991
0.080262 0.484389 0.426950
0.208567 0.486012 0.426345
0.379987 0.481237 0.366635
0.516595 0.469272 0.308164
0.650743 0.470965 0.332771
0.770451 0.481424 0.330207
0.879466 0.496398 0.316922
0.978379 0.511176 0.302803
0.089558 0.610289 0.439760
0.169395 0.618994 0.439883
0.267242 0.615444 0.419192
0.407896 0.588183 0.361149
0.515116 0.548774 0.258816
0.651380 0.558820 0.247919
0.804766 0.572494 0.323679
0.921237 0.586551 0.347539
0.998247 0.606297 0.351469
0.171487 0.740275 0.432808
0.238602 0.743055 0.426508
0.321741 0.729712 0.399727
0.445708 0.688094 0.344680
0.532524 0.637675 0.253866
0.613829 0.620657 0.145842
0.796658 0.659497 0.198170
0.944811 0.673306 0.307409
1.000000 0.683027 0.347358
0.246232 0.855212 0.421242
0.307021 0.851424 0.413304
0.384954 0.828654 0.386859
0.496585 0.778619 0.336631
0.574066 0.732871 0.262345
0.620252 0.699191 0.149277
0.752088 0.718391 0.069559
0.936643 0.763666 0.169736
1.000000 0.770534 0.301102
0.326333 0.954341 0.416758
0.383665 0.945394 0.409689
0.459166 0.917339 0.386604
0.557783 0.866158 0.340792
0.623901 0.826600 0.274309
0.658392 0.794068 0.177211
0.730932 0.774859 0.059572
0.896096 0.819437 0.018827
0.999504 0.865761 0.155220
0.000000 0.029572 0.507807
0.000690 0.022672 0.520334
0.138979 0.000394 0.530643
0.320356 0.000000 0.522208
0.490049 0.000000 0.498657
0.643083 0.000000 0.466071
0.770973 0.000000 0.422832
0.877850 0.000000 0.381372
0.972766 0.000000 0.348647
0.000000 0.109063 0.488255
0.000986 0.109767 0.504818
0.140975 0.096831 0.525709
0.335249 0.073399 0.535486
0.516181 0.060831 0.521498
0.671223 0.057900 0.491864
0.795466 0.057115 0.449353
0.901360 0.055169 0.411527
0.990646 0.054060 0.383149
0.000000 0.223158 0.470387
0.000789 0.234725 0.485806
0.129887 0.232556 0.504725
0.330063 0.212091 0.527612
0.517294 0.198875 0.520079
0.668043 0.198276 0.488761
0.789282 0.201013 0.450264
0.896547 0.203220 0.419990
0.988822 0.205827 0.397521
0.000000 0.353861 0.483966
0.000099 0.368104 0.492269
0.066527 0.374239 0.492922
0.302609 0.365345 0.500776
0.506065 0.348146 0.505965
0.649054 0.349724 0.472672
0.770799 0.353963 0.442056
0.880399 0.359479 0.419005
0.980716 0.366976 0.403013
0.000000 0.485150 0.520927
0.006013 0.497920 0.532535
0.101130 0.502381 0.535882
0.305013 0.500486 0.525433
0.499062 0.499032 0.493173
0.642015 0.498006 0.468991
0.767456 0.499460 0.452601
0.877094 0.508287 0.435719
0.978911 0.518755 0.423345
0.013997 0.619732 0.572075
0.061577 0.630807 0.585007
0.176282 0.633707 0.588958
0.344755 0.628505 0.574265
0.527879 0.619560 0.501059
0.659860 0.605463 0.441379
0.788791 0.609718 0.467895
0.899462 0.621026 0.470069
0.993712 0.637309 0.462300
0.101961 0.751448 0.620651
0.172543 0.761112 0.629262
0.264794 0.762769 0.623824
0.394850 0.749833 0.584774
0.546650 0.712010 0.491689
0.649362 0.667166 0.367471
0.784446 0.686151 0.372444
0.921936 0.699232 0.453115
0.999873 0.712093 0.480723
0.216074 0.877455 0.647476
0.271291 0.884802 0.648820
0.336558 0.882614 0.630526
0.437800 0.857791 0.571763
0.571819 0.800216 0.478236
0.657809 0.735095 0.354527
0.741448 0.729320 0.248468
0.910326 0.774515 0.325019
1.000000 0.784468 0.441424
0.297030 0.994290 0.655392
0.337446 0.995923 0.650192
0.387540 0.988950 0.622093
0.476545 0.952631 0.552803
0.602970 0.880396 0.464004
0.688986 0.815197 0.362530
0.730331 0.779859 0.233456
0.857174 0.816273 0.150206
0.998375 0.875216 0.323771
0.000000 0.034993 0.644261
0.000000 0.028882 0.657704
0.097417 0.006308 0.669394
0.284467 0.000000 0.673094
0.469830 0.000000 0.657986
0.639441 0.000000 0.640003
0.788781 0.000000 0.617796
0.914684 0.000000 0.588321
0.998805 0.000000 0.556784
0.000000 0.115896 0.626889
0.000000 0.117540 0.645110
0.104716 0.108080 0.666835
0.301305 0.081065 0.685898
0.497688 0.063015 0.682502
0.671426 0.054608 0.668407
0.819664 0.054859 0.646293
0.941064 0.058753 0.616058
0.999889 0.059121 0.585588
0.000000 0.233096 0.607296
0.000000 0.243601 0.626380
0.096844 0.241149 0.647566
0.296703 0.222026 0.673169
0.498246 0.202143 0.681660
0.676233 0.193160 0.670315
0.823231 0.193919 0.647378
0.940829 0.199541 0.617512
0.999812 0.205157 0.588769
0.000000 0.364832 0.607204
0.000000 0.379077 0.617498
0.050056 0.383738 0.625397
0.265536 0.375519 0.643061
0.481384 0.354207 0.662577
0.664219 0.343787 0.655895
0.808005 0.345820 0.630939
0.922872 0.353414 0.600966
0.998758 0.361666 0.575327
0.000000 0.499781 0.633779
0.000000 0.514011 0.642926
0.018433 0.521287 0.643306
0.216632 0.520742 0.639857
0.457504 0.509761 0.640404
0.654436 0.494847 0.642439
0.789279 0.498493 0.611880
0.903117 0.505013 0.585434
0.996119 0.512507 0.565523
0.000000 0.632464 0.676736
0.004238 0.644792 0.687652
0.060748 0.649645 0.691170
0.250379 0.647229 0.685808
0.462824 0.643590 0.665788
0.649573 0.641948 0.631827
0.780627 0.642327 0.608426
0.897794 0.643410 0.592414
0.995901 0.651917 0.577443
0.010350 0.763383 0.732039
0.039494 0.773893 0.743764
0.131298 0.776704 0.748907
0.308140 0.770670 0.745630
0.489919 0.763582 0.717487
0.674209 0.749707 0.632570
0.794334 0.737136 0.577612
0.911667 0.741008 0.602833
0.999681 0.750534 0.605697
0.075935 0.887371 0.793719
0.136821 0.895710 0.803538
0.233792 0.896604 0.805096
0.376808 0.888026 0.792483
0.530521 0.870529 0.737340
0.683922 0.826606 0.617073
0.776866 0.782181 0.489171
0.904388 0.805841 0.507428
1.000000 0.813142 0.588533
0.200698 0.999483 0.846849
0.260741 0.999993 0.851749
0.336618 0.999772 0.845100
0.445080 0.994652 0.813962
0.568126 0.967046 0.735725
0.698922 0.897973 0.602814
0.771643 0.824899 0.457168
0.853533 0.832034 0.353751
0.997019 0.891331 0.478366
0.000000 0.041948 0.770404
0.000000 0.036077 0.783519
0.058287 0.015574 0.796725
0.249809 0.000000 0.807234
0.443686 0.000000 0.803314
0.625217 0.000000 0.790362
0.784935 0.000000 0.778239
0.923619 0.000000 0.763419
0.999530 0.000000 0.745135
0.000000 0.123542 0.755155
0.000000 0.126474 0.774906
0.070026 0.118758 0.797158
0.269794 0.092170 0.819875
0.471981 0.069329 0.827551
0.657639 0.057056 0.818772
0.818306 0.053746 0.807993
0.951543 0.056997 0.793237
1.000000 0.062749 0.774662
0.000000 0.242737 0.736655
0.000000 0.252676 0.757315
0.063969 0.250398 0.779839
0.264936 0.234295 0.805541
0.470869 0.210012 0.824252
0.662856 0.195736 0.822531
0.827206 0.190903 0.813643
0.957653 0.193864 0.799092
1.000000 0.202175 0.779150
0.000000 0.376073 0.727527
0.000000 0.389717 0.741272
0.031839 0.392939 0.754988
0.237803 0.384949 0.775841
0.451888 0.363959 0.800638
0.651096 0.346603 0.809613
0.818990 0.340955 0.802342
0.949759 0.345037 0.785403
1.000000 0.355030 0.762084
0.000000 0.512914 0.744445
0.000000 0.527646 0.753267
0.009266 0.534853 0.755370
0.170406 0.533975 0.759086
0.415485 0.521215 0.773448
0.633646 0.500314 0.790478
0.804594 0.492674 0.785219
0.933397 0.497424 0.764099
0.999987 0.507352 0.737893
0.000000 0.647035 0.780517
0.000000 0.660286 0.789376
0.008773 0.667073 0.790308
0.134632 0.667915 0.783859
0.388654 0.663388 0.774373
0.612598 0.652498 0.769146
0.793689 0.639342 0.770742
0.914043 0.645008 0.741785
0.999846 0.650970 0.716701
0.000000 0.776299 0.828539
0.001281 0.787472 0.838044
0.032923 0.791664 0.840473
0.197751 0.787799 0.835776
0.422704 0.781955 0.820884
0.620006 0.777272 0.794274
0.788273 0.775212 0.761912
0.903982 0.777678 0.739619
1.000000 0.776724 0.722452
0.002858 0.899892 0.885255
0.015278 0.908644 0.894211
0.079914 0.910273 0.896833
0.263053 0.902796 0.894025
0.458111 0.893062 0.881230
0.634618 0.885536 0.844926
0.811494 0.866919 0.755143
0.916245 0.858832 0.712508
1.000000 0.859129 0.734971
0.026614 0.999571 0.945101
0.073090 1.000000 0.952409
0.170325 1.000000 0.953875
0.333261 0.999467 0.950377
0.502135 0.994115 0.934755
0.663402 0.976779 0.862807
0.811009 0.931115 0.734800
0.887483 0.888126 0.609272
0.996901 0.928885 0.660923
0.000000 0.049754 0.885686
0.000000 0.044188 0.899191
0.026121 0.025333 0.912849
0.215976 0.000296 0.926283
0.416981 0.000000 0.931621
0.607771 0.000000 0.924436
0.774627 0.000000 0.914337
0.920048 0.000000 0.906590
0.999561 0.000000 0.898141
0.000000 0.132194 0.872459
0.000000 0.136193 0.893673
0.040185 0.129669 0.916495
0.239730 0.108536 0.939796
0.445511 0.077692 0.954050
0.639701 0.062223 0.950288
0.808557 0.056754 0.941683
0.948763 0.056997 0.934487
1.000000 0.060572 0.926785
0.000000 0.252524 0.855316
0.000000 0.262112 0.876970
0.036366 0.259950 0.900109
0.237103 0.245987 0.925395
0.444943 0.219561 0.946926
0.643638 0.202137 0.950575
0.818070 0.193870 0.946098
0.956954 0.192975 0.941310
1.000000 0.197550 0.933634
0.000000 0.387080 0.840681
0.000000 0.399983 0.857288
0.017743 0.402480 0.874292
0.212223 0.394558 0.896216
0.425443 0.374919 0.921446
0.629810 0.354118 0.937031
0.809926 0.343825 0.937696
0.952334 0.342682 0.932844
1.000000 0.347995 0.923007
0.000000 0.524283 0.849379
0.000000 0.538885 0.859293
0.007984 0.545593 0.865051
0.152497 0.543478 0.874060
0.387844 0.532052 0.892464
0.607861 0.509870 0.915323
0.795435 0.495404 0.923287
0.941800 0.493019 0.917685
1.000000 0.498644 0.903882
0.000000 0.661446 0.877364
0.000000 0.675255 0.885440
0.001380 0.682609 0.885934
0.073318 0.684201 0.881002
0.325055 0.679927 0.879563
0.574716 0.663175 0.890004
0.777433 0.643668 0.904727
0.927253 0.638889 0.898604
1.000000 0.644350 0.878934
0.000000 0.790462 0.920377
0.000000 0.802258 0.928132
0.002858 0.807583 0.928599
0.076946 0.806723 0.921524
0.324488 0.802482 0.908972
0.561305 0.795412 0.892460
0.757974 0.784930 0.884331
0.917874 0.774183 0.884351
1.000000 0.781279 0.855018
0.000000 0.911648 0.965087
0.000000 0.920423 0.970528
0.014983 0.922755 0.971020
0.152352 0.917325 0.966633
0.387809 0.908681 0.956123
0.590793 0.901583 0.934880
0.765910 0.896661 0.907611
0.913379 0.894466 0.877157
1.000000 0.898199 0.855863
0.000000 0.999712 0.995094
0.001972 1.000000 0.996696
0.034007 1.000000 0.996838
0.214814 1.000000 0.996049
0.424873 0.999641 0.994107
0.606791 0.997107 0.982249
0.767813 0.991602 0.955162
0.931682 0.967514 0.860986
0.999305 0.972118 0.842638
0.000000 0.058053 0.989572
0.000000 0.053083 1.000000
0.003548 0.034698 0.999960
0.186469 0.005422 1.000000
0.393022 0.000000 1.000000
0.589410 0.000000 0.999923
0.762805 0.000000 0.999685
0.913218 0.000000 0.999527
0.999302 0.000000 0.999007
0.000000 0.141317 0.978684
0.000000 0.146293 0.999218
0.017152 0.140529 1.000000
0.214015 0.122843 1.000000
0.422452 0.086834 1.000000
0.620772 0.068989 1.000000
0.796680 0.060992 1.000000
0.943012 0.059960 1.000000
0.999946 0.061668 0.999946
0.000000 0.262508 0.962776
0.000000 0.271951 0.985027
0.015771 0.269740 0.999483
0.212708 0.257155 0.999993
0.422116 0.230597 1.000000
0.623500 0.210234 1.000000
0.805394 0.199504 1.000000
0.952146 0.196108 1.000000
1.000000 0.198367 0.999946
0.000000 0.397866 0.945210
0.000000 0.410208 0.963700
0.011336 0.412232 0.982447
0.188225 0.404365 0.997063
0.402369 0.386252 0.999761
0.608399 0.363283 1.000000
0.795436 0.350069 1.000000
0.946692 0.345833 1.000000
0.999946 0.347701 0.999866
0.000000 0.535741 0.947140
0.000000 0.549980 0.959029
0.005915 0.555901 0.968202
0.136332 0.552799 0.980583
0.367708 0.541921 0.994115
0.584336 0.520383 0.999456
0.778177 0.502482 1.000000
0.935550 0.495688 1.000000
0.999946 0.496256 0.999758
0.000000 0.673797 0.968876
0.000000 0.687878 0.976609
0.001084 0.695222 0.978017
0.061583 0.695713 0.976507
0.295560 0.691050 0.980886
0.543694 0.675117 0.991945
0.755129 0.652309 0.999013
0.920684 0.640710 1.000000
0.999866 0.638990 0.999343
0.000000 0.805103 0.994439
0.000000 0.817298 0.997157
0.000000 0.823264 0.997063
0.017349 0.823920 0.994074
0.221389 0.822053 0.988979
0.503142 0.812486 0.985244
0.726562 0.794129 0.990944
0.905015 0.776824 0.999228
0.999725 0.771976 0.996106
0.000000 0.924170 0.999876
0.000000 0.933226 0.999980
0.000592 0.936253 1.000000
0.036025 0.933357 0.999953
0.270761 0.927021 0.999554
0.524011 0.919476 0.997110
0.719225 0.912123 0.990326
0.888614 0.902333 0.984425
1.000000 0.893044 0.980825
0.000789 1.000000 1.000000
0.000789 1.000000 1.000000
0.003746 1.000000 1.000000
0.114573 1.000000 1.000000
0.368410 1.000000 1.000000
0.581587 1.000000 1.000000
0.752822 1.000000 1.000000
0.892017 1.000000 1.000000
1.000000 0.999383 0.978250
