bundles/resolve-cinematic-luts/Gamut/Orion/Orion Cool.cube
TITLE "Orion Cool by Gamut"
# Contributor - JVKE. Version 1.0 - 09/28/2023 - Designed for Rec.709 Color Space. Copyright 2023 Gamut, LLC
LUT_3D_SIZE 33
0.002366 0.012617 0.023657
0.027181 0.011065 0.026787
0.044889 0.011780 0.021440
0.061423 0.012617 0.018285
0.079700 0.012617 0.014391
0.100611 0.010498 0.007713
0.125342 0.007886 0.000444
0.150096 0.012099 0.000000
0.175551 0.015377 0.000000
0.202002 0.017915 0.000000
0.228839 0.018679 0.000000
0.256675 0.018926 0.000000
0.285068 0.018926 0.000000
0.313041 0.018137 0.000000
0.341602 0.017349 0.000000
0.370441 0.016141 0.000000
0.399007 0.014194 0.000000
0.428034 0.012248 0.000000
0.456887 0.010695 0.000000
0.485964 0.008822 0.000000
0.514937 0.006802 0.000000
0.543590 0.004189 0.000000
0.571259 0.001331 0.000000
0.598234 0.000000 0.000000
0.621559 0.000000 0.000000
0.647124 0.000000 0.000000
0.673418 0.000000 0.000000
0.699710 0.000000 0.000000
0.725543 0.000000 0.000000
0.750786 0.000000 0.000000
0.775626 0.000000 0.000000
0.800363 0.000000 0.000000
0.824978 0.000000 0.000000
0.003129 0.031198 0.028315
0.027945 0.030434 0.025259
0.044258 0.031173 0.024471
0.060833 0.031987 0.020676
0.077898 0.032701 0.016806
0.097863 0.031987 0.011459
0.122485 0.031149 0.002267
0.149534 0.031173 0.000148
0.177133 0.033391 0.000000
0.203221 0.033613 0.000000
0.229986 0.033638 0.000000
0.256962 0.033663 0.000000
0.285498 0.033638 0.000000
0.314082 0.033638 0.000000
0.343302 0.033169 0.000000
0.372502 0.032406 0.000000
0.401983 0.031617 0.000000
0.431479 0.030853 0.000000
0.461714 0.030409 0.000000
0.491573 0.029276 0.000000
0.521324 0.027723 0.000000
0.550547 0.025111 0.000000
0.578473 0.021760 0.000000
0.602358 0.015821 0.000000
0.628324 0.013923 0.000000
0.655044 0.014687 0.000000
0.682021 0.015475 0.000000
0.708593 0.015475 0.000000
0.734554 0.015475 0.000000
0.759861 0.016240 0.000000
0.784860 0.017078 0.000000
0.809707 0.017841 0.000000
0.834619 0.018581 0.000000
0.004682 0.049763 0.034500
0.027230 0.050393 0.026072
0.048980 0.049763 0.022179
0.069857 0.047811 0.027329
0.086000 0.048394 0.026664
0.103948 0.048533 0.019370
0.126795 0.048486 0.010054
0.152684 0.048437 0.000715
0.180885 0.048999 0.000000
0.209097 0.050342 0.000000
0.235580 0.050489 0.000000
0.262674 0.050489 0.000000
0.291446 0.050905 0.000000
0.320241 0.051113 0.000000
0.349641 0.050738 0.000000
0.379629 0.050795 0.000000
0.410068 0.051066 0.000000
0.440989 0.051018 0.000000
0.471752 0.050393 0.000000
0.502271 0.049439 0.000000
0.532052 0.046898 0.000000
0.557150 0.042211 0.000000
0.583871 0.040403 0.000000
0.611352 0.040708 0.000000
0.638561 0.038591 0.000000
0.665899 0.038591 0.000000
0.693138 0.038837 0.000000
0.719778 0.039379 0.000000
0.746006 0.040252 0.000000
0.771461 0.040994 0.000000
0.796614 0.042430 0.000000
0.821604 0.043200 0.000000
0.846582 0.044593 0.000000
0.004017 0.069533 0.036200
0.024273 0.069645 0.026171
0.051449 0.067576 0.026590
0.070177 0.068028 0.020084
0.095389 0.064420 0.028093
0.115367 0.063799 0.029744
0.136531 0.063799 0.022450
0.160052 0.064310 0.010966
0.185416 0.064789 0.000690
0.213371 0.065276 0.000000
0.246351 0.068160 0.000000
0.274140 0.068975 0.000000
0.302211 0.069440 0.000000
0.331674 0.069957 0.000000
0.361795 0.070597 0.000000
0.392451 0.071123 0.000000
0.423647 0.071647 0.000000
0.454737 0.071405 0.000000
0.483624 0.069892 0.000000
0.509583 0.068133 0.000000
0.537850 0.065966 0.000000
0.566006 0.064582 0.000000
0.594374 0.063891 0.000000
0.622397 0.064110 0.000000
0.650200 0.064538 0.000000
0.677786 0.065024 0.000000
0.705115 0.065570 0.000000
0.732013 0.066605 0.000000
0.758123 0.067629 0.000000
0.783914 0.068699 0.000000
0.809083 0.069790 0.000000
0.834136 0.071288 0.000000
0.859392 0.072818 0.000000
0.000986 0.089597 0.036373
0.021169 0.090432 0.026960
0.054440 0.086727 0.029029
0.069291 0.087862 0.025135
0.093979 0.087405 0.018531
0.124377 0.082343 0.027354
0.148892 0.080432 0.030655
0.172259 0.081104 0.026023
0.196174 0.082073 0.016067
0.222502 0.083389 0.005273
0.250116 0.084665 0.000986
0.279468 0.085994 0.000690
0.309319 0.087356 0.000000
0.339579 0.088604 0.000000
0.369934 0.089897 0.000000
0.400099 0.090316 0.000000
0.430169 0.090521 0.000000
0.460097 0.090521 0.000000
0.489576 0.090403 0.000000
0.518880 0.090284 0.000000
0.548260 0.089891 0.000000
0.577591 0.090250 0.000000
0.606307 0.090606 0.000000
0.634616 0.090962 0.000000
0.662655 0.091906 0.000000
0.690256 0.092667 0.000000
0.717703 0.093765 0.000000
0.744564 0.094938 0.000000
0.770819 0.096099 0.000000
0.796603 0.097342 0.000000
0.821887 0.098944 0.000000
0.847252 0.100769 0.000000
0.872463 0.102620 0.000000
0.000000 0.112432 0.034820
0.015796 0.112833 0.024816
0.056264 0.109030 0.029818
0.069456 0.110280 0.026911
0.089255 0.109430 0.021341
0.121114 0.108237 0.014933
0.158425 0.102644 0.027156
0.186245 0.100983 0.031444
0.211768 0.101576 0.031124
0.237306 0.103299 0.024199
0.264060 0.105414 0.014983
0.291864 0.107604 0.005890
0.320570 0.109414 0.001676
0.350355 0.111130 0.000863
0.380066 0.112529 0.000222
0.410008 0.113611 0.000000
0.440209 0.114587 0.000000
0.470412 0.115209 0.000000
0.500463 0.115976 0.000000
0.530523 0.116728 0.000000
0.560422 0.117340 0.000000
0.589673 0.117948 0.000000
0.618631 0.118889 0.000000
0.646955 0.119915 0.000000
0.675153 0.120889 0.000000
0.702857 0.122126 0.000000
0.730270 0.123350 0.000000
0.757086 0.124564 0.000000
0.783434 0.126122 0.000000
0.809137 0.127696 0.000000
0.834710 0.129724 0.000000
0.860094 0.131774 0.000000
0.885357 0.133741 0.000000
0.000000 0.137209 0.031050
0.008994 0.138350 0.020947
0.049132 0.135490 0.025480
0.069813 0.135420 0.026171
0.085856 0.136213 0.023805
0.114630 0.133940 0.016757
0.154038 0.133306 0.011779
0.195679 0.128015 0.026270
0.226960 0.126016 0.031592
0.254156 0.126013 0.034180
0.280841 0.127501 0.032430
0.307755 0.129537 0.025604
0.335959 0.132187 0.016560
0.364274 0.134487 0.008305
0.393271 0.136690 0.002809
0.422846 0.138570 0.001281
0.452869 0.140285 0.000641
0.482803 0.141715 0.000271
0.512884 0.143164 0.000000
0.542820 0.144525 0.000000
0.572641 0.145554 0.000000
0.602051 0.146849 0.000000
0.630926 0.148214 0.000000
0.659307 0.149616 0.000000
0.687473 0.151204 0.000000
0.715087 0.152593 0.000000
0.742533 0.154133 0.000000
0.769472 0.155642 0.000000
0.795755 0.157597 0.000000
0.821781 0.159549 0.000000
0.847263 0.161644 0.000000
0.872672 0.163953 0.000000
0.898014 0.166038 0.000000
0.000000 0.165012 0.027157
0.002736 0.166380 0.017053
0.043695 0.164722 0.022179
0.073013 0.164020 0.027280
0.090002 0.165131 0.024569
0.110953 0.164279 0.020651
0.144660 0.159725 0.010670
0.190138 0.160361 0.009364
0.234078 0.155417 0.024815
0.267740 0.152567 0.030951
0.296980 0.151786 0.034549
0.325020 0.152546 0.035313
0.352794 0.154489 0.031395
0.380837 0.156951 0.024495
0.409267 0.159761 0.016560
0.438362 0.162438 0.008527
0.467743 0.165079 0.003474
0.497274 0.167390 0.001651
0.526934 0.169602 0.001060
0.556518 0.171407 0.000616
0.586058 0.173343 0.000616
0.615261 0.175106 0.000000
0.644127 0.177149 0.000000
0.672487 0.179018 0.000000
0.700423 0.180868 0.000000
0.728021 0.182698 0.000000
0.755232 0.184597 0.000000
0.782222 0.186592 0.000000
0.808599 0.188848 0.000000
0.834589 0.191202 0.000000
0.860163 0.193524 0.000000
0.885570 0.196024 0.000000
0.910953 0.198324 0.000000
0.000000 0.195232 0.025431
0.001528 0.196809 0.014736
0.046125 0.194599 0.022425
0.081551 0.193410 0.029350
0.098257 0.194681 0.027403
0.115930 0.194134 0.023830
0.140877 0.190427 0.016018
0.175409 0.185023 0.003278
0.226225 0.187170 0.007491
0.272267 0.182697 0.022647
0.308364 0.179296 0.029374
0.339614 0.177900 0.033095
0.368806 0.177735 0.034894
0.397450 0.179372 0.033835
0.426241 0.181955 0.029818
0.455140 0.185035 0.022943
0.484207 0.188198 0.015968
0.513387 0.191265 0.008970
0.542769 0.194325 0.004633
0.572051 0.196988 0.002440
0.601264 0.199704 0.001676
0.630278 0.202238 0.001109
0.658830 0.204597 0.000789
0.686981 0.207065 0.000592
0.714707 0.209363 0.000000
0.742160 0.211819 0.000000
0.769268 0.214061 0.000000
0.796077 0.216590 0.000000
0.822364 0.219154 0.000000
0.848270 0.221833 0.000000
0.873768 0.224487 0.000000
0.899236 0.227216 0.000000
0.924431 0.229953 0.000000
0.000000 0.227086 0.020601
0.003795 0.226709 0.012199
0.054754 0.224143 0.024396
0.091623 0.222936 0.031099
0.108375 0.223578 0.028586
0.125272 0.223235 0.024816
0.144571 0.220341 0.018655
0.170166 0.213763 0.007688
0.206978 0.209804 0.001257
0.262718 0.213607 0.005964
0.310528 0.209690 0.019517
0.348474 0.205776 0.025752
0.381577 0.203887 0.030188
0.412346 0.203658 0.033145
0.442186 0.204932 0.033909
0.471475 0.207299 0.031617
0.500855 0.210432 0.027452
0.530313 0.213984 0.021415
0.559624 0.217549 0.014983
0.588960 0.221050 0.009537
0.618077 0.224426 0.005619
0.646780 0.227645 0.003795
0.675013 0.230694 0.002464
0.702900 0.233722 0.001701
0.730413 0.236565 0.001355
0.757734 0.239518 0.000789
0.784682 0.242275 0.000567
0.811203 0.245230 0.000000
0.837324 0.248189 0.000000
0.863066 0.251229 0.000000
0.888450 0.254210 0.000000
0.913766 0.257346 0.000000
0.938754 0.260345 0.000000
0.000000 0.257614 0.010695
0.018285 0.255813 0.014466
0.068919 0.252978 0.026713
0.102446 0.251727 0.032110
0.119587 0.252368 0.029374
0.136035 0.251781 0.025481
0.152562 0.249062 0.018335
0.171605 0.243417 0.008378
0.199735 0.235255 0.001380
0.240408 0.234637 0.000838
0.299135 0.239635 0.004436
0.348496 0.236252 0.015845
0.388406 0.232396 0.022376
0.423230 0.230480 0.026615
0.455384 0.229901 0.029719
0.486338 0.230944 0.031666
0.516678 0.233345 0.031543
0.546758 0.236614 0.029276
0.576629 0.240280 0.025333
0.606104 0.244137 0.019862
0.635379 0.248063 0.014983
0.663996 0.251721 0.010054
0.692228 0.255366 0.006900
0.719971 0.258856 0.004805
0.747341 0.262354 0.003253
0.774437 0.265743 0.002489
0.801173 0.269108 0.001725
0.827557 0.272533 0.001208
0.853493 0.275909 0.000789
0.878963 0.279327 0.000468
0.904054 0.282784 0.000000
0.928874 0.286157 0.000000
0.953495 0.289597 0.000000
0.000518 0.287072 0.006309
0.036883 0.284127 0.017940
0.087900 0.280736 0.029867
0.115007 0.280218 0.032258
0.131883 0.280404 0.029473
0.147231 0.279753 0.024939
0.162385 0.277091 0.017571
0.177913 0.271951 0.008132
0.197904 0.263935 0.001380
0.228961 0.256046 0.000049
0.274724 0.259506 0.000814
0.335859 0.265568 0.003696
0.386468 0.262926 0.011977
0.427921 0.259328 0.018482
0.464313 0.257212 0.022671
0.498028 0.256729 0.026269
0.530331 0.257796 0.028808
0.561805 0.260172 0.030089
0.592615 0.263537 0.029350
0.622755 0.267299 0.026935
0.652397 0.271161 0.023263
0.681377 0.275131 0.018605
0.709670 0.279076 0.014465
0.737504 0.283044 0.010818
0.764916 0.286902 0.007985
0.791956 0.290801 0.006111
0.818489 0.294522 0.004041
0.844692 0.298349 0.003278
0.870418 0.302219 0.002095
0.895611 0.306031 0.001306
0.920203 0.309864 0.000789
0.944219 0.313690 0.000493
0.967858 0.317407 0.000000
0.006802 0.314857 0.009857
0.060929 0.311043 0.021760
0.109181 0.307767 0.032529
0.129399 0.307964 0.031913
0.144878 0.308211 0.028882
0.159199 0.307211 0.023657
0.173053 0.304480 0.016018
0.186544 0.299494 0.006851
0.201633 0.292306 0.001380
0.224320 0.283209 0.000000
0.258345 0.277839 0.000049
0.310070 0.284804 0.000814
0.372744 0.291426 0.003450
0.424113 0.289489 0.008403
0.466947 0.286476 0.014588
0.505244 0.284706 0.018876
0.540702 0.284592 0.022474
0.574383 0.285793 0.026072
0.606827 0.288034 0.027748
0.638117 0.291127 0.028389
0.668469 0.294690 0.027009
0.698062 0.298546 0.024594
0.726846 0.302496 0.021489
0.755039 0.306626 0.018088
0.782584 0.310747 0.014194
0.809668 0.314842 0.011089
0.836262 0.319031 0.008773
0.862420 0.323173 0.006752
0.887928 0.327343 0.004830
0.912505 0.331560 0.003278
0.936054 0.335720 0.002070
0.958663 0.339881 0.001257
0.980496 0.343905 0.000493
0.034271 0.341475 0.015747
0.089380 0.336998 0.026910
0.125934 0.334901 0.032923
0.144042 0.335249 0.030902
0.158050 0.335204 0.026861
0.171324 0.334085 0.021316
0.184176 0.331348 0.013825
0.196702 0.326591 0.005126
0.209252 0.319971 0.001183
0.225738 0.311341 0.000000
0.251713 0.302419 0.000000
0.289682 0.300608 0.000049
0.347115 0.310629 0.000814
0.410048 0.317392 0.002686
0.461889 0.316426 0.005767
0.506423 0.314347 0.011952
0.546530 0.313285 0.016190
0.583488 0.313406 0.020158
0.618329 0.314609 0.023263
0.651428 0.316610 0.025727
0.683114 0.319378 0.026344
0.713630 0.322625 0.026344
0.743172 0.326284 0.024668
0.771885 0.330199 0.022573
0.799845 0.334233 0.019936
0.827225 0.338449 0.016831
0.854003 0.342718 0.014194
0.880105 0.347153 0.011409
0.905266 0.351533 0.009093
0.929023 0.355992 0.006777
0.951018 0.360389 0.004830
0.971139 0.364817 0.003253
0.990000 0.369226 0.001257
0.070424 0.366599 0.022721
0.120216 0.362135 0.032258
0.143089 0.361792 0.032381
0.158474 0.361951 0.029670
0.171647 0.361779 0.025086
0.184068 0.360587 0.018975
0.196220 0.357847 0.010892
0.207851 0.353399 0.002785
0.218967 0.347217 0.000789
0.231862 0.339295 0.000000
0.251379 0.330072 0.000000
0.281171 0.322966 0.000000
0.324627 0.325856 0.000049
0.385989 0.337589 0.000814
0.448177 0.344126 0.002366
0.500558 0.344244 0.005446
0.546395 0.343185 0.010103
0.588032 0.342661 0.014317
0.626239 0.342928 0.017842
0.662024 0.343919 0.020947
0.695617 0.345608 0.023411
0.727537 0.347922 0.024618
0.758188 0.350843 0.024791
0.787705 0.354239 0.024446
0.816323 0.357993 0.023115
0.844200 0.362038 0.021218
0.871218 0.366246 0.018876
0.897317 0.370635 0.016191
0.921992 0.375091 0.013751
0.944447 0.379666 0.011434
0.964068 0.384221 0.009118
0.980954 0.388851 0.006382
0.995998 0.393397 0.004041
0.110279 0.390282 0.029276
0.142594 0.388147 0.033046
0.160075 0.388192 0.031222
0.173570 0.388358 0.028118
0.185813 0.388063 0.022844
0.197607 0.386864 0.016634
0.209092 0.384306 0.008995
0.220066 0.380050 0.002267
0.230459 0.374375 0.000370
0.241315 0.367190 0.000000
0.256435 0.358710 0.000000
0.279941 0.350320 0.000000
0.314703 0.346917 0.000000
0.363652 0.353840 0.000049
0.426689 0.365801 0.000814
0.487405 0.371828 0.002366
0.540011 0.372870 0.005076
0.586966 0.372699 0.008945
0.629722 0.372558 0.012050
0.668949 0.372687 0.015845
0.705226 0.373386 0.018630
0.739217 0.374640 0.021094
0.771393 0.376652 0.022277
0.802104 0.379254 0.023238
0.831598 0.382355 0.023657
0.860064 0.385924 0.022869
0.887524 0.389830 0.021563
0.913469 0.394010 0.020306
0.937320 0.398374 0.018088
0.958012 0.402887 0.015747
0.974804 0.407489 0.013406
0.987981 0.412125 0.010671
0.998915 0.416756 0.008354
0.145295 0.414056 0.034303
0.162622 0.413930 0.032726
0.176995 0.414246 0.030065
0.189317 0.414546 0.026565
0.200712 0.414360 0.021292
0.211960 0.413205 0.014416
0.222798 0.410794 0.007048
0.233408 0.406896 0.002095
0.243430 0.401746 0.000197
0.253612 0.395449 0.000000
0.266172 0.387988 0.000000
0.284797 0.379976 0.000000
0.312933 0.373883 0.000000
0.352706 0.374666 0.000000
0.405732 0.383829 0.000789
0.468210 0.394552 0.000814
0.527497 0.400186 0.002366
0.580255 0.402026 0.004706
0.627953 0.402555 0.007787
0.671621 0.402608 0.010498
0.711491 0.402566 0.013603
0.748182 0.402887 0.016314
0.782463 0.403855 0.018384
0.814648 0.405421 0.020331
0.845345 0.407743 0.021489
0.874683 0.410642 0.022253
0.902460 0.413975 0.022080
0.928169 0.417723 0.021563
0.950817 0.421799 0.020799
0.969298 0.426076 0.019246
0.983105 0.430496 0.017299
0.992757 0.435021 0.015328
0.999906 0.439581 0.012223
0.168716 0.439351 0.034697
0.181926 0.439841 0.032011
0.194230 0.440329 0.028906
0.205612 0.440823 0.025013
0.216496 0.440781 0.019640
0.227287 0.439854 0.013233
0.237769 0.437748 0.006111
0.248119 0.434346 0.001922
0.258054 0.429906 0.000789
0.268115 0.424427 0.000000
0.279352 0.418031 0.000000
0.294736 0.410697 0.000000
0.317500 0.403918 0.000000
0.349688 0.400533 0.000000
0.393464 0.404455 0.000000
0.449233 0.414333 0.000789
0.510357 0.423737 0.001577
0.568262 0.429067 0.002366
0.621091 0.431522 0.004337
0.669586 0.432514 0.006678
0.713719 0.432617 0.009019
0.753878 0.432370 0.011361
0.790693 0.432393 0.013578
0.824974 0.433039 0.015894
0.857114 0.434325 0.018014
0.887436 0.436342 0.019147
0.915597 0.438874 0.019912
0.940876 0.442085 0.020922
0.962057 0.445634 0.020922
0.978165 0.449499 0.020503
0.989092 0.453615 0.019295
0.995741 0.457864 0.018482
1.000000 0.462255 0.016511
0.189034 0.465275 0.034697
0.200799 0.465977 0.031247
0.212071 0.466816 0.027748
0.222854 0.467448 0.023879
0.233327 0.467557 0.018877
0.243647 0.466972 0.012445
0.253984 0.465230 0.006111
0.264315 0.462471 0.001922
0.274377 0.458755 0.000789
0.284395 0.454143 0.000000
0.294890 0.448483 0.000000
0.308117 0.441845 0.000000
0.326623 0.434954 0.000000
0.352884 0.429656 0.000000
0.388960 0.428991 0.000000
0.436148 0.434997 0.000000
0.492984 0.444684 0.000789
0.552665 0.452985 0.001232
0.609703 0.458361 0.002366
0.662853 0.461364 0.003918
0.711668 0.462577 0.005471
0.755868 0.462513 0.007467
0.795921 0.462091 0.009463
0.832595 0.461856 0.011361
0.866567 0.462200 0.013356
0.898029 0.463232 0.014909
0.926674 0.465007 0.016462
0.951372 0.467355 0.017570
0.970965 0.470232 0.019024
0.984755 0.473548 0.019369
0.993114 0.477138 0.019369
0.997631 0.481038 0.018926
1.000000 0.484966 0.018482
0.209169 0.491654 0.034229
0.220099 0.492767 0.031148
0.230718 0.493644 0.027699
0.241036 0.494555 0.023879
0.251208 0.494964 0.018852
0.261368 0.494675 0.012642
0.271526 0.493486 0.006432
0.281805 0.491262 0.002711
0.291859 0.488091 0.000986
0.301758 0.483976 0.000000
0.311789 0.478855 0.000000
0.323510 0.472796 0.000000
0.338972 0.466040 0.000000
0.360513 0.459905 0.000000
0.390174 0.456474 0.000000
0.429823 0.458347 0.000000
0.479638 0.465587 0.000000
0.536777 0.474875 0.000789
0.595346 0.482655 0.000814
0.652047 0.488212 0.002045
0.705241 0.491474 0.002834
0.753798 0.492612 0.004362
0.797590 0.492402 0.005915
0.837191 0.491719 0.007467
0.873356 0.491251 0.009019
0.906241 0.491370 0.010572
0.935421 0.492169 0.012124
0.959541 0.493672 0.013553
0.977584 0.495802 0.014909
0.989320 0.498404 0.015993
0.995764 0.501410 0.016757
0.998693 0.504634 0.017521
1.000000 0.508045 0.018137
0.229877 0.518674 0.034993
0.240119 0.519994 0.031888
0.250318 0.521219 0.028783
0.260231 0.522242 0.024889
0.270118 0.522938 0.019616
0.280008 0.523002 0.014194
0.290114 0.522142 0.007984
0.300176 0.520306 0.003499
0.310062 0.517435 0.001282
0.319741 0.513702 0.000222
0.329406 0.508974 0.000000
0.340114 0.503303 0.000000
0.353485 0.496826 0.000000
0.371321 0.490300 0.000000
0.395841 0.485374 0.000000
0.428859 0.484034 0.000000
0.471676 0.488005 0.000000
0.523306 0.495919 0.000000
0.580231 0.504867 0.000493
0.638393 0.512721 0.000814
0.694823 0.518404 0.001577
0.747567 0.521627 0.002070
0.795408 0.522526 0.002858
0.838438 0.522070 0.004362
0.877243 0.521246 0.005126
0.911880 0.520566 0.006678
0.941693 0.520470 0.008083
0.965466 0.521068 0.009487
0.982227 0.522302 0.011040
0.992288 0.524087 0.012026
0.997314 0.526371 0.013356
0.999305 0.528941 0.014416
1.000000 0.531663 0.015673
0.251084 0.546193 0.036816
0.260897 0.547661 0.033736
0.270606 0.549076 0.030335
0.280213 0.550350 0.026516
0.289810 0.551204 0.021439
0.299422 0.551411 0.015747
0.309128 0.550753 0.009537
0.318929 0.549171 0.004731
0.328620 0.546563 0.001774
0.338043 0.543097 0.000789
0.347466 0.538716 0.000000
0.357471 0.533384 0.000000
0.369215 0.527081 0.000000
0.384438 0.520504 0.000000
0.404873 0.514638 0.000000
0.432347 0.511216 0.000000
0.468514 0.512006 0.000000
0.513791 0.517462 0.000000
0.566583 0.525895 0.000000
0.623568 0.535007 0.000049
0.681570 0.542942 0.000789
0.737524 0.548549 0.000789
0.789340 0.551457 0.001552
0.836208 0.552108 0.002095
0.878038 0.551528 0.002883
0.914778 0.550516 0.003672
0.945610 0.549667 0.004460
0.969339 0.549398 0.005767
0.985186 0.549727 0.006654
0.994118 0.550705 0.007935
0.998132 0.552149 0.008970
0.999552 0.553993 0.010251
1.000000 0.555984 0.011287
0.272648 0.573847 0.039133
0.281988 0.575492 0.036053
0.291379 0.577014 0.032923
0.300579 0.578403 0.028783
0.309820 0.579381 0.023756
0.319082 0.579740 0.018088
0.328476 0.579200 0.011730
0.337997 0.577805 0.006284
0.347400 0.575401 0.002760
0.356611 0.572150 0.001011
0.365773 0.567937 0.000247
0.375190 0.562864 0.000000
0.385888 0.556935 0.000000
0.399110 0.550324 0.000000
0.416396 0.543944 0.000000
0.439353 0.538998 0.000000
0.469720 0.537288 0.000000
0.508610 0.539971 0.000000
0.555817 0.546585 0.000000
0.609522 0.555601 0.000000
0.666847 0.564994 0.000000
0.724604 0.572919 0.000025
0.779755 0.578299 0.000789
0.830401 0.580878 0.000789
0.875640 0.581326 0.001331
0.914961 0.580575 0.001577
0.947283 0.579416 0.002119
0.971328 0.578443 0.002908
0.986890 0.577952 0.003696
0.995193 0.578101 0.004312
0.998629 0.578718 0.005619
0.999746 0.579745 0.006604
1.000000 0.580943 0.007147
0.294317 0.601465 0.042182
0.303267 0.603166 0.039133
0.312251 0.604881 0.036028
0.321074 0.606264 0.031420
0.329934 0.607316 0.026762
0.338861 0.607748 0.020651
0.347922 0.607406 0.013800
0.357139 0.606108 0.007836
0.366333 0.603873 0.003770
0.375365 0.600815 0.001799
0.384249 0.596807 0.000468
0.393242 0.591958 0.000000
0.403107 0.586211 0.000000
0.414821 0.579734 0.000000
0.429625 0.573012 0.000000
0.449044 0.567116 0.000000
0.474564 0.563476 0.000000
0.507569 0.563423 0.000000
0.548802 0.567656 0.000000
0.597750 0.575393 0.000000
0.652459 0.585026 0.000000
0.710114 0.594634 0.000000
0.767280 0.602449 0.000000
0.821258 0.607495 0.000000
0.870075 0.609805 0.000567
0.912348 0.610074 0.000789
0.946699 0.609130 0.000789
0.971758 0.607860 0.001355
0.987544 0.606754 0.001454
0.995618 0.606093 0.002144
0.998851 0.605915 0.002932
0.999777 0.606102 0.003524
1.000000 0.606531 0.003721
0.315973 0.628905 0.045820
0.324515 0.630703 0.042391
0.333042 0.632392 0.039133
0.341598 0.633908 0.034525
0.350108 0.635037 0.029867
0.358676 0.635539 0.023090
0.367395 0.635268 0.016560
0.376269 0.634068 0.010178
0.385219 0.631996 0.005323
0.394072 0.629018 0.002218
0.402724 0.625194 0.000789
0.411477 0.620506 0.000000
0.420660 0.614963 0.000000
0.431200 0.608636 0.000000
0.444185 0.601851 0.000000
0.460751 0.595353 0.000000
0.482370 0.590216 0.000000
0.510344 0.587898 0.000000
0.545829 0.589442 0.000000
0.589322 0.595154 0.000000
0.639886 0.603954 0.000000
0.695574 0.614190 0.000000
0.753129 0.623845 0.000000
0.809318 0.631371 0.000000
0.861403 0.636073 0.000000
0.906972 0.638123 0.000000
0.943866 0.638216 0.000000
0.970634 0.637198 0.000592
0.987223 0.635867 0.000690
0.995609 0.634581 0.000789
0.998856 0.633658 0.001380
0.999810 0.633035 0.001405
1.000000 0.632609 0.002169
0.337524 0.656106 0.049430
0.345634 0.657945 0.045996
0.353845 0.659714 0.042391
0.361941 0.661263 0.038419
0.370152 0.662454 0.032973
0.378412 0.663045 0.026368
0.386840 0.662805 0.019221
0.395442 0.661727 0.012075
0.404103 0.659710 0.006481
0.412765 0.656860 0.002982
0.421246 0.653095 0.001035
0.429710 0.648537 0.000000
0.438402 0.643189 0.000000
0.448065 0.637016 0.000000
0.459617 0.630234 0.000000
0.474001 0.623340 0.000000
0.492427 0.617199 0.000000
0.516193 0.613048 0.000000
0.546663 0.612266 0.000000
0.584660 0.615510 0.000000
0.630329 0.622614 0.000000
0.682421 0.632360 0.000000
0.738623 0.642973 0.000000
0.795631 0.652540 0.000000
0.850160 0.659733 0.000000
0.898930 0.664078 0.000000
0.938868 0.665871 0.000000
0.967931 0.665758 0.000000
0.985945 0.664680 0.000000
0.995165 0.663178 0.000000
0.998759 0.661731 0.000616
0.999764 0.660394 0.000641
1.000000 0.659220 0.000789
0.358868 0.682951 0.053364
0.366597 0.684870 0.050110
0.374440 0.686707 0.046666
0.382251 0.688313 0.042252
0.390107 0.689479 0.036866
0.397998 0.690122 0.029966
0.406065 0.689976 0.022327
0.414374 0.688938 0.014564
0.422843 0.687002 0.008181
0.431254 0.684176 0.003745
0.439660 0.680502 0.001183
0.447844 0.676009 0.000271
0.456211 0.670777 0.000000
0.465282 0.664749 0.000000
0.475682 0.658047 0.000000
0.488322 0.650996 0.000000
0.504270 0.644170 0.000000
0.524714 0.638732 0.000000
0.550845 0.635843 0.000000
0.583801 0.636649 0.000000
0.624326 0.641610 0.000000
0.671945 0.650021 0.000000
0.725196 0.660549 0.000000
0.781453 0.671282 0.000000
0.837124 0.680524 0.000000
