bundles/resolve-cinematic-luts/Gamut/Orion/Orion Warm +CON.cube
TITLE "Orion Warm +CON by Gamut"
# Contributor - JVKE. Version 1.0 - 09/28/2023 - Designed for Rec.709 Color Space. Copyright 2023 Gamut, LLC
LUT_3D_SIZE 9
0.001577 0.020503 0.002366
0.061901 0.023558 0.004830
0.156476 0.025234 0.000000
0.291042 0.017151 0.000000
0.412017 0.004731 0.000000
0.535266 0.000000 0.000000
0.652446 0.000000 0.000000
0.739746 0.000000 0.000000
0.818791 0.000000 0.000000
0.000099 0.080912 0.000099
0.065029 0.076823 0.006210
0.193167 0.068307 0.000000
0.330263 0.069567 0.000000
0.460079 0.071014 0.000000
0.584668 0.063413 0.000000
0.695051 0.059608 0.000000
0.789755 0.067786 0.000000
0.873509 0.081407 0.000000
0.000000 0.159560 0.000000
0.048130 0.165874 0.000000
0.209514 0.156210 0.000000
0.402859 0.136878 0.000000
0.531821 0.144562 0.000000
0.654684 0.157529 0.000000
0.765855 0.173741 0.000000
0.858828 0.193874 0.000000
0.942126 0.216231 0.000000
0.012026 0.263620 0.000000
0.082172 0.270185 0.000000
0.159060 0.250133 0.000000
0.433035 0.249825 0.000000
0.609062 0.244699 0.002661
0.736067 0.261588 0.010745
0.841887 0.286890 0.011730
0.929190 0.314878 0.010153
0.992560 0.343407 0.007491
0.088106 0.383190 0.000000
0.152547 0.389963 0.000000
0.207275 0.376562 0.000000
0.343679 0.351424 0.000000
0.620812 0.383797 0.000789
0.789841 0.388379 0.009660
0.905515 0.405303 0.024840
0.980588 0.431873 0.034796
1.000000 0.461454 0.038640
0.198981 0.517553 0.004041
0.254671 0.526332 0.001873
0.305560 0.520988 0.000000
0.369345 0.490294 0.000000
0.554879 0.505087 0.000000
0.791082 0.540175 0.003943
0.942692 0.548454 0.019714
0.997127 0.560418 0.034599
1.000000 0.580221 0.044916
0.327540 0.654674 0.022080
0.375363 0.664394 0.015673
0.418899 0.662064 0.002957
0.457470 0.637025 0.000000
0.540127 0.616015 0.000000
0.730866 0.651595 0.000000
0.931472 0.689155 0.006112
0.997881 0.693790 0.020109
1.000000 0.697553 0.030360
0.457754 0.779691 0.046617
0.497219 0.788596 0.036964
0.534315 0.786534 0.012026
0.563111 0.765912 0.000000
0.600229 0.737901 0.000000
0.699592 0.733925 0.000000
0.881317 0.778708 0.000000
0.991775 0.807119 0.003056
1.000000 0.808141 0.013997
0.577660 0.885127 0.071584
0.609333 0.891719 0.058961
0.640456 0.888594 0.025037
0.665540 0.870752 0.001084
0.686045 0.847018 0.000000
0.730120 0.824684 0.000000
0.841280 0.837211 0.000000
0.973731 0.879072 0.000000
1.000000 0.901849 0.000000
0.000000 0.022672 0.064465
0.069883 0.019813 0.069422
0.174396 0.008576 0.035682
0.309767 0.000000 0.000690
0.426898 0.000000 0.000000
0.547322 0.000000 0.000000
0.660049 0.000000 0.000000
0.753047 0.000000 0.000000
0.832199 0.000000 0.000000
0.000000 0.079961 0.064129
0.063974 0.081320 0.059612
0.166899 0.079119 0.045235
0.313406 0.071200 0.013997
0.446194 0.065563 0.000690
0.578583 0.060947 0.000000
0.698567 0.061811 0.000000
0.795440 0.070839 0.000000
0.880057 0.084911 0.000000
0.000000 0.163911 0.066550
0.078057 0.173658 0.060836
0.203715 0.170691 0.045705
0.384297 0.158327 0.057618
0.512115 0.166536 0.035387
0.641064 0.176553 0.016166
0.757804 0.189725 0.008379
0.853984 0.208172 0.007688
0.939150 0.229504 0.007097
0.000000 0.282303 0.042414
0.137494 0.285808 0.071615
0.203100 0.274940 0.049959
0.427043 0.270451 0.043680
0.590696 0.266845 0.064602
0.717775 0.286220 0.065776
0.825849 0.311662 0.056614
0.915863 0.338684 0.047818
0.987659 0.365995 0.040909
0.084941 0.408108 0.054211
0.213221 0.409844 0.079936
0.258446 0.399197 0.053184
0.353580 0.365618 0.007097
0.607729 0.397601 0.036274
0.773693 0.406851 0.071716
0.889483 0.428024 0.090877
0.970862 0.457369 0.098247
0.999859 0.488046 0.097809
0.240113 0.530065 0.081543
0.299974 0.537633 0.083737
0.340878 0.532711 0.059963
0.389623 0.501107 0.013997
0.550279 0.512104 0.005520
0.779359 0.551007 0.034894
0.930394 0.563732 0.080837
0.994367 0.579279 0.106547
1.000000 0.601437 0.122256
0.364954 0.658408 0.099756
0.408579 0.669273 0.098221
0.443081 0.670590 0.075620
0.476494 0.647646 0.028290
0.547021 0.623731 0.003647
0.723086 0.656440 0.003253
0.922623 0.697299 0.030656
0.996824 0.704848 0.075986
1.000000 0.710841 0.101372
0.488923 0.780641 0.124795
0.521851 0.791443 0.120908
0.549904 0.793735 0.096883
0.575464 0.776097 0.043191
0.611693 0.746509 0.007984
0.699169 0.738242 0.000394
0.872797 0.781606 0.001577
0.989649 0.812820 0.017644
1.000000 0.815525 0.058795
0.601424 0.884681 0.149698
0.627045 0.893228 0.143061
0.649250 0.894427 0.116606
0.669907 0.880018 0.057654
0.694511 0.855193 0.013110
0.734730 0.829711 0.001183
0.835104 0.838153 0.000000
0.969076 0.880430 0.000000
1.000000 0.905772 0.001380
0.000000 0.025234 0.151507
0.046905 0.021390 0.164717
0.198604 0.001775 0.148199
0.345040 0.000000 0.085686
0.460389 0.000000 0.043855
0.576155 0.000000 0.006703
0.683938 0.000000 0.000592
0.771882 0.000000 0.000000
0.849646 0.000000 0.000000
0.000000 0.084507 0.135386
0.032726 0.088353 0.141696
0.186218 0.074365 0.139305
0.339463 0.063663 0.093047
0.471255 0.051986 0.061432
0.600096 0.042989 0.031149
0.717805 0.052282 0.018236
0.812059 0.064184 0.011632
0.895806 0.079861 0.012420
0.000000 0.165650 0.143712
0.036667 0.178874 0.158773
0.196708 0.185033 0.142745
0.360810 0.182394 0.123669
0.500459 0.183883 0.103511
0.636972 0.188178 0.085188
0.758218 0.198547 0.071014
0.856600 0.215437 0.064957
0.942892 0.236158 0.063066
0.000000 0.286122 0.169732
0.087060 0.308790 0.183735
0.252957 0.305386 0.167953
0.418703 0.301167 0.135841
0.568031 0.302741 0.149201
0.695259 0.317273 0.137648
0.808285 0.337745 0.124841
0.902034 0.361667 0.115937
0.982029 0.386790 0.110677
0.030360 0.442222 0.170068
0.134412 0.457007 0.171464
0.300457 0.437906 0.171028
0.398340 0.406087 0.100165
0.596588 0.423363 0.115848
0.752439 0.433891 0.159172
0.867350 0.458143 0.175572
0.954931 0.488723 0.178448
0.999356 0.518597 0.175286
0.128207 0.588796 0.161720
0.251848 0.584286 0.176030
0.368201 0.564911 0.170287
0.435989 0.527076 0.109150
0.552542 0.526033 0.050217
0.762806 0.564734 0.096781
0.910787 0.582383 0.168550
0.987410 0.602823 0.200793
1.000000 0.627684 0.217586
0.303880 0.701038 0.182266
0.388817 0.696773 0.189789
0.464006 0.684760 0.178529
0.511219 0.660443 0.125594
0.561246 0.635193 0.054182
0.712935 0.661735 0.021686
0.908189 0.706075 0.081418
0.994009 0.717333 0.160118
1.000000 0.726363 0.197075
0.470197 0.799933 0.210503
0.525196 0.800157 0.213844
0.570869 0.796070 0.198391
0.600494 0.783036 0.146907
0.629599 0.758538 0.078170
0.699415 0.744151 0.019419
0.860431 0.783867 0.008477
0.985783 0.818761 0.054083
1.000000 0.823780 0.135386
0.607524 0.888616 0.240698
0.642383 0.892156 0.239872
0.669464 0.892184 0.220324
0.686603 0.884314 0.167636
0.707313 0.865634 0.100366
0.740788 0.838053 0.033613
0.827382 0.838864 0.002760
0.960535 0.880799 0.000000
0.999946 0.909968 0.003549
0.000000 0.026023 0.267581
0.018137 0.023559 0.282096
0.173505 0.000592 0.284064
0.373928 0.000000 0.233829
0.505863 0.000000 0.170922
0.619395 0.000000 0.119671
0.722284 0.000000 0.084395
0.806058 0.000000 0.062348
0.879598 0.000000 0.047025
0.000000 0.087595 0.240791
0.009759 0.090678 0.255862
0.164293 0.075432 0.274363
0.379021 0.054194 0.236241
0.514828 0.049888 0.185129
0.639047 0.041972 0.147291
0.748366 0.037359 0.120576
0.837138 0.039601 0.104976
0.916747 0.045589 0.095605
0.000000 0.173290 0.237371
0.000789 0.190178 0.248924
0.149687 0.197128 0.261526
0.380343 0.182048 0.243851
0.525724 0.181489 0.211008
0.660594 0.181344 0.186363
0.777873 0.187732 0.169984
0.873769 0.202434 0.164095
0.959048 0.222164 0.164127
0.000000 0.290725 0.263220
0.012223 0.313481 0.285948
0.166241 0.327845 0.300238
0.403245 0.328862 0.262680
0.553603 0.330560 0.246144
0.687031 0.338374 0.230116
0.803643 0.352876 0.217622
0.899702 0.373254 0.212580
0.983786 0.396474 0.212345
0.009660 0.445552 0.321652
0.091861 0.471711 0.346811
0.234061 0.479250 0.345383
0.453024 0.458925 0.269290
0.596173 0.462960 0.245322
0.735558 0.471126 0.269308
0.847355 0.492217 0.271387
0.938432 0.519135 0.268073
0.998859 0.545241 0.264633
0.106996 0.620247 0.350684
0.188909 0.635181 0.357294
0.311554 0.625733 0.337464
0.481276 0.580910 0.274077
0.587300 0.565849 0.188703
0.753019 0.591378 0.212662
0.888995 0.606937 0.281579
0.974964 0.630726 0.309491
1.000000 0.657260 0.320264
0.210132 0.767957 0.348805
0.287274 0.769232 0.347282
0.394529 0.746949 0.324930
0.539211 0.693868 0.271932
0.601697 0.657937 0.186069
0.709945 0.674795 0.114127
0.889176 0.717241 0.176067
0.987417 0.730401 0.271397
1.000000 0.742939 0.312515
0.335812 0.875924 0.345547
0.407620 0.868405 0.343594
0.499912 0.841605 0.324753
0.614727 0.795289 0.277475
0.664960 0.768042 0.208367
0.707860 0.753145 0.116582
0.844296 0.787779 0.055609
0.978659 0.825946 0.132465
1.000000 0.831615 0.245949
0.478239 0.950117 0.352436
0.540922 0.941298 0.353353
0.616445 0.918873 0.338795
0.698554 0.885776 0.294165
0.735248 0.868542 0.231471
0.756242 0.847474 0.150438
0.818406 0.840690 0.050718
0.947575 0.881845 0.007491
0.999866 0.917560 0.057983
0.000000 0.026812 0.413158
0.000296 0.024544 0.428354
0.132213 0.002365 0.438402
0.356633 0.000000 0.404723
0.525794 0.000000 0.359989
0.659356 0.000000 0.304007
0.763139 0.000000 0.251601
0.845111 0.000000 0.218285
0.919322 0.000000 0.198132
0.000000 0.088963 0.382364
0.000296 0.092741 0.400926
0.128126 0.082004 0.425063
0.369596 0.050660 0.415480
0.549581 0.038439 0.381269
0.684689 0.040936 0.333122
0.790383 0.042518 0.291299
0.877359 0.047611 0.268429
0.956654 0.054585 0.256162
0.000000 0.180086 0.362762
0.000000 0.197560 0.382056
0.120786 0.203987 0.408462
0.380805 0.178599 0.426157
0.565159 0.174192 0.397437
0.700248 0.182195 0.358899
0.813066 0.190182 0.331171
0.906157 0.201605 0.317294
0.986405 0.215364 0.311029
0.000000 0.299675 0.374157
0.000000 0.324833 0.393082
0.068250 0.346848 0.405354
0.380186 0.337155 0.419483
0.564389 0.335225 0.401088
0.705547 0.341202 0.375715
0.822223 0.352496 0.355125
0.917764 0.368827 0.345708
0.996133 0.388529 0.343599
0.000000 0.450065 0.421963
0.008280 0.478217 0.449702
0.132898 0.497475 0.469013
0.391692 0.496084 0.449465
0.590272 0.497729 0.413102
0.728095 0.500754 0.401604
0.841478 0.515143 0.389426
0.933820 0.535231 0.382566
0.999691 0.556558 0.380183
0.032529 0.625178 0.500156
0.097515 0.649593 0.525917
0.227007 0.659709 0.533493
0.448829 0.644694 0.496605
0.629918 0.625676 0.407440
0.758093 0.634286 0.381294
0.874685 0.643148 0.417091
0.961269 0.662861 0.426849
1.000000 0.685924 0.427351
0.166328 0.788854 0.562954
0.238225 0.802989 0.575083
0.338512 0.800963 0.559987
0.506006 0.763011 0.490702
0.650860 0.715089 0.394637
0.741942 0.713869 0.295850
0.879798 0.740230 0.325092
0.977514 0.748854 0.406166
1.000000 0.763896 0.441473
0.297508 0.915586 0.576782
0.353770 0.919573 0.575338
0.426175 0.907563 0.545331
0.560798 0.855288 0.466736
0.689573 0.798546 0.385891
0.741943 0.773636 0.282381
0.839768 0.799738 0.200317
0.968885 0.834419 0.262807
1.000000 0.838885 0.378065
0.387397 0.997460 0.560897
0.435402 0.995670 0.554122
0.499393 0.983593 0.522237
0.624434 0.931165 0.451020
0.741009 0.878170 0.385224
0.785738 0.853787 0.303474
0.822057 0.846008 0.192797
0.931211 0.884981 0.100714
0.999664 0.926415 0.199576
0.000000 0.029177 0.581240
0.000000 0.027206 0.595213
0.085958 0.008379 0.607164
0.314111 0.000000 0.592904
0.508252 0.000000 0.560710
0.669937 0.000000 0.529372
0.793094 0.000000 0.493726
0.886114 0.000000 0.460815
0.966575 0.000000 0.434495
0.000000 0.092074 0.551981
0.000000 0.097063 0.572852
0.087929 0.091258 0.598041
0.328613 0.057571 0.605656
0.537807 0.036866 0.588174
0.705626 0.032923 0.565527
0.829838 0.043891 0.535955
0.924500 0.057956 0.509943
0.993539 0.068552 0.490691
0.000000 0.188451 0.525885
0.000000 0.205892 0.551472
0.085087 0.212799 0.582509
0.338074 0.190510 0.610112
0.561302 0.173389 0.608149
0.731934 0.173879 0.588405
0.855119 0.188794 0.561270
0.948035 0.207079 0.540567
0.999409 0.223963 0.527517
0.000000 0.313264 0.520123
0.000000 0.340012 0.542087
0.049940 0.360235 0.564157
0.321811 0.356126 0.594388
0.562979 0.336082 0.606187
0.734909 0.336638 0.589191
0.857646 0.351582 0.564359
0.950296 0.370650 0.547040
0.999966 0.389576 0.538085
0.000000 0.459771 0.546568
0.000099 0.488864 0.569507
0.029177 0.513021 0.585765
0.291218 0.524670 0.595877
0.567145 0.508782 0.602661
0.734740 0.509243 0.586664
0.855969 0.520837 0.564739
0.949386 0.536877 0.550506
1.000000 0.554031 0.543785
0.001577 0.627345 0.608832
0.011533 0.654481 0.635101
0.094194 0.674913 0.654717
0.336936 0.679134 0.652829
0.586499 0.673938 0.623667
0.752863 0.674990 0.591798
0.867381 0.675287 0.577251
0.956681 0.687285 0.567084
1.000000 0.702171 0.560214
0.040665 0.793022 0.697072
0.086736 0.814426 0.720593
0.200131 0.824994 0.732454
0.416557 0.812576 0.713590
0.625158 0.793850 0.671589
0.776585 0.773599 0.580243
0.883882 0.781512 0.538240
0.970637 0.784134 0.570685
1.000000 0.795319 0.582635
0.174762 0.930085 0.772732
0.239463 0.940315 0.784437
0.338301 0.939457 0.779001
0.501867 0.914946 0.732778
0.664470 0.873656 0.649903
0.784959 0.831965 0.545936
0.869684 0.838609 0.438993
0.967814 0.856952 0.452919
1.000000 0.855282 0.538833
0.335401 0.999866 0.801110
0.386762 1.000000 0.802392
0.455677 0.999473 0.783579
0.571116 0.986444 0.714720
0.697710 0.941603 0.621425
0.800690 0.888973 0.524264
0.854364 0.869385 0.407455
0.935721 0.900360 0.306207
0.999537 0.935257 0.366325
0.000000 0.034106 0.726908
0.000000 0.032825 0.738600
0.041802 0.016954 0.749398
0.264350 0.000000 0.747243
0.475036 0.000000 0.726712
0.655753 0.000000 0.706451
0.796359 0.000000 0.692748
0.905236 0.000000 0.680491
0.995323 0.000000 0.669444
0.000000 0.097732 0.704110
0.000000 0.104237 0.723616
0.049284 0.101071 0.746223
0.283942 0.070097 0.759711
0.505838 0.045515 0.753521
0.695273 0.035486 0.743066
0.839833 0.042053 0.736646
0.948837 0.057748 0.729745
0.999812 0.075646 0.723222
0.000000 0.197535 0.680269
0.000000 0.215632 0.705234
0.048108 0.223570 0.734942
0.293722 0.209365 0.763817
0.527652 0.186034 0.773046
0.725553 0.177209 0.771096
0.874123 0.184515 0.767064
0.973900 0.202968 0.760686
1.000000 0.225518 0.753599
0.000000 0.327685 0.665071
0.000000 0.354706 0.689458
0.029473 0.373459 0.717124
0.279333 0.372972 0.749556
0.527217 0.351035 0.768962
0.733370 0.338884 0.776116
0.884482 0.345929 0.772620
0.978314 0.365835 0.763268
1.000000 0.389631 0.753770
0.000000 0.476760 0.676236
0.000000 0.506296 0.697024
0.015377 0.529751 0.714936
0.230516 0.543507 0.738842
0.509593 0.530159 0.756715
0.730076 0.512738 0.769545
0.879620 0.517177 0.764148
0.972503 0.534749 0.751174
1.000000 0.554623 0.739975
0.000000 0.634329 0.712488
0.000000 0.661599 0.734240
0.017546 0.685264 0.751939
0.199995 0.704123 0.765163
0.489767 0.701680 0.760248
0.727264 0.686571 0.760627
0.870062 0.684957 0.752633
0.962975 0.692974 0.736351
1.000000 0.704409 0.723348
0.000789 0.793510 0.784917
0.005717 0.817290 0.807384
0.058430 0.835411 0.824105
0.275951 0.839048 0.826373
0.535007 0.827347 0.804907
0.746677 0.814557 0.770250
0.876621 0.816297 0.749107
0.964743 0.814550 0.733809
1.000000 0.820273 0.724008
0.021489 0.935135 0.867814
0.048571 0.949414 0.884586
0.141066 0.956689 0.892903
0.366659 0.946253 0.882437
0.584787 0.925146 0.852023
0.750065 0.908676 0.820626
0.891776 0.889256 0.742466
0.974143 0.895225 0.691201
1.000000 0.891764 0.715770
0.107143 0.999866 0.933711
0.164209 1.000000 0.942085
0.269353 1.000000 0.939997
0.458164 0.999554 0.917512
0.637873 0.993031 0.874979
0.783282 0.969008 0.801703
0.890935 0.924274 0.705939
0.964596 0.941016 0.600352
0.999886 0.962040 0.595791
0.000000 0.041947 0.841933
0.000000 0.041280 0.852355
0.006900 0.027502 0.862477
0.217088 0.000296 0.867048
0.436824 0.000000 0.854612
0.633898 0.000000 0.839641
0.787642 0.000000 0.832480
0.906716 0.000000 0.832720
0.998117 0.000000 0.834870
0.000000 0.106136 0.824267
0.000000 0.114375 0.842571
0.019419 0.113510 0.864049
0.241755 0.093033 0.881529
0.469700 0.059352 0.881179
0.674902 0.045599 0.876538
0.834020 0.048134 0.877726
0.952218 0.060088 0.883547
1.000000 0.075277 0.889400
0.000000 0.209188 0.803736
0.000000 0.227874 0.826716
0.019911 0.236974 0.855043
0.253708 0.230048 0.885609
0.491924 0.203712 0.898860
0.703698 0.189717 0.904596
0.869995 0.190715 0.910679
0.978004 0.203569 0.917687
1.000000 0.222327 0.922194
0.000000 0.342993 0.786016
0.000000 0.370197 0.810953
0.015969 0.388315 0.839719
0.242194 0.390840 0.873240
0.489694 0.371223 0.893425
0.708998 0.352850 0.908337
0.881863 0.351619 0.918792
0.984485 0.364058 0.924861
1.000000 0.383580 0.925857
0.000000 0.495049 0.789107
0.000000 0.524560 0.810147
0.012716 0.546791 0.831467
0.202742 0.559575 0.860581
0.468911 0.549683 0.880586
0.701009 0.528099 0.899108
0.878756 0.521036 0.912549
0.983103 0.530076 0.915137
1.000000 0.546891 0.910460
0.000000 0.649190 0.809040
0.000000 0.676478 0.828825
0.004337 0.699834 0.845968
0.127950 0.722265 0.866844
0.418284 0.722932 0.876418
0.680198 0.703171 0.882731
0.866025 0.685586 0.896464
0.974656 0.688137 0.893515
1.000000 0.699881 0.883160
0.000000 0.797206 0.861857
0.000000 0.821224 0.882129
0.005619 0.841314 0.897756
0.113554 0.858315 0.909126
0.404606 0.856857 0.902308
0.658823 0.840979 0.882012
0.851956 0.825057 0.878125
0.967923 0.820816 0.873989
1.000000 0.828455 0.863284
0.000000 0.935616 0.936223
0.000789 0.951176 0.951559
0.026614 0.961752 0.961028
0.203423 0.963347 0.959986
0.479527 0.950382 0.941226
0.695675 0.933544 0.912181
0.863895 0.921674 0.881358
0.971817 0.923052 0.866413
1.000000 0.925683 0.856071
0.002169 0.999893 0.989819
0.008576 1.000000 0.994124
0.063776 1.000000 0.994885
0.294397 1.000000 0.989458
0.536457 0.999953 0.974963
0.716193 0.999292 0.948404
0.855507 0.998227 0.920161
0.972948 0.977082 0.871258
1.000000 0.997470 0.823108
0.000000 0.051686 0.938132
0.000000 0.051020 0.949792
0.001183 0.038443 0.960481
0.176061 0.009660 0.970209
0.401773 0.000000 0.963728
0.609229 0.000000 0.953499
0.775061 0.000000 0.948905
0.901387 0.000000 0.952988
0.997797 0.000000 0.961853
0.000000 0.116467 0.921790
0.000000 0.125889 0.941779
0.004140 0.126054 0.964874
0.206659 0.113725 0.987769
0.437638 0.075350 0.991174
0.651507 0.057660 0.990046
0.822627 0.057131 0.990841
0.948312 0.067157 0.993715
0.999946 0.079981 0.997208
0.000000 0.222137 0.902294
0.000000 0.241552 0.925979
0.007689 0.251329 0.955817
0.219417 0.249338 0.990563
0.459236 0.224946 0.999624
0.678816 0.204998 0.999853
0.857449 0.202059 0.999912
0.974918 0.211591 0.999987
1.000000 0.227019 1.000000
0.000000 0.358842 0.884626
0.000000 0.386218 0.910977
0.009660 0.403898 0.941198
0.208942 0.408567 0.977886
0.455745 0.392504 0.996285
0.682070 0.370140 0.999926
0.866488 0.364050 1.000000
0.981165 0.371935 1.000000
1.000000 0.386460 1.000000
0.000000 0.513213 0.884149
0.000000 0.542253 0.906985
0.009463 0.563422 0.931398
0.176996 0.575662 0.964277
0.437805 0.568253 0.986136
0.671144 0.546436 0.997373
0.860121 0.533440 0.999926
0.978971 0.535997 1.000000
1.000000 0.545718 0.999946
0.000000 0.667597 0.900689
0.000000 0.695083 0.921104
0.003056 0.717604 0.939279
0.113433 0.737519 0.963233
0.388071 0.738399 0.978208
0.639036 0.718866 0.985808
0.841555 0.697130 0.996106
0.968910 0.690677 0.999628
1.000000 0.693880 0.999272
0.000000 0.807698 0.937477
0.000000 0.831604 0.956620
0.000000 0.851622 0.970198
0.039366 0.872206 0.982836
0.288650 0.880493 0.988632
0.589054 0.860311 0.979099
0.818010 0.837173 0.977413
0.960081 0.821191 0.991989
0.999946 0.819231 0.989544
0.000000 0.937055 0.988631
0.000000 0.953296 0.995286
0.000000 0.964608 0.998083
0.037731 0.973287 0.999202
0.301224 0.974511 0.999161
0.591971 0.958411 0.990842
0.794733 0.945037 0.970788
0.944112 0.931913 0.968034
1.000000 0.925864 0.966825
0.001577 0.999866 1.000000
0.000789 1.000000 1.000000
0.003746 1.000000 1.000000
0.113182 1.000000 1.000000
0.416461 1.000000 1.000000
0.656461 1.000000 1.000000
0.832406 1.000000 0.993925
0.957466 1.000000 0.969783
1.000000 1.000000 0.963066
