bundles/resolve-cinematic-luts/Gamut/Orion/Orion Cool +CRUSH.cube
TITLE "Orion Cool +CRUSH by Gamut"
# Contributor - JVKE. Version 1.0 - 09/28/2023 - Designed for Rec.709 Color Space. Copyright 2023 Gamut, LLC
LUT_3D_SIZE 33
0.059868 0.063953 0.068394
0.069298 0.063382 0.068934
0.075945 0.063917 0.067339
0.081638 0.063953 0.066254
0.089046 0.063953 0.064591
0.099299 0.062407 0.061329
0.116239 0.059491 0.054476
0.137713 0.057573 0.042882
0.161857 0.054770 0.035683
0.187147 0.050910 0.028709
0.213638 0.047057 0.020946
0.240168 0.042531 0.012395
0.267353 0.037950 0.004337
0.294847 0.033293 0.000321
0.322400 0.027847 0.000000
0.349813 0.022770 0.000000
0.376872 0.016954 0.000000
0.402248 0.011508 0.000000
0.427085 0.006506 0.000000
0.452513 0.001725 0.000000
0.478224 0.000000 0.000000
0.503206 0.000000 0.000000
0.527502 0.000000 0.000000
0.550960 0.000000 0.000000
0.571026 0.000000 0.000000
0.593725 0.000000 0.000000
0.617124 0.000000 0.000000
0.640892 0.000000 0.000000
0.664427 0.000000 0.000000
0.687514 0.000000 0.000000
0.710636 0.000000 0.000000
0.733955 0.000000 0.000000
0.757126 0.000000 0.000000
0.060445 0.070925 0.069970
0.069814 0.070925 0.068934
0.075978 0.070909 0.068394
0.080786 0.070943 0.066842
0.087830 0.070992 0.065207
0.097459 0.070498 0.062479
0.113865 0.068459 0.056847
0.136955 0.064302 0.046615
0.162692 0.060793 0.035092
0.188016 0.056773 0.027724
0.214505 0.052853 0.020725
0.240928 0.048434 0.012666
0.268724 0.043997 0.004608
0.296434 0.039473 0.000321
0.324912 0.034821 0.000000
0.352968 0.030138 0.000000
0.381550 0.025875 0.000000
0.408040 0.021587 0.000000
0.434870 0.017694 0.000000
0.461727 0.013800 0.000000
0.488276 0.009487 0.000000
0.514590 0.005372 0.000000
0.539477 0.002046 0.000000
0.559918 0.001528 0.000000
0.583537 0.001528 0.000000
0.608480 0.001528 0.000000
0.634166 0.001528 0.000000
0.658769 0.001528 0.000000
0.682881 0.001528 0.000000
0.706913 0.002292 0.000000
0.730649 0.002317 0.000000
0.754185 0.002317 0.000000
0.777730 0.003080 0.000000
0.061056 0.077460 0.072557
0.069849 0.077901 0.068967
0.076904 0.077428 0.067339
0.084721 0.076506 0.069369
0.091147 0.076474 0.068900
0.100480 0.075621 0.064852
0.116557 0.073296 0.059257
0.139680 0.070217 0.051330
0.167003 0.066025 0.037100
0.194587 0.062531 0.026516
0.221011 0.058430 0.019369
0.247810 0.054749 0.011656
0.275899 0.050844 0.004337
0.304629 0.046771 0.000321
0.334164 0.043626 0.000000
0.363979 0.039868 0.000000
0.393176 0.037063 0.000000
0.421087 0.033564 0.000000
0.449334 0.030459 0.000000
0.477545 0.027305 0.000000
0.504875 0.023115 0.000000
0.526901 0.017940 0.000000
0.552096 0.016018 0.000000
0.578175 0.015796 0.000000
0.603704 0.013504 0.000000
0.629486 0.012790 0.000000
0.655333 0.012173 0.000000
0.680513 0.012173 0.000000
0.705248 0.012321 0.000000
0.729684 0.012962 0.000000
0.753566 0.013750 0.000000
0.777345 0.013775 0.000000
0.801564 0.015278 0.000000
0.060519 0.084369 0.072622
0.068340 0.084399 0.069034
0.077396 0.083526 0.068866
0.084780 0.083867 0.066859
0.095858 0.082179 0.069369
0.108983 0.080415 0.068512
0.125532 0.078572 0.063753
0.147168 0.075260 0.056281
0.172072 0.071808 0.047004
0.200036 0.068153 0.035311
0.233428 0.065623 0.018556
0.261798 0.062817 0.011188
0.291045 0.060395 0.004904
0.320979 0.057959 0.001208
0.351751 0.055509 0.000715
0.382457 0.052980 0.000715
0.412130 0.051303 0.000000
0.441019 0.048975 0.000000
0.467988 0.046137 0.000000
0.492347 0.044009 0.000000
0.518754 0.041064 0.000000
0.545619 0.038911 0.000000
0.572766 0.037285 0.000000
0.599691 0.036521 0.000000
0.626220 0.035880 0.000000
0.652638 0.035880 0.000000
0.678554 0.035091 0.000000
0.703984 0.035214 0.000000
0.729072 0.035806 0.000000
0.753493 0.036595 0.000000
0.777528 0.037383 0.000000
0.801507 0.038172 0.000000
0.825760 0.038960 0.000000
0.057667 0.092107 0.071714
0.065713 0.092476 0.068037
0.078276 0.091656 0.069436
0.084015 0.092011 0.067886
0.095173 0.091628 0.065363
0.115834 0.087969 0.067424
0.137529 0.084085 0.065854
0.160433 0.081741 0.061347
0.185375 0.079754 0.055324
0.212213 0.077788 0.047954
0.241251 0.076212 0.039458
0.271541 0.074674 0.030902
0.303047 0.072983 0.023066
0.334957 0.071825 0.015870
0.366534 0.071247 0.010399
0.396622 0.070136 0.006457
0.425375 0.069009 0.003154
0.454254 0.067943 0.002070
0.482544 0.066471 0.001725
0.510527 0.065132 0.001380
0.538836 0.063936 0.000690
0.567193 0.063216 0.000690
0.594728 0.062336 0.000000
0.621847 0.062252 0.000000
0.648865 0.062168 0.000000
0.675150 0.062168 0.000000
0.701283 0.062274 0.000000
0.726670 0.062837 0.000000
0.751652 0.063313 0.000000
0.776190 0.064439 0.000000
0.800206 0.065503 0.000000
0.824309 0.067040 0.000000
0.848461 0.068040 0.000000
0.051632 0.103189 0.067180
0.059671 0.103559 0.063302
0.076911 0.102807 0.067458
0.081876 0.103789 0.066476
0.091282 0.104144 0.065225
0.112730 0.102744 0.062093
0.149155 0.097128 0.065593
0.178159 0.094077 0.065085
0.204688 0.092389 0.062732
0.232208 0.092086 0.058673
0.260368 0.092420 0.053533
0.290525 0.093042 0.048135
0.321447 0.093653 0.042309
0.353115 0.093914 0.036743
0.384110 0.094017 0.031198
0.413055 0.093945 0.026319
0.441940 0.093595 0.022326
0.470995 0.093189 0.017915
0.499872 0.092708 0.013627
0.529068 0.092224 0.009660
0.557972 0.091968 0.006013
0.586220 0.091542 0.003031
0.613990 0.091467 0.001873
0.641247 0.091818 0.001232
0.667987 0.092167 0.000666
0.694421 0.092680 0.000493
0.720292 0.093433 0.000000
0.745684 0.094181 0.000000
0.770634 0.095386 0.000000
0.795206 0.096923 0.000000
0.819317 0.098462 0.000000
0.843384 0.100338 0.000000
0.867512 0.102114 0.000000
0.041335 0.118411 0.058944
0.051022 0.119927 0.055784
0.069683 0.120810 0.061526
0.079100 0.122805 0.063701
0.087068 0.124600 0.063666
0.106808 0.123519 0.061825
0.143907 0.122055 0.059111
0.189878 0.116116 0.063862
0.224559 0.113786 0.065506
0.254283 0.113465 0.066285
0.283352 0.114285 0.064689
0.312640 0.115648 0.061242
0.342470 0.117406 0.056685
0.372206 0.118728 0.051621
0.400953 0.119976 0.046766
0.429381 0.120905 0.041104
0.458016 0.121486 0.035634
0.486927 0.121995 0.030459
0.515830 0.122245 0.025530
0.544918 0.122690 0.020232
0.573617 0.122999 0.015574
0.601934 0.123569 0.011558
0.629794 0.124138 0.008231
0.656967 0.124957 0.004854
0.683699 0.125914 0.002661
0.709958 0.127092 0.001898
0.735828 0.128260 0.001282
0.761376 0.129663 0.000789
0.786287 0.131188 0.000641
0.810992 0.133144 0.000641
0.835163 0.135367 0.000000
0.859351 0.137617 0.000000
0.883461 0.139770 0.000000
0.029597 0.140670 0.050006
0.040991 0.143306 0.047114
0.061762 0.146264 0.054106
0.076743 0.149688 0.059960
0.086196 0.153095 0.061184
0.101294 0.153678 0.061148
0.132691 0.149071 0.057668
0.183060 0.150013 0.057090
0.233518 0.144774 0.063719
0.270729 0.141421 0.065733
0.302544 0.140578 0.066704
0.332820 0.140869 0.066635
0.362189 0.142186 0.064448
0.390574 0.143999 0.060641
0.418181 0.146039 0.056320
0.445897 0.147845 0.051233
0.474235 0.149640 0.045778
0.502735 0.151165 0.040418
0.531417 0.152451 0.034993
0.560060 0.153608 0.029547
0.588696 0.154858 0.024890
0.616983 0.156151 0.020232
0.644622 0.157609 0.016363
0.671688 0.159093 0.012100
0.698225 0.160568 0.008994
0.724520 0.162149 0.006062
0.750322 0.163957 0.004066
0.775877 0.165781 0.002809
0.800992 0.168044 0.002193
0.825676 0.170474 0.001405
0.850031 0.172867 0.001405
0.874217 0.175398 0.000789
0.898408 0.177943 0.000616
0.021489 0.169178 0.043993
0.035042 0.173495 0.042320
0.061180 0.178470 0.052664
0.080484 0.182829 0.061065
0.091121 0.186191 0.062081
0.105366 0.187216 0.062172
0.128476 0.183374 0.059904
0.165354 0.176414 0.054090
0.223647 0.179449 0.055406
0.275464 0.174539 0.062279
0.314937 0.170587 0.064200
0.348667 0.168702 0.065732
0.379440 0.168207 0.065785
0.407601 0.169448 0.064697
0.435540 0.171609 0.062405
0.463443 0.173928 0.058750
0.491638 0.176592 0.054603
0.519933 0.179100 0.049718
0.548438 0.181425 0.044856
0.576716 0.183744 0.039638
0.605139 0.185963 0.034500
0.633158 0.188153 0.029547
0.660425 0.190232 0.025481
0.687347 0.192357 0.021021
0.713738 0.194395 0.017349
0.739710 0.196663 0.013652
0.765533 0.199047 0.010547
0.791084 0.201483 0.008428
0.816077 0.204207 0.006407
0.840769 0.206914 0.004855
0.865128 0.209718 0.003549
0.889325 0.212542 0.002735
0.913447 0.215435 0.001972
0.016436 0.202917 0.039302
0.036299 0.206846 0.040217
0.065075 0.212744 0.054151
0.086837 0.217063 0.062888
0.098789 0.219538 0.063382
0.113149 0.220062 0.062896
0.132364 0.216970 0.060629
0.159673 0.209158 0.055938
0.200089 0.203786 0.050236
0.263696 0.208977 0.053545
0.316627 0.204444 0.059940
0.357588 0.199901 0.062479
0.391950 0.197541 0.064005
0.422424 0.196815 0.064609
0.451576 0.197863 0.064201
0.480346 0.199878 0.063021
0.509051 0.202758 0.060554
0.537682 0.205808 0.056928
0.566319 0.209058 0.052988
0.594686 0.212227 0.048752
0.622891 0.215367 0.044121
0.650473 0.218325 0.039637
0.677510 0.221181 0.034993
0.704189 0.223938 0.030557
0.730355 0.226778 0.026664
0.756288 0.229628 0.022770
0.781930 0.232604 0.019098
0.807253 0.235563 0.015993
0.832196 0.238773 0.012987
0.856722 0.241949 0.010868
0.880974 0.245169 0.008748
0.905136 0.248438 0.007171
0.929146 0.251603 0.005076
0.014736 0.236201 0.033859
0.043599 0.241214 0.042672
0.072344 0.246678 0.056600
0.094105 0.250086 0.063681
0.107688 0.251843 0.063953
0.123242 0.251764 0.062896
0.140720 0.248751 0.060201
0.161085 0.242151 0.055676
0.191698 0.232186 0.049703
0.236524 0.230958 0.045149
0.302830 0.237009 0.050299
0.356767 0.233583 0.056697
0.398122 0.229246 0.060126
0.432846 0.226728 0.061547
0.464630 0.225878 0.062588
0.495277 0.226613 0.062986
0.524985 0.228875 0.062517
0.554559 0.232002 0.060999
0.583847 0.235607 0.058773
0.612599 0.239326 0.055696
0.640935 0.243092 0.052130
0.668496 0.246730 0.048340
0.695473 0.250312 0.044119
0.721982 0.253819 0.040412
0.748056 0.257392 0.036323
0.773911 0.260851 0.032455
0.799336 0.264354 0.028832
0.824463 0.267825 0.025087
0.849153 0.271421 0.021981
0.873633 0.275157 0.018876
0.897634 0.278768 0.016018
0.921646 0.282408 0.013702
0.945336 0.286028 0.010843
0.020454 0.269382 0.032849
0.052974 0.274860 0.046625
0.083399 0.279544 0.060049
0.103952 0.281827 0.063845
0.118990 0.282987 0.064024
0.134669 0.282426 0.062024
0.150984 0.279444 0.059205
0.167607 0.273338 0.055063
0.189470 0.264025 0.048684
0.223310 0.254156 0.041585
0.274608 0.257935 0.039242
0.341867 0.265018 0.045478
0.395158 0.262514 0.052912
0.436822 0.258676 0.057126
0.473032 0.256155 0.059019
0.506605 0.255412 0.060795
0.538617 0.256285 0.061752
0.569763 0.258823 0.061844
0.600085 0.262249 0.061184
0.629677 0.266090 0.059810
0.658468 0.270058 0.057570
0.686346 0.274085 0.054887
0.713581 0.278133 0.051902
0.740223 0.282252 0.048777
0.766328 0.286289 0.045031
0.792121 0.290307 0.041617
0.817475 0.294329 0.038147
0.842439 0.298340 0.034401
0.867029 0.302383 0.031297
0.891234 0.306430 0.028192
0.914842 0.310422 0.025038
0.938219 0.314538 0.021464
0.961214 0.318469 0.018359
0.034106 0.303117 0.036669
0.066161 0.308073 0.051096
0.099077 0.311032 0.062611
0.116233 0.312818 0.063953
0.131896 0.313613 0.063093
0.147099 0.312456 0.060959
0.162193 0.309156 0.058010
0.176923 0.303476 0.053393
0.193301 0.295124 0.047312
0.218116 0.284157 0.040014
0.255618 0.277547 0.033169
0.312651 0.285284 0.032307
0.379686 0.292763 0.040303
0.431988 0.291241 0.048930
0.474938 0.288106 0.053603
0.513243 0.286238 0.056484
0.548656 0.286010 0.058431
0.582166 0.287319 0.059998
0.614133 0.289730 0.060945
0.644982 0.293080 0.061056
0.674647 0.296862 0.060240
0.703289 0.300962 0.059209
0.731070 0.305229 0.057165
0.758037 0.309536 0.054887
0.784511 0.313882 0.052338
0.810375 0.318246 0.049440
0.835850 0.322630 0.046423
0.860851 0.327099 0.043559
0.885237 0.331443 0.040101
0.908983 0.335877 0.037014
0.931907 0.340241 0.033613
0.954011 0.344528 0.030508
0.975555 0.348750 0.027403
0.050030 0.336635 0.043217
0.084113 0.340025 0.057156
0.113164 0.341501 0.063200
0.130670 0.342644 0.063436
0.145540 0.342743 0.062025
0.160043 0.341538 0.059789
0.174326 0.338292 0.056422
0.187977 0.332729 0.051861
0.201601 0.324999 0.045913
0.219846 0.315023 0.038482
0.247684 0.304379 0.030015
0.289634 0.302370 0.024422
0.351568 0.312846 0.025357
0.416389 0.320515 0.034401
0.468949 0.320139 0.044013
0.513628 0.318213 0.050044
0.553861 0.317339 0.053988
0.590829 0.317583 0.056543
0.625421 0.318883 0.058717
0.658124 0.321191 0.059997
0.689112 0.324288 0.060926
0.718845 0.327906 0.060816
0.747361 0.331844 0.060222
0.775022 0.336073 0.058962
0.802001 0.340474 0.057354
0.828270 0.345005 0.055520
0.853993 0.349527 0.053374
0.878995 0.354174 0.050774
0.903273 0.358789 0.048167
0.926311 0.363390 0.045703
0.947857 0.367952 0.042809
0.967867 0.372462 0.039778
0.986904 0.376943 0.036718
0.070543 0.368540 0.051245
0.108405 0.369416 0.061523
0.129800 0.370521 0.063346
0.145765 0.371096 0.062534
0.160141 0.370855 0.060869
0.173793 0.369482 0.058508
0.187207 0.366319 0.054566
0.200002 0.361273 0.050019
0.212300 0.354253 0.043889
0.226245 0.345099 0.036496
0.247529 0.334572 0.028389
0.279899 0.326286 0.020700
0.326926 0.328905 0.015919
0.391033 0.341322 0.018852
0.453959 0.348793 0.029424
0.506743 0.349520 0.039522
0.552973 0.348943 0.046571
0.594615 0.348694 0.051410
0.632855 0.349259 0.054970
0.668198 0.350592 0.057513
0.701256 0.352637 0.059416
0.732444 0.355370 0.060334
0.762234 0.358689 0.061056
0.790804 0.362438 0.060797
0.818495 0.366472 0.060388
0.845328 0.370825 0.059545
0.871445 0.375337 0.058354
0.896553 0.379871 0.056524
0.920401 0.384598 0.054641
0.942304 0.389254 0.052741
0.961858 0.393937 0.050118
0.978840 0.398513 0.047401
0.994363 0.403135 0.044978
0.098937 0.396900 0.058439
0.129470 0.396763 0.062714
0.147366 0.397401 0.062842
0.161963 0.397766 0.061386
0.175385 0.397335 0.059697
0.188511 0.395947 0.056776
0.201248 0.393144 0.053016
0.213215 0.388582 0.047998
0.224643 0.382499 0.041685
0.236359 0.374443 0.034599
0.252756 0.365024 0.026836
0.278293 0.355541 0.018285
0.315684 0.351289 0.011163
0.367498 0.358300 0.009832
0.431426 0.370602 0.014293
0.492517 0.377223 0.025974
0.545582 0.379023 0.036077
0.592789 0.379507 0.043715
0.635556 0.379922 0.049043
0.674615 0.380599 0.053360
0.710478 0.381699 0.056525
0.743815 0.383514 0.058831
0.775177 0.385828 0.060334
0.804982 0.388804 0.061056
0.833578 0.392272 0.061368
0.861168 0.396086 0.061368
0.887694 0.400277 0.060980
0.912918 0.404673 0.060407
0.936164 0.409178 0.058942
0.956451 0.413784 0.057741
0.973262 0.418443 0.056187
0.986798 0.423050 0.054018
0.998187 0.427655 0.052103
0.131443 0.422295 0.062804
0.150014 0.422613 0.062788
0.165402 0.423172 0.061935
0.179110 0.423504 0.060815
0.191976 0.423258 0.058508
0.204484 0.421986 0.055543
0.216428 0.419356 0.051721
0.227808 0.415083 0.046435
0.238732 0.409561 0.039993
0.249658 0.402864 0.033046
0.263126 0.394837 0.025284
0.283348 0.386238 0.017126
0.313529 0.379461 0.009857
0.355593 0.379709 0.005840
0.410070 0.388738 0.007245
0.472605 0.399352 0.013579
0.532037 0.405581 0.024051
0.585103 0.408268 0.033367
0.633058 0.409701 0.041131
0.676653 0.410589 0.047322
0.716139 0.411218 0.052012
0.752348 0.412150 0.055683
0.785801 0.413556 0.058126
0.817215 0.415630 0.060035
0.847029 0.418268 0.060908
0.875448 0.421437 0.061643
0.902444 0.425006 0.061753
0.927615 0.429004 0.061935
0.949816 0.433267 0.061568
0.968169 0.437615 0.060998
0.982094 0.442118 0.059865
0.992047 0.446682 0.058923
0.999691 0.451278 0.057437
0.156103 0.447700 0.063382
0.170680 0.448323 0.062245
0.184512 0.448879 0.061404
0.197370 0.449296 0.059979
0.209544 0.449188 0.057841
0.221321 0.448076 0.054592
0.232772 0.445686 0.050405
0.243896 0.442000 0.045020
0.254542 0.437100 0.038829
0.265425 0.431331 0.032060
0.277447 0.424428 0.024889
0.293984 0.416717 0.017126
0.318212 0.409412 0.009365
0.352230 0.405606 0.004214
0.397283 0.409025 0.004091
0.453151 0.418524 0.007294
0.514183 0.428025 0.013554
0.572069 0.434100 0.022869
0.625249 0.437665 0.031814
0.673770 0.439748 0.039601
0.717745 0.440803 0.045837
0.757519 0.441399 0.051119
0.793643 0.442062 0.054969
0.827075 0.443189 0.057532
0.858373 0.444885 0.059454
0.887817 0.447200 0.060630
0.915376 0.450141 0.061478
0.940148 0.453504 0.062044
0.961145 0.457256 0.062227
0.977326 0.461299 0.062227
0.988391 0.465453 0.061917
0.995390 0.469842 0.061331
1.000000 0.474233 0.060425
0.178561 0.473477 0.063382
0.191829 0.474293 0.062245
0.204491 0.475021 0.061093
0.216584 0.475681 0.059379
0.228197 0.475669 0.056974
0.239558 0.474826 0.053951
0.250783 0.472841 0.049748
0.261739 0.469754 0.044312
0.272501 0.465623 0.037851
0.283168 0.460581 0.031297
0.294427 0.454463 0.024101
0.308415 0.447345 0.016856
0.327999 0.439971 0.009365
0.355476 0.434135 0.004115
0.392408 0.432966 0.002809
0.439563 0.438525 0.004091
0.496090 0.448015 0.007639
0.555653 0.456796 0.014317
0.612740 0.463102 0.022080
0.666065 0.467313 0.030286
0.714854 0.469761 0.038049
0.758734 0.470832 0.044867
0.798204 0.471243 0.050004
0.834202 0.471684 0.053809
0.867288 0.472527 0.056585
0.898034 0.473976 0.058394
0.926093 0.476071 0.060053
0.950539 0.478684 0.060797
0.970082 0.481768 0.061460
0.984034 0.485248 0.061971
0.992688 0.489042 0.062227
0.997401 0.492986 0.061990
1.000000 0.497093 0.062480
0.201157 0.499894 0.063382
0.213616 0.500944 0.062245
0.225496 0.501904 0.061093
0.236950 0.502655 0.059323
0.248075 0.502895 0.056974
0.259159 0.502396 0.053951
0.270299 0.500871 0.049491
0.281151 0.498245 0.044203
0.291857 0.494671 0.037851
0.302196 0.490046 0.031075
0.312823 0.484526 0.024101
0.325047 0.477891 0.016856
0.341182 0.470605 0.009857
0.363419 0.463872 0.004115
0.393469 0.459892 0.001922
0.432794 0.461203 0.002045
0.482074 0.468069 0.004091
0.538820 0.477381 0.008034
0.597333 0.485953 0.013972
0.654065 0.492673 0.020971
0.707236 0.497257 0.028734
0.755636 0.499671 0.036496
0.799016 0.500619 0.043418
0.838048 0.500916 0.049041
0.873510 0.501088 0.053078
0.905748 0.501701 0.055702
0.934473 0.502957 0.057668
0.958487 0.504726 0.058869
0.976672 0.507068 0.060053
0.988653 0.509838 0.060629
0.995400 0.513064 0.061201
0.998561 0.516471 0.061990
1.000000 0.519956 0.061643
0.224698 0.527033 0.063953
0.236158 0.528154 0.062824
0.247513 0.529410 0.061313
0.258552 0.530407 0.059924
0.269281 0.530867 0.057592
0.280113 0.530638 0.054192
0.290844 0.529464 0.050047
0.301507 0.527171 0.044637
0.311852 0.523880 0.038342
0.321869 0.519579 0.031075
0.331996 0.514395 0.024101
0.342950 0.508138 0.016856
0.356577 0.501059 0.009857
0.374669 0.493940 0.004411
0.399035 0.488254 0.001922
0.431491 0.486303 0.001282
0.473524 0.489680 0.001676
0.524504 0.497435 0.004091
0.581123 0.506733 0.007738
0.639103 0.515460 0.013209
0.695533 0.522519 0.020207
0.748122 0.527094 0.027477
0.795784 0.529459 0.035240
0.838410 0.530228 0.041940
0.876660 0.530328 0.047766
0.910848 0.530357 0.051784
0.940351 0.530805 0.054452
0.964131 0.531687 0.056449
0.981185 0.533196 0.057668
0.991697 0.535242 0.058812
0.996997 0.537681 0.059416
0.999193 0.540382 0.060240
1.000000 0.543285 0.060834
0.248896 0.554661 0.064908
0.259712 0.556043 0.063596
0.270393 0.557351 0.062462
0.281005 0.558542 0.060723
0.291398 0.559147 0.058414
0.301762 0.559130 0.055447
0.312058 0.558146 0.051077
0.322247 0.556066 0.045612
0.332264 0.552997 0.039100
0.341942 0.548949 0.031641
0.351407 0.543959 0.024101
0.361439 0.538042 0.016856
0.373157 0.531150 0.009857
0.388196 0.523899 0.004904
0.407997 0.517229 0.001922
0.434669 0.513052 0.000789
0.469865 0.513136 0.000789
0.514339 0.518131 0.001676
0.566455 0.526544 0.003820
0.623080 0.536141 0.007245
0.680837 0.545155 0.012445
0.736653 0.552189 0.018655
0.788350 0.556644 0.026418
0.835017 0.558854 0.034180
0.876575 0.559511 0.041127
0.913005 0.559432 0.046376
0.943767 0.559255 0.050468
0.967687 0.559453 0.053181
0.984017 0.560101 0.055210
0.993469 0.561336 0.056448
0.997907 0.562944 0.056874
0.999509 0.564920 0.057842
1.000000 0.567084 0.058639
0.273381 0.582519 0.066375
0.283600 0.584008 0.065278
0.293848 0.585448 0.063596
0.303898 0.586677 0.061935
0.313884 0.587477 0.059604
0.323664 0.587498 0.056681
0.333462 0.586614 0.052261
0.343252 0.584712 0.046458
0.352740 0.581827 0.039856
0.361959 0.577943 0.032652
0.370894 0.573152 0.024889
0.380132 0.567476 0.017126
0.390400 0.560822 0.010646
0.403005 0.553558 0.005150
0.419531 0.546388 0.001922
0.441532 0.540657 0.000789
0.470822 0.538065 0.000542
0.508678 0.539998 0.000789
0.554981 0.546213 0.001676
0.607955 0.555279 0.003302
0.664767 0.565377 0.006457
0.722227 0.574518 0.011139
0.777257 0.581510 0.017891
0.827752 0.585716 0.024865
0.872922 0.587806 0.032627
0.912234 0.588309 0.039675
0.944669 0.588054 0.044959
0.969267 0.587721 0.049128
0.985467 0.587700 0.051890
0.994427 0.588121 0.053748
0.998326 0.588938 0.055170
0.999657 0.590089 0.055602
1.000000 0.591450 0.056429
0.297891 0.610279 0.068004
0.307629 0.611913 0.066547
0.317300 0.613438 0.065278
0.326801 0.614691 0.063596
0.336286 0.615515 0.061367
0.345583 0.615649 0.058069
0.354870 0.614886 0.053666
0.364111 0.613165 0.048394
0.373067 0.610315 0.041383
0.381814 0.606594 0.033662
0.390233 0.602001 0.025678
0.398692 0.596410 0.017644
0.407933 0.589963 0.010646
0.418872 0.582797 0.005692
0.432840 0.575334 0.002267
0.451199 0.568574 0.000789
0.475555 0.564000 0.000000
0.507385 0.563063 0.000000
0.547607 0.566608 0.000789
0.595478 0.573970 0.001355
0.649362 0.583856 0.003006
0.706366 0.594275 0.005668
0.763208 0.603427 0.010350
0.817025 0.610108 0.016338
0.865854 0.614182 0.023337
0.908341 0.616053 0.031075
0.943179 0.616372 0.038049
0.969040 0.616049 0.043513
0.985767 0.615611 0.047764
0.994669 0.615272 0.050575
0.998472 0.615322 0.052445
0.999713 0.615707 0.053119
1.000000 0.616249 0.053747
0.322318 0.637867 0.069736
0.331419 0.639585 0.068680
0.340568 0.641139 0.067099
0.349523 0.642438 0.065469
0.358383 0.643358 0.063236
0.367164 0.643549 0.059846
0.375955 0.642856 0.055562
0.384601 0.641136 0.049891
0.393054 0.638460 0.042874
0.401381 0.634819 0.035215
0.409330 0.630277 0.026663
0.417316 0.624877 0.018433
0.425698 0.618586 0.011434
0.435393 0.611549 0.005889
0.447387 0.603954 0.002464
0.462907 0.596551 0.000789
0.483341 0.590485 0.000000
0.510100 0.587233 0.000000
0.544388 0.587958 0.000000
0.586632 0.592907 0.000123
0.636065 0.601480 0.000888
0.690767 0.612040 0.002514
0.747615 0.622637 0.005421
0.803461 0.631642 0.009562
0.855482 0.638049 0.015574
0.901389 0.641813 0.021957
0.939171 0.643525 0.029522
0.967088 0.643754 0.036496
0.984937 0.643293 0.041937
0.994444 0.642654 0.046374
0.998444 0.642089 0.049194
0.999713 0.641677 0.050575
1.000000 0.641448 0.051352
0.346379 0.665139 0.071811
0.354915 0.666866 0.070779
0.363359 0.668485 0.069201
0.371813 0.669849 0.067595
0.380137 0.670771 0.064977
0.388320 0.671000 0.062169
0.396539 0.670394 0.057549
0.404685 0.668776 0.052027
0.412744 0.666108 0.045063
0.420667 0.662542 0.036767
0.428317 0.658047 0.027674
0.435887 0.652772 0.019492
0.443692 0.646658 0.011902
0.452393 0.639704 0.006481
0.462892 0.632105 0.002711
0.476165 0.624310 0.001158
0.493502 0.617254 0.000000
0.516013 0.612127 0.000000
0.545226 0.610355 0.000000
0.581833 0.612673 0.000000
0.626120 0.619166 0.000123
0.676863 0.628781 0.000888
0.731987 0.639782 0.002440
0.788259 0.650288 0.004830
0.842563 0.659003 0.008748
0.891608 0.665116 0.014022
0.932564 0.668621 0.020996
0.963169 0.670164 0.027970
0.983025 0.670290 0.034229
0.993639 0.669722 0.040430
0.998192 0.668863 0.044345
0.999622 0.667964 0.047741
1.000000 0.667033 0.049669
0.369744 0.692031 0.074347
0.377664 0.693789 0.072847
0.385582 0.695424 0.071321
0.393524 0.696816 0.069769
0.401290 0.697760 0.067166
0.408969 0.698046 0.064055
0.416638 0.697417 0.059937
0.424360 0.695820 0.053943
0.432065 0.693238 0.046782
0.439649 0.689647 0.038532
0.447135 0.685231 0.029227
0.454368 0.679988 0.020429
0.461751 0.674007 0.012667
0.469790 0.667151 0.006481
0.479113 0.659592 0.003056
0.490672 0.651692 0.001158
0.505524 0.643944 0.000000
0.524699 0.637525 0.000000
0.549500 0.633640 0.000000
0.581021 0.633423 0.000000
0.619935 0.637436 0.000000
0.666017 0.645276 0.000123
0.717782 0.655648 0.000888
0.772844 0.666865 0.002292
0.827935 0.677165 0.004042
