bundles/resolve-cinematic-luts/Gamut/Orion/Orion Cool +CRUSH.cube
TITLE "Orion Cool +CRUSH by Gamut"
# Contributor - JVKE. Version 1.0 - 09/28/2023 - Designed for Rec.709 Color Space. Copyright 2023 Gamut, LLC
LUT_3D_SIZE 9
0.059868 0.063953 0.068394
0.089046 0.063953 0.064591
0.161857 0.054770 0.035683
0.267353 0.037950 0.004337
0.376872 0.016954 0.000000
0.478224 0.000000 0.000000
0.571026 0.000000 0.000000
0.664427 0.000000 0.000000
0.757126 0.000000 0.000000
0.057667 0.092107 0.071714
0.095173 0.091628 0.065363
0.185375 0.079754 0.055324
0.303047 0.072983 0.023066
0.425375 0.069009 0.003154
0.538836 0.063936 0.000690
0.648865 0.062168 0.000000
0.751652 0.063313 0.000000
0.848461 0.068040 0.000000
0.021489 0.169178 0.043993
0.091121 0.186191 0.062081
0.223647 0.179449 0.055406
0.379440 0.168207 0.065785
0.491638 0.176592 0.054603
0.605139 0.185963 0.034500
0.713738 0.194395 0.017349
0.816077 0.204207 0.006407
0.913447 0.215435 0.001972
0.034106 0.303117 0.036669
0.131896 0.313613 0.063093
0.193301 0.295124 0.047312
0.379686 0.292763 0.040303
0.548656 0.286010 0.058431
0.674647 0.296862 0.060240
0.784511 0.313882 0.052338
0.885237 0.331443 0.040101
0.975555 0.348750 0.027403
0.131443 0.422295 0.062804
0.191976 0.423258 0.058508
0.238732 0.409561 0.039993
0.313529 0.379461 0.009857
0.532037 0.405581 0.024051
0.716139 0.411218 0.052012
0.847029 0.418268 0.060908
0.949816 0.433267 0.061568
0.999691 0.451278 0.057437
0.224698 0.527033 0.063953
0.269281 0.530867 0.057592
0.311852 0.523880 0.038342
0.356577 0.501059 0.009857
0.473524 0.489680 0.001676
0.695533 0.522519 0.020207
0.876660 0.530328 0.047766
0.981185 0.533196 0.057668
1.000000 0.543285 0.060834
0.322318 0.637867 0.069736
0.358383 0.643358 0.063236
0.393054 0.638460 0.042874
0.425698 0.618586 0.011434
0.483341 0.590485 0.000000
0.636065 0.601480 0.000888
0.855482 0.638049 0.015574
0.984937 0.643293 0.041937
1.000000 0.641448 0.051352
0.414083 0.744493 0.079281
0.441829 0.750043 0.071908
0.469750 0.745570 0.051419
0.497759 0.726382 0.014490
0.533367 0.696137 0.000394
0.618772 0.676496 0.000000
0.799101 0.707824 0.000789
0.969813 0.740739 0.010251
1.000000 0.744196 0.038837
0.494699 0.843889 0.089165
0.517452 0.848734 0.080238
0.540904 0.843645 0.059097
0.566590 0.823700 0.018334
0.594415 0.793857 0.000394
0.644424 0.761284 0.000000
0.759471 0.762487 0.000000
0.935215 0.802845 0.000000
0.999946 0.835032 0.000000
0.052510 0.065085 0.103233
0.093152 0.061788 0.109046
0.184818 0.044082 0.072993
0.288568 0.016265 0.040388
0.391136 0.000000 0.002070
0.485702 0.000000 0.000000
0.583549 0.000000 0.000000
0.678682 0.000000 0.000000
0.772455 0.000000 0.000000
0.050680 0.092950 0.101847
0.087787 0.094762 0.099605
0.180875 0.085768 0.080576
0.304492 0.076475 0.061667
0.429690 0.071221 0.045016
0.547714 0.066902 0.028093
0.659255 0.065435 0.013603
0.762879 0.067493 0.005027
0.860138 0.072068 0.002858
0.034106 0.175830 0.099566
0.090153 0.202894 0.101441
0.224307 0.199630 0.087067
0.365492 0.194886 0.100811
0.480875 0.200430 0.080149
0.598041 0.204919 0.063843
0.710110 0.210762 0.050298
0.814724 0.218760 0.037655
0.913483 0.228927 0.027600
0.029867 0.322814 0.093496
0.138217 0.336784 0.104761
0.239503 0.322250 0.090818
0.381414 0.314237 0.077323
0.537391 0.311253 0.101740
0.660093 0.322570 0.099622
0.770822 0.338783 0.086455
0.873284 0.354540 0.072292
0.967639 0.370031 0.058670
0.069414 0.451222 0.084958
0.226011 0.446161 0.111417
0.282929 0.434181 0.091825
0.335343 0.398993 0.050471
0.526080 0.418422 0.055784
0.702973 0.429084 0.096582
0.831049 0.440038 0.111685
0.935349 0.457159 0.111889
0.998200 0.475807 0.102649
0.221118 0.550652 0.109041
0.301334 0.547774 0.113098
0.341179 0.540219 0.092561
0.375854 0.514810 0.053205
0.475452 0.498185 0.015870
0.686784 0.532675 0.043254
0.863914 0.545808 0.090585
0.972572 0.552499 0.111685
1.000000 0.565300 0.122377
0.341723 0.649531 0.126937
0.383650 0.652560 0.121448
0.412328 0.650455 0.099592
0.439143 0.632805 0.061166
0.491450 0.601089 0.018236
0.632044 0.607579 0.004830
0.846396 0.647517 0.034894
0.980470 0.656890 0.081967
1.000000 0.658236 0.103310
0.437159 0.750577 0.147607
0.463228 0.756481 0.137435
0.484533 0.756346 0.112183
0.506402 0.741638 0.071214
0.542117 0.709029 0.025038
0.620287 0.683356 0.001972
0.791595 0.712639 0.002366
0.965507 0.749345 0.026319
1.000000 0.756080 0.076729
0.516251 0.847542 0.168330
0.535822 0.853639 0.154196
0.552810 0.853316 0.124815
0.570937 0.839496 0.080665
0.600068 0.808578 0.031444
0.648908 0.770121 0.003942
0.755009 0.766053 0.000000
0.928293 0.806873 0.000000
0.999869 0.843116 0.003844
0.033120 0.061789 0.227510
0.073574 0.056506 0.240225
0.187955 0.032726 0.213742
0.321614 0.006505 0.142634
0.421745 0.000000 0.064024
0.514931 0.000000 0.014194
0.607259 0.000000 0.000592
0.696397 0.000000 0.000000
0.784643 0.000000 0.000000
0.031543 0.091998 0.207419
0.071574 0.092360 0.219005
0.196821 0.077125 0.220062
0.341929 0.068925 0.167408
0.457922 0.061247 0.116056
0.570623 0.051384 0.075033
0.676210 0.044714 0.048789
0.780889 0.053678 0.041481
0.879539 0.064123 0.037851
0.012814 0.177372 0.200374
0.063151 0.201669 0.223022
0.199763 0.214780 0.221996
0.351411 0.213543 0.192454
0.479046 0.211956 0.164730
0.601831 0.213039 0.137576
0.716695 0.216663 0.116382
0.822703 0.223763 0.101370
0.922167 0.233686 0.090108
0.031149 0.323202 0.248627
0.095844 0.349542 0.276798
0.231928 0.356891 0.237274
0.385128 0.346588 0.180262
0.518014 0.343627 0.209786
0.639345 0.351596 0.190736
0.753001 0.363181 0.167718
0.858262 0.376158 0.146816
0.956896 0.389686 0.129403
0.056492 0.470406 0.257693
0.136280 0.486252 0.256876
0.283602 0.472974 0.231621
0.388621 0.441862 0.162214
0.523103 0.442717 0.146291
0.682219 0.453300 0.201669
0.804986 0.466577 0.217388
0.910614 0.485125 0.211129
0.992584 0.503572 0.195150
0.104231 0.600393 0.233521
0.222513 0.596517 0.236459
0.341476 0.577295 0.220389
0.416632 0.544766 0.162022
0.487084 0.517000 0.084799
0.671893 0.545947 0.110179
0.840516 0.563118 0.190437
0.953648 0.574464 0.225281
0.999916 0.590795 0.239563
0.240292 0.702809 0.237168
0.332808 0.692625 0.237350
0.413369 0.674516 0.217957
0.466536 0.650118 0.165619
0.507098 0.617583 0.089889
0.624412 0.615319 0.034599
0.828927 0.658019 0.087319
0.969528 0.671247 0.175918
1.000000 0.675781 0.215693
0.375337 0.791915 0.254843
0.437804 0.782997 0.252689
0.490941 0.769213 0.230168
0.527419 0.752445 0.178087
0.557852 0.725891 0.107016
0.621371 0.694302 0.034796
0.778066 0.717635 0.012716
0.956280 0.759487 0.071174
1.000000 0.768612 0.167534
0.484245 0.875631 0.278561
0.527710 0.869774 0.273097
0.564258 0.860166 0.247427
0.588964 0.847713 0.193397
0.612972 0.825244 0.122332
0.653917 0.785631 0.048494
0.746819 0.770562 0.005914
0.915015 0.810661 0.001577
0.999718 0.854353 0.039402
0.010646 0.055803 0.372502
0.052246 0.050091 0.384179
0.149339 0.028980 0.379234
0.314418 0.000296 0.332857
0.450209 0.000000 0.266119
0.558536 0.000000 0.183917
0.653918 0.000000 0.120233
0.744981 0.000000 0.074591
0.832589 0.000000 0.042705
0.008970 0.087340 0.349873
0.053227 0.088752 0.366510
0.161440 0.079481 0.386388
0.352791 0.060666 0.367629
0.501545 0.053283 0.323401
0.617617 0.046505 0.261150
0.720005 0.041316 0.213392
0.816452 0.036176 0.175516
0.907965 0.033712 0.145486
0.000000 0.184112 0.325714
0.040091 0.210114 0.345505
0.154925 0.226107 0.373984
0.371419 0.204919 0.382983
0.513440 0.203021 0.340475
0.634600 0.201235 0.297831
0.746371 0.200523 0.266163
0.850449 0.203212 0.241754
0.948310 0.209381 0.222984
0.000000 0.322352 0.352729
0.036077 0.347524 0.376089
0.153765 0.367046 0.392683
0.361309 0.368844 0.370541
0.506436 0.367033 0.341541
0.636230 0.365398 0.320372
0.751448 0.372162 0.297918
0.857899 0.381714 0.280293
0.957817 0.393573 0.266813
0.019912 0.465438 0.406100
0.083540 0.489468 0.431870
0.208279 0.498686 0.437306
0.395264 0.495994 0.381778
0.531056 0.483816 0.319967
0.664087 0.486136 0.345087
0.780602 0.497276 0.343313
0.886032 0.512942 0.329995
0.981178 0.528249 0.315495
0.087510 0.615183 0.445010
0.166040 0.629215 0.450263
0.272868 0.628283 0.431558
0.422201 0.602378 0.372854
0.529376 0.563028 0.266484
0.663623 0.572833 0.256367
0.813619 0.587888 0.336250
0.926008 0.602524 0.362427
0.998641 0.622118 0.366940
0.168117 0.749717 0.445685
0.243124 0.753918 0.440727
0.334094 0.741725 0.414004
0.461511 0.701115 0.356731
0.547045 0.650951 0.260397
0.625246 0.632356 0.153565
0.803713 0.671560 0.207939
0.947793 0.686895 0.319059
1.000000 0.696392 0.361160
0.252986 0.863093 0.437084
0.319544 0.859816 0.429539
0.401342 0.837907 0.402644
0.513099 0.789224 0.349638
0.589253 0.744313 0.269652
0.632561 0.709538 0.156041
0.756893 0.724686 0.081250
0.937106 0.771091 0.178954
1.000000 0.780376 0.311469
0.340613 0.958827 0.433855
0.400455 0.950148 0.426712
0.476419 0.922875 0.402807
0.573882 0.873141 0.354478
0.638846 0.834618 0.282668
0.671404 0.802145 0.182977
0.736079 0.778373 0.070335
0.891299 0.816804 0.026910
0.999379 0.870185 0.162327
0.000000 0.049327 0.505908
0.028487 0.043352 0.515999
0.102815 0.027206 0.521991
0.281155 0.000000 0.492489
0.440698 0.000000 0.449256
0.579892 0.000000 0.403487
0.698155 0.000000 0.351471
0.797457 0.000000 0.300773
0.886928 0.000000 0.260435
0.000000 0.082803 0.485151
0.031839 0.086189 0.503489
0.123924 0.086400 0.531561
0.326871 0.062414 0.530936
0.502651 0.046152 0.507849
0.651719 0.040652 0.474205
0.769493 0.039027 0.428950
0.868804 0.036866 0.387081
0.958973 0.035782 0.354544
0.000000 0.190288 0.457222
0.025037 0.215722 0.482420
0.123150 0.233002 0.517295
0.340877 0.211014 0.540699
0.528081 0.193470 0.530825
0.675533 0.191491 0.498186
0.792218 0.194706 0.459257
0.895259 0.197682 0.428510
0.986065 0.201290 0.405548
0.000000 0.326878 0.461279
0.001676 0.352901 0.478800
0.076591 0.379086 0.497924
0.312751 0.379810 0.515554
0.520146 0.361646 0.520119
0.661508 0.361786 0.486916
0.779968 0.366642 0.456739
0.885941 0.373228 0.434401
0.982895 0.381838 0.419031
0.000000 0.460737 0.496329
0.010646 0.485163 0.519577
0.103237 0.507753 0.541105
0.314310 0.514511 0.539439
0.513981 0.514048 0.508247
0.655804 0.513308 0.484154
0.777888 0.515366 0.468680
0.883850 0.524827 0.452610
0.982065 0.535834 0.440798
0.018137 0.604969 0.557841
0.067802 0.628547 0.583396
0.178390 0.642606 0.598575
0.356849 0.642122 0.588561
0.543047 0.634051 0.516152
0.673345 0.620153 0.455933
0.798226 0.624646 0.483549
0.904764 0.636101 0.486295
0.994811 0.652050 0.478561
0.105681 0.752132 0.624964
0.176149 0.767701 0.639667
0.273494 0.772878 0.637849
0.410563 0.761388 0.600050
0.562380 0.724570 0.506542
0.663063 0.680357 0.379018
0.793661 0.699091 0.384684
0.925885 0.711976 0.468513
0.999886 0.724190 0.496241
0.221455 0.883101 0.660931
0.281432 0.891251 0.663295
0.351914 0.889574 0.645643
0.454898 0.865559 0.587367
0.587385 0.809506 0.493474
0.671644 0.746295 0.366053
0.751991 0.740411 0.255972
0.914360 0.784102 0.336624
1.000000 0.793767 0.456903
0.309918 0.996072 0.670102
0.353569 0.997083 0.664724
0.405391 0.990711 0.637131
0.493260 0.956295 0.568358
0.618031 0.886386 0.479436
0.702167 0.823495 0.375309
0.741378 0.788921 0.241049
0.861711 0.822485 0.158187
0.998416 0.880888 0.335645
0.000000 0.042983 0.635184
0.003450 0.037655 0.645154
0.064462 0.026614 0.655372
0.237583 0.000000 0.639444
0.417551 0.000000 0.604094
0.572078 0.000000 0.572657
0.711688 0.000000 0.546105
0.831849 0.000000 0.515592
0.934741 0.000000 0.481314
0.000000 0.079195 0.615640
0.009759 0.085553 0.637497
0.092749 0.093695 0.670779
0.291759 0.068691 0.681384
0.484410 0.047463 0.667024
0.648965 0.036570 0.646019
0.790050 0.035979 0.622560
0.908872 0.040182 0.593028
0.991997 0.041407 0.561308
0.000000 0.195481 0.588587
0.006013 0.220123 0.617387
0.094652 0.238885 0.655960
0.304103 0.221656 0.684006
0.508969 0.196940 0.690043
0.682528 0.185060 0.676748
0.823951 0.186221 0.653832
0.938092 0.193309 0.624966
0.999648 0.200284 0.597202
0.000000 0.335826 0.581127
0.000789 0.362290 0.601084
0.063159 0.385883 0.626511
0.270943 0.388841 0.655437
0.495308 0.366872 0.674645
0.675928 0.355274 0.667848
0.815716 0.358150 0.644089
0.926886 0.367122 0.615571
0.999118 0.376691 0.591147
0.000000 0.460881 0.593707
0.000394 0.485173 0.612690
0.023263 0.510100 0.630748
0.220713 0.531710 0.649966
0.472213 0.524756 0.654108
0.668247 0.510154 0.656478
0.799008 0.514635 0.626644
0.908962 0.521732 0.601361
0.997073 0.529665 0.582243
0.000789 0.596011 0.639149
0.006604 0.620720 0.662469
0.065779 0.644438 0.684877
0.257178 0.658213 0.695886
0.478035 0.657575 0.679216
0.663362 0.655792 0.645968
0.789814 0.656901 0.622878
0.902805 0.657662 0.607351
0.996672 0.665947 0.592669
0.013997 0.738678 0.708444
0.045279 0.761643 0.732655
0.136924 0.778910 0.752184
0.319282 0.780930 0.756844
0.505910 0.774501 0.730409
0.687678 0.760332 0.646696
0.803712 0.748698 0.592685
0.915686 0.751872 0.617263
0.999785 0.760870 0.619968
0.082242 0.877979 0.788045
0.142703 0.893863 0.805404
0.242182 0.900712 0.812857
0.391781 0.894394 0.802584
0.546343 0.877021 0.748595
0.698184 0.834747 0.630739
0.786419 0.791298 0.503259
0.908826 0.814344 0.521851
1.000000 0.820998 0.602901
0.206356 0.999050 0.852239
0.269933 1.000000 0.858712
0.350727 0.999826 0.852982
0.461487 0.995638 0.822865
0.583337 0.969346 0.746334
0.711202 0.902652 0.616281
0.781662 0.832631 0.471403
0.860223 0.839566 0.365814
0.997208 0.896272 0.493591
0.000000 0.038443 0.751163
0.000000 0.033219 0.761214
0.039592 0.023854 0.772398
0.195721 0.000000 0.766998
0.390129 0.000000 0.743195
0.557438 0.000000 0.717148
0.706138 0.000000 0.699696
0.838664 0.000000 0.683515
0.957603 0.000000 0.666008
0.000000 0.078097 0.733860
0.000690 0.087206 0.758018
0.071226 0.099147 0.793905
0.260489 0.078517 0.813396
0.460923 0.053280 0.808638
0.636115 0.038344 0.791347
0.787266 0.034894 0.777372
0.919164 0.038737 0.762836
0.998055 0.045269 0.746856
0.000000 0.200918 0.709764
0.000690 0.225400 0.740130
0.072716 0.244107 0.779319
0.269178 0.235239 0.811524
0.482010 0.206117 0.827674
0.669518 0.188229 0.823665
0.827370 0.182883 0.814356
0.954747 0.186901 0.800897
1.000000 0.197310 0.782895
0.000000 0.344170 0.694743
0.000493 0.370408 0.718247
0.049264 0.391855 0.748963
0.240842 0.398062 0.783474
0.465899 0.377131 0.808228
0.663387 0.358466 0.816805
0.826554 0.353296 0.810517
0.952726 0.358730 0.795247
1.000000 0.370192 0.773708
0.000000 0.469061 0.696039
0.000000 0.493692 0.714322
0.012223 0.517965 0.733489
0.172719 0.542456 0.762768
0.429034 0.536115 0.782803
0.647701 0.515838 0.799818
0.814066 0.509154 0.795430
0.938144 0.514580 0.775782
1.000000 0.524746 0.750866
0.000000 0.591764 0.720784
0.000000 0.615774 0.740337
0.010547 0.640784 0.759681
0.139773 0.670377 0.782325
0.401797 0.676701 0.783913
0.626946 0.666375 0.778733
0.803062 0.653628 0.780959
0.918319 0.659362 0.752557
0.999886 0.664838 0.728662
0.000000 0.726543 0.776716
0.002070 0.750039 0.798607
0.038228 0.774080 0.820966
0.205181 0.792662 0.838707
0.437990 0.792230 0.829590
0.635010 0.786813 0.803034
0.797106 0.784598 0.771886
0.907840 0.787355 0.750225
1.000000 0.785883 0.733575
0.005027 0.861284 0.846894
0.019024 0.882451 0.868336
0.087000 0.901385 0.888402
0.272529 0.907366 0.898987
0.474186 0.898994 0.887643
0.648345 0.890908 0.852671
0.819864 0.872664 0.765303
0.920904 0.865602 0.724876
1.000000 0.865137 0.746110
0.034106 0.989183 0.922892
0.077864 0.998025 0.941335
0.176149 0.999946 0.953163
0.345868 0.999675 0.953864
0.517861 0.995074 0.938589
0.676653 0.978469 0.869202
0.820569 0.934865 0.745644
0.892158 0.892582 0.622602
0.997084 0.932022 0.673515
0.000000 0.034697 0.856950
0.000000 0.030065 0.867397
0.020404 0.020897 0.878836
0.157440 0.000591 0.881865
0.362037 0.000000 0.867007
0.541177 0.000000 0.847008
0.696463 0.000000 0.831066
0.834801 0.000000 0.820712
0.961394 0.000000 0.811759
0.000000 0.079345 0.841290
0.000000 0.091682 0.868405
0.055491 0.104875 0.905437
0.231478 0.094328 0.932512
0.437564 0.061285 0.933915
0.620394 0.043542 0.921282
0.778685 0.037753 0.908806
0.916793 0.039514 0.900672
0.998456 0.043731 0.893894
0.000000 0.207333 0.819807
0.000000 0.231522 0.851280
0.055411 0.249945 0.890790
0.238594 0.248098 0.926510
0.456377 0.217271 0.946108
0.651145 0.195750 0.947930
0.818952 0.186485 0.943009
0.954317 0.186163 0.938542
1.000000 0.192424 0.932037
0.000000 0.351822 0.799577
0.000000 0.377722 0.826566
0.034992 0.398026 0.860089
0.213586 0.407346 0.898493
0.439584 0.388692 0.924647
0.642919 0.366744 0.939564
0.818174 0.356725 0.940718
0.955384 0.356598 0.936969
1.000000 0.363241 0.928362
0.000000 0.479144 0.795596
0.000000 0.504066 0.815416
0.010547 0.527566 0.837738
0.154920 0.550893 0.872113
0.401007 0.547059 0.897213
0.622412 0.525613 0.919734
0.805456 0.512054 0.928081
0.946272 0.510538 0.923512
1.000000 0.516472 0.910613
0.000000 0.595400 0.802846
0.000000 0.619213 0.821063
0.001873 0.643527 0.838874
0.077725 0.677530 0.866916
0.336107 0.692205 0.884389
0.589490 0.676742 0.895314
0.787277 0.657664 0.909521
0.931132 0.653146 0.903690
1.000000 0.658414 0.884706
0.000000 0.718031 0.843302
0.000000 0.740689 0.862399
0.004140 0.764386 0.881364
0.082979 0.796116 0.906716
0.336765 0.810981 0.913237
0.576356 0.804642 0.897712
0.767921 0.793988 0.889179
0.921726 0.783389 0.889411
1.000000 0.790387 0.860797
0.000000 0.848024 0.905446
0.000000 0.869255 0.924694
0.018729 0.891482 0.944178
0.159376 0.913158 0.962597
0.402400 0.913825 0.959217
0.605537 0.906349 0.938291
0.775973 0.901054 0.911544
0.917264 0.899053 0.882425
1.000000 0.902777 0.861901
0.000000 0.972690 0.969591
0.002858 0.990747 0.982950
0.039726 0.999345 0.992936
0.222097 1.000000 0.996379
0.440575 0.999715 0.994716
0.621024 0.997460 0.983344
0.777011 0.992372 0.958899
0.935180 0.969138 0.866985
0.999413 0.973544 0.849312
0.000000 0.031543 0.952069
0.000000 0.027699 0.964018
0.005126 0.019911 0.976368
0.126581 0.003845 0.987262
0.337255 0.000000 0.978443
0.524776 0.000000 0.964717
0.686082 0.000000 0.950449
0.828652 0.000000 0.941446
0.959249 0.000000 0.937227
0.000000 0.082405 0.938665
0.000000 0.098188 0.969276
0.040692 0.111332 0.999393
0.205633 0.108399 1.000000
0.417500 0.069873 0.999946
0.604378 0.050365 0.999494
0.768931 0.042250 0.997793
0.911639 0.042349 0.995499
0.998167 0.045269 0.994162
0.000000 0.214263 0.919289
0.000000 0.238596 0.951936
0.040334 0.256702 0.991059
0.211629 0.260107 0.999859
0.433905 0.229934 1.000000
0.631878 0.205156 1.000000
0.807338 0.192988 1.000000
0.949746 0.190170 1.000000
1.000000 0.193495 0.999946
0.000000 0.359588 0.896211
0.000000 0.384811 0.925362
0.023558 0.404803 0.961067
0.188799 0.416554 0.994959
0.416152 0.400574 0.999761
0.622147 0.376715 1.000000
0.804527 0.363659 1.000000
0.950373 0.360409 1.000000
0.999966 0.363327 0.999946
0.000000 0.488695 0.887346
0.000000 0.513762 0.909637
0.008477 0.536571 0.935520
0.139550 0.559167 0.973326
0.380544 0.557072 0.994440
0.599411 0.536228 0.999567
0.788967 0.519184 1.000000
0.940396 0.513367 1.000000
0.999946 0.514317 0.999758
0.000000 0.604883 0.888786
0.000000 0.628713 0.906684
0.001380 0.652448 0.924675
0.065506 0.685353 0.955430
0.305760 0.702604 0.981299
0.558851 0.688579 0.993029
0.765587 0.666015 0.999131
0.924745 0.655003 1.000000
0.999916 0.653144 0.999363
0.000000 0.715735 0.909774
0.000000 0.737781 0.927189
0.000000 0.760424 0.943407
0.020700 0.795027 0.967411
0.230604 0.826413 0.987377
0.518552 0.821309 0.987030
0.737636 0.802805 0.991677
0.909578 0.785925 0.999430
0.999745 0.781225 0.996437
0.000000 0.834807 0.958824
0.000000 0.855211 0.974092
0.000099 0.876613 0.985929
0.040512 0.908191 0.995867
0.281717 0.929259 0.999423
0.539421 0.923874 0.997467
0.730339 0.916199 0.990856
0.893477 0.906597 0.985411
1.000000 0.897529 0.981756
0.000000 0.957887 1.000000
0.000099 0.977044 1.000000
0.006111 0.993736 1.000000
0.121431 0.999396 1.000000
0.382124 1.000000 1.000000
0.595914 1.000000 1.000000
0.762788 1.000000 1.000000
0.896467 1.000000 1.000000
1.000000 1.000000 0.980043
