bundles/resolve-cinematic-luts/Gamut/Orion/Orion Warm.cube
TITLE "Orion Warm by Gamut"
# Contributor - JVKE. Version 1.0 - 09/28/2023 - Designed for Rec.709 Color Space. Copyright 2023 Gamut, LLC
LUT_3D_SIZE 5
0.001577 0.026023 0.002366
0.194083 0.032923 0.000000
0.438435 0.027600 0.000000
0.666562 0.019911 0.000000
0.857246 0.005520 0.000000
0.000000 0.197552 0.000000
0.242814 0.189640 0.000000
0.531456 0.185151 0.000592
0.752995 0.207937 0.000000
0.950234 0.231521 0.000000
0.117058 0.401593 0.000000
0.241060 0.390306 0.000000
0.601270 0.391981 0.000000
0.891820 0.393288 0.000000
0.999987 0.425142 0.000000
0.335052 0.622073 0.004928
0.414082 0.629295 0.000000
0.524841 0.591997 0.000000
0.920002 0.640224 0.000000
1.000000 0.631784 0.000197
0.526609 0.842141 0.031543
0.583898 0.849346 0.001774
0.634019 0.808203 0.000000
0.806610 0.798776 0.000000
1.000000 0.863041 0.000000
0.000000 0.032135 0.188681
0.238271 0.005520 0.186631
0.484047 0.000000 0.083485
0.702401 0.000000 0.007294
0.898154 0.000000 0.001380
0.000000 0.203780 0.180286
0.227874 0.216254 0.170909
0.498559 0.217815 0.129103
0.738010 0.226142 0.081174
0.944272 0.244432 0.050861
0.041066 0.451636 0.207783
0.315553 0.434774 0.192282
0.573640 0.421333 0.126987
0.840518 0.436941 0.177707
0.998913 0.473851 0.157031
0.303921 0.659122 0.189910
0.446358 0.643622 0.185794
0.536816 0.603309 0.051370
0.888467 0.655069 0.071115
1.000000 0.660570 0.179536
0.552050 0.845489 0.229165
0.609120 0.852120 0.208815
0.649388 0.824440 0.081896
0.786929 0.798290 0.001183
0.999927 0.872908 0.001774
0.000000 0.042137 0.430168
0.172976 0.010252 0.452098
0.548797 0.000000 0.405668
0.793541 0.000000 0.316588
0.983255 0.000000 0.262584
0.000000 0.224691 0.387715
0.147267 0.236966 0.417868
0.553244 0.206896 0.408572
0.795081 0.211167 0.342297
0.991310 0.217269 0.307999
0.000394 0.469985 0.445944
0.148877 0.489806 0.465411
0.561920 0.481223 0.408489
0.808041 0.485877 0.377294
0.998496 0.507946 0.355388
0.160250 0.743325 0.525016
0.323951 0.751171 0.518484
0.612466 0.669475 0.383476
0.850591 0.688398 0.312891
1.000000 0.704981 0.411695
0.345736 0.981471 0.496901
0.448916 0.963544 0.469577
0.684605 0.840523 0.365133
0.774496 0.802223 0.183151
0.999490 0.893819 0.182433
0.000000 0.058964 0.723858
0.067731 0.034894 0.747570
0.506839 0.000000 0.747887
0.840519 0.000000 0.719946
0.999973 0.000000 0.682134
0.000000 0.249693 0.679103
0.063126 0.259956 0.720956
0.518072 0.214390 0.755950
0.862798 0.197648 0.737273
1.000000 0.215232 0.698648
0.000000 0.504326 0.688838
0.016954 0.530604 0.705777
0.489172 0.506499 0.721029
0.849006 0.483120 0.716454
1.000000 0.502304 0.675474
0.000592 0.780898 0.770431
0.047884 0.800652 0.786795
0.497487 0.782568 0.756615
0.848040 0.774069 0.700174
1.000000 0.775624 0.672475
0.076078 0.999705 0.875502
0.230341 1.000000 0.886100
0.582547 0.990230 0.834979
0.858261 0.907903 0.654341
0.999826 0.948619 0.550463
0.000000 0.081950 0.986464
0.002957 0.062063 1.000000
0.437157 0.000000 1.000000
0.809318 0.000000 0.999470
0.999893 0.000000 0.998738
0.000000 0.274661 0.948322
0.010448 0.284513 0.993519
0.449076 0.241527 1.000000
0.832515 0.207030 1.000000
1.000000 0.205513 0.999866
0.000000 0.533103 0.933269
0.009265 0.556175 0.963087
0.419208 0.533078 0.990808
0.819348 0.492413 0.999987
1.000000 0.485494 0.999597
0.000000 0.818851 0.982311
0.000000 0.842520 0.991494
0.261138 0.831092 0.972704
0.775585 0.798074 0.978553
0.999866 0.773871 0.988911
0.000789 1.000000 1.000000
0.000789 1.000000 1.000000
0.371690 1.000000 1.000000
0.787055 1.000000 0.992402
1.000000 1.000000 0.951639
