bundles/resolve-cinematic-luts/Gamut/Orion/Orion Cool +CRUSH.cube
TITLE "Orion Cool +CRUSH by Gamut"
# Contributor - JVKE. Version 1.0 - 09/28/2023 - Designed for Rec.709 Color Space. Copyright 2023 Gamut, LLC
LUT_3D_SIZE 5
0.059868 0.063953 0.068394
0.161857 0.054770 0.035683
0.376872 0.016954 0.000000
0.571026 0.000000 0.000000
0.757126 0.000000 0.000000
0.021489 0.169178 0.043993
0.223647 0.179449 0.055406
0.491638 0.176592 0.054603
0.713738 0.194395 0.017349
0.913447 0.215435 0.001972
0.131443 0.422295 0.062804
0.238732 0.409561 0.039993
0.532037 0.405581 0.024051
0.847029 0.418268 0.060908
0.999691 0.451278 0.057437
0.322318 0.637867 0.069736
0.393054 0.638460 0.042874
0.483341 0.590485 0.000000
0.855482 0.638049 0.015574
1.000000 0.641448 0.051352
0.494699 0.843889 0.089165
0.540904 0.843645 0.059097
0.594415 0.793857 0.000394
0.759471 0.762487 0.000000
0.999946 0.835032 0.000000
0.033120 0.061789 0.227510
0.187955 0.032726 0.213742
0.421745 0.000000 0.064024
0.607259 0.000000 0.000592
0.784643 0.000000 0.000000
0.012814 0.177372 0.200374
0.199763 0.214780 0.221996
0.479046 0.211956 0.164730
0.716695 0.216663 0.116382
0.922167 0.233686 0.090108
0.056492 0.470406 0.257693
0.283602 0.472974 0.231621
0.523103 0.442717 0.146291
0.804986 0.466577 0.217388
0.992584 0.503572 0.195150
0.240292 0.702809 0.237168
0.413369 0.674516 0.217957
0.507098 0.617583 0.089889
0.828927 0.658019 0.087319
1.000000 0.675781 0.215693
0.484245 0.875631 0.278561
0.564258 0.860166 0.247427
0.612972 0.825244 0.122332
0.746819 0.770562 0.005914
0.999718 0.854353 0.039402
0.000000 0.049327 0.505908
0.102815 0.027206 0.521991
0.440698 0.000000 0.449256
0.698155 0.000000 0.351471
0.886928 0.000000 0.260435
0.000000 0.190288 0.457222
0.123150 0.233002 0.517295
0.528081 0.193470 0.530825
0.792218 0.194706 0.459257
0.986065 0.201290 0.405548
0.000000 0.460737 0.496329
0.103237 0.507753 0.541105
0.513981 0.514048 0.508247
0.777888 0.515366 0.468680
0.982065 0.535834 0.440798
0.105681 0.752132 0.624964
0.273494 0.772878 0.637849
0.562380 0.724570 0.506542
0.793661 0.699091 0.384684
0.999886 0.724190 0.496241
0.309918 0.996072 0.670102
0.405391 0.990711 0.637131
0.618031 0.886386 0.479436
0.741378 0.788921 0.241049
0.998416 0.880888 0.335645
0.000000 0.038443 0.751163
0.039592 0.023854 0.772398
0.390129 0.000000 0.743195
0.706138 0.000000 0.699696
0.957603 0.000000 0.666008
0.000000 0.200918 0.709764
0.072716 0.244107 0.779319
0.482010 0.206117 0.827674
0.827370 0.182883 0.814356
1.000000 0.197310 0.782895
0.000000 0.469061 0.696039
0.012223 0.517965 0.733489
0.429034 0.536115 0.782803
0.814066 0.509154 0.795430
1.000000 0.524746 0.750866
0.000000 0.726543 0.776716
0.038228 0.774080 0.820966
0.437990 0.792230 0.829590
0.797106 0.784598 0.771886
1.000000 0.785883 0.733575
0.034106 0.989183 0.922892
0.176149 0.999946 0.953163
0.517861 0.995074 0.938589
0.820569 0.934865 0.745644
0.997084 0.932022 0.673515
0.000000 0.031543 0.952069
0.005126 0.019911 0.976368
0.337255 0.000000 0.978443
0.686082 0.000000 0.950449
0.959249 0.000000 0.937227
0.000000 0.214263 0.919289
0.040334 0.256702 0.991059
0.433905 0.229934 1.000000
0.807338 0.192988 1.000000
1.000000 0.193495 0.999946
0.000000 0.488695 0.887346
0.008477 0.536571 0.935520
0.380544 0.557072 0.994440
0.788967 0.519184 1.000000
0.999946 0.514317 0.999758
0.000000 0.715735 0.909774
0.000000 0.760424 0.943407
0.230604 0.826413 0.987377
0.737636 0.802805 0.991677
0.999745 0.781225 0.996437
0.000000 0.957887 1.000000
0.006111 0.993736 1.000000
0.382124 1.000000 1.000000
0.762788 1.000000 1.000000
1.000000 1.000000 0.980043
