bundles/resolve-cinematic-luts/Gamut/Orion/Orion Warm +CRUSH.cube
TITLE "Orion Warm +CRUSH by Gamut"
# Contributor - JVKE. Version 1.0 - 09/28/2023 - Designed for Rec.709 Color Space. Copyright 2023 Gamut, LLC
LUT_3D_SIZE 33
0.059267 0.068934 0.059868
0.070345 0.067322 0.062751
0.076505 0.068866 0.062263
0.081683 0.069953 0.061643
0.088609 0.070467 0.061056
0.098968 0.069636 0.058337
0.118006 0.067610 0.053069
0.146430 0.063305 0.044943
0.178888 0.058046 0.034500
0.213538 0.053075 0.023633
0.247462 0.047760 0.014638
0.279176 0.042029 0.006086
0.308519 0.036373 0.000591
0.336133 0.031715 0.000000
0.363542 0.027502 0.000000
0.389582 0.023189 0.000000
0.413888 0.019320 0.000000
0.438127 0.015032 0.000000
0.463642 0.011927 0.000000
0.490197 0.008822 0.000000
0.516801 0.005717 0.000000
0.543351 0.003401 0.000000
0.569637 0.000542 0.000000
0.595965 0.000000 0.000000
0.620748 0.000000 0.000000
0.643927 0.000000 0.000000
0.664953 0.000000 0.000000
0.683520 0.000000 0.000000
0.704901 0.000000 0.000000
0.727129 0.000000 0.000000
0.749229 0.000000 0.000000
0.771900 0.000000 0.000000
0.794498 0.000000 0.000000
0.058681 0.076056 0.060464
0.068255 0.075541 0.060482
0.078308 0.074551 0.061625
0.086135 0.075024 0.061111
0.093651 0.074584 0.060538
0.106644 0.073728 0.056600
0.123603 0.071288 0.053364
0.149832 0.067164 0.046944
0.181080 0.062729 0.037430
0.214835 0.057432 0.027502
0.247904 0.052218 0.017422
0.280310 0.047524 0.007886
0.310786 0.043232 0.000863
0.339500 0.039917 0.000000
0.367656 0.036349 0.000000
0.394215 0.032899 0.000000
0.419286 0.029768 0.000000
0.445478 0.027428 0.000000
0.472702 0.025431 0.000000
0.501320 0.023090 0.000000
0.529828 0.021513 0.000000
0.558019 0.019665 0.000000
0.585490 0.017348 0.000000
0.611914 0.014046 0.000000
0.636691 0.010054 0.000000
0.657026 0.005052 0.000000
0.678442 0.003080 0.000000
0.700774 0.003203 0.000000
0.723263 0.003844 0.000000
0.746139 0.003918 0.000000
0.768997 0.004608 0.000000
0.791880 0.004657 0.000000
0.814334 0.005397 0.000000
0.059229 0.082675 0.060464
0.065574 0.083108 0.058129
0.074504 0.081302 0.060464
0.084809 0.080800 0.061093
0.097829 0.079909 0.059417
0.113700 0.077645 0.057687
0.137780 0.074820 0.049779
0.161689 0.071385 0.044034
0.189676 0.067164 0.037948
0.221010 0.062692 0.030286
0.253615 0.058008 0.022425
0.286841 0.054708 0.014564
0.318044 0.051885 0.006752
0.347881 0.049233 0.000591
0.377241 0.046883 0.000000
0.405170 0.046097 0.000000
0.432207 0.044625 0.000000
0.460041 0.043816 0.000000
0.489748 0.043099 0.000000
0.519150 0.041621 0.000000
0.548513 0.039379 0.000000
0.576968 0.037506 0.000000
0.603989 0.034204 0.000000
0.629616 0.030335 0.000000
0.650831 0.026466 0.000000
0.673123 0.022844 0.000000
0.696604 0.022031 0.000000
0.720120 0.021563 0.000000
0.743448 0.022179 0.000000
0.766733 0.022967 0.000000
0.789594 0.023756 0.000000
0.812636 0.024519 0.000000
0.835518 0.025284 0.000000
0.058110 0.089661 0.058775
0.063345 0.089661 0.058034
0.070924 0.089647 0.056351
0.080740 0.087998 0.060408
0.094679 0.087542 0.059961
0.118937 0.083771 0.055918
0.146111 0.078842 0.051574
0.177896 0.075761 0.040590
0.207166 0.072716 0.034771
0.237386 0.070000 0.029202
0.269608 0.067723 0.023066
0.302732 0.065493 0.016067
0.334367 0.063560 0.008995
0.365034 0.062708 0.003179
0.394819 0.062590 0.000271
0.423747 0.062893 0.000000
0.452433 0.063622 0.000000
0.481494 0.063562 0.000000
0.511240 0.062737 0.000000
0.540555 0.060825 0.000000
0.569108 0.058523 0.000000
0.596153 0.055307 0.000000
0.619389 0.051539 0.000000
0.643013 0.047895 0.000000
0.667601 0.046433 0.000000
0.692216 0.045593 0.000000
0.716663 0.045030 0.000000
0.740579 0.045675 0.000000
0.764207 0.046474 0.000000
0.787496 0.047158 0.000000
0.810505 0.048456 0.000000
0.833759 0.049806 0.000000
0.856709 0.051062 0.000000
0.054611 0.097769 0.054611
0.061624 0.098119 0.055724
0.066823 0.098171 0.053930
0.075524 0.098453 0.053949
0.088552 0.096205 0.059793
0.114125 0.094548 0.055956
0.154042 0.087789 0.050886
0.188116 0.083206 0.048336
0.222250 0.080646 0.042312
0.260638 0.079928 0.029079
0.293817 0.079322 0.022622
0.326787 0.079195 0.017866
0.358578 0.079843 0.011927
0.388934 0.080652 0.006407
0.417726 0.081453 0.001971
0.446387 0.082777 0.000690
0.474366 0.083460 0.000690
0.502460 0.083523 0.000690
0.531389 0.082597 0.000345
0.559466 0.080428 0.000000
0.583327 0.076432 0.000000
0.608542 0.074071 0.000000
0.634304 0.072580 0.000000
0.660323 0.071553 0.000000
0.686211 0.071478 0.000000
0.711443 0.071403 0.000000
0.736114 0.071947 0.000000
0.760093 0.072968 0.000000
0.783681 0.074340 0.000000
0.806988 0.075837 0.000000
0.830014 0.077268 0.000000
0.852924 0.079119 0.000000
0.875746 0.080934 0.000000
0.048235 0.108726 0.047537
0.057067 0.109078 0.050169
0.061418 0.109767 0.048865
0.068575 0.110775 0.048720
0.080320 0.110992 0.049571
0.102039 0.108607 0.057342
0.151781 0.105407 0.048466
0.199433 0.097990 0.048250
0.237920 0.094110 0.048185
0.274681 0.093052 0.045547
0.310973 0.093337 0.040481
0.345765 0.094503 0.033786
0.378183 0.095909 0.026146
0.407559 0.097674 0.018507
0.435986 0.099124 0.011755
0.463083 0.100024 0.006974
0.489001 0.100483 0.004509
0.514990 0.100483 0.003450
0.542162 0.100574 0.002784
0.569362 0.100285 0.002120
0.596403 0.099555 0.001454
0.623162 0.099216 0.001183
0.650170 0.099074 0.000666
0.676760 0.099320 0.000444
0.702835 0.099731 0.000000
0.728310 0.100818 0.000000
0.752805 0.101893 0.000000
0.776816 0.103657 0.000000
0.800324 0.105506 0.000000
0.823667 0.107572 0.000000
0.846595 0.109668 0.000000
0.869597 0.111737 0.000000
0.892282 0.114038 0.000000
0.038867 0.123938 0.037943
0.050800 0.125081 0.043135
0.055994 0.127181 0.042498
0.061966 0.130006 0.043069
0.071082 0.131705 0.043721
0.090672 0.130609 0.045469
0.129902 0.127494 0.051561
0.200229 0.123297 0.047350
0.252130 0.116972 0.049455
0.293367 0.114052 0.050221
0.330423 0.113607 0.049963
0.364884 0.114476 0.047735
0.394944 0.116047 0.043555
0.422667 0.117989 0.038756
0.449685 0.119635 0.033367
0.475936 0.121193 0.028216
0.502027 0.122600 0.023707
0.528335 0.123695 0.019345
0.555712 0.125042 0.015623
0.583241 0.125848 0.011730
0.610603 0.126648 0.008132
0.637948 0.127507 0.005175
0.665026 0.128544 0.002612
0.691679 0.129391 0.001848
0.717847 0.130782 0.001232
0.743111 0.132285 0.000789
0.767810 0.133991 0.000641
0.791912 0.136202 0.000641
0.815456 0.138471 0.000542
0.838818 0.141087 0.000000
0.861758 0.143541 0.000000
0.884615 0.146154 0.000000
0.907319 0.148760 0.000000
0.028635 0.144445 0.029252
0.045108 0.146968 0.036866
0.050660 0.150458 0.036841
0.057492 0.154125 0.038197
0.065932 0.157452 0.040290
0.081825 0.158905 0.042444
0.120683 0.153514 0.042592
0.179912 0.153668 0.042411
0.253056 0.146910 0.046979
0.305427 0.140842 0.049240
0.346875 0.137751 0.050957
0.382091 0.137541 0.051020
0.411596 0.138578 0.050304
0.439352 0.140228 0.047547
0.466258 0.142272 0.044155
0.492693 0.144403 0.040274
0.518786 0.146711 0.035634
0.545036 0.148715 0.030976
0.572113 0.150894 0.026319
0.599351 0.152641 0.021661
0.626807 0.154566 0.017004
0.653734 0.156150 0.013135
0.680676 0.158030 0.009685
0.707181 0.159828 0.006752
0.733130 0.161664 0.004017
0.758438 0.163773 0.002809
0.783143 0.166275 0.002193
0.807176 0.168775 0.001898
0.830749 0.171657 0.001405
0.854019 0.174509 0.001331
0.877034 0.177455 0.000789
0.899844 0.180409 0.000616
0.922438 0.183299 0.000616
0.019912 0.169790 0.022671
0.041056 0.174713 0.033342
0.048810 0.179154 0.034894
0.057484 0.183883 0.036989
0.067345 0.188078 0.040020
0.080842 0.189557 0.042398
0.109080 0.185275 0.042469
0.161814 0.176088 0.037210
0.239898 0.180125 0.032331
0.307257 0.171942 0.045426
0.357305 0.165650 0.048379
0.395437 0.162510 0.049775
0.426926 0.162368 0.050431
0.455558 0.163686 0.049945
0.483326 0.165685 0.048424
0.510451 0.168265 0.046311
0.537020 0.171083 0.043256
0.563323 0.173738 0.039690
0.590199 0.176519 0.035634
0.617239 0.179121 0.030976
0.644267 0.181671 0.026319
0.671195 0.184267 0.022450
0.697752 0.186824 0.018038
0.723986 0.189249 0.014342
0.749801 0.191783 0.011237
0.774962 0.194578 0.008502
0.799598 0.197472 0.006358
0.823560 0.200618 0.004805
0.846973 0.203785 0.004041
0.870106 0.207009 0.003475
0.893026 0.210414 0.002711
0.915673 0.213720 0.002144
0.938124 0.217129 0.001380
0.016782 0.200273 0.021292
0.041885 0.205657 0.033515
0.051569 0.210199 0.035437
0.061101 0.215244 0.038270
0.071200 0.218751 0.040798
0.083839 0.220371 0.043680
0.106182 0.216910 0.043403
0.149984 0.205217 0.036915
0.210591 0.201412 0.028241
0.296261 0.204414 0.034919
0.359536 0.196631 0.044093
0.404524 0.190978 0.046534
0.439507 0.188484 0.048423
0.470208 0.188529 0.049091
0.499258 0.189999 0.049177
0.527138 0.192385 0.048791
0.554411 0.195282 0.047551
0.581208 0.198259 0.045439
0.608391 0.201425 0.042507
0.635693 0.204747 0.038689
0.662666 0.207987 0.035067
0.689469 0.211185 0.030976
0.715855 0.214378 0.027107
0.741927 0.217535 0.023238
0.767730 0.220739 0.019567
0.792689 0.224016 0.016461
0.817085 0.227322 0.013578
0.840931 0.230800 0.011262
0.864239 0.234452 0.009265
0.887162 0.238106 0.007713
0.909808 0.241902 0.006382
0.931973 0.245537 0.005052
0.953971 0.249344 0.004287
0.019517 0.231307 0.022376
0.046950 0.236430 0.034254
0.056875 0.240953 0.036816
0.066375 0.245027 0.039823
0.076828 0.248039 0.042184
0.090608 0.249321 0.043889
0.111162 0.246448 0.044142
0.144683 0.236987 0.039791
0.194655 0.222886 0.025826
0.270533 0.229051 0.020774
0.350595 0.228491 0.035535
0.406489 0.221484 0.042678
0.447884 0.217120 0.044872
0.482156 0.215324 0.046336
0.513264 0.215772 0.047726
0.542449 0.217387 0.048510
0.570694 0.219837 0.048294
0.598252 0.222759 0.047749
0.625980 0.226172 0.046134
0.653575 0.229733 0.044184
0.680907 0.233344 0.041747
0.707821 0.237000 0.038689
0.734355 0.240752 0.034796
0.760434 0.244430 0.031444
0.786103 0.248139 0.027896
0.811130 0.251846 0.024446
0.835467 0.255688 0.021341
0.859145 0.259558 0.019024
0.882270 0.263630 0.016708
0.904937 0.267710 0.014391
0.926809 0.271795 0.012371
0.948116 0.275912 0.010276
0.968995 0.280024 0.008724
0.030952 0.261806 0.025999
0.052782 0.266538 0.035831
0.063065 0.270436 0.038320
0.072918 0.274022 0.041349
0.084973 0.276782 0.043076
0.100470 0.277291 0.044005
0.120777 0.274381 0.043519
0.147759 0.266309 0.040104
0.185406 0.253546 0.033934
0.242742 0.246761 0.022992
0.329054 0.256515 0.025924
0.400012 0.253332 0.036003
0.449905 0.247803 0.040698
0.489669 0.244400 0.042981
0.524165 0.243186 0.044919
0.555725 0.243672 0.046336
0.585379 0.245385 0.047726
0.614047 0.247999 0.048163
0.642383 0.251021 0.047749
0.670683 0.254591 0.047068
0.698475 0.258390 0.045416
0.725761 0.262353 0.043722
0.752596 0.266338 0.040979
0.778952 0.270384 0.038394
0.804710 0.274399 0.035313
0.829818 0.278533 0.032209
0.854160 0.282705 0.029522
0.877826 0.287001 0.026787
0.900754 0.291336 0.024470
0.922639 0.295810 0.021440
0.943383 0.300284 0.019370
0.962918 0.304688 0.017028
0.981685 0.309087 0.014687
0.044389 0.291929 0.031149
0.059781 0.296020 0.037433
0.070230 0.299565 0.039872
0.081767 0.302679 0.042160
0.096157 0.304855 0.043912
0.113464 0.304891 0.044738
0.134273 0.301598 0.042935
0.156722 0.294511 0.039446
0.184821 0.282956 0.033416
0.229482 0.270496 0.026614
0.298295 0.275143 0.021933
0.382563 0.283133 0.027231
0.444403 0.279652 0.034204
0.491135 0.275444 0.038862
0.530670 0.272930 0.041183
0.565741 0.272090 0.043472
0.597738 0.272621 0.045642
0.627990 0.274343 0.046781
0.657456 0.276886 0.047464
0.686581 0.280068 0.047880
0.715070 0.283677 0.047596
0.742957 0.287579 0.046823
0.770284 0.291542 0.045416
0.797004 0.295714 0.043490
0.823083 0.299979 0.041465
0.848433 0.304293 0.038862
0.872959 0.308748 0.036521
0.896573 0.313329 0.034180
0.918972 0.317965 0.031839
0.939705 0.322662 0.029202
0.958497 0.327390 0.026861
0.975294 0.332026 0.024495
0.990894 0.336648 0.022178
0.057958 0.321934 0.036102
0.068661 0.325301 0.039059
0.080481 0.328530 0.041400
0.094644 0.330983 0.043634
0.111175 0.332627 0.044646
0.130131 0.331861 0.044120
0.149886 0.328574 0.042207
0.169499 0.322053 0.038517
0.191619 0.311812 0.032652
0.225152 0.299008 0.025653
0.278125 0.293444 0.019271
0.355441 0.305013 0.018408
0.430111 0.310069 0.024421
0.485868 0.307470 0.031395
0.531769 0.304654 0.036521
0.571478 0.302857 0.039651
0.607064 0.302224 0.042677
0.639670 0.302646 0.044554
0.670852 0.304246 0.046069
0.701123 0.306663 0.047464
0.730602 0.309694 0.048141
0.759323 0.313194 0.048010
0.787278 0.316945 0.047792
0.814566 0.321028 0.046823
0.841106 0.325233 0.045415
0.866822 0.329652 0.043675
0.891484 0.334168 0.042202
0.914863 0.338841 0.040372
0.936316 0.343617 0.038369
0.955336 0.348445 0.036496
0.971359 0.353252 0.034155
0.984733 0.358035 0.032258
0.996442 0.362816 0.029941
0.068446 0.351570 0.038739
0.080671 0.354660 0.041375
0.095081 0.357062 0.042889
0.111393 0.358607 0.043936
0.130078 0.359376 0.044234
0.148822 0.358586 0.043588
0.166965 0.355529 0.040842
0.184695 0.349636 0.037137
0.202908 0.340647 0.031543
0.227923 0.328563 0.024323
0.269151 0.318079 0.017102
0.329746 0.321828 0.012691
0.407031 0.334539 0.013800
0.473179 0.338379 0.021316
0.526496 0.336948 0.029079
0.571840 0.334997 0.034525
0.611761 0.333552 0.038098
0.647961 0.333097 0.041182
0.681709 0.333472 0.043819
0.713873 0.334790 0.045664
0.744736 0.336909 0.046759
0.774504 0.339690 0.048141
0.803399 0.342928 0.048294
0.831463 0.346608 0.048294
0.858555 0.350514 0.047989
0.884649 0.354761 0.047288
0.909318 0.359170 0.046267
0.932072 0.363802 0.045117
0.952090 0.368549 0.043674
0.968649 0.373322 0.042201
0.981521 0.378188 0.040347
0.991212 0.383037 0.038812
0.998988 0.387796 0.036472
0.081413 0.380334 0.040630
0.096853 0.382502 0.042137
0.113816 0.383996 0.043217
0.132661 0.384880 0.044005
0.151094 0.385269 0.043611
0.168809 0.384685 0.042633
0.185740 0.382212 0.040087
0.201784 0.376999 0.035584
0.217263 0.368977 0.030335
0.236835 0.358228 0.022770
0.268633 0.347142 0.015549
0.317135 0.343376 0.009167
0.382903 0.353870 0.007910
0.453359 0.364505 0.011188
0.514465 0.367517 0.019419
0.566125 0.366940 0.026762
0.611341 0.365797 0.032603
0.651936 0.364786 0.036545
0.689230 0.364292 0.040433
0.723992 0.364590 0.043076
0.756912 0.365582 0.045235
0.788269 0.367315 0.046759
0.818380 0.369740 0.048141
0.847348 0.372684 0.048488
0.875203 0.376102 0.048985
0.901578 0.379958 0.048985
0.926018 0.384077 0.048661
0.947638 0.388447 0.048226
0.965620 0.393018 0.047550
0.979351 0.397760 0.046222
0.988948 0.402484 0.045116
0.995307 0.407269 0.043674
0.999858 0.412009 0.042559
0.100751 0.407005 0.041759
0.118456 0.408260 0.042492
0.137551 0.409270 0.043264
0.156079 0.410065 0.043264
0.173564 0.410664 0.042890
0.190258 0.410326 0.041495
0.206006 0.408259 0.038936
0.220863 0.403889 0.034821
0.234992 0.397299 0.029178
0.251115 0.388367 0.022401
0.275667 0.378251 0.014638
0.314232 0.371063 0.008181
0.367127 0.374457 0.004731
0.431198 0.385667 0.005742
0.496462 0.393857 0.010497
0.554331 0.396737 0.017866
0.605197 0.397204 0.024840
0.650865 0.396851 0.030286
0.692481 0.396162 0.035338
0.730842 0.395681 0.039207
0.766552 0.395649 0.042326
0.800030 0.396300 0.044986
0.831843 0.397674 0.046624
0.861999 0.399719 0.047442
0.890635 0.402400 0.048812
0.917224 0.405619 0.048985
0.941055 0.409278 0.049669
0.961022 0.413257 0.049327
0.976464 0.417577 0.049327
0.987178 0.422019 0.048917
0.993908 0.426617 0.048247
0.997685 0.431230 0.047593
1.000000 0.435953 0.046530
0.126528 0.433055 0.042516
0.145340 0.433943 0.042516
0.163576 0.434946 0.042516
0.181057 0.435942 0.042516
0.197591 0.436766 0.041854
0.213187 0.436614 0.040338
0.228029 0.435059 0.037778
0.242073 0.431530 0.033884
0.255535 0.425971 0.028388
0.269881 0.418518 0.022179
0.289436 0.409645 0.014638
0.319486 0.401859 0.007393
0.361634 0.399676 0.003745
0.414828 0.406213 0.003253
0.476285 0.416233 0.005742
0.537567 0.423276 0.010448
0.593433 0.426553 0.016683
0.644352 0.427950 0.023288
0.690898 0.428174 0.028734
0.733653 0.427684 0.034180
0.772893 0.427090 0.038418
0.809210 0.426712 0.041968
0.843149 0.427038 0.044279
0.874887 0.428079 0.046046
0.904352 0.429776 0.047442
0.931073 0.432209 0.048119
0.953887 0.435234 0.048985
0.971851 0.438705 0.049455
0.984619 0.442505 0.049669
0.992587 0.446625 0.049669
0.996884 0.450943 0.049669
0.998954 0.455402 0.049966
1.000000 0.459889 0.049306
0.156528 0.459275 0.042843
0.174267 0.460368 0.042843
0.191350 0.461688 0.042516
0.207536 0.462857 0.042516
0.223022 0.463875 0.041759
0.237646 0.464079 0.039674
0.251704 0.463036 0.037359
0.265185 0.460261 0.033293
0.278192 0.455615 0.028191
0.291289 0.449120 0.022179
0.307367 0.441159 0.014638
0.330713 0.433198 0.007910
0.364023 0.428108 0.003105
0.407289 0.429654 0.002021
0.460029 0.437398 0.003253
0.518941 0.446418 0.005742
0.577418 0.452937 0.010054
0.632522 0.456957 0.015870
0.684039 0.459105 0.021735
0.731630 0.459635 0.027945
0.775136 0.459175 0.032923
0.814943 0.458400 0.037630
0.851565 0.457859 0.041229
0.885249 0.457885 0.043564
0.915852 0.458605 0.045327
0.942583 0.460039 0.046736
0.964261 0.462246 0.047420
0.980042 0.465000 0.048683
0.990288 0.468280 0.048985
0.995854 0.471940 0.049434
0.998546 0.475836 0.049669
0.999604 0.479954 0.049669
1.000000 0.484095 0.049669
0.187852 0.486431 0.043565
0.204296 0.487933 0.043565
0.220071 0.489416 0.043264
0.235177 0.490920 0.042516
0.249595 0.492063 0.041759
0.263427 0.492580 0.039674
0.276824 0.491954 0.037359
0.289761 0.489711 0.032849
0.301995 0.485694 0.028192
0.314026 0.479856 0.022179
0.327670 0.472626 0.015180
0.346237 0.464671 0.008181
0.372267 0.458307 0.003745
0.406823 0.456161 0.001577
0.450670 0.460156 0.001577
0.502911 0.468127 0.002563
0.559840 0.476560 0.005668
0.616929 0.483241 0.009611
0.672193 0.487973 0.014761
0.724402 0.490541 0.020503
0.772600 0.491264 0.026393
0.816507 0.490791 0.031864
0.856426 0.489840 0.036521
0.892554 0.489088 0.040020
0.924475 0.488818 0.042722
0.951304 0.489318 0.044301
0.971916 0.490533 0.045731
0.985794 0.492490 0.046603
0.993873 0.495005 0.047398
0.997773 0.498043 0.048010
0.999341 0.501421 0.048464
0.999838 0.504993 0.048726
1.000000 0.508729 0.049669
0.219492 0.514526 0.045010
0.234548 0.516255 0.044303
0.249137 0.517971 0.044280
0.263298 0.519662 0.043542
0.276842 0.520974 0.042137
0.289927 0.521697 0.040338
0.302539 0.521272 0.037359
0.314641 0.519368 0.033145
0.326132 0.515762 0.028192
0.337308 0.510494 0.022179
0.349278 0.503752 0.015180
0.364342 0.496190 0.008970
0.384752 0.489171 0.003745
0.411957 0.484797 0.001898
0.447462 0.485132 0.000789
0.491963 0.490504 0.001282
0.543818 0.498607 0.002563
0.599684 0.506907 0.004953
0.656548 0.514051 0.008822
0.712271 0.519168 0.013505
0.764888 0.521942 0.019418
0.813266 0.522727 0.024865
0.857060 0.522195 0.030311
0.896034 0.521180 0.035042
0.929765 0.520228 0.038936
0.956987 0.519802 0.041351
0.976892 0.520084 0.043587
0.989400 0.521045 0.044463
0.995961 0.522778 0.045731
0.998773 0.524982 0.046356
0.999686 0.527722 0.046848
0.999948 0.530690 0.047332
1.000000 0.533796 0.047768
0.250817 0.543077 0.046425
0.264556 0.544921 0.045732
0.278143 0.546843 0.045279
0.291334 0.548607 0.044326
0.304076 0.550126 0.042959
0.316446 0.550968 0.041114
0.328331 0.550702 0.037778
0.339579 0.549029 0.033638
0.350277 0.545798 0.028191
0.360591 0.540959 0.022179
0.371220 0.534638 0.015180
0.383670 0.527374 0.008970
0.399871 0.520133 0.004312
0.421367 0.514412 0.001898
0.449911 0.512039 0.000789
0.486635 0.514257 0.000789
0.531738 0.520426 0.000912
0.583453 0.528769 0.002465
0.639128 0.537372 0.004608
0.696340 0.544926 0.008034
0.752302 0.550225 0.012420
0.805011 0.553140 0.017866
0.853003 0.553909 0.023312
0.895417 0.553323 0.028758
0.931443 0.552172 0.034007
0.959769 0.551168 0.037384
0.979489 0.550585 0.039823
0.991313 0.550723 0.042112
0.997051 0.551489 0.042841
0.999227 0.552853 0.043936
0.999839 0.554725 0.044278
1.000000 0.556948 0.044985
1.000000 0.559336 0.045685
0.281468 0.571780 0.048030
0.294224 0.573810 0.047814
0.306900 0.575899 0.047112
0.319201 0.577781 0.045755
0.331070 0.579295 0.044326
0.342611 0.580226 0.041877
0.353714 0.580092 0.038542
0.364215 0.578589 0.033884
0.374190 0.575617 0.028389
0.383690 0.571174 0.022179
0.393153 0.565237 0.015180
0.403705 0.558314 0.009487
0.416823 0.550971 0.004534
0.434012 0.544473 0.001898
0.456810 0.540218 0.000789
0.486708 0.539562 0.000000
0.524572 0.542998 0.000148
0.570197 0.549882 0.000912
0.622277 0.558653 0.001774
0.678476 0.567684 0.004091
0.736031 0.575403 0.006999
0.792005 0.580820 0.011139
0.844039 0.583697 0.016313
0.890359 0.584452 0.021760
0.929337 0.583887 0.027206
0.959477 0.582727 0.031864
0.980063 0.581636 0.035831
0.991915 0.580997 0.038270
0.997396 0.580938 0.040456
0.999381 0.581519 0.041798
0.999874 0.582494 0.042040
1.000000 0.583884 0.042817
1.000000 0.585407 0.042794
0.311371 0.600513 0.049860
0.323215 0.602683 0.049199
0.334921 0.604815 0.048488
0.346384 0.606818 0.047156
0.357478 0.608409 0.045755
0.368190 0.609309 0.042959
0.378572 0.609295 0.039303
0.388432 0.607987 0.034648
0.397696 0.605247 0.028610
0.406470 0.601046 0.022179
0.415048 0.595470 0.015426
0.424207 0.588838 0.009487
0.435080 0.581586 0.004830
0.449021 0.574651 0.001898
0.467265 0.569061 0.000789
0.491378 0.566126 0.000000
0.522461 0.566771 0.000000
0.561438 0.571274 0.000148
0.608002 0.578840 0.000789
0.660990 0.588204 0.001676
0.717769 0.597487 0.003302
0.775375 0.605333 0.006186
0.830628 0.610677 0.010103
0.880781 0.613555 0.014761
0.923381 0.614310 0.020207
0.956262 0.613779 0.025604
0.978634 0.612667 0.030311
0.991379 0.611607 0.034056
0.997266 0.610908 0.036496
0.999359 0.610732 0.038838
0.999874 0.610911 0.039256
1.000000 0.611415 0.039798
1.000000 0.612149 0.040775
0.340470 0.629160 0.051851
0.351321 0.631464 0.051187
0.362183 0.633692 0.050049
0.372851 0.635689 0.048532
0.383165 0.637337 0.047156
0.393218 0.638310 0.044416
0.402829 0.638343 0.040506
0.412152 0.637173 0.035412
0.420855 0.634604 0.029178
0.429072 0.630609 0.022401
0.436921 0.625282 0.015426
0.445039 0.618907 0.009487
0.454276 0.611885 0.004830
0.465641 0.604679 0.001898
0.480407 0.598274 0.000789
0.499760 0.593607 0.000000
0.525079 0.591800 0.000000
0.557533 0.593620 0.000000
0.597863 0.599136 0.000000
0.645741 0.607460 0.000789
0.699644 0.617284 0.001479
0.756716 0.626754 0.003031
0.813685 0.634439 0.005421
0.867085 0.639717 0.008748
0.913569 0.642531 0.013209
0.950041 0.643325 0.018458
0.975215 0.642897 0.023312
0.989855 0.641967 0.027847
0.996706 0.640987 0.031740
0.999218 0.640212 0.033663
0.999861 0.639771 0.035929
1.000000 0.639547 0.037457
1.000000 0.639507 0.038246
0.368384 0.657606 0.053792
0.378506 0.659958 0.052653
0.388509 0.662255 0.051872
0.398457 0.664311 0.050558
0.408047 0.665920 0.048532
0.417467 0.666997 0.045843
0.426567 0.667050 0.041587
0.435373 0.665960 0.036348
0.443667 0.663450 0.029966
0.451465 0.659639 0.022967
0.458791 0.654564 0.015969
0.466103 0.648425 0.009487
0.474091 0.641583 0.004830
0.483546 0.634347 0.001898
0.495582 0.627496 0.000789
0.511224 0.621666 0.000000
0.531732 0.617934 0.000000
0.558382 0.617233 0.000000
0.592441 0.620184 0.000000
0.634356 0.626624 0.000000
0.683522 0.635617 0.000616
0.737990 0.645676 0.000888
0.794787 0.655084 0.002440
0.850212 0.662697 0.004657
0.900075 0.667798 0.007763
0.940715 0.670592 0.011656
0.969600 0.671527 0.016141
0.987030 0.671348 0.020799
0.995593 0.670613 0.025456
0.998876 0.669719 0.028635
0.999812 0.668863 0.031864
1.000000 0.668068 0.033589
1.000000 0.667424 0.036102
0.395272 0.685766 0.055803
0.404613 0.688154 0.054554
0.413978 0.690459 0.053812
0.423198 0.692538 0.052056
0.432224 0.694163 0.050091
0.441085 0.695213 0.047243
0.449777 0.695305 0.043073
0.458174 0.694240 0.037581
0.466158 0.691875 0.030754
0.473647 0.688154 0.023337
0.480605 0.683189 0.015969
0.487300 0.677251 0.009759
0.494312 0.670599 0.004830
0.502365 0.663457 0.001898
0.512308 0.656435 0.000789
0.525061 0.649942 0.000000
0.541680 0.644797 0.000000
0.563458 0.641956 0.000000
0.591761 0.642337 0.000000
0.627576 0.646364 0.000000
0.671116 0.653721 0.000000
0.721249 0.663186 0.000123
0.775889 0.673355 0.000888
0.831507 0.682606 0.001651
0.883870 0.689980 0.003844
