bundles/resolve-cinematic-luts/Gamut/Orion/Orion Warm +CRUSH.cube
TITLE "Orion Warm +CRUSH by Gamut"
# Contributor - JVKE. Version 1.0 - 09/28/2023 - Designed for Rec.709 Color Space. Copyright 2023 Gamut, LLC
LUT_3D_SIZE 9
0.059267 0.068934 0.059868
0.088609 0.070467 0.061056
0.178888 0.058046 0.034500
0.308519 0.036373 0.000591
0.413888 0.019320 0.000000
0.516801 0.005717 0.000000
0.620748 0.000000 0.000000
0.704901 0.000000 0.000000
0.794498 0.000000 0.000000
0.054611 0.097769 0.054611
0.088552 0.096205 0.059793
0.222250 0.080646 0.042312
0.358578 0.079843 0.011927
0.474366 0.083460 0.000690
0.583327 0.076432 0.000000
0.686211 0.071478 0.000000
0.783681 0.074340 0.000000
0.875746 0.080934 0.000000
0.019912 0.169790 0.022671
0.067345 0.188078 0.040020
0.239898 0.180125 0.032331
0.426926 0.162368 0.050431
0.537020 0.171083 0.043256
0.644267 0.181671 0.026319
0.749801 0.191783 0.011237
0.846973 0.203785 0.004041
0.938124 0.217129 0.001380
0.044389 0.291929 0.031149
0.096157 0.304855 0.043912
0.184821 0.282956 0.033416
0.444403 0.279652 0.034204
0.597738 0.272621 0.045642
0.715070 0.283677 0.047596
0.823083 0.299979 0.041465
0.918972 0.317965 0.031839
0.990894 0.336648 0.022178
0.100751 0.407005 0.041759
0.173564 0.410664 0.042890
0.234992 0.397299 0.029178
0.367127 0.374457 0.004731
0.605197 0.397204 0.024840
0.766552 0.395649 0.042326
0.890635 0.402400 0.048812
0.976464 0.417577 0.049327
1.000000 0.435953 0.046530
0.219492 0.514526 0.045010
0.276842 0.520974 0.042137
0.326132 0.515762 0.028192
0.384752 0.489171 0.003745
0.543818 0.498607 0.002563
0.764888 0.521942 0.019418
0.929765 0.520228 0.038936
0.995961 0.522778 0.045731
1.000000 0.533796 0.047768
0.340470 0.629160 0.051851
0.383165 0.637337 0.047156
0.420855 0.634604 0.029178
0.454276 0.611885 0.004830
0.525079 0.591800 0.000000
0.699644 0.617284 0.001479
0.913569 0.642531 0.013209
0.996706 0.640987 0.031740
1.000000 0.639507 0.038246
0.445939 0.740869 0.060017
0.478757 0.749183 0.053892
0.509935 0.746688 0.032627
0.535200 0.726140 0.004830
0.568623 0.698816 0.000000
0.659748 0.691726 0.000000
0.848584 0.726242 0.000690
0.986463 0.750176 0.006210
1.000000 0.751631 0.022376
0.538422 0.845800 0.067305
0.565331 0.853188 0.060017
0.592362 0.849379 0.035880
0.614889 0.829036 0.004830
0.634823 0.802886 0.000000
0.678329 0.778042 0.000000
0.793439 0.785508 0.000000
0.956320 0.822668 0.000000
1.000000 0.850336 0.000000
0.052510 0.069936 0.090233
0.092787 0.067441 0.092787
0.198050 0.047223 0.060002
0.325751 0.013505 0.018827
0.423389 0.000493 0.000000
0.521840 0.000000 0.000000
0.622759 0.000000 0.000000
0.719291 0.000000 0.000000
0.810412 0.000000 0.000000
0.048635 0.097717 0.087016
0.088170 0.100288 0.086123
0.196000 0.092773 0.073124
0.345468 0.084758 0.053107
0.463789 0.080905 0.038241
0.579146 0.077169 0.021587
0.690848 0.075791 0.009167
0.790261 0.079137 0.003647
0.883442 0.085752 0.002169
0.022376 0.179007 0.069776
0.093525 0.203966 0.082015
0.237011 0.200104 0.075788
0.411573 0.188992 0.082286
0.520143 0.196581 0.068639
0.631429 0.203464 0.054183
0.741109 0.210310 0.040674
0.841107 0.220117 0.030656
0.934570 0.232157 0.023066
0.016955 0.308543 0.057160
0.159870 0.321492 0.089942
0.236307 0.308720 0.076897
0.440198 0.301313 0.071831
0.582552 0.296358 0.082573
0.697905 0.309667 0.080981
0.806287 0.326160 0.071218
0.904014 0.342814 0.060641
0.985103 0.359765 0.051055
0.102166 0.428055 0.074886
0.239493 0.427607 0.092930
0.288072 0.417065 0.076765
0.378295 0.388695 0.040571
0.594479 0.411038 0.058264
0.750843 0.414436 0.082682
0.873161 0.425185 0.090756
0.965003 0.442502 0.089991
0.999792 0.461736 0.084885
0.262790 0.526640 0.091398
0.322596 0.532256 0.095053
0.360868 0.527346 0.078717
0.404051 0.499613 0.040080
0.540629 0.505812 0.016461
0.753531 0.533238 0.045182
0.916386 0.536426 0.079434
0.992530 0.542574 0.092768
1.000000 0.556331 0.100169
0.376486 0.634075 0.102794
0.414328 0.643324 0.101929
0.443539 0.643976 0.084808
0.471857 0.622749 0.046137
0.532049 0.599825 0.011631
0.692567 0.623147 0.006112
0.904150 0.652451 0.033908
0.995465 0.654568 0.069300
1.000000 0.656004 0.084458
0.475039 0.743798 0.116468
0.502343 0.754285 0.112706
0.525854 0.756324 0.093455
0.547873 0.738257 0.052382
0.580105 0.708648 0.015180
0.660181 0.697269 0.001183
0.839667 0.731220 0.002267
0.983571 0.758584 0.018532
1.000000 0.762665 0.053532
0.562209 0.848234 0.130155
0.584182 0.857977 0.123442
0.603465 0.859322 0.101306
0.621850 0.842391 0.057386
0.644907 0.814082 0.018335
0.684298 0.785150 0.001972
0.787683 0.788507 0.000000
0.948929 0.826441 0.000000
0.999920 0.857361 0.000789
0.035486 0.068394 0.183806
0.075970 0.064166 0.196022
0.218571 0.036077 0.159785
0.354979 0.010941 0.075505
0.450132 0.000000 0.029966
0.545265 0.000000 0.001676
0.642066 0.000000 0.000000
0.732582 0.000000 0.000000
0.826291 0.000000 0.000000
0.026121 0.098916 0.158908
0.068457 0.102128 0.165793
0.217150 0.088147 0.161265
0.370964 0.080271 0.107780
0.484933 0.070747 0.077634
0.596516 0.061964 0.054585
0.709686 0.067843 0.046222
0.808747 0.073461 0.037950
0.901667 0.081635 0.032430
0.011631 0.179830 0.153195
0.064853 0.205837 0.181979
0.230654 0.217700 0.166655
0.391481 0.214919 0.144882
0.510506 0.215585 0.121087
0.628751 0.217055 0.101338
0.742384 0.220983 0.086500
0.844668 0.229219 0.077024
0.939724 0.240585 0.070117
0.034007 0.314145 0.192947
0.103410 0.343143 0.215742
0.284343 0.336637 0.193037
0.433911 0.330745 0.153768
0.562163 0.329853 0.165620
0.676303 0.339667 0.148876
0.787456 0.352315 0.129102
0.888415 0.366189 0.113530
0.978437 0.380949 0.102082
0.057095 0.452841 0.191003
0.151594 0.467230 0.194219
0.323789 0.449243 0.190308
0.417814 0.423251 0.119360
0.584948 0.434156 0.131554
0.728804 0.438965 0.168474
0.847495 0.452630 0.176687
0.945450 0.471314 0.170309
0.999013 0.490398 0.158618
0.138998 0.577052 0.174813
0.269820 0.571609 0.189873
0.382823 0.554555 0.184198
0.444446 0.522533 0.123953
0.543677 0.519307 0.069504
0.737013 0.547074 0.104501
0.893771 0.554902 0.164274
0.983510 0.565735 0.190049
1.000000 0.582313 0.202340
0.311663 0.671244 0.187332
0.392850 0.667121 0.196671
0.460885 0.656627 0.185309
0.502803 0.635342 0.132555
0.545999 0.611915 0.067488
0.683736 0.630255 0.030656
0.888377 0.663502 0.079876
0.991860 0.669559 0.147070
1.000000 0.674136 0.179591
0.456242 0.761715 0.209200
0.504770 0.762716 0.213493
0.545119 0.759495 0.197019
0.571953 0.747147 0.144165
0.598486 0.722887 0.082430
0.662283 0.705563 0.026220
0.827198 0.736384 0.009955
0.978617 0.768269 0.050972
1.000000 0.775317 0.121175
0.568125 0.853195 0.233604
0.599387 0.858285 0.232827
0.624240 0.859036 0.211310
0.640424 0.850373 0.155505
0.660564 0.829251 0.094255
0.693241 0.797450 0.037247
0.781466 0.792339 0.004337
0.939145 0.829963 0.000000
0.999866 0.865757 0.006505
0.014589 0.063596 0.303957
0.057036 0.059567 0.315379
0.188115 0.032430 0.303862
0.375498 0.000000 0.239469
0.485183 0.000000 0.166245
0.583213 0.000000 0.102190
0.682544 0.000000 0.054197
0.774349 0.000000 0.025431
0.859964 0.000000 0.009660
0.005914 0.096607 0.272767
0.052001 0.100465 0.287777
0.191838 0.089720 0.308414
0.404123 0.072135 0.270383
0.522489 0.069420 0.219071
0.632609 0.061149 0.173892
0.738673 0.053032 0.135876
0.834301 0.049177 0.108530
0.923780 0.048490 0.089454
0.000000 0.184459 0.254267
0.033613 0.213009 0.275033
0.175430 0.231131 0.297880
0.406967 0.214215 0.280272
0.531172 0.211729 0.244809
0.649862 0.208413 0.214487
0.762991 0.208158 0.188572
0.865123 0.214328 0.171875
0.959648 0.225153 0.161516
0.000000 0.313468 0.286898
0.047039 0.341545 0.315399
0.192016 0.358030 0.332178
0.421270 0.355629 0.292329
0.549043 0.353980 0.272614
0.667515 0.357819 0.252060
0.781243 0.365170 0.231350
0.884492 0.376175 0.216676
0.979006 0.389348 0.206900
0.032825 0.452454 0.342234
0.106203 0.478665 0.369285
0.257207 0.483764 0.368572
0.461341 0.465111 0.292913
0.583278 0.467197 0.265002
0.710380 0.470359 0.286728
0.824105 0.482226 0.281975
0.925107 0.498415 0.270190
0.997763 0.514650 0.258854
0.113445 0.603026 0.365883
0.202016 0.614663 0.369074
0.325875 0.605603 0.349933
0.484721 0.566302 0.291667
0.573230 0.553356 0.202403
0.726086 0.571048 0.223200
0.868427 0.577761 0.286758
0.968016 0.592418 0.308230
1.000000 0.611555 0.313797
0.210306 0.730810 0.348677
0.291262 0.731612 0.347270
0.394121 0.711805 0.329634
0.524983 0.664511 0.282538
0.581523 0.632631 0.195451
0.681608 0.644706 0.122026
0.867709 0.677097 0.177630
0.983690 0.684491 0.267795
1.000000 0.693072 0.306245
0.323889 0.834104 0.333513
0.392851 0.828280 0.334610
0.478637 0.803499 0.322119
0.584536 0.759420 0.281628
0.631798 0.733369 0.211376
0.672689 0.717495 0.119833
0.812147 0.745068 0.059745
0.970265 0.780443 0.128131
1.000000 0.787184 0.238119
0.447017 0.918432 0.335226
0.504745 0.910830 0.339694
0.574979 0.888388 0.330576
0.653656 0.853751 0.291275
0.690163 0.835048 0.227144
0.712087 0.811446 0.144898
0.776002 0.799630 0.052093
0.924616 0.836808 0.008773
0.999725 0.880947 0.055002
0.000000 0.058660 0.432751
0.034007 0.054053 0.442458
0.139703 0.033120 0.443854
0.356802 0.000000 0.400527
0.499437 0.000000 0.353716
0.620576 0.000000 0.296566
0.727135 0.000000 0.239110
0.820138 0.000000 0.198331
0.906424 0.000000 0.170125
0.000000 0.093097 0.400849
0.030754 0.099024 0.418747
0.151619 0.098068 0.446599
0.395986 0.069299 0.436052
0.550942 0.058691 0.405933
0.675573 0.058901 0.360859
0.782651 0.054937 0.314220
0.878277 0.052756 0.282481
0.966048 0.052097 0.260561
0.000000 0.191659 0.374102
0.020503 0.220438 0.399124
0.142318 0.238779 0.431748
0.405858 0.210004 0.445993
0.564242 0.202750 0.420015
0.686104 0.206021 0.381951
0.798738 0.206587 0.349333
0.900185 0.209051 0.327519
0.988821 0.214093 0.312555
0.000000 0.316600 0.386692
0.001774 0.345550 0.407477
0.094829 0.373821 0.426059
0.400918 0.362813 0.434474
0.556887 0.358696 0.415524
0.684113 0.358880 0.389904
0.800053 0.362825 0.365060
0.904036 0.369853 0.348593
0.993968 0.380014 0.338777
0.000789 0.449340 0.425279
0.022770 0.477233 0.452781
0.149406 0.498625 0.474256
0.406931 0.495913 0.456148
0.576657 0.496320 0.424034
0.702046 0.495350 0.409452
0.817041 0.502029 0.393019
0.919451 0.512728 0.379972
0.999088 0.525253 0.371672
0.038833 0.600579 0.489956
0.105195 0.625122 0.514682
0.237685 0.634893 0.522194
0.452560 0.622574 0.495144
0.610187 0.604091 0.412071
0.729070 0.608839 0.385268
0.852473 0.611365 0.414105
0.952394 0.623819 0.418068
1.000000 0.640900 0.414470
0.163085 0.749329 0.535372
0.236781 0.763290 0.545848
0.336983 0.762412 0.534240
0.491968 0.728332 0.478841
0.627385 0.682669 0.396892
0.710717 0.680949 0.300963
0.857295 0.701338 0.323848
0.972288 0.705323 0.397780
1.000000 0.717494 0.427579
0.283594 0.876085 0.534745
0.339333 0.882283 0.534735
0.407907 0.871860 0.511803
0.532464 0.820566 0.450954
0.654010 0.764414 0.384476
0.705899 0.738448 0.285940
0.808806 0.761227 0.198875
0.959482 0.794077 0.257191
1.000000 0.798629 0.369622
0.363051 0.984545 0.514135
0.407801 0.984257 0.510638
0.466292 0.966976 0.486614
0.583504 0.905213 0.432217
0.697850 0.847955 0.379439
0.744217 0.820426 0.302595
0.783280 0.809809 0.189552
0.908499 0.848329 0.095952
0.999463 0.897792 0.187034
0.000000 0.052756 0.573791
0.005421 0.048119 0.583881
0.085647 0.035387 0.591317
0.315430 0.000000 0.563267
0.483183 0.000000 0.529431
0.630675 0.000000 0.499304
0.762539 0.000000 0.464153
0.870351 0.000000 0.429948
0.962651 0.000000 0.400264
0.000000 0.090437 0.541903
0.004140 0.099745 0.562831
0.108251 0.109305 0.597948
0.361022 0.076314 0.602894
0.540938 0.057160 0.585775
0.694161 0.049023 0.561095
0.824536 0.052114 0.527735
0.929442 0.057132 0.496920
0.996092 0.060146 0.472293
0.000000 0.198937 0.512692
0.001774 0.227194 0.542593
0.104910 0.247547 0.580768
0.366468 0.221596 0.604279
0.560489 0.200320 0.602392
0.716558 0.194142 0.580845
0.843590 0.199786 0.549069
0.945485 0.208789 0.522094
0.999745 0.217712 0.502732
0.000000 0.327420 0.510275
0.000690 0.357343 0.533260
0.073853 0.383508 0.559778
0.343634 0.377898 0.584982
0.556086 0.356435 0.594367
0.711754 0.352260 0.575281
0.837199 0.358523 0.546188
0.940203 0.367954 0.523024
0.999896 0.377790 0.507850
0.000000 0.449762 0.525047
0.000789 0.477340 0.547840
0.037782 0.505232 0.569008
0.306718 0.520007 0.581881
0.555241 0.504449 0.586203
0.707322 0.501696 0.569063
0.832325 0.505785 0.544486
0.937364 0.512937 0.525108
1.000000 0.521970 0.513288
0.001577 0.591638 0.574094
0.012716 0.619564 0.600939
0.098439 0.644168 0.624767
0.342268 0.651106 0.626652
0.567350 0.645987 0.599917
0.722297 0.646058 0.570901
0.844889 0.642103 0.554229
0.948094 0.648472 0.540499
1.000000 0.658650 0.530776
0.036964 0.743798 0.644609
0.080838 0.768079 0.669577
0.193381 0.782955 0.685555
0.406250 0.775257 0.674395
0.596634 0.760369 0.639857
0.744198 0.739997 0.558279
0.862558 0.745108 0.518241
0.965829 0.744730 0.544128
1.000000 0.754375 0.552658
0.155283 0.887819 0.708520
0.219111 0.902673 0.722971
0.318207 0.905923 0.722737
0.475312 0.885246 0.687463
0.627361 0.845561 0.617558
0.751216 0.799774 0.526010
0.842868 0.805364 0.427858
0.959744 0.823443 0.437478
1.000000 0.821426 0.514378
0.309885 0.998832 0.737807
0.360934 0.999661 0.742757
0.426641 0.997699 0.728784
0.533388 0.977146 0.669778
0.654553 0.924632 0.589225
0.762093 0.864218 0.504420
0.821705 0.839368 0.398400
0.916699 0.871752 0.298646
0.999195 0.912928 0.356748
0.000000 0.047596 0.708970
0.000000 0.044097 0.719055
0.047774 0.035091 0.728522
0.265526 0.000296 0.714345
0.454302 0.000000 0.690731
0.617166 0.000000 0.669088
0.765095 0.000000 0.649009
0.890889 0.000000 0.629765
0.994986 0.000000 0.613068
0.000000 0.090371 0.677925
0.000000 0.103353 0.701848
0.075325 0.117543 0.739427
0.319405 0.087865 0.755758
0.513036 0.064036 0.748981
0.682595 0.050204 0.732732
0.832338 0.046496 0.714860
0.951974 0.051971 0.697089
0.999873 0.061294 0.681782
0.000000 0.205605 0.651747
0.000000 0.233570 0.683110
0.073366 0.254534 0.722718
0.321686 0.238368 0.751421
0.528852 0.210776 0.761827
0.708636 0.194547 0.756207
0.862496 0.190661 0.741674
0.972743 0.198381 0.723633
1.000000 0.212540 0.706329
0.000000 0.337559 0.639742
0.000000 0.367076 0.666724
0.053608 0.391086 0.699339
0.299741 0.390626 0.731282
0.522653 0.368075 0.750036
0.708846 0.351892 0.752879
0.864402 0.349162 0.739271
0.971980 0.358209 0.719462
1.000000 0.372579 0.701295
0.000000 0.460200 0.642163
0.000000 0.488213 0.664398
0.019714 0.515348 0.687356
0.244394 0.534168 0.715952
0.504115 0.521636 0.732462
0.702882 0.502897 0.742802
0.856888 0.499764 0.729202
0.964255 0.508045 0.707909
1.000000 0.519912 0.690404
0.000000 0.586358 0.663674
0.000099 0.613696 0.686846
0.017447 0.642156 0.709671
0.203986 0.670309 0.731740
0.479524 0.671172 0.728800
0.695702 0.656162 0.729493
0.847526 0.650188 0.716965
0.956267 0.653788 0.697414
1.000000 0.661333 0.680721
0.000789 0.728607 0.718585
0.004436 0.755135 0.743510
0.052457 0.781483 0.768226
0.266901 0.796861 0.782277
0.513258 0.792478 0.767564
0.710735 0.783303 0.735255
0.854706 0.783722 0.712389
0.960350 0.779583 0.696574
1.000000 0.784846 0.685123
0.015476 0.874063 0.788259
0.037556 0.896952 0.811656
0.120193 0.915223 0.831321
0.343772 0.915223 0.835094
0.551194 0.901380 0.813274
0.711054 0.888420 0.781516
0.869618 0.867199 0.703904
0.969183 0.872358 0.656060
1.000000 0.868118 0.677545
0.083285 0.998106 0.861662
0.135206 0.999946 0.879411
0.239324 1.000000 0.887979
0.426872 0.999161 0.877054
0.597180 0.990787 0.842075
0.739062 0.959151 0.763443
0.865359 0.911264 0.667698
0.955947 0.926494 0.571338
0.999826 0.951111 0.565117
0.000000 0.044005 0.835533
0.000000 0.041663 0.846412
0.022770 0.034106 0.857229
0.217088 0.003549 0.855314
0.421114 0.000000 0.840414
0.595293 0.000000 0.823378
0.752963 0.000000 0.807236
0.888741 0.000000 0.796997
0.997413 0.000000 0.789315
0.000000 0.092694 0.805225
0.000000 0.109274 0.832067
0.050257 0.124961 0.870720
0.276686 0.109215 0.897473
0.480648 0.074666 0.897927
0.660299 0.056827 0.887041
0.821406 0.049191 0.874392
0.950981 0.050715 0.866334
1.000000 0.056220 0.860570
0.000000 0.212964 0.781502
0.000000 0.240657 0.814256
0.047495 0.261352 0.854227
0.277632 0.255475 0.888312
0.493878 0.225028 0.904092
0.683389 0.203965 0.906728
0.853334 0.193280 0.901983
0.974843 0.193804 0.896321
1.000000 0.202359 0.889326
0.000000 0.346656 0.764709
0.000000 0.375753 0.794781
0.032923 0.398553 0.830712
0.259097 0.403276 0.867850
0.486737 0.383053 0.889030
0.682084 0.361946 0.901489
0.857429 0.351098 0.901708
0.977994 0.351810 0.895691
1.000000 0.360915 0.886323
0.000000 0.471985 0.760319
0.000000 0.500264 0.784991
0.015574 0.526239 0.812285
0.213569 0.544999 0.847698
0.464931 0.535686 0.868848
0.672260 0.514149 0.887300
0.852791 0.500393 0.893120
0.976077 0.499848 0.885382
1.000000 0.508540 0.872289
0.000000 0.592915 0.764652
0.000000 0.619780 0.786347
0.004633 0.647254 0.808081
0.129520 0.681571 0.839869
0.411923 0.687858 0.854898
0.649507 0.670410 0.865947
0.841002 0.650250 0.877148
0.968508 0.647310 0.867695
1.000000 0.655022 0.851574
0.000000 0.717354 0.794170
0.000000 0.742728 0.815962
0.004830 0.769544 0.837770
0.104992 0.804962 0.866070
0.387721 0.817766 0.871955
0.625535 0.809495 0.858434
0.825266 0.793891 0.856861
0.965039 0.786635 0.849462
1.000000 0.793311 0.835094
0.000000 0.854235 0.851158
0.000690 0.877861 0.873244
0.019222 0.902020 0.896170
0.182374 0.924893 0.918444
0.450634 0.925403 0.913764
0.654994 0.916802 0.890363
0.835851 0.907567 0.857693
0.968424 0.908021 0.838750
1.000000 0.909289 0.826045
0.001478 0.989493 0.917075
0.005717 0.998778 0.938156
0.046991 0.999946 0.958864
0.264176 1.000000 0.968061
0.501171 0.999916 0.957857
0.674152 0.998644 0.932209
0.825090 0.996924 0.900811
0.968652 0.975003 0.842522
1.000000 0.994841 0.785003
0.000000 0.042516 0.949545
0.000000 0.040217 0.961926
0.002957 0.035683 0.976361
0.175336 0.018334 0.985537
0.390601 0.000000 0.974969
0.571548 0.000000 0.963658
0.736899 0.000000 0.950155
0.878809 0.000000 0.942735
0.996720 0.000000 0.941482
0.000000 0.096965 0.920103
0.000000 0.117276 0.950477
0.027107 0.133082 0.989813
0.236395 0.128508 0.999993
0.451322 0.087884 0.999853
0.635841 0.066126 0.999061
0.804778 0.055419 0.996746
0.942579 0.054486 0.994634
0.999936 0.057012 0.994182
0.000000 0.220888 0.899337
0.000000 0.248589 0.933209
0.026023 0.269204 0.973774
0.237470 0.270904 0.999423
0.461185 0.242402 1.000000
0.655462 0.216320 1.000000
0.834267 0.201818 1.000000
0.967652 0.198436 1.000000
1.000000 0.202148 0.999946
0.000000 0.355316 0.879979
0.000000 0.384080 0.912463
0.017152 0.406346 0.950713
0.221125 0.415422 0.990612
0.453414 0.398651 0.999346
0.652878 0.374857 1.000000
0.836075 0.359965 1.000000
0.971047 0.355735 1.000000
1.000000 0.359222 0.999866
0.000000 0.482568 0.870753
0.000000 0.510830 0.898387
0.011040 0.536007 0.929900
0.184113 0.555247 0.970620
0.434033 0.548598 0.991731
0.640959 0.527664 0.998966
0.828792 0.509372 0.999987
0.968416 0.502532 1.000000
1.000000 0.503843 0.999705
0.000000 0.605621 0.871313
0.000000 0.632674 0.893730
0.003844 0.659168 0.916667
0.112640 0.691531 0.952793
0.381158 0.699230 0.975538
0.610165 0.683655 0.988070
0.812230 0.660367 0.997538
0.960409 0.648024 0.999812
0.999980 0.646668 0.999070
0.000000 0.716705 0.875888
0.000000 0.741309 0.896195
0.000000 0.766702 0.915220
0.034881 0.806284 0.946473
0.271929 0.835912 0.971917
0.558624 0.827047 0.972729
0.785077 0.806633 0.979698
0.950402 0.787185 0.992524
0.999866 0.783074 0.989503
0.000000 0.836345 0.912896
0.000000 0.859145 0.932489
0.000000 0.882699 0.951380
0.028980 0.918482 0.977250
0.274675 0.945655 0.992974
0.555983 0.940725 0.985024
0.759744 0.932356 0.968814
0.934419 0.919141 0.964398
1.000000 0.910763 0.962318
0.000000 0.964925 0.967649
0.000000 0.985616 0.987020
0.001972 0.997447 0.999819
0.090747 0.999467 1.000000
0.385212 1.000000 1.000000
0.614723 1.000000 1.000000
0.795617 1.000000 0.992923
0.948109 1.000000 0.963521
1.000000 1.000000 0.954014
