bundles/resolve-cinematic-luts/Gamut/Orion/Orion Cool.cube
TITLE "Orion Cool by Gamut"
# Contributor - JVKE. Version 1.0 - 09/28/2023 - Designed for Rec.709 Color Space. Copyright 2023 Gamut, LLC
LUT_3D_SIZE 5
0.002366 0.012617 0.023657
0.175551 0.015377 0.000000
0.399007 0.014194 0.000000
0.621559 0.000000 0.000000
0.824978 0.000000 0.000000
0.000000 0.195232 0.025431
0.226225 0.187170 0.007491
0.484207 0.188198 0.015968
0.714707 0.209363 0.000000
0.924431 0.229953 0.000000
0.145295 0.414056 0.034303
0.243430 0.401746 0.000197
0.527497 0.400186 0.002366
0.845345 0.407743 0.021489
0.999906 0.439581 0.012223
0.315973 0.628905 0.045820
0.385219 0.631996 0.005323
0.482370 0.590216 0.000000
0.861403 0.636073 0.000000
1.000000 0.632609 0.002169
0.479919 0.837478 0.081010
0.529652 0.840692 0.022672
0.592000 0.797684 0.000000
0.772157 0.775419 0.000000
0.999920 0.842881 0.000000
0.000000 0.020503 0.228606
0.209245 0.000000 0.231957
0.451689 0.000000 0.126305
0.665397 0.000000 0.030360
0.865073 0.000000 0.002760
0.000000 0.201680 0.221625
0.200288 0.213415 0.220020
0.466094 0.213829 0.170929
0.710392 0.221107 0.121325
0.925491 0.237298 0.081161
0.041295 0.469380 0.267515
0.277890 0.459273 0.229643
0.510885 0.430050 0.138418
0.796205 0.450930 0.215307
0.991547 0.486837 0.192326
0.237637 0.691880 0.235536
0.398863 0.661551 0.215964
0.496530 0.607847 0.078061
0.827063 0.649779 0.079119
1.000000 0.661970 0.213498
0.467221 0.868073 0.269077
0.548141 0.852700 0.241535
0.599753 0.818955 0.113610
0.751265 0.775926 0.002563
0.999866 0.855558 0.022080
0.000000 0.029572 0.507807
0.138979 0.000394 0.530643
0.490049 0.000000 0.498657
0.770973 0.000000 0.422832
0.972766 0.000000 0.348647
0.000000 0.223158 0.470387
0.129887 0.232556 0.504725
0.517294 0.198875 0.520079
0.789282 0.201013 0.450264
0.988822 0.205827 0.397521
0.000000 0.485150 0.520927
0.101130 0.502381 0.535882
0.499062 0.499032 0.493173
0.767456 0.499460 0.452601
0.978911 0.518755 0.423345
0.101961 0.751448 0.620651
0.264794 0.762769 0.623824
0.546650 0.712010 0.491689
0.784446 0.686151 0.372444
0.999873 0.712093 0.480723
0.297030 0.994290 0.655392
0.387540 0.988950 0.622093
0.602970 0.880396 0.464004
0.730331 0.779859 0.233456
0.998375 0.875216 0.323771
0.000000 0.041948 0.770404
0.058287 0.015574 0.796725
0.443686 0.000000 0.803314
0.784935 0.000000 0.778239
0.999530 0.000000 0.745135
0.000000 0.242737 0.736655
0.063969 0.250398 0.779839
0.470869 0.210012 0.824252
0.827206 0.190903 0.813643
1.000000 0.202175 0.779150
0.000000 0.512914 0.744445
0.009266 0.534853 0.755370
0.415485 0.521215 0.773448
0.804594 0.492674 0.785219
0.999987 0.507352 0.737893
0.000000 0.776299 0.828539
0.032923 0.791664 0.840473
0.422704 0.781955 0.820884
0.788273 0.775212 0.761912
1.000000 0.776724 0.722452
0.026614 0.999571 0.945101
0.170325 1.000000 0.953875
0.502135 0.994115 0.934755
0.811009 0.931115 0.734800
0.996901 0.928885 0.660923
0.000000 0.058053 0.989572
0.003548 0.034698 0.999960
0.393022 0.000000 1.000000
0.762805 0.000000 0.999685
0.999302 0.000000 0.999007
0.000000 0.262508 0.962776
0.015771 0.269740 0.999483
0.422116 0.230597 1.000000
0.805394 0.199504 1.000000
1.000000 0.198367 0.999946
0.000000 0.535741 0.947140
0.005915 0.555901 0.968202
0.367708 0.541921 0.994115
0.778177 0.502482 1.000000
0.999946 0.496256 0.999758
0.000000 0.805103 0.994439
0.000000 0.823264 0.997063
0.221389 0.822053 0.988979
0.726562 0.794129 0.990944
0.999725 0.771976 0.996106
0.000789 1.000000 1.000000
0.003746 1.000000 1.000000
0.368410 1.000000 1.000000
0.752822 1.000000 1.000000
1.000000 0.999383 0.978250
