bundles/resolve-cinematic-luts/Gamut/Orion/Orion +CON.cube
TITLE "Orion +CON by Gamut"
# Contributor - JVKE. Version 1.0 - 09/28/2023 - Designed for Rec.709 Color Space. Copyright 2023 Gamut, LLC
LUT_3D_SIZE 5
0.002366 0.018137 0.019714
0.142164 0.023657 0.000000
0.394152 0.003942 0.000000
0.634394 0.000000 0.000000
0.805338 0.000000 0.000000
0.000000 0.164766 0.000000
0.170461 0.158772 0.000197
0.504452 0.147023 0.005520
0.745456 0.173396 0.000592
0.923929 0.213597 0.000000
0.114537 0.391892 0.010645
0.215276 0.389300 0.000789
0.574024 0.389490 0.002366
0.887525 0.408444 0.033711
0.999906 0.462952 0.048972
0.321331 0.639475 0.035289
0.403619 0.648061 0.011237
0.510368 0.600897 0.000000
0.909571 0.672386 0.007886
1.000000 0.681785 0.040020
0.547863 0.855567 0.081481
0.605556 0.861115 0.043218
0.652240 0.819225 0.000000
0.819304 0.809293 0.000000
1.000000 0.873486 0.000789
0.000000 0.025037 0.179421
0.173278 0.002169 0.184391
0.451338 0.000000 0.074894
0.675970 0.000000 0.004929
0.838205 0.000000 0.000789
0.000000 0.169728 0.165409
0.162145 0.189333 0.175491
0.479596 0.184833 0.127156
0.742990 0.195708 0.093541
0.928669 0.230631 0.084374
0.046760 0.454925 0.211315
0.267496 0.460918 0.204372
0.561555 0.434147 0.129672
0.847693 0.464444 0.195938
0.997191 0.523313 0.196937
0.260816 0.704824 0.206600
0.433518 0.683120 0.206233
0.545571 0.624988 0.087913
0.882349 0.690941 0.095206
1.000000 0.713483 0.218339
0.551701 0.872461 0.255083
0.634934 0.865968 0.243163
0.682708 0.838747 0.133557
0.803819 0.811772 0.007294
0.999946 0.884346 0.027798
0.000000 0.026812 0.450682
0.101271 0.004732 0.476795
0.496571 0.000000 0.415589
0.757745 0.000000 0.313459
0.915594 0.000000 0.249321
0.000000 0.185636 0.399506
0.089603 0.209365 0.443195
0.541203 0.173673 0.452716
0.806217 0.190075 0.380665
0.981146 0.214634 0.353177
0.000000 0.463270 0.457085
0.083382 0.508775 0.499047
0.556895 0.511095 0.461400
0.827562 0.521497 0.426291
0.997743 0.558401 0.413898
0.123716 0.775379 0.601419
0.289273 0.795352 0.617231
0.628439 0.730521 0.480145
0.862858 0.737477 0.374388
1.000000 0.757621 0.473432
0.369309 0.990509 0.636873
0.462807 0.981563 0.605313
0.693497 0.873951 0.446814
0.809355 0.825433 0.245188
0.999544 0.900001 0.286793
0.000000 0.032529 0.714635
0.027797 0.015969 0.736448
0.442596 0.000000 0.719041
0.776894 0.000000 0.683335
0.980415 0.000000 0.658520
0.000000 0.200432 0.669464
0.031345 0.225329 0.718786
0.492635 0.189280 0.760442
0.854233 0.182522 0.755055
1.000000 0.222181 0.739318
0.000000 0.486895 0.672549
0.007886 0.535263 0.706567
0.464073 0.540959 0.745427
0.860750 0.521805 0.757168
1.000000 0.557969 0.730876
0.000000 0.777952 0.774609
0.038425 0.817921 0.811284
0.490694 0.815149 0.799257
0.856444 0.802705 0.744741
1.000000 0.807373 0.718663
0.067165 0.999624 0.918285
0.213329 0.999973 0.929264
0.588859 0.983986 0.882754
0.875337 0.912907 0.730322
0.999886 0.936947 0.638505
0.000000 0.045463 0.893960
0.000592 0.032923 0.913726
0.380259 0.000000 0.916954
0.758967 0.000000 0.897908
0.991989 0.000000 0.906539
0.000000 0.220865 0.859944
0.005126 0.248385 0.906493
0.435426 0.222215 0.956472
0.841186 0.197341 0.976589
1.000000 0.221969 0.995323
0.000000 0.517824 0.848455
0.005520 0.564595 0.888263
0.406938 0.572002 0.939561
0.844881 0.535870 0.978622
1.000000 0.548633 0.994074
0.000000 0.789514 0.901027
0.000000 0.830407 0.932460
0.260272 0.861342 0.953048
0.806046 0.821193 0.938286
0.999946 0.806531 0.944447
0.000000 0.999624 1.000000
0.003746 1.000000 1.000000
0.405172 1.000000 1.000000
0.822651 0.986730 0.958269
1.000000 0.983480 0.925702
