bundles/resolve-cinematic-luts/Gamut/Orion/Orion +CON.cube
TITLE "Orion +CON by Gamut"
# Contributor - JVKE. Version 1.0 - 09/28/2023 - Designed for Rec.709 Color Space. Copyright 2023 Gamut, LLC
LUT_3D_SIZE 9
0.002366 0.018137 0.019714
0.056011 0.021390 0.015180
0.142164 0.023657 0.000000
0.267520 0.016856 0.000000
0.394152 0.003942 0.000000
0.518770 0.000000 0.000000
0.634394 0.000000 0.000000
0.725870 0.000000 0.000000
0.805338 0.000000 0.000000
0.000000 0.082321 0.015968
0.057707 0.080502 0.011829
0.169120 0.070308 0.015082
0.300094 0.070630 0.000000
0.434053 0.069495 0.000000
0.557806 0.059522 0.000000
0.674531 0.056389 0.000000
0.772117 0.062805 0.000000
0.855758 0.075646 0.000000
0.000000 0.164766 0.000000
0.056900 0.169040 0.011040
0.170461 0.158772 0.000197
0.371414 0.141329 0.011927
0.504452 0.147023 0.005520
0.631518 0.159066 0.001084
0.745456 0.173396 0.000592
0.840469 0.191958 0.000000
0.923929 0.213597 0.000000
0.015574 0.273300 0.000493
0.100583 0.279445 0.011040
0.159049 0.266013 0.000394
0.377611 0.262195 0.000493
0.580098 0.251724 0.010547
0.715801 0.265989 0.020700
0.824235 0.289888 0.020404
0.913536 0.317043 0.016658
0.984068 0.344984 0.013504
0.114537 0.391892 0.010645
0.168851 0.399228 0.011533
0.215276 0.389300 0.000789
0.300429 0.352764 0.000000
0.574024 0.389490 0.002366
0.765968 0.394183 0.016659
0.887525 0.408444 0.033711
0.971297 0.433933 0.044181
0.999906 0.462952 0.048972
0.209361 0.514640 0.020306
0.257709 0.523014 0.016954
0.302539 0.519341 0.003056
0.351510 0.491500 0.000000
0.507933 0.493036 0.000000
0.757683 0.533729 0.005816
0.921795 0.543203 0.026023
0.993559 0.554195 0.042980
1.000000 0.573605 0.054209
0.321331 0.639475 0.035289
0.364128 0.649277 0.030656
0.403619 0.648061 0.011237
0.438401 0.625875 0.000296
0.510368 0.600897 0.000000
0.697732 0.631901 0.000099
0.909571 0.672386 0.007886
0.995492 0.677636 0.027995
1.000000 0.681785 0.040020
0.437701 0.755486 0.057201
0.473692 0.764693 0.050928
0.507637 0.764001 0.025629
0.535805 0.745263 0.001873
0.571496 0.716433 0.000000
0.670976 0.709248 0.000000
0.859850 0.755265 0.000099
0.987763 0.784358 0.005421
1.000000 0.784607 0.023855
0.547863 0.855567 0.081481
0.577150 0.862642 0.073391
0.605556 0.861115 0.043218
0.630169 0.844194 0.004830
0.652240 0.819225 0.000000
0.699836 0.794733 0.000000
0.819304 0.809293 0.000000
0.967791 0.854042 0.000000
1.000000 0.873486 0.000789
0.000000 0.022080 0.083311
0.061074 0.018926 0.092052
0.166027 0.008576 0.062756
0.292096 0.000000 0.018827
0.413161 0.000000 0.000000
0.533186 0.000000 0.000000
0.647646 0.000000 0.000000
0.742099 0.000000 0.000000
0.819481 0.000000 0.000000
0.000000 0.080976 0.079066
0.048680 0.083124 0.080502
0.150297 0.079891 0.062758
0.287458 0.070674 0.033909
0.426010 0.063293 0.007688
0.561269 0.057631 0.000690
0.682772 0.057073 0.000000
0.781188 0.064426 0.000690
0.865328 0.077485 0.000690
0.000000 0.165890 0.086966
0.059299 0.179538 0.083615
0.175292 0.174357 0.064989
0.351829 0.164297 0.075858
0.485063 0.170561 0.051988
0.618189 0.178442 0.029670
0.738328 0.189534 0.016757
0.836696 0.205996 0.013504
0.921981 0.226360 0.012913
0.000000 0.293046 0.072112
0.111996 0.301173 0.081967
0.215292 0.291722 0.080244
0.377595 0.284327 0.046136
0.562678 0.276919 0.079528
0.696198 0.292452 0.082107
0.807343 0.316239 0.072167
0.899267 0.342067 0.062363
0.976329 0.368655 0.055011
0.073820 0.425018 0.069737
0.216089 0.423750 0.099555
0.273843 0.415467 0.083573
0.327880 0.375235 0.021390
0.563663 0.404050 0.036965
0.749085 0.413439 0.082702
0.870158 0.432420 0.105790
0.958501 0.461016 0.114752
0.999205 0.491208 0.115242
0.231799 0.534731 0.096068
0.301696 0.538811 0.103487
0.344828 0.534300 0.085567
0.380151 0.504653 0.033810
0.508028 0.501280 0.007984
0.745638 0.544539 0.037950
0.907524 0.559086 0.091792
0.988102 0.574230 0.120901
1.000000 0.596327 0.138187
0.353535 0.646469 0.113082
0.399446 0.654690 0.114563
0.433450 0.656136 0.096825
0.461644 0.637408 0.049340
0.521380 0.610154 0.010646
0.690612 0.637133 0.004041
0.898982 0.681086 0.036274
0.992842 0.689647 0.089973
1.000000 0.696468 0.117227
0.470699 0.756471 0.136257
0.503316 0.766119 0.134747
0.529564 0.769610 0.116000
0.551652 0.755923 0.066189
0.585707 0.726661 0.018334
0.671692 0.714340 0.001282
0.850482 0.758604 0.002366
0.984705 0.790753 0.026122
1.000000 0.792962 0.077810
0.576386 0.854114 0.161350
0.601225 0.862418 0.157419
0.621392 0.864961 0.136456
0.638704 0.853675 0.083832
0.662898 0.828988 0.027797
0.705667 0.800917 0.003155
0.812637 0.810533 0.000000
0.961174 0.856018 0.000000
0.999943 0.878333 0.001577
0.000000 0.025037 0.179421
0.034993 0.021981 0.191747
0.173278 0.002169 0.184391
0.331334 0.000000 0.126507
0.451338 0.000000 0.074894
0.568241 0.000000 0.033317
0.675970 0.000000 0.004929
0.763965 0.000000 0.001380
0.838205 0.000000 0.000789
0.000000 0.086707 0.159159
0.023361 0.089603 0.166735
0.162255 0.075305 0.174919
0.321555 0.063732 0.127048
0.457641 0.052161 0.090824
0.588561 0.040179 0.058234
0.703869 0.035383 0.031740
0.799616 0.048477 0.024347
0.883131 0.066898 0.024741
0.000000 0.169728 0.165409
0.021587 0.183503 0.178461
0.162145 0.189333 0.175491
0.332605 0.184856 0.148289
0.479596 0.184833 0.127156
0.619725 0.187491 0.108296
0.742990 0.195708 0.093541
0.842754 0.210891 0.086462
0.928669 0.230631 0.084374
0.000493 0.295444 0.198147
0.074214 0.316754 0.219642
0.209240 0.324500 0.206208
0.382800 0.317833 0.147989
0.541785 0.314383 0.171311
0.674725 0.325483 0.159875
0.790422 0.343191 0.146922
0.886103 0.365375 0.138185
0.968580 0.389592 0.133733
0.046760 0.454925 0.211315
0.134474 0.471899 0.216187
0.267496 0.460918 0.204372
0.396496 0.425755 0.149675
0.561555 0.434147 0.129672
0.729477 0.443372 0.177541
0.847693 0.464444 0.195938
0.939683 0.494095 0.199334
0.997191 0.523313 0.196937
0.117806 0.597043 0.198188
0.220978 0.596986 0.206996
0.342511 0.578278 0.203466
0.437233 0.538934 0.154984
0.525310 0.523146 0.079462
0.730898 0.560876 0.108139
0.886510 0.578825 0.185227
0.976533 0.599378 0.219976
1.000000 0.624572 0.237413
0.260816 0.704824 0.206600
0.345144 0.699627 0.213363
0.433518 0.683120 0.206233
0.502605 0.653773 0.162952
0.545571 0.624988 0.087913
0.682462 0.644373 0.035486
0.882349 0.690941 0.095206
0.986988 0.703336 0.181302
1.000000 0.713483 0.218339
0.414358 0.794093 0.227013
0.476364 0.790122 0.231762
0.536472 0.779459 0.221418
0.581965 0.761939 0.178861
0.610846 0.739088 0.111320
0.674607 0.722077 0.036754
0.836694 0.761823 0.014983
0.978762 0.798117 0.076460
1.000000 0.802365 0.167960
0.551701 0.872461 0.255083
0.595237 0.871500 0.257262
0.634934 0.865968 0.243163
0.662075 0.855541 0.198509
0.682708 0.838747 0.133557
0.714772 0.810881 0.056474
0.803819 0.811772 0.007294
0.950794 0.857334 0.000888
0.999946 0.884346 0.027798
0.000000 0.026023 0.308232
0.005421 0.022968 0.322203
0.139205 0.002859 0.328935
0.338821 0.000000 0.290210
0.494180 0.000000 0.229921
0.615393 0.000000 0.167116
0.718104 0.000000 0.124158
0.802159 0.000000 0.097901
0.874864 0.000000 0.081632
0.000000 0.089291 0.279274
0.001085 0.091745 0.293570
0.130318 0.080005 0.313629
0.346158 0.052989 0.293542
0.505326 0.047206 0.241350
0.633065 0.041124 0.192478
0.742324 0.036570 0.160084
0.831579 0.037851 0.141607
0.910107 0.043246 0.131327
0.000000 0.178292 0.270083
0.000099 0.194865 0.282624
0.114182 0.202809 0.296306
0.356035 0.180226 0.301580
0.511556 0.182944 0.259376
0.650307 0.182781 0.227639
0.768666 0.186433 0.206529
0.864959 0.197513 0.196694
0.949200 0.213861 0.194213
0.000000 0.302006 0.295755
0.002464 0.324365 0.316493
0.123666 0.340426 0.331469
0.362551 0.339419 0.306328
0.530782 0.339016 0.284124
0.671852 0.344090 0.265018
0.790529 0.356005 0.250044
0.887826 0.374129 0.243230
0.972429 0.396218 0.242776
0.006013 0.458051 0.353865
0.064849 0.482597 0.379887
0.191538 0.493237 0.389867
0.413370 0.480094 0.339099
0.571117 0.478046 0.284034
0.715750 0.483228 0.300041
0.829705 0.500638 0.301101
0.922902 0.525310 0.296270
0.994891 0.550040 0.292981
0.096440 0.620232 0.398969
0.169741 0.637358 0.410680
0.276640 0.636660 0.398435
0.451921 0.601711 0.342796
0.578727 0.576486 0.250404
0.730068 0.595414 0.243817
0.866615 0.608041 0.309556
0.959339 0.630169 0.335568
0.999966 0.656637 0.344557
0.198105 0.761257 0.406478
0.264565 0.767743 0.408402
0.354190 0.755247 0.386689
0.502923 0.706468 0.331610
0.599180 0.660346 0.246993
0.692180 0.666114 0.159146
0.864380 0.705972 0.208177
0.975274 0.718385 0.301854
1.000000 0.732602 0.341699
0.297305 0.870399 0.400804
0.358392 0.867756 0.397877
0.438210 0.846876 0.375312
0.566978 0.794269 0.325042
0.651640 0.753498 0.256924
0.692729 0.734574 0.160076
0.821408 0.768265 0.091910
0.968079 0.806658 0.175310
1.000000 0.811044 0.286870
0.404854 0.950983 0.398606
0.460663 0.943874 0.395890
0.534962 0.920161 0.377343
0.643649 0.871917 0.332469
0.713118 0.841403 0.272296
0.738210 0.820382 0.189457
0.796532 0.815006 0.082247
0.935171 0.860470 0.027994
0.999812 0.893208 0.141048
0.000000 0.026812 0.450682
0.000000 0.024544 0.464964
0.101271 0.004732 0.476795
0.309558 0.000000 0.454800
0.496571 0.000000 0.415589
0.646971 0.000000 0.365677
0.757745 0.000000 0.313459
0.842019 0.000000 0.273963
0.915594 0.000000 0.249321
0.000000 0.090848 0.420247
0.000000 0.094412 0.437719
0.096542 0.087291 0.460539
0.319300 0.055544 0.461890
0.521866 0.036866 0.435269
0.674657 0.036275 0.392396
0.785389 0.041025 0.347930
0.873040 0.046209 0.319137
0.951765 0.053528 0.303042
0.000000 0.185636 0.399506
0.000000 0.202377 0.418725
0.089603 0.209365 0.443195
0.326340 0.187199 0.468153
0.541203 0.173673 0.452716
0.691648 0.180361 0.414052
0.806217 0.190075 0.380665
0.899690 0.201357 0.362074
0.981146 0.214634 0.353177
0.000000 0.312711 0.409244
0.000000 0.337059 0.427051
0.035353 0.356993 0.439694
0.308864 0.357119 0.455162
0.543941 0.339936 0.455285
0.693096 0.346282 0.424312
0.812517 0.356551 0.399164
0.909297 0.370959 0.386173
0.991272 0.389048 0.381957
0.000000 0.463270 0.457085
0.003746 0.489330 0.481347
0.083382 0.508775 0.499047
0.329403 0.512138 0.491563
0.556895 0.511095 0.461400
0.709353 0.510385 0.442550
0.827562 0.521497 0.426291
0.921780 0.538894 0.417058
0.997743 0.558401 0.413898
0.016560 0.623814 0.527392
0.059580 0.647448 0.553248
0.173390 0.660884 0.568297
0.379767 0.654378 0.554889
0.602895 0.636436 0.493035
0.739225 0.641416 0.431050
0.855703 0.647645 0.452128
0.945136 0.664491 0.456726
0.999966 0.685434 0.454435
0.123716 0.775379 0.601419
0.190818 0.791534 0.618632
0.289273 0.795352 0.617231
0.452677 0.772601 0.569552
0.628439 0.730521 0.480145
0.737473 0.718114 0.370731
0.862858 0.737477 0.374388
0.962888 0.742959 0.445252
1.000000 0.757621 0.473432
0.265780 0.897802 0.636983
0.321725 0.904596 0.641313
0.392018 0.899627 0.622813
0.512220 0.864255 0.552354
0.657006 0.807102 0.462810
0.738678 0.769492 0.352294
0.829333 0.789662 0.261262
0.957509 0.818920 0.320948
1.000000 0.820618 0.424058
0.369309 0.990509 0.636873
0.411439 0.991387 0.632969
0.462807 0.981563 0.605313
0.561540 0.937269 0.527195
0.693497 0.873951 0.446814
0.770117 0.833621 0.358880
0.809355 0.825433 0.245188
0.920384 0.867179 0.166209
0.999544 0.900001 0.286793
0.000000 0.028389 0.592116
0.000000 0.026417 0.605556
0.062493 0.009956 0.617072
0.267289 0.000000 0.610809
0.473848 0.000000 0.581183
0.647320 0.000000 0.552098
0.777020 0.000000 0.520077
0.873848 0.000000 0.489352
0.955390 0.000000 0.462363
0.000000 0.093281 0.563817
0.000000 0.097865 0.582787
0.063839 0.093830 0.605924
0.279696 0.062998 0.617967
0.502855 0.038340 0.604128
0.682875 0.030656 0.584087
0.814062 0.039217 0.557902
0.912321 0.054431 0.532963
0.989293 0.065678 0.512355
0.000000 0.192702 0.539767
0.000000 0.209429 0.562780
0.059527 0.216547 0.590459
0.287726 0.199563 0.619469
0.524069 0.177644 0.624240
0.710904 0.173442 0.609266
0.841228 0.186131 0.584166
0.937728 0.204629 0.562301
0.998802 0.222050 0.547154
0.000000 0.324442 0.536814
0.000000 0.349897 0.556870
0.026122 0.368582 0.575973
0.266536 0.369707 0.604253
0.523222 0.346729 0.622982
0.715208 0.341405 0.612878
0.844471 0.354460 0.588668
0.939962 0.373449 0.569359
0.999779 0.392309 0.558403
0.000000 0.472561 0.564902
0.000000 0.499200 0.585330
0.014786 0.520997 0.599779
0.227483 0.535259 0.611461
0.513694 0.526592 0.614636
0.717461 0.515378 0.612459
0.841160 0.525609 0.588744
0.937595 0.540612 0.572089
0.999966 0.556333 0.563429
0.000000 0.626273 0.621546
0.004534 0.651194 0.644732
0.059988 0.671235 0.663184
0.275423 0.678912 0.667009
0.537876 0.674713 0.644006
0.728259 0.673832 0.615836
0.848857 0.673787 0.598700
0.942634 0.683905 0.584843
1.000000 0.697441 0.576504
0.018531 0.777428 0.700854
0.049551 0.798471 0.723418
0.145051 0.811648 0.738412
0.352620 0.805410 0.732939
0.565640 0.791252 0.705698
0.755335 0.768220 0.637613
0.867124 0.776757 0.576631
0.956294 0.778452 0.595340
1.000000 0.788856 0.599727
0.116609 0.908934 0.781228
0.176890 0.921382 0.795586
0.274053 0.923939 0.798132
0.441283 0.906049 0.773211
0.619238 0.874455 0.709217
0.770960 0.833030 0.611362
0.862620 0.833571 0.501962
0.958889 0.846302 0.505437
1.000000 0.842096 0.575255
0.274096 0.999178 0.830074
0.328730 0.999695 0.833941
0.402770 0.998099 0.823672
0.526040 0.982243 0.776999
0.660915 0.941623 0.691928
0.780237 0.885839 0.585279
0.849367 0.860132 0.465372
0.933406 0.889633 0.364740
0.999413 0.910651 0.442203
0.000000 0.032529 0.714635
0.000000 0.030951 0.725592
0.027797 0.015969 0.736448
0.225177 0.000000 0.738204
0.442596 0.000000 0.719041
0.632669 0.000000 0.697597
0.776894 0.000000 0.683335
0.886841 0.000000 0.670293
0.980415 0.000000 0.658520
0.000000 0.097633 0.691536
0.000000 0.103764 0.709585
0.033613 0.101264 0.730547
0.242059 0.075385 0.746061
0.472881 0.046052 0.741714
0.671333 0.033613 0.730457
0.819483 0.038046 0.723531
0.931765 0.052594 0.716070
0.998960 0.070517 0.708443
0.000000 0.200432 0.669464
0.000000 0.217468 0.691840
0.031345 0.225329 0.718786
0.250360 0.215181 0.747924
0.492635 0.189280 0.760442
0.701257 0.177508 0.759334
0.854233 0.182522 0.755055
0.961429 0.199756 0.747761
1.000000 0.222181 0.739318
0.000000 0.336650 0.657808
0.000000 0.362496 0.679761
0.014983 0.380070 0.703568
0.234808 0.382545 0.734602
0.489196 0.360994 0.756282
0.708130 0.345095 0.766063
0.865247 0.349237 0.763072
0.967340 0.367977 0.752623
1.000000 0.391603 0.741697
0.000000 0.486895 0.672549
0.000000 0.513947 0.691215
0.007886 0.535263 0.706567
0.179900 0.550450 0.727903
0.464073 0.540959 0.745427
0.704280 0.520355 0.761307
0.860750 0.521805 0.757168
0.960041 0.538420 0.743135
1.000000 0.557969 0.730876
0.000000 0.632574 0.708299
0.000000 0.657474 0.727911
0.009364 0.678989 0.743848
0.151050 0.698237 0.757197
0.442719 0.698815 0.754764
0.696462 0.685462 0.750995
0.852470 0.679486 0.747936
0.948465 0.687842 0.731123
1.000000 0.698859 0.717369
0.000000 0.777952 0.774609
0.002267 0.800188 0.795172
0.038425 0.817921 0.811284
0.226231 0.824699 0.816860
0.490694 0.815149 0.799257
0.715127 0.803221 0.767025
0.856444 0.802705 0.744741
0.949447 0.802325 0.730948
1.000000 0.807373 0.718663
0.009561 0.911919 0.851645
0.027896 0.927685 0.868259
0.102957 0.937111 0.878382
0.312635 0.929731 0.873173
0.538721 0.909078 0.848582
0.718396 0.892808 0.817590
0.869654 0.871670 0.756244
0.961741 0.879591 0.704568
1.000000 0.876058 0.720786
0.067165 0.999624 0.918285
0.115583 1.000000 0.927840
0.213329 0.999973 0.929264
0.397983 0.998059 0.914218
0.588859 0.983986 0.882754
0.755088 0.956370 0.823621
0.875337 0.912907 0.730322
0.957523 0.927210 0.629924
0.999886 0.936947 0.638505
0.000000 0.038049 0.813713
0.000000 0.037162 0.823405
0.002859 0.024347 0.833385
0.185220 0.000296 0.839483
0.409398 0.000000 0.827690
0.613478 0.000000 0.811158
0.768967 0.000000 0.801991
0.888152 0.000000 0.800312
0.989840 0.000000 0.799841
0.000000 0.104210 0.795344
0.000000 0.111830 0.812280
0.008872 0.110946 0.831700
0.207488 0.093243 0.849550
0.441685 0.057832 0.850044
0.653575 0.041310 0.844225
0.814445 0.042704 0.843629
0.935656 0.054057 0.847857
0.999789 0.069516 0.851814
0.000000 0.209926 0.775672
0.000000 0.227595 0.796626
0.009660 0.236304 0.822396
0.218070 0.230940 0.851911
0.462167 0.204259 0.867093
0.681859 0.188248 0.872832
0.850595 0.187847 0.877820
0.966782 0.199851 0.883854
1.000000 0.218429 0.886923
0.000000 0.349598 0.760976
0.000000 0.375561 0.783572
0.009561 0.392624 0.808741
0.205511 0.396523 0.840399
0.457317 0.377939 0.862003
0.686302 0.357361 0.878031
0.862858 0.354096 0.888330
0.975886 0.365824 0.893451
1.000000 0.385454 0.892682
0.000000 0.502413 0.768442
0.000000 0.529487 0.786901
0.006802 0.550053 0.804654
0.160880 0.563612 0.830464
0.430923 0.556711 0.850966
0.676779 0.534294 0.870071
0.859655 0.525162 0.883826
0.973600 0.533733 0.885214
1.000000 0.550975 0.878474
0.000000 0.645072 0.788959
0.000000 0.669923 0.806830
0.001873 0.691185 0.821855
0.091118 0.712848 0.840326
0.374947 0.717939 0.851189
0.654564 0.699314 0.856511
0.848215 0.680454 0.870935
0.962418 0.683322 0.866081
1.000000 0.695673 0.854321
0.000000 0.781131 0.839624
0.000000 0.803449 0.858317
0.003549 0.822194 0.873045
0.088476 0.838886 0.884652
0.369818 0.840508 0.880739
0.636467 0.825972 0.860270
0.833761 0.810335 0.854888
0.950318 0.806744 0.849827
1.000000 0.813637 0.838887
0.000000 0.912442 0.910404
0.000592 0.929251 0.926474
0.020010 0.941361 0.937463
0.174142 0.944274 0.939002
0.447454 0.930603 0.921359
0.674902 0.912083 0.890935
0.846294 0.899510 0.859562
0.954186 0.900821 0.844126
1.000000 0.902578 0.834154
0.000690 0.999624 0.973904
0.004830 1.000000 0.981950
0.049761 1.000000 0.984865
0.260558 0.999973 0.978027
0.502265 0.998042 0.957770
0.692658 0.986060 0.927349
0.836666 0.971366 0.897719
0.962593 0.957738 0.853736
1.000000 0.967203 0.814498
0.000000 0.045463 0.893960
0.000000 0.044738 0.903642
0.000592 0.032923 0.913726
0.152028 0.006210 0.922895
0.380259 0.000000 0.916954
0.593170 0.000000 0.904941
0.758967 0.000000 0.897908
0.884657 0.000000 0.900186
0.991989 0.000000 0.906539
0.000000 0.112343 0.878226
0.000000 0.121416 0.895382
0.002957 0.121303 0.914802
0.179718 0.109191 0.935920
0.415200 0.071126 0.940453
0.634374 0.051853 0.939782
0.805896 0.050600 0.941825
0.933711 0.060017 0.950338
0.999799 0.072664 0.960931
0.000000 0.220865 0.859944
0.000000 0.239093 0.880611
0.005126 0.248385 0.906493
0.191154 0.246330 0.938116
0.435426 0.222215 0.956472
0.661145 0.201404 0.967196
0.841186 0.197341 0.976589
0.965019 0.206281 0.987292
1.000000 0.221969 0.995323
0.000000 0.363259 0.845004
0.000000 0.389082 0.867992
0.006111 0.405989 0.894297
0.179421 0.410794 0.927400
0.429697 0.395665 0.950582
0.663769 0.372159 0.969443
0.850950 0.364732 0.985466
0.973759 0.371827 0.996948
1.000000 0.386868 1.000000
0.000000 0.517824 0.848455
0.000000 0.544712 0.868053
0.005520 0.564595 0.888263
0.143363 0.577056 0.917024
0.406938 0.572002 0.939561
0.651320 0.550104 0.958749
0.844881 0.535870 0.978622
0.971295 0.537803 0.990951
1.000000 0.548633 0.994074
0.000000 0.660543 0.865224
0.000000 0.685639 0.882965
0.001676 0.706404 0.898532
0.081282 0.726181 0.919468
0.348703 0.731601 0.935759
0.617756 0.712935 0.943717
0.827796 0.690666 0.960251
0.960771 0.684342 0.972184
1.000000 0.689366 0.970681
0.000000 0.789514 0.901027
0.000000 0.811752 0.918785
0.000000 0.830407 0.932460
0.026516 0.849784 0.945783
0.260272 0.861342 0.953048
0.573679 0.843474 0.941519
0.806046 0.821193 0.938286
0.951201 0.805337 0.952573
0.999946 0.806531 0.944447
0.000000 0.913593 0.962646
0.000000 0.931006 0.976200
0.000000 0.944009 0.984379
0.037349 0.953847 0.989121
0.295672 0.953912 0.986384
0.586769 0.934717 0.962038
0.786069 0.920891 0.934990
0.935343 0.906634 0.932540
1.000000 0.904181 0.927638
0.000000 0.999624 1.000000
0.000789 1.000000 1.000000
0.003746 1.000000 1.000000
0.111371 1.000000 1.000000
0.405172 1.000000 1.000000
0.648196 0.998140 0.986315
0.822651 0.986730 0.958269
0.950155 0.975697 0.935514
1.000000 0.983480 0.925702
