bundles/resolve-cinematic-luts/Gamut/Orion/Orion +CON.cube
TITLE "Orion +CON by Gamut"
# Contributor - JVKE. Version 1.0 - 09/28/2023 - Designed for Rec.709 Color Space. Copyright 2023 Gamut, LLC
LUT_3D_SIZE 33
0.002366 0.018137 0.019714
0.018630 0.018901 0.018926
0.030409 0.019714 0.018137
0.042683 0.020503 0.016634
0.056011 0.021390 0.015180
0.073167 0.022080 0.011410
0.094470 0.022721 0.000739
0.116999 0.023485 0.000000
0.142164 0.023657 0.000000
0.171332 0.022869 0.000000
0.202633 0.021538 0.000000
0.234761 0.019197 0.000000
0.267520 0.016856 0.000000
0.299626 0.014835 0.000000
0.331439 0.011286 0.000000
0.362855 0.007836 0.000000
0.394152 0.003942 0.000000
0.425332 0.000838 0.000000
0.456409 0.000000 0.000000
0.487708 0.000000 0.000000
0.518770 0.000000 0.000000
0.549135 0.000000 0.000000
0.578666 0.000000 0.000000
0.607522 0.000000 0.000000
0.634394 0.000000 0.000000
0.658389 0.000000 0.000000
0.681735 0.000000 0.000000
0.704478 0.000000 0.000000
0.725870 0.000000 0.000000
0.746309 0.000000 0.000000
0.766050 0.000000 0.000000
0.785732 0.000000 0.000000
0.805338 0.000000 0.000000
0.000814 0.033638 0.020478
0.016314 0.035166 0.015845
0.035658 0.032923 0.021095
0.048353 0.033663 0.021243
0.060210 0.035166 0.019837
0.074816 0.035240 0.015279
0.094296 0.035264 0.006284
0.117815 0.036052 0.000444
0.142362 0.035461 0.000000
0.169982 0.033933 0.000000
0.200426 0.032381 0.000000
0.232490 0.030040 0.000000
0.265152 0.027699 0.000000
0.297887 0.025357 0.000000
0.330284 0.023780 0.000000
0.362038 0.020996 0.000000
0.393916 0.017891 0.000000
0.426005 0.015155 0.000000
0.458704 0.012814 0.000000
0.491132 0.010522 0.000000
0.523343 0.008674 0.000000
0.554961 0.006407 0.000000
0.585607 0.004140 0.000000
0.614762 0.002070 0.000000
0.642074 0.001528 0.000000
0.664945 0.001528 0.000000
0.688894 0.001528 0.000000
0.711994 0.001528 0.000000
0.733782 0.002292 0.000000
0.754410 0.002391 0.000000
0.774673 0.003080 0.000000
0.794470 0.003844 0.000000
0.814348 0.003844 0.000000
0.000000 0.050535 0.019763
0.017053 0.049882 0.016585
0.029670 0.049859 0.014342
0.049517 0.047929 0.018137
0.067725 0.047227 0.020503
0.082789 0.046589 0.021243
0.100876 0.046523 0.016215
0.122814 0.047121 0.004904
0.148827 0.047409 0.000296
0.175496 0.046677 0.000000
0.204824 0.044587 0.000000
0.236353 0.042386 0.000000
0.269747 0.040840 0.000000
0.301999 0.038566 0.000000
0.334893 0.036965 0.000000
0.367775 0.035830 0.000000
0.400881 0.034549 0.000000
0.434480 0.032209 0.000000
0.468332 0.030262 0.000000
0.501848 0.027945 0.000000
0.534909 0.025629 0.000000
0.566631 0.022573 0.000000
0.596600 0.018728 0.000000
0.622562 0.015402 0.000000
0.648566 0.011237 0.000000
0.674558 0.009906 0.000000
0.699275 0.010054 0.000000
0.722792 0.010818 0.000000
0.744747 0.012321 0.000000
0.765674 0.013824 0.000000
0.786008 0.016116 0.000000
0.806025 0.017644 0.000000
0.826270 0.019912 0.000000
0.000000 0.066551 0.018211
0.014860 0.064934 0.015894
0.027280 0.065476 0.014958
0.042683 0.064877 0.013554
0.065551 0.064310 0.011410
0.089395 0.060532 0.018680
0.110228 0.058244 0.019788
0.132144 0.058070 0.016091
0.156839 0.058036 0.005470
0.187541 0.058680 0.000296
0.216784 0.057651 0.000000
0.248242 0.056368 0.000000
0.280741 0.054666 0.000000
0.313789 0.053801 0.000000
0.347238 0.052518 0.000000
0.381053 0.052227 0.000000
0.415582 0.052159 0.000000
0.450016 0.050803 0.000000
0.484300 0.048875 0.000000
0.517526 0.046182 0.000000
0.549616 0.043037 0.000000
0.577256 0.038591 0.000000
0.604677 0.034968 0.000000
0.632748 0.032800 0.000000
0.660383 0.031814 0.000000
0.686891 0.031395 0.000000
0.711939 0.032159 0.000000
0.735405 0.033637 0.000000
0.757530 0.035190 0.000000
0.778585 0.037457 0.000000
0.799234 0.039833 0.000000
0.819823 0.042734 0.000000
0.840119 0.045601 0.000000
0.000000 0.082321 0.015968
0.010399 0.081384 0.012937
0.027156 0.080912 0.014983
0.038172 0.081384 0.013480
0.057707 0.080502 0.011829
0.085151 0.079512 0.005495
0.116514 0.073999 0.015475
0.143022 0.071323 0.017546
0.169120 0.070308 0.015082
0.197289 0.069781 0.006826
0.229002 0.069682 0.000542
0.266991 0.071042 0.000000
0.300094 0.070630 0.000000
0.332950 0.070028 0.000000
0.366226 0.069956 0.000000
0.400071 0.069676 0.000000
0.434053 0.069495 0.000000
0.468539 0.069173 0.000000
0.501521 0.066848 0.000000
0.528226 0.062204 0.000000
0.557806 0.059522 0.000000
0.587962 0.057859 0.000000
0.617411 0.056658 0.000000
0.646493 0.056479 0.000000
0.674531 0.056389 0.000000
0.701245 0.057144 0.000000
0.726359 0.058790 0.000000
0.749902 0.060579 0.000000
0.772117 0.062805 0.000000
0.793419 0.065588 0.000000
0.814356 0.068761 0.000000
0.835218 0.072284 0.000000
0.855758 0.075646 0.000000
0.000000 0.099367 0.010744
0.006408 0.099194 0.009734
0.027748 0.098439 0.014095
0.037458 0.099194 0.012814
0.051010 0.099221 0.012026
0.077834 0.097033 0.003647
0.113115 0.096461 0.000616
0.151122 0.089490 0.013553
0.182985 0.086235 0.016018
0.213551 0.084564 0.014958
0.245353 0.084065 0.009044
0.278642 0.083994 0.001380
0.311910 0.084071 0.000666
0.344813 0.084339 0.000000
0.377320 0.084452 0.000000
0.410458 0.084452 0.000000
0.443540 0.084376 0.000000
0.476585 0.084164 0.000000
0.508960 0.083642 0.000000
0.540724 0.082802 0.000000
0.571873 0.081975 0.000000
0.602655 0.081812 0.000000
0.632963 0.082198 0.000000
0.662195 0.082710 0.000000
0.690336 0.083920 0.000000
0.716977 0.085744 0.000000
0.742010 0.087508 0.000000
0.765628 0.090375 0.000000
0.787961 0.093266 0.000000
0.809459 0.096772 0.000000
0.830627 0.100585 0.000000
0.851588 0.104628 0.000000
0.872352 0.108810 0.000000
0.000000 0.118814 0.004534
0.002563 0.118433 0.005816
0.027650 0.117556 0.012568
0.037482 0.119014 0.011262
0.049462 0.120324 0.011139
0.067758 0.119648 0.009364
0.103282 0.115483 0.000296
0.147649 0.115020 0.002440
0.192996 0.108245 0.012174
0.230432 0.104089 0.014416
0.264693 0.101862 0.014293
0.298292 0.100911 0.010966
0.331430 0.100911 0.005668
0.363033 0.101527 0.001134
0.394802 0.102597 0.000641
0.427043 0.103474 0.000000
0.459778 0.104252 0.000000
0.492527 0.104920 0.000000
0.525440 0.105881 0.000000
0.557584 0.106463 0.000000
0.589274 0.107253 0.000000
0.620288 0.108183 0.000000
0.650446 0.109579 0.000000
0.679436 0.111196 0.000000
0.707417 0.113228 0.000000
0.733902 0.115824 0.000000
0.758885 0.118691 0.000000
0.782378 0.121939 0.000000
0.804720 0.125843 0.000000
0.826414 0.130051 0.000000
0.847683 0.134546 0.000000
0.868774 0.139060 0.000000
0.889457 0.143399 0.000000
0.000000 0.140367 0.000345
0.000912 0.140310 0.002637
0.028167 0.140263 0.011583
0.038714 0.142532 0.011114
0.051180 0.143714 0.010350
0.067619 0.144251 0.010374
0.093184 0.141086 0.007615
0.132199 0.135920 0.000173
0.189722 0.135467 0.003253
0.240442 0.128129 0.010226
0.281816 0.123290 0.012100
0.318272 0.120401 0.013578
0.351982 0.119829 0.011903
0.384352 0.120624 0.008773
0.416678 0.122023 0.005076
0.448904 0.123542 0.001602
0.481480 0.125518 0.000838
0.513958 0.127323 0.000616
0.546295 0.129254 0.000271
0.578033 0.131117 0.000000
0.609312 0.132985 0.000000
0.639964 0.135222 0.000000
0.669748 0.137809 0.000000
0.698340 0.140381 0.000000
0.725865 0.143298 0.000000
0.752013 0.146628 0.000000
0.776676 0.150261 0.000000
0.800102 0.154443 0.000000
0.822380 0.159059 0.000000
0.843928 0.163769 0.000000
0.865077 0.168728 0.000000
0.885951 0.173606 0.000000
0.906624 0.178707 0.000000
0.000000 0.164766 0.000000
0.000764 0.165176 0.001528
0.030212 0.165185 0.010794
0.043479 0.167219 0.011114
0.056900 0.169040 0.011040
0.072143 0.169400 0.010966
0.092062 0.167289 0.008970
0.123877 0.160510 0.003450
0.170461 0.158772 0.000197
0.237541 0.156671 0.003277
0.291847 0.148839 0.007984
0.334779 0.143674 0.010374
0.371414 0.141329 0.011927
0.404966 0.141314 0.012420
0.438133 0.142535 0.010991
0.471461 0.144529 0.008428
0.504452 0.147023 0.005520
0.537114 0.149799 0.002390
0.569209 0.152826 0.001627
0.600602 0.155845 0.001380
0.631518 0.159066 0.001084
0.661584 0.162465 0.000789
0.690613 0.165929 0.000592
0.718496 0.169539 0.000592
0.745456 0.173396 0.000592
0.771070 0.177542 0.000592
0.795326 0.181957 0.000592
0.818361 0.186825 0.000592
0.840469 0.191958 0.000000
0.861803 0.197314 0.000000
0.882595 0.202721 0.000000
0.903314 0.208024 0.000000
0.923929 0.213597 0.000000
0.000000 0.191129 0.000000
0.003031 0.191191 0.001331
0.037974 0.190971 0.010744
0.051872 0.193443 0.011114
0.065135 0.195037 0.011040
0.079941 0.195519 0.011040
0.097425 0.194008 0.009611
0.120839 0.188448 0.005816
0.157421 0.179519 0.000394
0.217728 0.183222 0.000000
0.288912 0.178724 0.002538
0.343672 0.170972 0.006383
0.386737 0.166608 0.008748
0.423721 0.164739 0.010843
0.458663 0.165258 0.012494
0.492776 0.166885 0.012395
0.526684 0.169677 0.011558
0.559931 0.173071 0.009783
0.592376 0.176763 0.007442
0.623871 0.180800 0.005323
0.654336 0.185015 0.003770
0.683825 0.189468 0.003006
0.712193 0.193941 0.002710
0.739447 0.198490 0.002489
0.765700 0.203109 0.002144
0.790725 0.208167 0.001922
0.814524 0.213360 0.001775
0.837132 0.218753 0.001355
0.858814 0.224426 0.001355
0.879795 0.230217 0.001355
0.900423 0.236041 0.001306
0.920825 0.241879 0.000789
0.940879 0.247686 0.000789
0.000000 0.217908 0.000000
0.015451 0.217841 0.002612
0.047705 0.218314 0.010744
0.061769 0.220267 0.011114
0.075204 0.222261 0.011040
0.090037 0.222869 0.011040
0.106525 0.221217 0.009068
0.125077 0.216599 0.005495
0.150568 0.207685 0.000592
0.193304 0.201050 0.000000
0.269542 0.207965 0.000000
0.341454 0.202531 0.001552
0.394906 0.195964 0.004632
0.438069 0.192294 0.007738
0.476297 0.190961 0.010054
0.512337 0.191710 0.012494
0.547302 0.193993 0.013800
0.581410 0.197571 0.014490
0.614341 0.201740 0.013652
0.646036 0.206351 0.012642
0.676494 0.211210 0.011089
0.705614 0.216297 0.009537
0.733518 0.221600 0.007984
0.760289 0.226914 0.006678
0.785950 0.232474 0.005914
0.810463 0.238092 0.005570
0.833672 0.243897 0.004781
0.855936 0.249964 0.004657
0.877318 0.256106 0.004238
0.897979 0.262351 0.003450
0.918028 0.268709 0.003450
0.937787 0.274912 0.002908
0.957354 0.281102 0.002661
0.001553 0.245351 0.000000
0.033835 0.245200 0.004904
0.058354 0.246387 0.010103
0.072967 0.248468 0.011040
0.086836 0.250270 0.011040
0.101813 0.250924 0.011040
0.117504 0.249387 0.008970
0.133347 0.244786 0.004731
0.152237 0.236699 0.000394
0.183988 0.225571 0.000000
0.238926 0.226343 0.000000
0.324297 0.234251 0.000000
0.392918 0.229018 0.001552
0.444961 0.223739 0.003894
0.488881 0.220684 0.006949
0.528566 0.219916 0.010054
0.565675 0.221212 0.012888
0.601058 0.224249 0.015352
0.634521 0.228269 0.017078
0.666604 0.232965 0.017595
0.697081 0.238113 0.017324
0.726140 0.243540 0.016782
0.753873 0.249324 0.015476
0.780337 0.255288 0.014194
0.805614 0.261299 0.012642
0.829722 0.267556 0.011878
0.852635 0.273851 0.010744
0.874630 0.280364 0.009956
0.895568 0.286960 0.009167
0.915786 0.293678 0.008379
0.935174 0.300279 0.007861
0.953881 0.306975 0.007565
0.972075 0.313523 0.006284
0.015574 0.273300 0.000493
0.055003 0.273143 0.008255
0.071610 0.275282 0.009463
0.085824 0.277473 0.010251
0.100583 0.279445 0.011040
0.115234 0.279934 0.011040
0.129805 0.278342 0.008182
0.143982 0.273846 0.003967
0.159049 0.266013 0.000394
0.181965 0.254874 0.000000
0.222874 0.246170 0.000000
0.292514 0.255622 0.000000
0.377611 0.262195 0.000493
0.442039 0.258031 0.001552
0.494011 0.253815 0.004337
0.539285 0.251705 0.006949
0.580098 0.251724 0.010547
0.617514 0.253510 0.013948
0.652258 0.256799 0.016905
0.684906 0.261019 0.019246
0.715801 0.265989 0.020700
0.745007 0.271553 0.021489
0.772717 0.277422 0.021686
0.799092 0.283521 0.020897
0.824235 0.289888 0.020404
0.848211 0.296489 0.019641
0.871057 0.303202 0.018876
0.892842 0.310056 0.017817
0.913536 0.317043 0.016658
0.932948 0.324061 0.015870
0.951076 0.331073 0.015081
0.967970 0.338086 0.014268
0.984068 0.344984 0.013504
0.043587 0.301654 0.002513
0.070617 0.302655 0.008083
0.086325 0.304807 0.009463
0.101493 0.307252 0.010966
0.115977 0.308987 0.011040
0.129981 0.309556 0.010374
0.143497 0.307972 0.007713
0.156485 0.303617 0.003031
0.169537 0.296172 0.000394
0.186406 0.285551 0.000000
0.216354 0.273225 0.000000
0.266970 0.271985 0.000000
0.348363 0.286567 0.000000
0.428069 0.291747 0.000789
0.490390 0.288918 0.001996
0.542937 0.286271 0.004632
0.588931 0.285194 0.008132
0.629777 0.285733 0.011632
0.666715 0.287685 0.015204
0.700771 0.291098 0.019098
0.732388 0.295388 0.021883
0.762046 0.300458 0.023608
0.790050 0.306119 0.025382
0.816529 0.312184 0.026393
0.841814 0.318613 0.026639
0.865935 0.325347 0.026319
0.888796 0.332285 0.026319
0.910487 0.339360 0.025998
0.930569 0.346572 0.025580
0.948823 0.353873 0.024816
0.965067 0.361154 0.024052
0.979376 0.368406 0.023287
0.992417 0.375603 0.021735
0.071350 0.330968 0.006407
0.088209 0.332922 0.008625
0.103980 0.335284 0.009906
0.118698 0.337354 0.010966
0.132291 0.338968 0.011040
0.145584 0.339524 0.009931
0.158435 0.337995 0.006949
0.170881 0.333895 0.002883
0.182559 0.326861 0.000197
0.195733 0.316878 0.000000
0.218058 0.304499 0.000000
0.256586 0.295435 0.000000
0.318351 0.302955 0.000000
0.402255 0.318487 0.000025
0.477418 0.323108 0.000789
0.538630 0.321839 0.002760
0.590851 0.320454 0.005865
0.636599 0.320208 0.008970
0.677086 0.321110 0.012864
0.713407 0.323212 0.017077
0.746521 0.326497 0.020651
0.777142 0.330759 0.024199
0.805683 0.335823 0.026960
0.832664 0.341484 0.029276
0.858303 0.347717 0.031050
0.882606 0.354312 0.032257
0.905610 0.361296 0.033022
0.926980 0.368452 0.033440
0.946181 0.375754 0.033761
0.962818 0.383194 0.033761
0.976499 0.390595 0.033366
0.987633 0.397966 0.032627
0.997162 0.405354 0.031839
0.092577 0.361321 0.008305
0.108192 0.363449 0.009857
0.122958 0.365613 0.010670
0.136840 0.367574 0.011459
0.149977 0.369077 0.011040
0.162709 0.369547 0.009586
0.175055 0.368211 0.006605
0.186892 0.364474 0.002292
0.197916 0.357894 0.000197
0.209171 0.348740 0.000000
0.225905 0.337087 0.000000
0.255780 0.325864 0.000000
0.303727 0.324233 0.000000
0.373855 0.337964 0.000000
0.454961 0.351577 0.000789
0.526241 0.355912 0.001577
0.585828 0.355968 0.003524
0.637386 0.355825 0.006629
0.682533 0.356209 0.010522
0.722343 0.357357 0.014736
0.757831 0.359525 0.018975
0.790024 0.362721 0.023263
0.819709 0.366889 0.027132
0.847430 0.371873 0.030410
0.873563 0.377520 0.033145
0.898259 0.383831 0.035461
0.921228 0.390539 0.037408
0.942003 0.397546 0.039230
0.959902 0.404794 0.039986
0.974325 0.412156 0.041069
0.985225 0.419573 0.041116
0.993040 0.426955 0.041466
0.999256 0.434423 0.041466
0.114537 0.391892 0.010645
0.129131 0.393812 0.011410
0.143009 0.395954 0.012223
0.156236 0.397859 0.012223
0.168851 0.399228 0.011533
0.181297 0.399785 0.009709
0.193175 0.398614 0.006605
0.204493 0.395095 0.002489
0.215276 0.389300 0.000789
0.225844 0.381054 0.000000
0.239497 0.370626 0.000000
0.262623 0.359512 0.000000
0.300429 0.352764 0.000000
0.356095 0.358930 0.000000
0.429853 0.374190 0.000049
0.506723 0.385234 0.000814
0.574024 0.389490 0.002366
0.632072 0.391070 0.004682
0.682752 0.391951 0.008181
0.727096 0.392868 0.012075
0.765968 0.394183 0.016659
0.800552 0.396357 0.021316
0.831789 0.399450 0.025579
0.860661 0.403550 0.030237
0.887525 0.408444 0.033711
0.912560 0.414118 0.037013
0.935344 0.420334 0.040112
0.955179 0.426940 0.042370
0.971297 0.433933 0.044181
0.983273 0.441057 0.045881
0.991331 0.448287 0.047281
0.996397 0.455595 0.047981
0.999906 0.462952 0.048972
0.136951 0.422351 0.012987
0.150820 0.424302 0.013356
0.164121 0.426290 0.013775
0.176812 0.428120 0.013061
0.189169 0.429671 0.012297
0.201105 0.430138 0.010374
0.212664 0.429259 0.007122
0.223938 0.426203 0.002711
0.234803 0.421090 0.000789
0.245337 0.414003 0.000000
0.257446 0.405038 0.000000
0.276044 0.394717 0.000000
0.306064 0.386321 0.000000
0.350533 0.385567 0.000000
0.411373 0.395833 0.000000
0.484718 0.409803 0.000419
0.556796 0.419090 0.001577
0.620997 0.424070 0.003154
0.677672 0.427019 0.005841
0.727375 0.428793 0.009685
0.770464 0.430019 0.014342
0.808139 0.431438 0.019000
0.841534 0.433560 0.024027
0.871895 0.436613 0.028685
0.899742 0.440617 0.033342
0.925112 0.445382 0.037211
0.947524 0.450870 0.040506
0.966120 0.456867 0.043494
0.980132 0.463331 0.046358
0.989594 0.470069 0.048682
0.995254 0.476965 0.050344
0.998289 0.483980 0.052323
1.000000 0.491003 0.053560
0.160102 0.452885 0.015328
0.173271 0.454922 0.015328
0.186013 0.456883 0.015328
0.198525 0.458776 0.014539
0.210600 0.460278 0.013061
0.222288 0.460943 0.011163
0.233784 0.460292 0.007738
0.245065 0.457872 0.003499
0.256116 0.453685 0.000986
0.266768 0.447519 0.000222
0.278153 0.439664 0.000000
0.293720 0.430291 0.000000
0.317774 0.421448 0.000000
0.353364 0.416862 0.000000
0.403152 0.421086 0.000000
0.466799 0.432753 0.000000
0.537578 0.445008 0.000789
0.605597 0.453878 0.001947
0.667559 0.459926 0.003943
0.722812 0.463776 0.007368
0.770850 0.466013 0.011237
0.812231 0.467483 0.016240
0.848442 0.468959 0.021588
0.880648 0.471027 0.026787
0.909734 0.473946 0.031789
0.935581 0.477657 0.035658
0.957509 0.482232 0.039722
0.974624 0.487424 0.043284
0.986571 0.493169 0.046358
0.993746 0.499260 0.049113
0.997499 0.505611 0.051768
0.999230 0.512141 0.053588
1.000000 0.518793 0.055843
0.184039 0.483547 0.017201
0.196867 0.485786 0.017201
0.209325 0.487860 0.016881
0.221485 0.489850 0.016165
0.233435 0.491368 0.014613
0.245032 0.492234 0.012396
0.256530 0.491898 0.008650
0.267869 0.490109 0.004781
0.278832 0.486462 0.001774
0.289432 0.481089 0.000789
0.300335 0.474001 0.000000
0.313851 0.465494 0.000000
0.333327 0.456699 0.000000
0.361911 0.450242 0.000000
0.402254 0.449743 0.000000
0.455941 0.457115 0.000000
0.520378 0.468998 0.000074
0.588264 0.480522 0.000838
0.653495 0.489874 0.002391
0.713496 0.496682 0.005052
0.766548 0.501003 0.008625
0.812337 0.503397 0.013529
0.851893 0.504922 0.018482
0.886581 0.506332 0.023903
0.917197 0.508308 0.029325
0.943576 0.510963 0.033933
0.965052 0.514416 0.037975
0.980799 0.518591 0.041686
0.990869 0.523437 0.045349
0.996294 0.528764 0.048141
0.998761 0.534418 0.050872
0.999684 0.540257 0.052817
1.000000 0.546272 0.056311
0.209361 0.514640 0.020306
0.221666 0.516890 0.019542
0.233941 0.519178 0.019517
0.245963 0.521267 0.018433
0.257709 0.523014 0.016954
0.269320 0.524089 0.014244
0.280652 0.523991 0.010498
0.291802 0.522521 0.006333
0.302539 0.519341 0.003056
0.312883 0.514474 0.001306
0.323315 0.507967 0.000247
0.335246 0.500007 0.000000
0.351510 0.491500 0.000000
0.374536 0.484127 0.000000
0.407193 0.480697 0.000000
0.451679 0.483805 0.000000
0.507933 0.493036 0.000000
0.571812 0.505053 0.000789
0.637187 0.516730 0.001577
0.700244 0.526596 0.003179
0.757683 0.533729 0.005816
0.808100 0.538048 0.009685
0.851607 0.540461 0.015081
0.889269 0.541882 0.020577
0.921795 0.543203 0.026023
0.949051 0.544857 0.031469
0.970245 0.547258 0.035978
0.984934 0.550392 0.039380
0.993559 0.554195 0.042980
0.997730 0.558573 0.045979
0.999384 0.563373 0.049239
0.999836 0.568410 0.051660
1.000000 0.573605 0.054209
0.236043 0.546021 0.023411
0.248063 0.548432 0.022622
0.260064 0.550888 0.022622
0.271832 0.553069 0.021119
0.283371 0.554962 0.019567
0.294681 0.556085 0.016560
0.305856 0.556201 0.012815
0.316662 0.554891 0.008502
0.327046 0.552096 0.004608
0.337089 0.547587 0.002070
0.346952 0.541555 0.000789
0.357725 0.534133 0.000000
0.371440 0.525830 0.000000
0.390343 0.518083 0.000000
0.416838 0.512874 0.000000
0.453269 0.512481 0.000000
0.501001 0.518172 0.000000
0.558271 0.528600 0.000000
0.620815 0.540969 0.000789
0.684355 0.553078 0.001626
0.744893 0.563142 0.003475
0.799605 0.570182 0.006580
0.847422 0.574476 0.011237
0.888484 0.576684 0.016634
0.923395 0.577959 0.022129
0.951898 0.578980 0.027575
0.973298 0.580433 0.032750
0.987330 0.582508 0.036767
0.995096 0.585256 0.040652
0.998495 0.588599 0.043444
0.999662 0.592414 0.046490
0.999948 0.596563 0.049000
1.000000 0.600809 0.051226
0.263790 0.577432 0.026762
0.275484 0.580046 0.026516
0.287172 0.582533 0.025727
0.298637 0.584817 0.024470
0.309802 0.586724 0.022671
0.320824 0.587991 0.019665
0.331615 0.588189 0.015919
0.342101 0.587093 0.011015
0.352206 0.584573 0.006358
0.361782 0.580430 0.003056
0.371201 0.574745 0.001282
0.381002 0.567761 0.000271
0.392840 0.559799 0.000000
0.408449 0.551889 0.000000
0.430005 0.545415 0.000000
0.459739 0.542451 0.000000
0.499420 0.544664 0.000000
0.549078 0.552234 0.000000
0.606378 0.563598 0.000099
0.667920 0.576651 0.000789
0.729442 0.588955 0.001626
0.787298 0.598939 0.003992
0.839200 0.605756 0.007344
0.884094 0.609718 0.012001
0.921909 0.611685 0.017398
0.952193 0.612612 0.023435
0.974367 0.613463 0.028881
0.988440 0.614613 0.032997
0.995769 0.616371 0.036767
0.998816 0.618701 0.039773
0.999770 0.621504 0.043077
0.999963 0.624625 0.045753
1.000000 0.627952 0.047634
0.292273 0.608694 0.030631
0.303638 0.611349 0.030631
0.314869 0.613892 0.029842
0.325953 0.616290 0.028339
0.336810 0.618240 0.026565
0.347462 0.619558 0.023115
0.357854 0.619819 0.019024
0.368027 0.618923 0.013578
0.377773 0.616581 0.008699
0.386949 0.612721 0.004608
0.395802 0.607451 0.001824
0.404884 0.600819 0.000789
0.415175 0.593201 0.000000
0.428281 0.585226 0.000000
0.445929 0.578027 0.000000
0.470153 0.573184 0.000000
0.502720 0.572343 0.000000
0.544703 0.576585 0.000000
0.595427 0.585632 0.000000
0.652757 0.598054 0.000099
0.713128 0.611603 0.000863
0.772432 0.623927 0.002415
0.827414 0.633545 0.004239
0.876103 0.639931 0.007886
0.917308 0.643424 0.012543
0.950014 0.645061 0.017989
0.973674 0.645808 0.023435
0.988377 0.646364 0.028881
0.995876 0.647317 0.032750
0.998908 0.648687 0.037334
0.999820 0.650495 0.039478
1.000000 0.652658 0.042112
1.000000 0.654978 0.044113
0.321331 0.639475 0.035289
0.332239 0.642282 0.034525
0.343002 0.644867 0.033761
0.353717 0.647284 0.032997
0.364128 0.649277 0.030656
0.374410 0.650622 0.026984
0.384431 0.651014 0.022475
0.394246 0.650241 0.016856
0.403619 0.648061 0.011237
0.412529 0.644456 0.006383
0.420930 0.639459 0.003056
0.429281 0.633199 0.001060
0.438401 0.625875 0.000296
0.449511 0.618045 0.000000
0.464033 0.610346 0.000000
0.483764 0.604188 0.000000
0.510368 0.600897 0.000000
0.545298 0.601936 0.000000
0.589047 0.608077 0.000000
0.640698 0.618621 0.000000
0.697732 0.631901 0.000099
0.756460 0.645612 0.000863
0.813138 0.657612 0.002415
0.864932 0.666609 0.004780
0.909571 0.672386 0.007886
0.945361 0.675456 0.012543
0.971189 0.676771 0.017940
0.987253 0.677261 0.023238
0.995492 0.677636 0.027995
0.998838 0.678240 0.032036
0.999770 0.679182 0.035289
1.000000 0.680411 0.038887
1.000000 0.681785 0.040020
0.350536 0.669837 0.040104
0.360889 0.672525 0.039347
0.371354 0.675127 0.038589
0.381571 0.677577 0.037655
0.391633 0.679632 0.035313
0.401536 0.681012 0.031641
0.411176 0.681439 0.026984
0.420609 0.680750 0.020749
0.429729 0.678791 0.013948
0.438324 0.675316 0.008329
0.446407 0.670595 0.004066
0.454136 0.664632 0.001848
0.462264 0.657622 0.000468
0.471780 0.649995 0.000000
0.483889 0.642184 0.000000
0.499979 0.635116 0.000000
0.521657 0.630058 0.000000
0.550458 0.628449 0.000000
0.587546 0.631404 0.000000
0.632793 0.639226 0.000000
0.684922 0.650992 0.000000
0.741054 0.664794 0.000099
0.797730 0.678288 0.000863
0.851375 0.689632 0.002415
0.899119 0.697972 0.004780
0.938193 0.703076 0.007886
0.966847 0.705645 0.012371
0.985009 0.706651 0.017029
0.994543 0.706979 0.022475
0.998433 0.707114 0.027132
0.999702 0.707366 0.030927
0.999948 0.707758 0.033465
1.000000 0.708348 0.036718
0.379692 0.699327 0.045274
0.389776 0.702077 0.044569
0.399737 0.704715 0.043857
0.409518 0.707067 0.042389
0.419154 0.709095 0.040061
0.428657 0.710445 0.036447
0.437941 0.710965 0.031641
0.447078 0.710321 0.024791
0.455887 0.708379 0.017644
0.464227 0.705136 0.010646
0.472003 0.700586 0.005618
0.479351 0.694932 0.002267
0.486697 0.688250 0.000789
0.494930 0.680860 0.000000
0.505106 0.673137 0.000000
0.518382 0.665644 0.000000
0.536125 0.659381 0.000000
0.559788 0.655574 0.000000
0.590743 0.655706 0.000000
0.629581 0.660492 0.000000
0.675870 0.669862 0.000000
0.727859 0.682471 0.000000
0.782612 0.696341 0.000099
0.836729 0.709384 0.000863
0.886608 0.720020 0.002415
