bundles/resolve-cinematic-luts/Gamut/Orion/Orion Warm.cube
TITLE "Orion Warm by Gamut"
# Contributor - JVKE. Version 1.0 - 09/28/2023 - Designed for Rec.709 Color Space. Copyright 2023 Gamut, LLC
LUT_3D_SIZE 33
0.001577 0.026023 0.002366
0.030261 0.022894 0.010128
0.046475 0.024397 0.007985
0.062649 0.027452 0.006383
0.078517 0.029177 0.004830
0.100478 0.030754 0.001823
0.128729 0.031543 0.000000
0.160066 0.032159 0.000000
0.194083 0.032923 0.000000
0.229121 0.034475 0.000000
0.263878 0.033909 0.000000
0.296664 0.033120 0.000000
0.327014 0.032332 0.000000
0.355326 0.031075 0.000000
0.383498 0.029966 0.000000
0.411285 0.028758 0.000000
0.438435 0.027600 0.000000
0.465878 0.026442 0.000000
0.493998 0.026023 0.000000
0.522953 0.026023 0.000000
0.551969 0.026023 0.000000
0.580931 0.025752 0.000000
0.609657 0.024988 0.000000
0.638510 0.023213 0.000000
0.666562 0.019911 0.000000
0.693481 0.015254 0.000000
0.718305 0.010449 0.000000
0.739618 0.005397 0.000000
0.762913 0.003844 0.000000
0.786712 0.003154 0.000000
0.809933 0.003203 0.000000
0.833712 0.003968 0.000000
0.857246 0.005520 0.000000
0.000025 0.045127 0.003154
0.023312 0.042947 0.003203
0.052129 0.041463 0.007812
0.073551 0.042175 0.005619
0.091241 0.042926 0.006309
0.112049 0.044382 0.000468
0.134810 0.045225 0.000000
0.163336 0.045225 0.000000
0.195572 0.045250 0.000000
0.229441 0.045250 0.000000
0.263692 0.045274 0.000000
0.296705 0.045945 0.000000
0.326978 0.045945 0.000000
0.355917 0.045225 0.000000
0.384498 0.045201 0.000000
0.412645 0.044791 0.000000
0.440360 0.044424 0.000000
0.468590 0.044424 0.000000
0.498147 0.045102 0.000000
0.528270 0.045822 0.000000
0.558274 0.045822 0.000000
0.588086 0.045822 0.000000
0.617826 0.044875 0.000000
0.646954 0.042499 0.000000
0.674800 0.039084 0.000000
0.699085 0.033244 0.000000
0.723074 0.030261 0.000000
0.747247 0.028635 0.000000
0.771276 0.028069 0.000000
0.795213 0.028783 0.000000
0.818868 0.029547 0.000000
0.842698 0.031050 0.000000
0.866195 0.031864 0.000000
0.000000 0.063922 0.003203
0.016387 0.064976 0.000074
0.041978 0.061103 0.003894
0.071009 0.059934 0.006284
0.098585 0.058752 0.003400
0.122725 0.058184 0.003943
0.149778 0.059323 0.000246
0.175192 0.059998 0.000000
0.203340 0.059551 0.000000
0.234679 0.059398 0.000000
0.267615 0.059398 0.000000
0.300208 0.059398 0.000000
0.331142 0.059998 0.000000
0.360226 0.060901 0.000000
0.389394 0.061798 0.000000
0.418693 0.063951 0.000000
0.447398 0.065254 0.000000
0.476571 0.065797 0.000000
0.507362 0.066850 0.000000
0.538261 0.067162 0.000000
0.568957 0.066957 0.000000
0.599077 0.066271 0.000000
0.628568 0.064487 0.000000
0.656753 0.061701 0.000000
0.680853 0.057639 0.000000
0.706049 0.053970 0.000000
0.731276 0.052908 0.000000
0.756062 0.052860 0.000000
0.780558 0.053591 0.000000
0.804673 0.054811 0.000000
0.828467 0.056011 0.000000
0.852500 0.057240 0.000000
0.876111 0.058449 0.000000
0.000000 0.082899 0.000937
0.013209 0.082978 0.000025
0.032775 0.083314 0.000049
0.060710 0.078783 0.005372
0.092194 0.077726 0.004041
0.128461 0.074978 0.000320
0.158726 0.072999 0.000074
0.190805 0.074305 0.000000
0.219385 0.074858 0.000000
0.248710 0.075743 0.000000
0.280068 0.076620 0.000000
0.311547 0.077417 0.000000
0.342196 0.078798 0.000000
0.371819 0.080159 0.000000
0.401254 0.082389 0.000000
0.430971 0.084902 0.000000
0.460394 0.087459 0.000000
0.490380 0.088930 0.000000
0.521217 0.089586 0.000000
0.551928 0.089443 0.000000
0.581876 0.088289 0.000000
0.610969 0.086034 0.000000
0.636537 0.083248 0.000000
0.662676 0.079725 0.000000
0.689135 0.078098 0.000000
0.715395 0.077507 0.000000
0.741026 0.077841 0.000000
0.766234 0.078477 0.000000
0.790807 0.079784 0.000000
0.815161 0.081239 0.000000
0.839146 0.082981 0.000000
0.863204 0.084742 0.000000
0.886900 0.086520 0.000000
0.000000 0.102156 0.000000
0.013160 0.102208 0.000000
0.027304 0.102594 0.000000
0.050314 0.101677 0.000148
0.081469 0.097239 0.005421
0.122013 0.095924 0.000370
0.165209 0.091253 0.000000
0.198614 0.088666 0.000000
0.230897 0.088968 0.000000
0.267455 0.092685 0.000000
0.298880 0.094525 0.000000
0.329898 0.096757 0.000000
0.359668 0.099018 0.000000
0.389098 0.101287 0.000000
0.418637 0.103720 0.000000
0.448106 0.106259 0.000000
0.477030 0.108613 0.000000
0.506190 0.110224 0.000000
0.536062 0.110610 0.000000
0.565331 0.109669 0.000000
0.590755 0.106193 0.000000
0.617310 0.104242 0.000000
0.644513 0.103257 0.000000
0.671961 0.102889 0.000000
0.699292 0.102983 0.000000
0.725973 0.103683 0.000000
0.751944 0.104448 0.000000
0.777249 0.105877 0.000000
0.801874 0.107385 0.000000
0.826361 0.109132 0.000000
0.850367 0.111161 0.000000
0.874431 0.112913 0.000000
0.898227 0.114917 0.000000
0.000000 0.122923 0.000000
0.013849 0.122328 0.000000
0.026368 0.123581 0.000000
0.043461 0.124171 0.000000
0.070368 0.121891 0.000271
0.107186 0.116262 0.003820
0.161982 0.115306 0.000173
0.206731 0.109513 0.000000
0.242926 0.107452 0.000000
0.277373 0.107831 0.000000
0.310812 0.109590 0.000000
0.343346 0.112233 0.000000
0.374275 0.115201 0.000000
0.404036 0.118245 0.000000
0.433362 0.120815 0.000000
0.461380 0.122893 0.000000
0.488174 0.124370 0.000000
0.515190 0.125480 0.000000
0.542948 0.126369 0.000000
0.571187 0.126886 0.000000
0.599069 0.126876 0.000000
0.627086 0.127229 0.000000
0.655188 0.127740 0.000000
0.683139 0.128387 0.000000
0.710695 0.129321 0.000000
0.737476 0.130659 0.000000
0.763551 0.132165 0.000000
0.788836 0.133889 0.000000
0.813657 0.135871 0.000000
0.838082 0.137880 0.000000
0.862299 0.140048 0.000000
0.886357 0.142464 0.000000
0.910068 0.144609 0.000000
0.000000 0.145303 0.000000
0.013184 0.145029 0.000000
0.024988 0.146779 0.000000
0.039696 0.148052 0.000000
0.060731 0.147773 0.000000
0.096483 0.143615 0.000173
0.141890 0.139410 0.000148
0.205886 0.136449 0.000000
0.253072 0.131366 0.000000
0.291109 0.129108 0.000567
0.325500 0.129075 0.001429
0.357698 0.130754 0.000641
0.387667 0.133392 0.000641
0.416309 0.136255 0.000000
0.444199 0.138825 0.000000
0.471682 0.141291 0.000000
0.498476 0.143468 0.000000
0.525839 0.145354 0.000000
0.554016 0.147301 0.000000
0.582493 0.149101 0.000000
0.610996 0.150568 0.000000
0.639365 0.152020 0.000000
0.667650 0.153251 0.000000
0.695692 0.154677 0.000000
0.723295 0.156346 0.000000
0.750052 0.158101 0.000000
0.776117 0.160019 0.000000
0.801349 0.162157 0.000000
0.826159 0.164459 0.000000
0.850674 0.166797 0.000000
0.874822 0.169260 0.000000
0.898878 0.171740 0.000000
0.922577 0.174350 0.000000
0.000000 0.170161 0.000000
0.012395 0.169803 0.000000
0.024840 0.172118 0.000000
0.039305 0.174286 0.000000
0.057423 0.174983 0.000000
0.086351 0.172539 0.000000
0.134417 0.165100 0.000000
0.189074 0.165295 0.000000
0.253390 0.159348 0.000000
0.301359 0.154037 0.000000
0.339783 0.151854 0.000789
0.373084 0.152004 0.003401
0.403139 0.153576 0.003105
0.431931 0.155973 0.000937
0.459874 0.158608 0.000616
0.487120 0.161434 0.000000
0.514054 0.164208 0.000000
0.541192 0.166935 0.000000
0.569107 0.169616 0.000000
0.597296 0.172076 0.000000
0.625667 0.174309 0.000000
0.653950 0.176430 0.000000
0.682098 0.178524 0.000000
0.709948 0.180540 0.000000
0.737345 0.182634 0.000000
0.764005 0.184912 0.000000
0.789845 0.187147 0.000000
0.815215 0.189725 0.000000
0.839956 0.192444 0.000000
0.864343 0.195172 0.000000
0.888426 0.197835 0.000000
0.912349 0.200517 0.000000
0.936038 0.203284 0.000000
0.000000 0.197552 0.000000
0.011632 0.197552 0.000000
0.025234 0.199607 0.000000
0.041884 0.201407 0.000000
0.061731 0.202403 0.000000
0.085679 0.200910 0.000000
0.122631 0.194349 0.000000
0.173441 0.186088 0.000000
0.242814 0.189640 0.000000
0.303257 0.182288 0.000000
0.349743 0.177200 0.000000
0.386752 0.174947 0.000912
0.418623 0.175223 0.002464
0.447997 0.176716 0.003154
0.476402 0.179159 0.002514
0.504184 0.182080 0.000961
0.531456 0.185151 0.000592
0.558555 0.188216 0.000222
0.586214 0.191320 0.000000
0.614190 0.194277 0.000000
0.642346 0.197281 0.000000
0.670322 0.199973 0.000000
0.698234 0.202747 0.000000
0.725818 0.205240 0.000000
0.752995 0.207937 0.000000
0.779471 0.210597 0.000000
0.805222 0.213286 0.000000
0.830428 0.216221 0.000000
0.854967 0.219243 0.000000
0.879177 0.222152 0.000000
0.903116 0.225297 0.000000
0.926808 0.228353 0.000000
0.950234 0.231521 0.000000
0.000000 0.225816 0.000000
0.015426 0.224938 0.000000
0.032036 0.226424 0.000000
0.050097 0.228283 0.000000
0.069521 0.228975 0.000000
0.091267 0.227746 0.000000
0.119740 0.222605 0.000000
0.162889 0.212010 0.000000
0.218318 0.209411 0.000000
0.294340 0.211897 0.000000
0.352104 0.204668 0.000000
0.396082 0.200185 0.000000
0.431663 0.198527 0.000715
0.462793 0.198838 0.001700
0.492277 0.200582 0.003031
0.520631 0.203105 0.002932
0.548430 0.206061 0.002144
0.575872 0.209243 0.000986
0.603781 0.212599 0.000567
0.631906 0.215943 0.000247
0.659984 0.219299 0.000000
0.687860 0.222600 0.000000
0.715565 0.225674 0.000000
0.743010 0.228806 0.000000
0.769996 0.231955 0.000000
0.796322 0.235058 0.000000
0.821883 0.238275 0.000000
0.846784 0.241515 0.000000
0.871227 0.244853 0.000000
0.895178 0.248270 0.000000
0.918658 0.251590 0.000000
0.941748 0.255062 0.000000
0.964488 0.258565 0.000000
0.000000 0.253286 0.000000
0.026048 0.251389 0.000000
0.043775 0.252782 0.000000
0.061650 0.253922 0.000000
0.080655 0.254309 0.000000
0.101347 0.253250 0.000000
0.125473 0.249189 0.000000
0.158157 0.240316 0.000000
0.204448 0.229100 0.000000
0.272584 0.235066 0.000000
0.344869 0.233768 0.000000
0.398534 0.227446 0.000000
0.440311 0.223945 0.000000
0.474922 0.222689 0.000247
0.506313 0.223288 0.001035
0.535930 0.225010 0.002243
0.564503 0.227450 0.003006
0.592567 0.230484 0.002538
0.620909 0.233770 0.001774
0.649421 0.237255 0.001011
0.677713 0.240741 0.000789
0.705746 0.244320 0.000271
0.733512 0.247889 0.000000
0.760867 0.251401 0.000000
0.787794 0.254893 0.000000
0.813969 0.258391 0.000000
0.839424 0.262025 0.000000
0.864305 0.265699 0.000000
0.888424 0.269377 0.000000
0.911866 0.273083 0.000000
0.934524 0.276850 0.000000
0.956290 0.280608 0.000000
0.977560 0.284383 0.000000
0.002588 0.278495 0.000000
0.037992 0.276940 0.000000
0.056991 0.278038 0.000000
0.075323 0.278898 0.000000
0.093918 0.279136 0.000000
0.113783 0.278064 0.000000
0.136043 0.274377 0.000000
0.161332 0.266899 0.000000
0.195571 0.255759 0.000000
0.247941 0.250921 0.000000
0.325784 0.259429 0.000000
0.393105 0.256389 0.000000
0.442756 0.251445 0.000000
0.482717 0.248744 0.000000
0.517505 0.247769 0.000000
0.549229 0.248314 0.000789
0.579184 0.250013 0.001454
0.608233 0.252454 0.002366
0.637259 0.255414 0.002366
0.666227 0.258731 0.001774
0.695067 0.262310 0.001306
0.723443 0.265922 0.000789
0.751386 0.269663 0.000789
0.778956 0.273379 0.000000
0.805912 0.277176 0.000000
0.832130 0.280999 0.000000
0.857599 0.284880 0.000000
0.882291 0.288858 0.000000
0.906032 0.292876 0.000000
0.928644 0.296955 0.000000
0.949666 0.301013 0.000000
0.969278 0.305096 0.000000
0.987932 0.309170 0.000000
0.023657 0.302621 0.000000
0.052685 0.302077 0.000000
0.071679 0.302850 0.000000
0.090309 0.303494 0.000000
0.109274 0.303820 0.000000
0.128694 0.302637 0.000000
0.148958 0.299018 0.000000
0.169801 0.292665 0.000000
0.195453 0.282650 0.000000
0.236241 0.272308 0.000000
0.298290 0.276663 0.000000
0.377061 0.283727 0.000000
0.437871 0.280438 0.000000
0.484705 0.276723 0.000000
0.524351 0.274503 0.000000
0.559582 0.273855 0.000000
0.591866 0.274478 0.000789
0.622429 0.276019 0.001084
0.652408 0.278242 0.001577
0.682204 0.281148 0.001873
0.711664 0.284321 0.001577
0.740624 0.287835 0.001577
0.769013 0.291547 0.000789
0.796822 0.295272 0.000789
0.824020 0.299212 0.000000
0.850429 0.303198 0.000000
0.875938 0.307246 0.000000
0.900412 0.311489 0.000000
0.923512 0.315749 0.000000
0.944625 0.320082 0.000000
0.963332 0.324422 0.000000
0.979802 0.328694 0.000000
0.994850 0.333031 0.000000
0.049889 0.326373 0.000000
0.070074 0.326913 0.000000
0.089105 0.327605 0.000000
0.107790 0.328156 0.000000
0.126750 0.328281 0.000000
0.145484 0.327185 0.000000
0.163771 0.323993 0.000000
0.181454 0.318094 0.000000
0.201461 0.308976 0.000000
0.231967 0.297874 0.000000
0.279899 0.293295 0.000000
0.351827 0.304107 0.000000
0.424614 0.308738 0.000000
0.480159 0.306121 0.000000
0.525853 0.303393 0.000000
0.565720 0.301833 0.000000
0.601329 0.301187 0.000000
0.634354 0.301550 0.000690
0.666079 0.302860 0.000789
0.697031 0.304906 0.001109
0.727457 0.307513 0.001577
0.757036 0.310576 0.001577
0.786075 0.313988 0.000789
0.814377 0.317627 0.000789
0.841907 0.321372 0.000592
0.868564 0.325413 0.000000
0.894172 0.329544 0.000000
0.918166 0.333779 0.000000
0.940067 0.338252 0.000000
0.959125 0.342725 0.000000
0.974867 0.347220 0.000000
0.987545 0.351743 0.000000
0.998369 0.356248 0.000000
0.071039 0.351308 0.000000
0.089788 0.351921 0.000000
0.108892 0.352461 0.000000
0.127474 0.352871 0.000000
0.145799 0.352894 0.000000
0.163108 0.351892 0.000000
0.179609 0.348997 0.000000
0.195461 0.343785 0.000000
0.211712 0.335520 0.000000
0.234283 0.324896 0.000000
0.271769 0.315597 0.000000
0.327930 0.319584 0.000000
0.402684 0.331913 0.000000
0.468317 0.335311 0.000000
0.521278 0.333606 0.000000
0.566535 0.331571 0.000000
0.606610 0.330147 0.000000
0.643005 0.329415 0.000000
0.677251 0.329528 0.000345
0.710122 0.330605 0.000789
0.741833 0.332326 0.000789
0.772494 0.334618 0.000789
0.802315 0.337434 0.000789
0.831310 0.340633 0.000789
0.859404 0.344212 0.000592
0.886310 0.347988 0.000000
0.911713 0.352056 0.000000
0.934939 0.356308 0.000000
0.955094 0.360746 0.000000
0.971516 0.365305 0.000000
0.983783 0.369840 0.000000
0.992754 0.374492 0.000000
0.999756 0.379154 0.000000
0.092794 0.376386 0.000000
0.111573 0.376758 0.000000
0.130370 0.377208 0.000000
0.148485 0.377452 0.000000
0.165426 0.377559 0.000000
0.181380 0.376791 0.000000
0.196597 0.374436 0.000000
0.210959 0.369648 0.000000
0.224939 0.362443 0.000000
0.242513 0.352744 0.000000
0.271588 0.342709 0.000000
0.316371 0.339661 0.000000
0.378957 0.349994 0.000000
0.449011 0.360400 0.000000
0.510030 0.363162 0.000000
0.561541 0.362193 0.000000
0.606727 0.360835 0.000000
0.647530 0.359519 0.000000
0.685187 0.358718 0.000000
0.720655 0.358578 0.000000
0.754320 0.359111 0.000370
0.786563 0.360462 0.000789
0.817597 0.362425 0.000789
0.847481 0.364984 0.000567
0.876168 0.368062 0.000370
0.903325 0.371456 0.000000
0.928280 0.375228 0.000000
0.950115 0.379315 0.000000
0.967958 0.383660 0.000000
0.981315 0.388107 0.000000
0.990425 0.392755 0.000000
0.996111 0.397342 0.000000
0.999986 0.402014 0.000000
0.117058 0.401593 0.000000
0.135496 0.401849 0.000000
0.153565 0.402271 0.000000
0.170450 0.402822 0.000000
0.185968 0.403104 0.000000
0.200822 0.402740 0.000000
0.214931 0.400740 0.000000
0.228235 0.396602 0.000000
0.241060 0.390306 0.000000
0.255765 0.381900 0.000000
0.278264 0.372445 0.000000
0.313906 0.366057 0.000000
0.363959 0.369738 0.000000
0.427083 0.381163 0.000000
0.492493 0.389516 0.000000
0.550454 0.392077 0.000000
0.601270 0.391981 0.000000
0.647081 0.391057 0.000000
0.689011 0.389822 0.000000
0.727942 0.388754 0.000000
0.764310 0.388187 0.000000
0.798708 0.388411 0.000000
0.831338 0.389333 0.000000
0.862415 0.390974 0.000000
0.891820 0.393288 0.000000
0.919035 0.396164 0.000000
0.943133 0.399496 0.000000
0.963146 0.403285 0.000000
0.978301 0.407286 0.000000
0.988546 0.411628 0.000000
0.994712 0.416032 0.000000
0.998096 0.420590 0.000000
0.999987 0.425142 0.000000
0.143763 0.427057 0.000000
0.161071 0.427484 0.000000
0.177471 0.428258 0.000000
0.192963 0.429003 0.000000
0.207655 0.429645 0.000000
0.221459 0.429581 0.000000
0.234719 0.428056 0.000000
0.247455 0.424697 0.000000
0.259739 0.419406 0.000000
0.272921 0.412294 0.000000
0.290895 0.403866 0.000000
0.318890 0.396433 0.000000
0.358863 0.394586 0.000000
0.410876 0.401654 0.000000
0.472575 0.412191 0.000000
0.534191 0.419134 0.000000
0.590250 0.422045 0.000000
0.641224 0.422671 0.000000
0.688017 0.421986 0.000000
0.731156 0.420707 0.000000
0.771140 0.419383 0.000000
0.808241 0.418447 0.000000
0.843035 0.418242 0.000000
0.875686 0.418902 0.000000
0.905859 0.420281 0.000000
0.933017 0.422362 0.000000
0.955972 0.425075 0.000000
0.973706 0.428326 0.000000
0.985920 0.431961 0.000000
0.993432 0.435906 0.000000
0.997328 0.440129 0.000000
0.999153 0.444457 0.000000
0.999987 0.448790 0.000000
0.171715 0.453292 0.000000
0.187348 0.454117 0.000000
0.202419 0.455056 0.000000
0.216744 0.456172 0.000000
0.230337 0.457083 0.000000
0.243319 0.457342 0.000000
0.256027 0.456398 0.000000
0.268321 0.453805 0.000000
0.280258 0.449427 0.000000
0.292463 0.443327 0.000000
0.307377 0.435719 0.000000
0.329410 0.428139 0.000000
0.361146 0.423403 0.000000
0.403649 0.425530 0.000000
0.456571 0.433788 0.000000
0.516034 0.443038 0.000000
0.574879 0.449315 0.000000
0.630236 0.452674 0.000000
0.681914 0.453823 0.000000
0.729878 0.453386 0.000000
0.774002 0.452016 0.000000
0.814523 0.450427 0.000000
0.851977 0.449205 0.000000
0.886414 0.448723 0.000000
0.917661 0.449098 0.000000
0.944640 0.450241 0.000000
0.966138 0.452096 0.000000
0.981607 0.454615 0.000000
0.991227 0.457718 0.000000
0.996418 0.461179 0.000000
0.998785 0.464992 0.000000
0.999644 0.468936 0.000000
0.999985 0.472962 0.000345
0.199646 0.480347 0.000000
0.214140 0.481652 0.000000
0.228000 0.482985 0.000000
0.241333 0.484325 0.000000
0.254104 0.485507 0.000000
0.266521 0.486080 0.000000
0.278671 0.485575 0.000000
0.290500 0.483524 0.000000
0.301859 0.479823 0.000000
0.313163 0.474376 0.000000
0.326127 0.467526 0.000000
0.343854 0.460142 0.000000
0.369104 0.454211 0.000000
0.403325 0.452602 0.000000
0.447600 0.457102 0.000000
0.500474 0.465537 0.000000
0.557999 0.473910 0.000000
0.615430 0.480057 0.000000
0.671054 0.483950 0.000000
0.723628 0.485440 0.000000
0.772275 0.485058 0.000000
0.816838 0.483532 0.000000
0.857409 0.481781 0.000000
0.894186 0.480316 0.000000
0.926561 0.479568 0.000000
0.953450 0.479706 0.000000
0.973679 0.480585 0.000000
0.987034 0.482265 0.000000
0.994571 0.484600 0.000000
0.998121 0.487496 0.000000
0.999460 0.490746 0.000000
0.999906 0.494188 0.000000
1.000000 0.497805 0.000000
0.227550 0.508237 0.000000
0.240741 0.509844 0.000000
0.253787 0.511464 0.000000
0.266282 0.513041 0.000000
0.278469 0.514426 0.000000
0.290338 0.515214 0.000000
0.301869 0.514988 0.000000
0.313155 0.513354 0.000000
0.323976 0.510088 0.000000
0.334681 0.505260 0.000000
0.346216 0.498999 0.000000
0.360928 0.491944 0.000000
0.381115 0.485466 0.000000
0.408596 0.481689 0.000000
0.444721 0.482642 0.000000
0.490007 0.488495 0.000000
0.542595 0.496838 0.000000
0.599043 0.504957 0.000000
0.656377 0.511446 0.000000
0.712541 0.515570 0.000000
0.765654 0.517103 0.000000
0.814528 0.516690 0.000000
0.858845 0.515039 0.000000
0.898354 0.513117 0.000000
0.932245 0.511520 0.000000
0.959321 0.510619 0.000000
0.978655 0.510501 0.000000
0.990482 0.511228 0.000000
0.996494 0.512705 0.000000
0.998993 0.514810 0.000000
0.999781 0.517338 0.000000
0.999941 0.520211 0.000000
1.000000 0.523237 0.000493
0.255138 0.536531 0.000789
0.267382 0.538348 0.000271
0.279537 0.540199 0.000000
0.291443 0.541996 0.000000
0.302965 0.543542 0.000000
0.314256 0.544474 0.000000
0.325284 0.544420 0.000000
0.336036 0.543111 0.000000
0.346350 0.540212 0.000000
0.356469 0.535845 0.000000
0.367021 0.530096 0.000000
0.379548 0.523364 0.000000
0.396004 0.516719 0.000000
0.418097 0.511663 0.000000
0.447381 0.509959 0.000000
0.485067 0.512767 0.000000
0.531010 0.519370 0.000000
0.583476 0.527819 0.000000
0.639852 0.536098 0.000000
0.697700 0.542861 0.000000
0.754277 0.547097 0.000000
0.807438 0.548648 0.000000
0.855847 0.548133 0.000000
0.898549 0.546416 0.000000
0.934474 0.544305 0.000000
0.962302 0.542607 0.000000
0.981358 0.541537 0.000000
0.992347 0.541314 0.000000
0.997491 0.541860 0.000000
0.999383 0.543117 0.000000
0.999903 0.544869 0.000000
0.999982 0.546973 0.000000
1.000000 0.549247 0.000789
0.282238 0.565024 0.001035
0.293752 0.567090 0.000789
0.305187 0.569094 0.000789
0.316422 0.571022 0.000247
0.327416 0.572638 0.000000
0.338190 0.573737 0.000000
0.348767 0.573834 0.000000
0.358985 0.572684 0.000000
0.368934 0.570131 0.000000
0.378503 0.566164 0.000000
0.388269 0.560862 0.000000
0.399199 0.554433 0.000000
0.412929 0.547758 0.000000
0.430852 0.541995 0.000000
0.454499 0.538376 0.000000
0.485304 0.538436 0.000000
0.524135 0.542475 0.000000
0.570756 0.549729 0.000000
0.623663 0.558575 0.000000
0.680771 0.567206 0.000000
0.739074 0.574033 0.000000
0.795723 0.578241 0.000000
0.848187 0.579792 0.000000
0.894586 0.579134 0.000000
0.933266 0.577314 0.000000
0.962643 0.575262 0.000000
0.982140 0.573480 0.000000
0.993024 0.572375 0.000000
0.997861 0.572006 0.000000
0.999542 0.572308 0.000000
0.999923 0.573190 0.000000
1.000000 0.574503 0.000247
1.000000 0.575950 0.000000
0.308907 0.593598 0.002588
0.319739 0.595823 0.001824
0.330589 0.597996 0.001060
0.341244 0.600010 0.000789
0.351737 0.601717 0.000321
0.362029 0.602878 0.000000
0.372135 0.603081 0.000000
0.381983 0.602118 0.000000
0.391527 0.599860 0.000000
0.400639 0.596183 0.000000
0.409736 0.591181 0.000000
0.419508 0.585176 0.000000
0.431148 0.578583 0.000000
0.445886 0.572342 0.000000
0.465035 0.567487 0.000000
0.490070 0.565267 0.000000
0.522223 0.566663 0.000000
0.562211 0.571732 0.000000
0.609869 0.579694 0.000000
0.663890 0.588981 0.000000
0.721793 0.597888 0.000000
0.780264 0.604801 0.000000
0.836084 0.608906 0.000000
0.886373 0.610338 0.000000
0.928444 0.609673 0.000000
0.960282 0.607859 0.000000
0.981224 0.605791 0.000000
0.992747 0.604061 0.000000
0.997877 0.602934 0.000000
0.999532 0.602444 0.000000
0.999949 0.602457 0.000000
1.000000 0.602868 0.000025
1.000000 0.603476 0.000000
0.335052 0.622073 0.004928
0.345317 0.624447 0.003573
0.355554 0.626721 0.002612
0.365780 0.628852 0.001774
0.375739 0.630626 0.000789
0.385599 0.631804 0.000321
0.395392 0.632138 0.000000
0.404878 0.631386 0.000000
0.414082 0.629295 0.000000
0.422841 0.625880 0.000000
0.431332 0.621172 0.000000
0.440297 0.615459 0.000000
0.450282 0.609085 0.000000
0.462559 0.602642 0.000000
0.478240 0.596929 0.000000
0.498515 0.593034 0.000000
0.524841 0.591997 0.000000
0.558370 0.594561 0.000000
0.599910 0.600640 0.000000
0.649086 0.609343 0.000000
0.704285 0.619142 0.000000
0.762542 0.628102 0.000000
0.820428 0.634920 0.000000
0.874088 0.638941 0.000000
0.920002 0.640224 0.000000
0.955204 0.639624 0.000000
0.978668 0.637986 0.000000
0.991614 0.636043 0.000000
0.997480 0.634346 0.000000
0.999467 0.633136 0.000000
0.999934 0.632391 0.000049
0.999999 0.632004 0.000000
1.000000 0.631784 0.000197
0.360777 0.650535 0.007442
0.370535 0.652965 0.005890
0.380250 0.655307 0.004337
0.389958 0.657461 0.002612
0.399542 0.659344 0.001848
0.408988 0.660636 0.000789
0.418386 0.661021 0.000321
0.427588 0.660347 0.000000
0.436466 0.658397 0.000000
0.444943 0.655184 0.000000
0.453056 0.650761 0.000000
0.461177 0.645260 0.000000
0.469999 0.639122 0.000000
0.480347 0.632591 0.000000
0.493323 0.626431 0.000000
0.509891 0.621360 0.000000
0.531379 0.618393 0.000000
0.559144 0.618484 0.000000
0.594497 0.622229 0.000000
0.637816 0.629295 0.000000
0.688508 0.638692 0.000000
0.744512 0.648769 0.000000
0.802543 0.657730 0.000000
0.858489 0.664395 0.000000
0.908025 0.668272 0.000000
0.947206 0.669614 0.000000
0.974078 0.669145 0.000000
0.989539 0.667695 0.000000
0.996655 0.665915 0.000000
0.999214 0.664261 0.000000
0.999879 0.662861 0.000000
1.000000 0.661792 0.000148
1.000000 0.660812 0.000616
0.386037 0.678747 0.010547
0.395300 0.681220 0.008231
0.404585 0.683686 0.006654
0.413777 0.685914 0.004953
0.422948 0.687807 0.002612
0.432047 0.689148 0.001700
0.441078 0.689558 0.000789
0.450005 0.688974 0.000173
0.458616 0.687120 0.000000
0.466838 0.684019 0.000000
0.474645 0.679723 0.000000
0.482226 0.674484 0.000000
0.490082 0.668516 0.000000
0.499018 0.662099 0.000000
0.509853 0.655717 0.000000
0.523538 0.649911 0.000000
0.541189 0.645563 0.000000
0.564075 0.643575 0.000000
0.593647 0.644802 0.000000
0.630940 0.649673 0.000000
0.676116 0.657668 0.000000
0.728113 0.667670 0.000000
0.784336 0.677845 0.000000
0.840972 0.686744 0.000000
0.893270 0.693230 0.000000
