bundles/resolve-cinematic-luts/Gamut/Orion/Orion Warm +CON.cube
TITLE "Orion Warm +CON by Gamut"
# Contributor - JVKE. Version 1.0 - 09/28/2023 - Designed for Rec.709 Color Space. Copyright 2023 Gamut, LLC
LUT_3D_SIZE 5
0.001577 0.020503 0.002366
0.156476 0.025234 0.000000
0.412017 0.004731 0.000000
0.652446 0.000000 0.000000
0.818791 0.000000 0.000000
0.000000 0.159560 0.000000
0.209514 0.156210 0.000000
0.531821 0.144562 0.000000
0.765855 0.173741 0.000000
0.942126 0.216231 0.000000
0.088106 0.383190 0.000000
0.207275 0.376562 0.000000
0.620812 0.383797 0.000789
0.905515 0.405303 0.024840
1.000000 0.461454 0.038640
0.327540 0.654674 0.022080
0.418899 0.662064 0.002957
0.540127 0.616015 0.000000
0.931472 0.689155 0.006112
1.000000 0.697553 0.030360
0.577660 0.885127 0.071584
0.640456 0.888594 0.025037
0.686045 0.847018 0.000000
0.841280 0.837211 0.000000
1.000000 0.901849 0.000000
0.000000 0.025234 0.151507
0.198604 0.001775 0.148199
0.460389 0.000000 0.043855
0.683938 0.000000 0.000592
0.849646 0.000000 0.000000
0.000000 0.165650 0.143712
0.196708 0.185033 0.142745
0.500459 0.183883 0.103511
0.758218 0.198547 0.071014
0.942892 0.236158 0.063066
0.030360 0.442222 0.170068
0.300457 0.437906 0.171028
0.596588 0.423363 0.115848
0.867350 0.458143 0.175572
0.999356 0.518597 0.175286
0.303880 0.701038 0.182266
0.464006 0.684760 0.178529
0.561246 0.635193 0.054182
0.908189 0.706075 0.081418
1.000000 0.726363 0.197075
0.607524 0.888616 0.240698
0.669464 0.892184 0.220324
0.707313 0.865634 0.100366
0.827382 0.838864 0.002760
0.999946 0.909968 0.003549
0.000000 0.026812 0.413158
0.132213 0.002365 0.438402
0.525794 0.000000 0.359989
0.763139 0.000000 0.251601
0.919322 0.000000 0.198132
0.000000 0.180086 0.362762
0.120786 0.203987 0.408462
0.565159 0.174192 0.397437
0.813066 0.190182 0.331171
0.986405 0.215364 0.311029
0.000000 0.450065 0.421963
0.132898 0.497475 0.469013
0.590272 0.497729 0.413102
0.841478 0.515143 0.389426
0.999691 0.556558 0.380183
0.166328 0.788854 0.562954
0.338512 0.800963 0.559987
0.650860 0.715089 0.394637
0.879798 0.740230 0.325092
1.000000 0.763896 0.441473
0.387397 0.997460 0.560897
0.499393 0.983593 0.522237
0.741009 0.878170 0.385224
0.822057 0.846008 0.192797
0.999664 0.926415 0.199576
0.000000 0.034106 0.726908
0.041802 0.016954 0.749398
0.475036 0.000000 0.726712
0.796359 0.000000 0.692748
0.995323 0.000000 0.669444
0.000000 0.197535 0.680269
0.048108 0.223570 0.734942
0.527652 0.186034 0.773046
0.874123 0.184515 0.767064
1.000000 0.225518 0.753599
0.000000 0.476760 0.676236
0.015377 0.529751 0.714936
0.509593 0.530159 0.756715
0.879620 0.517177 0.764148
1.000000 0.554623 0.739975
0.000789 0.793510 0.784917
0.058430 0.835411 0.824105
0.535007 0.827347 0.804907
0.876621 0.816297 0.749107
1.000000 0.820273 0.724008
0.107143 0.999866 0.933711
0.269353 1.000000 0.939997
0.637873 0.993031 0.874979
0.890935 0.924274 0.705939
0.999886 0.962040 0.595791
0.000000 0.051686 0.938132
0.001183 0.038443 0.960481
0.401773 0.000000 0.963728
0.775061 0.000000 0.948905
0.997797 0.000000 0.961853
0.000000 0.222137 0.902294
0.007689 0.251329 0.955817
0.459236 0.224946 0.999624
0.857449 0.202059 0.999912
1.000000 0.227019 1.000000
0.000000 0.513213 0.884149
0.009463 0.563422 0.931398
0.437805 0.568253 0.986136
0.860121 0.533440 0.999926
1.000000 0.545718 0.999946
0.000000 0.807698 0.937477
0.000000 0.851622 0.970198
0.288650 0.880493 0.988632
0.818010 0.837173 0.977413
0.999946 0.819231 0.989544
0.001577 0.999866 1.000000
0.003746 1.000000 1.000000
0.416461 1.000000 1.000000
0.832406 1.000000 0.993925
1.000000 1.000000 0.963066
