bundles/resolve-cinematic-luts/Gamut/Orion/Orion Warm.cube
TITLE "Orion Warm by Gamut"
# Contributor - JVKE. Version 1.0 - 09/28/2023 - Designed for Rec.709 Color Space. Copyright 2023 Gamut, LLC
LUT_3D_SIZE 9
0.001577 0.026023 0.002366
0.078517 0.029177 0.004830
0.194083 0.032923 0.000000
0.327014 0.032332 0.000000
0.438435 0.027600 0.000000
0.551969 0.026023 0.000000
0.666562 0.019911 0.000000
0.762913 0.003844 0.000000
0.857246 0.005520 0.000000
0.000000 0.102156 0.000000
0.081469 0.097239 0.005421
0.230897 0.088968 0.000000
0.359668 0.099018 0.000000
0.477030 0.108613 0.000000
0.590755 0.106193 0.000000
0.699292 0.102983 0.000000
0.801874 0.107385 0.000000
0.898227 0.114917 0.000000
0.000000 0.197552 0.000000
0.061731 0.202403 0.000000
0.242814 0.189640 0.000000
0.418623 0.175223 0.002464
0.531456 0.185151 0.000592
0.642346 0.197281 0.000000
0.752995 0.207937 0.000000
0.854967 0.219243 0.000000
0.950234 0.231521 0.000000
0.023657 0.302621 0.000000
0.109274 0.303820 0.000000
0.195453 0.282650 0.000000
0.437871 0.280438 0.000000
0.591866 0.274478 0.000789
0.711664 0.284321 0.001577
0.824020 0.299212 0.000000
0.923512 0.315749 0.000000
0.994850 0.333031 0.000000
0.117058 0.401593 0.000000
0.185968 0.403104 0.000000
0.241060 0.390306 0.000000
0.363959 0.369738 0.000000
0.601270 0.391981 0.000000
0.764310 0.388187 0.000000
0.891820 0.393288 0.000000
0.978301 0.407286 0.000000
0.999987 0.425142 0.000000
0.227550 0.508237 0.000000
0.278469 0.514426 0.000000
0.323976 0.510088 0.000000
0.381115 0.485466 0.000000
0.542595 0.496838 0.000000
0.765654 0.517103 0.000000
0.932245 0.511520 0.000000
0.996494 0.512705 0.000000
1.000000 0.523237 0.000493
0.335052 0.622073 0.004928
0.375739 0.630626 0.000789
0.414082 0.629295 0.000000
0.450282 0.609085 0.000000
0.524841 0.591997 0.000000
0.704285 0.619142 0.000000
0.920002 0.640224 0.000000
0.997480 0.634346 0.000000
1.000000 0.631784 0.000197
0.434974 0.734393 0.016856
0.468513 0.743638 0.006703
0.501821 0.743065 0.000197
0.530591 0.725271 0.000000
0.567745 0.700622 0.000000
0.664403 0.697030 0.000000
0.860275 0.734382 0.000000
0.990013 0.754577 0.000000
1.000000 0.750120 0.000789
0.526609 0.842141 0.031543
0.554412 0.850934 0.017645
0.583898 0.849346 0.001774
0.610440 0.831963 0.000000
0.634019 0.808203 0.000000
0.682428 0.786013 0.000000
0.806610 0.798776 0.000000
0.966521 0.840589 0.000000
1.000000 0.863041 0.000000
0.000000 0.028192 0.082741
0.089358 0.023756 0.088983
0.213337 0.012519 0.048051
0.344968 0.000197 0.002168
0.453537 0.000493 0.000000
0.564507 0.000000 0.000000
0.675743 0.000000 0.000000
0.778573 0.000000 0.000000
0.873682 0.000099 0.000000
0.000000 0.100992 0.080374
0.079634 0.102385 0.074555
0.202629 0.100151 0.056370
0.343990 0.099393 0.024446
0.464471 0.100562 0.003450
0.584238 0.101289 0.000690
0.701217 0.103206 0.000493
0.806216 0.108333 0.000000
0.903693 0.115856 0.000000
0.000000 0.201926 0.086924
0.097409 0.208433 0.075750
0.236542 0.203497 0.054573
0.399369 0.194484 0.073455
0.511388 0.204355 0.046853
0.626104 0.213194 0.020207
0.740819 0.221073 0.007590
0.845648 0.230482 0.003549
0.943249 0.241529 0.002070
0.000493 0.321390 0.068951
0.166257 0.312699 0.087911
0.236338 0.301360 0.058440
0.430489 0.296204 0.048657
0.572385 0.291502 0.072817
0.690258 0.304142 0.068443
0.803158 0.319805 0.047726
0.905124 0.335693 0.029276
0.988099 0.351747 0.016165
0.108171 0.421182 0.070797
0.239558 0.414987 0.091452
0.283738 0.405622 0.057885
0.370025 0.379625 0.007886
0.587125 0.402024 0.035781
0.744126 0.402658 0.067709
0.869708 0.411786 0.077987
0.964437 0.428445 0.074422
0.999859 0.447548 0.063774
0.261480 0.515342 0.089148
0.315004 0.520587 0.089792
0.351214 0.517031 0.060910
0.395820 0.492140 0.012519
0.536073 0.501029 0.004337
0.750636 0.525361 0.027108
0.915061 0.524020 0.060018
0.992320 0.528658 0.077312
1.000000 0.541725 0.088251
0.364819 0.622556 0.099986
0.401421 0.631955 0.096747
0.431667 0.633774 0.070207
0.463583 0.615686 0.023164
0.528334 0.596602 0.002563
0.694155 0.622315 0.001676
0.907973 0.647423 0.018039
0.996022 0.644680 0.046906
1.000000 0.644628 0.065681
0.460320 0.733415 0.114418
0.487925 0.744499 0.108513
0.512684 0.747848 0.080954
0.538379 0.732680 0.029473
0.575335 0.706730 0.004140
0.661629 0.699594 0.000000
0.848891 0.736773 0.000789
0.987176 0.760513 0.008181
1.000000 0.758265 0.030558
0.547046 0.841248 0.129948
0.569492 0.851792 0.121639
0.590117 0.854444 0.091533
0.612029 0.840298 0.035877
0.639859 0.815282 0.005914
0.685061 0.789924 0.000394
0.797901 0.798884 0.000000
0.960009 0.842016 0.000000
1.000000 0.867779 0.000000
0.000000 0.032135 0.188681
0.060051 0.026910 0.201342
0.238271 0.005520 0.186631
0.377163 0.000000 0.126445
0.484047 0.000000 0.083485
0.592238 0.000000 0.041086
0.702401 0.000000 0.007294
0.803551 0.000000 0.001972
0.898154 0.000000 0.001380
0.000000 0.107614 0.168881
0.039514 0.110995 0.174631
0.222859 0.094762 0.173277
0.367270 0.091009 0.128192
0.487221 0.085449 0.097541
0.605611 0.081205 0.065610
0.721470 0.090077 0.044121
0.825070 0.097333 0.026614
0.921749 0.106230 0.018137
0.000000 0.203780 0.180286
0.045464 0.215112 0.194018
0.227874 0.216254 0.170909
0.376728 0.215199 0.151751
0.498559 0.217815 0.129103
0.619518 0.221151 0.105288
0.738010 0.226142 0.081174
0.845160 0.234116 0.063100
0.944272 0.244432 0.050861
0.000986 0.321367 0.213430
0.109253 0.333508 0.218676
0.277549 0.323989 0.195014
0.420492 0.319775 0.157136
0.549105 0.319510 0.170710
0.665119 0.329201 0.153726
0.780253 0.341156 0.130134
0.885286 0.354247 0.108834
0.978790 0.368192 0.091177
0.041066 0.451636 0.207783
0.158357 0.455691 0.198961
0.315553 0.434774 0.192282
0.402860 0.409134 0.112229
0.573640 0.421333 0.126987
0.718368 0.424315 0.169687
0.840518 0.436941 0.177707
0.942074 0.455020 0.170113
0.998913 0.473851 0.157031
0.143370 0.568603 0.183987
0.265955 0.559149 0.193186
0.371159 0.540927 0.185492
0.431287 0.510027 0.117232
0.534053 0.509759 0.049775
0.729832 0.535723 0.095812
0.888824 0.539874 0.162906
0.982048 0.549585 0.188604
1.000000 0.566006 0.199921
0.303921 0.659122 0.189910
0.379920 0.654244 0.197511
0.446358 0.643622 0.185794
0.489691 0.623404 0.128322
0.536816 0.603309 0.051370
0.680573 0.625176 0.018137
0.888467 0.655069 0.071115
0.991859 0.656806 0.144421
1.000000 0.660570 0.179536
0.440481 0.750511 0.207414
0.488858 0.751613 0.211267
0.529612 0.748571 0.195627
0.557789 0.736995 0.140541
0.587672 0.715068 0.068499
0.658349 0.702797 0.014392
0.832513 0.738250 0.005914
0.981875 0.766832 0.041796
1.000000 0.767681 0.115465
0.552050 0.845489 0.229165
0.583752 0.851025 0.228753
0.609120 0.852120 0.208815
0.626450 0.843989 0.152619
0.649388 0.824440 0.081896
0.688060 0.796461 0.022770
0.786929 0.798290 0.001183
0.948318 0.842222 0.000000
0.999927 0.872908 0.001774
0.000000 0.036274 0.301646
0.025530 0.032431 0.314145
0.214879 0.004732 0.317335
0.405487 0.000000 0.284062
0.526354 0.000000 0.233034
0.634625 0.000000 0.186759
0.744226 0.000000 0.150160
0.844243 0.000000 0.122391
0.936717 0.000000 0.099353
0.000000 0.113265 0.276033
0.012124 0.116361 0.288659
0.200927 0.097404 0.305032
0.403756 0.083349 0.280085
0.525800 0.084026 0.237440
0.641704 0.078247 0.202877
0.756017 0.071648 0.173311
0.858939 0.068517 0.150075
0.954327 0.068846 0.131591
0.000000 0.214332 0.275556
0.001478 0.229477 0.284668
0.178813 0.228494 0.288661
0.392366 0.214502 0.273575
0.519041 0.214072 0.243690
0.640359 0.212603 0.217995
0.758062 0.213049 0.195292
0.864502 0.218442 0.179344
0.962718 0.227599 0.168387
0.000000 0.329691 0.305899
0.021291 0.343512 0.319787
0.193824 0.344373 0.320662
0.405686 0.341378 0.283820
0.534675 0.341656 0.266445
0.654998 0.345819 0.248159
0.772555 0.352521 0.229304
0.879379 0.362326 0.214905
0.977193 0.374287 0.204886
0.012617 0.456922 0.349621
0.108465 0.470373 0.362005
0.253085 0.470199 0.357155
0.446754 0.450008 0.283676
0.569503 0.452493 0.258919
0.698308 0.455043 0.278420
0.815546 0.466185 0.273296
0.920192 0.481685 0.261764
0.997056 0.497523 0.251070
0.119365 0.595045 0.359257
0.203388 0.603112 0.359242
0.316172 0.592280 0.339341
0.471353 0.551683 0.284029
0.559750 0.539689 0.198323
0.715405 0.556934 0.216346
0.861534 0.562011 0.277077
0.965369 0.576230 0.296431
1.000000 0.595477 0.301445
0.210162 0.720104 0.338063
0.282668 0.719827 0.335618
0.379634 0.699096 0.318496
0.509916 0.651038 0.275043
0.567854 0.619617 0.192236
0.671992 0.633685 0.112396
0.863297 0.665363 0.168649
0.982661 0.670940 0.259493
1.000000 0.679661 0.295809
0.311742 0.824816 0.320567
0.377121 0.818692 0.321301
0.461918 0.793243 0.309687
0.569074 0.748274 0.273226
0.617623 0.722070 0.207992
0.661966 0.708138 0.111647
0.810383 0.740534 0.046681
0.971722 0.774804 0.120190
1.000000 0.777981 0.232049
0.429957 0.912437 0.321131
0.487718 0.904884 0.325412
0.558984 0.882007 0.317311
0.639087 0.846481 0.281833
0.676756 0.827407 0.223012
0.700939 0.804421 0.139333
0.773321 0.797993 0.040914
0.930563 0.842781 0.003844
0.999812 0.882085 0.039923
0.000000 0.042137 0.430168
0.000690 0.038345 0.442425
0.172976 0.010252 0.452098
0.392780 0.000000 0.434715
0.548797 0.000000 0.405668
0.678564 0.000000 0.361874
0.793541 0.000000 0.316588
0.893527 0.000000 0.284589
0.983255 0.000000 0.262584
0.000000 0.119286 0.401381
0.000690 0.123126 0.417346
0.162977 0.107860 0.436963
0.397728 0.081424 0.437857
0.559510 0.074722 0.414341
0.687633 0.076653 0.373017
0.802073 0.073381 0.333741
0.903941 0.071431 0.307761
0.991696 0.070904 0.289802
0.000000 0.224691 0.387715
0.000296 0.239455 0.402401
0.147267 0.236966 0.417868
0.392853 0.211309 0.432546
0.553244 0.206896 0.408572
0.677871 0.210606 0.372600
0.795081 0.211167 0.342297
0.900625 0.213103 0.321933
0.991310 0.217269 0.307999
0.000000 0.343284 0.407711
0.000690 0.360255 0.419472
0.087250 0.366943 0.418300
0.385030 0.347768 0.418955
0.542708 0.345146 0.400506
0.672040 0.346717 0.376516
0.791677 0.350011 0.352335
0.899216 0.356006 0.335786
0.992842 0.364958 0.325714
0.000394 0.469985 0.445944
0.010547 0.485830 0.461284
0.148877 0.489806 0.465411
0.391120 0.480973 0.440922
0.561920 0.481223 0.408489
0.689449 0.479948 0.394195
0.808041 0.485877 0.377294
0.914039 0.495926 0.363860
0.998496 0.507946 0.355388
0.032134 0.608803 0.497352
0.101892 0.622434 0.511019
0.232644 0.623890 0.510282
0.437437 0.608173 0.479880
0.595701 0.589534 0.397726
0.717297 0.594028 0.372027
0.844960 0.595893 0.398200
0.948978 0.608202 0.401360
1.000000 0.625696 0.397907
0.160250 0.743325 0.525016
0.230262 0.754068 0.531932
0.323951 0.751171 0.518484
0.476023 0.715898 0.463116
0.612466 0.669475 0.383476
0.698675 0.667774 0.292766
0.850591 0.688398 0.312891
0.970468 0.692274 0.382839
1.000000 0.704981 0.411695
0.273099 0.868752 0.518257
0.324307 0.874850 0.517932
0.390537 0.864008 0.494942
0.516114 0.811291 0.434668
0.639623 0.753632 0.370840
0.693255 0.727012 0.278002
0.801015 0.751416 0.192279
0.958067 0.785489 0.247062
1.000000 0.789473 0.355994
0.345736 0.981471 0.496901
0.389660 0.981429 0.493582
0.448916 0.963544 0.469577
0.567845 0.899665 0.415873
0.684605 0.840523 0.365133
0.732616 0.812043 0.293116
0.774496 0.802223 0.183151
0.907358 0.845501 0.083796
0.999490 0.893819 0.182433
0.000000 0.049924 0.579233
0.000000 0.046800 0.591611
0.121755 0.021686 0.602246
0.357109 0.000000 0.599646
0.536026 0.000000 0.582539
0.694614 0.000000 0.561013
0.833925 0.000000 0.528311
0.945143 0.000000 0.495338
0.999708 0.000000 0.468140
0.000000 0.128140 0.551328
0.000000 0.133159 0.569339
0.117946 0.122156 0.589327
0.361972 0.089979 0.603395
0.550671 0.073967 0.595969
0.712140 0.067919 0.576288
0.847970 0.070917 0.543337
0.953943 0.075780 0.512181
0.999896 0.078057 0.487924
0.000000 0.237300 0.532213
0.000000 0.250987 0.551943
0.107398 0.248052 0.570673
0.354740 0.221870 0.591910
0.550285 0.205331 0.592558
0.710625 0.200848 0.572137
0.842399 0.205466 0.539912
0.947182 0.212817 0.512148
0.999876 0.219965 0.491972
0.000000 0.357647 0.536189
0.000000 0.374920 0.549635
0.063488 0.379790 0.556533
0.332839 0.363914 0.571013
0.542573 0.344191 0.581111
0.700855 0.340583 0.561797
0.830131 0.345779 0.531549
0.936707 0.353713 0.507272
0.999862 0.362276 0.491233
0.000000 0.488099 0.563825
0.000690 0.506059 0.576992
0.032823 0.513888 0.578083
0.297587 0.507157 0.568993
0.540350 0.489439 0.571510
0.694601 0.486154 0.553887
0.823775 0.489484 0.528526
0.932685 0.495950 0.508273
0.999973 0.504561 0.495907
0.001577 0.625754 0.607976
0.010350 0.641461 0.622511
0.094061 0.646562 0.626664
0.331309 0.638679 0.613761
0.552490 0.631828 0.585191
0.710140 0.631687 0.555766
0.837379 0.627479 0.538716
0.944796 0.633799 0.524676
1.000000 0.644324 0.514952
0.032824 0.762269 0.659705
0.075552 0.775706 0.673645
0.186026 0.778528 0.677619
0.391974 0.764572 0.660390
0.581209 0.749057 0.624515
0.732660 0.728504 0.543384
0.856068 0.733734 0.503474
0.963887 0.733474 0.529029
1.000000 0.743624 0.537661
0.148376 0.890601 0.704216
0.210575 0.901182 0.714321
0.305793 0.901037 0.710654
0.459313 0.878718 0.673975
0.612638 0.838115 0.603446
0.738977 0.791298 0.511159
0.835509 0.796395 0.414587
0.957490 0.815297 0.423810
1.000000 0.813448 0.499273
0.296989 0.998493 0.725977
0.346087 0.999470 0.730802
0.410420 0.997198 0.716525
0.517375 0.975286 0.656511
0.640538 0.920661 0.575060
0.751439 0.857814 0.489467
0.813420 0.831817 0.385282
0.912488 0.865660 0.289689
0.999141 0.908528 0.344295
0.000000 0.058964 0.723858
0.000000 0.056816 0.736457
0.067731 0.034894 0.747570
0.312571 0.000000 0.754532
0.506839 0.000000 0.747887
0.681592 0.000000 0.735534
0.840519 0.000000 0.719946
0.965253 0.000000 0.700921
0.999973 0.000000 0.682134
0.000000 0.138395 0.698351
0.000000 0.144613 0.717834
0.070815 0.136023 0.738305
0.320363 0.101965 0.757396
0.520451 0.081470 0.761450
0.700569 0.069398 0.752684
0.859665 0.065435 0.737708
0.974932 0.070594 0.718724
1.000000 0.079816 0.700086
0.000000 0.249693 0.679103
0.000000 0.262771 0.700735
0.063126 0.259956 0.720956
0.312962 0.236943 0.742887
0.518072 0.214390 0.755950
0.702702 0.201338 0.751940
0.862798 0.197648 0.737273
0.974821 0.203674 0.717861
1.000000 0.215232 0.698648
0.000000 0.372022 0.672607
0.000000 0.388503 0.689622
0.037971 0.391875 0.703249
0.292210 0.377066 0.721172
0.508640 0.355298 0.740249
0.697747 0.340145 0.743245
0.858351 0.336646 0.728365
0.970009 0.344262 0.706871
1.000000 0.356950 0.687257
0.000000 0.504326 0.688838
0.000000 0.522697 0.701902
0.016954 0.530604 0.705777
0.238957 0.523218 0.708064
0.489172 0.506499 0.721029
0.690117 0.487173 0.731286
0.849006 0.483120 0.716454
0.960984 0.490733 0.693864
1.000000 0.502304 0.675474
0.000000 0.644818 0.724654
0.000000 0.661810 0.737503
0.016067 0.669584 0.739520
0.197299 0.665017 0.728337
0.464918 0.657550 0.717005
0.682642 0.642105 0.717686
0.840254 0.635755 0.704581
0.953581 0.639507 0.684473
1.000000 0.647338 0.667370
0.000592 0.780898 0.770431
0.003549 0.795541 0.783437
0.047884 0.800652 0.786795
0.256587 0.791474 0.776293
0.497487 0.782568 0.756615
0.698168 0.773860 0.723955
0.848040 0.774069 0.700174
0.958393 0.769947 0.684196
1.000000 0.775624 0.672475
0.013208 0.910348 0.821809
0.033711 0.921732 0.833744
0.113145 0.923893 0.836801
0.330993 0.910958 0.827468
0.535758 0.895989 0.804083
0.699244 0.882704 0.770570
0.863216 0.861055 0.691292
0.967450 0.866501 0.643042
1.000000 0.862411 0.664916
0.076078 0.999705 0.875502
0.129353 1.000000 0.885435
0.230341 1.000000 0.886100
0.412241 0.999057 0.870710
0.582547 0.990230 0.834979
0.727933 0.956963 0.753624
0.858261 0.907903 0.654341
0.953534 0.922854 0.557228
0.999826 0.948619 0.550463
0.000000 0.070201 0.861824
0.000000 0.068122 0.874486
0.021390 0.048792 0.886528
0.266534 0.007491 0.897815
0.470863 0.000000 0.900874
0.657609 0.000000 0.894296
0.827892 0.000000 0.884292
0.962625 0.000000 0.875763
1.000000 0.000000 0.867646
0.000000 0.149521 0.838513
0.000000 0.156975 0.859548
0.030458 0.150014 0.880712
0.277317 0.122798 0.900765
0.484375 0.092050 0.912503
0.675457 0.076216 0.910327
0.847804 0.068053 0.902117
0.973697 0.068265 0.894686
1.000000 0.073780 0.887025
0.000000 0.262179 0.820177
0.000000 0.274746 0.842895
0.027009 0.272174 0.863966
0.272369 0.252396 0.885547
0.482291 0.226519 0.903162
0.676265 0.209286 0.907711
0.852920 0.199720 0.903297
0.976808 0.199495 0.896926
1.000000 0.206292 0.888479
0.000000 0.385889 0.808005
0.000000 0.401657 0.827815
0.019320 0.404124 0.844938
0.253997 0.389964 0.863815
0.472222 0.369383 0.884436
0.669918 0.349259 0.897424
0.850676 0.338108 0.896886
0.976427 0.337743 0.889680
1.000000 0.345426 0.878975
0.000000 0.518701 0.814161
0.000000 0.536655 0.829137
0.013208 0.543588 0.837772
0.208837 0.535015 0.846098
0.450093 0.520402 0.862683
0.658630 0.498277 0.881391
0.844435 0.483415 0.886515
0.973596 0.482120 0.877741
1.000000 0.490522 0.863746
0.000000 0.661947 0.840456
0.000000 0.679520 0.852821
0.004140 0.688017 0.855297
0.124923 0.683768 0.848111
0.398167 0.674824 0.848083
0.635362 0.656638 0.859615
0.833202 0.636061 0.870835
0.966342 0.632851 0.861019
1.000000 0.640800 0.844307
0.000000 0.800225 0.880117
0.000000 0.815818 0.891941
0.003647 0.822680 0.893575
0.099113 0.817189 0.880788
0.374124 0.809341 0.865798
0.611525 0.800720 0.851912
0.817706 0.785012 0.850644
0.962940 0.777423 0.842945
1.000000 0.784089 0.828032
0.000000 0.926926 0.924905
0.000000 0.938276 0.934841
0.016856 0.941597 0.936154
0.174098 0.932193 0.925009
0.435577 0.921100 0.908930
0.641085 0.912703 0.885148
0.828632 0.903393 0.851404
0.966442 0.903708 0.831760
1.000000 0.904795 0.818725
0.000690 0.999765 0.968270
0.004830 1.000000 0.974285
0.042858 1.000000 0.974664
0.254047 1.000000 0.967021
0.485863 0.999916 0.955235
0.661535 0.998422 0.928891
0.818075 0.996265 0.895913
0.966865 0.973756 0.835589
1.000000 0.993955 0.775513
0.000000 0.081950 0.986464
0.000000 0.080120 0.999644
0.002957 0.062063 1.000000
0.223534 0.026220 1.000000
0.437157 0.000000 1.000000
0.630597 0.000000 0.999910
0.809318 0.000000 0.999470
0.953172 0.000000 0.999037
0.999893 0.000000 0.998738
0.000000 0.161679 0.965632
0.000000 0.169957 0.988260
0.006604 0.163452 0.999983
0.238877 0.140925 1.000000
0.451291 0.104956 1.000000
0.647239 0.085603 1.000000
0.828492 0.074227 1.000000
0.965378 0.071531 1.000000
1.000000 0.073916 0.999866
0.000000 0.274661 0.948322
0.000000 0.287230 0.971986
0.010448 0.284513 0.993519
0.235404 0.266654 0.999799
0.449076 0.241527 1.000000
0.646995 0.219776 1.000000
0.832515 0.207030 1.000000
0.969370 0.203096 1.000000
1.000000 0.205513 0.999866
0.000000 0.399357 0.933856
0.000000 0.414602 0.955518
0.011040 0.416533 0.974664
0.217707 0.402791 0.992649
0.438808 0.384113 0.999312
0.639641 0.361205 1.000000
0.828159 0.346286 1.000000
0.968664 0.341178 1.000000
1.000000 0.343390 0.999832
0.000000 0.533103 0.933269
0.000000 0.550306 0.950510
0.009265 0.556175 0.963087
0.179503 0.546729 0.975548
0.419208 0.533078 0.990808
0.626480 0.511649 0.998782
0.819348 0.492413 0.999987
0.965224 0.484600 1.000000
1.000000 0.485494 0.999597
0.000000 0.675860 0.952131
0.000000 0.693467 0.965064
0.003056 0.701650 0.969580
0.108077 0.695933 0.967607
0.367794 0.686430 0.973664
0.595636 0.670258 0.986788
0.803438 0.646429 0.997282
0.958029 0.633604 0.999779
0.999946 0.632245 0.999050
0.000000 0.818851 0.982311
0.000000 0.834949 0.990716
0.000000 0.842520 0.991494
0.030754 0.838053 0.982267
0.261138 0.831092 0.972704
0.543613 0.818668 0.970397
0.775585 0.798074 0.978553
0.947612 0.778093 0.991829
0.999866 0.773871 0.988911
0.000000 0.943281 0.998980
0.000000 0.954314 0.999822
0.000000 0.958546 0.999839
0.025136 0.953005 0.998610
0.263694 0.945563 0.994057
0.540894 0.937162 0.983558
0.750522 0.928480 0.967809
0.931344 0.915385 0.962593
1.000000 0.906799 0.960654
0.000789 1.000000 1.000000
0.000789 1.000000 1.000000
0.000789 1.000000 1.000000
0.085078 1.000000 1.000000
0.371690 1.000000 1.000000
0.600838 1.000000 1.000000
0.787055 1.000000 0.992402
0.945966 1.000000 0.962051
1.000000 1.000000 0.951639
