bundles/resolve-cinematic-luts/Gamut/Orion/Orion Warm +CRUSH.cube
TITLE "Orion Warm +CRUSH by Gamut"
# Contributor - JVKE. Version 1.0 - 09/28/2023 - Designed for Rec.709 Color Space. Copyright 2023 Gamut, LLC
LUT_3D_SIZE 5
0.059267 0.068934 0.059868
0.178888 0.058046 0.034500
0.413888 0.019320 0.000000
0.620748 0.000000 0.000000
0.794498 0.000000 0.000000
0.019912 0.169790 0.022671
0.239898 0.180125 0.032331
0.537020 0.171083 0.043256
0.749801 0.191783 0.011237
0.938124 0.217129 0.001380
0.100751 0.407005 0.041759
0.234992 0.397299 0.029178
0.605197 0.397204 0.024840
0.890635 0.402400 0.048812
1.000000 0.435953 0.046530
0.340470 0.629160 0.051851
0.420855 0.634604 0.029178
0.525079 0.591800 0.000000
0.913569 0.642531 0.013209
1.000000 0.639507 0.038246
0.538422 0.845800 0.067305
0.592362 0.849379 0.035880
0.634823 0.802886 0.000000
0.793439 0.785508 0.000000
1.000000 0.850336 0.000000
0.035486 0.068394 0.183806
0.218571 0.036077 0.159785
0.450132 0.000000 0.029966
0.642066 0.000000 0.000000
0.826291 0.000000 0.000000
0.011631 0.179830 0.153195
0.230654 0.217700 0.166655
0.510506 0.215585 0.121087
0.742384 0.220983 0.086500
0.939724 0.240585 0.070117
0.057095 0.452841 0.191003
0.323789 0.449243 0.190308
0.584948 0.434156 0.131554
0.847495 0.452630 0.176687
0.999013 0.490398 0.158618
0.311663 0.671244 0.187332
0.460885 0.656627 0.185309
0.545999 0.611915 0.067488
0.888377 0.663502 0.079876
1.000000 0.674136 0.179591
0.568125 0.853195 0.233604
0.624240 0.859036 0.211310
0.660564 0.829251 0.094255
0.781466 0.792339 0.004337
0.999866 0.865757 0.006505
0.000000 0.058660 0.432751
0.139703 0.033120 0.443854
0.499437 0.000000 0.353716
0.727135 0.000000 0.239110
0.906424 0.000000 0.170125
0.000000 0.191659 0.374102
0.142318 0.238779 0.431748
0.564242 0.202750 0.420015
0.798738 0.206587 0.349333
0.988821 0.214093 0.312555
0.000789 0.449340 0.425279
0.149406 0.498625 0.474256
0.576657 0.496320 0.424034
0.817041 0.502029 0.393019
0.999088 0.525253 0.371672
0.163085 0.749329 0.535372
0.336983 0.762412 0.534240
0.627385 0.682669 0.396892
0.857295 0.701338 0.323848
1.000000 0.717494 0.427579
0.363051 0.984545 0.514135
0.466292 0.966976 0.486614
0.697850 0.847955 0.379439
0.783280 0.809809 0.189552
0.999463 0.897792 0.187034
0.000000 0.047596 0.708970
0.047774 0.035091 0.728522
0.454302 0.000000 0.690731
0.765095 0.000000 0.649009
0.994986 0.000000 0.613068
0.000000 0.205605 0.651747
0.073366 0.254534 0.722718
0.528852 0.210776 0.761827
0.862496 0.190661 0.741674
1.000000 0.212540 0.706329
0.000000 0.460200 0.642163
0.019714 0.515348 0.687356
0.504115 0.521636 0.732462
0.856888 0.499764 0.729202
1.000000 0.519912 0.690404
0.000789 0.728607 0.718585
0.052457 0.781483 0.768226
0.513258 0.792478 0.767564
0.854706 0.783722 0.712389
1.000000 0.784846 0.685123
0.083285 0.998106 0.861662
0.239324 1.000000 0.887979
0.597180 0.990787 0.842075
0.865359 0.911264 0.667698
0.999826 0.951111 0.565117
0.000000 0.042516 0.949545
0.002957 0.035683 0.976361
0.390601 0.000000 0.974969
0.736899 0.000000 0.950155
0.996720 0.000000 0.941482
0.000000 0.220888 0.899337
0.026023 0.269204 0.973774
0.461185 0.242402 1.000000
0.834267 0.201818 1.000000
1.000000 0.202148 0.999946
0.000000 0.482568 0.870753
0.011040 0.536007 0.929900
0.434033 0.548598 0.991731
0.828792 0.509372 0.999987
1.000000 0.503843 0.999705
0.000000 0.716705 0.875888
0.000000 0.766702 0.915220
0.271929 0.835912 0.971917
0.785077 0.806633 0.979698
0.999866 0.783074 0.989503
0.000000 0.964925 0.967649
0.001972 0.997447 0.999819
0.385212 1.000000 1.000000
0.795617 1.000000 0.992923
1.000000 1.000000 0.954014
