bundles/resolve-cinematic-luts/Phantom Luts/Ursa G2 Phntm Film LUTs - V1/Gen5/White Balance Offset (+Magenta Boost)/Ursa Eterna Gen5-Legacy WBO.cube
TITLE "Generated by Resolve"
LUT_3D_SIZE 33
0.0167697 0.0444648 0.0445106
0.0167697 0.0444648 0.0444953
0.0169223 0.0444038 0.0442512
0.0264439 0.0457008 0.0460822
0.0355688 0.0468299 0.0469215
0.0472725 0.0479438 0.0464942
0.059678 0.0485237 0.0451514
0.0740673 0.0499123 0.0450294
0.0902113 0.0516823 0.0467689
0.109621 0.0542611 0.0514076
0.1364 0.0583352 0.0578775
0.169192 0.063386 0.065568
0.212024 0.0695964 0.0754253
0.25951 0.0749065 0.085069
0.312245 0.0789197 0.0976272
0.369162 0.0813458 0.109743
0.42916 0.0817884 0.12163
0.490196 0.0816205 0.133593
0.546502 0.0834363 0.144945
0.580514 0.0883345 0.153185
0.583139 0.0883955 0.156756
0.584512 0.0885634 0.160693
0.591959 0.0938888 0.169955
0.601709 0.10135 0.180011
0.608789 0.106783 0.186725
0.608789 0.106783 0.186725
0.609354 0.106645 0.186847
0.611017 0.106249 0.18735
0.614221 0.10547 0.188281
0.618982 0.104326 0.189776
0.62565 0.102693 0.191913
0.633005 0.100923 0.194034
0.641032 0.0989548 0.196582
0.0178378 0.043946 0.042771
0.0170901 0.0443122 0.0439918
0.0169528 0.0443732 0.0442054
0.0239109 0.0454261 0.0449531
0.0328832 0.0465095 0.0452888
0.0434424 0.0474403 0.0447242
0.0578622 0.0485389 0.044007
0.0740215 0.0502632 0.0445258
0.0909285 0.0520333 0.0464485
0.111131 0.0546731 0.0509346
0.138659 0.0588388 0.0581064
0.172793 0.0639353 0.0671855
0.215961 0.0696269 0.0771954
0.265202 0.0748913 0.0877394
0.319188 0.078645 0.0999771
0.376577 0.0808423 0.112016
0.436408 0.0810101 0.12314
0.497856 0.0813764 0.135058
0.55111 0.0839551 0.145998
0.580652 0.0883497 0.153567
0.583459 0.0884718 0.157076
0.58468 0.0885634 0.161212
0.592782 0.0944381 0.170962
0.603326 0.102632 0.181598
0.608789 0.106783 0.186725
0.608789 0.106783 0.186725
0.609247 0.106676 0.186816
0.610941 0.106264 0.18732
0.61416 0.105486 0.188266
0.618921 0.104341 0.189746
0.62562 0.102708 0.191897
0.633082 0.100908 0.194049
0.641154 0.0989242 0.196612
0.0177615 0.0439918 0.0428931
0.0170596 0.0443275 0.0440528
0.016907 0.0444038 0.0442664
0.0200961 0.0449989 0.0447242
0.0286412 0.046067 0.0451667
0.0387732 0.0471199 0.0451514
0.0537881 0.0482338 0.0446021
0.0719463 0.0501106 0.0453346
0.0908064 0.0524453 0.0476997
0.113313 0.0551003 0.052369
0.141512 0.0593423 0.059266
0.176379 0.06421 0.0680095
0.220493 0.0700542 0.078294
0.269886 0.0750591 0.0893263
0.325338 0.0784466 0.101884
0.385794 0.0800488 0.114565
0.449226 0.0794842 0.12668
0.51313 0.0790417 0.13846
0.565393 0.0822003 0.149386
0.590265 0.0859236 0.156268
0.592004 0.0864881 0.159762
0.592599 0.0870832 0.163973
0.600015 0.0941024 0.174289
0.60853 0.10341 0.18468
0.610681 0.106325 0.187243
0.610239 0.106432 0.187106
0.610101 0.106462 0.187076
0.611063 0.106233 0.187366
0.613687 0.105592 0.188128
0.618235 0.104494 0.189548
0.625086 0.102831 0.191745
0.633112 0.100893 0.194064
0.641596 0.0988022 0.196735
0.0190585 0.0465858 0.0449073
0.018616 0.0471504 0.0458228
0.018204 0.0466773 0.0455482
0.0187686 0.0465095 0.0455329
0.0260166 0.0478981 0.0463417
0.0343633 0.0491951 0.0466621
0.0466926 0.0503395 0.0463722
0.0660716 0.0512245 0.0463874
0.0861677 0.0516823 0.0469978
0.109483 0.0536049 0.0505074
0.140063 0.0582895 0.0580301
0.177905 0.0640879 0.0679484
0.222889 0.0701152 0.0786297
0.274174 0.0752575 0.0902113
0.329717 0.0786908 0.102922
0.390555 0.0801556 0.115587
0.454261 0.079469 0.127596
0.519127 0.078996 0.139757
0.570169 0.0822766 0.150164
0.592554 0.0853742 0.157107
0.59588 0.0855879 0.161212
0.599069 0.0870069 0.166796
0.606806 0.0936751 0.17734
0.615915 0.103899 0.188037
0.616968 0.104814 0.189151
0.617182 0.104753 0.189227
0.617227 0.104753 0.189227
0.617487 0.104692 0.189319
0.61854 0.104433 0.189639
0.621408 0.103731 0.190509
0.626612 0.102464 0.192203
0.634058 0.100664 0.194354
0.642741 0.0985122 0.197055
0.0242466 0.0568551 0.0518807
0.0234379 0.0575875 0.051957
0.0230259 0.0572366 0.051194
0.0244144 0.0551308 0.0495613
0.0309453 0.0575418 0.0505837
0.0384375 0.0590372 0.0513924
0.049134 0.0596933 0.051133
0.0666209 0.0600748 0.0509804
0.0866712 0.058854 0.0509651
0.11046 0.0575418 0.0524453
0.14023 0.0581064 0.0573587
0.177874 0.0615244 0.065568
0.223697 0.0684367 0.0769818
0.275334 0.0745708 0.0897993
0.331914 0.0785077 0.103029
0.393851 0.0800183 0.115938
0.4589 0.0794385 0.12842
0.524758 0.0789502 0.140887
0.573678 0.0825971 0.150713
0.592782 0.0853742 0.157382
0.596078 0.0855879 0.161746
0.600122 0.087892 0.168322
0.60795 0.0950179 0.178897
0.616617 0.104906 0.189044
0.616953 0.104814 0.189151
0.617151 0.104768 0.189212
0.617151 0.104768 0.189212
0.617426 0.104707 0.189288
0.618463 0.104448 0.189609
0.62153 0.1037 0.190539
0.627268 0.102312 0.192401
0.635493 0.100328 0.194781
0.644694 0.098024 0.197574
0.0283665 0.0651255 0.0579538
0.0275883 0.0663005 0.0584421
0.0274052 0.0668803 0.0588998
0.0268559 0.0659648 0.0556039
0.0331731 0.0652628 0.0541543
0.0410773 0.0666972 0.05449
0.0527657 0.0668803 0.054551
0.0706035 0.0667277 0.0544442
0.0910048 0.0666056 0.0548104
0.114687 0.0648508 0.0553445
0.145693 0.0629129 0.0584573
0.183429 0.0620432 0.0641947
0.227802 0.0656748 0.0737316
0.277043 0.0704967 0.0848707
0.332677 0.0756542 0.0992599
0.394736 0.078172 0.113802
0.459861 0.0782635 0.127321
0.527184 0.0785382 0.140841
0.57673 0.0830396 0.151171
0.593103 0.0853742 0.157702
0.596094 0.0856336 0.162173
0.600961 0.0885481 0.169574
0.609918 0.0964828 0.180362
0.616709 0.104875 0.189075
0.616983 0.104814 0.189166
0.617151 0.104768 0.189212
0.617151 0.104768 0.189212
0.617411 0.104707 0.189288
0.618448 0.104448 0.189609
0.622217 0.103532 0.190753
0.628412 0.102022 0.192752
0.637354 0.0998703 0.195361
0.646418 0.0975814 0.198062
0.0334325 0.0764324 0.0641031
0.0323644 0.0785687 0.0645304
0.031693 0.0799573 0.0658274
0.031693 0.0803082 0.0652934
0.0316472 0.078233 0.0607462
0.0426947 0.0780499 0.0588235
0.0534676 0.0785229 0.0580606
0.074464 0.0774853 0.0576638
0.0977798 0.0756847 0.0583047
0.121386 0.0747539 0.0583963
0.152117 0.0719005 0.0599222
0.189273 0.0691081 0.0632334
0.23209 0.0684215 0.0696422
0.279484 0.0692302 0.0784009
0.332036 0.0713664 0.0911574
0.39089 0.0729839 0.104524
0.453254 0.07393 0.117525
0.523171 0.0783246 0.134676
0.575494 0.084535 0.149767
0.589136 0.0864424 0.156451
0.591577 0.0867018 0.160708
0.595163 0.0885481 0.167071
0.606149 0.0972152 0.179141
0.614816 0.104295 0.187701
0.615259 0.104662 0.188144
0.61529 0.104677 0.188174
0.615198 0.104616 0.188083
0.615351 0.10457 0.188144
0.615976 0.104524 0.188479
0.618051 0.104204 0.189242
0.621866 0.103471 0.190539
0.627314 0.102296 0.192416
0.634104 0.100649 0.194369
0.0408637 0.0928206 0.0687572
0.0391394 0.0959487 0.0702525
0.037705 0.0984665 0.072282
0.0370794 0.100175 0.0735027
0.0365454 0.0997024 0.0724651
0.0373388 0.0971084 0.0664988
0.053666 0.097322 0.0641184
0.0708171 0.0979477 0.0633097
0.10103 0.0957198 0.0633097
0.131426 0.0922408 0.0661631
0.16463 0.0880598 0.0675669
0.20174 0.0838178 0.0687419
0.24477 0.0792401 0.0721599
0.291325 0.0759289 0.0788739
0.340581 0.0727398 0.0882429
0.396109 0.0699016 0.0986496
0.454917 0.0691539 0.110964
0.523888 0.0762036 0.128099
0.580865 0.0839704 0.148531
0.59147 0.0861677 0.155673
0.591791 0.0865339 0.159091
0.592676 0.086717 0.163592
0.599237 0.0916609 0.17171
0.6047 0.0959487 0.177783
0.60737 0.0983902 0.180484
0.607477 0.098436 0.180575
0.608072 0.0987869 0.18114
0.608927 0.0992599 0.181872
0.61059 0.0999161 0.183154
0.61387 0.100557 0.185077
0.618357 0.100435 0.187015
0.62414 0.099382 0.189075
0.631159 0.0978561 0.191196
0.0463722 0.114488 0.0781109
0.0449378 0.117937 0.0797894
0.0434272 0.120882 0.0814527
0.0429541 0.123201 0.0826581
0.0426337 0.124331 0.082948
0.0425269 0.122988 0.0801556
0.0453651 0.120684 0.0724804
0.0664073 0.121431 0.0704204
0.0932937 0.123171 0.069398
0.133196 0.121309 0.0697337
0.174899 0.116747 0.0754864
0.222568 0.108644 0.0794232
0.267872 0.102968 0.0822003
0.315984 0.0951858 0.0855879
0.365927 0.0857557 0.0905013
0.420035 0.0763561 0.0986343
0.479286 0.0724346 0.11252
0.541375 0.0756085 0.128008
0.585122 0.080705 0.141741
0.602899 0.0833753 0.15169
0.603677 0.0834821 0.158633
0.603571 0.0838636 0.162615
0.60325 0.0843061 0.166522
0.603006 0.0853437 0.168475
0.602655 0.0861219 0.1691
0.602106 0.0864424 0.169268
0.60148 0.0867475 0.169421
0.601282 0.087602 0.17023
0.601846 0.0887312 0.171298
0.603815 0.0893568 0.172549
0.607324 0.0892042 0.174044
0.61265 0.0881361 0.175647
0.619257 0.0864271 0.177508
0.0550546 0.141711 0.090547
0.0540627 0.14583 0.0912947
0.05243 0.150118 0.0925154
0.0515145 0.153475 0.0933394
0.0511635 0.155718 0.0946059
0.0511788 0.15639 0.094316
0.0518044 0.153719 0.0900587
0.057908 0.152407 0.0823987
0.0833753 0.153948 0.079881
0.121645 0.157168 0.078996
0.175235 0.156893 0.0789349
0.236469 0.150774 0.0889143
0.299336 0.140032 0.095201
0.352621 0.133654 0.0990921
0.407263 0.123705 0.102449
0.462333 0.106615 0.105089
0.519615 0.0912032 0.113375
0.569818 0.0830396 0.126238
0.598733 0.0833448 0.139025
0.603632 0.0839246 0.144198
0.602518 0.0838026 0.144961
0.604044 0.0834211 0.154894
0.605371 0.0833753 0.161013
0.606363 0.0833143 0.163272
0.607156 0.0831922 0.164157
0.608225 0.0829786 0.164706
0.609003 0.0828107 0.165118
0.609369 0.0827344 0.16556
0.60943 0.0827344 0.165881
0.60972 0.0827497 0.1664
0.610697 0.0826123 0.167071
0.612909 0.0821393 0.168002
0.61706 0.0811933 0.169421
0.0675822 0.179904 0.108751
0.0663462 0.185214 0.109194
0.0648203 0.191363 0.109926
0.0641337 0.196368 0.109758
0.063859 0.200122 0.111254
0.0642863 0.202304 0.112139
0.0649729 0.202426 0.110872
0.0657359 0.197635 0.104631
0.0724498 0.197742 0.0940261
0.10898 0.201617 0.0931868
0.161578 0.208942 0.0926986
0.236667 0.211124 0.0912642
0.320638 0.208316 0.10277
0.403708 0.194629 0.115373
0.476555 0.183932 0.120912
0.543847 0.173526 0.126238
0.606592 0.157137 0.132143
0.643656 0.138659 0.138048
0.64683 0.121492 0.14052
0.629572 0.101808 0.138476
0.618723 0.0938735 0.141619
0.607095 0.0846723 0.141268
0.604425 0.0836652 0.149477
0.604669 0.083299 0.154253
0.605631 0.0831006 0.155062
0.606577 0.082887 0.155535
0.607095 0.0827497 0.155917
0.60734 0.0826886 0.156359
0.607385 0.0826886 0.156786
0.60763 0.0826581 0.157244
0.608576 0.0824598 0.157992
0.611292 0.0818494 0.159152
0.615976 0.0807507 0.160678
0.0835279 0.233829 0.133547
0.081117 0.241733 0.134249
0.0788281 0.249714 0.134554
0.078233 0.25771 0.134951
0.0781567 0.265248 0.1364
0.0787671 0.270848 0.138018
0.0796979 0.274952 0.139528
0.0809033 0.273121 0.136278
0.0834821 0.26746 0.127077
0.0919356 0.266117 0.108598
0.143221 0.274449 0.110292
0.219501 0.287999 0.105852
0.324651 0.2916 0.102571
0.425376 0.293034 0.104417
0.525017 0.27924 0.12311
0.626459 0.257176 0.135836
0.70811 0.242481 0.147189
0.746685 0.234028 0.159777
0.750988 0.224491 0.163775
0.741405 0.213489 0.161776
0.718486 0.188342 0.157031
0.686442 0.156039 0.151797
0.653788 0.125933 0.146624
0.61088 0.0853285 0.140444
0.610559 0.0847486 0.142351
0.610529 0.084184 0.143099
0.609812 0.0837262 0.143816
0.609079 0.0834669 0.144152
0.608255 0.0833143 0.144366
0.608072 0.0832837 0.144503
0.60882 0.0832685 0.144854
0.610285 0.0829633 0.145266
0.614221 0.0821241 0.14609
0.0970016 0.314641 0.164858
0.0923476 0.325917 0.165652
0.0888685 0.337118 0.165911
0.0872206 0.348272 0.16611
0.0856641 0.358816 0.166888
0.0865949 0.367758 0.16788
0.0866407 0.373251 0.169116
0.0878004 0.37528 0.169497
0.090837 0.370275 0.163745
0.0969253 0.365042 0.150805
0.112963 0.365072 0.122026
0.18587 0.376623 0.121767
0.28954 0.389639 0.115496
0.416663 0.388159 0.10544
0.532097 0.391531 0.0909895
0.630167 0.38613 0.111864
0.736385 0.369467 0.143526
0.806699 0.35494 0.172763
0.824353 0.34551 0.182849
0.817807 0.329366 0.180377
0.810178 0.313466 0.177874
0.800427 0.295445 0.17499
0.784176 0.268788 0.170977
0.753063 0.227451 0.164279
0.741543 0.213855 0.16231
0.735668 0.207141 0.160891
0.729091 0.199893 0.159228
0.721263 0.191577 0.157641
0.711925 0.181643 0.155688
0.702174 0.171496 0.153613
0.693339 0.162249 0.151461
0.685512 0.152697 0.14966
0.680125 0.143862 0.147921
0.100206 0.420111 0.199649
0.0967269 0.433295 0.200107
0.093843 0.445731 0.199756
0.0917678 0.458457 0.199329
0.0909133 0.470802 0.199237
0.0910353 0.481682 0.199298
0.0913863 0.489982 0.200504
0.0920882 0.494072 0.201633
0.0935225 0.493584 0.201358
0.0986648 0.485481 0.191165
0.10811 0.484306 0.17229
0.142123 0.483528 0.137789
0.241032 0.492912 0.139956
0.371679 0.500511 0.130098
0.501427 0.491661 0.12105
0.622065 0.495857 0.0942855
0.715496 0.497337 0.11516
0.797177 0.495979 0.157992
0.847562 0.489784 0.188113
0.857969 0.474876 0.195834
0.855116 0.450416 0.195575
0.84979 0.424949 0.194705
0.8448 0.402762 0.193652
0.838178 0.3823 0.189624
0.833951 0.370077 0.187488
0.83154 0.363668 0.18613
0.829618 0.358206 0.185183
0.826947 0.35111 0.183917
0.823957 0.343328 0.182498
0.820768 0.335607 0.181201
0.817838 0.328573 0.180255
0.81471 0.320867 0.179217
0.811521 0.313558 0.178088
0.108156 0.539147 0.244572
0.106966 0.552346 0.245365
0.106218 0.564324 0.245197
0.106661 0.576135 0.244938
0.107866 0.587457 0.244282
0.110826 0.599008 0.244221
0.114626 0.608835 0.244282
0.115526 0.613169 0.245823
0.116777 0.614267 0.246403
0.119371 0.611276 0.243519
0.126635 0.601617 0.2262
0.141344 0.602319 0.199069
0.197009 0.600107 0.167285
0.325521 0.605325 0.165515
0.457588 0.606821 0.153567
0.579019 0.593668 0.148714
0.696117 0.598154 0.128664
0.787747 0.60029 0.152255
0.844648 0.60325 0.182681
0.871626 0.601587 0.19913
0.876799 0.591485 0.202625
0.873701 0.572732 0.200992
0.870436 0.548684 0.200275
0.866529 0.52195 0.199313
0.864424 0.50309 0.19881
0.863447 0.494896 0.198703
0.862531 0.488746 0.198505
0.861631 0.48217 0.198459
0.860182 0.47451 0.198077
0.858778 0.466072 0.197955
0.857252 0.457038 0.197864
0.855817 0.448646 0.197208
0.853925 0.440803 0.196262
0.135515 0.654856 0.30251
0.136934 0.667445 0.303243
0.137224 0.679881 0.303105
0.137896 0.691493 0.302373
0.139879 0.703105 0.301793
0.144594 0.714611 0.301793
0.151293 0.725261 0.300664
0.154742 0.730739 0.301625
0.156069 0.732876 0.302708
0.157275 0.731731 0.302419
0.160571 0.723964 0.292775
0.171069 0.714244 0.269108
0.195605 0.714595 0.226581
0.279377 0.709636 0.208423
0.428428 0.712215 0.1991
0.547036 0.711131 0.189532
0.658976 0.70161 0.186633
0.766888 0.702296 0.185214
0.841871 0.702861 0.204913
0.882979 0.702647 0.220096
0.897002 0.698405 0.225238
0.896895 0.690776 0.223285
0.893935 0.677745 0.218631
0.889265 0.656977 0.211688
0.883162 0.626566 0.207355
0.881392 0.616983 0.206058
0.880354 0.611719 0.205295
0.878813 0.6056 0.204196
0.877562 0.598718 0.203449
0.876265 0.590585 0.202533
0.87483 0.58201 0.201633
0.873549 0.573327 0.200824
0.872663 0.565728 0.20032
0.174624 0.768688 0.368154
0.180697 0.780301 0.369329
0.184298 0.791257 0.368811
0.187427 0.802441 0.368826
0.189899 0.811765 0.367956
0.195285 0.820462 0.366735
0.202731 0.828168 0.364462
0.208789 0.833265 0.362737
0.210925 0.834974 0.362509
0.211643 0.834241 0.362402
0.211536 0.830335 0.359716
0.216083 0.821836 0.342
0.233692 0.819348 0.313298
0.278386 0.81677 0.266773
0.386313 0.813794 0.252552
0.531273 0.814023 0.244831
0.633539 0.812177 0.241291
0.735485 0.808835 0.244892
0.82771 0.802884 0.25713
0.884169 0.803815 0.272206
0.910918 0.804273 0.278828
0.917525 0.796658 0.27631
0.915999 0.788418 0.271275
0.913893 0.777447 0.264622
0.910262 0.759579 0.252674
0.906798 0.743816 0.244419
0.905241 0.736767 0.240345
0.903655 0.729747 0.236927
0.901854 0.721523 0.233387
0.89984 0.712352 0.229953
0.897902 0.703212 0.226871
0.89633 0.694072 0.223987
0.894469 0.685832 0.221653
0.227314 0.850675 0.432349
0.232547 0.859602 0.433417
0.233494 0.86627 0.431876
0.232578 0.87219 0.429145
0.23299 0.877714 0.425834
0.236118 0.882155 0.421912
0.241276 0.885908 0.416785
0.247547 0.888914 0.411872
0.250202 0.889403 0.408774
0.25066 0.888991 0.408667
0.251148 0.887068 0.407431
0.254002 0.883833 0.400534
0.264256 0.878737 0.374807
0.29044 0.878401 0.338155
0.366461 0.87599 0.298634
0.497505 0.879194 0.289662
0.621607 0.879042 0.288228
0.705821 0.879606 0.292409
0.798489 0.87895 0.302785
0.87422 0.872541 0.317739
0.914229 0.869398 0.32784
0.93109 0.867811 0.331044
0.932265 0.862806 0.32755
0.93077 0.856672 0.322087
0.929335 0.850538 0.316869
0.927169 0.842954 0.309926
0.925612 0.837385 0.30486
0.924239 0.832532 0.300511
0.922744 0.826398 0.295644
0.920958 0.819272 0.290196
0.919478 0.81178 0.285252
0.918563 0.804654 0.28127
0.91696 0.79733 0.276509
0.255131 0.891508 0.477745
0.255894 0.894301 0.475059
0.254154 0.896971 0.470878
0.25182 0.899748 0.466224
0.250126 0.902007 0.460502
0.25098 0.903334 0.453803
0.253132 0.904021 0.445762
0.257099 0.903868 0.437079
0.260533 0.903655 0.429709
0.261128 0.903517 0.429206
0.262425 0.903044 0.429068
0.265049 0.902159 0.428702
0.27509 0.90042 0.41265
0.292973 0.897749 0.379461
0.335378 0.896101 0.329259
0.466102 0.903471 0.309819
0.589746 0.904585 0.30724
0.689128 0.906386 0.312398
0.762219 0.908904 0.323751
0.848676 0.909789 0.340444
0.905379 0.903883 0.353491
0.931044 0.898726 0.361257
0.941024 0.899657 0.365728
0.940047 0.896468 0.36083
0.939208 0.893629 0.357397
0.938567 0.890837 0.353597
0.937316 0.888167 0.349828
0.9364 0.885924 0.346685
0.935668 0.883268 0.343435
0.934646 0.879881 0.340139
0.93402 0.876295 0.337209
0.933562 0.872831 0.334936
0.932876 0.869352 0.331792
0.256153 0.895674 0.499031
0.25478 0.896513 0.494408
0.252155 0.898039 0.489372
0.247959 0.899809 0.483665
0.24593 0.901732 0.47715
0.246143 0.903059 0.4692
0.248707 0.903807 0.459236
0.252613 0.904036 0.448417
0.257206 0.903929 0.437598
0.258656 0.903807 0.434745
0.259358 0.903563 0.43473
0.260975 0.902983 0.43473
0.266072 0.9019 0.428977
0.280629 0.899794 0.402472
0.309117 0.896834 0.355184
0.407813 0.902007 0.314839
0.553536 0.906981 0.308736
0.657511 0.909819 0.311437
0.726467 0.913985 0.319631
0.801953 0.916243 0.3337
0.878431 0.914122 0.350134
0.915129 0.903914 0.35938
0.938537 0.907423 0.372229
0.94229 0.90753 0.374731
0.942306 0.90663 0.37406
0.941955 0.905791 0.372152
0.941466 0.905318 0.37055
0.940978 0.904936 0.369024
0.940627 0.904387 0.367636
0.940536 0.903593 0.36672
0.940566 0.902586 0.366079
0.940795 0.901625 0.365866
0.940642 0.90074 0.364843
0.253803 0.8963 0.513329
0.254246 0.89752 0.5084
0.251331 0.899031 0.502297
0.244221 0.899962 0.495369
0.240787 0.901564 0.487953
0.241352 0.902998 0.479225
0.24419 0.903822 0.46894
0.249012 0.904143 0.456275
0.254673 0.904097 0.442939
0.25832 0.903883 0.435035
0.258732 0.903746 0.435065
0.259586 0.90341 0.43537
0.261189 0.90277 0.435828
0.271901 0.901289 0.417182
0.294194 0.898909 0.37879
0.349187 0.898878 0.329992
0.513603 0.906203 0.308904
0.628641 0.908843 0.309926
0.701366 0.912596 0.315343
0.762142 0.916304 0.325124
0.841352 0.917754 0.340276
0.895445 0.912398 0.350591
0.925963 0.908232 0.36054
0.937728 0.910918 0.367498
0.938628 0.91104 0.368902
0.938842 0.910933 0.369711
0.93904 0.910796 0.370275
0.939223 0.910613 0.370611
0.939498 0.910384 0.371023
0.939895 0.910033 0.371588
0.940383 0.909636 0.372305
0.940902 0.909209 0.373114
0.941283 0.908904 0.373632
0.251942 0.894957 0.522896
0.253788 0.895811 0.517372
0.254749 0.897124 0.510842
0.255192 0.898726 0.50396
0.248829 0.898451 0.495201
0.249149 0.899321 0.485908
0.252323 0.900084 0.474647
0.257511 0.900343 0.461524
0.264225 0.900252 0.446036
0.270268 0.899901 0.432654
0.271168 0.899809 0.430869
0.271305 0.899672 0.431617
0.271946 0.899306 0.432654
0.276936 0.898375 0.425803
0.293446 0.896651 0.397147
0.332021 0.894911 0.348623
0.453758 0.900923 0.315251
0.60943 0.905272 0.313085
0.688182 0.908309 0.317891
0.742916 0.912352 0.32546
0.806104 0.914641 0.337896
0.874937 0.915938 0.351324
0.917098 0.905409 0.360876
0.936431 0.907713 0.369589
0.940795 0.909133 0.37261
0.940658 0.909483 0.373037
0.940322 0.910018 0.37351
0.939681 0.910628 0.372976
0.938949 0.911238 0.371649
0.938247 0.911803 0.370245
0.937728 0.912154 0.369253
0.937514 0.912291 0.368734
0.93753 0.91223 0.368536
0.240574 0.901289 0.527535
0.244816 0.901198 0.521599
0.249302 0.901137 0.514549
0.253086 0.901381 0.506996
0.251011 0.900557 0.49752
0.250889 0.90045 0.486763
0.25391 0.900908 0.474708
0.258625 0.900877 0.459922
0.265278 0.900649 0.443183
0.273808 0.900008 0.423239
0.276219 0.899718 0.418143
0.27599 0.899611 0.419471
0.275929 0.899382 0.42121
0.276448 0.898985 0.422522
0.288243 0.898024 0.402838
0.315709 0.896574 0.36286
0.393622 0.899107 0.321279
0.565621 0.904967 0.311498
0.669093 0.907805 0.315679
0.722484 0.911238 0.321965
0.772305 0.913893 0.331212
0.836927 0.915099 0.343557
0.89897 0.907057 0.355795
0.929091 0.906126 0.365911
0.939315 0.908721 0.37145
0.940581 0.909361 0.372168
0.940154 0.909743 0.371633
0.939513 0.910353 0.370916
0.938811 0.910964 0.369635
0.938079 0.911559 0.368353
0.93756 0.911971 0.367575
0.937362 0.912139 0.3673
0.937392 0.912123 0.367437
0.246052 0.903243 0.526741
0.250324 0.903212 0.519738
0.254536 0.903212 0.512276
0.25417 0.902373 0.503716
0.255863 0.902388 0.494606
0.256352 0.902296 0.483757
0.259709 0.902449 0.470603
0.264103 0.90219 0.454887
0.270283 0.901411 0.435111
0.279042 0.900359 0.41181
0.284047 0.899794 0.400137
0.284138 0.899718 0.400092
0.284047 0.89955 0.401297
0.28365 0.89929 0.403861
0.289982 0.898833 0.395148
0.308003 0.89778 0.368231
0.358892 0.897917 0.32575
0.501793 0.904814 0.311025
0.644358 0.907713 0.312856
0.704402 0.910567 0.318822
0.746029 0.912947 0.32575
0.800458 0.91458 0.336217
0.874876 0.912154 0.350439
0.918761 0.90634 0.361639
0.936172 0.90782 0.369253
0.940551 0.909331 0.371939
0.940124 0.909697 0.371298
0.939422 0.910216 0.370016
0.938735 0.910811 0.368536
0.937972 0.911391 0.367163
0.937438 0.911788 0.366339
0.937346 0.911879 0.366278
0.937667 0.911681 0.366842
0.245167 0.904234 0.530327
0.248859 0.904128 0.523827
0.252598 0.904021 0.516762
0.255253 0.903838 0.508812
0.255833 0.9037 0.49955
0.253742 0.903304 0.488365
0.25687 0.903548 0.475608
0.261418 0.903349 0.459754
0.267994 0.902373 0.440101
0.276585 0.901122 0.415793
0.284215 0.900221 0.397833
0.285008 0.90013 0.395666
0.2851 0.900038 0.396002
0.285573 0.899794 0.396475
0.289464 0.899321 0.391821
0.306477 0.898207 0.366247
0.340215 0.897322 0.330083
0.447684 0.904204 0.311391
0.607111 0.908156 0.3093
0.684382 0.910613 0.314122
0.72108 0.912718 0.31989
0.766796 0.914427 0.328603
0.843153 0.915801 0.343252
0.906035 0.911406 0.357931
0.929702 0.906493 0.365728
0.939208 0.909072 0.370871
0.940093 0.909728 0.371221
0.939452 0.910201 0.370047
0.938781 0.910735 0.368551
0.938079 0.911269 0.367193
0.937652 0.911574 0.36643
0.937667 0.911574 0.366445
0.937987 0.911345 0.36701
0.24213 0.904402 0.536126
0.245655 0.904341 0.529656
0.249577 0.904204 0.52253
0.252476 0.904341 0.514946
0.254353 0.904631 0.506096
0.250507 0.903731 0.49482
0.253422 0.904036 0.482551
0.258274 0.903853 0.467628
0.264683 0.903044 0.44802
0.273045 0.901625 0.423651
0.283268 0.900389 0.399619
0.285054 0.900145 0.395453
0.28513 0.900114 0.395468
0.285466 0.899992 0.395514
0.286534 0.899702 0.395026
0.299992 0.898817 0.374838
0.325322 0.896956 0.338704
0.403235 0.902113 0.315084
0.560052 0.907744 0.308186
0.667536 0.910658 0.311192
0.698039 0.912779 0.314672
0.730175 0.914504 0.319753
0.801099 0.916777 0.333181
0.883864 0.913603 0.350591
0.919341 0.90518 0.359915
0.9364 0.908614 0.36849
0.939925 0.909819 0.370855
0.939406 0.910231 0.369955
0.938766 0.91075 0.368536
0.938094 0.911254 0.367224
0.937682 0.911559 0.366476
0.937667 0.911559 0.366461
0.937926 0.911391 0.366903
0.239277 0.904311 0.542123
0.242924 0.90428 0.535271
0.246525 0.904311 0.528069
0.249531 0.90454 0.520684
0.252033 0.905058 0.512108
0.250889 0.904875 0.501503
0.25124 0.904723 0.488899
0.254368 0.904479 0.474601
0.261112 0.903792 0.455711
0.269337 0.902419 0.432242
0.280095 0.900893 0.405982
0.284871 0.900206 0.395514
0.285039 0.90016 0.395438
0.285161 0.900099 0.395468
0.285557 0.899947 0.395529
0.292348 0.899428 0.385657
0.312978 0.897917 0.354376
0.362005 0.899519 0.322637
0.489021 0.906035 0.308827
0.630137 0.909438 0.308949
0.685939 0.912123 0.312764
