bundles/resolve-cinematic-luts/Phantom Luts/Ursa G2 Phntm Film LUTs - V1/Gen5/White Balance Offset (+Magenta Boost)/Ursa Eastman Gen5-Legacy WBO.cube
TITLE "Generated by Resolve"
LUT_3D_SIZE 5
0.0390021 0.0390021 0.0390021
0.095201 0.0390021 0.0456703
0.393103 0.0445716 0.0397498
0.525307 0.0766613 0.0523842
0.506539 0.0859541 0.0614176
0.069337 0.0944839 0.0688487
0.0982071 0.105013 0.0658274
0.423667 0.0863661 0.0437018
0.511955 0.0854963 0.0483406
0.501732 0.084596 0.048661
0.142626 0.553048 0.24773
0.143297 0.557015 0.244953
0.571618 0.677241 0.206958
0.83389 0.676555 0.224994
0.822354 0.631403 0.205936
0.196353 0.708904 0.399893
0.197818 0.686809 0.341054
0.533211 0.761746 0.279744
0.821881 0.804791 0.310201
0.835706 0.808484 0.320851
0.206271 0.715099 0.419165
0.204669 0.678264 0.305592
0.442084 0.723369 0.248753
0.781292 0.815564 0.294011
0.831525 0.809232 0.324453
0.0407263 0.0390021 0.0670787
0.105501 0.0411231 0.0791791
0.412757 0.0390021 0.0621958
0.524147 0.0667124 0.0735332
0.497719 0.0837415 0.0619974
0.0631876 0.0878462 0.0820935
0.1037 0.0930648 0.097673
0.431464 0.0745098 0.0565042
0.508217 0.0844892 0.0489815
0.496696 0.0838636 0.049073
0.129198 0.557916 0.331197
0.127581 0.540078 0.277821
0.567819 0.648005 0.193698
0.825742 0.632227 0.205554
0.803159 0.564065 0.186343
0.2215 0.767987 0.518547
0.199847 0.716365 0.415473
0.447623 0.724819 0.260105
0.81593 0.803876 0.308873
0.836378 0.808499 0.321096
0.24033 0.779736 0.550881
0.205997 0.719707 0.416083
0.305943 0.679652 0.228458
0.739757 0.816327 0.289357
0.829847 0.809567 0.325994
0.0390021 0.0548257 0.288594
0.157015 0.047425 0.327337
0.459846 0.0753948 0.344106
0.581811 0.124559 0.427298
0.579522 0.134905 0.458839
0.0390021 0.0556649 0.272099
0.0746014 0.0547799 0.334966
0.46598 0.0815137 0.354437
0.586328 0.121447 0.422034
0.577874 0.130678 0.442435
0.121019 0.57406 0.47187
0.118959 0.570214 0.474907
0.620188 0.609598 0.605997
0.822507 0.516045 0.53048
0.800397 0.482368 0.493935
0.278004 0.821912 0.671275
0.257954 0.810758 0.64622
0.441382 0.791547 0.600839
0.839979 0.853407 0.579919
0.853635 0.843503 0.542931
0.422065 0.850309 0.741665
0.37258 0.838575 0.707637
0.388052 0.800961 0.600488
0.774014 0.859632 0.604074
0.835004 0.82237 0.423941
0.127489 0.0654154 0.454841
0.259281 0.0708476 0.492149
0.542657 0.135332 0.534966
0.611795 0.165179 0.557855
0.611658 0.164889 0.557626
0.109712 0.066453 0.450904
0.196963 0.066865 0.47892
0.539071 0.135348 0.537362
0.611902 0.165286 0.557992
0.610132 0.163561 0.555886
0.0890211 0.520348 0.597848
0.0827802 0.502617 0.595178
0.657893 0.516976 0.833951
0.887633 0.546059 0.834272
0.879667 0.508003 0.82298
0.319921 0.834104 0.732586
0.297093 0.827558 0.723583
0.540536 0.857771 0.786465
0.874296 0.891859 0.866941
0.889677 0.884306 0.860761
0.55317 0.872282 0.802884
0.532631 0.86894 0.795544
0.604532 0.878859 0.811612
0.853132 0.910582 0.876936
0.889906 0.91487 0.867933
0.512032 0.203357 0.638819
0.588235 0.229633 0.661219
0.745541 0.282078 0.68838
0.725109 0.261479 0.666987
0.684855 0.226337 0.628305
0.467948 0.186374 0.621942
0.532372 0.210636 0.645808
0.73991 0.279316 0.686381
0.726131 0.262242 0.667674
0.684703 0.226398 0.628168
0.360586 0.558862 0.726207
0.379232 0.528222 0.733822
0.832441 0.562631 0.854383
0.889693 0.566873 0.838392
0.885649 0.53933 0.831785
0.502098 0.858961 0.790402
0.494499 0.85333 0.788983
0.626551 0.865873 0.825696
0.886412 0.880034 0.885618
0.892058 0.875334 0.88394
0.642557 0.885557 0.828763
0.62472 0.882979 0.823911
0.666911 0.889281 0.835889
0.868269 0.913771 0.887617
0.891493 0.917067 0.888075
