bundles/resolve-cinematic-luts/Phantom Luts/Ursa G2 Phntm Film LUTs - V1/Gen5/White Balance Offset (+Magenta Boost)/Ursa EastmanRM Gen5 WBO.cube
TITLE "Generated by Resolve"
LUT_3D_SIZE 9
0.0426032 0.0360571 0.0393835
0.0514076 0.0339055 0.0367742
0.129198 0.0302892 0.0354925
0.285237 0.0263371 0.0390631
0.46479 0.0260166 0.0454566
0.556023 0.0314794 0.0637064
0.5738 0.034699 0.0775616
0.577829 0.0366674 0.0842908
0.537194 0.0410315 0.118715
0.0445258 0.0464027 0.0420233
0.0461433 0.0471809 0.0416876
0.108049 0.0380865 0.0385138
0.27686 0.0272831 0.0409247
0.464134 0.0266575 0.0479286
0.552834 0.0329595 0.0684672
0.569299 0.0354314 0.0828412
0.573434 0.0370489 0.0880598
0.537057 0.0410468 0.118868
0.0585336 0.114809 0.0546731
0.0507668 0.117067 0.0568704
0.104601 0.127077 0.0518502
0.336645 0.0796979 0.0491646
0.490517 0.0328985 0.0490425
0.550515 0.0336156 0.0646983
0.561074 0.0345464 0.0769207
0.562005 0.0344549 0.0788739
0.541543 0.0374151 0.0991684
0.0813001 0.304692 0.0860456
0.0640269 0.316625 0.0969863
0.0686809 0.31754 0.0714427
0.316136 0.412634 0.0768597
0.696712 0.369833 0.0836957
0.785718 0.299718 0.138796
0.665171 0.145892 0.114534
0.588144 0.0668193 0.0857099
0.579553 0.0679789 0.091371
0.0804456 0.567773 0.188861
0.0770733 0.582513 0.210605
0.0794995 0.58381 0.204898
0.164157 0.587716 0.1122
0.614755 0.721035 0.181094
0.855833 0.71014 0.300725
0.867613 0.677378 0.294759
0.857466 0.640116 0.265766
0.85597 0.64007 0.268971
0.2365 0.721874 0.404807
0.230564 0.724865 0.405692
0.232837 0.724865 0.400458
0.250355 0.712016 0.341268
0.558145 0.792004 0.322499
0.814542 0.879332 0.42359
0.909438 0.868803 0.460502
0.909636 0.86981 0.460151
0.911772 0.869657 0.452461
0.24567 0.742077 0.457816
0.2421 0.732341 0.420966
0.247227 0.724727 0.386328
0.256046 0.719265 0.359106
0.527169 0.779019 0.31194
0.747845 0.867842 0.395712
0.892821 0.870527 0.458351
0.905394 0.871397 0.474525
0.903807 0.87187 0.479744
0.251942 0.744579 0.461524
0.25536 0.729488 0.401892
0.269291 0.71426 0.334051
0.275868 0.712215 0.320333
0.534813 0.782361 0.29546
0.731426 0.862547 0.375219
0.88513 0.869001 0.438178
0.908721 0.870466 0.463096
0.902296 0.872312 0.484901
0.244465 0.750622 0.485969
0.249302 0.735531 0.426139
0.264302 0.715969 0.343511
0.271748 0.713512 0.329625
0.523934 0.77734 0.290898
0.726726 0.861173 0.373037
0.882628 0.869978 0.437308
0.908385 0.870558 0.464271
0.901625 0.872541 0.486854
0.0424811 0.0365606 0.0429084
0.049073 0.0364385 0.0428779
0.110674 0.0359045 0.0438697
0.265934 0.0328069 0.0513161
0.446479 0.029572 0.0628214
0.534234 0.033875 0.0825055
0.548959 0.0367742 0.0956283
0.553017 0.0391852 0.105394
0.527199 0.0422675 0.127611
0.044007 0.0433509 0.0435645
0.0457618 0.0427253 0.044007
0.0979934 0.0371405 0.0441138
0.258381 0.0298924 0.0497292
0.442573 0.0287785 0.0637827
0.529747 0.0353246 0.086656
0.54519 0.0378271 0.102876
0.549508 0.0395666 0.108537
0.527169 0.0422522 0.127672
0.0544137 0.108583 0.0627909
0.0495308 0.112337 0.0607767
0.0963455 0.120989 0.0514992
0.32105 0.0696117 0.0510109
0.476234 0.0304417 0.0522469
0.542687 0.0342718 0.0699168
0.553323 0.0352331 0.0834669
0.556008 0.0356603 0.0871443
0.534051 0.0382544 0.10724
0.072282 0.292683 0.107118
0.0625772 0.303517 0.103288
0.0697948 0.313756 0.0783551
0.31339 0.402045 0.0762951
0.700755 0.334951 0.0887922
0.774212 0.274525 0.138628
0.615518 0.0918288 0.0886549
0.581033 0.0608225 0.0842756
0.561608 0.0535744 0.0860456
0.0707866 0.56701 0.2271
0.0671855 0.57702 0.232578
0.0769665 0.581415 0.208347
0.147814 0.585916 0.119097
0.616098 0.717052 0.177829
0.855985 0.699657 0.295354
0.861738 0.656901 0.278065
0.853315 0.6224 0.25127
0.851011 0.622827 0.255634
0.222095 0.724346 0.436454
0.22266 0.728496 0.433783
0.231174 0.723705 0.399039
0.243824 0.714549 0.356039
0.540993 0.783948 0.31487
0.815732 0.879225 0.421439
0.909621 0.869093 0.460105
0.90956 0.870222 0.460578
0.909941 0.869932 0.458503
0.241428 0.751141 0.499657
0.2439 0.744106 0.466972
0.245762 0.726207 0.392782
0.249958 0.722683 0.376516
0.492973 0.763638 0.297612
0.744335 0.866773 0.393561
0.892332 0.870558 0.458061
0.905409 0.871382 0.47454
0.903792 0.871885 0.479835
0.252155 0.756436 0.510613
0.258015 0.742763 0.455055
0.264012 0.7178 0.353628
0.270481 0.713878 0.331914
0.493446 0.763409 0.278294
0.724453 0.860517 0.372229
0.882277 0.86891 0.436011
0.90898 0.87039 0.462455
0.902403 0.872282 0.484474
0.252674 0.761883 0.530159
0.249653 0.749233 0.481163
0.258762 0.720577 0.366278
0.269978 0.714015 0.332952
0.481422 0.758526 0.27422
0.720424 0.859068 0.370367
0.879332 0.8719 0.435828
0.908385 0.870558 0.464271
0.901625 0.872541 0.486854
0.0417945 0.0419318 0.0674144
0.0500191 0.0402838 0.0747997
0.116045 0.0406348 0.0664378
0.284016 0.0406348 0.069276
0.467338 0.0330968 0.0878767
0.552544 0.0379339 0.111162
0.552377 0.0379034 0.0990311
0.553292 0.0394293 0.104509
0.527626 0.0424811 0.12665
0.0418402 0.0420539 0.0590066
0.0435798 0.0430304 0.0746471
0.101045 0.0421912 0.0723583
0.278752 0.0390631 0.0701915
0.466011 0.0323796 0.0893568
0.547707 0.0383612 0.111437
0.545754 0.0377813 0.100496
0.550576 0.0397192 0.106844
0.527596 0.0424811 0.12668
0.0527199 0.105196 0.0776074
0.048127 0.106661 0.0855268
0.110811 0.114931 0.0969558
0.329595 0.0768139 0.0799573
0.493904 0.0358587 0.0741588
0.548638 0.0344549 0.0798199
0.553735 0.0352483 0.0847028
0.557336 0.035935 0.088716
0.53782 0.0393683 0.110735
0.0716106 0.285557 0.145861
0.0598917 0.29044 0.147478
0.0618143 0.294942 0.118212
0.351736 0.387884 0.0956588
0.695506 0.295766 0.104463
0.765896 0.259739 0.138003
0.576867 0.0571908 0.0786755
0.5579 0.0450599 0.0781415
0.536629 0.0390021 0.0802472
0.0645609 0.570779 0.307225
0.0576638 0.579705 0.318227
0.0645914 0.574884 0.248295
0.113939 0.575051 0.129915
0.63093 0.705715 0.171145
0.853635 0.682231 0.284657
0.856062 0.634974 0.260914
0.84918 0.599008 0.232975
0.845289 0.597391 0.236774
0.210727 0.727718 0.485969
0.2009 0.732311 0.489326
0.217197 0.728939 0.443229
0.239811 0.716548 0.367849
0.509575 0.769314 0.300771
0.81854 0.87892 0.414099
0.909743 0.869627 0.460563
0.909453 0.86688 0.457069
0.90959 0.865385 0.455726
0.259113 0.767025 0.558419
0.249805 0.761639 0.53875
0.241077 0.746899 0.479698
0.245975 0.725643 0.390494
0.423133 0.736187 0.274311
0.736767 0.864683 0.389319
0.891295 0.870359 0.457374
0.905394 0.871412 0.47454
0.903578 0.871946 0.480629
0.274952 0.773754 0.571878
0.264576 0.767346 0.549432
0.25832 0.745312 0.465705
0.269291 0.71426 0.334051
0.415015 0.732433 0.255329
0.712261 0.856443 0.367269
0.876585 0.870954 0.432578
0.909346 0.870268 0.461387
0.902785 0.87216 0.483314
0.275532 0.778042 0.590555
0.266011 0.771847 0.565988
0.255329 0.748791 0.480751
0.269291 0.71426 0.334051
0.394965 0.725383 0.251911
0.711589 0.856367 0.367193
0.871733 0.873701 0.431479
0.908385 0.870558 0.464271
0.901213 0.872663 0.48838
0.0419623 0.0615549 0.156619
0.0531472 0.0586404 0.170382
0.122896 0.0527504 0.18764
0.310948 0.0509957 0.169146
0.493492 0.0538949 0.196475
0.588846 0.0621347 0.210971
0.588281 0.0605173 0.204334
0.581415 0.0569009 0.19324
0.555703 0.0614481 0.219211
0.040589 0.0625162 0.159167
0.0436103 0.0637064 0.174472
0.101839 0.0534524 0.204837
0.308629 0.0536812 0.186435
0.502312 0.0531624 0.19498
0.582956 0.0606088 0.205356
0.578149 0.0558785 0.190585
0.575265 0.0547646 0.184817
0.553475 0.0593576 0.211429
0.0421759 0.0903182 0.14078
0.0409094 0.0831922 0.16257
0.0619821 0.0723735 0.210239
0.300816 0.060853 0.208545
0.514519 0.0488289 0.171588
0.5906 0.0541238 0.178286
0.585 0.0497139 0.161517
0.584833 0.0495918 0.160632
0.565927 0.0555581 0.192416
0.0686961 0.284825 0.220584
0.0573587 0.289677 0.238193
0.0569619 0.289311 0.242237
0.399924 0.367254 0.34931
0.710384 0.295918 0.316686
0.811612 0.218067 0.294179
0.573098 0.0508278 0.0897993
0.550347 0.0400854 0.0801709
0.537713 0.0390478 0.083299
0.0674601 0.572625 0.393927
0.0589303 0.580392 0.421073
0.0585336 0.580453 0.400473
0.0897383 0.589929 0.34052
0.656443 0.684489 0.298634
0.870634 0.59205 0.318639
0.855802 0.617243 0.242039
0.848859 0.597971 0.23212
0.844923 0.595026 0.235279
0.213123 0.730343 0.549783
0.201144 0.735348 0.560876
0.197757 0.735378 0.54226
0.196155 0.730282 0.490211
0.420188 0.733242 0.32459
0.838651 0.876387 0.423911
0.909804 0.865385 0.457053
0.909453 0.864149 0.454566
0.909072 0.862837 0.45333
0.286824 0.782712 0.627756
0.278981 0.781308 0.621103
0.268421 0.77496 0.591974
0.242557 0.754879 0.514305
0.348791 0.734051 0.356207
0.747173 0.87039 0.416464
0.892836 0.870558 0.458366
0.905394 0.871412 0.47454
0.903578 0.871946 0.480629
0.330831 0.801068 0.651148
0.311406 0.794751 0.638956
0.286534 0.781613 0.60235
0.259892 0.750927 0.488411
0.333593 0.727016 0.33312
0.739361 0.867247 0.39617
0.87776 0.872007 0.421698
0.909941 0.870115 0.458488
0.9028 0.87216 0.483253
0.344823 0.807431 0.670008
0.324208 0.80087 0.653773
0.292531 0.785794 0.615259
0.264439 0.754177 0.501686
0.329335 0.727291 0.336843
0.732006 0.865141 0.39794
0.867323 0.874006 0.428656
0.908385 0.870558 0.464271
0.901625 0.872541 0.486854
0.0459907 0.0840467 0.317968
0.0686656 0.0836347 0.336095
0.15082 0.0626078 0.371771
0.331853 0.0635996 0.384405
0.51809 0.0737774 0.365942
0.632471 0.120394 0.387091
0.640131 0.12784 0.424506
0.638071 0.12874 0.429816
0.611673 0.135866 0.460792
0.0429541 0.0866102 0.320348
0.0493629 0.087129 0.340215
0.124208 0.0623941 0.386313
0.331792 0.0646983 0.403616
0.527901 0.0781415 0.378698
0.636133 0.122637 0.3944
0.640253 0.128023 0.425513
0.638086 0.12874 0.429282
0.611521 0.135744 0.459648
0.0416266 0.0851759 0.288014
0.0418708 0.0877546 0.324178
0.0812695 0.0874952 0.37377
0.315572 0.0654307 0.416358
0.525872 0.0814221 0.392065
0.644022 0.120851 0.387137
0.648234 0.125338 0.414527
0.648371 0.125505 0.41651
0.625971 0.13196 0.444526
0.0429236 0.223697 0.334386
0.0428626 0.215457 0.355444
0.0426795 0.200381 0.363684
0.311788 0.194949 0.533867
0.677195 0.240528 0.580911
0.749584 0.185031 0.467384
0.664897 0.126665 0.383124
0.660136 0.123476 0.3832
0.636027 0.128939 0.409903
0.0709392 0.568185 0.475166
0.0628061 0.575814 0.50309
0.0627146 0.577676 0.508049
0.112917 0.593606 0.532189
0.681071 0.654902 0.629404
0.884199 0.600046 0.595575
0.899428 0.56376 0.563928
0.897749 0.54081 0.540108
0.891325 0.539239 0.552056
0.21767 0.72636 0.597665
0.204211 0.73109 0.613718
0.20293 0.732448 0.609995
0.204318 0.733867 0.598733
0.515709 0.785718 0.617716
0.826429 0.86595 0.650904
0.906661 0.849882 0.685023
0.90901 0.848753 0.647532
0.908797 0.848371 0.652018
0.340185 0.798535 0.675669
0.322118 0.797894 0.682322
0.311742 0.794598 0.674846
0.292699 0.786175 0.649592
0.484504 0.818814 0.639216
0.753536 0.870481 0.687861
0.895644 0.907561 0.686259
0.911086 0.89897 0.635615
0.90988 0.897353 0.622415
0.48484 0.837644 0.740597
0.469535 0.834791 0.735821
0.433967 0.827222 0.719097
0.355489 0.809293 0.671885
0.511803 0.826322 0.654871
0.7561 0.870359 0.699916
0.877272 0.910582 0.697124
0.911498 0.893523 0.597147
0.907134 0.882139 0.52723
0.503838 0.842451 0.753613
0.489509 0.83917 0.747158
0.454032 0.831373 0.729229
0.37055 0.813245 0.681285
0.503426 0.826963 0.659861
0.747402 0.869505 0.706783
0.869261 0.912825 0.716457
0.907439 0.901457 0.655207
0.905119 0.887434 0.557595
0.0806134 0.103609 0.443137
0.11635 0.0889906 0.469764
0.216754 0.0768902 0.495918
0.372519 0.0856184 0.513283
0.509087 0.10959 0.520851
0.625574 0.151888 0.542611
0.623346 0.154711 0.556863
0.621103 0.156207 0.564645
0.614008 0.158343 0.572366
0.0602579 0.105074 0.436835
0.0970626 0.105501 0.459205
0.191943 0.0776226 0.500832
0.368307 0.0891585 0.521523
0.516854 0.115938 0.531838
0.629328 0.154971 0.551934
0.623697 0.155306 0.56112
0.621408 0.156741 0.566934
0.613062 0.159045 0.57499
0.060914 0.105806 0.436759
0.0620737 0.106767 0.445029
0.130709 0.0832532 0.492103
0.340093 0.0897536 0.524285
0.51252 0.118318 0.539727
0.633066 0.155444 0.554025
0.629786 0.153841 0.556329
0.627054 0.155245 0.561807
0.617166 0.157748 0.570474
0.0425116 0.155062 0.41062
0.0424201 0.144396 0.410819
0.0424659 0.127016 0.406638
0.250996 0.0912337 0.52517
0.531868 0.143053 0.579843
0.659144 0.171862 0.574472
0.645838 0.157809 0.556191
0.637888 0.155398 0.556512
0.622141 0.157015 0.565301
0.0546578 0.526955 0.574136
0.0532387 0.527733 0.582773
0.0521248 0.521965 0.586725
0.0678721 0.533379 0.627268
0.635203 0.565835 0.802365
0.896971 0.61033 0.828061
0.917464 0.574319 0.83064
0.916197 0.546548 0.83386
0.910201 0.544564 0.838453
0.218494 0.721828 0.647532
0.209995 0.726268 0.65919
0.211292 0.727535 0.661341
0.213809 0.728008 0.663371
0.572976 0.804959 0.757671
0.835279 0.849851 0.821424
0.900587 0.835111 0.802838
0.900603 0.82977 0.798047
0.896437 0.831525 0.806622
0.376379 0.80911 0.717388
0.367575 0.80972 0.72369
0.364797 0.809369 0.72192
0.352697 0.806424 0.714717
0.619165 0.862226 0.783597
0.808606 0.902968 0.836072
0.885649 0.922347 0.840162
0.898161 0.923674 0.850935
0.897841 0.923552 0.851759
0.611261 0.866697 0.796414
0.597208 0.864225 0.797894
0.585 0.861387 0.79266
0.555291 0.854154 0.778744
0.666529 0.879271 0.809079
0.813642 0.911269 0.848173
0.872206 0.924987 0.856504
0.893645 0.93077 0.853681
0.893263 0.931502 0.858289
0.620722 0.86981 0.805905
0.612818 0.868177 0.803983
0.59826 0.86453 0.798733
0.566445 0.856809 0.783734
0.664591 0.878935 0.81001
0.811734 0.911208 0.849836
0.870573 0.925063 0.860639
0.891096 0.930434 0.855817
0.894179 0.931762 0.859724
0.196506 0.0844434 0.519371
0.238605 0.0879835 0.52697
0.318685 0.0967269 0.539681
0.426795 0.109392 0.557153
0.543465 0.140749 0.578561
0.636774 0.178607 0.614527
0.633768 0.175235 0.609751
0.634165 0.173693 0.606699
0.632197 0.175784 0.611109
0.186252 0.0843214 0.519112
0.228702 0.0872358 0.525826
0.313573 0.0964981 0.539193
0.428748 0.109514 0.557321
0.551873 0.144411 0.582162
0.639979 0.180621 0.617304
0.634043 0.176074 0.611139
0.633204 0.175723 0.610742
0.631754 0.177768 0.614679
0.18822 0.0843366 0.518807
0.197589 0.0846723 0.520851
0.278965 0.092134 0.533471
0.411521 0.107591 0.554528
0.548363 0.14345 0.581796
0.641718 0.181537 0.618448
0.637232 0.176379 0.610986
0.635233 0.175113 0.609277
0.632639 0.176684 0.612406
0.104189 0.125444 0.491188
0.123461 0.106752 0.495476
0.155413 0.0860914 0.51754
0.37995 0.117998 0.567697
0.564294 0.164233 0.614496
0.652216 0.18854 0.628275
0.641489 0.177996 0.612116
0.636088 0.173816 0.606714
0.632059 0.175067 0.609781
0.051545 0.505272 0.60592
0.0517128 0.508721 0.610773
0.0572976 0.513069 0.626017
0.188342 0.533867 0.709224
0.715312 0.565988 0.868498
0.90425 0.605234 0.904204
0.921843 0.577173 0.904875
0.919112 0.550408 0.901732
0.908202 0.550713 0.899992
0.230457 0.71873 0.698589
0.229236 0.722118 0.706676
0.237934 0.724468 0.711849
0.252262 0.729747 0.724666
0.574838 0.788128 0.804089
0.838514 0.827283 0.884169
0.904967 0.829618 0.872511
0.907286 0.822385 0.872404
0.902129 0.824292 0.876646
0.401663 0.815152 0.749447
0.405188 0.81651 0.752178
0.407691 0.817349 0.753277
0.405829 0.816693 0.752789
0.631251 0.864973 0.813703
0.823575 0.906233 0.870329
0.885283 0.918761 0.886183
0.894759 0.920745 0.886641
0.894423 0.920516 0.886778
0.664118 0.880034 0.821302
0.64921 0.877668 0.822934
0.644694 0.876432 0.821302
0.633494 0.87361 0.816922
0.717754 0.89308 0.841123
0.843671 0.921447 0.878721
0.885695 0.932555 0.891035
0.901137 0.935271 0.887892
0.902022 0.935592 0.890318
0.685939 0.885954 0.834318
0.681682 0.885252 0.834073
0.675822 0.883955 0.832135
0.663355 0.880598 0.826993
0.733013 0.896971 0.847166
0.845823 0.922469 0.880598
0.8851 0.933944 0.89337
0.896162 0.936339 0.893065
0.898512 0.937667 0.894118
0.496544 0.176379 0.648081
0.509178 0.177707 0.650904
0.5617 0.199619 0.678935
0.647929 0.237858 0.719371
0.744625 0.284321 0.75198
0.789929 0.315526 0.772656
0.749157 0.271046 0.729488
0.735714 0.254017 0.711559
0.741344 0.264317 0.722728
0.524346 0.200244 0.681025
0.546807 0.208743 0.693126
0.601648 0.232639 0.722377
0.688411 0.274754 0.760189
0.783246 0.324269 0.788602
0.81912 0.35053 0.803662
0.76231 0.284428 0.743526
0.742 0.264118 0.72253
0.738582 0.265141 0.723629
0.543908 0.218997 0.705364
0.565225 0.232502 0.722774
0.614359 0.252613 0.746944
0.693812 0.287861 0.775464
0.781842 0.326757 0.79202
0.816419 0.342672 0.797452
0.756298 0.27509 0.73431
0.739147 0.258534 0.716594
0.738827 0.26302 0.721172
0.532937 0.232364 0.719249
0.543313 0.228779 0.717037
0.558831 0.233906 0.72372
0.661021 0.277378 0.770184
0.770321 0.326162 0.796109
0.820142 0.348379 0.802014
0.774029 0.292042 0.751369
0.745953 0.262943 0.721294
0.741451 0.264042 0.722408
0.313008 0.546685 0.732403
0.3664 0.554238 0.745739
0.455817 0.560754 0.769436
0.552789 0.5617 0.801984
0.81622 0.617517 0.897353
0.911574 0.62977 0.904112
0.921508 0.616464 0.904982
0.922072 0.598749 0.905318
0.912001 0.601114 0.904356
0.347601 0.747265 0.75404
0.36289 0.75227 0.760067
0.394141 0.756619 0.766339
0.435233 0.760845 0.774548
0.654261 0.803388 0.82768
0.858534 0.827497 0.891722
0.90251 0.830991 0.887266
0.903365 0.826856 0.886839
0.899931 0.827726 0.888731
0.543282 0.844038 0.797635
0.547478 0.84567 0.801923
0.559472 0.848127 0.805859
0.57641 0.851347 0.811032
0.69807 0.878416 0.84596
0.830411 0.906996 0.882795
0.889296 0.917327 0.897444
0.896239 0.919387 0.897475
0.895933 0.919264 0.897597
0.6981 0.88867 0.836728
0.687175 0.886915 0.83946
0.686198 0.886717 0.839246
0.680797 0.885512 0.837461
0.740749 0.899443 0.854353
0.84596 0.922621 0.885145
0.889174 0.932601 0.895415
0.901884 0.934386 0.895232
0.902663 0.93489 0.896483
0.733852 0.897993 0.853468
0.731334 0.897597 0.853559
0.727962 0.896788 0.852644
0.720745 0.89482 0.84976
0.767926 0.905806 0.862806
0.854704 0.925933 0.888075
0.890288 0.935882 0.899779
0.898894 0.938231 0.900984
0.900175 0.939223 0.902235
0.608591 0.249241 0.743084
0.625238 0.257816 0.751583
0.660945 0.273518 0.765362
0.719966 0.299458 0.781826
0.791974 0.332876 0.795422
0.819211 0.351217 0.804074
0.767529 0.290303 0.749096
0.745205 0.263172 0.721523
0.741283 0.264347 0.722744
0.589212 0.242542 0.735027
0.609308 0.251011 0.744808
0.649271 0.268559 0.761563
0.716045 0.297566 0.781109
0.793118 0.333547 0.795621
0.818906 0.350286 0.803449
0.75729 0.279103 0.737957
0.74197 0.264134 0.722545
0.738582 0.265141 0.723629
0.561349 0.231022 0.720394
0.575158 0.237888 0.729061
0.61941 0.255375 0.749538
0.698253 0.289677 0.776654
0.787076 0.33109 0.795056
0.822416 0.349844 0.80354
0.764828 0.28365 0.742947
0.744457 0.263386 0.721752
0.740383 0.264607 0.723003
0.574395 0.247623 0.739086
0.55903 0.231952 0.721721
0.570489 0.23859 0.729656
0.660471 0.273381 0.765286
0.768841 0.322896 0.791913
0.821622 0.349722 0.803342
0.773526 0.291875 0.751156
0.7458 0.262989 0.72134
0.741634 0.26424 0.722637
0.469383 0.547356 0.772671
0.46804 0.544381 0.773648
0.47422 0.532692 0.776364
0.562356 0.527123 0.811093
0.822492 0.594308 0.89929
0.913024 0.608148 0.904479
0.921172 0.596124 0.905028
0.920668 0.576913 0.904402
0.910765 0.579767 0.902937
0.472526 0.767788 0.781323
0.466789 0.767407 0.781811
0.462577 0.763851 0.780377
0.466423 0.759304 0.780514
0.669322 0.796628 0.829435
0.864378 0.820386 0.892622
0.902403 0.823865 0.887709
0.902739 0.820737 0.886946
0.899336 0.822232 0.888701
0.643687 0.865782 0.825956
0.635218 0.8645 0.828138
0.633036 0.863783 0.827802
0.626917 0.861295 0.825849
0.717876 0.881987 0.852522
0.832013 0.906157 0.883482
0.889982 0.916228 0.898543
0.896437 0.918074 0.898711
0.896422 0.91809 0.898741
0.729992 0.896178 0.847288
0.718975 0.894514 0.850294
0.717784 0.894316 0.85005
0.713359 0.893355 0.848722
0.760388 0.904128 0.862867
0.848386 0.923552 0.88864
0.88867 0.932677 0.898329
0.903593 0.933837 0.895827
0.904631 0.934142 0.89604
0.750805 0.901869 0.859113
0.749737 0.901732 0.859373
0.749172 0.901656 0.85951
0.749172 0.901656 0.85951
0.787671 0.91075 0.870939
0.857267 0.927092 0.891234
0.889479 0.936263 0.901259
0.898543 0.938766 0.903014
0.900099 0.939773 0.903456
