bundles/resolve-cinematic-luts/Phantom Luts/Ursa G2 Phntm Film LUTs - V1/Gen5/White Balance Offset (+Magenta Boost)/Ursa Bleach Gen5-Legacy WBO.cube
TITLE "Generated by Resolve"
LUT_3D_SIZE 9
0.0252842 0.0381628 0.0269627
0.0252842 0.0381628 0.0269627
0.0452888 0.0426032 0.0309453
0.102525 0.0473335 0.040528
0.242924 0.0569009 0.052369
0.466758 0.0565957 0.0645151
0.66215 0.0575723 0.083299
0.694316 0.0609598 0.0962844
0.707683 0.0754253 0.120424
0.0264897 0.0414282 0.0286717
0.0292515 0.042649 0.0294957
0.0575113 0.049897 0.033402
0.150011 0.0489815 0.0416724
0.330373 0.0587015 0.0573281
0.569497 0.0538338 0.070634
0.689433 0.060502 0.0892653
0.697765 0.0640726 0.104265
0.707225 0.0749523 0.119799
0.0399176 0.0864118 0.0499428
0.0415656 0.0928206 0.0506447
0.0752575 0.100587 0.0473793
0.218936 0.0916915 0.0527352
0.415335 0.0740673 0.0541695
0.614206 0.0546426 0.0569772
0.690944 0.0611582 0.0766155
0.692592 0.0609903 0.0889906
0.693355 0.0610056 0.0910048
0.0571908 0.214176 0.0836652
0.0589914 0.235676 0.0842451
0.0631418 0.243671 0.0674601
0.217807 0.29572 0.0726024
0.593561 0.330404 0.0802625
0.84918 0.343359 0.181659
0.865858 0.320012 0.182177
0.852186 0.289601 0.169329
0.84744 0.28188 0.165972
0.0383917 0.458198 0.110353
0.0468605 0.486244 0.106401
0.0519417 0.489784 0.0988632
0.133303 0.536385 0.080354
0.5299 0.643717 0.146365
0.826093 0.707897 0.142306
0.908812 0.729809 0.165606
0.908949 0.732723 0.170657
0.909361 0.734203 0.167498
0.130983 0.731746 0.276326
0.150988 0.741466 0.263874
0.154665 0.741558 0.259174
0.201755 0.746929 0.203296
0.543923 0.776745 0.212436
0.751171 0.840375 0.250843
0.892424 0.867964 0.256001
0.907729 0.871626 0.255268
0.907774 0.871885 0.256382
0.123049 0.75935 0.323888
0.147799 0.755764 0.288258
0.153826 0.755032 0.279179
0.201846 0.753872 0.221805
0.569192 0.78436 0.219089
0.716762 0.829999 0.24889
0.8701 0.862058 0.257725
0.907851 0.873182 0.258701
0.907912 0.873228 0.259495
0.13257 0.75967 0.325933
0.166125 0.753979 0.263966
0.17258 0.753521 0.254246
0.235523 0.756115 0.206287
0.619959 0.796109 0.229023
0.704738 0.825986 0.246311
0.859007 0.863203 0.254582
0.906386 0.872694 0.258289
0.907866 0.873198 0.258824
0.13756 0.760555 0.337896
0.171298 0.753719 0.257588
0.178134 0.753338 0.248173
0.262379 0.758709 0.200275
0.630747 0.799588 0.232029
0.70457 0.825864 0.246174
0.862623 0.864713 0.253697
0.906142 0.872602 0.258167
0.907866 0.873198 0.258824
0.0252079 0.0382086 0.0280766
0.0252842 0.0381628 0.0269627
0.0472267 0.0430152 0.0367742
0.108721 0.0483864 0.0437018
0.256016 0.0583963 0.0561532
0.488792 0.0588235 0.0704356
0.67039 0.0581674 0.0878614
0.694682 0.0611429 0.0971084
0.706966 0.0746624 0.119509
0.0256199 0.0391699 0.0277409
0.0274815 0.0406653 0.0290837
0.0639353 0.0476234 0.0368963
0.161181 0.0520943 0.0458839
0.349111 0.0615854 0.0633402
0.588205 0.0565042 0.0771038
0.690929 0.0607614 0.0908522
0.698817 0.0648508 0.106126
0.707103 0.0747997 0.119661
0.0400854 0.0839857 0.0533608
0.041062 0.0916457 0.0525978
0.0767987 0.0993362 0.0479744
0.223575 0.0897993 0.0535134
0.420371 0.0697185 0.0515602
0.617914 0.0536812 0.058854
0.690883 0.0610971 0.0779431
0.693065 0.0609903 0.090547
0.693858 0.0610056 0.0927901
0.0548562 0.211536 0.0954452
0.0571908 0.232731 0.0897536
0.0632334 0.246159 0.0724804
0.220417 0.296056 0.0728618
0.608225 0.322835 0.0853132
0.850599 0.329824 0.17911
0.857923 0.302724 0.174762
0.838621 0.261265 0.157412
0.831281 0.248508 0.152407
0.0304723 0.453117 0.129122
0.0385443 0.477546 0.117098
0.0497444 0.491493 0.104524
0.1196 0.535073 0.0778363
0.532555 0.643992 0.145953
0.837201 0.704601 0.142016
0.908751 0.72285 0.165652
0.907958 0.719509 0.16907
0.908263 0.718334 0.165682
0.107805 0.726268 0.299199
0.129747 0.735607 0.283497
0.15378 0.741283 0.260151
0.194156 0.747036 0.213916
0.528695 0.775479 0.211063
0.751278 0.84097 0.250889
0.895018 0.867796 0.254063
0.907607 0.870314 0.253483
0.907729 0.871275 0.255451
0.100481 0.764111 0.369543
0.125063 0.75964 0.329992
0.153735 0.755032 0.279362
0.189029 0.753445 0.234684
0.544518 0.780407 0.215091
0.711559 0.828229 0.248325
0.868635 0.861128 0.258289
0.907866 0.873182 0.258701
0.907927 0.873243 0.2598
0.101396 0.767178 0.400061
0.134859 0.760342 0.336507
0.170367 0.753552 0.256809
0.211658 0.754467 0.221286
0.5888 0.788586 0.222339
0.698207 0.823667 0.24564
0.850874 0.86183 0.254673
0.90605 0.872572 0.258198
0.907866 0.873198 0.258824
0.102022 0.769146 0.432425
0.133455 0.761334 0.344915
0.177646 0.753353 0.248722
0.2206 0.754665 0.206332
0.606394 0.792538 0.226429
0.688731 0.820111 0.243656
0.852094 0.865309 0.251499
0.904585 0.871962 0.257969
0.907866 0.873198 0.258824
0.0265202 0.0398871 0.0421759
0.0354162 0.0414588 0.0420691
0.0507515 0.0441901 0.0467842
0.122087 0.0513008 0.0612955
0.287129 0.0606241 0.0818494
0.532433 0.0627909 0.100511
0.69987 0.0749218 0.129747
0.709987 0.0780804 0.126406
0.706188 0.073579 0.117998
0.0248875 0.0398108 0.0408484
0.0328679 0.0419928 0.0537118
0.0710155 0.046479 0.0611124
0.187839 0.0553292 0.0743877
0.394034 0.0633097 0.0958877
0.635294 0.068452 0.121614
0.712001 0.0772717 0.137133
0.710216 0.0784619 0.126329
0.708995 0.0764172 0.125017
0.0386053 0.0816052 0.0657359
0.0392767 0.0879072 0.0713359
0.0837873 0.0934157 0.0814679
0.227771 0.0969863 0.0865339
0.446464 0.0856489 0.0871443
0.641215 0.0635691 0.0919814
0.692195 0.0609445 0.0889601
0.69366 0.0609903 0.0925612
0.694438 0.0610208 0.0949264
0.0521401 0.204257 0.126055
0.05243 0.220188 0.127626
0.0547036 0.228168 0.103426
0.245777 0.289708 0.0975204
0.622812 0.280095 0.135012
0.823133 0.29041 0.173434
0.853742 0.293385 0.170764
0.824506 0.233295 0.145693
0.816876 0.219379 0.140124
0.0125124 0.436011 0.187762
0.0110475 0.455543 0.174777
0.0296178 0.463233 0.133394
0.0896925 0.50396 0.0793774
0.547829 0.630014 0.143206
0.856519 0.677516 0.149477
0.906859 0.705058 0.166262
0.90631 0.704219 0.170748
0.906645 0.701473 0.164584
0.0598611 0.711345 0.360037
0.0741741 0.722454 0.345647
0.119219 0.72842 0.287083
0.172183 0.738689 0.232563
0.508904 0.769787 0.210101
0.763088 0.839445 0.249805
0.900481 0.866239 0.252644
0.907897 0.868269 0.250767
0.907622 0.870253 0.253178
0.0819257 0.770336 0.478431
0.0815137 0.768353 0.432563
0.121706 0.76051 0.339895
0.168093 0.753994 0.263218
0.485969 0.77438 0.214588
0.708598 0.827146 0.248478
0.867033 0.8607 0.258427
0.907866 0.873182 0.258701
0.907958 0.873274 0.260227
0.104494 0.773556 0.538827
0.0975814 0.770657 0.475242
0.122805 0.762188 0.352453
0.178515 0.754162 0.258305
0.520027 0.776867 0.21886
0.704219 0.825666 0.246418
0.840269 0.861326 0.253346
0.905501 0.872389 0.258122
0.907866 0.873198 0.258824
0.129976 0.776623 0.581735
0.105486 0.77203 0.505974
0.124285 0.763165 0.359625
0.189837 0.754421 0.250614
0.555474 0.781979 0.222721
0.701335 0.824704 0.245869
0.836774 0.863493 0.250736
0.901991 0.871275 0.257832
0.907866 0.873198 0.258824
0.0322576 0.043534 0.0821698
0.0417792 0.0446326 0.0817578
0.0691539 0.0462043 0.0897383
0.145846 0.0527504 0.111528
0.325597 0.0648508 0.155138
0.582422 0.0675059 0.1906
0.729061 0.0780652 0.240803
0.738888 0.0823224 0.274846
0.744152 0.0861067 0.299855
0.0311742 0.0445869 0.101183
0.0387884 0.0464637 0.122515
0.0907912 0.0488594 0.143572
0.225711 0.0585184 0.166445
0.454078 0.0672313 0.203983
0.681743 0.0757305 0.242679
0.738247 0.0816358 0.275654
0.743435 0.0852522 0.296788
0.746822 0.0882582 0.319509
0.0290074 0.0700999 0.113405
0.0280003 0.0703441 0.13257
0.0759136 0.0637217 0.174594
0.248539 0.071931 0.189029
0.483009 0.0716411 0.201511
0.6981 0.0801251 0.235721
0.738582 0.0833906 0.259525
0.738857 0.0833295 0.263294
0.742077 0.0852522 0.27863
0.0494087 0.202899 0.176822
0.0491188 0.218952 0.193179
0.0494545 0.219547 0.196658
0.296056 0.274861 0.268269
0.613672 0.285863 0.270985
0.838697 0.330037 0.316762
0.850401 0.304067 0.288823
0.807568 0.22063 0.20032
0.803342 0.209461 0.183627
0.0109712 0.432731 0.269123
0.00903334 0.449775 0.270695
0.00975052 0.447196 0.248905
0.105684 0.502235 0.236378
0.606409 0.628443 0.288502
0.885603 0.65211 0.417685
0.91725 0.661784 0.389105
0.915328 0.667231 0.300465
0.909072 0.684947 0.212696
0.0537118 0.696193 0.466178
0.0560464 0.705608 0.4636
0.0560616 0.706966 0.41088
0.0889296 0.713802 0.332128
0.438239 0.751446 0.306889
0.778958 0.826291 0.327413
0.912612 0.852796 0.352407
0.912245 0.854414 0.320272
0.908293 0.865965 0.258305
0.0923629 0.775357 0.590845
0.0901808 0.774807 0.574731
0.0829938 0.771908 0.516716
0.0964981 0.767742 0.410117
0.379736 0.771969 0.352453
0.702129 0.8206 0.365591
0.888685 0.871382 0.350011
0.9093 0.875319 0.300267
0.9084 0.873747 0.271443
0.16611 0.781643 0.655711
0.135027 0.779767 0.629023
0.101015 0.774716 0.560952
0.117769 0.770184 0.457908
0.431037 0.779385 0.422019
0.710521 0.824277 0.439506
0.864363 0.86833 0.365591
0.908888 0.875166 0.298787
0.908278 0.87364 0.266606
0.260441 0.785489 0.692195
0.21387 0.782361 0.663066
0.134081 0.777264 0.587579
0.15967 0.771511 0.489387
0.497124 0.786633 0.486839
0.721904 0.83032 0.500664
0.86215 0.869352 0.405081
0.905699 0.87396 0.295048
0.908232 0.87361 0.266163
0.040238 0.0488289 0.170382
0.0557107 0.0497292 0.17586
0.0938735 0.0513008 0.197665
0.193256 0.0557717 0.233829
0.385962 0.0678569 0.28098
0.632044 0.0814832 0.352224
0.75758 0.0978866 0.464256
0.764477 0.103136 0.534325
0.7729 0.10605 0.578424
0.0400549 0.051545 0.226505
0.0586709 0.0539406 0.262043
0.126589 0.0569924 0.297917
0.283803 0.0632181 0.335668
0.528527 0.071046 0.377447
0.721935 0.094728 0.454322
0.764172 0.103151 0.527489
0.770031 0.105776 0.567697
0.776699 0.107347 0.593957
0.0251469 0.0531319 0.23122
0.0272221 0.0533913 0.267903
0.0996719 0.0578622 0.328191
0.28542 0.0644999 0.371771
0.549615 0.0738231 0.404135
0.734081 0.0981003 0.467781
0.765957 0.10457 0.53228
0.770199 0.104616 0.565499
0.775876 0.107393 0.591928
0.0305486 0.16788 0.300008
0.0275578 0.175387 0.331334
0.0263676 0.166674 0.34873
0.299886 0.188754 0.527672
0.646922 0.221378 0.548577
0.83653 0.241749 0.584192
0.83183 0.202411 0.574853
0.801877 0.154238 0.555779
0.802258 0.151125 0.573846
0.0104829 0.431861 0.37348
0.00865187 0.449348 0.391363
0.00895705 0.448997 0.394156
0.141955 0.510597 0.474754
0.651408 0.611093 0.602731
0.869703 0.637491 0.618341
0.914229 0.64506 0.625574
0.914122 0.646021 0.62472
0.915862 0.65304 0.630411
0.0560006 0.689937 0.559365
0.0589303 0.698924 0.565591
0.0567941 0.695354 0.548012
0.101747 0.694209 0.525734
0.536309 0.757397 0.592874
0.822858 0.824079 0.615213
0.938781 0.835492 0.674617
0.939651 0.84271 0.668589
0.937774 0.851316 0.652461
0.104707 0.776562 0.660502
0.102693 0.776394 0.654002
0.0973373 0.774792 0.631174
0.130556 0.77377 0.601587
0.470878 0.796475 0.60235
0.75201 0.856168 0.648249
0.906065 0.892241 0.648829
0.930404 0.899168 0.67425
0.931853 0.900084 0.682872
0.249104 0.786328 0.711879
0.228717 0.785351 0.703166
0.185229 0.783749 0.682673
0.205692 0.781338 0.65391
0.536812 0.813855 0.66244
0.760021 0.869566 0.699199
0.888334 0.896178 0.680568
0.927474 0.899886 0.67071
0.930175 0.90132 0.677256
0.398062 0.80412 0.748302
0.357336 0.798764 0.736568
0.294987 0.789609 0.711467
0.305409 0.789731 0.689403
0.599634 0.833371 0.710552
0.784649 0.883665 0.740703
0.89427 0.903075 0.717922
0.925658 0.902708 0.691402
0.930159 0.901259 0.676997
0.0617533 0.0554971 0.304417
0.0832074 0.0569619 0.321019
0.13753 0.0598001 0.358236
0.263981 0.0645609 0.418326
0.480293 0.0656748 0.470146
0.683009 0.090547 0.54815
0.783475 0.112596 0.609461
0.798825 0.111589 0.662699
0.81146 0.113741 0.702083
0.0635233 0.0576028 0.401328
0.09337 0.0601816 0.457664
0.185428 0.0646525 0.509606
0.358755 0.0693523 0.549691
0.58967 0.0739147 0.574548
0.768872 0.109087 0.630411
0.801175 0.115892 0.661997
0.808957 0.113222 0.693034
0.815061 0.114244 0.714702
0.0617685 0.0581369 0.443183
0.0705882 0.0594034 0.489601
0.158175 0.0654002 0.54374
0.350408 0.0710918 0.581628
0.604486 0.0766155 0.601495
0.781521 0.112169 0.646571
0.803372 0.116167 0.668498
0.810208 0.113344 0.696818
0.814481 0.114153 0.713268
0.0198825 0.137041 0.468513
0.0189517 0.139757 0.50573
0.0193484 0.123919 0.522744
0.303197 0.117357 0.648295
0.652583 0.140871 0.682338
0.837507 0.178607 0.705486
0.828046 0.151446 0.689769
0.821622 0.129686 0.703517
0.826902 0.130861 0.719676
0.00732433 0.41268 0.556954
0.00613413 0.426505 0.574563
0.00622568 0.414847 0.591165
0.100999 0.443442 0.644846
0.696147 0.58146 0.806012
0.910475 0.621714 0.808988
0.939345 0.624964 0.821973
0.942077 0.625757 0.831937
0.943633 0.632593 0.839063
0.0640269 0.690394 0.641138
0.0676738 0.699855 0.650782
0.0667277 0.697063 0.649226
0.106584 0.697017 0.652796
0.586908 0.764645 0.735348
0.861814 0.812497 0.797864
0.943175 0.820874 0.804425
0.947372 0.827008 0.809979
0.948348 0.833829 0.815503
0.117433 0.777783 0.703395
0.11574 0.777798 0.702373
0.110079 0.775433 0.69337
0.169589 0.774884 0.686366
0.586297 0.822553 0.741466
0.825193 0.894926 0.815137
0.931609 0.910719 0.80679
0.950103 0.912062 0.826246
0.950088 0.91313 0.827085
0.29691 0.792309 0.73846
0.280766 0.790616 0.733715
0.253361 0.788281 0.725475
0.287938 0.789441 0.718959
0.638239 0.849729 0.778271
0.834424 0.909331 0.836622
0.916884 0.921431 0.833173
0.944671 0.923858 0.824201
0.948699 0.925582 0.836896
0.516472 0.817807 0.774105
0.481819 0.812512 0.766979
0.420081 0.806455 0.756313
0.44445 0.808057 0.752285
0.690227 0.86836 0.809705
0.856321 0.914961 0.854566
0.919631 0.924376 0.854032
0.942184 0.925536 0.83769
0.948531 0.925704 0.836072
0.0933089 0.0606546 0.481712
0.12578 0.0631723 0.51371
0.200458 0.0672007 0.555856
0.342535 0.0721599 0.599039
0.55726 0.0747234 0.628763
0.741802 0.103593 0.678355
0.82266 0.122911 0.724605
0.826795 0.123766 0.74876
0.825574 0.122484 0.753918
0.10486 0.0648814 0.578225
0.149371 0.0694591 0.613199
0.256626 0.0751202 0.649287
0.443946 0.076173 0.671672
0.64387 0.085481 0.69482
0.811414 0.121492 0.734554
0.828046 0.126024 0.749386
0.827756 0.124636 0.755718
0.827085 0.123629 0.756588
0.111559 0.0672007 0.611505
0.122148 0.0686656 0.625147
0.223484 0.0756085 0.660716
0.423835 0.0779583 0.69012
0.649058 0.0872358 0.710063
0.814725 0.122942 0.742687
0.828885 0.126757 0.75436
0.82768 0.124498 0.755505
0.827115 0.123674 0.756252
0.0200046 0.10341 0.58529
0.0214542 0.104112 0.602838
0.048661 0.0897078 0.622721
0.363348 0.100099 0.713848
0.668467 0.121553 0.750271
0.830121 0.140932 0.760449
0.848524 0.153506 0.769924
0.835767 0.135271 0.759823
0.841627 0.143145 0.767788
0.011429 0.403189 0.660212
0.0107424 0.416892 0.66772
0.0120394 0.40824 0.676402
0.138155 0.456062 0.737621
0.742763 0.57406 0.879866
0.943923 0.61973 0.890822
0.95964 0.624826 0.891112
0.959365 0.627405 0.891112
0.960082 0.631952 0.894133
0.0732738 0.694896 0.722515
0.0775769 0.702754 0.729747
0.0741283 0.692531 0.731701
0.156664 0.690867 0.748165
0.585275 0.741405 0.804532
0.898024 0.796246 0.881636
0.953872 0.80795 0.881132
0.956207 0.812909 0.884184
0.956573 0.81857 0.886671
0.13785 0.780789 0.735134
0.136584 0.780972 0.73547
0.128557 0.779217 0.734035
0.192096 0.779202 0.734981
0.580743 0.820615 0.780087
0.852262 0.900832 0.863554
0.937209 0.908186 0.872312
0.951247 0.90959 0.874281
0.951583 0.910628 0.875227
0.324865 0.79678 0.752148
0.308812 0.79472 0.749233
0.286061 0.79234 0.744869
0.320317 0.795254 0.744427
0.664881 0.859342 0.808438
0.874647 0.918044 0.871763
0.931533 0.926345 0.877256
0.949477 0.926925 0.87483
0.95172 0.926986 0.878096
0.556497 0.8262 0.786633
0.52845 0.820096 0.779965
0.486229 0.813214 0.771237
0.509285 0.816632 0.772519
0.732784 0.883909 0.836896
0.893874 0.923201 0.880095
0.932998 0.92874 0.881819
0.947051 0.929107 0.878721
0.951431 0.92929 0.878126
0.141238 0.0687877 0.608865
0.186816 0.0728466 0.637049
0.272587 0.0769818 0.665522
0.428382 0.0778515 0.689982
0.618265 0.0846723 0.713314
0.787778 0.116381 0.746868
0.831281 0.129427 0.760266
0.831189 0.129305 0.760616
0.831357 0.129519 0.760784
0.17705 0.0743572 0.661738
0.2309 0.0776837 0.680766
0.336049 0.0809796 0.704036
0.521187 0.0796063 0.715724
0.696498 0.0959793 0.737789
0.828 0.128237 0.75996
0.832959 0.131319 0.762203
0.831968 0.13019 0.761288
0.83238 0.130694 0.761608
0.189593 0.0758068 0.673136
0.208728 0.0767224 0.678752
0.304479 0.0805219 0.699992
0.503349 0.0794995 0.716426
0.696651 0.0965133 0.739528
0.825879 0.128618 0.760357
0.833646 0.131945 0.762814
0.83212 0.130358 0.76141
0.832151 0.130404 0.76144
0.0733501 0.0871443 0.64651
0.110628 0.0978256 0.669291
0.188479 0.0992294 0.692378
0.482139 0.10544 0.736675
0.714626 0.130327 0.767605
0.844327 0.153323 0.777798
0.866926 0.179355 0.794903
0.83946 0.13991 0.768429
0.859953 0.169284 0.788159
0.0127871 0.411688 0.69279
0.0125887 0.42417 0.693233
0.0207065 0.418479 0.699382
0.279561 0.507027 0.792309
0.80322 0.587854 0.890745
0.953155 0.621653 0.895094
0.960449 0.6309 0.895735
0.960601 0.634623 0.895979
0.96141 0.639857 0.896391
0.0892348 0.690028 0.74844
0.0975052 0.695613 0.751263
0.101762 0.687053 0.751354
0.224231 0.693278 0.768536
0.608804 0.743847 0.819745
0.920333 0.795041 0.896666
0.958999 0.807233 0.900023
0.959182 0.813764 0.899428
0.958999 0.819135 0.899229
0.197971 0.784634 0.754101
0.200183 0.784436 0.75462
0.196521 0.782223 0.755337
0.259022 0.78024 0.757656
0.61651 0.829267 0.811093
0.856199 0.898878 0.878294
0.940932 0.9037 0.887266
0.951537 0.90573 0.887343
0.951751 0.906783 0.887953
0.36759 0.802243 0.762875
0.35082 0.800168 0.760754
0.328542 0.797574 0.757458
0.361196 0.801282 0.760678
0.669032 0.861082 0.818875
0.873365 0.918471 0.878767
0.935363 0.925933 0.885832
0.949523 0.925978 0.887343
0.951766 0.926299 0.887327
0.588281 0.834699 0.795804
0.563409 0.828122 0.789349
0.528115 0.820142 0.781338
0.54226 0.82295 0.78352
0.742611 0.887449 0.844297
0.90074 0.924895 0.88513
0.938262 0.929198 0.887282
0.948638 0.929686 0.887922
0.95169 0.929854 0.887572
0.217288 0.0769207 0.675608
0.268696 0.0794995 0.69221
0.359319 0.0808728 0.707561
0.517403 0.0795911 0.717113
0.678813 0.0939956 0.737896
0.817136 0.126299 0.759075
0.835584 0.134508 0.764599
0.836011 0.135225 0.765072
0.836973 0.136889 0.766308
0.280827 0.0800183 0.696132
0.332799 0.0810407 0.705394
0.446067 0.0793622 0.713298
0.588815 0.0844587 0.726574
0.746929 0.112291 0.751278
0.83537 0.134295 0.764431
0.840253 0.1411 0.769375
0.836774 0.136645 0.76614
0.842298 0.143572 0.77113
0.300587 0.0806592 0.699886
0.326543 0.0809491 0.704433
0.423682 0.0809491 0.713512
0.579843 0.0881971 0.728862
0.74699 0.113863 0.753414
0.841688 0.144198 0.771649
0.841184 0.141939 0.770306
0.837186 0.137179 0.766506
0.838209 0.13846 0.767437
0.248539 0.108476 0.712032
0.317281 0.13164 0.739101
0.386648 0.129061 0.745937
0.604425 0.143572 0.772549
0.795697 0.187762 0.804929
0.902022 0.237476 0.829297
0.907271 0.248478 0.834333
0.895918 0.225452 0.822461
0.90602 0.246235 0.833173
0.0583658 0.445838 0.714046
0.10045 0.473945 0.729381
0.169024 0.488228 0.75494
0.515099 0.557961 0.833402
0.864286 0.613794 0.895796
0.95874 0.635737 0.896147
0.961654 0.645808 0.896864
0.961563 0.651667 0.896986
0.962112 0.656901 0.897795
0.165072 0.705638 0.762249
0.184497 0.709133 0.764446
0.202869 0.702174 0.765988
0.318761 0.711192 0.782361
0.670497 0.763226 0.837278
0.933852 0.799207 0.897002
0.959518 0.809339 0.900023
0.958892 0.817349 0.899275
0.958831 0.821973 0.898894
0.286534 0.785641 0.759472
0.292042 0.785214 0.760189
0.298573 0.783444 0.761898
0.367117 0.789288 0.771267
0.657847 0.842435 0.825925
0.865705 0.899611 0.880552
0.943221 0.90251 0.887587
0.951278 0.904585 0.887892
0.951492 0.906081 0.888548
0.4589 0.810559 0.77229
0.440436 0.808896 0.770367
0.418326 0.807202 0.769039
0.460548 0.810315 0.77261
0.701503 0.872114 0.833051
0.88368 0.919875 0.884047
0.935836 0.925231 0.888808
0.950408 0.925185 0.889998
0.951782 0.925734 0.890089
0.620829 0.845228 0.805432
0.600626 0.83859 0.799207
0.574212 0.830839 0.791852
0.584543 0.833844 0.794934
0.75491 0.891249 0.849515
0.900282 0.925063 0.886732
0.937957 0.929305 0.888731
0.949264 0.929702 0.889555
0.951675 0.930037 0.889723
