bundles/resolve-cinematic-luts/Phantom Luts/Ursa G2 Phntm Film LUTs - V1/Gen5/White Balance Offset (+Magenta Boost)/Ursa Eterna Gen5 WBO.cube
TITLE "Generated by Resolve"
LUT_3D_SIZE 5
0.00917067 0.0375982 0.0375982
0.0942397 0.0415656 0.0377966
0.442878 0.0721599 0.116762
0.603922 0.0988022 0.187747
0.637308 0.0904097 0.198123
0.0438697 0.122927 0.0762036
0.10454 0.136675 0.0682383
0.503929 0.0720073 0.114214
0.61268 0.084062 0.1729
0.623255 0.0846876 0.180606
0.154757 0.777035 0.411429
0.183124 0.830808 0.391531
0.665019 0.815015 0.237156
0.921141 0.777432 0.261051
0.908019 0.718105 0.22948
0.237491 0.912673 0.57937
0.261936 0.914168 0.484428
0.35581 0.912459 0.342321
0.931914 0.917388 0.379767
0.94844 0.92401 0.387747
0.230381 0.918868 0.617655
0.253315 0.914565 0.542519
0.29688 0.908705 0.431449
0.7832 0.924941 0.340764
0.944671 0.926772 0.380102
0.0172274 0.0402533 0.090547
0.112718 0.0501717 0.0825971
0.459495 0.0802777 0.159457
0.623835 0.0905928 0.188235
0.652537 0.0871595 0.202533
0.0393225 0.107027 0.094316
0.107942 0.116915 0.115801
0.506554 0.0753185 0.154543
0.623972 0.0859998 0.182208
0.640833 0.0893568 0.201404
0.0860609 0.707225 0.477089
0.0922408 0.755428 0.434302
0.642542 0.784405 0.214511
0.912886 0.744396 0.238468
0.897185 0.670253 0.210483
0.265873 0.919097 0.727108
0.248493 0.915404 0.659815
0.330953 0.912459 0.366552
0.92752 0.916899 0.377478
0.947997 0.924376 0.387106
0.314641 0.933516 0.779004
0.274556 0.918486 0.710948
0.296803 0.908614 0.432044
0.760525 0.924193 0.33576
0.944595 0.926833 0.379904
0.11014 0.062501 0.4112
0.243565 0.0747387 0.446921
0.582589 0.110719 0.381491
0.681056 0.118929 0.411643
0.712215 0.117952 0.503914
0.026154 0.0554818 0.267506
0.0911269 0.0608072 0.419593
0.597803 0.110536 0.431601
0.695811 0.1252 0.509361
0.711955 0.123278 0.595285
0.0801404 0.645136 0.566415
0.0714427 0.673198 0.610285
0.663401 0.665904 0.640421
0.936156 0.640818 0.648508
0.930632 0.586664 0.639384
0.416938 0.929519 0.855604
0.369635 0.934432 0.855726
0.539147 0.936065 0.801831
0.943862 0.935943 0.707424
0.956207 0.93608 0.673243
0.594537 0.935637 0.902586
0.572854 0.936767 0.898283
0.460548 0.931289 0.831983
0.85359 0.936172 0.770199
0.946395 0.926665 0.390875
0.345037 0.0918898 0.656077
0.426307 0.0965286 0.6804
0.688472 0.125246 0.71696
0.716167 0.126482 0.706859
0.716136 0.126101 0.699443
0.243961 0.0841535 0.620676
0.306889 0.0893111 0.646159
0.644572 0.116808 0.717388
0.71696 0.128939 0.715663
0.716869 0.128542 0.716014
0.0965591 0.610376 0.762463
0.100603 0.596597 0.784253
0.457649 0.592554 0.909819
0.942351 0.522728 0.90631
0.937987 0.460655 0.915953
0.436088 0.928023 0.898482
0.384161 0.926345 0.897917
0.569238 0.922637 0.899367
0.933852 0.932738 0.929259
0.95349 0.930526 0.92871
0.703456 0.93608 0.926268
0.695628 0.938659 0.929961
0.718593 0.939116 0.92842
0.929564 0.95169 0.945678
0.960479 0.954086 0.940093
0.630167 0.210437 0.838315
0.648844 0.215717 0.844114
0.834455 0.262257 0.860319
0.803265 0.205951 0.803265
0.79443 0.196948 0.79443
0.596368 0.200275 0.825711
0.596399 0.200275 0.825727
0.763027 0.242817 0.859709
0.803265 0.205951 0.803265
0.803265 0.205951 0.803265
0.261738 0.650538 0.9028
0.429465 0.655055 0.913848
0.597604 0.582498 0.926894
0.940627 0.501289 0.940627
0.930648 0.409842 0.930648
0.559731 0.929534 0.933776
0.565042 0.926162 0.936141
0.572808 0.914046 0.938567
0.895125 0.918441 0.939605
0.946853 0.913909 0.946853
0.758968 0.940932 0.939406
0.762173 0.941131 0.93991
0.751125 0.940597 0.938598
0.93164 0.952132 0.951354
0.95671 0.956664 0.956802
