bundles/resolve-cinematic-luts/Phantom Luts/Ursa G2 Phntm Film LUTs - V1/Gen5/White Balance Offset (+Magenta Boost)/Ursa Bleach Gen5-Legacy WBO.cube
TITLE "Generated by Resolve"
LUT_3D_SIZE 33
0.0252842 0.0381628 0.0269627
0.0252842 0.0381628 0.0269627
0.0252842 0.0381628 0.0269627
0.0252842 0.0381628 0.0269627
0.0252842 0.0381628 0.0269627
0.0305486 0.0391089 0.0281376
0.0346838 0.0402991 0.0295262
0.0393378 0.0416876 0.0305333
0.0452888 0.0426032 0.0309453
0.0565499 0.0435798 0.032639
0.0682536 0.0447395 0.0343786
0.0830396 0.0457771 0.0372473
0.102525 0.0473335 0.040528
0.127398 0.0492256 0.04271
0.158556 0.0516365 0.0450904
0.19971 0.0541848 0.0487984
0.242924 0.0569009 0.052369
0.288365 0.0589761 0.0556649
0.337652 0.0597696 0.0595254
0.397253 0.0588998 0.062974
0.466758 0.0565957 0.0645151
0.526909 0.0547951 0.0678721
0.57847 0.0542153 0.0724041
0.626139 0.055314 0.0782788
0.66215 0.0575723 0.083299
0.688441 0.060441 0.0877546
0.691188 0.0607919 0.0905623
0.693309 0.0609293 0.0934615
0.694316 0.0609598 0.0962844
0.697261 0.0638132 0.102235
0.701259 0.067628 0.109911
0.705379 0.0727703 0.116793
0.707683 0.0754253 0.120424
0.0252842 0.0381628 0.0269627
0.0252842 0.0381628 0.0269627
0.0252842 0.0381628 0.0269627
0.0252842 0.0381628 0.0269627
0.0264744 0.0384833 0.0273289
0.0320745 0.0395056 0.0285954
0.0357214 0.0406958 0.0298314
0.0416114 0.0421607 0.0306859
0.0521401 0.0429389 0.0317082
0.0646372 0.0444648 0.0337224
0.0802777 0.0457923 0.0368811
0.099321 0.0470436 0.0400092
0.124605 0.0489204 0.0425269
0.156268 0.0514992 0.0450294
0.196826 0.0540475 0.0486152
0.241154 0.0568704 0.0522469
0.287755 0.0589151 0.0555886
0.338277 0.0597543 0.0594797
0.399237 0.0588846 0.0629892
0.468315 0.0565652 0.0645304
0.52813 0.0548257 0.0679942
0.579293 0.0542458 0.0724956
0.626871 0.0552224 0.0783856
0.66212 0.0575723 0.0832685
0.687968 0.0603952 0.087602
0.690913 0.0607614 0.090425
0.693263 0.0609293 0.0933394
0.694224 0.0609598 0.096025
0.696864 0.063386 0.101549
0.700557 0.066743 0.108614
0.704448 0.0717937 0.115251
0.707683 0.0754253 0.120424
0.707683 0.0754253 0.120424
0.0252842 0.0381628 0.0269627
0.0252842 0.0381628 0.0269627
0.0252842 0.0381628 0.0269627
0.0252842 0.0381628 0.0269627
0.0272374 0.0386053 0.0274815
0.0319982 0.0395361 0.0286107
0.0366522 0.04094 0.0300145
0.0436103 0.0424048 0.0306401
0.0563973 0.0433356 0.0322423
0.0709087 0.0450904 0.0348211
0.088365 0.0460517 0.0382086
0.112474 0.0480507 0.0417334
0.142321 0.0504463 0.0439612
0.179187 0.0531014 0.0472572
0.221561 0.0555581 0.0504311
0.26746 0.0579843 0.0537881
0.316487 0.0594797 0.0577859
0.373846 0.0596475 0.0620279
0.440772 0.0573739 0.06392
0.503807 0.0555581 0.0664836
0.558236 0.0545968 0.0704967
0.60676 0.054612 0.0759136
0.649058 0.0559243 0.0816358
0.676905 0.0591135 0.0854963
0.689189 0.0604715 0.0889143
0.692744 0.060914 0.0919051
0.693706 0.0609445 0.0945144
0.695308 0.0618296 0.098558
0.698146 0.0644999 0.104463
0.701991 0.0687266 0.111177
0.706172 0.0736095 0.118151
0.707683 0.0754253 0.120424
0.707683 0.0754253 0.120424
0.0252842 0.0381628 0.0269627
0.0252842 0.0381628 0.0269627
0.0252842 0.0381628 0.0269627
0.0252842 0.0381628 0.0269627
0.0252842 0.0381628 0.0269627
0.0304875 0.0391089 0.0281376
0.0353246 0.0406348 0.0297246
0.0426032 0.0428016 0.0307164
0.0555428 0.0439765 0.0319524
0.0708476 0.0446784 0.0336309
0.0901656 0.0457618 0.0372015
0.114687 0.0474098 0.0407111
0.145968 0.0504005 0.0436866
0.185367 0.0532082 0.0474708
0.229252 0.055848 0.0508278
0.277699 0.0583047 0.0545205
0.328145 0.0597696 0.0588388
0.385519 0.0592966 0.0625162
0.453635 0.0569619 0.0641031
0.515389 0.0551614 0.0672618
0.567651 0.0543374 0.0713817
0.615579 0.0546731 0.0766766
0.654185 0.0565499 0.0821393
0.681926 0.0597086 0.0861219
0.689464 0.060502 0.089189
0.692927 0.0609293 0.0923018
0.693843 0.0609445 0.0949569
0.695735 0.0623026 0.099382
0.69839 0.064622 0.105089
0.702632 0.0694591 0.11194
0.707088 0.0747997 0.119661
0.707683 0.0754253 0.120424
0.707683 0.0754253 0.120424
0.0264897 0.0414282 0.0286717
0.0273442 0.0425727 0.0295262
0.0276341 0.0431983 0.0297398
0.0270542 0.0420996 0.0288701
0.0292515 0.042649 0.0294957
0.0344701 0.0456703 0.0311284
0.0388495 0.0473487 0.032517
0.0450752 0.049134 0.0337835
0.0575113 0.049897 0.033402
0.0732128 0.0492256 0.0341497
0.0930648 0.0478828 0.0357824
0.118044 0.0476844 0.0387579
0.150011 0.0489815 0.0416724
0.187259 0.0503853 0.0431525
0.231998 0.0539864 0.0482185
0.279667 0.0566873 0.0527199
0.330373 0.0587015 0.0573281
0.389197 0.0584268 0.0608835
0.457206 0.055848 0.0624552
0.519051 0.0542916 0.0663005
0.569497 0.0538338 0.070634
0.618875 0.0543984 0.0766613
0.655116 0.056672 0.0819715
0.683818 0.0599985 0.0861372
0.689433 0.060502 0.0892653
0.692988 0.0609293 0.0924392
0.693874 0.0609598 0.0950027
0.695689 0.06215 0.0994125
0.697765 0.0640726 0.104265
0.702998 0.069749 0.11249
0.70753 0.075227 0.120165
0.707393 0.0751049 0.119982
0.707225 0.0749523 0.119799
0.0301518 0.0494698 0.0332494
0.0306401 0.05066 0.0339971
0.0308995 0.0513771 0.0343328
0.0310369 0.0512551 0.0336767
0.0330663 0.0512398 0.0328069
0.0386053 0.0527352 0.0341039
0.0436561 0.0537881 0.0356603
0.0504005 0.054963 0.0362402
0.0629282 0.0561227 0.0357366
0.0800336 0.0557565 0.0366827
0.0994888 0.0549172 0.0377813
0.126558 0.0525368 0.0391699
0.159472 0.0515297 0.0411688
0.197131 0.0514534 0.0422065
0.237903 0.0521706 0.0437781
0.284016 0.0537575 0.0467536
0.333318 0.0547646 0.0504921
0.392065 0.0553597 0.0550851
0.457984 0.0519722 0.0558022
0.519051 0.0505684 0.0598764
0.57023 0.0512093 0.0651102
0.619669 0.0538796 0.071931
0.656062 0.0568856 0.0786755
0.682078 0.0597848 0.0849165
0.689662 0.0605325 0.088777
0.69276 0.0609293 0.0917525
0.693629 0.0609445 0.0940871
0.69453 0.0609598 0.0968643
0.696437 0.062501 0.101183
0.699916 0.0662089 0.107195
0.703075 0.0697185 0.112444
0.703532 0.0706035 0.113405
0.703502 0.0705425 0.113329
0.0333562 0.0572366 0.0387121
0.0339055 0.0587472 0.0396429
0.0339971 0.0599069 0.0397955
0.0339818 0.06009 0.0390936
0.0353857 0.059968 0.0374151
0.0410773 0.0612497 0.0368811
0.0470436 0.0631876 0.0382849
0.0557717 0.0643473 0.0398566
0.0683146 0.065095 0.0385901
0.0890364 0.0638437 0.0400244
0.109804 0.0627909 0.0407568
0.138674 0.0608225 0.0417792
0.172351 0.0584115 0.0429541
0.209659 0.0569772 0.0439918
0.250034 0.0558938 0.0439155
0.293751 0.0564431 0.0453803
0.340627 0.0554818 0.0475166
0.393561 0.0533913 0.0490425
0.458869 0.0498817 0.0497597
0.514366 0.0477913 0.0525826
0.567376 0.0496681 0.0581216
0.615534 0.0530556 0.065156
0.659266 0.0574044 0.0767224
0.682597 0.0599374 0.0836042
0.690852 0.0608225 0.0877394
0.692378 0.0609445 0.0900282
0.693156 0.0609445 0.092256
0.693935 0.0609751 0.0945296
0.694789 0.0610513 0.0971847
0.695476 0.0611734 0.099794
0.696559 0.0621653 0.101503
0.696605 0.0622568 0.101472
0.696651 0.0623484 0.101457
0.0366674 0.0698253 0.0436561
0.0375677 0.0723125 0.0450752
0.0377813 0.0741283 0.0455177
0.0378882 0.0744488 0.0451057
0.0380407 0.0741283 0.0437018
0.0412451 0.0751812 0.0419165
0.0502632 0.0772259 0.0420996
0.0588998 0.0794842 0.0427863
0.0732891 0.0810407 0.0428016
0.0966812 0.0796063 0.0415198
0.124025 0.0770275 0.0442206
0.154467 0.075639 0.0454719
0.193851 0.0724041 0.0478065
0.234928 0.0689097 0.049424
0.277073 0.0661326 0.0499733
0.318532 0.0638132 0.0486152
0.365087 0.0611429 0.0476387
0.422049 0.0563821 0.0471046
0.480385 0.0524453 0.0486152
0.532769 0.0497749 0.0519875
0.58262 0.050782 0.057969
0.625742 0.054078 0.0641642
0.658381 0.057496 0.0698253
0.678447 0.0595407 0.0774853
0.690669 0.0609293 0.0835584
0.691432 0.0609445 0.0860609
0.692363 0.0609598 0.0892348
0.693156 0.0609598 0.0916762
0.693858 0.0609903 0.0936446
0.69456 0.0610208 0.0955978
0.69482 0.0610208 0.0966506
0.694987 0.0610208 0.0974594
0.694926 0.0610056 0.0970779
0.0399176 0.0864118 0.0499428
0.0407721 0.090135 0.0514076
0.0411994 0.0924697 0.0518349
0.041413 0.0933394 0.0517586
0.0415656 0.0928206 0.0506447
0.042359 0.09308 0.0473487
0.0476997 0.0946212 0.0442054
0.0609445 0.0972763 0.0463264
0.0752575 0.100587 0.0473793
0.0967727 0.10309 0.0438849
0.132433 0.100542 0.0432288
0.169909 0.0981613 0.0469062
0.218936 0.0916915 0.0527352
0.261418 0.0888991 0.0546731
0.307637 0.0851911 0.0576333
0.358907 0.0809491 0.057557
0.415335 0.0740673 0.0541695
0.473915 0.0670634 0.0499886
0.524407 0.0593423 0.0478828
0.569085 0.0569314 0.0507973
0.614206 0.0546426 0.0569772
0.64976 0.0569619 0.0638895
0.678355 0.0597238 0.0706798
0.686854 0.0607614 0.0736553
0.690944 0.0611582 0.0766155
0.690776 0.0610819 0.0784314
0.690608 0.0610056 0.0801099
0.691554 0.0610361 0.0836042
0.692592 0.0609903 0.0889906
0.693126 0.0610056 0.0904097
0.693324 0.0610056 0.0910658
0.693462 0.0610056 0.0914778
0.693355 0.0610056 0.0910048
0.0434272 0.106798 0.0561074
0.0446021 0.111604 0.057435
0.0452277 0.114809 0.0576028
0.0454414 0.115709 0.0574807
0.0455329 0.115541 0.0572061
0.0459907 0.115312 0.0543526
0.0471656 0.116945 0.0496071
0.0565957 0.11902 0.0489052
0.0749371 0.123568 0.0514382
0.0960403 0.128359 0.0525216
0.127382 0.132128 0.0457313
0.176852 0.131106 0.0456855
0.228656 0.128344 0.052369
0.294621 0.117006 0.0593729
0.350042 0.113191 0.063508
0.414954 0.107317 0.0654002
0.480827 0.101793 0.0660716
0.534432 0.0943923 0.0648203
0.580011 0.0885328 0.0629282
0.619394 0.0815442 0.0601816
0.659525 0.0774548 0.0632029
0.681086 0.0681315 0.0623331
0.698344 0.0669261 0.0662699
0.699123 0.0627756 0.068986
0.697795 0.0621958 0.0714733
0.695186 0.0627756 0.0737774
0.693996 0.0615702 0.0738537
0.692378 0.061387 0.0742046
0.691432 0.0611734 0.0782025
0.691966 0.0611124 0.0822156
0.69189 0.0610666 0.0839246
0.69189 0.0610819 0.0838026
0.691768 0.0610666 0.08336
0.048127 0.13283 0.0626993
0.0496223 0.140017 0.0647746
0.0498054 0.143786 0.0644694
0.0500038 0.1449 0.0637522
0.0500801 0.144915 0.0635386
0.0504158 0.14432 0.0620584
0.0521401 0.146365 0.0590982
0.0552682 0.149004 0.0540627
0.0699474 0.152895 0.0542153
0.0951705 0.16022 0.0568399
0.124559 0.16849 0.057969
0.171221 0.174777 0.0486152
0.236576 0.176699 0.0489052
0.306188 0.175219 0.0570535
0.394736 0.161822 0.0669718
0.479698 0.152468 0.0718395
0.546151 0.146212 0.077409
0.596994 0.143648 0.0840772
0.644602 0.138735 0.0888838
0.687572 0.134905 0.0915999
0.72076 0.126085 0.0894942
0.739406 0.120165 0.0872663
0.743984 0.112718 0.0829328
0.743877 0.109972 0.0838788
0.730907 0.0932784 0.0750134
0.720882 0.0818952 0.0705577
0.715984 0.078294 0.0724193
0.707012 0.0688792 0.0701457
0.706477 0.0719921 0.0724804
0.698009 0.0645304 0.0730755
0.696361 0.0618906 0.0744945
0.696117 0.0618601 0.0746471
0.695857 0.0618296 0.0742046
0.0526894 0.168353 0.0721599
0.0537423 0.177401 0.0744945
0.0547036 0.182437 0.0746319
0.0552529 0.184665 0.0737011
0.055436 0.185 0.0735027
0.0556497 0.184482 0.0724498
0.0569467 0.185367 0.0689403
0.0582589 0.189731 0.0636606
0.0665751 0.192538 0.0599222
0.0886854 0.200671 0.0607767
0.122972 0.212726 0.0635843
0.165911 0.226307 0.0646983
0.231724 0.237308 0.0545663
0.313481 0.242618 0.053315
0.410651 0.239811 0.0587625
0.503914 0.232761 0.0723125
0.5823 0.224399 0.0860914
0.650339 0.21767 0.101198
0.702937 0.216342 0.112581
0.752941 0.212696 0.124041
0.787411 0.209873 0.131182
0.807157 0.205646 0.133593
0.80798 0.201404 0.132296
0.804425 0.195132 0.12958
0.802106 0.190845 0.127306
0.794202 0.177676 0.121126
0.7888 0.168917 0.116503
0.772488 0.146258 0.103609
0.755779 0.124681 0.0908064
0.747524 0.116091 0.0863203
0.743725 0.114122 0.0888075
0.74966 0.12105 0.0908827
0.757763 0.13138 0.0965744
0.0571908 0.214176 0.0836652
0.0573892 0.225147 0.0860914
0.0581521 0.23238 0.0863813
0.0587167 0.234577 0.0848554
0.0589914 0.235676 0.0842451
0.0591745 0.235508 0.0835889
0.0602579 0.235859 0.0804913
0.0624094 0.239307 0.0758068
0.0631418 0.243671 0.0674601
0.0782788 0.249027 0.0646372
0.111498 0.262364 0.0669413
0.159686 0.278782 0.0697185
0.217807 0.29572 0.0726024
0.298253 0.310216 0.0616922
0.405203 0.315419 0.0565347
0.520455 0.318166 0.0588083
0.593561 0.330404 0.0802625
0.669078 0.334752 0.106844
0.740826 0.337835 0.138735
0.803418 0.340276 0.161135
0.84918 0.343359 0.181659
0.87071 0.343145 0.189517
0.872312 0.336934 0.188846
0.868528 0.327153 0.184588
0.865858 0.320012 0.182177
0.863096 0.31371 0.179263
0.858869 0.304402 0.17554
0.855955 0.297322 0.172549
0.852186 0.289601 0.169329
0.838895 0.26247 0.158053
0.834226 0.253269 0.154498
0.839673 0.265141 0.158984
0.84744 0.28188 0.165972
0.0578317 0.269902 0.0949874
0.0575875 0.280903 0.09691
0.0577249 0.288273 0.0966812
0.0582437 0.290822 0.094255
0.0585489 0.29163 0.0931716
0.0584573 0.292302 0.0931868
0.0593423 0.291569 0.0910506
0.0611429 0.293584 0.0862745
0.0631571 0.298772 0.0789197
0.067277 0.303395 0.0666667
0.0917525 0.313069 0.0652323
0.138399 0.330739 0.069337
0.205081 0.352071 0.0768139
0.273198 0.375738 0.0800183
0.373953 0.39678 0.0672007
0.502998 0.411215 0.0610056
0.60473 0.433143 0.0673533
0.673014 0.455238 0.092958
0.736233 0.473762 0.122057
0.799283 0.484565 0.157046
0.847425 0.48838 0.182101
0.883406 0.491203 0.202441
0.891386 0.486091 0.204532
0.894514 0.477256 0.208377
0.894942 0.467918 0.209583
0.896437 0.4551 0.213825
0.896132 0.451133 0.213672
0.896742 0.446433 0.215045
0.896162 0.441718 0.214405
0.896406 0.438895 0.213458
0.895659 0.442237 0.212238
0.895964 0.447288 0.211978
0.895521 0.457679 0.210788
0.0534676 0.326543 0.102647
0.0522316 0.337835 0.103563
0.0520027 0.345815 0.10248
0.0524758 0.349203 0.0994278
0.0530556 0.350362 0.0977798
0.0530861 0.350439 0.0978408
0.0533761 0.350622 0.0972763
0.0554665 0.350637 0.0928054
0.057084 0.357137 0.0857557
0.0608225 0.362127 0.07393
0.0738537 0.368139 0.0614176
0.107317 0.383963 0.06421
0.169986 0.410941 0.0717174
0.255543 0.443748 0.0824598
0.339498 0.477806 0.0900282
0.472053 0.501167 0.0841382
0.582925 0.522011 0.0817884
0.669642 0.54255 0.0809644
0.731395 0.558572 0.101686
0.786465 0.572763 0.12517
0.834867 0.584634 0.153918
0.866804 0.591394 0.171969
0.889326 0.59527 0.18497
0.892485 0.590173 0.188342
0.893233 0.586297 0.189899
0.892729 0.578576 0.190387
0.892287 0.571206 0.192767
0.891783 0.567025 0.192706
0.892241 0.563943 0.194598
0.891569 0.560998 0.195361
0.892317 0.562799 0.195926
0.892714 0.564233 0.194751
0.892561 0.572641 0.192508
0.0446784 0.388785 0.106157
0.0427863 0.402243 0.105684
0.0420386 0.410285 0.103166
0.0439002 0.413443 0.0995499
0.0448615 0.415137 0.096788
0.0448615 0.415488 0.0964065
0.0449073 0.416541 0.0957809
0.0461738 0.417029 0.0928359
0.0491798 0.420203 0.0870985
0.0520638 0.427573 0.0784619
0.0615244 0.435142 0.065156
0.0850843 0.445701 0.0577401
0.133974 0.469505 0.0679942
0.23476 0.508385 0.0890059
0.347219 0.547845 0.112657
0.440192 0.571771 0.118563
0.556008 0.588098 0.113054
0.646616 0.604501 0.1084
0.72192 0.624857 0.104372
0.784604 0.63769 0.119814
0.839689 0.647974 0.136614
0.869368 0.656321 0.151904
0.890272 0.66273 0.164172
0.899779 0.666377 0.171664
0.901518 0.666468 0.173205
0.901228 0.664775 0.174258
0.901045 0.663325 0.17261
0.900847 0.657938 0.174182
0.900008 0.655055 0.173816
0.900282 0.652338 0.174319
0.899413 0.649516 0.175341
0.899336 0.64976 0.175937
0.899763 0.656245 0.175387
0.0383917 0.458198 0.110353
0.0394903 0.471504 0.113024
0.0413367 0.479301 0.112657
0.0443275 0.483024 0.1093
0.0468605 0.486244 0.106401
0.0474861 0.487297 0.106294
0.0475471 0.487526 0.106355
0.0487068 0.487449 0.104631
0.0519417 0.489784 0.0988632
0.0578164 0.497032 0.0930495
0.0652628 0.50631 0.0846113
0.0861677 0.516564 0.074052
0.133303 0.536385 0.080354
0.215717 0.568292 0.102907
0.338628 0.605371 0.130587
0.45301 0.627405 0.143603
0.5299 0.643717 0.146365
0.623453 0.660212 0.146014
0.701686 0.676768 0.141833
0.768505 0.695964 0.134798
0.826093 0.707897 0.142306
0.87071 0.716091 0.148669
0.892363 0.721981 0.156863
0.90811 0.727214 0.163577
0.908812 0.729809 0.165606
0.909422 0.732189 0.166522
0.909163 0.73225 0.167758
0.909346 0.733898 0.167834
0.908949 0.732723 0.170657
0.908736 0.731563 0.16939
0.908736 0.729397 0.168917
0.908782 0.730755 0.169329
0.909361 0.734203 0.167498
0.0484169 0.531334 0.135988
0.0530556 0.54725 0.144076
0.0584268 0.557336 0.147158
0.0632639 0.562173 0.144945
0.0677806 0.566293 0.143465
0.0690776 0.5673 0.142535
0.0692454 0.567605 0.142855
0.0696574 0.568322 0.142901
0.0731365 0.567742 0.136584
0.081178 0.57467 0.131304
0.0941482 0.586923 0.12546
0.110918 0.599527 0.116854
0.15201 0.611872 0.115053
0.22266 0.630182 0.127367
0.316945 0.655726 0.148272
0.451896 0.67744 0.164004
0.54493 0.693355 0.172717
0.600244 0.709346 0.177966
0.678126 0.727291 0.181476
0.751385 0.749691 0.175128
0.808042 0.763638 0.172152
0.856489 0.773144 0.177813
0.882155 0.784939 0.178912
0.898283 0.790585 0.182574
0.90695 0.791882 0.18323
0.909133 0.794064 0.183688
0.909255 0.796109 0.184985
0.909377 0.796582 0.186069
0.909636 0.796399 0.186923
0.909712 0.798032 0.188464
0.909758 0.795941 0.188617
0.9093 0.799054 0.189792
0.908934 0.801282 0.192264
0.079469 0.616831 0.190356
0.0873426 0.632975 0.201312
0.0943008 0.642252 0.204623
0.100084 0.646479 0.200778
0.106508 0.650034 0.198093
0.108721 0.652201 0.196811
0.108782 0.652323 0.196826
0.109102 0.652705 0.196689
0.111986 0.653147 0.192737
0.120073 0.657099 0.186648
0.132799 0.666026 0.1794
0.14992 0.676234 0.1673
0.176211 0.684794 0.150225
0.238453 0.692531 0.158526
0.320562 0.706538 0.171099
0.433906 0.721798 0.183734
0.552743 0.736492 0.194003
0.614054 0.75317 0.204166
0.658045 0.76817 0.210544
0.729992 0.79028 0.211261
0.793927 0.808209 0.209583
0.839124 0.816754 0.211048
0.869825 0.823728 0.215122
0.890974 0.831601 0.214176
0.904738 0.834592 0.214679
0.907118 0.836942 0.216526
0.907927 0.838697 0.217823
0.907286 0.841505 0.219242
0.907134 0.843778 0.220905
0.907103 0.84419 0.221332
0.907073 0.844907 0.222049
0.907134 0.845685 0.222843
0.907134 0.845792 0.22298
0.111833 0.686946 0.242039
0.117052 0.696788 0.24831
0.121904 0.70193 0.247761
0.128679 0.70489 0.243549
0.135256 0.707408 0.237842
0.137728 0.708705 0.235538
0.137713 0.70869 0.235554
0.138338 0.709682 0.236408
0.140108 0.709453 0.233646
0.146242 0.710124 0.225788
0.156527 0.714229 0.216495
0.173007 0.721538 0.204135
0.200809 0.72697 0.187854
0.24918 0.731868 0.179568
0.326925 0.742672 0.189624
0.43093 0.75346 0.198505
0.54342 0.76437 0.2065
0.616098 0.781445 0.219898
0.664134 0.797284 0.229023
0.705409 0.81207 0.235218
0.771923 0.832898 0.235798
0.825238 0.846555 0.23473
0.859709 0.850813 0.238819
0.882567 0.853483 0.242145
0.899397 0.858717 0.240436
0.906371 0.861204 0.241062
0.907561 0.861601 0.241367
0.90753 0.86247 0.241993
0.90753 0.86334 0.242969
0.907591 0.864927 0.244923
0.907607 0.865904 0.245808
0.907713 0.867414 0.24773
0.907698 0.867506 0.247959
0.130983 0.731746 0.276326
0.133913 0.736492 0.279149
0.137758 0.73843 0.276844
0.143877 0.739788 0.27039
0.150988 0.741466 0.263874
0.153765 0.74139 0.260349
0.153857 0.741512 0.26038
0.153918 0.741588 0.26038
0.154665 0.741558 0.259174
0.160296 0.740993 0.250813
0.169024 0.742611 0.240192
0.181933 0.744091 0.224231
0.201755 0.746929 0.203296
0.250645 0.751141 0.192569
0.334005 0.760372 0.199695
0.433219 0.767544 0.205737
0.543923 0.776745 0.212436
0.619654 0.7935 0.227329
0.661204 0.807858 0.236225
0.704234 0.823606 0.244709
0.751171 0.840375 0.250843
0.803922 0.856764 0.249302
0.850004 0.866651 0.247837
0.873747 0.866255 0.253422
0.892424 0.867964 0.256001
0.903304 0.870909 0.25536
0.907744 0.872175 0.256611
0.907759 0.871611 0.255924
0.907729 0.871626 0.255268
0.907713 0.871412 0.254932
0.907744 0.87158 0.255451
0.907759 0.871672 0.255818
0.907774 0.871885 0.256382
0.138598 0.755154 0.297948
0.138674 0.75555 0.298268
0.142 0.755459 0.294331
0.147997 0.755291 0.286687
0.154208 0.754925 0.27805
0.157702 0.754513 0.273075
0.157916 0.754498 0.272709
0.157931 0.754482 0.272679
0.158755 0.754391 0.271412
0.16318 0.753948 0.264591
0.171405 0.753307 0.252537
0.183032 0.753017 0.235904
0.203326 0.753735 0.213443
0.244343 0.757122 0.196796
0.332082 0.765652 0.202396
0.445106 0.772946 0.208789
0.543587 0.780285 0.214618
0.615732 0.795346 0.228305
0.658946 0.809201 0.237675
0.69482 0.822049 0.244907
0.738552 0.837156 0.250965
0.792676 0.853697 0.252201
0.833204 0.860945 0.252308
0.862913 0.861753 0.256535
0.88397 0.866163 0.257343
0.901518 0.871138 0.257664
0.904768 0.872145 0.259495
0.907988 0.873304 0.261189
0.907942 0.873259 0.260044
0.907897 0.873213 0.259281
0.907958 0.873259 0.260044
0.907958 0.873259 0.260197
0.907973 0.873289 0.260655
0.132738 0.757519 0.309575
0.133104 0.757748 0.309575
0.13698 0.757259 0.304067
0.143862 0.756283 0.294438
0.150439 0.755428 0.28426
0.153994 0.755016 0.278889
0.154665 0.754925 0.278035
0.154711 0.75491 0.277974
0.154757 0.754894 0.277913
0.159838 0.754299 0.27042
0.168261 0.753536 0.257832
0.180194 0.753109 0.241535
0.201358 0.753674 0.219211
0.246799 0.757046 0.203983
0.327474 0.765499 0.202274
0.455329 0.773175 0.209018
0.550988 0.781399 0.215961
0.612406 0.794583 0.227955
0.65713 0.808469 0.237659
0.690532 0.820554 0.244266
0.728023 0.833967 0.250217
0.778759 0.849653 0.252522
0.823697 0.861982 0.250523
0.853727 0.863874 0.253254
0.879225 0.864775 0.25774
0.896101 0.869474 0.257984
0.905318 0.872328 0.258106
0.907881 0.873198 0.259098
0.907927 0.873228 0.259663
0.907958 0.873259 0.260044
0.908003 0.87332 0.261463
0.908034 0.873365 0.262181
0.908049 0.873381 0.262196
0.127153 0.758694 0.318044
0.128237 0.758541 0.316289
0.133089 0.757794 0.309712
0.14081 0.756695 0.298711
0.148608 0.755673 0.287037
0.152895 0.755123 0.280751
0.153567 0.755062 0.279637
0.153582 0.755047 0.279622
0.153735 0.755032 0.279362
0.15697 0.75465 0.27451
0.165423 0.753765 0.261906
0.179507 0.753277 0.243854
0.200504 0.75375 0.222919
0.233967 0.7561 0.201419
0.328664 0.765454 0.202884
0.458381 0.773419 0.208911
0.559075 0.782712 0.217502
0.616053 0.795544 0.228595
0.657145 0.808408 0.237797
0.688273 0.819928 0.243595
0.725322 0.832715 0.249668
0.765606 0.845685 0.253376
0.807782 0.857801 0.251072
0.84799 0.86537 0.250843
0.873701 0.865599 0.255421
0.892576 0.868238 0.257984
0.902449 0.871366 0.257877
0.907073 0.872923 0.258381
0.907881 0.873198 0.259007
0.907881 0.873198 0.25919
0.907897 0.873213 0.259464
0.907958 0.873259 0.26009
0.907973 0.873289 0.260609
0.123049 0.75935 0.323888
0.125185 0.758999 0.321218
0.130678 0.75816 0.313161
0.139116 0.756939 0.301091
0.147799 0.755764 0.288258
0.153124 0.755108 0.280354
0.153887 0.755016 0.279088
0.153857 0.755032 0.279149
0.153826 0.755032 0.279179
0.156451 0.754726 0.275227
0.164584 0.753841 0.263203
0.179583 0.753353 0.245533
0.201846 0.753872 0.221805
0.233783 0.756008 0.20032
0.325795 0.765347 0.203387
0.466194 0.773846 0.209232
0.569192 0.78436 0.219089
0.624353 0.797452 0.23035
0.658457 0.808911 0.23798
0.687449 0.819669 0.243351
0.716762 0.829999 0.24889
0.754528 0.842283 0.25243
0.794614 0.854185 0.252644
0.833188 0.859754 0.253956
0.8701 0.862058 0.257725
0.886992 0.866453 0.257816
0.901289 0.871138 0.257832
0.90483 0.872114 0.258259
0.907851 0.873182 0.258701
0.907866 0.873198 0.258824
0.907866 0.873198 0.258824
0.907881 0.873198 0.258854
0.907912 0.873228 0.259495
0.121767 0.759808 0.328099
0.125292 0.75935 0.323964
0.130465 0.758312 0.314
0.1393 0.756909 0.300832
0.149233 0.755581 0.286137
0.155108 0.754864 0.277348
0.155749 0.754788 0.276341
0.155627 0.754803 0.27657
0.155505 0.754818 0.276738
0.157183 0.754635 0.274113
0.166064 0.753765 0.261601
0.18175 0.75346 0.243946
0.205478 0.754086 0.219562
0.243275 0.75697 0.201312
0.330907 0.765377 0.204059
0.47512 0.774258 0.209659
0.581491 0.786938 0.220859
0.633738 0.800336 0.232425
0.660853 0.809781 0.238239
0.686992 0.819455 0.243229
0.714641 0.829343 0.248676
0.743435 0.839063 0.252155
0.782391 0.85066 0.25304
0.832486 0.86125 0.252186
0.866163 0.864134 0.254704
0.885908 0.866163 0.257694
0.898268 0.8701 0.257725
0.904921 0.87216 0.258091
0.907851 0.873152 0.258442
0.907866 0.873182 0.258671
0.907866 0.873198 0.258824
0.907866 0.873198 0.258824
0.907866 0.873198 0.258824
0.1243 0.759884 0.329885
0.127611 0.759335 0.324376
0.13254 0.758144 0.312825
0.141482 0.756634 0.297902
0.15227 0.755199 0.281621
