bundles/resolve-cinematic-luts/Phantom Luts/Ursa G2 Phntm Film LUTs - V1/Gen5/White Balance Offset (+Magenta Boost)/Ursa Eterna Gen5 WBO.cube
TITLE "Generated by Resolve"
LUT_3D_SIZE 9
0.00917067 0.0375982 0.0375982
0.0295872 0.0388495 0.0376287
0.0942397 0.0415656 0.0377966
0.23682 0.0541238 0.0675517
0.442878 0.0721599 0.116762
0.584772 0.0887465 0.156252
0.603922 0.0988022 0.187747
0.609277 0.0975052 0.189425
0.637308 0.0904097 0.198123
0.0145876 0.0471199 0.0421454
0.0204471 0.047303 0.0413825
0.0901503 0.0446174 0.0423743
0.24979 0.0542 0.0710307
0.471305 0.0716716 0.124041
0.598672 0.0860609 0.161837
0.613672 0.0964065 0.190799
0.615122 0.0960555 0.191257
0.642527 0.0890516 0.199832
0.0438697 0.122927 0.0762036
0.04094 0.13547 0.080354
0.10454 0.136675 0.0682383
0.316762 0.105425 0.0852216
0.503929 0.0720073 0.114214
0.607584 0.0836652 0.157626
0.61268 0.084062 0.1729
0.61297 0.0860304 0.176028
0.623255 0.0846876 0.180606
0.095552 0.37586 0.176959
0.0826276 0.424125 0.174823
0.0888533 0.435462 0.170123
0.339086 0.454154 0.104005
0.756283 0.433738 0.131426
0.839551 0.370245 0.184176
0.784283 0.260945 0.165393
0.7579 0.226383 0.159854
0.724849 0.185107 0.152667
0.154757 0.777035 0.411429
0.159838 0.810895 0.404547
0.183124 0.830808 0.391531
0.218692 0.81767 0.324788
0.665019 0.815015 0.237156
0.91075 0.809491 0.27834
0.921141 0.777432 0.261051
0.914092 0.747768 0.241901
0.908019 0.718105 0.22948
0.238041 0.902296 0.559869
0.235126 0.911681 0.536248
0.245014 0.914855 0.487297
0.252628 0.913756 0.479072
0.569711 0.918563 0.313329
0.859632 0.928817 0.35639
0.948547 0.924132 0.38912
0.947875 0.924666 0.387869
0.948852 0.923781 0.388983
0.237491 0.912673 0.57937
0.251072 0.914244 0.548943
0.261936 0.914168 0.484428
0.283345 0.913115 0.430701
0.35581 0.912459 0.342321
0.752819 0.92546 0.331701
0.931914 0.917388 0.379767
0.949187 0.923461 0.389319
0.94844 0.92401 0.387747
0.230549 0.916854 0.602243
0.242298 0.912581 0.571405
0.270436 0.91078 0.519203
0.297475 0.90837 0.432135
0.310506 0.908568 0.412314
0.698177 0.917967 0.325582
0.886778 0.926574 0.368566
0.950072 0.922789 0.391043
0.945693 0.926024 0.382086
0.230381 0.918868 0.617655
0.230915 0.915053 0.587442
0.253315 0.914565 0.542519
0.29192 0.909499 0.437888
0.29688 0.908705 0.431449
0.498543 0.914153 0.318608
0.7832 0.924941 0.340764
0.946029 0.922286 0.387091
0.944671 0.926772 0.380102
0.009308 0.0378424 0.0464485
0.0328679 0.0401312 0.0478981
0.0943465 0.0450904 0.0547951
0.235767 0.0612955 0.0843977
0.450782 0.0770275 0.135698
0.608743 0.0825971 0.163363
0.627543 0.0931106 0.194553
0.631434 0.0920577 0.195911
0.652064 0.0868391 0.202213
0.0122988 0.0419776 0.0406043
0.0180667 0.0413214 0.0427558
0.0991379 0.045182 0.0522011
0.26067 0.0578317 0.0809949
0.474189 0.0671244 0.13193
0.620401 0.0807355 0.165728
0.636347 0.0907607 0.197528
0.636851 0.0906539 0.197604
0.652232 0.0868086 0.202289
0.0393378 0.11133 0.0818799
0.0360113 0.121431 0.0803235
0.100938 0.128985 0.0669413
0.313039 0.0902724 0.0820172
0.495018 0.0676585 0.114046
0.619058 0.080766 0.159548
0.623652 0.0815442 0.177111
0.623453 0.0844739 0.180758
0.632959 0.0822003 0.185031
0.0847334 0.347494 0.191257
0.0765393 0.388952 0.184405
0.0874189 0.425711 0.172351
0.333318 0.444007 0.102739
0.753368 0.410971 0.133898
0.835828 0.359045 0.182055
0.773541 0.244083 0.162844
0.740658 0.204349 0.156497
0.695277 0.150088 0.145663
0.110201 0.746853 0.42948
0.121324 0.776944 0.419287
0.162387 0.807004 0.381033
0.20322 0.808438 0.328954
0.653468 0.803998 0.226871
0.906142 0.800168 0.267292
0.917403 0.767102 0.250584
0.91075 0.732769 0.233158
0.904158 0.700236 0.221622
0.225895 0.900679 0.598474
0.210513 0.907118 0.577356
0.236851 0.915145 0.523278
0.252384 0.913939 0.478706
0.535653 0.918517 0.312718
0.857023 0.929152 0.354971
0.948074 0.924437 0.387945
0.947585 0.924804 0.386862
0.949004 0.923644 0.389197
0.244724 0.915526 0.637995
0.241108 0.913603 0.608728
0.249287 0.91487 0.545861
0.282536 0.912642 0.434073
0.350118 0.912322 0.347692
0.749432 0.925032 0.331228
0.930556 0.917266 0.378882
0.94902 0.923583 0.388952
0.948257 0.924147 0.387396
0.244419 0.920012 0.663386
0.251743 0.914214 0.633722
0.251591 0.908553 0.576974
0.292424 0.908629 0.443442
0.309697 0.908248 0.414405
0.687221 0.917037 0.324361
0.878538 0.926268 0.366308
0.950072 0.922789 0.391043
0.945678 0.92604 0.382071
0.2448 0.921553 0.679652
0.244373 0.918669 0.651911
0.243214 0.912917 0.602777
0.273594 0.910124 0.486686
0.29662 0.908675 0.432013
0.497612 0.914549 0.319036
0.773312 0.924453 0.338399
0.944961 0.922087 0.386465
0.944717 0.926726 0.380209
0.0172274 0.0402533 0.090547
0.0482948 0.0430152 0.0981613
0.112718 0.0501717 0.0825971
0.254597 0.0656443 0.108309
0.459495 0.0802777 0.159457
0.62324 0.0890974 0.199268
0.623835 0.0905928 0.188235
0.631693 0.0927596 0.193866
0.652537 0.0871595 0.202533
0.0125277 0.0441901 0.0588693
0.0188602 0.0408484 0.100603
0.113466 0.0508431 0.0882887
0.270771 0.0667277 0.112978
0.475486 0.0790875 0.164538
0.632227 0.0870375 0.201663
0.636866 0.0914626 0.195438
0.63711 0.0907301 0.198734
0.652537 0.085771 0.20853
0.0393225 0.107027 0.094316
0.0354772 0.11194 0.103441
0.107942 0.116915 0.115801
0.32369 0.103548 0.131044
0.506554 0.0753185 0.154543
0.626383 0.0849012 0.179919
0.623972 0.0859998 0.182208
0.622782 0.0881971 0.185321
0.640833 0.0893568 0.201404
0.0804913 0.320745 0.218082
0.0678569 0.352819 0.228336
0.0733959 0.378271 0.20177
0.338384 0.423117 0.103166
0.752285 0.365988 0.147433
0.83212 0.348943 0.180026
0.74612 0.210864 0.157351
0.692576 0.153903 0.145464
0.663493 0.117968 0.143481
0.0860609 0.707225 0.477089
0.0771496 0.729213 0.479683
0.0922408 0.755428 0.434302
0.182239 0.789334 0.33492
0.642542 0.784405 0.214511
0.899107 0.774029 0.249882
0.912886 0.744396 0.238468
0.90515 0.704631 0.221302
0.897185 0.670253 0.210483
0.229526 0.893034 0.661753
0.21265 0.902571 0.654917
0.200198 0.905135 0.60441
0.249256 0.913787 0.486778
0.449683 0.916625 0.317815
0.849317 0.929046 0.353048
0.948318 0.924498 0.389548
0.948043 0.922118 0.384314
0.948302 0.918013 0.380972
0.265873 0.919097 0.727108
0.262242 0.918578 0.710918
0.248493 0.915404 0.659815
0.254673 0.913848 0.516472
0.330953 0.912459 0.366552
0.741451 0.923598 0.330343
0.92752 0.916899 0.377478
0.949035 0.923598 0.389075
0.947997 0.924376 0.387106
0.296559 0.930404 0.761837
0.28159 0.925383 0.739254
0.274861 0.914229 0.687785
0.254093 0.909056 0.568673
0.302098 0.907576 0.428763
0.644648 0.916121 0.321843
0.858808 0.925902 0.361318
0.950072 0.922789 0.391043
0.945678 0.92604 0.38204
0.314641 0.933516 0.779004
0.291569 0.929595 0.757061
0.274556 0.918486 0.710948
0.255756 0.910567 0.612985
0.296803 0.908614 0.432044
0.462852 0.913497 0.322499
0.760525 0.924193 0.33576
0.942229 0.921294 0.384298
0.944595 0.926833 0.379904
0.041001 0.0494087 0.209705
0.0755627 0.0537881 0.242054
0.14963 0.0578164 0.200641
0.300893 0.0797131 0.181598
0.505882 0.0885481 0.228305
0.643473 0.0945144 0.268406
0.642741 0.0939498 0.266209
0.65742 0.0986496 0.300526
0.686381 0.0991226 0.34583
0.0227512 0.0448463 0.165957
0.0366369 0.0494392 0.225177
0.139803 0.0596628 0.255329
0.311162 0.0805829 0.199924
0.510002 0.0880751 0.238468
0.659556 0.0959487 0.298619
0.664714 0.0993515 0.312413
0.677745 0.106661 0.355718
0.699947 0.108644 0.40528
0.0320592 0.0957504 0.139178
0.0286107 0.0885176 0.185336
0.0397498 0.0511025 0.252461
0.331106 0.0838331 0.235676
0.531487 0.0975509 0.272679
0.66009 0.106218 0.325887
0.672099 0.11191 0.357977
0.679271 0.116854 0.394644
0.696086 0.115358 0.431937
0.0809033 0.305104 0.254124
0.0700999 0.332128 0.283055
0.067628 0.34963 0.306706
0.383871 0.37644 0.35639
0.741192 0.351629 0.3664
0.875868 0.323507 0.373602
0.769863 0.197879 0.25864
0.723522 0.155566 0.264942
0.696269 0.127565 0.277058
0.0755779 0.671778 0.524361
0.0647135 0.690776 0.546166
0.0692912 0.702724 0.543877
0.0805676 0.718074 0.477424
0.649058 0.741283 0.254093
0.935119 0.689723 0.364691
0.91989 0.69749 0.263691
0.902312 0.692744 0.216022
0.894881 0.659541 0.206729
0.230045 0.871672 0.716716
0.213138 0.878645 0.72398
0.202152 0.879454 0.706233
0.19089 0.885267 0.642649
0.362875 0.921721 0.449805
0.864866 0.923919 0.379705
0.951217 0.916411 0.397879
0.94905 0.917617 0.382422
0.948516 0.912978 0.376837
0.339376 0.930373 0.818463
0.329915 0.931945 0.817807
0.296925 0.923873 0.790265
0.254185 0.913924 0.706493
0.315526 0.927367 0.568154
0.728557 0.925917 0.409033
0.929885 0.917922 0.382055
0.949065 0.923613 0.38938
0.947585 0.924743 0.386557
0.470619 0.936965 0.857816
0.457237 0.937316 0.853025
0.425971 0.932769 0.826413
0.308721 0.920424 0.74316
0.268818 0.912932 0.606668
0.605295 0.921462 0.44921
0.846845 0.925521 0.358175
0.950042 0.922789 0.391028
0.945663 0.926055 0.382025
0.491386 0.936751 0.866606
0.476173 0.937163 0.861021
0.43473 0.937087 0.841794
0.33698 0.926558 0.771817
0.258259 0.911162 0.626078
0.471015 0.923705 0.472251
0.788693 0.925582 0.345342
0.937346 0.9196 0.381689
0.945541 0.926131 0.381796
0.11014 0.062501 0.4112
0.149264 0.0677653 0.447028
0.243565 0.0747387 0.446921
0.384787 0.0839399 0.387198
0.582589 0.110719 0.381491
0.68278 0.118013 0.410925
0.681056 0.118929 0.411643
0.68957 0.120577 0.444053
0.712215 0.117952 0.503914
0.0711986 0.057145 0.356466
0.0856794 0.0596933 0.400656
0.190249 0.0713207 0.449424
0.378943 0.082948 0.428107
0.575998 0.109743 0.392203
0.688136 0.119875 0.435554
0.69218 0.122606 0.462043
0.702266 0.122896 0.517037
0.719783 0.119066 0.579812
0.026154 0.0554818 0.267506
0.0270542 0.0519722 0.337545
0.0911269 0.0608072 0.419593
0.367193 0.0831769 0.489387
0.597803 0.110536 0.431601
0.689128 0.123247 0.461448
0.695811 0.1252 0.509361
0.699519 0.126101 0.552392
0.711955 0.123278 0.595285
0.0730297 0.285817 0.347265
0.0531472 0.295109 0.398871
0.0417945 0.291722 0.468177
0.199298 0.26067 0.57969
0.733593 0.234043 0.579278
0.814557 0.213687 0.556603
0.714931 0.138338 0.50898
0.704402 0.131853 0.528649
0.708827 0.12517 0.55761
0.0801404 0.645136 0.566415
0.0660258 0.662043 0.59292
0.0714427 0.673198 0.610285
0.0869306 0.676341 0.62002
0.663401 0.665904 0.640421
0.919829 0.652277 0.644541
0.936156 0.640818 0.648508
0.933913 0.620905 0.642145
0.930632 0.586664 0.639384
0.22797 0.851545 0.750957
0.210971 0.856748 0.760601
0.202014 0.855436 0.758389
0.197543 0.853681 0.739635
0.526177 0.885893 0.720821
0.856672 0.901122 0.647852
0.949371 0.881773 0.707179
0.948455 0.881209 0.683986
0.947417 0.871229 0.671351
0.416938 0.929519 0.855604
0.402548 0.934844 0.863203
0.369635 0.934432 0.855726
0.312505 0.922545 0.819287
0.539147 0.936065 0.801831
0.752117 0.934203 0.746914
0.943862 0.935943 0.707424
0.957427 0.935897 0.688411
0.956207 0.93608 0.673243
0.589319 0.932967 0.894575
0.580728 0.935256 0.897185
0.557534 0.93669 0.893141
0.507439 0.933623 0.864805
0.554818 0.931838 0.831647
0.742794 0.934234 0.798795
0.901518 0.936049 0.739528
0.957092 0.928832 0.55198
0.951629 0.927138 0.447349
0.594537 0.935637 0.902586
0.59202 0.935927 0.902556
0.572854 0.936767 0.898283
0.528786 0.93489 0.877043
0.460548 0.931289 0.831983
0.69456 0.934081 0.807568
0.85359 0.936172 0.770199
0.94374 0.932448 0.614481
0.946395 0.926665 0.390875
0.221302 0.0800336 0.575799
0.256352 0.0835889 0.602869
0.333257 0.0889754 0.627604
0.478431 0.0941939 0.631998
0.659022 0.110613 0.595468
0.707851 0.124056 0.571618
0.70901 0.124483 0.59443
0.712337 0.123415 0.60267
0.720607 0.120806 0.627482
0.152773 0.0713817 0.537057
0.182498 0.0756695 0.566339
0.273228 0.0846113 0.603662
0.44007 0.0934615 0.639628
0.652842 0.109209 0.62182
0.709072 0.124819 0.591455
0.709987 0.124819 0.6159
0.712444 0.124544 0.63154
0.720027 0.12282 0.664027
0.107851 0.0646983 0.47454
0.135515 0.0689403 0.522988
0.170855 0.0741894 0.559976
0.367102 0.0903639 0.628672
0.64329 0.108553 0.651377
0.701808 0.12784 0.591058
0.701167 0.128374 0.608591
0.706645 0.12752 0.638071
0.714397 0.12578 0.672114
0.0466773 0.238773 0.504768
0.0438087 0.237995 0.541344
0.0461433 0.228336 0.584924
0.116152 0.170199 0.632197
0.614298 0.124758 0.699107
0.72781 0.142901 0.616159
0.714733 0.137743 0.616434
0.708125 0.131914 0.636164
0.713436 0.126757 0.662654
0.0854963 0.640055 0.658579
0.0823377 0.646799 0.683513
0.0902724 0.647288 0.711376
0.0943465 0.627817 0.743282
0.544793 0.615473 0.834455
0.923049 0.593378 0.8159
0.93576 0.582483 0.809476
0.93492 0.538705 0.820157
0.933349 0.494652 0.835798
0.222782 0.841001 0.782223
0.206439 0.842863 0.789578
0.20177 0.839094 0.789822
0.198596 0.834607 0.786221
0.553399 0.858274 0.820935
0.856825 0.855177 0.838407
0.95172 0.84892 0.837842
0.95053 0.842161 0.837064
0.946853 0.835996 0.839658
0.431022 0.928527 0.88011
0.410056 0.931899 0.885222
0.385397 0.93019 0.881498
0.344274 0.925109 0.86714
0.63444 0.927077 0.878859
0.820905 0.934066 0.887205
0.943908 0.942351 0.864408
0.958038 0.938781 0.887755
0.956237 0.938308 0.890608
0.663554 0.930343 0.908263
0.644068 0.936309 0.916442
0.634668 0.937163 0.91632
0.60589 0.936538 0.9084
0.695811 0.935897 0.906203
0.829145 0.94168 0.91165
0.910979 0.945037 0.896971
0.95758 0.947601 0.877943
0.958556 0.950256 0.896162
0.663447 0.934829 0.91751
0.658579 0.936812 0.920378
0.649958 0.937606 0.920226
0.626566 0.93695 0.913863
0.649927 0.935592 0.906615
0.817624 0.941405 0.916762
0.904891 0.94696 0.91368
0.949722 0.949065 0.891386
0.958785 0.948363 0.874189
0.345037 0.0918898 0.656077
0.375906 0.0936294 0.666407
0.426307 0.0965286 0.6804
0.526986 0.102861 0.704387
0.688472 0.125246 0.71696
0.723415 0.132021 0.714549
0.716167 0.126482 0.706859
0.716686 0.126055 0.703075
0.716136 0.126101 0.699443
0.288487 0.0881666 0.640848
0.321675 0.0903944 0.650553
0.38233 0.0939193 0.668345
0.488518 0.100282 0.696193
0.677714 0.123888 0.720134
0.725978 0.135103 0.723293
0.715679 0.12755 0.714305
0.715816 0.127321 0.712688
0.715389 0.127672 0.714092
0.243961 0.0841535 0.620676
0.274601 0.0869764 0.636194
0.306889 0.0893111 0.646159
0.417578 0.0959335 0.67808
0.644572 0.116808 0.717388
0.727962 0.137499 0.72781
0.71696 0.128939 0.715663
0.716854 0.12842 0.715419
0.716869 0.128542 0.716014
0.0473945 0.196017 0.615915
0.0478828 0.180194 0.623453
0.0694133 0.152789 0.635645
0.208209 0.138643 0.671901
0.569558 0.1243 0.73492
0.732036 0.140459 0.730434
0.721614 0.132448 0.714153
0.719966 0.130327 0.711864
0.718944 0.129488 0.715694
0.0965591 0.610376 0.762463
0.0985733 0.60473 0.773571
0.100603 0.596597 0.784253
0.102434 0.581613 0.796353
0.457649 0.592554 0.909819
0.919005 0.551064 0.941146
0.942351 0.522728 0.90631
0.941436 0.505592 0.90341
0.937987 0.460655 0.915953
0.222416 0.838926 0.829557
0.216266 0.837049 0.835447
0.21297 0.830335 0.837934
0.210452 0.822202 0.844495
0.433326 0.844953 0.902388
0.791714 0.830625 0.910109
0.946548 0.821225 0.910094
0.948577 0.811322 0.905715
0.946624 0.794476 0.911635
0.436088 0.928023 0.898482
0.411139 0.929549 0.901183
0.384161 0.926345 0.897917
0.347555 0.920577 0.890043
0.569238 0.922637 0.899367
0.825589 0.927321 0.917205
0.933852 0.932738 0.929259
0.955535 0.930449 0.927138
0.95349 0.930526 0.92871
0.691234 0.933867 0.92134
0.671748 0.938003 0.926299
0.658274 0.93785 0.925277
0.631022 0.937423 0.921447
0.705684 0.938674 0.923247
0.866133 0.945998 0.935943
0.93019 0.950942 0.941787
0.960159 0.951827 0.935363
0.964202 0.952193 0.940612
0.703456 0.93608 0.926268
0.698161 0.938338 0.929564
0.695628 0.938659 0.929961
0.685817 0.938476 0.927993
0.718593 0.939116 0.92842
0.869947 0.946365 0.939284
0.929564 0.95169 0.945678
0.949722 0.952697 0.942565
0.960479 0.954086 0.940093
0.535592 0.149416 0.762448
0.596002 0.188724 0.81355
0.649012 0.215778 0.84419
0.719905 0.232609 0.856855
0.811917 0.226795 0.825833
0.753796 0.159197 0.753796
0.732616 0.141115 0.732616
0.729503 0.138659 0.729503
0.727123 0.136736 0.726955
0.450385 0.110689 0.702113
0.541329 0.15964 0.776165
0.61442 0.200137 0.826444
0.688014 0.225406 0.852949
0.833844 0.26215 0.860441
0.800732 0.203723 0.800732
0.738003 0.145403 0.738003
0.735668 0.143389 0.735668
0.733639 0.141833 0.733608
0.385626 0.0940566 0.669474
0.440711 0.110872 0.700359
0.523232 0.151812 0.763989
0.63679 0.210941 0.838972
0.794079 0.250858 0.860563
0.850324 0.258824 0.850324
0.74638 0.152621 0.74638
0.737392 0.144945 0.737392
0.735027 0.142901 0.734966
0.209171 0.18761 0.718471
0.305653 0.204013 0.762676
0.420905 0.202579 0.788952
0.509056 0.200046 0.80827
0.683207 0.213291 0.838575
0.8365 0.242161 0.8365
0.738521 0.145815 0.738521
0.732357 0.140902 0.732357
0.729549 0.138689 0.729549
0.111879 0.603784 0.811521
0.11487 0.605966 0.818723
0.126482 0.600595 0.830564
0.1897 0.595514 0.867018
0.500389 0.58497 0.920058
0.893034 0.558129 0.943923
0.941207 0.509392 0.941115
0.936004 0.440391 0.934676
0.932052 0.416358 0.931975
0.250263 0.844083 0.88452
0.256092 0.842115 0.892302
0.264622 0.837278 0.899931
0.275074 0.825711 0.908644
0.401602 0.822812 0.934081
0.745022 0.813031 0.918273
0.94197 0.802655 0.944183
0.944137 0.78291 0.941833
0.944137 0.78436 0.939452
0.466361 0.92874 0.918654
0.453986 0.928817 0.920806
0.43714 0.926375 0.920897
0.406546 0.921874 0.91986
0.478599 0.919188 0.924392
0.777279 0.921263 0.933486
0.916411 0.925292 0.940993
0.950774 0.924056 0.941604
0.950332 0.922728 0.941131
0.686976 0.938262 0.930953
0.680385 0.938628 0.931472
0.667369 0.938369 0.930602
0.639094 0.937926 0.928145
0.645792 0.937942 0.926833
0.83975 0.943358 0.937789
0.93077 0.949355 0.94725
0.952193 0.9523 0.951858
0.956405 0.952132 0.951354
0.726879 0.939361 0.934569
0.728252 0.939773 0.935363
0.728328 0.939773 0.935424
0.722423 0.939483 0.934386
0.723461 0.939498 0.933639
0.876173 0.947005 0.943938
0.938293 0.952941 0.951156
0.952285 0.955673 0.954208
0.956451 0.956558 0.953857
0.630167 0.210437 0.838315
0.632547 0.211215 0.839246
0.648844 0.215717 0.844114
0.703288 0.228992 0.855116
0.834455 0.262257 0.860319
0.859281 0.269673 0.859281
0.803265 0.205951 0.803265
0.803265 0.205951 0.803265
0.79443 0.196948 0.79443
0.611109 0.204929 0.831785
0.613306 0.2056 0.832456
0.628412 0.209964 0.837736
0.674586 0.222354 0.850462
0.809506 0.254963 0.860548
0.861448 0.272389 0.861448
0.803265 0.205951 0.803265
0.803265 0.205951 0.803265
0.803265 0.205951 0.803265
0.596368 0.200275 0.825711
0.596368 0.200275 0.825711
0.596399 0.200275 0.825727
0.628153 0.209888 0.837644
0.763027 0.242817 0.859709
0.864088 0.275502 0.864088
0.803265 0.205951 0.803265
0.803265 0.205951 0.803265
0.803265 0.205951 0.803265
0.551705 0.277852 0.880323
0.615228 0.315068 0.907408
0.633982 0.294759 0.901411
0.619425 0.243137 0.866316
0.679347 0.223804 0.851865
0.856321 0.270024 0.860914
0.822034 0.225803 0.822034
0.803265 0.205951 0.803265
0.803265 0.205951 0.803265
0.261738 0.650538 0.9028
0.329412 0.657664 0.91281
0.429465 0.655055 0.913848
0.526314 0.634852 0.916793
0.597604 0.582498 0.926894
0.864698 0.539147 0.943801
0.940627 0.501289 0.940627
0.936889 0.449943 0.936889
0.930648 0.409842 0.930648
0.401511 0.870115 0.939269
0.424826 0.86804 0.939696
0.443885 0.862043 0.939406
0.459678 0.848524 0.937606
0.50164 0.820111 0.931746
0.730846 0.800397 0.921111
0.934539 0.788296 0.944457
0.944045 0.765545 0.944045
0.944091 0.742718 0.944091
0.559731 0.929534 0.933776
0.566201 0.928252 0.934981
0.565042 0.926162 0.936141
0.562448 0.92195 0.937301
0.572808 0.914046 0.938567
0.751019 0.915496 0.939605
0.895125 0.918441 0.939605
0.947143 0.918776 0.947143
0.946853 0.913909 0.946853
0.710643 0.939544 0.936797
0.706615 0.939391 0.936858
0.697276 0.939132 0.936522
0.680644 0.938857 0.935912
0.65922 0.937926 0.935241
0.795972 0.940276 0.940414
0.915511 0.946883 0.948913
0.94876 0.950469 0.952621
0.954009 0.951171 0.953841
0.758968 0.940932 0.939406
0.761379 0.941085 0.939773
0.762173 0.941131 0.93991
0.758663 0.940948 0.939422
0.751125 0.940597 0.938598
0.848417 0.945251 0.943954
0.93164 0.952132 0.951354
0.952758 0.95581 0.955566
0.95671 0.956664 0.956802
