bundles/resolve-cinematic-luts/Phantom Luts/Ursa G2 Phntm Film LUTs - V1/Gen5/White Balance Offset (+Magenta Boost)/Ursa Eastman Gen5-Legacy WBO.cube
TITLE "Generated by Resolve"
LUT_3D_SIZE 33
0.0390021 0.0390021 0.0390021
0.0390021 0.0390021 0.0390021
0.0390021 0.0390021 0.0390021
0.0414588 0.0390021 0.0390021
0.0454719 0.0390021 0.0390021
0.051606 0.0390021 0.0396124
0.0623178 0.0390021 0.0415961
0.076585 0.0390021 0.043595
0.095201 0.0390021 0.0456703
0.119005 0.0390021 0.0469825
0.149645 0.0390021 0.0474708
0.189197 0.0390021 0.0473945
0.234257 0.0402533 0.0438544
0.276905 0.0420996 0.0413367
0.318196 0.0426184 0.0399329
0.357076 0.0423743 0.039353
0.393103 0.0445716 0.0397498
0.426719 0.0494392 0.0413367
0.457969 0.0560922 0.0430304
0.487007 0.0650339 0.0453651
0.508034 0.0737926 0.047837
0.520729 0.0794385 0.0496834
0.52256 0.0789197 0.0504311
0.523186 0.0773938 0.0508431
0.525307 0.0766613 0.0523842
0.529458 0.0763409 0.0558938
0.534829 0.0771191 0.061326
0.535866 0.0771496 0.0632181
0.534874 0.0774548 0.0631723
0.531334 0.0785229 0.0629435
0.526467 0.0800031 0.0626078
0.516915 0.0828717 0.0619974
0.506539 0.0859541 0.0614176
0.0390021 0.0390021 0.0390021
0.0390021 0.0390021 0.0390021
0.0390021 0.0390021 0.0390021
0.0393072 0.0390021 0.0390021
0.0435035 0.0390021 0.0390021
0.0485847 0.0390021 0.0390021
0.0586557 0.0390021 0.0405585
0.0737011 0.0390021 0.0428016
0.0927749 0.0390021 0.0455024
0.117113 0.0390021 0.0468147
0.14757 0.0390021 0.0474708
0.18645 0.0390021 0.0475776
0.231693 0.0405432 0.043946
0.275563 0.0422675 0.0412299
0.317067 0.0428016 0.0399329
0.356207 0.0426032 0.039353
0.392782 0.0447852 0.0398108
0.426581 0.0497444 0.0413214
0.45745 0.0563211 0.0429999
0.48658 0.0652018 0.0453193
0.507591 0.0740826 0.047776
0.519707 0.0794995 0.0495766
0.52192 0.0791485 0.0504005
0.522438 0.0776226 0.0508278
0.524681 0.0769055 0.052369
0.528756 0.076524 0.0557259
0.534356 0.0773022 0.0614633
0.535256 0.0773327 0.0632029
0.534478 0.0775616 0.0631418
0.531121 0.078584 0.0629282
0.526421 0.0800183 0.0625925
0.516899 0.0828717 0.0619974
0.506493 0.0859693 0.0614176
0.0390021 0.0390021 0.0390021
0.0390021 0.0390021 0.0390021
0.0390021 0.0390021 0.0390021
0.0390021 0.0390021 0.0390021
0.0429847 0.0390021 0.0390021
0.0471962 0.0390021 0.0392462
0.0552224 0.0390021 0.0410773
0.0686961 0.0390021 0.0429084
0.0876631 0.0390021 0.0440375
0.111299 0.0390021 0.0446784
0.142351 0.0390021 0.0466773
0.182589 0.0390021 0.0472267
0.228901 0.0408331 0.0438697
0.274769 0.0424964 0.0411078
0.317143 0.0431525 0.0398413
0.356634 0.0427558 0.0391699
0.393973 0.045182 0.0399023
0.42707 0.050309 0.0412909
0.457862 0.056733 0.0427558
0.487434 0.0659342 0.0453803
0.507744 0.074876 0.0478523
0.518929 0.0795605 0.0494392
0.521401 0.0793164 0.0503548
0.521737 0.0777142 0.0508278
0.524208 0.0770733 0.052491
0.528267 0.0767681 0.0558633
0.534142 0.0774701 0.0619059
0.534783 0.0774701 0.0631723
0.53402 0.0776989 0.0631418
0.530846 0.0786603 0.0629129
0.526329 0.0800336 0.0625772
0.516823 0.0829023 0.0619821
0.506386 0.0860151 0.0614176
0.0433204 0.0390021 0.0398871
0.0420996 0.0390021 0.0397955
0.0409247 0.0390021 0.0390021
0.0428168 0.0390021 0.0395209
0.0467994 0.0390021 0.0411231
0.0505379 0.0390021 0.0422217
0.0573129 0.0390021 0.0436408
0.0697642 0.0390021 0.0455329
0.0866407 0.0390021 0.0463874
0.110826 0.0390021 0.0464027
0.14081 0.0390021 0.0457465
0.179767 0.0390021 0.0449378
0.226093 0.0413977 0.0420539
0.271305 0.04271 0.0399786
0.313802 0.0436561 0.0393378
0.354498 0.0433356 0.0390021
0.393149 0.0455787 0.0397955
0.427024 0.0507362 0.0410773
0.458518 0.0574044 0.0427253
0.48835 0.0667277 0.0454261
0.507652 0.0756847 0.0476539
0.5178 0.0797284 0.0493324
0.520562 0.0794537 0.0502785
0.521035 0.077821 0.0507515
0.523537 0.0772106 0.0525826
0.527749 0.0770275 0.0560616
0.533974 0.0776684 0.0625162
0.534081 0.0776837 0.0631418
0.533562 0.0778515 0.0631113
0.530556 0.0787518 0.0629129
0.526238 0.0800641 0.0625772
0.516777 0.0829175 0.0619821
0.50631 0.0860304 0.0614176
0.0473793 0.0399481 0.0446326
0.0458228 0.0401312 0.0448005
0.044892 0.0395819 0.0439002
0.0465248 0.0398718 0.0436103
0.0495003 0.0412757 0.0438087
0.0538796 0.0424353 0.0447547
0.0616312 0.0433356 0.0464942
0.0736095 0.0439918 0.0482338
0.0900282 0.0444343 0.0495918
0.111406 0.0439307 0.0496223
0.141817 0.0440223 0.0485847
0.182116 0.0433661 0.044831
0.226932 0.0433051 0.0399481
0.270542 0.0440223 0.0390021
0.312657 0.0449226 0.0390021
0.351949 0.0446326 0.0390021
0.389654 0.0461891 0.0390021
0.422583 0.0513161 0.0399786
0.454551 0.0579232 0.0419013
0.484459 0.0671702 0.044831
0.505821 0.0766766 0.0472419
0.515602 0.0800336 0.049073
0.519265 0.0799115 0.0500954
0.519905 0.0782635 0.0506142
0.521706 0.0771801 0.0521401
0.526925 0.0772869 0.0558328
0.53341 0.0778668 0.062623
0.533425 0.0778821 0.0630045
0.533089 0.0779889 0.0630198
0.530236 0.0788434 0.0629129
0.526131 0.0800946 0.0625467
0.516701 0.0829328 0.0619669
0.506203 0.0860609 0.061387
0.0512551 0.0488441 0.0496681
0.0497139 0.0490272 0.0498207
0.048661 0.0485847 0.0491798
0.0490883 0.0482643 0.0480354
0.0522927 0.0496376 0.048249
0.0565347 0.0516213 0.0490272
0.0658122 0.0527504 0.0498665
0.0793164 0.0526284 0.0514076
0.0964218 0.0521553 0.0535897
0.116213 0.0517433 0.0535286
0.14612 0.051545 0.0521248
0.183597 0.0505989 0.0472114
0.22771 0.0489509 0.0401617
0.270314 0.047715 0.0390021
0.310246 0.047837 0.0390021
0.34786 0.0473182 0.0390021
0.383932 0.0483406 0.0390021
0.416831 0.0522011 0.0390021
0.449516 0.0602731 0.0397498
0.480278 0.0703746 0.0441444
0.504036 0.0793164 0.0471656
0.511849 0.081529 0.0486763
0.51545 0.08159 0.0496223
0.516411 0.0799573 0.0500954
0.517571 0.0781567 0.0510109
0.521065 0.0778973 0.0535286
0.526421 0.0785534 0.0583658
0.528481 0.0789197 0.0607156
0.528786 0.0789197 0.0609751
0.527291 0.0794232 0.0610971
0.523659 0.0805524 0.0610361
0.51516 0.0831311 0.0607919
0.504921 0.086183 0.0602884
0.0567636 0.0629892 0.056733
0.0550088 0.0630961 0.0567788
0.0541085 0.0628977 0.0566262
0.0539101 0.0621347 0.0555734
0.0552834 0.0625467 0.0543374
0.0612192 0.0650645 0.055314
0.0677195 0.0672618 0.0556649
0.083299 0.0680858 0.055787
0.102419 0.0655528 0.0576333
0.123919 0.0630198 0.0582284
0.153674 0.0606699 0.0563211
0.19176 0.0587778 0.0506752
0.236652 0.0582132 0.0439155
0.279072 0.0547341 0.0390021
0.31841 0.0528267 0.0390021
0.352743 0.0517433 0.0390021
0.384741 0.0514076 0.0390021
0.413993 0.0525978 0.0390021
0.44567 0.0606699 0.0390326
0.477226 0.0707561 0.0430915
0.505455 0.0809186 0.0471504
0.512154 0.0828717 0.0485847
0.515175 0.0825208 0.0493782
0.515465 0.0812238 0.0497749
0.516014 0.0796063 0.0502327
0.516732 0.0777142 0.0509346
0.519173 0.0778363 0.0527352
0.52047 0.0782788 0.0537118
0.520272 0.0782177 0.0536049
0.51928 0.0785077 0.0535592
0.517693 0.0792096 0.053727
0.513451 0.0809796 0.0539712
0.508782 0.0829175 0.0546426
0.0647593 0.0779431 0.0627604
0.0625925 0.0782788 0.0629282
0.0603342 0.0787976 0.0634623
0.0590219 0.0783246 0.0629892
0.0588083 0.0783246 0.0613107
0.0617533 0.0795148 0.0597086
0.0704814 0.0819104 0.0612192
0.0814069 0.0842908 0.0605173
0.102937 0.083772 0.0586862
0.130068 0.0801099 0.0610971
0.163806 0.0745708 0.0607462
0.20911 0.0702831 0.0559091
0.252659 0.069398 0.0499733
0.295659 0.0693523 0.0441444
0.335592 0.0658579 0.040116
0.369192 0.0614786 0.0390021
0.399313 0.0592966 0.0390021
0.427832 0.0604105 0.0390021
0.458289 0.0672313 0.0404364
0.482094 0.0752575 0.0431678
0.499977 0.0827192 0.0457771
0.510674 0.0856489 0.047776
0.512612 0.0852674 0.0482948
0.513817 0.0836957 0.0490425
0.514443 0.0817884 0.0496376
0.514824 0.0802625 0.0500801
0.515206 0.0788891 0.0506142
0.515633 0.0786755 0.0509804
0.515663 0.0785077 0.0510109
0.514748 0.0786297 0.0509804
0.513024 0.0789502 0.0508583
0.508461 0.0799878 0.0505074
0.502953 0.0815137 0.0501411
0.069337 0.0944839 0.0688487
0.0669718 0.0948806 0.0688945
0.0642863 0.0955367 0.0694896
0.0630045 0.0954604 0.069276
0.0624247 0.095079 0.0679637
0.0632334 0.0957961 0.0658427
0.0676585 0.0976577 0.064622
0.0815137 0.100923 0.066743
0.0982071 0.105013 0.0658274
0.128985 0.104814 0.0635996
0.169268 0.101564 0.0665904
0.223194 0.0915084 0.0652781
0.276783 0.0876936 0.0591745
0.320272 0.0881819 0.0533608
0.359503 0.0900282 0.0493019
0.394568 0.0910964 0.0456092
0.423667 0.0863661 0.0437018
0.448127 0.0810407 0.0414893
0.47396 0.080293 0.042237
0.494575 0.085069 0.0445411
0.507851 0.0890669 0.0463874
0.512001 0.0905013 0.0471809
0.511284 0.0895094 0.0474098
0.510506 0.0886091 0.0472267
0.511955 0.0854963 0.0483406
0.513024 0.0833143 0.0491951
0.513497 0.0822766 0.0495766
0.513619 0.0816358 0.0497139
0.513634 0.0815137 0.0497444
0.512871 0.0816205 0.0497444
0.511513 0.0819562 0.0496376
0.507179 0.0831311 0.0491798
0.501732 0.084596 0.048661
0.076173 0.118029 0.0775464
0.0732586 0.118761 0.0771344
0.0701762 0.119631 0.0777447
0.0688334 0.120058 0.0781262
0.0682841 0.11957 0.0774243
0.0685435 0.1196 0.0754864
0.0702678 0.120592 0.0727245
0.0795911 0.123873 0.0728008
0.0990768 0.131441 0.076112
0.123583 0.138659 0.0758831
0.17142 0.138949 0.0734875
0.229953 0.134401 0.0756542
0.297444 0.122957 0.075288
0.355093 0.119539 0.0711376
0.402258 0.120684 0.0660258
0.439948 0.12459 0.0638895
0.471595 0.127275 0.0622721
0.497551 0.128237 0.0607919
0.517037 0.125658 0.059266
0.522087 0.115236 0.0523079
0.523278 0.108476 0.0492714
0.52047 0.101976 0.0483711
0.518044 0.099855 0.0482032
0.512764 0.0932174 0.047303
0.511208 0.0914931 0.0469978
0.510597 0.088014 0.0476234
0.510872 0.0857404 0.0483711
0.511147 0.0854658 0.0485237
0.511193 0.0854047 0.0485542
0.510643 0.0854963 0.0485542
0.509514 0.0857557 0.0485237
0.505669 0.0868238 0.0483101
0.500618 0.0882582 0.0478676
0.083711 0.152987 0.0884871
0.0806897 0.154147 0.0876631
0.0773938 0.155642 0.0885023
0.0756695 0.156237 0.088838
0.0749523 0.155932 0.0885023
0.0749065 0.154498 0.0864424
0.0754711 0.156832 0.0839551
0.0785992 0.159503 0.0808881
0.0927138 0.166369 0.0825055
0.123964 0.182391 0.0894789
0.164508 0.198413 0.0926223
0.239277 0.201099 0.0899977
0.314977 0.201022 0.0923171
0.387243 0.187137 0.0977951
0.446799 0.184161 0.0980545
0.499397 0.175967 0.0929427
0.536904 0.176425 0.0915847
0.569162 0.178027 0.0927138
0.594949 0.179278 0.0948653
0.604318 0.177707 0.0948348
0.600671 0.172015 0.0910353
0.589944 0.165103 0.085771
0.569467 0.151644 0.0767376
0.552987 0.137407 0.066331
0.529229 0.114031 0.0524605
0.52401 0.10869 0.0510414
0.511482 0.0927443 0.0471809
0.511131 0.0914473 0.0473182
0.511055 0.0911879 0.0473487
0.510185 0.0907912 0.0472877
0.508751 0.0905013 0.047303
0.505089 0.0915847 0.0469062
0.500267 0.0929274 0.0465248
0.0959487 0.205798 0.105119
0.0927291 0.208179 0.105318
0.0890364 0.210239 0.105699
0.0867628 0.211353 0.106096
0.0859998 0.212192 0.106645
0.085832 0.210864 0.104906
0.0864881 0.211185 0.102007
0.087892 0.215946 0.0986191
0.0950484 0.221775 0.0961929
0.121279 0.237324 0.103426
0.171603 0.263432 0.116136
0.238697 0.28629 0.119921
0.331411 0.290333 0.114672
0.414801 0.288823 0.110765
0.479377 0.275593 0.110414
0.533608 0.260624 0.11754
0.58819 0.247288 0.115541
0.632563 0.243351 0.116716
0.666209 0.242145 0.121065
0.682078 0.241856 0.124422
0.678203 0.236393 0.123323
0.672068 0.2309 0.122072
0.66569 0.225498 0.119661
0.653941 0.215335 0.116747
0.639521 0.203281 0.111116
0.601724 0.176837 0.0939956
0.571328 0.156725 0.082063
0.556023 0.144228 0.0724193
0.560159 0.147753 0.0760357
0.561837 0.14902 0.0774395
0.559411 0.147494 0.0756542
0.55285 0.144427 0.0720684
0.546258 0.14374 0.0701152
0.118517 0.28246 0.135393
0.113695 0.284688 0.134829
0.109392 0.288029 0.135836
0.107042 0.289418 0.136324
0.105623 0.290455 0.136812
0.10576 0.29073 0.136294
0.106218 0.289281 0.133272
0.107836 0.293172 0.130694
0.108537 0.297581 0.123033
0.123323 0.307027 0.120562
0.162509 0.327199 0.12958
0.235401 0.355962 0.141405
0.320867 0.381521 0.139879
0.415061 0.379889 0.129107
0.498833 0.373892 0.120638
0.559991 0.363149 0.115129
0.609232 0.347555 0.119066
0.660822 0.327245 0.134264
0.704417 0.320409 0.137926
0.734127 0.317891 0.145174
0.737926 0.31249 0.144579
0.73547 0.305058 0.142382
0.72961 0.296635 0.139513
0.725124 0.290105 0.137346
0.718624 0.281575 0.135348
0.710369 0.271809 0.132677
0.687877 0.248234 0.126299
0.677882 0.238117 0.123995
0.674998 0.235523 0.122972
0.672816 0.233295 0.122301
0.670924 0.231434 0.12221
0.666468 0.229953 0.121691
0.658701 0.228443 0.120363
0.128466 0.359533 0.159808
0.125078 0.361669 0.159426
0.121126 0.365118 0.15935
0.118517 0.366735 0.160616
0.116503 0.368307 0.162036
0.115587 0.368994 0.162402
0.115511 0.368505 0.160601
0.116594 0.367391 0.156298
0.117861 0.373678 0.150866
0.123278 0.377676 0.138293
0.146319 0.389578 0.135637
0.205127 0.410788 0.144121
0.307866 0.444297 0.153506
0.395285 0.466438 0.14725
0.48513 0.459449 0.138766
0.566415 0.450797 0.131868
0.62623 0.445319 0.127108
0.672511 0.434287 0.132662
0.712825 0.41944 0.144518
0.745861 0.407797 0.158038
0.765698 0.405692 0.167941
0.767391 0.395621 0.169665
0.766323 0.385229 0.169146
0.762127 0.371069 0.165103
0.758541 0.360159 0.161135
0.754589 0.349798 0.158053
0.749889 0.339406 0.153353
0.747219 0.332509 0.151171
0.74519 0.328893 0.149828
0.744427 0.327016 0.149142
0.743679 0.324529 0.148272
0.739895 0.322835 0.147494
0.734707 0.322759 0.147387
0.127977 0.430976 0.182101
0.125811 0.432227 0.181216
0.122393 0.434577 0.181338
0.120439 0.437201 0.182574
0.118776 0.438331 0.184588
0.117922 0.43888 0.185443
0.117662 0.438666 0.184482
0.118517 0.437736 0.179416
0.119722 0.439414 0.172717
0.122484 0.444968 0.163119
0.134783 0.448631 0.147936
0.169696 0.460578 0.145098
0.262455 0.484123 0.153475
0.378683 0.522667 0.165652
0.459724 0.540902 0.160143
0.541131 0.531762 0.155489
0.621347 0.523323 0.152514
0.680964 0.521248 0.149783
0.727703 0.514733 0.154864
0.760311 0.507576 0.164248
0.780789 0.504768 0.170886
0.788556 0.502373 0.174517
0.789502 0.49604 0.175326
0.78706 0.488533 0.174182
0.783047 0.471519 0.172961
0.778698 0.455177 0.171908
0.775158 0.436622 0.170871
0.772946 0.423545 0.170947
0.77171 0.417502 0.170474
0.77171 0.415305 0.17055
0.771527 0.413245 0.170626
0.76846 0.411307 0.170535
0.764096 0.409781 0.171176
0.13135 0.494148 0.212055
0.130404 0.495323 0.21149
0.128878 0.497368 0.212879
0.128206 0.499702 0.213107
0.127123 0.50071 0.215503
0.126589 0.501213 0.216663
0.126421 0.501457 0.21706
0.127108 0.500511 0.212848
0.128908 0.499702 0.204227
0.132586 0.50277 0.194156
0.138354 0.506264 0.179156
0.161425 0.510521 0.16289
0.224491 0.523827 0.161028
0.336583 0.557076 0.172885
0.448859 0.595483 0.182696
0.517555 0.609049 0.178912
0.590249 0.601953 0.178485
0.669779 0.596826 0.179858
0.728252 0.598993 0.180652
0.771084 0.595666 0.184543
0.797498 0.594553 0.188922
0.811337 0.593851 0.191501
0.815137 0.593347 0.193027
0.814771 0.590204 0.19263
0.813993 0.586496 0.191089
0.81062 0.573404 0.18761
0.806088 0.557733 0.183642
0.799023 0.534356 0.180301
0.796704 0.526925 0.179416
0.796643 0.526009 0.179614
0.796017 0.5243 0.179553
0.794079 0.521996 0.179706
0.789624 0.520088 0.179873
0.142626 0.553048 0.24773
0.142809 0.554131 0.247868
0.142504 0.555962 0.250004
0.142977 0.558236 0.250767
0.142321 0.559533 0.252827
0.141741 0.559808 0.254124
0.141573 0.560204 0.255222
0.14197 0.559625 0.252872
0.143297 0.557015 0.244953
0.146227 0.557015 0.233158
0.153033 0.56051 0.217517
0.16492 0.562493 0.194736
0.20528 0.568154 0.183597
0.293614 0.587457 0.184268
0.412543 0.63064 0.199222
0.512276 0.664179 0.208499
0.571618 0.677241 0.206958
0.6392 0.675868 0.209171
0.713832 0.676234 0.213764
0.764263 0.674556 0.219043
0.798795 0.675013 0.222324
0.818067 0.679103 0.225422
0.830213 0.678614 0.226215
0.833112 0.678065 0.225986
0.83389 0.676555 0.224994
0.833982 0.672969 0.222614
0.832563 0.663996 0.218585
0.830167 0.65182 0.212818
0.827939 0.642771 0.209155
0.827314 0.638407 0.207446
0.826993 0.63624 0.206378
0.825269 0.633433 0.205859
0.822354 0.631403 0.205936
0.160128 0.60972 0.284337
0.160647 0.609918 0.284276
0.161059 0.611444 0.286381
0.162325 0.613657 0.287068
0.163058 0.615457 0.289143
0.162707 0.615839 0.290486
0.162478 0.615915 0.291371
0.162478 0.615869 0.291341
0.163363 0.613901 0.284825
0.165698 0.611872 0.274128
0.171389 0.613672 0.259922
0.183398 0.615244 0.238056
0.210636 0.61677 0.212879
0.273381 0.625071 0.207645
0.371237 0.65481 0.216556
0.484321 0.700847 0.233951
0.570993 0.729976 0.242985
0.623026 0.742077 0.242603
0.68687 0.748028 0.244938
0.749432 0.744701 0.251789
0.791409 0.739422 0.258991
0.815747 0.745663 0.262455
0.831373 0.746761 0.264149
0.8383 0.744762 0.264073
0.838865 0.743374 0.263447
0.838941 0.742779 0.262852
0.838849 0.740093 0.260884
0.838544 0.733364 0.25771
0.838148 0.729931 0.254795
0.837552 0.726162 0.252369
0.837385 0.724514 0.251804
0.837125 0.722881 0.251164
0.836637 0.721859 0.250401
0.177035 0.654429 0.319203
0.177783 0.653742 0.317128
0.178744 0.654246 0.318044
0.179767 0.654902 0.317693
0.180819 0.655909 0.318807
0.181079 0.656153 0.319692
0.180819 0.656123 0.320394
0.180728 0.656001 0.320302
0.180941 0.654932 0.317266
0.182849 0.651652 0.306355
0.186603 0.650431 0.292638
0.195422 0.650217 0.272358
0.218524 0.649592 0.246159
0.271214 0.654185 0.228977
0.353994 0.674372 0.232685
0.455512 0.714244 0.249836
0.547997 0.753277 0.266514
0.619043 0.776379 0.272526
0.665858 0.788113 0.272374
0.726146 0.794568 0.276905
0.776303 0.791852 0.283009
0.808286 0.784634 0.288457
0.828809 0.784756 0.29073
0.842298 0.785657 0.291707
0.84477 0.784482 0.291234
0.844739 0.783795 0.290654
0.844785 0.783001 0.289754
0.844755 0.78088 0.288014
0.844694 0.778576 0.286046
0.844465 0.776974 0.284428
0.844419 0.776059 0.283787
0.844038 0.774655 0.282979
0.844099 0.773602 0.282536
0.189441 0.683055 0.346502
0.190188 0.681804 0.343557
0.190906 0.680629 0.342702
0.191546 0.679377 0.340551
0.192508 0.678538 0.339025
0.192782 0.67863 0.339223
0.192615 0.678614 0.339803
0.19266 0.678645 0.339788
0.192813 0.678141 0.338964
0.193881 0.675181 0.32987
0.196109 0.671855 0.315373
0.202106 0.668162 0.294713
0.217288 0.665553 0.265446
0.265919 0.668132 0.240894
0.350896 0.686229 0.241688
0.440833 0.718944 0.256809
0.537041 0.760006 0.276448
0.605982 0.785901 0.286488
0.660166 0.801373 0.288777
0.706981 0.810864 0.29041
0.756359 0.814466 0.295125
0.798383 0.8121 0.299687
0.820645 0.80502 0.304067
0.835966 0.804685 0.307362
0.846311 0.805371 0.308415
0.846281 0.803906 0.30721
0.84651 0.803128 0.306401
0.846815 0.802533 0.30576
0.846845 0.801465 0.304723
0.846784 0.800748 0.303914
0.846647 0.800183 0.303227
0.84654 0.799573 0.302525
0.846555 0.799039 0.302022
0.195026 0.697429 0.365347
0.195254 0.695445 0.361486
0.195468 0.693263 0.359106
0.195895 0.690837 0.35555
0.196567 0.688609 0.352209
0.196506 0.687633 0.350271
0.196445 0.687724 0.35137
0.196445 0.687694 0.351247
0.196445 0.687572 0.350835
0.197284 0.685344 0.34374
0.199268 0.680995 0.329397
0.203708 0.676143 0.308553
0.215869 0.671031 0.278264
0.254414 0.671794 0.24828
0.346746 0.689021 0.245563
0.439429 0.721263 0.259663
0.527947 0.759441 0.278294
0.595651 0.785733 0.290517
0.645228 0.801389 0.295323
0.68957 0.81207 0.295506
0.738766 0.816953 0.299428
0.780621 0.813611 0.302007
0.807355 0.804501 0.305959
0.828748 0.805081 0.30869
0.840406 0.80589 0.310582
0.844724 0.806622 0.312245
0.844938 0.806287 0.311345
0.845228 0.806043 0.310674
0.845502 0.805829 0.309987
0.845762 0.805737 0.309697
0.845869 0.8056 0.309407
0.84593 0.805432 0.309163
0.845991 0.805325 0.30898
0.194812 0.702037 0.376913
0.195041 0.699184 0.371664
0.195712 0.696666 0.36788
0.195605 0.693492 0.361532
0.196201 0.690196 0.354543
0.196796 0.688746 0.350225
0.196918 0.688579 0.348806
0.197055 0.688426 0.34728
0.197131 0.688273 0.346548
0.197772 0.686915 0.341436
0.199619 0.682475 0.327535
0.203479 0.677348 0.307668
0.215366 0.671748 0.277409
0.252461 0.671916 0.247944
0.344106 0.688273 0.239994
0.450065 0.726116 0.257328
0.536126 0.762951 0.275319
0.596872 0.786068 0.285374
0.643793 0.800626 0.290318
0.683131 0.810361 0.291661
0.728405 0.81622 0.293553
0.773129 0.817121 0.297215
0.803738 0.808392 0.299306
0.827436 0.803464 0.302388
0.843595 0.804425 0.304707
0.850355 0.805417 0.306584
0.850584 0.805493 0.306813
0.850065 0.805692 0.307546
0.848585 0.806058 0.308675
0.846296 0.806638 0.311635
0.844892 0.806882 0.3131
0.84416 0.807004 0.313771
0.844251 0.806958 0.313588
0.19501 0.705425 0.386511
0.194873 0.702373 0.380148
0.195026 0.698894 0.37435
0.195636 0.69543 0.367056
0.195926 0.691676 0.358526
0.196536 0.689158 0.351644
0.196628 0.689052 0.350515
0.19675 0.688899 0.348867
0.196811 0.688838 0.348135
0.197406 0.687572 0.343923
0.198825 0.683467 0.331106
0.202564 0.67837 0.31191
0.214313 0.67274 0.282734
0.243244 0.671229 0.252399
0.334524 0.686091 0.241566
0.444709 0.723613 0.258198
0.532982 0.761654 0.276493
0.594339 0.785168 0.286213
0.639475 0.799649 0.290898
0.676661 0.809018 0.292988
0.713497 0.814923 0.295079
0.74963 0.817304 0.300282
0.792279 0.815137 0.302296
0.817151 0.806607 0.305562
0.835462 0.805051 0.307759
0.846403 0.805753 0.308248
0.847913 0.805936 0.308293
0.847547 0.806134 0.308858
0.846372 0.806546 0.311086
0.844388 0.807065 0.314168
0.843015 0.807416 0.315618
0.842313 0.807568 0.316075
0.84242 0.807523 0.315969
0.195178 0.707591 0.39321
0.195071 0.704005 0.385748
0.194934 0.700359 0.378134
0.195697 0.696239 0.369558
0.195895 0.691844 0.359106
0.196674 0.688945 0.351034
0.196948 0.688518 0.348745
0.197055 0.688411 0.34728
0.197086 0.688365 0.346792
0.197314 0.687816 0.344793
0.198642 0.684016 0.332586
0.202716 0.678645 0.312535
0.214664 0.673289 0.284886
0.238529 0.670314 0.251316
0.325597 0.683711 0.241901
0.440269 0.721874 0.258656
0.532357 0.761364 0.278325
0.593896 0.784878 0.288212
0.633509 0.798062 0.291783
0.669444 0.807523 0.293431
0.699763 0.813825 0.295216
0.734417 0.816892 0.29929
0.772045 0.814267 0.303334
0.808072 0.8047 0.307622
0.8262 0.805005 0.309972
0.838682 0.806073 0.311559
0.842695 0.806683 0.312581
0.842664 0.806973 0.313619
0.841108 0.80734 0.315145
0.838911 0.807919 0.317494
0.837583 0.808255 0.319463
0.837018 0.808392 0.320363
0.83714 0.808377 0.320272
0.196353 0.708904 0.399893
0.195926 0.704967 0.390799
0.19527 0.700648 0.380606
0.195636 0.695933 0.369543
0.196033 0.690593 0.355856
0.197101 0.687358 0.34551
0.197665 0.686778 0.342931
0.197772 0.686763 0.341787
0.197818 0.686809 0.341054
0.197864 0.686717 0.340826
0.199161 0.683497 0.331106
0.203479 0.67863 0.312337
0.214771 0.673243 0.284504
0.23801 0.670176 0.25066
0.319158 0.682475 0.242359
0.438209 0.720836 0.258686
0.533211 0.761746 0.279744
0.592325 0.78436 0.289967
0.627726 0.79646 0.293111
0.660395 0.805417 0.295003
0.688823 0.811994 0.295369
0.719554 0.815824 0.298024
0.759579 0.815274 0.303563
0.800671 0.807584 0.307332
0.821881 0.804791 0.310201
0.835462 0.806027 0.312062
0.842039 0.806806 0.313268
0.84181 0.807141 0.314397
0.840131 0.807507 0.315831
0.837842 0.808026 0.318151
0.836362 0.808316 0.31989
0.83563 0.808484 0.320897
0.835706 0.808484 0.320851
0.19826 0.708507 0.399756
0.197559 0.704326 0.389929
0.196643 0.699519 0.378363
0.196277 0.694347 0.365576
0.197116 0.688502 0.350149
0.198489 0.68455 0.33695
0.199023 0.683467 0.332494
0.199069 0.683558 0.331853
0.198993 0.683742 0.331884
0.198871 0.684001 0.332387
0.200763 0.681819 0.32488
0.205356 0.677806 0.308644
0.2159 0.67306 0.282872
0.240024 0.670329 0.250431
0.313283 0.681193 0.242359
0.429786 0.717449 0.256931
0.53106 0.760693 0.279377
0.590784 0.78381 0.29041
0.62295 0.795132 0.294591
0.652064 0.803601 0.297017
0.677028 0.809949 0.296513
0.706538 0.814664 0.297642
0.744747 0.816175 0.302739
0.79292 0.81178 0.306798
0.815061 0.806989 0.309789
0.83183 0.806165 0.312764
0.840009 0.806821 0.313832
0.840955 0.807294 0.314946
0.839368 0.807675 0.316258
0.83711 0.808118 0.318746
0.835416 0.808438 0.320577
0.834714 0.80856 0.321447
0.83476 0.808545 0.321401
0.200259 0.707485 0.398001
0.199176 0.703105 0.387182
0.198627 0.697932 0.37525
0.198383 0.692134 0.359838
0.199283 0.685969 0.341711
0.201144 0.681361 0.326162
0.201999 0.679805 0.319677
0.20206 0.679911 0.318822
