bundles/resolve-cinematic-luts/Phantom Luts/Ursa G2 Phntm Film LUTs - V1/Gen5/White Balance Offset (+Magenta Boost)/Ursa Eastman Gen5-Legacy WBO.cube
TITLE "Generated by Resolve"
LUT_3D_SIZE 9
0.0390021 0.0390021 0.0390021
0.0454719 0.0390021 0.0390021
0.095201 0.0390021 0.0456703
0.234257 0.0402533 0.0438544
0.393103 0.0445716 0.0397498
0.508034 0.0737926 0.047837
0.525307 0.0766613 0.0523842
0.534874 0.0774548 0.0631723
0.506539 0.0859541 0.0614176
0.0473793 0.0399481 0.0446326
0.0495003 0.0412757 0.0438087
0.0900282 0.0444343 0.0495918
0.226932 0.0433051 0.0399481
0.389654 0.0461891 0.0390021
0.505821 0.0766766 0.0472419
0.521706 0.0771801 0.0521401
0.533089 0.0779889 0.0630198
0.506203 0.0860609 0.061387
0.069337 0.0944839 0.0688487
0.0624247 0.095079 0.0679637
0.0982071 0.105013 0.0658274
0.276783 0.0876936 0.0591745
0.423667 0.0863661 0.0437018
0.507851 0.0890669 0.0463874
0.511955 0.0854963 0.0483406
0.513634 0.0815137 0.0497444
0.501732 0.084596 0.048661
0.118517 0.28246 0.135393
0.105623 0.290455 0.136812
0.108537 0.297581 0.123033
0.320867 0.381521 0.139879
0.609232 0.347555 0.119066
0.737926 0.31249 0.144579
0.718624 0.281575 0.135348
0.674998 0.235523 0.122972
0.658701 0.228443 0.120363
0.142626 0.553048 0.24773
0.142321 0.559533 0.252827
0.143297 0.557015 0.244953
0.20528 0.568154 0.183597
0.571618 0.677241 0.206958
0.798795 0.675013 0.222324
0.83389 0.676555 0.224994
0.827939 0.642771 0.209155
0.822354 0.631403 0.205936
0.195026 0.697429 0.365347
0.196567 0.688609 0.352209
0.196445 0.687572 0.350835
0.215869 0.671031 0.278264
0.527947 0.759441 0.278294
0.738766 0.816953 0.299428
0.840406 0.80589 0.310582
0.845502 0.805829 0.309987
0.845991 0.805325 0.30898
0.196353 0.708904 0.399893
0.196033 0.690593 0.355856
0.197818 0.686809 0.341054
0.214771 0.673243 0.284504
0.533211 0.761746 0.279744
0.688823 0.811994 0.295369
0.821881 0.804791 0.310201
0.840131 0.807507 0.315831
0.835706 0.808484 0.320851
0.201114 0.710018 0.404639
0.199359 0.686763 0.343984
0.206088 0.677943 0.29868
0.225513 0.671092 0.255238
0.531868 0.761501 0.267918
0.656703 0.803494 0.284611
0.803784 0.806348 0.295964
0.851835 0.805081 0.304738
0.833814 0.808759 0.322271
0.206271 0.715099 0.419165
0.198657 0.691234 0.360281
0.204669 0.678264 0.305592
0.214603 0.674067 0.277653
0.442084 0.723369 0.248753
0.640543 0.799329 0.284886
0.781292 0.815564 0.294011
0.848249 0.805249 0.306645
0.831525 0.809232 0.324453
0.0390021 0.0390021 0.0393072
0.0476539 0.0390021 0.0436561
0.0963455 0.0390021 0.0547341
0.23563 0.0390021 0.0476081
0.387457 0.0504463 0.0434577
0.497169 0.0780499 0.0491951
0.507561 0.0817578 0.0507668
0.516762 0.0827955 0.0612192
0.497047 0.0886549 0.0602579
0.0446479 0.0390021 0.0445411
0.0484169 0.0390021 0.0466316
0.0915236 0.0415808 0.052079
0.226856 0.0445258 0.0447395
0.381949 0.0518959 0.0403143
0.4934 0.0806744 0.0471351
0.505104 0.0823987 0.0510262
0.51519 0.0833448 0.061387
0.497307 0.0886549 0.0606241
0.0665293 0.0894484 0.0737163
0.0615396 0.0911727 0.0701457
0.0973678 0.0994583 0.0645762
0.268818 0.0820935 0.0563211
0.40856 0.0739452 0.0390021
0.499153 0.088777 0.0460059
0.507256 0.0855268 0.048661
0.508431 0.0820478 0.0495766
0.496254 0.0850385 0.0487068
0.109285 0.264927 0.142947
0.10071 0.27216 0.135027
0.107362 0.290455 0.127092
0.314702 0.368429 0.137255
0.610117 0.317998 0.122332
0.725536 0.289952 0.137285
0.701518 0.261646 0.130083
0.647501 0.210376 0.11458
0.628199 0.202976 0.109957
0.135653 0.549569 0.275517
0.133074 0.548089 0.264439
0.139574 0.551766 0.247669
0.188174 0.562081 0.181613
0.567163 0.668193 0.202457
0.802167 0.65861 0.214298
0.830655 0.653223 0.214023
0.819989 0.610269 0.198444
0.813001 0.598718 0.195239
0.195285 0.709346 0.399115
0.193622 0.697963 0.381979
0.196445 0.687236 0.34995
0.208545 0.67332 0.293767
0.503182 0.748959 0.272862
0.736156 0.816754 0.297749
0.841581 0.805066 0.309285
0.845869 0.804822 0.308537
0.846143 0.80383 0.307881
0.201572 0.732464 0.447776
0.199649 0.712398 0.409445
0.197543 0.687312 0.342992
0.206287 0.676966 0.304967
0.500465 0.747753 0.272541
0.681346 0.810468 0.294499
0.819059 0.804364 0.309483
0.84033 0.807462 0.315648
0.836011 0.808469 0.320821
0.209812 0.737316 0.46099
0.203861 0.712139 0.40882
0.206027 0.678096 0.299275
0.215335 0.67393 0.27509
0.48188 0.740307 0.257176
0.649912 0.801724 0.284123
0.7953 0.808713 0.29427
0.852338 0.804974 0.304204
0.834012 0.808713 0.322118
0.211185 0.74136 0.471794
0.206455 0.717342 0.423072
0.203418 0.679988 0.312276
0.207996 0.67689 0.292485
0.384009 0.701137 0.235981
0.632639 0.797116 0.283986
0.765652 0.816876 0.293187
0.847395 0.805097 0.306172
0.831464 0.809247 0.324483
0.0407263 0.0390021 0.0670787
0.0577249 0.0390021 0.0739757
0.105501 0.0411231 0.0791791
0.252644 0.0390021 0.0830396
0.412757 0.0390021 0.0621958
0.518807 0.044892 0.0793927
0.524147 0.0667124 0.0735332
0.517113 0.0793927 0.0623178
0.497719 0.0837415 0.0619974
0.039292 0.0390021 0.0592355
0.0445563 0.0390021 0.0723735
0.0982528 0.0411841 0.0779278
0.247822 0.0390021 0.0729839
0.411292 0.0390021 0.0530556
0.51725 0.0608377 0.0728771
0.519783 0.0764019 0.0689097
0.515892 0.0814527 0.0627756
0.49926 0.0871443 0.0632486
0.0631876 0.0878462 0.0820935
0.0582589 0.0877394 0.0837568
0.1037 0.0930648 0.097673
0.273747 0.0825513 0.0859998
0.431464 0.0745098 0.0565042
0.505577 0.080293 0.0499428
0.508217 0.0844892 0.0489815
0.509178 0.0809491 0.0501717
0.496696 0.0838636 0.049073
0.106477 0.255238 0.166293
0.095964 0.254276 0.159091
0.0975967 0.260609 0.142443
0.330388 0.350484 0.149248
0.614633 0.275578 0.142336
0.711711 0.272282 0.134432
0.689189 0.248783 0.126329
0.615625 0.18645 0.100847
0.596658 0.180285 0.0954757
0.129198 0.557916 0.331197
0.122225 0.551858 0.323171
0.127581 0.540078 0.277821
0.161151 0.542336 0.185672
0.567819 0.648005 0.193698
0.806012 0.625055 0.200961
0.825742 0.632227 0.205554
0.81146 0.578775 0.188968
0.803159 0.564065 0.186343
0.193652 0.73254 0.457755
0.192889 0.721874 0.445457
0.191821 0.698024 0.38938
0.201389 0.676692 0.314488
0.479591 0.738094 0.267079
0.741802 0.815564 0.295857
0.843091 0.803952 0.308186
0.846235 0.803326 0.307195
0.846662 0.802106 0.305928
0.2215 0.767987 0.518547
0.210285 0.751476 0.490623
0.199847 0.716365 0.415473
0.200427 0.682155 0.32639
0.447623 0.724819 0.260105
0.673823 0.808789 0.293797
0.81593 0.803876 0.308873
0.840574 0.807462 0.315633
0.836378 0.808499 0.321096
0.237812 0.777096 0.542062
0.222858 0.757946 0.503014
0.204974 0.715114 0.402686
0.208347 0.676829 0.290776
0.396338 0.70544 0.237263
0.643381 0.800092 0.28394
0.780026 0.813504 0.291341
0.852705 0.804883 0.303792
0.834302 0.808652 0.321874
0.24033 0.779736 0.550881
0.225376 0.760784 0.510475
0.205997 0.719707 0.416083
0.206332 0.677867 0.296468
0.305943 0.679652 0.228458
0.621485 0.793622 0.282963
0.739757 0.816327 0.289357
0.845563 0.804623 0.305287
0.829847 0.809567 0.325994
0.0395514 0.044419 0.149279
0.0605783 0.0458686 0.163821
0.1252 0.0459144 0.182727
0.266117 0.0432288 0.179065
0.433387 0.0542153 0.20885
0.54815 0.0810254 0.251057
0.553811 0.0859388 0.265339
0.554406 0.0883803 0.269749
0.539773 0.0950332 0.274556
0.0390021 0.0444343 0.151369
0.0437171 0.0465705 0.168826
0.105119 0.0470893 0.191546
0.264622 0.0439918 0.181262
0.433234 0.0536202 0.203098
0.542763 0.0751049 0.233097
0.548272 0.0809949 0.24712
0.550027 0.0842756 0.253849
0.537057 0.0917372 0.261967
0.0424506 0.0745403 0.139467
0.0390021 0.0687877 0.154009
0.0693523 0.0589303 0.20032
0.263676 0.0554971 0.191913
0.443778 0.0572519 0.198932
0.548089 0.0728618 0.220935
0.547433 0.0730907 0.226978
0.548196 0.0735332 0.22678
0.539071 0.0785992 0.232425
0.0930495 0.259754 0.214939
0.0847791 0.261509 0.218692
0.0843977 0.261067 0.22182
0.351415 0.330358 0.335637
0.611643 0.28661 0.31397
0.742016 0.250828 0.27364
0.703197 0.218097 0.225147
0.608576 0.162921 0.126528
0.592432 0.155444 0.11986
0.130663 0.570947 0.39884
0.127291 0.568017 0.403403
0.126665 0.560708 0.384176
0.180606 0.558389 0.353124
0.589441 0.624277 0.320882
0.801633 0.519448 0.314488
0.807172 0.52462 0.269154
0.805905 0.557839 0.186389
0.797604 0.547951 0.183429
0.20676 0.752697 0.528618
0.205249 0.74725 0.52752
0.198795 0.736721 0.500664
0.192264 0.710353 0.436057
0.388388 0.701274 0.331807
0.752743 0.809232 0.338796
0.845182 0.795819 0.336538
0.845594 0.799649 0.305852
0.845914 0.799832 0.303807
0.246326 0.802686 0.605676
0.242725 0.795926 0.593774
0.230686 0.780499 0.555795
0.207721 0.745953 0.475456
0.332677 0.702983 0.357351
0.65977 0.808469 0.351415
0.832807 0.808408 0.329107
0.842664 0.807416 0.315648
0.836576 0.80853 0.321279
0.318578 0.824002 0.659785
0.286183 0.812818 0.629969
0.248463 0.788876 0.57084
0.210758 0.741756 0.458473
0.307805 0.698482 0.347234
0.633509 0.800183 0.340246
0.806577 0.810025 0.308003
0.851789 0.805097 0.304784
0.834379 0.808637 0.321813
0.32401 0.824628 0.664134
0.292119 0.813977 0.632731
0.251408 0.789517 0.571557
0.208667 0.733364 0.44242
0.254002 0.686564 0.3196
0.598215 0.787549 0.320928
0.773663 0.818235 0.303166
0.842481 0.804746 0.306386
0.831342 0.809262 0.32462
0.0390021 0.0548257 0.288594
0.0643626 0.0544442 0.303548
0.157015 0.047425 0.327337
0.30692 0.0496529 0.331014
0.459846 0.0753948 0.344106
0.584176 0.118837 0.391394
0.581811 0.124559 0.427298
0.583093 0.13135 0.45211
0.579522 0.134905 0.458839
0.0390021 0.0552987 0.294911
0.0429084 0.0559854 0.307073
0.126436 0.0501259 0.335103
0.304067 0.0502632 0.342153
0.46424 0.0780346 0.348852
0.583185 0.118975 0.390158
0.581216 0.123842 0.422766
0.582635 0.129885 0.445594
0.577279 0.132677 0.447852
0.0390021 0.0556649 0.272099
0.0390021 0.055024 0.290715
0.0746014 0.0547799 0.334966
0.290455 0.0500649 0.354742
0.46598 0.0815137 0.354437
0.587381 0.118502 0.390051
0.586328 0.121447 0.422034
0.584588 0.126833 0.438773
0.577874 0.130678 0.442435
0.0390021 0.211154 0.311727
0.0390021 0.201602 0.31928
0.0390021 0.18764 0.326345
0.301823 0.207187 0.48539
0.610147 0.25388 0.509514
0.718212 0.229221 0.501869
0.669963 0.182589 0.465293
0.61149 0.142031 0.418784
0.58941 0.134752 0.40557
0.121019 0.57406 0.47187
0.119738 0.572274 0.474922
0.118959 0.570214 0.474907
0.208316 0.585107 0.507362
0.620188 0.609598 0.605997
0.804059 0.533852 0.544991
0.822507 0.516045 0.53048
0.809598 0.4934 0.502556
0.800397 0.482368 0.493935
0.209216 0.759716 0.587045
0.209674 0.755718 0.589746
0.206622 0.750317 0.577462
0.222248 0.747326 0.563394
0.483436 0.748028 0.585504
0.772717 0.81149 0.579583
0.858839 0.781643 0.590188
0.853681 0.777798 0.543832
0.847669 0.765743 0.514855
0.278004 0.821912 0.671275
0.269047 0.816785 0.664363
0.257954 0.810758 0.64622
0.25774 0.80557 0.621164
0.441382 0.791547 0.600839
0.661173 0.82121 0.60322
0.839979 0.853407 0.579919
0.857618 0.85211 0.580636
0.853635 0.843503 0.542931
0.404379 0.847242 0.7337
0.380941 0.841978 0.72108
0.346838 0.833707 0.697444
0.288792 0.817014 0.64651
0.426276 0.804181 0.615137
0.616373 0.812085 0.617121
0.795865 0.861036 0.594385
0.846738 0.841901 0.535958
0.83743 0.824369 0.441627
0.422065 0.850309 0.741665
0.402655 0.846113 0.729763
0.37258 0.838575 0.707637
0.306264 0.819028 0.646464
0.388052 0.800961 0.600488
0.580224 0.802121 0.607187
0.774014 0.859632 0.604074
0.839994 0.843183 0.539757
0.835004 0.82237 0.423941
0.0542916 0.0618753 0.390646
0.103059 0.0591287 0.40972
0.200244 0.057023 0.436133
0.348257 0.0694133 0.452399
0.493462 0.107195 0.468421
0.599649 0.153094 0.514061
0.600183 0.153857 0.528069
0.596551 0.151049 0.533852
0.598093 0.152544 0.53901
0.0390021 0.063798 0.387457
0.0681163 0.0626841 0.404883
0.173587 0.0581521 0.438865
0.339101 0.0701457 0.461601
0.496071 0.108629 0.475532
0.601297 0.153841 0.517693
0.600381 0.153552 0.528206
0.59559 0.150072 0.532921
0.596735 0.151431 0.536263
0.0390021 0.0639658 0.385626
0.0390021 0.0642863 0.395239
0.127153 0.0612039 0.435813
0.315511 0.0695201 0.470909
0.49662 0.110307 0.484077
0.601297 0.154681 0.520195
0.599207 0.152834 0.527489
0.595178 0.149889 0.529641
0.59588 0.150484 0.531884
0.0390021 0.171283 0.389899
0.0390021 0.157183 0.392126
0.0390021 0.136019 0.393866
0.267887 0.125429 0.525811
0.565393 0.188602 0.584573
0.646418 0.191836 0.55819
0.634058 0.180835 0.547417
0.611902 0.162493 0.536614
0.61001 0.161807 0.535622
0.0966506 0.54107 0.564065
0.0934157 0.533013 0.565072
0.0878614 0.517754 0.566918
0.141939 0.524926 0.612558
0.589975 0.527443 0.774365
0.857923 0.558434 0.768277
0.873594 0.548012 0.774227
0.869307 0.52314 0.769268
0.863554 0.509804 0.761791
0.210269 0.760296 0.645792
0.208545 0.757092 0.644327
0.205951 0.753552 0.641352
0.219089 0.752758 0.644373
0.541894 0.789578 0.732158
0.80531 0.8056 0.792386
0.866697 0.78233 0.771801
0.863996 0.768826 0.758755
0.858915 0.751629 0.743633
0.297154 0.828382 0.707042
0.287098 0.824491 0.703182
0.275898 0.820554 0.694133
0.280812 0.819745 0.68777
0.548943 0.854047 0.755062
0.747387 0.872801 0.8009
0.866331 0.892744 0.78732
0.887022 0.88925 0.798001
0.885634 0.885298 0.780743
0.447211 0.856794 0.764294
0.427161 0.852918 0.756252
0.403861 0.848722 0.744869
0.372839 0.841993 0.726406
0.541924 0.864042 0.76762
0.719509 0.882338 0.806897
0.827955 0.89662 0.805402
0.882231 0.901579 0.784039
0.884794 0.904097 0.795087
0.49752 0.863783 0.780163
0.484733 0.861418 0.774868
0.465431 0.858442 0.765866
0.429831 0.851606 0.746792
0.528069 0.863188 0.767773
0.700511 0.882826 0.806851
0.817365 0.897032 0.820188
0.873075 0.904707 0.796399
0.88159 0.900114 0.778698
0.127489 0.0654154 0.454841
0.171664 0.0656291 0.469368
0.259281 0.0708476 0.492149
0.391485 0.090959 0.511696
0.542657 0.135332 0.534966
0.612375 0.165728 0.558206
0.611795 0.165179 0.557855
0.610559 0.163806 0.556222
0.611658 0.164889 0.557626
0.106416 0.0664836 0.449165
0.14612 0.0658122 0.463294
0.241016 0.0696422 0.48983
0.383093 0.0893873 0.511666
0.542092 0.135348 0.535393
0.612726 0.166003 0.55845
0.611856 0.165255 0.557946
0.61059 0.163958 0.556298
0.611353 0.164736 0.557244
0.109712 0.066453 0.450904
0.11368 0.0663462 0.452293
0.196963 0.066865 0.47892
0.360555 0.085771 0.510765
0.539071 0.135348 0.537362
0.613336 0.166461 0.559091
0.611902 0.165286 0.557992
0.609812 0.163317 0.555627
0.610132 0.163561 0.555886
0.0390021 0.136019 0.422675
0.0390021 0.126986 0.430182
0.0458534 0.119432 0.450034
0.333516 0.124697 0.552804
0.563256 0.172183 0.585168
0.650889 0.197894 0.59501
0.640116 0.188602 0.584848
0.6177 0.169833 0.563272
0.616709 0.169055 0.562142
0.0890211 0.520348 0.597848
0.0867628 0.513588 0.596719
0.0827802 0.502617 0.595178
0.179202 0.515877 0.660731
0.657893 0.516976 0.833951
0.881331 0.550484 0.836316
0.887633 0.546059 0.834272
0.883452 0.523217 0.828122
0.879667 0.508003 0.82298
0.212207 0.758297 0.688914
0.208194 0.752422 0.687205
0.203647 0.744228 0.686488
0.243336 0.746181 0.708202
0.520226 0.762753 0.781826
0.828489 0.774548 0.870893
0.88806 0.775113 0.854917
0.889052 0.761959 0.854002
0.888533 0.745251 0.850538
0.319921 0.834104 0.732586
0.30959 0.830747 0.728725
0.297093 0.827558 0.723583
0.300145 0.825956 0.722744
0.540536 0.857771 0.786465
0.772915 0.88513 0.848997
0.874296 0.891859 0.866941
0.890547 0.888106 0.863951
0.889677 0.884306 0.860761
0.468299 0.860609 0.776638
0.450568 0.858106 0.771618
0.431205 0.855085 0.764889
0.407996 0.851423 0.755428
0.574838 0.873579 0.799481
0.770474 0.900557 0.853574
0.858198 0.910918 0.873426
0.888685 0.914107 0.866423
0.890486 0.914199 0.870695
0.55317 0.872282 0.802884
0.54461 0.870832 0.799878
0.532631 0.86894 0.795544
0.511421 0.866239 0.786801
0.604532 0.878859 0.811612
0.767147 0.901518 0.856367
0.853132 0.910582 0.876936
0.881514 0.914199 0.8719
0.889906 0.91487 0.867933
0.261631 0.0728161 0.495888
0.293538 0.0769055 0.502708
0.362142 0.0900893 0.515938
0.467491 0.117159 0.533578
0.591852 0.160388 0.55758
0.63267 0.182528 0.57763
0.627558 0.178103 0.572869
0.622599 0.17406 0.567712
0.63563 0.184955 0.580804
0.257694 0.0733806 0.495857
0.284428 0.0764782 0.501549
0.353368 0.0893263 0.515724
0.463752 0.118761 0.536599
0.602243 0.16939 0.567819
0.643 0.191257 0.587869
0.62385 0.175235 0.569055
0.632242 0.182177 0.577218
0.645457 0.193393 0.590433
0.2645 0.0752575 0.498283
0.272129 0.0775921 0.501747
0.334966 0.0908217 0.517815
0.464012 0.128756 0.549538
0.612558 0.179721 0.580438
0.646403 0.194232 0.591318
0.634623 0.184161 0.579599
0.628595 0.179187 0.574182
0.629297 0.179889 0.574823
0.231693 0.170092 0.564904
0.283223 0.168978 0.581048
0.326314 0.16849 0.591791
0.508507 0.203876 0.639872
0.672419 0.240421 0.652918
0.713329 0.251667 0.65568
0.699855 0.239719 0.642802
0.64535 0.193286 0.590341
0.622553 0.174136 0.567712
0.126452 0.53901 0.633478
0.142718 0.535958 0.64419
0.181231 0.529259 0.663127
0.347494 0.516655 0.723522
0.778286 0.5523 0.859892
0.885924 0.553994 0.835599
0.888747 0.556817 0.836378
0.885847 0.535546 0.83151
0.882109 0.52079 0.826871
0.279835 0.772274 0.726558
0.278325 0.766247 0.725948
0.280812 0.758465 0.726436
0.324346 0.751934 0.739406
0.555062 0.760845 0.793591
0.856626 0.766415 0.875792
0.890486 0.765805 0.865385
0.890944 0.756802 0.864424
0.890364 0.740871 0.86154
0.389425 0.845975 0.759533
0.38172 0.843168 0.757717
0.378607 0.840101 0.757641
0.3832 0.837507 0.759152
0.578683 0.859907 0.8121
0.771695 0.882124 0.862776
0.881788 0.884306 0.88658
0.892958 0.882139 0.884703
0.892348 0.877501 0.884092
0.500526 0.865782 0.788937
0.483223 0.863142 0.784649
0.465812 0.860685 0.780011
0.44683 0.858076 0.774853
0.584863 0.877211 0.81207
0.770611 0.902739 0.86273
0.865766 0.91223 0.886488
0.88983 0.91429 0.886473
0.89102 0.914122 0.886152
0.600824 0.879637 0.817395
0.593988 0.878416 0.815778
0.582132 0.876814 0.812299
0.564462 0.874128 0.807126
0.640345 0.885069 0.827649
0.793469 0.906416 0.869535
0.868452 0.913741 0.887221
0.8878 0.916564 0.88835
0.8925 0.916259 0.888258
0.512032 0.203357 0.638819
0.537133 0.212497 0.647654
0.588235 0.229633 0.661219
0.673411 0.255924 0.674693
0.745541 0.282078 0.68838
0.754482 0.289815 0.695232
0.725109 0.261479 0.666987
0.684825 0.226352 0.628275
0.684855 0.226337 0.628305
0.48986 0.194491 0.630091
0.515709 0.20441 0.639857
0.570474 0.223865 0.656886
0.663966 0.25333 0.674281
0.74406 0.281483 0.688045
0.75436 0.289693 0.69514
0.721874 0.258839 0.663874
0.684703 0.226398 0.628183
0.684749 0.226383 0.628214
0.467948 0.186374 0.621942
0.473762 0.18819 0.624048
0.532372 0.210636 0.645808
0.637522 0.24509 0.670436
0.73991 0.279316 0.686381
0.754879 0.290135 0.695521
0.726131 0.262242 0.667674
0.684703 0.226398 0.628168
0.684703 0.226398 0.628168
0.514778 0.268635 0.706615
0.506859 0.245792 0.685359
0.513573 0.237003 0.676478
0.621408 0.26273 0.696757
0.738094 0.289326 0.699367
0.772747 0.30956 0.712596
0.76257 0.297948 0.702831
0.699535 0.238834 0.642374
0.69073 0.231434 0.634043
0.360586 0.558862 0.726207
0.37174 0.546944 0.730251
0.379232 0.528222 0.733822
0.503212 0.51696 0.779919
0.832441 0.562631 0.854383
0.888731 0.56202 0.837247
0.889693 0.566873 0.838392
0.887953 0.550881 0.834882
0.885649 0.53933 0.831785
0.392279 0.789929 0.762539
0.397299 0.78294 0.762692
0.395895 0.770428 0.760311
0.430579 0.75845 0.766293
0.630564 0.762356 0.813016
0.87216 0.763302 0.870832
0.89099 0.763714 0.865492
0.890913 0.759701 0.864836
0.890471 0.745678 0.862257
0.502098 0.858961 0.790402
0.496468 0.856779 0.789563
0.494499 0.85333 0.788983
0.495277 0.849577 0.789227
0.626551 0.865873 0.825696
0.792035 0.881376 0.866468
0.886412 0.880034 0.885618
0.892653 0.87892 0.884596
0.892058 0.875334 0.88394
0.570748 0.875288 0.808392
0.55877 0.873213 0.805859
0.549691 0.872114 0.80351
0.54432 0.871229 0.801923
0.643519 0.885252 0.829389
0.790784 0.904631 0.869535
0.867308 0.911604 0.887709
0.891814 0.912795 0.887526
0.892164 0.912871 0.887526
0.642557 0.885557 0.828763
0.633799 0.884123 0.826398
0.62472 0.882979 0.823911
0.611261 0.881132 0.820584
0.666911 0.889281 0.835889
0.797406 0.907149 0.871061
0.868269 0.913771 0.887617
0.889311 0.916579 0.888502
0.891493 0.917067 0.888075
