bundles/resolve-cinematic-luts/Phantom Luts/Ursa G2 Phntm Film LUTs - V1/Gen5/White Balance Offset (+Magenta Boost)/Ursa VisionTeal Gen5 WBO.cube
TITLE "Generated by Resolve"
LUT_3D_SIZE 5
0.0222477 0.0297856 0.0280156
0.0922408 0.024506 0.027451
0.511559 0.0132448 0.0384985
0.656519 0.0380255 0.130953
0.658152 0.038529 0.13817
0.0217746 0.124544 0.0511025
0.0870069 0.123903 0.0470283
0.555611 0.0385443 0.0352941
0.648157 0.0270542 0.0872969
0.648127 0.0260929 0.0796979
0.134813 0.714015 0.373907
0.158389 0.704204 0.353216
0.575631 0.654582 0.169894
0.821653 0.675837 0.174136
0.815381 0.63386 0.159075
0.244633 0.871397 0.550454
0.293584 0.833371 0.448295
0.539345 0.760449 0.312673
0.811444 0.796719 0.295216
0.824613 0.801465 0.299138
0.231006 0.880186 0.575967
0.294835 0.832502 0.447623
0.351614 0.795132 0.358053
0.760342 0.800809 0.276463
0.824491 0.801572 0.298894
0.0209964 0.0441138 0.125582
0.130114 0.0327306 0.118379
0.582284 0.0305028 0.15288
0.657496 0.0385138 0.13695
0.658106 0.0386664 0.14667
0.0201419 0.10605 0.0886091
0.0956436 0.110918 0.107897
0.535882 0.0154879 0.0404364
0.648615 0.027451 0.0977035
0.649027 0.0268254 0.0895399
0.0952926 0.690745 0.449577
0.109651 0.681346 0.36083
0.563485 0.633555 0.152834
0.815045 0.632319 0.15938
0.808331 0.60058 0.161975
0.239033 0.892714 0.655604
0.231022 0.877714 0.568383
0.433692 0.771496 0.321584
0.807111 0.795499 0.295048
0.82446 0.801373 0.299611
0.239124 0.89546 0.662379
0.230564 0.880644 0.582376
0.320546 0.813428 0.405722
0.739742 0.795316 0.275624
0.824475 0.801572 0.298878
0.0631723 0.124712 0.566949
0.261997 0.0552529 0.560906
0.658488 0.0966506 0.621439
0.711086 0.106676 0.686915
0.693996 0.0958267 0.568032
0.0192874 0.117891 0.513344
0.13817 0.110842 0.563775
0.629343 0.0894942 0.586999
0.71371 0.117983 0.64477
0.676997 0.0794232 0.491447
0.0680552 0.679438 0.608927
0.0613565 0.668971 0.600793
0.680369 0.648508 0.635157
0.839414 0.587457 0.541619
0.809949 0.552743 0.352209
0.399283 0.899611 0.799817
0.30454 0.910094 0.788952
0.420996 0.874372 0.686946
0.812909 0.814054 0.502922
0.824048 0.801022 0.304173
0.467338 0.894697 0.800671
0.392981 0.897887 0.781506
0.240864 0.889937 0.641917
0.731334 0.792096 0.355383
0.824292 0.801434 0.299214
0.482109 0.122499 0.758465
0.55288 0.139345 0.772564
0.761929 0.177417 0.813931
0.744564 0.136004 0.796857
0.76791 0.176944 0.815961
0.438422 0.114473 0.749126
0.468559 0.10811 0.746777
0.737835 0.163989 0.804746
0.741558 0.132494 0.793256
0.742016 0.132998 0.79379
0.0352331 0.672129 0.804562
0.0944991 0.649897 0.813565
0.741512 0.561532 0.884321
0.850752 0.515007 0.875822
0.826139 0.410681 0.857984
0.514412 0.897429 0.845014
0.477241 0.897917 0.844114
0.568933 0.888579 0.841352
0.892973 0.900511 0.879194
0.910719 0.887312 0.864836
0.657084 0.901122 0.852033
0.644617 0.900282 0.84892
0.603906 0.897032 0.837156
0.849332 0.91899 0.873274
0.909346 0.922591 0.864332
0.598306 0.225513 0.810681
0.660594 0.255604 0.819806
0.799115 0.287053 0.839612
0.775998 0.205005 0.822614
0.775998 0.205005 0.822614
0.555917 0.20351 0.802182
0.60763 0.230365 0.812222
0.792081 0.282872 0.837873
0.775998 0.205005 0.822614
0.775998 0.205005 0.822614
0.521324 0.629206 0.859709
0.549126 0.586069 0.870634
0.781476 0.53724 0.875853
0.84947 0.505898 0.875471
0.830762 0.430289 0.861082
0.644923 0.89366 0.862394
0.63209 0.889998 0.862837
0.658289 0.882826 0.867872
0.899535 0.881636 0.903517
0.912688 0.869856 0.90399
0.726818 0.905623 0.867933
0.725612 0.905943 0.86746
0.725612 0.905943 0.86746
0.874861 0.925643 0.901686
0.919112 0.932754 0.911528
