bundles/resolve-cinematic-luts/Phantom Luts/Ursa G2 Phntm Film LUTs - V1/Gen5/White Balance Offset (+Magenta Boost)/Ursa Bleach Gen5 WBO.cube
TITLE "Generated by Resolve"
LUT_3D_SIZE 33
0.0213321 0.0332799 0.0231785
0.0213321 0.0332799 0.0231785
0.0213321 0.0332799 0.0231785
0.0213321 0.0332799 0.0231785
0.0213321 0.0332799 0.0231785
0.0258946 0.034226 0.0239719
0.0301366 0.0347448 0.0246738
0.035584 0.0357061 0.0247044
0.0443885 0.0359808 0.0256352
0.0570382 0.0367742 0.0274357
0.0714427 0.0371252 0.0291905
0.0908064 0.0378424 0.0317693
0.115587 0.0387579 0.0331579
0.14641 0.0399634 0.0347295
0.187152 0.0416724 0.0373693
0.231617 0.0434119 0.0407263
0.276524 0.044892 0.0433661
0.323232 0.0460822 0.0456245
0.375021 0.0467536 0.0496681
0.436362 0.0456397 0.0528573
0.496834 0.0462043 0.0577401
0.546334 0.0479133 0.0628061
0.590326 0.0508736 0.0693828
0.627268 0.0539712 0.0747387
0.65861 0.0572061 0.0797894
0.685405 0.0603189 0.0839094
0.691722 0.0608988 0.0890364
0.695888 0.061265 0.0932631
0.697444 0.0613413 0.0969406
0.700084 0.0627909 0.104402
0.703517 0.0646525 0.112978
0.706584 0.0674907 0.120287
0.707713 0.0687266 0.123278
0.0213321 0.0332799 0.0231785
0.0213321 0.0332799 0.0231785
0.0213321 0.0332799 0.0231785
0.0213321 0.0332799 0.0231785
0.0224765 0.0335088 0.0234836
0.0267491 0.0344549 0.0241855
0.0314336 0.0349432 0.0248417
0.0393225 0.0359045 0.0249332
0.0518654 0.0364385 0.0265965
0.0671092 0.0368963 0.0285191
0.0870832 0.0377356 0.0314183
0.111391 0.0385748 0.03299
0.143221 0.0401465 0.0344854
0.183932 0.0415808 0.0372625
0.229389 0.0432898 0.0404822
0.274846 0.044892 0.0432898
0.322454 0.0460975 0.0456703
0.375326 0.0467384 0.0497292
0.438193 0.0455634 0.0529946
0.497932 0.0462348 0.0578164
0.547509 0.0479591 0.0629435
0.591119 0.0509194 0.0695201
0.627726 0.0540475 0.0749065
0.658747 0.0572366 0.0797742
0.684398 0.0602121 0.08365
0.691234 0.0608377 0.0888685
0.695842 0.061265 0.09308
0.697322 0.0613413 0.0966049
0.699657 0.0624094 0.103578
0.702617 0.0640574 0.111574
0.706035 0.066865 0.118898
0.707713 0.0687266 0.123278
0.707713 0.0687266 0.123278
0.0213321 0.0332799 0.0231785
0.0213321 0.0332799 0.0231785
0.0213321 0.0332799 0.0231785
0.0213321 0.0332799 0.0231785
0.0226596 0.0335699 0.0235294
0.026978 0.0344549 0.0242161
0.0327459 0.0352178 0.0249485
0.0423896 0.0359045 0.0252995
0.0572976 0.0367742 0.0274968
0.0748302 0.0372473 0.0296483
0.0978714 0.0380713 0.0323949
0.127733 0.0393378 0.0337224
0.165896 0.0410163 0.0362402
0.210285 0.0428626 0.0392462
0.25539 0.044358 0.0422675
0.301106 0.0455787 0.0443427
0.35198 0.0465095 0.048188
0.412879 0.0461585 0.0517586
0.475074 0.0454871 0.0554665
0.527611 0.0471656 0.0608682
0.573083 0.0496986 0.0665293
0.612161 0.0525673 0.0722515
0.646097 0.0557107 0.0775311
0.673304 0.0586404 0.0817578
0.687709 0.0604257 0.0861982
0.695125 0.0612039 0.0912184
0.696483 0.0613107 0.094667
0.698085 0.0616922 0.0995804
0.700771 0.0627756 0.106844
0.703853 0.0648051 0.114183
0.70695 0.0679026 0.121111
0.707713 0.0687266 0.123278
0.707713 0.0687266 0.123278
0.0213321 0.0332799 0.0231785
0.0213321 0.0332799 0.0231785
0.0213321 0.0332799 0.0231785
0.0213321 0.0332799 0.0231785
0.0213321 0.0332799 0.0231785
0.0251469 0.0341192 0.0238499
0.0307317 0.0348516 0.0247959
0.0403754 0.0361486 0.0250858
0.055436 0.0368048 0.0272221
0.0744488 0.037232 0.0296178
0.0996262 0.0382239 0.0325475
0.130526 0.0395209 0.0339055
0.170062 0.0412146 0.0365759
0.217166 0.0429847 0.0396429
0.262928 0.0443885 0.0425116
0.311498 0.0458534 0.0451209
0.364279 0.0465705 0.0487984
0.425757 0.0458839 0.0523232
0.486427 0.0457771 0.0567178
0.536919 0.047776 0.0618296
0.581125 0.0501411 0.0677501
0.619074 0.0532235 0.0734417
0.651072 0.0563058 0.0782483
0.677455 0.059266 0.0821698
0.688487 0.0604868 0.0869459
0.695354 0.0612345 0.0918593
0.696742 0.061326 0.095201
0.69839 0.061738 0.10074
0.700999 0.0625467 0.107729
0.704189 0.0649882 0.115114
0.707439 0.0684062 0.122469
0.707713 0.0687266 0.123278
0.707713 0.0687266 0.123278
0.0220493 0.0353552 0.0237278
0.0223392 0.0361334 0.0240024
0.0224613 0.0364691 0.0241093
0.0222324 0.0357671 0.0236667
0.0234379 0.0362554 0.0239567
0.0274052 0.038468 0.0250858
0.0330358 0.0399176 0.0262608
0.0412757 0.0411383 0.0263676
0.0569467 0.0403754 0.0272526
0.0766308 0.0391241 0.0291295
0.101167 0.0390478 0.0327306
0.133165 0.0400549 0.0341192
0.172168 0.0412909 0.0367132
0.219425 0.0429541 0.0397498
0.265599 0.0445106 0.042649
0.314015 0.0455329 0.0449989
0.366094 0.0459144 0.0477913
0.429114 0.0456092 0.0510262
0.489296 0.0459297 0.0546426
0.540307 0.0478981 0.0607767
0.582696 0.0502937 0.0665293
0.621332 0.0534066 0.0728771
0.652476 0.0564889 0.0774701
0.67921 0.0594644 0.0820478
0.689174 0.0605173 0.0873274
0.695445 0.0612497 0.0920729
0.696849 0.061326 0.0953536
0.698283 0.0614023 0.100816
0.700374 0.0616007 0.107042
0.704387 0.0651408 0.115465
0.707729 0.0687572 0.123079
0.707698 0.0688029 0.122896
0.707683 0.0688334 0.122698
0.0243381 0.0429389 0.0272221
0.0248722 0.0446479 0.0279698
0.0252079 0.0456703 0.028397
0.0254063 0.0456245 0.0278477
0.027039 0.0455787 0.0273594
0.0322423 0.0472267 0.0281071
0.0391546 0.0483406 0.0295567
0.0479286 0.0495155 0.0295872
0.065919 0.0492409 0.029984
0.0865339 0.0467536 0.0307927
0.113069 0.0441291 0.0328069
0.14522 0.0435492 0.0358434
0.183673 0.0435035 0.0374914
0.228183 0.044007 0.0404669
0.272129 0.0453956 0.0429084
0.319829 0.0459907 0.045182
0.372137 0.0460517 0.0479744
0.434119 0.0454719 0.049073
0.493019 0.0460517 0.0519265
0.542046 0.0480964 0.0559701
0.584024 0.0505074 0.0617227
0.621561 0.0536507 0.0668956
0.652949 0.0566873 0.0734722
0.677501 0.0593271 0.0804608
0.689891 0.0606699 0.0865034
0.695216 0.0612345 0.0910964
0.696574 0.061326 0.0943465
0.697841 0.0614023 0.0980087
0.699565 0.0617533 0.10309
0.702998 0.0645457 0.110613
0.70605 0.0671092 0.116716
0.706493 0.0677958 0.117983
0.706355 0.0674907 0.117708
0.0277256 0.0531777 0.0321965
0.0281071 0.0550546 0.032929
0.0285954 0.0569772 0.0335088
0.0287785 0.0571756 0.0329595
0.0300145 0.0568856 0.0315404
0.0349584 0.0586404 0.0320287
0.0432746 0.0611734 0.0329442
0.0551461 0.0628061 0.0339513
0.0746319 0.0619669 0.032578
0.0995651 0.0581674 0.0338445
0.130068 0.0558175 0.0361028
0.166552 0.0524453 0.037995
0.206943 0.0509651 0.0390631
0.24744 0.0506752 0.0398108
0.289921 0.0510567 0.0423133
0.334386 0.0499123 0.0444953
0.384512 0.0481727 0.04654
0.440742 0.0456855 0.0478981
0.499245 0.0464027 0.05037
0.544182 0.0480964 0.0543679
0.585779 0.0507668 0.0591135
0.623438 0.0538491 0.0640421
0.657053 0.0572213 0.0715343
0.678843 0.0595865 0.0780804
0.692119 0.0610819 0.0844739
0.694865 0.0612192 0.0888838
0.696071 0.061326 0.0920577
0.697429 0.0614023 0.0951247
0.69839 0.0614939 0.0986343
0.699489 0.0614176 0.10161
0.700404 0.0617075 0.103761
0.700313 0.0613565 0.103838
0.700343 0.0613565 0.103853
0.0317693 0.0691234 0.038529
0.0330053 0.0725567 0.0404364
0.0333715 0.0749981 0.0408484
0.0335088 0.075288 0.0403296
0.0336767 0.0746777 0.0381628
0.0365759 0.0758068 0.0360418
0.0458381 0.0792096 0.0377661
0.0599527 0.082826 0.0393835
0.0790723 0.0855879 0.0370794
0.114488 0.0806592 0.0366369
0.152911 0.075288 0.0410163
0.19411 0.0726482 0.044007
0.240864 0.068574 0.0470893
0.28513 0.0647135 0.0475776
0.328634 0.0617838 0.0460517
0.373373 0.0588998 0.0449531
0.427054 0.0544747 0.0442817
0.479591 0.0499275 0.0449989
0.523812 0.0482948 0.0477302
0.565469 0.0495155 0.0525063
0.601373 0.052018 0.0590677
0.634836 0.0551156 0.0640269
0.659953 0.0577249 0.0683146
0.678813 0.0597086 0.0737621
0.691752 0.0612039 0.0786755
0.693675 0.061265 0.0829633
0.695201 0.0613413 0.087953
0.696483 0.0614023 0.0911727
0.697627 0.0614633 0.0939193
0.698512 0.0615854 0.0967269
0.69894 0.0615396 0.098024
0.699245 0.0615091 0.098909
0.699168 0.0615244 0.0984817
0.0372625 0.0906386 0.0467689
0.0381628 0.0955215 0.0479286
0.0386969 0.0985428 0.0482948
0.0392767 0.0994125 0.0482185
0.0389258 0.0987716 0.0464179
0.0395666 0.098909 0.0420996
0.0447852 0.101793 0.0416724
0.059205 0.106569 0.0439612
0.0820478 0.112383 0.0458839
0.112764 0.116136 0.0395819
0.167636 0.109926 0.041413
0.219028 0.105562 0.0482795
0.278813 0.0961318 0.0537575
0.327901 0.0922255 0.0570535
0.379812 0.0871443 0.0580911
0.439567 0.0800336 0.0556039
0.491646 0.0723888 0.0510719
0.533379 0.0665599 0.0482185
0.569299 0.059556 0.0470588
0.603113 0.0589914 0.0509957
0.632532 0.0549325 0.0538033
0.659464 0.0578012 0.0605936
0.682399 0.0603647 0.0668193
0.692164 0.0614481 0.071397
0.696818 0.0619364 0.0740978
0.694865 0.0616922 0.0744182
0.694026 0.0614939 0.0770123
0.695598 0.0615549 0.0827497
0.69604 0.0614633 0.0874495
0.696971 0.0614939 0.0894942
0.697414 0.0615244 0.0904555
0.697643 0.0615549 0.0911574
0.697551 0.0615549 0.0904097
0.0426184 0.118029 0.0544137
0.0435187 0.125185 0.0560922
0.0446479 0.129244 0.0565347
0.0448615 0.130617 0.0561227
0.0449226 0.130159 0.0550393
0.0452888 0.129427 0.0509041
0.046067 0.132326 0.0467842
0.0538338 0.136416 0.0475013
0.0786755 0.144808 0.0509499
0.111543 0.153201 0.0520027
0.159289 0.158877 0.0425879
0.23183 0.155489 0.0456397
0.297078 0.150866 0.0544594
0.376867 0.133486 0.0622568
0.446067 0.126329 0.0641642
0.507317 0.119875 0.0665904
0.55668 0.116411 0.069398
0.596292 0.108186 0.0697337
0.630533 0.103319 0.0694896
0.659022 0.0969863 0.0671244
0.686076 0.0933089 0.0670329
0.700633 0.0816663 0.0637064
0.714412 0.0783551 0.0661631
0.712001 0.0648814 0.0628672
0.708873 0.0635691 0.0660716
0.705501 0.0650492 0.0712902
0.702342 0.0628672 0.0706951
0.699382 0.0624247 0.0721294
0.69752 0.0619821 0.0762951
0.696895 0.0618296 0.0790265
0.695247 0.0616007 0.0797894
0.695308 0.0616159 0.0796368
0.695125 0.0616159 0.0789197
0.0482948 0.155322 0.0628824
0.0495003 0.164691 0.0648508
0.0502785 0.170062 0.0647593
0.0507362 0.17145 0.0638437
0.0508125 0.171435 0.063386
0.0510262 0.170077 0.0605478
0.0518959 0.172549 0.0540169
0.0527199 0.17586 0.0514992
0.0686809 0.183703 0.0534829
0.105364 0.196857 0.0574197
0.151522 0.209232 0.059144
0.219089 0.217487 0.0456703
0.304784 0.218326 0.0471504
0.3935 0.214069 0.0550698
0.493812 0.193805 0.0666056
0.559075 0.187106 0.0735485
0.611368 0.181308 0.0813764
0.653056 0.180362 0.087953
0.692363 0.177279 0.0960861
0.727779 0.174929 0.102937
0.755489 0.166735 0.105989
0.774685 0.159503 0.106065
0.780926 0.14931 0.101656
0.782391 0.142184 0.0988327
0.767437 0.122133 0.0867781
0.752209 0.105516 0.076585
0.73814 0.0902876 0.0720073
0.72546 0.0767681 0.0671244
0.724681 0.0828412 0.0729534
0.710414 0.0681926 0.0706645
0.70547 0.0630961 0.0698863
0.70544 0.0630808 0.0701762
0.70576 0.0631113 0.0701915
0.0535592 0.202991 0.0738537
0.0542153 0.213809 0.076112
0.0549783 0.219959 0.0757
0.0557565 0.22237 0.0745556
0.0559548 0.222766 0.0740673
0.0561379 0.221881 0.0721599
0.0569162 0.222614 0.0663767
0.0577859 0.226673 0.0566567
0.060502 0.230945 0.0552834
0.0882429 0.243717 0.0587015
0.137957 0.260273 0.0635386
0.201038 0.276478 0.0643626
0.286961 0.289326 0.0487678
0.390845 0.29482 0.0436866
0.501778 0.294606 0.0471656
0.576761 0.296956 0.0669871
0.643793 0.289891 0.0874342
0.703212 0.282795 0.10779
0.747829 0.284504 0.12079
0.787655 0.281559 0.13431
0.820233 0.280339 0.14493
0.845335 0.277272 0.152682
0.851682 0.272358 0.153674
0.852537 0.264103 0.152239
0.850507 0.259846 0.15024
0.841672 0.240986 0.143389
0.835782 0.228901 0.138674
0.817853 0.196475 0.125612
0.799451 0.165927 0.111849
0.786648 0.149752 0.103685
0.773693 0.13724 0.0977798
0.78378 0.148455 0.104112
0.795743 0.165469 0.113848
0.0556039 0.257069 0.0846113
0.0552224 0.268132 0.0862135
0.0559548 0.275257 0.0859846
0.0564279 0.277562 0.0838026
0.0567636 0.278477 0.0829633
0.0570535 0.278202 0.0821546
0.0578927 0.278386 0.0780346
0.0588235 0.28098 0.069749
0.0594644 0.284199 0.0560311
0.0707561 0.291249 0.0570993
0.112154 0.309117 0.0620584
0.179492 0.330007 0.0668803
0.25713 0.353033 0.067216
0.359457 0.37052 0.0509194
0.484825 0.380331 0.0430762
0.583413 0.399771 0.0491951
0.651362 0.420157 0.0726787
0.717052 0.428641 0.103746
0.77705 0.433173 0.138842
0.826612 0.429023 0.163622
0.86537 0.430198 0.184909
0.891676 0.43003 0.196643
0.902998 0.421363 0.205493
0.904585 0.413123 0.205249
0.903471 0.406882 0.204364
0.902342 0.400961 0.202869
0.90071 0.391684 0.201083
0.900236 0.386709 0.199939
0.898695 0.37937 0.197772
0.888685 0.349691 0.187304
0.885069 0.338384 0.183032
0.888899 0.351568 0.187869
0.894163 0.368688 0.194232
0.0526131 0.313008 0.09337
0.0512093 0.324041 0.094316
0.0509194 0.330587 0.0932174
0.0521096 0.333547 0.0906233
0.0525063 0.33431 0.0892958
0.0524147 0.334951 0.08925
0.0533608 0.334371 0.0867781
0.054963 0.336095 0.0803845
0.0557259 0.340429 0.0687266
0.0578775 0.34406 0.0520638
0.0827344 0.357107 0.0553292
0.14168 0.380789 0.0611429
0.23032 0.410529 0.0672923
0.314992 0.443168 0.0682231
0.450446 0.469917 0.0586404
0.566506 0.492821 0.0580453
0.648157 0.514122 0.059617
0.70515 0.529778 0.0774701
0.755596 0.54226 0.0996567
0.80235 0.550286 0.128801
0.84097 0.553841 0.149493
0.873198 0.557656 0.169406
0.892927 0.548959 0.181857
0.90164 0.542992 0.190631
0.90164 0.536339 0.189639
0.902068 0.528176 0.192844
0.902144 0.524666 0.19321
0.902205 0.52105 0.195361
0.903059 0.516579 0.198062
0.903334 0.511589 0.199054
0.902815 0.514611 0.197208
0.902388 0.518532 0.194324
0.90222 0.527947 0.192676
0.0432746 0.369894 0.0994278
0.0408179 0.381704 0.0995346
0.0399481 0.389883 0.0973983
0.0408637 0.393103 0.0935683
0.0419623 0.394171 0.0912337
0.0419776 0.394141 0.0912184
0.0421912 0.394354 0.0906691
0.0446632 0.39443 0.085069
0.0459144 0.401007 0.0760052
0.0479744 0.404913 0.0598764
0.0599222 0.411337 0.0449836
0.100328 0.432013 0.051957
0.191272 0.466346 0.0638895
0.313909 0.511742 0.0854658
0.410834 0.542199 0.0918898
0.540475 0.561486 0.0856641
0.632868 0.579293 0.0835889
0.701793 0.596139 0.07953
0.75288 0.607813 0.092195
0.797833 0.618097 0.106523
0.834669 0.626902 0.125185
0.8636 0.63331 0.141024
0.887984 0.637552 0.156985
0.900313 0.634485 0.16643
0.905211 0.63154 0.171023
0.905364 0.62562 0.172
0.904463 0.619425 0.173907
0.904067 0.615793 0.174685
0.9037 0.613397 0.175753
0.903273 0.610864 0.177081
0.903349 0.613062 0.176761
0.90367 0.614237 0.175982
0.904433 0.620691 0.174243
0.0291905 0.431983 0.103227
0.0277256 0.445182 0.104707
0.0281987 0.452735 0.103746
0.0307927 0.455802 0.0993362
0.0323949 0.457206 0.0961471
0.0326085 0.457465 0.0959793
0.0329137 0.458396 0.0955673
0.0350805 0.458839 0.0915999
0.0395514 0.461845 0.0854353
0.0437171 0.468406 0.0754559
0.0545968 0.475196 0.0591897
0.086717 0.489006 0.0529335
0.156527 0.517754 0.0696574
0.296086 0.565164 0.0997024
0.423911 0.597681 0.117174
0.506493 0.614725 0.118074
0.60737 0.630594 0.116075
0.685679 0.645457 0.113375
0.744442 0.662181 0.10573
0.793133 0.672358 0.11223
0.836713 0.680232 0.120989
0.865599 0.687266 0.130678
0.888838 0.693217 0.14139
0.906233 0.697261 0.152621
0.912535 0.698054 0.156954
0.913329 0.696513 0.159442
0.913237 0.69514 0.159182
0.913069 0.690806 0.161089
0.912703 0.688243 0.157946
0.912306 0.685878 0.158022
0.912169 0.683787 0.15819
0.912123 0.684062 0.157443
0.912718 0.689403 0.158251
0.025452 0.496132 0.122606
0.0264439 0.508888 0.127672
0.0287785 0.515953 0.128405
0.0328222 0.519356 0.124239
0.0368963 0.522087 0.120729
0.0374914 0.522759 0.120073
0.0375677 0.52285 0.120104
0.0392157 0.522698 0.117433
0.0449073 0.525246 0.111116
0.0538033 0.53225 0.103822
0.0639353 0.541512 0.0937209
0.0957809 0.554849 0.0824292
0.159655 0.577264 0.089601
0.265507 0.60972 0.114443
0.412802 0.641306 0.137133
0.516945 0.65864 0.143587
0.579278 0.674449 0.147066
0.662989 0.689952 0.14847
0.729778 0.703349 0.146044
0.781643 0.719295 0.136416
0.826215 0.729519 0.138643
0.861524 0.737499 0.142199
0.885908 0.74342 0.148318
0.905608 0.74818 0.152911
0.913573 0.750729 0.157519
0.918776 0.75314 0.161013
0.918608 0.752804 0.162097
0.918654 0.754177 0.162478
0.91841 0.752865 0.163165
0.918364 0.752056 0.162005
0.918257 0.75053 0.161791
0.918273 0.75169 0.162387
0.918563 0.755093 0.161257
0.0362554 0.565454 0.165072
0.0412146 0.57998 0.176013
0.0460975 0.588281 0.178698
0.0527504 0.592264 0.174212
0.0586862 0.594827 0.170077
0.0607004 0.595682 0.168261
0.0607309 0.595972 0.168444
0.0611276 0.596521 0.168368
0.0663462 0.595926 0.160067
0.0769513 0.601343 0.151812
0.0930648 0.611475 0.141756
0.115297 0.623255 0.12755
0.167971 0.635157 0.121843
0.25861 0.654276 0.133745
0.379919 0.677913 0.153826
0.51574 0.695659 0.163912
0.58584 0.712764 0.172519
0.638651 0.728908 0.177798
0.708019 0.742504 0.181186
0.769009 0.757214 0.177935
0.813275 0.770642 0.171939
0.850309 0.77998 0.173526
0.874495 0.790417 0.174472
0.894865 0.796109 0.176181
0.912551 0.799405 0.178363
0.917281 0.801663 0.179309
0.917693 0.803662 0.180957
0.917952 0.804395 0.182116
0.918105 0.804623 0.182925
0.91809 0.80618 0.183764
0.918013 0.804685 0.183398
0.917723 0.807111 0.183993
0.917464 0.808911 0.185473
0.0594949 0.636118 0.224094
0.0645304 0.647929 0.233265
0.0706035 0.654002 0.233631
0.0785382 0.656794 0.227665
0.085069 0.658656 0.221271
0.0881514 0.659968 0.219379
0.0881819 0.66006 0.21944
0.0884718 0.660258 0.219181
0.0925307 0.660426 0.213794
0.103014 0.66276 0.20296
0.117906 0.668772 0.189441
0.139269 0.676844 0.170138
0.174411 0.685954 0.147173
0.258442 0.696864 0.155535
0.368521 0.713069 0.169757
0.508583 0.726711 0.180255
0.590478 0.744854 0.192691
0.64242 0.761318 0.201709
0.689006 0.77702 0.206607
0.752468 0.791821 0.208804
0.804944 0.805951 0.206592
0.839826 0.814817 0.206714
0.865232 0.821424 0.210361
0.886885 0.829084 0.208911
0.905348 0.833875 0.208942
0.913405 0.837369 0.209674
0.916442 0.839445 0.209888
0.916014 0.841749 0.210895
0.915923 0.843626 0.212222
0.91606 0.84445 0.213199
0.916106 0.845563 0.214313
0.916106 0.846632 0.215564
0.916136 0.847044 0.216114
0.0803693 0.689097 0.269673
0.0848707 0.6972 0.275288
0.0899519 0.701335 0.273671
0.0973983 0.703365 0.267094
0.105531 0.70489 0.258885
0.108751 0.70573 0.255772
0.108766 0.70576 0.255802
0.109117 0.706523 0.256321
0.111864 0.706035 0.252491
0.12015 0.705898 0.241321
0.134325 0.709026 0.225788
0.156374 0.715267 0.206806
0.19472 0.721798 0.184726
0.260853 0.729183 0.174258
0.370718 0.742275 0.185489
0.505379 0.752651 0.19321
0.59707 0.770626 0.207965
0.644419 0.786511 0.218112
0.689586 0.802335 0.226062
0.735363 0.817823 0.230488
0.789731 0.833082 0.229374
0.831769 0.843992 0.229953
0.857816 0.848554 0.235004
0.87921 0.851194 0.238819
0.898329 0.857649 0.237171
0.910735 0.861601 0.237491
0.915755 0.863706 0.237675
0.917311 0.864912 0.238376
0.917357 0.865766 0.239658
0.917494 0.867124 0.241642
0.917632 0.868009 0.242863
0.917464 0.869398 0.244724
0.917525 0.869978 0.245563
0.0981155 0.727718 0.30367
0.101701 0.733394 0.307301
0.104845 0.735668 0.303777
0.11046 0.736645 0.295598
0.119661 0.738354 0.286915
0.124361 0.73933 0.282551
0.124392 0.739361 0.282567
0.124361 0.739284 0.282521
0.125353 0.73901 0.280751
0.133211 0.738079 0.269856
0.145434 0.738857 0.254215
0.166796 0.742641 0.233524
0.195895 0.747951 0.206134
0.26276 0.753689 0.190829
0.379919 0.763165 0.197375
0.507378 0.771496 0.203159
0.596689 0.787701 0.216922
0.651453 0.804669 0.229511
0.686809 0.818418 0.237385
0.729534 0.834058 0.244831
0.777249 0.85005 0.249668
0.817212 0.862867 0.249317
0.851865 0.870848 0.249378
0.872663 0.869917 0.254917
0.891081 0.871336 0.259052
0.906462 0.875074 0.258518
0.915343 0.877928 0.259693
0.917449 0.878187 0.258915
0.917937 0.878828 0.258549
0.917906 0.878889 0.258579
0.918029 0.87953 0.259876
0.918029 0.880003 0.260731
0.917998 0.880842 0.262089
0.114122 0.755093 0.330419
0.113756 0.757717 0.331258
0.114534 0.758694 0.325628
0.119081 0.759045 0.315709
0.127779 0.759625 0.305837
0.133211 0.760159 0.300191
0.133196 0.759884 0.299763
0.133089 0.759747 0.299702
0.134035 0.75935 0.298146
0.139986 0.758389 0.289433
0.151369 0.757214 0.273381
0.170642 0.758968 0.251652
0.199893 0.761303 0.221149
0.255299 0.766476 0.198779
0.375845 0.774502 0.203189
0.519249 0.782193 0.20972
0.601709 0.796384 0.222019
0.653727 0.812039 0.23447
0.686717 0.824414 0.241978
0.719585 0.836576 0.249027
0.761975 0.850614 0.254032
0.808011 0.864195 0.255177
0.839719 0.871183 0.255009
0.865141 0.874144 0.257664
0.884459 0.876112 0.261692
0.901427 0.878462 0.265126
0.910262 0.881483 0.26804
0.918135 0.884215 0.270207
0.918379 0.884245 0.268803
0.918318 0.884169 0.267536
0.918379 0.88423 0.268711
0.918395 0.884245 0.268879
0.918425 0.884276 0.269413
0.115862 0.769451 0.348241
0.117433 0.771466 0.348638
0.12314 0.771099 0.342
0.12285 0.770077 0.329168
0.129595 0.768963 0.316777
0.134432 0.768246 0.310307
0.135332 0.768139 0.309148
0.135393 0.768124 0.309056
0.135409 0.768078 0.308965
0.14139 0.767346 0.300038
0.152605 0.766094 0.283986
0.169726 0.764782 0.26157
0.199817 0.765759 0.23154
0.260365 0.769848 0.209934
0.36759 0.77879 0.205478
0.530495 0.78674 0.212329
0.608499 0.800748 0.224842
0.654383 0.814481 0.235981
0.685481 0.826062 0.242939
0.716564 0.837247 0.25005
0.752041 0.849439 0.254948
0.79649 0.862364 0.257115
0.830411 0.871397 0.255787
0.856275 0.874632 0.257359
0.878904 0.87454 0.262989
0.895338 0.87686 0.265705
0.908003 0.880781 0.266239
0.914488 0.882856 0.267521
0.917189 0.883848 0.268269
0.918395 0.884245 0.268818
0.918517 0.884321 0.270436
0.918578 0.884382 0.271565
0.918578 0.884367 0.271595
0.110109 0.772854 0.358938
0.111727 0.772671 0.356695
0.117922 0.771954 0.348867
0.118105 0.770733 0.334554
0.127291 0.769268 0.320348
0.132815 0.768429 0.312779
0.133883 0.768292 0.311177
0.133898 0.768292 0.311162
0.134081 0.768261 0.310826
0.137804 0.767819 0.305196
0.149111 0.766491 0.289326
0.168688 0.765209 0.265217
0.198657 0.765835 0.236011
0.242664 0.768643 0.207446
0.367651 0.778912 0.207111
0.532174 0.787106 0.212238
0.616617 0.802884 0.227192
0.655268 0.814908 0.2365
0.68542 0.825986 0.243061
0.714153 0.836332 0.249378
0.749722 0.848402 0.254353
0.787671 0.859907 0.257572
0.819028 0.868406 0.256199
0.850172 0.874281 0.256855
0.872801 0.873762 0.262089
0.890684 0.875319 0.265507
0.904143 0.879576 0.266041
0.912871 0.882246 0.266392
0.917205 0.883833 0.267216
0.918303 0.884184 0.267399
0.918334 0.884199 0.26775
0.918379 0.884245 0.268788
0.918441 0.884291 0.26949
0.104555 0.77351 0.366018
0.107469 0.773129 0.362478
0.115099 0.772274 0.352743
0.119173 0.770871 0.337804
0.126223 0.769421 0.321843
0.133165 0.768383 0.312261
0.134264 0.768261 0.310552
0.134203 0.768261 0.310643
0.134173 0.768261 0.310704
0.137163 0.76791 0.306172
0.147951 0.766598 0.290822
0.169238 0.765423 0.267048
0.200549 0.765988 0.234653
0.242878 0.768719 0.205692
0.367575 0.778698 0.207446
0.538094 0.788037 0.21297
0.62327 0.804669 0.228656
0.658961 0.816144 0.237232
0.686763 0.82649 0.243305
0.713848 0.836271 0.249119
0.744808 0.847013 0.254246
0.778439 0.857389 0.257023
0.809186 0.865919 0.25716
0.839689 0.870314 0.258564
0.869902 0.872831 0.261936
0.886458 0.875639 0.263661
0.900877 0.87866 0.265568
0.909499 0.881224 0.266316
0.917037 0.883757 0.266728
0.918273 0.884169 0.26685
0.918273 0.884169 0.26685
0.918273 0.884169 0.266911
0.918334 0.884215 0.267842
0.102052 0.774105 0.370779
0.106569 0.773632 0.365866
0.115053 0.772442 0.354025
0.121599 0.770764 0.337682
0.128313 0.769131 0.318837
0.135668 0.768063 0.308476
0.136339 0.768002 0.307378
0.136187 0.768032 0.307622
0.136034 0.768048 0.307912
0.138247 0.767758 0.304448
0.149813 0.766415 0.289128
0.172107 0.76556 0.265507
0.204852 0.76611 0.231998
0.255512 0.769665 0.206134
0.3776 0.779339 0.208438
0.544991 0.788937 0.213733
0.62977 0.806699 0.230289
0.664439 0.818173 0.238361
0.689128 0.827451 0.244068
0.712993 0.835966 0.249119
0.740444 0.845441 0.25388
0.769894 0.854734 0.25684
0.800275 0.863432 0.25716
0.840299 0.873701 0.25507
0.867704 0.875776 0.25864
0.884596 0.874647 0.264393
0.897871 0.877668 0.265583
0.907835 0.88072 0.266239
0.914321 0.882765 0.266484
0.916671 0.883589 0.266667
0.918273 0.884169 0.26685
0.918273 0.884169 0.26685
0.918273 0.884169 0.26685
0.105531 0.774563 0.372442
0.109545 0.773861 0.366308
0.117906 0.772305 0.352422
0.121355 0.770504 0.333486
