bundles/resolve-cinematic-luts/Phantom Luts/Ursa G2 Phntm Film LUTs - V1/Gen5/White Balance Offset (+Magenta Boost)/Ursa Eterna Gen5-Legacy WBO.cube
TITLE "Generated by Resolve"
LUT_3D_SIZE 5
0.0167697 0.0444648 0.0445106
0.0902113 0.0516823 0.0467689
0.42916 0.0817884 0.12163
0.608789 0.106783 0.186725
0.641032 0.0989548 0.196582
0.0463722 0.114488 0.0781109
0.0932937 0.123171 0.069398
0.479286 0.0724346 0.11252
0.602655 0.0861219 0.1691
0.619257 0.0864271 0.177508
0.174624 0.768688 0.368154
0.210925 0.834974 0.362509
0.633539 0.812177 0.241291
0.910262 0.759579 0.252674
0.894469 0.685832 0.221653
0.245167 0.904234 0.530327
0.267994 0.902373 0.440101
0.340215 0.897322 0.330083
0.929702 0.906493 0.365728
0.937987 0.911345 0.36701
0.221195 0.906676 0.567712
0.257008 0.902708 0.493217
0.298512 0.895033 0.397131
0.75024 0.913115 0.326345
0.934371 0.913924 0.360693
0.027512 0.0475319 0.0873121
0.103105 0.0576333 0.083238
0.436713 0.0891585 0.155657
0.623621 0.0943008 0.185214
0.654505 0.0945907 0.200061
0.0437018 0.101823 0.0914778
0.0957046 0.108202 0.106767
0.49485 0.0884718 0.154742
0.613321 0.089189 0.176715
0.641749 0.0955673 0.197406
0.0889143 0.678553 0.42002
0.112947 0.737957 0.382666
0.601801 0.77229 0.216159
0.900374 0.716884 0.229801
0.882139 0.629145 0.205112
0.249042 0.906249 0.690349
0.234775 0.9028 0.613504
0.321614 0.897475 0.348943
0.92578 0.905852 0.363653
0.937652 0.91162 0.366567
0.285481 0.920211 0.752667
0.256901 0.905379 0.671397
0.298466 0.894972 0.397589
0.727962 0.912016 0.322301
0.934707 0.91368 0.361303
0.103258 0.066453 0.375418
0.208331 0.0765698 0.409751
0.570748 0.114443 0.345083
0.679194 0.122271 0.376013
0.709224 0.122301 0.469657
0.0349737 0.0624552 0.232013
0.0888991 0.0651255 0.385565
0.584314 0.117021 0.393881
0.694896 0.130053 0.4822
0.714656 0.128267 0.584009
0.0830701 0.605707 0.516884
0.0687419 0.638941 0.565316
0.618479 0.622705 0.593347
0.919875 0.594415 0.60325
0.912077 0.536767 0.594034
0.37293 0.91545 0.854505
0.332189 0.920409 0.853712
0.47483 0.92639 0.777981
0.936538 0.921874 0.643336
0.943786 0.92343 0.602853
0.528496 0.92639 0.90605
0.505653 0.927443 0.90222
0.405737 0.919112 0.82359
0.823117 0.92372 0.722301
0.935546 0.914015 0.36759
0.303822 0.0945754 0.649607
0.384512 0.0993668 0.673976
0.701152 0.135668 0.725093
0.720272 0.134951 0.717372
0.71957 0.133974 0.709911
0.210269 0.0860914 0.618357
0.268009 0.0919051 0.640604
0.649729 0.127291 0.726741
0.723751 0.138872 0.72369
0.724163 0.139223 0.724102
0.0823987 0.561791 0.7523
0.0898756 0.546838 0.778134
0.400198 0.54316 0.899428
0.925689 0.469581 0.913695
0.916335 0.407919 0.912413
0.381506 0.923629 0.905516
0.350454 0.92105 0.901381
0.509819 0.924575 0.90515
0.930083 0.931105 0.928222
0.938247 0.929656 0.928908
0.63444 0.928435 0.926513
0.636164 0.928573 0.926925
0.661768 0.928679 0.925582
0.919387 0.938918 0.936858
0.942763 0.940291 0.929351
0.566766 0.187274 0.796979
0.588113 0.191623 0.803815
0.813581 0.234333 0.824369
0.77995 0.19086 0.77995
0.772839 0.183886 0.772839
0.530465 0.179446 0.783505
0.53048 0.179446 0.783505
0.732296 0.215122 0.824308
0.77995 0.19086 0.77995
0.77995 0.19086 0.77995
0.221042 0.604959 0.873365
0.371038 0.612726 0.896239
0.547051 0.531548 0.908858
0.923003 0.44741 0.923003
0.903975 0.360296 0.903975
0.49781 0.927901 0.928862
0.503639 0.926604 0.929015
0.513924 0.91809 0.928939
0.895628 0.920958 0.933562
0.936873 0.912413 0.936873
0.70602 0.929732 0.929732
0.710033 0.929824 0.929824
0.697108 0.929488 0.929488
0.921569 0.939284 0.939284
0.941405 0.941405 0.941405
