bundles/resolve-cinematic-luts/Phantom Luts/Ursa G2 Phntm Film LUTs - V1/Gen5/White Balance Offset (+Magenta Boost)/Ursa Vision Gen5-Legacy WBO.cube
TITLE "Generated by Resolve"
LUT_3D_SIZE 9
0.0235904 0.0331731 0.0244907
0.0286259 0.0345312 0.0242466
0.076585 0.0352178 0.0262913
0.255253 0.0396887 0.0334173
0.503487 0.0275883 0.0415198
0.648539 0.0326238 0.0716106
0.667399 0.0521859 0.11249
0.667689 0.0520943 0.112428
0.670237 0.0496223 0.110414
0.0266117 0.0466316 0.0321965
0.030869 0.0464179 0.0294652
0.0807965 0.0431067 0.0293431
0.252293 0.0393072 0.0280003
0.495064 0.0278325 0.0373083
0.648356 0.0322576 0.0694285
0.663752 0.0476234 0.105486
0.661738 0.0451362 0.100694
0.663584 0.0415656 0.0961929
0.0346075 0.106783 0.0556497
0.0342107 0.103548 0.0524147
0.0639811 0.109514 0.0451362
0.281727 0.0746319 0.0394751
0.524422 0.0512856 0.037995
0.652415 0.0434424 0.0621653
0.649851 0.0325933 0.0719615
0.649577 0.0321355 0.0693065
0.651225 0.0310063 0.06421
0.0743877 0.336828 0.151156
0.0742809 0.33576 0.145449
0.0749828 0.324498 0.126986
0.225193 0.365652 0.104463
0.601816 0.31722 0.110597
0.728145 0.252216 0.118746
0.713237 0.137453 0.0864576
0.715526 0.144747 0.0905165
0.721294 0.155673 0.0918441
0.215625 0.669429 0.391669
0.22446 0.673548 0.382528
0.220233 0.665248 0.37528
0.241978 0.659098 0.314794
0.487511 0.68275 0.254459
0.809964 0.654307 0.143374
0.80441 0.610803 0.161837
0.798398 0.586725 0.169528
0.787381 0.547021 0.176104
0.299672 0.811109 0.530938
0.307774 0.805081 0.508034
0.311055 0.803449 0.499489
0.314778 0.796796 0.468299
0.496544 0.795987 0.416052
0.734813 0.815732 0.300694
0.824887 0.79884 0.26038
0.825086 0.79881 0.258946
0.825452 0.798383 0.256733
0.30753 0.812924 0.537408
0.314427 0.803494 0.502983
0.316579 0.796872 0.469947
0.319692 0.795758 0.464912
0.470588 0.79443 0.417105
0.613748 0.815122 0.356527
0.8206 0.79852 0.258686
0.825467 0.798825 0.256184
0.825544 0.798856 0.25568
0.307713 0.814923 0.54995
0.312108 0.806806 0.516564
0.318196 0.796094 0.469474
0.318349 0.796002 0.469505
0.423133 0.79147 0.41799
0.575189 0.8094 0.377066
0.800946 0.799725 0.26862
0.825254 0.798749 0.257572
0.825513 0.79884 0.255894
0.308263 0.816373 0.556802
0.30959 0.810666 0.527352
0.317159 0.796658 0.4701
0.318074 0.796139 0.469429
0.345785 0.790417 0.430961
0.55024 0.804807 0.392386
0.738094 0.816007 0.297169
0.825437 0.798795 0.256428
0.825727 0.798871 0.25478
0.0225528 0.0334173 0.0324712
0.0348974 0.0355688 0.0344701
0.104891 0.0357519 0.03505
0.29752 0.0355535 0.0370947
0.5458 0.0252537 0.044892
0.651759 0.0324102 0.0746166
0.669642 0.0514229 0.1122
0.669902 0.0513313 0.1122
0.672206 0.0501564 0.111437
0.0254215 0.0433967 0.0331273
0.0322271 0.0432898 0.0347906
0.0894636 0.0390021 0.0310216
0.267216 0.0376898 0.0324559
0.506798 0.0266575 0.0403906
0.65127 0.0317235 0.0707408
0.668879 0.0494545 0.109697
0.667964 0.0476997 0.106401
0.666041 0.0429084 0.0983291
0.0306554 0.0981003 0.0595254
0.0325933 0.0972152 0.0525826
0.0616617 0.102037 0.0424048
0.27776 0.0636912 0.0357366
0.51458 0.0404517 0.0354162
0.65214 0.0377203 0.0627298
0.651652 0.032517 0.0743877
0.651331 0.0321508 0.0716716
0.652522 0.0308843 0.0657664
0.0645151 0.316716 0.156802
0.0678111 0.315099 0.139879
0.0715801 0.313817 0.127199
0.216068 0.350912 0.098436
0.61619 0.286152 0.116838
0.725826 0.223102 0.110063
0.706722 0.121431 0.0852674
0.709102 0.127855 0.0825055
0.716518 0.139101 0.0845808
0.19115 0.65742 0.404028
0.203571 0.654475 0.381598
0.214084 0.655421 0.368673
0.233295 0.654765 0.321416
0.481895 0.67303 0.246601
0.807813 0.637049 0.148287
0.797452 0.581689 0.170626
0.79057 0.557778 0.177859
0.778546 0.520531 0.172
0.293935 0.815915 0.555947
0.297795 0.81236 0.532616
0.311116 0.803418 0.49926
0.312917 0.798642 0.478202
0.485679 0.794965 0.416114
0.729335 0.81529 0.303334
0.825071 0.79881 0.259205
0.825254 0.798825 0.257694
0.82533 0.797406 0.254673
0.293904 0.818524 0.568368
0.304936 0.814008 0.542107
0.314321 0.798367 0.476692
0.315358 0.797513 0.473304
0.448203 0.793378 0.418128
0.606851 0.814313 0.359915
0.819593 0.798444 0.258991
0.825483 0.79884 0.256077
0.825559 0.798856 0.255634
0.284733 0.820661 0.577996
0.312093 0.814939 0.553643
0.319081 0.799558 0.488151
0.318349 0.796002 0.46952
0.399695 0.790722 0.420813
0.570382 0.808499 0.380392
0.795895 0.801831 0.27097
0.825223 0.798733 0.257862
0.825483 0.798825 0.256092
0.280171 0.821942 0.581765
0.305455 0.816861 0.559136
0.314244 0.804196 0.507012
0.318074 0.796139 0.469429
0.335073 0.791119 0.436316
0.545403 0.803693 0.394629
0.717723 0.815198 0.308309
0.825452 0.798779 0.256352
0.825727 0.798871 0.25478
0.0324254 0.0368048 0.0980087
0.049836 0.0369573 0.0910658
0.114672 0.0399786 0.0862593
0.320333 0.0389868 0.103853
0.59205 0.0455024 0.120027
0.654704 0.0354314 0.0813001
0.668727 0.0499275 0.110323
0.669749 0.0510262 0.11191
0.672419 0.0504768 0.111864
0.0246281 0.0358434 0.0731212
0.0358282 0.0368963 0.0916915
0.0986343 0.03888 0.0766461
0.303716 0.0350042 0.0760967
0.571511 0.0392767 0.0874189
0.652979 0.0335088 0.0778668
0.669352 0.0504158 0.11107
0.67013 0.0508736 0.111818
0.672526 0.050309 0.111696
0.0274968 0.0935225 0.0786145
0.026688 0.0908675 0.0768292
0.0860914 0.0970321 0.0865187
0.303212 0.0691539 0.0581521
0.529335 0.0297704 0.0414435
0.649729 0.03122 0.0625925
0.652583 0.0336461 0.0801404
0.652583 0.0334325 0.0779278
0.653407 0.031632 0.0720226
0.0438544 0.293751 0.184588
0.0475624 0.286458 0.165286
0.0583658 0.283879 0.135241
0.220554 0.326909 0.0886397
0.615549 0.245457 0.107469
0.725414 0.197955 0.103426
0.695003 0.104875 0.0781109
0.686732 0.0877852 0.0654917
0.704784 0.113787 0.0776379
0.124758 0.63299 0.42948
0.142229 0.631479 0.407492
0.184314 0.628794 0.367224
0.220554 0.640803 0.324086
0.475135 0.655848 0.23183
0.80383 0.608804 0.156847
0.785992 0.54403 0.174807
0.779461 0.523445 0.170977
0.772686 0.504189 0.167346
0.247547 0.82446 0.59556
0.267201 0.820966 0.574655
0.296361 0.81355 0.535302
0.312459 0.802365 0.494469
0.46331 0.793667 0.416785
0.722545 0.815045 0.306905
0.82501 0.79881 0.259525
0.82536 0.798779 0.256855
0.825757 0.795316 0.24889
0.257633 0.82887 0.624628
0.261967 0.824613 0.597604
0.305821 0.814847 0.55021
0.317174 0.79881 0.482826
0.403357 0.791424 0.420691
0.598169 0.813107 0.363897
0.817716 0.798413 0.259907
0.825467 0.79884 0.256199
0.825528 0.798871 0.255909
0.258274 0.829801 0.63418
0.263523 0.826658 0.606088
0.308156 0.815808 0.557977
0.318364 0.796002 0.469535
0.360372 0.78938 0.420859
0.564233 0.807462 0.384527
0.787839 0.805722 0.272541
0.825193 0.798718 0.258167
0.825467 0.798825 0.256138
0.258869 0.829572 0.629435
0.263783 0.826398 0.603174
0.302922 0.817044 0.562158
0.318105 0.796139 0.469444
0.327489 0.793286 0.45211
0.536507 0.802258 0.399985
0.685802 0.815015 0.324102
0.825422 0.798795 0.256229
0.825757 0.798886 0.254597
0.0587015 0.0487984 0.29276
0.0851301 0.0438544 0.283116
0.165743 0.0447395 0.254261
0.3458 0.0466773 0.254154
0.624598 0.0960403 0.3552
0.682078 0.105531 0.366232
0.679393 0.0824598 0.2795
0.676814 0.0644999 0.191959
0.670558 0.0482338 0.111849
0.049073 0.0476844 0.284352
0.0628519 0.0484321 0.286152
0.134585 0.0449836 0.258961
0.328328 0.045594 0.2392
0.611048 0.0932021 0.330282
0.679713 0.0897383 0.313176
0.676768 0.066804 0.208698
0.675334 0.06009 0.162005
0.671534 0.0487984 0.110811
0.0340581 0.0691539 0.230243
0.0345464 0.0593881 0.247166
0.0800488 0.0430915 0.269078
0.297398 0.0449683 0.216037
0.581292 0.080415 0.27895
0.677592 0.0720531 0.235508
0.673365 0.0589456 0.15819
0.669215 0.0512245 0.11725
0.668055 0.04654 0.104738
0.0283207 0.283299 0.269596
0.0277714 0.276341 0.262913
0.0276341 0.265461 0.253864
0.326192 0.313832 0.294789
0.653864 0.271077 0.253788
0.751156 0.193591 0.166781
0.681712 0.0841382 0.0698253
0.668009 0.0588235 0.0612192
0.674418 0.0658122 0.0636912
0.0618143 0.612833 0.502098
0.0663157 0.607355 0.485649
0.0800488 0.596948 0.453742
0.138781 0.595956 0.384253
0.530434 0.614572 0.240772
0.780346 0.543099 0.260594
0.781186 0.528618 0.173114
0.771893 0.502876 0.166873
0.764752 0.481636 0.163928
0.189593 0.831846 0.678553
0.203113 0.829374 0.661341
0.227451 0.824491 0.625986
0.285328 0.817136 0.559518
0.420142 0.794995 0.444083
0.755245 0.816663 0.302174
0.825177 0.798779 0.258183
0.825544 0.79852 0.254765
0.82594 0.789761 0.238315
0.19884 0.848539 0.737362
0.20502 0.844648 0.710933
0.234501 0.834669 0.661189
0.288121 0.818021 0.565103
0.358938 0.793011 0.446067
0.598428 0.813169 0.366873
0.815259 0.798474 0.261051
0.825422 0.798856 0.256611
0.825467 0.798901 0.256611
0.24036 0.85095 0.748898
0.229297 0.845762 0.718959
0.244938 0.835538 0.663447
0.298558 0.817716 0.566323
0.335958 0.791226 0.437873
0.557656 0.805982 0.389303
0.771817 0.811841 0.280049
0.825177 0.798703 0.258335
0.825467 0.798825 0.256123
0.230243 0.847898 0.727413
0.227543 0.842145 0.697902
0.25127 0.833036 0.651576
0.294865 0.818555 0.568811
0.31899 0.795727 0.467582
0.508507 0.796796 0.416205
0.638682 0.815473 0.344442
0.823865 0.798779 0.256855
0.825727 0.798886 0.254795
0.137575 0.078645 0.521782
0.176562 0.0610056 0.508171
0.272068 0.0643626 0.488746
0.434897 0.0862287 0.488655
0.676616 0.124773 0.545312
0.720119 0.135317 0.587488
0.723079 0.121996 0.615198
0.7205 0.128344 0.595895
0.692149 0.104341 0.467597
0.108431 0.0778821 0.521721
0.140108 0.0777752 0.516411
0.236042 0.0623331 0.493568
0.412665 0.0830701 0.483024
0.665507 0.122545 0.533272
0.71693 0.14258 0.569772
0.72079 0.126375 0.601404
0.715145 0.142504 0.562585
0.688151 0.107469 0.430228
0.0825971 0.0706645 0.484703
0.0996109 0.0747234 0.50634
0.171969 0.0602579 0.500755
0.366674 0.0722057 0.468894
0.638285 0.113954 0.506645
0.70811 0.133227 0.536065
0.713817 0.142031 0.560327
0.695308 0.111681 0.486839
0.686503 0.108598 0.409232
0.0489052 0.227436 0.518791
0.0518196 0.213489 0.524804
0.0547189 0.188617 0.527306
0.325048 0.153338 0.556268
0.637964 0.173373 0.523445
0.710933 0.134295 0.500786
0.693172 0.113481 0.456535
0.686976 0.11136 0.414054
0.685344 0.0973678 0.332418
0.0433051 0.599039 0.611475
0.0426184 0.594888 0.60763
0.042359 0.586252 0.600244
0.0614023 0.576532 0.59266
0.623575 0.606668 0.596246
0.83975 0.571359 0.561608
0.811872 0.533532 0.490089
0.791211 0.5122 0.433616
0.764584 0.464149 0.319066
0.11986 0.828351 0.771008
0.120394 0.826795 0.762325
0.124254 0.824094 0.744259
0.128511 0.818784 0.705943
0.498604 0.814008 0.656245
0.765423 0.827863 0.563134
0.83444 0.810727 0.548791
0.828565 0.795102 0.453071
0.826093 0.768017 0.32784
0.327001 0.857008 0.833982
0.294972 0.857145 0.82739
0.245548 0.856352 0.812558
0.168292 0.852323 0.763928
0.393118 0.837003 0.674159
0.685527 0.840192 0.644907
0.819684 0.82501 0.474296
0.824247 0.801541 0.285313
0.824826 0.799191 0.262791
0.428519 0.859602 0.844038
0.404776 0.859129 0.836851
0.3608 0.858412 0.822324
0.268238 0.853056 0.771023
0.329732 0.834882 0.662074
0.646662 0.835721 0.645579
0.787106 0.827054 0.443
0.825147 0.798871 0.258824
0.825513 0.79884 0.255863
0.393881 0.858671 0.833417
0.366461 0.858335 0.824353
0.325032 0.856291 0.804685
0.238422 0.850538 0.745525
0.2645 0.826978 0.608713
0.519799 0.816297 0.558465
0.692927 0.82121 0.387488
0.822873 0.798901 0.256916
0.825742 0.798886 0.254734
0.280476 0.089189 0.657511
0.318639 0.0930953 0.657938
0.397421 0.100801 0.66009
0.535317 0.118288 0.66836
0.723095 0.139406 0.698253
0.740948 0.139254 0.702037
0.738994 0.136873 0.700557
0.739559 0.137575 0.700984
0.738201 0.135882 0.699779
0.242344 0.0846265 0.656382
0.282322 0.0893568 0.657038
0.367254 0.0981308 0.658732
0.510536 0.111177 0.663005
0.716258 0.139834 0.696681
0.740841 0.139055 0.701869
0.738338 0.136049 0.699931
0.738796 0.136675 0.700404
0.73695 0.134844 0.697246
0.226108 0.0847791 0.655055
0.226673 0.0836957 0.655024
0.301442 0.0906539 0.655772
0.461433 0.105196 0.659327
0.693782 0.137453 0.691035
0.740124 0.138674 0.699825
0.736934 0.134813 0.698192
0.737026 0.135027 0.698238
0.733318 0.132357 0.683436
0.0872816 0.178347 0.698009
0.0934157 0.158206 0.694286
0.100328 0.132967 0.679286
0.37348 0.108873 0.668605
0.646311 0.162875 0.688777
0.7411 0.143282 0.6916
0.736736 0.136172 0.691646
0.736324 0.135576 0.69099
0.731563 0.126696 0.653529
0.0377508 0.553094 0.801404
0.0416876 0.543481 0.802075
0.0502937 0.529198 0.805432
0.0812238 0.515251 0.820035
0.666148 0.517037 0.8392
0.852506 0.534539 0.813611
0.842359 0.479896 0.80589
0.830671 0.441291 0.776974
0.795361 0.350439 0.675166
0.125414 0.824323 0.8448
0.122621 0.822904 0.842664
0.118013 0.818631 0.83772
0.113039 0.812299 0.831342
0.491981 0.811505 0.81503
0.819013 0.827115 0.817838
0.871107 0.809415 0.801785
0.861814 0.797421 0.777905
0.852338 0.771954 0.724117
0.40351 0.860594 0.867109
0.385122 0.859892 0.86508
0.359915 0.858534 0.861158
0.311681 0.857389 0.853269
0.484611 0.861723 0.835508
0.751415 0.883574 0.824384
0.845731 0.892256 0.796933
0.85568 0.892378 0.800977
0.852918 0.884337 0.773434
0.54995 0.868238 0.872694
0.538293 0.867292 0.869688
0.522988 0.866041 0.866804
0.492668 0.862867 0.859571
0.496315 0.863111 0.846479
0.69958 0.88159 0.825467
0.831235 0.892287 0.813718
0.849042 0.883803 0.755184
0.846632 0.877516 0.728084
0.528862 0.866499 0.868193
0.516838 0.865141 0.86508
0.499489 0.863905 0.860945
0.461463 0.861875 0.853132
0.373617 0.858717 0.827161
0.593164 0.867323 0.793851
0.795666 0.875593 0.788174
0.839414 0.871366 0.705013
0.837018 0.856001 0.636072
0.481041 0.133333 0.694362
0.490837 0.130129 0.691112
0.545525 0.143053 0.697978
0.660395 0.184131 0.712566
0.761212 0.177218 0.727138
0.757412 0.165103 0.720638
0.746731 0.148241 0.709346
0.760021 0.169741 0.72401
0.762081 0.175891 0.726543
0.465583 0.132296 0.694301
0.47187 0.127489 0.689418
0.518975 0.132845 0.692607
0.637354 0.175219 0.709468
0.757748 0.172305 0.724895
0.75494 0.160906 0.718227
0.74609 0.147539 0.708751
0.749935 0.152636 0.712032
0.748623 0.150927 0.710567
0.440513 0.123903 0.68719
0.438849 0.122957 0.686122
0.470619 0.123217 0.684718
0.587839 0.154955 0.701701
0.744732 0.16466 0.718593
0.750912 0.154543 0.713375
0.7449 0.145922 0.70721
0.74609 0.147555 0.708751
0.745037 0.146212 0.707439
0.366278 0.166278 0.737194
0.391806 0.155001 0.724605
0.403861 0.141085 0.708888
0.511284 0.139193 0.698268
0.710597 0.167529 0.716075
0.748486 0.150805 0.71046
0.743587 0.143877 0.705333
0.74374 0.144015 0.705516
0.74345 0.143603 0.70515
0.0929732 0.556176 0.843992
0.110979 0.549157 0.845075
0.155505 0.537667 0.847547
0.334936 0.525811 0.853254
0.737621 0.516594 0.838148
0.852064 0.524788 0.834073
0.843244 0.480842 0.824414
0.836225 0.446311 0.81648
0.821866 0.37792 0.79913
0.213657 0.821088 0.891051
0.210025 0.817899 0.89134
0.204959 0.811887 0.891157
0.202289 0.799649 0.890852
0.509392 0.794217 0.880568
0.840497 0.790616 0.893294
0.881437 0.785061 0.881941
0.881712 0.767498 0.880491
0.881193 0.729625 0.869764
0.438712 0.864454 0.882155
0.422889 0.864164 0.882216
0.402045 0.863401 0.882383
0.373449 0.86183 0.882155
0.502602 0.864225 0.874281
0.761639 0.886397 0.874189
0.871443 0.902922 0.885069
0.879896 0.898985 0.883589
0.877821 0.89366 0.876814
0.605631 0.874434 0.880049
0.595972 0.873381 0.879576
0.583383 0.872358 0.878981
0.564553 0.8701 0.877195
0.567208 0.870192 0.874296
0.757076 0.893126 0.875547
0.855314 0.912383 0.885451
0.881773 0.912077 0.884825
0.881804 0.912108 0.884962
0.597604 0.873426 0.878721
0.59144 0.873091 0.878386
0.583474 0.87219 0.877623
0.570047 0.87071 0.876036
0.541527 0.867613 0.870375
0.686915 0.882872 0.869108
0.824948 0.906996 0.875181
0.877119 0.910842 0.87982
0.879164 0.910689 0.877043
0.577173 0.200259 0.736782
0.597284 0.209186 0.738949
0.643626 0.228641 0.742962
0.737148 0.246204 0.751064
0.791287 0.260319 0.762768
0.786267 0.244465 0.756954
0.769604 0.196612 0.736034
0.769604 0.196612 0.736034
0.769604 0.196612 0.736034
0.558663 0.191363 0.734249
0.578866 0.2009 0.736477
0.62443 0.220874 0.741695
0.720699 0.246632 0.748531
0.791196 0.259159 0.762463
0.787717 0.247974 0.757946
0.769604 0.196612 0.736034
0.769604 0.196612 0.736034
0.769604 0.196612 0.736034
0.541192 0.185046 0.732555
0.547082 0.187213 0.733349
0.58764 0.205341 0.737835
0.686931 0.243763 0.745464
0.790341 0.256916 0.761349
0.789731 0.255116 0.760143
0.769604 0.196612 0.736034
0.769604 0.196612 0.736034
0.769604 0.196612 0.736034
0.558801 0.236652 0.760189
0.551034 0.213352 0.748196
0.545342 0.196765 0.738705
0.630014 0.22472 0.743358
0.77496 0.251164 0.757809
0.791318 0.261677 0.763104
0.770108 0.197559 0.736477
0.769604 0.196612 0.736034
0.769604 0.196612 0.736034
0.476677 0.584283 0.860578
0.495445 0.573343 0.860273
0.511345 0.550103 0.86041
0.582574 0.530449 0.862409
0.795727 0.538415 0.833783
0.855726 0.543038 0.838071
0.851408 0.52018 0.83357
0.845701 0.494865 0.827665
0.839078 0.457588 0.819883
0.42623 0.825635 0.887541
0.426398 0.822599 0.887755
0.430167 0.816922 0.887282
0.43949 0.803983 0.884428
0.598825 0.796567 0.879286
0.859648 0.785962 0.887404
0.881727 0.781537 0.883803
0.881712 0.766491 0.88188
0.881727 0.738643 0.878584
0.550973 0.869398 0.880766
0.542687 0.868818 0.881071
0.534813 0.867521 0.880949
0.531304 0.865705 0.881834
0.59353 0.867506 0.881514
0.771954 0.884398 0.886336
0.87155 0.895644 0.894255
0.87689 0.893507 0.89456
0.87747 0.885527 0.895735
0.643824 0.878447 0.880446
0.633967 0.877546 0.881056
0.621256 0.87541 0.88043
0.60473 0.874266 0.880034
0.602274 0.874022 0.879942
0.760952 0.894163 0.883116
0.857679 0.914092 0.893996
0.880476 0.916747 0.897246
0.880171 0.916609 0.897108
0.652293 0.879393 0.880751
0.646647 0.878676 0.880323
0.640391 0.878065 0.88069
0.631189 0.877287 0.88101
0.616678 0.875608 0.880964
0.731441 0.889265 0.881788
0.847791 0.911818 0.89247
0.878737 0.916228 0.897063
0.880476 0.916747 0.897246
0.581384 0.202304 0.736736
0.602167 0.211475 0.739437
0.647623 0.230579 0.74313
0.741115 0.246113 0.7514
0.791272 0.260655 0.762814
0.785718 0.242649 0.756451
0.769604 0.196612 0.736034
0.769604 0.196612 0.736034
0.769604 0.196612 0.736034
0.564202 0.193713 0.734798
0.583917 0.203601 0.737499
0.628321 0.222446 0.741863
0.724666 0.246387 0.749096
0.791196 0.259373 0.762509
0.787274 0.24744 0.757748
0.769604 0.196612 0.736034
0.769604 0.196612 0.736034
0.769604 0.196612 0.736034
0.541192 0.185046 0.732555
0.55079 0.188083 0.733211
0.591913 0.20734 0.738293
0.689632 0.2448 0.745159
0.790738 0.257084 0.761517
0.789685 0.254917 0.760067
0.769604 0.196612 0.736034
0.769604 0.196612 0.736034
0.769604 0.196612 0.736034
0.549859 0.208148 0.744762
0.542748 0.190936 0.734829
0.541436 0.18584 0.732982
0.628199 0.2224 0.741802
0.773526 0.250675 0.757443
0.791379 0.262089 0.763272
0.770153 0.197925 0.736599
0.769604 0.196612 0.736034
0.769604 0.196612 0.736034
0.511299 0.550225 0.860578
0.520424 0.535439 0.860182
0.535531 0.509026 0.857771
0.594141 0.486595 0.851316
0.787945 0.496452 0.823148
0.846693 0.498299 0.828779
0.841672 0.471443 0.822095
0.834669 0.438834 0.814389
0.82501 0.392248 0.803204
0.462959 0.820096 0.885924
0.455817 0.814679 0.885222
0.445975 0.803693 0.883665
0.430869 0.78146 0.880125
0.598093 0.76817 0.875273
0.863539 0.76112 0.883162
0.881804 0.7579 0.880812
0.881575 0.743343 0.878935
0.881163 0.716228 0.874784
0.587655 0.871366 0.880446
0.583215 0.870497 0.880842
0.575433 0.868482 0.881056
0.563409 0.865019 0.881605
0.606928 0.865354 0.882704
0.769284 0.880247 0.887221
0.873304 0.888304 0.894636
0.876844 0.886442 0.895003
0.87805 0.878187 0.895796
0.655268 0.879896 0.880812
0.650339 0.879164 0.880751
0.643534 0.878431 0.880507
0.634684 0.877546 0.880995
0.63418 0.877531 0.88101
0.769665 0.896086 0.883986
0.857511 0.914046 0.89398
0.87953 0.91635 0.896971
0.878965 0.915801 0.896849
0.677394 0.881819 0.880964
0.677394 0.881819 0.880964
0.677394 0.881819 0.880964
0.677394 0.881819 0.880964
0.677394 0.881819 0.880964
0.758618 0.893828 0.883391
0.850095 0.912642 0.893004
0.880049 0.91664 0.897215
0.880476 0.916747 0.897246
