bundles/resolve-cinematic-luts/Phantom Luts/Ursa G2 Phntm Film LUTs - V1/Gen5/White Balance Offset (+Magenta Boost)/Ursa EastmanRM Gen5 WBO.cube
TITLE "Generated by Resolve"
LUT_3D_SIZE 33
0.0426032 0.0360571 0.0393835
0.0427558 0.0358892 0.0391394
0.043061 0.0355535 0.0385748
0.0453498 0.0348363 0.0377356
0.0514076 0.0339055 0.0367742
0.0616007 0.032639 0.035996
0.0783246 0.0316014 0.035462
0.10338 0.0308843 0.0352178
0.129198 0.0302892 0.0354925
0.158495 0.0297093 0.0362554
0.192859 0.0289311 0.0371405
0.234195 0.027924 0.0381781
0.285237 0.0263371 0.0390631
0.335958 0.0250095 0.0397345
0.382269 0.0244144 0.0406958
0.425132 0.0254978 0.0426337
0.46479 0.0260166 0.0454566
0.498177 0.0267643 0.0493935
0.524498 0.0276341 0.0538643
0.542336 0.0289311 0.0583963
0.556023 0.0314794 0.0637064
0.564553 0.0332952 0.0672465
0.567193 0.0337377 0.0701915
0.56849 0.033814 0.0725109
0.5738 0.034699 0.0775616
0.57882 0.0361639 0.0821088
0.579568 0.0364996 0.0830243
0.579568 0.0364996 0.0830243
0.577829 0.0366674 0.0842908
0.572168 0.037171 0.0890516
0.564889 0.0379187 0.0950484
0.551476 0.039353 0.106828
0.537194 0.0410315 0.118715
0.043061 0.0355535 0.0385901
0.0428931 0.0357366 0.03888
0.043061 0.0355535 0.0385748
0.0446632 0.0349737 0.0377661
0.0489662 0.034165 0.0369421
0.0568093 0.0332341 0.0364996
0.0699474 0.0323949 0.0362554
0.0959029 0.0314946 0.0359197
0.125414 0.0305028 0.0356451
0.156374 0.0298009 0.0363317
0.190402 0.0291447 0.0374304
0.23032 0.0282902 0.0391852
0.282292 0.0266117 0.0401617
0.335164 0.0251774 0.0404517
0.384237 0.0244144 0.0408942
0.428473 0.0252995 0.0428168
0.467475 0.0260166 0.0456703
0.50045 0.0268101 0.0496986
0.526375 0.0276341 0.0541085
0.543511 0.029221 0.0589761
0.55729 0.0317388 0.0641337
0.564721 0.0333104 0.0674601
0.5673 0.0337377 0.0703593
0.568978 0.033875 0.0729686
0.573938 0.0347143 0.0778973
0.579309 0.0363775 0.0827192
0.579568 0.0364996 0.0830243
0.579568 0.0364996 0.0830243
0.577829 0.0366674 0.0842908
0.572168 0.037171 0.0890516
0.564889 0.0379187 0.0950484
0.551446 0.039353 0.106874
0.537163 0.0410315 0.118746
0.043061 0.0355535 0.0385901
0.0427405 0.0358892 0.0391394
0.0427558 0.0358892 0.0391394
0.043061 0.0355535 0.0385748
0.045716 0.0349279 0.0377356
0.0514534 0.034287 0.0371405
0.0627604 0.0333104 0.0366979
0.0813001 0.0323339 0.0366217
0.113725 0.0312505 0.036347
0.147723 0.0300908 0.0364385
0.185428 0.029221 0.0372473
0.226261 0.0283665 0.039292
0.277668 0.0268864 0.0408637
0.331197 0.0254673 0.0416724
0.381201 0.0247349 0.0424353
0.427207 0.0256352 0.0439002
0.468162 0.026215 0.0466926
0.502632 0.0268711 0.0499733
0.527611 0.0276493 0.0544289
0.545296 0.0293736 0.0595407
0.558312 0.0319982 0.0644541
0.564965 0.0333562 0.0677501
0.567407 0.0337377 0.0705119
0.569451 0.0339513 0.0733196
0.574121 0.0347448 0.0782025
0.579568 0.0364996 0.0830243
0.579568 0.0364996 0.0830243
0.579568 0.0364996 0.0830243
0.577829 0.0366674 0.0842908
0.572168 0.037171 0.0890516
0.564874 0.0379187 0.0950484
0.551415 0.0393683 0.106889
0.537118 0.0410468 0.118791
0.0437324 0.0390936 0.0401007
0.0433509 0.0390478 0.0403601
0.0432441 0.0381933 0.0399786
0.0438544 0.0381323 0.0395361
0.0472114 0.0383154 0.0388495
0.0523995 0.0379187 0.0379034
0.0619211 0.0370031 0.0374762
0.0779126 0.0354772 0.0373693
0.105119 0.0328985 0.0370794
0.138674 0.0309758 0.0370184
0.178576 0.0297704 0.037705
0.222126 0.0285191 0.0392157
0.274983 0.0269322 0.0408026
0.329213 0.0255283 0.0418097
0.378637 0.0248264 0.0429084
0.424338 0.0259251 0.0449226
0.465263 0.0265812 0.0483864
0.498955 0.0272221 0.0521859
0.525414 0.0278782 0.0566567
0.543481 0.0297856 0.0616159
0.557534 0.0323491 0.0654002
0.564599 0.033463 0.068513
0.567483 0.0337377 0.0706645
0.569787 0.0339818 0.07364
0.574411 0.0348211 0.0786297
0.579568 0.0364996 0.0830243
0.579568 0.0364996 0.0830243
0.579248 0.0365301 0.0832837
0.577493 0.0366979 0.0845197
0.57203 0.0371862 0.089128
0.564843 0.0379187 0.095079
0.5514 0.0393683 0.106905
0.537087 0.0410468 0.118837
0.0445258 0.0464027 0.0420233
0.0439155 0.0466621 0.0425574
0.0436561 0.0462348 0.0423438
0.0441291 0.0457618 0.0419165
0.0461433 0.0471809 0.0416876
0.0513771 0.0459754 0.04094
0.0616617 0.0443427 0.0401312
0.0802014 0.0424201 0.039292
0.108049 0.0380865 0.0385138
0.138613 0.0346838 0.0386358
0.1776 0.0314031 0.0389715
0.221469 0.0292515 0.0397803
0.27686 0.0272831 0.0409247
0.329519 0.0255436 0.0418402
0.378302 0.0248264 0.0428931
0.423529 0.0259556 0.0447242
0.464134 0.0266575 0.0479286
0.4972 0.0273747 0.0525673
0.522332 0.0281834 0.0577707
0.539818 0.0301823 0.0637064
0.552834 0.0329595 0.0684672
0.559167 0.0340429 0.0722515
0.561578 0.034287 0.0745251
0.56434 0.0344091 0.0778973
0.569299 0.0354314 0.0828412
0.57409 0.0369879 0.0875563
0.574105 0.0369879 0.087541
0.573892 0.0370031 0.0877394
0.573434 0.0370489 0.0880598
0.570001 0.0374151 0.0904555
0.564111 0.037995 0.095613
0.551369 0.0393683 0.106935
0.537057 0.0410468 0.118868
0.0453651 0.0558633 0.0441596
0.0445258 0.0564126 0.0449073
0.0441749 0.0559854 0.0445258
0.0445258 0.0551766 0.0437324
0.0459297 0.0559701 0.0437018
0.0497749 0.057435 0.0433509
0.0610361 0.0556649 0.0429694
0.0809949 0.0519417 0.0419623
0.111696 0.0474556 0.0409247
0.141894 0.0430304 0.0408179
0.175723 0.0380713 0.04094
0.219913 0.033463 0.0415808
0.278553 0.0294041 0.0422065
0.331762 0.0263523 0.0422217
0.380743 0.0250858 0.0428779
0.424567 0.0259861 0.0445411
0.465064 0.0266575 0.047013
0.497276 0.0273594 0.0505684
0.521447 0.0282292 0.0562448
0.538811 0.0302434 0.062623
0.552056 0.0331121 0.0684215
0.558373 0.034226 0.0729839
0.560098 0.0344244 0.0755169
0.561776 0.0344549 0.0788891
0.567849 0.0357977 0.0848249
0.572198 0.0372015 0.0889906
0.572168 0.0371862 0.0890211
0.572168 0.0371862 0.0890516
0.572168 0.037171 0.0890516
0.569268 0.0374914 0.0910353
0.563928 0.0380255 0.0957809
0.551369 0.0393683 0.106935
0.537041 0.0410468 0.118883
0.0466926 0.0718853 0.0476997
0.0456245 0.0725872 0.0485084
0.045182 0.0725719 0.0484779
0.0455024 0.071519 0.0469062
0.047013 0.0708476 0.0455329
0.0517433 0.0717327 0.0448768
0.0609903 0.0741283 0.0438087
0.0906691 0.0704204 0.0426337
0.123888 0.0623484 0.0423133
0.15787 0.0557107 0.0420233
0.192813 0.049897 0.0424811
0.237568 0.0411536 0.0419928
0.289693 0.0342565 0.0420539
0.3411 0.0306859 0.0430152
0.387533 0.0274357 0.0433051
0.428443 0.0260014 0.0440528
0.465156 0.0266575 0.0466163
0.496498 0.0273594 0.0500954
0.520974 0.0282292 0.0547341
0.538323 0.0304265 0.0605173
0.551675 0.0331426 0.0675212
0.558724 0.0343633 0.0727245
0.559792 0.0344396 0.0749981
0.561135 0.0344549 0.0776684
0.565499 0.035172 0.0819867
0.572122 0.0372473 0.0880598
0.57232 0.0373083 0.0884108
0.572274 0.0372625 0.0885328
0.572259 0.0372625 0.0886091
0.570397 0.0374609 0.0898909
0.566735 0.0378119 0.0931258
0.558877 0.0385901 0.100404
0.549569 0.0395972 0.108309
0.053315 0.0910658 0.0496834
0.0503395 0.0931411 0.0511482
0.0482338 0.0942397 0.0529183
0.0478981 0.0934768 0.0520027
0.0484321 0.0919051 0.0498665
0.0517433 0.0925612 0.0474098
0.0607767 0.0952468 0.0478676
0.0796063 0.0981155 0.0468605
0.121813 0.0942702 0.0457465
0.164233 0.0840925 0.0468452
0.206149 0.0754559 0.0457008
0.25713 0.0635538 0.0460212
0.309712 0.0513313 0.0453651
0.358831 0.0404669 0.04448
0.402426 0.0329595 0.0445411
0.44242 0.0291447 0.0451514
0.474525 0.0270695 0.0461585
0.50135 0.0274815 0.049546
0.522332 0.0282139 0.0542916
0.537926 0.0305028 0.0594339
0.550942 0.0332952 0.0654765
0.558053 0.0344244 0.0709087
0.55935 0.0344701 0.0738689
0.560678 0.0344854 0.0762798
0.563012 0.0346532 0.0795148
0.564721 0.0349432 0.0811322
0.566674 0.0355077 0.0826581
0.566613 0.0354009 0.0827802
0.566461 0.0353246 0.0827497
0.564935 0.0355688 0.0847486
0.562387 0.0364233 0.0889296
0.5561 0.0378882 0.0970016
0.548821 0.0395056 0.106355
0.0585336 0.114809 0.0546731
0.0548104 0.116762 0.0568856
0.0517891 0.118502 0.0590982
0.050782 0.118456 0.059205
0.0507668 0.117067 0.0568704
0.0518349 0.116686 0.0532082
0.0576181 0.118486 0.0515908
0.0741894 0.122347 0.0535592
0.104601 0.127077 0.0518502
0.160327 0.122042 0.0504921
0.213077 0.112917 0.0520638
0.274769 0.0972305 0.0499886
0.336645 0.0796979 0.0491646
0.381201 0.0703136 0.0495308
0.42475 0.0564889 0.0491188
0.463935 0.0407416 0.0473793
0.490517 0.0328985 0.0490425
0.510903 0.0302586 0.0524147
0.525933 0.0299229 0.0564126
0.541024 0.0320592 0.061677
0.550515 0.0336156 0.0646983
0.557092 0.0346532 0.0676738
0.558785 0.0345312 0.0715648
0.559915 0.0345312 0.0745861
0.561074 0.0345464 0.0769207
0.561593 0.0345159 0.0780499
0.561791 0.0344854 0.0785077
0.561913 0.0344701 0.078706
0.562005 0.0344549 0.0788739
0.560708 0.0346532 0.0808118
0.558465 0.0352941 0.0840925
0.550317 0.036408 0.0911421
0.541543 0.0374151 0.0991684
0.0661021 0.144381 0.0624247
0.0612802 0.146426 0.0653544
0.0573434 0.148394 0.0677501
0.0559548 0.149233 0.0691997
0.055848 0.14815 0.0670939
0.0574044 0.146899 0.0619364
0.0605173 0.146883 0.0573739
0.06981 0.149523 0.0571145
0.0994278 0.157336 0.0605173
0.136736 0.165881 0.0594492
0.212467 0.158572 0.0565957
0.286839 0.148806 0.0574655
0.356619 0.129274 0.0552071
0.416464 0.110079 0.0533455
0.460273 0.0995193 0.0542763
0.497139 0.0906081 0.0562142
0.524163 0.074876 0.0580758
0.538811 0.0503395 0.0566415
0.540749 0.0424964 0.0621958
0.54464 0.0392309 0.066453
0.547463 0.0364843 0.0692302
0.551644 0.0362097 0.0717479
0.552804 0.0354467 0.0706188
0.555718 0.0350042 0.0735332
0.55816 0.0347448 0.0755169
0.559289 0.0347143 0.076463
0.559655 0.034699 0.0767681
0.55993 0.0346838 0.0769207
0.560143 0.0346685 0.0770733
0.558724 0.0347601 0.0784772
0.555016 0.035111 0.081178
0.546944 0.0358587 0.0873426
0.537728 0.036759 0.0942702
0.0749981 0.181064 0.0717479
0.068452 0.183993 0.0744182
0.0635843 0.186236 0.0773938
0.0616617 0.187427 0.0789502
0.0607309 0.187762 0.0792401
0.0609903 0.185351 0.0748608
0.0622721 0.185687 0.0683299
0.0655375 0.187274 0.0641794
0.0810101 0.192554 0.0636149
0.12163 0.20795 0.0675517
0.174029 0.225925 0.0666667
0.293614 0.220142 0.0635843
0.387961 0.214527 0.0660105
0.46041 0.19266 0.0690776
0.516136 0.173571 0.0675059
0.55874 0.155367 0.0687419
0.591943 0.146838 0.0734569
0.61471 0.138857 0.0814984
0.619821 0.125719 0.0895247
0.603464 0.0890669 0.0806134
0.58172 0.0624857 0.0786603
0.561227 0.046067 0.0753796
0.546471 0.0379492 0.0742809
0.54461 0.0368505 0.0754559
0.545205 0.0361791 0.0790723
0.545739 0.0359503 0.0801556
0.546044 0.0359197 0.0805371
0.546227 0.0358892 0.0808881
0.54638 0.035874 0.0811017
0.546059 0.0359045 0.0813153
0.545357 0.0359655 0.0819715
0.5411 0.0363775 0.0853895
0.534676 0.0370031 0.0901198
0.0778821 0.234318 0.0776837
0.0704356 0.237751 0.0805219
0.0646525 0.241047 0.082887
0.0628824 0.243214 0.0846418
0.0619364 0.24416 0.0857404
0.0619516 0.243122 0.0832074
0.0622873 0.241382 0.0780957
0.06421 0.243656 0.0698405
0.0700847 0.247471 0.0646983
0.097612 0.26038 0.067277
0.152926 0.287419 0.0747692
0.236469 0.317052 0.0757
0.386892 0.313008 0.0683909
0.49395 0.307317 0.068925
0.561563 0.293828 0.0706188
0.618585 0.264546 0.078645
0.665385 0.238865 0.0858015
0.698344 0.227649 0.0995804
0.716518 0.218555 0.116106
0.721447 0.205814 0.127932
0.710719 0.188586 0.128878
0.67953 0.15877 0.120043
0.621408 0.0971695 0.0894942
0.564294 0.0482032 0.0755474
0.549599 0.0405585 0.0774395
0.542733 0.037232 0.0769207
0.542763 0.037171 0.0776684
0.542565 0.0370489 0.0782483
0.542229 0.0368963 0.0786908
0.542138 0.0368353 0.0789654
0.542138 0.0368048 0.0791485
0.5393 0.0370642 0.0810559
0.533623 0.0376287 0.0847639
0.0813001 0.304692 0.0860456
0.0735027 0.309026 0.0904402
0.0667887 0.312474 0.0940414
0.064683 0.31519 0.0959182
0.0640269 0.316625 0.0969863
0.0643168 0.317052 0.0964675
0.0652781 0.314595 0.0917372
0.0667735 0.315801 0.0838026
0.0686809 0.31754 0.0714427
0.0796826 0.324224 0.0653544
0.119677 0.342931 0.0681926
0.195819 0.374395 0.0751049
0.316136 0.412634 0.0768597
0.475151 0.407034 0.0725719
0.58172 0.40058 0.0751965
0.646799 0.392432 0.0763867
0.696712 0.369833 0.0836957
0.743236 0.341924 0.101228
0.772915 0.324788 0.11957
0.787335 0.316991 0.133852
0.785718 0.299718 0.138796
0.77789 0.280705 0.139315
0.763806 0.254414 0.138491
0.733822 0.212024 0.134783
0.665171 0.145892 0.114534
0.584253 0.0630503 0.0814221
0.587381 0.0656596 0.084123
0.588235 0.066743 0.0853285
0.588144 0.0668193 0.0857099
0.587732 0.0665293 0.0857252
0.587274 0.0661326 0.0856489
0.584268 0.0665293 0.0876631
0.579553 0.0679789 0.091371
0.0752728 0.375174 0.0884565
0.0691997 0.379217 0.0929274
0.0645304 0.383383 0.0970626
0.0622416 0.386267 0.0990921
0.0603799 0.388006 0.101854
0.060029 0.388983 0.102312
0.0606241 0.388678 0.0998093
0.0628672 0.386542 0.09337
0.0639658 0.390295 0.0830854
0.0648356 0.391501 0.0670176
0.0812695 0.400259 0.0603799
0.143679 0.422446 0.0642405
0.266178 0.463676 0.0763867
0.399603 0.503349 0.0820783
0.549935 0.49601 0.0848402
0.651911 0.488136 0.0939193
0.707591 0.483482 0.100938
0.748394 0.472007 0.110643
0.783871 0.453437 0.125917
0.811658 0.437278 0.146227
0.825818 0.415686 0.156008
0.820554 0.392477 0.152087
0.814206 0.371695 0.147509
0.806775 0.349554 0.14435
0.79411 0.315938 0.140871
0.775555 0.275883 0.139361
0.767941 0.261891 0.138964
0.762692 0.252537 0.138705
0.75787 0.244999 0.13814
0.753582 0.23888 0.137591
0.750439 0.234684 0.137163
0.74519 0.232639 0.139544
0.737743 0.232776 0.145541
0.0661631 0.442969 0.0957351
0.0625315 0.44712 0.102922
0.0592813 0.451484 0.107973
0.0581979 0.454551 0.11136
0.0572061 0.456565 0.114443
0.0567636 0.457908 0.115846
0.056733 0.458503 0.115221
0.0578927 0.457374 0.109361
0.0605173 0.457008 0.0992142
0.0628977 0.461463 0.086656
0.0698558 0.463371 0.06804
0.107225 0.474678 0.0622873
0.203571 0.498314 0.0686961
0.368688 0.556374 0.0951858
0.480064 0.584115 0.100938
0.614237 0.574105 0.110002
0.708141 0.565667 0.126665
0.754452 0.562921 0.145434
0.786587 0.558297 0.162646
0.810742 0.551827 0.175631
0.830213 0.541543 0.184543
0.838132 0.516304 0.184054
0.837995 0.487129 0.17763
0.835111 0.462577 0.171115
0.832074 0.438529 0.163882
0.827543 0.419272 0.158404
0.825437 0.40882 0.155306
0.824155 0.405524 0.15433
0.822721 0.402243 0.153429
0.822003 0.399374 0.152712
0.821103 0.397787 0.151736
0.817609 0.397269 0.154574
0.810758 0.398291 0.161837
0.0674296 0.507759 0.131533
0.0642405 0.511803 0.139376
0.0627146 0.516304 0.146471
0.062211 0.519707 0.149218
0.0614481 0.522148 0.152819
0.0608988 0.523415 0.154864
0.0611276 0.524636 0.155779
0.0621653 0.524147 0.151278
0.0653544 0.522225 0.138338
0.0703136 0.523659 0.124193
0.0770123 0.527565 0.106218
0.101122 0.531044 0.0829175
0.169085 0.542351 0.0771344
0.301396 0.5776 0.0947585
0.464897 0.636011 0.125429
0.549477 0.655222 0.131502
0.669306 0.644678 0.146029
0.755001 0.639277 0.174273
0.797436 0.638407 0.207858
0.822843 0.635706 0.231983
0.840269 0.633219 0.24683
0.851392 0.626108 0.251545
0.85182 0.613214 0.241932
0.84741 0.587869 0.22359
0.844709 0.561486 0.206516
0.842206 0.538827 0.194308
0.841978 0.527108 0.187808
0.842313 0.52401 0.185687
0.842512 0.521614 0.184543
0.842557 0.519402 0.183825
0.842206 0.518074 0.183154
0.839033 0.517937 0.186587
0.83357 0.519081 0.194522
0.0804456 0.567773 0.188861
0.0775311 0.572091 0.197406
0.0760967 0.576425 0.205325
0.0767987 0.57969 0.207401
0.0770733 0.582513 0.210605
0.0770886 0.58407 0.213107
0.0769818 0.585107 0.214801
0.0774395 0.585504 0.214176
0.0794995 0.58381 0.204898
0.0840772 0.581292 0.187945
0.0965438 0.583642 0.169436
0.115206 0.585092 0.1411
0.164157 0.587716 0.1122
0.258885 0.604166 0.112032
0.408286 0.656352 0.146242
0.53817 0.703777 0.172076
0.614755 0.721035 0.181094
0.719081 0.71194 0.200702
0.794247 0.708309 0.24213
0.833768 0.709819 0.278386
0.855833 0.71014 0.300725
0.869154 0.707103 0.31194
0.87393 0.702007 0.315099
0.871763 0.693584 0.308064
0.867613 0.677378 0.294759
0.86099 0.655421 0.278035
0.857176 0.642908 0.267903
0.857237 0.641016 0.266239
0.857466 0.640116 0.265766
0.85713 0.639368 0.265248
0.856947 0.638941 0.26508
0.856519 0.639216 0.266224
0.85597 0.64007 0.268971
0.107851 0.622477 0.262592
0.108385 0.625437 0.265553
0.108339 0.628977 0.270329
0.110887 0.631846 0.272038
0.113451 0.634043 0.271901
0.114107 0.635431 0.274464
0.114351 0.636576 0.27628
0.114977 0.637293 0.277073
0.116716 0.636667 0.273365
0.120592 0.633402 0.25861
0.13019 0.631052 0.238056
0.149508 0.631113 0.212604
0.182605 0.630076 0.175952
0.247776 0.636851 0.155825
0.362676 0.667536 0.171572
0.501381 0.725444 0.214542
0.601633 0.762325 0.238163
0.675837 0.779492 0.252384
0.7673 0.778149 0.275273
0.826398 0.773816 0.311894
0.85948 0.774868 0.34255
0.879927 0.776822 0.36257
0.893278 0.773037 0.372213
0.893996 0.770138 0.371115
0.892973 0.765377 0.366476
0.890257 0.755581 0.35816
0.888014 0.747372 0.351293
0.886427 0.743313 0.347829
0.885985 0.742077 0.346929
0.885878 0.741405 0.346624
0.885847 0.740902 0.346441
0.885801 0.740795 0.346548
0.885847 0.741314 0.347066
0.153933 0.665843 0.323644
0.15494 0.667536 0.324117
0.154788 0.670176 0.327199
0.157366 0.672541 0.329183
0.160327 0.674327 0.328542
0.162112 0.675258 0.327703
0.162509 0.676143 0.32958
0.163287 0.676478 0.330327
0.163867 0.676783 0.331029
0.166567 0.6748 0.321645
0.17203 0.670863 0.302129
0.186328 0.668223 0.278889
0.21146 0.667079 0.247532
0.260197 0.667857 0.210254
0.349203 0.686137 0.206928
0.470863 0.732815 0.244572
0.58526 0.783475 0.285908
0.659159 0.810269 0.306477
0.73196 0.827436 0.32343
0.809018 0.832517 0.348653
0.84979 0.826001 0.371328
0.877684 0.824002 0.393423
0.897002 0.823285 0.410529
0.903899 0.822187 0.416373
0.903593 0.820203 0.414282
0.903273 0.81854 0.41265
0.902434 0.816114 0.410025
0.901946 0.814557 0.408179
0.901854 0.814008 0.407645
0.901793 0.813764 0.407416
0.901778 0.813703 0.407355
0.901823 0.813825 0.407492
0.901961 0.813825 0.407721
0.198032 0.697505 0.369543
0.198642 0.698894 0.370336
0.197925 0.701152 0.374426
0.198962 0.703166 0.375067
0.202075 0.70454 0.373831
0.204715 0.705074 0.371176
0.204898 0.705669 0.372564
0.205386 0.706004 0.373053
0.205982 0.706355 0.373465
0.207095 0.705592 0.369863
0.209522 0.702159 0.355489
0.218143 0.697826 0.333333
0.237247 0.694713 0.302968
0.269688 0.692668 0.265156
0.350195 0.703639 0.241184
0.461662 0.742077 0.268376
0.567346 0.79057 0.312963
0.6477 0.825193 0.344823
0.709697 0.847028 0.365545
0.780514 0.863554 0.387182
0.837217 0.87013 0.407416
0.867231 0.862333 0.418311
0.891981 0.856977 0.432975
0.906477 0.856397 0.445579
0.908705 0.854749 0.445731
0.908431 0.853223 0.444465
0.908217 0.851972 0.443168
0.908202 0.851591 0.442832
0.908156 0.851392 0.442634
0.90811 0.851133 0.442451
0.90811 0.851011 0.442374
0.908186 0.851148 0.442512
0.908217 0.851209 0.442588
0.2365 0.721874 0.404807
0.233051 0.721965 0.405722
0.229984 0.723461 0.408103
0.229313 0.724346 0.408148
0.230564 0.724865 0.405692
0.232975 0.724788 0.400488
0.233066 0.724926 0.400366
0.232975 0.724926 0.400458
0.232837 0.724865 0.400458
0.232639 0.724651 0.400031
0.234195 0.722271 0.390173
0.238575 0.717723 0.370901
0.250355 0.712016 0.341268
0.275319 0.706874 0.301274
0.336934 0.710964 0.266102
0.453788 0.745525 0.280018
0.558145 0.792004 0.322499
0.641215 0.829587 0.357473
0.69485 0.850416 0.379843
0.751507 0.86775 0.401175
0.814542 0.879332 0.42359
0.853025 0.87953 0.4365
0.88011 0.871321 0.443976
0.90135 0.868742 0.455024
0.909438 0.868803 0.460502
0.909606 0.868727 0.459403
0.90956 0.86894 0.459068
0.909636 0.869383 0.459617
0.909636 0.86981 0.460151
0.90956 0.870207 0.460563
0.909834 0.870161 0.459159
0.910628 0.869947 0.45655
0.911772 0.869657 0.452461
0.256687 0.731487 0.416449
0.255726 0.731411 0.414221
0.249378 0.731731 0.417533
0.244953 0.731289 0.416922
0.243168 0.730419 0.413001
0.243931 0.728771 0.405234
0.244053 0.728344 0.40293
0.244053 0.728313 0.402853
0.244038 0.728313 0.402853
0.244038 0.728298 0.402838
0.244419 0.72755 0.398337
0.24831 0.723583 0.381491
0.255406 0.717556 0.354482
0.276081 0.71107 0.312459
0.321462 0.710521 0.272953
0.444022 0.743297 0.273869
0.563043 0.795422 0.31899
0.645136 0.831754 0.351751
0.693523 0.850675 0.371878
0.740688 0.865797 0.390631
0.797223 0.878096 0.412436
0.841474 0.883299 0.431159
0.870405 0.874281 0.440162
0.893736 0.870039 0.452171
0.906569 0.870497 0.460624
0.909773 0.870283 0.460029
0.910887 0.870207 0.457038
0.911482 0.870314 0.45623
0.911238 0.87039 0.457038
0.91017 0.87071 0.460456
0.909941 0.870771 0.461326
0.910369 0.870573 0.459571
0.91165 0.870207 0.4551
0.25417 0.733867 0.428382
0.253437 0.733593 0.425788
0.250095 0.734264 0.426841
0.246098 0.733562 0.42501
0.241794 0.732189 0.42063
0.242786 0.729976 0.410407
0.243671 0.728664 0.404623
0.243778 0.728557 0.404059
0.243778 0.728542 0.403998
0.243793 0.728527 0.403967
0.244053 0.728283 0.402747
0.246433 0.725216 0.388952
0.252461 0.719829 0.364981
0.270863 0.713024 0.324422
0.308324 0.709697 0.281743
0.412787 0.732326 0.269902
0.556878 0.792508 0.318578
0.641169 0.830243 0.351431
0.688014 0.848554 0.369512
0.730953 0.862806 0.387106
0.781537 0.875303 0.406409
0.823117 0.881773 0.424186
0.860914 0.876783 0.439353
0.884978 0.87039 0.452155
0.901137 0.870787 0.465492
0.906661 0.871046 0.47039
0.906935 0.871046 0.469932
0.906966 0.871199 0.470268
0.90663 0.871366 0.471763
0.905745 0.871626 0.47451
0.905318 0.871717 0.476265
0.905394 0.871687 0.475914
0.90605 0.871504 0.473396
0.244617 0.739651 0.45185
0.246159 0.737911 0.443931
0.246845 0.736599 0.437461
0.245151 0.735134 0.430777
0.241169 0.732937 0.423484
0.242588 0.73019 0.411383
0.24419 0.728038 0.401297
0.244312 0.727794 0.39968
0.244327 0.727764 0.399496
0.244327 0.727733 0.399359
0.244373 0.727626 0.398718
0.246448 0.725505 0.389776
0.252903 0.720562 0.367132
0.268803 0.714107 0.330129
0.301534 0.709133 0.284688
0.397726 0.727596 0.269688
0.538384 0.783993 0.314809
0.637568 0.828855 0.353674
0.683574 0.84686 0.370291
0.723262 0.860929 0.384756
0.764096 0.87158 0.400092
0.806821 0.879469 0.416938
0.853315 0.881254 0.438087
0.878782 0.870924 0.448096
0.896757 0.870512 0.462058
0.905211 0.871092 0.470069
0.906355 0.871138 0.471229
0.906004 0.87126 0.472618
0.905409 0.871427 0.474632
0.904448 0.871702 0.477958
0.903838 0.871885 0.479774
0.903838 0.871885 0.479759
0.904448 0.871672 0.477913
0.24567 0.742077 0.457816
0.247913 0.739727 0.447852
0.248859 0.737484 0.438697
0.245823 0.735027 0.42974
0.2421 0.732341 0.420966
0.243626 0.729061 0.406378
0.246509 0.725185 0.38883
0.247074 0.724788 0.386648
0.247227 0.724727 0.386328
0.247349 0.724681 0.38613
0.24744 0.724666 0.386038
0.249042 0.72369 0.381353
0.256046 0.719265 0.359106
0.271168 0.713832 0.32781
0.301976 0.708507 0.282261
0.393835 0.72668 0.269749
0.527169 0.779019 0.31194
0.63122 0.826322 0.355352
0.678355 0.845136 0.37293
0.713024 0.857603 0.384512
0.747845 0.867842 0.395712
0.792844 0.877394 0.411627
0.845548 0.883162 0.434928
0.872801 0.872724 0.444709
0.892821 0.870527 0.458351
0.9037 0.871092 0.468666
0.906355 0.871138 0.471229
0.905989 0.871244 0.472526
0.905394 0.871397 0.474525
0.904433 0.871672 0.477882
0.903822 0.87187 0.479698
0.903578 0.871946 0.480629
0.903807 0.87187 0.479744
0.249195 0.74258 0.454398
0.251148 0.739773 0.443
0.250904 0.736767 0.43183
0.2486 0.733425 0.419501
0.247639 0.730388 0.406485
0.249241 0.725505 0.388067
0.254276 0.7205 0.366079
0.255207 0.719631 0.361685
0.255024 0.719692 0.362081
0.254749 0.719844 0.362982
0.254505 0.719982 0.363745
0.255741 0.719356 0.359915
0.263279 0.716228 0.342687
0.278096 0.712047 0.315206
0.309133 0.708644 0.276997
0.398917 0.727794 0.269261
0.531655 0.78114 0.313726
0.628412 0.825208 0.354879
0.672923 0.843305 0.373388
0.699519 0.853117 0.382925
0.73283 0.863691 0.394949
0.781628 0.875471 0.411276
0.838041 0.883284 0.433539
0.867597 0.873701 0.442161
0.888151 0.870069 0.454765
0.901762 0.870924 0.466484
0.906081 0.871122 0.470878
0.905989 0.871244 0.472526
0.905394 0.871397 0.474525
0.904433 0.871672 0.477882
0.903822 0.87187 0.479698
0.903578 0.871946 0.480629
0.903578 0.871946 0.480629
0.249912 0.743679 0.457343
0.250645 0.741131 0.446876
0.252857 0.738354 0.435065
0.250294 0.734462 0.421714
0.248478 0.730785 0.407309
0.249836 0.725872 0.388418
