bundles/resolve-cinematic-luts/Phantom Luts/Ursa G2 Phntm Film LUTs - V1/Gen5/White Balance Offset (+Magenta Boost)/Ursa Vision Gen5 WBO.cube
TITLE "Generated by Resolve"
LUT_3D_SIZE 9
0.0221866 0.0273747 0.0221866
0.0248112 0.0295872 0.0223087
0.0848402 0.0299687 0.0205539
0.286046 0.0290684 0.0229191
0.516579 0.024033 0.0376593
0.651926 0.0330053 0.071519
0.665309 0.0466468 0.11899
0.665782 0.0464637 0.118822
0.669032 0.0453651 0.116304
0.0224765 0.0413062 0.0256809
0.025742 0.0408942 0.0243992
0.0918898 0.0350347 0.022385
0.287602 0.0294347 0.0234684
0.512795 0.0301366 0.0353246
0.65211 0.0326543 0.0697185
0.665858 0.0462501 0.112902
0.663188 0.0430762 0.107576
0.667552 0.0417945 0.103716
0.0342412 0.121477 0.0568551
0.0337987 0.115221 0.0516518
0.0717479 0.127993 0.0459449
0.341146 0.083711 0.0403754
0.558236 0.0562905 0.0396582
0.658793 0.0476844 0.0630045
0.655329 0.0333562 0.0727092
0.655024 0.0328069 0.0699626
0.656611 0.0323033 0.0639048
0.0865034 0.39353 0.182132
0.0872969 0.392386 0.174914
0.0871443 0.381415 0.147173
0.273762 0.421759 0.108431
0.633585 0.37052 0.105928
0.742367 0.301625 0.128908
0.73051 0.158267 0.0882124
0.732631 0.171878 0.0957198
0.73611 0.19498 0.098085
0.201343 0.692073 0.423667
0.213397 0.691951 0.406027
0.210224 0.686076 0.399588
0.2477 0.675776 0.321157
0.52163 0.698116 0.242023
0.811093 0.672587 0.126177
0.817533 0.63505 0.147478
0.813428 0.615747 0.15288
0.80499 0.580209 0.164385
0.294118 0.827268 0.567666
0.30071 0.824125 0.543359
0.304402 0.821256 0.532738
0.319356 0.81268 0.496956
0.525399 0.807828 0.415259
0.742321 0.82501 0.308858
0.834302 0.809674 0.271824
0.834424 0.809506 0.270024
0.834257 0.808164 0.26656
0.303227 0.829679 0.575097
0.311162 0.822202 0.537942
0.321782 0.812558 0.499657
0.325963 0.811414 0.492622
0.501091 0.805127 0.421286
0.638376 0.825269 0.354513
0.820951 0.809033 0.273152
0.834607 0.809369 0.266911
0.834669 0.8094 0.266377
0.291524 0.83238 0.585702
0.306661 0.826093 0.553399
0.323613 0.811856 0.498619
0.32372 0.81181 0.498695
0.450828 0.803098 0.423575
0.600702 0.821332 0.373449
0.798642 0.813184 0.281178
0.834394 0.809293 0.268605
0.834684 0.8094 0.266285
0.284047 0.834211 0.591897
0.312139 0.82829 0.566369
0.322225 0.812436 0.499825
0.323476 0.811917 0.498527
0.358419 0.803983 0.444465
0.575479 0.817304 0.387045
0.743862 0.825193 0.307179
0.833143 0.809247 0.267918
0.834806 0.809445 0.265293
0.0222324 0.0282597 0.0276188
0.0324407 0.030518 0.0303502
0.119829 0.0296025 0.0298314
0.329213 0.0280613 0.0304112
0.553017 0.0258335 0.0421454
0.65568 0.0328679 0.0757763
0.667567 0.0458381 0.118227
0.667796 0.0457618 0.118105
0.669871 0.0450294 0.117113
0.0222019 0.0367437 0.0267643
0.0260319 0.036347 0.0278477
0.100023 0.0317082 0.0233463
0.299123 0.0275731 0.0240635
0.521141 0.0244602 0.0373693
0.654994 0.0320897 0.0708629
0.668147 0.0457465 0.116045
0.667811 0.0446784 0.112978
0.668528 0.0420233 0.105455
0.0301518 0.1084 0.0625467
0.0322576 0.106859 0.0527504
0.0671397 0.116411 0.0428168
0.334127 0.0674754 0.0354925
0.545037 0.044892 0.0372473
0.656382 0.0436408 0.0617075
0.657023 0.033463 0.076463
0.656794 0.0330053 0.0731975
0.657572 0.0314336 0.0648051
0.0744793 0.376654 0.194522
0.0790112 0.372976 0.169253
0.0843824 0.371313 0.149462
0.265248 0.408209 0.102983
0.639124 0.338277 0.109499
0.740688 0.270436 0.118502
0.722637 0.138354 0.0854047
0.728649 0.153872 0.0892958
0.735546 0.172244 0.0932631
0.165026 0.683162 0.44123
0.190158 0.681147 0.416007
0.20557 0.678203 0.394476
0.236988 0.672023 0.330297
0.518929 0.690318 0.234821
0.811948 0.659113 0.130617
0.81268 0.611902 0.153903
0.807752 0.590585 0.160784
0.798291 0.556176 0.167346
0.263508 0.832471 0.590494
0.291157 0.828336 0.568612
0.304524 0.821118 0.532372
0.313512 0.814679 0.5084
0.51751 0.806332 0.420645
0.738506 0.824659 0.310826
0.834409 0.809552 0.270497
0.834455 0.809445 0.269184
0.834699 0.806287 0.262791
0.268482 0.836301 0.606073
0.296437 0.830777 0.578973
0.318151 0.814054 0.507744
0.31986 0.813275 0.503487
0.476951 0.804517 0.422995
0.632502 0.825071 0.356771
0.818982 0.809094 0.274144
0.834607 0.809369 0.266804
0.834669 0.809384 0.266331
0.265949 0.838285 0.617456
0.288548 0.832715 0.589242
0.316442 0.816495 0.519326
0.32372 0.811795 0.498726
0.425834 0.802197 0.426902
0.59675 0.820737 0.375937
0.79501 0.81503 0.282704
0.834363 0.809277 0.268864
0.834653 0.809384 0.266514
0.264393 0.839155 0.621424
0.281193 0.834562 0.594263
0.30988 0.823056 0.542443
0.323476 0.811902 0.498527
0.342687 0.804028 0.450431
0.571267 0.816495 0.389578
0.729747 0.824552 0.314611
0.83238 0.809262 0.268254
0.834806 0.809445 0.265293
0.0300298 0.0343481 0.114504
0.0506905 0.0333104 0.104311
0.132845 0.0355077 0.0938888
0.354925 0.0363165 0.119768
0.59115 0.0407111 0.132479
0.657496 0.0350652 0.0847486
0.66775 0.0459144 0.116686
0.667826 0.0457618 0.117693
0.669841 0.0450294 0.117433
0.0233158 0.0310979 0.0827649
0.0340124 0.0342718 0.106218
0.11107 0.0340276 0.0813153
0.338735 0.03093 0.0826429
0.5729 0.03299 0.08925
0.656611 0.0336004 0.0803998
0.667948 0.0457923 0.117144
0.668254 0.0456397 0.117494
0.670008 0.0449683 0.117266
0.0253605 0.102831 0.0877699
0.0249027 0.0992142 0.0848859
0.100328 0.110124 0.0992294
0.364767 0.0742809 0.0658122
0.543343 0.0287938 0.0403601
0.6542 0.0341955 0.0634318
0.657877 0.034699 0.0838483
0.657725 0.0342565 0.0809339
0.658839 0.0324865 0.0736248
0.0464027 0.35581 0.230961
0.0514229 0.348058 0.208865
0.0691691 0.344457 0.166903
0.279042 0.382803 0.090013
0.637873 0.297993 0.119814
0.738689 0.241123 0.110491
0.715465 0.124193 0.0829938
0.713268 0.113359 0.0734875
0.723049 0.130999 0.0769513
0.112123 0.663859 0.479088
0.118624 0.662333 0.451698
0.173419 0.660761 0.40412
0.221881 0.661524 0.33756
0.517433 0.675258 0.220386
0.809644 0.635859 0.137407
0.804608 0.577935 0.16556
0.798749 0.558999 0.167346
0.793744 0.541115 0.164721
0.229435 0.833387 0.632166
0.237812 0.832807 0.609689
0.286961 0.828702 0.57055
0.306493 0.819287 0.526162
0.494942 0.804715 0.421561
0.733089 0.824506 0.313146
0.834394 0.809567 0.270726
0.834424 0.808759 0.267048
0.834882 0.800824 0.251286
0.251164 0.845243 0.66569
0.257069 0.840894 0.638651
0.284886 0.832334 0.585611
0.31339 0.815213 0.511894
0.43061 0.802899 0.427512
0.623621 0.82472 0.361532
0.816205 0.808972 0.27509
0.834607 0.809384 0.267033
0.834669 0.80943 0.266743
0.249561 0.84744 0.676371
0.262089 0.842359 0.646845
0.283757 0.8336 0.593133
0.323735 0.811795 0.498741
0.377386 0.803021 0.431312
0.590326 0.820005 0.37966
0.788006 0.819257 0.284123
0.834302 0.809262 0.269184
0.834623 0.809384 0.266789
0.252399 0.846769 0.670741
0.261845 0.842084 0.644633
0.277928 0.834882 0.598306
0.323491 0.811902 0.498527
0.332403 0.807584 0.472206
0.561822 0.814954 0.39498
0.704829 0.824628 0.326955
0.831159 0.809262 0.26891
0.834821 0.809461 0.265095
0.060853 0.0490272 0.338079
0.0944686 0.042298 0.324773
0.200488 0.042771 0.290181
0.388067 0.0436713 0.296315
0.622782 0.0878462 0.386191
0.683192 0.101839 0.401404
0.67718 0.0857862 0.322454
0.670054 0.0586557 0.218036
0.670253 0.0455329 0.1205
0.0487678 0.047364 0.331182
0.0652323 0.0487678 0.331853
0.162173 0.0430152 0.295583
0.370962 0.0421454 0.280217
0.612696 0.0866712 0.364767
0.679774 0.0970321 0.358389
0.671229 0.0629435 0.241581
0.669749 0.0533455 0.184054
0.670695 0.0453651 0.117586
0.0344701 0.0716259 0.282551
0.0341802 0.0581521 0.296574
0.0869154 0.0413672 0.312001
0.337209 0.038407 0.254093
0.586954 0.0819562 0.32079
0.673304 0.0707103 0.271244
0.668223 0.0528725 0.180102
0.66743 0.0466163 0.127214
0.669795 0.0454566 0.112688
0.0251011 0.344564 0.335927
0.0247349 0.338216 0.330343
0.0244297 0.326619 0.320607
0.394751 0.380331 0.362448
0.694026 0.32462 0.311009
0.76878 0.241733 0.199588
0.702846 0.109056 0.0783398
0.683619 0.0727703 0.0610971
0.69163 0.0785382 0.0641947
0.0496986 0.646632 0.555673
0.0489967 0.64268 0.540063
0.0588846 0.634318 0.508782
0.126146 0.635401 0.432822
0.580209 0.647547 0.256214
0.798032 0.580819 0.282582
0.799176 0.562509 0.167926
0.79263 0.539849 0.164309
0.786999 0.520806 0.161715
0.140826 0.833326 0.713466
0.15375 0.832044 0.696986
0.182284 0.828138 0.662028
0.242344 0.823468 0.587915
0.449149 0.806302 0.457069
0.75697 0.825345 0.316655
0.834302 0.808637 0.268467
0.834882 0.802869 0.25481
0.835554 0.790661 0.230549
0.202609 0.863127 0.766369
0.194827 0.860868 0.746838
0.219364 0.852735 0.702602
0.260884 0.835142 0.601175
0.37435 0.806302 0.463554
0.623743 0.824903 0.365133
0.813535 0.809079 0.276188
0.834592 0.809461 0.26772
0.834669 0.809613 0.268025
0.266407 0.863172 0.771481
0.235111 0.860853 0.750423
0.232914 0.852567 0.703365
0.273548 0.83563 0.602747
0.344076 0.804456 0.453269
0.582589 0.818311 0.38323
0.773098 0.822095 0.292866
0.834287 0.809247 0.269368
0.834607 0.809369 0.26685
0.240299 0.862791 0.757565
0.223346 0.858595 0.73431
0.238468 0.850645 0.692729
0.270527 0.836301 0.606287
0.325216 0.81146 0.496056
0.536431 0.810178 0.409384
0.663508 0.82501 0.344625
0.827039 0.808911 0.27013
0.834806 0.809445 0.265293
0.156603 0.0744945 0.536248
0.21091 0.0601663 0.520699
0.317662 0.0656138 0.50695
0.477562 0.0920882 0.517769
0.672145 0.101457 0.560754
0.722835 0.120317 0.599237
0.724514 0.112947 0.618814
0.72311 0.118196 0.605295
0.701488 0.110628 0.501457
0.11809 0.0775158 0.538552
0.157382 0.0686351 0.532021
0.279667 0.0633249 0.509361
0.45716 0.0885939 0.51162
0.663325 0.0997024 0.550698
0.72079 0.126925 0.587716
0.7234 0.116533 0.609018
0.720211 0.129244 0.582864
0.690578 0.0991226 0.459037
0.0851911 0.0711528 0.510109
0.105867 0.0747997 0.527062
0.205737 0.0591287 0.51487
0.41529 0.081178 0.49897
0.643168 0.0940719 0.530373
0.717784 0.136645 0.565118
0.719768 0.130526 0.58053
0.704753 0.119615 0.521874
0.687495 0.100267 0.439704
0.0525673 0.280797 0.583612
0.0552987 0.264271 0.588602
0.0576638 0.233463 0.589899
0.398093 0.18703 0.606638
0.679362 0.196826 0.577066
0.726116 0.145541 0.541558
0.697566 0.107042 0.485069
0.686229 0.100999 0.442283
0.682094 0.100374 0.37467
0.0396277 0.635889 0.654749
0.0384222 0.63212 0.651698
0.0377356 0.625345 0.645243
0.0621042 0.620188 0.640909
0.663325 0.653254 0.639506
0.856687 0.619333 0.609644
0.831693 0.582956 0.543313
0.810147 0.563821 0.487663
0.783841 0.519158 0.362997
0.0966964 0.823423 0.78735
0.0952316 0.821683 0.78024
0.0987564 0.818769 0.765713
0.107454 0.812741 0.73341
0.538521 0.816876 0.687602
0.772915 0.83212 0.606668
0.849638 0.817487 0.595819
0.840101 0.80177 0.503487
0.835431 0.771603 0.359182
0.379339 0.867094 0.829816
0.344228 0.867079 0.824842
0.285542 0.866636 0.815442
0.179034 0.864637 0.786252
0.427405 0.850965 0.706935
0.718914 0.855268 0.684977
0.823682 0.842756 0.532967
0.833814 0.812757 0.303883
0.834318 0.810117 0.275441
0.485924 0.870924 0.836789
0.462348 0.86978 0.831159
0.419532 0.867643 0.818723
0.306096 0.864042 0.784909
0.346914 0.850065 0.697414
0.686213 0.850477 0.684169
0.784527 0.842466 0.502647
0.834501 0.809659 0.270054
0.834653 0.809384 0.266499
0.45182 0.869398 0.828504
0.424872 0.868116 0.820722
0.378378 0.865736 0.806485
0.262379 0.863218 0.768292
0.262119 0.842527 0.649226
0.564889 0.831022 0.597177
0.705211 0.832151 0.414405
0.824399 0.808942 0.270802
0.834806 0.809445 0.265232
0.324727 0.0889601 0.651301
0.36289 0.0930037 0.652613
0.440009 0.0998856 0.654505
0.570047 0.125246 0.669902
0.715877 0.12723 0.691447
0.743572 0.130953 0.704387
0.737743 0.125551 0.698665
0.739895 0.127047 0.700587
0.735988 0.123491 0.696895
0.285756 0.0838331 0.648569
0.326116 0.0889601 0.650248
0.410712 0.0975204 0.653483
0.548043 0.118471 0.664668
0.706188 0.125765 0.687419
0.743038 0.130907 0.701808
0.73666 0.124666 0.697673
0.737713 0.125734 0.69868
0.73547 0.12343 0.694209
0.266926 0.0818647 0.647074
0.268437 0.0819409 0.647135
0.345373 0.0908675 0.649195
0.500984 0.105272 0.654826
0.688472 0.125353 0.68246
0.741772 0.130312 0.695949
0.735683 0.123766 0.694362
0.735729 0.123827 0.694469
0.733043 0.125628 0.676493
0.0867781 0.199008 0.713558
0.0906386 0.170932 0.704753
0.0988327 0.133043 0.680491
0.423774 0.111925 0.667262
0.65948 0.146624 0.68397
0.744121 0.137423 0.686503
0.736095 0.127764 0.684169
0.734813 0.126329 0.682963
0.730785 0.117052 0.647196
0.0206302 0.595758 0.802838
0.0239719 0.587732 0.803952
0.0310521 0.573831 0.806332
0.062974 0.561257 0.820096
0.704372 0.567849 0.843458
0.865507 0.58616 0.81413
0.858305 0.534157 0.807157
0.848188 0.495949 0.781918
0.815152 0.398627 0.701442
0.118242 0.818006 0.838926
0.116457 0.816648 0.838117
0.111345 0.81326 0.834104
0.108248 0.807309 0.829572
0.541772 0.814359 0.814359
0.818982 0.830289 0.819715
0.878904 0.816449 0.805966
0.87248 0.806928 0.787762
0.864591 0.78677 0.748058
0.455787 0.869444 0.859358
0.43563 0.868421 0.856947
0.406958 0.866545 0.853025
0.356191 0.864454 0.846647
0.537926 0.867704 0.830289
0.775662 0.889509 0.829541
0.852506 0.903731 0.814557
0.873152 0.901106 0.811826
0.87068 0.893492 0.791241
0.597025 0.880919 0.867536
0.585443 0.880156 0.864454
0.571344 0.878462 0.860578
0.542794 0.875303 0.852369
0.549462 0.875319 0.839551
0.737026 0.894896 0.828901
0.840681 0.906462 0.830243
0.863462 0.903944 0.78407
0.863416 0.898177 0.763012
0.577127 0.878828 0.861631
0.56582 0.877592 0.858244
0.549554 0.875746 0.85333
0.516609 0.873182 0.845106
0.431907 0.868208 0.821988
0.644587 0.879805 0.801831
0.809384 0.89189 0.807401
0.84596 0.892332 0.748608
0.853346 0.87631 0.683421
0.531334 0.138262 0.703761
0.540352 0.137072 0.701289
0.590555 0.156252 0.711788
0.682521 0.192035 0.72726
0.774182 0.187304 0.74435
0.772778 0.171252 0.737652
0.758572 0.147723 0.721386
0.775921 0.178271 0.742397
0.779751 0.187472 0.746227
0.517861 0.137591 0.70399
0.522881 0.13167 0.69781
0.567819 0.14641 0.706004
0.664683 0.183825 0.723568
0.767697 0.181048 0.740642
0.769604 0.166018 0.734462
0.757702 0.146258 0.719905
0.761959 0.153582 0.725841
0.759869 0.150469 0.72372
0.494514 0.128557 0.695155
0.49163 0.127153 0.693782
0.518517 0.124605 0.689677
0.624796 0.165591 0.713924
0.753368 0.171084 0.734249
0.764691 0.157031 0.728252
0.754253 0.14345 0.717098
0.757137 0.14583 0.719265
0.754818 0.143816 0.717449
0.431205 0.18996 0.753399
0.453819 0.172183 0.73817
0.460517 0.148714 0.7178
0.558282 0.149126 0.708858
0.717983 0.171893 0.727413
0.758907 0.149645 0.722148
0.751766 0.139788 0.713771
0.751934 0.139956 0.714046
0.751003 0.139055 0.712932
0.0869001 0.599466 0.861204
0.110552 0.593637 0.86334
0.16585 0.583383 0.867155
0.38201 0.571374 0.871839
0.75938 0.565957 0.864088
0.872389 0.574472 0.856229
0.864805 0.533242 0.847211
0.857374 0.498924 0.839368
0.844999 0.432212 0.824613
0.234287 0.81828 0.895354
0.230304 0.814832 0.895628
0.226108 0.809888 0.896941
0.228595 0.79939 0.898253
0.559426 0.798489 0.885267
0.834409 0.800351 0.904524
0.891325 0.799084 0.883391
0.891478 0.785351 0.881788
0.889982 0.755108 0.865324
0.495766 0.871015 0.879057
0.480156 0.869764 0.878462
0.458061 0.86775 0.877668
0.42533 0.864317 0.87628
0.556603 0.866682 0.869749
0.777539 0.890181 0.875242
0.874907 0.904814 0.887633
0.89015 0.90193 0.885603
0.888212 0.895567 0.872892
0.647639 0.888884 0.883604
0.638697 0.887572 0.881804
0.628321 0.88603 0.879805
0.610666 0.883818 0.876158
0.612207 0.883452 0.871382
0.773999 0.908186 0.877272
0.860349 0.925536 0.893507
0.895079 0.928695 0.894606
0.896773 0.927489 0.894423
0.640177 0.887617 0.880873
0.635431 0.886793 0.87921
0.628 0.885695 0.877424
0.614572 0.884169 0.873533
0.58851 0.8804 0.865019
0.718639 0.89662 0.866224
0.832776 0.921813 0.88188
0.886519 0.926726 0.889189
0.892943 0.927672 0.88513
0.631067 0.233951 0.763577
0.648585 0.243275 0.766262
0.686488 0.261555 0.769558
0.753613 0.280705 0.775769
0.814252 0.297154 0.789075
0.808652 0.277653 0.782666
0.788449 0.214832 0.757656
0.788449 0.214832 0.757656
0.788449 0.214832 0.757656
0.615137 0.225299 0.760693
0.633219 0.235065 0.763958
0.670604 0.254643 0.768017
0.742031 0.279927 0.774304
0.813825 0.295888 0.788891
0.810315 0.282826 0.783825
0.788449 0.214832 0.757656
0.788449 0.214832 0.757656
0.788449 0.214832 0.757656
0.598505 0.215686 0.757671
0.603738 0.218647 0.758846
0.639735 0.239094 0.764706
0.717937 0.275441 0.771756
0.80766 0.293111 0.787366
0.812848 0.290669 0.786679
0.788449 0.214832 0.757656
0.788449 0.214832 0.757656
0.788449 0.214832 0.757656
0.616083 0.278828 0.788907
0.609628 0.249989 0.775448
0.603052 0.229679 0.76492
0.67512 0.259403 0.770291
0.78648 0.28632 0.782238
0.814649 0.299001 0.789548
0.788937 0.215778 0.758007
0.788449 0.214832 0.757656
0.788449 0.214832 0.757656
0.528984 0.626032 0.876844
0.548272 0.616938 0.879484
0.561898 0.595911 0.880323
0.627848 0.579507 0.885313
0.802792 0.585199 0.860456
0.8757 0.591684 0.860059
0.872282 0.570245 0.855375
0.867765 0.546944 0.850446
0.860594 0.510765 0.842527
0.476387 0.823514 0.898695
0.47657 0.820188 0.897444
0.481437 0.81503 0.896635
0.492485 0.803891 0.893919
0.638697 0.800275 0.890425
0.852644 0.798016 0.905257
0.892195 0.795316 0.896483
0.892088 0.783459 0.89456
0.891447 0.760372 0.891112
0.597467 0.877195 0.892103
0.589609 0.875486 0.891417
0.582086 0.873442 0.892332
0.578286 0.869856 0.893263
0.634134 0.870939 0.895201
0.782238 0.885634 0.902327
0.87483 0.895277 0.913237
0.892363 0.893965 0.911238
0.892439 0.884886 0.908888
0.68011 0.893706 0.891112
0.671412 0.892439 0.890349
0.66096 0.891066 0.889998
0.646128 0.889418 0.888914
0.644785 0.888838 0.887617
0.777005 0.90898 0.894514
0.860716 0.925765 0.907179
0.892531 0.930251 0.912657
0.898405 0.92813 0.911559
0.687419 0.894606 0.890623
0.683772 0.893797 0.889815
0.678187 0.892927 0.889082
0.670375 0.892195 0.888228
0.657725 0.890227 0.884718
0.75523 0.905211 0.889036
0.849882 0.927459 0.90428
0.889586 0.934554 0.913268
0.902068 0.93431 0.914
0.634882 0.235996 0.764065
0.652476 0.245304 0.766384
0.68925 0.263081 0.769711
0.756542 0.280903 0.776181
0.814328 0.297627 0.789136
0.807996 0.275395 0.781735
0.788449 0.214832 0.757656
0.788449 0.214832 0.757656
0.788449 0.214832 0.757656
0.619196 0.227436 0.761242
0.636759 0.236988 0.764202
0.673762 0.256107 0.768383
0.744259 0.280003 0.774548
0.814191 0.296284 0.788937
0.81004 0.281712 0.783749
0.788449 0.214832 0.757656
0.788449 0.214832 0.757656
0.788449 0.214832 0.757656
0.598505 0.215686 0.757671
0.607828 0.221485 0.759228
0.643732 0.240986 0.765377
0.719615 0.276738 0.771756
0.808255 0.293507 0.787686
0.812741 0.290288 0.786542
0.788449 0.214832 0.757656
0.788449 0.214832 0.757656
0.788449 0.214832 0.757656
0.607767 0.243275 0.772671
0.601267 0.223133 0.761395
0.598947 0.216358 0.758251
0.673777 0.256092 0.768353
0.784878 0.285847 0.782147
0.814832 0.299413 0.789776
0.789197 0.216297 0.758267
0.788449 0.214832 0.757656
0.788449 0.214832 0.757656
0.561715 0.595987 0.880339
0.570748 0.582544 0.880735
0.586023 0.559045 0.881224
0.64004 0.539483 0.874937
0.795789 0.545403 0.848539
0.867643 0.549722 0.850462
0.86302 0.524453 0.845151
0.856748 0.49247 0.83827
0.847562 0.446525 0.827893
0.512551 0.818296 0.89604
0.50782 0.813809 0.895781
0.498085 0.804517 0.894209
0.484596 0.78677 0.890562
0.638483 0.780087 0.886595
0.855024 0.779278 0.900145
0.892287 0.77673 0.893889
0.892088 0.765118 0.892363
0.89192 0.743206 0.889403
0.629602 0.87837 0.893217
0.625345 0.876677 0.893202
0.618402 0.873518 0.893706
0.606943 0.868177 0.894881
0.646113 0.867765 0.897078
0.779629 0.878935 0.900481
0.877653 0.886992 0.913191
0.892378 0.885893 0.911299
0.892393 0.87689 0.909361
0.68983 0.89482 0.892592
0.685664 0.894484 0.892546
0.679576 0.893767 0.892424
0.671504 0.892576 0.892149
0.671305 0.892103 0.892302
0.781811 0.908568 0.900465
0.858335 0.924071 0.911528
0.892058 0.927718 0.915724
0.895628 0.926619 0.915572
0.709209 0.8972 0.893614
0.709209 0.8972 0.893614
0.709209 0.8972 0.893614
0.709209 0.8972 0.893614
0.709209 0.8972 0.893614
0.774533 0.910384 0.899016
0.852384 0.928695 0.910567
0.889616 0.935699 0.917159
0.900038 0.936858 0.919524
