bundles/resolve-cinematic-luts/Phantom Luts/Ursa G2 Phntm Film LUTs - V1/Gen5/White Balance Offset (+Magenta Boost)/Ursa Vision Gen5 WBO.cube
TITLE "Generated by Resolve"
LUT_3D_SIZE 33
0.0221866 0.0273747 0.0221866
0.0221866 0.0273747 0.0221866
0.0221866 0.0273747 0.0221866
0.0221866 0.0283665 0.0221866
0.0248112 0.0295872 0.0223087
0.03299 0.0293431 0.022446
0.0426642 0.02916 0.0223392
0.060029 0.0296178 0.0216678
0.0848402 0.0299687 0.0205539
0.118624 0.0313726 0.0207218
0.171664 0.0323186 0.0218204
0.231006 0.0304417 0.0222477
0.286046 0.0290684 0.0229191
0.340429 0.0258335 0.0249332
0.398581 0.0228885 0.027039
0.456336 0.0221103 0.0310521
0.516579 0.024033 0.0376593
0.574441 0.0281834 0.0461891
0.626322 0.0360418 0.0571756
0.647089 0.0330358 0.0626841
0.651926 0.0330053 0.071519
0.656474 0.0369573 0.0889601
0.661952 0.0430457 0.109331
0.665309 0.0466468 0.11899
0.665309 0.0466468 0.11899
0.665324 0.0466316 0.11899
0.665309 0.0466316 0.118959
0.665324 0.0466316 0.11899
0.665782 0.0464637 0.118822
0.666362 0.0462654 0.118563
0.667033 0.0460365 0.117739
0.667979 0.045716 0.116976
0.669032 0.0453651 0.116304
0.0221714 0.0273747 0.0221714
0.0221866 0.0273747 0.0221866
0.0221714 0.0273899 0.0221714
0.0221714 0.0283207 0.0221714
0.0244907 0.0295262 0.0222934
0.0322423 0.0294499 0.0224155
0.0421302 0.0291447 0.0223545
0.0602121 0.0296635 0.0216678
0.085893 0.0301061 0.0207065
0.121401 0.0315099 0.0208286
0.175204 0.0322576 0.0218051
0.232456 0.0302892 0.022385
0.287266 0.0288701 0.0229648
0.341192 0.0256046 0.0245518
0.397864 0.0233005 0.0266575
0.455543 0.0234226 0.0307927
0.515801 0.0247349 0.0373693
0.577142 0.0287175 0.0467079
0.628824 0.0366827 0.0576181
0.647227 0.0331121 0.0627146
0.651942 0.0330053 0.0716259
0.656367 0.0368811 0.0896315
0.661982 0.0431525 0.109804
0.665278 0.0464179 0.117937
0.665324 0.0466163 0.118685
0.665324 0.0466163 0.118715
0.665309 0.0466316 0.118914
0.665324 0.0466316 0.11899
0.665843 0.046479 0.118273
0.666453 0.0462501 0.117372
0.667124 0.0460059 0.116884
0.668086 0.0457008 0.116304
0.669139 0.0452888 0.114946
0.0221866 0.0274968 0.0221866
0.0221714 0.0275425 0.0221714
0.0221866 0.0275425 0.0221866
0.0221714 0.0277256 0.0221714
0.022797 0.0292058 0.0222629
0.0296483 0.0303502 0.0223545
0.0415045 0.0302129 0.0222629
0.0606699 0.0302434 0.0216526
0.0858778 0.0303349 0.0208438
0.11902 0.0314183 0.0209354
0.170092 0.0324407 0.0221866
0.229801 0.0301671 0.0223545
0.285863 0.028809 0.0230411
0.340871 0.0259861 0.0249027
0.396155 0.0244297 0.0261692
0.454093 0.0244144 0.0303807
0.515251 0.0254063 0.0370489
0.576349 0.0301671 0.0461128
0.627802 0.0373083 0.0573129
0.648112 0.0332952 0.062974
0.651957 0.0330205 0.0716716
0.656153 0.0365911 0.0883192
0.662165 0.043183 0.108446
0.66537 0.0464179 0.117235
0.665354 0.0464027 0.117235
0.66537 0.0466163 0.118318
0.66537 0.0466011 0.11841
0.665309 0.0464179 0.117556
0.665827 0.0462806 0.11696
0.66659 0.0462959 0.116518
0.667247 0.0460212 0.116167
0.667887 0.0452583 0.114183
0.669215 0.0450294 0.113069
0.0225071 0.0333715 0.0225071
0.0225071 0.0328374 0.0225071
0.0223087 0.0314183 0.0223087
0.022446 0.0324407 0.022446
0.0243534 0.0340887 0.0225071
0.0292973 0.034638 0.0222324
0.0425879 0.0332189 0.0224002
0.0617227 0.0314488 0.0215457
0.0872206 0.0310826 0.0209049
0.12105 0.0319677 0.0211337
0.172534 0.0324712 0.0220951
0.230854 0.029984 0.0223545
0.286946 0.0287022 0.0230411
0.339788 0.0265354 0.0245823
0.39472 0.0244297 0.0261082
0.454124 0.0249332 0.0302892
0.514107 0.0289464 0.0359503
0.574182 0.0318303 0.0454566
0.627802 0.0377966 0.0569009
0.648112 0.0337224 0.0629892
0.651865 0.032929 0.0708324
0.654948 0.0355383 0.0845045
0.662287 0.0432746 0.10724
0.665705 0.0466621 0.116381
0.665843 0.0467231 0.116121
0.665599 0.0466316 0.116945
0.66566 0.0466316 0.116686
0.665721 0.0466773 0.116274
0.666148 0.0465553 0.115877
0.666026 0.0455787 0.113832
0.666148 0.0445411 0.111711
0.667613 0.0444343 0.11107
0.669352 0.0447852 0.111009
0.0224765 0.0413062 0.0256809
0.0225376 0.0408484 0.0255589
0.0222782 0.0398108 0.0243381
0.0232242 0.0391546 0.0241245
0.025742 0.0408942 0.0243992
0.0301518 0.0415198 0.0239414
0.0447395 0.0402838 0.0223697
0.0645609 0.0368048 0.0229191
0.0918898 0.0350347 0.022385
0.127489 0.0340429 0.0215763
0.177325 0.0333104 0.0218662
0.234211 0.0319982 0.0232395
0.287602 0.0294347 0.0234684
0.340032 0.0260166 0.0249638
0.395941 0.0243992 0.0260166
0.453712 0.0267796 0.0296178
0.512795 0.0301366 0.0353246
0.573129 0.0332952 0.0443122
0.627649 0.0390173 0.056199
0.649195 0.0348669 0.0629892
0.65211 0.0326543 0.0697185
0.654353 0.0346227 0.0812543
0.658793 0.0388952 0.0971847
0.662699 0.0434577 0.109194
0.665858 0.0462501 0.112902
0.666194 0.0467231 0.114
0.666056 0.0466926 0.114595
0.664317 0.0448768 0.111208
0.663188 0.0430762 0.107576
0.663539 0.0421302 0.105791
0.664958 0.0420691 0.105501
0.666926 0.0427405 0.106172
0.667552 0.0417945 0.103716
0.0233616 0.0507668 0.0297093
0.0234531 0.0503395 0.0297093
0.0234226 0.0493477 0.0289921
0.0230106 0.0479133 0.026688
0.0262608 0.0485389 0.0274357
0.03122 0.0515145 0.0274357
0.0404974 0.0520333 0.0243992
0.0700694 0.0450294 0.0243381
0.0960708 0.0422217 0.0254978
0.132647 0.0400244 0.0238499
0.18468 0.03682 0.0208286
0.239979 0.0362402 0.0237583
0.292149 0.0328222 0.0250095
0.343709 0.0289158 0.025803
0.396201 0.0260777 0.0262913
0.451072 0.0273136 0.0294194
0.511574 0.0311742 0.0348821
0.574624 0.0379187 0.044007
0.627939 0.0415503 0.0556344
0.651057 0.0371557 0.0630808
0.652308 0.0321202 0.0664378
0.654673 0.0337224 0.0776837
0.655344 0.0340734 0.0864271
0.659937 0.0389258 0.098085
0.664302 0.0432593 0.105379
0.663996 0.0429694 0.104799
0.662074 0.0408179 0.102022
0.659907 0.0389105 0.0975204
0.658991 0.0379034 0.0954452
0.659998 0.0381476 0.0960403
0.661646 0.0385748 0.0960708
0.662547 0.0381933 0.0944686
0.663157 0.0371405 0.0920119
0.025864 0.0681163 0.0362402
0.0260014 0.0675517 0.0361486
0.0259251 0.0668193 0.0358129
0.0254215 0.0647288 0.0336919
0.0250401 0.0633097 0.0309148
0.031754 0.0659037 0.0324407
0.0396582 0.0698558 0.032517
0.0652628 0.0676585 0.0239567
0.102617 0.0569619 0.0280156
0.140352 0.0526589 0.0294041
0.195377 0.0472114 0.0267033
0.251759 0.0431983 0.0245212
0.301946 0.0400854 0.024506
0.353902 0.0376593 0.0276341
0.402991 0.0305638 0.0268864
0.455573 0.0299992 0.0296483
0.512795 0.033402 0.0348974
0.5738 0.0401617 0.043946
0.629129 0.0465553 0.0556497
0.653162 0.0402838 0.063447
0.652018 0.0327001 0.0637675
0.653819 0.0330816 0.0725261
0.656199 0.0349889 0.0838331
0.65742 0.0362249 0.0891737
0.658579 0.037644 0.0916915
0.657816 0.0366827 0.0897231
0.656977 0.0356603 0.0878309
0.656992 0.0356603 0.0879225
0.657023 0.0356146 0.087602
0.657862 0.0361944 0.0882734
0.658259 0.0360418 0.0874342
0.658 0.0348516 0.0847334
0.658671 0.0341955 0.0820478
0.0293889 0.0913252 0.0450904
0.0292058 0.0907607 0.0444953
0.0291752 0.0899825 0.0443275
0.0288548 0.0882429 0.0420844
0.0287633 0.085359 0.0394903
0.0285496 0.0853742 0.0369116
0.0388495 0.0900282 0.0400244
0.0533303 0.0950027 0.03888
0.0964523 0.0908522 0.0251469
0.144869 0.0787366 0.0327153
0.210849 0.0644236 0.0332799
0.264118 0.0597848 0.0322118
0.320241 0.0548562 0.0311894
0.374441 0.0496834 0.0293126
0.425757 0.0457465 0.0298161
0.473045 0.0369268 0.0306401
0.523705 0.0374914 0.0354772
0.581643 0.0433051 0.0443275
0.632105 0.0502022 0.0553902
0.656565 0.0487984 0.0621653
0.65333 0.0370031 0.0637675
0.653269 0.0325017 0.0674449
0.655344 0.0338598 0.076997
0.656275 0.0346838 0.0810407
0.656443 0.0348058 0.0816663
0.656397 0.0347295 0.0813153
0.656352 0.034699 0.0810559
0.656336 0.0345769 0.0806134
0.656443 0.0346075 0.0807355
0.656443 0.0343023 0.0796826
0.656657 0.0339208 0.0780804
0.657038 0.033463 0.0764477
0.657816 0.032929 0.0743267
0.0342412 0.121477 0.0568551
0.0343633 0.120562 0.0561074
0.0341344 0.119951 0.0557107
0.0339208 0.118379 0.0547341
0.0337987 0.115221 0.0516518
0.0332647 0.112154 0.046891
0.0338445 0.113817 0.0461433
0.0497749 0.121157 0.0501411
0.0717479 0.127993 0.0459449
0.13959 0.120485 0.0275578
0.208057 0.107439 0.0381628
0.286 0.0873579 0.0409247
0.341146 0.083711 0.0403754
0.394888 0.0800336 0.040116
0.452888 0.0744182 0.03888
0.506325 0.0663615 0.0366674
0.558236 0.0562905 0.0396582
0.607416 0.0542306 0.0484321
0.641611 0.0559854 0.0561227
0.661692 0.0560311 0.0612345
0.658793 0.0476844 0.0630045
0.654169 0.0365606 0.0641337
0.654368 0.0326085 0.0678721
0.655222 0.0332952 0.0724956
0.655329 0.0333562 0.0727092
0.655268 0.0332647 0.0723583
0.655177 0.0331273 0.0715648
0.6551 0.03299 0.0708019
0.655024 0.0328069 0.0699626
0.655253 0.0327459 0.0700389
0.655634 0.0324865 0.0688029
0.655894 0.0320897 0.0656138
0.656611 0.0323033 0.0639048
0.0367895 0.16585 0.0680705
0.03682 0.165331 0.066392
0.0369268 0.16379 0.066331
0.0372168 0.162676 0.0664988
0.0370336 0.159243 0.06421
0.0370489 0.153948 0.0604105
0.0370184 0.152773 0.0550088
0.0393378 0.156329 0.0555581
0.0641184 0.170748 0.0590372
0.0949416 0.183062 0.0527199
0.207095 0.172335 0.0297246
0.290181 0.160174 0.0483864
0.368109 0.139956 0.0614328
0.433661 0.130556 0.0615244
0.487236 0.127779 0.0622873
0.543893 0.121431 0.0621653
0.60116 0.112642 0.0614939
0.648356 0.0990005 0.0601511
0.674083 0.083299 0.060853
0.675395 0.0675364 0.0630198
0.668437 0.0613718 0.0616617
0.660822 0.0485237 0.0633707
0.65626 0.040116 0.0641642
0.655238 0.0355535 0.064332
0.655131 0.0349432 0.064271
0.655192 0.0349279 0.064271
0.656168 0.036347 0.0644846
0.656703 0.0379034 0.0645457
0.657359 0.0390936 0.0644236
0.657755 0.040177 0.0641947
0.657877 0.040238 0.0640574
0.658457 0.0413825 0.0636454
0.659068 0.0420233 0.0628214
0.0484932 0.234409 0.093843
0.0488594 0.234226 0.0919051
0.0486915 0.233097 0.0913405
0.0484169 0.231373 0.0905776
0.0480201 0.229374 0.0896162
0.0463264 0.223072 0.0842603
0.0450752 0.21677 0.0769818
0.0447852 0.217212 0.0703288
0.0535439 0.224964 0.0740826
0.0954147 0.248051 0.0839551
0.140169 0.261189 0.0719921
0.28484 0.244022 0.0326085
0.372656 0.230137 0.0541543
0.435126 0.221515 0.0681773
0.510552 0.19765 0.0791791
0.571328 0.188632 0.0801556
0.628229 0.182254 0.0847028
0.681315 0.172351 0.087602
0.716182 0.15668 0.0864271
0.719707 0.127428 0.0757305
0.705364 0.105348 0.0729229
0.68246 0.0766461 0.0654154
0.665003 0.0535897 0.0627146
0.659892 0.0482032 0.0629282
0.659876 0.0487068 0.0626993
0.6598 0.0490425 0.0624857
0.659739 0.0497902 0.0621653
0.662211 0.0518959 0.0622873
0.663737 0.0531624 0.0628214
0.663584 0.0526589 0.0628367
0.665873 0.0534829 0.0626383
0.66598 0.053254 0.0623941
0.667659 0.054078 0.0617533
0.0657664 0.313466 0.130205
0.066804 0.313878 0.127749
0.0669261 0.313558 0.126787
0.0667124 0.311833 0.12636
0.0658732 0.310124 0.125017
0.0652018 0.306996 0.122377
0.0648814 0.301228 0.116075
0.0639963 0.29752 0.107668
0.0632029 0.296681 0.0972915
0.0825208 0.310399 0.104921
0.134722 0.330358 0.112245
0.204211 0.342535 0.0899672
0.367025 0.321111 0.036759
0.450797 0.307836 0.0575265
0.509819 0.304372 0.0775158
0.57467 0.281575 0.0948196
0.643977 0.265812 0.106966
0.69482 0.254414 0.108446
0.729992 0.241505 0.110063
0.737362 0.225772 0.106584
0.734691 0.197955 0.0984817
0.729137 0.150469 0.085481
0.71519 0.123537 0.0831922
0.682048 0.0738537 0.0628977
0.676509 0.0677653 0.0609598
0.677791 0.0676585 0.0614481
0.678813 0.0672465 0.0617685
0.679347 0.0668498 0.0619974
0.678492 0.066453 0.06215
0.682887 0.0757305 0.0670176
0.698833 0.102464 0.0787518
0.702037 0.107836 0.0789349
0.709773 0.11783 0.082536
0.0865034 0.39353 0.182132
0.0872511 0.394903 0.179217
0.0879377 0.394965 0.176333
0.0875257 0.393606 0.175418
0.0872969 0.392386 0.174914
0.087129 0.39089 0.173831
0.0868238 0.386419 0.167102
0.0868086 0.380987 0.157443
0.0871443 0.381415 0.147173
0.0870069 0.379828 0.131319
0.12166 0.396597 0.142351
0.196216 0.410361 0.144533
0.273762 0.421759 0.108431
0.438743 0.397024 0.0476997
0.521935 0.38352 0.0597848
0.580346 0.377295 0.0866407
0.633585 0.37052 0.105928
0.690059 0.35198 0.130114
0.732113 0.340215 0.141268
0.744213 0.321965 0.136873
0.742367 0.301625 0.128908
0.741314 0.280003 0.122301
0.736934 0.240757 0.110475
0.733257 0.176257 0.0940414
0.73051 0.158267 0.0882124
0.729259 0.155184 0.0879377
0.72903 0.154131 0.0892653
0.730892 0.160922 0.09308
0.732631 0.171878 0.0957198
0.733349 0.182162 0.0972
0.73431 0.191226 0.0983139
0.735866 0.199252 0.0990311
0.73611 0.19498 0.098085
0.109789 0.474571 0.241596
0.110704 0.475151 0.23827
0.112581 0.475944 0.23508
0.112154 0.475151 0.233738
0.111727 0.473594 0.23267
0.11104 0.472236 0.231556
0.110628 0.470039 0.229984
0.110491 0.464881 0.220844
0.111482 0.46009 0.210727
0.113375 0.463294 0.198596
0.123369 0.464179 0.176883
0.178973 0.476814 0.188388
0.265599 0.485969 0.183505
0.343099 0.49575 0.131518
0.504463 0.469017 0.0679179
0.587671 0.456672 0.061265
0.645747 0.448707 0.096437
0.69427 0.447089 0.120195
0.729046 0.444312 0.138384
0.754696 0.429419 0.151629
0.751553 0.403174 0.15494
0.748486 0.384497 0.156329
0.746059 0.365606 0.152819
0.743664 0.335515 0.140902
0.743099 0.317632 0.134463
0.742611 0.309972 0.132418
0.742412 0.304158 0.130602
0.742443 0.299504 0.128786
0.741726 0.294881 0.126711
0.742245 0.296941 0.127916
0.742245 0.304295 0.130663
0.74255 0.312108 0.132998
0.744366 0.321263 0.137026
0.134997 0.551537 0.303883
0.137621 0.552514 0.30045
0.139986 0.552636 0.296147
0.140932 0.552361 0.293248
0.140322 0.551324 0.292195
0.138964 0.549691 0.290898
0.138064 0.547829 0.289418
0.138628 0.544976 0.284672
0.137835 0.53933 0.273014
0.142367 0.537606 0.26244
0.147051 0.540063 0.246281
0.179309 0.541665 0.227131
0.250156 0.550561 0.231373
0.336538 0.558892 0.212009
0.405829 0.566079 0.160876
0.563684 0.537606 0.0957351
0.650278 0.529137 0.0615854
0.706569 0.519875 0.104036
0.745556 0.517983 0.133516
0.770748 0.518914 0.150713
0.780835 0.508766 0.160479
0.773754 0.488365 0.157809
0.767025 0.468254 0.155489
0.761364 0.447227 0.153536
0.757687 0.431968 0.153353
0.757015 0.427329 0.152956
0.75697 0.424964 0.153429
0.75552 0.421836 0.152499
0.75494 0.418509 0.152346
0.753491 0.413916 0.151522
0.752483 0.40763 0.1523
0.75285 0.409339 0.151141
0.753948 0.413993 0.150103
0.164797 0.624796 0.365332
0.16788 0.624674 0.360693
0.170825 0.624567 0.355886
0.173922 0.625025 0.351904
0.173556 0.624033 0.350469
0.172396 0.62237 0.348547
0.171206 0.621073 0.347143
0.17055 0.619196 0.346349
0.172595 0.614801 0.337881
0.174746 0.608713 0.324285
0.182162 0.608789 0.309392
0.194614 0.609644 0.285008
0.244755 0.612741 0.275242
0.322469 0.619272 0.27602
0.400366 0.626993 0.242878
0.464012 0.63241 0.200824
0.618723 0.605463 0.127581
0.703609 0.603296 0.0712139
0.754742 0.595651 0.10251
0.7832 0.593637 0.130694
0.803326 0.59057 0.150729
0.8047 0.581201 0.161944
0.799619 0.565011 0.168688
0.79469 0.547127 0.166873
0.7888 0.52874 0.163378
0.786389 0.523247 0.161898
0.785641 0.521309 0.161624
0.785122 0.519463 0.161456
0.78439 0.516869 0.161593
0.782284 0.512078 0.160098
0.781125 0.506996 0.160159
0.778424 0.499794 0.158816
0.776349 0.494713 0.157671
0.201343 0.692073 0.423667
0.204929 0.692149 0.418418
0.208118 0.69218 0.413809
0.211963 0.69218 0.408347
0.213397 0.691951 0.406027
0.212665 0.690669 0.405081
0.211994 0.689189 0.403998
0.211337 0.688319 0.403143
0.210224 0.686076 0.399588
0.213062 0.679759 0.386603
0.215961 0.6757 0.371969
0.227558 0.677272 0.353246
0.2477 0.675776 0.321157
0.314244 0.677867 0.320317
0.394095 0.683528 0.317906
0.457343 0.693049 0.281895
0.52163 0.698116 0.242023
0.667384 0.680507 0.172152
0.745388 0.673793 0.113115
0.785657 0.675624 0.109468
0.811093 0.672587 0.126177
0.823178 0.668009 0.139361
0.823316 0.662531 0.142092
0.821317 0.652262 0.144686
0.817533 0.63505 0.147478
0.815412 0.624094 0.150271
0.81445 0.621515 0.150851
0.813901 0.619089 0.151705
0.813428 0.615747 0.15288
0.812634 0.612329 0.154009
0.810575 0.604822 0.155703
0.808316 0.594278 0.159365
0.80499 0.580209 0.164385
0.235584 0.749996 0.476127
0.239139 0.749722 0.470497
0.242267 0.749538 0.465522
0.245808 0.749432 0.460746
0.249378 0.749676 0.456031
0.2486 0.74876 0.454536
0.248005 0.747738 0.453574
0.247379 0.746441 0.452781
0.246571 0.744823 0.451804
0.247486 0.741268 0.443748
0.251743 0.736278 0.43006
0.256168 0.733883 0.410666
0.274479 0.734707 0.388037
0.317021 0.73257 0.362188
0.392065 0.733959 0.359838
0.462333 0.740902 0.352682
0.515129 0.750729 0.319127
0.581872 0.756603 0.28278
0.716304 0.755932 0.213535
0.768399 0.738643 0.191272
0.803098 0.741894 0.164065
0.829618 0.740902 0.141161
0.835279 0.737423 0.143023
0.834714 0.733715 0.141924
0.83418 0.727794 0.140505
0.832578 0.72018 0.139315
0.831754 0.716579 0.138476
0.831861 0.714611 0.138506
0.831174 0.711498 0.137026
0.830793 0.70808 0.136995
0.829511 0.701701 0.136584
0.82858 0.693492 0.137392
0.826993 0.680201 0.137835
0.267781 0.792157 0.51989
0.268833 0.791852 0.514504
0.272282 0.791562 0.509407
0.27541 0.791531 0.504738
0.279759 0.791424 0.499931
0.28127 0.79118 0.496895
0.280705 0.790372 0.496025
0.279576 0.789349 0.494911
0.27866 0.788373 0.493599
0.277729 0.786648 0.491218
0.282002 0.78291 0.479896
0.286854 0.777356 0.461814
0.295613 0.775769 0.436866
0.322179 0.775753 0.408774
0.398825 0.771618 0.393347
0.468605 0.777081 0.393576
0.52459 0.786099 0.373648
0.571649 0.795087 0.347356
0.640497 0.79826 0.315206
0.74992 0.801221 0.259693
0.784619 0.785824 0.249607
0.816083 0.782666 0.230411
0.833265 0.781537 0.216999
0.835203 0.779446 0.209049
0.835599 0.777386 0.205234
0.836072 0.77525 0.200214
0.835569 0.772931 0.195422
0.835538 0.772045 0.192782
0.835554 0.770321 0.188235
0.836057 0.768673 0.185092
0.836149 0.766018 0.178286
0.835874 0.761547 0.168368
0.835492 0.756115 0.155978
0.292821 0.817761 0.551629
0.291173 0.818128 0.546105
0.29192 0.817884 0.540978
0.294987 0.817273 0.535653
0.298238 0.816724 0.530175
0.302068 0.816037 0.524804
0.301808 0.815885 0.524315
0.30164 0.815686 0.524056
0.301457 0.815396 0.523735
0.301274 0.814847 0.522942
0.302541 0.812314 0.516121
0.306935 0.807202 0.49984
0.312001 0.803388 0.475364
0.333242 0.800244 0.445258
0.391745 0.7991 0.422278
0.476356 0.798352 0.415991
0.527489 0.80531 0.408225
0.571847 0.814328 0.38436
0.619593 0.821103 0.358755
0.697414 0.821561 0.32665
0.770275 0.823728 0.28867
0.799329 0.808621 0.278553
0.824948 0.805295 0.269032
0.834043 0.803937 0.260075
0.834806 0.802594 0.256046
0.834623 0.800977 0.252583
0.834913 0.799924 0.25069
0.83505 0.799329 0.248905
0.83505 0.798688 0.247593
0.834989 0.797452 0.245609
0.835264 0.796307 0.242512
0.835416 0.794369 0.239078
0.835386 0.791257 0.232685
0.294118 0.827268 0.567666
0.300038 0.826444 0.56286
0.297627 0.8262 0.556786
0.297475 0.825849 0.550301
0.30071 0.824125 0.543359
0.303761 0.822019 0.535576
0.304433 0.821256 0.532845
0.304372 0.821241 0.532769
0.304402 0.821256 0.532738
0.304448 0.821241 0.532677
0.305135 0.820584 0.530266
0.310231 0.816419 0.516976
0.319356 0.81268 0.496956
0.329656 0.806058 0.462425
0.369635 0.803616 0.43212
0.465736 0.803571 0.422171
0.525399 0.807828 0.415259
0.565621 0.815763 0.392203
0.605753 0.822065 0.370489
0.659724 0.825284 0.346349
0.742321 0.82501 0.308858
0.788281 0.821668 0.282612
0.813336 0.809064 0.277287
0.830488 0.809247 0.271672
0.834302 0.809674 0.271824
0.834318 0.809628 0.271412
0.834379 0.809506 0.270375
0.834409 0.809537 0.270222
0.834424 0.809506 0.270024
0.834409 0.809506 0.269886
0.834394 0.809461 0.269749
0.834363 0.809354 0.269383
0.834257 0.808164 0.26656
0.285649 0.828443 0.573831
0.292729 0.82739 0.568627
0.299138 0.82649 0.56379
0.298451 0.825971 0.557
0.298695 0.825116 0.54902
0.302937 0.822782 0.539544
0.304814 0.820996 0.53341
0.304753 0.821012 0.53341
0.304738 0.821027 0.533501
0.304723 0.821042 0.533593
0.304875 0.820935 0.53312
0.307866 0.818311 0.523873
0.317205 0.813611 0.504936
0.327581 0.808057 0.473671
0.361227 0.803922 0.441886
0.44477 0.803342 0.424811
0.522438 0.806973 0.417853
0.560937 0.814633 0.395361
0.596521 0.820661 0.375998
0.640604 0.825101 0.353948
0.710018 0.824384 0.32546
0.772732 0.825299 0.291829
0.802152 0.809613 0.282506
0.823178 0.808759 0.274586
0.832319 0.809155 0.271412
0.834165 0.809461 0.272435
0.834058 0.809689 0.275319
0.834043 0.809857 0.276341
0.834073 0.809918 0.276204
0.834119 0.809979 0.276036
0.834165 0.809995 0.275975
0.834165 0.810025 0.275898
0.83418 0.809934 0.275044
0.284077 0.82919 0.576761
0.291157 0.828077 0.57145
0.297993 0.826963 0.565988
0.303319 0.825803 0.559274
0.298299 0.825391 0.549859
0.303395 0.822522 0.538491
0.306462 0.819471 0.527687
0.306508 0.81944 0.527535
0.306371 0.819562 0.527993
0.306233 0.819654 0.528481
0.306157 0.819791 0.528923
0.307729 0.818372 0.524025
0.316625 0.814115 0.507973
0.327169 0.8094 0.479377
0.355001 0.804532 0.447349
0.430991 0.803021 0.427298
0.51664 0.806226 0.421088
0.559274 0.814084 0.396155
0.590784 0.820142 0.378927
0.629053 0.82472 0.358877
0.678416 0.824613 0.339101
0.745296 0.823987 0.307378
0.791959 0.81239 0.284321
0.815747 0.809094 0.275822
0.830671 0.809049 0.270787
0.834287 0.809247 0.269413
0.834333 0.809354 0.26978
0.834363 0.809522 0.270802
0.834363 0.809598 0.271092
0.834394 0.809628 0.270985
0.83444 0.809674 0.271046
0.834424 0.80972 0.271366
0.834409 0.809812 0.271901
0.294469 0.829496 0.576303
0.300771 0.828336 0.570062
0.30457 0.827115 0.563775
0.30338 0.825833 0.554864
0.303426 0.823987 0.544411
0.307088 0.82034 0.530999
0.311635 0.816114 0.516869
0.31223 0.815732 0.514336
0.311696 0.81593 0.51548
0.311391 0.816068 0.516533
0.311131 0.816266 0.517449
0.311238 0.816052 0.516579
0.319341 0.813397 0.504204
0.328573 0.809705 0.479866
0.352605 0.804822 0.449104
0.4215 0.802838 0.428367
0.506767 0.805829 0.421927
0.556161 0.813596 0.397986
0.586999 0.819699 0.380896
0.617365 0.824002 0.364889
0.656413 0.825422 0.347631
0.721248 0.824033 0.318975
0.787121 0.823362 0.282078
0.808789 0.809339 0.278401
0.82562 0.808804 0.271168
0.833021 0.809216 0.268757
0.83447 0.809323 0.267903
0.834516 0.809354 0.267735
0.834562 0.809384 0.267536
0.834607 0.809415 0.267338
0.834638 0.809445 0.267277
0.834653 0.809491 0.26743
0.834638 0.809552 0.267933
0.303227 0.829679 0.575097
0.30985 0.828397 0.568612
0.309895 0.827344 0.560891
0.306828 0.82504 0.550057
0.311162 0.822202 0.537942
0.314076 0.817975 0.521691
0.319936 0.813581 0.504814
0.322072 0.812436 0.499031
0.321782 0.812558 0.499657
0.321309 0.812696 0.500465
0.320836 0.812848 0.501198
0.320378 0.813031 0.502007
0.325963 0.811414 0.492622
0.333211 0.808011 0.471138
0.3552 0.804532 0.445472
0.419318 0.80296 0.427924
0.501091 0.805127 0.421286
0.552026 0.813092 0.400046
0.582956 0.81883 0.382422
0.607004 0.822522 0.369512
0.638376 0.825269 0.354513
0.69955 0.824628 0.329427
0.774212 0.825833 0.288945
0.800076 0.810788 0.280781
0.820951 0.809033 0.273152
0.831785 0.809232 0.269139
0.834501 0.809339 0.267674
0.834546 0.809354 0.267338
0.834607 0.809369 0.266911
0.834653 0.809384 0.266468
0.834684 0.8094 0.266209
0.834684 0.8094 0.266194
0.834669 0.8094 0.266377
0.29955 0.830671 0.577981
0.30602 0.829358 0.572198
0.312932 0.827924 0.565896
0.306203 0.826703 0.554574
0.309606 0.823209 0.542153
0.313207 0.81944 0.52665
0.31899 0.814115 0.508019
0.322438 0.81236 0.497887
0.322438 0.81236 0.497902
0.322454 0.812345 0.497902
0.322454 0.812345 0.497948
0.322377 0.81236 0.498161
0.32285 0.811337 0.487434
0.335409 0.806729 0.464973
0.357244 0.804303 0.442725
0.416892 0.803143 0.427619
0.496513 0.80502 0.421408
0.548714 0.812375 0.402075
0.576165 0.8177 0.385809
0.596277 0.820966 0.375219
0.623682 0.824643 0.361044
0.677699 0.824689 0.339055
0.759533 0.825254 0.298314
0.792493 0.812573 0.283665
0.814786 0.809003 0.275547
0.829374 0.809094 0.269718
0.834302 0.809308 0.267735
0.834546 0.809354 0.267338
0.834607 0.809369 0.266911
0.834653 0.809384 0.266484
0.834684 0.8094 0.266255
0.834684 0.8094 0.266255
0.834653 0.8094 0.266392
0.29604 0.83154 0.581384
0.30341 0.829862 0.574884
0.310002 0.828473 0.568231
0.306981 0.82739 0.558877
0.307851 0.824247 0.545617
0.312581 0.820722 0.530877
0.317235 0.815122 0.511345
0.322133 0.812497 0.498787
0.322393 0.812375 0.497856
0.322423 0.81236 0.497887
0.322438 0.81236 0.497887
