bundles/resolve-cinematic-luts/Phantom Luts/Ursa G2 Phntm Film LUTs - V1/Gen5/White Balance Offset (+Magenta Boost)/Ursa Eterna Gen5 WBO.cube
TITLE "Generated by Resolve"
LUT_3D_SIZE 33
0.00917067 0.0375982 0.0375982
0.00920119 0.037583 0.0375525
0.00943008 0.0374762 0.037171
0.018967 0.0384833 0.0381933
0.0295872 0.0388495 0.0376287
0.0441901 0.0393072 0.0367285
0.0589761 0.0396124 0.0356451
0.0757153 0.0406653 0.0360723
0.0942397 0.0415656 0.0377966
0.118822 0.0433051 0.0426642
0.151492 0.0463722 0.0502632
0.19086 0.049958 0.0586709
0.23682 0.0541238 0.0675517
0.284169 0.0579538 0.0755322
0.335622 0.0621042 0.0880446
0.388815 0.066331 0.102083
0.442878 0.0721599 0.116762
0.496025 0.0777752 0.129763
0.542702 0.0829786 0.141024
0.578302 0.0880751 0.149966
0.584772 0.0887465 0.156252
0.587518 0.0890822 0.16141
0.593942 0.0925154 0.17203
0.599634 0.0962234 0.181994
0.603922 0.0988022 0.187747
0.603922 0.0988022 0.187747
0.604501 0.0986648 0.18793
0.606149 0.0982681 0.188388
0.609277 0.0975052 0.189425
0.614557 0.0961929 0.191089
0.621546 0.0944686 0.193347
0.629175 0.0925154 0.195636
0.637308 0.0904097 0.198123
0.0102083 0.0370947 0.0358892
0.00949111 0.0374456 0.0370794
0.00943008 0.0374762 0.037171
0.0153353 0.0382391 0.037583
0.0263981 0.0387121 0.0371099
0.0400397 0.03888 0.0361639
0.0575418 0.0391241 0.0357671
0.0759289 0.0401312 0.0365606
0.0956741 0.0414588 0.0386358
0.120851 0.0435492 0.0435492
0.154498 0.0466011 0.0512398
0.195026 0.0500954 0.0599374
0.241382 0.0541695 0.0691234
0.290776 0.0576333 0.0778973
0.344411 0.0612345 0.0909285
0.399512 0.0654459 0.105516
0.45449 0.0712291 0.120073
0.506752 0.0771496 0.132586
0.550637 0.0826886 0.142473
0.581003 0.0876783 0.150896
0.586572 0.0887007 0.157076
0.587945 0.0890669 0.162127
0.594507 0.092668 0.173632
0.600717 0.0969253 0.183444
0.603922 0.0988022 0.187747
0.603922 0.0988022 0.187747
0.604486 0.0986648 0.18793
0.606149 0.0982681 0.188388
0.609277 0.0975052 0.189425
0.614588 0.0961776 0.191089
0.621592 0.0944533 0.193362
0.629404 0.0924544 0.195697
0.637629 0.0903182 0.19823
0.0101167 0.0371405 0.0360418
0.00944533 0.0374609 0.0371557
0.00935378 0.0375067 0.0373083
0.0116121 0.0378882 0.0374914
0.0207828 0.038529 0.0374762
0.034287 0.0388952 0.0368658
0.052903 0.0393225 0.0370489
0.0742351 0.0403754 0.0382086
0.0959945 0.0417334 0.0400397
0.123476 0.0439002 0.0450904
0.158038 0.0469978 0.0525063
0.199023 0.0505226 0.060914
0.24567 0.054551 0.0698405
0.294636 0.057969 0.0790723
0.348592 0.0613107 0.0920272
0.405539 0.0655528 0.10721
0.463203 0.0711376 0.122316
0.517601 0.0764324 0.135119
0.56289 0.0814679 0.145449
0.591302 0.0853437 0.153979
0.598062 0.0860456 0.160449
0.600076 0.0864424 0.166079
0.606378 0.0899825 0.178561
0.612131 0.095079 0.188174
0.613245 0.0965133 0.190661
0.612863 0.0966049 0.190555
0.612543 0.0966964 0.190448
0.612757 0.0966354 0.190524
0.61416 0.0962844 0.190967
0.617151 0.095552 0.192004
0.622812 0.0941634 0.193652
0.630152 0.092256 0.195926
0.638727 0.0900282 0.198581
0.010956 0.0389105 0.0373236
0.0104677 0.0394141 0.0382849
0.0100862 0.0390784 0.0381323
0.0105592 0.0389258 0.038056
0.0163577 0.0395666 0.0382391
0.0271611 0.0401923 0.037995
0.0436866 0.0402838 0.0377813
0.0662242 0.0403143 0.0386664
0.0904707 0.0414893 0.0408789
0.119677 0.0436561 0.0455024
0.156619 0.0468147 0.0528725
0.200458 0.0505684 0.0614328
0.248157 0.05449 0.0701457
0.298848 0.05832 0.0800336
0.352895 0.0615244 0.0932784
0.409827 0.0660563 0.108461
0.467491 0.0714885 0.123232
0.521523 0.076585 0.135836
0.566934 0.0820325 0.146197
0.591775 0.08542 0.154726
0.598398 0.0860456 0.161135
0.601236 0.0869306 0.168017
0.606973 0.0901503 0.179721
0.613443 0.0958267 0.18999
0.613993 0.0963302 0.190906
0.614054 0.0963149 0.190921
0.614069 0.0963149 0.190936
0.614343 0.0962387 0.191012
0.615427 0.0959793 0.191363
0.617914 0.0953536 0.192248
0.62327 0.0940414 0.193774
0.631052 0.0920119 0.196216
0.640253 0.0896315 0.199145
0.0145876 0.0471199 0.0421454
0.0139315 0.0480049 0.0425422
0.0137026 0.0479744 0.0423285
0.0145571 0.0461128 0.0410163
0.0204471 0.047303 0.0413825
0.0306401 0.0483101 0.0412757
0.0452735 0.0483711 0.0408484
0.0665141 0.0465095 0.0404822
0.0901503 0.0446174 0.0423743
0.119203 0.0447242 0.0476387
0.156161 0.0467079 0.0548714
0.201175 0.0502632 0.0628519
0.24979 0.0542 0.0710307
0.30042 0.0578775 0.0802777
0.355077 0.0612802 0.0931106
0.412985 0.0663462 0.108919
0.471305 0.0716716 0.124041
0.526009 0.0771038 0.13695
0.570092 0.082414 0.1467
0.592294 0.0854505 0.155352
0.598672 0.0860609 0.161837
0.601953 0.0871901 0.169726
0.60737 0.0906081 0.18085
0.613611 0.0964218 0.190784
0.613672 0.0964065 0.190799
0.613718 0.0964065 0.190829
0.613733 0.0963912 0.190829
0.614023 0.0963302 0.190906
0.615122 0.0960555 0.191257
0.618494 0.0952163 0.192432
0.624567 0.0937057 0.194202
0.633204 0.0914626 0.196963
0.642527 0.0890516 0.199832
0.0188907 0.0586709 0.0480964
0.0180362 0.0601053 0.048188
0.017792 0.0607767 0.0486763
0.0175479 0.0596323 0.0463722
0.0230259 0.05832 0.045655
0.033753 0.0599985 0.0456245
0.0499733 0.0594034 0.0450752
0.0721904 0.0576333 0.0453651
0.0969558 0.054551 0.0459449
0.125902 0.0517891 0.049424
0.162829 0.0501411 0.0563973
0.208331 0.0517586 0.0659037
0.255421 0.0538491 0.0736095
0.305028 0.0571298 0.0816663
0.358038 0.0606088 0.0923629
0.414847 0.0662242 0.106386
0.472969 0.0717784 0.122606
0.527977 0.0773785 0.13666
0.572457 0.0824903 0.146456
0.593256 0.0854658 0.156039
0.59881 0.0861067 0.162402
0.602319 0.0872053 0.171069
0.608576 0.0910811 0.182452
0.614282 0.0962539 0.190997
0.614176 0.0962844 0.190967
0.61413 0.0962997 0.190951
0.614069 0.0963149 0.190936
0.614313 0.0962539 0.191012
0.615381 0.0959793 0.191348
0.618677 0.0951705 0.192493
0.624659 0.0936904 0.194247
0.633524 0.091371 0.197055
0.643183 0.0888685 0.200031
0.0242466 0.0739147 0.0556039
0.0233921 0.0760357 0.0557107
0.0228122 0.0776989 0.0572061
0.0229648 0.0780194 0.0562753
0.0229191 0.075639 0.0514992
0.0342718 0.0751049 0.0507668
0.0508888 0.0763409 0.0499428
0.0773175 0.0742657 0.0488441
0.106691 0.0686809 0.0501717
0.136797 0.0652476 0.0515755
0.17377 0.0611734 0.0555734
0.21738 0.0591897 0.0633402
0.262242 0.0591135 0.0724804
0.30988 0.0598154 0.0814527
0.360678 0.0603037 0.0914015
0.415641 0.0661631 0.103136
0.471046 0.0719463 0.117342
0.525277 0.0780499 0.130465
0.570718 0.0837262 0.144152
0.58996 0.0865644 0.154711
0.594369 0.0871595 0.161028
0.596872 0.0874037 0.168597
0.604883 0.0924697 0.180896
0.611124 0.0972305 0.189578
0.611048 0.0971542 0.189715
0.611048 0.0971542 0.189731
0.611048 0.0971542 0.189715
0.611231 0.0971084 0.189776
0.611933 0.0969253 0.190036
0.613916 0.0964065 0.190738
0.617502 0.0954757 0.19205
0.623255 0.0940566 0.193759
0.630259 0.0922255 0.195956
0.0340429 0.0949722 0.0632792
0.0333104 0.0985275 0.0647898
0.0321508 0.101457 0.0666819
0.0315862 0.10341 0.067689
0.0310369 0.102724 0.0656443
0.0306401 0.0992599 0.0584268
0.0480049 0.100267 0.0586862
0.0743725 0.102174 0.0575418
0.112642 0.0982834 0.0574044
0.152651 0.090486 0.0619059
0.19408 0.083238 0.064271
0.23801 0.0778058 0.0679026
0.283177 0.0735332 0.0740063
0.328038 0.0681468 0.0810254
0.374441 0.0641337 0.0911116
0.426368 0.0647593 0.102541
0.480461 0.0698711 0.115694
0.53608 0.0758068 0.127947
0.581506 0.0818189 0.142214
0.598718 0.0851148 0.154635
0.598718 0.0859998 0.15993
0.598627 0.0867323 0.165148
0.602533 0.0900435 0.174395
0.606409 0.0933852 0.180926
0.608499 0.095491 0.183978
0.607294 0.0946059 0.183352
0.607446 0.094667 0.18381
0.608194 0.0950179 0.184665
0.610483 0.0960403 0.186297
0.613718 0.0965744 0.188205
0.617746 0.096025 0.190234
0.623392 0.0945449 0.192157
0.630472 0.0927138 0.194202
0.0438697 0.122927 0.0762036
0.0428016 0.127275 0.0773632
0.0415961 0.131044 0.0787976
0.0411383 0.134096 0.0800488
0.04094 0.13547 0.080354
0.0405585 0.13312 0.0756085
0.0409552 0.130282 0.0673228
0.0636912 0.13312 0.0688792
0.10454 0.136675 0.0682383
0.157702 0.13402 0.0690013
0.212497 0.124681 0.0773175
0.269383 0.112566 0.0820478
0.316762 0.105425 0.0852216
0.363256 0.0936599 0.0872206
0.409659 0.0820478 0.0918593
0.455558 0.0717327 0.0994583
0.503929 0.0720073 0.114214
0.551339 0.0767376 0.128054
0.585168 0.0807355 0.138094
0.604822 0.0835889 0.147005
0.607584 0.0836652 0.157626
0.609659 0.0838026 0.163577
0.611551 0.0839704 0.169223
0.612436 0.0840467 0.171908
0.61268 0.084062 0.1729
0.612711 0.0840772 0.173327
0.612467 0.0841535 0.173663
0.612314 0.0846113 0.17464
0.61297 0.0860304 0.176028
0.613718 0.0868849 0.177188
0.615274 0.0869917 0.17818
0.618204 0.0862593 0.179294
0.623255 0.0846876 0.180606
0.0570077 0.160357 0.0933394
0.0558785 0.165652 0.0934005
0.0544594 0.171435 0.094377
0.0539712 0.175891 0.0953078
0.0533608 0.178775 0.0963302
0.0539254 0.179675 0.096025
0.0538949 0.175677 0.0883955
0.0552377 0.173892 0.079469
0.0874495 0.17911 0.0823835
0.144762 0.185748 0.082002
0.217273 0.184955 0.0825055
0.294591 0.173861 0.0945449
0.361822 0.157946 0.10164
0.415503 0.149477 0.104417
0.467842 0.136828 0.10634
0.513787 0.117235 0.107866
0.551431 0.096849 0.111986
0.58088 0.084062 0.119554
0.604074 0.0846265 0.133822
0.609949 0.0852522 0.142382
0.606897 0.0845045 0.143404
0.607736 0.0842145 0.153582
0.608759 0.0841077 0.160281
0.609995 0.0841382 0.163622
0.610758 0.084062 0.164553
0.611475 0.0839094 0.16524
0.61207 0.0838026 0.165881
0.612375 0.0837568 0.16643
0.612451 0.0837568 0.166903
0.61268 0.0837415 0.167483
0.613596 0.0835431 0.168139
0.616007 0.0829786 0.169131
0.620874 0.0818341 0.170596
0.0726787 0.21236 0.116533
0.0717174 0.219364 0.116625
0.0699626 0.226856 0.116579
0.069398 0.23331 0.116075
0.0690929 0.238209 0.1178
0.0695506 0.241245 0.1187
0.0705272 0.241352 0.116609
0.0710002 0.234409 0.106172
0.075761 0.234516 0.0948501
0.119417 0.243229 0.0984817
0.196582 0.254582 0.0968032
0.296437 0.255879 0.0903639
0.39321 0.249729 0.100252
0.478599 0.22948 0.114504
0.549386 0.213718 0.120089
0.609201 0.20354 0.124712
0.658488 0.192157 0.132113
0.683818 0.174472 0.139742
0.681361 0.15256 0.142153
0.652445 0.11841 0.135546
0.635401 0.103822 0.13901
0.614847 0.0867933 0.136294
0.609827 0.0849165 0.147295
0.607385 0.0841688 0.149798
0.608148 0.0840314 0.150927
0.608865 0.0838483 0.151675
0.6094 0.0836957 0.152331
0.609628 0.0836194 0.153048
0.609644 0.0836042 0.153826
0.609888 0.0835584 0.154665
0.610864 0.0833753 0.155642
0.613092 0.0829175 0.156741
0.617533 0.0819257 0.15819
0.0899062 0.28333 0.145449
0.0859998 0.293706 0.14548
0.0831159 0.303609 0.144671
0.0820172 0.3131 0.143954
0.0813916 0.321386 0.144701
0.0816815 0.327779 0.146059
0.0822919 0.331792 0.147265
0.0840467 0.329717 0.143236
0.086717 0.322759 0.1299
0.0949416 0.321202 0.110414
0.15494 0.334142 0.112718
0.260578 0.348501 0.102937
0.391608 0.348714 0.0839551
0.497871 0.350958 0.0800183
0.595575 0.333074 0.103792
0.685084 0.308446 0.125597
0.745876 0.293919 0.142626
0.779339 0.285618 0.158114
0.789929 0.274968 0.16556
0.785031 0.261967 0.165454
0.764294 0.234272 0.161273
0.723064 0.188342 0.15288
0.688853 0.154543 0.150042
0.619348 0.0882887 0.133425
0.618631 0.0875868 0.136721
0.618204 0.0869917 0.138613
0.616815 0.0862898 0.140169
0.615763 0.0858015 0.14107
0.614603 0.0854047 0.141772
0.614282 0.0853437 0.142092
0.614893 0.0854353 0.142672
0.616541 0.0850843 0.143435
0.620905 0.084184 0.144488
0.095552 0.37586 0.176959
0.0903792 0.388464 0.176394
0.0858625 0.400961 0.175814
0.0841382 0.412985 0.175006
0.0826276 0.424125 0.174823
0.0833143 0.433173 0.175113
0.0834669 0.438666 0.17673
0.0846876 0.440772 0.17705
0.0888533 0.435462 0.170123
0.0949416 0.429664 0.152193
0.106691 0.429541 0.118944
0.200839 0.444038 0.120684
0.339086 0.454154 0.104005
0.480018 0.447654 0.0895399
0.590326 0.452689 0.0701762
0.675456 0.44921 0.0923323
0.756283 0.433738 0.131426
0.814237 0.419623 0.164797
0.845167 0.405997 0.185794
0.845487 0.387976 0.186923
0.839551 0.370245 0.184176
0.83238 0.350851 0.180484
0.819348 0.321508 0.17525
0.794568 0.276844 0.167987
0.784283 0.260945 0.165393
0.780179 0.254704 0.16463
0.774487 0.246693 0.163302
0.76672 0.236988 0.161639
0.7579 0.226383 0.159854
0.749249 0.216236 0.158236
0.740215 0.205844 0.156451
0.731563 0.19501 0.154574
0.724849 0.185107 0.152667
0.0930343 0.485054 0.217288
0.0899214 0.497673 0.217105
0.087068 0.509422 0.216144
0.0851301 0.521187 0.215625
0.0841993 0.532784 0.214847
0.0851911 0.542855 0.214801
0.0857404 0.550423 0.215839
0.0867933 0.553933 0.217502
0.0887617 0.553429 0.217197
0.0957351 0.545571 0.203616
0.10663 0.544152 0.178866
0.142168 0.544366 0.13463
0.274098 0.552193 0.135851
0.425666 0.555932 0.119799
0.557839 0.544945 0.114611
0.66508 0.549432 0.0923629
0.740261 0.55198 0.114183
0.799329 0.552972 0.146685
0.843595 0.549935 0.175326
0.869627 0.535042 0.192996
0.872297 0.511757 0.196231
0.86865 0.489204 0.195514
0.865171 0.468528 0.19501
0.861372 0.445151 0.194751
0.858152 0.429694 0.194369
0.856657 0.422827 0.193622
0.854994 0.4177 0.192401
0.85243 0.410834 0.1906
0.849973 0.403067 0.189227
0.847593 0.394598 0.187747
0.845258 0.386908 0.186694
0.842527 0.378576 0.185443
0.840299 0.370764 0.184039
0.0962081 0.592782 0.274876
0.0926375 0.604746 0.27451
0.0920882 0.615534 0.273518
0.0924697 0.626261 0.272633
0.0940261 0.636393 0.271473
0.0975967 0.646433 0.270298
0.1019 0.654902 0.269505
0.102968 0.658427 0.271626
0.104524 0.659388 0.272465
0.108248 0.65658 0.268345
0.120394 0.64773 0.246448
0.140948 0.647868 0.21117
0.212634 0.647593 0.169512
0.373922 0.650462 0.161028
0.509438 0.650843 0.147784
0.627497 0.63714 0.149416
0.727474 0.641825 0.139712
0.796414 0.6439 0.158724
0.842725 0.64686 0.179263
0.875059 0.646494 0.195956
0.889052 0.638041 0.203052
0.888701 0.622385 0.202792
0.884886 0.601099 0.200793
0.881132 0.577691 0.19942
0.878416 0.561196 0.19826
0.877562 0.554421 0.198001
0.876661 0.549233 0.197543
0.87602 0.543328 0.197467
0.875212 0.536858 0.197284
0.874037 0.529168 0.196918
0.873335 0.521111 0.196933
0.872236 0.512993 0.196536
0.870756 0.505226 0.195727
0.114214 0.691722 0.34258
0.116258 0.702022 0.342367
0.114626 0.712139 0.340887
0.116152 0.721981 0.339559
0.119417 0.731685 0.337835
0.125933 0.741344 0.335714
0.134447 0.749554 0.332128
0.138094 0.753368 0.33228
0.139696 0.754696 0.333227
0.141115 0.753491 0.332921
0.147417 0.747433 0.321096
0.163943 0.739391 0.290303
0.199466 0.740124 0.236011
0.306996 0.73756 0.208713
0.479301 0.737972 0.194614
0.5906 0.737667 0.188708
0.695598 0.724605 0.194629
0.785367 0.726375 0.197543
0.843488 0.730571 0.212619
0.881636 0.731868 0.224384
0.90396 0.728588 0.230915
0.910582 0.722637 0.23209
0.90808 0.711589 0.227436
0.904356 0.693919 0.220066
0.898177 0.668299 0.210925
0.896513 0.660319 0.208759
0.895079 0.655497 0.207614
0.894041 0.650553 0.20676
0.89247 0.644495 0.205478
0.890974 0.637446 0.204364
0.889738 0.630167 0.203662
0.888594 0.622629 0.20264
0.887556 0.615885 0.201968
0.154757 0.777035 0.411429
0.159686 0.786068 0.411414
0.162356 0.795041 0.409827
0.15787 0.80325 0.40766
0.159838 0.810895 0.404547
0.165667 0.818357 0.401022
0.173739 0.824887 0.396033
0.180362 0.829282 0.392218
0.183124 0.830808 0.391531
0.184466 0.83003 0.391409
0.185428 0.826596 0.388922
0.194461 0.819867 0.365286
0.218692 0.81767 0.324788
0.278889 0.817044 0.263188
0.42211 0.814359 0.241032
0.573251 0.814771 0.234623
0.665019 0.815015 0.237156
0.760525 0.808164 0.245518
0.835828 0.804746 0.258259
0.880262 0.807813 0.270634
0.91075 0.809491 0.27834
0.924865 0.80499 0.279698
0.925429 0.798932 0.275883
0.923888 0.79089 0.270573
0.921141 0.777432 0.261051
0.91841 0.765072 0.252766
0.917098 0.760037 0.249149
0.915892 0.75462 0.245747
0.914092 0.747768 0.241901
0.912505 0.740291 0.238224
0.911238 0.732677 0.235172
0.909575 0.724956 0.231998
0.908019 0.718105 0.22948
0.197925 0.839673 0.469963
0.203159 0.847654 0.469535
0.204868 0.854948 0.467155
0.200595 0.8607 0.463783
0.198444 0.866407 0.460136
0.202838 0.872236 0.454963
0.209842 0.877409 0.449302
0.218265 0.881971 0.442908
0.222202 0.883894 0.439704
0.223041 0.883391 0.439658
0.223621 0.880995 0.438117
0.22681 0.876616 0.428611
0.239796 0.871077 0.394064
0.276555 0.872404 0.3402
0.380072 0.869612 0.283772
0.542138 0.871656 0.273808
0.656352 0.873457 0.276356
0.731838 0.873976 0.284871
0.817594 0.872389 0.297597
0.876631 0.867445 0.311925
0.909529 0.86421 0.320699
0.932021 0.864805 0.327382
0.938659 0.861875 0.326741
0.937102 0.856428 0.321309
0.935927 0.851148 0.316625
0.9337 0.844388 0.309743
0.932601 0.840162 0.305211
0.931365 0.836057 0.301305
0.929992 0.831174 0.296757
0.928695 0.825452 0.292134
0.927504 0.819425 0.2878
0.926665 0.813809 0.28423
0.925399 0.807675 0.279835
0.230152 0.883055 0.516014
0.233829 0.888197 0.51368
0.234302 0.893599 0.510414
0.233585 0.898634 0.50634
0.230884 0.902266 0.500771
0.227649 0.903944 0.493843
0.232746 0.906279 0.485771
0.240116 0.90869 0.476951
0.245609 0.910048 0.469413
0.246403 0.909804 0.468772
0.247456 0.90869 0.468132
0.24918 0.906859 0.466987
0.259495 0.904479 0.445884
0.284489 0.903227 0.401373
0.344152 0.905196 0.336049
0.512489 0.907256 0.304555
0.637736 0.910018 0.305852
0.717418 0.912886 0.314076
0.788998 0.914275 0.32781
0.862989 0.914885 0.344854
0.905425 0.908873 0.356786
0.930831 0.902663 0.36408
0.946014 0.902586 0.369284
0.947646 0.899077 0.365072
0.946395 0.895293 0.35993
0.945205 0.891478 0.355337
0.944259 0.888533 0.350927
0.943236 0.885985 0.347677
0.942245 0.883009 0.343954
0.941299 0.879789 0.340566
0.940581 0.876204 0.337392
0.939956 0.872572 0.334829
0.939345 0.869322 0.331899
0.246738 0.904067 0.546517
0.24715 0.905516 0.542306
0.245655 0.907851 0.537224
0.243458 0.910414 0.531624
0.242405 0.91281 0.525078
0.242252 0.914336 0.516747
0.239734 0.914183 0.505821
0.242557 0.914412 0.493782
0.248096 0.914931 0.481315
0.249821 0.914885 0.478157
0.250721 0.91458 0.478111
0.252522 0.913985 0.478065
0.258259 0.913237 0.471458
0.276661 0.912474 0.438529
0.315908 0.911192 0.374273
0.446433 0.915785 0.318868
0.610529 0.918288 0.31339
0.699489 0.921447 0.319829
0.758038 0.925155 0.330648
0.826413 0.926802 0.34638
0.886229 0.927123 0.361852
0.917128 0.91986 0.370153
0.939864 0.918044 0.381094
0.949844 0.918563 0.386954
0.950225 0.916793 0.38616
0.950256 0.915022 0.38352
0.950088 0.913527 0.381613
0.949676 0.912306 0.379644
0.949203 0.910994 0.377356
0.949004 0.909636 0.375647
0.948974 0.90808 0.37409
0.948913 0.906188 0.372824
0.94844 0.904585 0.370581
0.238041 0.902296 0.559869
0.238743 0.903929 0.555093
0.237568 0.906249 0.549813
0.235798 0.908949 0.543587
0.235126 0.911681 0.536248
0.237095 0.913893 0.527489
0.241276 0.915434 0.51664
0.238834 0.914397 0.502617
0.245014 0.914855 0.487297
0.249378 0.914961 0.478325
0.249958 0.914794 0.478386
0.25095 0.914397 0.47866
0.252628 0.913756 0.479072
0.265263 0.913222 0.45774
0.29482 0.912612 0.407462
0.368444 0.913893 0.341329
0.569711 0.918563 0.313329
0.681376 0.920943 0.318151
0.735744 0.924956 0.327367
0.792721 0.927642 0.340414
0.859632 0.928817 0.35639
0.902007 0.927047 0.366751
0.927428 0.919158 0.374289
0.944564 0.922942 0.385595
0.948547 0.924132 0.38912
0.948394 0.924346 0.389197
0.948165 0.924529 0.3888
0.947951 0.924651 0.388235
0.947875 0.924666 0.387869
0.947936 0.924575 0.387732
0.948119 0.924392 0.387869
0.948425 0.924132 0.388281
0.948852 0.923781 0.388983
0.227543 0.90428 0.569558
0.232074 0.904341 0.564095
0.235935 0.90486 0.558007
0.238849 0.906157 0.551324
0.241489 0.908019 0.543435
0.244694 0.909987 0.534005
0.249409 0.91165 0.522118
0.249195 0.91107 0.507607
0.254398 0.911131 0.49044
0.261601 0.911437 0.475212
0.262821 0.911406 0.473259
0.263096 0.911162 0.474083
0.263905 0.910704 0.475227
0.269368 0.910155 0.467872
0.291493 0.909987 0.431189
0.342885 0.910109 0.366033
0.498405 0.914778 0.32047
0.666148 0.917494 0.320546
0.724941 0.921035 0.328908
0.773938 0.924285 0.339498
0.834958 0.925856 0.354574
0.885679 0.92723 0.367193
0.919417 0.917845 0.375082
0.939864 0.919097 0.385275
0.94992 0.92163 0.392462
0.950957 0.922316 0.394202
0.950698 0.92282 0.395315
0.950195 0.923369 0.394995
0.949554 0.923934 0.393683
0.948837 0.924453 0.392325
0.948379 0.924804 0.391333
0.94818 0.924895 0.390723
0.948257 0.924804 0.390524
0.228 0.907897 0.575372
0.232273 0.907851 0.569329
0.237293 0.908293 0.562387
0.241947 0.909255 0.555169
0.24509 0.910521 0.546365
0.248463 0.911803 0.535332
0.250965 0.912444 0.522408
0.253269 0.912474 0.506218
0.256291 0.911864 0.487083
0.266285 0.912108 0.464607
0.269032 0.912077 0.458457
0.268696 0.911864 0.460075
0.268528 0.911528 0.462104
0.268772 0.91104 0.463676
0.284672 0.911452 0.43888
0.321294 0.911543 0.385306
0.42327 0.914061 0.328252
0.622248 0.917372 0.317479
0.710231 0.920363 0.325795
0.755779 0.92343 0.334981
0.803861 0.925322 0.346807
0.857801 0.926436 0.360098
0.906386 0.922118 0.371801
0.931243 0.917662 0.380133
0.946212 0.920531 0.389548
0.950835 0.922179 0.392844
0.950469 0.92256 0.392538
0.949996 0.923095 0.392096
0.949325 0.923674 0.390906
0.948623 0.924224 0.389868
0.94815 0.92459 0.389181
0.947967 0.924758 0.388952
0.948043 0.924712 0.389181
0.236301 0.911345 0.575296
0.241062 0.911513 0.568338
0.245838 0.912016 0.560952
0.250065 0.912596 0.553109
0.252796 0.913436 0.543999
0.255955 0.914366 0.532967
0.257252 0.914488 0.518822
0.256947 0.913497 0.501076
0.264256 0.913405 0.478508
0.275059 0.912947 0.450935
0.281483 0.912703 0.436362
0.281559 0.912612 0.436286
0.281254 0.912459 0.437675
0.280186 0.912184 0.44062
0.288411 0.912306 0.429328
0.312444 0.912551 0.392615
0.378531 0.913451 0.33518
0.553811 0.917998 0.314946
0.689815 0.920729 0.321233
0.737819 0.923369 0.329717
0.776501 0.925231 0.339101
0.827604 0.926146 0.351888
0.88835 0.926635 0.367041
0.922194 0.920195 0.37641
0.940078 0.919326 0.384955
0.949004 0.921675 0.391028
0.950362 0.922545 0.391852
0.949889 0.922957 0.390555
0.949157 0.923506 0.38941
0.94847 0.924056 0.388098
0.947997 0.924407 0.387259
0.947906 0.924498 0.387213
0.94818 0.924315 0.387884
0.237491 0.912673 0.57937
0.241062 0.912642 0.572732
0.244862 0.91284 0.565621
0.248249 0.913344 0.557916
0.251072 0.914244 0.548943
0.253834 0.915114 0.537972
0.25684 0.915496 0.5243
0.25507 0.914397 0.506706
0.261936 0.914168 0.484428
0.271901 0.91368 0.456168
0.281971 0.913314 0.433204
0.283223 0.913237 0.43032
0.283345 0.913115 0.430701
0.283833 0.912856 0.43125
0.288853 0.912764 0.42504
0.311742 0.912673 0.390066
0.35581 0.912459 0.342321
0.49575 0.917494 0.314672
0.659648 0.92076 0.316762
0.719142 0.92369 0.324392
0.752819 0.92546 0.331701
0.79704 0.926314 0.342962
0.861219 0.92723 0.359075
0.909194 0.922484 0.371786
0.931914 0.917388 0.379767
0.946029 0.920897 0.388937
0.950378 0.92253 0.391867
0.949905 0.922942 0.3906
0.949187 0.923461 0.389319
0.948501 0.92398 0.387869
0.948089 0.924269 0.387015
0.948089 0.924269 0.38703
0.94844 0.92401 0.387747
0.236164 0.913207 0.585275
0.238193 0.91281 0.578668
0.241642 0.912718 0.571481
0.244877 0.913359 0.563958
0.247135 0.914427 0.555367
0.249439 0.915526 0.544656
0.25275 0.916426 0.531884
0.257069 0.91664 0.515923
0.25742 0.914778 0.493599
0.267094 0.914092 0.465705
0.280262 0.913573 0.43563
0.282933 0.91339 0.430076
0.28304 0.913359 0.430091
0.283436 0.913222 0.430137
0.284566 0.913024 0.42974
0.302785 0.913085 0.402029
0.336507 0.911925 0.35314
0.439902 0.916304 0.319646
0.618112 0.919783 0.314046
0.704158 0.923247 0.321157
0.732189 0.925246 0.325887
0.762493 0.926802 0.332448
0.827771 0.928512 0.348119
0.890135 0.926589 0.363867
0.920104 0.918776 0.371878
0.939544 0.920806 0.382391
0.948623 0.922927 0.389319
0.949401 0.923308 0.389731
0.948943 0.923644 0.3888
0.94844 0.92401 0.387732
0.948119 0.924254 0.387076
0.94815 0.924239 0.387121
0.948394 0.924056 0.387655
0.236271 0.913832 0.591485
0.23682 0.913054 0.584451
0.239002 0.912703 0.577081
0.24181 0.913115 0.569619
0.243992 0.914229 0.561044
0.245853 0.915602 0.551049
0.248844 0.916655 0.538689
0.253925 0.917342 0.523476
0.255314 0.915999 0.502449
0.262425 0.914794 0.475746
0.276036 0.914 0.443671
0.282506 0.913527 0.430137
0.282841 0.91342 0.430076
0.283055 0.913344 0.430091
0.283497 0.913207 0.430152
0.292424 0.913237 0.417029
0.320729 0.912703 0.373724
0.38529 0.914153 0.330083
