bundles/resolve-cinematic-luts/Phantom Luts/Ursa G2 Phntm Film LUTs - V1/Gen5/White Balance Offset (+Magenta Boost)/Ursa Bleach Gen5-Legacy WBO.cube
TITLE "Generated by Resolve"
LUT_3D_SIZE 5
0.0252842 0.0381628 0.0269627
0.0452888 0.0426032 0.0309453
0.242924 0.0569009 0.052369
0.66215 0.0575723 0.083299
0.707683 0.0754253 0.120424
0.0399176 0.0864118 0.0499428
0.0752575 0.100587 0.0473793
0.415335 0.0740673 0.0541695
0.690944 0.0611582 0.0766155
0.693355 0.0610056 0.0910048
0.0383917 0.458198 0.110353
0.0519417 0.489784 0.0988632
0.5299 0.643717 0.146365
0.908812 0.729809 0.165606
0.909361 0.734203 0.167498
0.123049 0.75935 0.323888
0.153826 0.755032 0.279179
0.569192 0.78436 0.219089
0.8701 0.862058 0.257725
0.907912 0.873228 0.259495
0.13756 0.760555 0.337896
0.178134 0.753338 0.248173
0.630747 0.799588 0.232029
0.862623 0.864713 0.253697
0.907866 0.873198 0.258824
0.0265202 0.0398871 0.0421759
0.0507515 0.0441901 0.0467842
0.287129 0.0606241 0.0818494
0.69987 0.0749218 0.129747
0.706188 0.073579 0.117998
0.0386053 0.0816052 0.0657359
0.0837873 0.0934157 0.0814679
0.446464 0.0856489 0.0871443
0.692195 0.0609445 0.0889601
0.694438 0.0610208 0.0949264
0.0125124 0.436011 0.187762
0.0296178 0.463233 0.133394
0.547829 0.630014 0.143206
0.906859 0.705058 0.166262
0.906645 0.701473 0.164584
0.0819257 0.770336 0.478431
0.121706 0.76051 0.339895
0.485969 0.77438 0.214588
0.867033 0.8607 0.258427
0.907958 0.873274 0.260227
0.129976 0.776623 0.581735
0.124285 0.763165 0.359625
0.555474 0.781979 0.222721
0.836774 0.863493 0.250736
0.907866 0.873198 0.258824
0.040238 0.0488289 0.170382
0.0938735 0.0513008 0.197665
0.385962 0.0678569 0.28098
0.75758 0.0978866 0.464256
0.7729 0.10605 0.578424
0.0251469 0.0531319 0.23122
0.0996719 0.0578622 0.328191
0.549615 0.0738231 0.404135
0.765957 0.10457 0.53228
0.775876 0.107393 0.591928
0.0104829 0.431861 0.37348
0.00895705 0.448997 0.394156
0.651408 0.611093 0.602731
0.914229 0.64506 0.625574
0.915862 0.65304 0.630411
0.104707 0.776562 0.660502
0.0973373 0.774792 0.631174
0.470878 0.796475 0.60235
0.906065 0.892241 0.648829
0.931853 0.900084 0.682872
0.398062 0.80412 0.748302
0.294987 0.789609 0.711467
0.599634 0.833371 0.710552
0.89427 0.903075 0.717922
0.930159 0.901259 0.676997
0.0933089 0.0606546 0.481712
0.200458 0.0672007 0.555856
0.55726 0.0747234 0.628763
0.82266 0.122911 0.724605
0.825574 0.122484 0.753918
0.111559 0.0672007 0.611505
0.223484 0.0756085 0.660716
0.649058 0.0872358 0.710063
0.828885 0.126757 0.75436
0.827115 0.123674 0.756252
0.011429 0.403189 0.660212
0.0120394 0.40824 0.676402
0.742763 0.57406 0.879866
0.95964 0.624826 0.891112
0.960082 0.631952 0.894133
0.13785 0.780789 0.735134
0.128557 0.779217 0.734035
0.580743 0.820615 0.780087
0.937209 0.908186 0.872312
0.951583 0.910628 0.875227
0.556497 0.8262 0.786633
0.486229 0.813214 0.771237
0.732784 0.883909 0.836896
0.932998 0.92874 0.881819
0.951431 0.92929 0.878126
0.217288 0.0769207 0.675608
0.359319 0.0808728 0.707561
0.678813 0.0939956 0.737896
0.835584 0.134508 0.764599
0.836973 0.136889 0.766308
0.300587 0.0806592 0.699886
0.423682 0.0809491 0.713512
0.74699 0.113863 0.753414
0.841184 0.141939 0.770306
0.838209 0.13846 0.767437
0.0583658 0.445838 0.714046
0.169024 0.488228 0.75494
0.864286 0.613794 0.895796
0.961654 0.645808 0.896864
0.962112 0.656901 0.897795
0.286534 0.785641 0.759472
0.298573 0.783444 0.761898
0.657847 0.842435 0.825925
0.943221 0.90251 0.887587
0.951492 0.906081 0.888548
0.620829 0.845228 0.805432
0.574212 0.830839 0.791852
0.75491 0.891249 0.849515
0.937957 0.929305 0.888731
0.951675 0.930037 0.889723
