bundles/resolve-cinematic-luts/Phantom Luts/Ursa G2 Phntm Film LUTs - V1/Gen5/White Balance Offset (+Magenta Boost)/Ursa Eterna Gen5-Legacy WBO.cube
TITLE "Generated by Resolve"
LUT_3D_SIZE 9
0.0167697 0.0444648 0.0445106
0.0355688 0.0468299 0.0469215
0.0902113 0.0516823 0.0467689
0.212024 0.0695964 0.0754253
0.42916 0.0817884 0.12163
0.583139 0.0883955 0.156756
0.608789 0.106783 0.186725
0.614221 0.10547 0.188281
0.641032 0.0989548 0.196582
0.0242466 0.0568551 0.0518807
0.0309453 0.0575418 0.0505837
0.0866712 0.058854 0.0509651
0.223697 0.0684367 0.0769818
0.4589 0.0794385 0.12842
0.596078 0.0855879 0.161746
0.616953 0.104814 0.189151
0.618463 0.104448 0.189609
0.644694 0.098024 0.197574
0.0463722 0.114488 0.0781109
0.0426337 0.124331 0.082948
0.0932937 0.123171 0.069398
0.267872 0.102968 0.0822003
0.479286 0.0724346 0.11252
0.603677 0.0834821 0.158633
0.602655 0.0861219 0.1691
0.601846 0.0887312 0.171298
0.619257 0.0864271 0.177508
0.0970016 0.314641 0.164858
0.0856641 0.358816 0.166888
0.090837 0.370275 0.163745
0.28954 0.389639 0.115496
0.736385 0.369467 0.143526
0.810178 0.313466 0.177874
0.741543 0.213855 0.16231
0.711925 0.181643 0.155688
0.680125 0.143862 0.147921
0.174624 0.768688 0.368154
0.189899 0.811765 0.367956
0.210925 0.834974 0.362509
0.233692 0.819348 0.313298
0.633539 0.812177 0.241291
0.910918 0.804273 0.278828
0.910262 0.759579 0.252674
0.901854 0.721523 0.233387
0.894469 0.685832 0.221653
0.253803 0.8963 0.513329
0.240787 0.901564 0.487953
0.254673 0.904097 0.442939
0.261189 0.90277 0.435828
0.513603 0.906203 0.308904
0.841352 0.917754 0.340276
0.938628 0.91104 0.368902
0.939498 0.910384 0.371023
0.941283 0.908904 0.373632
0.245167 0.904234 0.530327
0.255833 0.9037 0.49955
0.267994 0.902373 0.440101
0.2851 0.900038 0.396002
0.340215 0.897322 0.330083
0.72108 0.912718 0.31989
0.929702 0.906493 0.365728
0.938781 0.910735 0.368551
0.937987 0.911345 0.36701
0.228809 0.906035 0.5523
0.249516 0.90425 0.522469
0.272679 0.898207 0.471748
0.299184 0.894682 0.397681
0.309712 0.893751 0.383215
0.65095 0.905287 0.316426
0.87126 0.912169 0.351339
0.939666 0.910033 0.370459
0.935058 0.913451 0.361898
0.221195 0.906676 0.567712
0.235523 0.906401 0.537972
0.257008 0.902708 0.493217
0.295171 0.89572 0.40209
0.298512 0.895033 0.397131
0.451118 0.900496 0.314443
0.75024 0.913115 0.326345
0.939116 0.910369 0.36907
0.934371 0.913924 0.360693
0.016907 0.0447242 0.0536507
0.0378882 0.0479438 0.0558328
0.0890516 0.0539864 0.0612345
0.206607 0.0686503 0.0861524
0.430182 0.088014 0.137377
0.607904 0.0824445 0.163851
0.630518 0.100282 0.192538
0.63444 0.0995499 0.193805
0.654505 0.094667 0.199924
0.0208591 0.0500343 0.0487221
0.0267033 0.0495613 0.0511788
0.0918898 0.0556802 0.0605783
0.230655 0.0704509 0.0876631
0.458701 0.0796979 0.135378
0.617929 0.0803082 0.166033
0.639475 0.0986496 0.19559
0.639567 0.0985275 0.195529
0.654627 0.0946975 0.2
0.0443427 0.10573 0.0829328
0.0398718 0.113893 0.082826
0.0916762 0.11754 0.0691386
0.267597 0.0933547 0.0810559
0.465995 0.0675822 0.111025
0.61471 0.080827 0.16112
0.612787 0.0841535 0.172625
0.613413 0.0880598 0.175921
0.63032 0.0853742 0.181674
0.0862287 0.289021 0.172564
0.0809339 0.326146 0.171954
0.0895857 0.360876 0.164996
0.284596 0.379248 0.114412
0.730465 0.346456 0.145068
0.805249 0.302602 0.176242
0.729015 0.197345 0.158999
0.695613 0.161868 0.151812
0.659495 0.119707 0.141573
0.137987 0.731167 0.380362
0.143496 0.766155 0.372473
0.188174 0.804593 0.348791
0.219837 0.807691 0.313924
0.618997 0.797864 0.230198
0.905852 0.791135 0.266087
0.90605 0.745586 0.24242
0.897353 0.702831 0.224521
0.889754 0.66453 0.214237
0.229908 0.892668 0.55227
0.22707 0.901091 0.530449
0.240452 0.904036 0.475181
0.260716 0.902983 0.435386
0.482719 0.905959 0.308995
0.838239 0.918105 0.338827
0.938384 0.911192 0.368338
0.939452 0.910353 0.370642
0.9411 0.90901 0.373312
0.231403 0.902937 0.589609
0.234607 0.902281 0.559091
0.249348 0.903746 0.495979
0.28423 0.899962 0.398337
0.335256 0.897337 0.335241
0.716945 0.912322 0.319295
0.928527 0.906493 0.364996
0.938628 0.910872 0.3682
0.937804 0.911467 0.36672
0.229572 0.907332 0.616526
0.236805 0.901915 0.585107
0.259724 0.899519 0.528649
0.295293 0.895186 0.406394
0.3093 0.893553 0.384604
0.634607 0.904585 0.315618
0.862974 0.913939 0.349798
0.939666 0.910033 0.370459
0.935027 0.913451 0.361868
0.229099 0.909041 0.63447
0.229221 0.906218 0.604578
0.240009 0.901854 0.553185
0.280156 0.897688 0.442817
0.298283 0.895033 0.397559
0.454429 0.900694 0.31426
0.739788 0.912612 0.324529
0.939193 0.910307 0.369162
0.934676 0.913695 0.361242
0.027512 0.0475319 0.0873121
0.0509651 0.0508583 0.0938735
0.103105 0.0576333 0.083238
0.223835 0.0721447 0.105318
0.436713 0.0891585 0.155657
0.632319 0.101595 0.199252
0.623621 0.0943008 0.185214
0.630869 0.096376 0.189899
0.654505 0.0945907 0.200061
0.0220798 0.0535286 0.0631571
0.0287633 0.0481422 0.0953536
0.103243 0.0585031 0.0887312
0.238819 0.073106 0.110536
0.453162 0.0883803 0.160464
0.64155 0.100252 0.201877
0.635584 0.0951858 0.191363
0.638117 0.0968185 0.194995
0.657053 0.0966812 0.206012
0.0437018 0.101823 0.0914778
0.0399939 0.106157 0.0997024
0.0957046 0.108202 0.106767
0.278843 0.104173 0.121798
0.49485 0.0884718 0.154742
0.624216 0.0902876 0.178988
0.613321 0.089189 0.176715
0.617288 0.092195 0.180865
0.641749 0.0955673 0.197406
0.0837262 0.264683 0.189914
0.0759136 0.291798 0.200198
0.0787213 0.315816 0.183017
0.285283 0.359228 0.119295
0.720623 0.307118 0.150484
0.80032 0.293446 0.174853
0.700725 0.1673 0.153124
0.663722 0.13048 0.145785
0.646647 0.107271 0.147448
0.0889143 0.678553 0.42002
0.0783551 0.705104 0.422324
0.112947 0.737957 0.382666
0.199008 0.780713 0.312139
0.601801 0.77229 0.216159
0.90132 0.755673 0.246509
0.900374 0.716884 0.229801
0.890074 0.669062 0.212665
0.882139 0.629145 0.205112
0.227344 0.890288 0.621912
0.209354 0.896925 0.612375
0.205219 0.899123 0.558495
0.25803 0.902922 0.442374
0.411337 0.902663 0.313512
0.827695 0.917906 0.336812
0.938979 0.910903 0.370428
0.940551 0.90927 0.37174
0.940795 0.908965 0.371633
0.249042 0.906249 0.690349
0.245747 0.905684 0.671214
0.234775 0.9028 0.613504
0.257618 0.902235 0.469047
0.321614 0.897475 0.348943
0.707866 0.910948 0.318822
0.92578 0.905852 0.363653
0.938643 0.910872 0.368261
0.937652 0.91162 0.366567
0.273396 0.916716 0.731151
0.261479 0.911772 0.704082
0.258213 0.90103 0.645014
0.263905 0.89926 0.520409
0.303655 0.893538 0.395239
0.592889 0.903334 0.314015
0.838346 0.914443 0.344411
0.939666 0.910033 0.370459
0.935012 0.913466 0.361852
0.285481 0.920211 0.752667
0.268681 0.916136 0.725353
0.256901 0.905379 0.671397
0.246433 0.898299 0.564004
0.298466 0.894972 0.397589
0.423133 0.899077 0.317571
0.727962 0.912016 0.322301
0.937804 0.909697 0.368368
0.934707 0.91368 0.361303
0.0461891 0.0536202 0.179675
0.0734264 0.0573434 0.208484
0.131914 0.0616159 0.175982
0.266056 0.0821546 0.162814
0.483864 0.0940719 0.207904
0.645258 0.103319 0.248737
0.647578 0.105516 0.247837
0.65803 0.106371 0.275639
0.684169 0.105119 0.313375
0.0330358 0.0505074 0.144594
0.0432898 0.0540475 0.192996
0.123903 0.0621653 0.221683
0.275227 0.082948 0.177935
0.485924 0.0931106 0.215534
0.657877 0.102022 0.272862
0.664347 0.106569 0.285527
0.674434 0.110948 0.322637
0.697292 0.113268 0.366247
0.0363012 0.0923171 0.123079
0.0320134 0.0877852 0.160067
0.0460822 0.0556649 0.217762
0.294133 0.0900893 0.207294
0.511543 0.103212 0.243351
0.654032 0.108293 0.294926
0.665873 0.115618 0.323156
0.675212 0.120241 0.358495
0.693629 0.119173 0.39379
0.0829786 0.252003 0.214115
0.0764782 0.274144 0.237263
0.0768444 0.290501 0.256977
0.320729 0.317678 0.299382
0.697108 0.301045 0.314351
0.831891 0.278691 0.322576
0.720913 0.166903 0.22974
0.694102 0.143267 0.237995
0.6804 0.125826 0.250629
0.0805676 0.634607 0.469261
0.0655375 0.65771 0.492882
0.0687724 0.672724 0.490181
0.0821241 0.686397 0.419989
0.603387 0.712902 0.240238
0.920577 0.649088 0.325704
0.904677 0.659739 0.247013
0.887282 0.655146 0.209293
0.880079 0.616114 0.203632
0.233265 0.88014 0.688716
0.2159 0.886961 0.695735
0.205951 0.888304 0.674784
0.19646 0.890486 0.602548
0.348089 0.910704 0.415183
0.851118 0.916594 0.364065
0.942275 0.907759 0.380941
0.940841 0.908934 0.371725
0.94023 0.90721 0.368582
0.310491 0.91545 0.805066
0.30219 0.917235 0.804028
0.277378 0.909911 0.768368
0.240253 0.901717 0.666835
0.300893 0.912535 0.520333
0.69131 0.912947 0.376287
0.927901 0.906447 0.367102
0.938659 0.910887 0.36846
0.937041 0.912093 0.365866
0.410346 0.925521 0.856092
0.398337 0.925826 0.849958
0.374853 0.919936 0.816876
0.286213 0.906218 0.709682
0.262699 0.900786 0.558083
0.553033 0.908919 0.413947
0.826764 0.914153 0.342184
0.939666 0.910033 0.370459
0.935012 0.913466 0.361837
0.426261 0.926207 0.867674
0.413733 0.926284 0.86067
0.379278 0.925368 0.836225
0.30898 0.912322 0.744961
0.247852 0.898833 0.578088
0.433097 0.909957 0.432654
0.756344 0.913909 0.329809
0.934356 0.908629 0.366583
0.935241 0.913298 0.362249
0.103258 0.066453 0.375418
0.133165 0.0705882 0.415641
0.208331 0.0765698 0.409751
0.341054 0.0860761 0.344457
0.570748 0.114443 0.345083
0.679622 0.120592 0.374075
0.679194 0.122271 0.376013
0.686885 0.124056 0.40827
0.709224 0.122301 0.469657
0.0729992 0.0619211 0.318776
0.0847944 0.0642557 0.364431
0.165484 0.0736248 0.415824
0.334661 0.0849928 0.384833
0.560372 0.1149 0.35494
0.68481 0.122515 0.398932
0.688685 0.125383 0.427329
0.700359 0.127886 0.488151
0.721035 0.124514 0.559823
0.0349737 0.0624552 0.232013
0.0366522 0.0574807 0.297353
0.0888991 0.0651255 0.385565
0.323384 0.0852064 0.451392
0.584314 0.117021 0.393881
0.68716 0.127275 0.428138
0.694896 0.130053 0.4822
0.701564 0.131334 0.53489
0.714656 0.128267 0.584009
0.0775006 0.236286 0.285435
0.0620737 0.242039 0.329427
0.0530556 0.242405 0.394675
0.168338 0.218494 0.500633
0.682185 0.210575 0.511025
0.779004 0.194568 0.49987
0.71107 0.141176 0.477775
0.708644 0.139116 0.508385
0.716625 0.135744 0.542565
0.0830701 0.605707 0.516884
0.0662852 0.624826 0.545632
0.0687419 0.638941 0.565316
0.081239 0.638086 0.572534
0.618479 0.622705 0.593347
0.916289 0.60827 0.599985
0.919875 0.594415 0.60325
0.91693 0.573007 0.59678
0.912077 0.536767 0.594034
0.232639 0.862333 0.732479
0.215747 0.867597 0.743816
0.206409 0.866285 0.740108
0.200961 0.864302 0.716091
0.47039 0.894072 0.684215
0.848325 0.903548 0.605402
0.941314 0.881468 0.662516
0.940002 0.881575 0.637552
0.938918 0.871138 0.623438
0.37293 0.91545 0.854505
0.356924 0.921111 0.862913
0.332189 0.920409 0.853712
0.293599 0.9084 0.80795
0.47483 0.92639 0.777981
0.703624 0.922515 0.700282
0.936538 0.921874 0.643336
0.944747 0.923522 0.618051
0.943786 0.92343 0.602853
0.523186 0.923384 0.897795
0.514138 0.925795 0.900694
0.490135 0.927108 0.896819
0.443976 0.922423 0.864607
0.489372 0.921538 0.819944
0.689708 0.923018 0.764111
0.887526 0.923827 0.685298
0.946761 0.916152 0.496941
0.940658 0.914687 0.407156
0.528496 0.92639 0.90605
0.525872 0.926665 0.905989
0.505653 0.927443 0.90222
0.462867 0.923949 0.878599
0.405737 0.919112 0.82359
0.637049 0.923201 0.778927
0.823117 0.92372 0.722301
0.939757 0.920623 0.551202
0.935546 0.914015 0.36759
0.191058 0.0820783 0.573693
0.221118 0.0862593 0.602274
0.29218 0.0917525 0.624506
0.437537 0.0970169 0.621973
0.665171 0.121843 0.580804
0.712047 0.131991 0.55581
0.711803 0.129564 0.584314
0.715557 0.128466 0.593835
0.723613 0.126406 0.621561
0.136522 0.0744182 0.529503
0.160006 0.0782635 0.564813
0.236515 0.0874952 0.601984
0.397818 0.0964981 0.633661
0.657816 0.120287 0.615793
0.714977 0.133822 0.582681
0.713634 0.13048 0.614481
0.717159 0.129824 0.635889
0.722942 0.129 0.671962
0.102693 0.0686198 0.454139
0.123812 0.0724193 0.511223
0.151019 0.0769513 0.558343
0.324742 0.0932479 0.624125
0.644846 0.118807 0.656397
0.710002 0.137423 0.588891
0.705196 0.134142 0.610452
0.710582 0.133288 0.646372
0.716915 0.132219 0.682658
0.050782 0.201541 0.438148
0.0484169 0.20061 0.478202
0.0483558 0.194873 0.534676
0.103731 0.150103 0.603159
0.587732 0.12929 0.700069
0.724544 0.146395 0.603311
0.717372 0.143786 0.614725
0.715389 0.141588 0.647242
0.721187 0.137484 0.677455
0.0776684 0.601633 0.624552
0.0755627 0.609033 0.65388
0.0800946 0.609277 0.687999
0.0803082 0.583535 0.72726
0.488777 0.566171 0.836378
0.919264 0.543465 0.8121
0.922118 0.531075 0.806302
0.920058 0.485023 0.82121
0.917815 0.43946 0.841398
0.227848 0.851041 0.775296
0.212482 0.852476 0.783154
0.207584 0.848203 0.783658
0.204257 0.843442 0.779217
0.499016 0.863279 0.812741
0.850828 0.852979 0.830182
0.943496 0.841733 0.828153
0.941695 0.8327 0.827527
0.937453 0.824018 0.830289
0.384649 0.918593 0.883436
0.366064 0.922789 0.88922
0.348974 0.92137 0.884993
0.320119 0.916045 0.868116
0.576272 0.924651 0.879286
0.789456 0.92932 0.882033
0.938399 0.932616 0.836393
0.948089 0.932464 0.870481
0.946273 0.93254 0.87512
0.594049 0.922499 0.912001
0.579751 0.927306 0.918456
0.571038 0.927993 0.918349
0.540352 0.927581 0.911955
0.636744 0.925017 0.905638
0.788281 0.929152 0.905699
0.897017 0.933486 0.882979
0.947005 0.934462 0.842161
0.944533 0.936843 0.864927
0.601038 0.925002 0.917571
0.596201 0.927153 0.92079
0.587045 0.928023 0.921035
0.562325 0.927825 0.916426
0.587152 0.925887 0.90837
0.773938 0.929015 0.91194
0.889235 0.935576 0.905715
0.940566 0.936141 0.865003
0.945388 0.934783 0.835599
0.303822 0.0945754 0.649607
0.333776 0.0963607 0.65948
0.384512 0.0993668 0.673976
0.493629 0.105898 0.701656
0.701152 0.135668 0.725093
0.727504 0.140856 0.72256
0.720272 0.134951 0.717372
0.720165 0.134173 0.713268
0.71957 0.133974 0.709911
0.250141 0.0907301 0.635904
0.281254 0.0927596 0.644343
0.34023 0.0965286 0.661234
0.449546 0.102831 0.690761
0.689723 0.134295 0.726879
0.728008 0.142428 0.728008
0.723491 0.13843 0.722896
0.722988 0.137804 0.72163
0.723384 0.138521 0.722789
0.210269 0.0860914 0.618357
0.237507 0.0893568 0.631678
0.268009 0.0919051 0.640604
0.375662 0.0986038 0.671366
0.649729 0.127291 0.726741
0.729015 0.143435 0.729015
0.723751 0.138872 0.72369
0.723384 0.138491 0.723384
0.724163 0.139223 0.724102
0.049485 0.170626 0.586404
0.0489052 0.160327 0.605035
0.0717784 0.139773 0.624063
0.175586 0.125689 0.649882
0.533578 0.124819 0.727062
0.731029 0.14522 0.731029
0.726909 0.141039 0.724559
0.724712 0.139025 0.722225
0.7252 0.140063 0.7252
0.0823987 0.561791 0.7523
0.0863966 0.555093 0.765911
0.0898756 0.546838 0.778134
0.0934462 0.534264 0.792309
0.400198 0.54316 0.899428
0.920913 0.499321 0.927337
0.925689 0.469581 0.913695
0.92343 0.452659 0.909834
0.916335 0.407919 0.912413
0.225101 0.848142 0.837369
0.224552 0.844343 0.842008
0.221027 0.836194 0.84509
0.218463 0.826215 0.852781
0.382284 0.846082 0.909682
0.768627 0.822126 0.910414
0.936614 0.804074 0.91899
0.937469 0.792172 0.917586
0.935622 0.770245 0.922637
0.381506 0.923629 0.905516
0.369329 0.923476 0.90518
0.350454 0.92105 0.901381
0.327001 0.916197 0.89279
0.509819 0.924575 0.90515
0.801205 0.925887 0.91696
0.930083 0.931105 0.928222
0.939147 0.929946 0.928054
0.938247 0.929656 0.928908
0.625772 0.925093 0.920958
0.609873 0.928328 0.925261
0.595834 0.928298 0.92462
0.566766 0.928283 0.922454
0.648219 0.928542 0.922438
0.839399 0.93431 0.930022
0.920607 0.938704 0.93373
0.947906 0.938018 0.924224
0.949981 0.937575 0.928878
0.63444 0.928435 0.926513
0.637263 0.928588 0.927016
0.636164 0.928573 0.926925
0.625345 0.928405 0.925856
0.661768 0.928679 0.925582
0.844129 0.934707 0.932754
0.919387 0.938918 0.936858
0.938216 0.940017 0.933837
0.942763 0.940291 0.929351
0.479042 0.142351 0.736355
0.533059 0.171099 0.775479
0.588251 0.191669 0.803861
0.67364 0.205722 0.82153
0.791592 0.207462 0.79765
0.744595 0.157321 0.744595
0.731319 0.145464 0.731319
0.7299 0.144213 0.7299
0.728756 0.143191 0.728756
0.405234 0.114061 0.692546
0.479286 0.149111 0.743481
0.551354 0.179644 0.786892
0.633265 0.199374 0.815442
0.813458 0.234134 0.824231
0.777981 0.189136 0.777981
0.733913 0.147768 0.733913
0.732799 0.146777 0.732799
0.731807 0.145892 0.731807
0.343374 0.0976883 0.663035
0.393057 0.112078 0.687816
0.462333 0.143297 0.734127
0.574746 0.187884 0.798642
0.77203 0.223026 0.824247
0.817868 0.230381 0.817868
0.739406 0.152712 0.739406
0.733532 0.147433 0.733532
0.732601 0.146609 0.732601
0.172152 0.165469 0.683009
0.247166 0.179461 0.717083
0.354421 0.181903 0.744366
0.440833 0.180697 0.764599
0.634409 0.191592 0.806699
0.806485 0.21796 0.806485
0.734112 0.147936 0.734112
0.731319 0.145464 0.731319
0.729915 0.144228 0.729915
0.101427 0.558831 0.803906
0.102785 0.561318 0.806348
0.109926 0.555184 0.81088
0.162432 0.546624 0.841138
0.444373 0.534783 0.902266
0.900008 0.506477 0.928512
0.924269 0.455558 0.924269
0.912444 0.387808 0.912444
0.905562 0.365301 0.905562
0.252628 0.848737 0.887861
0.256596 0.84567 0.893248
0.261219 0.839094 0.897093
0.26569 0.823972 0.900877
0.355047 0.820462 0.924102
0.711559 0.803922 0.909483
0.934874 0.779599 0.934874
0.934951 0.75523 0.934951
0.934936 0.756436 0.934936
0.409873 0.926162 0.921721
0.403876 0.925673 0.921843
0.390921 0.924346 0.92137
0.368902 0.920699 0.919493
0.425605 0.921965 0.925322
0.741421 0.921187 0.929488
0.916274 0.924987 0.934676
0.937713 0.922927 0.937484
0.937591 0.92166 0.937316
0.625025 0.928557 0.928008
0.61912 0.928496 0.927901
0.605249 0.928557 0.927672
0.574838 0.928573 0.926818
0.58204 0.928328 0.92575
0.806149 0.932982 0.93164
0.923461 0.939406 0.939162
0.941268 0.941207 0.941375
0.941436 0.941207 0.94139
0.669184 0.929 0.929
0.671717 0.929091 0.929091
0.671717 0.929091 0.929076
0.665339 0.928954 0.928954
0.666712 0.928985 0.928695
0.851759 0.935119 0.935119
0.928893 0.939941 0.939941
0.940658 0.941054 0.941299
0.941573 0.94107 0.941176
0.566766 0.187274 0.796979
0.56936 0.1879 0.797955
0.588113 0.191623 0.803815
0.65214 0.202335 0.818814
0.813581 0.234333 0.824369
0.825788 0.239261 0.825788
0.77995 0.19086 0.77995
0.77995 0.19086 0.77995
0.772839 0.183886 0.772839
0.5458 0.182803 0.789288
0.547921 0.18323 0.790051
0.564996 0.186938 0.796384
0.61735 0.196811 0.811826
0.789273 0.227314 0.824063
0.827802 0.241566 0.827802
0.77995 0.19086 0.77995
0.77995 0.19086 0.77995
0.77995 0.19086 0.77995
0.530465 0.179446 0.783505
0.530465 0.179446 0.783505
0.53048 0.179446 0.783505
0.56466 0.186877 0.796262
0.732296 0.215122 0.824308
0.83003 0.244114 0.83003
0.77995 0.19086 0.77995
0.77995 0.19086 0.77995
0.77995 0.19086 0.77995
0.481392 0.240146 0.826596
0.551141 0.270359 0.860578
0.569055 0.253681 0.852949
0.551339 0.212863 0.817823
0.622919 0.198184 0.813581
0.826383 0.240177 0.826688
0.794537 0.205722 0.794537
0.77995 0.19086 0.77995
0.77995 0.19086 0.77995
0.221042 0.604959 0.873365
0.276143 0.614038 0.887999
0.371038 0.612726 0.896239
0.470176 0.589731 0.900465
0.547051 0.531548 0.908858
0.868574 0.486244 0.92697
0.923003 0.44741 0.923003
0.914427 0.396628 0.914427
0.903975 0.360296 0.903975
0.360204 0.874388 0.926116
0.378882 0.873945 0.928359
0.395193 0.868605 0.929732
0.408881 0.855665 0.930358
0.44564 0.818677 0.924453
0.695338 0.787243 0.911772
0.93315 0.762371 0.934966
0.934569 0.734432 0.934569
0.934508 0.707652 0.934508
0.49781 0.927901 0.928862
0.503929 0.927474 0.928985
0.503639 0.926604 0.929015
0.502159 0.924117 0.928893
0.513924 0.91809 0.928939
0.710704 0.916579 0.929549
0.895628 0.920958 0.933562
0.93727 0.917281 0.93727
0.936873 0.912413 0.936873
0.651392 0.928923 0.928923
0.647364 0.928847 0.928847
0.63714 0.92874 0.92874
0.61857 0.928527 0.928527
0.59617 0.928512 0.928512
0.752209 0.93109 0.93109
0.906355 0.938338 0.938354
0.940185 0.941024 0.941207
0.941253 0.941238 0.941329
0.70602 0.929732 0.929732
0.709102 0.929793 0.929793
0.710033 0.929824 0.929824
0.705852 0.929717 0.929717
0.697108 0.929488 0.929488
0.813611 0.933425 0.933425
0.921569 0.939284 0.939284
0.940841 0.941115 0.941329
0.941405 0.941405 0.941405
