bundles/resolve-cinematic-luts/Phantom Luts/Ursa G2 Phntm Film LUTs - V1/Gen5/White Balance Offset (+Magenta Boost)/Ursa VisionTeal Gen5 WBO.cube
TITLE "Generated by Resolve"
LUT_3D_SIZE 9
0.0222477 0.0297856 0.0280156
0.0222324 0.0297398 0.029099
0.0922408 0.024506 0.027451
0.293843 0.0135805 0.01944
0.511559 0.0132448 0.0384985
0.645579 0.0264744 0.084062
0.656519 0.0380255 0.130953
0.656733 0.0380865 0.131655
0.658152 0.038529 0.13817
0.0222171 0.0431067 0.0309758
0.0222782 0.0415961 0.0302892
0.0966964 0.0338445 0.0292515
0.295323 0.0140078 0.0220951
0.509575 0.0130007 0.0307774
0.645319 0.0265049 0.0838331
0.656199 0.0374762 0.123949
0.652476 0.0323339 0.11548
0.653391 0.0316777 0.118914
0.0217746 0.124544 0.0511025
0.0206149 0.118517 0.0460822
0.0870069 0.123903 0.0470283
0.360052 0.0856641 0.0385748
0.555611 0.0385443 0.0352941
0.646983 0.0247196 0.0587625
0.648157 0.0270542 0.0872969
0.647929 0.026688 0.0834516
0.648127 0.0260929 0.0796979
0.0718547 0.394491 0.14313
0.0704204 0.393286 0.138903
0.0743877 0.37789 0.112947
0.318379 0.392752 0.0836652
0.646876 0.405768 0.104005
0.769284 0.339086 0.132509
0.741344 0.166812 0.0939651
0.744625 0.188159 0.0999008
0.756054 0.241184 0.104601
0.134813 0.714015 0.373907
0.158206 0.71133 0.358495
0.158389 0.704204 0.353216
0.236973 0.661677 0.241901
0.575631 0.654582 0.169894
0.806943 0.696376 0.183688
0.821653 0.675837 0.174136
0.820264 0.661967 0.166567
0.815381 0.63386 0.159075
0.232929 0.86978 0.541146
0.233539 0.864134 0.510033
0.238926 0.859052 0.495277
0.290181 0.834028 0.447303
0.576288 0.761456 0.310643
0.759167 0.800107 0.276921
0.824887 0.801312 0.301289
0.824826 0.801328 0.300389
0.824826 0.800443 0.297459
0.244633 0.871397 0.550454
0.247028 0.85774 0.497856
0.293584 0.833371 0.448295
0.302861 0.827375 0.437034
0.539345 0.760449 0.312673
0.697963 0.786007 0.281224
0.811444 0.796719 0.295216
0.824674 0.801465 0.299153
0.824613 0.801465 0.299138
0.238514 0.875837 0.566018
0.242695 0.865919 0.520226
0.297734 0.829862 0.443702
0.298146 0.829511 0.443427
0.465614 0.765393 0.313695
0.663142 0.777981 0.287648
0.791806 0.79353 0.292363
0.824613 0.801205 0.299748
0.824353 0.801343 0.299474
0.231006 0.880186 0.575967
0.247028 0.868986 0.538079
0.294835 0.832502 0.447623
0.29723 0.830213 0.444007
0.351614 0.795132 0.358053
0.637858 0.771725 0.293706
0.760342 0.800809 0.276463
0.823545 0.800809 0.298466
0.824491 0.801572 0.298894
0.022446 0.0318914 0.0402838
0.0280003 0.0312047 0.0446632
0.119814 0.0273747 0.04654
0.332906 0.0184482 0.0341802
0.545403 0.0157931 0.052781
0.647135 0.0271763 0.0945449
0.657191 0.0383459 0.13814
0.657328 0.0383459 0.139071
0.658412 0.0387884 0.145251
0.0222477 0.0387427 0.0355993
0.0222782 0.0374456 0.0359503
0.101854 0.0267643 0.0332189
0.297139 0.0149538 0.0279393
0.509743 0.0137789 0.0406806
0.645991 0.0265965 0.0902876
0.657832 0.0387884 0.136858
0.656107 0.0360876 0.129152
0.651637 0.0301671 0.118318
0.0197604 0.111574 0.0624704
0.0198672 0.11043 0.0497902
0.0801251 0.11284 0.0455024
0.348257 0.0670024 0.0345922
0.541299 0.0277104 0.0334936
0.645106 0.0245212 0.0635996
0.648768 0.0273747 0.0925002
0.648676 0.0271153 0.0894331
0.648585 0.026215 0.0833906
0.0449226 0.381567 0.154742
0.060441 0.376242 0.137057
0.0695659 0.369314 0.117067
0.308263 0.381003 0.0802167
0.659266 0.372885 0.11046
0.766262 0.305043 0.120699
0.727291 0.13901 0.0928359
0.742016 0.168566 0.0968795
0.751461 0.215366 0.100771
0.115969 0.706142 0.401343
0.121096 0.704662 0.371298
0.151766 0.695857 0.347173
0.223743 0.662959 0.258671
0.570459 0.647166 0.164614
0.809583 0.687404 0.177874
0.819913 0.658061 0.16495
0.817273 0.642618 0.160922
0.810513 0.612024 0.160815
0.21207 0.880751 0.574395
0.227726 0.873365 0.54638
0.239094 0.858869 0.494896
0.275441 0.841794 0.463752
0.56321 0.760464 0.313451
0.757183 0.799344 0.276219
0.824826 0.801312 0.300633
0.824796 0.801373 0.299962
0.824384 0.799191 0.295201
0.225467 0.883879 0.593088
0.23946 0.874098 0.55697
0.283024 0.839292 0.46096
0.288579 0.836378 0.454643
0.502907 0.762448 0.313375
0.693202 0.78497 0.282216
0.809522 0.796185 0.295171
0.824659 0.801465 0.299184
0.824567 0.801465 0.299184
0.229206 0.88539 0.605554
0.23743 0.876432 0.569055
0.274464 0.844099 0.473869
0.298177 0.829511 0.443412
0.430518 0.770443 0.319112
0.659281 0.776959 0.289189
0.788174 0.794125 0.291569
0.824659 0.801205 0.299748
0.824414 0.801343 0.299443
0.22739 0.887602 0.61149
0.230411 0.880629 0.579019
0.246464 0.859602 0.504005
0.297292 0.830167 0.443976
0.335012 0.801587 0.371939
0.633036 0.771023 0.295079
0.752651 0.798505 0.275929
0.82269 0.800549 0.298192
0.824491 0.801572 0.298894
0.0209964 0.0441138 0.125582
0.0369879 0.0404364 0.125551
0.130114 0.0327306 0.118379
0.354131 0.0286107 0.137255
0.582284 0.0305028 0.15288
0.647471 0.0278172 0.102739
0.657496 0.0385138 0.13695
0.657404 0.0383612 0.138674
0.658106 0.0386664 0.14667
0.0215457 0.0393835 0.0925612
0.0210575 0.042237 0.119539
0.107134 0.0321355 0.104967
0.338643 0.0252079 0.0991531
0.571405 0.026566 0.111482
0.647196 0.0274815 0.100923
0.657526 0.0385443 0.138476
0.657588 0.0384833 0.139971
0.658457 0.038819 0.145769
0.0201419 0.10605 0.0886091
0.0201572 0.103243 0.0875715
0.0956436 0.110918 0.107897
0.363302 0.056672 0.0661631
0.535882 0.0154879 0.0404364
0.645533 0.0254063 0.0759136
0.648615 0.027451 0.0977035
0.648753 0.0274052 0.0944991
0.649027 0.0268254 0.0895399
0.0344854 0.364782 0.207401
0.0341497 0.356222 0.18613
0.0391852 0.349371 0.13257
0.31075 0.359991 0.0724193
0.659922 0.327306 0.118685
0.761593 0.271351 0.111238
0.718532 0.123003 0.0910353
0.719799 0.11458 0.0810559
0.745449 0.17969 0.0967422
0.0952926 0.690745 0.449577
0.0879683 0.689219 0.422171
0.109651 0.681346 0.36083
0.205676 0.657862 0.275288
0.563485 0.633555 0.152834
0.811353 0.671092 0.16846
0.815045 0.632319 0.15938
0.810895 0.614267 0.160281
0.808331 0.60058 0.161975
0.202625 0.883146 0.623545
0.193332 0.885344 0.602853
0.22359 0.874922 0.550637
0.242756 0.855222 0.485451
0.529458 0.760204 0.312551
0.754604 0.798718 0.276265
0.824826 0.801312 0.300725
0.824781 0.800977 0.298405
0.824903 0.795605 0.288823
0.239033 0.892714 0.655604
0.231006 0.890211 0.631418
0.231022 0.877714 0.568383
0.273869 0.842603 0.467384
0.433692 0.771496 0.321584
0.68481 0.782818 0.283574
0.807111 0.795499 0.295048
0.824613 0.801404 0.299397
0.82446 0.801373 0.299611
0.240635 0.895018 0.665034
0.239322 0.890074 0.63888
0.235309 0.877531 0.574762
0.298192 0.82948 0.443397
0.374319 0.783963 0.332738
0.652598 0.775021 0.290745
0.780713 0.794369 0.291325
0.824735 0.801221 0.299733
0.824537 0.801389 0.299336
0.239124 0.89546 0.662379
0.237247 0.890425 0.63743
0.230564 0.880644 0.582376
0.297353 0.830121 0.443931
0.320546 0.813428 0.405722
0.623438 0.768124 0.296834
0.739742 0.795316 0.275624
0.821515 0.800122 0.297841
0.824475 0.801572 0.298878
0.019501 0.0783703 0.345464
0.0521401 0.071397 0.35082
0.168627 0.0389258 0.340032
0.385901 0.0352789 0.339666
0.613245 0.0649882 0.415549
0.669978 0.0768139 0.424949
0.661768 0.0712291 0.349218
0.658457 0.0476997 0.244892
0.658381 0.0389715 0.150774
0.0194858 0.0787518 0.334447
0.0194247 0.0761883 0.34136
0.119478 0.0420691 0.342214
0.3682 0.0340124 0.323583
0.601968 0.0627146 0.389364
0.664317 0.0741741 0.380209
0.658564 0.0517281 0.272496
0.657252 0.0432746 0.211841
0.658732 0.0390936 0.149172
0.0196689 0.0987716 0.267979
0.0194705 0.08925 0.288563
0.0462196 0.0693217 0.335897
0.331594 0.0337377 0.296727
0.575097 0.057557 0.338384
0.661219 0.0636912 0.319142
0.656626 0.0436103 0.217517
0.657588 0.0392462 0.154864
0.659083 0.0391699 0.137575
0.0223087 0.359823 0.296498
0.019791 0.353521 0.294087
0.0193027 0.341238 0.285161
0.402533 0.378073 0.360449
0.683833 0.322454 0.313115
0.761883 0.244282 0.203571
0.706538 0.105852 0.0859998
0.68658 0.0611582 0.0623178
0.729046 0.14255 0.0941939
0.0558785 0.683101 0.515877
0.051194 0.679713 0.505882
0.0568704 0.667247 0.477058
0.0961624 0.657557 0.403281
0.578912 0.611215 0.223743
0.81529 0.616403 0.279332
0.811673 0.618433 0.160143
0.807324 0.597925 0.161288
0.805417 0.587213 0.16083
0.161135 0.889281 0.700191
0.162799 0.887861 0.687953
0.174655 0.882185 0.65684
0.189899 0.873823 0.578515
0.443992 0.773159 0.352895
0.765835 0.800412 0.290867
0.824704 0.800702 0.299107
0.824552 0.79649 0.290852
0.824445 0.788083 0.277455
0.229496 0.91284 0.745144
0.211917 0.913542 0.72987
0.217121 0.904494 0.692714
0.213413 0.884779 0.590158
0.363958 0.797177 0.379797
0.68397 0.782666 0.287007
0.803586 0.794247 0.294453
0.824521 0.801328 0.299886
0.824369 0.801343 0.300328
0.287953 0.904982 0.749004
0.250965 0.908919 0.732876
0.232364 0.902693 0.693278
0.229496 0.88188 0.589014
0.335576 0.802197 0.375448
0.645136 0.773022 0.292775
0.770153 0.794934 0.287938
0.824887 0.801251 0.299641
0.824613 0.801434 0.29926
0.256077 0.909117 0.738415
0.232898 0.90837 0.718837
0.232868 0.900557 0.683024
0.22797 0.883284 0.593194
0.300023 0.82829 0.440513
0.592432 0.762676 0.305455
0.715984 0.789334 0.277378
0.817426 0.79855 0.296529
0.824491 0.801572 0.298894
0.0631723 0.124712 0.566949
0.144213 0.112322 0.571221
0.261997 0.0552529 0.560906
0.454719 0.079881 0.580667
0.658488 0.0966506 0.621439
0.709468 0.11928 0.660578
0.711086 0.106676 0.686915
0.710079 0.114382 0.669795
0.693996 0.0958267 0.568032
0.0227817 0.12546 0.553277
0.0699474 0.12282 0.564004
0.209934 0.0569467 0.56228
0.431403 0.0734569 0.572915
0.649332 0.0947433 0.609918
0.710033 0.123537 0.647257
0.710124 0.112245 0.673869
0.71017 0.123384 0.64773
0.680842 0.0801404 0.52047
0.0192874 0.117891 0.513344
0.0193027 0.122225 0.538354
0.13817 0.110842 0.563775
0.38175 0.0610666 0.55523
0.629343 0.0894942 0.586999
0.711788 0.122545 0.624598
0.71371 0.117983 0.64477
0.701991 0.109102 0.594553
0.676997 0.0794232 0.491447
0.019379 0.326116 0.511681
0.0193332 0.313436 0.518914
0.0191653 0.288151 0.523919
0.347356 0.183795 0.637903
0.666087 0.183139 0.623911
0.717571 0.128252 0.59556
0.689876 0.0944839 0.552163
0.677394 0.0805676 0.502602
0.666026 0.0742351 0.407004
0.0680552 0.679438 0.608927
0.0638743 0.676539 0.607111
0.0613565 0.668971 0.600793
0.0872663 0.659937 0.598352
0.680369 0.648508 0.635157
0.855528 0.623789 0.608835
0.839414 0.587457 0.541619
0.827451 0.575936 0.485771
0.809949 0.552743 0.352209
0.152743 0.88481 0.767697
0.146685 0.88481 0.763684
0.142367 0.881514 0.750546
0.136324 0.873655 0.720272
0.520058 0.825757 0.661341
0.773556 0.805875 0.563516
0.847791 0.806668 0.583047
0.830396 0.790036 0.491829
0.819043 0.766369 0.36611
0.399283 0.899611 0.799817
0.362844 0.904204 0.796765
0.30454 0.910094 0.788952
0.207355 0.920104 0.765057
0.420996 0.874372 0.686946
0.70602 0.832929 0.606439
0.812909 0.814054 0.502922
0.821622 0.800244 0.322484
0.824048 0.801022 0.304173
0.501823 0.893462 0.809277
0.477546 0.894499 0.803098
0.434379 0.895979 0.79237
0.323934 0.902785 0.762142
0.343465 0.883207 0.681041
0.657969 0.832181 0.606668
0.779126 0.807828 0.458305
0.823911 0.800961 0.301717
0.824338 0.801328 0.299489
0.467338 0.894697 0.800671
0.44004 0.895644 0.793606
0.392981 0.897887 0.781506
0.281392 0.906752 0.748623
0.240864 0.889937 0.641917
0.534768 0.804807 0.506798
0.731334 0.792096 0.355383
0.814374 0.797696 0.297841
0.824292 0.801434 0.299214
0.238926 0.108843 0.70605
0.272725 0.0800336 0.702495
0.378103 0.0840162 0.711742
0.534081 0.105699 0.736065
0.698466 0.117983 0.767025
0.727962 0.117784 0.78114
0.724788 0.113588 0.777935
0.725719 0.114961 0.779355
0.722484 0.111452 0.775631
0.215961 0.15169 0.705119
0.238483 0.105669 0.70396
0.341573 0.0829023 0.708232
0.509087 0.0983139 0.729519
0.689265 0.11812 0.763943
0.727916 0.117357 0.779126
0.723812 0.112825 0.776989
0.724651 0.113756 0.777798
0.720653 0.11017 0.772946
0.190082 0.156771 0.701686
0.19173 0.156542 0.701869
0.248295 0.0791333 0.699489
0.453849 0.0856489 0.71635
0.669703 0.120378 0.7579
0.727611 0.116197 0.774029
0.721126 0.110613 0.772915
0.721386 0.110796 0.773037
0.720409 0.108583 0.759731
0.0197452 0.272023 0.658244
0.0193332 0.243488 0.657328
0.0196536 0.204654 0.652827
0.355352 0.100053 0.71902
0.637369 0.139879 0.754513
0.732357 0.119966 0.763958
0.723293 0.111482 0.761776
0.721309 0.110384 0.761196
0.718135 0.104906 0.732265
0.0211643 0.673579 0.749371
0.0212711 0.664012 0.749035
0.0210117 0.646906 0.748501
0.0209506 0.628031 0.758511
0.68658 0.568612 0.854398
0.863188 0.565545 0.834424
0.849836 0.512871 0.830014
0.83859 0.468589 0.810407
0.805722 0.361517 0.744869
0.183505 0.880308 0.818967
0.179492 0.879637 0.818601
0.175616 0.876799 0.815808
0.170809 0.869886 0.810575
0.550179 0.832944 0.794614
0.834607 0.826352 0.811948
0.898482 0.812863 0.798871
0.894347 0.799619 0.780499
0.87834 0.778119 0.733806
0.473838 0.897444 0.827573
0.453819 0.898466 0.825544
0.425544 0.899825 0.822812
0.37673 0.901808 0.816785
0.551675 0.885649 0.806317
0.780575 0.889357 0.816358
0.868818 0.890639 0.793057
0.892546 0.888518 0.797208
0.887388 0.879316 0.77734
0.613977 0.896147 0.837995
0.601022 0.896666 0.836332
0.587274 0.895872 0.832624
0.558343 0.894728 0.824628
0.564095 0.893202 0.814954
0.747662 0.896925 0.816648
0.8439 0.897215 0.802502
0.878523 0.885924 0.766293
0.87509 0.878172 0.744137
0.593484 0.89543 0.833127
0.581521 0.895323 0.83064
0.564904 0.895079 0.826169
0.531044 0.894392 0.817548
0.447028 0.895796 0.795743
0.653483 0.886885 0.78558
0.80238 0.882094 0.771389
0.854749 0.870817 0.7234
0.854917 0.853056 0.661768
0.482109 0.122499 0.758465
0.494881 0.120378 0.757656
0.55288 0.139345 0.772564
0.660578 0.184268 0.792432
0.761929 0.177417 0.813931
0.760754 0.161395 0.810056
0.744564 0.136004 0.796857
0.764385 0.168078 0.813642
0.76791 0.176944 0.815961
0.466011 0.122713 0.757519
0.472877 0.11603 0.753475
0.527047 0.128588 0.765194
0.64036 0.174533 0.789731
0.755108 0.172503 0.811002
0.756619 0.154849 0.806256
0.743465 0.134829 0.795392
0.749142 0.142962 0.799619
0.747768 0.140261 0.79884
0.438422 0.114473 0.749126
0.436057 0.112764 0.748119
0.468559 0.10811 0.746777
0.592782 0.149096 0.77789
0.737835 0.163989 0.804746
0.751049 0.146075 0.801801
0.741558 0.132494 0.793256
0.742992 0.134676 0.794751
0.742016 0.132998 0.79379
0.345312 0.19057 0.78436
0.381292 0.167468 0.777584
0.393332 0.140749 0.7635
0.515297 0.132296 0.765057
0.698894 0.169177 0.796262
0.745983 0.138827 0.797711
0.737408 0.127825 0.789975
0.737819 0.12813 0.790249
0.736278 0.126772 0.789242
0.0352331 0.672129 0.804562
0.0494392 0.663874 0.806683
0.0944991 0.649897 0.813565
0.310521 0.625849 0.832242
0.741512 0.561532 0.884321
0.860578 0.556161 0.884672
0.850752 0.515007 0.875822
0.842161 0.481224 0.868879
0.826139 0.410681 0.857984
0.265187 0.873777 0.864286
0.256062 0.872938 0.866148
0.249287 0.86836 0.866514
0.246281 0.859052 0.866941
0.563027 0.823423 0.858778
0.843229 0.797635 0.90428
0.904036 0.789914 0.888991
0.902922 0.775921 0.889418
0.899657 0.740612 0.879301
0.514412 0.897429 0.845014
0.498161 0.897948 0.844862
0.477241 0.897917 0.844114
0.446189 0.897688 0.843397
0.568933 0.888579 0.841352
0.792996 0.891951 0.859632
0.892973 0.900511 0.879194
0.912551 0.896208 0.875044
0.910719 0.887312 0.864836
0.666056 0.901915 0.854673
0.655146 0.901427 0.852735
0.644892 0.900694 0.85066
0.626398 0.899351 0.846693
0.627878 0.898497 0.842756
0.790082 0.910246 0.862379
0.875975 0.922499 0.88275
0.908278 0.924193 0.876707
0.910903 0.92311 0.875563
0.657084 0.901122 0.852033
0.65214 0.900923 0.85098
0.644617 0.900282 0.84892
0.630564 0.899016 0.845167
0.603906 0.897032 0.837156
0.733761 0.903014 0.846448
0.849332 0.91899 0.873274
0.895766 0.922927 0.869993
0.909346 0.922591 0.864332
0.593393 0.223194 0.809491
0.61387 0.233143 0.813733
0.656626 0.253529 0.81912
0.733303 0.27451 0.82768
0.799023 0.286717 0.839551
0.794553 0.267292 0.836484
0.775998 0.205005 0.822614
0.775998 0.205005 0.822614
0.775998 0.205005 0.822614
0.575494 0.213809 0.806119
0.596033 0.224048 0.810285
0.638682 0.245472 0.816648
0.719966 0.273777 0.825452
0.798489 0.285069 0.839185
0.795544 0.271855 0.836851
0.775998 0.205005 0.822614
0.775998 0.205005 0.822614
0.775982 0.20502 0.822583
0.555901 0.203525 0.802197
0.561944 0.207172 0.803769
0.603906 0.228412 0.811765
0.693095 0.269718 0.821866
0.791409 0.282704 0.837827
0.797665 0.280003 0.838392
0.775998 0.205005 0.822614
0.775998 0.205005 0.822614
0.775998 0.205005 0.822614
0.571725 0.271641 0.821942
0.565759 0.240848 0.813855
0.560754 0.219348 0.807538
0.643946 0.25066 0.818387
0.767819 0.278401 0.832761
0.799283 0.287984 0.839704
0.776181 0.206165 0.822675
0.775998 0.205005 0.822614
0.775998 0.205005 0.822614
0.487617 0.661234 0.849271
0.50663 0.651255 0.853941
0.521538 0.629114 0.859709
0.59881 0.59968 0.882658
0.790021 0.577722 0.885985
0.864713 0.573602 0.88748
0.860105 0.55169 0.883711
0.854368 0.527733 0.879042
0.845823 0.492668 0.87306
0.485023 0.855283 0.866377
0.485359 0.85243 0.866041
0.489464 0.846983 0.865644
0.497902 0.835828 0.863844
0.641764 0.817853 0.865583
0.860945 0.793408 0.908614
0.9028 0.786755 0.904143
0.900481 0.774502 0.904219
0.89752 0.750256 0.904814
0.612512 0.894942 0.859083
0.605158 0.894194 0.859373
0.59704 0.892485 0.858961
0.592355 0.889967 0.860822
0.647578 0.886748 0.865614
0.794659 0.889433 0.882338
0.897459 0.889982 0.903777
0.913893 0.8878 0.903471
0.912993 0.878416 0.901122
0.697139 0.903883 0.86392
0.688777 0.90399 0.863233
0.677668 0.903532 0.860838
0.663172 0.903151 0.85922
0.661677 0.902892 0.858045
0.79382 0.912154 0.87686
0.883574 0.922194 0.899092
0.91284 0.925704 0.905013
0.916777 0.923949 0.902037
0.706508 0.903731 0.863584
0.700465 0.903807 0.862913
0.694743 0.903716 0.861433
0.687236 0.903532 0.859861
0.673777 0.902342 0.856565
0.770962 0.909926 0.868879
0.871672 0.924346 0.89604
0.909026 0.93048 0.904463
0.917052 0.93109 0.903319
0.598306 0.225513 0.810681
0.618128 0.235218 0.814176
0.660594 0.255604 0.819806
0.735668 0.275029 0.828504
0.799115 0.287053 0.839612
0.793561 0.265309 0.835935
0.775998 0.205005 0.822614
0.775998 0.205005 0.822614
0.775998 0.205005 0.822614
0.580789 0.216266 0.807462
0.600061 0.226368 0.81091
0.642145 0.247196 0.8168
0.722454 0.273655 0.825666
0.798764 0.285481 0.839307
0.795026 0.270466 0.836408
0.775998 0.205005 0.822614
0.775998 0.205005 0.822614
0.775982 0.20502 0.822583
0.555917 0.20351 0.802182
0.567239 0.209094 0.804562
0.60763 0.230365 0.812222
0.695918 0.271183 0.822202
0.792081 0.282872 0.837873
0.797543 0.279744 0.8383
0.775998 0.205005 0.822614
0.775998 0.205005 0.822614
0.775998 0.205005 0.822614
0.56492 0.233967 0.812406
0.558206 0.211566 0.804685
0.556435 0.20473 0.802747
0.642176 0.247181 0.816785
0.766964 0.278233 0.832639
0.79942 0.288472 0.839841
0.77612 0.206622 0.822583
0.775998 0.205005 0.822614
0.775998 0.205005 0.822614
0.521324 0.629206 0.859709
0.531609 0.613794 0.863691
0.549126 0.586069 0.870634
0.611093 0.550713 0.88014
0.781476 0.53724 0.875853
0.855558 0.530938 0.88011
0.84947 0.505898 0.875471
0.841443 0.4748 0.869169
0.830762 0.430289 0.861082
0.52015 0.847761 0.865934
0.513695 0.843503 0.865049
0.504265 0.835645 0.864027
0.48835 0.820737 0.860578
0.638117 0.797421 0.86331
0.861952 0.773449 0.908919
0.899763 0.766949 0.904112
0.897826 0.755352 0.904158
0.895827 0.732189 0.905348
0.644923 0.89366 0.862394
0.640177 0.89247 0.862776
0.63209 0.889998 0.862837
0.620462 0.885939 0.863096
0.658289 0.882826 0.867872
0.791394 0.883574 0.881956
0.899535 0.881636 0.903517
0.913039 0.879484 0.904051
0.912688 0.869856 0.90399
0.708293 0.90486 0.866178
0.702434 0.904585 0.865202
0.696742 0.904036 0.864622
0.689387 0.904082 0.864591
0.688502 0.903716 0.864561
0.798001 0.91133 0.882078
0.881605 0.920378 0.902449
0.914183 0.922805 0.908629
0.917357 0.921584 0.908125
0.726818 0.905623 0.867933
0.725643 0.905943 0.867475
0.725612 0.905943 0.86746
0.725612 0.905943 0.86746
0.725612 0.905943 0.86746
0.791196 0.913573 0.880659
0.874861 0.925643 0.901686
0.911177 0.930968 0.910033
0.919112 0.932754 0.911528
