bundles/resolve-cinematic-luts/Phantom Luts/Ursa G2 Phntm Film LUTs - V1/Gen5/White Balance Offset (+Magenta Boost)/Ursa Vision Gen5-Legacy WBO.cube
TITLE "Generated by Resolve"
LUT_3D_SIZE 33
0.0235904 0.0331731 0.0244907
0.0235904 0.0331731 0.0244907
0.0235904 0.0331731 0.0244907
0.0253605 0.0337987 0.0245212
0.0286259 0.0345312 0.0242466
0.0350042 0.0349584 0.0231785
0.043595 0.0350195 0.024445
0.0572671 0.0356756 0.0260777
0.076585 0.0352178 0.0262913
0.103563 0.0363775 0.0276341
0.143008 0.0394446 0.0302739
0.197131 0.0395972 0.031342
0.255253 0.0396887 0.0334173
0.312917 0.0361944 0.0347753
0.3738 0.0341192 0.036759
0.436484 0.0308537 0.0382239
0.503487 0.0275883 0.0415198
0.57348 0.0263066 0.0482948
0.628611 0.0319066 0.0578927
0.646036 0.031754 0.0637064
0.648539 0.0326238 0.0716106
0.653788 0.0377203 0.0855116
0.662333 0.0464179 0.103334
0.667399 0.0521859 0.11249
0.667399 0.0521859 0.11249
0.667384 0.0521859 0.112474
0.667384 0.0521706 0.112474
0.667399 0.0521859 0.11249
0.667689 0.0520943 0.112428
0.668284 0.0518502 0.112291
0.668742 0.0510109 0.111559
0.669413 0.0502937 0.110979
0.670237 0.0496223 0.110414
0.0235599 0.0331731 0.024445
0.0235752 0.0331731 0.0244755
0.023621 0.0331884 0.0244755
0.0254673 0.0337987 0.024506
0.0284276 0.0345617 0.0243992
0.0342565 0.0354925 0.0237125
0.0433051 0.0352331 0.024506
0.0577554 0.0355535 0.0259251
0.0775158 0.0349737 0.0258793
0.105806 0.0371252 0.0279393
0.145205 0.0388647 0.0294804
0.197742 0.0392767 0.0308537
0.255894 0.039704 0.0332189
0.313527 0.0362097 0.0346685
0.372869 0.034226 0.0364233
0.435035 0.0309606 0.0377661
0.502052 0.0277256 0.0411383
0.576562 0.0260777 0.0485542
0.631251 0.0325933 0.0587625
0.64596 0.031754 0.0636149
0.648569 0.032639 0.0716716
0.653834 0.0377661 0.085832
0.662669 0.0468452 0.103777
0.666865 0.0514839 0.111666
0.667277 0.0520333 0.112306
0.667292 0.0520485 0.112337
0.667369 0.0521553 0.112444
0.667399 0.0521859 0.11249
0.667414 0.0517739 0.112108
0.667659 0.0508736 0.111101
0.668284 0.0501106 0.110384
0.669062 0.049546 0.109926
0.66952 0.0484627 0.108217
0.0236057 0.033341 0.0244755
0.023621 0.0333715 0.0244907
0.023621 0.0333867 0.0244907
0.0238041 0.0335088 0.024506
0.0274052 0.0346227 0.0246586
0.0314031 0.0365301 0.0247349
0.0426184 0.0374609 0.0243381
0.0577707 0.037644 0.0261234
0.0791791 0.0373388 0.0271458
0.103914 0.0363928 0.0268101
0.141604 0.0380102 0.027924
0.195453 0.0391546 0.030045
0.253452 0.0387884 0.0315557
0.312718 0.0362554 0.033875
0.371237 0.0341802 0.0357366
0.433112 0.0309911 0.0370489
0.501289 0.0277867 0.0408484
0.575402 0.0267796 0.047715
0.631098 0.0330053 0.0586099
0.646281 0.0317235 0.063508
0.648569 0.0326543 0.0717021
0.653208 0.037171 0.0846265
0.661631 0.045655 0.101762
0.666514 0.050782 0.110674
0.666484 0.0507057 0.110582
0.667063 0.0517586 0.112047
0.667185 0.0519112 0.112184
0.666743 0.0512551 0.111315
0.666743 0.0505226 0.11043
0.667124 0.049836 0.10956
0.667781 0.0491951 0.108873
0.668132 0.0482185 0.10724
0.668467 0.0473487 0.106065
0.024979 0.0409094 0.0284581
0.0248722 0.0404364 0.0281682
0.024506 0.038468 0.0264591
0.0261845 0.0393378 0.0268101
0.0295415 0.0413062 0.0276188
0.0327764 0.0424048 0.0281529
0.0423743 0.0425422 0.0253758
0.0583505 0.0406958 0.0272679
0.0797894 0.0398108 0.0281682
0.105715 0.0386664 0.0276341
0.144274 0.0391546 0.0278935
0.195804 0.0383459 0.0274968
0.252796 0.0385138 0.0298009
0.311025 0.0363165 0.0330816
0.369162 0.0337987 0.033814
0.431662 0.0310216 0.0357824
0.498482 0.0281224 0.0395056
0.572122 0.0270085 0.0467842
0.631769 0.0336156 0.0587167
0.64596 0.0317388 0.0632181
0.648432 0.0324865 0.0706493
0.650721 0.03505 0.0808728
0.660975 0.0448463 0.100267
0.665812 0.0496834 0.108858
0.665721 0.049546 0.108598
0.666346 0.0504311 0.110185
0.666224 0.0502174 0.109804
0.665858 0.0497139 0.108919
0.666041 0.0492866 0.108263
0.666224 0.0484169 0.10692
0.665827 0.047013 0.104753
0.666316 0.0462654 0.103838
0.666743 0.045655 0.103105
0.0266117 0.0466316 0.0321965
0.0264897 0.0462501 0.0320287
0.0260319 0.0455177 0.0301823
0.0280461 0.044831 0.0294194
0.030869 0.0464179 0.0294652
0.0338293 0.0470283 0.0295567
0.0434424 0.0475624 0.0273899
0.0612955 0.0446479 0.0287633
0.0807965 0.0431067 0.0293431
0.109133 0.0414588 0.0285649
0.147433 0.0403449 0.0277104
0.198947 0.0390936 0.026566
0.252293 0.0393072 0.0280003
0.309133 0.0371252 0.0307012
0.367575 0.0336461 0.0311589
0.429831 0.0304417 0.0335088
0.495064 0.0278325 0.0373083
0.569314 0.0314946 0.044007
0.631922 0.0346532 0.0584878
0.646525 0.0320287 0.0626383
0.648356 0.0322576 0.0694285
0.6495 0.0336309 0.0783551
0.657511 0.0404517 0.0937972
0.662226 0.0462196 0.102907
0.663752 0.0476234 0.105486
0.664591 0.0482948 0.106523
0.665064 0.0486763 0.107057
0.663096 0.0471351 0.104173
0.661738 0.0451362 0.100694
0.661646 0.0442206 0.0988937
0.662211 0.043473 0.0983291
0.663691 0.0435492 0.0988937
0.663584 0.0415656 0.0961929
0.0283513 0.0545968 0.0360571
0.0283055 0.0543221 0.0359808
0.0280613 0.0535897 0.0352178
0.0276646 0.0521859 0.0324865
0.0317693 0.0528725 0.0324407
0.0352483 0.0545205 0.0324407
0.0408789 0.0546578 0.0307469
0.0656901 0.0512856 0.029572
0.0845197 0.049073 0.0308995
0.110521 0.0472572 0.0307927
0.147036 0.0448615 0.02916
0.20145 0.0406348 0.0257877
0.255406 0.0407568 0.0274205
0.308812 0.0398108 0.0295872
0.364736 0.0359655 0.0302892
0.424796 0.0310826 0.0312963
0.490105 0.0302586 0.0332494
0.569619 0.0358892 0.0429084
0.632242 0.0399786 0.0567178
0.64773 0.032639 0.0623484
0.648875 0.0318456 0.0672618
0.650263 0.0330968 0.0758373
0.652735 0.0352941 0.0827955
0.658305 0.0401007 0.0934462
0.661112 0.0439002 0.0982223
0.660471 0.0431525 0.0974289
0.659419 0.0417792 0.0954452
0.658106 0.0399634 0.0930343
0.657328 0.0390173 0.0901808
0.657847 0.0390478 0.0905013
0.658717 0.0390173 0.0910201
0.659113 0.0386664 0.0897536
0.658579 0.0370031 0.0870375
0.0294652 0.06804 0.0406958
0.0294652 0.0675212 0.0404364
0.0293584 0.066743 0.0400397
0.0295262 0.0654917 0.0389715
0.0297551 0.064332 0.0360723
0.0358892 0.0656748 0.0363165
0.0412451 0.0686351 0.0366217
0.0577249 0.0680247 0.0311894
0.0894942 0.0600748 0.0326543
0.114229 0.057557 0.0346227
0.154742 0.0534524 0.0327306
0.20621 0.0480354 0.0291905
0.257221 0.0449531 0.0274815
0.31133 0.0425422 0.0284581
0.367361 0.0403143 0.030518
0.42533 0.0344549 0.0308537
0.488167 0.0316472 0.0327153
0.562768 0.0390478 0.0411231
0.632349 0.0440528 0.0565805
0.648753 0.0348211 0.0626535
0.648341 0.031693 0.0644083
0.649424 0.0325933 0.0719921
0.651804 0.0348821 0.0804761
0.653712 0.0364691 0.0850385
0.654521 0.037644 0.0866102
0.653971 0.0368048 0.0855421
0.653361 0.0360418 0.0835737
0.6533 0.0359503 0.083772
0.653239 0.0357824 0.083299
0.653788 0.0360876 0.084184
0.653468 0.0353552 0.0830396
0.652689 0.0336309 0.0805219
0.653284 0.0331426 0.078584
0.0313268 0.0853285 0.0472114
0.0312963 0.0850996 0.0467994
0.0311437 0.0848096 0.0466011
0.0312352 0.083711 0.0454414
0.0310063 0.0819104 0.0431373
0.0331121 0.0811475 0.0401312
0.0415045 0.0836805 0.041062
0.0508736 0.0873732 0.0406653
0.0813001 0.0842451 0.0304723
0.117128 0.0759594 0.0347601
0.164019 0.0672923 0.037705
0.212573 0.0610361 0.0342565
0.268421 0.0555581 0.0323796
0.324331 0.0505379 0.0311894
0.379263 0.0468605 0.0301518
0.436469 0.0415198 0.0323033
0.49601 0.0354772 0.0335241
0.567407 0.0393225 0.0423743
0.632258 0.0488441 0.0558785
0.651759 0.0444495 0.0612192
0.648554 0.0327611 0.0628824
0.648753 0.0319677 0.0673381
0.650004 0.0330053 0.0749218
0.650538 0.0336614 0.0780346
0.650935 0.0339818 0.0784009
0.650965 0.0339513 0.0782177
0.650889 0.0338293 0.0780346
0.650553 0.0334478 0.0776074
0.650477 0.0332189 0.07776
0.650675 0.0330053 0.0768902
0.651164 0.0327459 0.0755627
0.651774 0.0324865 0.07393
0.652354 0.0321202 0.0722972
0.0346075 0.106783 0.0556497
0.0347295 0.106325 0.0552071
0.0345769 0.105806 0.0550546
0.0345312 0.105272 0.0545052
0.0342107 0.103548 0.0524147
0.0342718 0.101762 0.0494698
0.0393378 0.10248 0.0470436
0.0496986 0.105318 0.0482643
0.0639811 0.109514 0.0451362
0.109926 0.104524 0.0308537
0.15877 0.0948043 0.0372625
0.227146 0.079942 0.0406348
0.281727 0.0746319 0.0394751
0.336172 0.0705577 0.0385443
0.397299 0.0653391 0.0366369
0.458717 0.0591745 0.0347448
0.524422 0.0512856 0.037995
0.590417 0.0462196 0.0460212
0.636225 0.0501564 0.0559548
0.65478 0.0519417 0.0606546
0.652415 0.0434424 0.0621653
0.648722 0.0326238 0.0629587
0.648997 0.0319982 0.0675669
0.64976 0.0325628 0.0717937
0.649851 0.0325933 0.0719615
0.649821 0.0325322 0.0717021
0.649744 0.0324407 0.0711528
0.649668 0.0323186 0.0704662
0.649577 0.0321355 0.0693065
0.64976 0.0320287 0.068986
0.650034 0.0317693 0.0678874
0.650538 0.0314641 0.0660868
0.651225 0.0310063 0.06421
0.0380407 0.136599 0.0656291
0.0383154 0.13637 0.0643015
0.038468 0.135775 0.0644083
0.0383764 0.13492 0.0643473
0.0379797 0.132937 0.0634928
0.0381476 0.130053 0.0605783
0.0386206 0.129381 0.0571603
0.0451057 0.130816 0.0551308
0.0623178 0.135882 0.0564584
0.081178 0.142702 0.0512551
0.153231 0.135271 0.0323339
0.222309 0.123903 0.0417792
0.298054 0.109194 0.0503395
0.367178 0.102861 0.0507973
0.42562 0.101854 0.0527047
0.492226 0.0995499 0.0543069
0.5635 0.093492 0.0548562
0.627115 0.0843977 0.0573281
0.660227 0.0679026 0.0600443
0.66096 0.0581979 0.0612345
0.658015 0.0546883 0.0611124
0.653086 0.0432746 0.0624094
0.649577 0.0350042 0.0630045
0.648753 0.0320439 0.063035
0.648737 0.031754 0.0630655
0.648798 0.0318151 0.063035
0.64918 0.0324407 0.0630198
0.649531 0.0331273 0.0630808
0.650019 0.0340734 0.0631723
0.650523 0.0352178 0.0629435
0.650889 0.0350958 0.0628214
0.651926 0.0357671 0.0627756
0.653025 0.0364233 0.0625925
0.0399634 0.184039 0.0775921
0.0400397 0.183917 0.0763104
0.0400397 0.18294 0.0761425
0.0402075 0.181781 0.076112
0.0400854 0.180102 0.0753185
0.0402075 0.176043 0.0721294
0.0405432 0.172259 0.0691234
0.0403449 0.17261 0.0621653
0.049485 0.176318 0.0628672
0.0773632 0.189502 0.0665293
0.108736 0.204425 0.061387
0.221363 0.194614 0.0354925
0.307424 0.183581 0.0528573
0.376135 0.176059 0.0678721
0.461585 0.15877 0.0754711
0.531991 0.152132 0.0776989
0.603235 0.147127 0.0799573
0.669306 0.139513 0.080827
0.701991 0.126543 0.078996
0.698054 0.106706 0.0727092
0.682994 0.08336 0.0689403
0.665919 0.0633402 0.0619974
0.6551 0.0457771 0.0618296
0.652766 0.0421454 0.0626993
0.652796 0.041474 0.0629435
0.652842 0.0413214 0.0629892
0.652811 0.0415656 0.0629282
0.654063 0.0426795 0.0628977
0.654383 0.0435035 0.0621042
0.654398 0.0441138 0.0617533
0.655482 0.0454261 0.0616312
0.656352 0.0460059 0.0615244
0.658427 0.0478065 0.0612497
0.0563668 0.255604 0.109422
0.0566873 0.256352 0.10811
0.0566873 0.256092 0.107347
0.056199 0.254185 0.106371
0.0551766 0.252018 0.104692
0.0548867 0.249256 0.102922
0.0546731 0.243732 0.0983749
0.054963 0.241413 0.0933242
0.0543374 0.240497 0.0818494
0.0733196 0.251514 0.0886244
0.112261 0.267674 0.0930953
0.158511 0.283223 0.0809033
0.302953 0.268482 0.0419165
0.390768 0.253544 0.0636912
0.452293 0.253239 0.0799725
0.535119 0.232364 0.0964981
0.623026 0.216861 0.0982528
0.692821 0.208179 0.102464
0.725231 0.19736 0.10341
0.724605 0.18381 0.100374
0.721019 0.158968 0.0933394
0.708492 0.126162 0.0788891
0.695903 0.107622 0.0802014
0.666484 0.060853 0.0613413
0.663676 0.0555886 0.0611734
0.664088 0.0555734 0.0614023
0.664393 0.0559091 0.0614481
0.664225 0.0560922 0.0614023
0.663539 0.0559243 0.0610208
0.669444 0.0664683 0.066743
0.682933 0.0877852 0.0753185
0.683925 0.0873426 0.07364
0.691295 0.0991684 0.0773327
0.0743877 0.336828 0.151156
0.0749523 0.337652 0.148669
0.0753185 0.337819 0.146914
0.0753338 0.336934 0.14667
0.0742809 0.33576 0.145449
0.073228 0.333318 0.143832
0.0739757 0.32903 0.140078
0.0733654 0.3234 0.132937
0.0749828 0.324498 0.126986
0.0768444 0.322957 0.11191
0.107042 0.337407 0.120348
0.159625 0.352499 0.124453
0.225193 0.365652 0.104463
0.379309 0.347143 0.0545968
0.470909 0.331624 0.0703899
0.531731 0.328252 0.0919051
0.601816 0.31722 0.110597
0.688136 0.301213 0.128756
0.728939 0.289662 0.130465
0.729366 0.27097 0.124376
0.728145 0.252216 0.118746
0.725948 0.231632 0.112352
0.72459 0.198016 0.103548
0.71809 0.149722 0.0904555
0.713237 0.137453 0.0864576
0.712551 0.135653 0.0871443
0.711528 0.134218 0.0871443
0.712444 0.138369 0.0880751
0.715526 0.144747 0.0905165
0.718135 0.151263 0.0926833
0.719875 0.156558 0.0934157
0.722652 0.160342 0.0943008
0.721294 0.155673 0.0918441
0.0983749 0.420584 0.208179
0.0990463 0.421363 0.2056
0.100191 0.422385 0.203723
0.100008 0.421668 0.202747
0.0997787 0.420081 0.20206
0.0995346 0.419059 0.201373
0.0983749 0.416526 0.198856
0.0972915 0.410468 0.190646
0.0977188 0.40676 0.181827
0.101762 0.410513 0.173297
0.114137 0.411704 0.155001
0.153979 0.424369 0.163378
0.226688 0.435767 0.167605
0.294697 0.447089 0.131258
0.451896 0.42446 0.0731212
0.544778 0.409079 0.0728618
0.609766 0.401205 0.104997
0.669215 0.402106 0.127901
0.720867 0.393759 0.1505
0.736233 0.380331 0.163119
0.734722 0.356115 0.156054
0.734127 0.3346 0.147234
0.733394 0.313756 0.139849
0.730449 0.283879 0.128618
0.728481 0.267353 0.123369
0.728084 0.260868 0.121401
0.727443 0.255436 0.119203
0.727764 0.251011 0.118624
0.726635 0.246876 0.117021
0.727153 0.249027 0.117876
0.727611 0.255894 0.119432
0.728557 0.263172 0.122057
0.730037 0.271382 0.124376
0.129702 0.504967 0.269734
0.131594 0.506065 0.266194
0.132677 0.506676 0.263035
0.133181 0.506615 0.261875
0.13286 0.505638 0.261219
0.132265 0.503914 0.259724
0.13167 0.502251 0.258503
0.130144 0.499016 0.254246
0.129076 0.493416 0.244724
0.131487 0.49247 0.236133
0.137972 0.496071 0.223529
0.161898 0.498054 0.210407
0.221653 0.507195 0.216114
0.295247 0.516655 0.213321
0.361578 0.525597 0.164752
0.517571 0.499428 0.0991073
0.616648 0.4869 0.0759899
0.685389 0.475868 0.121386
0.73315 0.480003 0.148135
0.75758 0.481178 0.162554
0.757916 0.467796 0.163836
0.750973 0.442939 0.160601
0.746197 0.420157 0.159823
0.741238 0.398398 0.160967
0.737865 0.383948 0.161944
0.736614 0.380056 0.161669
0.736538 0.378378 0.162234
0.735851 0.375204 0.16228
0.734844 0.371374 0.1617
0.735149 0.36701 0.160037
0.734401 0.359258 0.156878
0.734524 0.361608 0.157229
0.735744 0.366934 0.159564
0.169482 0.587549 0.330922
0.17174 0.5879 0.327413
0.173739 0.588586 0.323781
0.175952 0.590295 0.322347
0.174929 0.588815 0.320409
0.174243 0.58703 0.319417
0.173281 0.585794 0.31873
0.172152 0.583291 0.316823
0.171832 0.578897 0.309697
0.170993 0.573404 0.297536
0.177478 0.575784 0.288304
0.186069 0.577188 0.269139
0.226108 0.579599 0.262577
0.291356 0.58854 0.266255
0.363043 0.595651 0.250355
0.424521 0.601709 0.206165
0.581811 0.576898 0.12784
0.683207 0.569512 0.0844129
0.748272 0.559228 0.129122
0.779538 0.558282 0.15816
0.789609 0.556634 0.175006
0.78732 0.548028 0.175341
0.781399 0.531029 0.173861
0.773587 0.510491 0.169512
0.766125 0.490043 0.165896
0.764065 0.484413 0.164462
0.763699 0.482231 0.164492
0.76289 0.479866 0.164401
0.761349 0.476036 0.163836
0.759609 0.471458 0.163119
0.757671 0.464744 0.162417
0.756146 0.456687 0.16199
0.754574 0.451041 0.161135
0.215625 0.669429 0.391669
0.218967 0.670832 0.38941
0.221424 0.671763 0.386404
0.22356 0.673075 0.383932
0.22446 0.673548 0.382528
0.223331 0.671717 0.380697
0.221363 0.6692 0.378103
0.220798 0.667597 0.377172
0.220233 0.665248 0.37528
0.216907 0.659632 0.363088
0.219867 0.655848 0.352026
0.228977 0.659693 0.339986
0.241978 0.659098 0.314794
0.294438 0.661692 0.317327
0.363806 0.66949 0.318517
0.431006 0.677241 0.296513
0.487511 0.68275 0.254459
0.643732 0.679149 0.168643
0.738979 0.659358 0.110262
0.788968 0.656001 0.125216
0.809964 0.654307 0.143374
0.813382 0.649683 0.148821
0.812329 0.643137 0.151934
0.809354 0.630732 0.154955
0.80441 0.610803 0.161837
0.8009 0.597208 0.165362
0.79971 0.59324 0.166644
0.799771 0.590677 0.168276
0.798398 0.586725 0.169528
0.79733 0.581872 0.171267
0.794995 0.573449 0.174334
0.790951 0.561105 0.1785
0.787381 0.547021 0.176104
0.261692 0.743358 0.451606
0.26392 0.744152 0.447898
0.266316 0.745007 0.444678
0.268437 0.745693 0.441398
0.270985 0.746426 0.437858
0.270481 0.74551 0.436774
0.269993 0.744991 0.436469
0.268467 0.743023 0.434943
0.267277 0.741375 0.433448
0.266941 0.738109 0.427253
0.264454 0.734234 0.415198
0.270649 0.733806 0.403357
0.282139 0.736004 0.387717
0.313664 0.733516 0.367742
0.374868 0.735714 0.369085
0.438834 0.741939 0.369207
0.496468 0.750134 0.343221
0.550469 0.757244 0.305974
0.683879 0.757931 0.242863
0.768688 0.740734 0.199817
0.807614 0.74432 0.170459
0.826642 0.740963 0.149096
0.82742 0.736507 0.146868
0.826413 0.731716 0.1458
0.82533 0.723644 0.144533
0.824384 0.714809 0.143954
0.824048 0.709545 0.14345
0.823865 0.7075 0.143771
0.823072 0.70338 0.142748
0.822385 0.699046 0.14313
0.820508 0.690822 0.143053
0.819043 0.679698 0.144228
0.816892 0.664439 0.145937
0.292882 0.789181 0.495613
0.294957 0.788739 0.491234
0.296803 0.788647 0.487083
0.299062 0.788525 0.48333
0.300938 0.788647 0.479393
0.302129 0.788388 0.477211
0.301595 0.788113 0.476432
0.301167 0.787686 0.475929
0.300725 0.787182 0.47567
0.300435 0.786221 0.474052
0.299336 0.782803 0.463478
0.300435 0.780102 0.449714
0.307836 0.779187 0.433356
0.325078 0.777966 0.411124
0.383734 0.77612 0.403586
0.447044 0.780453 0.404257
0.504036 0.785779 0.399237
0.551812 0.794797 0.369467
0.610544 0.80148 0.335286
0.732586 0.802472 0.278553
0.78677 0.787289 0.25272
0.817258 0.783734 0.232822
0.826246 0.782208 0.226337
0.826185 0.780529 0.222156
0.826352 0.77879 0.218662
0.826886 0.776669 0.21442
0.826719 0.774273 0.210224
0.826719 0.773297 0.207889
0.826658 0.771588 0.204822
0.826963 0.769985 0.201144
0.82739 0.767224 0.195972
0.826719 0.762753 0.186633
0.827085 0.757015 0.174655
0.303288 0.807614 0.51989
0.305013 0.806424 0.51548
0.307134 0.805325 0.51043
0.308904 0.804334 0.505348
0.310765 0.80354 0.500496
0.312139 0.802609 0.495384
0.312093 0.802594 0.495186
0.312062 0.802594 0.495064
0.312062 0.802548 0.494911
0.312184 0.802441 0.49453
0.31342 0.801221 0.489662
0.311803 0.798352 0.475364
0.317922 0.795316 0.458488
0.329061 0.791196 0.434333
0.374899 0.790982 0.4177
0.44976 0.793286 0.417288
0.50248 0.796231 0.415503
0.547784 0.804074 0.392676
0.593866 0.812299 0.366918
0.670481 0.815351 0.332204
0.769512 0.815442 0.278798
0.801862 0.798581 0.267567
0.822705 0.798795 0.259876
0.825391 0.798398 0.256596
0.825254 0.797498 0.254978
0.825345 0.796704 0.252186
0.825498 0.796094 0.250874
0.825605 0.795804 0.249683
0.825727 0.795438 0.248569
0.825711 0.794827 0.247578
0.825818 0.794079 0.246342
0.825574 0.792874 0.244388
0.825605 0.79144 0.241306
0.299672 0.811109 0.530938
0.301885 0.809323 0.525643
0.303365 0.807813 0.519524
0.30518 0.806516 0.51397
0.307774 0.805081 0.508034
0.310216 0.80383 0.501839
0.31107 0.803449 0.49958
0.31104 0.803449 0.49955
0.311055 0.803449 0.499489
0.31107 0.803449 0.499413
0.311498 0.803159 0.497505
0.314778 0.800305 0.486931
0.314778 0.796796 0.468299
0.325582 0.792966 0.444984
0.353155 0.789837 0.421607
0.436942 0.792493 0.417151
0.496544 0.795987 0.416052
0.537057 0.802823 0.399664
0.579293 0.810361 0.375097
0.632959 0.815686 0.34696
0.734813 0.815732 0.300694
0.784085 0.801892 0.27451
0.815061 0.798428 0.262181
0.82414 0.798795 0.259785
0.824887 0.79884 0.26038
0.824933 0.798825 0.26006
0.82504 0.798795 0.259327
0.825055 0.798795 0.259144
0.825086 0.79881 0.258946
0.825101 0.798795 0.258824
0.825132 0.798779 0.25864
0.825208 0.798764 0.258091
0.825452 0.798383 0.256733
0.297292 0.813245 0.538598
0.299336 0.811429 0.532723
0.301839 0.8094 0.526497
0.303578 0.807645 0.519524
0.306661 0.80589 0.512383
0.309636 0.804089 0.504692
0.311437 0.803265 0.499962
0.311406 0.803281 0.499992
0.311406 0.803296 0.500069
0.311391 0.803296 0.500145
0.311467 0.803235 0.499825
0.313436 0.801633 0.492851
0.31368 0.797803 0.474815
0.324269 0.793896 0.453452
0.347723 0.790234 0.429206
0.417868 0.791836 0.419242
0.492485 0.795132 0.416266
0.533104 0.801846 0.403204
0.570642 0.808469 0.380346
0.616388 0.815076 0.355215
0.68986 0.814771 0.323796
0.77377 0.815869 0.276753
0.805203 0.798581 0.268101
0.821881 0.79855 0.260609
0.824857 0.798611 0.260136
0.824689 0.798688 0.261662
0.824506 0.79884 0.263035
0.82446 0.798978 0.263859
0.824491 0.799023 0.2636
0.824598 0.799084 0.26331
0.824659 0.79913 0.263233
0.824704 0.79913 0.263111
0.82472 0.799023 0.262364
0.297765 0.814252 0.542275
0.299535 0.812375 0.535119
0.30161 0.8103 0.528405
0.303456 0.808225 0.521096
0.306111 0.806149 0.513344
0.30985 0.803967 0.504097
0.312657 0.802411 0.495674
0.312657 0.802396 0.495598
0.312551 0.802518 0.495872
0.312428 0.802579 0.496315
0.312337 0.80264 0.496712
0.313405 0.801663 0.492912
0.313512 0.798321 0.476936
0.323583 0.794522 0.456809
0.343496 0.790921 0.432944
0.404685 0.79144 0.42034
0.485115 0.794781 0.416449
0.530709 0.801587 0.40444
0.565164 0.807706 0.384024
0.601602 0.813367 0.362341
0.653605 0.815747 0.338827
0.73901 0.814099 0.298924
0.794629 0.798489 0.271122
0.817075 0.798398 0.261158
0.824018 0.798703 0.259113
0.825116 0.798688 0.258732
0.82504 0.798703 0.259327
0.824948 0.798749 0.259907
0.824918 0.798795 0.260044
0.824948 0.79884 0.259892
0.824979 0.798856 0.259892
0.824948 0.798886 0.260075
0.824903 0.798901 0.260533
0.303426 0.813428 0.540215
0.304387 0.811749 0.533394
0.305791 0.809491 0.526268
0.307179 0.807126 0.517662
0.309804 0.804852 0.508568
0.312535 0.802853 0.498009
0.316213 0.799832 0.486793
0.316579 0.799344 0.484932
0.316228 0.799573 0.485832
0.316014 0.799756 0.486503
0.315663 0.800046 0.487404
0.315877 0.799756 0.486564
0.315267 0.797635 0.474052
0.324605 0.79443 0.456672
0.341863 0.791104 0.434333
0.395727 0.791104 0.420722
0.47631 0.794873 0.417609
0.528298 0.800977 0.405875
0.561044 0.807263 0.385931
0.591379 0.812238 0.368673
0.631235 0.815717 0.347509
0.704723 0.814084 0.316365
0.782895 0.804288 0.274983
0.811902 0.798428 0.262699
0.82327 0.798764 0.257664
0.82536 0.798779 0.256886
0.82536 0.798779 0.25687
0.825406 0.798795 0.256764
0.825422 0.798825 0.256611
0.825437 0.79884 0.256428
0.825452 0.798856 0.256382
0.825452 0.798871 0.256458
0.825437 0.798871 0.256703
0.30753 0.812924 0.537408
0.309392 0.811292 0.530709
0.311131 0.808743 0.522606
0.312398 0.805966 0.513558
0.314427 0.803494 0.502983
0.317525 0.800595 0.489921
0.315389 0.797833 0.47454
0.316747 0.796796 0.469535
0.316579 0.796872 0.469947
0.316289 0.796979 0.470451
0.315953 0.797147 0.471061
0.315602 0.797299 0.471916
0.319692 0.795758 0.464912
0.327565 0.793622 0.451133
0.343465 0.790921 0.431495
0.393225 0.790921 0.420111
0.470588 0.79443 0.417105
0.525734 0.800244 0.407034
0.558099 0.80647 0.387945
0.582025 0.810925 0.373541
0.613748 0.815122 0.356527
0.674479 0.815167 0.329046
0.775494 0.814939 0.274556
0.80351 0.799161 0.266606
0.8206 0.79852 0.258686
0.82501 0.79881 0.256916
0.825391 0.798795 0.256748
0.825437 0.79881 0.256519
0.825467 0.798825 0.256184
0.825528 0.798856 0.255741
0.825574 0.798856 0.255589
0.825574 0.798856 0.255589
0.825544 0.798856 0.25568
0.305852 0.81387 0.541039
0.308431 0.812421 0.534188
0.310155 0.810117 0.526757
0.311604 0.807309 0.517388
0.313817 0.804349 0.506615
0.316686 0.801709 0.493507
0.314946 0.798489 0.477012
0.317067 0.796674 0.468803
0.317067 0.796674 0.468803
0.317098 0.796658 0.468833
0.317098 0.796658 0.468864
0.317052 0.796674 0.469032
0.320241 0.795453 0.462715
0.328878 0.793057 0.446799
0.344945 0.790784 0.429313
0.391211 0.790799 0.41944
0.465766 0.794003 0.416648
0.522057 0.799542 0.408652
0.551568 0.805234 0.391562
0.569986 0.808789 0.380011
0.597375 0.812818 0.364584
0.653239 0.815839 0.338369
0.758511 0.816098 0.285405
0.795331 0.800061 0.269841
0.816342 0.798459 0.260502
0.824582 0.798795 0.257008
0.825391 0.798795 0.256733
0.825437 0.79881 0.256519
0.825467 0.798825 0.256184
0.825528 0.798856 0.255787
0.825574 0.798856 0.255604
0.825574 0.798856 0.255604
0.825544 0.798856 0.255695
0.304738 0.814572 0.543877
0.307317 0.813062 0.537072
0.309377 0.811292 0.530022
0.311238 0.808408 0.520897
0.312749 0.805112 0.509972
0.315602 0.802548 0.497154
0.318425 0.798886 0.482017
0.316793 0.796826 0.469429
0.317021 0.796704 0.468803
0.317052 0.796674 0.468803
