bundles/resolve-cinematic-luts/Phantom Luts/Ursa G2 Phntm Film LUTs - V1/Gen5/White Balance Offset (+Magenta Boost)/Ursa Bleach Gen5 WBO.cube
TITLE "Generated by Resolve"
LUT_3D_SIZE 9
0.0213321 0.0332799 0.0231785
0.0213321 0.0332799 0.0231785
0.0443885 0.0359808 0.0256352
0.115587 0.0387579 0.0331579
0.276524 0.044892 0.0433661
0.496834 0.0462043 0.0577401
0.65861 0.0572061 0.0797894
0.697444 0.0613413 0.0969406
0.707713 0.0687266 0.123278
0.0220493 0.0353552 0.0237278
0.0234379 0.0362554 0.0239567
0.0569467 0.0403754 0.0272526
0.172168 0.0412909 0.0367132
0.366094 0.0459144 0.0477913
0.582696 0.0502937 0.0665293
0.689174 0.0605173 0.0873274
0.700374 0.0616007 0.107042
0.707683 0.0688334 0.122698
0.0372625 0.0906386 0.0467689
0.0389258 0.0987716 0.0464179
0.0820478 0.112383 0.0458839
0.278813 0.0961318 0.0537575
0.491646 0.0723888 0.0510719
0.632532 0.0549325 0.0538033
0.696818 0.0619364 0.0740978
0.69604 0.0614633 0.0874495
0.697551 0.0615549 0.0904097
0.0556039 0.257069 0.0846113
0.0567636 0.278477 0.0829633
0.0594644 0.284199 0.0560311
0.25713 0.353033 0.067216
0.651362 0.420157 0.0726787
0.86537 0.430198 0.184909
0.903471 0.406882 0.204364
0.898695 0.37937 0.197772
0.894163 0.368688 0.194232
0.025452 0.496132 0.122606
0.0368963 0.522087 0.120729
0.0449073 0.525246 0.111116
0.159655 0.577264 0.089601
0.579278 0.674449 0.147066
0.826215 0.729519 0.138643
0.913573 0.750729 0.157519
0.91841 0.752865 0.163165
0.918563 0.755093 0.161257
0.0981155 0.727718 0.30367
0.119661 0.738354 0.286915
0.125353 0.73901 0.280751
0.195895 0.747951 0.206134
0.596689 0.787701 0.216922
0.777249 0.85005 0.249668
0.891081 0.871336 0.259052
0.917937 0.878828 0.258549
0.917998 0.880842 0.262089
0.104555 0.77351 0.366018
0.126223 0.769421 0.321843
0.134173 0.768261 0.310704
0.200549 0.765988 0.234653
0.62327 0.804669 0.228656
0.744808 0.847013 0.254246
0.869902 0.872831 0.261936
0.917037 0.883757 0.266728
0.918334 0.884215 0.267842
0.117876 0.774701 0.369055
0.15053 0.766934 0.291951
0.15938 0.765866 0.279103
0.2448 0.768582 0.212848
0.653666 0.814298 0.236027
0.730404 0.842268 0.252277
0.860121 0.87332 0.259434
0.911269 0.881727 0.266178
0.918273 0.884169 0.26685
0.113817 0.775921 0.380682
0.157458 0.766339 0.283726
0.166888 0.76556 0.271382
0.280934 0.77171 0.205554
0.664302 0.818143 0.238071
0.729168 0.841871 0.252033
0.864759 0.876204 0.257404
0.909728 0.881315 0.266255
0.918273 0.884169 0.26685
0.0213321 0.033341 0.0236362
0.0213321 0.0332799 0.0231785
0.0459449 0.0373388 0.0315251
0.124193 0.0421912 0.0375677
0.293339 0.0509804 0.05066
0.517174 0.0494392 0.0670634
0.667475 0.0580911 0.0856489
0.697749 0.0614481 0.0980087
0.707698 0.0689097 0.12253
0.0215915 0.0338903 0.0236362
0.0229801 0.0350652 0.0242466
0.0646525 0.0385901 0.030045
0.188876 0.0421302 0.0377813
0.388602 0.0496223 0.0551614
0.597131 0.051194 0.0752422
0.691844 0.0608988 0.0895705
0.701076 0.0620432 0.108721
0.707713 0.0688792 0.122637
0.0358282 0.0881666 0.0514229
0.0381323 0.0977035 0.0498665
0.0831159 0.110323 0.0457313
0.283513 0.0913558 0.0537728
0.491875 0.0670024 0.0478981
0.63505 0.0552682 0.0568093
0.696162 0.0618296 0.0759594
0.696788 0.0614786 0.0897688
0.697978 0.0615854 0.0930037
0.0522011 0.254261 0.0998245
0.05449 0.275334 0.0905165
0.0590372 0.287709 0.0640116
0.260471 0.353719 0.0667124
0.665873 0.411673 0.0820783
0.871595 0.417441 0.188083
0.900526 0.390875 0.200824
0.888472 0.348379 0.186709
0.881361 0.330999 0.180133
0.0135195 0.492729 0.146288
0.0243687 0.51429 0.1346
0.0409094 0.526467 0.118059
0.140246 0.574777 0.0865034
0.584283 0.675593 0.147036
0.833951 0.728191 0.136553
0.915785 0.745068 0.158083
0.917662 0.742397 0.15996
0.917906 0.74197 0.158343
0.0728771 0.724056 0.333761
0.102373 0.732754 0.313817
0.124056 0.738552 0.282048
0.184375 0.747158 0.218906
0.586145 0.785306 0.214786
0.778058 0.849775 0.248951
0.894377 0.870222 0.256245
0.917876 0.877058 0.256275
0.918013 0.880049 0.260868
0.0765087 0.777798 0.419883
0.100053 0.77406 0.371756
0.134051 0.768292 0.310918
0.182391 0.765438 0.252537
0.602594 0.799603 0.224369
0.73901 0.844831 0.253498
0.869459 0.873579 0.261219
0.916991 0.883741 0.266743
0.918349 0.884215 0.268315
0.0953536 0.780591 0.459144
0.11014 0.775616 0.378927
0.1561 0.766064 0.282673
0.212543 0.76643 0.233845
0.637003 0.808713 0.231647
0.722988 0.839567 0.250706
0.854185 0.873365 0.258854
0.910246 0.881422 0.266209
0.918273 0.884169 0.26685
0.101656 0.78201 0.492332
0.108904 0.776745 0.38883
0.166201 0.765576 0.271992
0.225818 0.767422 0.214282
0.64538 0.811566 0.234287
0.715297 0.836774 0.249348
0.854398 0.874876 0.256718
0.9066 0.880308 0.266194
0.918273 0.884169 0.26685
0.0215457 0.0349126 0.0407721
0.0302129 0.0358282 0.0390631
0.0501717 0.0386511 0.0442359
0.143435 0.045304 0.0606394
0.330007 0.0553597 0.0840009
0.559777 0.0564279 0.106355
0.695994 0.065095 0.133516
0.707332 0.0669871 0.128267
0.707835 0.069276 0.121569
0.0207675 0.0347753 0.0389868
0.0264134 0.03682 0.0543526
0.0751049 0.0408484 0.0618753
0.223789 0.0505379 0.0766003
0.446296 0.0554971 0.0993057
0.640726 0.061326 0.129381
0.709743 0.0662852 0.14342
0.708232 0.0677958 0.128405
0.708568 0.0681621 0.128374
0.0346532 0.0853895 0.0688182
0.0361486 0.0934157 0.0763409
0.0948501 0.102922 0.0921492
0.289479 0.1066 0.0945754
0.512749 0.0855726 0.092668
0.644495 0.0604715 0.0933394
0.694804 0.0612955 0.0869306
0.697612 0.0615091 0.092607
0.698619 0.0616312 0.0955825
0.0467689 0.24593 0.143023
0.0454261 0.263218 0.142916
0.0511482 0.271931 0.109224
0.301427 0.351049 0.0959793
0.688777 0.367514 0.161074
0.857404 0.380392 0.202258
0.898878 0.380896 0.198428
0.875456 0.314565 0.172824
0.86479 0.293782 0.164446
0 0.47953 0.21912
0.000106813 0.49836 0.210864
0.0130922 0.502464 0.153826
0.100343 0.544335 0.0888075
0.60589 0.666392 0.147112
0.853101 0.705409 0.139086
0.915785 0.730175 0.155932
0.917067 0.729473 0.159792
0.917372 0.727626 0.156573
0.0481117 0.711391 0.414328
0.0526741 0.720836 0.393256
0.0885023 0.725475 0.318318
0.151507 0.733379 0.243915
0.569009 0.775128 0.211414
0.787945 0.844617 0.245365
0.90074 0.867277 0.253376
0.917815 0.874052 0.251881
0.917983 0.876661 0.255085
0.0795148 0.782162 0.53051
0.076524 0.780713 0.491615
0.091783 0.775097 0.382925
0.152361 0.766812 0.290837
0.552987 0.789685 0.220874
0.736461 0.844038 0.254612
0.868376 0.874067 0.260792
0.91693 0.883726 0.266728
0.91841 0.88426 0.268971
0.108843 0.786618 0.577539
0.0981003 0.783322 0.528939
0.0954604 0.777157 0.39826
0.166766 0.767086 0.284825
0.582773 0.794873 0.228183
0.731685 0.842451 0.252308
0.846326 0.873259 0.256992
0.908431 0.880888 0.266209
0.918273 0.884169 0.26685
0.143862 0.788998 0.609705
0.109697 0.785153 0.55259
0.0997482 0.778393 0.406897
0.182055 0.767178 0.274998
0.604685 0.799847 0.231647
0.72546 0.840574 0.251179
0.841031 0.872618 0.256703
0.902586 0.879103 0.265797
0.918273 0.884169 0.26685
0.0256352 0.039765 0.0935683
0.0373236 0.0399329 0.0922408
0.0725872 0.0415503 0.101457
0.173449 0.0489357 0.127581
0.37789 0.0613413 0.183108
0.610498 0.0660563 0.235737
0.735531 0.0753033 0.29099
0.746014 0.0802625 0.330938
0.750561 0.0838788 0.360815
0.0234989 0.0410468 0.119371
0.0343328 0.0434272 0.147799
0.101228 0.0457008 0.173434
0.270817 0.0566567 0.200137
0.507713 0.0645304 0.246342
0.689082 0.0744488 0.295064
0.74609 0.0808423 0.331487
0.749279 0.0827802 0.357214
0.752209 0.0848249 0.385016
0.0246281 0.0702831 0.136126
0.0237125 0.0700084 0.162829
0.0799878 0.0585946 0.213916
0.302556 0.0663767 0.229816
0.528161 0.0647288 0.245838
0.699382 0.0739605 0.286366
0.744228 0.0782788 0.313008
0.744579 0.0788434 0.316838
0.746975 0.0805676 0.335195
0.0428931 0.243641 0.215396
0.0403143 0.261463 0.233173
0.0407874 0.26334 0.239063
0.380453 0.342168 0.336721
0.6878 0.374746 0.358465
0.86807 0.405035 0.391562
0.901427 0.386114 0.369482
0.86247 0.29366 0.262715
0.857679 0.284413 0.244862
0 0.477516 0.307713
0 0.493782 0.314672
0 0.491279 0.289357
0.126894 0.556085 0.293233
0.652537 0.66865 0.339208
0.885023 0.687266 0.478508
0.930877 0.697719 0.448447
0.929229 0.70074 0.325261
0.921141 0.714778 0.215457
0.0476539 0.700633 0.519646
0.0494087 0.707607 0.517845
0.0467231 0.707546 0.472145
0.0677501 0.715618 0.379309
0.504051 0.75407 0.348562
0.797055 0.828473 0.361257
0.917266 0.853376 0.398581
0.923583 0.857282 0.351278
0.918578 0.868406 0.260563
0.092195 0.780072 0.617395
0.0896315 0.781064 0.604868
0.0806287 0.780407 0.560372
0.0914015 0.779568 0.470039
0.439734 0.784436 0.401144
0.728069 0.836667 0.421744
0.885893 0.877913 0.394842
0.92105 0.88632 0.327153
0.919356 0.885023 0.28455
0.190127 0.791592 0.662837
0.148623 0.79086 0.644587
0.105409 0.78764 0.595056
0.123629 0.782757 0.513375
0.502449 0.792935 0.488167
0.740505 0.842969 0.50808
0.863203 0.877394 0.41416
0.915084 0.884657 0.323644
0.918914 0.884688 0.277836
0.31284 0.797787 0.693416
0.251438 0.791226 0.666682
0.149218 0.789181 0.614038
0.179889 0.783246 0.535515
0.560815 0.805875 0.547082
0.753521 0.851255 0.560006
0.86157 0.878126 0.46743
0.907576 0.882628 0.317571
0.918914 0.884688 0.277119
0.0354925 0.0465248 0.206439
0.0552529 0.0477913 0.214252
0.105745 0.0494698 0.239414
0.237491 0.0551461 0.278233
0.458091 0.0634318 0.326207
0.651728 0.0798657 0.4177
0.762097 0.0955367 0.517861
0.772 0.100053 0.572351
0.780575 0.101518 0.606149
0.0354162 0.0490425 0.265827
0.0580453 0.0514687 0.303731
0.149783 0.055436 0.347173
0.340764 0.061799 0.390997
0.575219 0.0684672 0.44152
0.72311 0.0906233 0.507439
0.771008 0.0996567 0.566445
0.778332 0.101122 0.598215
0.784329 0.102144 0.618311
0.0178073 0.0482032 0.268238
0.0204318 0.0491188 0.306538
0.113771 0.0555734 0.37879
0.342123 0.0625925 0.433234
0.591058 0.0696727 0.464805
0.733043 0.0922713 0.517845
0.771801 0.0999771 0.569284
0.777829 0.100816 0.596216
0.783886 0.102129 0.617151
0.0218509 0.200427 0.36318
0.0184024 0.209522 0.400504
0.0168765 0.197894 0.421958
0.406638 0.231632 0.60209
0.725551 0.292485 0.635462
0.877073 0.301946 0.663554
0.876936 0.249332 0.648356
0.827771 0.171038 0.611307
0.829725 0.166049 0.626383
0.000259403 0.479026 0.424918
0.00172427 0.496666 0.445457
0.00181582 0.496376 0.447517
0.178241 0.568444 0.535088
0.694545 0.656367 0.646708
0.874861 0.675029 0.657893
0.930877 0.683726 0.664073
0.931167 0.684733 0.664332
0.932723 0.690929 0.669657
0.0532387 0.696452 0.590677
0.0554818 0.703059 0.59527
0.0534066 0.700114 0.582238
0.112032 0.701961 0.567147
0.603861 0.777752 0.643503
0.839582 0.834455 0.65536
0.943526 0.846174 0.709834
0.950957 0.852888 0.707988
0.950088 0.859052 0.695659
0.105241 0.775357 0.6692
0.103334 0.775555 0.664393
0.0969558 0.773846 0.648005
0.141314 0.77348 0.624674
0.556817 0.812573 0.646708
0.787411 0.875349 0.691371
0.911482 0.904631 0.68777
0.946029 0.911376 0.715236
0.947723 0.91252 0.723201
0.29485 0.796628 0.707286
0.266712 0.793759 0.697658
0.213367 0.792737 0.68159
0.240467 0.790051 0.659785
0.605631 0.838453 0.694331
0.794827 0.889784 0.734386
0.893721 0.909926 0.720546
0.937011 0.914549 0.711345
0.946517 0.917617 0.719051
0.496605 0.819547 0.749767
0.446311 0.813687 0.737423
0.359487 0.804517 0.713405
0.37499 0.8056 0.697719
0.659419 0.859098 0.736233
0.816236 0.900694 0.768017
0.899123 0.91548 0.753964
0.932616 0.917189 0.728985
0.945724 0.917418 0.718593
0.0617838 0.0529793 0.348455
0.0912947 0.0546273 0.369314
0.165057 0.0577401 0.416617
0.317968 0.0629587 0.477882
0.535302 0.0645609 0.517372
0.699489 0.0846418 0.578393
0.788479 0.102907 0.628885
0.802441 0.104738 0.669734
0.811749 0.10605 0.699596
0.0642863 0.054551 0.446372
0.105684 0.0577249 0.498146
0.23035 0.0636606 0.548302
0.431449 0.0664378 0.577218
0.624628 0.0739452 0.600565
0.767681 0.0969863 0.642695
0.802579 0.104799 0.668238
0.809964 0.105577 0.692821
0.814557 0.10663 0.708888
0.0629892 0.0551766 0.478614
0.0756085 0.0569009 0.515465
0.195499 0.0641947 0.571435
0.422126 0.0677348 0.602182
0.636728 0.0764477 0.622568
0.779385 0.0995346 0.655146
0.8038 0.104997 0.672374
0.810651 0.10573 0.694957
0.814313 0.10663 0.708553
0.0155947 0.157855 0.524178
0.0145266 0.163439 0.551598
0.0165713 0.140414 0.561044
0.403098 0.124788 0.681239
0.706264 0.162783 0.715938
0.859281 0.196658 0.735744
0.849027 0.158434 0.712215
0.829541 0.124788 0.708934
0.833112 0.125383 0.72047
0.00326543 0.468666 0.573846
0.00482185 0.481453 0.590341
0.00523384 0.469841 0.601053
0.141268 0.514504 0.666224
0.737255 0.62948 0.813519
0.908598 0.658183 0.814191
0.947478 0.661845 0.8206
0.949004 0.662501 0.828473
0.950378 0.668666 0.834791
0.0611429 0.698024 0.653254
0.0641642 0.704753 0.660456
0.0632639 0.703029 0.659297
0.114885 0.705547 0.664179
0.645396 0.787488 0.757748
0.868635 0.826169 0.806714
0.944259 0.834089 0.814908
0.955932 0.840208 0.819364
0.956466 0.845701 0.82327
0.119158 0.775357 0.701823
0.116243 0.775235 0.70045
0.109606 0.772213 0.693233
0.190417 0.770718 0.68719
0.654597 0.841642 0.765972
0.847517 0.898314 0.825193
0.932525 0.91165 0.81767
0.957671 0.914336 0.83653
0.959396 0.91545 0.838102
0.356893 0.804746 0.737057
0.334951 0.801587 0.73109
0.299123 0.796857 0.720241
0.345876 0.801801 0.719188
0.697902 0.874006 0.795865
0.855268 0.917723 0.84123
0.919707 0.929427 0.841184
0.950072 0.933562 0.834058
0.95993 0.934676 0.845533
0.594079 0.842573 0.787701
0.566125 0.834287 0.77641
0.516091 0.823163 0.75938
0.537438 0.827039 0.75761
0.742 0.892287 0.823102
0.872267 0.925383 0.856855
0.922469 0.933059 0.858503
0.945556 0.935943 0.845304
0.957412 0.936461 0.844343
0.106264 0.0584573 0.515526
0.151385 0.061738 0.545663
0.249928 0.06598 0.583841
0.414267 0.0686046 0.615854
0.599695 0.073991 0.642145
0.741604 0.0923781 0.677378
0.819181 0.109636 0.715908
0.822171 0.109102 0.736996
0.823102 0.109651 0.748852
0.125048 0.0629892 0.589624
0.187228 0.0678264 0.622354
0.316854 0.0724498 0.655818
0.512978 0.0720989 0.672068
0.670878 0.0838941 0.69395
0.801068 0.107149 0.724056
0.826169 0.113497 0.740795
0.824247 0.110567 0.749905
0.824994 0.111299 0.753658
0.134569 0.0649729 0.615213
0.150408 0.0668803 0.629557
0.277348 0.0732433 0.665766
0.498299 0.0732128 0.687236
0.675914 0.0855116 0.707424
0.808682 0.110216 0.733516
0.827558 0.114412 0.745968
0.82417 0.110506 0.74815
0.823865 0.110048 0.751553
0.0166934 0.112444 0.596582
0.019089 0.110155 0.610086
0.0518807 0.0916457 0.627192
0.461189 0.0989548 0.720363
0.708522 0.127291 0.758175
0.83267 0.13872 0.762234
0.861708 0.155779 0.774548
0.842573 0.13022 0.758572
0.85182 0.141146 0.770916
0.00862135 0.453635 0.648997
0.00956741 0.467506 0.657954
0.0099031 0.45687 0.664271
0.185031 0.521996 0.747448
0.777569 0.62269 0.883314
0.939529 0.656977 0.888594
0.961929 0.663432 0.889494
0.961975 0.666056 0.890791
0.961761 0.670573 0.895811
0.0677348 0.702022 0.716136
0.0713359 0.707393 0.722118
0.0709544 0.702388 0.726879
0.180179 0.70547 0.746883
0.646784 0.769924 0.814328
0.893553 0.81178 0.873899
0.951125 0.822736 0.872297
0.959182 0.828122 0.873213
0.959716 0.833295 0.876417
0.144335 0.777508 0.731182
0.142565 0.777752 0.731655
0.131212 0.775311 0.72929
0.215763 0.774273 0.729458
0.649958 0.839887 0.798932
0.868849 0.901305 0.864988
0.936599 0.907317 0.871809
0.957015 0.910018 0.874815
0.960143 0.911299 0.876127
0.395987 0.809552 0.754467
0.373281 0.806577 0.750195
0.342061 0.80235 0.743496
0.390188 0.806836 0.746731
0.72108 0.880796 0.824857
0.88748 0.922652 0.874571
0.932647 0.930129 0.879118
0.954238 0.932235 0.877195
0.960815 0.932723 0.881193
0.626627 0.853651 0.803922
0.60296 0.845762 0.795209
0.569451 0.835615 0.782849
0.587671 0.840757 0.785122
0.778134 0.903883 0.84892
0.902083 0.931517 0.88278
0.9355 0.937606 0.886915
0.951034 0.939467 0.881697
0.959838 0.940398 0.881575
0.176593 0.0670787 0.618601
0.235508 0.0705425 0.643946
0.33489 0.0738231 0.66923
0.501122 0.0731823 0.687373
0.652064 0.0833295 0.71133
0.777676 0.102083 0.736278
0.833799 0.119997 0.758724
0.833951 0.120058 0.76228
0.834073 0.120165 0.762371
0.22417 0.0724193 0.667643
0.285542 0.0752422 0.686946
0.412146 0.0756695 0.704738
0.573281 0.0780652 0.717464
0.711589 0.0922103 0.736171
0.823453 0.117372 0.760601
0.837674 0.12369 0.765896
0.835019 0.121584 0.763424
0.836072 0.122591 0.764385
0.238437 0.0742199 0.681132
0.259892 0.0749523 0.686427
0.372854 0.0767224 0.704524
0.55906 0.0774243 0.718929
0.712123 0.0924239 0.739223
0.825116 0.118914 0.761837
0.839017 0.124712 0.766934
0.83537 0.121981 0.76376
0.835401 0.122011 0.76379
0.0885634 0.0874342 0.657374
0.13846 0.0972915 0.679957
0.247471 0.106615 0.713024
0.560006 0.110948 0.752361
0.746166 0.137881 0.783459
0.85272 0.156481 0.792233
0.888365 0.193347 0.814038
0.851667 0.138613 0.778775
0.87776 0.177401 0.803738
0.0112001 0.460349 0.685145
0.0124514 0.472282 0.690425
0.0214542 0.469673 0.700938
0.347662 0.570855 0.815396
0.82652 0.633616 0.902693
0.952651 0.662165 0.90692
0.961944 0.671916 0.908064
0.961883 0.6757 0.908034
0.961883 0.680491 0.908522
0.0920119 0.702449 0.751431
0.101183 0.707271 0.756344
0.10782 0.701091 0.759991
0.270451 0.709102 0.780056
0.663264 0.769467 0.835416
0.914611 0.811933 0.900389
0.959274 0.824186 0.902129
0.962081 0.830137 0.900908
0.962066 0.834287 0.900755
0.225071 0.781094 0.753933
0.228229 0.780636 0.75462
0.22359 0.778424 0.756695
0.304585 0.778973 0.761898
0.679637 0.848081 0.832792
0.870741 0.898268 0.88043
0.939666 0.903136 0.888319
0.957214 0.906676 0.888441
0.959747 0.908339 0.889494
0.458076 0.814969 0.769024
0.434424 0.812451 0.766751
0.40177 0.809049 0.763714
0.450065 0.811963 0.767498
0.724575 0.882139 0.837446
0.88716 0.922957 0.883146
0.936965 0.92929 0.889372
0.954421 0.930404 0.891569
0.960662 0.931121 0.892287
0.653086 0.862867 0.816938
0.631983 0.855512 0.809125
0.602762 0.845853 0.79826
0.614572 0.849348 0.80032
0.786831 0.907042 0.857527
0.907546 0.932448 0.889555
0.941253 0.936934 0.893248
0.953902 0.938399 0.894041
0.960235 0.939162 0.893797
0.270604 0.0746777 0.68159
0.329778 0.0764324 0.698848
0.438605 0.0754559 0.708019
0.570275 0.0780652 0.719692
0.698421 0.0906691 0.738094
0.810834 0.11516 0.75906
0.842557 0.129061 0.770687
0.843854 0.130724 0.771786
0.847196 0.133425 0.774639
0.34406 0.0767376 0.70222
0.40734 0.0760357 0.707698
0.514961 0.0756237 0.714366
0.628275 0.0827955 0.729
0.749874 0.102205 0.749355
0.839628 0.128222 0.770138
0.852049 0.140032 0.779217
0.846723 0.132952 0.774304
0.854948 0.143145 0.782269
0.36791 0.0767681 0.704707
0.399725 0.0761883 0.707317
0.49688 0.0752575 0.713146
0.619577 0.0821241 0.728466
0.751507 0.104936 0.752758
0.85211 0.143069 0.782071
0.854093 0.141588 0.781415
0.847791 0.13402 0.775082
0.849409 0.136019 0.776776
0.32491 0.111772 0.732082
0.413657 0.137484 0.758999
0.490761 0.134707 0.763394
0.667994 0.165301 0.799619
0.831083 0.219043 0.834806
0.93138 0.274327 0.859144
0.936172 0.286534 0.863554
0.927535 0.261952 0.853559
0.935637 0.284672 0.862928
0.0761578 0.505852 0.731792
0.137392 0.535485 0.754543
0.229206 0.553567 0.783123
0.580484 0.609232 0.84976
0.874891 0.654963 0.907149
0.960723 0.674891 0.907591
0.961852 0.685771 0.908843
0.9617 0.691157 0.908995
0.961898 0.695613 0.909667
0.189548 0.715419 0.775128
0.214481 0.718212 0.7776
0.238651 0.71284 0.779278
0.389487 0.728389 0.799558
0.713878 0.785794 0.854002
0.928405 0.817029 0.904036
0.962112 0.827192 0.907439
0.962081 0.834287 0.906874
0.962051 0.837995 0.906279
0.346456 0.78909 0.774807
0.354345 0.78909 0.776455
0.363729 0.787839 0.780102
0.462699 0.79472 0.790875
0.713802 0.858717 0.850828
0.875975 0.897337 0.885847
0.943633 0.901946 0.89546
0.958083 0.905379 0.894652
0.960052 0.90753 0.89456
0.548989 0.828809 0.78941
0.534585 0.82504 0.78674
0.516609 0.820783 0.784115
0.551812 0.826658 0.791623
0.752102 0.890654 0.854582
0.894072 0.924102 0.89134
0.937346 0.927855 0.89514
0.95584 0.929274 0.897932
0.960952 0.930312 0.897505
0.680491 0.872618 0.828962
0.66334 0.866453 0.822553
0.641001 0.858793 0.814725
0.649622 0.861555 0.816678
0.796902 0.909834 0.865003
0.907729 0.932754 0.893156
0.941054 0.936889 0.896223
0.954849 0.938048 0.897505
0.959976 0.938643 0.898711
