bundles/resolve-cinematic-luts/Phantom Luts/Ursa G2 Phntm Film LUTs - V1/Gen5/White Balance Offset (+Magenta Boost)/Ursa Bleach Gen5 WBO.cube
TITLE "Generated by Resolve"
LUT_3D_SIZE 5
0.0213321 0.0332799 0.0231785
0.0443885 0.0359808 0.0256352
0.276524 0.044892 0.0433661
0.65861 0.0572061 0.0797894
0.707713 0.0687266 0.123278
0.0372625 0.0906386 0.0467689
0.0820478 0.112383 0.0458839
0.491646 0.0723888 0.0510719
0.696818 0.0619364 0.0740978
0.697551 0.0615549 0.0904097
0.025452 0.496132 0.122606
0.0449073 0.525246 0.111116
0.579278 0.674449 0.147066
0.913573 0.750729 0.157519
0.918563 0.755093 0.161257
0.104555 0.77351 0.366018
0.134173 0.768261 0.310704
0.62327 0.804669 0.228656
0.869902 0.872831 0.261936
0.918334 0.884215 0.267842
0.113817 0.775921 0.380682
0.166888 0.76556 0.271382
0.664302 0.818143 0.238071
0.864759 0.876204 0.257404
0.918273 0.884169 0.26685
0.0215457 0.0349126 0.0407721
0.0501717 0.0386511 0.0442359
0.330007 0.0553597 0.0840009
0.695994 0.065095 0.133516
0.707835 0.069276 0.121569
0.0346532 0.0853895 0.0688182
0.0948501 0.102922 0.0921492
0.512749 0.0855726 0.092668
0.694804 0.0612955 0.0869306
0.698619 0.0616312 0.0955825
0 0.47953 0.21912
0.0130922 0.502464 0.153826
0.60589 0.666392 0.147112
0.915785 0.730175 0.155932
0.917372 0.727626 0.156573
0.0795148 0.782162 0.53051
0.091783 0.775097 0.382925
0.552987 0.789685 0.220874
0.868376 0.874067 0.260792
0.91841 0.88426 0.268971
0.143862 0.788998 0.609705
0.0997482 0.778393 0.406897
0.604685 0.799847 0.231647
0.841031 0.872618 0.256703
0.918273 0.884169 0.26685
0.0354925 0.0465248 0.206439
0.105745 0.0494698 0.239414
0.458091 0.0634318 0.326207
0.762097 0.0955367 0.517861
0.780575 0.101518 0.606149
0.0178073 0.0482032 0.268238
0.113771 0.0555734 0.37879
0.591058 0.0696727 0.464805
0.771801 0.0999771 0.569284
0.783886 0.102129 0.617151
0.000259403 0.479026 0.424918
0.00181582 0.496376 0.447517
0.694545 0.656367 0.646708
0.930877 0.683726 0.664073
0.932723 0.690929 0.669657
0.105241 0.775357 0.6692
0.0969558 0.773846 0.648005
0.556817 0.812573 0.646708
0.911482 0.904631 0.68777
0.947723 0.91252 0.723201
0.496605 0.819547 0.749767
0.359487 0.804517 0.713405
0.659419 0.859098 0.736233
0.899123 0.91548 0.753964
0.945724 0.917418 0.718593
0.106264 0.0584573 0.515526
0.249928 0.06598 0.583841
0.599695 0.073991 0.642145
0.819181 0.109636 0.715908
0.823102 0.109651 0.748852
0.134569 0.0649729 0.615213
0.277348 0.0732433 0.665766
0.675914 0.0855116 0.707424
0.827558 0.114412 0.745968
0.823865 0.110048 0.751553
0.00862135 0.453635 0.648997
0.0099031 0.45687 0.664271
0.777569 0.62269 0.883314
0.961929 0.663432 0.889494
0.961761 0.670573 0.895811
0.144335 0.777508 0.731182
0.131212 0.775311 0.72929
0.649958 0.839887 0.798932
0.936599 0.907317 0.871809
0.960143 0.911299 0.876127
0.626627 0.853651 0.803922
0.569451 0.835615 0.782849
0.778134 0.903883 0.84892
0.9355 0.937606 0.886915
0.959838 0.940398 0.881575
0.270604 0.0746777 0.68159
0.438605 0.0754559 0.708019
0.698421 0.0906691 0.738094
0.842557 0.129061 0.770687
0.847196 0.133425 0.774639
0.36791 0.0767681 0.704707
0.49688 0.0752575 0.713146
0.751507 0.104936 0.752758
0.854093 0.141588 0.781415
0.849409 0.136019 0.776776
0.0761578 0.505852 0.731792
0.229206 0.553567 0.783123
0.874891 0.654963 0.907149
0.961852 0.685771 0.908843
0.961898 0.695613 0.909667
0.346456 0.78909 0.774807
0.363729 0.787839 0.780102
0.713802 0.858717 0.850828
0.943633 0.901946 0.89546
0.960052 0.90753 0.89456
0.680491 0.872618 0.828962
0.641001 0.858793 0.814725
0.796902 0.909834 0.865003
0.941054 0.936889 0.896223
0.959976 0.938643 0.898711
