bundles/resolve-cinematic-luts/Phantom Luts/Ursa G2 Phntm Film LUTs - V1/Gen5/White Balance Offset (+Magenta Boost)/Ursa Vision Gen5 WBO.cube
TITLE "Generated by Resolve"
LUT_3D_SIZE 5
0.0221866 0.0273747 0.0221866
0.0848402 0.0299687 0.0205539
0.516579 0.024033 0.0376593
0.665309 0.0466468 0.11899
0.669032 0.0453651 0.116304
0.0342412 0.121477 0.0568551
0.0717479 0.127993 0.0459449
0.558236 0.0562905 0.0396582
0.655329 0.0333562 0.0727092
0.656611 0.0323033 0.0639048
0.201343 0.692073 0.423667
0.210224 0.686076 0.399588
0.52163 0.698116 0.242023
0.817533 0.63505 0.147478
0.80499 0.580209 0.164385
0.303227 0.829679 0.575097
0.321782 0.812558 0.499657
0.501091 0.805127 0.421286
0.820951 0.809033 0.273152
0.834669 0.8094 0.266377
0.284047 0.834211 0.591897
0.322225 0.812436 0.499825
0.358419 0.803983 0.444465
0.743862 0.825193 0.307179
0.834806 0.809445 0.265293
0.0300298 0.0343481 0.114504
0.132845 0.0355077 0.0938888
0.59115 0.0407111 0.132479
0.66775 0.0459144 0.116686
0.669841 0.0450294 0.117433
0.0253605 0.102831 0.0877699
0.100328 0.110124 0.0992294
0.543343 0.0287938 0.0403601
0.657877 0.034699 0.0838483
0.658839 0.0324865 0.0736248
0.112123 0.663859 0.479088
0.173419 0.660761 0.40412
0.517433 0.675258 0.220386
0.804608 0.577935 0.16556
0.793744 0.541115 0.164721
0.251164 0.845243 0.66569
0.284886 0.832334 0.585611
0.43061 0.802899 0.427512
0.816205 0.808972 0.27509
0.834669 0.80943 0.266743
0.252399 0.846769 0.670741
0.277928 0.834882 0.598306
0.332403 0.807584 0.472206
0.704829 0.824628 0.326955
0.834821 0.809461 0.265095
0.156603 0.0744945 0.536248
0.317662 0.0656138 0.50695
0.672145 0.101457 0.560754
0.724514 0.112947 0.618814
0.701488 0.110628 0.501457
0.0851911 0.0711528 0.510109
0.205737 0.0591287 0.51487
0.643168 0.0940719 0.530373
0.719768 0.130526 0.58053
0.687495 0.100267 0.439704
0.0396277 0.635889 0.654749
0.0377356 0.625345 0.645243
0.663325 0.653254 0.639506
0.831693 0.582956 0.543313
0.783841 0.519158 0.362997
0.379339 0.867094 0.829816
0.285542 0.866636 0.815442
0.427405 0.850965 0.706935
0.823682 0.842756 0.532967
0.834318 0.810117 0.275441
0.45182 0.869398 0.828504
0.378378 0.865736 0.806485
0.262119 0.842527 0.649226
0.705211 0.832151 0.414405
0.834806 0.809445 0.265232
0.531334 0.138262 0.703761
0.590555 0.156252 0.711788
0.774182 0.187304 0.74435
0.758572 0.147723 0.721386
0.779751 0.187472 0.746227
0.494514 0.128557 0.695155
0.518517 0.124605 0.689677
0.753368 0.171084 0.734249
0.754253 0.14345 0.717098
0.754818 0.143816 0.717449
0.0869001 0.599466 0.861204
0.16585 0.583383 0.867155
0.75938 0.565957 0.864088
0.864805 0.533242 0.847211
0.844999 0.432212 0.824613
0.495766 0.871015 0.879057
0.458061 0.86775 0.877668
0.556603 0.866682 0.869749
0.874907 0.904814 0.887633
0.888212 0.895567 0.872892
0.640177 0.887617 0.880873
0.628 0.885695 0.877424
0.58851 0.8804 0.865019
0.832776 0.921813 0.88188
0.892943 0.927672 0.88513
0.634882 0.235996 0.764065
0.68925 0.263081 0.769711
0.814328 0.297627 0.789136
0.788449 0.214832 0.757656
0.788449 0.214832 0.757656
0.598505 0.215686 0.757671
0.643732 0.240986 0.765377
0.808255 0.293507 0.787686
0.788449 0.214832 0.757656
0.788449 0.214832 0.757656
0.561715 0.595987 0.880339
0.586023 0.559045 0.881224
0.795789 0.545403 0.848539
0.86302 0.524453 0.845151
0.847562 0.446525 0.827893
0.629602 0.87837 0.893217
0.618402 0.873518 0.893706
0.646113 0.867765 0.897078
0.877653 0.886992 0.913191
0.892393 0.87689 0.909361
0.709209 0.8972 0.893614
0.709209 0.8972 0.893614
0.709209 0.8972 0.893614
0.852384 0.928695 0.910567
0.900038 0.936858 0.919524
