bundles/resolve-cinematic-luts/Phantom Luts/Ursa G2 Phntm Film LUTs - V1/Gen5/White Balance Offset (+Magenta Boost)/Ursa VisionTeal Gen5 WBO.cube
TITLE "Generated by Resolve"
LUT_3D_SIZE 33
0.0222477 0.0297856 0.0280156
0.0222477 0.0297856 0.0280156
0.0222477 0.0297856 0.0280156
0.0222324 0.0297246 0.0281987
0.0222324 0.0297398 0.029099
0.0297551 0.0294499 0.0296941
0.0428779 0.0285191 0.029633
0.0649882 0.0263676 0.0288243
0.0922408 0.024506 0.027451
0.128054 0.0222477 0.0258183
0.183398 0.018265 0.0233463
0.238315 0.0153201 0.0206302
0.293843 0.0135805 0.01944
0.346349 0.0123903 0.0203555
0.402014 0.0121157 0.0238041
0.45771 0.0121157 0.0308232
0.511559 0.0132448 0.0384985
0.569482 0.0171054 0.050782
0.616693 0.0215763 0.0603647
0.639368 0.0248417 0.0733196
0.645579 0.0264744 0.084062
0.64744 0.0283207 0.0993973
0.653635 0.0344396 0.120455
0.656504 0.0380102 0.131075
0.656519 0.0380255 0.130953
0.656535 0.0380255 0.130892
0.656504 0.0380102 0.131029
0.656489 0.0380102 0.131106
0.656733 0.0380865 0.131655
0.657008 0.0381628 0.132723
0.657359 0.0383154 0.134813
0.657664 0.0384527 0.137118
0.658152 0.038529 0.13817
0.0222324 0.0297246 0.027924
0.0222324 0.0297704 0.027985
0.0222477 0.0297704 0.0280003
0.0222324 0.0297551 0.0282139
0.0222324 0.029633 0.0289158
0.0287785 0.0296483 0.0298161
0.042237 0.028809 0.0300755
0.0648661 0.0266117 0.0290532
0.0957656 0.0246433 0.0276188
0.131991 0.0222629 0.0264439
0.184802 0.0185245 0.0239414
0.240146 0.0155337 0.0213169
0.294697 0.0133211 0.0200809
0.346761 0.0123903 0.020264
0.400748 0.0121767 0.0220493
0.455406 0.0120851 0.0283055
0.513405 0.0133669 0.0381018
0.572045 0.0169985 0.050782
0.617273 0.0216831 0.059678
0.639994 0.0249943 0.0734569
0.645624 0.0265049 0.0843977
0.647501 0.0284123 0.10013
0.653819 0.0345769 0.119997
0.656596 0.0380407 0.130617
0.656626 0.038056 0.130526
0.65658 0.0380255 0.130632
0.656535 0.0380102 0.130877
0.656703 0.0380865 0.13022
0.656931 0.0381781 0.130663
0.657191 0.0382849 0.131853
0.657298 0.0381323 0.133532
0.657359 0.0378882 0.134325
0.658274 0.0384833 0.136538
0.0222324 0.0298314 0.0279393
0.0222477 0.0298924 0.027985
0.0222477 0.0299229 0.0280156
0.0222324 0.0297093 0.0278325
0.0222324 0.0298009 0.0284581
0.0266423 0.0304417 0.0296941
0.0409857 0.030457 0.0300145
0.0661173 0.0275425 0.0284733
0.0935683 0.0251926 0.0283818
0.12871 0.0227054 0.0273289
0.181277 0.0188907 0.0245823
0.238239 0.0157473 0.0223392
0.293858 0.0135042 0.0209354
0.347555 0.0124056 0.0213474
0.399008 0.0121309 0.0208591
0.45452 0.0120546 0.0270237
0.512917 0.013138 0.0342718
0.569207 0.016968 0.0469368
0.617273 0.0216068 0.0587778
0.640558 0.0250401 0.0735943
0.645655 0.0264897 0.0839704
0.647288 0.0280156 0.0965133
0.654108 0.0348974 0.119738
0.656931 0.0381781 0.128923
0.656748 0.0381018 0.129961
0.656764 0.0381018 0.129793
0.656855 0.0381476 0.129305
0.656947 0.0382086 0.128695
0.657115 0.0382696 0.12932
0.656794 0.0376898 0.129305
0.656199 0.0365911 0.128878
0.656825 0.0369573 0.130938
0.658137 0.0381628 0.13434
0.0222934 0.0352636 0.0288243
0.0223697 0.0347753 0.0288396
0.0225528 0.0335546 0.0282139
0.0225376 0.0338445 0.0282292
0.0223697 0.0345464 0.0287327
0.0280461 0.0343328 0.0303807
0.0406043 0.0338445 0.0307469
0.0655833 0.0302586 0.028687
0.0949874 0.0264897 0.0273289
0.131212 0.0238804 0.0268406
0.183993 0.0191806 0.0248264
0.239353 0.0157626 0.0229343
0.294011 0.013611 0.0212406
0.346059 0.0124361 0.0222477
0.39855 0.0121309 0.022385
0.454459 0.0120546 0.0265965
0.511025 0.0130312 0.031632
0.567529 0.0167544 0.0444648
0.617014 0.0214542 0.0568551
0.640024 0.024918 0.0724804
0.645594 0.0264134 0.0833448
0.647089 0.0275273 0.0941176
0.65391 0.0344396 0.11664
0.655161 0.0361639 0.124254
0.657359 0.0383917 0.127108
0.657115 0.0382849 0.127916
0.657145 0.0382849 0.127733
0.65716 0.0383001 0.127398
0.655741 0.0364233 0.1243
0.655009 0.0353857 0.123445
0.655451 0.0354162 0.124559
0.656352 0.0360571 0.127642
0.656321 0.0355688 0.127596
0.0222171 0.0431067 0.0309758
0.0222324 0.0427253 0.0308537
0.0222934 0.0416571 0.0293584
0.0223545 0.0405432 0.0294499
0.0222782 0.0415961 0.0302892
0.0295567 0.0412299 0.0314031
0.0425422 0.0402838 0.0314183
0.0653391 0.0372625 0.0310826
0.0966964 0.0338445 0.0292515
0.134997 0.0277714 0.0269474
0.187564 0.020676 0.0237583
0.2439 0.0170748 0.022385
0.295323 0.0140078 0.0220951
0.345739 0.0124514 0.0229648
0.399588 0.012192 0.0225681
0.4542 0.0119936 0.0249332
0.509575 0.0130007 0.0307774
0.56556 0.0165713 0.0414588
0.616892 0.0214237 0.056199
0.640635 0.0251469 0.0737621
0.645319 0.0265049 0.0838331
0.646799 0.0276493 0.0945602
0.647745 0.0287022 0.105425
0.653956 0.0349279 0.120424
0.656199 0.0374762 0.123949
0.657481 0.0387427 0.126131
0.655482 0.0365911 0.122972
0.653956 0.034638 0.119509
0.652476 0.0323339 0.11548
0.652491 0.0319982 0.11635
0.653956 0.0331273 0.11931
0.654276 0.0330816 0.119982
0.653391 0.0316777 0.118914
0.0214084 0.0531472 0.0333867
0.0214389 0.0528115 0.0332647
0.0215 0.051667 0.0322271
0.0218204 0.0496681 0.030457
0.0217746 0.0497444 0.0317998
0.0293736 0.0514687 0.032929
0.0432593 0.0506142 0.0337224
0.0675364 0.0465858 0.0325322
0.0996262 0.0427558 0.0320439
0.13959 0.0389105 0.0294804
0.193622 0.0329595 0.026215
0.248951 0.0247501 0.0239719
0.301137 0.0180056 0.0226291
0.350637 0.0152743 0.0222324
0.399741 0.0121614 0.0215763
0.452796 0.0119783 0.0247501
0.509255 0.0137026 0.0298924
0.566674 0.017731 0.0380102
0.615457 0.0209049 0.0526131
0.64152 0.0248875 0.0716564
0.645472 0.0262303 0.0823682
0.646998 0.0272984 0.0917678
0.647044 0.0269322 0.0998398
0.651743 0.0315251 0.112459
0.654124 0.0341192 0.116762
0.65391 0.0337987 0.115938
0.651301 0.0311284 0.111391
0.648737 0.0287938 0.10695
0.647852 0.0279545 0.10518
0.649653 0.0294041 0.108309
0.650523 0.0299229 0.109789
0.650263 0.0291905 0.109682
0.649042 0.0274662 0.107256
0.0207218 0.0709239 0.0381781
0.0207218 0.0701915 0.0377966
0.0207675 0.069337 0.0373541
0.0210422 0.0672923 0.035462
0.0209964 0.0656748 0.0322271
0.0264897 0.0670939 0.0352636
0.0403143 0.0690318 0.0372473
0.0637827 0.0671092 0.0336919
0.103258 0.0597391 0.0354467
0.148867 0.0529641 0.032517
0.208499 0.045716 0.0284123
0.264393 0.0400702 0.0255131
0.314488 0.0343633 0.0255131
0.362142 0.0252384 0.0244755
0.408698 0.0172427 0.0230259
0.458335 0.0150149 0.0247807
0.510857 0.0165255 0.029633
0.566445 0.0204776 0.0370489
0.616754 0.0223697 0.0470893
0.642725 0.0247349 0.0673686
0.645335 0.0257267 0.0772106
0.646738 0.0267185 0.0868849
0.647868 0.0276341 0.0959182
0.647974 0.0276646 0.100252
0.648814 0.028336 0.102251
0.648081 0.0276646 0.0996719
0.648066 0.0276493 0.0992905
0.648127 0.0276188 0.0985885
0.648142 0.0276341 0.09897
0.648341 0.0277714 0.0990616
0.648356 0.0275273 0.0987869
0.648554 0.027451 0.098436
0.648814 0.0273594 0.0981003
0.0201419 0.0937972 0.0440986
0.0201419 0.09337 0.043473
0.0201572 0.0928664 0.0436561
0.0200046 0.0910201 0.0407568
0.0203861 0.0881666 0.0379034
0.0203098 0.0880751 0.0347601
0.0348821 0.0907912 0.040589
0.0596017 0.0927291 0.0417639
0.0936141 0.0903182 0.0344701
0.146639 0.0831311 0.0381781
0.222629 0.0653849 0.0332189
0.279667 0.0593423 0.0318608
0.335103 0.0518654 0.0304112
0.38677 0.0440528 0.0290532
0.432502 0.0337987 0.0269474
0.474479 0.0222477 0.0254826
0.522469 0.0213169 0.0306706
0.575982 0.0240024 0.0385138
0.622141 0.0260319 0.0483864
0.644678 0.0241093 0.0556191
0.64506 0.0252842 0.0724498
0.646616 0.0263676 0.0813458
0.647944 0.0273289 0.0902876
0.648325 0.0275578 0.094316
0.648417 0.0275731 0.0947738
0.648417 0.0275578 0.0943923
0.648417 0.0275425 0.0941939
0.648478 0.0275273 0.0933852
0.648539 0.0274968 0.0919966
0.648554 0.0274815 0.0921645
0.648615 0.0273899 0.0916457
0.648753 0.0273136 0.0916915
0.648951 0.0271763 0.0915541
0.0217746 0.124544 0.0511025
0.0213626 0.123644 0.0504005
0.0207065 0.123049 0.0504616
0.0202792 0.121614 0.0496834
0.0206149 0.118517 0.0460822
0.0213931 0.115145 0.0407721
0.0221256 0.116655 0.0396735
0.0480659 0.121294 0.0478981
0.0870069 0.123903 0.0470283
0.133776 0.120943 0.0363165
0.209918 0.114519 0.0407111
0.302373 0.0901961 0.0393225
0.360052 0.0856641 0.0385748
0.413077 0.0804608 0.0383307
0.466194 0.0725414 0.0379644
0.513481 0.0585794 0.0368048
0.555611 0.0385443 0.0352941
0.600519 0.0325933 0.0428321
0.631785 0.0312657 0.0497292
0.651392 0.0305028 0.0557107
0.646983 0.0247196 0.0587625
0.645945 0.0255894 0.073518
0.647486 0.0265507 0.0826276
0.64802 0.0269932 0.0869154
0.648157 0.0270542 0.0872969
0.648112 0.0269932 0.0867323
0.648051 0.0269017 0.0856947
0.648005 0.0267948 0.0843671
0.647929 0.026688 0.0834516
0.648142 0.0265965 0.0823072
0.647974 0.0264897 0.0817884
0.647959 0.0263066 0.0804913
0.648127 0.0260929 0.0796979
0.0218967 0.168811 0.055436
0.0216831 0.168521 0.0538796
0.0206302 0.167285 0.0537728
0.0204471 0.165743 0.0538796
0.0208286 0.162661 0.0521248
0.0215915 0.157183 0.0485237
0.0265049 0.154849 0.0457313
0.0303044 0.157412 0.0463722
0.065156 0.168338 0.0522469
0.118502 0.175982 0.0511177
0.197696 0.171725 0.0383001
0.289204 0.173419 0.0468452
0.386908 0.148943 0.0583505
0.454398 0.139147 0.0572824
0.508171 0.136461 0.0581674
0.561074 0.127214 0.0599069
0.610971 0.11313 0.0618601
0.649866 0.0917067 0.0623941
0.669352 0.0637675 0.0611887
0.666972 0.0439918 0.0605783
0.658671 0.0361639 0.0573281
0.649073 0.0250858 0.0598459
0.646479 0.0253605 0.0692912
0.647364 0.0260777 0.0759442
0.647501 0.026154 0.0762646
0.647623 0.0260929 0.0755779
0.647654 0.0259861 0.0737163
0.64744 0.0257267 0.0716106
0.64744 0.0255589 0.0693675
0.647318 0.02533 0.0680552
0.647059 0.0250706 0.0663462
0.647028 0.024979 0.0670787
0.649241 0.0251621 0.0669413
0.0356298 0.235721 0.0769207
0.0353246 0.235355 0.074815
0.0338445 0.234195 0.0743267
0.0331884 0.233112 0.0742504
0.032105 0.230777 0.0728008
0.0321813 0.224674 0.068452
0.0314641 0.216495 0.0603037
0.032929 0.216022 0.0530404
0.0443275 0.223499 0.0576791
0.0987716 0.241032 0.0690013
0.176349 0.247944 0.0634623
0.271611 0.24097 0.0442206
0.36791 0.247196 0.0484627
0.447547 0.238804 0.0670939
0.530495 0.214908 0.0729076
0.591836 0.207294 0.0745251
0.647364 0.20061 0.0794995
0.696422 0.186954 0.0864424
0.727184 0.165133 0.090486
0.7252 0.125124 0.0846113
0.702251 0.090959 0.0777905
0.675166 0.0544289 0.0655985
0.651743 0.0255131 0.0562753
0.646922 0.0249332 0.0616159
0.646906 0.0249027 0.0603494
0.646845 0.0248264 0.0592813
0.646769 0.0247654 0.0575723
0.649973 0.0248875 0.0558633
0.652201 0.0265965 0.0564431
0.652277 0.026276 0.0563821
0.654612 0.0279393 0.0567636
0.654612 0.0276188 0.0566262
0.656153 0.0283665 0.0568551
0.0524605 0.313771 0.105089
0.0518959 0.314397 0.103365
0.0510109 0.314351 0.102983
0.0499428 0.312444 0.102312
0.0490272 0.310765 0.101778
0.0494545 0.308324 0.0999619
0.0488289 0.300542 0.0923629
0.0504005 0.296605 0.0843366
0.0523995 0.294545 0.0737469
0.0765393 0.304036 0.0789349
0.147143 0.317327 0.0883192
0.245518 0.321416 0.0731823
0.349554 0.3149 0.0539254
0.441428 0.324315 0.0526894
0.512184 0.329229 0.0699474
0.592798 0.3093 0.0935378
0.667338 0.29395 0.1037
0.720485 0.284672 0.108141
0.752667 0.271015 0.109682
0.758602 0.252247 0.106569
0.752285 0.21854 0.100618
0.738354 0.156909 0.0917372
0.715328 0.117937 0.0896773
0.673548 0.0500496 0.0616465
0.666789 0.0422827 0.0582895
0.668711 0.0425422 0.0588998
0.669917 0.0424811 0.0592813
0.67042 0.0420539 0.0594949
0.66981 0.0416419 0.0593423
0.686152 0.0703288 0.0754406
0.703777 0.105135 0.0885481
0.717861 0.12604 0.0950027
0.720882 0.127657 0.0945602
0.0718547 0.394491 0.14313
0.0721294 0.39556 0.141238
0.0721294 0.395529 0.139513
0.0712902 0.394598 0.139223
0.0704204 0.393286 0.138903
0.0695811 0.390875 0.137301
0.0705577 0.386679 0.132677
0.0711986 0.378988 0.123384
0.0743877 0.37789 0.112947
0.0773632 0.37258 0.0945907
0.115801 0.384283 0.103044
0.222919 0.388449 0.109422
0.318379 0.392752 0.0836652
0.41857 0.385336 0.069337
0.509331 0.396994 0.0624704
0.575769 0.408164 0.074464
0.646876 0.405768 0.104005
0.714015 0.390066 0.133318
0.758663 0.380514 0.145983
0.771328 0.36083 0.140795
0.769284 0.339086 0.132509
0.766781 0.315022 0.124269
0.760128 0.270283 0.110887
0.746868 0.191852 0.0969558
0.741344 0.166812 0.0939651
0.739376 0.162249 0.0939956
0.738613 0.160433 0.0958419
0.741405 0.170825 0.0980697
0.744625 0.188159 0.0999008
0.748012 0.203616 0.0996872
0.752529 0.218357 0.101137
0.753811 0.22678 0.102083
0.756054 0.241184 0.104601
0.0921645 0.476188 0.198169
0.0935225 0.476249 0.19527
0.0948653 0.476631 0.191562
0.094255 0.476219 0.191424
0.09308 0.474968 0.190555
0.0922408 0.473838 0.190021
0.0917372 0.471305 0.18819
0.0937362 0.464714 0.177188
0.0965286 0.458366 0.164614
0.101579 0.458488 0.147448
0.114397 0.452186 0.121752
0.175799 0.457862 0.129244
0.311254 0.454307 0.13312
0.388312 0.459968 0.0961471
0.483558 0.452918 0.0911269
0.572 0.466392 0.0807965
0.639536 0.480262 0.0888228
0.700313 0.488563 0.114214
0.747906 0.488762 0.141268
0.779797 0.47657 0.162051
0.777554 0.448615 0.16466
0.773877 0.428305 0.164202
0.772564 0.407919 0.160174
0.771588 0.37583 0.14638
0.770382 0.356298 0.138811
0.769879 0.347951 0.135622
0.769284 0.341802 0.133364
0.768856 0.336782 0.131975
0.768109 0.331533 0.130144
0.76817 0.335622 0.131426
0.769512 0.347036 0.135576
0.771038 0.35848 0.140932
0.772168 0.373907 0.147662
0.105653 0.556848 0.255253
0.110597 0.557168 0.253559
0.113451 0.55668 0.249119
0.114488 0.556222 0.247349
0.113558 0.555825 0.247364
0.113069 0.554543 0.247211
0.11223 0.552193 0.245228
0.113207 0.548424 0.23975
0.118349 0.540749 0.227466
0.125216 0.535637 0.212863
0.133379 0.533104 0.188678
0.169421 0.524468 0.155795
0.25919 0.520928 0.160479
0.391974 0.518318 0.148821
0.453178 0.525505 0.113603
0.541588 0.517601 0.113634
0.631769 0.534951 0.103746
0.700954 0.549722 0.108537
0.750011 0.564736 0.122866
0.781567 0.570428 0.1449
0.797803 0.561212 0.161868
0.794507 0.539544 0.163684
0.789975 0.518273 0.16408
0.786038 0.495979 0.164202
0.7823 0.479469 0.163897
0.78204 0.475013 0.164065
0.781872 0.47248 0.164324
0.780667 0.468681 0.163455
0.780484 0.465385 0.163134
0.779248 0.46067 0.162142
0.777783 0.454002 0.162127
0.778759 0.457969 0.160967
0.780591 0.466361 0.161975
0.110948 0.636439 0.310414
0.115846 0.636118 0.305974
0.128801 0.635493 0.306371
0.137926 0.635035 0.304891
0.136767 0.63418 0.304067
0.135744 0.632837 0.303838
0.135286 0.631617 0.303197
0.134127 0.629297 0.300511
0.140536 0.622461 0.290745
0.147829 0.612619 0.274525
0.162188 0.60766 0.255375
0.181109 0.599115 0.218799
0.238148 0.588022 0.195743
0.348119 0.579568 0.196506
0.459113 0.58117 0.167941
0.51429 0.58938 0.135882
0.597986 0.581811 0.139788
0.684077 0.603967 0.132067
0.748638 0.618982 0.134783
0.785901 0.632456 0.14464
0.811261 0.639857 0.153368
0.815457 0.634867 0.157046
0.811856 0.620081 0.160037
0.807263 0.601678 0.16141
0.803647 0.58265 0.160082
0.803143 0.577905 0.16083
0.80238 0.57583 0.160876
0.801373 0.573251 0.160647
0.801495 0.570443 0.16202
0.799924 0.566079 0.162081
0.798825 0.559762 0.162539
0.797177 0.551644 0.162661
0.797131 0.548501 0.163577
0.134813 0.714015 0.373907
0.137972 0.713924 0.368704
0.141115 0.713542 0.362676
0.149676 0.712474 0.358953
0.158206 0.71133 0.358495
0.156725 0.710491 0.357458
0.155444 0.709209 0.356512
0.155047 0.70779 0.35552
0.158389 0.704204 0.353216
0.175296 0.693843 0.33901
0.188769 0.682277 0.319081
0.210071 0.676356 0.29189
0.236973 0.661677 0.241901
0.313146 0.646006 0.229999
0.435492 0.637583 0.22771
0.517769 0.643503 0.199649
0.575631 0.654582 0.169894
0.651881 0.653513 0.177417
0.726314 0.669367 0.170245
0.773907 0.686046 0.178668
0.806943 0.696376 0.183688
0.823621 0.699931 0.187716
0.824598 0.695689 0.186114
0.823667 0.687816 0.182055
0.821653 0.675837 0.174136
0.820935 0.667781 0.169116
0.821042 0.665385 0.168719
0.821118 0.664012 0.168048
0.820264 0.661967 0.166567
0.819715 0.658259 0.165438
0.819394 0.653925 0.164218
0.817151 0.644938 0.161212
0.815381 0.63386 0.159075
0.163287 0.78027 0.432425
0.166308 0.779538 0.426184
0.170001 0.778607 0.420417
0.173938 0.777935 0.414298
0.179217 0.777035 0.407904
0.178851 0.776211 0.407263
0.177615 0.775891 0.406989
0.175982 0.774304 0.405631
0.175235 0.772686 0.403586
0.198199 0.765591 0.399298
0.216922 0.753506 0.379675
0.234821 0.742916 0.355108
0.260349 0.732738 0.317143
0.310613 0.710704 0.27039
0.40824 0.693111 0.260121
0.515846 0.691234 0.255711
0.576638 0.701839 0.232456
0.635035 0.715312 0.211292
0.702068 0.722866 0.218387
0.754192 0.726314 0.221912
0.78883 0.740276 0.225742
0.817182 0.748623 0.228946
0.824842 0.748867 0.22771
0.825177 0.746761 0.224979
0.825956 0.742611 0.221805
0.825376 0.737316 0.216129
0.826108 0.734691 0.214527
0.825971 0.733364 0.213489
0.825116 0.731365 0.211063
0.825727 0.728328 0.208972
0.825147 0.724392 0.205219
0.825086 0.717922 0.200488
0.825452 0.709346 0.19321
0.198871 0.828473 0.484169
0.199313 0.828321 0.477546
0.203601 0.827146 0.47126
0.207797 0.826078 0.465049
0.212314 0.824979 0.457664
0.214343 0.823697 0.4533
0.213046 0.822797 0.452705
0.211749 0.821653 0.451698
0.210651 0.820752 0.450172
0.21004 0.819089 0.447227
0.23888 0.809277 0.436454
0.257359 0.796719 0.411414
0.280247 0.783444 0.375357
0.313207 0.767315 0.325246
0.401968 0.738949 0.290776
0.50515 0.730907 0.288121
0.5841 0.737301 0.27425
0.632319 0.749172 0.261616
0.689998 0.762112 0.246448
0.747311 0.774395 0.254688
0.774395 0.76817 0.263462
0.804639 0.775876 0.266163
0.821805 0.780545 0.267659
0.824338 0.779904 0.265217
0.824414 0.778454 0.262913
0.824567 0.776974 0.26096
0.824643 0.775418 0.25864
0.824842 0.774807 0.257877
0.824918 0.773541 0.256352
0.824308 0.772152 0.254337
0.823941 0.769757 0.250797
0.823987 0.766522 0.247364
0.823804 0.762524 0.241016
0.228717 0.858061 0.520775
0.225376 0.85832 0.51429
0.225513 0.857694 0.507652
0.228626 0.855695 0.500404
0.232013 0.853452 0.492393
0.236591 0.851484 0.483925
0.236011 0.851469 0.483803
0.235645 0.85127 0.483574
0.235355 0.850813 0.483162
0.235401 0.850324 0.482216
0.237858 0.846448 0.472648
0.270207 0.833371 0.45478
0.294606 0.818143 0.421057
0.323873 0.801022 0.371649
0.389013 0.775906 0.32137
0.504875 0.755734 0.307881
0.58088 0.757626 0.303868
0.632807 0.768109 0.291386
0.679713 0.77998 0.280613
0.733959 0.791394 0.272511
0.771572 0.7991 0.282155
0.791241 0.790021 0.290227
0.815076 0.795102 0.294209
0.823789 0.796811 0.292607
0.824674 0.796109 0.291432
0.824979 0.795636 0.289097
0.824765 0.795132 0.287648
0.824552 0.794522 0.287007
0.824613 0.793942 0.286549
0.824857 0.79321 0.285435
0.825193 0.792187 0.283818
0.824979 0.79086 0.281697
0.82446 0.788464 0.278065
0.232929 0.86978 0.541146
0.236622 0.867842 0.534142
0.230884 0.868574 0.527413
0.230304 0.867872 0.519905
0.233539 0.864134 0.510033
0.237781 0.860075 0.499016
0.239017 0.858991 0.495293
0.238911 0.859022 0.495308
0.238926 0.859052 0.495277
0.238987 0.859007 0.495171
0.24036 0.857954 0.492226
0.259998 0.8486 0.475608
0.290181 0.834028 0.447303
0.318669 0.812772 0.396597
0.363317 0.788968 0.339284
0.485801 0.763333 0.312627
0.576288 0.761456 0.310643
0.626047 0.76936 0.296574
0.666362 0.778759 0.287205
0.711849 0.788968 0.278874
0.759167 0.800107 0.276921
0.780407 0.795407 0.291127
0.803769 0.794263 0.294408
0.821057 0.799603 0.299245
0.824887 0.801312 0.301289
0.824887 0.801328 0.300984
0.824857 0.801297 0.300465
0.824842 0.801312 0.300465
0.824826 0.801328 0.300389
0.824842 0.801328 0.300313
0.824872 0.801328 0.30016
0.824948 0.801343 0.299763
0.824826 0.800443 0.297459
0.229297 0.871366 0.549157
0.233219 0.869474 0.542046
0.237064 0.867521 0.534325
0.232685 0.867872 0.526741
0.23183 0.865812 0.515755
0.237522 0.860487 0.502678
0.241016 0.857786 0.494255
0.240757 0.857877 0.494453
0.240696 0.857923 0.494606
0.240635 0.857954 0.494697
0.241215 0.857664 0.493767
0.245274 0.852247 0.47924
0.284535 0.837736 0.45716
0.314656 0.817243 0.411505
0.354665 0.793713 0.354208
0.454932 0.767681 0.316609
0.572931 0.760082 0.310948
0.622843 0.767712 0.296742
0.658686 0.776806 0.289647
0.699886 0.786236 0.280919
0.742229 0.795758 0.276493
0.772854 0.800259 0.285374
0.794491 0.791089 0.293828
0.814328 0.797406 0.296818
0.823346 0.80032 0.299397
0.824964 0.801114 0.300984
0.824826 0.801068 0.302922
0.824781 0.801114 0.303609
0.82475 0.801144 0.30367
0.824659 0.801175 0.303731
0.824613 0.80116 0.303822
0.824598 0.80119 0.303807
0.824674 0.801236 0.303349
0.229023 0.872709 0.553017
0.232822 0.870634 0.545586
0.236576 0.868482 0.537331
0.238331 0.867018 0.528862
0.231205 0.866621 0.51751
0.238117 0.860059 0.50106
0.24358 0.854749 0.486381
0.243549 0.854765 0.486305
0.243336 0.854994 0.486839
0.243107 0.855238 0.487343
0.242939 0.855467 0.4878
0.24509 0.85243 0.479454
0.281178 0.839521 0.461082
0.312886 0.820996 0.420813
0.346639 0.797452 0.36405
0.434974 0.771191 0.320592
0.562844 0.760174 0.312993
0.620523 0.76733 0.297673
0.652964 0.775204 0.290776
0.688701 0.783642 0.28217
0.726024 0.791928 0.276753
0.759884 0.7991 0.277684
0.784543 0.790204 0.292103
0.806577 0.7953 0.295171
0.821057 0.799558 0.298665
0.824567 0.801068 0.300023
0.824506 0.801053 0.30045
0.824475 0.801083 0.301015
0.824399 0.801068 0.301457
0.824369 0.801099 0.301564
0.824323 0.801114 0.301732
0.824292 0.801099 0.302083
0.824277 0.801083 0.302586
0.238163 0.872038 0.552132
0.241062 0.86949 0.54374
0.240879 0.867872 0.534249
0.238743 0.866819 0.523751
0.237934 0.862684 0.508965
0.243641 0.856153 0.490013
0.268406 0.84596 0.474617
0.270634 0.844572 0.471031
0.269139 0.845411 0.472694
0.268223 0.845884 0.474174
0.264714 0.846967 0.47541
0.267979 0.845914 0.474235
0.287724 0.836896 0.455665
0.314397 0.820859 0.420905
0.343801 0.799069 0.367864
0.423331 0.773388 0.323629
0.548333 0.76054 0.313451
0.617166 0.767086 0.299184
0.648814 0.774487 0.291752
0.678462 0.781872 0.285344
0.710185 0.788495 0.278691
0.748531 0.797131 0.276158
0.779568 0.796872 0.290211
0.799588 0.792859 0.293797
0.816312 0.79794 0.296468
0.823468 0.800671 0.298863
0.824643 0.801282 0.29958
0.824567 0.801282 0.299657
0.824491 0.801297 0.299733
0.824445 0.801297 0.299763
0.824414 0.801312 0.29984
0.824384 0.801297 0.299992
0.824338 0.801282 0.300237
0.244633 0.871397 0.550454
0.247501 0.868421 0.540398
0.245411 0.867308 0.530098
0.243778 0.864851 0.517052
0.247028 0.85774 0.497856
0.262745 0.848753 0.477989
0.2878 0.837263 0.45687
0.294438 0.832837 0.447395
0.293584 0.833371 0.448295
0.292409 0.834089 0.4495
0.291417 0.834791 0.450919
0.290059 0.835508 0.452735
0.302861 0.827375 0.437034
0.320378 0.814755 0.406683
0.346838 0.797436 0.36228
0.420768 0.773999 0.323476
0.539345 0.760449 0.312673
0.613519 0.766766 0.300755
0.645304 0.77348 0.29276
0.669123 0.779324 0.28661
0.697963 0.786007 0.281224
0.73608 0.7944 0.27538
0.773648 0.800656 0.285298
0.792248 0.791699 0.29279
0.811444 0.796719 0.295216
0.822187 0.800336 0.29807
0.824796 0.801434 0.29926
0.824735 0.80145 0.299214
0.824674 0.801465 0.299153
0.824628 0.80148 0.299123
0.824598 0.801495 0.299092
0.824598 0.801495 0.299092
0.824613 0.801465 0.299138
0.241672 0.873533 0.55523
0.245701 0.870481 0.54583
0.248783 0.867491 0.535668
0.24126 0.867201 0.523293
0.245853 0.860227 0.504448
0.250629 0.852277 0.480934
0.283406 0.83949 0.461372
0.294881 0.832471 0.446754
0.294881 0.832471 0.446754
0.294926 0.832425 0.446723
0.294957 0.83241 0.446708
0.294865 0.832456 0.44686
0.304814 0.82594 0.432624
0.323018 0.812009 0.398245
0.349752 0.796262 0.358206
0.417472 0.774655 0.323323
0.532128 0.760311 0.312215
0.607996 0.765911 0.302235
0.638163 0.772244 0.294194
0.657832 0.777218 0.289891
0.684565 0.782803 0.28365
0.725628 0.791928 0.276677
0.769192 0.80267 0.278111
0.785183 0.790661 0.291829
0.805203 0.794873 0.294759
0.819821 0.799435 0.297337
0.824567 0.801328 0.299153
0.82475 0.80145 0.299184
0.824689 0.80148 0.299123
0.824643 0.801495 0.299077
0.824628 0.801511 0.299046
0.824628 0.801511 0.299046
0.824643 0.801495 0.299077
0.239399 0.874907 0.560082
0.243595 0.872175 0.550683
0.246891 0.86894 0.540398
0.241672 0.868254 0.528786
0.243824 0.863142 0.511574
0.249226 0.85507 0.488487
0.278431 0.84184 0.466728
0.294087 0.833234 0.447608
0.294728 0.832624 0.446891
0.29482 0.832532 0.446815
