bundles/resolve-cinematic-luts/Phantom Luts/Ursa G2 Phntm Film LUTs - V1/Gen5/White Balance Offset (+Magenta Boost)/Ursa Vision Gen5-Legacy WBO.cube
TITLE "Generated by Resolve"
LUT_3D_SIZE 5
0.0235904 0.0331731 0.0244907
0.076585 0.0352178 0.0262913
0.503487 0.0275883 0.0415198
0.667399 0.0521859 0.11249
0.670237 0.0496223 0.110414
0.0346075 0.106783 0.0556497
0.0639811 0.109514 0.0451362
0.524422 0.0512856 0.037995
0.649851 0.0325933 0.0719615
0.651225 0.0310063 0.06421
0.215625 0.669429 0.391669
0.220233 0.665248 0.37528
0.487511 0.68275 0.254459
0.80441 0.610803 0.161837
0.787381 0.547021 0.176104
0.30753 0.812924 0.537408
0.316579 0.796872 0.469947
0.470588 0.79443 0.417105
0.8206 0.79852 0.258686
0.825544 0.798856 0.25568
0.308263 0.816373 0.556802
0.317159 0.796658 0.4701
0.345785 0.790417 0.430961
0.738094 0.816007 0.297169
0.825727 0.798871 0.25478
0.0324254 0.0368048 0.0980087
0.114672 0.0399786 0.0862593
0.59205 0.0455024 0.120027
0.668727 0.0499275 0.110323
0.672419 0.0504768 0.111864
0.0274968 0.0935225 0.0786145
0.0860914 0.0970321 0.0865187
0.529335 0.0297704 0.0414435
0.652583 0.0336461 0.0801404
0.653407 0.031632 0.0720226
0.124758 0.63299 0.42948
0.184314 0.628794 0.367224
0.475135 0.655848 0.23183
0.785992 0.54403 0.174807
0.772686 0.504189 0.167346
0.257633 0.82887 0.624628
0.305821 0.814847 0.55021
0.403357 0.791424 0.420691
0.817716 0.798413 0.259907
0.825528 0.798871 0.255909
0.258869 0.829572 0.629435
0.302922 0.817044 0.562158
0.327489 0.793286 0.45211
0.685802 0.815015 0.324102
0.825757 0.798886 0.254597
0.137575 0.078645 0.521782
0.272068 0.0643626 0.488746
0.676616 0.124773 0.545312
0.723079 0.121996 0.615198
0.692149 0.104341 0.467597
0.0825971 0.0706645 0.484703
0.171969 0.0602579 0.500755
0.638285 0.113954 0.506645
0.713817 0.142031 0.560327
0.686503 0.108598 0.409232
0.0433051 0.599039 0.611475
0.042359 0.586252 0.600244
0.623575 0.606668 0.596246
0.811872 0.533532 0.490089
0.764584 0.464149 0.319066
0.327001 0.857008 0.833982
0.245548 0.856352 0.812558
0.393118 0.837003 0.674159
0.819684 0.82501 0.474296
0.824826 0.799191 0.262791
0.393881 0.858671 0.833417
0.325032 0.856291 0.804685
0.2645 0.826978 0.608713
0.692927 0.82121 0.387488
0.825742 0.798886 0.254734
0.481041 0.133333 0.694362
0.545525 0.143053 0.697978
0.761212 0.177218 0.727138
0.746731 0.148241 0.709346
0.762081 0.175891 0.726543
0.440513 0.123903 0.68719
0.470619 0.123217 0.684718
0.744732 0.16466 0.718593
0.7449 0.145922 0.70721
0.745037 0.146212 0.707439
0.0929732 0.556176 0.843992
0.155505 0.537667 0.847547
0.737621 0.516594 0.838148
0.843244 0.480842 0.824414
0.821866 0.37792 0.79913
0.438712 0.864454 0.882155
0.402045 0.863401 0.882383
0.502602 0.864225 0.874281
0.871443 0.902922 0.885069
0.877821 0.89366 0.876814
0.597604 0.873426 0.878721
0.583474 0.87219 0.877623
0.541527 0.867613 0.870375
0.824948 0.906996 0.875181
0.879164 0.910689 0.877043
0.581384 0.202304 0.736736
0.647623 0.230579 0.74313
0.791272 0.260655 0.762814
0.769604 0.196612 0.736034
0.769604 0.196612 0.736034
0.541192 0.185046 0.732555
0.591913 0.20734 0.738293
0.790738 0.257084 0.761517
0.769604 0.196612 0.736034
0.769604 0.196612 0.736034
0.511299 0.550225 0.860578
0.535531 0.509026 0.857771
0.787945 0.496452 0.823148
0.841672 0.471443 0.822095
0.82501 0.392248 0.803204
0.587655 0.871366 0.880446
0.575433 0.868482 0.881056
0.606928 0.865354 0.882704
0.873304 0.888304 0.894636
0.87805 0.878187 0.895796
0.677394 0.881819 0.880964
0.677394 0.881819 0.880964
0.677394 0.881819 0.880964
0.850095 0.912642 0.893004
0.880476 0.916747 0.897246
