bundles/resolve-cinematic-luts/Phantom Luts/Ursa G2 Phntm Film LUTs - V1/Gen5/White Balance Offset (+Magenta Boost)/Ursa EastmanRM Gen5 WBO.cube
TITLE "Generated by Resolve"
LUT_3D_SIZE 5
0.0426032 0.0360571 0.0393835
0.129198 0.0302892 0.0354925
0.46479 0.0260166 0.0454566
0.5738 0.034699 0.0775616
0.537194 0.0410315 0.118715
0.0585336 0.114809 0.0546731
0.104601 0.127077 0.0518502
0.490517 0.0328985 0.0490425
0.561074 0.0345464 0.0769207
0.541543 0.0374151 0.0991684
0.0804456 0.567773 0.188861
0.0794995 0.58381 0.204898
0.614755 0.721035 0.181094
0.867613 0.677378 0.294759
0.85597 0.64007 0.268971
0.24567 0.742077 0.457816
0.247227 0.724727 0.386328
0.527169 0.779019 0.31194
0.892821 0.870527 0.458351
0.903807 0.87187 0.479744
0.244465 0.750622 0.485969
0.264302 0.715969 0.343511
0.523934 0.77734 0.290898
0.882628 0.869978 0.437308
0.901625 0.872541 0.486854
0.0417945 0.0419318 0.0674144
0.116045 0.0406348 0.0664378
0.467338 0.0330968 0.0878767
0.552377 0.0379034 0.0990311
0.527626 0.0424811 0.12665
0.0527199 0.105196 0.0776074
0.110811 0.114931 0.0969558
0.493904 0.0358587 0.0741588
0.553735 0.0352483 0.0847028
0.53782 0.0393683 0.110735
0.0645609 0.570779 0.307225
0.0645914 0.574884 0.248295
0.63093 0.705715 0.171145
0.856062 0.634974 0.260914
0.845289 0.597391 0.236774
0.259113 0.767025 0.558419
0.241077 0.746899 0.479698
0.423133 0.736187 0.274311
0.891295 0.870359 0.457374
0.903578 0.871946 0.480629
0.275532 0.778042 0.590555
0.255329 0.748791 0.480751
0.394965 0.725383 0.251911
0.871733 0.873701 0.431479
0.901213 0.872663 0.48838
0.0459907 0.0840467 0.317968
0.15082 0.0626078 0.371771
0.51809 0.0737774 0.365942
0.640131 0.12784 0.424506
0.611673 0.135866 0.460792
0.0416266 0.0851759 0.288014
0.0812695 0.0874952 0.37377
0.525872 0.0814221 0.392065
0.648234 0.125338 0.414527
0.625971 0.13196 0.444526
0.0709392 0.568185 0.475166
0.0627146 0.577676 0.508049
0.681071 0.654902 0.629404
0.899428 0.56376 0.563928
0.891325 0.539239 0.552056
0.340185 0.798535 0.675669
0.311742 0.794598 0.674846
0.484504 0.818814 0.639216
0.895644 0.907561 0.686259
0.90988 0.897353 0.622415
0.503838 0.842451 0.753613
0.454032 0.831373 0.729229
0.503426 0.826963 0.659861
0.869261 0.912825 0.716457
0.905119 0.887434 0.557595
0.196506 0.0844434 0.519371
0.318685 0.0967269 0.539681
0.543465 0.140749 0.578561
0.633768 0.175235 0.609751
0.632197 0.175784 0.611109
0.18822 0.0843366 0.518807
0.278965 0.092134 0.533471
0.548363 0.14345 0.581796
0.637232 0.176379 0.610986
0.632639 0.176684 0.612406
0.051545 0.505272 0.60592
0.0572976 0.513069 0.626017
0.715312 0.565988 0.868498
0.921843 0.577173 0.904875
0.908202 0.550713 0.899992
0.401663 0.815152 0.749447
0.407691 0.817349 0.753277
0.631251 0.864973 0.813703
0.885283 0.918761 0.886183
0.894423 0.920516 0.886778
0.685939 0.885954 0.834318
0.675822 0.883955 0.832135
0.733013 0.896971 0.847166
0.8851 0.933944 0.89337
0.898512 0.937667 0.894118
0.608591 0.249241 0.743084
0.660945 0.273518 0.765362
0.791974 0.332876 0.795422
0.767529 0.290303 0.749096
0.741283 0.264347 0.722744
0.561349 0.231022 0.720394
0.61941 0.255375 0.749538
0.787076 0.33109 0.795056
0.764828 0.28365 0.742947
0.740383 0.264607 0.723003
0.469383 0.547356 0.772671
0.47422 0.532692 0.776364
0.822492 0.594308 0.89929
0.921172 0.596124 0.905028
0.910765 0.579767 0.902937
0.643687 0.865782 0.825956
0.633036 0.863783 0.827802
0.717876 0.881987 0.852522
0.889982 0.916228 0.898543
0.896422 0.91809 0.898741
0.750805 0.901869 0.859113
0.749172 0.901656 0.85951
0.787671 0.91075 0.870939
0.889479 0.936263 0.901259
0.900099 0.939773 0.903456
