bundles/resolve-cinematic-luts/Phantom Luts/Fx6 Phntm ARRI LUTs-G5/Jamaica Fx6.cube
TITLE "Generated by Resolve"
LUT_3D_SIZE 5
0.0137179 0.0323186 0.0137026
0.161608 0.0411841 0.0323491
0.579278 0.0603799 0.136873
0.723033 0.119753 0.313619
0.721096 0.11368 0.328023
0.0191043 0.181003 0.0517281
0.141588 0.155398 0.0343023
0.576211 0.0784772 0.0789349
0.714961 0.136339 0.242451
0.722759 0.1355 0.268208
0.130068 0.694987 0.332235
0.119371 0.682292 0.273442
0.627665 0.633768 0.159121
0.946242 0.592889 0.32755
0.938598 0.562081 0.32079
0.451774 0.998932 0.698085
0.444022 0.998932 0.671351
0.552987 0.998932 0.538918
1 0.99469 0.555001
1 0.998932 0.584039
0.457588 0.998932 0.723125
0.448157 0.998932 0.692149
0.493156 0.998932 0.535134
0.99559 0.991623 0.544427
1 0.998932 0.58558
0.0102388 0.043946 0.0999619
0.155077 0.0397192 0.147616
0.593271 0.0490272 0.231525
0.716548 0.103777 0.353384
0.714229 0.100053 0.361517
0.0311589 0.154757 0.138293
0.121584 0.138918 0.116991
0.56643 0.0669871 0.12697
0.723522 0.12224 0.306798
0.722133 0.116289 0.322164
0.127031 0.687343 0.388663
0.116716 0.676616 0.317556
0.617731 0.624338 0.156161
0.941375 0.570123 0.323232
0.932158 0.536431 0.316915
0.452598 0.998932 0.720409
0.446921 0.998932 0.693324
0.512703 0.998932 0.545876
1 0.994675 0.557809
1 0.998932 0.585855
0.457923 0.998932 0.743526
0.449226 0.998932 0.715343
0.467582 0.998932 0.55639
0.99089 0.990845 0.547234
1 0.998932 0.587793
0.0273747 0.0937819 0.466773
0.172885 0.0597848 0.492638
0.578546 0.0614328 0.560678
0.720745 0.114641 0.514458
0.721416 0.116594 0.522484
0 0.139101 0.420737
0.0325017 0.0872511 0.451591
0.568917 0.0611582 0.542641
0.718242 0.108263 0.487938
0.71931 0.110246 0.495094
0.113588 0.621912 0.582681
0.106416 0.614969 0.567163
0.574823 0.587991 0.530327
0.990539 0.464958 0.500755
0.968658 0.413565 0.478828
0.460487 0.998932 0.821439
0.455894 0.998932 0.803464
0.460716 0.998932 0.681025
0.997269 0.99263 0.612146
1 0.992325 0.611368
0.463828 0.998932 0.837217
0.45771 0.998932 0.818433
0.458457 0.998932 0.700084
0.967361 0.990143 0.593164
1 0.998932 0.617456
0.0898451 0.276371 0.69337
0.149203 0.237568 0.721294
0.545037 0.210346 0.829389
0.69073 0.169451 0.742748
0.689937 0.169757 0.741939
0.0879683 0.287449 0.692638
0.085359 0.267643 0.687266
0.513313 0.20412 0.823331
0.691569 0.168338 0.74107
0.690028 0.169696 0.741924
0.132601 0.536507 0.741176
0.130602 0.522789 0.74136
0.368856 0.457954 0.886259
0.789593 0.264622 0.810391
0.743572 0.215137 0.762524
0.492485 0.974136 0.964996
0.483635 0.973754 0.958373
0.461707 0.964752 0.937514
0.944762 0.955383 0.925872
0.996719 0.947219 0.928969
0.501472 0.973587 0.971511
0.500008 0.976135 0.96846
0.511589 0.99173 0.95761
0.913649 0.996963 0.937407
0.999359 0.991897 0.941817
0.0971389 0.290684 0.704433
0.163821 0.269551 0.742092
0.56199 0.238514 0.857359
0.69073 0.169451 0.742687
0.690715 0.169451 0.742611
0.0959793 0.301457 0.70312
0.0969253 0.291112 0.704204
0.525902 0.238315 0.855482
0.690929 0.169635 0.743023
0.690684 0.169436 0.742535
0.166979 0.543099 0.783627
0.161105 0.527825 0.778378
0.310109 0.446815 0.887694
0.7673 0.25449 0.810971
0.723995 0.209323 0.772335
0.439445 0.935531 0.955917
0.434882 0.931579 0.952392
0.406775 0.902388 0.93727
0.895018 0.923827 0.973556
0.985946 0.922957 0.990417
0.442664 0.940291 0.95462
0.442206 0.940856 0.952895
0.445731 0.944198 0.956069
0.88484 0.987671 0.991043
0.996399 0.992523 0.996109
