bundles/resolve-cinematic-luts/Phantom Luts/Fx6 Phntm ARRI LUTs-G5/Jamaica Fx6.cube
TITLE "Generated by Resolve"
LUT_3D_SIZE 33
0.0137179 0.0323186 0.0137026
0.0136873 0.0322728 0.0136721
0.0164797 0.0324407 0.01355
0.0299992 0.0344091 0.0150454
0.0501106 0.0362097 0.0175784
0.0745251 0.0376135 0.0204471
0.0997177 0.0387121 0.0238651
0.127977 0.0397955 0.0276646
0.161608 0.0411841 0.0323491
0.200641 0.0429389 0.0378424
0.244572 0.0446479 0.0440223
0.296895 0.0462501 0.0518654
0.355108 0.0479896 0.0636606
0.413794 0.0510567 0.0803388
0.474495 0.0539101 0.0984512
0.530251 0.0572061 0.116976
0.579278 0.0603799 0.136873
0.620539 0.065919 0.161135
0.653925 0.0758221 0.192844
0.68127 0.0898756 0.229786
0.7122 0.117433 0.274113
0.724163 0.12639 0.29659
0.72372 0.123674 0.303227
0.723278 0.121401 0.308858
0.723033 0.119753 0.313619
0.722789 0.118379 0.317525
0.722408 0.117082 0.320836
0.722118 0.116182 0.323064
0.721843 0.115358 0.325063
0.721645 0.114809 0.32636
0.721431 0.11429 0.327413
0.721233 0.113909 0.327932
0.721096 0.11368 0.328023
0.0136873 0.0322728 0.0136721
0.0137026 0.0322881 0.0136873
0.0136873 0.0322728 0.0136721
0.0244602 0.034287 0.0147555
0.0410163 0.0368658 0.017319
0.063035 0.0381323 0.0198978
0.089128 0.0390478 0.021912
0.119158 0.0396582 0.0245823
0.154192 0.0403143 0.0277104
0.195712 0.0412146 0.0321965
0.242176 0.0424506 0.0374762
0.294408 0.0439307 0.0437171
0.35227 0.0461128 0.0524453
0.40708 0.0523537 0.0672618
0.468086 0.0550851 0.0872511
0.525841 0.0584878 0.107317
0.575509 0.061799 0.127886
0.617075 0.0667735 0.151507
0.651682 0.0769665 0.184146
0.680018 0.0913558 0.22211
0.711223 0.118669 0.267308
0.724269 0.12842 0.291203
0.724117 0.125917 0.297902
0.72372 0.123537 0.303624
0.723369 0.12163 0.308446
0.72311 0.120195 0.312352
0.723018 0.119142 0.31577
0.722759 0.118151 0.318227
0.722515 0.117342 0.320241
0.722347 0.116823 0.321477
0.722179 0.116426 0.32224
0.722011 0.116045 0.32285
0.721889 0.115801 0.323049
0.0142367 0.0339055 0.0155947
0.0139773 0.0333257 0.0138247
0.0155032 0.0330663 0.0140536
0.0211337 0.0344854 0.0145418
0.0326238 0.037705 0.0168765
0.0501411 0.0393835 0.019913
0.0763256 0.0402838 0.0223697
0.108202 0.0412604 0.0250858
0.145556 0.0417945 0.0279698
0.189227 0.0420844 0.0307774
0.237568 0.0423896 0.0343023
0.290944 0.0428016 0.0378424
0.351492 0.0437629 0.0433967
0.413535 0.046479 0.0552987
0.468696 0.0559396 0.0759594
0.51989 0.0628214 0.0973526
0.571359 0.0644694 0.1187
0.613031 0.0673228 0.141588
0.648508 0.0779889 0.174075
0.677958 0.0926833 0.212879
0.709834 0.119936 0.259327
0.724086 0.130465 0.284962
0.72433 0.128206 0.292042
0.724163 0.125978 0.297902
0.723842 0.12398 0.302739
0.723537 0.122377 0.306676
0.723308 0.121096 0.310094
0.72314 0.120165 0.312596
0.723095 0.119539 0.314656
0.723003 0.118975 0.316304
0.72282 0.118502 0.317205
0.722652 0.11809 0.31783
0.722515 0.11783 0.318029
0.0164797 0.0465858 0.0220493
0.0157778 0.0448005 0.019379
0.0222934 0.0424811 0.0166934
0.0265202 0.0411383 0.0168154
0.0324865 0.0413825 0.0187076
0.0433204 0.0425422 0.0205539
0.0649729 0.0424659 0.0229038
0.0978561 0.0431067 0.025864
0.135088 0.0440986 0.0278325
0.182559 0.0442969 0.0307317
0.233066 0.0437629 0.0333867
0.289021 0.0438849 0.0363775
0.349645 0.0442206 0.0392767
0.410193 0.043946 0.0421759
0.471473 0.0482643 0.0588388
0.524697 0.060853 0.0883955
0.569421 0.0715496 0.111727
0.610895 0.0712902 0.133822
0.645167 0.0791485 0.163607
0.675196 0.0935531 0.203037
0.708095 0.120958 0.251148
0.723705 0.132494 0.278447
0.724163 0.130327 0.285618
0.724407 0.128374 0.291829
0.724285 0.126497 0.296803
0.724025 0.124834 0.300847
0.723827 0.123507 0.304173
0.723583 0.122393 0.306828
0.72343 0.121553 0.30901
0.723293 0.120943 0.310475
0.72314 0.120455 0.311467
0.723064 0.120195 0.311986
0.723003 0.120043 0.312123
0.0192264 0.0620432 0.027863
0.0181125 0.0595102 0.025391
0.0232242 0.0558328 0.0219577
0.0293278 0.0521706 0.020737
0.0384527 0.0514076 0.0215915
0.0503548 0.0520943 0.0250095
0.0687724 0.0520485 0.0269169
0.0997635 0.0509194 0.0285649
0.134218 0.050721 0.0295415
0.180621 0.0492866 0.0315862
0.226596 0.0472572 0.0326696
0.287114 0.0467689 0.0360571
0.348379 0.0461433 0.0380865
0.410483 0.0464179 0.041825
0.46833 0.047364 0.0465705
0.523827 0.0528573 0.0685588
0.572045 0.0687877 0.103593
0.607599 0.0768749 0.125368
0.641321 0.0801099 0.153063
0.670085 0.0927138 0.190753
0.705425 0.121431 0.241428
0.723125 0.134539 0.271672
0.723796 0.132448 0.278935
0.724193 0.13048 0.285328
0.724422 0.128817 0.290684
0.724437 0.12726 0.295155
0.724269 0.125917 0.298466
0.724056 0.124804 0.301015
0.723918 0.123949 0.303105
0.723796 0.1234 0.304417
0.723674 0.122881 0.305531
0.723507 0.122454 0.306172
0.7234 0.122225 0.30634
0.0203861 0.0832837 0.0313268
0.0187839 0.080354 0.0275273
0.0214084 0.0767071 0.0250248
0.0301518 0.0706035 0.0242618
0.0400244 0.0670634 0.0256809
0.0559548 0.0670481 0.0267491
0.0760815 0.0677501 0.0286107
0.104479 0.0649729 0.0313726
0.136828 0.0626383 0.032166
0.180575 0.0612802 0.0341192
0.232547 0.0590524 0.0355688
0.287175 0.0539101 0.036286
0.348333 0.0509499 0.0391699
0.409918 0.0506294 0.0431067
0.469993 0.0518196 0.0502632
0.521828 0.052781 0.0567941
0.569146 0.0603799 0.0846113
0.610452 0.078645 0.120684
0.637156 0.080827 0.142931
0.66566 0.0924544 0.179828
0.701503 0.120653 0.23064
0.721065 0.135317 0.263203
0.723247 0.134417 0.272374
0.723842 0.13254 0.278828
0.724208 0.130877 0.284367
0.724437 0.129488 0.288884
0.724514 0.128283 0.292515
0.724498 0.127337 0.295201
0.724376 0.126467 0.29723
0.724239 0.12575 0.298833
0.724117 0.125231 0.299855
0.723934 0.124819 0.300374
0.723812 0.124559 0.300542
0.0203098 0.109651 0.0356603
0.0185245 0.107179 0.0300603
0.0197604 0.103975 0.0269627
0.0286717 0.097612 0.0247349
0.0394598 0.0914931 0.0268711
0.0563516 0.088838 0.0298619
0.0808118 0.0904555 0.0295262
0.108248 0.0907149 0.0315251
0.142168 0.085359 0.0344396
0.179294 0.079118 0.0355077
0.234562 0.0723278 0.0379644
0.289021 0.0691844 0.0392004
0.360662 0.0644694 0.0414282
0.409476 0.0566262 0.044419
0.471275 0.0571756 0.0514687
0.52398 0.058381 0.0610666
0.566979 0.0602426 0.0724041
0.604715 0.0691844 0.102144
0.639735 0.0902419 0.137469
0.662531 0.0945449 0.168353
0.696529 0.119799 0.217395
0.717388 0.135409 0.251484
0.720943 0.135683 0.262028
0.723018 0.135012 0.270222
0.723674 0.133501 0.275914
0.724025 0.132113 0.280537
0.724254 0.130892 0.284443
0.724407 0.130022 0.287327
0.724498 0.129259 0.289723
0.724514 0.128664 0.291417
0.724514 0.128161 0.29279
0.724437 0.127779 0.293614
0.724361 0.12755 0.293904
0.0197604 0.141955 0.0419623
0.0175021 0.13962 0.0354162
0.0172732 0.137591 0.0293889
0.0248875 0.133913 0.0260777
0.0372778 0.127047 0.0259556
0.0531624 0.122225 0.0307012
0.0789654 0.11902 0.0348669
0.1093 0.1205 0.0320439
0.144183 0.119493 0.0337224
0.186419 0.111955 0.0369268
0.233539 0.0989242 0.0395056
0.293187 0.0892958 0.0429541
0.358511 0.0856794 0.0461738
0.42359 0.0809033 0.0493782
0.477455 0.0701915 0.0531624
0.525963 0.0652018 0.0626841
0.57113 0.0673228 0.0759747
0.604181 0.0709392 0.092668
0.629236 0.0784772 0.117891
0.65478 0.0948653 0.149645
0.68867 0.117815 0.198856
0.712276 0.135683 0.235874
0.715816 0.135897 0.245792
0.718807 0.135821 0.255024
0.721447 0.135897 0.263127
0.722866 0.135317 0.269062
0.72343 0.134371 0.27303
0.72372 0.133516 0.276036
0.723934 0.13283 0.278431
0.724041 0.132311 0.280095
0.724117 0.131807 0.28159
0.724102 0.131395 0.282612
0.724071 0.131151 0.28307
0.0191043 0.181003 0.0517281
0.0160525 0.178317 0.0435645
0.0145266 0.176867 0.0340581
0.0178683 0.175662 0.0271
0.0327611 0.17055 0.0259556
0.0487831 0.163561 0.0292515
0.073518 0.158679 0.0370336
0.105577 0.154314 0.0400397
0.141588 0.155398 0.0343023
0.187213 0.153231 0.0354467
0.236973 0.144015 0.0391546
0.29929 0.12314 0.0455329
0.355169 0.114107 0.0496223
0.427161 0.10988 0.0562448
0.48864 0.106249 0.0615396
0.547936 0.0972152 0.0709087
0.576211 0.0784772 0.0789349
0.609033 0.0792248 0.0936294
0.631952 0.0842908 0.114183
0.644785 0.0883803 0.133852
0.675181 0.112413 0.172183
0.704417 0.135164 0.215259
0.708461 0.135668 0.225299
0.712032 0.13611 0.234485
0.714961 0.136339 0.242451
0.717128 0.136278 0.248997
0.718624 0.136065 0.254002
0.720119 0.136156 0.258442
0.721279 0.136126 0.26215
0.722057 0.136095 0.264683
0.722545 0.135958 0.26659
0.722728 0.135668 0.267765
0.722759 0.1355 0.268208
0.0182345 0.227131 0.067277
0.0157931 0.224399 0.0583505
0.0129244 0.2224 0.0471351
0.0124666 0.221607 0.0345006
0.0222019 0.219913 0.0271611
0.0423133 0.214542 0.0283665
0.0644541 0.207568 0.0338903
0.0961318 0.201953 0.0420233
0.135897 0.195972 0.0451057
0.18024 0.19649 0.036286
0.236393 0.193194 0.0375372
0.295354 0.182773 0.0435645
0.366812 0.157412 0.0538186
0.42031 0.145983 0.0591592
0.495949 0.143954 0.0705577
0.555489 0.141497 0.080293
0.6121 0.138247 0.096025
0.633249 0.116808 0.104158
0.637156 0.0940414 0.113085
0.650111 0.0975204 0.133913
0.660395 0.101244 0.153857
0.693523 0.132387 0.191699
0.697246 0.133684 0.199145
0.701534 0.135073 0.207935
0.704799 0.135637 0.21561
0.707439 0.136019 0.222019
0.709651 0.136355 0.227481
0.711406 0.136584 0.231922
0.712703 0.13666 0.235447
0.713741 0.13669 0.238315
0.714504 0.136843 0.240238
0.715007 0.136904 0.24155
0.715297 0.136858 0.24242
0.0187533 0.279591 0.0870222
0.016846 0.277882 0.0786755
0.0146181 0.275639 0.0694285
0.0123445 0.273716 0.0535286
0.0130617 0.272633 0.0372168
0.0256352 0.270558 0.0285954
0.0536202 0.265156 0.0320745
0.0833753 0.257725 0.0388647
0.122469 0.251102 0.0495918
0.171267 0.242451 0.0525826
0.225589 0.243412 0.0398413
0.29456 0.239368 0.0420691
0.360052 0.228916 0.0501869
0.433936 0.202533 0.0645151
0.489281 0.19089 0.0732586
0.56231 0.185824 0.0906233
0.624842 0.186038 0.108141
0.67013 0.185428 0.124605
0.688273 0.168353 0.14023
0.671763 0.130434 0.142733
0.661067 0.106859 0.15024
0.685389 0.126162 0.18143
0.693416 0.134035 0.189563
0.694453 0.134585 0.191165
0.693797 0.134035 0.190265
0.693233 0.133211 0.189975
0.694484 0.133257 0.192935
0.697154 0.134142 0.198306
0.698848 0.134768 0.201663
0.700175 0.135149 0.20444
0.70106 0.135424 0.206226
0.701701 0.135637 0.207538
0.702129 0.135744 0.208408
0.0210269 0.339803 0.109926
0.0195468 0.338231 0.102296
0.0180514 0.337041 0.0958267
0.0163577 0.334707 0.0844587
0.0146792 0.332586 0.0666361
0.0154269 0.331777 0.0470436
0.031754 0.329854 0.0334173
0.0695201 0.323293 0.0377508
0.106752 0.31545 0.0466773
0.154574 0.307179 0.0606851
0.214099 0.296208 0.0631418
0.279225 0.298116 0.0449226
0.359213 0.294057 0.0490272
0.427955 0.284855 0.0592203
0.503502 0.256916 0.0802319
0.561044 0.247181 0.0950484
0.625956 0.235691 0.113909
0.69131 0.240146 0.139376
0.726879 0.241169 0.159426
0.742031 0.2318 0.183276
0.716411 0.184543 0.181064
0.68545 0.133303 0.171481
0.678233 0.120195 0.174334
0.682307 0.12369 0.17879
0.683482 0.124758 0.17998
0.684504 0.125628 0.181125
0.685389 0.126452 0.181994
0.686305 0.127184 0.183047
0.687022 0.127779 0.183856
0.687526 0.128191 0.184451
0.687907 0.128481 0.184894
0.688228 0.128771 0.185183
0.688487 0.128985 0.185443
0.0268406 0.404242 0.137469
0.0252842 0.402945 0.130343
0.0238041 0.401923 0.12369
0.0220951 0.400519 0.11722
0.0211185 0.398489 0.105409
0.0204776 0.396445 0.0892958
0.0211643 0.394797 0.0636606
0.0455329 0.39176 0.0432746
0.0892348 0.384421 0.0466468
0.136156 0.376623 0.0584726
0.195941 0.367269 0.0779736
0.265721 0.354421 0.0766461
0.341665 0.359274 0.0515908
0.427802 0.355673 0.060441
0.498939 0.347875 0.0748302
0.574319 0.323629 0.101015
0.638819 0.312703 0.123674
0.693492 0.305119 0.143069
0.752361 0.29929 0.175296
0.784192 0.304723 0.20351
0.790921 0.295537 0.222217
0.769512 0.250767 0.220356
0.73994 0.202228 0.204807
0.721736 0.177493 0.192767
0.70544 0.155642 0.182147
0.697246 0.144839 0.178973
0.692012 0.138064 0.177615
0.687495 0.132418 0.17586
0.684749 0.129061 0.175189
0.681819 0.125704 0.173739
0.679698 0.12311 0.172854
0.67924 0.122316 0.173556
0.68043 0.123095 0.175463
0.0378271 0.472755 0.171252
0.0362402 0.47155 0.164599
0.0346075 0.470039 0.157259
0.033051 0.469169 0.152117
0.0315099 0.467704 0.145602
0.0306096 0.465675 0.134569
0.0299992 0.463508 0.116869
0.0318456 0.461646 0.0849775
0.0647746 0.457877 0.057969
0.114855 0.45034 0.0610361
0.175311 0.442115 0.0778058
0.247028 0.42945 0.101915
0.325658 0.415808 0.0915389
0.408728 0.423774 0.0625772
0.499458 0.420905 0.0799573
0.571359 0.41561 0.0994888
0.646021 0.396368 0.126787
0.71667 0.382254 0.158694
0.759899 0.379629 0.177707
0.808804 0.361318 0.215305
0.836072 0.36791 0.247593
0.837644 0.358267 0.257893
0.8309 0.336828 0.261677
0.818875 0.317906 0.254551
0.806226 0.299062 0.246525
0.795117 0.282826 0.239445
0.785901 0.26952 0.233402
0.77821 0.25832 0.228489
0.771756 0.249058 0.224277
0.766583 0.241779 0.220844
0.76257 0.236133 0.218235
0.759518 0.231876 0.216266
0.757412 0.229175 0.214817
0.0576028 0.54493 0.215
0.0559091 0.543648 0.208713
0.0543374 0.542626 0.201648
0.0527047 0.5411 0.195239
0.0508583 0.53994 0.190036
0.0497597 0.538613 0.184329
0.0485084 0.536095 0.171695
0.0483253 0.533578 0.149523
0.0523995 0.531289 0.112169
0.0941024 0.527367 0.0799878
0.154513 0.519875 0.0865187
0.22739 0.510719 0.107317
0.310002 0.495155 0.129244
0.394263 0.482628 0.112001
0.48072 0.492805 0.0853285
0.572305 0.49163 0.108522
0.643427 0.487526 0.131472
0.715068 0.474174 0.159075
0.788739 0.456046 0.198871
0.824826 0.456291 0.219181
0.862684 0.445411 0.253529
0.880095 0.428412 0.282322
0.881178 0.41854 0.290364
0.875059 0.408881 0.28661
0.869535 0.400076 0.283284
0.864897 0.392859 0.280354
0.860212 0.38558 0.277424
0.856611 0.379736 0.275349
0.853559 0.374624 0.273701
0.850721 0.370245 0.271962
0.84889 0.366995 0.271092
0.84773 0.365255 0.270359
0.84593 0.362615 0.269139
0.0893568 0.62002 0.269566
0.0877241 0.619089 0.264134
0.0859236 0.617533 0.257053
0.0845655 0.616022 0.250751
0.0831311 0.614664 0.244968
0.0817578 0.613809 0.240986
0.0804303 0.61297 0.23505
0.0792401 0.610162 0.219883
0.0794995 0.606073 0.190951
0.0860914 0.601526 0.144167
0.138903 0.59826 0.112657
0.21117 0.592493 0.124254
0.296056 0.5823 0.146441
0.384039 0.563958 0.157488
0.468284 0.551949 0.136431
0.554253 0.563241 0.117891
0.644862 0.563134 0.145602
0.713176 0.560021 0.170565
0.77995 0.552926 0.198123
0.85008 0.53048 0.241947
0.882765 0.531441 0.265538
0.906188 0.526772 0.287724
0.924041 0.514275 0.311315
0.921614 0.500389 0.312139
0.917342 0.489494 0.309957
0.913436 0.480079 0.308003
0.910018 0.472206 0.30631
0.906737 0.465278 0.304601
0.904402 0.46009 0.30341
0.902449 0.455955 0.302647
0.900618 0.452049 0.3019
0.899031 0.449287 0.301015
0.897826 0.447745 0.300023
0.130068 0.694987 0.332235
0.128542 0.694026 0.32726
0.126986 0.692775 0.321324
0.125536 0.691218 0.315251
0.123995 0.68954 0.309071
0.123095 0.688731 0.304448
0.12195 0.68751 0.29984
0.12047 0.686046 0.292653
0.119371 0.682292 0.273442
0.120989 0.677424 0.238148
0.132204 0.670329 0.182086
0.20177 0.670527 0.158907
0.285542 0.666224 0.170352
0.378088 0.651911 0.190188
0.463066 0.63209 0.188479
0.545769 0.622873 0.167452
0.627665 0.633768 0.159121
0.715312 0.634211 0.192081
0.779706 0.632151 0.219974
0.840665 0.626612 0.249073
0.895613 0.605234 0.28394
0.929854 0.605844 0.312459
0.940246 0.607172 0.321569
0.947936 0.600595 0.329351
0.946242 0.592889 0.32755
0.94493 0.586206 0.326299
0.943664 0.58056 0.325124
0.94255 0.575616 0.324163
0.941833 0.572076 0.323583
0.940963 0.568872 0.32285
0.940215 0.56611 0.32224
0.939605 0.563912 0.321767
0.938598 0.562081 0.32079
0.179843 0.767483 0.400824
0.178546 0.766598 0.396368
0.17702 0.765606 0.391379
0.175708 0.764431 0.386374
0.174563 0.763287 0.381125
0.173327 0.761608 0.37528
0.172045 0.760037 0.369772
0.170611 0.758495 0.364523
0.168902 0.75639 0.35552
0.168093 0.751705 0.330571
0.171679 0.745754 0.289342
0.192844 0.73814 0.229297
0.277104 0.741222 0.20972
0.374044 0.737438 0.223026
0.464988 0.71931 0.237675
0.543862 0.699763 0.225223
0.622538 0.693111 0.208774
0.698192 0.703197 0.210758
0.780835 0.702342 0.246998
0.840681 0.701946 0.27715
0.889464 0.697963 0.302632
0.930877 0.686076 0.327565
0.959121 0.681895 0.350301
0.965209 0.682887 0.354665
0.963668 0.676951 0.352087
0.962509 0.671748 0.350103
0.961517 0.667689 0.348516
0.960998 0.664515 0.347509
0.960067 0.661372 0.34612
0.959548 0.658732 0.345144
0.959167 0.656519 0.344396
0.958633 0.655161 0.343557
0.957916 0.654368 0.342687
0.240146 0.837095 0.470878
0.238865 0.836286 0.467308
0.23743 0.835157 0.463035
0.236591 0.834485 0.459419
0.235233 0.833173 0.454719
0.233829 0.831662 0.450141
0.232441 0.829984 0.44448
0.230976 0.828199 0.438071
0.229831 0.826917 0.432486
0.227481 0.823728 0.420676
0.226825 0.817929 0.39057
0.232136 0.809644 0.341802
0.270619 0.80592 0.282643
0.372534 0.81236 0.271
0.470146 0.805966 0.282628
0.550149 0.784863 0.285573
0.621073 0.765881 0.271229
0.694362 0.760403 0.260441
0.765148 0.771664 0.270649
0.841489 0.768124 0.306905
0.890883 0.769436 0.335531
0.928786 0.766934 0.356634
0.955978 0.759762 0.371405
0.975097 0.757275 0.385565
0.974884 0.754543 0.384344
0.974472 0.750881 0.382483
0.974182 0.747753 0.381003
0.973907 0.744091 0.379324
0.973663 0.741192 0.378027
0.973663 0.739132 0.377172
0.973388 0.737285 0.37612
0.973159 0.736187 0.375357
0.972671 0.735088 0.374426
0.303761 0.899443 0.537652
0.303441 0.89926 0.53492
0.302159 0.898344 0.531685
0.300862 0.897231 0.527886
0.299535 0.896056 0.524193
0.298375 0.89482 0.520302
0.296925 0.893385 0.515679
0.296071 0.892271 0.510262
0.294179 0.890074 0.502907
0.292027 0.887709 0.495781
0.290089 0.884367 0.481743
0.290135 0.877974 0.447761
0.299718 0.868238 0.390829
0.3579 0.872297 0.342061
0.471336 0.878859 0.336614
0.561135 0.867491 0.343465
0.628794 0.845777 0.337713
0.693828 0.827359 0.323476
0.761913 0.823285 0.319081
0.827619 0.8365 0.337819
0.893126 0.832792 0.372168
0.932113 0.835615 0.397757
0.958679 0.835279 0.412833
0.976852 0.830564 0.421241
0.983581 0.821286 0.422782
0.982559 0.816831 0.419684
0.982101 0.813107 0.417533
0.981903 0.810636 0.416114
0.981598 0.808438 0.414786
0.981323 0.806867 0.413596
0.981186 0.805661 0.412695
0.981079 0.804395 0.41178
0.980911 0.803449 0.411032
0.366064 0.950774 0.599985
0.365087 0.950118 0.597162
0.363684 0.949142 0.593759
0.362417 0.948226 0.59057
0.361227 0.947311 0.587335
0.360372 0.946578 0.58439
0.359579 0.945846 0.581353
0.357794 0.944259 0.576181
0.355856 0.942336 0.569146
0.353567 0.939956 0.560571
0.351186 0.937575 0.552529
0.349264 0.933959 0.534997
0.35021 0.927001 0.495369
0.368582 0.92108 0.439429
0.452018 0.930739 0.40177
0.5664 0.931334 0.400854
0.642756 0.915312 0.402243
0.699687 0.894011 0.390127
0.760128 0.878019 0.378256
0.824323 0.877501 0.380423
0.882765 0.890639 0.401877
0.9364 0.88957 0.4309
0.965408 0.89221 0.449897
0.983917 0.894286 0.461601
0.996139 0.890394 0.467262
0.995453 0.886381 0.464851
0.99498 0.883619 0.462974
0.994568 0.881285 0.461387
0.99411 0.879408 0.46006
0.993896 0.877913 0.458991
0.993912 0.876265 0.457954
0.99411 0.8748 0.457084
0.994217 0.873686 0.456413
0.419013 0.990387 0.652247
0.41825 0.990005 0.649699
0.417182 0.989441 0.647166
0.415915 0.988663 0.644236
0.41474 0.988006 0.641764
0.413443 0.98706 0.638743
0.411978 0.985885 0.635477
0.409995 0.984298 0.631373
0.407843 0.982437 0.625513
0.405539 0.980224 0.617731
0.40354 0.977996 0.608545
0.401312 0.97557 0.599176
0.399435 0.971267 0.577066
0.406531 0.96643 0.534203
0.432959 0.963012 0.480568
0.538796 0.974121 0.454124
0.648524 0.969055 0.454627
0.712444 0.950042 0.449378
0.763272 0.931411 0.436835
0.820844 0.919112 0.428779
0.881193 0.924987 0.435874
0.929885 0.935805 0.456291
0.971389 0.936751 0.47982
0.993393 0.938506 0.493889
1 0.939437 0.502281
1 0.937896 0.504051
1 0.935897 0.502602
1 0.934462 0.501411
1 0.93312 0.500221
1 0.932082 0.499092
1 0.931212 0.498009
1 0.930343 0.497215
1 0.929534 0.496712
0.448371 0.998932 0.682994
0.446784 0.998932 0.679393
0.445487 0.998932 0.67631
0.444846 0.998932 0.674037
0.44416 0.998932 0.671916
0.443565 0.998932 0.669673
0.442786 0.998932 0.667292
0.441688 0.998932 0.663996
0.439963 0.998932 0.659953
0.438178 0.998932 0.653834
0.435859 0.998932 0.645212
0.433341 0.998932 0.634821
0.431556 0.998932 0.624033
0.4365 0.998001 0.600427
0.453376 0.997681 0.561151
0.501091 0.998932 0.51899
0.620249 0.998932 0.502022
0.71783 0.994919 0.500038
0.771054 0.974899 0.488197
0.818402 0.959365 0.477729
0.876326 0.953262 0.47451
0.92845 0.962188 0.483879
0.966323 0.969192 0.500938
0.996597 0.969985 0.51809
1 0.972168 0.528496
1 0.972229 0.534173
1 0.971038 0.533593
1 0.969833 0.532418
1 0.968963 0.531441
1 0.968292 0.530419
1 0.96762 0.52958
1 0.966964 0.528725
1 0.966552 0.528359
0.45069 0.998932 0.691463
0.44802 0.998932 0.686671
0.446418 0.998932 0.683299
0.446082 0.998932 0.680369
0.445563 0.998932 0.67808
0.44509 0.998932 0.675593
0.444465 0.998932 0.673472
0.443732 0.998932 0.670283
0.442359 0.998932 0.666041
0.440208 0.998932 0.660594
0.437797 0.998932 0.652323
0.434867 0.998932 0.641382
0.431922 0.998932 0.62945
0.432715 0.997711 0.610544
0.449882 0.998932 0.581003
0.489326 0.998932 0.552087
0.579232 0.998932 0.536171
0.699107 0.998932 0.534417
0.773007 0.998932 0.531472
0.821561 0.986023 0.52311
0.868986 0.97499 0.515831
0.924239 0.975906 0.515328
0.967254 0.986328 0.524376
0.992508 0.988159 0.535302
1 0.990921 0.549493
1 0.992447 0.56025
1 0.991791 0.561563
1 0.991104 0.559518
1 0.990692 0.558007
1 0.990402 0.556741
1 0.990188 0.555962
1 0.989929 0.555093
1 0.989593 0.554543
0.451774 0.998932 0.698085
0.448936 0.998932 0.692912
0.446983 0.998932 0.688792
0.446586 0.998932 0.686275
0.446174 0.998932 0.68394
0.44596 0.998932 0.681147
0.445624 0.998932 0.678767
0.444984 0.998932 0.675547
0.444022 0.998932 0.671351
0.442283 0.998932 0.665812
0.439521 0.998932 0.658228
0.436316 0.998932 0.64744
0.432944 0.998932 0.634256
0.431098 0.997726 0.617044
0.442985 0.998932 0.589914
0.478004 0.998932 0.558328
0.552987 0.998932 0.538918
0.67451 0.998932 0.534463
0.761273 0.998932 0.532265
0.812177 0.989517 0.525536
0.859831 0.977737 0.519982
0.912856 0.976242 0.521721
0.958984 0.986053 0.531441
0.987106 0.990921 0.542626
1 0.99469 0.555001
1 0.998535 0.570596
1 0.998932 0.584985
1 0.998932 0.586664
1 0.998932 0.585367
1 0.998932 0.584237
1 0.998932 0.583856
1 0.998932 0.583886
1 0.998932 0.584039
0.452506 0.998932 0.703777
0.449561 0.998932 0.698604
0.447593 0.998932 0.69427
0.446998 0.998932 0.691234
0.446754 0.998932 0.68838
0.446326 0.998932 0.68629
0.446082 0.998932 0.683528
0.445777 0.998932 0.680308
0.444999 0.998932 0.675853
0.443671 0.998932 0.670405
0.441215 0.998932 0.66305
0.437888 0.998932 0.653101
0.434226 0.998932 0.638651
0.43122 0.99852 0.622599
0.43917 0.998901 0.597711
0.467964 0.998932 0.563424
0.533501 0.998932 0.540719
0.652781 0.998932 0.53434
0.75053 0.998932 0.532509
0.804028 0.991943 0.52668
0.851652 0.979278 0.520241
0.903593 0.975998 0.520974
0.951598 0.984085 0.528801
0.983551 0.991333 0.539757
1 0.994385 0.55079
1 0.997879 0.564431
1 0.998932 0.581643
1 0.998932 0.587076
1 0.998932 0.587121
1 0.998932 0.586389
1 0.998932 0.585641
1 0.998932 0.585153
1 0.998932 0.584787
0.452323 0.998932 0.707332
0.450065 0.998932 0.703075
0.448203 0.998932 0.699153
0.447532 0.998932 0.695735
0.446952 0.998932 0.692988
0.44683 0.998932 0.689937
0.446494 0.998932 0.687327
0.446143 0.998932 0.684016
0.445716 0.998932 0.679637
0.444587 0.998932 0.674189
0.442435 0.998932 0.666941
0.439048 0.998932 0.656641
0.435386 0.998932 0.642832
0.431373 0.998932 0.62623
0.436439 0.998306 0.602884
0.460792 0.998932 0.567239
0.518456 0.998932 0.541054
0.634623 0.998932 0.533379
0.74136 0.998932 0.532921
0.797742 0.994095 0.527504
0.845075 0.980667 0.520455
0.896239 0.975845 0.520287
0.945586 0.98291 0.527153
0.980652 0.991379 0.537911
1 0.994308 0.548196
1 0.99733 0.562051
1 0.998932 0.580301
1 0.998932 0.586572
1 0.998932 0.586862
1 0.998932 0.58706
1 0.998932 0.587259
1 0.998932 0.587121
1 0.998932 0.587167
0.454139 0.998932 0.712215
0.45156 0.998932 0.70721
0.449882 0.998932 0.703517
