bundles/resolve-cinematic-luts/Phantom Luts/Fx6 Phntm ARRI LUTs-G5/Jamaica Fx6.cube
TITLE "Generated by Resolve"
LUT_3D_SIZE 9
0.0137179 0.0323186 0.0137026
0.0501106 0.0362097 0.0175784
0.161608 0.0411841 0.0323491
0.355108 0.0479896 0.0636606
0.579278 0.0603799 0.136873
0.7122 0.117433 0.274113
0.723033 0.119753 0.313619
0.721843 0.115358 0.325063
0.721096 0.11368 0.328023
0.0192264 0.0620432 0.027863
0.0384527 0.0514076 0.0215915
0.134218 0.050721 0.0295415
0.348379 0.0461433 0.0380865
0.572045 0.0687877 0.103593
0.705425 0.121431 0.241428
0.724422 0.128817 0.290684
0.723918 0.123949 0.303105
0.7234 0.122225 0.30634
0.0191043 0.181003 0.0517281
0.0327611 0.17055 0.0259556
0.141588 0.155398 0.0343023
0.355169 0.114107 0.0496223
0.576211 0.0784772 0.0789349
0.675181 0.112413 0.172183
0.714961 0.136339 0.242451
0.721279 0.136126 0.26215
0.722759 0.1355 0.268208
0.0268406 0.404242 0.137469
0.0211185 0.398489 0.105409
0.0892348 0.384421 0.0466468
0.341665 0.359274 0.0515908
0.638819 0.312703 0.123674
0.790921 0.295537 0.222217
0.70544 0.155642 0.182147
0.684749 0.129061 0.175189
0.68043 0.123095 0.175463
0.130068 0.694987 0.332235
0.123995 0.68954 0.309071
0.119371 0.682292 0.273442
0.285542 0.666224 0.170352
0.627665 0.633768 0.159121
0.895613 0.605234 0.28394
0.946242 0.592889 0.32755
0.941833 0.572076 0.323583
0.938598 0.562081 0.32079
0.366064 0.950774 0.599985
0.361227 0.947311 0.587335
0.355856 0.942336 0.569146
0.35021 0.927001 0.495369
0.642756 0.915312 0.402243
0.882765 0.890639 0.401877
0.996139 0.890394 0.467262
0.99411 0.879408 0.46006
0.994217 0.873686 0.456413
0.451774 0.998932 0.698085
0.446174 0.998932 0.68394
0.444022 0.998932 0.671351
0.432944 0.998932 0.634256
0.552987 0.998932 0.538918
0.859831 0.977737 0.519982
1 0.99469 0.555001
1 0.998932 0.585367
1 0.998932 0.584039
0.455772 0.998932 0.716289
0.448829 0.998932 0.700526
0.446754 0.998932 0.685695
0.437552 0.998932 0.648493
0.498634 0.998932 0.535683
0.840421 0.981033 0.521706
0.99913 0.992905 0.545907
1 0.998932 0.587167
1 0.998932 0.587121
0.457588 0.998932 0.723125
0.450599 0.998932 0.706859
0.448157 0.998932 0.692149
0.438849 0.998932 0.65301
0.493156 0.998932 0.535134
0.837659 0.981353 0.521859
0.99559 0.991623 0.544427
1 0.998932 0.585855
1 0.998932 0.58558
0.0132906 0.0340581 0.0295415
0.0472114 0.0353399 0.0438697
0.159274 0.0392767 0.0722057
0.365347 0.0443275 0.114549
0.589151 0.0560311 0.17409
0.711406 0.108949 0.295048
0.720806 0.112505 0.331365
0.718822 0.108248 0.341604
0.71809 0.106722 0.344366
0.0204929 0.0506752 0.0386969
0.0271458 0.0443732 0.0283665
0.136995 0.042237 0.03093
0.33901 0.0474708 0.059617
0.573281 0.0610819 0.133761
0.708507 0.114244 0.267597
0.723079 0.120165 0.31165
0.722011 0.115892 0.323064
0.721416 0.114199 0.326467
0.0230106 0.170809 0.0943618
0.0194095 0.161608 0.0490272
0.130022 0.146029 0.0354467
0.365545 0.098497 0.0488746
0.565011 0.062974 0.0731365
0.6916 0.11603 0.209491
0.723445 0.133852 0.274235
0.724346 0.129641 0.288045
0.724285 0.127886 0.292531
0.0283665 0.402167 0.173037
0.023743 0.393057 0.133471
0.0374151 0.38143 0.0521096
0.33431 0.35285 0.0520485
0.633494 0.30016 0.120333
0.780484 0.276631 0.219028
0.693263 0.139666 0.178164
0.680095 0.121965 0.176272
0.682139 0.123751 0.178286
0.129747 0.694041 0.354147
0.123537 0.688121 0.326253
0.117281 0.67924 0.293873
0.254719 0.664195 0.162463
0.623346 0.629786 0.157748
0.898024 0.598932 0.285008
0.944289 0.583871 0.325673
0.939483 0.562066 0.321798
0.935973 0.551568 0.31902
0.363516 0.949035 0.60827
0.360296 0.947036 0.595148
0.354345 0.941909 0.577264
0.344762 0.927459 0.513603
0.633204 0.916014 0.400504
0.880537 0.888441 0.399695
0.995315 0.886488 0.464622
0.993057 0.874571 0.456718
0.992523 0.869841 0.453239
0.452049 0.998932 0.708049
0.447074 0.998932 0.693568
0.445747 0.998932 0.680385
0.435843 0.998932 0.643198
0.534081 0.998932 0.541222
0.855909 0.978363 0.520165
1 0.994675 0.556161
1 0.998932 0.586435
1 0.998932 0.584604
0.455192 0.998932 0.725002
0.449119 0.998932 0.710246
0.4477 0.998932 0.696086
0.440238 0.998932 0.658961
0.485954 0.998932 0.541634
0.836118 0.982086 0.522255
0.997284 0.992309 0.547097
1 0.998932 0.588205
1 0.998932 0.588113
0.457511 0.998932 0.731792
0.448997 0.998932 0.715389
0.448875 0.998932 0.702251
0.441489 0.998932 0.662791
0.482048 0.998932 0.543877
0.832807 0.982391 0.522301
0.99353 0.99118 0.545037
1 0.998932 0.587015
1 0.998932 0.586618
0.0102388 0.043946 0.0999619
0.0603799 0.0397955 0.117418
0.155077 0.0397192 0.147616
0.365133 0.0423438 0.175265
0.593271 0.0490272 0.231525
0.707622 0.0972763 0.322896
0.716548 0.103777 0.353384
0.714809 0.101015 0.360174
0.714229 0.100053 0.361517
0.0152285 0.0502937 0.078233
0.0162661 0.0424201 0.0923629
0.132265 0.0397192 0.122988
0.34844 0.0420539 0.138415
0.58677 0.0532082 0.192813
0.707149 0.101747 0.299779
0.719692 0.109957 0.337636
0.717693 0.106035 0.346975
0.717205 0.104891 0.349752
0.0311589 0.154757 0.138293
0.0301366 0.145769 0.125719
0.121584 0.138918 0.116991
0.373861 0.105089 0.106538
0.56643 0.0669871 0.12697
0.702464 0.110445 0.254612
0.723522 0.12224 0.306798
0.722698 0.117922 0.318685
0.722133 0.116289 0.322164
0.0325628 0.390768 0.225284
0.0278172 0.387289 0.194903
0.024094 0.375128 0.127474
0.326589 0.34696 0.0684672
0.642329 0.27631 0.127275
0.751736 0.232547 0.203998
0.681437 0.124117 0.176257
0.692958 0.132372 0.191043
0.695598 0.13341 0.195758
0.127031 0.687343 0.388663
0.122484 0.685618 0.361837
0.116716 0.676616 0.317556
0.194705 0.658564 0.160876
0.617731 0.624338 0.156161
0.901183 0.589258 0.286412
0.941375 0.570123 0.323232
0.935699 0.546349 0.319387
0.932158 0.536431 0.316915
0.35816 0.945113 0.621302
0.35639 0.944381 0.608148
0.35256 0.941161 0.588312
0.337865 0.925765 0.531258
0.617517 0.917006 0.397925
0.877195 0.885496 0.396735
0.9944 0.881071 0.461112
0.991928 0.868559 0.452735
0.99086 0.862974 0.448356
0.452598 0.998932 0.720409
0.447776 0.998932 0.706691
0.446921 0.998932 0.693324
0.4392 0.998932 0.655711
0.512703 0.998932 0.545876
0.85069 0.979599 0.52224
1 0.994675 0.557809
1 0.998932 0.588006
1 0.998932 0.585855
0.455604 0.998932 0.736446
0.448631 0.998932 0.721309
0.448569 0.998932 0.709468
0.443854 0.998932 0.670954
0.472419 0.998932 0.55523
0.829908 0.983612 0.522972
0.994949 0.991669 0.549172
1 0.998932 0.589715
1 0.998932 0.589502
0.457923 0.998932 0.743526
0.44892 0.998932 0.726665
0.449226 0.998932 0.715343
0.444953 0.998932 0.67509
0.467582 0.998932 0.55639
0.826062 0.983871 0.522957
0.99089 0.990845 0.547234
1 0.998932 0.588571
1 0.998932 0.587793
0.0185397 0.0578927 0.255818
0.0770581 0.0453956 0.271565
0.164263 0.0451514 0.2972
0.35935 0.0439155 0.342641
0.602075 0.052018 0.355077
0.700374 0.0840314 0.373602
0.712077 0.0958419 0.398535
0.712123 0.0959182 0.405982
0.7122 0.0958419 0.40766
0.00166323 0.0704051 0.22536
0.0181735 0.0564126 0.245045
0.12668 0.0452125 0.28098
0.345312 0.0434882 0.324483
0.593942 0.0501564 0.330861
0.698268 0.0824903 0.358938
0.711864 0.095964 0.385702
0.711971 0.0958724 0.393286
0.712047 0.0957656 0.39472
0.012253 0.141344 0.227359
0.00892653 0.12723 0.230228
0.0707256 0.0974899 0.266392
0.332265 0.0543374 0.301183
0.583444 0.0496071 0.289296
0.696071 0.0819104 0.336828
0.713268 0.0985885 0.368872
0.712551 0.0973831 0.374746
0.712276 0.0969558 0.375753
0.0404517 0.358755 0.322744
0.0390936 0.35346 0.312642
0.0400854 0.344823 0.297795
0.321324 0.342687 0.295033
0.66949 0.284321 0.269795
0.730816 0.153353 0.252232
0.724559 0.129351 0.289723
0.724376 0.12488 0.302159
0.724086 0.123247 0.306127
0.122667 0.669047 0.469917
0.118532 0.668208 0.452979
0.114504 0.664439 0.425391
0.113527 0.653956 0.293477
0.606073 0.616251 0.209049
0.911192 0.575296 0.309499
0.943053 0.524727 0.333074
0.930312 0.495415 0.324651
0.923934 0.48333 0.320439
0.346624 0.934539 0.65864
0.343648 0.9337 0.645747
0.340169 0.931685 0.628168
0.330404 0.9234 0.565606
0.538186 0.922179 0.393927
0.867674 0.876646 0.388205
0.992401 0.864271 0.454246
0.989883 0.850401 0.444678
0.9888 0.844251 0.439887
0.454459 0.998932 0.752163
0.450141 0.998932 0.740108
0.449073 0.998932 0.728313
0.44654 0.998932 0.68983
0.464302 0.998932 0.581155
0.83473 0.985656 0.535195
1 0.994614 0.562905
1 0.998306 0.585931
1 0.997375 0.580911
0.456794 0.998932 0.765316
0.451255 0.998932 0.753063
0.450309 0.998932 0.741588
0.448341 0.998932 0.706081
0.443748 0.998932 0.598367
0.811292 0.990677 0.536171
0.989044 0.991394 0.555169
1 0.998932 0.593606
1 0.998932 0.593072
0.45922 0.998932 0.772885
0.451698 0.998932 0.758541
0.450813 0.998932 0.747082
0.448615 0.998932 0.711543
0.4439 0.998932 0.60235
0.806073 0.99089 0.535576
0.986023 0.992599 0.553201
1 0.998932 0.591745
1 0.998932 0.591714
0.0273747 0.0937819 0.466773
0.0912184 0.0672007 0.472877
0.172885 0.0597848 0.492638
0.351843 0.0579843 0.5411
0.578546 0.0614328 0.560678
0.712352 0.105989 0.503502
0.720745 0.114641 0.514458
0.721431 0.116457 0.522499
0.721416 0.116594 0.522484
0 0.12137 0.447196
0.0286564 0.0912032 0.460502
0.129381 0.0602884 0.478004
0.331243 0.057969 0.534066
0.574502 0.0605478 0.553796
0.710399 0.102815 0.495537
0.719982 0.112261 0.504112
0.720562 0.113909 0.511345
0.720684 0.114137 0.511391
0 0.139101 0.420737
0 0.12929 0.428809
0.0325017 0.0872511 0.451591
0.289372 0.0576791 0.518761
0.568917 0.0611582 0.542641
0.707134 0.0974899 0.481666
0.718242 0.108263 0.487938
0.719066 0.109957 0.494682
0.71931 0.110246 0.495094
0.00454719 0.316548 0.44799
0.00047303 0.3075 0.446662
0 0.29012 0.44773
0.220188 0.248554 0.506569
0.610071 0.176043 0.555322
0.704265 0.0884718 0.435264
0.715938 0.100816 0.436377
0.716701 0.101991 0.443107
0.716899 0.10222 0.444282
0.113588 0.621912 0.582681
0.109361 0.619593 0.574884
0.106416 0.614969 0.567163
0.103868 0.601862 0.540948
0.574823 0.587991 0.530327
0.952636 0.56582 0.532464
0.990539 0.464958 0.500755
0.977096 0.430167 0.487175
0.968658 0.413565 0.478828
0.330983 0.910185 0.738003
0.327459 0.909834 0.728176
0.323507 0.908171 0.717449
0.312261 0.902739 0.68127
0.431601 0.931807 0.583703
0.84567 0.866499 0.516335
1 0.848661 0.549798
1 0.834241 0.537179
1 0.828153 0.532341
0.460487 0.998932 0.821439
0.457176 0.998932 0.812543
0.455894 0.998932 0.803464
0.453178 0.998932 0.776852
0.460716 0.998932 0.681025
0.799603 0.998932 0.616938
0.997269 0.99263 0.612146
1 0.993927 0.616983
1 0.992325 0.611368
0.461112 0.998932 0.830198
0.458061 0.998932 0.821607
0.457069 0.998932 0.813092
0.454246 0.998932 0.787137
0.458122 0.998932 0.694972
0.749706 0.998932 0.603861
0.976257 0.991318 0.597452
1 0.998932 0.623072
1 0.998932 0.620722
0.463828 0.998932 0.837217
0.458778 0.998932 0.827695
0.45771 0.998932 0.818433
0.454871 0.998932 0.792355
0.458457 0.998932 0.700084
0.734508 0.998932 0.60029
0.967361 0.990143 0.593164
1 0.998932 0.623407
1 0.998932 0.617456
0.0457771 0.16553 0.628077
0.0984817 0.138369 0.642481
0.172534 0.108141 0.652201
0.338689 0.108553 0.697734
0.539361 0.109865 0.709209
0.686122 0.13962 0.668376
0.704372 0.151263 0.682857
0.702663 0.152804 0.691295
0.701198 0.153201 0.690867
0.0262455 0.187182 0.6215
0.0464332 0.162905 0.626627
0.128328 0.122332 0.644373
0.314855 0.107378 0.690623
0.532418 0.10869 0.709163
0.683452 0.13724 0.664363
0.706142 0.149554 0.676799
0.703777 0.151614 0.683757
0.702602 0.152102 0.683574
0.0235294 0.203494 0.619379
0.0239414 0.195575 0.62002
0.0430304 0.160891 0.622217
0.269978 0.104433 0.675837
0.520882 0.107118 0.708705
0.679225 0.13312 0.658
0.709545 0.147082 0.667262
0.70753 0.148836 0.674052
0.706737 0.14905 0.674281
0.0208438 0.284733 0.611414
0.0201267 0.273732 0.612146
0.0207523 0.255818 0.615656
0.0986343 0.182849 0.654536
0.480644 0.111131 0.711391
0.670527 0.122133 0.639902
0.718593 0.141192 0.632105
0.717754 0.142351 0.637675
0.717525 0.142489 0.637629
0.0894484 0.552377 0.672465
0.0848707 0.548959 0.667918
0.0799725 0.541176 0.665232
0.06981 0.516655 0.662425
0.473915 0.497353 0.756344
0.902586 0.446647 0.813519
0.925582 0.321324 0.74432
0.88925 0.284337 0.71339
0.87364 0.269169 0.697856
0.310353 0.853346 0.819379
0.306828 0.852842 0.812955
0.302754 0.850156 0.807935
0.293614 0.843671 0.796765
0.39939 0.86244 0.793942
0.807034 0.818006 0.762478
0.998856 0.802823 0.769238
1 0.781216 0.759457
1 0.773739 0.754238
0.482658 0.998932 0.919295
0.479545 0.998932 0.913497
0.477317 0.998932 0.908522
0.471931 0.998932 0.894347
0.477714 0.998932 0.847929
0.744839 0.998932 0.81413
0.973587 0.9776 0.776318
1 0.972992 0.797971
1 0.969787 0.793515
0.487327 0.998367 0.928252
0.482979 0.998932 0.921202
0.480323 0.998932 0.91577
0.474571 0.998932 0.901198
0.475944 0.998932 0.85301
0.713664 0.998932 0.808743
0.946899 0.986374 0.774701
1 0.995315 0.806332
1 0.99617 0.805676
0.48838 0.998535 0.930983
0.485298 0.998932 0.926558
0.482704 0.998932 0.920897
0.476432 0.998932 0.906035
0.476417 0.998932 0.856825
0.706188 0.998932 0.808301
0.93872 0.986313 0.773327
1 0.994919 0.797955
1 0.996826 0.802853
0.0898451 0.276371 0.69337
0.0907454 0.264012 0.691096
0.149203 0.237568 0.721294
0.316472 0.194797 0.780056
0.545037 0.210346 0.829389
0.667689 0.16495 0.738262
0.69073 0.169451 0.742748
0.690272 0.169696 0.742535
0.689937 0.169757 0.741939
0.0890974 0.281666 0.693049
0.087892 0.272801 0.690883
0.107836 0.251621 0.69836
0.291539 0.19266 0.770459
0.532967 0.207797 0.8271
0.664744 0.164874 0.73875
0.690959 0.169177 0.742428
0.689403 0.170016 0.74139
0.689219 0.170001 0.740856
0.0879683 0.287449 0.692638
0.0872206 0.282597 0.691234
0.085359 0.267643 0.687266
0.24654 0.194766 0.754513
0.513313 0.20412 0.823331
0.658579 0.16318 0.737911
0.691569 0.168338 0.74107
0.690669 0.169574 0.743069
0.690028 0.169696 0.741924
0.0761578 0.297307 0.684916
0.0770123 0.291966 0.684382
0.078584 0.284413 0.683909
0.0828107 0.252796 0.680919
0.447181 0.193408 0.808133
0.651865 0.17174 0.74902
0.693584 0.166629 0.735653
0.693111 0.167483 0.737957
0.692668 0.16762 0.737545
0.132601 0.536507 0.741176
0.131136 0.531075 0.74049
0.130602 0.522789 0.74136
0.132082 0.501366 0.746014
0.368856 0.457954 0.886259
0.798688 0.41088 0.957061
0.789593 0.264622 0.810391
0.756085 0.229191 0.775876
0.743572 0.215137 0.762524
0.291356 0.785245 0.857511
0.287724 0.782467 0.853712
0.283909 0.777264 0.851484
0.273381 0.762753 0.845075
0.302449 0.75639 0.879301
0.735927 0.756039 0.902861
0.98407 0.731243 0.946365
0.991196 0.702754 0.944823
0.990417 0.694682 0.941711
0.492485 0.974136 0.964996
0.487785 0.974884 0.960739
0.483635 0.973754 0.958373
0.473274 0.970382 0.952392
0.461707 0.964752 0.937514
0.737499 0.971893 0.940887
0.944762 0.955383 0.925872
0.998672 0.950484 0.933883
0.996719 0.947219 0.928969
0.502464 0.974823 0.971099
0.500008 0.976745 0.967941
0.499397 0.977737 0.966598
0.498665 0.980392 0.963699
0.511833 0.992599 0.956924
0.731365 0.998932 0.953597
0.919966 0.996063 0.938628
0.997497 0.990143 0.938109
1 0.990204 0.94435
0.501472 0.973587 0.971511
0.500542 0.974884 0.969802
0.500008 0.976135 0.96846
0.499001 0.978912 0.965133
0.511589 0.99173 0.95761
0.723171 0.998932 0.953094
0.913649 0.996963 0.937407
0.991836 0.991745 0.932754
0.999359 0.991897 0.941817
0.0971237 0.291508 0.704204
0.0984512 0.286122 0.704738
0.153994 0.272847 0.736629
0.319203 0.224765 0.800946
0.558679 0.23859 0.857389
0.679973 0.178103 0.75172
0.69073 0.169451 0.742687
0.690608 0.169512 0.742611
0.690715 0.169451 0.742702
0.0963455 0.294514 0.703014
0.096849 0.291615 0.704067
0.113359 0.28278 0.713039
0.293111 0.22649 0.792493
0.545724 0.238895 0.857267
0.682536 0.185748 0.75903
0.690745 0.169451 0.742733
0.690623 0.169497 0.74258
0.68957 0.169879 0.741466
0.0957504 0.301686 0.702815
0.0961776 0.299382 0.703304
0.096788 0.291966 0.703975
0.244785 0.237644 0.777111
0.522805 0.238331 0.855238
0.685039 0.19585 0.769985
0.690852 0.169528 0.742962
0.690791 0.169467 0.742901
0.690257 0.169604 0.742107
0.104692 0.338872 0.71603
0.101488 0.329046 0.711757
0.0968795 0.313619 0.705348
0.0968948 0.291447 0.704158
0.446174 0.234394 0.841306
0.683558 0.215488 0.798001
0.6916 0.170382 0.743587
0.691478 0.170245 0.743557
0.691325 0.170169 0.743069
0.163302 0.542885 0.778347
0.162661 0.539193 0.778256
0.161288 0.532128 0.777813
0.154421 0.508263 0.772473
0.319402 0.458946 0.89337
0.759625 0.411627 0.967269
0.78822 0.274403 0.829831
0.755474 0.242802 0.800534
0.74316 0.229969 0.78909
0.288502 0.766186 0.863264
0.284642 0.762295 0.860304
0.279515 0.756115 0.857176
0.265232 0.739269 0.849134
0.284169 0.726635 0.881056
0.679652 0.737377 0.942123
0.952728 0.729229 0.987961
0.977768 0.695567 0.996994
0.97528 0.687129 0.995041
0.446296 0.941329 0.960327
0.446006 0.942077 0.958846
0.44419 0.940383 0.957732
0.440421 0.935851 0.955673
0.421454 0.917571 0.945174
0.677562 0.932448 0.968368
0.920745 0.9355 0.971099
0.992187 0.929808 0.986496
0.99115 0.924727 0.984924
0.44303 0.940185 0.955413
0.442603 0.941268 0.953338
0.443961 0.942596 0.954513
0.448264 0.946654 0.958419
0.510842 0.971527 0.977615
0.723445 0.985656 0.984482
0.928985 0.98909 0.985229
0.989654 0.98793 0.985016
1 0.985901 0.988602
0.442573 0.940215 0.955047
0.442222 0.940826 0.952972
0.442206 0.940856 0.952895
0.443717 0.942351 0.954299
0.509804 0.971252 0.977844
0.715206 0.98645 0.984024
0.924392 0.990997 0.985458
0.984207 0.991989 0.985016
0.999649 0.99115 0.989105
0.0971389 0.290684 0.704433
0.104067 0.284627 0.70782
0.163821 0.269551 0.742092
0.32398 0.224887 0.80264
0.56199 0.238514 0.857359
0.678111 0.173404 0.747494
0.69073 0.169451 0.742687
0.69073 0.169451 0.742687
0.690715 0.169451 0.742611
0.096437 0.294011 0.703334
0.0969558 0.290745 0.70425
0.122591 0.280827 0.718379
0.298238 0.225986 0.794171
0.549111 0.238926 0.857435
0.681483 0.1823 0.755627
0.69073 0.169451 0.742718
0.69073 0.169451 0.742672
0.690669 0.169436 0.742458
0.0959793 0.301457 0.70312
0.0962081 0.297475 0.703197
0.0969253 0.291112 0.704204
0.250629 0.235645 0.778988
0.525902 0.238315 0.855482
0.684398 0.19353 0.76733
0.690929 0.169635 0.743023
0.690791 0.169467 0.742901
0.690684 0.169436 0.742535
0.103792 0.3364 0.714977
0.100801 0.326635 0.710872
0.0963302 0.311299 0.704479
0.0967269 0.290028 0.703899
0.449088 0.234714 0.8421
0.68365 0.214832 0.796948
0.69163 0.170428 0.743603
0.691508 0.170275 0.743572
0.691341 0.170184 0.743084
0.166979 0.543099 0.783627
0.164584 0.537362 0.78143
0.161105 0.527825 0.778378
0.151644 0.49984 0.769909
0.310109 0.446815 0.887694
0.748547 0.393469 0.961059
0.7673 0.25449 0.810971
0.734768 0.221103 0.781994
0.723995 0.209323 0.772335
0.283223 0.759487 0.863203
0.279484 0.75552 0.860533
0.274434 0.749905 0.857282
0.258701 0.732738 0.847562
0.276722 0.717144 0.874617
0.672938 0.727398 0.941405
0.948989 0.719203 0.987747
0.975402 0.685695 0.995636
0.974517 0.676387 0.995514
0.439445 0.935531 0.955917
0.437522 0.934203 0.954009
0.434882 0.931579 0.952392
0.4271 0.92369 0.947906
0.406775 0.902388 0.93727
0.617624 0.924498 0.973312
0.895018 0.923827 0.973556
0.98555 0.928557 0.990356
0.985946 0.922957 0.990417
0.442542 0.940429 0.954253
0.442222 0.940841 0.952941
0.442206 0.940856 0.952895
0.442206 0.940856 0.952895
0.445838 0.944289 0.956161
0.61178 0.983322 0.992432
0.829969 0.981689 0.989563
0.98027 0.982498 0.991791
0.996963 0.983917 0.996612
0.442664 0.940291 0.95462
0.442222 0.940826 0.952987
0.442206 0.940856 0.952895
0.442206 0.940856 0.952895
0.445731 0.944198 0.956069
0.602228 0.982864 0.992096
0.88484 0.987671 0.991043
0.985016 0.992264 0.993851
0.996399 0.992523 0.996109
