bundles/resolve-cinematic-luts/Phantom Luts/Fx6 Phntm ARRI LUTs-G5/Neutral Fx6-Legacy.cube
TITLE "Generated by Resolve"
LUT_3D_SIZE 33
0.0322423 0.032166 0.0322576
0.0322423 0.032166 0.0322576
0.0332189 0.0323644 0.032105
0.0424201 0.0337987 0.033051
0.0543832 0.0352636 0.0341955
0.0712444 0.0366674 0.0358587
0.0896162 0.0373999 0.0375525
0.110491 0.0379187 0.0396582
0.13315 0.0396124 0.043473
0.161166 0.0417945 0.0485542
0.194766 0.0435035 0.0543069
0.23566 0.0450141 0.0614786
0.28275 0.0466011 0.0700694
0.335866 0.0482185 0.0846265
0.391409 0.05066 0.0996719
0.448753 0.0524758 0.115434
0.50753 0.0530098 0.132296
0.566934 0.0546426 0.152667
0.625254 0.0578622 0.177539
0.688991 0.0616159 0.208408
0.784512 0.070161 0.250019
0.827527 0.0731975 0.274327
0.826429 0.0717479 0.281071
0.825483 0.0704204 0.28719
0.824826 0.0692607 0.29276
0.824079 0.0682078 0.297581
0.823438 0.0673228 0.301579
0.822995 0.0666667 0.30457
0.822522 0.0660716 0.307164
0.822171 0.0656443 0.30901
0.821881 0.0653239 0.310414
0.821653 0.0650645 0.311498
0.821485 0.0648661 0.312337
0.0322423 0.032166 0.0322576
0.0322423 0.032166 0.0322576
0.0322423 0.032166 0.0322576
0.0377508 0.0335088 0.032639
0.0486458 0.0352026 0.0337835
0.0630045 0.0368353 0.0349737
0.0807813 0.0383154 0.0361944
0.103014 0.0386816 0.0377661
0.128176 0.0390631 0.0395819
0.158221 0.0391546 0.0420081
0.194202 0.0404212 0.0473793
0.234241 0.0429236 0.0550393
0.277653 0.0457771 0.0626383
0.327962 0.0485847 0.0732128
0.385031 0.0514992 0.0901961
0.444114 0.0535592 0.107408
0.503487 0.054078 0.124865
0.563622 0.0551614 0.144671
0.622522 0.0585031 0.169558
0.687175 0.0623941 0.200671
0.78175 0.0709544 0.242466
0.828138 0.074403 0.268101
0.827527 0.0730144 0.275319
0.826566 0.0717479 0.281209
0.825772 0.0706188 0.286427
0.825116 0.0695964 0.291279
0.824704 0.0688334 0.294911
0.82417 0.068101 0.298253
0.823713 0.0675059 0.300908
0.823438 0.0670939 0.302724
0.823285 0.066804 0.304097
0.823056 0.0665293 0.305333
0.822889 0.0663157 0.306264
0.0322423 0.032166 0.0322576
0.0322423 0.032166 0.0322576
0.0322423 0.032166 0.0322576
0.0345159 0.0332189 0.0323796
0.0422675 0.0351263 0.0331579
0.0533455 0.0371099 0.0343633
0.0721904 0.0393835 0.0357671
0.0964065 0.0404059 0.0374304
0.122637 0.0407263 0.0393378
0.153429 0.0411536 0.0414893
0.190097 0.0406958 0.0440375
0.231006 0.0404669 0.0477455
0.278614 0.0421607 0.0555734
0.332082 0.0447852 0.0658122
0.384298 0.0500801 0.0800183
0.437537 0.0568246 0.0985428
0.499352 0.0562753 0.117189
0.559884 0.0555123 0.136889
0.619547 0.0590219 0.162356
0.684916 0.0631723 0.193072
0.779126 0.0717174 0.23473
0.828428 0.0756542 0.261082
0.828321 0.0742962 0.268925
0.827741 0.0730602 0.275227
0.826886 0.0719463 0.2804
0.826291 0.0710765 0.284398
0.825757 0.0702373 0.288411
0.825269 0.0695354 0.291737
0.825055 0.0690623 0.294041
0.824781 0.0686503 0.295933
0.824521 0.0682841 0.297566
0.824308 0.0680095 0.298833
0.82414 0.0677806 0.299809
0.0332036 0.0407263 0.0340276
0.0330816 0.0392004 0.0333104
0.0344701 0.0372625 0.0328679
0.035996 0.0364233 0.0328832
0.0411078 0.0371557 0.0337377
0.0481727 0.0387274 0.034165
0.062623 0.0408484 0.0348974
0.0872969 0.0423743 0.0367742
0.11635 0.0424048 0.0391089
0.14786 0.0429389 0.0411231
0.18616 0.0426795 0.0439307
0.228977 0.0416571 0.0469673
0.276143 0.0414588 0.0513161
0.330404 0.0414588 0.056733
0.387915 0.0452277 0.0707256
0.441535 0.0523842 0.0898451
0.494682 0.060502 0.109468
0.556252 0.0580758 0.128969
0.616632 0.059678 0.153918
0.681956 0.063859 0.184878
0.77586 0.0724346 0.226673
0.828473 0.0769207 0.253391
0.828641 0.0755627 0.261799
0.828565 0.0743572 0.268711
0.828168 0.0733196 0.274189
0.827482 0.0723888 0.278538
0.827008 0.0716716 0.281926
0.82652 0.071046 0.284718
0.826139 0.0704814 0.287404
0.82591 0.0700999 0.289326
0.825666 0.069749 0.290944
0.825513 0.0694896 0.292134
0.825498 0.0693523 0.292897
0.0342412 0.0525673 0.0361486
0.0339208 0.0506142 0.0350958
0.0357519 0.0480507 0.0339666
0.0386358 0.0460975 0.0339361
0.0450141 0.0467384 0.0343175
0.0519417 0.0472114 0.0354925
0.0648051 0.0479744 0.0358587
0.087129 0.0488594 0.0367742
0.114534 0.0469825 0.0388647
0.146715 0.0463417 0.0412146
0.181003 0.0446479 0.043595
0.226123 0.0439002 0.0467842
0.274739 0.043122 0.0501869
0.329305 0.0420539 0.0535744
0.386114 0.0428321 0.0614328
0.444816 0.0466621 0.0784314
0.498604 0.0557107 0.101717
0.549935 0.0625162 0.121416
0.612985 0.0603647 0.14522
0.674708 0.0639963 0.175021
0.769909 0.0730755 0.216037
0.828153 0.0780194 0.246326
0.828855 0.0768749 0.253956
0.82887 0.0756542 0.261509
0.82884 0.0746319 0.26746
0.828611 0.0737316 0.272312
0.828168 0.0729839 0.275944
0.827726 0.0723735 0.278767
0.827298 0.0718547 0.281086
0.827176 0.0715496 0.282597
0.826947 0.0712596 0.28394
0.826749 0.0710155 0.285115
0.826612 0.0708019 0.286091
0.0347906 0.0690929 0.0381781
0.0343633 0.0667277 0.036286
0.0356146 0.0637827 0.0349737
0.0407416 0.0594797 0.0347601
0.0458228 0.0579385 0.0349126
0.0545663 0.0590066 0.0353857
0.0699016 0.0591745 0.0369116
0.0907454 0.0583658 0.0380713
0.11426 0.0554055 0.0390478
0.146136 0.0557565 0.0406043
0.184421 0.0547646 0.0428931
0.227436 0.0488746 0.0465248
0.272694 0.0461738 0.0497597
0.328054 0.0452277 0.0532387
0.386267 0.0443427 0.0593576
0.443976 0.0450752 0.0692149
0.502998 0.0489815 0.0898299
0.55317 0.0584726 0.114092
0.608194 0.0610666 0.135943
0.667369 0.0639658 0.166278
0.761746 0.073106 0.206363
0.822889 0.0785229 0.237659
0.828489 0.0779736 0.246937
0.829084 0.0769513 0.253742
0.829084 0.0758831 0.260319
0.829129 0.0750286 0.2654
0.829068 0.0742962 0.269505
0.82887 0.0737163 0.272557
0.828626 0.0732433 0.274876
0.828321 0.0728466 0.276722
0.828122 0.0725719 0.278019
0.827924 0.072343 0.279118
0.827787 0.0721447 0.279973
0.0350347 0.0881361 0.0406195
0.0345006 0.0855726 0.0372168
0.0349279 0.083238 0.0356451
0.0413214 0.078233 0.0350805
0.0464942 0.075288 0.0358434
0.0552071 0.0755932 0.0362097
0.0718547 0.077348 0.0359503
0.09308 0.0769818 0.0378424
0.117388 0.0724193 0.0399329
0.142382 0.0686351 0.0402075
0.184405 0.0657816 0.0425269
0.226291 0.0635691 0.0447089
0.28368 0.0576333 0.0491035
0.326406 0.049546 0.0527504
0.385595 0.0486305 0.0590677
0.444617 0.0469673 0.0667124
0.503471 0.0472267 0.0787366
0.55906 0.0505074 0.101183
0.605447 0.0606088 0.126116
0.664118 0.0651865 0.155505
0.751614 0.0731365 0.194446
0.815473 0.0791333 0.225574
0.822797 0.078706 0.236316
0.828656 0.0783246 0.244892
0.82919 0.0774548 0.250721
0.82945 0.0766766 0.255833
0.829374 0.0758831 0.260533
0.829465 0.0753338 0.263905
0.829496 0.0748913 0.266499
0.829465 0.0745098 0.268574
0.829389 0.0742046 0.270237
0.829297 0.0739605 0.271489
0.829221 0.0738231 0.272251
0.0350042 0.110063 0.0436866
0.0344854 0.10811 0.0400397
0.0345312 0.106554 0.0373541
0.039765 0.103502 0.0348058
0.0462196 0.0991379 0.0355688
0.0545052 0.0970321 0.0375677
0.0706798 0.0965438 0.0383307
0.0930343 0.0985733 0.0360418
0.117769 0.0975662 0.0379034
0.146853 0.0923629 0.0399481
0.181582 0.0833143 0.0419623
0.226139 0.0772869 0.0447089
0.280003 0.0737011 0.0486458
0.338277 0.0691081 0.0527199
0.391562 0.0581826 0.0592355
0.444144 0.0526131 0.0664225
0.505089 0.0495613 0.0751812
0.562783 0.049073 0.0899062
0.61294 0.0504463 0.110567
0.654673 0.0618448 0.137438
0.736553 0.0727245 0.17818
0.804349 0.0795605 0.209766
0.812314 0.0795605 0.219226
0.81886 0.0791333 0.228916
0.824628 0.0788281 0.237278
0.828794 0.0785229 0.243748
0.829389 0.0780041 0.247547
0.829618 0.0775158 0.250736
0.829694 0.0770733 0.253498
0.829862 0.0767834 0.255482
0.829847 0.0764782 0.257343
0.829816 0.0762493 0.258778
0.829801 0.076051 0.259876
0.0349889 0.134508 0.0475624
0.034287 0.132448 0.0441444
0.0339208 0.131456 0.0380865
0.0356756 0.130098 0.0348211
0.0450294 0.125887 0.0344701
0.0523232 0.122713 0.0365148
0.0682536 0.120928 0.0413977
0.0892348 0.120104 0.04065
0.115053 0.123079 0.0357824
0.14728 0.120455 0.0376135
0.183276 0.113497 0.0404212
0.231769 0.0972 0.045716
0.273045 0.0929885 0.0481727
0.341329 0.0895857 0.0547341
0.398337 0.0852674 0.0596017
0.465446 0.074464 0.068574
0.505867 0.0573892 0.0751812
0.565789 0.0521859 0.0854047
0.6206 0.0514839 0.102525
0.663874 0.0496834 0.119905
0.709361 0.0698711 0.153521
0.788434 0.0796063 0.189807
0.79678 0.0797436 0.199054
0.804395 0.0797894 0.208042
0.810437 0.0797742 0.215442
0.815686 0.0797284 0.221744
0.819333 0.0793927 0.227619
0.822538 0.0791791 0.2327
0.825193 0.0790875 0.236164
0.827268 0.0790112 0.238911
0.82884 0.0789349 0.241001
0.829297 0.0787976 0.242405
0.829389 0.0786603 0.243366
0.0349432 0.164767 0.0546273
0.034226 0.162783 0.0499275
0.0339208 0.16144 0.0439918
0.0340734 0.160601 0.0376898
0.0410315 0.15877 0.0346227
0.049958 0.155306 0.0352026
0.0631571 0.151629 0.0395972
0.0845808 0.150103 0.0458381
0.109804 0.148333 0.0438544
0.13994 0.151583 0.0363775
0.183902 0.147982 0.0384222
0.226932 0.139284 0.0429847
0.28632 0.116823 0.0509957
0.331167 0.114504 0.05449
0.40531 0.112016 0.0631418
0.467552 0.108736 0.0699626
0.541405 0.100679 0.0814984
0.586282 0.076524 0.0894179
0.62594 0.0557717 0.0971237
0.675624 0.0526741 0.115221
0.70779 0.0522316 0.134325
0.766766 0.0751965 0.1664
0.774121 0.0791333 0.174075
0.782559 0.0795148 0.182467
0.789853 0.0798657 0.189502
0.795392 0.0799725 0.194919
0.799847 0.0800183 0.200595
0.803586 0.0800488 0.20499
0.806424 0.0800641 0.208286
0.808438 0.0800488 0.21091
0.810101 0.0800641 0.212818
0.811429 0.0800793 0.214328
0.812421 0.0800488 0.215579
0.0352636 0.203296 0.0656748
0.0346227 0.201266 0.0602579
0.034165 0.199527 0.0540017
0.0337835 0.198199 0.0456703
0.0345769 0.197055 0.0375982
0.0444495 0.195361 0.0353399
0.057496 0.191669 0.0371862
0.0780194 0.188083 0.0432288
0.104311 0.186664 0.0504463
0.133745 0.184421 0.0489509
0.172641 0.188327 0.0381323
0.229053 0.184482 0.0414435
0.280049 0.175204 0.0477607
0.347723 0.148287 0.0584268
0.396567 0.145159 0.0634012
0.473732 0.14609 0.0754253
0.547555 0.14461 0.0877852
0.617868 0.138338 0.0975814
0.679072 0.110689 0.107622
0.707698 0.0691539 0.111254
0.726528 0.0522927 0.127062
0.759304 0.0624247 0.152834
0.769223 0.0669261 0.158694
0.76875 0.0686198 0.160281
0.768536 0.0699474 0.161547
0.7682 0.0712444 0.162768
0.768612 0.0740063 0.165499
0.773983 0.0793164 0.171984
0.777569 0.0795453 0.175204
0.780285 0.0796674 0.177859
0.782284 0.0797589 0.179858
0.783795 0.0798352 0.181277
0.784817 0.0798505 0.182437
0.0364233 0.248478 0.0784772
0.0360113 0.24686 0.0736553
0.0354772 0.245624 0.0697948
0.0350042 0.243397 0.0612497
0.0345922 0.241978 0.0508431
0.0353552 0.240482 0.0404822
0.0487068 0.239155 0.0370336
0.0695506 0.234928 0.0402686
0.097261 0.232486 0.0484321
0.12871 0.231403 0.0585489
0.167025 0.229297 0.0569467
0.21709 0.235248 0.0419013
0.285618 0.231708 0.0470436
0.344991 0.223117 0.0547646
0.414679 0.196674 0.0701305
0.469932 0.187869 0.079408
0.543801 0.189715 0.0915541
0.62884 0.18854 0.105882
0.699458 0.181186 0.113527
0.783093 0.155474 0.125277
0.817884 0.103075 0.130785
0.821378 0.0582589 0.138872
0.78819 0.0522774 0.146258
0.773373 0.0582284 0.150607
0.772686 0.0592355 0.151522
0.772305 0.0600137 0.152239
0.771817 0.0607309 0.152911
0.77145 0.0613413 0.15346
0.77116 0.0618143 0.153903
0.770977 0.0621805 0.154238
0.770855 0.0624247 0.154452
0.770733 0.062623 0.154635
0.770657 0.0628061 0.154818
0.0402686 0.305272 0.0968185
0.0397345 0.303639 0.0924086
0.0390936 0.302434 0.0881056
0.0383459 0.300832 0.0823224
0.0377203 0.298436 0.07364
0.0373388 0.296696 0.0632029
0.0379644 0.294347 0.0462959
0.059144 0.293355 0.0414435
0.0855879 0.28893 0.0460365
0.120836 0.287846 0.0571908
0.161044 0.28716 0.0717174
0.210712 0.284932 0.0691997
0.271015 0.292638 0.0482795
0.350118 0.289128 0.0547951
0.411292 0.282261 0.0640116
0.484154 0.256504 0.0850843
0.549371 0.244602 0.0984817
0.614313 0.237812 0.107683
0.709529 0.238437 0.123384
0.794415 0.230289 0.132342
0.874876 0.205631 0.140612
0.931502 0.150439 0.148165
0.93167 0.0992752 0.146868
0.909606 0.0775464 0.142992
0.887877 0.0674449 0.142626
0.867079 0.0616465 0.143328
0.849332 0.0572519 0.143648
0.834897 0.0539864 0.143359
0.821942 0.05243 0.143572
0.811734 0.0516976 0.144106
0.803143 0.0512093 0.144183
0.796201 0.0504311 0.143481
0.793835 0.0522011 0.146197
0.0465705 0.368994 0.119173
0.0462043 0.367697 0.114931
0.045716 0.366232 0.110399
0.0450599 0.365103 0.106935
0.0444648 0.363592 0.101167
0.0438087 0.361532 0.0935225
0.0434424 0.359548 0.0793317
0.0446784 0.356542 0.0552682
0.0746624 0.354604 0.047715
0.106432 0.349172 0.0542
0.151766 0.348837 0.0701305
0.203418 0.347448 0.0903792
0.261402 0.345495 0.0827344
0.332952 0.356542 0.0544289
0.415702 0.353155 0.0680095
0.479652 0.34847 0.0775158
0.554696 0.32639 0.0993362
0.632029 0.310048 0.11931
0.689006 0.302678 0.125734
0.792035 0.291615 0.140337
0.892561 0.283955 0.151247
0.954635 0.262776 0.154574
1 0.229862 0.160342
0.999771 0.211841 0.159258
0.992721 0.193301 0.15787
0.985534 0.178592 0.156512
0.978805 0.166308 0.155123
0.97322 0.155459 0.154025
0.968399 0.146471 0.153216
0.964508 0.140414 0.152605
0.961303 0.135744 0.152056
0.958541 0.131899 0.151553
0.956115 0.128939 0.151019
0.0549477 0.434989 0.14638
0.0543832 0.433616 0.142138
0.0538491 0.43212 0.13666
0.053193 0.431022 0.132525
0.0523537 0.430198 0.128939
0.0516365 0.429007 0.124559
0.0508278 0.426657 0.11545
0.0504616 0.423941 0.0973068
0.052903 0.420661 0.0673991
0.094728 0.417243 0.0569314
0.133806 0.4121 0.0673991
0.193408 0.411612 0.0907912
0.255924 0.409979 0.11548
0.321904 0.409415 0.0987411
0.398245 0.423362 0.0673991
0.483757 0.419486 0.0849928
0.549798 0.415671 0.0970321
0.624903 0.398398 0.115648
0.714382 0.376013 0.139727
0.7691 0.370184 0.144518
0.868055 0.345006 0.157198
0.966079 0.339117 0.169055
1 0.321477 0.170459
1 0.311849 0.168154
1 0.302663 0.166094
1 0.294606 0.164553
1 0.287938 0.163439
1 0.282322 0.162585
1 0.27805 0.162142
1 0.274479 0.161578
1 0.271672 0.16141
1 0.269642 0.16144
1 0.267887 0.161273
0.0694285 0.504143 0.181476
0.0688182 0.502846 0.177005
0.0682994 0.501442 0.171542
0.067628 0.500099 0.16643
0.066804 0.499153 0.162478
0.0659495 0.498543 0.159945
0.0647746 0.497215 0.154253
0.0636759 0.494179 0.141543
0.0635538 0.491295 0.118318
0.0677348 0.487007 0.0790112
0.12047 0.482124 0.0713512
0.175082 0.478065 0.0911269
0.246189 0.477195 0.119219
0.317571 0.475471 0.141604
0.387671 0.476127 0.117281
0.465324 0.492226 0.0864271
0.552666 0.488655 0.106508
0.620249 0.485374 0.118486
0.696422 0.472236 0.134112
0.794141 0.442969 0.158511
0.860044 0.434821 0.165698
0.932723 0.41503 0.171817
1 0.395056 0.182849
1 0.38703 0.182361
1 0.380926 0.181353
1 0.375494 0.180453
1 0.371145 0.179828
1 0.367376 0.179202
1 0.364492 0.178851
1 0.362036 0.178485
1 0.360098 0.178286
1 0.358572 0.178103
1 0.357397 0.177951
0.0881208 0.575784 0.222782
0.0873884 0.574655 0.218677
0.0866712 0.573465 0.213718
0.0859541 0.572183 0.20885
0.0851759 0.571054 0.204013
0.0842603 0.570153 0.200549
0.0830854 0.569177 0.197086
0.0816358 0.567636 0.189853
0.0805676 0.563882 0.170794
0.0805982 0.560891 0.140917
0.0893568 0.555215 0.0925917
0.160388 0.548379 0.0964065
0.232166 0.545495 0.123079
0.310582 0.544015 0.153262
0.384695 0.543114 0.164294
0.454734 0.544442 0.137804
0.53312 0.561517 0.110674
0.621225 0.55819 0.130785
0.690944 0.554986 0.143313
0.768505 0.54548 0.155123
0.862364 0.511727 0.179416
0.94168 0.500282 0.190845
0.980072 0.493767 0.189593
1 0.481529 0.192447
1 0.473732 0.191867
1 0.466819 0.191165
1 0.461128 0.190845
1 0.45626 0.190478
1 0.452262 0.190311
1 0.449073 0.190112
1 0.446754 0.189822
1 0.444907 0.189731
1 0.443595 0.1897
0.109361 0.649683 0.267079
0.108827 0.648844 0.263066
0.108156 0.647807 0.259037
0.107485 0.646632 0.254734
0.106813 0.645472 0.250004
0.106096 0.644404 0.245701
0.105135 0.643275 0.241718
0.103517 0.64184 0.237064
0.10161 0.639796 0.227893
0.100755 0.635065 0.20209
0.101701 0.630838 0.16257
0.121645 0.62388 0.1122
0.21474 0.615351 0.128069
0.300328 0.614115 0.160403
0.38204 0.612345 0.190372
0.453544 0.612161 0.189166
0.523095 0.614313 0.162509
0.600153 0.63183 0.136431
0.688823 0.626917 0.15935
0.760784 0.623911 0.17258
0.836164 0.616297 0.181796
0.917708 0.58735 0.201984
0.985794 0.572885 0.214282
1 0.572702 0.208835
1 0.566949 0.206867
1 0.561776 0.20502
1 0.557351 0.203891
1 0.554238 0.202991
1 0.551614 0.202106
1 0.549401 0.201648
1 0.547677 0.201266
1 0.546365 0.200961
1 0.545327 0.200748
0.132448 0.726268 0.313283
0.131807 0.725185 0.30959
0.131106 0.724086 0.306249
0.130495 0.723033 0.302525
0.129915 0.721965 0.298436
0.129351 0.720867 0.29453
0.128634 0.71957 0.28954
0.127459 0.718212 0.283619
0.125704 0.716289 0.277226
0.123659 0.713024 0.262898
0.123033 0.707408 0.23212
0.125811 0.700679 0.183139
0.172976 0.693187 0.138918
0.287373 0.685161 0.169055
0.376059 0.683894 0.202518
0.453803 0.68188 0.229511
0.521904 0.681971 0.217655
0.589776 0.684489 0.191959
0.666453 0.704128 0.166049
0.755367 0.695293 0.19086
0.82681 0.692988 0.204837
0.892592 0.686473 0.211231
0.956222 0.669154 0.218769
0.996124 0.654841 0.233402
0.996277 0.652338 0.233326
0.996582 0.647623 0.232136
0.996811 0.644144 0.231037
0.997024 0.640955 0.230152
0.997192 0.638376 0.229633
0.997314 0.636332 0.229297
0.997421 0.634821 0.228779
0.997497 0.633616 0.228428
0.997574 0.63267 0.228183
0.159075 0.805768 0.356573
0.158587 0.804959 0.353887
0.157931 0.804013 0.350988
0.157336 0.803021 0.347753
0.156771 0.801999 0.344472
0.15613 0.800961 0.341482
0.155291 0.799725 0.336614
0.154101 0.798047 0.329839
0.152377 0.795712 0.32221
0.14995 0.793256 0.314031
0.147707 0.788998 0.295155
0.14725 0.782956 0.255329
0.155154 0.772564 0.194995
0.238575 0.763897 0.172076
0.367895 0.75845 0.215244
0.449287 0.757046 0.244709
0.523033 0.754559 0.266041
0.588952 0.753704 0.250446
0.654734 0.755825 0.226169
0.729595 0.77557 0.201129
0.821683 0.766384 0.22414
0.88394 0.765545 0.238911
0.938231 0.760662 0.24303
0.980819 0.750317 0.243244
0.991623 0.737331 0.246815
0.991745 0.73283 0.24509
0.991821 0.729091 0.243854
0.991882 0.726574 0.243061
0.991943 0.724529 0.242557
0.99205 0.722698 0.242283
0.992126 0.721218 0.24213
0.992187 0.720027 0.242115
0.992248 0.719127 0.2421
0.187366 0.877546 0.395956
0.186709 0.876707 0.392966
0.186038 0.875883 0.390234
0.185321 0.875044 0.387274
0.184756 0.87422 0.384543
0.184283 0.873549 0.381765
0.183474 0.872511 0.377737
0.182361 0.870924 0.372381
0.180835 0.868849 0.364477
0.178134 0.866026 0.355535
0.174304 0.862974 0.346471
0.171893 0.858152 0.322011
0.173983 0.849378 0.273823
0.195956 0.84155 0.213993
0.329335 0.830228 0.221195
0.443107 0.827207 0.260136
0.520546 0.82446 0.286091
0.587884 0.82179 0.299046
0.65391 0.821057 0.283299
0.720073 0.824521 0.260121
0.795132 0.846296 0.236835
0.880369 0.837522 0.257679
0.93167 0.838972 0.269429
0.971466 0.835615 0.274113
0.990066 0.828153 0.27834
0.990112 0.822995 0.277256
0.990143 0.819791 0.27599
0.990188 0.816968 0.274586
0.990219 0.814527 0.273716
0.990234 0.812604 0.272984
0.990265 0.811109 0.272374
0.99028 0.809949 0.271901
0.990295 0.809033 0.271534
0.219181 0.938201 0.433341
0.217914 0.937331 0.430365
0.216632 0.936492 0.427649
0.215534 0.935897 0.424704
0.214176 0.935073 0.421851
0.212848 0.934188 0.418845
0.21149 0.932952 0.415396
0.209186 0.931456 0.410452
0.206455 0.929503 0.403571
0.204654 0.927031 0.394537
0.201907 0.924132 0.38407
0.198322 0.92076 0.371725
0.196246 0.915145 0.33959
0.209705 0.90576 0.288014
0.247028 0.897642 0.234897
0.422278 0.887968 0.272923
0.513726 0.884474 0.303319
0.5888 0.881453 0.328023
0.650187 0.880446 0.330388
0.718303 0.880644 0.313954
0.786572 0.88716 0.291295
0.856962 0.909712 0.27248
0.929656 0.901091 0.293309
0.969009 0.901747 0.301122
0.990173 0.901259 0.30663
0.990005 0.897246 0.309911
0.989975 0.894362 0.308873
0.98996 0.891981 0.307927
0.989944 0.890059 0.30724
0.989929 0.888518 0.306752
0.989914 0.887388 0.306142
0.989914 0.886458 0.305776
0.989914 0.88571 0.305486
0.24358 0.970993 0.462379
0.242817 0.97055 0.459678
0.242069 0.970092 0.457099
0.24126 0.969589 0.454322
0.240253 0.969162 0.451743
0.239475 0.968841 0.449195
0.238483 0.968429 0.446082
0.236957 0.967666 0.442161
0.234913 0.966506 0.436271
0.232151 0.964904 0.428214
0.228428 0.962814 0.416434
0.223667 0.960479 0.403311
0.21912 0.958404 0.38851
0.228931 0.955032 0.354788
0.251698 0.94725 0.306416
0.332174 0.936522 0.276814
0.501671 0.931212 0.319509
0.581109 0.92871 0.344671
0.653635 0.92546 0.367147
0.710246 0.926116 0.359564
0.781064 0.927443 0.341985
0.849744 0.938979 0.319753
0.910262 0.960021 0.30782
0.967407 0.950286 0.325872
0.992401 0.952956 0.330083
0.993255 0.950347 0.338338
0.993179 0.948333 0.337102
0.993103 0.946624 0.336294
0.993042 0.945235 0.335485
0.992981 0.944121 0.334813
0.99295 0.943236 0.334295
0.99292 0.942565 0.333867
0.992889 0.942077 0.333486
0.245579 0.972412 0.471595
0.244968 0.971954 0.468681
0.244312 0.971481 0.465537
0.243595 0.970993 0.462409
0.242786 0.970535 0.459571
0.242023 0.970047 0.456962
0.240955 0.969467 0.45362
0.239429 0.968826 0.449027
0.237507 0.967956 0.443732
0.234791 0.966415 0.435828
0.231083 0.964309 0.42475
0.226596 0.961654 0.409995
0.220584 0.959381 0.395514
0.223789 0.957015 0.366979
0.251652 0.957717 0.33312
0.308858 0.956146 0.309773
0.451194 0.952667 0.331975
0.574472 0.94757 0.365637
0.645335 0.945769 0.392798
0.70959 0.945846 0.40087
0.767147 0.947356 0.391592
0.840726 0.953246 0.368185
0.897551 0.972122 0.344274
0.947127 0.975967 0.351232
0.989105 0.984482 0.359609
0.994171 0.984131 0.369238
0.994141 0.982544 0.368185
0.994125 0.981582 0.365423
0.994125 0.980941 0.363836
0.99411 0.980285 0.362341
0.99411 0.979782 0.361181
0.994095 0.97937 0.360296
0.994095 0.979065 0.359899
0.247044 0.973648 0.479377
0.246494 0.97319 0.476341
0.24593 0.972717 0.47361
0.245335 0.972213 0.470283
0.244678 0.971725 0.467231
0.243992 0.971252 0.464027
0.243015 0.970672 0.46041
0.241672 0.969802 0.455634
0.239597 0.968887 0.449592
0.237049 0.967712 0.442405
0.233326 0.965606 0.431449
0.22855 0.962875 0.416724
0.223499 0.960235 0.400595
0.219135 0.957015 0.375113
0.245655 0.95761 0.340414
0.29482 0.95671 0.31017
0.421241 0.953201 0.325399
0.562188 0.948013 0.361242
0.635325 0.945983 0.389151
0.701549 0.945754 0.40209
0.759182 0.94754 0.398444
0.827008 0.950683 0.383719
0.890517 0.968963 0.365881
0.9402 0.981781 0.36257
0.978164 0.982513 0.37348
0.994141 0.985428 0.393133
0.994095 0.985504 0.410666
0.994095 0.985489 0.408286
0.99411 0.985473 0.406256
0.99411 0.985473 0.404898
0.99411 0.985473 0.404898
0.99411 0.985473 0.404898
0.99411 0.985473 0.404898
0.248127 0.974731 0.486793
0.247654 0.974243 0.483497
0.247135 0.973739 0.480064
0.246586 0.973251 0.476829
0.246006 0.972778 0.474022
0.245411 0.972274 0.47068
0.244602 0.971679 0.466835
0.24332 0.97084 0.461585
0.241535 0.969726 0.455131
0.238895 0.968612 0.447318
0.235233 0.966735 0.437278
0.230488 0.963973 0.422766
0.22594 0.960922 0.404715
0.219547 0.958007 0.383474
0.241123 0.957671 0.34786
0.28336 0.957336 0.310689
0.397269 0.953292 0.320043
0.550362 0.948486 0.357488
0.626947 0.946136 0.385809
0.694469 0.945571 0.40206
0.752422 0.94728 0.399069
0.81825 0.950027 0.386755
0.883909 0.966094 0.367498
0.934371 0.983017 0.359243
0.97084 0.98088 0.369375
0.994156 0.985382 0.383001
0.994095 0.985489 0.409888
0.994095 0.985504 0.410712
0.994095 0.985504 0.410605
0.994095 0.985489 0.409216
0.994095 0.985489 0.40798
0.994095 0.985489 0.407034
0.99411 0.985473 0.406302
0.248981 0.975616 0.492805
0.248524 0.975128 0.489433
0.248035 0.97464 0.486213
0.247532 0.974121 0.482689
0.246998 0.973617 0.479164
0.246448 0.973129 0.476066
0.245716 0.972519 0.472328
0.244602 0.971679 0.466835
0.242878 0.970581 0.459876
0.240269 0.969162 0.451759
0.236835 0.96762 0.441825
0.232074 0.964874 0.427985
0.227756 0.961761 0.408743
0.220264 0.958709 0.389548
0.237552 0.957641 0.353658
0.273198 0.957748 0.310964
0.37792 0.953521 0.31577
0.53962 0.948959 0.354299
0.620157 0.946258 0.382971
0.688594 0.945434 0.401984
0.7467 0.947082 0.399619
0.810529 0.949676 0.388769
0.878737 0.963729 0.369879
0.927306 0.981201 0.359182
