bundles/resolve-cinematic-luts/Phantom Luts/Fx6 Phntm ARRI LUTs-G5/Neutral Fx6.cube
TITLE "Generated by Resolve"
LUT_3D_SIZE 33
0.0142519 0.0142519 0.0142519
0.0142519 0.0142519 0.0142519
0.0186465 0.0148623 0.0140841
0.0363012 0.0188449 0.016022
0.0577401 0.0210269 0.019028
0.0835126 0.0233158 0.0231785
0.107897 0.0253758 0.0279545
0.136339 0.0276036 0.0333104
0.169192 0.0301061 0.0393225
0.207309 0.0329137 0.0463111
0.249668 0.0357366 0.0542306
0.300832 0.0376135 0.0642405
0.357122 0.0388037 0.0796979
0.413657 0.0422065 0.0992447
0.472435 0.0453956 0.118059
0.531762 0.0474708 0.137942
0.591424 0.0473945 0.158572
0.651041 0.0482795 0.184451
0.709697 0.0517281 0.218311
0.772168 0.054963 0.258549
0.860853 0.0636149 0.308354
0.893187 0.065568 0.33576
0.891554 0.0631876 0.344793
0.890166 0.0611887 0.352422
0.889158 0.0595865 0.358648
0.888167 0.0581826 0.363958
0.887327 0.0570535 0.368185
0.886763 0.0562142 0.371313
0.886168 0.0554665 0.374014
0.88574 0.0549477 0.375952
0.885374 0.05449 0.377569
0.885084 0.054139 0.37882
0.884871 0.0538796 0.379751
0.0142519 0.0142519 0.0142519
0.0142519 0.0142519 0.0142519
0.0142519 0.0142519 0.0142519
0.0297246 0.0188602 0.0153506
0.0471199 0.0225986 0.0180514
0.0714122 0.0240635 0.021088
0.0975204 0.02533 0.0238651
0.127535 0.0260166 0.0272374
0.162173 0.0270848 0.0319829
0.202731 0.0288396 0.0383154
0.248341 0.0308995 0.0459144
0.298634 0.0338445 0.0551308
0.351949 0.0375982 0.0662394
0.406058 0.0441749 0.0838788
0.466026 0.0466316 0.105669
0.527337 0.0491646 0.126909
0.587655 0.0491493 0.148272
0.647913 0.0492103 0.173358
0.707317 0.0528573 0.207584
0.770809 0.0563363 0.248356
0.85919 0.065095 0.298787
0.894286 0.0674601 0.327825
0.893065 0.0652476 0.337072
0.891646 0.0631571 0.344976
0.890471 0.0614481 0.351522
0.889525 0.060029 0.356985
0.888884 0.0590066 0.361028
0.888182 0.0580301 0.36466
0.887617 0.0572671 0.367468
0.887251 0.0567483 0.369375
0.887007 0.0563821 0.370809
0.886748 0.0560311 0.372091
0.886534 0.0557717 0.373068
0.0142519 0.0142519 0.0142519
0.0142519 0.0142519 0.0142519
0.0142519 0.0142519 0.0142519
0.0238499 0.0183261 0.014725
0.0358434 0.0248264 0.0169985
0.0558938 0.0258488 0.0203861
0.0853132 0.0274968 0.0240635
0.117037 0.0289464 0.027512
0.154223 0.0292515 0.0312505
0.197238 0.0296178 0.0357366
0.243565 0.0302739 0.0410468
0.294545 0.0307317 0.0463722
0.352834 0.0321965 0.0552224
0.410651 0.0380102 0.0712902
0.465766 0.048249 0.0933547
0.521279 0.0542916 0.115572
0.583917 0.0525063 0.138201
0.644343 0.0499275 0.161929
0.704768 0.0540475 0.196002
0.769085 0.0578775 0.237308
0.85771 0.0666667 0.288334
0.89514 0.0694133 0.319097
0.894347 0.0672618 0.328862
0.893248 0.0653086 0.33695
0.891997 0.0634775 0.343877
0.891051 0.062089 0.349187
0.890272 0.060914 0.353765
0.889616 0.0599374 0.357473
0.889235 0.0592966 0.360037
0.888853 0.0587472 0.362173
0.888502 0.0582742 0.363912
0.888243 0.057908 0.365286
0.888029 0.0576181 0.366308
0.0168765 0.0335546 0.0209354
0.0167849 0.0312963 0.0181582
0.0232395 0.028397 0.0161746
0.0265354 0.0272221 0.0161135
0.0337682 0.0285954 0.018967
0.045716 0.0303655 0.020325
0.0716106 0.029633 0.0233463
0.106462 0.0314031 0.0273136
0.145342 0.0323796 0.0308537
0.190295 0.0320745 0.0344854
0.240238 0.0316777 0.0390173
0.293111 0.0320745 0.0443885
0.350805 0.0322576 0.0486458
0.409659 0.0330816 0.0567025
0.470436 0.0394903 0.0766613
0.525872 0.0535134 0.105974
0.579904 0.0605173 0.128817
0.641184 0.0542 0.152087
0.70219 0.0552987 0.183764
0.766598 0.0592508 0.225757
0.85565 0.0681468 0.277684
0.895796 0.0713359 0.310018
0.895247 0.0692607 0.319936
0.89456 0.0673686 0.328573
0.893706 0.0657054 0.335531
0.892668 0.0641794 0.34136
0.891905 0.0629892 0.345876
0.891203 0.0620279 0.349554
0.890669 0.0612345 0.352621
0.890318 0.0606851 0.354772
0.889998 0.0602121 0.356588
0.889769 0.0598611 0.357931
0.889677 0.0596628 0.358755
0.0206149 0.0540475 0.0264591
0.0196536 0.0508888 0.0248112
0.0259556 0.0454566 0.0209354
0.0305486 0.0415503 0.0203098
0.0399176 0.0426184 0.0209506
0.052369 0.0437629 0.0250706
0.0731518 0.0433051 0.0260777
0.107057 0.0417487 0.0282597
0.143252 0.0420691 0.030396
0.189319 0.0389563 0.034699
0.234943 0.0350958 0.0383459
0.290944 0.0347906 0.0425422
0.35021 0.0345464 0.0463264
0.409491 0.0349126 0.0520943
0.469535 0.0363012 0.0613718
0.530449 0.043595 0.087129
0.584512 0.0595712 0.120363
0.635569 0.0612345 0.141878
0.698833 0.0565652 0.171313
0.759854 0.0599222 0.212116
0.851209 0.0694438 0.265278
0.896239 0.0733196 0.300435
0.89604 0.0712444 0.310658
0.89546 0.0693828 0.319585
0.894896 0.0677653 0.326955
0.894224 0.0663462 0.333135
0.893507 0.0651255 0.337881
0.892836 0.0641184 0.34165
0.892241 0.0632944 0.344747
0.891951 0.0627909 0.346746
0.891615 0.0623331 0.348531
0.891356 0.0619516 0.349981
0.891157 0.061677 0.35111
0.022797 0.0789044 0.0293431
0.0213931 0.0755627 0.0266423
0.0255131 0.0709392 0.0245365
0.0334936 0.0638895 0.0247349
0.0424811 0.0614786 0.0258183
0.0580301 0.0636912 0.0251011
0.0801251 0.064332 0.0272068
0.110521 0.0590982 0.0301213
0.143145 0.0560311 0.0308537
0.189181 0.0552529 0.0340276
0.240024 0.0529488 0.0373999
0.293278 0.0442664 0.0420996
0.348547 0.0401312 0.0459297
0.40885 0.0405127 0.0519722
0.470054 0.0406043 0.0599985
0.530755 0.0407263 0.0712139
0.590036 0.0492714 0.102327
0.639384 0.0640574 0.135103
0.694224 0.0577401 0.159228
0.752956 0.060441 0.198657
0.844434 0.0701915 0.251865
0.892943 0.0746777 0.288945
0.896437 0.0731823 0.301259
0.896223 0.0713359 0.310384
0.89572 0.0697185 0.318151
0.895323 0.0683909 0.3243
0.894865 0.067216 0.329534
0.894408 0.0663005 0.33341
0.89398 0.0655375 0.3364
0.893538 0.0648814 0.338903
0.893233 0.0644236 0.340642
0.892958 0.0640269 0.342107
0.892744 0.0637217 0.343252
0.0241703 0.105425 0.0328069
0.0224155 0.10251 0.0281987
0.0243534 0.0995193 0.0257267
0.0336614 0.0927443 0.0243839
0.0437171 0.0875868 0.0278325
0.0599527 0.0876936 0.0301366
0.0837568 0.0913558 0.0263523
0.112734 0.0905928 0.029099
0.147768 0.0834211 0.0323033
0.184466 0.0758221 0.0335088
0.241032 0.0691691 0.0376593
0.294133 0.0658122 0.0408179
0.362295 0.0586099 0.046067
0.407828 0.0472419 0.0517433
0.469932 0.0473487 0.0599527
0.531456 0.04654 0.0703288
0.591745 0.045655 0.0846876
0.646525 0.0531472 0.11693
0.692287 0.0673533 0.149248
0.750179 0.0625162 0.183658
0.835859 0.0710765 0.235233
0.888014 0.0762341 0.274159
0.892989 0.0750134 0.287114
0.896773 0.0738079 0.298375
0.89659 0.0721904 0.306477
0.896361 0.0709087 0.312825
0.895918 0.0697185 0.318395
0.89572 0.068864 0.322393
0.895491 0.0681315 0.325689
0.895262 0.0675364 0.328328
0.895048 0.0670634 0.330434
0.89485 0.0666819 0.332021
0.894713 0.0664378 0.332998
0.0246281 0.136629 0.0378729
0.0228275 0.134127 0.0324712
0.0234836 0.132006 0.028809
0.032639 0.128069 0.0252079
0.0432593 0.122026 0.0262913
0.0592813 0.118715 0.0324254
0.0835584 0.118044 0.0342565
0.112505 0.122438 0.0268864
0.149142 0.119814 0.0299992
0.191272 0.110689 0.0339208
0.238117 0.0958877 0.0374914
0.294652 0.0884565 0.0415656
0.359411 0.0849775 0.0469215
0.421134 0.0785534 0.0523995
0.476967 0.0630045 0.0607156
0.531319 0.0554208 0.070222
0.593271 0.0530098 0.0830396
0.651423 0.0505989 0.0996414
0.701335 0.0539406 0.128008
0.7411 0.0642405 0.160647
0.822248 0.0715343 0.211795
0.880385 0.0780194 0.252949
0.885954 0.0771649 0.266255
0.890486 0.0760357 0.277943
0.894347 0.0750896 0.288273
0.896986 0.0741283 0.296803
0.897078 0.0731365 0.302037
0.896925 0.0722515 0.306462
0.896727 0.0715038 0.310063
0.896712 0.0710613 0.312367
0.896544 0.0706035 0.314595
0.896406 0.0702373 0.316289
0.896315 0.0699474 0.317586
0.0251316 0.173617 0.0458228
0.0226291 0.170901 0.0394293
0.0221561 0.169619 0.030396
0.0269932 0.167971 0.0255283
0.0421912 0.162432 0.0256352
0.0560922 0.157244 0.0306554
0.081178 0.154543 0.0395361
0.110292 0.153246 0.0385901
0.14432 0.157687 0.0275425
0.192325 0.153445 0.0303807
0.23978 0.142947 0.0351873
0.301396 0.119371 0.043534
0.351598 0.114153 0.0470588
0.423514 0.110445 0.0555428
0.483345 0.105226 0.0614023
0.552254 0.0915084 0.0734112
0.594079 0.0658274 0.083299
0.654292 0.0595712 0.0965133
0.710002 0.0559243 0.116075
0.751934 0.0530556 0.138582
0.795911 0.0708476 0.178698
0.868803 0.0796826 0.225162
0.87509 0.0790723 0.238285
0.880552 0.0784466 0.25034
0.884779 0.0777905 0.260807
0.888426 0.0771344 0.269566
0.890944 0.0764019 0.276387
0.893111 0.0758831 0.282231
0.894881 0.0754864 0.286687
0.896254 0.0751354 0.290272
0.897292 0.074876 0.293019
0.897505 0.0745861 0.294911
0.89749 0.0743267 0.296223
0.0253605 0.216861 0.059266
0.0228733 0.214023 0.0510872
0.0216831 0.211841 0.0399481
0.0224155 0.210666 0.0306096
0.0353246 0.208606 0.0261692
0.0522011 0.203754 0.0281529
0.0740978 0.198795 0.0352941
0.105821 0.196719 0.0451057
0.140169 0.194034 0.0429389
0.182223 0.198779 0.0284276
0.24033 0.193408 0.031693
0.294499 0.182025 0.0383612
0.363958 0.154055 0.0509804
0.411109 0.146258 0.0554208
0.487556 0.143877 0.0668498
0.550561 0.139712 0.0750286
0.624872 0.129946 0.0896162
0.672847 0.097612 0.101259
0.714748 0.0653239 0.110109
0.764477 0.0586099 0.131273
0.794537 0.0563668 0.156207
0.851347 0.0802167 0.193591
0.857786 0.0801862 0.20293
0.864439 0.0801709 0.214115
0.870024 0.0800183 0.224475
0.874174 0.0795911 0.232944
0.877455 0.0793011 0.240116
0.880156 0.0790265 0.245823
0.88217 0.0787671 0.250492
0.883558 0.0785229 0.254246
0.884733 0.0783856 0.256962
0.885679 0.0782635 0.259068
0.886351 0.0781109 0.260807
0.0261234 0.265583 0.0760662
0.0249943 0.262898 0.0681468
0.0230869 0.260685 0.0584878
0.0215152 0.258701 0.0430915
0.0250553 0.257008 0.0306249
0.0412604 0.255131 0.0273747
0.0655833 0.250156 0.0313726
0.0958114 0.245411 0.0407568
0.132464 0.243153 0.0532082
0.175189 0.239811 0.0498665
0.226368 0.245502 0.0300755
0.295354 0.239353 0.0350042
0.354284 0.228351 0.0433356
0.42417 0.199512 0.0600595
0.473808 0.19086 0.066743
0.550927 0.18526 0.0819257
0.62385 0.182101 0.0949111
0.693828 0.173709 0.105104
0.756756 0.141299 0.11783
0.791943 0.0886702 0.125917
0.815015 0.0585641 0.1449
0.844663 0.0731975 0.179263
0.853574 0.0806134 0.186938
0.853162 0.0814374 0.188495
0.852964 0.0812848 0.189517
0.852659 0.0808576 0.190463
0.85304 0.0806592 0.192752
0.857771 0.0805371 0.199878
0.860655 0.0806287 0.204196
0.862791 0.0806439 0.20763
0.864347 0.0806287 0.210285
0.865538 0.0806287 0.212192
0.866316 0.0805982 0.213825
0.0277104 0.320256 0.0945907
0.0271 0.31841 0.0875105
0.026215 0.316854 0.0817731
0.0255283 0.314122 0.0692302
0.024094 0.312367 0.0527199
0.0265049 0.31014 0.0343938
0.0490883 0.308339 0.0297551
0.0828565 0.302678 0.0357977
0.120363 0.298863 0.0479896
0.164858 0.296147 0.0647135
0.216953 0.292424 0.0591135
0.277028 0.29958 0.0332494
0.355322 0.293111 0.0405585
0.415671 0.284092 0.0495308
0.487312 0.254673 0.0728618
0.541695 0.24712 0.0843366
0.61442 0.233448 0.0983444
0.698528 0.232486 0.11371
0.766827 0.223575 0.120897
0.847013 0.195056 0.133318
0.881743 0.133165 0.141726
0.89604 0.0681773 0.15317
0.87039 0.0582437 0.168032
0.857618 0.0668803 0.175174
0.856992 0.068452 0.176516
0.856611 0.0696727 0.177569
0.856138 0.0708324 0.178546
0.855802 0.071809 0.1794
0.855512 0.0725719 0.180041
0.855344 0.0731823 0.18056
0.855222 0.0735637 0.18088
0.8551 0.0738994 0.18117
0.855024 0.0741894 0.18143
0.0312657 0.378195 0.116518
0.0306859 0.376471 0.109819
0.0299077 0.375265 0.104341
0.0290227 0.373709 0.0974289
0.0283665 0.371221 0.0851911
0.0279698 0.369406 0.0698863
0.0293126 0.366552 0.042359
0.0636149 0.363745 0.0339208
0.102708 0.358022 0.0422217
0.149676 0.355016 0.058793
0.204547 0.352026 0.0813458
0.26511 0.348989 0.0703899
0.335134 0.359518 0.0374151
0.417197 0.353643 0.0497139
0.480186 0.346395 0.0610819
0.553017 0.320928 0.0877089
0.616815 0.310246 0.104738
0.680339 0.299809 0.115496
0.771496 0.286336 0.13254
0.848981 0.278752 0.139895
0.91284 0.254017 0.146029
0.958984 0.192645 0.153903
0.964813 0.133104 0.154955
0.952789 0.106676 0.153048
0.941009 0.0834516 0.151034
0.928832 0.0726787 0.154116
0.917281 0.0673075 0.157549
0.90753 0.0628061 0.159396
0.897978 0.0605173 0.160952
0.890043 0.0592813 0.162585
0.883223 0.0581064 0.16376
0.877546 0.0565805 0.16347
0.875257 0.0587778 0.167651
0.0373083 0.438956 0.14258
0.0367742 0.437583 0.136584
0.035996 0.436042 0.130251
0.0349279 0.434943 0.125902
0.0340734 0.433402 0.118578
0.033341 0.431189 0.107347
0.0330816 0.429099 0.0894942
0.0352636 0.425727 0.0541695
0.0818036 0.421637 0.0407721
0.126757 0.415152 0.0523995
0.187671 0.413001 0.0765698
0.252888 0.409827 0.104387
0.321065 0.408209 0.0827192
0.396612 0.422019 0.0449531
0.482002 0.416617 0.0660258
0.546181 0.410986 0.0791485
0.619944 0.390906 0.102831
0.695277 0.375631 0.127291
0.748837 0.370626 0.134051
0.841657 0.341344 0.151339
0.919539 0.333455 0.159548
0.964691 0.314092 0.15877
1 0.282887 0.162219
0.999344 0.263035 0.161196
0.995926 0.243351 0.15993
0.992432 0.226108 0.159228
0.989059 0.211215 0.158541
0.986267 0.1991 0.157992
0.983871 0.189532 0.157687
0.981933 0.181964 0.157565
0.980301 0.176196 0.157397
0.978882 0.171557 0.157183
0.977584 0.167987 0.156878
0.0483558 0.503166 0.176196
0.0475319 0.501686 0.170321
0.0467994 0.50016 0.163622
0.0457923 0.499062 0.158587
0.0446021 0.498222 0.154177
0.043595 0.49688 0.147295
0.0425422 0.494316 0.133867
0.0422522 0.491325 0.109789
0.0464332 0.487526 0.0682994
0.105425 0.482139 0.052842
0.162295 0.476036 0.0717479
0.236881 0.473732 0.103731
0.311131 0.471015 0.129519
0.383215 0.471199 0.100191
0.46009 0.48629 0.0631571
0.547631 0.482628 0.0874189
0.61294 0.478248 0.101534
0.685969 0.463935 0.12105
0.770581 0.443351 0.149752
0.819562 0.440162 0.153597
0.896178 0.419974 0.166155
0.965637 0.390341 0.177737
1 0.372992 0.175906
1 0.363287 0.172824
1 0.354498 0.170199
0.999359 0.346899 0.16817
0.99884 0.340475 0.166705
0.998398 0.334966 0.165652
0.998535 0.330694 0.165103
0.998337 0.327077 0.164446
0.998413 0.324224 0.164157
0.998703 0.32224 0.164141
0.998596 0.320516 0.163882
0.0665293 0.570306 0.217517
0.0656748 0.568963 0.212207
0.0649729 0.567544 0.206058
0.0640726 0.566201 0.200336
0.0629435 0.565194 0.195346
0.0617685 0.564508 0.191836
0.0603037 0.563027 0.18407
0.0590066 0.559625 0.166354
0.0591135 0.55613 0.134813
0.0655833 0.55111 0.0823072
0.140368 0.544396 0.0742351
0.213321 0.538964 0.103059
0.297475 0.536477 0.137942
0.37554 0.534951 0.151659
0.448081 0.536065 0.120607
0.525444 0.552102 0.0889448
0.613596 0.549752 0.113634
0.679713 0.546197 0.127993
0.751019 0.537255 0.141405
0.836942 0.511254 0.172061
0.887037 0.508431 0.177066
0.93933 0.497597 0.17998
0.991852 0.476829 0.191897
1 0.460838 0.192081
1 0.450111 0.191165
1 0.440543 0.190036
1 0.4327 0.189273
1 0.425956 0.188449
1 0.420752 0.188037
1 0.41651 0.187503
1 0.413046 0.187259
1 0.41033 0.186999
1 0.409125 0.186755
0.0897841 0.639719 0.265309
0.0889296 0.638529 0.260471
0.0880903 0.637293 0.254856
0.0872816 0.635981 0.249439
0.0863661 0.634775 0.243885
0.0853132 0.633768 0.239277
0.0839246 0.632715 0.234775
0.0820325 0.630991 0.225376
0.0809949 0.626856 0.202243
0.0816205 0.622965 0.162493
0.0924544 0.616175 0.0970779
0.192508 0.607355 0.10721
0.278599 0.603037 0.141146
0.369039 0.600305 0.176516
0.442924 0.600244 0.175174
0.516091 0.603342 0.144427
0.591272 0.61854 0.118807
0.679057 0.616571 0.144839
0.744595 0.613809 0.159579
0.814267 0.606241 0.17174
0.886213 0.581613 0.193393
0.942489 0.576852 0.20473
0.969345 0.574792 0.199359
0.988815 0.566155 0.201587
0.989776 0.559152 0.200656
0.990326 0.552972 0.199557
0.991119 0.547936 0.199084
0.991516 0.543618 0.198535
0.991897 0.540078 0.198291
0.992248 0.537285 0.197986
0.99234 0.535241 0.197559
0.992615 0.533608 0.197482
0.992874 0.532403 0.197482
0.116503 0.710124 0.316732
0.115846 0.709255 0.312352
0.115007 0.708202 0.30779
0.114183 0.706996 0.302892
0.113344 0.705806 0.29749
0.112474 0.704677 0.292195
0.111284 0.703441 0.286946
0.109316 0.7019 0.280812
0.106966 0.699641 0.269184
0.105882 0.694453 0.238895
0.107836 0.689204 0.190097
0.13431 0.680415 0.121324
0.257313 0.6701 0.147158
0.355673 0.667475 0.185382
0.441764 0.665003 0.216037
0.512016 0.66598 0.201617
0.583871 0.670497 0.173098
0.655924 0.685328 0.152682
0.741985 0.681971 0.180667
0.806577 0.680354 0.196994
0.865553 0.674189 0.206729
0.923751 0.65832 0.216098
0.971038 0.649607 0.228931
0.985656 0.649989 0.222293
0.985412 0.644739 0.220188
0.985077 0.64007 0.218128
0.98497 0.636057 0.216953
0.985046 0.633112 0.216068
0.984848 0.630579 0.215137
0.984802 0.628489 0.214603
0.984787 0.626886 0.214145
0.984787 0.625635 0.213748
0.984802 0.624674 0.213458
0.147524 0.781048 0.366201
0.146777 0.780011 0.362493
0.145968 0.778927 0.358816
0.145068 0.777905 0.354681
0.144198 0.776822 0.350149
0.143328 0.775738 0.345815
0.142229 0.774411 0.340032
0.140444 0.773007 0.33312
0.137758 0.771115 0.325872
0.134646 0.767803 0.310323
0.133654 0.761349 0.272496
0.138689 0.753262 0.212451
0.199237 0.74316 0.155306
0.340398 0.733928 0.196979
0.434012 0.731807 0.231876
0.511818 0.730175 0.249668
0.579309 0.731014 0.233371
0.649042 0.736416 0.207462
0.718486 0.752743 0.190219
0.80238 0.745647 0.218753
0.857939 0.745235 0.235737
0.906859 0.740475 0.24303
0.950347 0.729992 0.245151
0.980835 0.725017 0.253223
0.98088 0.723125 0.252705
0.981018 0.719539 0.250599
0.981216 0.716472 0.249165
0.981414 0.713512 0.248157
0.981552 0.711131 0.24744
0.981674 0.709285 0.246983
0.981659 0.707958 0.246265
0.981689 0.706874 0.245777
0.98175 0.706004 0.245472
0.181674 0.846372 0.411139
0.180987 0.84564 0.408133
0.180072 0.84477 0.404868
0.179217 0.84387 0.401251
0.178439 0.842924 0.397559
0.177554 0.842008 0.394202
0.176364 0.840879 0.389044
0.174731 0.839323 0.381857
0.172305 0.837293 0.373983
0.168902 0.835233 0.365866
0.165652 0.831189 0.345525
0.164858 0.824521 0.30042
0.176516 0.812924 0.226658
0.28394 0.802228 0.203281
0.424155 0.795972 0.249149
0.508949 0.793759 0.277897
0.577783 0.792767 0.284001
0.644205 0.793027 0.267521
0.711711 0.79968 0.244663
0.778943 0.817899 0.229435
0.855573 0.809506 0.259464
0.90132 0.810666 0.277089
0.939147 0.807919 0.28127
0.969589 0.800549 0.280888
0.979904 0.789776 0.285557
0.979782 0.785702 0.283223
0.979873 0.782361 0.281544
0.979995 0.780102 0.280491
0.979995 0.778286 0.279835
0.979889 0.776928 0.279042
0.979873 0.775814 0.278477
0.979873 0.774945 0.278157
0.979873 0.774258 0.277897
0.216434 0.901427 0.452796
0.215564 0.900664 0.449546
0.214679 0.899931 0.446586
0.213733 0.899168 0.443366
0.212985 0.898451 0.440513
0.212345 0.897841 0.437613
0.211276 0.89691 0.433402
0.209812 0.895521 0.427832
0.207797 0.893629 0.419379
0.204639 0.891157 0.409766
0.200259 0.888472 0.399603
0.197284 0.883696 0.373312
0.199268 0.874571 0.320302
0.227039 0.864347 0.248676
0.384497 0.852216 0.26041
0.501762 0.848432 0.298238
0.578882 0.845792 0.320989
0.639643 0.845594 0.316976
0.706035 0.846296 0.300969
0.772976 0.855863 0.280903
0.835142 0.873091 0.273716
0.900832 0.866377 0.302007
0.937041 0.867597 0.315862
0.963897 0.866987 0.321126
0.981292 0.861753 0.325521
0.98114 0.857771 0.324147
0.981231 0.855314 0.322652
0.981018 0.853162 0.321004
0.980957 0.851301 0.319966
0.980911 0.849836 0.319097
0.98088 0.848692 0.318364
0.98085 0.847807 0.317815
0.980819 0.84712 0.317372
0.256291 0.944961 0.492699
0.254917 0.944549 0.489815
0.253437 0.943847 0.487022
0.252155 0.943297 0.483955
0.250599 0.942611 0.480995
0.249088 0.941848 0.477882
0.247501 0.940826 0.474296
0.244831 0.939529 0.468879
0.241672 0.937789 0.461341
0.239246 0.935546 0.451484
0.235523 0.932982 0.440162
0.230671 0.930068 0.427298
0.227558 0.924208 0.39202
0.243793 0.914183 0.33666
0.289647 0.903349 0.274434
0.480095 0.893721 0.316167
0.571756 0.890333 0.343435
0.642039 0.888777 0.35671
0.699168 0.890059 0.349828
0.766262 0.891875 0.334615
0.82945 0.907469 0.317021
0.882948 0.920012 0.320394
0.937224 0.915175 0.343069
0.965515 0.915343 0.35256
0.982834 0.915389 0.359152
0.985519 0.913161 0.362493
0.98526 0.911254 0.361196
0.985046 0.909651 0.360037
0.984848 0.908324 0.359197
0.984649 0.907286 0.358572
0.984436 0.906493 0.357855
0.984344 0.905852 0.357412
0.984268 0.905364 0.357061
0.287541 0.968093 0.522728
0.28658 0.968002 0.520073
0.285649 0.967849 0.517555
0.284642 0.967712 0.514809
0.28336 0.967575 0.512245
0.282307 0.967285 0.509606
0.280949 0.966842 0.50631
0.278874 0.96611 0.502297
0.276143 0.965042 0.496254
0.272633 0.963592 0.487999
0.267903 0.961593 0.475761
0.261845 0.959319 0.46154
0.256184 0.957092 0.445426
0.267659 0.952239 0.409445
0.295811 0.942824 0.357504
0.387121 0.931044 0.327596
0.559625 0.925124 0.365499
0.63711 0.923171 0.386053
0.700526 0.923156 0.388037
0.756619 0.925002 0.381369
0.826307 0.931548 0.366964
0.87776 0.948486 0.355276
0.922255 0.953674 0.36614
0.966674 0.950576 0.380606
0.984726 0.95314 0.38616
0.990433 0.952148 0.394522
0.990265 0.950652 0.393118
0.990127 0.949401 0.392187
0.990005 0.948379 0.391241
0.989914 0.947555 0.390478
0.989853 0.946914 0.389883
0.989776 0.946426 0.389395
0.9897 0.946059 0.388968
0.289921 0.968307 0.531716
0.289189 0.968246 0.528878
0.288411 0.96817 0.525826
0.287541 0.968093 0.522759
0.286549 0.967987 0.519982
0.285603 0.967834 0.517403
0.284245 0.967651 0.514107
0.282231 0.967269 0.509422
0.279637 0.966384 0.503914
0.275975 0.964965 0.495796
0.27126 0.963012 0.484398
0.265553 0.960464 0.468849
0.257939 0.958175 0.45304
0.261509 0.954604 0.42269
0.296315 0.952453 0.385306
0.359472 0.948425 0.360845
0.509377 0.944045 0.384207
0.6309 0.942596 0.412192
0.698482 0.944274 0.428962
0.758144 0.947356 0.43093
0.815274 0.949554 0.423056
0.880278 0.961807 0.406638
0.922225 0.977279 0.398123
0.955261 0.97409 0.407218
0.984314 0.978119 0.419944
0.99353 0.978469 0.430411
0.993347 0.977218 0.429114
0.993271 0.976455 0.426078
0.993255 0.975952 0.424308
0.993194 0.975433 0.422675
0.993133 0.975021 0.421378
0.993088 0.974701 0.420356
0.993057 0.974441 0.419883
0.29163 0.968505 0.539223
0.291005 0.968444 0.536324
0.290318 0.968338 0.533669
0.289631 0.968292 0.530434
0.288853 0.968215 0.527474
0.288029 0.968139 0.52433
0.286839 0.968017 0.52079
0.285161 0.967758 0.516091
0.282475 0.967346 0.510018
0.278996 0.966155 0.502556
0.274113 0.964202 0.49131
0.26804 0.961654 0.476081
0.261585 0.958968 0.458549
0.256001 0.955306 0.43125
0.289311 0.952834 0.393301
0.344533 0.949416 0.361349
0.47982 0.944671 0.378607
0.618799 0.942382 0.408515
0.689982 0.943923 0.428367
0.750332 0.947341 0.43212
0.80824 0.950454 0.431113
0.870832 0.960479 0.424002
0.916869 0.977279 0.419501
0.949081 0.977859 0.426657
0.977401 0.983398 0.435386
0.994461 0.987381 0.456992
0.995209 0.987686 0.475761
0.995193 0.98761 0.473182
0.995163 0.987503 0.47097
0.995163 0.987442 0.46952
0.995163 0.987442 0.46952
0.995163 0.987442 0.46952
0.995163 0.987442 0.46952
0.292821 0.968582 0.546242
0.292302 0.968536 0.543114
0.291722 0.968505 0.539879
0.291112 0.96846 0.536797
0.290425 0.968353 0.534066
0.289723 0.968292 0.530816
0.288762 0.9682 0.527077
0.28719 0.968048 0.52195
0.284977 0.967742 0.515602
0.281529 0.967041 0.507622
0.276555 0.965255 0.497307
0.270512 0.962692 0.482353
0.264668 0.959625 0.463035
0.25658 0.956481 0.439994
0.28336 0.953414 0.401724
0.331518 0.950393 0.361959
0.455009 0.944961 0.373693
0.607248 0.942321 0.405356
0.68278 0.94345 0.427527
0.743267 0.946883 0.431785
0.801556 0.950057 0.431342
0.862654 0.958694 0.425223
0.911192 0.975433 0.417731
0.945846 0.980011 0.422339
0.972457 0.982101 0.43035
0.992508 0.986816 0.446555
0.995209 0.987671 0.474937
0.995224 0.987686 0.475822
0.995224 0.987686 0.4757
0.995193 0.987655 0.474205
0.995178 0.987594 0.472847
0.995178 0.987549 0.471809
0.995163 0.987503 0.471015
0.293736 0.968627 0.551919
0.293248 0.968597 0.548745
0.292714 0.968566 0.545693
0.292165 0.968536 0.542367
0.291569 0.968505 0.539025
0.290929 0.968429 0.536065
0.290074 0.968322 0.532418
0.288762 0.9682 0.527077
0.286656 0.968002 0.520272
0.283375 0.967575 0.512276
0.278721 0.966049 0.501976
0.272526 0.963561 0.487755
0.266972 0.960403 0.467475
0.257481 0.957321 0.446555
0.278676 0.953811 0.408209
0.320043 0.951125 0.362295
0.435477 0.945296 0.369833
