bundles/resolve-cinematic-luts/Phantom Luts/Fx6 Phntm ARRI LUTs-G5/Neutral Fx6.cube
TITLE "Generated by Resolve"
LUT_3D_SIZE 9
0.0142519 0.0142519 0.0142519
0.0577401 0.0210269 0.019028
0.169192 0.0301061 0.0393225
0.357122 0.0388037 0.0796979
0.591424 0.0473945 0.158572
0.860853 0.0636149 0.308354
0.889158 0.0595865 0.358648
0.886168 0.0554665 0.374014
0.884871 0.0538796 0.379751
0.0206149 0.0540475 0.0264591
0.0399176 0.0426184 0.0209506
0.143252 0.0420691 0.030396
0.35021 0.0345464 0.0463264
0.584512 0.0595712 0.120363
0.851209 0.0694438 0.265278
0.894896 0.0677653 0.326955
0.892241 0.0632944 0.344747
0.891157 0.061677 0.35111
0.0251316 0.173617 0.0458228
0.0421912 0.162432 0.0256352
0.14432 0.157687 0.0275425
0.351598 0.114153 0.0470588
0.594079 0.0658274 0.083299
0.795911 0.0708476 0.178698
0.884779 0.0777905 0.260807
0.894881 0.0754864 0.286687
0.89749 0.0743267 0.296223
0.0312657 0.378195 0.116518
0.0283665 0.371221 0.0851911
0.102708 0.358022 0.0422217
0.335134 0.359518 0.0374151
0.616815 0.310246 0.104738
0.91284 0.254017 0.146029
0.941009 0.0834516 0.151034
0.897978 0.0605173 0.160952
0.875257 0.0587778 0.167651
0.0897841 0.639719 0.265309
0.0863661 0.634775 0.243885
0.0809949 0.626856 0.202243
0.278599 0.603037 0.141146
0.591272 0.61854 0.118807
0.886213 0.581613 0.193393
0.989776 0.559152 0.200656
0.991897 0.540078 0.198291
0.992874 0.532403 0.197482
0.216434 0.901427 0.452796
0.212985 0.898451 0.440513
0.207797 0.893629 0.419379
0.199268 0.874571 0.320302
0.578882 0.845792 0.320989
0.835142 0.873091 0.273716
0.981292 0.861753 0.325521
0.980957 0.851301 0.319966
0.980819 0.84712 0.317372
0.29163 0.968505 0.539223
0.288853 0.968215 0.527474
0.282475 0.967346 0.510018
0.261585 0.958968 0.458549
0.47982 0.944671 0.378607
0.80824 0.950454 0.431113
0.977401 0.983398 0.435386
0.995163 0.987503 0.47097
0.995163 0.987442 0.46952
0.294896 0.968795 0.559609
0.293019 0.968597 0.547204
0.288945 0.968215 0.527779
0.269825 0.961532 0.474662
0.407355 0.945403 0.363867
0.787655 0.949355 0.43209
0.962875 0.979263 0.423026
0.995209 0.987655 0.474464
0.995224 0.987686 0.475898
0.295949 0.96875 0.567437
0.294331 0.968734 0.554772
0.290745 0.968399 0.535409
0.271916 0.962722 0.482033
0.390936 0.946044 0.361624
0.779583 0.949004 0.432303
0.957458 0.97763 0.422415
0.995193 0.98761 0.47332
0.995209 0.987655 0.474708
0.0136873 0.0172274 0.0342107
0.0540017 0.0201419 0.0479896
0.163546 0.026688 0.0821241
0.36083 0.0347295 0.132006
0.595666 0.0430762 0.199283
0.853513 0.0560922 0.337545
0.884108 0.052903 0.383352
0.880629 0.0491188 0.396658
0.879194 0.047715 0.401541
0.020264 0.0395972 0.0373236
0.032105 0.0314641 0.0315557
0.144274 0.0297093 0.0365606
0.34165 0.0385901 0.0760052
0.583673 0.0482338 0.156573
0.849393 0.0622568 0.302007
0.889387 0.0598001 0.3579
0.886519 0.0557717 0.373098
0.885222 0.0541695 0.378866
0.026627 0.164874 0.0890211
0.0255131 0.154879 0.0457771
0.135882 0.147143 0.0290227
0.366629 0.0977035 0.0484474
0.585321 0.0466163 0.0809644
0.824155 0.0696727 0.227741
0.896849 0.0725109 0.305074
0.895766 0.0684215 0.324575
0.895033 0.0666972 0.332067
0.0320134 0.377096 0.151736
0.0307927 0.367666 0.115724
0.0487068 0.354742 0.0333257
0.329061 0.352941 0.0378424
0.611261 0.298436 0.101396
0.921019 0.232181 0.147494
0.919036 0.0681621 0.157366
0.865293 0.0604257 0.170016
0.857908 0.0661631 0.174548
0.0901503 0.639231 0.289296
0.0874952 0.633112 0.263294
0.0817426 0.625513 0.230289
0.251362 0.600977 0.129534
0.58764 0.614832 0.118669
0.891127 0.574792 0.194247
0.99086 0.549706 0.199252
0.99321 0.529488 0.197253
0.994171 0.520867 0.196368
0.216327 0.899168 0.464927
0.21384 0.897597 0.451209
0.208545 0.892668 0.431342
0.194614 0.875914 0.347555
0.568582 0.844144 0.317281
0.832456 0.87068 0.272557
0.981109 0.857221 0.322927
0.980789 0.846281 0.316838
0.980697 0.842283 0.314473
0.293889 0.968658 0.552544
0.291768 0.968505 0.540108
0.287068 0.968032 0.521569
0.267857 0.960632 0.468833
0.453223 0.944991 0.373342
0.803388 0.950195 0.431357
0.975647 0.983001 0.43801
0.995193 0.98761 0.473045
0.995163 0.987442 0.46952
0.296712 0.96875 0.571847
0.294987 0.968795 0.560494
0.29189 0.968521 0.540825
0.273747 0.963668 0.48806
0.384588 0.946487 0.361364
0.782238 0.949126 0.432258
0.960372 0.978515 0.427314
0.995224 0.987686 0.476204
0.995224 0.987701 0.477638
0.297917 0.968826 0.579583
0.296056 0.968734 0.568276
0.293278 0.968612 0.548943
0.275807 0.964828 0.494987
0.36997 0.947494 0.36083
0.773663 0.948669 0.432334
0.95462 0.977218 0.426535
0.995224 0.987671 0.475105
0.995224 0.987686 0.476524
0.0145724 0.032929 0.117937
0.0730297 0.0257267 0.13373
0.164172 0.0270085 0.154833
0.358892 0.0344091 0.190234
0.592844 0.0342565 0.260624
0.841352 0.045243 0.376226
0.875502 0.0441444 0.413916
0.873274 0.0420844 0.421134
0.872496 0.0413672 0.423636
0.0132448 0.0403449 0.0892348
0.0196689 0.0294041 0.110918
0.141558 0.0267643 0.134157
0.341863 0.0319066 0.157931
0.58761 0.0395209 0.224735
0.83798 0.0503395 0.348547
0.880919 0.0494087 0.395682
0.877562 0.0460975 0.407141
0.87628 0.0449226 0.41117
0.0304417 0.149218 0.137255
0.0305028 0.140414 0.129717
0.135973 0.134615 0.13576
0.368078 0.105852 0.127214
0.578134 0.0550393 0.157107
0.833051 0.0606088 0.292287
0.889937 0.0602579 0.356313
0.887114 0.0562295 0.371572
0.885832 0.0546426 0.377401
0.0345769 0.369207 0.210239
0.0325322 0.364996 0.18407
0.0332036 0.352972 0.116396
0.328695 0.348455 0.069398
0.630411 0.269383 0.114611
0.913497 0.170459 0.15227
0.869932 0.0591745 0.169177
0.853834 0.0814832 0.189334
0.859525 0.0808881 0.200259
0.0894636 0.63418 0.331106
0.0876936 0.631296 0.306279
0.0842298 0.622568 0.259937
0.183474 0.596948 0.105409
0.582574 0.608988 0.119203
0.898497 0.563317 0.194995
0.992554 0.533898 0.197467
0.995422 0.511482 0.195758
0.996612 0.502251 0.19527
0.215396 0.894713 0.487587
0.21355 0.89337 0.472786
0.209659 0.891005 0.44889
0.193988 0.875761 0.384146
0.550317 0.841978 0.311986
0.828763 0.866926 0.271565
0.980926 0.850263 0.318837
0.980591 0.838697 0.312261
0.980331 0.834119 0.309239
0.296666 0.96875 0.571542
0.295018 0.968811 0.560586
0.292027 0.968521 0.541512
0.274556 0.963851 0.489067
0.41239 0.945403 0.364965
0.795712 0.950164 0.436713
0.973022 0.982376 0.44213
0.995224 0.987686 0.47599
0.995148 0.987121 0.470283
0.299626 0.96907 0.590738
0.297963 0.968841 0.579797
0.295201 0.968826 0.561746
0.280888 0.966827 0.506188
0.350896 0.949004 0.361151
0.773068 0.948837 0.43444
0.956771 0.977493 0.435187
0.995239 0.987732 0.479118
0.995239 0.987747 0.480339
0.300557 0.969253 0.598093
0.299107 0.969009 0.586892
0.296254 0.968734 0.569268
0.283742 0.96762 0.513024
0.33463 0.950072 0.361685
0.764233 0.948196 0.433127
0.950271 0.977417 0.43389
0.995224 0.987716 0.478218
0.995239 0.987732 0.479423
0.0280156 0.0539101 0.293141
0.0949111 0.0349737 0.306996
0.186892 0.034226 0.325292
0.365469 0.0352331 0.353475
0.605982 0.0460822 0.380148
0.834684 0.0359045 0.443626
0.871794 0.038117 0.474296
0.872694 0.038056 0.482933
0.87303 0.038056 0.486519
0.000411994 0.0725414 0.259098
0.0274968 0.0522164 0.282918
0.147921 0.0342412 0.313268
0.350958 0.0344244 0.339529
0.593912 0.044007 0.35967
0.823331 0.0350958 0.424994
0.870863 0.0383764 0.46096
0.871443 0.0382239 0.469459
0.871672 0.0381476 0.472801
0.00662242 0.140246 0.246677
0.00462348 0.125002 0.254887
0.0806287 0.0881208 0.302296
0.330526 0.0376898 0.318791
0.578653 0.0442359 0.32578
0.809049 0.0353704 0.395987
0.870161 0.0386358 0.438102
0.870298 0.0385138 0.447227
0.870359 0.0384833 0.450675
0.0381933 0.341192 0.318166
0.038056 0.336141 0.313497
0.0396124 0.327626 0.305928
0.334661 0.333806 0.335439
0.643595 0.275013 0.304006
0.868284 0.0863966 0.296803
0.893324 0.0613718 0.354086
0.890196 0.0571298 0.370031
0.889021 0.0556344 0.375631
0.0856489 0.623453 0.428733
0.085008 0.620706 0.415671
0.0833906 0.615976 0.390845
0.0979019 0.603342 0.261753
0.576837 0.600534 0.235019
0.897871 0.553002 0.271321
0.999496 0.483162 0.248264
1 0.452354 0.236271
1 0.439155 0.232166
0.209598 0.885023 0.546883
0.208469 0.882948 0.535088
0.206546 0.879957 0.515602
0.199023 0.871473 0.441505
0.474174 0.836927 0.295567
0.818372 0.856474 0.26952
0.980423 0.828855 0.32398
0.97998 0.815015 0.315801
0.979828 0.809339 0.312734
0.303059 0.970108 0.621042
0.302083 0.969726 0.611643
0.300359 0.969207 0.596292
0.292409 0.968551 0.543801
0.313649 0.955062 0.400763
0.771649 0.950317 0.453376
0.96669 0.980713 0.453223
0.994507 0.983963 0.466987
0.994202 0.982406 0.45951
0.304555 0.970657 0.638178
0.303883 0.970443 0.629313
0.302266 0.969833 0.614237
0.295521 0.968811 0.56405
0.286427 0.955962 0.422171
0.743954 0.948669 0.450858
0.947555 0.980621 0.451316
0.995285 0.987854 0.48687
0.995285 0.987854 0.487312
0.305135 0.970947 0.645075
0.304326 0.970581 0.635966
0.303029 0.970092 0.620935
0.29662 0.96875 0.571206
0.279026 0.956634 0.431739
0.73341 0.948028 0.4495
0.942855 0.983932 0.447486
0.995285 0.987839 0.48661
0.995285 0.987854 0.487098
0.0463569 0.100542 0.52134
0.113558 0.0703746 0.52401
0.204135 0.0591592 0.538979
0.391119 0.0557107 0.571145
0.617121 0.0455787 0.599313
0.898772 0.0468605 0.609369
0.932265 0.0470893 0.633844
0.935988 0.0479133 0.646372
0.937331 0.0482795 0.651286
0 0.130617 0.502266
0.0466316 0.0986038 0.51574
0.157763 0.0597238 0.52723
0.369375 0.0555123 0.565332
0.608484 0.0460212 0.590906
0.888899 0.0461738 0.597192
0.927687 0.0462043 0.619913
0.93167 0.047013 0.631937
0.932937 0.0471809 0.636347
0 0.152071 0.471824
0 0.142473 0.482521
0.0552682 0.0925307 0.508949
0.326146 0.055436 0.552651
0.595651 0.0490425 0.578622
0.87335 0.0451362 0.577569
0.919509 0.0446021 0.598062
0.923735 0.0453956 0.609003
0.925261 0.0457008 0.61297
0 0.315557 0.467079
0 0.305394 0.470176
0 0.288075 0.477882
0.23241 0.237629 0.548226
0.596719 0.157443 0.578195
0.83267 0.043473 0.522164
0.901274 0.0423896 0.542611
0.904433 0.0428321 0.55082
0.905669 0.0429999 0.553994
0.0767376 0.587289 0.558602
0.0759747 0.583886 0.555947
0.0746319 0.579232 0.551568
0.0768597 0.564279 0.53724
0.567025 0.566796 0.568078
0.917052 0.525612 0.550072
1 0.409506 0.528847
1 0.370764 0.523018
1 0.354482 0.520592
0.190112 0.870375 0.663447
0.18909 0.868345 0.656657
0.187381 0.865492 0.646265
0.18468 0.855802 0.609201
0.411078 0.852049 0.530846
0.804944 0.837324 0.524773
0.981323 0.814878 0.530434
0.981186 0.800793 0.523705
0.98114 0.794934 0.521859
0.31162 0.974975 0.726894
0.311009 0.97467 0.719921
0.309926 0.974105 0.709148
0.3075 0.972503 0.674815
0.33106 0.973831 0.55671
0.741497 0.958785 0.575189
0.961089 0.975814 0.571923
0.993301 0.974578 0.576761
0.992981 0.972122 0.572168
0.313252 0.975738 0.743221
0.312581 0.975433 0.735759
0.311406 0.974868 0.724269
0.308751 0.973251 0.688914
0.320333 0.972122 0.571344
0.69012 0.958144 0.553506
0.935454 0.982147 0.570077
0.995895 0.989425 0.592233
0.995895 0.989395 0.590585
0.313726 0.976104 0.749294
0.313161 0.975692 0.742061
0.31194 0.975128 0.730373
0.309133 0.973526 0.69482
0.319814 0.971878 0.579004
0.663203 0.957549 0.54583
0.923201 0.97818 0.561547
0.995666 0.989349 0.590112
0.995834 0.989288 0.584298
0.0317693 0.183169 0.783368
0.106737 0.152789 0.776715
0.205127 0.115206 0.76463
0.39794 0.110567 0.796262
0.639857 0.0931411 0.830869
0.908782 0.0601511 0.868025
0.954742 0.0631266 0.90277
0.953262 0.0643626 0.916609
0.952819 0.0648356 0.920851
0 0.208545 0.776303
0.0335241 0.180468 0.77734
0.150057 0.132998 0.764706
0.370596 0.109911 0.787991
0.628153 0.0934768 0.827024
0.900649 0.0593881 0.860349
0.955825 0.0621653 0.893309
0.954177 0.0634928 0.907439
0.953811 0.0639353 0.911894
0 0.22594 0.751598
0 0.21677 0.764569
0.0366064 0.176471 0.767803
0.320577 0.107851 0.773541
0.609476 0.0945602 0.820157
0.887999 0.0584421 0.849058
0.957671 0.0610208 0.876829
0.956085 0.0619821 0.891203
0.955535 0.0623789 0.895994
0 0.293477 0.691997
0 0.282734 0.700496
0 0.264469 0.715404
0.100313 0.177264 0.77116
0.549004 0.10312 0.804074
0.85359 0.0559091 0.816846
0.962982 0.0594339 0.822217
0.962722 0.0599832 0.834348
0.962478 0.0602121 0.839094
0 0.562722 0.708995
0 0.559304 0.710414
0 0.552987 0.711696
0 0.52961 0.724849
0.479728 0.49131 0.796567
0.862364 0.430442 0.82945
0.9879 0.281605 0.78291
0.98822 0.234119 0.775494
0.988434 0.217914 0.771405
0.166567 0.825483 0.791608
0.164996 0.823102 0.789746
0.162722 0.819913 0.786465
0.159854 0.810361 0.776898
0.378592 0.799329 0.771893
0.787686 0.787549 0.788678
0.993393 0.757214 0.773632
0.990021 0.729335 0.764828
0.989151 0.721477 0.762356
0.360739 0.976364 0.867231
0.358648 0.976379 0.864179
0.35555 0.976486 0.858366
0.345968 0.976669 0.841367
0.348455 0.968521 0.781811
0.718715 0.966445 0.781659
0.94754 0.962631 0.783383
0.989181 0.952438 0.796933
0.98883 0.949325 0.791287
0.368566 0.974975 0.881559
0.366812 0.976135 0.878508
0.3635 0.976272 0.872511
0.352575 0.976486 0.853117
0.364508 0.976272 0.790173
0.685191 0.984741 0.776547
0.920272 0.979034 0.785992
0.995483 0.992798 0.815091
0.996597 0.992981 0.815824
0.371511 0.973724 0.885725
0.369329 0.974594 0.88278
0.366293 0.976242 0.877485
0.355123 0.976501 0.857435
0.363165 0.976333 0.793088
0.667338 0.983932 0.768963
0.907286 0.977523 0.779293
0.989776 0.991226 0.796674
0.996628 0.992935 0.810315
0 0.311635 0.977844
0 0.302174 0.984237
0.106294 0.268528 0.979767
0.365743 0.205066 0.940978
0.639399 0.209262 0.981628
0.905791 0.102785 0.98439
0.947662 0.0735943 0.984497
0.947662 0.0735943 0.984497
0.947662 0.0735943 0.984497
0 0.31693 0.966628
0 0.307576 0.975372
0.0295567 0.286122 0.979767
0.336385 0.202823 0.939895
0.624506 0.206928 0.978485
0.899413 0.108354 0.984024
0.947662 0.0735943 0.984497
0.947662 0.0735943 0.984497
0.947662 0.0735943 0.984497
0 0.322377 0.95407
0 0.317464 0.957351
0 0.301152 0.97081
0.279316 0.207797 0.945235
0.600427 0.2038 0.972457
0.887343 0.111147 0.981003
0.947662 0.0735943 0.984497
0.947662 0.0735943 0.984497
0.947662 0.0735943 0.984497
0 0.32668 0.89958
0 0.322255 0.908034
0 0.315251 0.920729
0 0.285206 0.965469
0.522347 0.195697 0.954299
0.852003 0.12314 0.973144
0.949493 0.0732128 0.980285
0.947845 0.0745403 0.984344
0.947829 0.0744945 0.98436
0 0.565789 0.867597
0 0.561349 0.87248
0 0.5552 0.881788
0 0.537697 0.911147
0.385245 0.472816 0.948577
0.810941 0.413809 0.977279
0.978698 0.206012 0.978882
0.97232 0.159533 0.971313
0.969192 0.140963 0.967788
0.140246 0.789975 0.891142
0.135958 0.787671 0.891386
0.129244 0.784283 0.891859
0.107881 0.772229 0.893156
0.23682 0.75108 0.914672
0.724895 0.739223 0.923674
0.969177 0.707485 0.947463
0.980529 0.678721 0.940398
0.980575 0.671702 0.939467
0.366354 0.950881 0.932021
0.360678 0.950088 0.930983
0.35137 0.948409 0.92932
0.327047 0.943801 0.923903
0.320607 0.930297 0.908553
0.708171 0.93254 0.921447
0.936522 0.936446 0.937041
0.992172 0.928664 0.932754
0.99089 0.922072 0.930434
0.405386 0.954604 0.943709
0.405341 0.955123 0.942718
0.403967 0.95584 0.940551
0.400992 0.957748 0.934554
0.422797 0.96437 0.917556
0.708995 0.980499 0.92961
0.917006 0.992645 0.938918
0.990188 0.992432 0.941024
0.995666 0.990692 0.945647
0.401434 0.954452 0.947646
0.40296 0.954574 0.946166
0.405447 0.95465 0.943648
0.402365 0.956939 0.937026
0.421317 0.964187 0.917983
0.69247 0.980117 0.92549
0.904692 0.992126 0.934081
0.983459 0.993866 0.936248
0.995911 0.994202 0.945205
0 0.309483 0.9832
0.00900282 0.30161 0.989563
0.12665 0.275334 0.988556
0.373266 0.21622 0.947463
0.647974 0.216236 0.982742
0.914733 0.0881056 0.983185
0.947662 0.0735943 0.984497
0.947662 0.0735943 0.984497
0.947662 0.0735943 0.984497
0 0.313329 0.972
0 0.309575 0.983032
0.0473335 0.293996 0.990753
0.342504 0.216892 0.948913
0.631205 0.218448 0.980438
0.9075 0.100206 0.984161
0.947662 0.0735943 0.984497
0.947662 0.0735943 0.984497
0.947662 0.0735943 0.984497
0 0.322225 0.957397
0 0.317968 0.965621
0 0.309682 0.982757
0.282368 0.227024 0.959136
0.603922 0.220783 0.976654
0.895476 0.116518 0.985641
0.947692 0.0737316 0.984482
0.947662 0.0735943 0.984497
0.947662 0.0735943 0.984497
0 0.361486 0.950317
0 0.350744 0.949172
0 0.33315 0.947112
0 0.30779 0.986267
0.51725 0.222843 0.965362
0.855665 0.151858 0.987808
0.94789 0.0747387 0.984314
0.947845 0.0745708 0.984344
0.94786 0.0745251 0.984344
0 0.580957 0.947982
0 0.577585 0.951675
0 0.570092 0.954025
0 0.541924 0.954833
0.34342 0.465934 0.96846
0.785626 0.407492 0.986358
0.970901 0.207797 0.988861
0.964675 0.164813 0.988983
0.961913 0.147448 0.988907
0.0704509 0.792111 0.942306
0.0651713 0.789456 0.94345
0.056611 0.785855 0.945556
0.0296941 0.773159 0.951476
0.182864 0.741054 0.957595
0.687602 0.732174 0.956161
0.952636 0.710292 0.980636
0.975845 0.680537 0.980652
0.975937 0.673899 0.980819
0.283574 0.941604 0.960357
0.279591 0.93991 0.960067
0.272953 0.937407 0.959625
0.25658 0.930343 0.958053
0.238773 0.911818 0.955245
0.643275 0.911711 0.961883
0.90605 0.916915 0.977188
0.987915 0.911269 0.986099
0.987686 0.906325 0.985336
0.241062 0.95552 0.960922
0.241062 0.95552 0.960922
0.241062 0.95552 0.960922
0.241062 0.95552 0.960922
0.393851 0.95494 0.956298
0.697307 0.968795 0.96492
0.914244 0.98349 0.98088
0.986954 0.986938 0.98703
0.99527 0.985611 0.986374
0.241062 0.95552 0.960922
0.241062 0.95552 0.960922
0.241062 0.95552 0.960922
0.241062 0.95552 0.960922
0.394522 0.954864 0.956237
0.690913 0.967849 0.962356
0.908904 0.988327 0.980697
0.982406 0.995285 0.986801
0.9953 0.9953 0.98819
0 0.308598 0.985153
0.0225986 0.298863 0.990036
0.14139 0.270848 0.987549
0.378302 0.216388 0.947585
0.652033 0.215763 0.983322
0.917494 0.0822156 0.982574
0.947662 0.0735943 0.984497
0.947662 0.0735943 0.984497
0.947662 0.0735943 0.984497
0 0.312947 0.974212
0 0.308644 0.984955
0.063386 0.290547 0.9906
0.34789 0.216632 0.948455
0.635035 0.218021 0.980987
0.910491 0.0957656 0.98381
0.947662 0.0735943 0.984497
0.947662 0.0735943 0.984497
0.947662 0.0735943 0.984497
0 0.321965 0.958602
0 0.315938 0.967926
0 0.308812 0.98471
0.288991 0.225238 0.957626
0.607492 0.220508 0.977142
0.898192 0.113207 0.985367
0.947707 0.0738384 0.984466
0.947662 0.0735943 0.984497
0.947662 0.0735943 0.984497
0 0.359411 0.950042
0 0.348562 0.948913
0 0.330877 0.946578
0 0.306493 0.987182
0.520119 0.223011 0.965759
0.85745 0.150607 0.987823
0.94789 0.0747997 0.984298
0.94786 0.0746014 0.984329
0.947845 0.0745403 0.984344
0 0.578729 0.953933
0 0.573114 0.954147
0 0.563928 0.954345
0 0.534783 0.954925
0.334905 0.456107 0.969833
0.780789 0.392203 0.986526
0.967636 0.185306 0.989029
0.960861 0.140551 0.988907
0.95787 0.125048 0.988602
0.0545663 0.791028 0.95288
0.0510414 0.788022 0.952819
0.0446784 0.783673 0.952621
0.0222477 0.769085 0.952087
0.170886 0.735149 0.957275
0.683345 0.724788 0.955917
0.950378 0.702571 0.980575
0.975753 0.671611 0.980682
0.975647 0.664652 0.980682
0.277989 0.939315 0.95996
0.273457 0.937591 0.959655
0.266697 0.935088 0.959381
0.247761 0.927565 0.958144
0.219089 0.906966 0.95668
0.621118 0.904997 0.963027
0.894636 0.910002 0.978485
0.986801 0.90811 0.988144
0.986389 0.903288 0.987854
0.241062 0.95552 0.960922
0.241062 0.95552 0.960922
0.241062 0.95552 0.960922
0.241062 0.95552 0.960922
0.259236 0.956649 0.961639
0.595422 0.964935 0.967254
0.787976 0.969207 0.977874
0.978058 0.979736 0.992157
0.993988 0.982162 0.99443
0.241062 0.95552 0.960922
0.241062 0.95552 0.960922
0.241062 0.95552 0.960922
0.241062 0.95552 0.960922
0.258335 0.956573 0.961593
0.576211 0.963912 0.966262
0.857114 0.983505 0.983856
0.976623 0.994049 0.994171
0.995285 0.995285 0.995285
