bundles/resolve-cinematic-luts/Phantom Luts/Fx6 Phntm ARRI LUTs-G5/Neutral Fx6-Legacy.cube
TITLE "Generated by Resolve"
LUT_3D_SIZE 5
0.0322423 0.032166 0.0322576
0.13315 0.0396124 0.043473
0.50753 0.0530098 0.132296
0.824826 0.0692607 0.29276
0.821485 0.0648661 0.312337
0.0349889 0.134508 0.0475624
0.115053 0.123079 0.0357824
0.505867 0.0573892 0.0751812
0.810437 0.0797742 0.215442
0.829389 0.0786603 0.243366
0.0881208 0.575784 0.222782
0.0805676 0.563882 0.170794
0.53312 0.561517 0.110674
1 0.473732 0.191867
1 0.443595 0.1897
0.247044 0.973648 0.479377
0.239597 0.968887 0.449592
0.421241 0.953201 0.325399
0.978164 0.982513 0.37348
0.99411 0.985473 0.404898
0.25098 0.976974 0.508919
0.246281 0.973007 0.475395
0.339376 0.954437 0.31075
0.948806 0.97615 0.363989
0.994095 0.985489 0.409689
0.0320745 0.0366369 0.0972915
0.129397 0.0372778 0.123552
0.513405 0.0447395 0.206653
0.813275 0.0566415 0.345296
0.810605 0.0541848 0.354788
0.038468 0.117983 0.109819
0.10811 0.107149 0.107973
0.493629 0.0578012 0.130388
0.825574 0.0697795 0.2907
0.822461 0.0654459 0.310277
0.0878462 0.571756 0.278889
0.0830854 0.557885 0.217533
0.524086 0.551675 0.11078
1 0.445212 0.189731
1 0.411429 0.186954
0.251591 0.976974 0.513024
0.24741 0.973999 0.481788
0.35491 0.953445 0.310445
0.971603 0.981094 0.380423
0.99411 0.985473 0.405692
0.255589 0.977249 0.539879
0.25124 0.976959 0.51075
0.286046 0.957076 0.310445
0.941695 0.980941 0.369619
0.994079 0.985504 0.414069
0.0457618 0.0872511 0.439307
0.155901 0.0550851 0.458488
0.53312 0.0470893 0.515373
0.888685 0.0487678 0.552163
0.896956 0.0494392 0.569635
0.00250248 0.121218 0.389853
0.0517281 0.0816052 0.428046
0.511604 0.0487221 0.494606
0.869093 0.0473335 0.516121
0.877806 0.0479744 0.531258
0.0823224 0.524224 0.495949
0.0801709 0.515877 0.488624
0.507332 0.507088 0.50837
1 0.358816 0.475303
1 0.305943 0.467018
0.264637 0.982895 0.670741
0.264302 0.981674 0.652415
0.281636 0.979355 0.496284
0.955535 0.978134 0.508492
0.993606 0.974731 0.507271
0.26482 0.984527 0.693706
0.264683 0.983108 0.674357
0.272084 0.980392 0.520317
0.899565 0.970108 0.498238
0.993805 0.985992 0.516289
0 0.26894 0.935409
0.0583658 0.23238 0.950393
0.564416 0.16939 0.975113
0.92105 0.0683146 0.980011
0.92105 0.0683146 0.980011
0 0.273747 0.903868
0 0.258534 0.920836
0.525765 0.164157 0.963592
0.92105 0.0683146 0.980011
0.92105 0.0683146 0.980011
0 0.502663 0.817121
0 0.492134 0.833219
0.31812 0.42681 0.958267
0.981109 0.170581 0.981369
0.962142 0.120317 0.960006
0.303075 0.960662 0.932067
0.28864 0.957015 0.928344
0.261082 0.932235 0.900175
0.925292 0.925185 0.92607
0.993851 0.903105 0.915282
0.334478 0.963912 0.953384
0.339467 0.96492 0.947768
0.356115 0.978225 0.910216
0.870939 0.990936 0.913329
0.991775 0.98938 0.921736
0 0.264408 0.945266
0.0830854 0.235706 0.969924
0.577371 0.175494 0.977371
0.92105 0.0683146 0.980011
0.92105 0.0683146 0.980011
0 0.274418 0.911803
0 0.264683 0.944549
0.533867 0.179538 0.971389
0.921157 0.0684977 0.97998
0.92105 0.0683146 0.980011
0 0.521401 0.939773
0 0.504524 0.938323
0.263462 0.413046 0.987961
0.963333 0.154177 0.990936
0.942794 0.107973 0.990936
0.201205 0.94696 0.972229
0.190036 0.941131 0.971725
0.153536 0.900664 0.96939
0.867857 0.890257 0.97995
0.990936 0.877806 0.990936
0.167208 0.967147 0.972641
0.167208 0.967147 0.972641
0.183307 0.968948 0.973404
0.809323 0.981521 0.980621
0.990936 0.990936 0.990951
