bundles/resolve-cinematic-luts/Phantom Luts/Fx6 Phntm ARRI LUTs-G5/Neutral Fx6.cube
TITLE "Generated by Resolve"
LUT_3D_SIZE 5
0.0142519 0.0142519 0.0142519
0.169192 0.0301061 0.0393225
0.591424 0.0473945 0.158572
0.889158 0.0595865 0.358648
0.884871 0.0538796 0.379751
0.0251316 0.173617 0.0458228
0.14432 0.157687 0.0275425
0.594079 0.0658274 0.083299
0.884779 0.0777905 0.260807
0.89749 0.0743267 0.296223
0.0897841 0.639719 0.265309
0.0809949 0.626856 0.202243
0.591272 0.61854 0.118807
0.989776 0.559152 0.200656
0.992874 0.532403 0.197482
0.29163 0.968505 0.539223
0.282475 0.967346 0.510018
0.47982 0.944671 0.378607
0.977401 0.983398 0.435386
0.995163 0.987442 0.46952
0.295949 0.96875 0.567437
0.290745 0.968399 0.535409
0.390936 0.946044 0.361624
0.957458 0.97763 0.422415
0.995209 0.987655 0.474708
0.0145724 0.032929 0.117937
0.164172 0.0270085 0.154833
0.592844 0.0342565 0.260624
0.875502 0.0441444 0.413916
0.872496 0.0413672 0.423636
0.0304417 0.149218 0.137255
0.135973 0.134615 0.13576
0.578134 0.0550393 0.157107
0.889937 0.0602579 0.356313
0.885832 0.0546426 0.377401
0.0894636 0.63418 0.331106
0.0842298 0.622568 0.259937
0.582574 0.608988 0.119203
0.992554 0.533898 0.197467
0.996612 0.502251 0.19527
0.296666 0.96875 0.571542
0.292027 0.968521 0.541512
0.41239 0.945403 0.364965
0.973022 0.982376 0.44213
0.995148 0.987121 0.470283
0.300557 0.969253 0.598093
0.296254 0.968734 0.569268
0.33463 0.950072 0.361685
0.950271 0.977417 0.43389
0.995239 0.987732 0.479423
0.0463569 0.100542 0.52134
0.204135 0.0591592 0.538979
0.617121 0.0455787 0.599313
0.932265 0.0470893 0.633844
0.937331 0.0482795 0.651286
0 0.152071 0.471824
0.0552682 0.0925307 0.508949
0.595651 0.0490425 0.578622
0.919509 0.0446021 0.598062
0.925261 0.0457008 0.61297
0.0767376 0.587289 0.558602
0.0746319 0.579232 0.551568
0.567025 0.566796 0.568078
1 0.409506 0.528847
1 0.354482 0.520592
0.31162 0.974975 0.726894
0.309926 0.974105 0.709148
0.33106 0.973831 0.55671
0.961089 0.975814 0.571923
0.992981 0.972122 0.572168
0.313726 0.976104 0.749294
0.31194 0.975128 0.730373
0.319814 0.971878 0.579004
0.923201 0.97818 0.561547
0.995834 0.989288 0.584298
0 0.311635 0.977844
0.106294 0.268528 0.979767
0.639399 0.209262 0.981628
0.947662 0.0735943 0.984497
0.947662 0.0735943 0.984497
0 0.322377 0.95407
0 0.301152 0.97081
0.600427 0.2038 0.972457
0.947662 0.0735943 0.984497
0.947662 0.0735943 0.984497
0 0.565789 0.867597
0 0.5552 0.881788
0.385245 0.472816 0.948577
0.978698 0.206012 0.978882
0.969192 0.140963 0.967788
0.366354 0.950881 0.932021
0.35137 0.948409 0.92932
0.320607 0.930297 0.908553
0.936522 0.936446 0.937041
0.99089 0.922072 0.930434
0.401434 0.954452 0.947646
0.405447 0.95465 0.943648
0.421317 0.964187 0.917983
0.904692 0.992126 0.934081
0.995911 0.994202 0.945205
0 0.308598 0.985153
0.14139 0.270848 0.987549
0.652033 0.215763 0.983322
0.947662 0.0735943 0.984497
0.947662 0.0735943 0.984497
0 0.321965 0.958602
0 0.308812 0.98471
0.607492 0.220508 0.977142
0.947707 0.0738384 0.984466
0.947662 0.0735943 0.984497
0 0.578729 0.953933
0 0.563928 0.954345
0.334905 0.456107 0.969833
0.967636 0.185306 0.989029
0.95787 0.125048 0.988602
0.277989 0.939315 0.95996
0.266697 0.935088 0.959381
0.219089 0.906966 0.95668
0.894636 0.910002 0.978485
0.986389 0.903288 0.987854
0.241062 0.95552 0.960922
0.241062 0.95552 0.960922
0.258335 0.956573 0.961593
0.857114 0.983505 0.983856
0.995285 0.995285 0.995285
