bundles/resolve-cinematic-luts/Phantom Luts/Fx6 Phntm ARRI LUTs-G5/Neutral Fx6-Legacy.cube
TITLE "Generated by Resolve"
LUT_3D_SIZE 9
0.0322423 0.032166 0.0322576
0.0543832 0.0352636 0.0341955
0.13315 0.0396124 0.043473
0.28275 0.0466011 0.0700694
0.50753 0.0530098 0.132296
0.784512 0.070161 0.250019
0.824826 0.0692607 0.29276
0.822522 0.0660716 0.307164
0.821485 0.0648661 0.312337
0.0342412 0.0525673 0.0361486
0.0450141 0.0467384 0.0343175
0.114534 0.0469825 0.0388647
0.274739 0.043122 0.0501869
0.498604 0.0557107 0.101717
0.769909 0.0730755 0.216037
0.82884 0.0746319 0.26746
0.827298 0.0718547 0.281086
0.826612 0.0708019 0.286091
0.0349889 0.134508 0.0475624
0.0450294 0.125887 0.0344701
0.115053 0.123079 0.0357824
0.273045 0.0929885 0.0481727
0.505867 0.0573892 0.0751812
0.709361 0.0698711 0.153521
0.810437 0.0797742 0.215442
0.825193 0.0790875 0.236164
0.829389 0.0786603 0.243366
0.0402686 0.305272 0.0968185
0.0377203 0.298436 0.07364
0.0855879 0.28893 0.0460365
0.271015 0.292638 0.0482795
0.549371 0.244602 0.0984817
0.874876 0.205631 0.140612
0.887877 0.0674449 0.142626
0.821942 0.05243 0.143572
0.793835 0.0522011 0.146197
0.0881208 0.575784 0.222782
0.0851759 0.571054 0.204013
0.0805676 0.563882 0.170794
0.232166 0.545495 0.123079
0.53312 0.561517 0.110674
0.862364 0.511727 0.179416
1 0.473732 0.191867
1 0.452262 0.190311
1 0.443595 0.1897
0.187366 0.877546 0.395956
0.184756 0.87422 0.384543
0.180835 0.868849 0.364477
0.173983 0.849378 0.273823
0.520546 0.82446 0.286091
0.795132 0.846296 0.236835
0.990066 0.828153 0.27834
0.990219 0.814527 0.273716
0.990295 0.809033 0.271534
0.247044 0.973648 0.479377
0.244678 0.971725 0.467231
0.239597 0.968887 0.449592
0.223499 0.960235 0.400595
0.421241 0.953201 0.325399
0.759182 0.94754 0.398444
0.978164 0.982513 0.37348
0.99411 0.985473 0.406256
0.99411 0.985473 0.404898
0.25008 0.976944 0.50106
0.248295 0.974899 0.487816
0.244755 0.971786 0.467552
0.229999 0.962921 0.415381
0.351308 0.953597 0.310414
0.738521 0.946807 0.400458
0.957122 0.977203 0.364172
0.994095 0.985489 0.409461
0.994095 0.985504 0.410788
0.25098 0.976974 0.508919
0.2495 0.976135 0.495857
0.246281 0.973007 0.475395
0.231632 0.964126 0.422477
0.339376 0.954437 0.31075
0.730663 0.946563 0.400992
0.948806 0.97615 0.363989
0.994095 0.985489 0.408408
0.994095 0.985489 0.409689
0.0319982 0.0324102 0.0412299
0.0525521 0.0341802 0.0491035
0.128939 0.0370489 0.0718547
0.287251 0.0423896 0.107866
0.5131 0.0505684 0.160067
0.778241 0.0650645 0.273228
0.82092 0.0641031 0.315587
0.81799 0.0610819 0.327871
0.816724 0.0599069 0.332525
0.0343786 0.0449073 0.043595
0.0399329 0.0394751 0.0394751
0.11664 0.0392462 0.0419165
0.268406 0.0463874 0.0678721
0.499733 0.0534524 0.130632
0.770275 0.0687419 0.24419
0.82501 0.0694285 0.292103
0.822873 0.0663005 0.306279
0.821851 0.0650797 0.311559
0.0360266 0.128191 0.0750286
0.0354009 0.122057 0.0477455
0.108843 0.115999 0.0369726
0.286931 0.0816968 0.049485
0.497078 0.0476692 0.076051
0.739223 0.0719158 0.188281
0.829389 0.0776379 0.249729
0.829725 0.0750744 0.265644
0.829541 0.073991 0.271534
0.0410315 0.303349 0.121798
0.0395514 0.29453 0.0958267
0.0494698 0.283635 0.0405585
0.26508 0.28632 0.0483558
0.543297 0.233066 0.0955825
0.88336 0.186099 0.141726
0.851942 0.0578317 0.143893
0.782208 0.0539101 0.147372
0.773678 0.0577707 0.150195
0.0883955 0.574426 0.241535
0.0860609 0.568887 0.220905
0.0813916 0.5617 0.193423
0.208606 0.542901 0.113558
0.529366 0.557717 0.110475
0.868696 0.50425 0.180148
1 0.463142 0.190951
1 0.440345 0.189425
1 0.430655 0.188495
0.187442 0.875715 0.407858
0.185367 0.872328 0.394507
0.181353 0.866743 0.375753
0.169665 0.849149 0.297459
0.51017 0.822248 0.282109
0.791638 0.842878 0.236149
0.990127 0.822263 0.276173
0.990311 0.807935 0.271077
0.990387 0.802655 0.269154
0.249119 0.975738 0.493477
0.247181 0.973785 0.480308
0.243214 0.970779 0.461204
0.228473 0.962036 0.409995
0.395544 0.953292 0.319661
0.754223 0.947356 0.398962
0.975525 0.981964 0.376181
0.994095 0.985489 0.408148
0.99411 0.985473 0.404898
0.251637 0.976974 0.513344
0.250172 0.977035 0.501991
0.247288 0.973892 0.481071
0.233066 0.965072 0.42829
0.333547 0.954696 0.310445
0.733242 0.946639 0.400824
0.953399 0.976394 0.368368
0.994095 0.985504 0.411078
0.994095 0.985504 0.412406
0.252735 0.977035 0.521126
0.251057 0.976959 0.509758
0.248539 0.975158 0.489662
0.234653 0.966278 0.435019
0.319509 0.955352 0.309804
0.72488 0.94638 0.401266
0.945693 0.977676 0.365927
0.994095 0.985489 0.410056
0.994095 0.985504 0.411368
0.0320745 0.0366369 0.0972915
0.0652476 0.0359503 0.108492
0.129397 0.0372778 0.123552
0.285573 0.0420386 0.148043
0.513405 0.0447395 0.206653
0.767193 0.0567178 0.307485
0.813275 0.0566415 0.345296
0.811292 0.0548257 0.352346
0.810605 0.0541848 0.354788
0.0323949 0.0420996 0.0765087
0.0331884 0.035462 0.0924697
0.11458 0.0370794 0.10927
0.270237 0.0407111 0.12575
0.506355 0.0483101 0.17818
0.760922 0.0606088 0.281544
0.81825 0.0613107 0.326955
0.815213 0.0584268 0.338308
0.813977 0.0573587 0.342489
0.038468 0.117983 0.109819
0.0382391 0.112352 0.10457
0.10811 0.107149 0.107973
0.289189 0.0868696 0.102525
0.493629 0.0578012 0.130388
0.751644 0.0669871 0.236378
0.825574 0.0697795 0.2907
0.823484 0.0666972 0.304845
0.822461 0.0654459 0.310277
0.042298 0.296681 0.163256
0.0408942 0.292058 0.144396
0.0408942 0.280415 0.0957504
0.264424 0.282612 0.0674144
0.562219 0.214099 0.104555
0.865263 0.133837 0.142504
0.787717 0.0529335 0.147066
0.769482 0.0695048 0.161273
0.776043 0.0796063 0.172381
0.0878462 0.571756 0.278889
0.0861372 0.567895 0.25565
0.0830854 0.557885 0.217533
0.153597 0.537453 0.0951095
0.524086 0.551675 0.11078
0.878233 0.491646 0.180804
1 0.445212 0.189731
1 0.420142 0.187716
1 0.411429 0.186954
0.187198 0.873411 0.431403
0.185504 0.869596 0.415961
0.182147 0.863462 0.392401
0.168841 0.846693 0.332311
0.492027 0.819196 0.276066
0.787137 0.838026 0.235401
0.990234 0.813153 0.27274
0.990448 0.797925 0.267369
0.990555 0.791836 0.264927
0.251591 0.976974 0.513024
0.250187 0.977035 0.502083
0.24741 0.973999 0.481788
0.233707 0.965301 0.429267
0.35491 0.953445 0.310445
0.746319 0.947448 0.403784
0.971603 0.981094 0.380423
0.994095 0.985504 0.41088
0.99411 0.985473 0.405692
0.254475 0.977188 0.532403
0.252766 0.977035 0.52134
0.250324 0.977066 0.503243
0.238437 0.968414 0.44596
0.300603 0.956497 0.310018
0.724147 0.946532 0.403021
0.947814 0.97644 0.375479
0.994079 0.985504 0.413794
0.994079 0.985519 0.414939
0.255589 0.977249 0.539879
0.25391 0.977157 0.528511
0.25124 0.976959 0.51075
0.240558 0.969284 0.452522
0.286046 0.957076 0.310445
0.71548 0.946181 0.402365
0.941695 0.980941 0.369619
0.994095 0.985504 0.412955
0.994079 0.985504 0.414069
0.0380713 0.052903 0.228992
0.07953 0.0421454 0.240055
0.145937 0.0420386 0.255238
0.290929 0.0423438 0.280156
0.522225 0.0473945 0.301656
0.75816 0.0438544 0.365988
0.80441 0.0444648 0.394827
0.804334 0.0432136 0.401556
0.804807 0.0432136 0.40499
0.0264897 0.0607767 0.202792
0.0378576 0.0516976 0.221256
0.118425 0.0418402 0.245258
0.277989 0.0419318 0.267079
0.510338 0.0464332 0.283299
0.74638 0.0450446 0.351049
0.805478 0.0469368 0.384604
0.804776 0.0453346 0.391196
0.804501 0.0447395 0.393713
0.0281682 0.109819 0.190646
0.0270085 0.0988937 0.19791
0.0698405 0.0740673 0.234897
0.258854 0.0440375 0.248631
0.495262 0.0466163 0.251911
0.73286 0.0480201 0.32575
0.80827 0.0510872 0.367391
0.807004 0.049424 0.374166
0.806531 0.0487984 0.376745
0.0468757 0.27126 0.250156
0.0465095 0.265995 0.24567
0.0471809 0.257298 0.239094
0.271641 0.270726 0.272267
0.571206 0.22446 0.250385
0.792111 0.0831464 0.241443
0.829709 0.0707103 0.288869
0.827298 0.0675059 0.303487
0.826352 0.0663005 0.308827
0.0880446 0.559594 0.37052
0.0869001 0.556878 0.358053
0.0844129 0.55227 0.334722
0.0935988 0.538155 0.218524
0.518471 0.542107 0.200397
0.878325 0.478233 0.241657
1 0.410834 0.223697
1 0.390936 0.214008
1 0.382803 0.210605
0.184924 0.85922 0.490776
0.183734 0.856748 0.47895
0.181384 0.8533 0.459678
0.172946 0.838605 0.385824
0.417105 0.811139 0.256748
0.774548 0.824445 0.233906
0.990387 0.785534 0.278141
0.990707 0.767819 0.271138
0.990829 0.760769 0.26862
0.259037 0.977646 0.563226
0.257664 0.977462 0.553628
0.255329 0.977234 0.538064
0.247745 0.97435 0.484215
0.266865 0.960403 0.347036
0.721874 0.948028 0.418936
0.96228 0.978744 0.392111
0.99411 0.985473 0.403296
0.994125 0.985443 0.396582
0.260945 0.97792 0.580591
0.260105 0.977844 0.571588
0.257984 0.977493 0.556283
0.250599 0.977035 0.505531
0.243244 0.959747 0.366644
0.694713 0.947295 0.417762
0.936721 0.983429 0.386648
0.994064 0.985534 0.421042
0.994064 0.98555 0.421454
0.261555 0.978149 0.587518
0.260685 0.977859 0.578363
0.259007 0.97763 0.563119
0.251545 0.976974 0.512703
0.237613 0.959869 0.375738
0.684184 0.947036 0.416953
0.923705 0.980026 0.387121
0.994064 0.985534 0.420798
0.994064 0.985534 0.421241
0.0457618 0.0872511 0.439307
0.0908522 0.0664988 0.444038
0.155901 0.0550851 0.458488
0.311528 0.0527199 0.486519
0.53312 0.0470893 0.515373
0.840391 0.0484016 0.527352
0.888685 0.0487678 0.552163
0.894743 0.0492256 0.564721
0.896956 0.0494392 0.569635
0.0122377 0.10248 0.419425
0.0460059 0.0857557 0.434104
0.122438 0.0571603 0.448096
0.290593 0.0527199 0.479362
0.524559 0.047303 0.506966
0.826932 0.0479744 0.514916
0.881483 0.0482643 0.538262
0.887755 0.0487221 0.550271
0.889784 0.0488289 0.55465
0.00250248 0.121218 0.389853
0.00247196 0.112108 0.4
0.0517281 0.0816052 0.428046
0.251698 0.0528115 0.467979
0.511604 0.0487221 0.494606
0.806027 0.0473487 0.494926
0.869093 0.0473335 0.516121
0.875486 0.0477913 0.52726
0.877806 0.0479744 0.531258
0.0121462 0.247593 0.387121
0.00833143 0.239109 0.38938
0.00151064 0.224369 0.395819
0.179843 0.188205 0.46981
0.518456 0.125933 0.499931
0.753613 0.0462501 0.439796
0.842756 0.0458686 0.460578
0.847181 0.0461585 0.468666
0.848936 0.0462501 0.471794
0.0823224 0.524224 0.495949
0.0815747 0.520714 0.493172
0.0801709 0.515877 0.488624
0.0813001 0.500404 0.473899
0.507332 0.507088 0.50837
0.893721 0.469688 0.493217
1 0.358816 0.475303
1 0.320531 0.469383
1 0.305943 0.467018
0.167407 0.83798 0.606683
0.166949 0.835325 0.599802
0.166079 0.831601 0.58938
0.164248 0.819226 0.552468
0.357733 0.81561 0.472847
0.75845 0.79678 0.467781
0.990921 0.768658 0.47306
0.991043 0.752529 0.466484
0.991058 0.745953 0.464652
0.264637 0.982895 0.670741
0.264576 0.982437 0.663569
0.264302 0.981674 0.652415
0.263493 0.97969 0.617487
0.281636 0.979355 0.496284
0.68336 0.95964 0.513817
0.955535 0.978134 0.508492
0.993667 0.977798 0.511528
0.993606 0.974731 0.507271
0.264942 0.984009 0.687404
0.264881 0.983536 0.679789
0.264652 0.982727 0.668025
0.26424 0.98056 0.631647
0.272557 0.980667 0.512612
0.630091 0.959594 0.49276
0.915038 0.976135 0.502846
0.99379 0.986038 0.524178
0.99379 0.986023 0.522545
0.26482 0.984527 0.693706
0.264942 0.983917 0.686183
0.264683 0.983108 0.674357
0.264332 0.980896 0.637705
0.272084 0.980392 0.520317
0.602884 0.959838 0.485649
0.899565 0.970108 0.498238
0.99379 0.986023 0.522072
0.993805 0.985992 0.516289
0.030808 0.154406 0.687526
0.0790723 0.132357 0.687007
0.151049 0.102632 0.682795
0.318868 0.0899825 0.711498
0.557671 0.0780804 0.753536
0.858808 0.0573587 0.804898
0.929595 0.0603647 0.853346
0.927657 0.0613413 0.872801
0.927108 0.0617075 0.879042
0 0.170886 0.675151
0.0321508 0.152117 0.681804
0.108293 0.118257 0.678981
0.292088 0.0893568 0.7028
0.545922 0.078172 0.74847
0.847303 0.0566415 0.794369
0.931014 0.059617 0.840375
0.928847 0.0606546 0.85977
0.928405 0.0610056 0.86598
0 0.184222 0.649546
0 0.175525 0.661967
0.0344091 0.148775 0.672938
0.246372 0.0876783 0.688533
0.527108 0.078706 0.740154
0.82977 0.0558633 0.779248
0.933455 0.0587015 0.818418
0.931365 0.0594797 0.837522
0.930632 0.0597848 0.844022
0 0.231342 0.596292
0 0.222797 0.603708
0 0.21062 0.616953
0.0749218 0.148531 0.67982
0.465095 0.084535 0.719615
0.783337 0.0539559 0.738674
0.940917 0.0573129 0.748425
0.940719 0.0577859 0.763455
0.940383 0.057969 0.76936
0.0144808 0.498634 0.64155
0.00973526 0.495033 0.642573
0.00358587 0.487511 0.643351
0 0.462745 0.654719
0.419394 0.432334 0.746334
0.825315 0.37322 0.782742
0.990936 0.234989 0.723781
0.990936 0.194369 0.713634
0.990936 0.181094 0.708339
0.145678 0.786664 0.745495
0.144411 0.783551 0.743206
0.142611 0.779355 0.739254
0.140566 0.767056 0.728374
0.329473 0.755581 0.724025
0.739178 0.73901 0.740246
1 0.708354 0.725444
1 0.679377 0.716838
1 0.671077 0.714397
0.297353 0.987503 0.832471
0.295247 0.987533 0.828473
0.292271 0.987655 0.820829
0.283604 0.987655 0.79852
0.292897 0.975677 0.728115
0.658686 0.968429 0.724773
0.940719 0.961196 0.7252
0.990433 0.9458 0.7393
0.990234 0.941787 0.733532
0.305104 0.98703 0.85272
0.303212 0.987274 0.847425
0.300099 0.987366 0.839429
0.289479 0.98761 0.813931
0.308461 0.98555 0.736706
0.623819 0.990936 0.719524
0.893172 0.972961 0.724514
0.992828 0.987579 0.750423
0.992813 0.987594 0.751141
0.308186 0.986984 0.859846
0.305913 0.987015 0.85481
0.302708 0.987335 0.846006
0.291875 0.987655 0.819593
0.306844 0.985702 0.739834
0.605829 0.990936 0.711849
0.875364 0.972198 0.718395
0.992905 0.987427 0.73077
0.992844 0.987533 0.744854
0 0.26894 0.935409
0 0.257603 0.943557
0.0583658 0.23238 0.950393
0.296727 0.165591 0.931777
0.564416 0.16939 0.975113
0.862593 0.0906691 0.981796
0.92105 0.0683146 0.980011
0.92105 0.0683146 0.980011
0.92105 0.0683146 0.980011
0 0.271916 0.921508
0 0.265034 0.930236
0.0127718 0.243809 0.939757
0.267399 0.167483 0.930175
0.549584 0.167071 0.971222
0.854551 0.0948959 0.981659
0.92105 0.0683146 0.980011
0.92105 0.0683146 0.980011
0.92105 0.0683146 0.980011
0 0.273747 0.903868
0 0.271077 0.909346
0 0.258534 0.920836
0.211307 0.179355 0.930861
0.525765 0.164157 0.963592
0.838499 0.0967269 0.977401
0.92105 0.0683146 0.980011
0.92105 0.0683146 0.980011
0.92105 0.0683146 0.980011
0 0.268666 0.81825
0 0.265812 0.829984
0 0.262547 0.848539
0 0.242634 0.910719
0.448157 0.157076 0.938537
0.793118 0.105486 0.964721
0.923796 0.0680552 0.973541
0.921462 0.0690013 0.979873
0.921431 0.0689708 0.979889
0 0.502663 0.817121
0 0.49836 0.822751
0 0.492134 0.833219
0 0.472862 0.868025
0.31812 0.42681 0.958267
0.759228 0.357015 0.984649
0.981109 0.170581 0.981369
0.968566 0.133547 0.96701
0.962142 0.120317 0.960006
0.108659 0.746487 0.869429
0.105486 0.743511 0.869596
0.100725 0.739101 0.869947
0.082887 0.725368 0.870741
0.187793 0.70695 0.907973
0.670893 0.686687 0.920531
0.978958 0.652583 0.948837
0.990936 0.622477 0.938399
0.990936 0.615259 0.937041
0.303075 0.960662 0.932067
0.297642 0.959487 0.930617
0.28864 0.957015 0.928344
0.264576 0.951232 0.921309
0.261082 0.932235 0.900175
0.649912 0.92694 0.910491
0.925292 0.925185 0.92607
0.995132 0.912215 0.91809
0.993851 0.903105 0.915282
0.339406 0.964874 0.94786
0.339361 0.965545 0.946517
0.338033 0.966552 0.943618
0.335271 0.969406 0.935073
0.357626 0.978439 0.909575
0.647135 0.989181 0.915373
0.887404 0.990936 0.919814
0.991852 0.989258 0.917845
0.991714 0.989487 0.925093
0.334478 0.963912 0.953384
0.338079 0.963485 0.950423
0.339467 0.96492 0.947768
0.336553 0.96817 0.938704
0.356115 0.978225 0.910216
0.62974 0.989258 0.909529
0.870939 0.990936 0.913329
0.982712 0.989105 0.91252
0.991775 0.98938 0.921736
0 0.265705 0.942306
0 0.257389 0.954574
0.0724193 0.238712 0.968597
0.305257 0.17644 0.944656
0.573388 0.175906 0.976806
0.873182 0.0785687 0.978866
0.92105 0.0683146 0.980011
0.92105 0.0683146 0.980011
0.92105 0.0683146 0.980011
0 0.270314 0.927886
0 0.265843 0.942046
0.0223087 0.251408 0.960204
0.274128 0.181018 0.947036
0.556985 0.177844 0.974624
0.864637 0.0884108 0.981262
0.92105 0.0683146 0.980011
0.92105 0.0683146 0.980011
0.92105 0.0683146 0.980011
0 0.274342 0.909728
0 0.272572 0.920577
0 0.266026 0.941665
0.214359 0.197162 0.9552
0.530388 0.179751 0.970901
0.850202 0.100511 0.984665
0.921096 0.0684215 0.979995
0.92105 0.0683146 0.980011
0.92105 0.0683146 0.980011
0 0.303517 0.900908
0 0.295094 0.897383
0 0.280888 0.892271
0 0.263401 0.947097
0.445289 0.180606 0.959365
0.801297 0.127184 0.990539
0.921538 0.0691539 0.979843
0.921462 0.0690318 0.979873
0.921462 0.068986 0.979873
0 0.523445 0.930404
0 0.519982 0.935927
0 0.51162 0.938689
0 0.478676 0.936095
0.271931 0.422934 0.986831
0.730022 0.350973 0.990936
0.969924 0.172213 0.990936
0.957229 0.138109 0.990936
0.951263 0.12491 0.990936
0.0329137 0.751186 0.940444
0.0277714 0.74844 0.941985
0.0203098 0.744732 0.944762
0 0.731624 0.952575
0.118273 0.699779 0.971023
0.63064 0.680018 0.96434
0.956359 0.65565 0.990936
0.986709 0.624292 0.990936
0.986816 0.617441 0.990936
0.206699 0.950118 0.97258
0.202808 0.947799 0.972335
0.196277 0.94432 0.971923
0.181323 0.934493 0.970352
0.171099 0.907637 0.967697
0.577722 0.902541 0.970245
0.882658 0.899489 0.98117
0.990936 0.888075 0.990936
0.990936 0.881697 0.990936
0.167208 0.967147 0.972641
0.167208 0.967147 0.972641
0.167208 0.967147 0.972641
0.167208 0.967147 0.972641
0.321233 0.966323 0.965942
0.632898 0.975418 0.968719
0.884092 0.984756 0.983032
0.989899 0.989883 0.990051
0.990799 0.986557 0.988846
0.167208 0.967147 0.972641
0.167208 0.967147 0.972641
0.167208 0.967147 0.972641
0.167208 0.967147 0.972641
0.321965 0.966201 0.96585
0.627466 0.973983 0.964904
0.874296 0.984665 0.980667
0.980926 0.990875 0.987152
0.992874 0.98967 0.989425
0 0.264408 0.945266
0.00669871 0.254963 0.956436
0.0830854 0.235706 0.969924
0.310719 0.175998 0.944442
0.577371 0.175494 0.977371
0.876417 0.0742809 0.977523
0.92105 0.0683146 0.980011
0.92105 0.0683146 0.980011
0.92105 0.0683146 0.980011
0 0.269902 0.930724
0 0.264485 0.944915
0.0314794 0.249195 0.961959
0.279347 0.180117 0.946624
0.560723 0.177478 0.975158
0.868193 0.0845502 0.980407
0.92105 0.0683146 0.980011
0.92105 0.0683146 0.980011
0.92105 0.0683146 0.980011
0 0.274418 0.911803
0 0.271443 0.922896
0 0.264683 0.944549
0.220249 0.195209 0.954208
0.533867 0.179538 0.971389
0.853529 0.0982376 0.983993
0.921157 0.0684977 0.97998
0.92105 0.0683146 0.980011
0.92105 0.0683146 0.980011
0 0.301885 0.900114
0 0.293355 0.896666
0 0.278859 0.891356
0 0.261692 0.948699
0.448081 0.180774 0.959792
0.803525 0.12636 0.990494
0.921553 0.0691844 0.979828
0.921492 0.0690471 0.979873
0.921462 0.0690013 0.979873
0 0.521401 0.939773
0 0.515053 0.9393
0 0.504524 0.938323
0 0.470588 0.93518
0.263462 0.413046 0.987961
0.724208 0.336324 0.990936
0.963333 0.154177 0.990936
0.948867 0.119997 0.990936
0.942794 0.107973 0.990936
0.0163424 0.750866 0.955795
0.0131075 0.747829 0.955459
0.0081178 0.743084 0.954894
0 0.726802 0.953368
0.106935 0.693049 0.970565
0.626154 0.67219 0.964233
0.953262 0.647517 0.990936
0.986572 0.615106 0.990936
0.986419 0.60795 0.990936
0.201205 0.94696 0.972229
0.196765 0.944579 0.971954
0.190036 0.941131 0.971725
0.172839 0.930617 0.970535
0.153536 0.900664 0.96939
0.554574 0.894072 0.97055
0.867857 0.890257 0.97995
0.990936 0.884001 0.990936
0.990936 0.877806 0.990936
0.167208 0.967147 0.972641
0.167208 0.967147 0.972641
0.167208 0.967147 0.972641
0.167208 0.967147 0.972641
0.184192 0.969055 0.973449
0.525231 0.974075 0.972427
0.728374 0.972854 0.97673
0.979019 0.98172 0.989899
0.990936 0.983032 0.990936
0.167208 0.967147 0.972641
0.167208 0.967147 0.972641
0.167208 0.967147 0.972641
0.167208 0.967147 0.972641
0.183307 0.968948 0.973404
0.505119 0.973419 0.972396
0.809323 0.981521 0.980621
0.971847 0.989654 0.989792
0.990936 0.990936 0.990951
