bundles/resolve-cinematic-luts/Phantom Luts/Fx6 Phntm ARRI LUTs-G5/Tungsten Fx6.cube
TITLE "Generated by Resolve"
LUT_3D_SIZE 5
0.0128634 0.0133211 0.0197147
0.140002 0.0303502 0.0453346
0.57319 0.0640726 0.175051
0.777096 0.108003 0.352483
0.773358 0.104311 0.368963
0.0336614 0.162707 0.0674754
0.138155 0.147936 0.0466926
0.582162 0.0770581 0.112947
0.785855 0.124971 0.289219
0.789776 0.123583 0.310323
0.00735485 0.526711 0.200198
0 0.521324 0.159091
0.601526 0.549828 0.0924392
0.960693 0.569696 0.277272
0.961364 0.576471 0.278813
0.181201 0.795483 0.437537
0.174533 0.792279 0.415396
0.314961 0.762371 0.236408
0.97528 0.889158 0.435798
0.981308 0.893614 0.459007
0.188434 0.800702 0.468849
0.179522 0.794644 0.43122
0.375463 0.762036 0.24065
0.97293 0.887938 0.431815
0.980957 0.894148 0.461906
0.00244144 0.0385901 0.107622
0.127306 0.032578 0.140185
0.552972 0.0579385 0.257343
0.760723 0.0946059 0.390005
0.758129 0.0927901 0.39913
0.0392157 0.146319 0.14342
0.113939 0.137438 0.143008
0.56643 0.0704967 0.174731
0.778775 0.109331 0.351644
0.77435 0.105119 0.366201
0.0153658 0.532158 0.268879
0.00682078 0.524742 0.21207
0.59617 0.545419 0.0939498
0.961822 0.55642 0.278157
0.96231 0.562737 0.279286
0.188754 0.800381 0.468559
0.183047 0.796963 0.446097
0.268864 0.762798 0.23563
0.972915 0.889082 0.441367
0.980972 0.89395 0.46273
0.198169 0.807279 0.503471
0.188891 0.800595 0.469352
0.309041 0.762509 0.237201
0.965789 0.885771 0.432334
0.980591 0.894499 0.465492
0 0.144305 0.493095
0.145586 0.0928511 0.531014
0.561761 0.0710155 0.549508
0.777173 0.105241 0.543145
0.780179 0.108675 0.55935
0 0.189609 0.445167
0 0.142947 0.478538
0.548165 0.0731212 0.537209
0.772641 0.101244 0.522408
0.776532 0.104616 0.538689
0.0668803 0.568383 0.536706
0.0668803 0.570123 0.53901
0.573556 0.577874 0.565499
1 0.464103 0.563806
1 0.462562 0.576379
0.239582 0.840513 0.633173
0.236713 0.838651 0.626703
0.211566 0.798505 0.445655
0.951705 0.897932 0.548684
0.978637 0.909056 0.577615
0.266453 0.861692 0.699931
0.257801 0.855512 0.68069
0.225254 0.801877 0.469322
0.930617 0.894865 0.547539
0.978058 0.909911 0.574533
0.0519265 0.385 0.77847
0.0932326 0.366476 0.807904
0.576379 0.2701 0.952773
0.745861 0.159121 0.802838
0.745876 0.159213 0.803037
0.0509041 0.394919 0.77409
0.050309 0.382498 0.776013
0.546075 0.273899 0.952728
0.745815 0.158892 0.802411
0.745876 0.159228 0.803082
0.105852 0.611795 0.794324
0.110628 0.613214 0.802915
0.391852 0.604013 1
0.868772 0.289448 0.902953
0.875181 0.30219 0.913329
0.406561 0.929702 0.912978
0.413428 0.931548 0.915877
0.400214 0.920546 0.898268
0.952941 0.955474 0.950637
0.988739 0.952575 0.952041
0.371283 0.93312 0.928679
0.37612 0.933776 0.928817
0.438834 0.929747 0.903593
0.940841 0.985016 0.957092
0.997086 0.991211 0.964446
0.0520943 0.382666 0.779583
0.123919 0.363958 0.829572
0.589349 0.271153 0.953979
0.745861 0.159121 0.802838
0.745876 0.159243 0.803113
0.0514076 0.394491 0.775128
0.0520485 0.383673 0.779263
0.558831 0.279103 0.957855
0.745937 0.159075 0.802625
0.745876 0.159243 0.803082
0.132311 0.630701 0.835233
0.131258 0.627726 0.834943
0.371496 0.587808 1
0.857816 0.28217 0.901946
0.867201 0.295796 0.911696
0.342077 0.923003 0.922347
0.337377 0.922545 0.920073
0.354604 0.92015 0.930968
0.920867 0.943679 0.979492
0.980865 0.941451 0.982818
0.338399 0.9234 0.919982
0.338643 0.923629 0.920424
0.349523 0.928801 0.925429
0.913771 0.984802 0.984192
0.994797 0.994553 0.994156
