bundles/resolve-cinematic-luts/Phantom Luts/Fx6 Phntm ARRI LUTs-G5/Tungsten Fx6-Legacy.cube
TITLE "Generated by Resolve"
LUT_3D_SIZE 33
0.0309148 0.0312963 0.0378271
0.03093 0.0312047 0.037644
0.0309606 0.0310063 0.0372015
0.0324712 0.0309758 0.0365606
0.041062 0.0323491 0.0377203
0.0535134 0.033875 0.0394141
0.0702068 0.0354772 0.0415198
0.0896468 0.0370184 0.0447547
0.112016 0.0388952 0.0488289
0.139559 0.0413977 0.0542306
0.173495 0.0441596 0.0611124
0.215641 0.0467079 0.0694438
0.264912 0.049546 0.0803998
0.31928 0.0530709 0.0952316
0.376379 0.057496 0.111437
0.436118 0.0618296 0.129122
0.497215 0.0652018 0.148089
0.557946 0.070222 0.170794
0.616022 0.0770581 0.198535
0.680262 0.088304 0.234012
0.739116 0.104784 0.270771
0.754452 0.109606 0.286336
0.753216 0.108095 0.291707
0.752163 0.106966 0.296605
0.751141 0.105913 0.300801
0.750118 0.104952 0.304067
0.749264 0.104204 0.306706
0.748562 0.103624 0.308965
0.748089 0.103258 0.310491
0.747829 0.103029 0.312154
0.747753 0.102953 0.313512
0.747951 0.103044 0.315312
0.748241 0.103227 0.316899
0.0309606 0.0310216 0.0372473
0.0309453 0.0311131 0.0374456
0.0309606 0.0310063 0.0372015
0.0314488 0.0307927 0.0364233
0.0371405 0.032166 0.0368963
0.0476387 0.0339055 0.0382391
0.0639963 0.0361334 0.0406653
0.0842298 0.0375982 0.0426795
0.107958 0.0387121 0.0458228
0.136034 0.0403449 0.0499733
0.171481 0.0422217 0.0556954
0.213703 0.0453956 0.0643931
0.261173 0.0489815 0.074052
0.314092 0.0529183 0.0868696
0.372274 0.0578164 0.104448
0.433249 0.0624247 0.123033
0.494667 0.0657054 0.142184
0.556054 0.0704051 0.164736
0.615061 0.0773785 0.192798
0.680629 0.0890516 0.228443
0.738918 0.105501 0.265614
0.755276 0.11078 0.281941
0.754223 0.109316 0.28751
0.753201 0.108034 0.292119
0.752316 0.107073 0.296208
0.751492 0.106233 0.299733
0.750774 0.105531 0.302388
0.750149 0.104921 0.304479
0.749691 0.104509 0.306142
0.749493 0.104295 0.30782
0.749477 0.104234 0.309346
0.749676 0.104341 0.310994
0.749981 0.104494 0.312688
0.0317693 0.0333715 0.0385443
0.0317235 0.0335241 0.0389105
0.0315099 0.0328679 0.0382849
0.0317845 0.0321508 0.0375219
0.0346227 0.0325475 0.0371405
0.0422675 0.0341039 0.0378424
0.0558022 0.0364538 0.0399634
0.0769665 0.0388647 0.0424201
0.10219 0.039826 0.04477
0.132235 0.0406043 0.0479438
0.168566 0.0417334 0.0525978
0.211383 0.0434272 0.0592508
0.260136 0.0464637 0.0683146
0.314107 0.0508736 0.0801404
0.370443 0.0571145 0.0967422
0.429114 0.0642557 0.11635
0.492195 0.0668498 0.136187
0.553872 0.0703899 0.158343
0.613672 0.0776989 0.186938
0.679683 0.0895399 0.222522
0.738476 0.106157 0.259892
0.756008 0.111986 0.277256
0.755261 0.110597 0.282887
0.75433 0.109346 0.287617
0.753429 0.108232 0.291493
0.752819 0.107485 0.294682
0.752163 0.106828 0.297566
0.751659 0.10631 0.29984
0.751308 0.105943 0.301579
0.751171 0.105776 0.303044
0.75111 0.105669 0.304601
0.751369 0.10576 0.306447
0.751675 0.105898 0.308171
0.0340887 0.0410468 0.0421912
0.0340276 0.0412146 0.0425422
0.0333562 0.0395361 0.0409247
0.0339666 0.0376898 0.0395972
0.0366217 0.0368353 0.0391699
0.0420386 0.0375525 0.0395209
0.0518654 0.039292 0.0404059
0.0711681 0.0414282 0.0422827
0.0979782 0.0423743 0.045243
0.127337 0.04271 0.0477302
0.164569 0.0430304 0.0518959
0.208698 0.0432746 0.0564584
0.259007 0.0449989 0.0638743
0.314427 0.0476081 0.0734875
0.371633 0.0538491 0.0889754
0.428687 0.0632792 0.109453
0.489799 0.0693523 0.130709
0.551598 0.0712139 0.152209
0.612131 0.0779278 0.180636
0.678294 0.0900282 0.216434
0.737591 0.106737 0.254108
0.756436 0.113176 0.272221
0.756054 0.111849 0.278187
0.755398 0.110658 0.282948
0.754696 0.109651 0.286748
0.753887 0.108766 0.289937
0.753368 0.108034 0.292439
0.752987 0.107576 0.294652
0.752697 0.10724 0.296391
0.752621 0.107073 0.298238
0.752636 0.106996 0.299931
0.752956 0.107118 0.301762
0.753368 0.107362 0.303166
0.0370489 0.0525063 0.0464942
0.0370031 0.0527199 0.0468757
0.0360266 0.0505379 0.0447395
0.0364385 0.0480659 0.0428779
0.0395361 0.0460212 0.0421607
0.0469215 0.046479 0.042649
0.0556344 0.0472267 0.0433356
0.0720836 0.0480964 0.0439307
0.0982223 0.0479133 0.0464027
0.126574 0.0472877 0.0487526
0.164294 0.0466468 0.0521401
0.206439 0.045182 0.0565652
0.257053 0.045655 0.062211
0.312657 0.0464485 0.0686198
0.371801 0.0504768 0.0814984
0.431235 0.0584268 0.101244
0.489174 0.0693675 0.124758
0.548882 0.0736858 0.146502
0.609613 0.0782788 0.173663
0.674815 0.0898756 0.209033
0.735836 0.107134 0.247166
0.756634 0.114229 0.26714
0.756573 0.1131 0.27306
0.756252 0.111971 0.278172
0.755734 0.110979 0.282094
0.755169 0.110109 0.285466
0.754635 0.109438 0.287785
0.754116 0.108904 0.28983
0.753872 0.108507 0.291539
0.753872 0.108324 0.29308
0.753918 0.108232 0.294545
0.754253 0.108385 0.296208
0.754681 0.108583 0.297902
0.0395819 0.0674144 0.0512856
0.0395361 0.0676738 0.0516976
0.0388495 0.0654002 0.0486305
0.0388037 0.0625315 0.04654
0.0425422 0.0583352 0.0450599
0.0484779 0.0575723 0.044831
0.0612955 0.0583505 0.0463111
0.0762341 0.0589303 0.0465095
0.100237 0.0568551 0.048249
0.127733 0.0558633 0.0496986
0.168429 0.0551919 0.0534829
0.207675 0.0513771 0.0563821
0.25771 0.0490425 0.0622263
0.312459 0.0484779 0.0678416
0.371359 0.0501869 0.076997
0.431983 0.0548867 0.0929122
0.491722 0.0641489 0.116716
0.547066 0.0743877 0.140551
0.605661 0.0783246 0.166171
0.670192 0.0893416 0.201236
0.733471 0.107271 0.240513
0.755322 0.114748 0.260792
0.756802 0.114199 0.267704
0.756741 0.113191 0.27303
0.756497 0.11223 0.277317
0.756146 0.111437 0.28072
0.755764 0.11078 0.283223
0.755398 0.110246 0.285359
0.755184 0.109911 0.286824
0.755123 0.109743 0.288243
0.755184 0.109682 0.289631
0.755505 0.109804 0.291447
0.755886 0.109972 0.293111
0.0417334 0.0851453 0.0561532
0.0416724 0.0855726 0.0566415
0.0409705 0.0828565 0.0530861
0.0405432 0.0801404 0.0494087
0.0446021 0.0765087 0.0478523
0.0509346 0.0737621 0.0475471
0.0629435 0.0742504 0.0470588
0.0843214 0.0751202 0.0489357
0.103716 0.0735332 0.0490883
0.12987 0.0693675 0.0507057
0.166827 0.0672313 0.0532235
0.213031 0.0649271 0.0567025
0.266377 0.0600748 0.0621805
0.314824 0.0544747 0.068452
0.372213 0.0537423 0.0764324
0.432181 0.0550088 0.0872969
0.493141 0.0590982 0.105348
0.548882 0.0690471 0.131624
0.602396 0.0787213 0.158328
0.665949 0.0892958 0.192615
0.728084 0.106325 0.231449
0.753277 0.115099 0.253132
0.755657 0.115023 0.260471
0.757061 0.11458 0.266621
0.757031 0.113725 0.271031
0.756909 0.113039 0.274525
0.756756 0.112398 0.277531
0.756634 0.111925 0.279728
0.756497 0.111589 0.281254
0.756451 0.11136 0.282704
0.756497 0.111238 0.284016
0.756725 0.111269 0.285374
0.757 0.111391 0.286473
0.0434424 0.104875 0.0603952
0.0432898 0.105379 0.0611734
0.0424659 0.103365 0.0575418
0.0419623 0.101259 0.0536355
0.0449073 0.0988937 0.0500191
0.0523232 0.0951553 0.0494087
0.0629892 0.0937362 0.0507057
0.0846571 0.0942397 0.0500343
0.110918 0.0946517 0.0518807
0.13434 0.0924849 0.051606
0.166369 0.0856947 0.0535286
0.21471 0.0792401 0.0575723
0.267643 0.0763561 0.062562
0.331304 0.072694 0.0696269
0.379309 0.063386 0.0779889
0.433936 0.0597238 0.0871748
0.495262 0.0599527 0.0996262
0.551995 0.0639658 0.11928
0.60174 0.0735943 0.146273
0.657908 0.0878157 0.179278
0.719966 0.104952 0.218479
0.747494 0.114534 0.241093
0.752041 0.115221 0.249607
0.755383 0.115679 0.256825
0.756848 0.115465 0.261875
0.757504 0.115038 0.26598
0.757534 0.114488 0.268757
0.757504 0.114031 0.271214
0.757458 0.11368 0.27303
0.757549 0.113527 0.274418
0.757626 0.113451 0.275334
0.757916 0.113527 0.276555
0.758251 0.11368 0.277562
0.0442054 0.127123 0.0658732
0.0440375 0.127718 0.066804
0.0430915 0.125566 0.062623
0.0424811 0.123903 0.0580911
0.0436713 0.122713 0.0527504
0.0513771 0.119829 0.0506905
0.0619821 0.116991 0.0522469
0.0812238 0.116136 0.0549477
0.109621 0.116426 0.0520333
0.141665 0.116136 0.0537575
0.172045 0.112535 0.0530404
0.217273 0.100389 0.0578927
0.267353 0.0942397 0.0631723
0.334524 0.0927138 0.071519
0.395071 0.0898451 0.0793317
0.458381 0.080354 0.0900282
0.498802 0.0661784 0.0995956
0.556268 0.0652476 0.114122
0.604334 0.068986 0.134417
0.650004 0.0806439 0.162539
0.706279 0.101823 0.20032
0.738231 0.112795 0.224918
0.743648 0.114061 0.233326
0.74815 0.115007 0.240955
0.751354 0.115358 0.247257
0.754116 0.115862 0.252628
0.75584 0.116075 0.256367
0.756619 0.115953 0.259052
0.757092 0.115877 0.260716
0.757473 0.115831 0.262104
0.757839 0.115862 0.263279
0.758251 0.116014 0.264363
0.758648 0.116243 0.265019
0.0436866 0.154376 0.0735027
0.0434577 0.155093 0.0745098
0.0426032 0.152972 0.0691539
0.0420233 0.151324 0.0639658
0.0421302 0.15021 0.0572519
0.047303 0.14873 0.0515145
0.0582742 0.145785 0.0518196
0.0765545 0.143282 0.0566873
0.102815 0.14258 0.0580148
0.138445 0.142855 0.053315
0.180453 0.141863 0.0554513
0.21825 0.137026 0.0553292
0.279286 0.117891 0.0654154
0.329 0.116045 0.071107
0.405936 0.115785 0.0832532
0.471305 0.114076 0.0932784
0.543511 0.105653 0.108339
0.576791 0.0825818 0.118502
0.611261 0.0715496 0.129931
0.646799 0.0743267 0.149569
0.690394 0.0924086 0.179706
0.723888 0.108736 0.204822
0.730617 0.11133 0.213062
0.735607 0.112367 0.220005
0.73991 0.113436 0.226307
0.743206 0.114229 0.231235
0.745617 0.114763 0.235264
0.747509 0.115145 0.238499
0.74876 0.115373 0.240528
0.749615 0.115526 0.242054
0.75021 0.115679 0.243091
0.750607 0.115877 0.243824
0.750851 0.116075 0.244221
0.0416419 0.187793 0.0821241
0.0412909 0.188663 0.0831464
0.0407111 0.186877 0.0782177
0.0397955 0.184955 0.0717479
0.0393378 0.183139 0.0641031
0.0398566 0.181521 0.0547036
0.0489815 0.179858 0.0496376
0.0683452 0.17763 0.0527504
0.095552 0.17673 0.0596475
0.128435 0.175387 0.0601816
0.17409 0.175906 0.0531167
0.229572 0.175235 0.0573281
0.275853 0.170291 0.0588693
0.347875 0.147372 0.0740673
0.399878 0.146761 0.0816358
0.484489 0.150347 0.0983139
0.561303 0.150454 0.114717
0.62707 0.140185 0.129686
0.6589 0.109056 0.141268
0.665705 0.0832074 0.14815
0.686412 0.0853285 0.168841
0.709178 0.0979934 0.187243
0.713848 0.101564 0.191775
0.715801 0.103136 0.194247
0.721065 0.107332 0.200214
0.724361 0.108766 0.204135
0.728176 0.110613 0.208682
0.730495 0.111513 0.21181
0.732097 0.111818 0.213916
0.73315 0.112032 0.215167
0.73373 0.112261 0.215915
0.734081 0.11249 0.216403
0.734005 0.112612 0.216388
0.0371252 0.225956 0.0902266
0.0366979 0.226764 0.09131
0.0361028 0.225437 0.0863966
0.0354009 0.223865 0.0813001
0.0348516 0.222126 0.0751354
0.0343328 0.219898 0.0639048
0.0364538 0.218494 0.051606
0.0529641 0.216556 0.0466926
0.0822766 0.215366 0.0524758
0.116945 0.215961 0.0618601
0.161273 0.214969 0.0626078
0.222431 0.217487 0.0518196
0.292958 0.218585 0.0595102
0.345327 0.215671 0.0625467
0.421225 0.193515 0.0851606
0.482139 0.189349 0.09897
0.567193 0.194736 0.117617
0.652796 0.194995 0.138308
0.713726 0.183246 0.154772
0.740703 0.150423 0.171649
0.72607 0.109697 0.173938
0.71281 0.0923781 0.177905
0.708614 0.0920119 0.181262
0.708309 0.0935683 0.18291
0.708843 0.0945144 0.183917
0.70927 0.0952621 0.184726
0.709911 0.0961929 0.185595
0.711131 0.0972915 0.186816
0.711498 0.0973983 0.187213
0.71165 0.0973831 0.187533
0.711482 0.0971542 0.187472
0.711116 0.0967575 0.187228
0.710338 0.0960403 0.186725
0.0301518 0.271534 0.0983597
0.0296483 0.272419 0.0994278
0.0292668 0.271397 0.0955673
0.0287327 0.269978 0.0913405
0.027863 0.268742 0.0855879
0.0269932 0.266651 0.0774548
0.0267491 0.264088 0.0643015
0.0326085 0.261555 0.0462806
0.0595712 0.260243 0.041886
0.0983749 0.26128 0.0509041
0.143725 0.264073 0.0651408
0.204685 0.263615 0.0648966
0.281483 0.267735 0.0497139
0.363607 0.270008 0.0628672
0.415915 0.271015 0.0679789
0.496956 0.250813 0.0979782
0.570657 0.24596 0.118807
0.652033 0.244572 0.139071
0.738979 0.246403 0.164065
0.796521 0.23798 0.188327
0.80972 0.205402 0.205112
0.788495 0.157763 0.205219
0.763134 0.127611 0.194308
0.748714 0.114534 0.189166
0.738201 0.105913 0.185595
0.7299 0.099794 0.182788
0.723415 0.0954147 0.180697
0.718853 0.0928511 0.179706
0.715038 0.0908522 0.178714
0.713405 0.0902876 0.179065
0.711513 0.0893568 0.178607
0.710567 0.0885939 0.178317
0.713649 0.0907759 0.179858
0.0217136 0.320836 0.107683
0.0212406 0.321798 0.10869
0.020737 0.321004 0.105287
0.0201114 0.320027 0.100603
0.0194553 0.318959 0.0961929
0.018616 0.317647 0.0906539
0.0181582 0.31548 0.0819715
0.0180819 0.31249 0.0634165
0.0310216 0.309438 0.0382544
0.0684367 0.308278 0.0352636
0.117525 0.310948 0.0493477
0.17792 0.315541 0.0706188
0.254536 0.315099 0.0671702
0.344503 0.32224 0.0465705
0.434302 0.326986 0.0716716
0.489555 0.332387 0.078584
0.573404 0.317861 0.110277
0.65893 0.309819 0.141115
0.735241 0.306294 0.162982
0.820386 0.305409 0.196674
0.864668 0.301762 0.225711
0.875151 0.279728 0.241688
0.865431 0.253498 0.240925
0.851194 0.232547 0.234409
0.838529 0.215976 0.228382
0.829923 0.202808 0.227085
0.821988 0.192889 0.223362
0.816327 0.185977 0.220661
0.813092 0.181918 0.219333
0.811688 0.180041 0.218631
0.813031 0.180926 0.219272
0.817288 0.184985 0.221286
0.82359 0.193835 0.224231
0.0133059 0.370016 0.119814
0.0130007 0.371176 0.121386
0.0121004 0.370657 0.11722
0.0115358 0.369741 0.112917
0.0107881 0.368795 0.10779
0.0101472 0.367773 0.10309
0.00920119 0.366598 0.0983444
0.00813306 0.364019 0.0861372
0.00848402 0.360327 0.0601968
0.0328985 0.356954 0.0303197
0.082063 0.356161 0.0309758
0.146212 0.361135 0.0535897
0.223346 0.367926 0.0818799
0.313497 0.368933 0.0721294
0.409705 0.379629 0.0508125
0.506981 0.386664 0.0852369
0.565255 0.394751 0.097322
0.650431 0.385718 0.127581
0.742977 0.375845 0.165896
0.814694 0.370886 0.192187
0.88658 0.367727 0.233585
0.915801 0.364538 0.25835
0.917144 0.352331 0.262211
0.912276 0.341787 0.259831
0.907637 0.33228 0.257649
0.90425 0.325475 0.256107
0.901411 0.320165 0.254658
0.900008 0.317143 0.254108
0.899641 0.316167 0.254002
0.900511 0.317479 0.254429
0.902449 0.320928 0.255192
0.904692 0.325109 0.256718
0.907698 0.330968 0.25835
0.0108492 0.421637 0.139223
0.0106355 0.423194 0.140887
0.00967422 0.4224 0.137057
0.00921645 0.421607 0.132342
0.00830091 0.420554 0.126574
0.00733959 0.419745 0.121889
0.00624094 0.419364 0.118166
0.00480659 0.417914 0.11136
0.00386053 0.414374 0.0932174
0.00515755 0.409598 0.0594492
0.0413825 0.405493 0.025742
0.105455 0.406653 0.0355383
0.187625 0.414603 0.0665446
0.276768 0.42266 0.0946212
0.374975 0.424643 0.0798047
0.475837 0.438926 0.0622263
0.579721 0.449119 0.104433
0.64268 0.459846 0.121202
0.728008 0.456077 0.150835
0.822965 0.444434 0.194827
0.884978 0.440482 0.226123
0.931716 0.433158 0.261463
0.94519 0.425101 0.27538
0.943389 0.418936 0.2748
0.941482 0.413504 0.273899
0.9402 0.409628 0.27335
0.939193 0.406744 0.272923
0.938781 0.405112 0.272786
0.938796 0.405066 0.272877
0.939239 0.406653 0.273045
0.940124 0.409247 0.273396
0.941512 0.413352 0.274067
0.943709 0.419593 0.275196
0.0136416 0.476463 0.165652
0.0136721 0.477958 0.167895
0.0126955 0.477378 0.164279
0.0117342 0.476692 0.15996
0.0108339 0.475883 0.155077
0.0100404 0.475456 0.150317
0.0093843 0.4748 0.145953
0.00823987 0.474144 0.141695
0.00645457 0.47216 0.131487
0.00555428 0.467521 0.105577
0.00956741 0.462165 0.0610208
0.060914 0.457572 0.0294347
0.145647 0.460182 0.0493629
0.238224 0.469184 0.0836194
0.334829 0.477684 0.102403
0.437766 0.481956 0.0907759
0.54377 0.500984 0.0819715
0.652903 0.51397 0.130373
0.719814 0.527367 0.152682
0.79852 0.527855 0.180911
0.88957 0.515663 0.231174
0.939498 0.516258 0.262425
0.958297 0.512901 0.276417
0.962722 0.505821 0.280934
0.961608 0.499596 0.280598
0.961273 0.495384 0.280842
0.960754 0.492302 0.280735
0.960571 0.490761 0.280812
0.960662 0.491157 0.280873
0.960906 0.492531 0.280995
0.961685 0.495338 0.281407
0.962051 0.500008 0.281346
0.963287 0.506798 0.281971
0.0227359 0.535012 0.198077
0.0229038 0.53666 0.200809
0.0222324 0.536461 0.197513
0.0215 0.536217 0.194049
0.0208896 0.536171 0.190204
0.0203098 0.535653 0.18616
0.0197757 0.535195 0.181567
0.019028 0.534432 0.177035
0.0174563 0.533394 0.171298
0.0157931 0.530877 0.157214
0.0157931 0.526268 0.123629
0.0260319 0.519829 0.0683452
0.0958572 0.512627 0.0437781
0.196078 0.515877 0.0687419
0.295689 0.526116 0.103441
0.396445 0.535042 0.115755
0.503288 0.54284 0.108629
0.611124 0.565652 0.108095
0.724346 0.580499 0.165057
0.793286 0.595895 0.193332
0.859327 0.601434 0.219623
0.931441 0.59324 0.262531
0.966659 0.592416 0.286137
0.969604 0.590555 0.286885
0.969345 0.586664 0.286259
0.9691 0.583673 0.285756
0.968978 0.582528 0.285557
0.968902 0.581704 0.285481
0.968994 0.581888 0.285634
0.969146 0.583154 0.285954
0.969329 0.585733 0.286412
0.969619 0.589822 0.287205
0.970169 0.596201 0.28867
0.0399634 0.599069 0.238041
0.0404669 0.600961 0.240894
0.0399786 0.60087 0.237919
0.0396277 0.60116 0.235111
0.0391546 0.601007 0.232151
0.0387121 0.600763 0.228672
0.0383154 0.600458 0.22501
0.0376745 0.599771 0.219974
0.0368048 0.599313 0.213748
0.0353094 0.597864 0.206134
0.0336156 0.593973 0.186313
0.0350652 0.587579 0.144671
0.0584573 0.579477 0.0852216
0.148272 0.572839 0.0667124
0.258228 0.575967 0.0955367
0.356741 0.586038 0.127947
0.460563 0.595148 0.136248
0.56878 0.606332 0.135271
0.678935 0.634638 0.144198
0.793881 0.649485 0.207385
0.860685 0.665797 0.241657
0.90988 0.67538 0.263371
0.952453 0.673701 0.287266
0.968612 0.668742 0.298573
0.968475 0.665858 0.297704
0.968429 0.663844 0.297108
0.968673 0.662562 0.296971
0.968597 0.66186 0.296742
0.968597 0.662089 0.296757
0.968399 0.663172 0.296742
0.968139 0.665629 0.296941
0.968048 0.670161 0.29778
0.967697 0.675547 0.298589
0.0647288 0.664347 0.276493
0.0658274 0.666621 0.279835
0.065507 0.666743 0.277592
0.0652934 0.666773 0.275578
0.0650645 0.666743 0.273091
0.0648508 0.666667 0.270207
0.0646525 0.666712 0.267842
0.064332 0.666712 0.263874
0.063386 0.665553 0.257237
0.0616922 0.663752 0.248966
0.0597086 0.66157 0.239094
0.0583963 0.656886 0.214054
0.0626078 0.648234 0.161776
0.103853 0.640314 0.104921
0.215778 0.635828 0.0989853
0.323583 0.638605 0.126848
0.421103 0.647547 0.154574
0.525704 0.657282 0.162799
0.636255 0.672892 0.170855
0.74461 0.70425 0.189609
0.858183 0.719738 0.254734
0.916762 0.734722 0.290486
0.953811 0.744106 0.310384
0.971099 0.743938 0.31931
0.972717 0.740612 0.319677
0.972274 0.738552 0.318578
0.971984 0.737316 0.317906
0.971923 0.736904 0.317754
0.97203 0.737224 0.317998
0.972427 0.738964 0.318959
0.972793 0.741024 0.319982
0.973663 0.744411 0.321874
0.974746 0.749065 0.324376
0.0952316 0.721675 0.313695
0.0966049 0.72343 0.316747
0.0961776 0.723507 0.314382
0.0959487 0.723644 0.312718
0.0957656 0.723751 0.310597
0.0956436 0.723812 0.308293
0.0958724 0.724392 0.306538
0.0955062 0.724208 0.303441
0.0946212 0.723354 0.298482
0.0933852 0.721798 0.290837
0.0913405 0.719524 0.281712
0.0891432 0.717311 0.270329
0.0887617 0.710948 0.237751
0.100954 0.701656 0.181765
0.159701 0.69546 0.131533
0.295369 0.693523 0.138521
0.393118 0.696376 0.162905
0.488624 0.704677 0.185946
0.595682 0.717067 0.196201
0.707774 0.737484 0.213565
0.810483 0.769955 0.240604
0.910491 0.784863 0.302403
0.958343 0.797391 0.334325
0.984527 0.803571 0.352071
0.988876 0.801968 0.355322
0.988388 0.8 0.354269
0.988296 0.798962 0.35378
0.988296 0.798459 0.353643
0.988312 0.798871 0.353841
0.988327 0.799542 0.354162
0.988693 0.80119 0.355138
0.989242 0.803769 0.356558
0.989746 0.807294 0.358373
0.127718 0.76669 0.347555
0.128557 0.767697 0.349996
0.128298 0.767727 0.348165
0.127825 0.767605 0.346288
0.127687 0.767819 0.344686
0.127413 0.767712 0.342718
0.127047 0.76759 0.340856
0.126726 0.767285 0.338094
0.125734 0.766629 0.334386
0.124163 0.765301 0.32813
0.122698 0.7635 0.31928
0.120439 0.760754 0.30779
0.117891 0.757595 0.292912
0.122698 0.751019 0.255024
0.144579 0.743099 0.200778
0.229633 0.737835 0.161273
0.372824 0.739315 0.178347
0.464775 0.743664 0.201251
0.559411 0.753185 0.220462
0.669566 0.769528 0.235035
0.780941 0.794293 0.259831
0.869596 0.825452 0.292851
0.950134 0.83769 0.345892
0.983917 0.846922 0.369284
0.991577 0.847837 0.376761
0.991852 0.846387 0.376837
0.991943 0.845396 0.376501
0.991989 0.845228 0.376486
0.99202 0.845273 0.376577
0.992004 0.84593 0.376928
0.991974 0.847181 0.377447
0.991669 0.848859 0.37789
0.991699 0.851942 0.379263
0.146654 0.788022 0.370031
0.147127 0.788647 0.372686
0.146517 0.788159 0.370138
0.145953 0.787686 0.368185
0.145434 0.787259 0.366018
0.144762 0.786694 0.363531
0.144076 0.78616 0.361288
0.143221 0.785397 0.358236
0.141909 0.784253 0.353979
0.140185 0.782635 0.347784
0.137545 0.780224 0.339254
0.134386 0.777005 0.326223
0.130678 0.773602 0.312947
0.130983 0.76936 0.28864
0.149248 0.766171 0.246921
0.195315 0.763043 0.203586
0.326635 0.763287 0.195834
0.446738 0.766079 0.218814
0.537697 0.773846 0.244984
0.633234 0.787152 0.259953
0.747875 0.809155 0.281926
0.845335 0.837263 0.306065
0.916136 0.859785 0.340749
0.97406 0.874647 0.380468
0.98735 0.878096 0.391806
0.987793 0.877241 0.392782
0.987823 0.876631 0.391699
0.987961 0.876402 0.391333
0.987976 0.876417 0.39118
0.987793 0.876753 0.39115
0.987747 0.877531 0.391623
0.987457 0.878965 0.392264
0.987015 0.880781 0.393027
0.148745 0.790265 0.379461
0.149203 0.790906 0.3823
0.148623 0.790311 0.379309
0.147967 0.789792 0.376852
0.14725 0.789197 0.374289
0.146563 0.788525 0.371313
0.145983 0.787869 0.368719
0.145266 0.787152 0.365316
0.143832 0.785931 0.36054
0.142046 0.78439 0.354376
0.139544 0.782025 0.345769
0.136202 0.77882 0.333272
0.132509 0.774823 0.317708
0.129519 0.770611 0.297658
0.145266 0.768338 0.259739
0.183307 0.767163 0.216953
0.292271 0.767681 0.200641
0.433066 0.769711 0.221729
0.522637 0.776715 0.24889
0.618631 0.789761 0.269337
0.721721 0.808133 0.290242
0.826886 0.836591 0.317037
0.901473 0.862776 0.345113
0.955261 0.876493 0.378729
0.983063 0.88632 0.403479
0.984588 0.88777 0.413687
0.98471 0.887465 0.412772
0.984741 0.887327 0.412085
0.984756 0.887358 0.411841
0.984695 0.887526 0.412406
0.984573 0.887831 0.413489
0.98439 0.888197 0.414771
0.984314 0.88835 0.415473
0.150454 0.792325 0.387945
0.150927 0.792905 0.390402
0.150271 0.792279 0.387457
0.149615 0.791669 0.384695
0.148974 0.790997 0.381918
0.148318 0.79028 0.378668
0.147616 0.789624 0.375845
0.14667 0.788647 0.371786
0.145495 0.787366 0.366354
0.143587 0.785718 0.35967
0.141085 0.783536 0.35108
0.137545 0.780209 0.339117
0.134066 0.776104 0.321798
0.129931 0.771984 0.304585
0.141787 0.768704 0.26746
0.17499 0.767178 0.220569
0.271183 0.767254 0.19971
0.421988 0.769329 0.219181
0.513329 0.775662 0.24593
0.608408 0.788266 0.267872
0.709453 0.805783 0.288304
0.814603 0.832807 0.315022
0.893126 0.860807 0.342962
0.946899 0.875212 0.374136
0.979797 0.885206 0.399924
0.984298 0.88835 0.416114
0.984131 0.888563 0.418738
0.984146 0.888548 0.41857
0.984176 0.888533 0.417823
0.984192 0.888579 0.417365
0.984192 0.888594 0.417105
0.984176 0.888609 0.416953
0.984176 0.888609 0.416922
0.151919 0.794171 0.395407
0.1523 0.794644 0.397284
0.151675 0.794003 0.394568
0.151019 0.793301 0.391531
0.150317 0.792569 0.388403
0.149645 0.791836 0.385214
0.148959 0.791028 0.381933
0.148043 0.790036 0.37763
0.146609 0.788571 0.371435
0.144976 0.786862 0.364034
0.14229 0.784634 0.355245
0.138781 0.781338 0.343114
0.135225 0.777188 0.325826
0.130587 0.7729 0.308766
0.139498 0.769207 0.273625
0.169055 0.767132 0.223896
0.257374 0.76704 0.199924
0.412177 0.769009 0.217166
0.506294 0.774975 0.243671
0.600687 0.787213 0.26688
0.700343 0.804044 0.286213
0.806561 0.830365 0.313069
0.88603 0.858152 0.339879
0.940246 0.873075 0.369543
0.978225 0.884642 0.398093
0.984253 0.888548 0.415473
0.984039 0.888838 0.418738
0.984009 0.888914 0.419074
0.983963 0.888991 0.419394
0.983917 0.889097 0.41976
0.983917 0.889113 0.419516
0.983932 0.889113 0.419242
0.983948 0.889097 0.41915
0.15285 0.795651 0.401556
0.153124 0.796063 0.40351
0.152651 0.795346 0.400168
0.152102 0.794614 0.39704
0.151431 0.793881 0.39382
0.150698 0.793057 0.390402
0.149981 0.792233 0.386831
0.14905 0.79115 0.382467
0.147662 0.789654 0.375937
0.1458 0.787671 0.367849
0.143236 0.785412 0.358267
0.139727 0.782177 0.346273
0.136049 0.777966 0.328649
0.131197 0.773541 0.311421
