bundles/resolve-cinematic-luts/Phantom Luts/Fx6 Phntm ARRI LUTs-G5/Tungsten Fx6-Legacy.cube
TITLE "Generated by Resolve"
LUT_3D_SIZE 5
0.0309148 0.0312963 0.0378271
0.112016 0.0388952 0.0488289
0.497215 0.0652018 0.148089
0.751141 0.105913 0.300801
0.748241 0.103227 0.316899
0.0442054 0.127123 0.0658732
0.109621 0.116426 0.0520333
0.498802 0.0661784 0.0995956
0.751354 0.115358 0.247257
0.758648 0.116243 0.265019
0.0136416 0.476463 0.165652
0.00645457 0.47216 0.131487
0.54377 0.500984 0.0819715
0.961608 0.499596 0.280598
0.963287 0.506798 0.281971
0.150454 0.792325 0.387945
0.145495 0.787366 0.366354
0.271183 0.767254 0.19971
0.979797 0.885206 0.399924
0.984176 0.888609 0.416922
0.155901 0.798611 0.418769
0.149142 0.790997 0.382193
0.328099 0.767254 0.202823
0.977462 0.884245 0.396994
0.983871 0.889311 0.419303
0.0236362 0.039704 0.0926528
0.103426 0.0409094 0.11426
0.488655 0.0620279 0.209628
0.736019 0.0954757 0.33904
0.73312 0.0940261 0.348318
0.0460212 0.115221 0.11519
0.0927596 0.10869 0.114519
0.487358 0.0694133 0.14728
0.752636 0.106996 0.300053
0.749371 0.103944 0.314656
0.0199893 0.481422 0.224887
0.0132448 0.474159 0.176165
0.538476 0.496681 0.0837568
0.959548 0.483879 0.280735
0.96083 0.491569 0.281178
0.1561 0.798276 0.418311
0.152087 0.794675 0.397131
0.232975 0.766888 0.202838
0.979538 0.885634 0.404547
0.983993 0.888853 0.419501
0.163149 0.803922 0.451164
0.156191 0.798474 0.419226
0.266606 0.767269 0.201007
0.97023 0.882322 0.395773
0.983642 0.889601 0.422187
0.0059205 0.120607 0.415793
0.10634 0.0829938 0.448142
0.489128 0.0672313 0.474678
0.758755 0.0977798 0.485725
0.764172 0.100679 0.502144
0 0.148272 0.363546
0.00453193 0.118135 0.402045
0.473487 0.0681621 0.460639
0.750469 0.0942092 0.463935
0.757259 0.0972763 0.481193
0.0679332 0.507424 0.476967
0.0671702 0.509255 0.479286
0.513985 0.518715 0.506859
1 0.412848 0.510491
1 0.411246 0.522698
0.195666 0.830961 0.574868
0.193378 0.829419 0.568765
0.174685 0.797192 0.395193
0.9505 0.886671 0.484138
0.976455 0.897002 0.510689
0.216907 0.849653 0.640879
0.210163 0.84416 0.621546
0.185336 0.801907 0.418662
0.918257 0.880232 0.476173
0.976287 0.897047 0.50808
0.0320134 0.339864 0.747814
0.0534829 0.320089 0.763958
0.493935 0.239063 0.923903
0.726024 0.151537 0.801495
0.726024 0.151568 0.801541
0.0282292 0.343969 0.739895
0.0301061 0.337209 0.744564
0.464408 0.241794 0.920287
0.72604 0.151369 0.801099
0.726024 0.151614 0.801648
0.0727855 0.555886 0.760266
0.0788434 0.558007 0.771206
0.317388 0.553399 0.981826
0.847211 0.259739 0.881514
0.852293 0.270695 0.892363
0.364996 0.929961 0.907851
0.370611 0.932433 0.911528
0.35552 0.918929 0.889174
0.946624 0.950576 0.943557
0.989197 0.944656 0.944015
0.345418 0.931792 0.926513
0.348623 0.93254 0.92668
0.386755 0.931685 0.895628
0.918441 0.978469 0.943481
0.993378 0.985519 0.949126
0.0323339 0.336202 0.749081
0.0734722 0.319173 0.779873
0.507149 0.24033 0.926726
0.726024 0.151537 0.801495
0.726024 0.151568 0.801556
0.0294957 0.344625 0.742168
0.0322728 0.337789 0.748745
0.476783 0.247105 0.926986
0.726146 0.151522 0.801297
0.726024 0.151614 0.801648
0.109239 0.581109 0.817914
0.107515 0.576654 0.816861
0.298405 0.537774 0.974075
0.83386 0.253788 0.882536
0.842359 0.265019 0.891676
0.322454 0.918837 0.918135
0.319188 0.918624 0.915999
0.329305 0.913802 0.926696
0.904158 0.936538 0.981765
0.981216 0.92871 0.982605
0.320272 0.91989 0.915908
0.320623 0.920165 0.916487
0.329503 0.925643 0.921141
0.879957 0.980514 0.979019
0.990311 0.989899 0.989273
