bundles/resolve-cinematic-luts/Phantom Luts/Fx6 Phntm ARRI LUTs-G5/Tungsten Fx6-Legacy.cube
TITLE "Generated by Resolve"
LUT_3D_SIZE 9
0.0309148 0.0312963 0.0378271
0.041062 0.0323491 0.0377203
0.112016 0.0388952 0.0488289
0.264912 0.049546 0.0803998
0.497215 0.0652018 0.148089
0.739116 0.104784 0.270771
0.751141 0.105913 0.300801
0.748089 0.103258 0.310491
0.748241 0.103227 0.316899
0.0370489 0.0525063 0.0464942
0.0395361 0.0460212 0.0421607
0.0982223 0.0479133 0.0464027
0.257053 0.045655 0.062211
0.489174 0.0693675 0.124758
0.735836 0.107134 0.247166
0.755734 0.110979 0.282094
0.753872 0.108507 0.291539
0.754681 0.108583 0.297902
0.0442054 0.127123 0.0658732
0.0436713 0.122713 0.0527504
0.109621 0.116426 0.0520333
0.267353 0.0942397 0.0631723
0.498802 0.0661784 0.0995956
0.706279 0.101823 0.20032
0.751354 0.115358 0.247257
0.757092 0.115877 0.260716
0.758648 0.116243 0.265019
0.0301518 0.271534 0.0983597
0.027863 0.268742 0.0855879
0.0595712 0.260243 0.041886
0.281483 0.267735 0.0497139
0.570657 0.24596 0.118807
0.80972 0.205402 0.205112
0.738201 0.105913 0.185595
0.715038 0.0908522 0.178714
0.713649 0.0907759 0.179858
0.0136416 0.476463 0.165652
0.0108339 0.475883 0.155077
0.00645457 0.47216 0.131487
0.145647 0.460182 0.0493629
0.54377 0.500984 0.0819715
0.88957 0.515663 0.231174
0.961608 0.499596 0.280598
0.960662 0.491157 0.280873
0.963287 0.506798 0.281971
0.0952316 0.721675 0.313695
0.0957656 0.723751 0.310597
0.0946212 0.723354 0.298482
0.0887617 0.710948 0.237751
0.393118 0.696376 0.162905
0.810483 0.769955 0.240604
0.988876 0.801968 0.355322
0.988312 0.798871 0.353841
0.989746 0.807294 0.358373
0.150454 0.792325 0.387945
0.148974 0.790997 0.381918
0.145495 0.787366 0.366354
0.134066 0.776104 0.321798
0.271183 0.767254 0.19971
0.709453 0.805783 0.288304
0.979797 0.885206 0.399924
0.984176 0.888533 0.417823
0.984176 0.888609 0.416922
0.154269 0.797116 0.409216
0.152728 0.795193 0.400031
0.148974 0.790631 0.380926
0.136751 0.778378 0.331121
0.251774 0.766613 0.200793
0.691569 0.801999 0.283772
0.973114 0.882368 0.391974
0.984207 0.888457 0.41799
0.983917 0.889143 0.419348
0.155901 0.798611 0.418769
0.153643 0.796735 0.40621
0.149142 0.790997 0.382193
0.135332 0.776455 0.322683
0.328099 0.767254 0.202823
0.734203 0.811032 0.294316
0.977462 0.884245 0.396994
0.9841 0.888716 0.418235
0.983871 0.889311 0.419303
0.0296635 0.0323491 0.0465553
0.0403906 0.0335088 0.0497444
0.104356 0.039292 0.0700389
0.263813 0.0483864 0.110491
0.499245 0.0644999 0.171664
0.734874 0.100877 0.289113
0.74638 0.101869 0.318593
0.742458 0.0993362 0.327199
0.74197 0.0990005 0.332174
0.0357671 0.0458381 0.0512093
0.034638 0.0412146 0.0476081
0.0998703 0.0418708 0.0521553
0.252888 0.0501106 0.0798199
0.491936 0.0658274 0.148013
0.735775 0.104051 0.269261
0.752377 0.106752 0.301961
0.749416 0.104128 0.311589
0.749157 0.103807 0.316854
0.0454566 0.122683 0.089601
0.0439612 0.119448 0.0730907
0.0988479 0.112139 0.0549172
0.27776 0.0850538 0.0653544
0.489189 0.0597086 0.102541
0.724208 0.105379 0.228092
0.757794 0.114397 0.270924
0.757168 0.112154 0.281285
0.757809 0.112123 0.285359
0.0323491 0.272526 0.124514
0.0309453 0.26772 0.105501
0.0315404 0.255375 0.055375
0.27657 0.263706 0.0507668
0.568505 0.236316 0.117784
0.797208 0.18291 0.203769
0.724773 0.0965133 0.181598
0.707759 0.0916762 0.181048
0.713802 0.0951553 0.183169
0.0158694 0.478492 0.185962
0.0133364 0.477119 0.172183
0.00929274 0.472206 0.145769
0.1205 0.457633 0.0417334
0.541772 0.499535 0.082414
0.893843 0.513191 0.233555
0.961303 0.495003 0.280995
0.960006 0.486503 0.280873
0.962646 0.502647 0.281819
0.0966049 0.723018 0.325536
0.0975204 0.7252 0.32105
0.0962997 0.725017 0.308537
0.0881666 0.71342 0.254887
0.386084 0.696391 0.161151
0.810224 0.769985 0.240955
0.988571 0.800916 0.354726
0.988037 0.797208 0.353033
0.989517 0.806424 0.358083
0.152834 0.7953 0.40061
0.151553 0.794003 0.394324
0.147982 0.789975 0.377417
0.136492 0.77847 0.330694
0.256123 0.766964 0.199863
0.705303 0.804913 0.287633
0.979812 0.885405 0.401862
0.984131 0.888609 0.418692
0.984131 0.888701 0.417899
0.156405 0.798856 0.420722
0.154849 0.797513 0.412634
0.151537 0.793606 0.393179
0.138735 0.780606 0.34052
0.240803 0.766842 0.202533
0.685389 0.800839 0.282429
0.971099 0.881849 0.391836
0.984131 0.888548 0.418891
0.983856 0.889235 0.420279
0.158328 0.800397 0.43035
0.155688 0.798245 0.417014
0.151751 0.794003 0.394705
0.138003 0.778759 0.331258
0.310124 0.76759 0.201999
0.726223 0.809293 0.2925
0.975158 0.883604 0.395834
0.984039 0.888823 0.419074
0.983795 0.889403 0.420264
0.0236362 0.039704 0.0926528
0.0433051 0.038407 0.104768
0.103426 0.0409094 0.11426
0.252888 0.0510719 0.142504
0.488655 0.0620279 0.209628
0.722316 0.0933394 0.314061
0.736019 0.0954757 0.33904
0.733303 0.0940566 0.344457
0.73312 0.0940261 0.348318
0.028275 0.0454719 0.0772259
0.0248112 0.0402228 0.0844129
0.090425 0.0402838 0.105608
0.242695 0.0485542 0.125689
0.490349 0.0633555 0.18732
0.725994 0.0964523 0.296925
0.74255 0.0994278 0.326513
0.738857 0.0971084 0.333883
0.737987 0.0966964 0.339315
0.0460212 0.115221 0.11519
0.0452583 0.111833 0.112871
0.0927596 0.10869 0.114519
0.279149 0.0925612 0.116609
0.487358 0.0694133 0.14728
0.730236 0.102144 0.264836
0.752636 0.106996 0.300053
0.749722 0.104326 0.309575
0.749371 0.103944 0.314656
0.0381628 0.270497 0.165911
0.0360571 0.268437 0.153689
0.0345464 0.2589 0.113222
0.275334 0.264561 0.0760815
0.589883 0.221973 0.131777
0.763561 0.139452 0.1935
0.711696 0.0938888 0.185901
0.719615 0.10457 0.198566
0.728481 0.110323 0.203357
0.0199893 0.481422 0.224887
0.0170291 0.481498 0.210941
0.0132448 0.474159 0.176165
0.0663615 0.452674 0.0419776
0.538476 0.496681 0.0837568
0.899275 0.506767 0.236454
0.959548 0.483879 0.280735
0.957702 0.473304 0.280369
0.96083 0.491569 0.281178
0.0985275 0.725063 0.346502
0.0996414 0.727443 0.34136
0.0985885 0.726589 0.324681
0.0883955 0.714275 0.273548
0.370214 0.695216 0.15761
0.808133 0.768277 0.240269
0.988113 0.797635 0.353231
0.98706 0.793317 0.350744
0.988907 0.802319 0.355886
0.1561 0.798276 0.418311
0.154925 0.797803 0.413336
0.152087 0.794675 0.397131
0.140154 0.782437 0.346838
0.232975 0.766888 0.202838
0.692424 0.802838 0.28806
0.979538 0.885634 0.404547
0.984009 0.888731 0.420066
0.983993 0.888853 0.419501
0.160174 0.80177 0.43888
0.158709 0.800656 0.432135
0.155261 0.797696 0.414084
0.143145 0.784863 0.356542
0.213504 0.767254 0.207904
0.671061 0.798459 0.281712
0.966186 0.880629 0.39144
0.983978 0.888701 0.420493
0.983703 0.889387 0.421942
0.163149 0.803922 0.451164
0.160479 0.802136 0.440726
0.156191 0.798474 0.419226
0.142565 0.783795 0.351766
0.266606 0.767269 0.201007
0.7075 0.805676 0.291432
0.97023 0.882322 0.395773
0.983871 0.888991 0.420951
0.983642 0.889601 0.422187
0.0147097 0.0637675 0.206699
0.0437629 0.053666 0.220188
0.11284 0.0508431 0.242847
0.256413 0.0525673 0.25272
0.478721 0.0668193 0.281971
0.699535 0.082002 0.352956
0.719905 0.0855879 0.371664
0.718715 0.0847334 0.376257
0.718746 0.0847334 0.381659
0.0106203 0.0691386 0.183047
0.0120241 0.0636301 0.19585
0.0846571 0.0512703 0.233188
0.245777 0.0520943 0.242679
0.470237 0.0652628 0.267277
0.699031 0.0830549 0.344152
0.722713 0.0875715 0.365072
0.721004 0.0864271 0.369406
0.720684 0.0861524 0.374624
0.022858 0.116518 0.174975
0.0186923 0.110689 0.180774
0.039765 0.092607 0.216037
0.231739 0.057847 0.229694
0.46183 0.0646983 0.242466
0.700557 0.0849317 0.329305
0.727718 0.0906996 0.353567
0.725673 0.0894179 0.357336
0.725124 0.0891585 0.362127
0.0487678 0.261799 0.246189
0.0482948 0.259998 0.245121
0.0492866 0.253223 0.239216
0.266926 0.271427 0.270222
0.599023 0.231525 0.266468
0.745678 0.112795 0.264668
0.755489 0.108904 0.294179
0.753155 0.106401 0.303822
0.753826 0.106569 0.307836
0.0368505 0.489342 0.321736
0.0345006 0.490272 0.31577
0.0301518 0.486168 0.294316
0.0241398 0.461295 0.171099
0.530861 0.500359 0.16231
0.928389 0.495247 0.288243
0.966522 0.459113 0.303136
0.96286 0.450492 0.299229
0.969451 0.46511 0.306752
0.103227 0.724834 0.400122
0.104723 0.728527 0.39762
0.103807 0.72961 0.384436
0.0918898 0.715908 0.319646
0.277165 0.689342 0.142596
0.797757 0.759075 0.235019
0.985443 0.785489 0.350668
0.983917 0.779919 0.347082
0.986343 0.788769 0.35259
0.166064 0.805615 0.462623
0.165194 0.805402 0.459983
0.162127 0.803235 0.447517
0.151873 0.794446 0.396277
0.166979 0.770703 0.253742
0.652995 0.797162 0.290791
0.972503 0.883864 0.406271
0.983719 0.889067 0.424033
0.983642 0.889265 0.424292
0.171206 0.809735 0.484565
0.16994 0.808896 0.479896
0.166522 0.806378 0.465629
0.154925 0.797421 0.412619
0.157259 0.770916 0.266957
0.628214 0.79292 0.285359
0.948852 0.875654 0.388464
0.983673 0.889097 0.424521
0.983474 0.889754 0.425879
0.176272 0.81416 0.505287
0.17406 0.812284 0.496483
0.169726 0.808743 0.47921
0.155703 0.797955 0.416281
0.170336 0.771145 0.253056
0.654841 0.797528 0.293523
0.952682 0.877028 0.393957
0.983566 0.889418 0.425513
0.983413 0.889952 0.426444
0.0059205 0.120607 0.415793
0.0416876 0.100969 0.426154
0.10634 0.0829938 0.448142
0.270954 0.0709239 0.478126
0.489128 0.0672313 0.474678
0.740658 0.0924544 0.472328
0.758755 0.0977798 0.485725
0.761303 0.0990158 0.492561
0.764172 0.100679 0.502144
0 0.133608 0.392248
0.00047303 0.122332 0.408896
0.0728313 0.0886854 0.43508
0.252308 0.0721447 0.475837
0.483223 0.0670024 0.4692
0.735744 0.090898 0.465354
0.755856 0.0965286 0.478172
0.758541 0.0977188 0.484855
0.762112 0.0997177 0.495323
0 0.148272 0.363546
0 0.142794 0.373022
0.00453193 0.118135 0.402045
0.21387 0.0745403 0.468101
0.473487 0.0681621 0.460639
0.727382 0.0884718 0.451774
0.750469 0.0942092 0.463935
0.753155 0.0951858 0.470512
0.757259 0.0972763 0.481193
0.00411994 0.269215 0.372732
0 0.265965 0.37731
0 0.255055 0.382544
0.153399 0.223865 0.482734
0.49868 0.138338 0.479759
0.700511 0.0827497 0.412329
0.737926 0.0897231 0.424384
0.740627 0.0906233 0.431098
0.744808 0.0923476 0.44065
0.0679332 0.507424 0.476967
0.0677043 0.509804 0.480095
0.0671702 0.509255 0.479286
0.0679942 0.496437 0.464973
0.513985 0.518715 0.506859
0.975692 0.506142 0.533761
1 0.412848 0.510491
1 0.392248 0.507576
1 0.411246 0.522698
0.122316 0.738308 0.529442
0.124605 0.74284 0.532036
0.124666 0.744183 0.526986
0.114641 0.73228 0.491051
0.215946 0.700999 0.358282
0.769268 0.758862 0.41236
0.986496 0.789105 0.486717
0.987121 0.783047 0.483421
0.986542 0.792004 0.494316
0.195666 0.830961 0.574868
0.195743 0.831449 0.576349
0.193378 0.829419 0.568765
0.18323 0.820356 0.532158
0.174685 0.797192 0.395193
0.58909 0.805554 0.379004
0.9505 0.886671 0.484138
0.976822 0.895933 0.503685
0.976455 0.897002 0.510689
0.204425 0.838987 0.603586
0.203815 0.838437 0.60177
0.200641 0.835767 0.592172
0.188479 0.824811 0.550744
0.174838 0.800046 0.410666
0.547799 0.797604 0.363867
0.916365 0.877012 0.458595
0.977035 0.895293 0.498756
0.976486 0.896544 0.504738
0.216907 0.849653 0.640879
0.214878 0.848051 0.635142
0.210163 0.84416 0.621546
0.194308 0.830152 0.571633
0.185336 0.801907 0.418662
0.581704 0.807507 0.394965
0.918257 0.880232 0.476173
0.976486 0.896895 0.510018
0.976287 0.897047 0.50808
0 0.220584 0.637324
0.0211185 0.204227 0.651041
0.0856794 0.171328 0.667323
0.261067 0.142245 0.722927
0.496818 0.113695 0.738643
0.732815 0.118807 0.699229
0.754818 0.131548 0.718517
0.751339 0.133013 0.727657
0.748333 0.135607 0.73872
0 0.234623 0.625788
0 0.221851 0.632502
0.0467842 0.189349 0.656245
0.235813 0.143252 0.714305
0.488838 0.114687 0.739559
0.73109 0.117723 0.696834
0.756451 0.130632 0.713481
0.752834 0.132464 0.72401
0.750027 0.134966 0.734798
0 0.246265 0.615457
0 0.242863 0.621897
0 0.219028 0.628168
0.189929 0.143633 0.695781
0.474235 0.115694 0.738521
0.72813 0.115221 0.690623
0.759762 0.128527 0.701991
0.756207 0.130388 0.713207
0.75285 0.132998 0.725582
0 0.282612 0.583627
0 0.278737 0.589837
0 0.26865 0.598749
0.0242618 0.212024 0.64921
0.42121 0.121828 0.73344
0.708949 0.106218 0.673472
0.772656 0.124285 0.663233
0.769833 0.125795 0.674754
0.766491 0.128374 0.689784
0.0320592 0.529717 0.632898
0.0309606 0.532204 0.637964
0.0290379 0.530724 0.641947
0.0249638 0.516381 0.651957
0.427924 0.518166 0.832364
0.846128 0.388769 0.794186
0.916594 0.280629 0.715663
0.907958 0.263706 0.707439
0.917983 0.286458 0.729625
0.174334 0.763561 0.721187
0.178683 0.769604 0.728328
0.181216 0.772992 0.731823
0.178241 0.768811 0.726864
0.29688 0.762829 0.721294
0.770306 0.776913 0.762493
1 0.768948 0.773114
1 0.754406 0.773602
1 0.762753 0.783551
0.291279 0.894072 0.780072
0.293584 0.895689 0.784695
0.292058 0.894972 0.782574
0.278874 0.887587 0.76112
0.264576 0.859663 0.67686
0.593698 0.872679 0.666224
0.950103 0.930816 0.730877
0.99118 0.938293 0.768627
0.991516 0.94023 0.778195
0.311879 0.905409 0.812955
0.312627 0.906264 0.814954
0.309834 0.904952 0.810132
0.292729 0.895232 0.78349
0.264942 0.863005 0.686915
0.558419 0.866056 0.652247
0.903761 0.924025 0.715175
0.987823 0.948531 0.765362
0.988144 0.950256 0.772396
0.334752 0.91751 0.8495
0.333196 0.916976 0.84715
0.329 0.91519 0.840375
0.309255 0.904402 0.809384
0.280339 0.868925 0.70605
0.594903 0.878889 0.687678
0.907256 0.929351 0.735836
0.988235 0.950484 0.773465
0.987945 0.95053 0.772854
0.0320134 0.339864 0.747814
0.0316014 0.333715 0.748211
0.0534829 0.320089 0.763958
0.237217 0.256901 0.850797
0.493935 0.239063 0.923903
0.708034 0.159411 0.820371
0.726024 0.151537 0.801495
0.72604 0.1514 0.80119
0.726024 0.151568 0.801541
0.0306401 0.342245 0.744701
0.0311742 0.339315 0.746349
0.0316777 0.326329 0.747448
0.211337 0.262684 0.84097
0.483421 0.24004 0.92285
0.707332 0.16054 0.822095
0.72604 0.151492 0.801389
0.72604 0.151522 0.80145
0.726024 0.15169 0.801816
0.0282292 0.343969 0.739895
0.0292668 0.343618 0.741924
0.0301061 0.337209 0.744564
0.162737 0.279927 0.82237
0.464408 0.241794 0.920287
0.702129 0.159976 0.823026
0.72604 0.151369 0.801099
0.72604 0.1514 0.801175
0.726024 0.151614 0.801648
0.0184024 0.346975 0.721523
0.0199741 0.346578 0.724559
0.0229801 0.345388 0.730144
0.0283513 0.329229 0.742199
0.395148 0.246693 0.905882
0.685328 0.168124 0.838758
0.727443 0.151537 0.800168
0.726802 0.151812 0.801236
0.726864 0.152148 0.801892
0.0727855 0.555886 0.760266
0.0755016 0.55816 0.764538
0.0788434 0.558007 0.771206
0.0852369 0.548272 0.788159
0.317388 0.553399 0.981826
0.771008 0.397009 1
0.847211 0.259739 0.881514
0.832273 0.245228 0.870863
0.852293 0.270695 0.892363
0.210819 0.773007 0.841825
0.215702 0.778424 0.846769
0.218631 0.781674 0.850782
0.212818 0.775814 0.850248
0.263813 0.788907 0.899977
0.721782 0.791592 0.983581
0.973327 0.704036 0.956985
0.975296 0.689204 0.953552
0.975326 0.700832 0.959167
0.364996 0.929961 0.907851
0.368338 0.931624 0.910964
0.370611 0.932433 0.911528
0.369757 0.932174 0.907256
0.35552 0.918929 0.889174
0.67747 0.931945 0.913787
0.946624 0.950576 0.943557
0.990082 0.944778 0.94081
0.989197 0.944656 0.944015
0.377722 0.93846 0.927367
0.378042 0.939055 0.928634
0.378256 0.938842 0.927657
0.377737 0.93547 0.918776
0.380179 0.929885 0.890242
0.660609 0.943374 0.900496
0.915755 0.97731 0.937865
0.993561 0.984054 0.942611
0.993484 0.985382 0.950454
0.345418 0.931792 0.926513
0.3505 0.933455 0.928328
0.348623 0.93254 0.92668
0.378225 0.93843 0.927092
0.386755 0.931685 0.895628
0.685924 0.948852 0.912352
0.918441 0.978469 0.943481
0.993561 0.984741 0.944793
0.993378 0.985519 0.949126
0.0322728 0.337148 0.748791
0.0319066 0.330892 0.749218
0.0670939 0.320729 0.775509
0.246235 0.262043 0.858488
0.502052 0.241581 0.927001
0.707698 0.153216 0.811917
0.726024 0.151537 0.801495
0.72604 0.151492 0.801389
0.726024 0.151568 0.801541
0.0311131 0.341039 0.745907
0.0323186 0.338582 0.748699
0.0391089 0.327291 0.755062
0.220615 0.268025 0.849226
0.491295 0.244434 0.927504
0.709026 0.157794 0.817746
0.72604 0.151507 0.801419
0.726024 0.151537 0.80148
0.726024 0.151598 0.801617
0.0292058 0.344503 0.741665
0.030457 0.343877 0.744167
0.0320897 0.338491 0.748287
0.171939 0.285054 0.831006
0.471321 0.248249 0.926757
0.708598 0.162081 0.823926
0.726085 0.151461 0.801282
0.72604 0.151446 0.801282
0.726024 0.151583 0.801572
0.0340734 0.371099 0.747036
0.0321965 0.365164 0.744442
0.0278935 0.351751 0.738399
0.0322576 0.335012 0.749172
0.400259 0.256733 0.91519
0.688273 0.172335 0.844907
0.72694 0.151965 0.80145
0.726833 0.151873 0.801343
0.726894 0.152163 0.801907
0.108049 0.580346 0.815961
0.108919 0.581308 0.817212
0.107881 0.577585 0.817105
0.0981003 0.552697 0.810468
0.294484 0.539162 0.972076
0.751095 0.386191 1
0.835157 0.253788 0.881865
0.821408 0.241199 0.873503
0.841749 0.264271 0.891112
0.207874 0.774899 0.866941
0.211688 0.779934 0.870207
0.213947 0.78294 0.872648
0.208957 0.775692 0.871473
0.251743 0.781033 0.91191
0.699992 0.806928 1
0.962737 0.706874 0.988602
0.972793 0.691264 0.986481
0.972915 0.702632 0.987167
0.324086 0.919463 0.919158
0.322652 0.919524 0.918318
0.321431 0.91957 0.917403
0.322362 0.918547 0.918608
0.334539 0.917052 0.928847
0.570489 0.948989 0.975814
0.911345 0.939879 0.981689
0.98172 0.928389 0.981094
0.981414 0.929808 0.982452
0.320119 0.919783 0.915648
0.320607 0.92015 0.916472
0.320623 0.920165 0.916487
0.320623 0.920165 0.916487
0.333562 0.92755 0.922637
0.651102 0.965866 0.960235
0.922225 0.983536 0.982528
0.989883 0.989578 0.988769
0.99028 0.989944 0.989487
0.320012 0.919692 0.91548
0.320607 0.92015 0.916442
0.320623 0.920165 0.916487
0.320623 0.920165 0.916487
0.337423 0.929397 0.924483
0.667674 0.966644 0.960937
0.923888 0.983871 0.983124
0.989212 0.990005 0.989853
0.990814 0.989105 0.98819
0.0323339 0.336202 0.749081
0.0320134 0.329793 0.749493
0.0734722 0.319173 0.779873
0.252308 0.260807 0.860624
0.507149 0.24033 0.926726
0.708797 0.15111 0.808484
0.726024 0.151537 0.801495
0.726024 0.151522 0.80145
0.726024 0.151568 0.801556
0.0314031 0.34081 0.746502
0.0322423 0.337423 0.74876
0.0432136 0.326177 0.758175
0.226902 0.266102 0.851377
0.49659 0.243214 0.927428
0.710369 0.15581 0.81445
0.72604 0.151507 0.801434
0.726024 0.151537 0.80148
0.726024 0.151629 0.801694
0.0294957 0.344625 0.742168
0.0305486 0.343252 0.744427
0.0322728 0.337789 0.748745
0.178332 0.282536 0.833539
0.476783 0.247105 0.926986
0.71046 0.160525 0.821012
0.726146 0.151522 0.801297
0.72604 0.151446 0.801282
0.726024 0.151614 0.801648
0.0338598 0.37055 0.746746
0.0319677 0.364584 0.744137
0.0274968 0.350668 0.737789
0.0319677 0.333623 0.748959
0.405539 0.256199 0.916396
0.689845 0.169741 0.84097
0.726986 0.15201 0.801465
0.726879 0.151904 0.801358
0.726925 0.152193 0.801938
0.109239 0.581109 0.817914
0.10927 0.581125 0.81799
0.107515 0.576654 0.816861
0.0976883 0.551751 0.810132
0.298405 0.537774 0.974075
0.752987 0.383154 1
0.83386 0.253788 0.882536
0.821118 0.241993 0.874678
0.842359 0.265019 0.891676
0.209537 0.777737 0.871565
0.213474 0.782528 0.873823
0.215778 0.785153 0.875196
0.210727 0.776745 0.872953
0.253315 0.781415 0.912932
0.702449 0.80592 1
0.962936 0.706203 0.98851
0.972824 0.691188 0.986664
0.972839 0.702632 0.987152
0.322454 0.918837 0.918135
0.321523 0.91931 0.91751
0.319188 0.918624 0.915999
0.324514 0.91928 0.920012
0.329305 0.913802 0.926696
0.564477 0.947967 0.977203
0.904158 0.936538 0.981765
0.98117 0.927672 0.982391
0.981216 0.92871 0.982605
0.320165 0.919814 0.915724
0.320607 0.92015 0.916472
0.320623 0.920165 0.916487
0.320623 0.920165 0.916487
0.328222 0.924849 0.920455
0.578378 0.963577 0.957397
0.829755 0.976959 0.974701
0.985092 0.988418 0.988785
0.990234 0.990082 0.989593
0.320272 0.91989 0.915908
0.320607 0.92015 0.916442
0.320623 0.920165 0.916487
0.320623 0.920165 0.916487
0.329503 0.925643 0.921141
0.5944 0.964111 0.957549
0.879957 0.980514 0.979019
0.984802 0.989715 0.989456
0.990311 0.989899 0.989273
