bundles/resolve-cinematic-luts/Phantom Luts/Fx6 Phntm ARRI LUTs-G5/Tungsten Fx6.cube
TITLE "Generated by Resolve"
LUT_3D_SIZE 9
0.0128634 0.0133211 0.0197147
0.0339513 0.0173953 0.0234531
0.140002 0.0303502 0.0453346
0.336767 0.0448463 0.0924697
0.57319 0.0640726 0.175051
0.773342 0.110155 0.319951
0.777096 0.108003 0.352483
0.773281 0.104479 0.362203
0.773358 0.104311 0.368963
0.0258793 0.053727 0.0395972
0.0327916 0.0421607 0.030518
0.121889 0.0429999 0.0396582
0.329915 0.0394141 0.062623
0.570871 0.0752117 0.145998
0.773907 0.115343 0.292103
0.784512 0.115709 0.331762
0.78117 0.111818 0.343145
0.781369 0.111482 0.349935
0.0336614 0.162707 0.0674754
0.0333867 0.156451 0.0447242
0.138155 0.147936 0.0466926
0.350103 0.117037 0.0652628
0.582162 0.0770581 0.112947
0.752667 0.114244 0.232563
0.785855 0.124971 0.289219
0.788769 0.123629 0.305241
0.789776 0.123583 0.310323
0.00370794 0.327184 0.104433
0.000686656 0.324056 0.086244
0.0520333 0.313085 0.0183108
0.345983 0.32256 0.0289006
0.638651 0.308385 0.124025
0.845396 0.250446 0.222736
0.771756 0.128267 0.207462
0.754894 0.112383 0.205142
0.753384 0.111284 0.206134
0.00735485 0.526711 0.200198
0.00453193 0.525826 0.188235
0 0.521324 0.159091
0.175875 0.502434 0.0509194
0.601526 0.549828 0.0924392
0.898329 0.578973 0.240055
0.960693 0.569696 0.277272
0.961532 0.562829 0.277958
0.961364 0.576471 0.278813
0.120851 0.743069 0.36492
0.120989 0.744198 0.360998
0.118654 0.742779 0.348028
0.108553 0.728511 0.280446
0.453834 0.712932 0.197055
0.844663 0.792081 0.280247
0.986618 0.820005 0.380087
0.986236 0.817761 0.378759
0.986954 0.824567 0.383185
0.181201 0.795483 0.437537
0.179278 0.79472 0.431083
0.174533 0.792279 0.415396
0.157366 0.781384 0.36762
0.314961 0.762371 0.236408
0.769711 0.822019 0.336904
0.97528 0.889158 0.435798
0.981247 0.893629 0.460365
0.981308 0.893614 0.459007
0.186038 0.798901 0.458717
0.184024 0.797177 0.448966
0.179324 0.794354 0.430137
0.161257 0.783551 0.377584
0.290425 0.76199 0.23415
0.754238 0.817304 0.331685
0.96762 0.885298 0.425406
0.981384 0.893309 0.460136
0.981003 0.893996 0.462013
0.188434 0.800702 0.468849
0.185245 0.798489 0.455451
0.179522 0.794644 0.43122
0.159213 0.781567 0.368521
0.375463 0.762036 0.24065
0.791287 0.826505 0.342824
0.97293 0.887938 0.431815
0.981247 0.893568 0.46041
0.980957 0.894148 0.461906
0.0108949 0.0189822 0.0383612
0.0328069 0.0193179 0.0449683
0.128237 0.0311131 0.0772412
0.332311 0.0439002 0.133974
0.571771 0.0624094 0.209033
0.767163 0.103929 0.341405
0.771298 0.102708 0.370779
0.767056 0.099382 0.379263
0.76643 0.0988632 0.384039
0.0234836 0.0420386 0.0468757
0.0218051 0.0347448 0.0411078
0.121904 0.034226 0.0485237
0.324086 0.0449836 0.0904707
0.56875 0.0649271 0.174624
0.771359 0.109499 0.318547
0.778378 0.108934 0.353628
0.774594 0.10544 0.363485
0.774166 0.104952 0.368856
0.0368963 0.156909 0.105379
0.0346532 0.15108 0.0796063
0.123613 0.141329 0.0512398
0.361227 0.10341 0.0683299
0.570108 0.0634318 0.11397
0.76614 0.115312 0.267994
0.788067 0.120684 0.317693
0.786221 0.117281 0.330159
0.786389 0.116884 0.334966
0.00708019 0.330144 0.141802
0.00509651 0.324331 0.114427
0.00666819 0.30956 0.0402686
0.341054 0.318471 0.0306706
0.637522 0.298039 0.123369
0.832837 0.225956 0.219776
0.762432 0.118944 0.206775
0.752926 0.113497 0.210559
0.757595 0.11809 0.211658
0.0101472 0.529931 0.22562
0.00726329 0.527565 0.207889
0.00256352 0.521828 0.17673
0.145434 0.50016 0.0411231
0.599588 0.548272 0.0928054
0.90193 0.57673 0.24181
0.961028 0.565759 0.277485
0.961868 0.558709 0.278294
0.961547 0.572885 0.278828
0.122545 0.74406 0.37731
0.123171 0.745724 0.372259
0.121309 0.744762 0.358999
0.109071 0.731731 0.300053
0.446082 0.712428 0.195331
0.844434 0.792157 0.280766
0.986709 0.819455 0.37995
0.986007 0.81648 0.377935
0.986725 0.824094 0.382956
0.184192 0.797314 0.449928
0.182437 0.796536 0.443595
0.178088 0.794034 0.426627
0.16083 0.783642 0.37731
0.298344 0.762356 0.235523
0.766018 0.821057 0.336248
0.97464 0.889235 0.438087
0.98114 0.893736 0.461524
0.981186 0.893767 0.460365
0.189166 0.800977 0.471092
0.186908 0.79942 0.462242
0.182452 0.796155 0.442451
0.164675 0.786084 0.38822
0.277592 0.762661 0.235767
0.748638 0.815747 0.330129
0.96614 0.884916 0.426413
0.981277 0.8934 0.461418
0.98088 0.894087 0.463203
0.191867 0.802869 0.481376
0.188128 0.800259 0.46714
0.182666 0.79646 0.443976
0.162814 0.783734 0.377554
0.355962 0.762142 0.239338
0.785183 0.824918 0.341527
0.970565 0.887114 0.430732
0.981155 0.893675 0.461677
0.980819 0.894255 0.463157
0.00244144 0.0385901 0.107622
0.0403754 0.0301213 0.127596
0.127306 0.032578 0.140185
0.317754 0.0473793 0.180362
0.552972 0.0579385 0.257343
0.753887 0.0940261 0.367224
0.760723 0.0946059 0.390005
0.758236 0.0928359 0.394751
0.758129 0.0927901 0.39913
0.0090486 0.0461891 0.0866712
0.00296025 0.0392462 0.0952316
0.108217 0.0318761 0.127764
0.306569 0.0439918 0.155978
0.558755 0.0602884 0.230472
0.759014 0.098558 0.350301
0.767239 0.0995499 0.378424
0.763531 0.0966964 0.38558
0.762783 0.0961013 0.390463
0.0392157 0.146319 0.14342
0.0383764 0.140581 0.13904
0.113939 0.137438 0.143008
0.362249 0.114214 0.145388
0.56643 0.0704967 0.174731
0.767208 0.107668 0.313191
0.778775 0.109331 0.351644
0.774945 0.105745 0.361273
0.77435 0.105119 0.366201
0.0170748 0.330526 0.202304
0.01355 0.327779 0.184298
0.0103304 0.316335 0.125628
0.339635 0.320821 0.0710918
0.660838 0.277043 0.143877
0.800519 0.171572 0.215457
0.755978 0.114672 0.216098
0.765698 0.124727 0.230945
0.769253 0.125948 0.232746
0.0153658 0.532158 0.268879
0.0123598 0.531884 0.253864
0.00682078 0.524742 0.21207
0.0778515 0.496895 0.0424353
0.59617 0.545419 0.0939498
0.906554 0.570825 0.243824
0.961822 0.55642 0.278157
0.962631 0.547585 0.279149
0.96231 0.562737 0.279286
0.125048 0.744991 0.398566
0.12607 0.747021 0.393271
0.124804 0.746715 0.376287
0.110979 0.733898 0.320699
0.428367 0.710597 0.191272
0.842863 0.790784 0.2804
0.986068 0.81677 0.378119
0.985534 0.813565 0.37583
0.985901 0.820783 0.380331
0.188754 0.800381 0.468559
0.186954 0.799741 0.463127
0.183047 0.796963 0.446097
0.16669 0.787945 0.394812
0.268864 0.762798 0.23563
0.755199 0.818738 0.337072
0.972915 0.889082 0.441367
0.980957 0.893889 0.463447
0.980972 0.89395 0.46273
0.194461 0.804517 0.490333
0.192386 0.803128 0.482979
0.187488 0.799619 0.463905
0.171252 0.790112 0.405142
0.247364 0.764218 0.240436
0.736767 0.813611 0.330129
0.96199 0.883848 0.427451
0.981048 0.893599 0.463554
0.980697 0.894286 0.465217
0.198169 0.807279 0.503471
0.194812 0.804944 0.491798
0.188891 0.800595 0.469352
0.170214 0.7888 0.399588
0.309041 0.762509 0.237201
0.769848 0.821851 0.341588
0.965789 0.885771 0.432334
0.980911 0.893889 0.464073
0.980591 0.894499 0.465492
0 0.0708019 0.263401
0.0451209 0.0517433 0.283192
0.14316 0.0466316 0.310857
0.323751 0.0487373 0.320394
0.553292 0.0682383 0.352209
0.737362 0.083299 0.409766
0.752087 0.0887312 0.429541
0.751965 0.0886854 0.435157
0.752667 0.0893263 0.441276
0 0.0855421 0.231662
0 0.0710918 0.248722
0.102907 0.0478981 0.29955
0.311498 0.0479133 0.309407
0.543832 0.06598 0.335348
0.735637 0.0829633 0.399283
0.752468 0.0888838 0.420371
0.752361 0.0888991 0.426108
0.752911 0.0893873 0.43238
0.00141909 0.152071 0.227344
0 0.143328 0.233341
0.0377813 0.117082 0.280339
0.29781 0.0575113 0.295232
0.533516 0.065568 0.306188
0.735134 0.0835737 0.381994
0.754009 0.0898146 0.405219
0.753109 0.089189 0.41033
0.753429 0.0895247 0.41593
0.033814 0.329732 0.310094
0.0334173 0.328252 0.309255
0.0350958 0.321706 0.302571
0.329259 0.334844 0.33225
0.677409 0.284855 0.321752
0.783612 0.122698 0.312947
0.78233 0.112215 0.3458
0.778759 0.10869 0.355779
0.778912 0.108568 0.358785
0.0321508 0.544762 0.373617
0.0302129 0.545159 0.36733
0.0258183 0.539925 0.344259
0.017319 0.510719 0.203876
0.585885 0.550393 0.188952
0.935058 0.563287 0.304234
0.981292 0.52282 0.315969
0.977951 0.508354 0.312169
0.982284 0.525963 0.319631
0.131502 0.748821 0.454795
0.13312 0.751064 0.451591
0.132235 0.750637 0.438117
0.118105 0.738582 0.371344
0.325765 0.702724 0.175097
0.83476 0.783871 0.275959
0.98471 0.807645 0.378363
0.984009 0.803174 0.375418
0.985138 0.810147 0.380316
0.201694 0.809583 0.515511
0.200626 0.809232 0.512825
0.196887 0.806394 0.499352
0.182803 0.796826 0.445396
0.194263 0.77055 0.290044
0.720653 0.81297 0.341299
0.965789 0.887327 0.445808
0.980468 0.89424 0.468925
0.980392 0.894423 0.469139
0.208057 0.81503 0.538964
0.206439 0.813901 0.534035
0.202106 0.810437 0.518654
0.187045 0.799329 0.462257
0.182727 0.771939 0.305318
0.696193 0.807858 0.333669
0.949172 0.880385 0.429969
0.980514 0.894057 0.469078
0.980179 0.894728 0.470649
0.214481 0.820539 0.561227
0.211627 0.818189 0.551827
0.206195 0.813718 0.533227
0.18819 0.799985 0.466453
0.198199 0.770855 0.289586
0.722591 0.813718 0.344808
0.951736 0.881483 0.43534
0.980316 0.894408 0.470237
0.980087 0.894942 0.471351
0 0.144305 0.493095
0.053727 0.114397 0.505592
0.145586 0.0928511 0.531014
0.344472 0.0763409 0.559548
0.561761 0.0710155 0.549508
0.766857 0.100496 0.531106
0.777173 0.105241 0.543145
0.778454 0.106615 0.549767
0.780179 0.108675 0.55935
0 0.172198 0.470924
0 0.148394 0.485374
0.0981765 0.0979629 0.515236
0.325109 0.0773938 0.558785
0.556405 0.0709544 0.544961
0.763836 0.0987716 0.524804
0.775616 0.103853 0.535988
0.777081 0.105165 0.542443
0.779034 0.107347 0.552529
0 0.189609 0.445167
0 0.183566 0.454856
0 0.142947 0.478538
0.28249 0.0798962 0.551873
0.548165 0.0731212 0.537209
0.75906 0.096025 0.512123
0.772641 0.101244 0.522408
0.774411 0.102602 0.528969
0.776532 0.104616 0.538689
0 0.345022 0.456062
0 0.341695 0.461646
0 0.329747 0.468772
0.208728 0.284428 0.575051
0.576928 0.170336 0.55906
0.743114 0.0896315 0.475181
0.765911 0.0962844 0.484154
0.767666 0.0973373 0.490623
0.770321 0.0992447 0.49987
0.0668803 0.568383 0.536706
0.0672007 0.570748 0.539879
0.0668803 0.570123 0.53901
0.0669566 0.557763 0.524834
0.573556 0.577874 0.565499
0.985794 0.561379 0.587472
1 0.464103 0.563806
1 0.442679 0.561181
1 0.462562 0.576379
0.156039 0.771557 0.588296
0.15877 0.774807 0.590692
0.158862 0.775464 0.585519
0.14696 0.763256 0.549187
0.266636 0.728161 0.413886
0.810849 0.795163 0.475593
0.978302 0.820768 0.539788
0.978103 0.816037 0.535836
0.978241 0.823392 0.54757
0.239582 0.840513 0.633173
0.239612 0.841062 0.634668
0.236713 0.838651 0.626703
0.223651 0.828016 0.589181
0.211566 0.798505 0.445655
0.668299 0.830488 0.459205
0.951705 0.897932 0.548684
0.978531 0.907805 0.569451
0.978637 0.909056 0.577615
0.250584 0.849744 0.662776
0.249744 0.84918 0.660822
0.245792 0.846036 0.650797
0.230304 0.833371 0.608545
0.211826 0.80058 0.460929
0.626139 0.820859 0.442145
0.927977 0.889433 0.528908
0.978256 0.907362 0.563546
0.978058 0.909087 0.570535
0.266453 0.861692 0.699931
0.263859 0.860014 0.694514
0.257801 0.855512 0.68069
0.237827 0.839551 0.629847
0.225254 0.801877 0.469322
0.66186 0.833494 0.477363
0.930617 0.894865 0.547539
0.9785 0.910079 0.576913
0.978058 0.909911 0.574533
0.00672923 0.258427 0.686625
0.047425 0.23711 0.707713
0.134325 0.1935 0.734234
0.335515 0.169055 0.796094
0.562829 0.13637 0.789639
0.747585 0.132921 0.732097
0.761166 0.142214 0.74612
0.759091 0.143816 0.752834
0.757198 0.14612 0.760906
0 0.280369 0.681727
0 0.260594 0.6804
0.0835889 0.216922 0.719524
0.310292 0.170581 0.789197
0.55523 0.13724 0.791211
0.746303 0.131914 0.730205
0.762219 0.141253 0.742321
0.759915 0.143191 0.75024
0.758358 0.145525 0.758053
0 0.295521 0.677745
0 0.291707 0.681804
0 0.257649 0.678553
0.260288 0.171496 0.772091
0.541955 0.138689 0.79263
0.744167 0.129717 0.725597
0.764599 0.139193 0.733532
0.762051 0.141024 0.741924
0.760128 0.143633 0.751141
0 0.349966 0.659663
0 0.344594 0.664363
0 0.329213 0.669856
0.0524605 0.249805 0.711925
0.493828 0.14583 0.795956
0.732403 0.122408 0.713375
0.774914 0.135241 0.705531
0.772686 0.136797 0.714107
0.769924 0.139162 0.725292
0.0516365 0.587366 0.685298
0.0537881 0.58996 0.690059
0.0551766 0.589395 0.694575
0.0558633 0.577798 0.705974
0.494774 0.580331 0.880308
0.874266 0.444816 0.838468
0.927352 0.320653 0.774578
0.918898 0.300343 0.767208
0.928328 0.326787 0.787472
0.208713 0.799603 0.764553
0.213474 0.804501 0.770703
0.216037 0.807019 0.773388
0.213046 0.803693 0.769238
0.350179 0.801373 0.766827
0.814008 0.819348 0.807538
1 0.80824 0.813718
1 0.794751 0.810971
1 0.802762 0.819989
0.346029 0.903593 0.8206
0.347692 0.904524 0.823865
0.346151 0.903746 0.822003
0.334066 0.898085 0.805661
0.325063 0.870588 0.733852
0.688121 0.901823 0.751934
0.960296 0.945769 0.799954
0.993545 0.951247 0.829908
0.993606 0.952682 0.837446
0.363714 0.910964 0.843961
0.36408 0.91162 0.845579
0.361486 0.910567 0.842023
0.346761 0.903883 0.82266
0.325246 0.874205 0.743236
0.653178 0.895766 0.737072
0.93106 0.947204 0.791211
0.99527 0.967117 0.833936
0.995651 0.968521 0.839612
0.382864 0.918547 0.869734
0.381338 0.918105 0.867979
0.377386 0.916487 0.862684
0.36141 0.910719 0.84213
0.34313 0.879698 0.760067
0.688106 0.908507 0.769467
0.933379 0.951415 0.808454
0.994415 0.968322 0.840146
0.995468 0.96878 0.840024
0.0519265 0.385 0.77847
0.0515297 0.380468 0.779034
0.0932326 0.366476 0.807904
0.311925 0.295613 0.903166
0.576379 0.2701 0.952773
0.739834 0.171267 0.82237
0.745861 0.159121 0.802838
0.745815 0.158953 0.802548
0.745876 0.159213 0.803037
0.051194 0.389105 0.776165
0.0513008 0.384527 0.777417
0.0549325 0.373678 0.780743
0.283207 0.298589 0.892775
0.565667 0.27129 0.952865
0.740078 0.172976 0.824445
0.745846 0.159091 0.802792
0.745861 0.159121 0.802853
0.745876 0.15935 0.803342
0.0509041 0.394919 0.77409
0.0510262 0.392996 0.774823
0.050309 0.382498 0.776013
0.229084 0.313451 0.874235
0.546075 0.273899 0.952728
0.736675 0.172854 0.825498
0.745815 0.158892 0.802411
0.745815 0.158923 0.802487
0.745876 0.159228 0.803082
0.0478523 0.407462 0.765423
0.0484016 0.405676 0.76701
0.0493782 0.401343 0.769757
0.0485237 0.375402 0.774182
0.476982 0.282475 0.947524
0.730159 0.185031 0.84358
0.746914 0.159243 0.801953
0.746593 0.159487 0.802701
0.7467 0.15993 0.80351
0.105852 0.611795 0.794324
0.108019 0.613596 0.797559
0.110628 0.613214 0.802915
0.114885 0.605173 0.815915
0.391852 0.604013 1
0.820447 0.447913 0.99762
0.868772 0.289448 0.902953
0.854414 0.271901 0.890105
0.875181 0.30219 0.913329
0.241566 0.807691 0.862684
0.245716 0.812161 0.866499
0.24802 0.814603 0.869444
0.242817 0.809506 0.869383
0.301366 0.82414 0.913725
0.765805 0.821286 0.965606
0.963531 0.753994 0.95079
0.966506 0.73962 0.947982
0.966613 0.750835 0.952224
0.406561 0.929702 0.912978
0.410361 0.931319 0.915785
0.413428 0.931548 0.915877
0.413443 0.931014 0.912306
0.400214 0.920546 0.898268
0.741222 0.938354 0.925673
0.952941 0.955474 0.950637
0.989334 0.952483 0.949508
0.988739 0.952575 0.952041
0.419913 0.936507 0.927871
0.42005 0.937011 0.928923
0.420386 0.936675 0.927749
0.420447 0.934508 0.921675
0.431495 0.928206 0.89926
0.73341 0.950851 0.920653
0.939086 0.984283 0.95346
0.994537 0.989853 0.958892
0.997147 0.990555 0.964538
0.371283 0.93312 0.928679
0.378683 0.934569 0.930419
0.37612 0.933776 0.928817
0.420401 0.936614 0.927764
0.438834 0.929747 0.903593
0.755688 0.955215 0.929091
0.940841 0.985016 0.957092
0.991608 0.990524 0.959396
0.997086 0.991211 0.964446
0.0520485 0.383261 0.779324
0.0513466 0.378088 0.779293
0.114702 0.366293 0.823758
0.32105 0.301213 0.910201
0.584085 0.272404 0.954681
0.737377 0.163973 0.813519
0.745861 0.159121 0.802838
0.745846 0.15906 0.802747
0.745876 0.159213 0.803037
0.0514382 0.386542 0.777081
0.0520638 0.384085 0.779187
0.0684977 0.374945 0.791928
0.292775 0.304768 0.900328
0.573236 0.275608 0.956436
0.739834 0.169299 0.819638
0.745861 0.159106 0.802823
0.745861 0.159121 0.802869
0.745876 0.159258 0.803159
0.0513008 0.394614 0.774868
0.051606 0.392096 0.776181
0.0519722 0.384237 0.778943
0.239033 0.31931 0.882445
0.553429 0.280537 0.958358
0.741436 0.17496 0.826642
0.745876 0.158999 0.802579
0.74583 0.158968 0.802579
0.745876 0.159243 0.803082
0.0606851 0.430411 0.783764
0.0581369 0.422827 0.781125
0.0530251 0.406867 0.775418
0.0520485 0.38201 0.77969
0.482292 0.293233 0.956237
0.733684 0.189578 0.849088
0.746746 0.159716 0.802991
0.746624 0.159579 0.802853
0.746746 0.15996 0.80354
0.131456 0.630213 0.833829
0.132219 0.631037 0.834867
0.131487 0.628305 0.83505
0.123598 0.608454 0.831128
0.367407 0.588952 1
0.804486 0.436118 1
0.859007 0.282887 0.902235
0.84538 0.267079 0.891295
0.866102 0.294255 0.910643
0.23534 0.80734 0.880125
0.238743 0.811673 0.882719
0.240009 0.81384 0.883986
0.232914 0.806745 0.881224
0.285405 0.817838 0.923827
0.745342 0.833707 1
0.954864 0.756817 0.977203
0.963088 0.741726 0.975006
0.963149 0.752605 0.976272
0.344106 0.923613 0.923293
0.341939 0.923522 0.922423
0.339986 0.923323 0.921309
0.342138 0.922911 0.922774
0.361242 0.922728 0.932433
0.631312 0.946731 0.968063
0.926238 0.94609 0.978561
0.981445 0.941497 0.981155
0.981552 0.942184 0.981674
0.338155 0.923186 0.919524
0.338643 0.923613 0.920409
0.338643 0.923629 0.920424
0.338643 0.923629 0.920424
0.354604 0.93019 0.926467
0.716487 0.962875 0.958923
0.942611 0.98555 0.983322
0.989654 0.989792 0.988464
0.994751 0.98909 0.987854
0.338277 0.923293 0.919738
0.338628 0.923613 0.920394
0.338643 0.923629 0.920424
0.338643 0.923629 0.920424
0.359411 0.931716 0.928008
0.732692 0.964263 0.960403
0.944976 0.987518 0.984421
0.988846 0.994125 0.990234
0.995453 0.99379 0.990158
0.0520943 0.382666 0.779583
0.0538643 0.377066 0.78117
0.123919 0.363958 0.829572
0.327489 0.300572 0.912367
0.589349 0.271153 0.953979
0.736721 0.161151 0.809979
0.745861 0.159121 0.802838
0.745861 0.159106 0.802838
0.745876 0.159243 0.803113
0.0516365 0.386297 0.777554
0.0520638 0.383459 0.779339
0.0758984 0.373907 0.797269
0.29984 0.303304 0.902556
0.5785 0.274159 0.955627
0.739757 0.166796 0.816251
0.745861 0.159106 0.802823
0.745861 0.159121 0.802869
0.745876 0.159319 0.803281
0.0514076 0.394491 0.775128
0.0514229 0.391028 0.776211
0.0520485 0.383673 0.779263
0.246418 0.316442 0.88481
0.558831 0.279103 0.957855
0.741878 0.172808 0.823575
0.745937 0.159075 0.802625
0.74583 0.158968 0.802579
0.745876 0.159243 0.803082
0.0604562 0.429755 0.783505
0.0579385 0.422202 0.780911
0.0525978 0.405676 0.774899
0.0518196 0.380896 0.779538
0.4878 0.292424 0.956863
0.733623 0.186236 0.8448
0.746777 0.159762 0.803037
0.746685 0.15964 0.802899
0.746777 0.160006 0.803586
0.132311 0.630701 0.835233
0.132494 0.630961 0.835462
0.131258 0.627726 0.834943
0.123293 0.607721 0.830945
0.371496 0.587808 1
0.806455 0.433112 1
0.857816 0.28217 0.901946
0.845136 0.267292 0.891615
0.867201 0.295796 0.911696
0.236011 0.80911 0.883024
0.239643 0.813382 0.884962
0.241062 0.815351 0.885542
0.233051 0.807202 0.881315
0.287816 0.818433 0.925338
0.747585 0.833036 1
0.954849 0.756176 0.977218
0.962905 0.741985 0.975982
0.963043 0.752712 0.976242
0.342077 0.923003 0.922347
0.340276 0.923217 0.921553
0.337377 0.922545 0.920073
0.345068 0.923644 0.924208
0.354604 0.92015 0.930968
0.625147 0.946181 0.969284
0.920867 0.943679 0.979492
0.980652 0.940688 0.982635
0.980865 0.941451 0.982818
0.338323 0.923339 0.919844
0.338643 0.923613 0.920409
0.338643 0.923629 0.920424
0.338643 0.923629 0.920424
0.348043 0.928115 0.924758
0.646876 0.960937 0.958801
0.874739 0.978592 0.979629
0.982177 0.986175 0.990921
0.993576 0.988281 0.992508
0.338399 0.9234 0.919982
0.338628 0.923613 0.920394
0.338643 0.923629 0.920424
0.338643 0.923629 0.920424
0.349523 0.928801 0.925429
0.663127 0.962005 0.959945
0.913771 0.984802 0.984192
0.986221 0.993835 0.993667
0.994797 0.994553 0.994156
