bundles/resolve-cinematic-luts/Phantom Luts/Fx6 Phntm ARRI LUTs-G5/Tungsten Fx6.cube
TITLE "Generated by Resolve"
LUT_3D_SIZE 33
0.0128634 0.0133211 0.0197147
0.0128786 0.0132448 0.0195163
0.0128939 0.0130312 0.0191196
0.0174868 0.0136873 0.0191501
0.0339513 0.0173953 0.0234531
0.0553445 0.020325 0.0275731
0.0806134 0.023682 0.0326085
0.107546 0.0270542 0.0381476
0.140002 0.0303502 0.0453346
0.179294 0.0339055 0.0536049
0.224125 0.0375982 0.0630655
0.277394 0.0410925 0.0753643
0.336767 0.0448463 0.0924697
0.395239 0.0502937 0.111849
0.45536 0.0559548 0.132113
0.515358 0.0607309 0.152987
0.57319 0.0640726 0.175051
0.627771 0.0694438 0.202869
0.678172 0.0785229 0.238392
0.729702 0.0924697 0.280247
0.773342 0.110155 0.319951
0.782727 0.11371 0.336828
0.78056 0.111391 0.343313
0.778698 0.109468 0.348531
0.777096 0.108003 0.352483
0.775799 0.106706 0.355932
0.774701 0.105745 0.358434
0.773831 0.104982 0.360662
0.773281 0.104479 0.362203
0.773022 0.104219 0.363958
0.772931 0.104097 0.365362
0.773098 0.104158 0.367224
0.773358 0.104311 0.368963
0.0128939 0.013077 0.0191958
0.0128786 0.0131533 0.0193332
0.0128939 0.0130312 0.0191196
0.0146944 0.0133059 0.0187076
0.0281224 0.0178073 0.0205844
0.0463722 0.0213169 0.0246281
0.071931 0.0240177 0.0290379
0.100679 0.0264744 0.0341955
0.134081 0.0283818 0.0394903
0.17409 0.0313115 0.0467384
0.220829 0.0348974 0.0559854
0.274739 0.0387884 0.0672618
0.333242 0.0435798 0.0816205
0.391226 0.0512245 0.101091
0.451728 0.0564736 0.12256
0.513252 0.0617227 0.144686
0.571618 0.0649577 0.166995
0.626719 0.0698863 0.194354
0.678035 0.0792248 0.230564
0.730663 0.0936446 0.273503
0.773922 0.111498 0.313909
0.784207 0.115526 0.331685
0.7823 0.113237 0.338109
0.780453 0.111269 0.343664
0.778897 0.109636 0.348119
0.777569 0.108431 0.35137
0.776623 0.107469 0.354055
0.775784 0.106661 0.356252
0.775174 0.106111 0.357977
0.774868 0.105806 0.359548
0.774762 0.105653 0.361074
0.774899 0.105684 0.362936
0.775128 0.105806 0.364645
0.0150759 0.0188296 0.0234684
0.0150149 0.0190127 0.023743
0.0146792 0.0180972 0.0216983
0.016083 0.0170138 0.0202487
0.0240787 0.0191653 0.0208896
0.0364996 0.0236057 0.0236973
0.0596933 0.0252995 0.0280613
0.0909743 0.027924 0.0327764
0.126421 0.0293278 0.0376898
0.168719 0.0305791 0.0435798
0.21738 0.033051 0.0514687
0.271305 0.035874 0.060502
0.331807 0.0399023 0.0720226
0.39115 0.0480812 0.0901503
0.450645 0.0573129 0.113008
0.510033 0.0645914 0.136004
0.570031 0.0669108 0.159152
0.624964 0.0702068 0.185428
0.677607 0.0800641 0.221836
0.730571 0.0946822 0.265599
0.77438 0.112932 0.306981
0.785672 0.117464 0.325856
0.784009 0.115221 0.332647
0.782361 0.113237 0.338231
0.780774 0.111559 0.343099
0.779629 0.110323 0.346365
0.778531 0.109255 0.349477
0.777707 0.108507 0.351461
0.777157 0.107988 0.353262
0.776944 0.107683 0.354925
0.776837 0.107469 0.356512
0.777005 0.107515 0.35819
0.777279 0.107652 0.359716
0.0205844 0.0348363 0.0325322
0.0205081 0.0350042 0.0328527
0.0191348 0.0325475 0.0286107
0.0220035 0.0294652 0.0254978
0.0283665 0.0280613 0.0250401
0.0363165 0.0298466 0.0273899
0.0529641 0.0309911 0.0293126
0.0831617 0.0319524 0.0334325
0.120836 0.0334325 0.0378729
0.163195 0.0330205 0.0431373
0.213184 0.0339055 0.0492714
0.268971 0.0353399 0.0564126
0.330999 0.0380255 0.0656291
0.391882 0.0428626 0.0789502
0.452522 0.0530556 0.101106
0.511009 0.0662242 0.128176
0.569299 0.0714427 0.152056
0.623819 0.0717479 0.176944
0.676463 0.0807965 0.212604
0.729976 0.0957504 0.257145
0.774502 0.114229 0.300114
0.786679 0.119188 0.319783
0.785565 0.11722 0.326757
0.7841 0.115282 0.332692
0.782773 0.113649 0.337362
0.781506 0.112261 0.341238
0.780484 0.111238 0.343999
0.779797 0.11043 0.34638
0.779248 0.10985 0.348348
0.778943 0.109499 0.350179
0.778805 0.109346 0.351537
0.778988 0.109392 0.353292
0.779309 0.109545 0.354955
0.0258793 0.053727 0.0395972
0.0258183 0.0539406 0.0399634
0.0244144 0.0508125 0.0370489
0.0260319 0.0463417 0.0326848
0.0327916 0.0421607 0.030518
0.0448005 0.0432441 0.032166
0.0585794 0.0444343 0.034699
0.0843366 0.0433967 0.0363317
0.121889 0.0429999 0.0396582
0.162921 0.0417487 0.0438087
0.214176 0.039353 0.0496071
0.267521 0.037705 0.0556802
0.329915 0.0394141 0.062623
0.390845 0.0416571 0.0713207
0.452857 0.0478676 0.0881361
0.514458 0.061265 0.11725
0.570871 0.0752117 0.145998
0.622766 0.0758373 0.169467
0.674693 0.0814984 0.203082
0.727916 0.0962997 0.247883
0.773907 0.115343 0.292103
0.787472 0.120958 0.313252
0.786664 0.119036 0.320623
0.785733 0.117357 0.326696
0.784512 0.115709 0.331762
0.783459 0.114336 0.335714
0.782498 0.113283 0.338506
0.781704 0.112413 0.341131
0.78117 0.111818 0.343145
0.780926 0.111513 0.344625
0.780835 0.111315 0.346258
0.781064 0.111345 0.348165
0.781369 0.111482 0.349935
0.0306096 0.0765698 0.0462654
0.0305333 0.0768749 0.0467079
0.0290227 0.0734264 0.0423133
0.0294957 0.0696574 0.0392767
0.0371557 0.0627451 0.0369726
0.047715 0.0614939 0.0379644
0.0683909 0.0631723 0.03888
0.0903792 0.0632792 0.0397955
0.124926 0.0587015 0.0423743
0.165438 0.0564889 0.0449836
0.221271 0.0543221 0.0506447
0.271351 0.047837 0.0554055
0.332265 0.0451057 0.0627756
0.391775 0.045594 0.0705577
0.453101 0.0484321 0.0816052
0.514794 0.0550546 0.102495
0.573556 0.0708782 0.136034
0.623209 0.0800793 0.163195
0.671824 0.0820783 0.193164
0.724453 0.0962539 0.237491
0.77229 0.116045 0.283406
0.787381 0.122332 0.305852
0.787533 0.120821 0.314183
0.786816 0.119158 0.320577
0.786084 0.117754 0.325933
0.785199 0.116457 0.330022
0.784375 0.115404 0.333043
0.783719 0.114534 0.335637
0.783215 0.113954 0.337438
0.782971 0.113588 0.339101
0.782879 0.113375 0.340749
0.783078 0.113375 0.342702
0.783383 0.113512 0.344259
0.033341 0.101381 0.0524758
0.0332341 0.101839 0.0529488
0.0320134 0.0987106 0.0478218
0.0315862 0.0956283 0.0428779
0.0390784 0.0901808 0.0404364
0.0505379 0.0856336 0.0418097
0.0714275 0.0865644 0.0422217
0.102068 0.0881514 0.0426795
0.129763 0.0851453 0.0433356
0.168811 0.0775158 0.0461738
0.220432 0.0727245 0.0503548
0.280201 0.0689097 0.0562142
0.345037 0.0629282 0.0632029
0.396414 0.0551461 0.0719158
0.455604 0.0548867 0.0820325
0.515633 0.0562448 0.0948348
0.573373 0.062562 0.118395
0.62562 0.0773938 0.153262
0.671046 0.0861982 0.184329
0.721447 0.0969863 0.225788
0.769162 0.116411 0.272267
0.786755 0.123934 0.29659
0.787762 0.122728 0.305623
0.788022 0.121462 0.312917
0.78735 0.119951 0.318364
0.786892 0.118868 0.322881
0.786404 0.117968 0.326314
0.785931 0.11722 0.32871
0.785489 0.116609 0.330602
0.785168 0.116136 0.332387
0.785046 0.115892 0.3337
0.785153 0.115816 0.335149
0.785351 0.115877 0.336324
0.0347295 0.129839 0.0590677
0.0345006 0.130434 0.0599222
0.0334173 0.127352 0.0535592
0.0319677 0.124666 0.0476539
0.038407 0.121904 0.0426642
0.051133 0.116625 0.0426032
0.0707103 0.114504 0.0475319
0.102647 0.115389 0.0457313
0.140261 0.116014 0.046128
0.175158 0.111543 0.0464027
0.220859 0.100526 0.0503548
0.284108 0.0917067 0.0573739
0.34963 0.0890211 0.0647746
0.417105 0.0844282 0.0741894
0.464912 0.0709392 0.0823072
0.519448 0.0653849 0.0961776
0.576226 0.0652628 0.11133
0.626612 0.0713512 0.135607
0.670604 0.0836805 0.170214
0.715282 0.0972305 0.208545
0.76321 0.11603 0.255634
0.783459 0.124849 0.282032
0.78613 0.124514 0.292119
0.787961 0.123995 0.300755
0.788449 0.122957 0.307195
0.788403 0.121965 0.311925
0.788022 0.120989 0.315496
0.787655 0.120211 0.318227
0.787396 0.119661 0.320378
0.78735 0.119387 0.321874
0.78735 0.119173 0.323384
0.787564 0.119219 0.324559
0.787854 0.119356 0.325612
0.0336614 0.162707 0.0674754
0.0334783 0.163394 0.0685588
0.0325017 0.160357 0.0605631
0.0305486 0.157977 0.0525978
0.0333867 0.156451 0.0447242
0.0479286 0.152712 0.0421759
0.0671092 0.148745 0.0475013
0.0976883 0.147738 0.0526131
0.138155 0.147936 0.0466926
0.185733 0.147143 0.0475929
0.228061 0.141588 0.0475929
0.2878 0.1243 0.0569009
0.350103 0.117037 0.0652628
0.422034 0.115343 0.0766461
0.485695 0.111803 0.0862898
0.547402 0.0986801 0.100542
0.582162 0.0770581 0.112947
0.631235 0.0755474 0.129732
0.671183 0.0810712 0.154803
0.707774 0.092958 0.188327
0.752667 0.114244 0.232563
0.777325 0.125185 0.26183
0.781048 0.125414 0.272496
0.783856 0.125231 0.281651
0.785855 0.124971 0.289219
0.787442 0.124804 0.295369
0.788342 0.124468 0.299947
0.788617 0.12398 0.30312
0.788769 0.123629 0.305241
0.788907 0.123369 0.307103
0.78909 0.123247 0.308598
0.78941 0.123339 0.309758
0.789776 0.123583 0.310323
0.0305791 0.200076 0.0784772
0.0302586 0.20087 0.0793927
0.0286717 0.197864 0.0704662
0.026627 0.195178 0.0605478
0.0265354 0.193088 0.0485237
0.0369573 0.191424 0.0401465
0.0577249 0.188113 0.0419471
0.088426 0.186038 0.0505837
0.128084 0.184894 0.0538643
0.179721 0.185245 0.0446021
0.239628 0.183505 0.0478218
0.287831 0.178241 0.0488289
0.36199 0.155489 0.0660716
0.415564 0.149279 0.0748302
0.495995 0.149371 0.0906844
0.560708 0.146944 0.102846
0.62826 0.136248 0.122683
0.6551 0.104173 0.136828
0.677501 0.0865492 0.149569
0.704067 0.0901808 0.173037
0.739269 0.107668 0.208087
0.766766 0.123888 0.236011
0.771542 0.124834 0.246189
0.775402 0.125383 0.255421
0.778485 0.125765 0.263218
0.780789 0.125917 0.269657
0.782406 0.125963 0.274434
0.78349 0.125795 0.278202
0.784253 0.125704 0.28098
0.784924 0.125734 0.283024
0.785367 0.125811 0.284337
0.785718 0.125994 0.28513
0.785992 0.126223 0.285512
0.0237736 0.240177 0.0876631
0.0235294 0.241337 0.089189
0.0224308 0.23888 0.0809949
0.0210727 0.236149 0.0714427
0.0189212 0.233371 0.057908
0.0206455 0.230945 0.0411231
0.0381628 0.229129 0.0337072
0.0717632 0.227314 0.0401007
0.112444 0.22678 0.052018
0.162707 0.225177 0.0542763
0.228305 0.225849 0.0404212
0.30074 0.224582 0.0473793
0.353811 0.220874 0.0507973
0.431189 0.198291 0.0749981
0.484749 0.191379 0.0861677
0.568872 0.191104 0.108446
0.641032 0.189822 0.126757
0.699901 0.177249 0.145327
0.723903 0.140734 0.16289
0.721584 0.106722 0.172717
0.737011 0.10663 0.19704
0.758434 0.121431 0.219104
0.761929 0.123751 0.22327
0.762982 0.123919 0.22594
0.764996 0.123995 0.230823
0.767315 0.124468 0.235431
0.769635 0.124895 0.240452
0.771328 0.125261 0.244083
0.772625 0.125521 0.24683
0.77351 0.125719 0.248783
0.773953 0.125933 0.249546
0.774319 0.126207 0.249973
0.774395 0.126452 0.249638
0.0142061 0.283574 0.0959793
0.0138247 0.284581 0.0973526
0.0130159 0.282704 0.0901045
0.0119783 0.280644 0.0824445
0.0110475 0.278355 0.0727245
0.0102235 0.275395 0.0556039
0.0135653 0.272877 0.0339361
0.0427253 0.270985 0.0264897
0.0884565 0.27039 0.0367132
0.138689 0.271427 0.0528573
0.204517 0.269581 0.053666
0.283162 0.271901 0.0347753
0.369238 0.27274 0.0488441
0.420462 0.272389 0.0537423
0.498131 0.249531 0.0855421
0.559396 0.246952 0.103243
0.641337 0.239704 0.127779
0.720348 0.240467 0.151843
0.772061 0.228336 0.17258
0.78851 0.191623 0.191409
0.768154 0.138094 0.198489
0.754223 0.114275 0.204547
0.754162 0.114733 0.211078
0.755428 0.116823 0.213474
0.756207 0.117815 0.214542
0.756802 0.118578 0.21529
0.757458 0.119219 0.216358
0.758511 0.119829 0.218097
0.75906 0.120195 0.218967
0.759441 0.1205 0.219562
0.759564 0.120653 0.219638
0.759503 0.12076 0.219303
0.759106 0.120745 0.218372
0.00370794 0.327184 0.104433
0.00335698 0.328191 0.105867
0.00247196 0.326772 0.0997177
0.00164797 0.32517 0.0929885
0.000686656 0.324056 0.086244
0 0.321675 0.0752728
0 0.318425 0.0552834
0.00863661 0.314839 0.0259098
0.0520333 0.313085 0.0183108
0.107744 0.314321 0.0334325
0.172351 0.317708 0.056733
0.253849 0.316686 0.0538643
0.345983 0.32256 0.0289006
0.436927 0.325399 0.0536812
0.489113 0.329335 0.0620584
0.566476 0.312535 0.0975662
0.638651 0.308385 0.124025
0.715969 0.30193 0.150027
0.793362 0.297047 0.180438
0.83856 0.289067 0.205997
0.845396 0.250446 0.222736
0.822187 0.193194 0.22443
0.797635 0.158465 0.2159
0.781003 0.138643 0.209415
0.771756 0.128267 0.207462
0.765652 0.121935 0.2065
0.760922 0.117449 0.205798
0.757733 0.114733 0.205615
0.754894 0.112383 0.205142
0.753887 0.111589 0.206134
0.752163 0.110094 0.205493
0.750896 0.108873 0.204715
0.753384 0.111284 0.206134
0 0.371908 0.116335
0 0.372976 0.117968
0 0.371893 0.112444
0 0.370733 0.105959
0 0.369512 0.0993668
0 0.368063 0.0927138
0 0.365545 0.0807355
0 0.361929 0.0548257
0.0100099 0.357687 0.0173342
0.0655222 0.356054 0.0122988
0.133837 0.359701 0.0354467
0.214191 0.365545 0.0667735
0.310582 0.364981 0.0556039
0.407904 0.374777 0.0281987
0.504265 0.381048 0.0658579
0.559319 0.388464 0.0799725
0.635691 0.379171 0.11194
0.717922 0.372839 0.14902
0.787289 0.366934 0.175738
0.857786 0.356268 0.213626
0.89131 0.351064 0.237537
0.899107 0.327031 0.250278
0.890364 0.298726 0.250538
0.877806 0.276295 0.245594
0.86566 0.256123 0.240665
0.856794 0.241825 0.237491
0.850187 0.231678 0.23508
0.845273 0.22417 0.23328
0.842237 0.21976 0.232212
0.840955 0.217807 0.231601
0.842222 0.218982 0.232105
0.846036 0.223926 0.233509
0.851957 0.233371 0.236072
0 0.41944 0.135668
0 0.42063 0.137804
0 0.419821 0.13193
0 0.41854 0.125536
0 0.417563 0.119173
0 0.416541 0.113893
0 0.415076 0.10663
0 0.411948 0.0897536
0 0.407584 0.054902
0.0186313 0.402869 0.0123598
0.0872358 0.40148 0.0139315
0.171984 0.407706 0.047364
0.268025 0.415625 0.0810407
0.371771 0.417166 0.062562
0.470878 0.430259 0.0400549
0.572656 0.440467 0.0854963
0.631281 0.450111 0.104433
0.705608 0.447379 0.134005
0.790112 0.44004 0.176242
0.850217 0.43711 0.203571
0.907774 0.425452 0.242832
0.93225 0.411093 0.26453
0.934707 0.399084 0.268177
0.93051 0.388708 0.265782
0.926207 0.379492 0.263203
0.923018 0.372412 0.261585
0.920851 0.367178 0.26067
0.91928 0.363897 0.259815
0.91899 0.363027 0.259724
0.919661 0.364523 0.259892
0.921523 0.36849 0.260731
0.923354 0.372442 0.261936
0.926284 0.378531 0.263935
0 0.470756 0.163058
0 0.472404 0.165576
0 0.471412 0.160555
0 0.470481 0.15491
0 0.469383 0.148775
0 0.468467 0.143389
0 0.467918 0.138689
0 0.466178 0.129061
0 0.461982 0.105135
0 0.456428 0.0600595
0.0367742 0.45037 0.0130312
0.123354 0.450355 0.0280308
0.223911 0.459022 0.0676127
0.327001 0.467597 0.0897383
0.432547 0.471275 0.0746166
0.534936 0.488502 0.0618906
0.641123 0.501976 0.112749
0.703197 0.513817 0.136217
0.773938 0.517006 0.164096
0.852445 0.508965 0.208042
0.899641 0.509163 0.23241
0.941756 0.501808 0.263233
0.95877 0.489342 0.279423
0.958556 0.478798 0.280461
0.957061 0.469978 0.280171
0.955596 0.463035 0.279744
0.954543 0.457877 0.279576
0.953796 0.454276 0.279484
0.953521 0.45304 0.2795
0.95378 0.455009 0.279408
0.95433 0.458824 0.27924
0.955413 0.464912 0.279438
0.956847 0.473472 0.279896
0.00735485 0.526711 0.200198
0.00764477 0.528283 0.203037
0.00657664 0.52752 0.19852
0.00552377 0.526726 0.193561
0.00453193 0.525826 0.188235
0.00384527 0.525292 0.182864
0.00288396 0.524636 0.177569
0.00157168 0.523751 0.172061
0 0.521324 0.159091
0 0.516228 0.127504
0.00515755 0.51014 0.0703593
0.072343 0.502312 0.0275273
0.175875 0.502434 0.0509194
0.284596 0.512352 0.0912337
0.388327 0.520562 0.102312
0.497124 0.528679 0.0921492
0.601526 0.549828 0.0924392
0.709743 0.565805 0.149233
0.772717 0.579187 0.177264
0.833295 0.58471 0.202716
0.898329 0.578973 0.240055
0.936446 0.58146 0.262211
0.954421 0.580346 0.272953
0.960189 0.574777 0.277058
0.960693 0.569696 0.277272
0.96083 0.565957 0.277256
0.961273 0.563561 0.277653
0.961517 0.562432 0.277913
0.961532 0.562829 0.277958
0.961486 0.563882 0.277989
0.961379 0.566323 0.278004
0.961547 0.570596 0.278477
0.961364 0.576471 0.278813
0.0281376 0.585794 0.244297
0.0285801 0.58735 0.24683
0.0277714 0.587045 0.243717
0.0270085 0.586709 0.239582
0.0263828 0.586526 0.235676
0.0256962 0.58587 0.230808
0.0248417 0.585046 0.225437
0.023743 0.584009 0.219486
0.0217899 0.582635 0.212055
0.019501 0.579477 0.195026
0.0192111 0.573373 0.154726
0.031693 0.564721 0.0838178
0.121065 0.55555 0.0518654
0.238987 0.556573 0.0804761
0.347265 0.566995 0.117296
0.453498 0.576394 0.12224
0.563806 0.589029 0.119448
0.666835 0.61326 0.130999
0.773816 0.629313 0.192462
0.83537 0.644083 0.225269
0.882002 0.652384 0.246006
0.927932 0.652461 0.270344
0.955108 0.653956 0.286519
0.958328 0.652476 0.286397
0.957916 0.648707 0.285206
0.957794 0.646265 0.284566
0.957687 0.645136 0.284352
0.957671 0.644312 0.284291
0.957595 0.644465 0.284321
0.957595 0.64567 0.284642
0.95758 0.647807 0.285191
0.957748 0.651804 0.286442
0.957916 0.657496 0.288289
0.0554208 0.645151 0.288151
0.0561685 0.646616 0.290883
0.0555428 0.646448 0.288167
0.0551461 0.646433 0.285176
0.0545357 0.646097 0.281743
0.0539101 0.645579 0.278065
0.0532845 0.644984 0.273716
0.0522316 0.644007 0.268132
0.0508125 0.643091 0.260929
0.0482185 0.641154 0.252399
0.0455177 0.636667 0.230228
0.0463264 0.628229 0.179889
0.0756542 0.617655 0.105547
0.185931 0.609964 0.0844892
0.307805 0.612787 0.115938
0.412757 0.623346 0.144244
0.51931 0.633799 0.150179
0.629725 0.650355 0.156435
0.729854 0.67776 0.176059
0.833539 0.692958 0.240375
0.887358 0.706874 0.274128
0.924468 0.715877 0.292348
0.951568 0.719585 0.305364
0.96257 0.719081 0.312383
0.962173 0.717052 0.31107
0.962112 0.715465 0.310384
0.96199 0.714076 0.309834
0.961959 0.713375 0.309651
0.961959 0.713436 0.309728
0.962097 0.71429 0.310246
0.962386 0.716136 0.311238
0.962814 0.719188 0.312932
0.963394 0.723293 0.314916
0.087068 0.698466 0.327886
0.0884871 0.700359 0.331044
0.0879072 0.700206 0.328481
0.0874189 0.700023 0.325872
0.0868391 0.699748 0.323186
0.0863966 0.699428 0.320134
0.0859998 0.699214 0.317174
0.0855268 0.698848 0.313161
0.084123 0.697444 0.305989
0.0821088 0.695674 0.297704
0.0790875 0.693446 0.287724
0.0763867 0.687892 0.259495
0.0798505 0.677317 0.198734
0.130999 0.667216 0.130175
0.262592 0.662074 0.125338
0.380087 0.66659 0.155474
0.480827 0.677043 0.176898
0.587167 0.689387 0.185153
0.697459 0.710887 0.201068
0.790845 0.739727 0.2271
0.883024 0.753552 0.288838
0.928359 0.765774 0.320302
0.958755 0.772931 0.337194
0.973983 0.773968 0.345525
0.975479 0.771481 0.346059
0.975265 0.770047 0.345083
0.974838 0.769009 0.344228
0.974746 0.768688 0.34406
0.974823 0.768963 0.344244
0.975372 0.770367 0.345418
0.975631 0.771878 0.346395
0.976425 0.774609 0.348363
0.977737 0.778149 0.350942
0.120851 0.743069 0.36492
0.12224 0.744411 0.367834
0.121706 0.744442 0.36556
0.121355 0.74435 0.363424
0.120989 0.744198 0.360998
0.120653 0.743999 0.358663
0.120775 0.744213 0.35671
0.120165 0.743786 0.353262
0.118654 0.742779 0.348028
0.116655 0.740963 0.339635
0.113939 0.738445 0.329335
0.110887 0.735836 0.317021
0.108553 0.728511 0.280446
0.121263 0.717403 0.215793
0.192523 0.708522 0.157366
0.346716 0.706111 0.170031
0.453834 0.712932 0.197055
0.551354 0.724163 0.212497
0.658579 0.739879 0.226535
0.763577 0.765469 0.248875
0.844663 0.792081 0.280247
0.921447 0.80499 0.333959
0.957885 0.81474 0.35993
0.979873 0.820233 0.375082
0.986618 0.820005 0.380087
0.986572 0.818723 0.379477
0.986374 0.817807 0.378775
0.986267 0.817365 0.378531
0.986236 0.817761 0.378759
0.986313 0.818448 0.379248
0.986511 0.819699 0.380087
0.986542 0.821591 0.381186
0.986954 0.824567 0.383185
0.155261 0.776471 0.397314
0.156268 0.777325 0.399969
0.155901 0.777417 0.397986
0.155337 0.777371 0.396094
0.154986 0.777447 0.394415
0.154421 0.777279 0.392142
0.153765 0.77705 0.390021
0.153079 0.776699 0.38732
0.151492 0.775876 0.382895
0.149233 0.77435 0.376089
0.146639 0.772259 0.365972
0.143053 0.769482 0.353582
0.138643 0.765789 0.33666
0.142336 0.757824 0.29424
0.16759 0.747372 0.231205
0.270085 0.739254 0.191363
0.427497 0.741253 0.213962
0.52697 0.751278 0.236927
0.623133 0.764462 0.250446
0.730434 0.784649 0.272114
0.822339 0.812375 0.296422
0.88838 0.833448 0.330175
0.9514 0.845289 0.374044
0.977249 0.852628 0.392325
0.987778 0.85507 0.402335
0.98851 0.854276 0.402838
0.988556 0.853559 0.402411
0.988556 0.853452 0.402365
0.988525 0.853513 0.402426
0.988464 0.854002 0.402792
0.988357 0.854932 0.403311
0.988083 0.856153 0.403952
0.98822 0.858396 0.405386
0.176425 0.792554 0.419425
0.17705 0.792981 0.42208
0.176211 0.792752 0.419516
0.175311 0.792493 0.417258
0.174441 0.792157 0.415122
0.173465 0.791745 0.412406
0.172503 0.791302 0.409796
0.171328 0.790631 0.406836
0.169299 0.789639 0.402029
0.166751 0.788174 0.395804
0.162921 0.785779 0.386496
0.15819 0.782452 0.372427
0.152361 0.778775 0.357168
0.150805 0.773632 0.329625
0.171832 0.767483 0.28127
0.226627 0.761257 0.234501
0.375586 0.758526 0.233051
0.505974 0.768688 0.260487
0.601923 0.782849 0.281682
0.698054 0.79913 0.301076
0.801816 0.824231 0.326452
0.874388 0.850065 0.347784
0.92604 0.863157 0.377371
0.969802 0.874281 0.409003
0.98378 0.878721 0.421836
0.985641 0.878599 0.424079
0.985824 0.878111 0.422629
0.98587 0.877852 0.422065
0.985855 0.877852 0.421668
0.985779 0.878187 0.421683
0.985641 0.878843 0.422232
0.985428 0.879957 0.42298
0.985351 0.881407 0.424338
0.179004 0.794049 0.428931
0.179614 0.794476 0.43122
0.178805 0.794171 0.428794
0.178088 0.793851 0.426078
0.177203 0.793515 0.423423
0.176257 0.793103 0.420676
0.175341 0.792676 0.417853
0.174151 0.792065 0.414359
0.172244 0.79115 0.408881
0.169512 0.789761 0.402533
0.165911 0.787579 0.393561
0.160571 0.784161 0.379904
0.155077 0.780148 0.363012
0.149493 0.775357 0.340017
0.167056 0.769924 0.295628
0.211673 0.765637 0.248005
0.338201 0.762356 0.23798
0.490486 0.771023 0.264134
0.588174 0.78613 0.290898
0.68426 0.80296 0.312581
0.780468 0.824521 0.338827
0.863111 0.85185 0.364889
0.915175 0.868955 0.389166
0.954635 0.880018 0.414679
0.979309 0.889662 0.439994
0.982055 0.891661 0.454643
0.982193 0.891402 0.453223
0.9823 0.891295 0.452216
0.9823 0.891386 0.45182
0.982208 0.891691 0.452567
0.98201 0.892241 0.454063
0.981735 0.892851 0.456016
0.981628 0.893141 0.45684
0.181201 0.795483 0.437537
0.18175 0.795819 0.439567
0.180972 0.795468 0.436927
0.180117 0.795087 0.43389
0.179278 0.79472 0.431083
0.178454 0.794263 0.428138
0.17763 0.793805 0.42504
0.176394 0.793179 0.421149
0.174533 0.792279 0.415396
0.171954 0.790997 0.408103
0.168124 0.789075 0.399542
0.16289 0.785748 0.386328
0.157366 0.781384 0.36762
0.150469 0.776776 0.347646
0.162982 0.770871 0.304875
0.201007 0.766293 0.251835
0.314961 0.762371 0.236408
0.478645 0.76965 0.26125
0.579095 0.784588 0.289128
0.673716 0.801053 0.309895
0.769711 0.822019 0.336904
0.852979 0.8486 0.362936
0.909041 0.868421 0.387671
0.948119 0.879118 0.412207
0.97528 0.889158 0.435798
0.98114 0.893309 0.457893
0.981155 0.89369 0.461631
0.98117 0.893675 0.461387
0.981247 0.893629 0.460365
0.981277 0.893645 0.459739
0.981308 0.893629 0.459281
0.981308 0.893614 0.459037
0.981308 0.893614 0.459007
0.182834 0.796704 0.44506
0.183276 0.796948 0.44654
0.182574 0.796536 0.443976
0.181827 0.796124 0.440665
0.181003 0.795727 0.437797
0.180133 0.795254 0.43444
0.179248 0.794781 0.431144
0.17818 0.794079 0.426902
0.176318 0.793133 0.420798
0.17377 0.791852 0.413031
0.169924 0.789975 0.403494
0.164813 0.786877 0.391028
0.159197 0.782406 0.371756
0.151675 0.777813 0.352377
0.160311 0.771756 0.312078
0.193973 0.766705 0.255222
0.299672 0.762387 0.235599
0.467826 0.768536 0.258824
0.571038 0.783368 0.287297
0.666026 0.799664 0.308034
0.761776 0.819989 0.334554
0.845869 0.846036 0.35993
0.905348 0.867887 0.38436
0.944335 0.877974 0.407813
0.972366 0.888014 0.432502
0.980667 0.893111 0.456458
0.98114 0.893751 0.461173
0.981094 0.893828 0.461753
0.981033 0.893904 0.462242
0.980957 0.894011 0.462715
0.980972 0.894026 0.462348
0.981003 0.894011 0.461967
0.981018 0.893996 0.461784
0.184161 0.79765 0.450813
0.184619 0.79794 0.452674
0.18381 0.797375 0.449134
0.183078 0.796902 0.446036
0.182284 0.796475 0.442985
0.181491 0.796033 0.43946
0.180575 0.795529 0.43624
0.17937 0.794827 0.431556
0.177691 0.79382 0.425162
0.175036 0.792554 0.416739
0.171374 0.790692 0.406897
0.166155 0.787747 0.39408
0.160174 0.783093 0.375113
0.15288 0.778561 0.355657
0.158434 0.772274 0.316655
0.191882 0.766903 0.258305
0.289967 0.762478 0.235142
0.45977 0.767697 0.256825
0.566293 0.782544 0.285435
0.661158 0.79881 0.306981
0.756664 0.818708 0.333211
0.841367 0.844633 0.358709
0.902632 0.867613 0.38233
0.941238 0.876997 0.404929
0.969909 0.886854 0.429679
0.980392 0.892805 0.454429
