bundles/resolve-cinematic-luts/Phantom Luts/Komodo Phantom FILM LUTs G2/Komodo Phantom FILM LUTs G2/65x/WB Offset - Green Boost/Bleach_Komodo_WBO_G2_65x.cube
TITLE "Generated by Resolve"
LUT_3D_SIZE 65
0.0262913 0.0395514 0.0281834
0.0262913 0.0395514 0.0281834
0.0262913 0.0395514 0.0281834
0.0262913 0.0395514 0.0281834
0.0262913 0.0395514 0.0281834
0.0262913 0.0395514 0.0281834
0.0262913 0.0395514 0.0281834
0.0269017 0.0395972 0.0282902
0.0279088 0.0396582 0.0284428
0.0316777 0.0402075 0.029221
0.0345922 0.0406195 0.0297551
0.0396124 0.0413825 0.0298772
0.0468452 0.041474 0.0294957
0.0548257 0.0412604 0.0298009
0.0632639 0.0413672 0.0304265
0.0729076 0.0414282 0.0310521
0.0833753 0.0411078 0.031632
0.0956588 0.0408179 0.0327153
0.107988 0.0403449 0.0328985
0.120882 0.0402075 0.0331579
0.135973 0.0403296 0.0335546
0.15169 0.0402533 0.0337072
0.170474 0.04094 0.0349737
0.191135 0.0414893 0.0362554
0.213733 0.0425116 0.038117
0.237537 0.043534 0.0410925
0.261433 0.04477 0.043946
0.28838 0.0473335 0.0472267
0.315785 0.0489967 0.0511482
0.345403 0.0501564 0.0554665
0.380255 0.0508583 0.0600137
0.417304 0.0507515 0.0642557
0.459052 0.0505074 0.0687877
0.495262 0.0505074 0.0741283
0.527337 0.0507057 0.0801709
0.557336 0.0510109 0.087602
0.581445 0.0510719 0.0930648
0.605722 0.0515297 0.0996567
0.627497 0.0530861 0.105714
0.648341 0.0549477 0.110796
0.666911 0.0568704 0.115572
0.682216 0.0587015 0.118685
0.697765 0.0604257 0.124514
0.709148 0.0616159 0.130434
0.71075 0.0617533 0.133623
0.711955 0.0618601 0.136278
0.713085 0.0619516 0.13901
0.714336 0.0620737 0.141482
0.715373 0.0621653 0.143938
0.716365 0.0622263 0.146288
0.71722 0.0623178 0.148241
0.718166 0.0623789 0.150027
0.718807 0.0623789 0.152087
0.719402 0.0623331 0.154086
0.720058 0.0623178 0.155718
0.72079 0.0623178 0.157565
0.721492 0.0623636 0.159197
0.722057 0.0624094 0.161151
0.722622 0.0624247 0.162539
0.723033 0.0624399 0.16379
0.723491 0.0624247 0.165072
0.724025 0.0624552 0.166278
0.724575 0.062501 0.167575
0.724956 0.0625315 0.168994
0.725383 0.0625772 0.170153
0.0262913 0.0395514 0.0281834
0.0262913 0.0395514 0.0281834
0.0262913 0.0395514 0.0281834
0.0262913 0.0395514 0.0281834
0.0262913 0.0395514 0.0281834
0.0262913 0.0395514 0.0281834
0.0262913 0.0395514 0.0281834
0.0269017 0.0395972 0.0282902
0.0284276 0.039704 0.0285344
0.0326696 0.0403754 0.0294041
0.0376593 0.0411536 0.0300755
0.0442664 0.0416114 0.0295415
0.0526589 0.0412146 0.0296483
0.0608988 0.0412909 0.0301976
0.0704051 0.041413 0.0308537
0.080766 0.0411536 0.0314336
0.0930037 0.0408942 0.0325322
0.106111 0.0403449 0.0327916
0.11928 0.0401312 0.0330205
0.13521 0.0402075 0.033402
0.151537 0.040177 0.0336004
0.170871 0.0408942 0.0348363
0.191531 0.0414435 0.0361486
0.213474 0.0425422 0.0381476
0.237415 0.0435645 0.0411688
0.262058 0.0449226 0.0440681
0.28896 0.0475471 0.0475013
0.317601 0.0491798 0.051606
0.347372 0.050248 0.0557412
0.381796 0.0509804 0.0603647
0.420111 0.0508125 0.064622
0.461906 0.0505837 0.0693217
0.500221 0.05066 0.0758221
0.531167 0.0507515 0.0815442
0.56025 0.0510414 0.0882124
0.584573 0.0510719 0.0936904
0.608789 0.0514992 0.10016
0.631235 0.0534981 0.106691
0.651011 0.055314 0.111742
0.669337 0.0571145 0.115984
0.684199 0.0589151 0.119081
0.70016 0.0606851 0.12575
0.709255 0.0616312 0.130831
0.710979 0.0617685 0.133974
0.712123 0.0618753 0.136797
0.713298 0.0619669 0.139437
0.714488 0.0621042 0.141817
0.715526 0.0621653 0.144198
0.716442 0.0622416 0.146502
0.717296 0.0623178 0.148409
0.718227 0.0623789 0.150179
0.718791 0.0623789 0.152117
0.719387 0.0623331 0.15407
0.720012 0.0623178 0.155627
0.720684 0.0623026 0.157351
0.721279 0.0623484 0.158709
0.721813 0.0624094 0.160266
0.722271 0.0624094 0.161791
0.722683 0.0624247 0.16257
0.723018 0.0624399 0.163668
0.723384 0.0624247 0.164904
0.723796 0.0624399 0.165988
0.724193 0.0624704 0.16669
0.724514 0.062501 0.167437
0.724819 0.0625315 0.168521
0.0262913 0.0395514 0.0281834
0.0262913 0.0395514 0.0281834
0.0262913 0.0395514 0.0281834
0.0262913 0.0395514 0.0281834
0.0262913 0.0395514 0.0281834
0.0262913 0.0395514 0.0281834
0.0262913 0.0395514 0.0281834
0.0268711 0.0396124 0.0282902
0.0296788 0.0398566 0.0287785
0.0343023 0.040589 0.0297093
0.0397192 0.0413977 0.0298466
0.0479744 0.0414282 0.0295262
0.0563058 0.0412604 0.0298772
0.0657664 0.041413 0.0306401
0.0767681 0.0411994 0.0310979
0.0892653 0.0409094 0.0321508
0.1028 0.0404212 0.0327611
0.116945 0.040116 0.032929
0.132876 0.0402533 0.0334325
0.149416 0.0401465 0.0335393
0.168704 0.0407568 0.0346075
0.18967 0.0412757 0.0358434
0.211231 0.0424659 0.0379492
0.235416 0.0434119 0.0408331
0.260334 0.0448615 0.0439765
0.287449 0.0473487 0.0471809
0.315984 0.0489967 0.0511025
0.345663 0.0501106 0.0553597
0.380392 0.0507973 0.0597848
0.417731 0.0507057 0.0639506
0.460197 0.0504158 0.0684825
0.498161 0.0505074 0.0749676
0.529625 0.0505837 0.0806897
0.558816 0.0508583 0.0874037
0.583413 0.0511482 0.0930037
0.607767 0.0514076 0.0995346
0.63061 0.0534066 0.106203
0.650172 0.0552071 0.111147
0.668528 0.0570382 0.115419
0.683391 0.0588388 0.118181
0.699153 0.0606088 0.124681
0.708614 0.0615549 0.129976
0.710506 0.061738 0.132982
0.711727 0.0618296 0.135561
0.712718 0.0619364 0.13817
0.71397 0.0619974 0.140703
0.7149 0.0621347 0.14287
0.715862 0.0621958 0.144869
0.71667 0.0622568 0.147158
0.717449 0.0623331 0.148653
0.718257 0.0623789 0.150301
0.7187 0.0623789 0.151812
0.719249 0.0623484 0.153597
0.719783 0.0623178 0.155138
0.720302 0.0623026 0.15642
0.720867 0.0623178 0.157671
0.72134 0.0623636 0.158755
0.721706 0.0623941 0.159747
0.721996 0.0624094 0.160769
0.722255 0.0624247 0.161715
0.722576 0.0624247 0.162417
0.722866 0.0624247 0.163287
0.723064 0.0624399 0.164034
0.723262 0.0624247 0.164584
0.7234 0.0624247 0.164889
0.0262913 0.0395514 0.0281834
0.0262913 0.0395514 0.0281834
0.0262913 0.0395514 0.0281834
0.0262913 0.0395514 0.0281834
0.0262913 0.0395514 0.0281834
0.0262913 0.0395514 0.0281834
0.0262913 0.0395514 0.0281834
0.0265965 0.0395972 0.0282597
0.0300908 0.0399329 0.0288701
0.0350958 0.0406958 0.0298314
0.0414588 0.0415808 0.0296788
0.0506294 0.0412451 0.0294957
0.0600137 0.0413367 0.0301823
0.0710613 0.0414282 0.03093
0.0831006 0.0410773 0.0316014
0.0972457 0.0407874 0.0328069
0.110704 0.0402533 0.0329137
0.126802 0.0402075 0.0332799
0.143343 0.0402838 0.0335393
0.161074 0.0403449 0.0336767
0.181918 0.0409094 0.0348363
0.202884 0.0416571 0.0364538
0.226184 0.0425269 0.0384833
0.251102 0.0439002 0.0420081
0.277821 0.0458991 0.0450599
0.306294 0.0476997 0.0489357
0.335073 0.0491798 0.0529335
0.368933 0.0499886 0.0571756
0.404639 0.0503853 0.0615549
0.446555 0.0499886 0.0657359
0.486137 0.0497902 0.0711376
0.519005 0.0499123 0.0772717
0.548653 0.050248 0.0832074
0.573953 0.0502785 0.0887465
0.599344 0.0510567 0.0955062
0.62324 0.0526741 0.10222
0.644053 0.0545815 0.108217
0.663417 0.0566873 0.11284
0.678279 0.0583352 0.115434
0.694072 0.0602121 0.120653
0.706783 0.0614481 0.127077
0.709087 0.0616159 0.129915
0.710445 0.061738 0.13283
0.711589 0.0618143 0.13518
0.712505 0.0619211 0.137682
0.713634 0.0619821 0.140002
0.714549 0.0621042 0.141955
0.71548 0.0621653 0.144137
0.716228 0.0622263 0.145876
0.716838 0.0622873 0.147478
0.717601 0.0623484 0.148806
0.718227 0.0623789 0.150256
0.718639 0.0623789 0.151522
0.71899 0.0623636 0.152743
0.719356 0.0623331 0.153948
0.719631 0.0623331 0.154788
0.719905 0.0623178 0.155413
0.720165 0.0623026 0.156024
0.720409 0.0622873 0.156741
0.720653 0.0623026 0.15729
0.720882 0.0623331 0.157717
0.721035 0.0623331 0.158053
0.721096 0.0623484 0.158145
0.721111 0.0623484 0.158221
0.721126 0.0623484 0.15819
0.0262913 0.0395514 0.0281834
0.0262913 0.0395514 0.0281834
0.0262913 0.0395514 0.0281834
0.0262913 0.0395514 0.0281834
0.0262913 0.0395514 0.0281834
0.0262913 0.0395514 0.0281834
0.0262913 0.0395514 0.0281834
0.0265354 0.0395972 0.0282444
0.030396 0.0399786 0.0289311
0.0360113 0.04094 0.030045
0.043473 0.0416876 0.0296025
0.0533913 0.0413062 0.0297398
0.0642863 0.041413 0.0305333
0.0757458 0.0412451 0.0310674
0.0895552 0.0408942 0.0321965
0.103044 0.0404517 0.0327611
0.118135 0.0402228 0.0330205
0.135363 0.040116 0.0332494
0.151888 0.0398108 0.0330816
0.170977 0.0403449 0.0336004
0.191531 0.0407416 0.0345922
0.215091 0.041886 0.0367895
0.238361 0.0428016 0.0391089
0.263859 0.0441138 0.0420233
0.292241 0.0461128 0.0452125
0.320623 0.047776 0.0490883
0.352117 0.049012 0.0534218
0.386618 0.0495003 0.0575723
0.426749 0.0491035 0.0615091
0.467063 0.0487526 0.0663615
0.501991 0.0487526 0.0713512
0.533272 0.0490883 0.0771496
0.560388 0.0492256 0.0830549
0.586923 0.0503243 0.0895094
0.611231 0.0517739 0.0960861
0.634348 0.0539712 0.102968
0.654047 0.0558022 0.107774
0.669978 0.0573892 0.11078
0.685054 0.059205 0.113848
0.699504 0.0607767 0.119615
0.705486 0.0614481 0.12343
0.708385 0.0615854 0.127871
0.709468 0.061677 0.130388
0.71046 0.0617227 0.133028
0.711498 0.0618143 0.134966
0.712276 0.0618906 0.137163
0.713176 0.0619516 0.139208
0.714046 0.0620127 0.140871
0.714656 0.0621195 0.142229
0.715328 0.06215 0.143801
0.715923 0.0621958 0.145052
0.716365 0.0622416 0.146304
0.716716 0.0622721 0.14728
0.717052 0.0623026 0.147906
0.717403 0.0623331 0.148516
0.717632 0.0623484 0.148867
0.7178 0.0623636 0.149203
0.717922 0.0623636 0.149523
0.718059 0.0623636 0.149844
0.71812 0.0623789 0.150088
0.71812 0.0623636 0.150072
0.718151 0.0623789 0.150072
0.717998 0.0623636 0.149783
0.717876 0.0623636 0.149493
0.7178 0.0623484 0.149386
0.0262913 0.0395514 0.0281834
0.0262913 0.0395514 0.0281834
0.0262913 0.0395514 0.0281834
0.0262913 0.0395514 0.0281834
0.0262913 0.0395514 0.0281834
0.0262913 0.0395514 0.0281834
0.0262913 0.0395514 0.0281834
0.0266117 0.0396277 0.0282597
0.0302586 0.040116 0.0289616
0.0359045 0.0411078 0.0300755
0.0437629 0.0418555 0.0296483
0.0544442 0.0415961 0.0299229
0.0651255 0.0417334 0.0307164
0.0772717 0.0415045 0.0311589
0.0912337 0.0412604 0.0324407
0.106432 0.0406653 0.0328527
0.122469 0.0403906 0.0331426
0.139437 0.0403143 0.0333562
0.157305 0.0401007 0.0332952
0.176394 0.0406653 0.0337224
0.198215 0.0408179 0.0345769
0.220661 0.0416876 0.0361791
0.2439 0.042359 0.0375525
0.269459 0.0432898 0.0401007
0.296849 0.0450752 0.0435187
0.32636 0.0467079 0.0464332
0.358465 0.0474708 0.0500038
0.393668 0.0480049 0.0542763
0.435004 0.047364 0.0582895
0.472374 0.0471199 0.0626688
0.507729 0.0469215 0.0680095
0.538216 0.047425 0.0740368
0.566293 0.0487984 0.0802014
0.592523 0.0504463 0.0868238
0.615641 0.0522621 0.0929122
0.637568 0.0543221 0.0985428
0.656428 0.0561837 0.10277
0.671489 0.0577096 0.10518
0.685924 0.0594492 0.108614
0.69929 0.0609598 0.112963
0.703563 0.0613413 0.117723
0.705653 0.0615396 0.121141
0.706615 0.0615396 0.123949
0.708049 0.0615702 0.12726
0.709056 0.0616159 0.129458
0.70985 0.0617075 0.13138
0.710719 0.061738 0.133455
0.711498 0.061799 0.134966
0.712001 0.0618601 0.136385
0.712383 0.0619059 0.137407
0.712825 0.0619364 0.138415
0.713207 0.0619516 0.139239
0.713588 0.0619821 0.13991
0.713909 0.0620127 0.140505
0.714107 0.0620279 0.141024
0.714214 0.0620584 0.141253
0.714244 0.0620584 0.141314
0.714183 0.0620432 0.141222
0.714153 0.0620432 0.141161
0.714122 0.0620279 0.14107
0.714061 0.0620279 0.140917
0.713909 0.0620127 0.140505
0.713558 0.0619821 0.139879
0.713283 0.0619669 0.139452
0.712947 0.0619364 0.13875
0.0262913 0.0395514 0.0281834
0.0262913 0.0395514 0.0281834
0.0262913 0.0395514 0.0281834
0.0262913 0.0395514 0.0281834
0.0262913 0.0395514 0.0281834
0.0262913 0.0395514 0.0281834
0.0262913 0.0395514 0.0281834
0.0263371 0.0395972 0.0282139
0.0289464 0.040238 0.028809
0.0345617 0.0413062 0.0299535
0.0421607 0.0422675 0.0301671
0.0528725 0.0420996 0.030045
0.0642405 0.0423438 0.0307927
0.0765393 0.0422065 0.0313115
0.091249 0.0420844 0.032517
0.106844 0.0414588 0.0328679
0.122988 0.0413367 0.0333715
0.14078 0.0411231 0.0335393
0.159121 0.0411231 0.0336461
0.179843 0.041474 0.0340276
0.202106 0.041886 0.0349737
0.224002 0.0422827 0.0360266
0.248402 0.0433356 0.0380407
0.272663 0.0439612 0.0401617
0.300664 0.0455329 0.0421149
0.329244 0.04654 0.0445411
0.359106 0.046479 0.0462501
0.394614 0.0463264 0.0492103
0.433524 0.0456245 0.0521401
0.473014 0.0455787 0.0565652
0.50869 0.0462654 0.0618906
0.539986 0.0475471 0.06804
0.568399 0.049134 0.0743114
0.592844 0.05066 0.0803998
0.616983 0.0525216 0.0868391
0.637797 0.054612 0.0917678
0.656504 0.0564126 0.0954757
0.671244 0.057908 0.0975662
0.684565 0.0596475 0.100496
0.695094 0.0608682 0.103426
0.698222 0.0611582 0.106889
0.700099 0.0611124 0.109987
0.701457 0.0612192 0.11252
0.703212 0.0613413 0.115969
0.704768 0.0614786 0.119387
0.705699 0.0615396 0.121508
0.706737 0.0615549 0.123919
0.707378 0.0615396 0.125582
0.707744 0.0615396 0.126787
0.708309 0.0615854 0.127489
0.708751 0.0616159 0.128496
0.70901 0.0616312 0.129061
0.709285 0.0616464 0.129763
0.709514 0.061677 0.130495
0.709575 0.061677 0.130678
0.709514 0.061677 0.130556
0.709392 0.0616617 0.130251
0.70927 0.0616464 0.129946
0.709102 0.0616312 0.129473
0.708888 0.0616159 0.128939
0.708598 0.0616007 0.128298
0.708019 0.0615549 0.127306
0.70724 0.0615244 0.125795
0.706615 0.0615396 0.124163
0.706157 0.0615091 0.122789
0.0262913 0.0395514 0.0281834
0.0262913 0.0395514 0.0281834
0.0263676 0.0398413 0.028275
0.0264286 0.0400092 0.028336
0.0264439 0.040177 0.0283665
0.0264439 0.0400549 0.0283665
0.0265507 0.0398108 0.0283513
0.0263523 0.0396124 0.0282444
0.0276188 0.0402686 0.0286259
0.0326238 0.0415351 0.0298161
0.039704 0.0426947 0.0311589
0.0500191 0.0431525 0.0303197
0.0617075 0.0434119 0.030869
0.0744945 0.0433509 0.0313268
0.0901656 0.0432136 0.0322728
0.105577 0.04271 0.0331731
0.123323 0.0426337 0.0338903
0.140871 0.0422522 0.0340124
0.160815 0.0425269 0.0344549
0.181949 0.042649 0.0346532
0.204501 0.0433814 0.0354314
0.228199 0.0439307 0.0369573
0.251987 0.0449378 0.0386053
0.27837 0.046128 0.0405432
0.305379 0.0475013 0.0420691
0.333486 0.0480964 0.0446021
0.365377 0.0479896 0.0461891
0.397864 0.0469978 0.0476234
0.43566 0.0459602 0.0490425
0.471656 0.0456855 0.0509346
0.505486 0.0466316 0.0547189
0.536461 0.0477913 0.0592508
0.563668 0.0491646 0.0644083
0.589151 0.0507515 0.0699931
0.612696 0.0524758 0.0755322
0.633829 0.0545663 0.0802014
0.652064 0.0562753 0.0829786
0.666804 0.0580148 0.0852979
0.67863 0.059266 0.0864271
0.686625 0.0602579 0.0889906
0.690837 0.0606699 0.0929122
0.692683 0.0608225 0.0954452
0.694469 0.0608988 0.0986648
0.69575 0.0610208 0.101106
0.697383 0.0611276 0.103578
0.698054 0.0611734 0.105821
0.699138 0.0611582 0.10782
0.699626 0.0611124 0.109133
0.700191 0.0611276 0.110323
0.701228 0.0612039 0.111574
0.701686 0.061265 0.112367
0.701686 0.0612497 0.112734
0.702007 0.0612802 0.11339
0.702144 0.0612802 0.113787
0.702022 0.0612802 0.113603
0.701579 0.0612345 0.11252
0.701076 0.0611887 0.11162
0.700526 0.0611429 0.110796
0.700374 0.0611429 0.110185
0.699718 0.0611276 0.108797
0.699077 0.0611582 0.107576
0.698161 0.0611887 0.106111
0.697429 0.0611276 0.104158
0.696437 0.0610666 0.102251
0.695232 0.0609903 0.100175
0.0269627 0.0414435 0.0288243
0.0276341 0.0423285 0.0293889
0.0281834 0.0436408 0.0298009
0.0285496 0.0447242 0.0300603
0.0287938 0.0452583 0.0302739
0.0289006 0.0455177 0.0303502
0.0292973 0.045243 0.0303655
0.0296635 0.0445869 0.0302434
0.031342 0.0443122 0.0305333
0.0347906 0.0457465 0.0315099
0.0412909 0.0471504 0.0328985
0.0493477 0.0482643 0.0321508
0.0621805 0.0480659 0.0321813
0.0746929 0.0482338 0.0322728
0.0893568 0.047013 0.0319829
0.105959 0.0461738 0.0330358
0.122698 0.0450599 0.0339208
0.141222 0.0442664 0.0346685
0.162112 0.0444343 0.0354009
0.18323 0.0448463 0.0358892
0.207004 0.045594 0.0363928
0.229938 0.0464027 0.0372473
0.255207 0.0475013 0.0389258
0.28249 0.0490272 0.04094
0.309087 0.0499123 0.0425116
0.338399 0.0499733 0.0446479
0.369558 0.0497597 0.0462043
0.40444 0.0487373 0.0477607
0.440299 0.0471656 0.0487068
0.475334 0.0459297 0.050248
0.509346 0.0465705 0.0533761
0.537514 0.0478981 0.056672
0.564157 0.0493019 0.0601663
0.587488 0.0507973 0.0634318
0.610178 0.0526741 0.0678416
0.629129 0.0542916 0.0706188
0.646311 0.0558328 0.0737469
0.661936 0.0577249 0.0768292
0.672541 0.0587015 0.0776837
0.678523 0.0594644 0.0796368
0.681849 0.0598306 0.0816663
0.68333 0.0600443 0.0828717
0.684276 0.0601816 0.0838178
0.685679 0.0602884 0.0856794
0.686854 0.0603494 0.0870069
0.687938 0.0603494 0.0885328
0.688716 0.0604105 0.0894179
0.689677 0.0604715 0.090837
0.69015 0.0605478 0.091722
0.69044 0.0605936 0.0926833
0.690593 0.0606394 0.0927291
0.690608 0.0606241 0.0929427
0.690501 0.0606241 0.0922866
0.690471 0.0606241 0.0921798
0.690257 0.0605631 0.091783
0.68983 0.0604868 0.0910506
0.689128 0.060441 0.0900435
0.688228 0.0603799 0.088716
0.687465 0.0603647 0.0875868
0.686442 0.0603799 0.0856489
0.685466 0.0603342 0.0839551
0.685008 0.0603037 0.0831464
0.684581 0.0602579 0.0827344
0.683955 0.0601663 0.082002
0.683497 0.0601053 0.0811017
0.0294804 0.0484016 0.0307622
0.0299992 0.0503853 0.0311589
0.0308537 0.0525063 0.0319829
0.0313725 0.0534829 0.0325322
0.0315099 0.0544747 0.0325933
0.0316014 0.0547951 0.0326543
0.0320134 0.0545052 0.0326543
0.0331731 0.0540322 0.0328832
0.0350958 0.0532235 0.033051
0.0405585 0.0542611 0.0339971
0.0468757 0.056199 0.0355993
0.0544747 0.0578622 0.0356756
0.0668956 0.0584726 0.0351263
0.0800336 0.058381 0.0351873
0.0964065 0.057435 0.0348058
0.11252 0.0563973 0.0346227
0.130404 0.0544594 0.0346685
0.149615 0.05243 0.0350195
0.168719 0.0505531 0.0360266
0.189624 0.0495918 0.0371862
0.211368 0.0491951 0.0375982
0.23508 0.049897 0.0383307
0.258762 0.0501869 0.039353
0.285283 0.0509804 0.0411536
0.313771 0.0521553 0.0432441
0.341878 0.0521859 0.0448005
0.373892 0.0517891 0.0460365
0.408759 0.050721 0.0475166
0.445808 0.0490883 0.0490272
0.481605 0.047715 0.05037
0.512474 0.0467231 0.0531167
0.541466 0.0480964 0.056672
0.567193 0.0495155 0.0599069
0.590433 0.0510414 0.062974
0.612696 0.0527962 0.0666819
0.631464 0.0545663 0.0695659
0.648173 0.0560769 0.0720989
0.662257 0.0578622 0.0739605
0.67245 0.0588235 0.0746166
0.676127 0.0592966 0.0751507
0.676875 0.0594186 0.0750134
0.677638 0.0594797 0.0758068
0.677348 0.0594492 0.0758221
0.677913 0.0594949 0.0764324
0.677562 0.0594492 0.0763714
0.677958 0.0594949 0.0767071
0.678355 0.0595407 0.0770275
0.679988 0.0597086 0.0780041
0.6804 0.0597543 0.0782483
0.681056 0.0598001 0.078706
0.680613 0.0597696 0.0783703
0.680888 0.0598001 0.0784466
0.680003 0.0597086 0.0778058
0.679805 0.0596933 0.0775464
0.679744 0.0596933 0.0772564
0.680552 0.0597696 0.0775006
0.681285 0.0598611 0.0777142
0.681407 0.0598917 0.0774395
0.681834 0.0599527 0.0774395
0.68159 0.0599374 0.0769207
0.681041 0.0598764 0.0760815
0.681041 0.0598764 0.0756695
0.681682 0.0599832 0.0757916
0.682322 0.0601053 0.0758831
0.682918 0.0602274 0.076051
0.0327153 0.0591287 0.0334478
0.0329595 0.0614786 0.0336767
0.0335393 0.0636912 0.0343023
0.0339055 0.0656596 0.0346532
0.0342412 0.0671702 0.0349584
0.0343023 0.0675975 0.0349889
0.0346532 0.0677653 0.03505
0.0363622 0.0667735 0.0353857
0.0389563 0.0659648 0.0356451
0.0433051 0.0661936 0.0362097
0.0518196 0.0675212 0.0372931
0.0601663 0.0696727 0.0386816
0.0711376 0.0713054 0.0386206
0.0875715 0.0711376 0.0383459
0.104616 0.0707713 0.038819
0.122026 0.0699626 0.0385443
0.141497 0.0681163 0.0386053
0.161257 0.0664225 0.0384985
0.182666 0.0644236 0.0387274
0.204395 0.0618296 0.0390326
0.226383 0.0591897 0.0397345
0.24828 0.0579232 0.0412757
0.269947 0.0560159 0.0415961
0.293523 0.0553902 0.0425116
0.317098 0.0547341 0.0428626
0.346487 0.0545968 0.0449378
0.378668 0.0541238 0.0461891
0.414038 0.0526741 0.0471046
0.451698 0.0510872 0.0485084
0.486275 0.0494698 0.0504158
0.516274 0.0479744 0.0525826
0.543816 0.0480964 0.0559243
0.569543 0.0497139 0.0594492
0.593957 0.0513924 0.0627909
0.615412 0.0530098 0.0661784
0.635325 0.0550546 0.0695659
0.651911 0.0565499 0.0721904
0.665888 0.0583352 0.0740368
0.677195 0.0594492 0.0755016
0.681285 0.0599222 0.0758068
0.68249 0.0601358 0.0759289
0.682185 0.0600748 0.0758526
0.682048 0.0600443 0.0757916
0.681804 0.0600137 0.0757458
0.681743 0.0599985 0.0757763
0.681712 0.0599985 0.0757458
0.68159 0.0599832 0.0757
0.681651 0.0599832 0.0757153
0.681727 0.0599985 0.0757305
0.681926 0.060029 0.075761
0.682155 0.0600748 0.0758221
0.682414 0.0601205 0.0758984
0.682719 0.0601968 0.0760052
0.683131 0.0602426 0.0760967
0.683742 0.0603189 0.0762036
0.684276 0.0604105 0.0762798
0.68481 0.0604868 0.0763561
0.685557 0.0605631 0.0764477
0.686275 0.0606241 0.0765545
0.68719 0.0607156 0.0767071
0.687846 0.0608072 0.0768444
0.688548 0.060914 0.0769665
0.689235 0.0609598 0.076997
0.689891 0.0610056 0.0770275
0.690578 0.0610971 0.0771191
0.0354467 0.071931 0.0359045
0.0356298 0.074342 0.0359197
0.0359655 0.0770123 0.0361639
0.036347 0.0792401 0.036347
0.0368505 0.0805066 0.0366979
0.0370947 0.0813458 0.0368658
0.0370947 0.0812543 0.0368658
0.038941 0.0807813 0.0370794
0.0419013 0.0801404 0.0375677
0.0460059 0.0796368 0.0381933
0.0544442 0.0809949 0.0393988
0.0653086 0.0824903 0.04094
0.0757305 0.0850538 0.0413825
0.0910811 0.0866865 0.0402533
0.112902 0.0859541 0.041001
0.132509 0.0852064 0.0421759
0.152132 0.084062 0.042771
0.174273 0.0822003 0.0431678
0.197269 0.0801862 0.0433204
0.220386 0.0777142 0.0438849
0.243824 0.0746014 0.0445258
0.266087 0.0713054 0.0446326
0.289723 0.0677653 0.0456397
0.312139 0.0641489 0.0455177
0.334783 0.061326 0.0448463
0.359792 0.0595865 0.0453803
0.387289 0.0577707 0.0467231
0.419074 0.0552224 0.0469673
0.457282 0.0534371 0.0480049
0.490547 0.0517433 0.0497902
0.520897 0.0502174 0.0526741
0.546563 0.0489662 0.0547494
0.572671 0.0498665 0.0585184
0.596613 0.0514992 0.0618906
0.618509 0.0533761 0.0654307
0.638224 0.0553902 0.0688029
0.655634 0.057023 0.0717784
0.669917 0.0587625 0.0738231
0.681224 0.0599069 0.0757305
0.687907 0.0608225 0.0768597
0.688426 0.0608988 0.0769513
0.688304 0.0608835 0.0769207
0.688289 0.0608682 0.0768902
0.688197 0.0608682 0.0768902
0.688136 0.060853 0.0768749
0.688167 0.060853 0.0769055
0.688212 0.0608682 0.076936
0.68835 0.0608988 0.0769665
0.688563 0.060914 0.0769818
0.688807 0.0609293 0.076997
0.689113 0.0609445 0.0770123
0.689555 0.0609751 0.0770123
0.689921 0.0610056 0.0770428
0.69044 0.0610666 0.0771038
0.690822 0.0611276 0.0771191
0.691295 0.0611734 0.0771038
0.691905 0.0612497 0.0771344
0.692546 0.0613107 0.0771649
0.693294 0.0614176 0.0772564
0.693904 0.0614786 0.0772869
0.694713 0.0615702 0.0773327
0.695323 0.061677 0.0773785
0.696117 0.0617685 0.0772869
0.696986 0.0618753 0.0771801
0.697597 0.0619669 0.0771191
0.0374304 0.085832 0.0372473
0.0378729 0.0888838 0.0376593
0.0386511 0.0919814 0.0383612
0.0387579 0.093843 0.0380713
0.0391089 0.0960403 0.037995
0.0390631 0.0965896 0.0379339
0.0390021 0.0969711 0.0378424
0.0403296 0.0967727 0.0380865
0.0435035 0.096025 0.0388495
0.0480964 0.0955978 0.0396582
0.0558022 0.0960708 0.0407263
0.067277 0.098497 0.0420996
0.0801709 0.100099 0.0431373
0.0944686 0.102495 0.0426642
0.113832 0.104311 0.041474
0.140414 0.103258 0.0432898
0.164385 0.102586 0.0457771
0.188266 0.101503 0.0478065
0.211719 0.0995956 0.048127
0.237903 0.0971237 0.0493629
0.262425 0.0933852 0.0510567
0.288182 0.0895705 0.0517128
0.31339 0.0857252 0.0527504
0.338354 0.0809033 0.0525216
0.363119 0.0759899 0.0520943
0.386084 0.0693523 0.0486305
0.413535 0.0651255 0.0467079
0.441169 0.0614633 0.0461433
0.471031 0.0580758 0.047425
0.500252 0.0556802 0.0485542
0.52607 0.0534371 0.0509957
0.551324 0.0512856 0.054139
0.575433 0.0508431 0.0572824
0.59881 0.0517128 0.0607156
0.621088 0.0537118 0.0640116
0.641154 0.0556954 0.0675822
0.659083 0.057557 0.0708476
0.673716 0.0590066 0.0730907
0.685466 0.0605783 0.0755627
0.694011 0.0614939 0.077348
0.694133 0.0615091 0.0773022
0.694102 0.0614939 0.0773022
0.69398 0.0614939 0.0772564
0.693935 0.0614786 0.0773022
0.693965 0.0614786 0.0773327
0.694102 0.0615091 0.0773785
0.694347 0.0615244 0.0774395
0.694728 0.0615702 0.0773632
0.694957 0.0616159 0.0773022
0.695232 0.0616617 0.0772869
0.695613 0.0617227 0.0772412
0.695903 0.0617533 0.0772259
0.696468 0.0618143 0.0771954
0.697017 0.0618753 0.0772106
0.69752 0.0619364 0.0772259
0.697948 0.062089 0.0771801
