bundles/resolve-cinematic-luts/Phantom Luts/Komodo Phantom FILM LUTs G2/Komodo Phantom FILM LUTs G2/65x/WB Offset - Green Boost/Eastman_Komodo_WBO_Legacy_G2_65x.cube
TITLE "Generated by Resolve"
LUT_3D_SIZE 5
0.056199 0.0403601 0.0475471
0.157382 0.0396124 0.0510719
0.482902 0.0626688 0.0484016
0.51603 0.0717784 0.0648051
0.517098 0.0530404 0.0655985
0.087953 0.156619 0.076936
0.187549 0.179477 0.0861677
0.553384 0.172686 0.0842451
0.533989 0.126406 0.0522316
0.54815 0.15201 0.0626688
0.161318 0.614923 0.198108
0.193057 0.634043 0.173465
0.745266 0.802121 0.2934
0.840269 0.817884 0.331594
0.841703 0.825238 0.337285
0.172519 0.672557 0.285145
0.172854 0.670466 0.270802
0.741314 0.837186 0.328756
0.849149 0.853788 0.375357
0.849256 0.853773 0.375235
0.177218 0.67187 0.260365
0.176074 0.670222 0.255924
0.740734 0.832807 0.311437
0.852949 0.853147 0.370932
0.863264 0.851484 0.359487
0.0488594 0.0514839 0.0947127
0.164355 0.0509651 0.120043
0.5037 0.0581216 0.167742
0.545953 0.0885176 0.234394
0.550134 0.0881361 0.255665
0.0775006 0.135622 0.114809
0.170138 0.157443 0.151385
0.513237 0.0951095 0.085481
0.509117 0.0749371 0.0654917
0.509514 0.0714733 0.0689403
0.150179 0.620584 0.320241
0.151858 0.60032 0.20853
0.729931 0.785763 0.281361
0.836759 0.793774 0.313924
0.837568 0.797177 0.315022
0.193744 0.712947 0.411734
0.172519 0.673259 0.289189
0.700771 0.823102 0.318685
0.848722 0.853788 0.375296
0.848829 0.853834 0.375723
0.192782 0.7131 0.39501
0.175448 0.673045 0.275029
0.693126 0.818051 0.299657
0.848737 0.853559 0.372686
0.863447 0.851453 0.359319
0.0390021 0.0649271 0.306004
0.104112 0.0573587 0.359884
0.542992 0.122988 0.453666
0.597757 0.149248 0.508156
0.600443 0.153094 0.525551
0.0390021 0.11107 0.319661
0.0390021 0.0603037 0.327169
0.553536 0.125673 0.462119
0.596277 0.147265 0.498894
0.59794 0.149371 0.509483
0.143816 0.636835 0.520455
0.142641 0.631647 0.516289
0.664469 0.700023 0.66096
0.830945 0.643183 0.614908
0.832486 0.642481 0.618723
0.225437 0.793744 0.609125
0.223102 0.786603 0.576577
0.336812 0.717693 0.408194
0.842786 0.854017 0.374289
0.8421 0.854719 0.381643
0.225345 0.79472 0.616541
0.223453 0.786816 0.579507
0.272511 0.70576 0.391577
0.83566 0.854246 0.37319
0.841947 0.854658 0.38088
0.0390021 0.0623636 0.371374
0.103761 0.0620737 0.421592
0.573892 0.147982 0.53254
0.601877 0.157015 0.542092
0.601877 0.157015 0.542092
0.0390021 0.112474 0.393317
0.0390021 0.0615091 0.379095
0.56788 0.145357 0.530571
0.601877 0.157015 0.542092
0.601877 0.157015 0.542092
0.117144 0.583307 0.593057
0.113512 0.572351 0.590539
0.501274 0.552956 0.758923
0.876066 0.610285 0.827756
0.876387 0.610086 0.827832
0.216754 0.793133 0.688823
0.217792 0.794354 0.686015
0.224659 0.799298 0.676631
0.894621 0.922911 0.890318
0.920775 0.921019 0.886809
0.216846 0.793088 0.689036
0.217975 0.793927 0.687312
0.237598 0.818631 0.666743
0.861936 0.935912 0.868727
0.923506 0.94873 0.872099
0.0390021 0.0615244 0.379232
0.131746 0.0611582 0.432013
0.590738 0.153216 0.538186
0.601877 0.157015 0.542092
0.601877 0.157015 0.542092
0.0390021 0.10927 0.391775
0.0390021 0.0628519 0.387167
0.581186 0.150195 0.534844
0.601877 0.157015 0.542092
0.601877 0.157015 0.542092
0.116594 0.581903 0.59321
0.111528 0.567346 0.588907
0.499352 0.53579 0.757839
0.873732 0.594614 0.82324
0.873991 0.592721 0.823102
0.216739 0.793149 0.688792
0.216587 0.79321 0.688487
0.193408 0.758877 0.681926
0.870802 0.896239 0.90428
0.918685 0.89926 0.910445
0.216846 0.793088 0.689036
0.216846 0.793088 0.689036
0.231998 0.817853 0.707622
0.633814 0.90634 0.84033
0.927169 0.954742 0.925917
