bundles/resolve-cinematic-luts/Phantom Luts/Komodo Phantom FILM LUTs G2/Komodo Phantom FILM LUTs G2/65x/WB Offset - Green Boost/EastmanRM_Komodo_WBO_G2_65x.cube
TITLE "Generated by Resolve"
LUT_3D_SIZE 5
0.0461585 0.0408331 0.0415656
0.180865 0.0316472 0.0438544
0.520348 0.0310521 0.0920882
0.553262 0.0394141 0.123278
0.548821 0.0412909 0.135149
0.0610971 0.190768 0.0559854
0.199161 0.215946 0.0606241
0.545998 0.0747539 0.0845045
0.529198 0.0402686 0.0895705
0.522286 0.0413672 0.0943923
0.175463 0.640055 0.192126
0.249958 0.653498 0.159701
0.811139 0.849088 0.396445
0.895476 0.853422 0.466285
0.895842 0.861448 0.474418
0.230411 0.708537 0.338384
0.233692 0.704189 0.319142
0.779171 0.878492 0.445914
0.898436 0.90959 0.554162
0.898436 0.90959 0.554162
0.23949 0.705242 0.322286
0.23714 0.703059 0.31342
0.819593 0.890867 0.45803
0.901274 0.908644 0.543908
0.901274 0.908644 0.543908
0.0411994 0.0569009 0.101534
0.179095 0.0508431 0.135454
0.537133 0.0466468 0.17055
0.56936 0.0686809 0.233616
0.585168 0.0781415 0.24802
0.0571908 0.173327 0.131685
0.193256 0.196323 0.161532
0.53138 0.0425269 0.133227
0.536583 0.0419165 0.141314
0.534508 0.0430915 0.149096
0.134661 0.657877 0.320943
0.162768 0.641443 0.213092
0.803967 0.841596 0.385229
0.894835 0.840085 0.454963
0.896895 0.846448 0.455665
0.235447 0.734249 0.433265
0.230442 0.7093 0.341588
0.74435 0.867842 0.425315
0.898436 0.90959 0.554162
0.898436 0.90959 0.554162
0.249302 0.739208 0.449439
0.235966 0.707851 0.334112
0.787442 0.880125 0.437385
0.898436 0.90959 0.554162
0.901274 0.908644 0.543908
0.0419318 0.0962539 0.338567
0.1028 0.0706798 0.411231
0.569345 0.124086 0.502098
0.62005 0.150256 0.541985
0.626688 0.15819 0.560555
0.0421912 0.156725 0.366796
0.0424964 0.0890516 0.362173
0.588418 0.134432 0.518441
0.623285 0.154376 0.550072
0.630671 0.157916 0.558968
0.109636 0.640986 0.555138
0.107897 0.645289 0.561502
0.719249 0.754116 0.709026
0.876692 0.716777 0.688472
0.877317 0.726223 0.69984
0.242069 0.768582 0.627955
0.240986 0.767971 0.616022
0.342031 0.746517 0.420981
0.89868 0.908751 0.545785
0.897673 0.909499 0.553491
0.246052 0.768887 0.6477
0.2448 0.768353 0.631907
0.428779 0.77319 0.494911
0.897108 0.908858 0.547601
0.897734 0.909422 0.552254
0.0430457 0.0958267 0.406012
0.104692 0.0983139 0.465965
0.574884 0.152895 0.58703
0.630518 0.173159 0.607584
0.629801 0.173312 0.608118
0.0426337 0.154711 0.426368
0.0466163 0.0956741 0.415839
0.58674 0.157824 0.591928
0.630335 0.17319 0.607736
0.630793 0.173083 0.607401
0.0788739 0.589624 0.623972
0.0802014 0.587732 0.62031
0.559915 0.586938 0.78262
0.888136 0.65626 0.877623
0.886854 0.668284 0.878111
0.238453 0.763119 0.705959
0.24445 0.761898 0.701518
0.264042 0.776455 0.70898
0.899779 0.941375 0.90573
0.906081 0.944289 0.908431
0.239078 0.762997 0.705501
0.239643 0.762875 0.705135
0.27216 0.781247 0.708721
0.902571 0.949386 0.909224
0.915587 0.955947 0.919005
0.0475776 0.0958877 0.419638
0.116365 0.0877394 0.477958
0.590585 0.15938 0.593347
0.630503 0.173159 0.607599
0.629816 0.173312 0.608118
0.0424811 0.144411 0.418235
0.0517891 0.095964 0.42446
0.597253 0.162051 0.596109
0.630335 0.17319 0.607721
0.630945 0.173053 0.607294
0.0775311 0.586557 0.622477
0.079118 0.584726 0.619944
0.560983 0.576638 0.782879
0.887785 0.648508 0.87689
0.886702 0.66244 0.877882
0.238453 0.763119 0.705959
0.244465 0.761898 0.701488
0.233097 0.759701 0.70602
0.894392 0.933745 0.907164
0.905425 0.940322 0.912367
0.238453 0.763119 0.705959
0.238453 0.763119 0.705959
0.262211 0.779507 0.718914
0.876341 0.94049 0.904158
0.91751 0.958022 0.924712
