bundles/resolve-cinematic-luts/Phantom Luts/Komodo Phantom FILM LUTs G2/Komodo Phantom FILM LUTs G2/65x/WB Offset - Green Boost/Eastman_Komodo_WBO_Legacy_G2_65x.cube
TITLE "Generated by Resolve"
LUT_3D_SIZE 65
0.056199 0.0403601 0.0475471
0.0561532 0.0403754 0.0475776
0.0560922 0.0403906 0.0475929
0.0559091 0.0404517 0.0476539
0.0561685 0.040589 0.0478218
0.0585031 0.0413214 0.0486152
0.0612802 0.0419013 0.0492866
0.0652171 0.0419776 0.0497597
0.0694438 0.0419318 0.0501717
0.0754406 0.0421759 0.0508431
0.0826429 0.0420233 0.0512093
0.0912947 0.0421454 0.0521401
0.101015 0.0421149 0.0529793
0.1122 0.0416114 0.0533761
0.125582 0.0408484 0.0526436
0.140963 0.0402838 0.0521248
0.157382 0.0396124 0.0510719
0.176425 0.040528 0.0504158
0.196094 0.0412757 0.0486
0.217762 0.0424659 0.0465705
0.240635 0.0442817 0.0450752
0.262547 0.0454414 0.0436408
0.285267 0.0460975 0.0427405
0.308812 0.0461738 0.0420233
0.334249 0.0460822 0.0422675
0.358984 0.0468452 0.0426184
0.382849 0.0486305 0.0432898
0.402701 0.0507057 0.0435645
0.422202 0.0538491 0.0449226
0.440116 0.0566262 0.0456245
0.455772 0.0587167 0.0464179
0.470451 0.0611429 0.0476844
0.482902 0.0626688 0.0484016
0.497475 0.0745251 0.0518654
0.506828 0.0810407 0.0546273
0.508812 0.0844129 0.0567941
0.505699 0.0846723 0.0572518
0.50457 0.0842298 0.0578012
0.505348 0.0832227 0.0586099
0.506203 0.0822461 0.0592355
0.506798 0.0812238 0.0597848
0.507164 0.0800641 0.0602274
0.507881 0.0792706 0.0606699
0.508492 0.0783856 0.0613107
0.509178 0.0773327 0.0618143
0.510094 0.076112 0.0625772
0.511711 0.074876 0.0633555
0.513588 0.0733349 0.0640574
0.51603 0.0717784 0.0648051
0.519127 0.0703288 0.0656291
0.522622 0.0689555 0.0661784
0.526528 0.0671702 0.0670787
0.528817 0.0649119 0.0673533
0.52961 0.0620279 0.0668345
0.530663 0.0610819 0.0674296
0.531106 0.0603799 0.0680095
0.527352 0.0555276 0.0649882
0.526268 0.0529793 0.0641794
0.526345 0.052369 0.0645914
0.526284 0.0518502 0.0648814
0.526177 0.0514229 0.0650797
0.526131 0.0510109 0.0653391
0.526177 0.0507362 0.0656596
0.523156 0.0514076 0.0657359
0.517098 0.0530404 0.0655985
0.0582284 0.0397498 0.0468757
0.0567636 0.0401923 0.047364
0.0558328 0.0404669 0.0476692
0.0556649 0.0405127 0.0477302
0.0557107 0.0406348 0.0478523
0.0579995 0.0411688 0.0484627
0.0608377 0.0418402 0.0491798
0.064683 0.0420233 0.0497444
0.0689708 0.0419165 0.0500649
0.0748608 0.0421607 0.050782
0.0822003 0.0419165 0.0510109
0.0907454 0.0421149 0.052018
0.100496 0.0419776 0.0527199
0.111711 0.0414282 0.0529793
0.125078 0.0405432 0.0520027
0.140337 0.0398566 0.0512398
0.15613 0.0397803 0.0508278
0.175128 0.0406348 0.0497597
0.194491 0.0414435 0.0480964
0.216632 0.042649 0.0458534
0.23917 0.0443275 0.0442969
0.261326 0.0457313 0.0427405
0.283879 0.0463874 0.0419165
0.307149 0.0467689 0.0411841
0.33167 0.0468452 0.0413672
0.356191 0.047776 0.0416724
0.380209 0.0487221 0.0421759
0.40029 0.0509651 0.042771
0.420722 0.0536812 0.0441749
0.438148 0.0563973 0.0449836
0.454368 0.0588693 0.0455482
0.469337 0.0612345 0.0468757
0.482139 0.0634012 0.0477455
0.496849 0.0763867 0.0514382
0.505837 0.0825666 0.054078
0.507286 0.0856641 0.0558175
0.504555 0.0859846 0.0565957
0.503288 0.0855726 0.0569772
0.503853 0.0846418 0.057557
0.504555 0.0836805 0.0582895
0.505257 0.0828717 0.0589761
0.505959 0.0819257 0.0594797
0.506401 0.081117 0.0599527
0.506783 0.0801099 0.0603189
0.507347 0.0793469 0.0607309
0.508217 0.0784772 0.0612802
0.509453 0.0773175 0.0617685
0.511498 0.0758831 0.0625162
0.514092 0.0744793 0.0633097
0.517159 0.0728466 0.0638743
0.520745 0.0710155 0.0645457
0.52462 0.0692454 0.0651102
0.527825 0.0679026 0.0657511
0.529686 0.0669718 0.066392
0.53051 0.0665293 0.0667582
0.530739 0.0661173 0.067155
0.530846 0.0654765 0.0675517
0.529046 0.0629129 0.0663157
0.529183 0.0623331 0.0667277
0.52929 0.0618753 0.0670634
0.529351 0.0615244 0.0674296
0.529335 0.061265 0.067689
0.52929 0.0610361 0.0678721
0.52636 0.0617075 0.0679332
0.519936 0.063508 0.0677195
0.0580911 0.0397955 0.0469215
0.0565194 0.0402686 0.0474403
0.0555886 0.0405432 0.0477607
0.055436 0.040589 0.0478065
0.0553902 0.0406806 0.0478981
0.057145 0.0410925 0.0483406
0.06009 0.0418708 0.0491035
0.0638285 0.0422065 0.0497444
0.0680095 0.0421454 0.0500954
0.0741894 0.042298 0.0506294
0.0812543 0.0420539 0.0509346
0.0900587 0.0422675 0.0519875
0.0999161 0.0421149 0.0527047
0.111635 0.0415045 0.0529793
0.124819 0.0405432 0.051957
0.140368 0.0398108 0.0511177
0.155962 0.039826 0.0507668
0.174609 0.0407111 0.0494545
0.19379 0.0417029 0.0476692
0.214984 0.0430915 0.0453803
0.237797 0.0444343 0.0437171
0.259953 0.0457008 0.0419776
0.283299 0.0465858 0.0409552
0.306096 0.0471656 0.0401617
0.330648 0.047425 0.0403449
0.35462 0.0484169 0.0405737
0.377295 0.049485 0.041062
0.39852 0.0515145 0.0417487
0.419013 0.0538491 0.0432898
0.437064 0.0564279 0.0443122
0.452735 0.0591135 0.0447852
0.468055 0.0617685 0.0459449
0.481346 0.0648966 0.0470588
0.495796 0.0783398 0.0508583
0.504997 0.084596 0.0535286
0.505302 0.0869154 0.0547036
0.502861 0.0873426 0.0552377
0.501823 0.0870985 0.0559548
0.502541 0.086183 0.0567025
0.502998 0.0852827 0.0572061
0.503502 0.0845045 0.0577707
0.504204 0.0836347 0.0584115
0.504753 0.0829023 0.0589914
0.505318 0.0821393 0.0594339
0.505699 0.0813764 0.0598917
0.505989 0.080415 0.0602121
0.506874 0.0797284 0.060502
0.508644 0.0786908 0.0610361
0.511528 0.077348 0.0615091
0.514992 0.0756847 0.0622263
0.519265 0.0737621 0.062974
0.522988 0.0720684 0.0635691
0.526131 0.0707561 0.0639811
0.527611 0.0697948 0.0642405
0.528084 0.0691844 0.0646067
0.528191 0.0686961 0.0649882
0.528298 0.0682994 0.0652781
0.528466 0.0679332 0.0655375
0.528664 0.0676432 0.0658122
0.528832 0.0673686 0.0661936
0.528878 0.0671855 0.0664378
0.528878 0.0670787 0.0666056
0.528847 0.0670176 0.0667277
0.525933 0.0678264 0.0666361
0.519402 0.0697185 0.0663005
0.0579995 0.039826 0.046952
0.0563516 0.0403143 0.0475013
0.0554055 0.040589 0.0478218
0.0552682 0.0406348 0.0478676
0.0551003 0.0407111 0.0479438
0.0561532 0.0411383 0.048249
0.0588693 0.0420233 0.0490272
0.0624704 0.0425116 0.0497139
0.0667887 0.0424048 0.0500191
0.0728313 0.0427558 0.0506447
0.0796521 0.0424964 0.050782
0.0890516 0.0424811 0.0516976
0.0987411 0.0426184 0.052781
0.11043 0.0419928 0.0531472
0.123827 0.0410468 0.0521859
0.139422 0.0403754 0.0512703
0.155596 0.040177 0.0507668
0.174472 0.0411536 0.0495308
0.193668 0.0420081 0.0475471
0.215122 0.0432898 0.0450141
0.237018 0.0445258 0.0433509
0.259251 0.0460517 0.0413367
0.281788 0.0469978 0.0400702
0.305516 0.0476234 0.0390936
0.32961 0.0485084 0.039292
0.353475 0.0490272 0.0396277
0.375921 0.0501411 0.0400244
0.396643 0.0520943 0.0406348
0.416861 0.0543526 0.0424506
0.435096 0.0567025 0.0434272
0.451621 0.0594034 0.0440681
0.468086 0.0650797 0.0457008
0.48423 0.0729839 0.0480812
0.495247 0.0807813 0.0500038
0.503334 0.0866712 0.0525216
0.502663 0.0888228 0.053315
0.500053 0.0892195 0.0538033
0.499672 0.0885634 0.0546578
0.500557 0.0878767 0.0553292
0.501381 0.0870985 0.0561227
0.502052 0.0862745 0.0566873
0.502464 0.0854658 0.057145
0.502937 0.0848096 0.0576028
0.503349 0.0841077 0.0581064
0.50396 0.0834974 0.0586252
0.504402 0.0828565 0.0590524
0.504814 0.0821851 0.0594492
0.50576 0.0813306 0.0598917
0.507851 0.0800336 0.0601663
0.511666 0.0786145 0.0605631
0.516335 0.0768597 0.0608988
0.520958 0.0751202 0.0615396
0.524269 0.0737926 0.0620584
0.525826 0.0729992 0.0624704
0.526406 0.0724651 0.0628214
0.526421 0.0720684 0.0630655
0.526436 0.0717327 0.0632792
0.526482 0.071397 0.0635386
0.526513 0.0710765 0.0637522
0.526513 0.0708934 0.063859
0.526528 0.0707256 0.0639506
0.526513 0.0705425 0.0640421
0.526497 0.0704051 0.0641031
0.523323 0.0712749 0.0640726
0.516945 0.0730907 0.0637675
0.0580606 0.0402838 0.0471656
0.0563363 0.0407111 0.0476997
0.0553597 0.0408942 0.0479744
0.0552682 0.0407874 0.0479591
0.055024 0.0407416 0.0479591
0.0553292 0.0411078 0.048188
0.0578622 0.0420539 0.0488289
0.0610819 0.0428016 0.0496681
0.0652628 0.0427253 0.0499123
0.0708782 0.0432441 0.050721
0.0774243 0.0432898 0.0510414
0.0868849 0.0431525 0.0515602
0.0971084 0.043183 0.0526741
0.108537 0.04271 0.0532235
0.122011 0.0418097 0.0525673
0.137911 0.041474 0.0518196
0.154376 0.0410925 0.0509194
0.173449 0.0420996 0.0499886
0.193225 0.0428321 0.0477607
0.214786 0.0437476 0.0453193
0.237629 0.0453956 0.0435798
0.259159 0.0469368 0.0412909
0.281575 0.0476997 0.039826
0.305089 0.0483101 0.0390021
0.328557 0.0492103 0.0390021
0.351644 0.049836 0.0390021
0.373556 0.0509194 0.0390021
0.394186 0.052491 0.0395209
0.413794 0.0551614 0.0412451
0.431907 0.0574807 0.0423133
0.448707 0.0600443 0.0429084
0.466835 0.0674144 0.0453651
0.484474 0.0777447 0.0479896
0.494301 0.0836347 0.0492561
0.501274 0.0886397 0.0507057
0.499443 0.0911116 0.0516213
0.497353 0.091722 0.0523079
0.496666 0.0910811 0.0530404
0.497673 0.0900587 0.0537118
0.498924 0.0889754 0.0544289
0.499611 0.0883192 0.0550393
0.500359 0.0877241 0.0555886
0.501045 0.0870527 0.05626
0.50161 0.0863813 0.0566873
0.502083 0.0856336 0.0570687
0.502434 0.0851301 0.0574502
0.502739 0.0845808 0.0577859
0.50309 0.0840162 0.0581979
0.504234 0.0834669 0.0585946
0.507149 0.0823377 0.0590829
0.511894 0.0806287 0.0595102
0.517433 0.0786603 0.0600137
0.521385 0.0771954 0.0603342
0.523369 0.0763409 0.0605631
0.523934 0.0758831 0.0608225
0.523827 0.0753338 0.0609445
0.523842 0.0751202 0.0610819
0.523812 0.0749981 0.0611582
0.523796 0.0749218 0.0612192
0.523766 0.074876 0.061265
0.523735 0.0747539 0.061326
0.523735 0.0746624 0.0614023
0.52372 0.0746166 0.0614481
0.520394 0.0755474 0.0612802
0.514 0.0774395 0.0609293
0.059144 0.0431067 0.0486763
0.0578012 0.0433661 0.049134
0.0567788 0.0434424 0.0493477
0.0566873 0.0432898 0.0492866
0.0564584 0.0429999 0.0491035
0.0566415 0.0428016 0.0489509
0.058381 0.043595 0.0497292
0.0607919 0.0439918 0.0502174
0.0648051 0.0444038 0.0508125
0.0695811 0.04448 0.0511482
0.0758221 0.0444648 0.051545
0.0839399 0.0444038 0.0521248
0.0949569 0.0442359 0.0526589
0.106081 0.0436408 0.053315
0.120394 0.0428931 0.0529641
0.136309 0.0429847 0.0527352
0.152758 0.0426337 0.0513619
0.172747 0.043473 0.0508431
0.192645 0.0439307 0.048661
0.214771 0.0448768 0.0459907
0.237293 0.0463111 0.0436561
0.259876 0.0484169 0.0415198
0.282246 0.0488136 0.040116
0.305501 0.049424 0.0390021
0.328649 0.0502022 0.0390021
0.350973 0.0509041 0.0390021
0.372183 0.0521401 0.0390021
0.391882 0.0535134 0.0390021
0.410666 0.0564431 0.0397345
0.427558 0.0585794 0.0407263
0.446998 0.0657359 0.0431678
0.464714 0.0719158 0.045182
0.481056 0.0798199 0.0471351
0.491417 0.0854505 0.0482032
0.497108 0.0910048 0.0489509
0.49543 0.0934768 0.0496223
0.493385 0.0943465 0.0500343
0.492607 0.0941329 0.0506447
0.493889 0.0931106 0.0514687
0.495109 0.0923476 0.0521553
0.496147 0.091371 0.0529183
0.496803 0.0906233 0.0533303
0.497444 0.0898299 0.0538491
0.498451 0.0890211 0.0544137
0.499184 0.0885481 0.0549325
0.499748 0.0880293 0.0553902
0.500221 0.0876478 0.0557717
0.500679 0.0871901 0.0562142
0.500999 0.0867781 0.0564584
0.502495 0.0861524 0.0567483
0.505623 0.0849317 0.0571145
0.511299 0.0829938 0.0577401
0.51664 0.0811475 0.0583047
0.519722 0.0799725 0.058732
0.520851 0.0794385 0.0589609
0.520867 0.0792706 0.0590829
0.520836 0.0791791 0.0591592
0.520806 0.079118 0.0592203
0.52076 0.0790417 0.059266
0.520699 0.0789654 0.0593118
0.520638 0.0788739 0.0593576
0.520546 0.0788434 0.0593881
0.52047 0.0788128 0.0594034
0.517311 0.0797436 0.0591897
0.510826 0.0816815 0.0588846
0.060853 0.0472267 0.0503853
0.0591745 0.0475013 0.0507362
0.0583505 0.0475776 0.0509041
0.0583047 0.047364 0.0508583
0.0584573 0.0470588 0.0508736
0.0587167 0.0467079 0.0508888
0.0599374 0.0467231 0.0508736
0.0623331 0.0474556 0.0513924
0.0662699 0.0479744 0.0522316
0.0710765 0.0481727 0.0529946
0.0770733 0.0484169 0.0536812
0.0848859 0.048249 0.0538949
0.0946822 0.0477607 0.0539864
0.104463 0.0466163 0.0539406
0.117876 0.0449683 0.053727
0.133913 0.0447242 0.0536812
0.150835 0.0445258 0.0525673
0.171084 0.045304 0.0516365
0.191714 0.0455787 0.049546
0.214206 0.0463111 0.0467994
0.237263 0.0476997 0.0439918
0.259617 0.0492256 0.0415656
0.282918 0.049897 0.0404059
0.306249 0.0504921 0.0392462
0.328878 0.0510567 0.0390021
0.35201 0.0520027 0.0390021
0.373358 0.0531472 0.0390021
0.392126 0.0548562 0.0390021
0.409277 0.0576638 0.0391394
0.425361 0.0599985 0.0397498
0.445289 0.0700236 0.0432898
0.461357 0.0765698 0.0446479
0.476036 0.0813458 0.0460059
0.486458 0.0864424 0.0471962
0.491768 0.0913863 0.0478065
0.489555 0.0941024 0.0481117
0.488136 0.095613 0.0483253
0.487617 0.0962844 0.0485695
0.488746 0.0958877 0.0490272
0.489647 0.0953689 0.0495308
0.490974 0.0950027 0.0499428
0.491905 0.0942855 0.0504158
0.492851 0.0937209 0.0510109
0.493797 0.0930495 0.0515755
0.494636 0.0925765 0.0519875
0.495064 0.0920119 0.0523537
0.496056 0.0913863 0.0529488
0.496574 0.0909133 0.053254
0.496864 0.0905318 0.0534371
0.497063 0.0902266 0.0536049
0.49868 0.0895399 0.0539406
0.502068 0.088426 0.0540932
0.507347 0.0866865 0.0546578
0.512306 0.0850385 0.0550698
0.515419 0.0839551 0.0554055
0.51632 0.0835889 0.0556039
0.516777 0.0834211 0.0558938
0.516762 0.0833448 0.0560464
0.51664 0.0833448 0.0560922
0.516594 0.083299 0.0561837
0.516503 0.0832685 0.05626
0.516457 0.0832227 0.0563516
0.516152 0.08336 0.0562142
0.512489 0.0845197 0.0557717
0.506157 0.0864271 0.055375
0.0629892 0.0526284 0.0527199
0.0612192 0.0529946 0.0531167
0.0603189 0.0529488 0.0532387
0.0603037 0.052781 0.0531777
0.0604715 0.0523232 0.0531319
0.0609293 0.0519112 0.0532235
0.0618601 0.051606 0.0532082
0.0646525 0.0522927 0.0534676
0.0683299 0.052903 0.0541695
0.0735027 0.0533303 0.0550851
0.0797131 0.0533761 0.0557717
0.0879225 0.0532998 0.0563973
0.0980697 0.0532082 0.0569467
0.108095 0.0522774 0.0568399
0.120928 0.0511025 0.0562905
0.135561 0.05066 0.0556802
0.150759 0.0499275 0.0547951
0.169589 0.047837 0.052369
0.190494 0.0477913 0.0505684
0.213382 0.0480354 0.0474403
0.236774 0.0492866 0.044419
0.260029 0.0505074 0.0422217
0.283818 0.0513619 0.0410315
0.30721 0.0517281 0.0398718
0.330312 0.052369 0.0390478
0.353155 0.0532998 0.0390021
0.374807 0.05449 0.0390021
0.39324 0.0560769 0.0390021
0.410895 0.0590677 0.0393988
0.426474 0.0611887 0.040116
0.442359 0.0661173 0.0413367
0.460395 0.0773785 0.0442054
0.473365 0.082475 0.0455787
0.48249 0.0873121 0.0465095
0.486915 0.0916609 0.0470588
0.483909 0.0937057 0.047013
0.481666 0.0949111 0.0469368
0.481239 0.0955062 0.0470588
0.482246 0.0957656 0.0473793
0.483528 0.0961013 0.0476081
0.484642 0.0962387 0.0478828
0.485695 0.0963455 0.0481727
0.486686 0.0961776 0.0484627
0.487617 0.0962844 0.0486305
0.488319 0.096025 0.0488746
0.488716 0.0959029 0.049073
0.489219 0.0956588 0.0493782
0.489784 0.0955367 0.0496223
0.490333 0.0952926 0.0498054
0.490578 0.0949111 0.0499275
0.490806 0.0946975 0.0500343
0.492088 0.0941939 0.0502174
0.495384 0.0931258 0.0506294
0.500267 0.0917067 0.0510109
0.505379 0.0901961 0.051667
0.508446 0.08925 0.0519417
0.509712 0.0890364 0.0522164
0.509606 0.0890669 0.0522469
0.509438 0.0890516 0.0522469
0.509255 0.0890974 0.0522164
0.509117 0.0891127 0.0522164
0.509041 0.0891127 0.0522316
0.508721 0.0891432 0.0521553
0.505043 0.0901961 0.0518807
0.498177 0.092256 0.0510567
0.0652171 0.0588083 0.0553292
0.0632639 0.0591287 0.0556802
0.0622873 0.0593423 0.0558633
0.062211 0.0590982 0.0558022
0.0624552 0.0587625 0.0557565
0.0630961 0.0581826 0.0556649
0.063859 0.0577401 0.0555734
0.0659495 0.0580301 0.0558785
0.0701457 0.058732 0.0562142
0.0758526 0.059556 0.0571603
0.0827802 0.0599527 0.0582895
0.0912947 0.0596933 0.0589914
0.100984 0.0589761 0.0595407
0.1122 0.0583658 0.0595865
0.126131 0.0570687 0.059266
0.139742 0.0559396 0.0579995
0.156115 0.0549783 0.0565042
0.174197 0.0540627 0.0542458
0.193149 0.0536965 0.052018
0.214725 0.0517128 0.0491951
0.236805 0.0512398 0.0455329
0.260044 0.0519417 0.0432898
0.283635 0.0528115 0.0414282
0.307271 0.0532235 0.0403143
0.330404 0.0540627 0.0394446
0.35346 0.0545663 0.0390021
0.375174 0.0562295 0.0390021
0.394156 0.0577554 0.0390021
0.411307 0.0600748 0.0392615
0.42771 0.062562 0.0404364
0.426352 0.0701152 0.0397192
0.443763 0.0817731 0.0423743
0.457938 0.0886397 0.0443427
0.466484 0.0932784 0.0451514
0.471046 0.0972152 0.0457465
0.468956 0.0987716 0.0452735
0.466712 0.0990768 0.0450752
0.466102 0.0991073 0.0450446
0.466667 0.0988479 0.0451667
0.468315 0.0987106 0.0454108
0.469718 0.0984207 0.0455634
0.471336 0.098085 0.0457465
0.47361 0.097612 0.0460059
0.475975 0.0969558 0.0462959
0.479637 0.0961624 0.0467689
0.482963 0.0953078 0.0472267
0.486259 0.0945296 0.0473793
0.488701 0.0940108 0.0476692
0.490318 0.093843 0.0479133
0.491279 0.0938888 0.0480812
0.491295 0.0939193 0.0481117
0.491157 0.0939498 0.0481117
0.491554 0.0940108 0.0481575
0.49305 0.0935531 0.0483253
0.495842 0.0927749 0.0484779
0.498878 0.0919509 0.0486152
0.500908 0.0913405 0.0487984
0.501625 0.0911574 0.0488441
0.501167 0.0912795 0.0487984
0.50074 0.0912337 0.0487831
0.500343 0.091371 0.0487221
0.499886 0.0915389 0.0486458
0.499718 0.0916915 0.0486305
0.497581 0.0924392 0.0485237
0.493751 0.0936446 0.0483406
0.0700389 0.0654307 0.0570993
0.0687266 0.0656443 0.0572976
0.06804 0.0656443 0.0574044
0.0679637 0.0655833 0.0574044
0.0680705 0.0653239 0.0573434
0.0686503 0.0649882 0.0574197
0.0699779 0.0644846 0.0575265
0.0713817 0.0640116 0.0576638
0.0745861 0.0648051 0.0578775
0.0803998 0.0652934 0.0578317
0.088365 0.0657969 0.0586404
0.0979324 0.0660563 0.0601053
0.107881 0.0653697 0.0611582
0.119295 0.06392 0.0616159
0.133043 0.0628824 0.0618601
0.147677 0.0611124 0.0610513
0.163577 0.0598764 0.0593118
0.181384 0.0590066 0.0572213
0.199603 0.0582437 0.0536202
0.221088 0.0580148 0.0505379
0.241367 0.057496 0.0473487
0.262119 0.056199 0.0442206
0.283116 0.0552834 0.0417029
0.305943 0.0555123 0.04065
0.329625 0.0564431 0.0398871
0.352651 0.056672 0.0391546
0.374823 0.0579843 0.0390021
0.394339 0.0598917 0.0393835
0.409964 0.0624552 0.039765
0.422782 0.0662699 0.0400397
0.432624 0.0712749 0.04065
0.446418 0.0832532 0.0424201
0.458244 0.0898604 0.0442206
0.467933 0.0949111 0.0455024
0.472557 0.0985885 0.045655
0.472404 0.101152 0.0459602
0.469947 0.101472 0.0457771
0.468757 0.101396 0.0456855
0.469093 0.100969 0.0456245
0.469612 0.100496 0.0455482
0.470466 0.100008 0.045594
0.471702 0.099443 0.045655
0.473289 0.0987869 0.045716
0.475303 0.098085 0.0459754
0.478172 0.0971084 0.0461891
0.481498 0.0961929 0.0466011
0.484245 0.0952773 0.0468452
0.486183 0.0945602 0.0469062
0.487068 0.0941787 0.0469215
0.487327 0.0941024 0.046952
0.48719 0.0941939 0.046952
0.487053 0.0942702 0.0469368
0.48719 0.0944228 0.0469978
0.487511 0.0945296 0.0470588
0.48835 0.0943618 0.0472114
0.490669 0.093843 0.0474403
0.494026 0.0930037 0.047715
0.496117 0.0925154 0.0477913
0.496849 0.0923018 0.0477913
0.496742 0.0923476 0.0477913
0.496437 0.0924544 0.047776
0.496132 0.0925154 0.0477302
0.495796 0.0926223 0.0476997
0.493629 0.0933547 0.0476539
0.489219 0.094789 0.047364
0.0727398 0.0741741 0.0598459
0.0714122 0.0743114 0.0598764
0.0707103 0.074464 0.060029
0.070634 0.0743725 0.060029
0.0706035 0.0743572 0.0600748
0.0712291 0.0740826 0.0601968
0.0726482 0.0735332 0.0603952
0.0740063 0.0729839 0.0604257
0.0763867 0.0728771 0.0606241
0.0810407 0.0737316 0.0609598
0.0883497 0.0737469 0.0603037
0.0988479 0.0741894 0.0614328
0.10988 0.073991 0.0623331
0.122698 0.0728161 0.0634775
0.138003 0.0710765 0.0644694
0.152804 0.0686351 0.0638895
0.170581 0.0669261 0.0627604
0.190219 0.0648814 0.0601358
0.209354 0.063386 0.0567636
0.230259 0.0628672 0.0535134
0.250065 0.0621805 0.0497597
0.270222 0.0630198 0.046952
0.289387 0.0624094 0.0432898
0.311269 0.0609903 0.0420539
0.330358 0.0594644 0.0406195
0.353674 0.0599069 0.0401617
0.374517 0.0601358 0.0394598
0.393896 0.062623 0.0400244
0.409903 0.0649729 0.0399939
0.422309 0.0678874 0.0398566
0.432334 0.0724498 0.0404669
0.444236 0.0798657 0.0416114
0.458244 0.0909285 0.0437476
0.469078 0.0964523 0.0456245
0.474556 0.100542 0.046067
0.475761 0.103365 0.0464637
0.473579 0.103624 0.0461433
0.472358 0.103655 0.0460365
0.472526 0.103304 0.0460212
0.473167 0.102953 0.0460365
0.473945 0.102541 0.0461433
0.475135 0.102037 0.0462196
0.476997 0.101442 0.0463264
0.479271 0.100649 0.0464637
0.481849 0.0998398 0.0467384
0.485145 0.0988174 0.0469673
0.488197 0.0978714 0.0472877
0.490288 0.0972763 0.0476081
0.491447 0.0969406 0.0476844
0.491814 0.0969406 0.047715
0.491661 0.0970169 0.0476997
0.491585 0.0971695 0.047715
0.491539 0.0973068 0.0476997
0.491417 0.0974289 0.0476997
0.491386 0.0975662 0.047715
0.492058 0.0974441 0.047776
0.49395 0.0970321 0.0479438
0.496681 0.0963302 0.0481727
0.498939 0.0957961 0.0483406
0.500267 0.0955673 0.0484474
0.500511 0.0955825 0.0484779
0.500435 0.0957656 0.0485084
0.500282 0.0959029 0.0485084
0.498131 0.0966659 0.0484169
0.494011 0.0980545 0.0480049
0.0748608 0.0831006 0.0621958
0.0734264 0.0833295 0.0620584
0.0726177 0.083299 0.062089
0.0725567 0.0833448 0.0621042
0.0724804 0.0832685 0.0621347
0.0727245 0.0831617 0.062211
0.0740673 0.0828565 0.0623941
0.0758373 0.0823377 0.0625772
0.0780041 0.0820325 0.0628519
0.0823224 0.0826276 0.0633707
0.0882277 0.0835126 0.0634012
0.0982681 0.0839399 0.0630198
0.11046 0.0835431 0.0634318
0.124743 0.0839551 0.064622
0.141146 0.0820935 0.0659953
0.159915 0.0793164 0.0673228
0.179461 0.0773785 0.0670176
0.199893 0.0752422 0.0647288
0.222019 0.0735027 0.0623178
0.243854 0.0719463 0.0583047
0.264088 0.0715038 0.0546731
0.282948 0.0708629 0.051194
0.301778 0.0706951 0.0473487
0.320653 0.0712444 0.0445869
0.339879 0.06804 0.0417334
0.358877 0.0665141 0.0410315
0.377035 0.0658274 0.0401465
0.394965 0.066453 0.0400397
0.409842 0.067628 0.0403754
0.423209 0.0706645 0.0406043
0.432212 0.074876 0.0402838
0.443641 0.0805829 0.0411536
0.458366 0.0919509 0.0437018
0.469474 0.0977493 0.0454261
0.47718 0.10248 0.0464485
0.479179 0.10547 0.0468605
0.477134 0.105913 0.0466773
0.476143 0.10605 0.0465553
0.476249 0.105837 0.0465705
0.476692 0.105577 0.0466163
0.477501 0.105211 0.0466926
0.478843 0.104738 0.0468299
0.480797 0.104097 0.0470283
0.482872 0.103441 0.0473335
0.485969 0.102571 0.0475319
0.489128 0.101656 0.0478828
0.492332 0.100771 0.0481117
0.494743 0.100145 0.048188
0.49601 0.0998856 0.048249
0.496345 0.0998856 0.0482948
0.496315 0.100023 0.0483101
0.4963 0.10016 0.0483253
0.496193 0.100252 0.0483253
0.496178 0.100404 0.0483406
0.496086 0.100481 0.0483253
0.49604 0.100557 0.0483101
0.496391 0.100557 0.0483253
0.497444 0.100298 0.0484321
0.499947 0.0996414 0.0485389
0.502617 0.098909 0.0487068
0.504021 0.098558 0.0488594
0.504311 0.0985275 0.0488899
0.504204 0.0986343 0.0488289
0.502022 0.099382 0.0485389
0.497597 0.10074 0.0483406
0.0770275 0.0934615 0.0646677
0.0755322 0.0934157 0.0644083
0.074815 0.0935073 0.0641947
0.0747082 0.0933089 0.0641489
0.0746166 0.0932784 0.0641642
0.0744945 0.0932174 0.0641947
0.0754253 0.092958 0.0644236
0.0775158 0.0928206 0.0647135
0.0796826 0.0922408 0.0649119
0.0834058 0.0923018 0.0655528
0.089128 0.0936904 0.0662242
0.097322 0.0946517 0.0661479
0.109453 0.0949264 0.0651865
0.12549 0.0948806 0.0666209
0.143084 0.0953078 0.0677195
0.164324 0.0930648 0.0698558
0.187808 0.0887922 0.0708629
0.211276 0.0869764 0.0704509
0.233936 0.0848096 0.0676738
0.257496 0.0842298 0.0649729
0.277363 0.0829023 0.0613413
0.298573 0.0828565 0.05832
0.318425 0.0827955 0.0544137
0.337377 0.0827955 0.0508431
0.356023 0.0831006 0.0475624
0.371878 0.0822919 0.0442969
0.389212 0.0803388 0.0432593
0.403723 0.0772564 0.0426032
0.415198 0.0752728 0.0410163
0.424811 0.0757153 0.04094
0.433371 0.0780194 0.0408637
0.443366 0.082063 0.0408026
0.455833 0.0892348 0.0424811
0.469795 0.0991836 0.0450294
0.479271 0.10457 0.0466926
0.481361 0.107103 0.0465553
0.480568 0.107958 0.0465553
0.479576 0.108049 0.0464942
0.479713 0.107912 0.046479
0.48011 0.107683 0.0464637
0.480995 0.107408 0.0465248
0.481941 0.107057 0.0467384
0.483772 0.106538 0.0469673
0.486366 0.105852 0.0472419
0.48925 0.105058 0.0476539
0.492882 0.104128 0.0480201
0.496254 0.103197 0.0482795
0.498543 0.102663 0.0484932
0.499947 0.102342 0.0485847
0.500496 0.102342 0.0486458
0.500603 0.10251 0.048661
