bundles/resolve-cinematic-luts/Phantom Luts/Komodo Phantom FILM LUTs G2/Komodo Phantom FILM LUTs G2/65x/WB Offset - Green Boost/EastmanRM_Komodo_WBO_G2_65x.cube
TITLE "Generated by Resolve"
LUT_3D_SIZE 9
0.0461585 0.0408331 0.0415656
0.0717784 0.0375525 0.0392615
0.180865 0.0316472 0.0438544
0.374609 0.0297246 0.0585489
0.520348 0.0310521 0.0920882
0.536629 0.0388952 0.125948
0.553262 0.0394141 0.123278
0.554955 0.0401617 0.12723
0.548821 0.0412909 0.135149
0.0500191 0.0654765 0.043473
0.0565194 0.0639963 0.0448157
0.183932 0.0456397 0.0425727
0.38172 0.0300603 0.0515145
0.49604 0.0334478 0.0847334
0.522484 0.0370794 0.0983749
0.5308 0.0375525 0.111391
0.540063 0.0370336 0.108782
0.537346 0.0374456 0.112566
0.0610971 0.190768 0.0559854
0.0610513 0.192157 0.0525521
0.199161 0.215946 0.0606241
0.503853 0.185992 0.0879988
0.545998 0.0747539 0.0845045
0.525093 0.0408789 0.092607
0.529198 0.0402686 0.0895705
0.529366 0.0403143 0.0893873
0.522286 0.0413672 0.0943923
0.0539406 0.432837 0.0547494
0.0554513 0.437583 0.0429084
0.098146 0.453376 0.0450752
0.544915 0.570977 0.108598
0.789181 0.589059 0.234531
0.825895 0.589609 0.259739
0.827375 0.576562 0.249744
0.832654 0.580804 0.24387
0.828672 0.598123 0.262257
0.175463 0.640055 0.192126
0.204868 0.643122 0.168643
0.249958 0.653498 0.159701
0.498589 0.736934 0.219333
0.811139 0.849088 0.396445
0.895521 0.852766 0.465736
0.895476 0.853422 0.466285
0.895659 0.856672 0.469657
0.895842 0.861448 0.474418
0.230365 0.707912 0.335271
0.23061 0.706691 0.330907
0.231098 0.705165 0.324208
0.34966 0.708583 0.241245
0.782666 0.879652 0.448615
0.896437 0.908705 0.544762
0.898436 0.90959 0.554162
0.898436 0.90959 0.554162
0.897642 0.909819 0.558175
0.230411 0.708537 0.338384
0.230732 0.707179 0.332555
0.233692 0.704189 0.319142
0.346303 0.706935 0.236912
0.779171 0.878492 0.445914
0.893477 0.908446 0.540047
0.898436 0.90959 0.554162
0.898436 0.90959 0.554162
0.898436 0.90959 0.554162
0.232624 0.707759 0.334264
0.230381 0.707393 0.333349
0.233356 0.704295 0.319661
0.385779 0.719417 0.247395
0.795209 0.883879 0.45623
0.896941 0.908125 0.536294
0.901274 0.908644 0.543908
0.901274 0.908644 0.543908
0.901274 0.908644 0.543908
0.23949 0.705242 0.322286
0.236316 0.705043 0.322286
0.23714 0.703059 0.31342
0.447745 0.742931 0.260395
0.819593 0.890867 0.45803
0.897734 0.908919 0.547616
0.901274 0.908644 0.543908
0.901274 0.908644 0.543908
0.901274 0.908644 0.543908
0.0441291 0.0426337 0.0497444
0.0623178 0.04271 0.0537881
0.17142 0.0428626 0.0647898
0.368643 0.0353094 0.0843671
0.513527 0.0341802 0.118364
0.535836 0.0438697 0.153887
0.547387 0.044358 0.153063
0.54873 0.0452125 0.15639
0.544594 0.0461433 0.162982
0.0480354 0.0583658 0.0507668
0.0525673 0.0550393 0.0508583
0.170184 0.036347 0.0509346
0.373892 0.0324559 0.072221
0.510384 0.0343023 0.113283
0.533989 0.0400854 0.133028
0.537911 0.0418555 0.140749
0.547631 0.0415045 0.136965
0.544167 0.0422522 0.142
0.0589151 0.189334 0.0798047
0.0581064 0.188983 0.0624094
0.188586 0.208759 0.0612039
0.488106 0.161044 0.0821088
0.51812 0.0496071 0.0805371
0.520623 0.0401617 0.0959487
0.520943 0.0397803 0.0951858
0.521019 0.0398108 0.0951095
0.517067 0.0404822 0.098497
0.0525368 0.434836 0.0784619
0.0535897 0.43772 0.0593271
0.0765698 0.445396 0.0435492
0.544289 0.568063 0.107897
0.790448 0.58056 0.234043
0.825925 0.575784 0.251698
0.827939 0.560632 0.240818
0.83238 0.565835 0.237308
0.826719 0.582406 0.254017
0.155871 0.643595 0.227939
0.177401 0.643351 0.200443
0.249287 0.653208 0.159426
0.480812 0.729137 0.211246
0.810849 0.848585 0.395621
0.895689 0.850828 0.464286
0.895705 0.850874 0.464378
0.895521 0.854047 0.467155
0.896132 0.858717 0.470939
0.230457 0.70901 0.340597
0.230381 0.708141 0.3364
0.231022 0.705425 0.325017
0.313817 0.699367 0.236286
0.778134 0.878172 0.445594
0.896178 0.908675 0.544152
0.898436 0.90959 0.554162
0.898436 0.90959 0.554162
0.897658 0.909834 0.55819
0.230457 0.709667 0.343008
0.230442 0.708766 0.339467
0.233371 0.704707 0.321645
0.30251 0.696696 0.232486
0.772091 0.876356 0.441733
0.892164 0.908309 0.538064
0.898436 0.90959 0.554162
0.898436 0.90959 0.554162
0.898436 0.90959 0.554162
0.232975 0.709453 0.341512
0.230457 0.708995 0.340566
0.233356 0.704616 0.321218
0.344961 0.706645 0.236728
0.788022 0.881132 0.451408
0.89366 0.908476 0.540383
0.901274 0.908644 0.543908
0.901274 0.908644 0.543908
0.901259 0.908629 0.543908
0.239734 0.708324 0.334813
0.235996 0.706828 0.330236
0.237079 0.703212 0.314275
0.409689 0.72752 0.244999
0.813825 0.888212 0.454139
0.896666 0.908721 0.545129
0.901274 0.908644 0.543908
0.901274 0.908644 0.543908
0.901259 0.908629 0.543908
0.0411994 0.0569009 0.101534
0.0553292 0.0472267 0.122271
0.179095 0.0508431 0.135454
0.386328 0.0497139 0.134768
0.537133 0.0466468 0.17055
0.559976 0.0606851 0.215946
0.56936 0.0686809 0.233616
0.584558 0.0726787 0.23534
0.585168 0.0781415 0.24802
0.0407111 0.0665293 0.0947127
0.0420844 0.0562142 0.111772
0.179644 0.0510567 0.13753
0.39585 0.0504921 0.134218
0.533669 0.0452583 0.169009
0.551141 0.0563973 0.20737
0.568429 0.0611887 0.21323
0.582834 0.0630198 0.211322
0.581857 0.067277 0.222446
0.0571908 0.173327 0.131685
0.0557412 0.174029 0.134447
0.193256 0.196323 0.161532
0.477836 0.107958 0.12987
0.53138 0.0425269 0.133227
0.526284 0.0414893 0.142153
0.536583 0.0419165 0.141314
0.538033 0.0423896 0.144442
0.534508 0.0430915 0.149096
0.0528725 0.436881 0.169635
0.0510567 0.441062 0.157107
0.0525063 0.428779 0.074464
0.529458 0.553445 0.106096
0.790509 0.542306 0.218753
0.824674 0.518532 0.229801
0.826719 0.500145 0.221149
0.828519 0.503487 0.221134
0.823026 0.517739 0.231724
0.134661 0.657877 0.320943
0.140887 0.656107 0.302342
0.162768 0.641443 0.213092
0.410346 0.697215 0.176425
0.803967 0.841596 0.385229
0.894682 0.841443 0.455726
0.894835 0.840085 0.454963
0.895033 0.842603 0.45716
0.896895 0.846448 0.455665
0.23212 0.726101 0.403159
0.230381 0.719387 0.378347
0.230426 0.70869 0.339101
0.239551 0.694255 0.269444
0.757412 0.871733 0.432486
0.893797 0.908461 0.540505
0.898436 0.909606 0.554177
0.898436 0.90959 0.554162
0.897642 0.909819 0.558175
0.235447 0.734249 0.433265
0.232715 0.727779 0.411002
0.230442 0.7093 0.341588
0.236728 0.696941 0.286275
0.74435 0.867842 0.425315
0.887083 0.908217 0.531304
0.898436 0.90959 0.554162
0.898436 0.90959 0.554162
0.898436 0.90959 0.554162
0.240574 0.738109 0.446555
0.234974 0.733181 0.429374
0.230472 0.709773 0.343435
0.241642 0.694255 0.268635
0.759472 0.872496 0.434028
0.887648 0.908217 0.531884
0.898436 0.90959 0.554147
0.901274 0.908644 0.543908
0.901274 0.908644 0.543908
0.249302 0.739208 0.449439
0.241337 0.734051 0.432654
0.235966 0.707851 0.334112
0.270771 0.692699 0.238727
0.787442 0.880125 0.437385
0.890379 0.908354 0.535622
0.898436 0.90959 0.554162
0.901274 0.908644 0.543908
0.901274 0.908644 0.543908
0.041001 0.0767529 0.204364
0.0499275 0.0689708 0.23035
0.15581 0.054902 0.287572
0.396887 0.0602274 0.314137
0.535515 0.0633249 0.300847
0.563668 0.0856031 0.340154
0.565484 0.0894942 0.352529
0.566918 0.0923629 0.360571
0.571603 0.0929274 0.362036
0.041825 0.0990463 0.20827
0.0417639 0.076936 0.226902
0.138338 0.0544747 0.299123
0.411551 0.0614939 0.329641
0.54287 0.0687724 0.311818
0.563729 0.0881819 0.34818
0.564935 0.0915236 0.359319
0.574731 0.0918898 0.357107
0.581384 0.0916762 0.35697
0.0426337 0.161944 0.213474
0.0422217 0.157046 0.222934
0.0634623 0.108278 0.287373
0.424903 0.0726482 0.323781
0.544366 0.0683299 0.298756
0.564202 0.0854963 0.330083
0.559365 0.0835431 0.334691
0.567468 0.0835584 0.331441
0.573083 0.084123 0.331029
0.0533913 0.416846 0.331777
0.0517433 0.422889 0.340307
0.0517433 0.420935 0.336583
0.501274 0.511482 0.454826
0.803235 0.422248 0.442512
0.85359 0.343008 0.430777
0.845335 0.323903 0.430167
0.852125 0.32224 0.425498
0.847822 0.33669 0.441367
0.125063 0.673167 0.461967
0.128557 0.675929 0.459922
0.128618 0.673716 0.43621
0.147951 0.634333 0.243183
0.749126 0.799084 0.390478
0.896086 0.808209 0.44535
0.894453 0.803174 0.440314
0.899077 0.80296 0.434287
0.900023 0.806836 0.446677
0.237736 0.752209 0.513664
0.237903 0.751202 0.508629
0.240162 0.747051 0.485283
0.233005 0.70985 0.343236
0.689143 0.848493 0.394827
0.88777 0.908248 0.53228
0.898589 0.909758 0.556085
0.898497 0.909667 0.554757
0.897719 0.909895 0.558816
0.237049 0.75613 0.533272
0.237263 0.754971 0.527642
0.238087 0.749874 0.501015
0.230442 0.713512 0.358022
0.64593 0.831342 0.371817
0.871077 0.906722 0.514443
0.898344 0.909529 0.553323
0.898405 0.90959 0.554055
0.898405 0.909575 0.554025
0.239658 0.75761 0.543206
0.236866 0.757382 0.541085
0.237812 0.752148 0.513268
0.230289 0.718242 0.37435
0.658381 0.836576 0.378729
0.868772 0.906477 0.512337
0.898146 0.909346 0.55111
0.898436 0.909545 0.553796
0.901213 0.908598 0.543694
0.246296 0.758129 0.548241
0.243046 0.757748 0.54548
0.242344 0.752468 0.517372
0.235996 0.719493 0.37882
0.700984 0.852277 0.388373
0.872984 0.907027 0.516762
0.898085 0.909285 0.550546
0.898421 0.909529 0.553613
0.901213 0.908583 0.543496
0.0419318 0.0962539 0.338567
0.0432136 0.0856794 0.351415
0.1028 0.0706798 0.411231
0.374289 0.0718395 0.46537
0.569345 0.124086 0.502098
0.607935 0.138811 0.519478
0.62005 0.150256 0.541985
0.625025 0.155337 0.55314
0.626688 0.15819 0.560555
0.0420844 0.115419 0.351202
0.0420233 0.0962692 0.351644
0.0941787 0.0843671 0.410697
0.383749 0.0750591 0.477958
0.583429 0.133227 0.517235
0.620569 0.149783 0.540536
0.629419 0.157321 0.556558
0.631312 0.15996 0.563485
0.636042 0.160098 0.564095
0.0421912 0.156725 0.366796
0.0422675 0.152239 0.372137
0.0424964 0.0890516 0.362173
0.359731 0.0723583 0.473732
0.588418 0.134432 0.518441
0.615427 0.147204 0.536538
0.623285 0.154376 0.550072
0.626871 0.157656 0.557961
0.630671 0.157916 0.558968
0.0437781 0.401068 0.459083
0.0437934 0.403571 0.465599
0.0434577 0.387808 0.470298
0.293492 0.34023 0.598047
0.809735 0.377997 0.733501
0.795804 0.286366 0.672572
0.768277 0.257572 0.64625
0.76669 0.25771 0.649104
0.780652 0.272007 0.665522
0.109636 0.640986 0.555138
0.107759 0.644785 0.562203
0.107897 0.645289 0.561502
0.108186 0.642649 0.555947
0.719249 0.754116 0.709026
0.875608 0.72575 0.690776
0.876692 0.716777 0.688472
0.876844 0.71931 0.694133
0.877317 0.726223 0.69984
0.23653 0.760204 0.602914
0.2392 0.761196 0.602213
0.235767 0.75938 0.595193
0.229374 0.753429 0.570764
0.54551 0.797711 0.562097
0.866407 0.913329 0.733761
0.90869 0.919493 0.748379
0.909468 0.918334 0.756985
0.91017 0.919417 0.762646
0.242069 0.768582 0.627955
0.241901 0.768521 0.626459
0.240986 0.767971 0.616022
0.238926 0.764279 0.582101
0.342031 0.746517 0.420981
0.851667 0.906096 0.532403
0.89868 0.908751 0.545785
0.898878 0.909117 0.549294
0.897673 0.909499 0.553491
0.2439 0.768856 0.638895
0.242786 0.769009 0.637644
0.241901 0.768536 0.625528
0.23946 0.765316 0.588983
0.359777 0.755398 0.451133
0.838911 0.906538 0.58468
0.897139 0.908919 0.54815
0.897658 0.909483 0.553445
0.897734 0.909468 0.552743
0.246052 0.768887 0.6477
0.24683 0.768643 0.64448
0.2448 0.768353 0.631907
0.241535 0.765713 0.592966
0.428779 0.77319 0.494911
0.841947 0.909789 0.637766
0.897108 0.908858 0.547601
0.897642 0.909468 0.553002
0.897734 0.909422 0.552254
0.042237 0.100725 0.387152
0.0426337 0.0953689 0.401816
0.0842145 0.100481 0.453086
0.299031 0.0836347 0.519799
0.557641 0.145708 0.580346
0.630442 0.173175 0.607645
0.630518 0.173144 0.607584
0.630503 0.173159 0.607614
0.629801 0.173327 0.608133
0.0421759 0.112444 0.383734
0.0422522 0.0976272 0.389868
0.0774243 0.0999771 0.448783
0.316335 0.0862135 0.522866
0.577569 0.154025 0.588373
0.630121 0.173236 0.607874
0.630594 0.173129 0.607523
0.630564 0.173144 0.607553
0.630503 0.173159 0.607599
0.0426032 0.161807 0.430823
0.0424811 0.151919 0.423468
0.0425727 0.0957046 0.401144
0.279622 0.0813916 0.515572
0.57644 0.153475 0.587686
0.629801 0.173327 0.608133
0.630411 0.173175 0.607675
0.630625 0.173129 0.607492
0.630808 0.173083 0.607385
0.0444953 0.3299 0.502281
0.0445411 0.327428 0.503304
0.0443122 0.297932 0.49366
0.131395 0.186481 0.545251
0.647944 0.233219 0.706722
0.681514 0.213428 0.658976
0.642161 0.182147 0.617548
0.661173 0.196902 0.637812
0.679042 0.211841 0.657237
0.0858473 0.606424 0.608316
0.0849317 0.608347 0.611963
0.0832227 0.604852 0.611887
0.0747845 0.586648 0.609537
0.603082 0.643946 0.787213
0.891569 0.695735 0.852155
0.894514 0.688655 0.848783
0.894789 0.6916 0.84889
0.89134 0.699489 0.85275
0.19765 0.733104 0.658885
0.20322 0.732738 0.655421
0.195102 0.725872 0.647639
0.188769 0.720378 0.642054
0.443534 0.794141 0.725551
0.85391 0.892699 0.856214
0.899794 0.898268 0.863737
0.900023 0.897368 0.863737
0.899702 0.899886 0.866926
0.245945 0.768048 0.689754
0.249332 0.76733 0.686778
0.251728 0.7673 0.679881
0.251057 0.768093 0.665827
0.264118 0.781399 0.66244
0.827298 0.915694 0.828641
0.902281 0.94583 0.880995
0.906432 0.947478 0.885161
0.90605 0.948104 0.889128
0.24625 0.766949 0.695964
0.245823 0.767269 0.695491
0.245899 0.768048 0.68957
0.245686 0.769116 0.673091
0.26685 0.782788 0.66685
0.819745 0.912947 0.824155
0.894026 0.94078 0.861082
0.904814 0.931517 0.754086
0.903288 0.92932 0.732708
0.245731 0.765896 0.700725
0.246754 0.766262 0.699062
0.246983 0.767285 0.692775
0.246815 0.768734 0.674998
0.272908 0.785321 0.674388
0.829892 0.918029 0.8383
0.893889 0.942077 0.872847
0.903502 0.942718 0.853788
0.90312 0.937896 0.810819
0.0430457 0.0958267 0.406012
0.0484474 0.0960555 0.420951
0.104692 0.0983139 0.465965
0.32781 0.0878462 0.524987
0.574884 0.152895 0.58703
0.630472 0.173159 0.60763
0.630518 0.173159 0.607584
0.630503 0.173159 0.607614
0.629801 0.173312 0.608118
0.0422522 0.0974441 0.389975
0.0439002 0.0959945 0.409857
0.0988632 0.101656 0.46099
0.341054 0.0890211 0.526894
0.592203 0.160037 0.593973
0.630106 0.173251 0.607904
0.630579 0.173144 0.607553
0.630533 0.173159 0.607584
0.630716 0.173114 0.607446
0.0426337 0.154711 0.426368
0.0424201 0.132006 0.405966
0.0466163 0.0956741 0.415839
0.302586 0.0838026 0.519112
0.58674 0.157824 0.591928
0.629801 0.173312 0.608118
0.630335 0.17319 0.607736
0.630396 0.17319 0.607691
0.630793 0.173083 0.607401
0.0437171 0.274434 0.48455
0.0437171 0.274388 0.484459
0.0433051 0.249958 0.471351
0.107881 0.135027 0.499153
0.562905 0.167987 0.618784
0.632074 0.174884 0.60972
0.632532 0.17496 0.609766
0.632303 0.175128 0.610086
0.63212 0.17554 0.610895
0.0788739 0.589624 0.623972
0.0793774 0.591821 0.62504
0.0802014 0.587732 0.62031
0.0717174 0.567727 0.614588
0.559915 0.586938 0.78262
0.882612 0.660792 0.87744
0.888136 0.65626 0.877623
0.887999 0.660349 0.877424
0.886854 0.668284 0.878111
0.17052 0.698909 0.670359
0.169055 0.699046 0.670756
0.167773 0.697169 0.670802
0.154894 0.684962 0.665644
0.253529 0.722087 0.715648
0.824445 0.8598 0.878019
0.901457 0.876921 0.88748
0.901732 0.877333 0.886778
0.898512 0.881437 0.890593
0.238453 0.763119 0.705959
0.240482 0.762692 0.704662
0.24445 0.761898 0.701518
0.245884 0.762249 0.700923
0.264042 0.776455 0.70898
0.785336 0.907897 0.86392
0.899779 0.941375 0.90573
0.906371 0.944198 0.907881
0.906081 0.944289 0.908431
0.239033 0.762997 0.705531
0.238453 0.763119 0.705959
0.238453 0.763119 0.705959
0.241535 0.763851 0.70454
0.267567 0.779568 0.707576
0.59617 0.868391 0.795895
0.903563 0.948959 0.90779
0.915541 0.955154 0.916777
0.915465 0.955871 0.918868
0.239078 0.762997 0.705501
0.239643 0.762875 0.705135
0.239643 0.762875 0.705135
0.242756 0.763607 0.703792
0.27216 0.781247 0.708721
0.65684 0.883986 0.81828
0.902571 0.949386 0.909224
0.913695 0.954955 0.91722
0.915587 0.955947 0.919005
0.0459144 0.0957504 0.416236
0.0547494 0.0958877 0.429282
0.112032 0.091249 0.473701
0.343282 0.0892958 0.527276
0.584802 0.156725 0.591165
0.630472 0.173159 0.60763
0.630503 0.173159 0.607599
0.630503 0.173159 0.607614
0.629801 0.173312 0.608118
0.0423896 0.0956588 0.399542
0.0469368 0.0958114 0.418006
0.10605 0.0968032 0.467613
0.354772 0.0908217 0.529351
0.599435 0.162799 0.597025
0.630106 0.173251 0.607904
0.63061 0.173129 0.607523
0.630518 0.173144 0.607584
0.630823 0.173083 0.60737
0.0426337 0.147112 0.420661
0.0423896 0.12372 0.397208
0.0500496 0.0959182 0.421714
0.315053 0.0856641 0.521355
0.593317 0.160494 0.594385
0.629801 0.173312 0.608133
0.630335 0.17319 0.607721
0.630411 0.173175 0.607675
0.6309 0.173068 0.607309
0.0433967 0.256947 0.475761
0.0433509 0.257328 0.475654
0.0432136 0.234333 0.464317
0.0988632 0.120958 0.482139
0.534524 0.145525 0.58761
0.631785 0.174517 0.6094
0.632074 0.174609 0.60943
0.631922 0.174807 0.609689
0.631708 0.175128 0.610254
0.0774853 0.586374 0.622461
0.0776989 0.58854 0.623728
0.0789654 0.584436 0.619806
0.0690776 0.562478 0.612848
0.557458 0.576516 0.781598
0.88217 0.652537 0.877302
0.888014 0.648249 0.877119
0.888106 0.652873 0.877241
0.886732 0.66186 0.877882
0.166262 0.694697 0.668284
0.168704 0.698665 0.67126
0.16347 0.693507 0.669383
0.153201 0.682155 0.664942
0.262989 0.720363 0.718471
0.818875 0.851164 0.877119
0.899825 0.867903 0.887816
0.900145 0.868727 0.8878
0.897063 0.873243 0.891798
0.238453 0.763119 0.705959
0.240009 0.762783 0.704936
0.244465 0.761898 0.701488
0.244404 0.761898 0.70161
0.237888 0.763577 0.708431
0.723033 0.88426 0.851713
0.895216 0.934768 0.907347
0.906386 0.9411 0.912154
0.906142 0.94139 0.912566
0.239033 0.762997 0.705531
0.238453 0.763119 0.705959
0.238453 0.763119 0.705959
0.238453 0.763119 0.705959
0.259098 0.777005 0.717433
0.287541 0.789334 0.725368
0.895415 0.945708 0.908385
0.914595 0.954147 0.918883
0.914687 0.954864 0.920638
0.239109 0.762982 0.705486
0.239643 0.762875 0.705135
0.239643 0.762875 0.705135
0.239643 0.762875 0.705135
0.262882 0.778973 0.7178
0.330983 0.799146 0.73608
0.892515 0.946212 0.90869
0.915679 0.956268 0.921859
0.917388 0.957626 0.924102
0.0475776 0.0958877 0.419638
0.0583658 0.0960098 0.432197
0.116365 0.0877394 0.477958
0.352346 0.0906233 0.529061
0.590585 0.15938 0.593347
0.630488 0.173159 0.607614
0.630503 0.173159 0.607599
0.630503 0.173159 0.607614
0.629816 0.173312 0.608118
0.0426947 0.0956893 0.403265
0.0482643 0.0960403 0.420752
0.109621 0.0936904 0.471061
0.362554 0.0919051 0.530739
0.604196 0.164782 0.599115
0.630106 0.173251 0.607889
0.630594 0.173129 0.607523
0.630518 0.173159 0.607584
0.630884 0.173068 0.607324
0.0424811 0.144411 0.418235
0.0422675 0.121157 0.39382
0.0517891 0.095964 0.42446
0.322484 0.0868391 0.522881
0.597253 0.162051 0.596109
0.629801 0.173312 0.608118
0.630335 0.17319 0.607721
0.630411 0.173175 0.607675
0.630945 0.173053 0.607294
0.043534 0.254963 0.475105
0.0435187 0.254505 0.474525
0.043183 0.231952 0.463004
0.101076 0.119783 0.481849
0.530297 0.141085 0.581643
0.631754 0.174456 0.609339
0.632044 0.174578 0.6094
0.631891 0.174792 0.609659
0.631708 0.175097 0.610178
0.0775311 0.586557 0.622477
0.0779126 0.588907 0.623941
0.079118 0.584726 0.619944
0.0688487 0.561913 0.612726
0.560983 0.576638 0.782879
0.882185 0.652766 0.877272
0.887785 0.648508 0.87689
0.888151 0.653468 0.877302
0.886702 0.66244 0.877882
0.165957 0.694438 0.668132
0.170474 0.700252 0.671992
0.162661 0.692973 0.66865
0.152712 0.681575 0.664897
0.272053 0.720821 0.720409
0.819684 0.850523 0.877531
0.89987 0.867338 0.887831
0.900008 0.867704 0.887678
0.89688 0.87219 0.891524
0.238453 0.763119 0.705959
0.239963 0.762798 0.704952
0.244465 0.761898 0.701488
0.244388 0.761898 0.70161
0.233097 0.759701 0.70602
0.733455 0.885908 0.855009
0.894392 0.933745 0.907164
0.905699 0.93991 0.912047
0.905425 0.940322 0.912367
0.238453 0.763119 0.705959
0.238453 0.763119 0.705959
0.238453 0.763119 0.705959
0.238453 0.763119 0.705959
0.259373 0.777264 0.717601
0.280873 0.788403 0.726116
0.890043 0.94255 0.907591
0.913024 0.953216 0.918486
0.913893 0.954543 0.920424
0.238453 0.763119 0.705959
0.238453 0.763119 0.705959
0.238453 0.763119 0.705959
0.238453 0.763119 0.705959
0.262211 0.779507 0.718914
0.296468 0.79176 0.731243
0.876341 0.94049 0.904158
0.915129 0.956115 0.92224
0.91751 0.958022 0.924712
