bundles/resolve-cinematic-luts/Phantom Luts/Komodo Phantom FILM LUTs G2/Komodo Phantom FILM LUTs G2/65x/WB Offset - Green Boost/Eastman_Komodo_WBO_Legacy_G2_65x.cube
TITLE "Generated by Resolve"
LUT_3D_SIZE 9
0.056199 0.0403601 0.0475471
0.0694438 0.0419318 0.0501717
0.157382 0.0396124 0.0510719
0.334249 0.0460822 0.0422675
0.482902 0.0626688 0.0484016
0.506798 0.0812238 0.0597848
0.51603 0.0717784 0.0648051
0.527352 0.0555276 0.0649882
0.517098 0.0530404 0.0655985
0.0652171 0.0588083 0.0553292
0.0701457 0.058732 0.0562142
0.156115 0.0549783 0.0565042
0.330404 0.0540627 0.0394446
0.457938 0.0886397 0.0443427
0.469718 0.0984207 0.0455634
0.490318 0.093843 0.0479133
0.500908 0.0913405 0.0487984
0.493751 0.0936446 0.0483406
0.087953 0.156619 0.076936
0.0858778 0.157153 0.0747539
0.187549 0.179477 0.0861677
0.45478 0.17789 0.104356
0.553384 0.172686 0.0842451
0.517937 0.136385 0.0522469
0.533989 0.126406 0.0522316
0.551247 0.141146 0.0607767
0.54815 0.15201 0.0626688
0.11429 0.411566 0.120623
0.114015 0.415457 0.106035
0.157946 0.428565 0.108415
0.496574 0.515694 0.143725
0.714504 0.550134 0.177096
0.768017 0.576028 0.186572
0.780468 0.585428 0.186328
0.792035 0.59649 0.185885
0.782589 0.608362 0.19266
0.161318 0.614923 0.198108
0.174228 0.622339 0.180545
0.193057 0.634043 0.173465
0.508324 0.715953 0.224247
0.745266 0.802121 0.2934
0.8392 0.81239 0.326925
0.840269 0.817884 0.331594
0.840955 0.823163 0.335546
0.841703 0.825238 0.337285
0.172534 0.672206 0.282902
0.172412 0.67129 0.277119
0.172427 0.670512 0.272755
0.374914 0.700481 0.223682
0.732296 0.835431 0.331777
0.84152 0.853941 0.37261
0.845365 0.854383 0.379858
0.845258 0.854414 0.37995
0.842466 0.854856 0.383169
0.172519 0.672557 0.285145
0.172442 0.671397 0.277714
0.172854 0.670466 0.270802
0.408118 0.712627 0.228077
0.741314 0.837186 0.328756
0.843305 0.8533 0.366857
0.849149 0.853788 0.375357
0.84921 0.853773 0.375296
0.849256 0.853773 0.375235
0.17406 0.672297 0.277485
0.172442 0.671412 0.277897
0.172656 0.670497 0.271687
0.411185 0.713878 0.229145
0.738079 0.836271 0.32784
0.84007 0.853193 0.364416
0.855253 0.852796 0.368368
0.864591 0.85127 0.357961
0.863645 0.851408 0.359091
0.177218 0.67187 0.260365
0.175769 0.671 0.261616
0.176074 0.670222 0.255924
0.393896 0.708354 0.212528
0.740734 0.832807 0.311437
0.835996 0.853346 0.363577
0.852949 0.853147 0.370932
0.864271 0.851316 0.358358
0.863264 0.851484 0.359487
0.0531624 0.0426032 0.0550546
0.0696422 0.0443427 0.0603647
0.158099 0.0477913 0.0696422
0.333989 0.0394293 0.0498054
0.477546 0.0521096 0.0563363
0.504326 0.0432746 0.0756847
0.512306 0.0449378 0.0988479
0.523522 0.0455329 0.11458
0.519249 0.049546 0.123796
0.0609293 0.0548867 0.0586099
0.0648966 0.054139 0.0598917
0.154147 0.04477 0.0556802
0.327871 0.0505074 0.0424811
0.467857 0.0696727 0.0477302
0.494957 0.0829023 0.0601816
0.509438 0.0698558 0.0653086
0.516258 0.054551 0.0644236
0.511116 0.0537575 0.0663005
0.0853895 0.152422 0.0892805
0.0817578 0.151781 0.0798199
0.176761 0.171695 0.0842145
0.439414 0.160357 0.0942092
0.518013 0.148196 0.0637064
0.501549 0.123705 0.0484169
0.512856 0.117723 0.0496681
0.511742 0.116869 0.0481575
0.511559 0.123934 0.0484016
0.115251 0.411048 0.145739
0.114092 0.411109 0.126009
0.138949 0.419211 0.105577
0.493828 0.510979 0.142519
0.715068 0.540124 0.175784
0.765606 0.560433 0.184222
0.780377 0.569238 0.181506
0.788113 0.582238 0.181659
0.777951 0.593469 0.188342
0.151034 0.611505 0.231937
0.158923 0.612055 0.201938
0.191333 0.629541 0.170947
0.48835 0.705821 0.216861
0.741207 0.798108 0.290257
0.83801 0.806714 0.322621
0.839338 0.811795 0.326421
0.840192 0.816175 0.330083
0.840711 0.81767 0.330938
0.172503 0.673198 0.288808
0.172519 0.672358 0.28394
0.172427 0.670512 0.272755
0.336965 0.688655 0.214435
0.724132 0.832578 0.329732
0.840085 0.853895 0.37145
0.845533 0.854353 0.379705
0.845426 0.854368 0.379797
0.842466 0.854856 0.383169
0.17319 0.676005 0.30042
0.172519 0.672755 0.286076
0.172778 0.670481 0.271092
0.357137 0.695079 0.214221
0.73051 0.833356 0.325917
0.839338 0.853254 0.363851
0.849241 0.853773 0.375235
0.849195 0.853773 0.375311
0.849165 0.853788 0.375357
0.175326 0.679042 0.306538
0.172519 0.672923 0.287022
0.172656 0.670497 0.271656
0.355077 0.694408 0.213672
0.724315 0.831235 0.3243
0.834791 0.853223 0.361822
0.854383 0.852934 0.368887
0.864713 0.851255 0.357794
0.863874 0.851377 0.358877
0.177691 0.678447 0.290455
0.175647 0.67219 0.270222
0.176135 0.670222 0.255558
0.340261 0.691005 0.196689
0.728252 0.828321 0.307576
0.830762 0.852995 0.360174
0.853574 0.85301 0.369543
0.864393 0.851301 0.358206
0.863447 0.851453 0.359319
0.0488594 0.0514839 0.0947127
0.0672313 0.0497597 0.108705
0.164355 0.0509651 0.120043
0.343526 0.0436103 0.128389
0.5037 0.0581216 0.167742
0.539635 0.080415 0.211383
0.545953 0.0885176 0.234394
0.557244 0.0867475 0.24828
0.550134 0.0881361 0.255665
0.0478981 0.0572366 0.0881819
0.0502937 0.05066 0.102113
0.161852 0.0511635 0.118654
0.349081 0.0445106 0.116732
0.501549 0.0536202 0.149355
0.528618 0.0718395 0.187366
0.546212 0.0783703 0.211536
0.562951 0.0815137 0.227649
0.558175 0.0857252 0.236896
0.0775006 0.135622 0.114809
0.0747539 0.135073 0.114992
0.170138 0.157443 0.151385
0.424033 0.117754 0.121782
0.513237 0.0951095 0.085481
0.497581 0.0815747 0.0620432
0.509117 0.0749371 0.0654917
0.51223 0.0716869 0.0679484
0.509514 0.0714733 0.0689403
0.123659 0.411337 0.219577
0.119142 0.409842 0.204746
0.118227 0.398535 0.137148
0.478813 0.493416 0.14139
0.714351 0.501381 0.172824
0.758068 0.507042 0.177844
0.76968 0.512993 0.175738
0.778683 0.5243 0.174334
0.767437 0.537026 0.179736
0.150179 0.620584 0.320241
0.147402 0.614221 0.297398
0.151858 0.60032 0.20853
0.415457 0.669245 0.193149
0.729931 0.785763 0.281361
0.835554 0.791562 0.311513
0.836759 0.793774 0.313924
0.837797 0.796185 0.314137
0.837568 0.797177 0.315022
0.186374 0.700725 0.381155
0.180087 0.690455 0.352911
0.172519 0.672786 0.286198
0.217182 0.667735 0.202472
0.703212 0.82501 0.323262
0.835172 0.853697 0.367132
0.846143 0.854292 0.379431
0.846036 0.854307 0.379477
0.842573 0.854887 0.383459
0.193744 0.712947 0.411734
0.187182 0.702113 0.384848
0.172519 0.673259 0.289189
0.215457 0.66746 0.200443
0.700771 0.823102 0.318685
0.82826 0.852995 0.359243
0.848722 0.853788 0.375296
0.848829 0.853834 0.375723
0.848829 0.853834 0.375723
0.193622 0.715221 0.413138
0.190402 0.706661 0.395804
0.17258 0.673793 0.291341
0.210666 0.667277 0.203815
0.690883 0.820249 0.315496
0.820325 0.852338 0.355642
0.848478 0.853666 0.373892
0.864042 0.851347 0.358663
0.862913 0.851545 0.359884
0.192782 0.7131 0.39501
0.189166 0.704097 0.377584
0.175448 0.673045 0.275029
0.20174 0.666484 0.194903
0.693126 0.818051 0.299657
0.815549 0.852155 0.353231
0.848737 0.853559 0.372686
0.864485 0.851286 0.358099
0.863447 0.851453 0.359319
0.0390021 0.0602121 0.1935
0.0472572 0.0569162 0.21091
0.143999 0.0518349 0.253925
0.351888 0.0560464 0.273701
0.500496 0.0652628 0.291218
0.534859 0.0821393 0.325704
0.540887 0.0859083 0.35021
0.544823 0.0907607 0.369482
0.552163 0.0927901 0.383246
0.0390021 0.0729686 0.194354
0.0390021 0.0595254 0.209552
0.122835 0.053727 0.25893
0.359716 0.0566873 0.280201
0.506981 0.0664225 0.293294
0.536049 0.0860914 0.327413
0.537484 0.0856184 0.345769
0.544121 0.089189 0.363439
0.557336 0.0876326 0.376776
0.0463569 0.126589 0.196948
0.0432136 0.121187 0.201556
0.0562448 0.0827955 0.258488
0.370703 0.0702373 0.290242
0.498039 0.0669718 0.269047
0.529381 0.0835737 0.297475
0.532753 0.0865797 0.31017
0.537758 0.0874495 0.321035
0.545815 0.0866102 0.328634
0.112963 0.400153 0.322057
0.112093 0.402319 0.323842
0.112139 0.398276 0.318959
0.461784 0.461509 0.434821
0.707652 0.387289 0.386984
0.770443 0.336873 0.358312
0.769131 0.342138 0.368521
0.776257 0.349676 0.378424
0.77583 0.355917 0.382986
0.162539 0.655299 0.433143
0.161669 0.652338 0.427588
0.158556 0.640375 0.40209
0.186542 0.589807 0.267918
0.659678 0.719387 0.347662
0.841611 0.712489 0.349935
0.841749 0.716609 0.348058
0.850462 0.71368 0.34844
0.844419 0.713756 0.352575
0.205158 0.747356 0.479149
0.202869 0.741619 0.468177
0.196155 0.725902 0.437446
0.174472 0.674708 0.287419
0.661189 0.810987 0.310903
0.826841 0.853269 0.361913
0.846662 0.854124 0.377752
0.846448 0.854078 0.376974
0.842649 0.854582 0.380362
0.212711 0.761685 0.512261
0.209049 0.754391 0.497185
0.20061 0.735805 0.460838
0.174487 0.679759 0.316243
0.615503 0.796292 0.298909
0.801892 0.851102 0.346548
0.849332 0.853361 0.371099
0.848341 0.85388 0.375814
0.845548 0.854307 0.379309
0.214679 0.766522 0.520592
0.211337 0.75845 0.506157
0.20206 0.738994 0.466819
0.176257 0.683146 0.328481
0.585016 0.785412 0.291386
0.784237 0.849027 0.343297
0.846952 0.853422 0.370764
0.846784 0.854124 0.377722
0.853727 0.85301 0.369665
0.211414 0.764477 0.503395
0.207584 0.755489 0.487419
0.199542 0.735958 0.450767
0.177127 0.68246 0.31841
0.573114 0.780697 0.279774
0.776364 0.847486 0.341131
0.844892 0.853391 0.368307
0.848615 0.853758 0.374777
0.856962 0.852461 0.366003
0.0390021 0.0649271 0.306004
0.0390021 0.0595865 0.315663
0.104112 0.0573587 0.359884
0.352895 0.0688487 0.405493
0.542992 0.122988 0.453666
0.594156 0.144945 0.491875
0.597757 0.149248 0.508156
0.599069 0.151278 0.518318
0.600443 0.153094 0.525551
0.0390021 0.0781567 0.318456
0.0390021 0.0641337 0.316289
0.0844739 0.0593576 0.359686
0.354696 0.069688 0.413199
0.551339 0.127245 0.461524
0.596719 0.145159 0.495445
0.600061 0.148608 0.509834
0.60145 0.150561 0.519371
0.602502 0.15198 0.525658
0.0390021 0.11107 0.319661
0.0390021 0.107301 0.325994
0.0390021 0.0603037 0.327169
0.325231 0.0655375 0.415564
0.553536 0.125673 0.462119
0.592065 0.143236 0.48748
0.596277 0.147265 0.498894
0.597513 0.148974 0.505898
0.59794 0.149371 0.509483
0.0705272 0.39028 0.426734
0.0695659 0.387884 0.43003
0.0630961 0.369039 0.431968
0.291112 0.332357 0.55816
0.72578 0.360586 0.63476
0.766629 0.315953 0.615457
0.76643 0.317067 0.620157
0.771969 0.326543 0.627924
0.77377 0.332952 0.632013
0.143816 0.636835 0.520455
0.143236 0.63534 0.520455
0.142641 0.631647 0.516289
0.16379 0.629389 0.515038
0.664469 0.700023 0.66096
0.819135 0.65008 0.617533
0.830945 0.643183 0.614908
0.831464 0.644358 0.618784
0.832486 0.642481 0.618723
0.216663 0.778561 0.575891
0.213657 0.773037 0.569116
0.2065 0.75964 0.550622
0.20325 0.750393 0.525093
0.513649 0.762081 0.551797
0.809018 0.86038 0.633524
0.890974 0.852872 0.640497
0.890608 0.848066 0.640391
0.890593 0.841794 0.634348
0.225437 0.793744 0.609125
0.224674 0.791852 0.598611
0.223102 0.786603 0.576577
0.215915 0.768292 0.525826
0.336812 0.717693 0.408194
0.75436 0.850813 0.443656
0.842786 0.854017 0.374289
0.843976 0.854368 0.379263
0.8421 0.854719 0.381643
0.225452 0.795239 0.61973
0.225437 0.793393 0.607004
0.223682 0.787594 0.582376
0.216236 0.768444 0.527794
0.296986 0.709911 0.398581
0.730831 0.844495 0.443076
0.839734 0.854231 0.374166
0.842466 0.85449 0.379492
0.841978 0.854673 0.381018
0.225345 0.79472 0.616541
0.225284 0.792798 0.603967
0.223453 0.786816 0.579507
0.215747 0.76733 0.525551
0.272511 0.70576 0.391577
0.71812 0.840223 0.444038
0.83566 0.854246 0.37319
0.841505 0.85449 0.379263
0.841947 0.854658 0.38088
0.0390021 0.0662852 0.363088
0.0390021 0.0615091 0.370413
0.0835126 0.0628519 0.410513
0.315602 0.0737469 0.475074
0.554849 0.140795 0.526528
0.601877 0.157015 0.542092
0.601877 0.157015 0.542092
0.601877 0.157015 0.542092
0.601877 0.157015 0.542092
0.0390021 0.0770428 0.368399
0.0390021 0.0649424 0.366598
0.068986 0.0639658 0.407141
0.31635 0.0742504 0.476997
0.562264 0.14345 0.529
0.601877 0.157015 0.542092
0.601877 0.157015 0.542092
0.601877 0.157015 0.542092
0.601877 0.157015 0.542092
0.0390021 0.1178 0.395071
0.0390021 0.110307 0.392218
0.0390021 0.0618143 0.373281
0.276585 0.0687266 0.469795
0.556466 0.141375 0.527337
0.601877 0.157015 0.542092
0.601923 0.157 0.542107
0.602014 0.156985 0.542138
0.601999 0.156985 0.542138
0.0488594 0.339345 0.466316
0.0467384 0.332158 0.46598
0.0390021 0.29868 0.4598
0.178714 0.204425 0.536889
0.649088 0.275532 0.676768
0.73492 0.278019 0.664393
0.737575 0.281453 0.667735
0.745632 0.290578 0.676036
0.75053 0.295735 0.680888
0.123384 0.601038 0.572946
0.12285 0.598611 0.573358
0.120012 0.591333 0.571267
0.113481 0.573434 0.572641
0.565866 0.617823 0.750576
0.856672 0.641047 0.788434
0.874754 0.634485 0.786374
0.874983 0.636255 0.786923
0.871427 0.634653 0.784314
0.196414 0.754253 0.629496
0.189014 0.742916 0.61529
0.180545 0.726955 0.60061
0.177325 0.720134 0.594537
0.501884 0.79939 0.717098
0.81648 0.851225 0.813138
0.893324 0.840452 0.801297
0.893706 0.835126 0.798093
0.891188 0.828946 0.793347
0.223331 0.798291 0.671275
0.223667 0.798795 0.664134
0.224384 0.798718 0.651225
0.225269 0.796124 0.623087
0.248219 0.817411 0.628351
0.769741 0.891157 0.782589
0.895094 0.928557 0.816052
0.920699 0.928878 0.82623
0.919844 0.926284 0.824201
0.222309 0.797452 0.677943
0.223468 0.798337 0.670283
0.224659 0.798672 0.654765
0.225513 0.795544 0.621378
0.241596 0.816556 0.617807
0.679576 0.859251 0.705715
0.865568 0.920806 0.748989
0.878782 0.889464 0.60856
0.841733 0.854566 0.379934
0.222492 0.797635 0.676661
0.223621 0.798413 0.668803
0.224735 0.798596 0.653117
0.225452 0.795148 0.618891
0.240513 0.814191 0.612451
0.660945 0.852293 0.69543
0.859968 0.920043 0.755825
0.893812 0.909514 0.690974
0.84538 0.855711 0.395697
0.0390021 0.0623636 0.371374
0.0390021 0.0617075 0.380987
0.103761 0.0620737 0.421592
0.340795 0.0784314 0.480934
0.573892 0.147982 0.53254
0.601877 0.157015 0.542092
0.601877 0.157015 0.542092
0.601877 0.157015 0.542092
0.601877 0.157015 0.542092
0.0390021 0.0689403 0.367208
0.0390021 0.0618296 0.373251
0.0884108 0.0632181 0.415793
0.33994 0.0782177 0.480674
0.577447 0.148989 0.533593
0.601877 0.157015 0.542092
0.601877 0.157015 0.542092
0.601877 0.157015 0.542092
0.601877 0.157015 0.542092
0.0390021 0.112474 0.393317
0.0390021 0.10367 0.389349
0.0390021 0.0615091 0.379095
0.297551 0.0711986 0.473579
0.56788 0.145357 0.530571
0.601877 0.157015 0.542092
0.601877 0.157015 0.542092
0.601877 0.157015 0.542092
0.601877 0.157015 0.542092
0.0390021 0.300008 0.467979
0.0390021 0.292958 0.465217
0.0390021 0.261341 0.45182
0.165759 0.165011 0.511345
0.610849 0.235538 0.64065
0.697353 0.242206 0.634943
0.706325 0.250355 0.64303
0.716945 0.260822 0.653437
0.722927 0.266865 0.659464
0.117144 0.583307 0.593057
0.116365 0.580865 0.592905
0.113512 0.572351 0.590539
0.106508 0.552926 0.59234
0.501274 0.552956 0.758923
0.850645 0.607095 0.831098
0.876066 0.610285 0.827756
0.876417 0.611551 0.827939
0.876387 0.610086 0.827832
0.175631 0.721019 0.649805
0.169894 0.708949 0.642924
0.161379 0.690852 0.634028
0.152209 0.670344 0.627558
0.376211 0.72903 0.722759
0.776425 0.815152 0.85771
0.900832 0.823743 0.870253
0.904189 0.818463 0.868666
0.902129 0.812726 0.864439
0.216754 0.793133 0.688823
0.2168 0.793103 0.68896
0.217792 0.794354 0.686015
0.222141 0.797742 0.674846
0.224659 0.799298 0.676631
0.749737 0.899367 0.849409
0.894621 0.922911 0.890318
0.921706 0.923537 0.888701
0.920775 0.921019 0.886809
0.216846 0.793088 0.689036
0.216846 0.793088 0.689036
0.217609 0.79379 0.687419
0.223117 0.798276 0.67126
0.238071 0.819974 0.671977
0.5122 0.872602 0.748501
0.87982 0.941375 0.881071
0.925429 0.951461 0.893095
0.925689 0.951949 0.897185
0.216846 0.793088 0.689036
0.216846 0.793088 0.689036
0.217975 0.793927 0.687312
0.223636 0.798444 0.669062
0.237598 0.818631 0.666743
0.501717 0.869017 0.740566
0.861936 0.935912 0.868727
0.917784 0.949447 0.881788
0.923506 0.94873 0.872099
0.0390021 0.0612802 0.375647
0.0390021 0.0631266 0.388617
0.120989 0.061387 0.427741
0.359915 0.0822766 0.483925
0.584726 0.151278 0.536248
0.601877 0.157015 0.542092
0.601877 0.157015 0.542092
0.601877 0.157015 0.542092
0.601877 0.157015 0.542092
0.0390021 0.0644388 0.36788
0.0390021 0.061265 0.377279
0.102342 0.0621195 0.42092
0.357839 0.082002 0.483711
0.587518 0.151949 0.536919
0.601877 0.157015 0.542092
0.601877 0.157015 0.542092
0.601877 0.157015 0.542092
0.601877 0.157015 0.542092
0.0390021 0.110857 0.392447
0.0390021 0.0975052 0.385626
0.0390021 0.0622721 0.384054
0.312001 0.0735332 0.476173
0.576181 0.148486 0.532967
0.601877 0.157015 0.542092
0.601877 0.157015 0.542092
0.601877 0.157015 0.542092
0.601877 0.157015 0.542092
0.0390021 0.287648 0.462486
0.0390021 0.278187 0.459113
0.0390021 0.245609 0.444739
0.158679 0.145922 0.497749
0.592981 0.215747 0.620035
0.678706 0.224796 0.61677
0.687388 0.232395 0.625223
0.701488 0.24567 0.63859
0.708049 0.252171 0.644923
0.11664 0.582086 0.593454
0.115419 0.578119 0.592126
0.112062 0.569009 0.589288
0.104143 0.546151 0.590341
0.500374 0.54139 0.75845
0.847837 0.59585 0.828275
0.874891 0.60029 0.825101
0.874693 0.601373 0.82501
0.874449 0.598825 0.824582
0.17406 0.718715 0.650492
0.168292 0.706477 0.645747
0.157397 0.681331 0.635096
0.148501 0.661295 0.629068
0.343282 0.708003 0.718608
0.739696 0.780056 0.858305
0.897337 0.801343 0.87892
0.903166 0.797406 0.878264
0.902022 0.791501 0.876585
0.216739 0.793133 0.688807
0.216846 0.793088 0.689036
0.216495 0.793256 0.688258
0.21088 0.784115 0.683406
0.195636 0.763973 0.682887
0.659205 0.858228 0.839536
0.880735 0.906935 0.905104
0.921813 0.911391 0.910369
0.92108 0.908858 0.908751
0.216846 0.793088 0.689036
0.216846 0.793088 0.689036
0.216678 0.793179 0.68867
0.216663 0.793179 0.688655
0.235462 0.819913 0.705425
0.321157 0.841657 0.730282
0.861158 0.936919 0.90483
0.922286 0.949447 0.922576
0.927962 0.951278 0.919936
0.216846 0.793088 0.689036
0.216846 0.793088 0.689036
0.216846 0.793088 0.689036
0.216846 0.793088 0.689036
0.236255 0.819455 0.700664
0.259144 0.839933 0.712261
0.800214 0.934371 0.883726
0.920821 0.953628 0.919188
0.926726 0.954269 0.919982
0.0390021 0.0615244 0.379232
0.0420386 0.0632792 0.391806
0.131746 0.0611582 0.432013
0.371481 0.0844739 0.485588
0.590738 0.153216 0.538186
0.601877 0.157015 0.542092
0.601877 0.157015 0.542092
0.601877 0.157015 0.542092
0.601877 0.157015 0.542092
0.0390021 0.0630961 0.369787
0.0390021 0.0616922 0.38056
0.111223 0.061738 0.424552
0.368063 0.0837568 0.484962
0.594095 0.154498 0.539422
0.601877 0.157015 0.542092
0.601877 0.157015 0.542092
0.601877 0.157015 0.542092
0.601877 0.157015 0.542092
0.0390021 0.10927 0.391775
0.0390021 0.0936141 0.383337
0.0390021 0.0628519 0.387167
0.322194 0.0753033 0.477989
0.581186 0.150195 0.534844
0.601877 0.157015 0.542092
0.601877 0.157015 0.542092
0.601877 0.157015 0.542092
0.601877 0.157015 0.542092
0.0390021 0.283375 0.460914
0.0390021 0.274479 0.457282
0.0390021 0.239612 0.442954
0.155947 0.137102 0.491569
0.585107 0.207462 0.610742
0.671 0.217899 0.60911
0.680369 0.226581 0.618891
0.694484 0.239078 0.6318
0.70106 0.244999 0.63769
0.116594 0.581903 0.59321
0.115267 0.577615 0.592126
0.111528 0.567346 0.588907
0.103105 0.543038 0.589517
0.499352 0.53579 0.757839
0.846098 0.590677 0.826795
0.873732 0.594614 0.82324
0.873899 0.595193 0.823438
0.873991 0.592721 0.823102
0.174899 0.720058 0.651942
0.165408 0.701915 0.642924
0.156054 0.67863 0.634256
0.147616 0.658778 0.62829
0.345541 0.704204 0.717739
0.73611 0.772427 0.85716
0.89514 0.793454 0.877104
0.902312 0.790555 0.876387
0.90074 0.784283 0.874083
0.216739 0.793149 0.688792
0.216846 0.793088 0.689036
0.216587 0.79321 0.688487
0.206638 0.777661 0.680232
0.193408 0.758877 0.681926
0.655161 0.850141 0.838483
0.870802 0.896239 0.90428
0.919951 0.902754 0.911833
0.918685 0.89926 0.910445
0.216815 0.793103 0.688991
0.216846 0.793088 0.689036
0.216709 0.793164 0.688731
0.216632 0.793194 0.688609
0.23238 0.81854 0.708232
0.317769 0.828962 0.738949
0.822751 0.925322 0.897429
0.918318 0.944717 0.925368
0.928038 0.947173 0.925139
0.216846 0.793088 0.689036
0.216846 0.793088 0.689036
0.216846 0.793088 0.689036
0.216815 0.793103 0.688975
0.231998 0.817853 0.707622
0.239612 0.830579 0.718502
0.633814 0.90634 0.84033
0.915923 0.953689 0.927275
0.927169 0.954742 0.925917
