bundles/resolve-cinematic-luts/Phantom Luts/Komodo Phantom FILM LUTs G2/Komodo Phantom FILM LUTs G2/65x/WB Offset - Green Boost/EastmanRM_Komodo_WBO_G2_65x.cube
TITLE "Generated by Resolve"
LUT_3D_SIZE 65
0.0461585 0.0408331 0.0415656
0.0461585 0.0408331 0.0415656
0.0461585 0.0408331 0.0415656
0.0464485 0.0406195 0.0412604
0.0472572 0.040177 0.0407263
0.0498512 0.0396277 0.0399786
0.0551308 0.038941 0.0395666
0.0626535 0.0383612 0.0394293
0.0717784 0.0375525 0.0392615
0.0816815 0.0367895 0.0393683
0.094789 0.0363928 0.0396429
0.108141 0.0359045 0.0401007
0.121523 0.0349126 0.0403906
0.135653 0.0341192 0.0411536
0.150362 0.0334325 0.0421759
0.164752 0.0326085 0.0429236
0.180865 0.0316472 0.0438544
0.199634 0.0311437 0.0456397
0.220981 0.0302434 0.0469978
0.244495 0.0295262 0.0484779
0.269749 0.0289616 0.0504158
0.29601 0.028809 0.0521248
0.322179 0.0291447 0.0539254
0.348486 0.0292515 0.0565499
0.374609 0.0297246 0.0585489
0.400626 0.0296788 0.0614328
0.426429 0.0293126 0.064744
0.449073 0.0290684 0.068864
0.468894 0.0291142 0.0737774
0.485664 0.0295415 0.0783856
0.499489 0.0299229 0.0820325
0.510735 0.0302129 0.0871138
0.520348 0.0310521 0.0920882
0.527367 0.0328832 0.0971084
0.531167 0.0345464 0.103441
0.53402 0.0369421 0.112734
0.534707 0.0379187 0.118471
0.534279 0.0381933 0.121782
0.535027 0.0383764 0.123171
0.535882 0.0385748 0.12462
0.536629 0.0388952 0.125948
0.537255 0.0391699 0.127382
0.53785 0.0394293 0.128756
0.538399 0.039704 0.130022
0.540185 0.039826 0.129992
0.543435 0.0397498 0.128618
0.548272 0.0395056 0.125521
0.551797 0.0393683 0.123751
0.553262 0.0394141 0.123278
0.553506 0.0395514 0.123842
0.553704 0.0396429 0.124559
0.553994 0.039765 0.125048
0.554238 0.0398718 0.125505
0.554437 0.0399481 0.125887
0.554635 0.0400244 0.126345
0.554803 0.0401007 0.126818
0.554955 0.0401617 0.12723
0.555108 0.0402075 0.127596
0.55523 0.0402686 0.127886
0.555337 0.0402991 0.128069
0.555428 0.0403296 0.128222
0.555489 0.0403601 0.128374
0.555566 0.0403906 0.128557
0.553445 0.0406958 0.13048
0.548821 0.0412909 0.135149
0.0471962 0.0401007 0.0405585
0.0465095 0.040589 0.0412146
0.0461585 0.0408331 0.0415656
0.0464485 0.0406348 0.0412604
0.0470436 0.0402533 0.0407568
0.0495003 0.0396277 0.0399634
0.05449 0.0389715 0.0395819
0.0620584 0.0383917 0.0394141
0.0711681 0.0375982 0.0392615
0.081178 0.0368048 0.0393225
0.0944686 0.0363775 0.0395819
0.108019 0.0358434 0.0399939
0.121614 0.0348669 0.0403296
0.135866 0.0340124 0.041001
0.15053 0.0332799 0.0419623
0.165331 0.0323796 0.0427558
0.181613 0.0313268 0.0434882
0.199924 0.0306401 0.0448463
0.221317 0.0297093 0.0458991
0.245258 0.0288701 0.047776
0.270848 0.0280613 0.0496681
0.297551 0.0280308 0.0513161
0.323507 0.028397 0.0529641
0.349508 0.0286564 0.0556497
0.374548 0.0291142 0.0577249
0.399374 0.0292515 0.0608682
0.425193 0.0288701 0.0644541
0.448875 0.0286259 0.0679637
0.469306 0.029099 0.0727245
0.485664 0.0295262 0.0769818
0.499413 0.0298924 0.0810407
0.510887 0.0301976 0.0860151
0.521141 0.0311742 0.0915236
0.52781 0.0329747 0.0964675
0.531304 0.0345922 0.102754
0.534096 0.0370336 0.112154
0.534142 0.0379187 0.117662
0.533578 0.0380713 0.120958
0.53434 0.0382696 0.12253
0.535103 0.0384375 0.123812
0.535958 0.0386969 0.124971
0.536675 0.0389715 0.12636
0.537316 0.0392157 0.127718
0.537865 0.0394598 0.128939
0.538384 0.0397192 0.130083
0.539803 0.0398566 0.13019
0.542748 0.0397803 0.129
0.547204 0.0395514 0.125948
0.551003 0.039353 0.123919
0.55314 0.0393225 0.122957
0.553307 0.0394446 0.123415
0.553506 0.0395514 0.123842
0.553674 0.0396277 0.124437
0.553887 0.0397192 0.124895
0.554086 0.0398108 0.1252
0.554253 0.0398871 0.125536
0.554376 0.0399329 0.125795
0.554498 0.0399786 0.126024
0.55462 0.0400244 0.126345
0.554726 0.0400702 0.126604
0.554818 0.0401007 0.126864
0.55491 0.0401312 0.127077
0.554971 0.0401617 0.127245
0.552956 0.0404212 0.129366
0.548226 0.0410163 0.133608
0.0471962 0.0401007 0.0405585
0.0464942 0.040589 0.0412146
0.0461433 0.0408331 0.0415808
0.0464332 0.0406348 0.0412757
0.0469825 0.0402533 0.0407721
0.0492409 0.0395819 0.0399329
0.053666 0.0391089 0.0395819
0.0607919 0.0385748 0.0394446
0.0700084 0.0377508 0.0392767
0.0806592 0.0369268 0.0393225
0.093492 0.0364843 0.0395972
0.10724 0.035996 0.0399786
0.121416 0.0349279 0.0402991
0.135943 0.0340887 0.041001
0.150851 0.0332952 0.0419471
0.165911 0.0323033 0.0426642
0.18233 0.0311742 0.0433509
0.200626 0.0304112 0.0444495
0.221851 0.0293889 0.0454108
0.245655 0.0284581 0.0467384
0.271092 0.0276493 0.0484321
0.298039 0.0272526 0.0502937
0.324102 0.0275731 0.0517891
0.350286 0.0277256 0.0543984
0.375036 0.0282444 0.0563973
0.399374 0.0286107 0.060029
0.423987 0.0284886 0.0639506
0.446998 0.0287938 0.0674907
0.467582 0.0292363 0.071931
0.485267 0.0295109 0.0754864
0.499535 0.0298772 0.0803845
0.511376 0.0302129 0.085359
0.521248 0.0312963 0.0902571
0.527764 0.0330205 0.0952926
0.530983 0.0346075 0.101183
0.533791 0.0370489 0.110964
0.533471 0.0379034 0.116823
0.532647 0.0381018 0.119966
0.533425 0.0381476 0.121523
0.534188 0.0383154 0.122942
0.534874 0.0384985 0.124239
0.535653 0.0387427 0.125246
0.536309 0.0389868 0.126574
0.53695 0.0392157 0.12781
0.537545 0.0394446 0.128923
0.538048 0.0396735 0.1299
0.539147 0.0397955 0.130129
0.541939 0.039704 0.12903
0.546059 0.0394903 0.126116
0.55021 0.0392309 0.12369
0.552758 0.0391241 0.122316
0.553063 0.0392615 0.122728
0.553201 0.0393835 0.123125
0.553353 0.0394751 0.123507
0.553491 0.0395514 0.123842
0.553613 0.0395972 0.124224
0.553704 0.0396429 0.124498
0.553811 0.039704 0.124773
0.553933 0.0397498 0.124956
0.55404 0.0397803 0.125124
0.554116 0.039826 0.125261
0.554192 0.0398566 0.125429
0.554269 0.0398871 0.125551
0.552514 0.0401007 0.127474
0.547448 0.0406958 0.132235
0.0471656 0.0401312 0.040589
0.0464485 0.0406195 0.0412451
0.0460975 0.0408789 0.0416419
0.0463874 0.0406653 0.0413062
0.0469673 0.0402686 0.0407874
0.0486763 0.0396429 0.0399176
0.0522621 0.0394903 0.0396124
0.0586404 0.0390326 0.0394446
0.0676127 0.0382544 0.039292
0.0786603 0.0373999 0.0393072
0.0912795 0.0369726 0.039704
0.105425 0.0364538 0.0399176
0.120607 0.0352331 0.0401312
0.135302 0.0345006 0.0409094
0.150607 0.0336461 0.0419165
0.165789 0.032517 0.0425422
0.182559 0.0313573 0.0433509
0.201373 0.0305943 0.0444648
0.222187 0.0294347 0.0452583
0.246464 0.028336 0.0462959
0.271778 0.0274205 0.0475776
0.298222 0.0267643 0.0496376
0.32398 0.0267796 0.0505379
0.350134 0.0269017 0.0523079
0.375235 0.0273594 0.0545968
0.400153 0.0283513 0.0580148
0.423804 0.0285191 0.0621958
0.445533 0.0288853 0.0664836
0.465812 0.0293736 0.0712596
0.483436 0.0296483 0.0750134
0.498833 0.0299382 0.0796674
0.511437 0.0302129 0.0834669
0.521019 0.0314336 0.088716
0.527276 0.0331884 0.0937362
0.530526 0.0347601 0.0995346
0.533288 0.0370031 0.10956
0.532265 0.0378424 0.11516
0.531868 0.038117 0.118456
0.532296 0.0381323 0.120333
0.532952 0.0381933 0.121782
0.533761 0.0383307 0.123125
0.534401 0.0384985 0.124315
0.535042 0.0387121 0.125246
0.535637 0.038941 0.126467
0.536217 0.0391699 0.127657
0.536767 0.039353 0.12871
0.537362 0.0395514 0.129458
0.538216 0.0396735 0.12987
0.540642 0.0395972 0.128893
0.54464 0.0393683 0.126055
0.54902 0.0390326 0.123247
0.551949 0.0388647 0.121447
0.552712 0.0389258 0.121447
0.552865 0.0390478 0.121874
0.552956 0.0391546 0.122286
0.553033 0.0392309 0.122621
0.553109 0.039292 0.122866
0.55317 0.039353 0.123079
0.553231 0.0393988 0.123201
0.553307 0.0394446 0.1234
0.553368 0.0394751 0.123537
0.553429 0.0395056 0.12369
0.55346 0.0395361 0.123796
0.551659 0.039765 0.125551
0.546471 0.0403754 0.130373
0.0470283 0.0402228 0.0407263
0.0462959 0.0407263 0.0414282
0.0459297 0.041001 0.041825
0.0458839 0.0410315 0.041886
0.0461738 0.0408179 0.0415503
0.0467689 0.0404669 0.041001
0.0497292 0.0403296 0.040177
0.0552987 0.0398871 0.039765
0.0640421 0.0390631 0.0393225
0.0751659 0.0382086 0.039353
0.088426 0.0376593 0.0395972
0.102983 0.0371557 0.0399786
0.118059 0.0359655 0.0399481
0.133669 0.0352941 0.0408026
0.149294 0.0344549 0.0417029
0.164813 0.0332036 0.0424506
0.181598 0.0321813 0.0432288
0.201236 0.0312657 0.0443885
0.222492 0.030045 0.0451972
0.247532 0.0287327 0.0462501
0.272969 0.0276799 0.0474098
0.299535 0.0269017 0.0493324
0.324468 0.026688 0.0499733
0.349584 0.0267491 0.0504616
0.37557 0.0273594 0.052903
0.400092 0.0283055 0.055848
0.422995 0.0284581 0.0594186
0.444648 0.0288396 0.0638895
0.464958 0.0294499 0.0690623
0.481773 0.0297551 0.0740978
0.496757 0.0300755 0.0791028
0.509651 0.0302892 0.0828412
0.519646 0.0316625 0.0876783
0.526375 0.033402 0.0921035
0.529717 0.0349432 0.0976272
0.53164 0.0370031 0.106401
0.530144 0.0375219 0.111467
0.530388 0.0380255 0.116411
0.531395 0.0381323 0.118379
0.531899 0.0381628 0.120256
0.532341 0.0381933 0.121614
0.533059 0.0383154 0.122881
0.533745 0.0384527 0.12398
0.53431 0.0386053 0.124865
0.534798 0.0388342 0.126009
0.535271 0.0390326 0.127062
0.535729 0.0392004 0.127932
0.536171 0.0393683 0.128862
0.537102 0.0394598 0.129152
0.539345 0.0393835 0.127871
0.543297 0.0391089 0.125139
0.548058 0.0386969 0.121874
0.551003 0.038529 0.119722
0.55198 0.038529 0.119448
0.552178 0.0385901 0.11989
0.552331 0.0386664 0.120287
0.552468 0.0387274 0.120607
0.55256 0.0387884 0.120882
0.552621 0.0388342 0.121126
0.552666 0.03888 0.121324
0.552712 0.0389258 0.121477
0.552773 0.0389563 0.121599
0.552804 0.0389868 0.121691
0.550622 0.0392767 0.12369
0.545419 0.0398718 0.128481
0.0472114 0.0415656 0.041001
0.0464637 0.0419623 0.041825
0.0460822 0.0420386 0.0422217
0.0460059 0.0417945 0.0421912
0.0460212 0.0413672 0.0420233
0.0462043 0.0408789 0.0415656
0.0477607 0.0410315 0.0409857
0.0519265 0.0408637 0.0402686
0.0595254 0.0402533 0.0396735
0.0706951 0.039353 0.0394141
0.0836652 0.0386816 0.0395819
0.0992905 0.0382086 0.0399176
0.114946 0.0370336 0.0398566
0.1308 0.0364233 0.0406653
0.14728 0.035523 0.0415198
0.163043 0.0341497 0.0420844
0.180636 0.0332647 0.0431983
0.200275 0.0321965 0.0440833
0.222507 0.0308537 0.0450446
0.247929 0.0297551 0.046067
0.273564 0.0285801 0.0471351
0.30013 0.0278325 0.0489967
0.327123 0.0276493 0.0500801
0.352041 0.0271305 0.0508278
0.376226 0.0273594 0.0520638
0.400076 0.028275 0.0540932
0.4224 0.0283818 0.0565957
0.443976 0.0288396 0.060502
0.464073 0.0294194 0.0656901
0.480842 0.0297093 0.071107
0.495277 0.0301366 0.0764172
0.506981 0.0304112 0.0811475
0.516823 0.0319371 0.0863813
0.52372 0.033753 0.0906233
0.52726 0.0352331 0.0957961
0.528847 0.0369421 0.103212
0.527855 0.0375372 0.108751
0.527657 0.0377661 0.112581
0.529656 0.0379797 0.115541
0.530785 0.0381476 0.117769
0.53135 0.0381781 0.119387
0.531807 0.0381781 0.120882
0.53225 0.0382239 0.122057
0.532815 0.0383459 0.123125
0.53341 0.038468 0.124102
0.533928 0.0385748 0.124758
0.534325 0.0387274 0.125628
0.534676 0.0389105 0.126604
0.534997 0.0390784 0.127428
0.535912 0.0391089 0.127413
0.538476 0.0389868 0.125795
0.542565 0.0386511 0.123156
0.547066 0.0382849 0.119493
0.549966 0.0380865 0.117311
0.550622 0.0381018 0.117144
0.550774 0.0381781 0.117449
0.550958 0.0382239 0.117693
0.551095 0.0382544 0.117891
0.551217 0.0383001 0.11809
0.551308 0.0383154 0.118257
0.5514 0.0383459 0.11841
0.551461 0.0383612 0.118517
0.551507 0.0383764 0.118593
0.549447 0.0385901 0.120912
0.544152 0.0392157 0.12546
0.0481422 0.0466621 0.0419623
0.0471809 0.0472572 0.0428626
0.0468147 0.0473182 0.0432288
0.0468147 0.0469825 0.0432136
0.0468605 0.0464942 0.0432288
0.0470741 0.0458228 0.0431525
0.0483101 0.0447089 0.0424811
0.0518959 0.0448005 0.041886
0.0582132 0.0439918 0.0409552
0.0683452 0.0431678 0.0402838
0.0808728 0.0421149 0.0400854
0.0958572 0.0402075 0.0396582
0.111391 0.0388647 0.0398566
0.129213 0.0382391 0.0405585
0.145083 0.0368353 0.0411536
0.161547 0.0357061 0.041886
0.179324 0.0347753 0.0429541
0.199145 0.0335088 0.0437171
0.222217 0.0323033 0.0447852
0.24802 0.0310063 0.0458076
0.274418 0.0298619 0.0468452
0.301045 0.0290532 0.0485695
0.32842 0.0286259 0.0496376
0.353674 0.0281224 0.0510567
0.378454 0.0276036 0.0519722
0.401892 0.0283207 0.0539406
0.423407 0.028397 0.0559854
0.444251 0.0288396 0.0586709
0.46331 0.0293584 0.0625925
0.478889 0.0295872 0.0664073
0.492927 0.0300908 0.0719921
0.50425 0.0304723 0.0770275
0.513451 0.0320439 0.081529
0.519356 0.0339513 0.0869306
0.523201 0.0354162 0.0919051
0.523796 0.03682 0.0981003
0.524025 0.0374151 0.103655
0.524392 0.0376593 0.10779
0.526085 0.0377203 0.110307
0.527413 0.0378119 0.113008
0.52903 0.0379644 0.115434
0.530358 0.0381323 0.117571
0.530938 0.0381933 0.118975
0.531365 0.0382086 0.120439
0.531807 0.0382086 0.121492
0.532189 0.0382544 0.122347
0.532616 0.0383459 0.123171
0.533013 0.0384375 0.123934
0.533425 0.0385138 0.124376
0.533776 0.0385901 0.124758
0.534615 0.0386053 0.124788
0.537362 0.0383917 0.123323
0.541329 0.0380865 0.120058
0.545556 0.0377508 0.116472
0.548516 0.0375067 0.11429
0.549172 0.0375067 0.114076
0.549294 0.0375525 0.114305
0.549386 0.037583 0.114549
0.549462 0.0376287 0.114763
0.549523 0.0376593 0.1149
0.549584 0.0376745 0.115038
0.549615 0.0376898 0.115145
0.549661 0.037705 0.115206
0.547341 0.0379644 0.117281
0.542245 0.0384833 0.122454
0.0490883 0.0546426 0.0428321
0.0479591 0.0552987 0.0434424
0.0474403 0.0554055 0.0436866
0.0474556 0.0551003 0.0437018
0.0476234 0.0544747 0.0436713
0.0479744 0.0535286 0.0437476
0.0487068 0.0524758 0.0437171
0.0518196 0.0522469 0.0434119
0.0585489 0.0514839 0.0431067
0.06981 0.0506294 0.0426642
0.0831769 0.0493477 0.0417945
0.0987869 0.047776 0.0413062
0.113939 0.0467079 0.0411994
0.129778 0.0448005 0.0413214
0.145998 0.0412451 0.0408331
0.161883 0.0390173 0.0416571
0.17908 0.0371252 0.0426184
0.197894 0.0356909 0.0432441
0.221378 0.0340734 0.0444343
0.24744 0.032639 0.0452888
0.275395 0.0313725 0.0466316
0.302373 0.0306401 0.0481727
0.329061 0.0298924 0.0490425
0.355337 0.0291142 0.0508736
0.380224 0.0286564 0.0517891
0.4038 0.0283513 0.0535744
0.425544 0.0284276 0.0559396
0.445487 0.0288396 0.0584726
0.464179 0.0293736 0.0621347
0.479133 0.0295567 0.0650339
0.492454 0.0300603 0.0693065
0.502693 0.030518 0.0733501
0.511101 0.0320287 0.0776532
0.516747 0.0337987 0.0821698
0.519387 0.0355077 0.0880293
0.518486 0.0366522 0.093904
0.518105 0.0372625 0.0987411
0.518471 0.0375525 0.102266
0.52079 0.0376287 0.104234
0.522927 0.0376745 0.107057
0.524453 0.0377356 0.109407
0.52578 0.0377813 0.111223
0.527123 0.0378729 0.113527
0.528252 0.0379187 0.115068
0.529686 0.038117 0.117189
0.530327 0.0381781 0.118105
0.530678 0.0382086 0.119051
0.530983 0.0382391 0.120119
0.531258 0.0382391 0.12079
0.531579 0.0382239 0.121386
0.531853 0.0382239 0.121798
0.532479 0.0382086 0.121798
0.534447 0.038056 0.120485
0.537835 0.0377813 0.117464
0.541985 0.0373693 0.114382
0.544793 0.0371405 0.11223
0.545907 0.0370642 0.111238
0.546105 0.0370642 0.111284
0.546136 0.0370794 0.111421
0.546136 0.0370947 0.111543
0.546136 0.0371099 0.11165
0.54612 0.0371252 0.111757
0.546075 0.0371252 0.111833
0.543694 0.0373693 0.114199
0.538537 0.0379187 0.118715
0.0500191 0.0654765 0.043473
0.0487373 0.0662852 0.0442206
0.0482185 0.0665293 0.0445716
0.048249 0.0662242 0.0445258
0.0484321 0.0656596 0.0445563
0.0489357 0.064622 0.0447852
0.0496681 0.0635996 0.0449683
0.0508736 0.063035 0.0451514
0.0565194 0.0639963 0.0448157
0.0682383 0.0629587 0.0449836
0.0836805 0.0611582 0.0442206
0.101595 0.059678 0.0435492
0.118608 0.0581216 0.0430457
0.134951 0.0557259 0.0427558
0.150591 0.0534066 0.0428321
0.166339 0.050248 0.0427863
0.183932 0.0456397 0.0425727
0.202518 0.0412757 0.0425116
0.223682 0.037644 0.0434424
0.248219 0.0350805 0.0445258
0.275135 0.0332036 0.0458991
0.303502 0.0320592 0.0477607
0.33048 0.031281 0.0491188
0.35639 0.0303349 0.0503395
0.38172 0.0300603 0.0515145
0.405463 0.0289616 0.0533303
0.427512 0.0284581 0.0556497
0.446784 0.0288243 0.0583505
0.465278 0.0294041 0.0621195
0.480247 0.0295872 0.0650645
0.477958 0.0312352 0.0772412
0.488212 0.0317845 0.0809033
0.49604 0.0334478 0.0847334
0.503685 0.0349432 0.0883345
0.510124 0.0363622 0.0905013
0.514351 0.0366369 0.0908827
0.516793 0.0366979 0.0917067
0.518151 0.0367437 0.09308
0.519249 0.0368658 0.0944839
0.52079 0.0369726 0.0963149
0.522484 0.0370794 0.0983749
0.52398 0.0371862 0.100771
0.5252 0.0372778 0.102815
0.526375 0.0373541 0.104952
0.527245 0.0374456 0.106447
0.528298 0.0374609 0.108141
0.529183 0.0374762 0.109453
0.530343 0.0375372 0.110643
0.5308 0.0375525 0.111391
0.531304 0.0375982 0.112367
0.531929 0.0377203 0.113481
0.532174 0.0377813 0.114
0.532418 0.0377966 0.114321
0.533425 0.0377203 0.113909
0.53521 0.0375677 0.112657
0.537972 0.0372625 0.110567
0.540063 0.0370336 0.108782
0.541176 0.0369268 0.107942
0.541512 0.0368963 0.107805
0.541497 0.0369116 0.107881
0.541451 0.0369116 0.107912
0.54139 0.0369116 0.107927
0.541817 0.0369573 0.1084
0.540352 0.0371099 0.109895
0.537346 0.0374456 0.112566
0.0527962 0.077348 0.0436561
0.0517586 0.0777905 0.044007
0.0512703 0.0780957 0.0442512
0.0512551 0.0779583 0.0442359
0.0513924 0.0776837 0.0442817
0.0523537 0.0767834 0.0444495
0.0537881 0.0755779 0.0445258
0.0558022 0.0745861 0.0448005
0.0596017 0.075227 0.0451514
0.0696117 0.0758526 0.04448
0.0863203 0.073991 0.0451514
0.105257 0.0729076 0.0454719
0.123537 0.0715343 0.045716
0.140475 0.069749 0.0452277
0.156405 0.067155 0.0448463
0.17293 0.0635843 0.0448157
0.190402 0.0604868 0.0446632
0.209583 0.0556802 0.04448
0.231586 0.0496681 0.0438697
0.257496 0.0423133 0.0430915
0.281422 0.0379797 0.0441749
0.305318 0.0345312 0.0467079
0.331456 0.0327459 0.0484932
0.357534 0.031754 0.0500343
0.38233 0.0312047 0.0509804
0.406317 0.0299687 0.0529641
0.429114 0.0288701 0.0555734
0.44892 0.0288548 0.0581064
0.464393 0.0295415 0.0623941
0.475822 0.029984 0.0672923
0.483909 0.0308385 0.0742657
0.490654 0.0318151 0.0804608
0.496757 0.0336004 0.0847486
0.504509 0.0352026 0.0884565
0.510796 0.0366217 0.0905318
0.514138 0.0367437 0.0896925
0.515373 0.0366979 0.089128
0.516045 0.0366217 0.089128
0.516243 0.0366064 0.0894636
0.516777 0.0366369 0.0903182
0.517632 0.0366979 0.0917525
0.51812 0.0367742 0.0930343
0.518914 0.0368811 0.094377
0.519921 0.0369726 0.0955825
0.521004 0.0370489 0.0970626
0.522057 0.0371099 0.0986038
0.522972 0.0371862 0.100023
0.523781 0.037232 0.101564
0.524392 0.0372625 0.102525
0.524971 0.0373083 0.103319
0.525399 0.0373388 0.10425
0.525734 0.0373541 0.104982
0.525994 0.0373693 0.105547
0.526207 0.0373999 0.105837
0.526741 0.0373693 0.10576
0.528298 0.037232 0.104891
0.530816 0.0370031 0.10309
0.533257 0.0367895 0.101106
0.534844 0.0366522 0.0997482
0.535546 0.0365911 0.0992447
0.535637 0.0365759 0.0991073
0.535546 0.0365606 0.0989548
0.536049 0.0366064 0.0995651
0.534447 0.036759 0.100771
0.531502 0.0370184 0.10338
0.0545357 0.0907454 0.0451057
0.0533455 0.0913558 0.0455329
0.0527962 0.0915999 0.045655
0.0528267 0.0914931 0.0456397
0.0528267 0.09131 0.0456245
0.0535286 0.0907607 0.0456092
0.055375 0.0897231 0.0457465
0.057435 0.0886549 0.0458839
0.0610666 0.0880598 0.0462501
0.0677501 0.0897231 0.046479
0.0815595 0.0905165 0.0458686
0.103288 0.0884565 0.0466468
0.124437 0.087068 0.0474708
0.145403 0.0852827 0.0483558
0.162356 0.082887 0.0479286
0.179263 0.080415 0.0474556
0.198322 0.0765087 0.0472725
0.219745 0.0713207 0.0469825
0.242588 0.0654459 0.0464179
0.266163 0.0588388 0.0462959
0.29131 0.0504158 0.0455787
0.316167 0.0416114 0.0445258
0.338308 0.0368963 0.0467842
0.359731 0.0339818 0.0491951
0.384787 0.0330358 0.0507973
0.407248 0.0310369 0.052491
0.430198 0.0299229 0.0552377
0.450385 0.0288853 0.0575113
0.465461 0.0295415 0.0620127
0.476387 0.0299992 0.0668193
0.484504 0.0308385 0.07393
0.491203 0.0319829 0.0801404
0.497719 0.0337072 0.0851911
0.505287 0.0355383 0.0887007
0.511742 0.0367895 0.0909895
0.515908 0.0371099 0.090547
0.517189 0.0370184 0.0896773
0.517388 0.0369116 0.0892042
0.517006 0.0368505 0.089128
0.516701 0.0368048 0.0890516
0.516518 0.0367437 0.0890974
0.516182 0.0366674 0.0889448
0.515953 0.0366369 0.0888838
0.516197 0.0366369 0.08925
0.516487 0.0366522 0.0896162
0.517052 0.0366979 0.090425
0.517601 0.0367285 0.0913405
0.517861 0.0367742 0.0919814
0.518166 0.03682 0.0927138
0.518502 0.0368811 0.0935073
0.518791 0.0369268 0.0940261
0.51899 0.0369421 0.0942702
0.519219 0.0369573 0.0944533
0.519417 0.0369726 0.0946212
0.519585 0.0369726 0.0948348
0.519997 0.0369573 0.0948806
0.521035 0.0368505 0.0944991
0.523079 0.0366522 0.0932784
0.525475 0.0364385 0.09131
0.527611 0.0362554 0.0895094
0.528984 0.0361028 0.0886397
0.529427 0.0360418 0.0883192
0.529397 0.0360266 0.0882277
0.527428 0.0362249 0.0892042
0.524224 0.0364996 0.0917067
0.0559701 0.104784 0.0459602
0.0547036 0.105455 0.0463569
0.0542306 0.105684 0.046479
0.0542458 0.105669 0.0464485
0.0542763 0.105638 0.0464485
0.0543221 0.105455 0.0464179
0.0562753 0.104692 0.0465705
0.058793 0.103807 0.0468299
0.0626078 0.102937 0.0472572
0.0690776 0.103761 0.0481117
0.079408 0.105806 0.0485237
0.0972763 0.105882 0.0476844
0.122377 0.103227 0.0491798
0.145785 0.102083 0.0501869
0.167727 0.0996262 0.0510262
0.188434 0.0970932 0.0517891
0.207813 0.0934157 0.0509651
0.22974 0.0879988 0.0499123
0.254963 0.0802319 0.0493935
0.279957 0.0732586 0.0490883
0.304082 0.0658579 0.0489357
0.32726 0.0580301 0.049012
0.351675 0.0470893 0.047013
0.372457 0.0396124 0.0467079
0.392126 0.035996 0.0493782
0.411917 0.0329747 0.0517433
0.432746 0.0313268 0.0540322
0.451545 0.0299382 0.0570077
0.466621 0.029572 0.0612802
0.476783 0.0299992 0.0659342
0.484718 0.0308385 0.0733043
0.491432 0.0321508 0.0794995
0.498192 0.033875 0.0847334
0.506004 0.0358282 0.0885328
0.51284 0.0370031 0.0912032
0.517693 0.0375677 0.0915389
0.518654 0.0375982 0.0909438
0.518822 0.0374609 0.0902876
0.518532 0.0373693 0.0901198
0.518303 0.0372778 0.0899367
0.51812 0.0371862 0.0897536
0.517968 0.0371252 0.0895857
0.517815 0.0370336 0.0894179
0.517678 0.0369879 0.0893416
0.51754 0.0369421 0.0892653
0.517388 0.0369116 0.0892348
0.517205 0.0368811 0.089189
0.517037 0.0368505 0.0891432
0.516884 0.0368353 0.0890974
0.516747 0.0368048 0.0890364
0.516686 0.0368048 0.0890211
0.516609 0.0367895 0.0889906
0.516579 0.0367742 0.0890059
0.51664 0.0367742 0.0890822
0.516747 0.0367895 0.0891737
0.516854 0.0367895 0.0892653
0.517037 0.0367895 0.0892805
0.517617 0.0367742 0.0890822
0.518517 0.0367132 0.088426
0.520851 0.0364843 0.0871443
0.523384 0.0362554 0.0853437
0.525322 0.0360723 0.0838178
0.526375 0.0359808 0.0831464
0.525032 0.0361181 0.0841688
0.521614 0.0364691 0.0869306
0.0584878 0.120272 0.0478676
0.0570077 0.120974 0.0480964
0.0563973 0.121355 0.0481575
0.0563821 0.121401 0.0480659
0.0563363 0.121401 0.048127
0.0562295 0.12134 0.0482032
0.0570993 0.121065 0.0484169
0.0599832 0.12047 0.0487373
0.064332 0.119554 0.0491035
0.0698711 0.119417 0.0497139
0.078996 0.121355 0.0506294
0.0919966 0.123247 0.0508431
0.11429 0.123217 0.0500038
0.143069 0.120836 0.0518196
0.16759 0.119341 0.0533913
0.193332 0.116869 0.0547189
0.219364 0.112428 0.0560006
0.243519 0.107897 0.0549783
0.267842 0.102602 0.0530556
0.293614 0.0951247 0.0520943
0.319661 0.0864118 0.0517128
0.343648 0.0784161 0.0512551
0.36556 0.0700389 0.0510414
0.386343 0.0606546 0.0508583
0.407446 0.0465095 0.0481575
0.425391 0.03888 0.0497902
0.44155 0.0349737 0.0522927
0.456489 0.032105 0.0552224
0.469642 0.0306706 0.0599832
0.477653 0.0300603 0.0652628
0.48423 0.030869 0.0725414
0.490852 0.0323491 0.0788281
0.497887 0.0341192 0.0842603
0.504387 0.036286 0.0893111
0.510414 0.0375982 0.0936446
0.515236 0.0386816 0.0958877
0.51809 0.0384375 0.0943313
0.519875 0.0381628 0.0927443
0.521157 0.0379187 0.0914473
0.520836 0.0378576 0.0912795
0.520516 0.0377966 0.0911116
0.520226 0.0377508 0.0909438
0.519921 0.0376898 0.0908064
0.519738 0.037644 0.0907301
0.519509 0.0375982 0.0906233
0.51931 0.0375677 0.0905318
0.519127 0.0375219 0.0904402
0.518959 0.0374914 0.0903792
0.518883 0.0374762 0.0903487
0.518807 0.0374609 0.0903029
0.518761 0.0374456 0.0902724
0.518685 0.0374151 0.0902113
0.518669 0.0374151 0.0901961
0.518639 0.0373999 0.0901808
0.518639 0.0373999 0.0901656
0.518639 0.0373999 0.0901503
0.518654 0.0374151 0.0901656
0.518685 0.0374151 0.0901656
0.518914 0.0373999 0.0900587
0.519631 0.0373388 0.0895705
0.521187 0.037171 0.0886702
