bundles/resolve-cinematic-luts/Phantom Luts/Komodo Phantom FILM LUTs G2/Komodo Phantom FILM LUTs G2/65x/WB Offset - Green Boost/Eterna_Komodo_WBO_G2_65x.cube
TITLE "Generated by Resolve"
LUT_3D_SIZE 5
0.0239872 0.0437324 0.0379034
0.164492 0.049546 0.05449
0.589761 0.0883192 0.188327
0.617563 0.092256 0.228916
0.628565 0.0906539 0.241474
0.0631113 0.210407 0.0842451
0.209049 0.221302 0.0829175
0.63888 0.0818494 0.145449
0.62121 0.0875257 0.143435
0.639735 0.0844129 0.14406
0.249256 0.88922 0.319615
0.259525 0.89688 0.341176
0.887861 0.932479 0.386252
0.944595 0.93315 0.435996
0.939879 0.928969 0.413931
0.243214 0.905989 0.398062
0.252598 0.902281 0.388617
0.641062 0.918654 0.312139
0.95082 0.951064 0.526253
0.951583 0.950668 0.527092
0.265003 0.898131 0.403006
0.255375 0.901457 0.394141
0.350027 0.895811 0.277684
0.954574 0.948638 0.524559
0.955291 0.948623 0.532174
0.0242618 0.0518654 0.133242
0.190982 0.0572824 0.131579
0.609583 0.0805524 0.250217
0.690517 0.100282 0.333516
0.710933 0.125414 0.372747
0.0562905 0.183459 0.150423
0.197391 0.196414 0.182818
0.654749 0.0790723 0.230228
0.664271 0.0847028 0.287236
0.690166 0.10045 0.33312
0.178775 0.846555 0.452125
0.211872 0.864439 0.396628
0.871305 0.921889 0.35523
0.940902 0.922957 0.405966
0.936385 0.915511 0.382589
0.221485 0.906203 0.58352
0.240345 0.911482 0.54258
0.640864 0.918578 0.312795
0.950652 0.951156 0.526024
0.951614 0.950668 0.527108
0.232288 0.897093 0.612665
0.234104 0.904082 0.574502
0.34609 0.89482 0.274968
0.949233 0.951049 0.513039
0.955291 0.948623 0.532174
0.0501869 0.0647288 0.447654
0.187427 0.0662852 0.48275
0.684733 0.0899977 0.505623
0.690867 0.0925307 0.526558
0.709651 0.10869 0.608911
0.0383764 0.141024 0.353948
0.0419928 0.1308 0.475929
0.692607 0.0994583 0.576974
0.72607 0.120378 0.646113
0.72253 0.133883 0.684184
0.142 0.752911 0.629618
0.132494 0.761349 0.672251
0.735958 0.775509 0.710857
0.937392 0.76791 0.745556
0.936187 0.745663 0.759777
0.207004 0.892164 0.781018
0.207675 0.891814 0.781216
0.251545 0.919768 0.657969
0.952773 0.949447 0.518624
0.950027 0.951308 0.520897
0.219013 0.885206 0.815503
0.222492 0.884535 0.807675
0.211002 0.907408 0.705608
0.932998 0.951644 0.597452
0.949371 0.951675 0.520272
0.11342 0.05066 0.566537
0.171008 0.0543832 0.575723
0.730098 0.133608 0.723735
0.730724 0.133684 0.723827
0.730724 0.133684 0.723827
0.0442512 0.162921 0.631907
0.0377661 0.127977 0.611704
0.687556 0.126314 0.717769
0.730724 0.133684 0.723827
0.730709 0.1337 0.723796
0.118059 0.680949 0.778988
0.122866 0.674998 0.785992
0.127977 0.63534 0.817914
0.925826 0.624231 0.919936
0.925475 0.622309 0.919905
0.21474 0.876921 0.871931
0.232288 0.872496 0.864271
0.2224 0.896178 0.84622
0.953841 0.956207 0.952483
0.961761 0.958495 0.955657
0.211078 0.873701 0.876356
0.213886 0.87277 0.874983
0.228992 0.897215 0.865858
0.938476 0.961166 0.951324
0.968963 0.96875 0.960861
0.138048 0.0521401 0.569512
0.161547 0.0535592 0.574319
0.680827 0.124819 0.716762
0.730724 0.133684 0.723827
0.730724 0.133684 0.723827
0.0444038 0.16376 0.63238
0.0428931 0.153414 0.62768
0.516182 0.0968032 0.682307
0.730724 0.133684 0.723827
0.730724 0.133684 0.723827
0.12491 0.679271 0.802335
0.124392 0.678157 0.801541
0.109178 0.623987 0.792508
0.918013 0.53608 0.9122
0.914641 0.496117 0.908339
0.211078 0.873701 0.876356
0.211078 0.873701 0.876356
0.210163 0.87277 0.875807
0.865309 0.925719 0.944015
0.956374 0.942214 0.956039
0.211078 0.873701 0.876356
0.211078 0.873701 0.876356
0.211185 0.873808 0.876463
0.644495 0.942901 0.938827
0.971466 0.971466 0.971466
