bundles/resolve-cinematic-luts/Phantom Luts/Komodo Phantom FILM LUTs G2/Komodo Phantom FILM LUTs G2/65x/WB Offset - Green Boost/Eterna_Komodo_WBO_G2_65x.cube
TITLE "Generated by Resolve"
LUT_3D_SIZE 65
0.0239872 0.0437324 0.0379034
0.0239567 0.0437476 0.0379339
0.0238956 0.0437781 0.0380255
0.0238041 0.0438087 0.0381781
0.0248264 0.0440223 0.0383764
0.0295109 0.0446174 0.0388037
0.0384222 0.0449683 0.038407
0.0498665 0.045304 0.038056
0.0618143 0.0455024 0.037705
0.0733501 0.0455024 0.037232
0.0850538 0.0460517 0.0380713
0.0969558 0.0464942 0.0395514
0.1084 0.0465858 0.0411688
0.120638 0.0470436 0.0436866
0.135027 0.0482032 0.0479896
0.149004 0.0488746 0.0508125
0.164492 0.049546 0.05449
0.182391 0.0510109 0.0591135
0.201648 0.0528115 0.064332
0.222431 0.0557107 0.0714427
0.245686 0.0594034 0.0778668
0.270573 0.0631418 0.0858167
0.297383 0.0663157 0.0944381
0.326009 0.0695201 0.104509
0.354726 0.0712139 0.111238
0.386679 0.074464 0.122011
0.419287 0.0771801 0.133394
0.450065 0.0787976 0.143511
0.480735 0.0792096 0.153948
0.510613 0.0796979 0.16376
0.540307 0.0826886 0.172656
0.566674 0.0856641 0.180392
0.589761 0.0883192 0.188327
0.604257 0.0892958 0.195605
0.609674 0.0885481 0.200198
0.615808 0.087602 0.204715
0.621241 0.0867933 0.208972
0.624964 0.0862898 0.212497
0.627237 0.0861677 0.215473
0.62858 0.0862287 0.217884
0.629664 0.0863508 0.220386
0.631601 0.0866865 0.224781
0.631632 0.0869764 0.22591
0.631113 0.0875563 0.227741
0.628611 0.0885176 0.228321
0.624796 0.0898451 0.228321
0.621042 0.0910964 0.228016
0.618097 0.0920272 0.228046
0.617563 0.092256 0.228916
0.61799 0.0922408 0.229984
0.618402 0.0922408 0.231006
0.618738 0.0922408 0.231922
0.619104 0.0922713 0.2327
0.619348 0.0923018 0.233188
0.619577 0.0923323 0.233768
0.619806 0.0923629 0.234333
0.619974 0.0923934 0.234852
0.620157 0.0924392 0.235401
0.62031 0.0924544 0.235904
0.620478 0.0924849 0.236408
0.620584 0.0925154 0.236805
0.620722 0.0925307 0.237201
0.621149 0.0924697 0.237659
0.624033 0.091783 0.2392
0.628565 0.0906539 0.241474
0.0258488 0.0428473 0.0349432
0.0248264 0.0433356 0.0365759
0.0243229 0.0435645 0.0373541
0.0239567 0.0437324 0.0379339
0.0251926 0.0440528 0.0383307
0.0302739 0.0446174 0.0386969
0.0396887 0.0449836 0.0382849
0.0512093 0.0453346 0.0379797
0.0634318 0.0454566 0.0376745
0.0751659 0.0456245 0.0375219
0.0870222 0.0462196 0.0386358
0.0995956 0.04654 0.0401007
0.111482 0.0467689 0.0420081
0.124193 0.0473487 0.0448157
0.136706 0.0474098 0.0467689
0.150958 0.0480507 0.0497292
0.166613 0.0486305 0.0532845
0.184253 0.0501717 0.0576944
0.203952 0.0519265 0.0627604
0.22472 0.0544289 0.0691844
0.248188 0.057908 0.0762036
0.273854 0.0621653 0.0840772
0.300572 0.0652171 0.0926833
0.32961 0.0685893 0.102922
0.36054 0.071519 0.113588
0.394125 0.0748608 0.125551
0.427543 0.0772106 0.136873
0.458946 0.0786908 0.147524
0.488609 0.0789044 0.15729
0.517327 0.0798352 0.166354
0.545968 0.0831769 0.175128
0.571038 0.0862135 0.182254
0.594095 0.0889754 0.191028
0.605035 0.0893721 0.19704
0.610498 0.0886397 0.201495
0.616419 0.0876783 0.205921
0.622003 0.0867933 0.210193
0.625772 0.0862745 0.213809
0.628061 0.0861524 0.21648
0.629404 0.0861982 0.219104
0.630472 0.086305 0.2215
0.631464 0.0864729 0.223575
0.632303 0.0866255 0.225513
0.632853 0.0868086 0.227359
0.632654 0.0872053 0.22887
0.630945 0.0879835 0.229572
0.627344 0.0892348 0.229587
0.62298 0.0906081 0.228855
0.619272 0.0917067 0.228428
0.617487 0.0922713 0.228733
0.617884 0.0922408 0.22977
0.61828 0.092256 0.23061
0.618585 0.092256 0.231403
0.618845 0.092256 0.232105
0.61912 0.0922713 0.232685
0.619364 0.0923171 0.233188
0.619593 0.0923323 0.233768
0.619776 0.0923629 0.234241
0.619944 0.0923934 0.23476
0.620081 0.0924086 0.235187
0.620218 0.0924392 0.235615
0.62034 0.0924697 0.236042
0.620752 0.0924086 0.236515
0.623835 0.0916762 0.238163
0.628473 0.0905318 0.240482
0.0259709 0.0427863 0.0347601
0.0248875 0.0433051 0.0364691
0.0243229 0.0435798 0.0373693
0.0238956 0.0437629 0.0380102
0.0241398 0.0439002 0.0382696
0.0288701 0.0446021 0.0387884
0.0380255 0.0449531 0.0383764
0.0501411 0.0453193 0.0380255
0.062562 0.0454719 0.0375677
0.0745708 0.0454871 0.0371099
0.0869459 0.0459754 0.0379797
0.099733 0.0463111 0.0393835
0.112093 0.0463417 0.0409857
0.124407 0.0467079 0.0432136
0.137606 0.0466163 0.0454566
0.152132 0.0471809 0.0484627
0.167559 0.0476387 0.0515755
0.185153 0.0490425 0.0556802
0.203998 0.0504616 0.0601816
0.225467 0.0527352 0.0661173
0.249104 0.0560311 0.0735332
0.274327 0.0603189 0.0809339
0.30161 0.0637827 0.0901961
0.330663 0.0672007 0.100191
0.361975 0.0702525 0.111315
0.395056 0.073106 0.122911
0.429587 0.0754559 0.135348
0.462394 0.0763714 0.146746
0.493172 0.0767834 0.156985
0.522927 0.0789654 0.166567
0.54995 0.0825971 0.174517
0.573449 0.0859236 0.180941
0.595087 0.0889143 0.189639
0.604166 0.0892042 0.195239
0.609583 0.0884718 0.199756
0.615808 0.0874952 0.204379
0.621347 0.0866102 0.208515
0.625193 0.0861067 0.212024
0.627436 0.0859541 0.214878
0.628763 0.0860151 0.217044
0.62977 0.0861372 0.219379
0.630701 0.0862287 0.221561
0.631556 0.0864118 0.223392
0.632319 0.0865339 0.225116
0.632807 0.0866865 0.226734
0.6327 0.0870375 0.228077
0.631174 0.0877241 0.228748
0.627817 0.0888685 0.228595
0.623484 0.0902571 0.227893
0.619623 0.0914321 0.227298
0.616968 0.0922713 0.226978
0.617212 0.0923018 0.227924
0.617533 0.092256 0.228824
0.617807 0.0922408 0.229648
0.618097 0.0922408 0.230198
0.618341 0.0922408 0.230793
0.618555 0.092256 0.231342
0.618769 0.092256 0.231861
0.618936 0.092256 0.232319
0.619104 0.0922713 0.232624
0.619272 0.0923018 0.232929
0.619394 0.0923171 0.233265
0.619837 0.092256 0.233722
0.623117 0.0914321 0.235416
0.627756 0.0902876 0.23769
0.0258335 0.0428473 0.0349737
0.0247044 0.0433814 0.0367437
0.0240635 0.0436866 0.0377813
0.0236362 0.0439002 0.0384527
0.0236057 0.043946 0.0386053
0.0271 0.0446326 0.0390326
0.0359197 0.0449836 0.0386206
0.0482795 0.0453651 0.0381781
0.0611276 0.0456092 0.0377356
0.0738384 0.0455482 0.0372168
0.0865187 0.0459907 0.0379797
0.0997482 0.0463111 0.0394293
0.112688 0.0463417 0.0410468
0.125658 0.0466926 0.0431983
0.139223 0.0464637 0.0451972
0.153597 0.0467384 0.0475166
0.168795 0.0470588 0.049958
0.186435 0.0482643 0.0538796
0.2056 0.0497139 0.0585946
0.227283 0.0516823 0.0643931
0.250645 0.0546731 0.0712596
0.276478 0.0588388 0.0788891
0.303853 0.0625772 0.0881361
0.333593 0.06598 0.0984054
0.364446 0.0690623 0.109285
0.397589 0.0715343 0.120943
0.431037 0.0736706 0.133471
0.463874 0.0743877 0.144564
0.496941 0.0753948 0.155932
0.529427 0.0781872 0.166964
0.557687 0.0817121 0.175189
0.579721 0.0849928 0.180591
0.599985 0.0884108 0.189853
0.605081 0.0886702 0.194202
0.609522 0.0881819 0.198352
0.615534 0.0872663 0.202884
0.621103 0.0863813 0.207233
0.624949 0.085893 0.21062
0.627222 0.0857252 0.213397
0.62858 0.0857862 0.215671
0.629572 0.085893 0.217762
0.630503 0.0859846 0.219898
0.631327 0.0860914 0.221912
0.63209 0.086244 0.223499
0.632868 0.0863355 0.225193
0.633417 0.0864729 0.226719
0.633417 0.086717 0.227848
0.632303 0.0872663 0.228519
0.629602 0.0882124 0.228397
0.625284 0.0895552 0.227665
0.62092 0.090898 0.226658
0.617609 0.0919203 0.2262
0.616617 0.0923018 0.226429
0.616953 0.0923171 0.227283
0.617243 0.0922866 0.228031
0.617487 0.0922713 0.228687
0.6177 0.0922408 0.229343
0.617914 0.0922408 0.229847
0.618128 0.0922408 0.230259
0.618296 0.092256 0.230732
0.618463 0.0922408 0.231189
0.618616 0.0922408 0.231586
0.619089 0.0921492 0.232044
0.622415 0.09131 0.233753
0.627268 0.0901045 0.236179
0.0255741 0.0429694 0.0353857
0.0244297 0.0435187 0.0371862
0.023743 0.0438392 0.0382696
0.0233005 0.0440528 0.0389563
0.023209 0.0440833 0.0391089
0.0252689 0.0446021 0.0392462
0.032578 0.045304 0.0391546
0.044358 0.045716 0.0385748
0.0582132 0.0460365 0.038056
0.0713512 0.0459754 0.0374304
0.0847791 0.0463874 0.0380102
0.0987716 0.0466316 0.0394446
0.112428 0.0466163 0.0410773
0.126619 0.0468757 0.0433967
0.140276 0.0466011 0.0454414
0.15552 0.0467536 0.0478218
0.170489 0.0470588 0.0501869
0.188098 0.0480964 0.0535439
0.207034 0.0491951 0.057145
0.227893 0.0508431 0.0621958
0.251987 0.0534981 0.0688792
0.277333 0.0571145 0.0762036
0.305364 0.0609293 0.0852064
0.335286 0.0643626 0.0957046
0.366644 0.0674144 0.106844
0.399512 0.0696269 0.118532
0.431861 0.0714885 0.13022
0.465187 0.0726635 0.142
0.498466 0.074815 0.153506
0.532723 0.0780957 0.165194
0.562036 0.081239 0.173968
0.584985 0.0840772 0.179339
0.606592 0.0873884 0.189792
0.609415 0.0873121 0.193835
0.613306 0.0868238 0.198032
0.618036 0.0862287 0.201953
0.622629 0.0856031 0.206073
0.625711 0.0853285 0.209262
0.627451 0.0853132 0.21178
0.628519 0.0854353 0.213962
0.629389 0.0855726 0.2159
0.630259 0.0856794 0.217853
0.631052 0.085771 0.219745
0.631708 0.085893 0.221607
0.632441 0.0859998 0.222995
0.633127 0.0860761 0.224369
0.633783 0.0861677 0.225818
0.633951 0.0863203 0.226856
0.633249 0.086717 0.227543
0.631022 0.0875105 0.227375
0.626841 0.0887922 0.226596
0.621988 0.0902419 0.22533
0.617914 0.0914626 0.22446
0.615702 0.0921798 0.224201
0.615976 0.0922408 0.224948
0.616251 0.0922866 0.225742
0.616526 0.0923018 0.226261
0.61677 0.0923018 0.226795
0.616983 0.0923171 0.227344
0.617166 0.0923018 0.227832
0.617334 0.0922866 0.22829
0.617487 0.0922713 0.228702
0.61883 0.0919356 0.229587
0.622248 0.0910506 0.231067
0.627298 0.0896925 0.2336
0.025391 0.043061 0.0356756
0.0242313 0.0436103 0.0375067
0.0235447 0.0439307 0.0385748
0.0230869 0.0441444 0.0392615
0.0229648 0.0442206 0.0394141
0.0236667 0.044419 0.0394293
0.0286564 0.0455634 0.0396124
0.0395361 0.0462043 0.0391546
0.0534218 0.0466773 0.0386969
0.0677958 0.0466926 0.0379797
0.0819562 0.0471962 0.0381018
0.0960555 0.0475166 0.0392767
0.110842 0.0476234 0.0410163
0.125734 0.0479133 0.0433967
0.140383 0.0476692 0.0455329
0.155627 0.0477455 0.0478981
0.171756 0.0479133 0.0504158
0.189639 0.0488289 0.0537881
0.208988 0.0496071 0.0571756
0.229908 0.0508278 0.061677
0.252735 0.052842 0.0673533
0.278477 0.0560769 0.0732433
0.305913 0.0590982 0.0814527
0.335973 0.06215 0.0913558
0.367834 0.0651408 0.102983
0.400198 0.067689 0.114763
0.433982 0.0696269 0.127428
0.466621 0.0716106 0.139055
0.50103 0.0748455 0.150973
0.53434 0.0782025 0.162188
0.562982 0.0813001 0.170611
0.586389 0.0839246 0.17644
0.607523 0.0865644 0.186618
0.612421 0.086305 0.19237
0.617136 0.0853742 0.196872
0.622904 0.0845045 0.20145
0.627878 0.083772 0.205631
0.631357 0.0834058 0.209064
0.633143 0.0834211 0.211826
0.634028 0.0835737 0.213931
0.634699 0.0837568 0.215778
0.63537 0.0839094 0.217533
0.636103 0.0840314 0.219257
0.636728 0.0841077 0.22089
0.637385 0.084184 0.222461
0.638071 0.0842451 0.223728
0.638758 0.0843061 0.224979
0.639323 0.0843519 0.226261
0.639719 0.0844129 0.227268
0.639582 0.0846418 0.228138
0.638148 0.0851759 0.228351
0.634791 0.0861982 0.227787
0.630579 0.0874495 0.226596
0.626413 0.0886702 0.225345
0.623697 0.0894942 0.224765
0.622675 0.0898909 0.224811
0.622568 0.0900282 0.225299
0.622858 0.0900587 0.225895
0.623163 0.090074 0.226444
0.623362 0.0901045 0.226947
0.623545 0.090135 0.227451
0.624063 0.0900587 0.228031
0.625986 0.0896315 0.229175
0.629999 0.0886091 0.230961
0.635843 0.0870375 0.233829
0.0250248 0.0452735 0.038407
0.0241855 0.0455787 0.0393683
0.0233463 0.0459602 0.0404364
0.02327 0.0458839 0.0405737
0.023331 0.0453346 0.040528
0.0230106 0.04477 0.0401465
0.0252079 0.0454261 0.0400549
0.0341192 0.0466163 0.0397803
0.0475166 0.0474556 0.0395056
0.0627451 0.0476692 0.0386053
0.0776074 0.0481727 0.0382391
0.092546 0.0486 0.0390631
0.107759 0.0488289 0.0405585
0.123598 0.0492561 0.0430304
0.139391 0.0491035 0.0453193
0.155489 0.0493172 0.0478981
0.172366 0.0493935 0.0505531
0.190417 0.0501564 0.0537728
0.210651 0.0509804 0.0572824
0.231754 0.0521401 0.0617685
0.255253 0.0537881 0.0673533
0.280369 0.0565805 0.0724346
0.307134 0.0586099 0.0789807
0.336477 0.0604562 0.0870069
0.367147 0.0624857 0.0971542
0.400473 0.0653849 0.109438
0.434592 0.0686046 0.122286
0.468711 0.0715496 0.135042
0.502403 0.0749981 0.147204
0.53547 0.0783703 0.158236
0.564004 0.0814527 0.16643
0.586404 0.0840467 0.172244
0.604028 0.0859846 0.179889
0.610132 0.0859541 0.186572
0.616129 0.0852979 0.193256
0.62179 0.0841688 0.198062
0.627039 0.08336 0.202487
0.630945 0.082887 0.205905
0.633158 0.0827955 0.208804
0.634623 0.082826 0.211307
0.635615 0.082948 0.213367
0.63653 0.0830243 0.215305
0.637324 0.0831159 0.216617
0.638041 0.0831769 0.218204
0.638697 0.0832532 0.219577
0.639185 0.0833295 0.220966
0.639643 0.0833906 0.222248
0.640192 0.0834363 0.223194
0.640772 0.0834363 0.224292
0.641352 0.0834516 0.22536
0.641581 0.0835584 0.226184
0.640925 0.0838636 0.226612
0.638773 0.084535 0.2262
0.634852 0.0856489 0.225132
0.630488 0.0868849 0.223713
0.626902 0.087892 0.222782
0.624933 0.0884718 0.2224
0.624338 0.0887007 0.222538
0.624308 0.0888075 0.222858
0.624033 0.0889601 0.223072
0.623484 0.0891585 0.223072
0.623178 0.0893111 0.223148
0.624231 0.0890974 0.223987
0.628 0.0881819 0.225727
0.633951 0.0867018 0.228519
0.0271611 0.0513466 0.0408789
0.0266728 0.0521096 0.0418097
0.0259251 0.0526894 0.0430915
0.0259098 0.052842 0.0432441
0.0259709 0.052018 0.0431678
0.0263218 0.0500649 0.0425269
0.0268559 0.0484169 0.041886
0.0318456 0.0494545 0.0418097
0.043061 0.0504463 0.0413062
0.0577401 0.0504005 0.0399634
0.0730449 0.0505531 0.0393225
0.0878767 0.0500343 0.0390478
0.104326 0.0504768 0.0403296
0.120653 0.0507668 0.042359
0.137407 0.0510872 0.0450141
0.154269 0.0511635 0.047425
0.17203 0.051545 0.0504463
0.190906 0.0520333 0.0535439
0.211551 0.053193 0.0573129
0.23386 0.0544594 0.0620279
0.258274 0.0565347 0.0679026
0.283833 0.0591745 0.0729534
0.310353 0.0603494 0.079469
0.338445 0.0609293 0.0855421
0.367926 0.0617075 0.0928817
0.399268 0.0648508 0.102907
0.434073 0.0684062 0.115496
0.468482 0.0714122 0.128496
0.502205 0.0748913 0.141024
0.535424 0.0783398 0.152392
0.563134 0.0813764 0.160449
0.585519 0.0840314 0.166339
0.600687 0.0855879 0.17293
0.607019 0.085481 0.179507
0.613748 0.0848859 0.186374
0.62034 0.084062 0.192859
0.62533 0.0831006 0.197559
0.629145 0.0825513 0.201266
0.631403 0.082414 0.204578
0.632837 0.0824598 0.206912
0.633951 0.0825666 0.208911
0.634928 0.0826429 0.21091
0.635767 0.0827344 0.212467
0.636469 0.0828107 0.213977
0.637125 0.0828717 0.215381
0.63772 0.0829328 0.216388
0.63827 0.0829786 0.217548
0.638849 0.0829786 0.218524
0.639673 0.0829175 0.219684
0.640803 0.0827649 0.220768
0.641794 0.0826429 0.221805
0.641993 0.0826886 0.222477
0.640986 0.0830396 0.222599
0.63856 0.0837262 0.222141
0.634256 0.0849165 0.220935
0.62945 0.0862135 0.219272
0.625345 0.0873426 0.218082
0.623056 0.0879988 0.21738
0.62211 0.0882887 0.217319
0.621973 0.0883955 0.217533
0.622049 0.0883955 0.217716
0.622568 0.0883192 0.218143
0.623957 0.0879988 0.218936
0.627085 0.0872511 0.22031
0.632074 0.0860151 0.222522
0.0309148 0.0620432 0.0442206
0.0301671 0.0629435 0.0449683
0.0293431 0.0638132 0.0461891
0.0293431 0.0640574 0.0463417
0.0292973 0.0639353 0.0464179
0.0300145 0.0618601 0.0460365
0.0312963 0.0590524 0.0453956
0.0356146 0.0572366 0.0449226
0.0442512 0.0582589 0.0449073
0.0576944 0.0584115 0.0443427
0.0727245 0.0575418 0.0430457
0.0873426 0.0570993 0.0420996
0.102525 0.0557565 0.0415656
0.118486 0.0544747 0.0423896
0.135103 0.0538643 0.0448463
0.152239 0.053727 0.0471046
0.171572 0.0543221 0.0504768
0.191409 0.0548409 0.053727
0.212451 0.0557412 0.0573587
0.235737 0.0576791 0.0623026
0.260792 0.0598611 0.0680705
0.287007 0.0620432 0.0737621
0.313573 0.0628672 0.0802167
0.342443 0.0633097 0.0865187
0.370748 0.0631876 0.0927901
0.401221 0.0649729 0.100343
0.433249 0.0681773 0.109102
0.466407 0.0714275 0.119875
0.499626 0.074464 0.131182
0.53228 0.0778973 0.142229
0.574868 0.0775006 0.153994
0.595865 0.0800488 0.159182
0.609003 0.0814527 0.165606
0.615747 0.0815747 0.172763
0.621424 0.0811933 0.179446
0.626444 0.0809339 0.186038
0.628809 0.0811017 0.190936
0.628962 0.0818189 0.19501
0.626383 0.0827344 0.197208
0.624186 0.0835737 0.198856
0.623148 0.0841535 0.200305
0.623087 0.0845197 0.201709
0.623468 0.0847028 0.203159
0.624048 0.0848096 0.204654
0.624689 0.0848859 0.205921
0.625269 0.0849317 0.207095
0.625788 0.0849928 0.208133
0.626215 0.0850538 0.208759
0.626627 0.0851148 0.209598
0.626963 0.0851606 0.210391
0.627253 0.0852064 0.210971
0.627497 0.0852216 0.211398
0.627604 0.0852827 0.21181
0.627268 0.0854353 0.212009
0.625925 0.085832 0.21178
0.623606 0.0864881 0.211246
0.620554 0.0873121 0.210315
0.617548 0.0881361 0.209506
0.615549 0.0886854 0.208896
0.614557 0.0889448 0.208682
0.614298 0.0890669 0.208759
0.614557 0.0890211 0.208957
0.615564 0.0887922 0.209552
0.617807 0.0882429 0.210559
0.621546 0.0873121 0.212039
0.0370947 0.0738384 0.0443275
0.0363012 0.0748913 0.0447547
0.0358434 0.0755627 0.0451972
0.035874 0.0762493 0.0457618
0.035874 0.0764782 0.0458991
0.0358129 0.0758679 0.0456855
0.0380255 0.0732891 0.0455634
0.0412299 0.0697948 0.045304
0.049134 0.0687724 0.0452888
0.0608225 0.0694743 0.0460822
0.0762798 0.0699474 0.0471962
0.0914626 0.0691691 0.046891
0.107149 0.0681773 0.0464332
0.122988 0.0666209 0.0463874
0.137972 0.0639353 0.0461738
0.154086 0.0607767 0.0467384
0.171374 0.0593118 0.0495308
0.19057 0.0588846 0.0529488
0.212253 0.0592203 0.0565499
0.235645 0.0608835 0.0614023
0.261616 0.0630808 0.0674754
0.287846 0.0647135 0.0733043
0.315709 0.0658122 0.0802167
0.343969 0.0663005 0.0864576
0.37293 0.065919 0.0928664
0.403037 0.0662394 0.100374
0.434241 0.0688945 0.108782
0.466361 0.0718547 0.116854
0.498085 0.0740826 0.124483
0.532021 0.0765545 0.134051
0.562783 0.0786145 0.142916
0.586572 0.0801404 0.148836
0.600687 0.0810101 0.154574
0.607996 0.0808881 0.160067
0.613931 0.080354 0.16527
0.619135 0.0802167 0.171344
0.621897 0.0805066 0.176806
0.621576 0.0813458 0.180484
0.620005 0.0824445 0.183764
0.61883 0.0833753 0.186694
0.618692 0.084062 0.189731
0.618601 0.0843366 0.191592
0.618967 0.0844129 0.193378
0.619974 0.0844129 0.195346
0.620539 0.0844129 0.196704
0.621057 0.0844282 0.197986
0.621546 0.0844739 0.199161
0.622019 0.0845197 0.200275
0.622385 0.0845655 0.200885
0.622721 0.084596 0.201541
0.62298 0.0846265 0.201999
0.623163 0.0846571 0.202365
0.623301 0.0846876 0.20267
0.623362 0.0847181 0.202914
0.623224 0.0848096 0.203235
0.62237 0.085069 0.203174
0.620462 0.0855879 0.202777
0.617563 0.0863508 0.201892
0.614542 0.0871443 0.200855
0.611887 0.0878157 0.200198
0.610269 0.0882277 0.199725
0.609903 0.0883497 0.199741
0.610742 0.0881666 0.200061
0.613108 0.0875868 0.200778
0.616724 0.086717 0.202274
0.0414435 0.0882277 0.0483406
0.0407416 0.0895094 0.0485542
0.0403449 0.0905776 0.0487373
0.0402533 0.091249 0.0490883
0.0402686 0.0916609 0.0491951
0.040238 0.0916609 0.0491646
0.0411688 0.0904097 0.0489967
0.0445411 0.0871901 0.0490272
0.0494392 0.083711 0.0488746
0.0615854 0.0838026 0.0497902
0.0767987 0.0844282 0.0512398
0.0946517 0.0848554 0.0535897
0.112352 0.0839094 0.0541085
0.129503 0.0820783 0.0538338
0.146181 0.0798047 0.0536812
0.16228 0.0771801 0.0530251
0.179232 0.0735943 0.0523079
0.196796 0.0695048 0.0535744
0.215122 0.0661784 0.0563363
0.237415 0.0653544 0.0614023
0.26273 0.0666514 0.0672618
0.290425 0.0678569 0.0736248
0.317937 0.0685283 0.0802014
0.346899 0.0687572 0.086656
0.37612 0.0686046 0.0934462
0.405921 0.0678111 0.100816
0.437507 0.0692149 0.109071
0.468818 0.0719005 0.116793
0.501381 0.0744335 0.124544
0.533806 0.0767224 0.132464
0.562722 0.0785687 0.139223
0.58407 0.0798505 0.143145
0.593896 0.0800183 0.145892
0.599847 0.0798199 0.149706
0.605539 0.079469 0.153368
0.610208 0.0793011 0.157107
0.612863 0.0794995 0.160464
0.612726 0.0802014 0.163714
0.611109 0.0813153 0.165911
0.609873 0.0823377 0.168902
0.609445 0.0830091 0.171328
0.609979 0.08336 0.173922
0.610742 0.0835737 0.176028
0.612436 0.083772 0.179095
0.613458 0.0838788 0.180865
0.614176 0.0839551 0.182361
0.614755 0.0840009 0.183795
0.615183 0.0840467 0.184833
0.615885 0.0841535 0.186313
0.616892 0.0843214 0.187762
0.616999 0.0843214 0.188128
0.617044 0.0843214 0.188357
0.617044 0.0843214 0.188479
0.617182 0.0843214 0.188876
0.617166 0.0843214 0.188952
0.617136 0.0843519 0.18912
0.616602 0.0844587 0.188891
0.615488 0.0847028 0.188388
0.613245 0.0852674 0.187747
0.61001 0.0860151 0.186664
0.606912 0.0867781 0.185855
0.604669 0.0872969 0.184955
0.604395 0.0874189 0.185077
0.606348 0.0869917 0.185885
0.609918 0.0861677 0.187045
0.0454719 0.103395 0.0527047
0.0446632 0.104967 0.0528725
0.0442817 0.105943 0.0528267
0.0441749 0.107027 0.052781
0.0443427 0.107744 0.0530556
0.0444038 0.107958 0.0530861
0.0444495 0.107683 0.0530251
0.0468757 0.105684 0.0529335
0.0516518 0.102434 0.0529641
0.0594492 0.0995193 0.0531624
0.0759442 0.100374 0.0543221
0.093904 0.100694 0.0563058
0.115068 0.10132 0.0598611
0.135317 0.100099 0.0619364
0.153704 0.0975662 0.0622568
0.172015 0.0946212 0.0618448
0.189685 0.091371 0.0611734
0.207492 0.087892 0.0603494
0.226169 0.082414 0.0595254
0.246311 0.0765545 0.0613413
0.267597 0.073167 0.0668498
0.291875 0.0715496 0.0734569
0.320104 0.0719921 0.0802167
0.349432 0.0722362 0.0868086
0.379263 0.0715801 0.0936446
0.409491 0.0702678 0.100862
0.439597 0.0696727 0.108766
0.471244 0.0720531 0.116564
0.504265 0.0748302 0.12459
0.537041 0.0771649 0.132708
0.566857 0.0790417 0.13962
0.588464 0.0803082 0.143633
0.596857 0.0803082 0.144961
0.598871 0.0795758 0.145251
0.600656 0.0788128 0.145724
0.603265 0.078294 0.147097
0.604715 0.0783856 0.148852
0.603845 0.079118 0.150027
0.601282 0.0801862 0.150759
0.598962 0.0811475 0.151568
0.59823 0.0818647 0.153094
0.598581 0.0822919 0.154803
0.599496 0.0825971 0.156741
0.600366 0.0827039 0.157885
0.601022 0.0827344 0.158602
0.601724 0.0827497 0.159472
0.602197 0.0827344 0.160174
0.602701 0.0827497 0.160922
0.603128 0.0827802 0.161456
0.603479 0.0827955 0.162249
0.603677 0.0827955 0.162936
0.60383 0.0827955 0.163378
0.604059 0.082826 0.163729
0.603922 0.0828107 0.163424
0.603906 0.0828107 0.16321
0.60383 0.0828107 0.163043
0.603693 0.0827955 0.162799
0.603647 0.0828412 0.162875
0.602991 0.0829175 0.162371
0.601923 0.0831922 0.162234
0.599664 0.0836957 0.161486
0.597345 0.0843061 0.160861
0.595376 0.0847944 0.16022
0.595407 0.0848096 0.160098
0.59791 0.0842756 0.160815
0.0501869 0.120943 0.0579232
0.049485 0.122621 0.0578164
0.0490272 0.1243 0.057496
0.0489357 0.125689 0.0569314
0.0489662 0.126482 0.0569924
0.0491798 0.127352 0.0572213
0.0491493 0.127382 0.0572671
0.0495155 0.12665 0.0571756
0.053727 0.1243 0.0574655
0.0602274 0.120562 0.0575723
0.0723278 0.118807 0.0582895
0.0912642 0.118975 0.0597086
0.112856 0.119448 0.0622416
0.137224 0.1205 0.066453
0.160418 0.118822 0.0703899
0.181613 0.115785 0.0719768
0.201312 0.112062 0.0712444
0.221515 0.107454 0.0710613
0.240833 0.10248 0.0702525
0.261082 0.0964523 0.0694896
0.280858 0.088716 0.0691997
0.301808 0.0820172 0.0726787
0.326024 0.0786297 0.0798352
0.35108 0.0757458 0.0863355
0.382162 0.0753185 0.0934768
0.412345 0.0738842 0.100511
0.441596 0.0713512 0.107698
0.473411 0.0722362 0.115785
0.507088 0.0751049 0.124041
0.540566 0.0775311 0.132296
0.570397 0.0794842 0.139727
0.593637 0.0810101 0.144808
0.603449 0.0812543 0.146777
0.605554 0.0804761 0.147112
0.607294 0.0796674 0.147478
0.608972 0.0789197 0.147768
0.608698 0.0786603 0.147616
0.606012 0.0790112 0.146944
0.601404 0.0798657 0.145983
0.597299 0.0806897 0.14519
0.594644 0.0813458 0.145022
0.593729 0.0817121 0.145357
0.593408 0.0818341 0.145647
0.59292 0.0818036 0.145434
0.592325 0.0817273 0.145129
0.591501 0.0816205 0.144518
0.591241 0.0815442 0.144396
0.591867 0.0816663 0.144961
0.592538 0.0817426 0.145495
0.593347 0.0818494 0.146075
0.593744 0.0819104 0.146288
0.593896 0.0819257 0.146395
0.594049 0.0819562 0.146395
0.59411 0.0819715 0.146426
0.594034 0.0819562 0.146273
0.594095 0.0819715 0.146227
0.594247 0.0819867 0.146349
0.594293 0.082002 0.146319
0.594339 0.082002 0.146349
0.594034 0.082002 0.146075
0.593286 0.0820172 0.145571
0.592538 0.082063 0.145205
0.591867 0.0820478 0.144686
0.59202 0.0819562 0.144594
0.593622 0.0816815 0.145037
0.0528878 0.140856 0.0643778
0.052903 0.142992 0.06392
0.052842 0.144747 0.0634165
0.0530404 0.14583 0.0623941
