bundles/resolve-cinematic-luts/Phantom Luts/Komodo Phantom FILM LUTs G2/Komodo Phantom FILM LUTs G2/65x/WB Offset - Green Boost/Eterna_Komodo_WBO_G2_65x.cube
TITLE "Generated by Resolve"
LUT_3D_SIZE 9
0.0239872 0.0437324 0.0379034
0.0618143 0.0455024 0.037705
0.164492 0.049546 0.05449
0.354726 0.0712139 0.111238
0.589761 0.0883192 0.188327
0.629664 0.0863508 0.220386
0.617563 0.092256 0.228916
0.619974 0.0923934 0.234852
0.628565 0.0906539 0.241474
0.0309148 0.0620432 0.0442206
0.0442512 0.0582589 0.0449073
0.171572 0.0543221 0.0504768
0.370748 0.0631876 0.0927901
0.609003 0.0814527 0.165606
0.623148 0.0841535 0.200305
0.626627 0.0851148 0.209598
0.620554 0.0873121 0.210315
0.621546 0.0873121 0.212039
0.0631113 0.210407 0.0842451
0.0620127 0.226596 0.0759594
0.209049 0.221302 0.0829175
0.496254 0.185397 0.126436
0.63888 0.0818494 0.145449
0.627588 0.0853285 0.146029
0.62121 0.0875257 0.143435
0.623163 0.0881361 0.142138
0.639735 0.0844129 0.14406
0.0785382 0.553399 0.14667
0.0991379 0.584451 0.134783
0.110323 0.601205 0.107408
0.545449 0.59675 0.127764
0.856336 0.664942 0.202396
0.871702 0.675898 0.206073
0.871336 0.685237 0.205081
0.873808 0.689036 0.208362
0.870832 0.687449 0.204227
0.249256 0.88922 0.319615
0.251789 0.899199 0.329046
0.259525 0.89688 0.341176
0.440711 0.907546 0.271183
0.887861 0.932479 0.386252
0.944762 0.933761 0.438712
0.944595 0.93315 0.435996
0.944076 0.931884 0.431647
0.939879 0.928969 0.413931
0.24593 0.90483 0.395254
0.248569 0.903883 0.393118
0.248585 0.90367 0.384405
0.248981 0.903212 0.377829
0.787793 0.928878 0.371954
0.947814 0.952209 0.513237
0.949981 0.951522 0.525002
0.950103 0.951461 0.5252
0.95053 0.951217 0.525856
0.243214 0.905989 0.398062
0.245121 0.905119 0.395514
0.252598 0.902281 0.388617
0.253727 0.901411 0.378698
0.641062 0.918654 0.312139
0.937652 0.949554 0.484825
0.95082 0.951064 0.526253
0.95169 0.950622 0.527184
0.951583 0.950668 0.527092
0.252216 0.902708 0.400275
0.244221 0.905562 0.397223
0.250141 0.903304 0.391058
0.25301 0.901671 0.378576
0.478706 0.914443 0.278798
0.900755 0.944976 0.438483
0.955139 0.948699 0.531838
0.955139 0.948714 0.531945
0.955886 0.948257 0.533181
0.265003 0.898131 0.403006
0.254902 0.901732 0.399695
0.255375 0.901457 0.394141
0.261479 0.898466 0.380484
0.350027 0.895811 0.277684
0.839796 0.933913 0.401999
0.954574 0.948638 0.524559
0.955139 0.948714 0.531945
0.955291 0.948623 0.532174
0.0208133 0.0449531 0.0595102
0.0642405 0.04654 0.0590066
0.169986 0.0559243 0.0815747
0.355276 0.0720684 0.134157
0.605341 0.0804913 0.212802
0.661173 0.0826276 0.259709
0.652735 0.0865949 0.268711
0.654704 0.0869306 0.277577
0.661067 0.08542 0.286137
0.0265202 0.0547189 0.0496529
0.037171 0.0504616 0.0495003
0.185183 0.0533608 0.0715953
0.39971 0.0731518 0.135988
0.631052 0.0813306 0.213245
0.652796 0.0831769 0.245441
0.657526 0.0840314 0.261372
0.651026 0.0868086 0.266041
0.654521 0.0865339 0.27332
0.0574807 0.200824 0.109087
0.0561837 0.214984 0.0941634
0.208209 0.217731 0.0833143
0.489189 0.167361 0.120653
0.634195 0.0787823 0.147906
0.628748 0.0812695 0.150042
0.624247 0.0823072 0.149386
0.62475 0.082414 0.149172
0.629007 0.0812695 0.150057
0.0715648 0.533227 0.183459
0.0881208 0.566186 0.171267
0.106905 0.599252 0.105592
0.54342 0.594125 0.126177
0.851438 0.657771 0.200778
0.871092 0.675212 0.20502
0.870146 0.68423 0.203113
0.872984 0.685176 0.207111
0.871351 0.679332 0.20528
0.220218 0.873701 0.360388
0.239475 0.886549 0.343114
0.264347 0.894926 0.308049
0.429038 0.906142 0.268635
0.8822 0.929091 0.374975
0.943603 0.932082 0.430686
0.943694 0.932891 0.432303
0.943023 0.931029 0.426688
0.939269 0.927321 0.408545
0.244465 0.90634 0.41442
0.247715 0.904418 0.400412
0.247791 0.904143 0.390631
0.248859 0.903258 0.377752
0.779721 0.928222 0.367727
0.947799 0.952193 0.512642
0.949935 0.951553 0.524895
0.950057 0.951476 0.525109
0.950484 0.951232 0.525811
0.238895 0.910414 0.466941
0.242741 0.908003 0.436271
0.25211 0.902678 0.396735
0.253925 0.901335 0.378729
0.6533 0.918944 0.316762
0.935912 0.949371 0.481788
0.950866 0.951034 0.526314
0.95169 0.950622 0.527199
0.951583 0.950668 0.527092
0.247333 0.908186 0.491188
0.24007 0.909987 0.462776
0.249348 0.903777 0.399649
0.25301 0.901671 0.378576
0.513481 0.915938 0.283497
0.898024 0.944595 0.436439
0.955139 0.948653 0.531212
0.955154 0.948699 0.531975
0.955947 0.948211 0.533303
0.260121 0.904005 0.501259
0.250645 0.906615 0.477562
0.253803 0.902693 0.411933
0.262806 0.898177 0.384466
0.413672 0.902968 0.277089
0.848386 0.935363 0.406592
0.954528 0.948623 0.523751
0.955139 0.948714 0.531945
0.955291 0.948623 0.532174
0.0242618 0.0518654 0.133242
0.0700236 0.0509194 0.155077
0.190982 0.0572824 0.131579
0.374029 0.0814374 0.17142
0.609583 0.0805524 0.250217
0.673472 0.0858167 0.303304
0.690517 0.100282 0.333516
0.694484 0.116075 0.350072
0.710933 0.125414 0.372747
0.0161135 0.0596323 0.104997
0.016556 0.056672 0.151644
0.204013 0.0583352 0.149813
0.407507 0.0860761 0.194949
0.635309 0.0827344 0.275319
0.692226 0.093843 0.328923
0.703197 0.115465 0.3579
0.702022 0.12607 0.375097
0.699413 0.116457 0.393164
0.0562905 0.183459 0.150423
0.0544594 0.189792 0.163409
0.197391 0.196414 0.182818
0.479637 0.1355 0.194034
0.654749 0.0790723 0.230228
0.671702 0.0806287 0.26865
0.664271 0.0847028 0.287236
0.674083 0.0912642 0.309758
0.690166 0.10045 0.33312
0.0647746 0.502007 0.247501
0.070573 0.535882 0.260884
0.0848096 0.559655 0.201938
0.533303 0.581521 0.121462
0.857862 0.629343 0.20853
0.877043 0.635538 0.211337
0.878538 0.640558 0.213916
0.879011 0.637476 0.213886
0.880049 0.622324 0.213947
0.178775 0.846555 0.452125
0.186419 0.855253 0.458457
0.211872 0.864439 0.396628
0.353277 0.89456 0.261875
0.871305 0.921889 0.35523
0.940352 0.922103 0.403235
0.940902 0.922957 0.405966
0.940368 0.921111 0.401617
0.936385 0.915511 0.382589
0.237919 0.912123 0.545647
0.24126 0.91136 0.54377
0.242145 0.909865 0.486183
0.247807 0.9037 0.378943
0.742184 0.926009 0.349737
0.945678 0.951888 0.504967
0.949279 0.951904 0.523949
0.950149 0.951431 0.525261
0.950271 0.951354 0.525505
0.221485 0.906203 0.58352
0.225284 0.90634 0.577157
0.240345 0.911482 0.54258
0.254444 0.901625 0.3897
0.640864 0.918578 0.312795
0.928206 0.948714 0.469917
0.950652 0.951156 0.526024
0.951263 0.950835 0.526757
0.951614 0.950668 0.527108
0.220783 0.90222 0.605264
0.215259 0.906004 0.595483
0.228397 0.90988 0.562951
0.251362 0.903029 0.399863
0.489555 0.914855 0.280125
0.888777 0.943145 0.429114
0.951446 0.950576 0.524041
0.955291 0.948623 0.532174
0.955947 0.948211 0.533288
0.232288 0.897093 0.612665
0.224201 0.901411 0.603189
0.234104 0.904082 0.574502
0.261997 0.90222 0.464332
0.34609 0.89482 0.274968
0.845731 0.934951 0.40528
0.949233 0.951049 0.513039
0.955139 0.948714 0.531945
0.955291 0.948623 0.532174
0.0357671 0.05832 0.256107
0.0613107 0.0530861 0.29575
0.205615 0.0635386 0.286564
0.414633 0.075227 0.268849
0.669276 0.117174 0.340352
0.716152 0.121965 0.389532
0.699565 0.101228 0.419028
0.680491 0.0889754 0.438239
0.680644 0.0910353 0.463172
0.0213321 0.075227 0.22031
0.018555 0.0717784 0.280262
0.180285 0.0618906 0.330922
0.432502 0.072755 0.307027
0.677714 0.116228 0.373449
0.695918 0.0974441 0.422904
0.685222 0.0886397 0.457389
0.674601 0.0954147 0.484703
0.67335 0.0995956 0.512032
0.0469673 0.170199 0.213199
0.0438697 0.171786 0.253803
0.0356298 0.123232 0.308049
0.444114 0.0806592 0.334005
0.683955 0.103624 0.40264
0.694026 0.0849622 0.448997
0.695628 0.0872358 0.491966
0.68571 0.0939193 0.516945
0.681468 0.0982681 0.53547
0.0674754 0.456687 0.34255
0.0599374 0.483101 0.384894
0.0634928 0.497307 0.409644
0.482383 0.504067 0.431403
0.874968 0.461372 0.464393
0.912047 0.443351 0.487175
0.906676 0.450584 0.520394
0.901518 0.438071 0.540795
0.895674 0.409445 0.555795
0.15407 0.805127 0.541146
0.155138 0.810895 0.570245
0.160327 0.817548 0.56939
0.190707 0.820783 0.443183
0.829328 0.891447 0.328161
0.934737 0.895079 0.362142
0.940795 0.881361 0.401022
0.94548 0.868513 0.433997
0.943801 0.851545 0.438636
0.207126 0.902724 0.638788
0.206867 0.901549 0.651087
0.21004 0.902159 0.635615
0.247837 0.907973 0.549294
0.621973 0.918105 0.307317
0.940047 0.949813 0.489433
0.951598 0.950744 0.529015
0.951766 0.950637 0.528847
0.950271 0.951385 0.526329
0.203006 0.898985 0.694591
0.203815 0.898451 0.699763
0.20441 0.899657 0.680674
0.216739 0.904738 0.59997
0.500023 0.915053 0.281788
0.897826 0.944121 0.436423
0.950713 0.950957 0.522805
0.951171 0.950866 0.526482
0.952239 0.950317 0.527687
0.211093 0.894453 0.720562
0.202121 0.89749 0.721889
0.2009 0.899214 0.702495
0.206455 0.903563 0.632898
0.327947 0.903075 0.290852
0.849058 0.93431 0.408179
0.949096 0.951034 0.512322
0.952987 0.949905 0.528923
0.956268 0.948013 0.5337
0.226337 0.888655 0.725902
0.215641 0.892348 0.725856
0.214862 0.893828 0.7084
0.217655 0.897719 0.652232
0.264744 0.900481 0.447471
0.804211 0.929763 0.380865
0.937362 0.950378 0.484962
0.95111 0.950912 0.526589
0.955215 0.948653 0.532036
0.0501869 0.0647288 0.447654
0.0648966 0.0594186 0.471443
0.187427 0.0662852 0.48275
0.485451 0.0916762 0.515862
0.684733 0.0899977 0.505623
0.688365 0.0913252 0.504204
0.690867 0.0925307 0.526558
0.695964 0.0955673 0.565682
0.709651 0.10869 0.608911
0.026627 0.0920882 0.417014
0.0254826 0.0820172 0.448692
0.132601 0.0530404 0.47953
0.470253 0.0903182 0.552636
0.685786 0.0904402 0.540291
0.689723 0.095079 0.543908
0.700801 0.104036 0.588907
0.724422 0.126146 0.647532
0.720104 0.133318 0.662791
0.0383764 0.141024 0.353948
0.0445716 0.149096 0.399207
0.0419928 0.1308 0.475929
0.405341 0.0878462 0.559533
0.692607 0.0994583 0.576974
0.703014 0.0979477 0.588281
0.72607 0.120378 0.646113
0.732677 0.128511 0.685206
0.72253 0.133883 0.684184
0.0415045 0.403479 0.464881
0.0424506 0.428412 0.506539
0.0396124 0.460822 0.577768
0.0568093 0.416388 0.68249
0.839521 0.311421 0.712993
0.868742 0.292699 0.707485
0.862898 0.274739 0.72958
0.858793 0.262165 0.752407
0.84918 0.248692 0.754421
0.142 0.752911 0.629618
0.133013 0.758236 0.654963
0.132494 0.761349 0.672251
0.128954 0.753277 0.663935
0.735958 0.775509 0.710857
0.936202 0.77229 0.729259
0.937392 0.76791 0.745556
0.937591 0.764553 0.759793
0.936187 0.745663 0.759777
0.217624 0.892134 0.718242
0.223194 0.889235 0.731197
0.223163 0.889357 0.731212
0.215305 0.883375 0.695552
0.438514 0.921035 0.624887
0.933333 0.95108 0.712688
0.960372 0.95082 0.773083
0.960235 0.944457 0.808423
0.960174 0.940795 0.811246
0.207004 0.892164 0.781018
0.209552 0.890639 0.789075
0.207675 0.891814 0.781216
0.201801 0.896895 0.732921
0.251545 0.919768 0.657969
0.858137 0.936172 0.577173
0.952773 0.949447 0.518624
0.953429 0.949432 0.52578
0.950027 0.951308 0.520897
0.213107 0.887907 0.808148
0.212955 0.887633 0.811978
0.211612 0.888899 0.802182
0.204318 0.894545 0.75761
0.220752 0.920745 0.703532
0.815442 0.939162 0.676585
0.944335 0.951003 0.498512
0.948928 0.951904 0.51957
0.952331 0.950042 0.524269
0.219013 0.885206 0.815503
0.225834 0.882536 0.815793
0.222492 0.884535 0.807675
0.212634 0.890639 0.772366
0.211002 0.907408 0.705608
0.775448 0.939834 0.710765
0.932998 0.951644 0.597452
0.947585 0.952438 0.515068
0.949371 0.951675 0.520272
0.0703441 0.0535134 0.565927
0.0887617 0.0492714 0.564126
0.165316 0.0543679 0.57496
0.44596 0.0889906 0.660258
0.730526 0.129976 0.708995
0.73402 0.129229 0.703655
0.734081 0.128923 0.700877
0.733745 0.129549 0.705165
0.732464 0.131304 0.713573
0.0271 0.0851453 0.576562
0.0303655 0.0742351 0.57435
0.117037 0.0509499 0.566934
0.392599 0.0833906 0.643809
0.726085 0.131975 0.719097
0.731411 0.132235 0.716899
0.731228 0.132601 0.718578
0.730571 0.133745 0.723507
0.730724 0.133684 0.723827
0.0422675 0.169116 0.599359
0.0439918 0.166003 0.625055
0.0400854 0.138277 0.618006
0.280751 0.0726329 0.609476
0.718486 0.132036 0.721965
0.73077 0.133532 0.723278
0.730465 0.133745 0.723156
0.730526 0.133761 0.723384
0.730266 0.133867 0.72282
0.0389563 0.412161 0.6477
0.0432746 0.416861 0.671397
0.0512398 0.416556 0.694667
0.0591287 0.342275 0.715663
0.693767 0.19382 0.789075
0.788403 0.185046 0.759625
0.824201 0.222919 0.785962
0.806958 0.207187 0.78294
0.771618 0.172656 0.75906
0.113863 0.706142 0.71458
0.109957 0.705486 0.729641
0.120653 0.703975 0.743252
0.124269 0.68629 0.756344
0.501427 0.692699 0.831937
0.932891 0.691325 0.869245
0.93489 0.695796 0.862501
0.936156 0.685359 0.869307
0.93431 0.668284 0.881376
0.203876 0.888258 0.793423
0.219303 0.874479 0.791928
0.210452 0.862623 0.789044
0.188067 0.840177 0.766751
0.292165 0.883513 0.80798
0.898573 0.914351 0.890074
0.956634 0.917205 0.894896
0.958419 0.91371 0.89691
0.95407 0.912978 0.901198
0.21207 0.885618 0.836805
0.221622 0.88191 0.837919
0.228931 0.879911 0.831342
0.225269 0.88365 0.806043
0.220844 0.908049 0.791089
0.809415 0.945541 0.850187
0.962524 0.961105 0.890639
0.968307 0.964309 0.930617
0.966339 0.965255 0.942306
0.216953 0.880735 0.857252
0.217746 0.879896 0.860105
0.216709 0.881086 0.855558
0.21149 0.886656 0.828794
0.218906 0.905318 0.803281
0.740093 0.944518 0.851896
0.947662 0.956741 0.890288
0.954589 0.951858 0.5879
0.950164 0.95285 0.554833
0.216205 0.879225 0.865507
0.219471 0.877409 0.866896
0.219287 0.878645 0.863188
0.214374 0.884108 0.841428
0.220462 0.902693 0.819059
0.676448 0.945205 0.866743
0.944045 0.959304 0.920653
0.963607 0.962463 0.884627
0.947433 0.952667 0.518273
0.11342 0.05066 0.566537
0.119707 0.0510109 0.566751
0.171008 0.0543832 0.575723
0.405295 0.0847334 0.64744
0.730098 0.133608 0.723735
0.730724 0.133684 0.723827
0.730724 0.133684 0.723827
0.730724 0.133684 0.723827
0.730724 0.133684 0.723827
0.0597543 0.0579843 0.567483
0.0695354 0.0539101 0.566217
0.129229 0.0515297 0.568093
0.337636 0.0780804 0.626596
0.727596 0.133242 0.723278
0.730587 0.133745 0.723537
0.730617 0.13373 0.723583
0.730724 0.133684 0.723812
0.730724 0.133684 0.723827
0.0442512 0.162921 0.631907
0.0442359 0.162783 0.631876
0.0377661 0.127977 0.611704
0.213336 0.0660563 0.590311
0.687556 0.126314 0.717769
0.730724 0.133684 0.723827
0.730724 0.133684 0.723827
0.730724 0.133684 0.723827
0.730709 0.1337 0.723796
0.0576791 0.368841 0.72256
0.0597848 0.362585 0.727779
0.0594034 0.35697 0.726085
0.0582589 0.317937 0.712627
0.516503 0.150011 0.731197
0.731899 0.134966 0.725017
0.732174 0.135256 0.725277
0.740673 0.143603 0.733776
0.745342 0.148257 0.738628
0.118059 0.680949 0.778988
0.118914 0.679149 0.783597
0.122866 0.674998 0.785992
0.126116 0.659388 0.787366
0.127977 0.63534 0.817914
0.898665 0.623087 0.919295
0.925826 0.624231 0.919936
0.928328 0.647181 0.91809
0.925475 0.622309 0.919905
0.199939 0.856001 0.836271
0.19086 0.850858 0.839185
0.181399 0.834501 0.831678
0.166583 0.805539 0.81619
0.167315 0.794339 0.834195
0.781262 0.869596 0.919554
0.955489 0.883635 0.929061
0.956359 0.883513 0.926421
0.951843 0.876814 0.929854
0.21474 0.876921 0.871931
0.214054 0.876097 0.872892
0.232288 0.872496 0.864271
0.231312 0.876081 0.851164
0.2224 0.896178 0.84622
0.72047 0.938125 0.914397
0.953841 0.956207 0.952483
0.961929 0.95903 0.955428
0.961761 0.958495 0.955657
0.211078 0.873701 0.876356
0.211078 0.873701 0.876356
0.211078 0.873701 0.876356
0.215946 0.879347 0.866621
0.227375 0.899031 0.856062
0.416342 0.939376 0.889738
0.947616 0.959701 0.946777
0.971206 0.967193 0.957473
0.969207 0.969024 0.962356
0.211078 0.873701 0.876356
0.212528 0.873213 0.875578
0.213886 0.87277 0.874983
0.214649 0.875319 0.873426
0.228992 0.897215 0.865858
0.365332 0.937102 0.896788
0.938476 0.961166 0.951324
0.965805 0.967453 0.961257
0.968963 0.96875 0.960861
0.130938 0.0516365 0.568276
0.13492 0.0519417 0.568994
0.168078 0.0540017 0.575586
0.345037 0.0786755 0.628855
0.724651 0.132906 0.722835
0.730724 0.133684 0.723827
0.730724 0.133684 0.723827
0.730724 0.133684 0.723827
0.730724 0.133684 0.723827
0.0824445 0.0493629 0.564309
0.0892042 0.0492256 0.564446
0.128023 0.0514534 0.56788
0.283848 0.0728923 0.61033
0.699382 0.128893 0.719631
0.730724 0.133684 0.723827
0.730724 0.133684 0.723827
0.730724 0.133684 0.723827
0.730724 0.133684 0.723827
0.0437324 0.159655 0.630869
0.0436255 0.158892 0.630411
0.0400397 0.138659 0.61857
0.142794 0.0525216 0.570779
0.612619 0.110445 0.705531
0.730724 0.133684 0.723827
0.730724 0.133684 0.723827
0.730724 0.133684 0.723827
0.730724 0.133684 0.723827
0.0598459 0.362417 0.727901
0.0597696 0.36524 0.728389
0.0594797 0.358557 0.726452
0.0581674 0.315953 0.711971
0.355413 0.119295 0.665843
0.730846 0.133852 0.723964
0.730953 0.133959 0.724041
0.731106 0.134142 0.724193
0.731456 0.134524 0.724559
0.122545 0.671672 0.799969
0.123064 0.672877 0.800443
0.121798 0.669444 0.799741
0.118044 0.657053 0.797253
0.110399 0.619516 0.798733
0.807324 0.591638 0.910658
0.920943 0.573205 0.915694
0.92076 0.56846 0.915404
0.920989 0.570733 0.915663
0.192111 0.843122 0.863493
0.190402 0.839704 0.86215
0.18526 0.828367 0.857771
0.166506 0.787167 0.840497
0.151476 0.747677 0.829755
0.632746 0.825422 0.913603
0.93959 0.855711 0.940993
0.94255 0.850355 0.941024
0.943069 0.856733 0.941451
0.211322 0.873625 0.876234
0.211078 0.873701 0.876356
0.211078 0.873701 0.876356
0.211078 0.873701 0.876356
0.211063 0.872465 0.871855
0.317235 0.89453 0.908873
0.921798 0.941985 0.950729
0.960449 0.951186 0.957809
0.960052 0.951278 0.957656
0.211078 0.873701 0.876356
0.211078 0.873701 0.876356
0.211078 0.873701 0.876356
0.21146 0.873564 0.876158
0.221164 0.883757 0.873762
0.246555 0.91043 0.886534
0.892821 0.956298 0.950515
0.967758 0.96817 0.967636
0.969284 0.968978 0.968505
0.211078 0.873701 0.876356
0.211078 0.873701 0.876356
0.211078 0.873701 0.876356
0.211078 0.873701 0.876356
0.221347 0.884794 0.879499
0.252049 0.913085 0.894835
0.9019 0.957305 0.952956
0.967651 0.968795 0.967727
0.971099 0.971084 0.970397
0.138048 0.0521401 0.569512
0.140459 0.0523537 0.570031
0.161547 0.0535592 0.574319
0.289616 0.0733501 0.612009
0.680827 0.124819 0.716762
0.730724 0.133684 0.723827
0.730724 0.133684 0.723827
0.730724 0.133684 0.723827
0.730724 0.133684 0.723827
0.0895705 0.0493935 0.564553
0.0941024 0.0493935 0.56466
0.1205 0.0510109 0.567041
0.236912 0.0683909 0.597055
0.628412 0.113329 0.708553
0.730724 0.133684 0.723827
0.730724 0.133684 0.723827
0.730724 0.133684 0.723827
0.730724 0.133684 0.723827
0.0444038 0.16376 0.63238
0.0443732 0.163684 0.632303
0.0428931 0.153414 0.62768
0.0826123 0.0520943 0.565682
0.516182 0.0968032 0.682307
0.730724 0.133684 0.723827
0.730724 0.133684 0.723827
0.730724 0.133684 0.723827
0.730724 0.133684 0.723827
0.0601358 0.377951 0.731044
0.0605173 0.383551 0.732418
0.0606088 0.3823 0.732509
0.0591897 0.348974 0.723583
0.199969 0.115404 0.633967
0.730922 0.133944 0.724041
0.730724 0.133684 0.723827
0.73077 0.133745 0.723873
0.730816 0.133822 0.723934
0.12491 0.679271 0.802335
0.125536 0.680644 0.802792
0.124392 0.678157 0.801541
0.120531 0.66508 0.79884
0.109178 0.623987 0.792508
0.696651 0.568536 0.903059
0.918013 0.53608 0.9122
0.915419 0.508278 0.909224
0.914641 0.496117 0.908339
0.194675 0.848386 0.865339
0.193042 0.845045 0.864302
0.188693 0.836057 0.860731
0.172213 0.800198 0.84538
0.152422 0.750515 0.830121
0.440482 0.788876 0.900374
0.909529 0.831708 0.935927
0.939864 0.823651 0.938293
0.939147 0.813443 0.937423
0.211078 0.873701 0.876356
0.211078 0.873701 0.876356
0.211078 0.873701 0.876356
0.211078 0.873701 0.876356
0.210163 0.87277 0.875807
0.200595 0.852766 0.87895
0.865309 0.925719 0.944015
0.957397 0.945129 0.957076
0.956374 0.942214 0.956039
0.211078 0.873701 0.876356
0.211078 0.873701 0.876356
0.211078 0.873701 0.876356
0.211078 0.873701 0.876356
0.211078 0.873701 0.876356
0.234485 0.903273 0.898116
0.623911 0.937011 0.937758
0.961669 0.964019 0.965011
0.967926 0.967056 0.96788
0.211078 0.873701 0.876356
0.211078 0.873701 0.876356
0.211078 0.873701 0.876356
0.211078 0.873701 0.876356
0.211185 0.873808 0.876463
0.238041 0.907347 0.901457
0.644495 0.942901 0.938827
0.964538 0.96759 0.967285
0.971466 0.971466 0.971466
