bundles/resolve-cinematic-luts/Phantom Luts/Komodo Phantom FILM LUTs G2/Komodo Phantom FILM LUTs G2/65x/WB Offset - Green Boost/VisionTeal_Komodo_WBO_G2_65x.cube
TITLE "Generated by Resolve"
LUT_3D_SIZE 65
0.0222629 0.0351263 0.0329137
0.0222629 0.0351415 0.0329137
0.0222629 0.0351415 0.032929
0.0222629 0.0351568 0.0329595
0.0222477 0.035172 0.0329747
0.0222629 0.035111 0.033341
0.0289311 0.0342718 0.03299
0.0388037 0.0336919 0.0329595
0.0502785 0.0324712 0.0317845
0.0639963 0.0307622 0.0301061
0.0789044 0.0297398 0.0287022
0.0939345 0.0290379 0.0273899
0.11104 0.0283665 0.0267338
0.127947 0.0277104 0.0254978
0.149401 0.0265202 0.0241398
0.174182 0.0243381 0.0213931
0.1991 0.0220951 0.0196231
0.224155 0.0206607 0.0188754
0.250889 0.0186923 0.0183719
0.278782 0.016907 0.0187076
0.3084 0.0149691 0.0195468
0.335912 0.0133822 0.0202487
0.365911 0.0124056 0.0211643
0.396246 0.0120851 0.0217136
0.427024 0.0121157 0.0251469
0.458396 0.0121157 0.0302434
0.490318 0.0122683 0.0385138
0.520333 0.0140078 0.047364
0.550301 0.0160678 0.0569314
0.579416 0.0182193 0.0645762
0.604303 0.020737 0.068925
0.625299 0.023331 0.072282
0.637064 0.024506 0.0774548
0.639735 0.0256046 0.0833753
0.641733 0.0264439 0.0891585
0.643397 0.0269169 0.0950484
0.644266 0.0272831 0.0988174
0.64506 0.0274815 0.102068
0.64538 0.0275273 0.10396
0.645518 0.0275273 0.104891
0.645396 0.027512 0.10428
0.645212 0.0274815 0.103227
0.645045 0.0274357 0.102174
0.64448 0.0273136 0.0999008
0.642878 0.0267338 0.0951247
0.641062 0.0261997 0.090013
0.63917 0.0252842 0.0832685
0.63772 0.024567 0.0769207
0.635142 0.0240635 0.0718242
0.632914 0.0235752 0.0669871
0.630976 0.0233005 0.0625162
0.629892 0.0230106 0.0575265
0.629953 0.0229648 0.0561379
0.629847 0.0228275 0.0541238
0.629358 0.0224765 0.0515755
0.629694 0.0227207 0.0502785
0.631556 0.0231174 0.051133
0.633753 0.0231937 0.0514382
0.635935 0.023331 0.0517433
0.637812 0.0236515 0.0523079
0.640452 0.0241398 0.0529641
0.643214 0.0245518 0.0536965
0.645869 0.0252537 0.0544747
0.648859 0.0264897 0.0553292
0.652216 0.0271 0.0563516
0.0223392 0.0348058 0.0325933
0.0222934 0.0350195 0.0327611
0.0222782 0.0351263 0.0328832
0.0222629 0.0351568 0.0329442
0.0222629 0.0351568 0.0329595
0.0235904 0.0350042 0.0333562
0.0317693 0.0339666 0.0330358
0.0421302 0.0331426 0.0325475
0.0538338 0.0319829 0.0310521
0.0666514 0.0307774 0.0295567
0.0816968 0.0296788 0.0283665
0.0974899 0.0288701 0.0271305
0.114076 0.0285649 0.0267948
0.131548 0.0273747 0.0249638
0.152956 0.026566 0.0238193
0.177768 0.0241703 0.02121
0.202152 0.0231327 0.0199893
0.228534 0.0217899 0.0190585
0.254749 0.0202335 0.0189517
0.283268 0.0181125 0.0191196
0.311223 0.0158694 0.0198367
0.340764 0.0139773 0.0207523
0.368978 0.0125887 0.0215
0.398306 0.0121157 0.0216068
0.429023 0.0119936 0.0245212
0.460517 0.0120851 0.0289921
0.491173 0.012253 0.0345312
0.52015 0.0137636 0.041474
0.550851 0.0158846 0.0505837
0.579355 0.0179751 0.0583658
0.603082 0.020264 0.0627604
0.623301 0.0226596 0.0654459
0.633326 0.023682 0.0697795
0.636561 0.0243229 0.0749981
0.638193 0.0250553 0.0802625
0.639368 0.025452 0.0846571
0.640528 0.0259556 0.0879683
0.642054 0.0264134 0.0915236
0.642267 0.0265507 0.0936599
0.64213 0.0265202 0.09337
0.6421 0.0264591 0.0924697
0.6421 0.0263828 0.0915847
0.640787 0.0260929 0.0903792
0.639292 0.0254368 0.0869001
0.638224 0.024979 0.0830549
0.636759 0.0242313 0.0774853
0.634562 0.0239109 0.0731212
0.632517 0.0235142 0.0678874
0.630808 0.02327 0.0627909
0.629389 0.0228733 0.0568399
0.629648 0.0228428 0.0558938
0.629816 0.0228428 0.0546273
0.629694 0.0226749 0.052842
0.629297 0.0223697 0.0502785
0.630564 0.0230259 0.0508125
0.632654 0.0231632 0.0512703
0.634455 0.0232547 0.0515908
0.636561 0.0233921 0.0519417
0.638315 0.0237736 0.0524605
0.641077 0.0242008 0.0530709
0.643565 0.0245975 0.0537881
0.646052 0.0253452 0.0545052
0.649042 0.0269322 0.055375
0.652171 0.0280613 0.0561532
0.655283 0.028687 0.0571298
0.0223392 0.0348211 0.0326085
0.0222934 0.0350347 0.0327764
0.0222629 0.0351263 0.0328985
0.0222477 0.035172 0.0329747
0.0222629 0.0351263 0.0329442
0.0231327 0.0351263 0.033341
0.0315404 0.0341344 0.033051
0.0417182 0.0333715 0.032578
0.0536049 0.0322423 0.0311437
0.0669871 0.0311894 0.0296788
0.0825818 0.0299687 0.0283513
0.0980392 0.0293126 0.0272679
0.114733 0.0292668 0.0268254
0.132799 0.0279088 0.0251316
0.154971 0.0270695 0.0239872
0.180804 0.0244755 0.0213474
0.205264 0.0234989 0.0203098
0.230884 0.0225681 0.0196231
0.25774 0.0208743 0.0193027
0.28629 0.0188907 0.0198825
0.314717 0.0178836 0.0206912
0.343587 0.0163119 0.0219425
0.373098 0.0145571 0.0224613
0.40058 0.0121614 0.0216068
0.430182 0.0119478 0.0240482
0.46096 0.0120394 0.0264897
0.489891 0.0121614 0.0312047
0.519768 0.013611 0.0374609
0.549233 0.0154269 0.0435645
0.577111 0.0175326 0.0515297
0.601556 0.0197757 0.0563821
0.621576 0.021912 0.0592813
0.630167 0.0232853 0.0635996
0.632303 0.023621 0.0674754
0.633951 0.023743 0.0708629
0.635401 0.0240787 0.0747845
0.636683 0.0242924 0.0780499
0.637598 0.0245365 0.079942
0.637873 0.0247349 0.0814527
0.637934 0.0247349 0.0808728
0.637842 0.0246586 0.0806897
0.63714 0.0243992 0.07953
0.635828 0.024094 0.0777752
0.634653 0.0238804 0.0744793
0.633616 0.0235447 0.0716106
0.631861 0.0234226 0.0685893
0.630365 0.023209 0.0649729
0.629175 0.0228733 0.0600137
0.628519 0.0226596 0.0563211
0.629389 0.0226902 0.0548104
0.629664 0.0226749 0.0533913
0.629664 0.0225834 0.0515908
0.629953 0.0228275 0.0505074
0.631571 0.0231479 0.051133
0.633646 0.0231937 0.0514076
0.635508 0.0233158 0.0516823
0.637461 0.0235447 0.0521096
0.639139 0.0238956 0.0526131
0.641917 0.0243076 0.0532082
0.644144 0.0247196 0.0539712
0.64651 0.0255436 0.054612
0.649256 0.027039 0.055436
0.652186 0.0283207 0.0561379
0.655024 0.0293889 0.0567178
0.657923 0.0298772 0.0569924
0.0223392 0.0348363 0.0326238
0.0222934 0.0350652 0.0327916
0.0222629 0.0351415 0.032929
0.0222477 0.0352026 0.03299
0.0222477 0.0352026 0.0330053
0.0222782 0.0350805 0.0327916
0.0282444 0.0348516 0.0332341
0.0392309 0.0340887 0.0327764
0.0511177 0.032929 0.0319371
0.0656443 0.0317845 0.0299687
0.0813764 0.0307317 0.028275
0.0978103 0.0300603 0.0274052
0.114855 0.0298924 0.0268559
0.133288 0.0288243 0.0255894
0.155825 0.0278477 0.0242618
0.182162 0.0257725 0.0221561
0.206943 0.024445 0.0206912
0.232898 0.0235142 0.0197452
0.259586 0.021912 0.0197299
0.287892 0.0206607 0.0205386
0.316747 0.0199588 0.0213626
0.345373 0.0178988 0.0223697
0.374975 0.0161593 0.0233158
0.403296 0.0131991 0.0228733
0.431586 0.0119478 0.0233768
0.461601 0.0120546 0.0263066
0.491508 0.012192 0.0307012
0.519326 0.0134737 0.0345312
0.547784 0.0151064 0.0390784
0.576059 0.017319 0.0464485
0.600092 0.0193637 0.0512551
0.618814 0.0212711 0.0544442
0.627222 0.0226291 0.0572824
0.629648 0.0230869 0.0611429
0.630289 0.0233005 0.0639048
0.631281 0.0233921 0.0669108
0.631861 0.0234836 0.0688487
0.632456 0.0234531 0.0706035
0.632898 0.0234836 0.0713207
0.632914 0.0234989 0.0713359
0.632547 0.0234379 0.0707866
0.631907 0.0234226 0.0688792
0.631342 0.0233005 0.0675669
0.630793 0.0231937 0.0657969
0.629969 0.0230411 0.063859
0.628687 0.0227665 0.0606546
0.626978 0.0222782 0.0566262
0.628656 0.0225681 0.056672
0.629602 0.0226902 0.0559548
0.629847 0.0227512 0.0541238
0.629831 0.0226444 0.0516213
0.631128 0.0230716 0.0510109
0.632914 0.0231632 0.0513008
0.634607 0.0232853 0.051606
0.636347 0.0233921 0.0518807
0.637919 0.0236973 0.052369
0.640314 0.0241398 0.0529488
0.642664 0.024445 0.0534676
0.644755 0.0248875 0.0541848
0.646876 0.0257572 0.0547494
0.649714 0.0272221 0.0555428
0.652552 0.0285039 0.05626
0.654994 0.0296178 0.0566415
0.658167 0.0307469 0.0570687
0.661936 0.0318303 0.0582742
0.0223239 0.0348974 0.0326085
0.0222629 0.0351415 0.0327459
0.0222477 0.0352178 0.0328832
0.0222477 0.0352483 0.0330053
0.0222324 0.0352331 0.0330663
0.0222629 0.0351568 0.0328679
0.0240787 0.0356603 0.0334173
0.0346532 0.0349584 0.0335699
0.0478523 0.0337987 0.0323339
0.0633707 0.0323796 0.0305333
0.0794232 0.0312963 0.0285954
0.0970321 0.0307469 0.0276188
0.114244 0.030869 0.0272221
0.133471 0.030045 0.0259861
0.155962 0.0288701 0.0244297
0.183139 0.0265812 0.0223697
0.208087 0.0254978 0.0211643
0.233768 0.0248417 0.0204776
0.260838 0.0236667 0.0200656
0.288899 0.023209 0.0212711
0.31873 0.0222629 0.0222019
0.346639 0.0197757 0.0228275
0.375448 0.0174563 0.0236973
0.405325 0.0151217 0.0233921
0.432624 0.0119478 0.0233768
0.462791 0.0121157 0.0265812
0.493324 0.012253 0.0302434
0.520088 0.0135348 0.0338293
0.548898 0.0151522 0.0387579
0.576196 0.017258 0.044419
0.598825 0.0193484 0.0478981
0.616739 0.0209964 0.0499123
0.624842 0.0219883 0.0534371
0.625727 0.0222171 0.0544747
0.626902 0.0224765 0.0567483
0.628305 0.0228122 0.0599222
0.629465 0.0229496 0.062623
0.629511 0.0229496 0.0633249
0.629602 0.0229648 0.0636149
0.629587 0.0229496 0.0634623
0.629679 0.0229343 0.0630198
0.629801 0.0229496 0.0626383
0.629435 0.0228275 0.0611734
0.628077 0.0225528 0.0587778
0.625757 0.0220188 0.0557412
0.627512 0.0222324 0.0560159
0.629221 0.0225223 0.0563211
0.629969 0.0227665 0.0562905
0.630426 0.022858 0.0556344
0.631128 0.0229496 0.0542916
0.63267 0.0230259 0.0535286
0.63415 0.0231022 0.0522927
0.635859 0.0233463 0.0517281
0.63743 0.0235447 0.0520943
0.638956 0.0238651 0.0525826
0.64152 0.0242771 0.0531472
0.643442 0.0246433 0.0537575
0.645518 0.0251011 0.0543679
0.647608 0.0261692 0.0549783
0.650629 0.0276036 0.0557565
0.652964 0.0286717 0.0563668
0.65507 0.0296483 0.0566415
0.658228 0.0311437 0.0571603
0.662013 0.0328069 0.0582742
0.665431 0.0342107 0.0594339
0.0222629 0.0373693 0.0323796
0.0222782 0.0373388 0.032517
0.0222629 0.0371099 0.032578
0.0222477 0.0368353 0.0327611
0.0221561 0.0363165 0.0330053
0.0221408 0.0359503 0.0331731
0.0221408 0.0361639 0.033051
0.0294804 0.036408 0.0340124
0.0409247 0.0356756 0.0333257
0.0562905 0.034165 0.0315099
0.0760204 0.0321355 0.0290074
0.0939803 0.031693 0.0275731
0.112169 0.0320592 0.0273747
0.132738 0.031754 0.0263981
0.15462 0.0305333 0.0246433
0.181949 0.0287785 0.022858
0.207721 0.0276951 0.0218357
0.234745 0.026566 0.0211948
0.261982 0.0259709 0.0212558
0.290288 0.0247196 0.0216983
0.319707 0.0238193 0.0228428
0.348058 0.0215 0.0235447
0.377127 0.019028 0.0239261
0.406607 0.0163729 0.0239872
0.435508 0.0126192 0.0244755
0.464256 0.0121157 0.0262303
0.493919 0.0122988 0.0301823
0.521889 0.0135958 0.0337072
0.550423 0.0154116 0.0388495
0.576928 0.0172885 0.0441596
0.599771 0.0193027 0.0477607
0.618204 0.0210117 0.0503548
0.62359 0.0217746 0.0505837
0.623316 0.0216678 0.0499275
0.624918 0.0218662 0.0532387
0.62678 0.0222934 0.0560769
0.626627 0.0222782 0.056611
0.625635 0.0220645 0.05626
0.625589 0.0220493 0.0563058
0.627802 0.0224613 0.0580911
0.628428 0.0225834 0.0585184
0.628244 0.0224765 0.0574502
0.626612 0.0220645 0.055436
0.626352 0.0219425 0.0543069
0.628351 0.0223087 0.0553292
0.629923 0.0227054 0.0561379
0.630732 0.022858 0.0561532
0.631464 0.0229343 0.0559396
0.633005 0.0229343 0.0557717
0.634287 0.0230259 0.0555123
0.635782 0.0230869 0.0548562
0.637156 0.0233005 0.0541543
0.638102 0.0234989 0.0529946
0.64033 0.0240787 0.0529641
0.642618 0.0244602 0.0534371
0.644373 0.0248112 0.0540627
0.646555 0.0255436 0.0546273
0.648646 0.0267185 0.0552529
0.651331 0.0279698 0.0559091
0.653727 0.0290532 0.0565194
0.65539 0.0298619 0.0566262
0.658946 0.0314946 0.0573587
0.662272 0.0333867 0.0583963
0.665629 0.0354009 0.059617
0.669474 0.0366674 0.0602579
0.0222171 0.0436561 0.0323033
0.0222324 0.0434424 0.0323491
0.0222324 0.0433051 0.0324712
0.0222477 0.0428626 0.0325322
0.0221561 0.0421149 0.0325628
0.0223087 0.0413672 0.0331731
0.0243381 0.0405737 0.0341497
0.0298009 0.0404974 0.0349889
0.03888 0.0403754 0.0350652
0.05243 0.0382849 0.0334325
0.0686809 0.0360876 0.03093
0.0883955 0.0339666 0.0284123
0.108095 0.0334936 0.0272068
0.13048 0.0334783 0.027039
0.153079 0.032578 0.0257267
0.180423 0.0307774 0.0238499
0.207858 0.0300298 0.0229038
0.234577 0.0289464 0.0221561
0.262806 0.0286259 0.0221561
0.29189 0.0275578 0.0225834
0.320302 0.0256352 0.0233463
0.350103 0.0234684 0.0243076
0.378683 0.0205844 0.0245212
0.407645 0.0180667 0.0244602
0.436988 0.0138247 0.0247196
0.465141 0.0121157 0.0260166
0.494804 0.0124208 0.0301671
0.523201 0.0136568 0.0335088
0.551492 0.0155947 0.0389258
0.578836 0.0172885 0.0438849
0.601831 0.0194705 0.0483864
0.620401 0.0212558 0.0509957
0.625269 0.0219425 0.0512703
0.625666 0.0219883 0.0514382
0.626047 0.0220798 0.0531624
0.626001 0.0220493 0.053666
0.625467 0.0218814 0.0536049
0.626261 0.0219883 0.0545205
0.627405 0.0221714 0.0554513
0.628214 0.0223392 0.0560159
0.628107 0.0222782 0.0555123
0.628153 0.0222324 0.0549325
0.629328 0.0224002 0.0551766
0.630121 0.0227207 0.0556497
0.631189 0.0229191 0.0560616
0.632319 0.0229343 0.0560159
0.633555 0.0229191 0.0559701
0.634775 0.0230106 0.0560922
0.636347 0.0231174 0.0563058
0.637552 0.02327 0.0565194
0.638834 0.0234684 0.0565652
0.640391 0.023682 0.0562142
0.642176 0.0238346 0.0553902
0.643565 0.0239719 0.0543679
0.645594 0.0248722 0.0543526
0.647868 0.026276 0.055024
0.650416 0.0274968 0.0557107
0.652567 0.0285039 0.05626
0.654749 0.0295262 0.0566415
0.656611 0.0303502 0.0567178
0.660075 0.0320592 0.0576638
0.663157 0.0339666 0.0586557
0.666148 0.0359503 0.0598459
0.669612 0.0376593 0.0602884
0.672877 0.039292 0.0607004
0.0214542 0.052369 0.0324254
0.0214694 0.0522774 0.0324102
0.0215152 0.051606 0.0323339
0.0215305 0.0513313 0.0323491
0.021622 0.0503243 0.0328985
0.0221561 0.0492256 0.0339818
0.0241855 0.0480812 0.034287
0.0308843 0.0472877 0.0351263
0.0391852 0.0476387 0.0365148
0.0517586 0.0472725 0.0353094
0.0674296 0.04477 0.034638
0.0862287 0.0424048 0.0320745
0.106554 0.0406653 0.0293278
0.127275 0.0382086 0.0267643
0.150622 0.0361486 0.0257115
0.178927 0.0337987 0.0246738
0.206241 0.0323339 0.0235599
0.233433 0.0315862 0.0226139
0.263096 0.0312047 0.0227207
0.292409 0.0300145 0.0233616
0.321416 0.0275883 0.0240635
0.350484 0.0248569 0.0246128
0.380209 0.0227054 0.0248875
0.409171 0.0199588 0.024979
0.438621 0.016434 0.0257572
0.466194 0.0122683 0.0260471
0.494926 0.0124361 0.0296788
0.524407 0.0137636 0.0333867
0.552636 0.0157473 0.0386816
0.579965 0.0173037 0.0433967
0.604349 0.0194553 0.0481727
0.62269 0.0216678 0.0525673
0.629526 0.0225986 0.0532235
0.629557 0.0226291 0.0535744
0.629313 0.0225834 0.0539712
0.62948 0.0226291 0.0549783
0.629618 0.0226596 0.0557565
0.629786 0.0227207 0.0560616
0.629969 0.0227817 0.0562295
0.630304 0.022858 0.05626
0.63093 0.0229343 0.0563211
0.631678 0.0229953 0.0563363
0.632731 0.0229648 0.0563058
0.633631 0.0229801 0.0563668
0.634607 0.0230411 0.0564126
0.635966 0.0230716 0.0564889
0.637079 0.023209 0.0567788
0.638132 0.0234226 0.0574502
0.639704 0.0235752 0.057908
0.641413 0.0236973 0.0581826
0.642878 0.0238956 0.0585031
0.644358 0.0241093 0.0585031
0.645762 0.0243076 0.0577707
0.647211 0.0246738 0.0565499
0.64918 0.025452 0.0557259
0.651759 0.0276951 0.0563363
0.654215 0.029221 0.0566873
0.655726 0.0299992 0.0566415
0.658824 0.0314031 0.0573281
0.661738 0.0329137 0.0582132
0.664256 0.0347906 0.0591897
0.667491 0.0364843 0.06009
0.670314 0.0385138 0.0606088
0.673442 0.0403143 0.0610819
0.677546 0.0429084 0.0621347
0.0208896 0.0635996 0.0330053
0.0209049 0.0631723 0.0329595
0.0209201 0.0627909 0.0329595
0.0208438 0.0621347 0.0328527
0.020798 0.0613565 0.0328222
0.0216678 0.0602426 0.0335241
0.0241093 0.0585184 0.0343023
0.0290837 0.0571298 0.0353094
0.0398871 0.0570535 0.037232
0.0502632 0.0573892 0.037995
0.0668193 0.0561379 0.0357366
0.0857404 0.0542153 0.035523
0.1066 0.0512398 0.0332799
0.128725 0.0485237 0.0304723
0.152712 0.0460212 0.0273747
0.180758 0.0412909 0.0239719
0.20679 0.0382696 0.0231022
0.233249 0.0353704 0.0236973
0.262745 0.0337835 0.0235447
0.292851 0.0323491 0.0242008
0.322332 0.0305028 0.0247959
0.352026 0.0273594 0.0252689
0.381308 0.0252232 0.0254826
0.4103 0.0230869 0.0257877
0.439887 0.0189364 0.026688
0.467323 0.013611 0.0263828
0.495293 0.0124666 0.0290532
0.525261 0.0138552 0.0327764
0.553964 0.0157321 0.0378424
0.581765 0.0174563 0.0431525
0.60592 0.0198367 0.052369
0.626337 0.0220951 0.0564431
0.634333 0.0229953 0.0574197
0.633478 0.0229648 0.0577249
0.633295 0.0229496 0.0582132
0.633417 0.0229191 0.0585489
0.6336 0.0228733 0.0581216
0.633738 0.0228428 0.0571908
0.634089 0.0229038 0.0562753
0.634272 0.0229801 0.055787
0.634577 0.0230716 0.0556649
0.635431 0.0231174 0.0555734
0.636225 0.023209 0.0556344
0.637171 0.0232853 0.0557259
0.637888 0.0234531 0.0560159
0.639155 0.0235752 0.0562142
0.640742 0.0237583 0.0563973
0.642115 0.0238499 0.0564736
0.643488 0.0240177 0.056733
0.644862 0.0241855 0.0569772
0.646372 0.024445 0.0574044
0.647929 0.0246891 0.057084
0.64979 0.0248112 0.0565347
0.651225 0.0252079 0.0561532
0.653559 0.0270085 0.0567025
0.655589 0.0290379 0.057435
0.657679 0.0303502 0.0573434
0.660883 0.0321813 0.0580453
0.663661 0.0341802 0.0589609
0.666377 0.0359197 0.060029
0.669627 0.0380713 0.0604105
0.672312 0.0400702 0.0606851
0.675273 0.0432136 0.0616312
0.678645 0.0455634 0.0621042
0.68304 0.0486 0.0627146
0.022446 0.0747692 0.0332952
0.0218204 0.0749218 0.0332799
0.0213931 0.0745251 0.0332799
0.0210727 0.0739452 0.0331884
0.0208743 0.0734112 0.0332189
0.0228428 0.0722515 0.0336461
0.0259251 0.070985 0.0342718
0.0312657 0.068452 0.0359808
0.0397345 0.0679942 0.0373693
0.0538491 0.0678111 0.0375677
0.064622 0.0672007 0.0362402
0.0865034 0.0669871 0.035935
0.107286 0.0639048 0.0363928
0.130755 0.0605478 0.0345464
0.157244 0.0567636 0.0311589
0.185855 0.0528725 0.0274357
0.211795 0.0490578 0.0247349
0.238468 0.0449073 0.0224765
0.265126 0.0408484 0.0223392
0.294057 0.0375677 0.0245823
0.323262 0.033814 0.0253605
0.353674 0.0312657 0.0263523
0.382544 0.0284733 0.0261387
0.412604 0.0260319 0.0265202
0.441001 0.0222782 0.0270237
0.469642 0.0172122 0.0273747
0.495918 0.0135348 0.0286107
0.525902 0.0142214 0.0320134
0.555016 0.0156863 0.03682
0.582467 0.0175631 0.0429694
0.607797 0.0199435 0.0494698
0.629694 0.0225834 0.0561074
0.637919 0.0233616 0.0581064
0.637812 0.023331 0.0588388
0.637171 0.0231632 0.0591745
0.637247 0.0231785 0.0594797
0.637171 0.0231937 0.0592813
0.637308 0.0232395 0.0583963
0.637537 0.023331 0.057557
0.637751 0.0234226 0.0568551
0.638498 0.0235294 0.0566415
0.639261 0.023621 0.0566567
0.640345 0.0237583 0.0568399
0.641703 0.0238041 0.0570535
0.642573 0.0239261 0.0572061
0.643702 0.0240482 0.057435
0.644877 0.0241855 0.057557
0.646113 0.0243687 0.0578622
0.647501 0.0246433 0.0581674
0.649226 0.0247501 0.0576486
0.650843 0.0250248 0.0573739
0.652613 0.0253605 0.057084
0.654307 0.0256962 0.0569009
0.656107 0.0268101 0.0572213
0.658473 0.0285191 0.0575418
0.660517 0.0301671 0.0578927
0.663233 0.0323796 0.0591287
0.666087 0.0349432 0.0602121
0.669261 0.0370489 0.0603494
0.671672 0.0391546 0.0605325
0.674556 0.042237 0.0614176
0.677562 0.0449683 0.0619364
0.681804 0.0482795 0.0626535
0.685206 0.0515145 0.0628214
0.689036 0.0540932 0.0634318
0.022034 0.0895399 0.0336919
0.0214542 0.0892958 0.0331121
0.0210269 0.0889906 0.0330968
0.0208896 0.0884871 0.0330358
0.0207065 0.087892 0.0329747
0.0213779 0.0872816 0.0331579
0.0264744 0.0853437 0.035462
0.0304875 0.0837415 0.035996
0.036759 0.0811475 0.0375067
0.0491646 0.08159 0.0392615
0.066743 0.082002 0.0376135
0.0808881 0.0804913 0.0367132
0.106432 0.0807355 0.0368811
0.130648 0.0769513 0.0380255
0.158495 0.0711833 0.0361639
0.189822 0.0660258 0.0326696
0.218967 0.0613565 0.029572
0.246387 0.0569009 0.0268101
0.272999 0.0521401 0.0251316
0.299794 0.0469978 0.0242008
0.326177 0.0419776 0.0249638
0.354788 0.0373693 0.0279088
0.383886 0.0324559 0.0275731
0.41326 0.0291447 0.0271
0.442481 0.0255589 0.0282139
0.471427 0.0210727 0.0283665
0.497734 0.0165866 0.0294041
0.526528 0.0153048 0.0318914
0.555489 0.0163119 0.0359503
0.584344 0.0177005 0.0416876
0.609216 0.0200809 0.0485389
0.631174 0.0228885 0.0560159
0.642527 0.0237888 0.0590829
0.642496 0.0237736 0.0596933
0.642756 0.0238193 0.0604562
0.642588 0.0237888 0.0606699
0.641886 0.0237125 0.0603952
0.64213 0.0237736 0.059678
0.64242 0.0238499 0.0587778
0.642863 0.0239261 0.0583047
0.64358 0.0240177 0.0581064
0.644221 0.024094 0.0578164
0.64506 0.0241703 0.0577554
0.645884 0.0242771 0.0577859
0.64686 0.024506 0.0581979
0.648066 0.0246433 0.0583963
0.649592 0.0247349 0.0579232
0.650919 0.0249943 0.0577096
0.652628 0.0253147 0.0574044
0.654215 0.0256046 0.0571603
0.655543 0.0259861 0.0570382
0.658259 0.0275731 0.0575875
0.659586 0.028336 0.0575723
0.661433 0.0294957 0.0578012
0.664103 0.0311589 0.0590677
0.666987 0.0331426 0.0601816
0.669673 0.0358282 0.0608225
0.671931 0.0381476 0.0606394
0.674662 0.0411994 0.0614481
0.677577 0.0444495 0.0619516
0.681453 0.0479438 0.0627146
0.684596 0.0513619 0.0626841
0.687541 0.0538643 0.0631723
0.691646 0.0568399 0.0637827
0.695506 0.0605936 0.0637217
0.0251469 0.104753 0.0370031
0.0244755 0.104494 0.0359197
0.0239872 0.104341 0.0357519
0.0234684 0.103487 0.0353552
0.0231785 0.10312 0.0351415
0.0230259 0.102312 0.0350652
0.025864 0.101228 0.0360113
0.0304265 0.0998245 0.0368658
0.035462 0.0981765 0.0377661
0.0454261 0.0971237 0.0397498
0.0627604 0.0968948 0.0410468
0.0815137 0.0976272 0.0378576
0.10042 0.0956588 0.0373693
0.127321 0.0954757 0.0369116
0.159808 0.0899519 0.0396735
0.192386 0.0831464 0.03888
0.224643 0.0786145 0.0354162
0.254932 0.0725109 0.0329595
0.283589 0.0667887 0.0308232
0.311192 0.0614939 0.0293278
0.337102 0.0554513 0.0278477
0.362554 0.0487831 0.0267338
0.388464 0.0432136 0.0287175
0.415091 0.0370489 0.0291295
0.443534 0.0297704 0.0292668
0.473182 0.0256809 0.0299382
0.499062 0.0197452 0.0298619
0.52784 0.0173648 0.0323644
0.557244 0.0176089 0.0359197
0.584955 0.0190127 0.0408179
0.610819 0.0201419 0.0470588
0.63389 0.0228885 0.0551003
0.646723 0.0243687 0.0596475
0.646632 0.0243229 0.0601663
0.64683 0.0243381 0.0608835
0.647013 0.0243076 0.061387
0.647517 0.0242771 0.0612497
0.64741 0.0242466 0.0603189
0.647715 0.0243229 0.0592355
0.647883 0.0244297 0.0585031
0.648356 0.024567 0.0582437
0.649073 0.0246586 0.0581674
0.65005 0.0247196 0.0581521
0.65095 0.0249638 0.0579385
0.65211 0.0251621 0.0576333
0.653696 0.0254368 0.0572824
0.654795 0.0257572 0.0571603
0.656184 0.026154 0.0571298
0.658686 0.0275883 0.0576181
0.659739 0.0283055 0.0575418
0.661509 0.0293736 0.0577554
0.663859 0.0307622 0.0588693
0.666499 0.032105 0.0597391
0.669551 0.0345769 0.0606699
0.671382 0.0361028 0.0606851
0.673045 0.0379034 0.0607767
0.676143 0.040177 0.0615396
0.678569 0.0433051 0.0621805
0.682231 0.0469825 0.0628214
0.685176 0.0508278 0.0629129
0.687968 0.0539712 0.0633249
0.691508 0.057023 0.0637675
0.694774 0.0607767 0.0636912
0.698238 0.0652171 0.0632486
0.702281 0.0697948 0.0637522
0.0252995 0.121889 0.0379492
0.0248875 0.121706 0.0372625
0.0247196 0.121004 0.0366522
0.0247196 0.120775 0.0366674
0.0248722 0.120302 0.0369268
0.0249485 0.120027 0.0370947
0.0253758 0.119341 0.0371557
0.0294652 0.118257 0.0378729
0.0349584 0.117021 0.0386664
0.0421454 0.114778 0.0399939
0.0557259 0.114488 0.0420844
0.0771954 0.114137 0.0424964
0.0988937 0.115129 0.0373541
0.120241 0.11249 0.0370947
0.152605 0.112245 0.0369879
0.195315 0.106661 0.041001
0.228061 0.100862 0.0423285
0.262181 0.0945449 0.0403601
0.294362 0.089662 0.0381628
0.324224 0.0830701 0.0356146
0.353109 0.0776684 0.0348363
0.378073 0.0708019 0.0330663
0.402029 0.0630503 0.0315862
0.425849 0.0541543 0.0302281
0.451804 0.0464485 0.0321508
0.475517 0.0349737 0.0319219
0.5019 0.0254673 0.0317845
0.529061 0.0196078 0.0323491
0.558419 0.0198672 0.0358434
0.585916 0.0211948 0.0404974
0.612757 0.0214847 0.046067
0.635554 0.0228733 0.0529183
0.651377 0.024918 0.0598001
0.651469 0.0249332 0.0604562
0.651942 0.024979 0.0612345
0.652522 0.0250706 0.0619364
0.652888 0.0251164 0.0619516
0.653346 0.0252232 0.0612802
0.653544 0.0252689 0.0602426
0.653193 0.0252384 0.0589303
0.653956 0.0254063 0.0577401
0.654627 0.0256199 0.0572061
0.655787 0.0259098 0.0569772
0.656748 0.0263981 0.0571756
0.658518 0.0271763 0.0575265
0.659663 0.0281529 0.0576028
0.660777 0.028809 0.0575875
0.662867 0.0302281 0.05832
0.66482 0.0312505 0.0590829
0.667567 0.032639 0.0600137
0.669825 0.0347601 0.0606546
