bundles/resolve-cinematic-luts/Phantom Luts/Komodo Phantom FILM LUTs G2/Komodo Phantom FILM LUTs G2/65x/WB Offset - Green Boost/VisionTeal_Komodo_WBO_G2_65x.cube
TITLE "Generated by Resolve"
LUT_3D_SIZE 5
0.0222629 0.0351263 0.0329137
0.1991 0.0220951 0.0196231
0.637064 0.024506 0.0774548
0.635142 0.0240635 0.0718242
0.652216 0.0271 0.0563516
0.0273594 0.221744 0.0447852
0.198779 0.223377 0.0377356
0.697002 0.0731975 0.0593118
0.70544 0.0707103 0.063035
0.780758 0.300038 0.134264
0.257939 0.778271 0.299367
0.289967 0.777539 0.251362
0.755306 0.784222 0.276036
0.812528 0.793256 0.315511
0.812375 0.78854 0.308034
0.262119 0.831632 0.413275
0.265354 0.827222 0.396277
0.709026 0.785534 0.322301
0.812772 0.81706 0.388022
0.81297 0.817044 0.388022
0.265248 0.828687 0.410956
0.264973 0.827543 0.399832
0.618738 0.764904 0.308339
0.813214 0.817029 0.387793
0.81326 0.817029 0.388037
0.0203708 0.0621347 0.203311
0.236744 0.0274357 0.223377
0.676646 0.0600748 0.332616
0.673716 0.0509804 0.308721
0.667994 0.0397345 0.228412
0.0189517 0.194171 0.138567
0.199207 0.219516 0.182605
0.64538 0.0250858 0.075639
0.657145 0.0260624 0.0618906
0.7738 0.250507 0.116869
0.174838 0.796933 0.427665
0.239902 0.758282 0.31191
0.746242 0.776287 0.265034
0.813092 0.783932 0.299474
0.813275 0.783719 0.299245
0.230533 0.859953 0.505058
0.262318 0.832059 0.415473
0.681224 0.778668 0.316808
0.812772 0.817044 0.388006
0.812955 0.817044 0.388022
0.231464 0.851041 0.474922
0.263462 0.830503 0.414389
0.58323 0.759304 0.306279
0.812665 0.817075 0.386557
0.81326 0.817029 0.388037
0.0193637 0.145968 0.588754
0.179446 0.10988 0.626535
0.739849 0.112627 0.762371
0.73846 0.116274 0.781292
0.732158 0.102159 0.714885
0.0194858 0.252995 0.597604
0.0191653 0.125917 0.577432
0.73312 0.108629 0.743114
0.740475 0.111513 0.757443
0.714717 0.099382 0.661402
0.0799725 0.768948 0.68719
0.078645 0.758175 0.676387
0.733089 0.747509 0.701228
0.866011 0.727718 0.670604
0.847181 0.736996 0.575769
0.123415 0.923659 0.768246
0.12784 0.920546 0.741741
0.311513 0.833585 0.47509
0.812848 0.817151 0.382757
0.812482 0.81709 0.385885
0.129488 0.919631 0.737484
0.150851 0.91046 0.70724
0.227192 0.8533 0.475532
0.80795 0.816297 0.372503
0.812451 0.81706 0.386496
0.0199588 0.139651 0.635294
0.209857 0.0995346 0.670726
0.738369 0.118166 0.785702
0.738369 0.118166 0.785702
0.738369 0.118166 0.785702
0.0194247 0.252796 0.665614
0.0314641 0.139986 0.640085
0.737087 0.117952 0.785107
0.738369 0.118166 0.785702
0.738369 0.118181 0.785702
0.021088 0.729885 0.771282
0.0212711 0.71902 0.768551
0.625666 0.610315 0.860487
0.858015 0.604425 0.866026
0.848508 0.567086 0.858427
0.145769 0.92697 0.865064
0.145769 0.92697 0.86511
0.161837 0.935058 0.855619
0.914107 0.93048 0.906126
0.91519 0.911528 0.880339
0.145357 0.927184 0.865202
0.145373 0.927169 0.865202
0.139147 0.929641 0.832807
0.873732 0.930129 0.869215
0.926589 0.93611 0.862211
0.0299229 0.140017 0.639567
0.213031 0.0859998 0.669352
0.738369 0.118166 0.785702
0.738369 0.118166 0.785702
0.738369 0.118166 0.785702
0.0195621 0.246403 0.664286
0.0416724 0.139986 0.643961
0.738369 0.118166 0.785702
0.738354 0.118166 0.785687
0.738354 0.118166 0.785687
0.0210574 0.724819 0.770016
0.0211185 0.713954 0.767498
0.617578 0.590204 0.85687
0.851835 0.580209 0.860517
0.842054 0.54493 0.85301
0.145846 0.926925 0.86508
0.145571 0.927062 0.865141
0.138323 0.926223 0.868086
0.900053 0.912337 0.911589
0.925414 0.908202 0.916152
0.145357 0.927184 0.865202
0.145373 0.927169 0.865202
0.146304 0.928084 0.865446
0.604227 0.904784 0.857664
0.943771 0.952392 0.93492
