bundles/resolve-cinematic-luts/Phantom Luts/Komodo Phantom FILM LUTs G2/Komodo Phantom FILM LUTs G2/65x/WB Offset - Green Boost/VisionTeal_Komodo_WBO_G2_65x.cube
TITLE "Generated by Resolve"
LUT_3D_SIZE 9
0.0222629 0.0351263 0.0329137
0.0502785 0.0324712 0.0317845
0.1991 0.0220951 0.0196231
0.427024 0.0121157 0.0251469
0.637064 0.024506 0.0774548
0.645396 0.027512 0.10428
0.635142 0.0240635 0.0718242
0.631556 0.0231174 0.051133
0.652216 0.0271 0.0563516
0.0208896 0.0635996 0.0330053
0.0398871 0.0570535 0.037232
0.20679 0.0382696 0.0231022
0.439887 0.0189364 0.026688
0.634333 0.0229953 0.0574197
0.634577 0.0230716 0.0556649
0.643488 0.0240177 0.056733
0.657679 0.0303502 0.0573434
0.68304 0.0486 0.0627146
0.0273594 0.221744 0.0447852
0.0256352 0.214679 0.0382696
0.198779 0.223377 0.0377356
0.528161 0.209369 0.0867628
0.697002 0.0731975 0.0593118
0.689296 0.0491798 0.0635386
0.70544 0.0707103 0.063035
0.750713 0.150652 0.0853132
0.780758 0.300038 0.134264
0.111208 0.51838 0.149767
0.111116 0.510979 0.12105
0.141039 0.500938 0.112154
0.484901 0.507225 0.107301
0.76054 0.591745 0.170504
0.790478 0.593378 0.179995
0.790082 0.592844 0.181994
0.790326 0.610895 0.16556
0.791302 0.644099 0.149905
0.257939 0.778271 0.299367
0.262806 0.7776 0.270832
0.289967 0.777539 0.251362
0.507393 0.71429 0.253864
0.755306 0.784222 0.276036
0.812848 0.791287 0.312261
0.812528 0.793256 0.315511
0.81239 0.794491 0.31841
0.812375 0.78854 0.308034
0.262257 0.830823 0.410605
0.263127 0.829602 0.40679
0.264149 0.82797 0.396735
0.314641 0.794339 0.271351
0.724239 0.789715 0.327474
0.812909 0.817136 0.382498
0.813001 0.817029 0.388006
0.812833 0.816983 0.388205
0.812757 0.81706 0.388006
0.262119 0.831632 0.413275
0.262638 0.830106 0.409003
0.265354 0.827222 0.396277
0.291173 0.801556 0.288457
0.709026 0.785534 0.322301
0.810651 0.816831 0.37673
0.812772 0.81706 0.388022
0.81294 0.817029 0.388037
0.81297 0.817044 0.388022
0.263157 0.830457 0.412665
0.262181 0.83064 0.409979
0.264103 0.828016 0.397589
0.273732 0.810987 0.317098
0.693477 0.78146 0.319539
0.805951 0.81593 0.371145
0.81326 0.817029 0.388037
0.81326 0.817029 0.388037
0.813321 0.816999 0.388128
0.265248 0.828687 0.410956
0.263996 0.829282 0.409461
0.264973 0.827543 0.399832
0.267506 0.823789 0.388724
0.618738 0.764904 0.308339
0.78941 0.813626 0.355718
0.813214 0.817029 0.387793
0.81326 0.817029 0.388052
0.81326 0.817029 0.388037
0.0219425 0.0396277 0.0613718
0.0562905 0.0333562 0.0710002
0.231342 0.0247807 0.0679942
0.474586 0.0218204 0.0899977
0.657099 0.032929 0.168414
0.660807 0.0350195 0.187381
0.656565 0.0325475 0.164706
0.639948 0.0256352 0.0882582
0.645899 0.0242161 0.0606088
0.0213931 0.0554971 0.0484474
0.0320287 0.0506905 0.0470436
0.205921 0.0199283 0.0235294
0.431281 0.0122072 0.0314946
0.62977 0.0229801 0.0680247
0.630838 0.0231785 0.066865
0.636011 0.0231327 0.0584115
0.651881 0.0252842 0.056672
0.68159 0.0441596 0.0625315
0.0186618 0.221866 0.063386
0.022034 0.209323 0.0467689
0.187396 0.214633 0.0384222
0.524254 0.18294 0.0807813
0.685206 0.0555734 0.0605936
0.679347 0.0386511 0.0617075
0.701808 0.0649882 0.063447
0.752224 0.146334 0.0826734
0.780987 0.312428 0.138933
0.105791 0.520958 0.187015
0.107759 0.511452 0.150607
0.120653 0.496513 0.110155
0.480385 0.503059 0.105364
0.761135 0.585077 0.173388
0.790692 0.58265 0.185763
0.790646 0.581567 0.188861
0.790646 0.614252 0.162493
0.792355 0.649256 0.148455
0.247456 0.778256 0.33315
0.253071 0.773251 0.3028
0.290623 0.774716 0.248569
0.489754 0.711498 0.247807
0.75288 0.782849 0.273304
0.812451 0.789471 0.3093
0.812848 0.790784 0.311666
0.812711 0.791852 0.312856
0.812497 0.78584 0.303304
0.262104 0.832151 0.415
0.262608 0.830533 0.410788
0.263661 0.828305 0.399664
0.287343 0.802274 0.284443
0.718395 0.788281 0.325826
0.812924 0.817136 0.381994
0.812879 0.817044 0.388037
0.812802 0.816968 0.388235
0.812741 0.81706 0.388006
0.261997 0.833051 0.418189
0.262379 0.831434 0.413565
0.26389 0.828138 0.400443
0.275441 0.810498 0.318639
0.701411 0.783337 0.320424
0.80882 0.816464 0.374777
0.812787 0.817044 0.388022
0.81294 0.817029 0.388037
0.81297 0.817044 0.388022
0.26302 0.831815 0.41706
0.262058 0.83209 0.414801
0.263539 0.828428 0.401175
0.266972 0.816312 0.34374
0.685191 0.779293 0.317113
0.80415 0.815641 0.369146
0.813107 0.816953 0.388266
0.81326 0.817029 0.388037
0.813321 0.817014 0.388113
0.26482 0.829465 0.414496
0.263584 0.830045 0.412757
0.264439 0.827893 0.402335
0.267689 0.82472 0.392859
0.608621 0.763088 0.3075
0.788724 0.81416 0.352636
0.813199 0.817014 0.387655
0.81326 0.817029 0.388052
0.81326 0.817029 0.388037
0.0203708 0.0621347 0.203311
0.0457008 0.0504616 0.225132
0.236744 0.0274357 0.223377
0.48571 0.0460059 0.261158
0.676646 0.0600748 0.332616
0.674357 0.0541238 0.321752
0.673716 0.0509804 0.308721
0.672419 0.0464942 0.279377
0.667994 0.0397345 0.228412
0.0204929 0.0728771 0.16585
0.0202487 0.0567788 0.199756
0.217624 0.0272831 0.206973
0.479622 0.0483711 0.235279
0.673182 0.0491951 0.298558
0.673213 0.0482185 0.292424
0.671672 0.0460365 0.271977
0.666499 0.038941 0.219837
0.640223 0.0247807 0.0740673
0.0189517 0.194171 0.138567
0.0191501 0.189868 0.135851
0.199207 0.219516 0.182605
0.530526 0.0996872 0.118288
0.64538 0.0250858 0.075639
0.645609 0.0243687 0.0674754
0.657145 0.0260624 0.0618906
0.708598 0.0761883 0.0714733
0.7738 0.250507 0.116869
0.0705577 0.525505 0.27129
0.0677958 0.522042 0.251942
0.0950332 0.490806 0.158679
0.465385 0.487388 0.100664
0.763256 0.560128 0.190295
0.792523 0.542565 0.198642
0.79144 0.559472 0.196231
0.789776 0.600885 0.175357
0.791165 0.64155 0.150332
0.174838 0.796933 0.427665
0.202853 0.787121 0.409171
0.239902 0.758282 0.31191
0.426917 0.707637 0.230091
0.746242 0.776287 0.265034
0.813016 0.783917 0.299596
0.813092 0.783932 0.299474
0.813138 0.78436 0.300191
0.813275 0.783719 0.299245
0.230396 0.851728 0.470497
0.255879 0.840345 0.446143
0.262409 0.831235 0.412695
0.266529 0.819806 0.360906
0.70338 0.784009 0.321324
0.812848 0.817075 0.380331
0.812894 0.817044 0.388022
0.812757 0.816999 0.38819
0.812711 0.817044 0.388022
0.230533 0.859953 0.505058
0.227466 0.852659 0.472908
0.262318 0.832059 0.415473
0.264942 0.825528 0.388037
0.681224 0.778668 0.316808
0.80502 0.815778 0.369772
0.812772 0.817044 0.388006
0.812787 0.817029 0.388083
0.812955 0.817044 0.388022
0.232609 0.860044 0.510323
0.227558 0.853971 0.479103
0.261967 0.832685 0.41677
0.264286 0.827787 0.396536
0.661051 0.77406 0.313542
0.799741 0.814786 0.365179
0.812711 0.817044 0.388022
0.812726 0.816846 0.388632
0.813336 0.816999 0.388128
0.231464 0.851041 0.474922
0.254536 0.842008 0.453773
0.263462 0.830503 0.414389
0.267948 0.824628 0.393317
0.58323 0.759304 0.306279
0.785779 0.814969 0.346441
0.812665 0.817075 0.386557
0.812879 0.816907 0.388464
0.81326 0.817029 0.388037
0.0192264 0.100038 0.405035
0.0225834 0.0858167 0.41973
0.195377 0.0398718 0.437247
0.504982 0.0508736 0.48661
0.687831 0.057145 0.555154
0.690013 0.0572061 0.560098
0.677256 0.0450294 0.510719
0.676204 0.0482338 0.473762
0.689555 0.0835584 0.432898
0.0192416 0.127214 0.390066
0.0192874 0.0975204 0.403738
0.156176 0.0420386 0.435538
0.49485 0.0486763 0.477134
0.68368 0.052491 0.53933
0.681468 0.0480354 0.530816
0.675258 0.046067 0.484459
0.679423 0.0584268 0.462852
0.690547 0.0918593 0.415366
0.019089 0.187366 0.328786
0.0192264 0.179126 0.334188
0.0319066 0.107134 0.420066
0.458503 0.0433967 0.432456
0.673442 0.0455787 0.486061
0.680446 0.055436 0.467079
0.689219 0.0770581 0.441688
0.690837 0.0904555 0.403021
0.672526 0.0517586 0.306386
0.0339971 0.494423 0.416403
0.0326085 0.490944 0.413779
0.0298314 0.477836 0.396948
0.499413 0.507439 0.448051
0.788235 0.436744 0.416297
0.799374 0.371908 0.346777
0.79379 0.375418 0.292729
0.791501 0.454322 0.281926
0.790921 0.570428 0.215564
0.137911 0.800946 0.565621
0.142977 0.79617 0.555962
0.153582 0.783581 0.526055
0.200015 0.733089 0.352651
0.697566 0.732448 0.262379
0.813199 0.764431 0.270924
0.812696 0.761379 0.266056
0.81326 0.762966 0.269062
0.813336 0.768582 0.276875
0.218219 0.877928 0.606973
0.221683 0.875761 0.599298
0.235203 0.868391 0.574166
0.263127 0.831464 0.416815
0.649012 0.771634 0.312184
0.806912 0.815976 0.371771
0.812757 0.817044 0.388891
0.812741 0.817014 0.389425
0.812482 0.817029 0.388769
0.212619 0.883177 0.625895
0.215305 0.879774 0.614801
0.229114 0.871305 0.583947
0.261799 0.833677 0.420203
0.610193 0.764324 0.309575
0.791821 0.813245 0.360388
0.812299 0.816892 0.38854
0.81239 0.816907 0.388495
0.812512 0.816938 0.388373
0.213443 0.883146 0.628717
0.214618 0.880354 0.616022
0.228534 0.871763 0.584466
0.26128 0.834592 0.422721
0.583261 0.760266 0.308476
0.787274 0.814527 0.350042
0.812375 0.816983 0.386069
0.812375 0.816953 0.388418
0.812024 0.816617 0.389502
0.223972 0.874189 0.599512
0.227619 0.872023 0.589624
0.240436 0.866545 0.565911
0.262913 0.831922 0.418402
0.473869 0.76257 0.286442
0.771374 0.810407 0.335836
0.812573 0.81709 0.383719
0.812558 0.817029 0.388144
0.812222 0.816724 0.389136
0.0193637 0.145968 0.588754
0.0191958 0.127001 0.589837
0.179446 0.10988 0.626535
0.501183 0.0947127 0.677043
0.739849 0.112627 0.762371
0.738888 0.114672 0.773709
0.73846 0.116274 0.781292
0.739376 0.114305 0.772457
0.732158 0.102159 0.714885
0.0193942 0.174731 0.593194
0.0194247 0.142061 0.586908
0.144366 0.124285 0.622843
0.486793 0.0906539 0.670359
0.739635 0.112123 0.759365
0.739269 0.114214 0.770031
0.738384 0.115221 0.775799
0.739986 0.112795 0.763531
0.72517 0.099855 0.695842
0.0194858 0.252995 0.597604
0.0194705 0.242817 0.603937
0.0191653 0.125917 0.577432
0.423133 0.0721294 0.640238
0.73312 0.108629 0.743114
0.740368 0.111299 0.756313
0.740475 0.111513 0.757443
0.739422 0.107424 0.735882
0.714717 0.099382 0.661402
0.0203861 0.50222 0.603555
0.0204166 0.496223 0.604059
0.0201572 0.470481 0.607919
0.329992 0.359319 0.717662
0.754314 0.300069 0.736782
0.762768 0.206821 0.721309
0.747097 0.165957 0.685161
0.73344 0.124971 0.640421
0.717205 0.0958877 0.555627
0.0799725 0.768948 0.68719
0.0786297 0.766537 0.685267
0.078645 0.758175 0.676387
0.0776989 0.739254 0.65304
0.733089 0.747509 0.701228
0.871183 0.732036 0.689128
0.866011 0.727718 0.670604
0.860761 0.734859 0.644022
0.847181 0.736996 0.575769
0.129396 0.920134 0.749554
0.130449 0.919326 0.744671
0.136034 0.916304 0.729076
0.168246 0.901015 0.685573
0.507897 0.819211 0.548669
0.814054 0.840681 0.582147
0.825498 0.826215 0.497765
0.827558 0.827756 0.512444
0.816159 0.819135 0.432273
0.123415 0.923659 0.768246
0.124636 0.922728 0.760143
0.12784 0.920546 0.741741
0.166293 0.904585 0.68838
0.311513 0.833585 0.47509
0.779934 0.813657 0.339727
0.812848 0.817151 0.382757
0.812772 0.81709 0.385672
0.812482 0.81709 0.385885
0.123629 0.923659 0.770199
0.124987 0.922591 0.759991
0.12842 0.920104 0.740032
0.169177 0.903273 0.685588
0.24387 0.850828 0.482643
0.764584 0.807507 0.333333
0.81268 0.817151 0.378943
0.812512 0.817105 0.38587
0.812558 0.817075 0.386114
0.129488 0.919631 0.737484
0.135836 0.916716 0.72639
0.150851 0.91046 0.70724
0.192737 0.893828 0.659632
0.227192 0.8533 0.475532
0.73019 0.792599 0.329
0.80795 0.816297 0.372503
0.812528 0.817105 0.385946
0.812451 0.81706 0.386496
0.01944 0.141741 0.630198
0.0311437 0.139986 0.639933
0.202258 0.121813 0.672343
0.498146 0.0919203 0.713344
0.738369 0.118166 0.785702
0.738369 0.118166 0.785702
0.738369 0.118166 0.785702
0.738369 0.118166 0.785702
0.738369 0.118166 0.785702
0.0193942 0.156451 0.626841
0.0194553 0.141466 0.630884
0.169162 0.137652 0.670161
0.480339 0.0864576 0.707912
0.738338 0.118181 0.785641
0.738338 0.118181 0.785641
0.738354 0.118166 0.785672
0.738369 0.118181 0.785702
0.738369 0.118166 0.785702
0.0196078 0.258442 0.666041
0.019379 0.242588 0.664073
0.0195163 0.13994 0.633371
0.403815 0.072343 0.688762
0.734188 0.117189 0.783719
0.738369 0.118166 0.785702
0.738354 0.118166 0.785672
0.738354 0.118166 0.785687
0.738277 0.118196 0.785595
0.0203708 0.449119 0.698894
0.0202335 0.440711 0.697826
0.0201724 0.41088 0.693217
0.187686 0.236973 0.728298
0.683482 0.179263 0.781323
0.741115 0.122759 0.788113
0.739605 0.120211 0.786572
0.741558 0.124163 0.788602
0.738994 0.119173 0.78616
0.0211643 0.736324 0.757809
0.0210117 0.733013 0.756741
0.0209049 0.723461 0.751385
0.0211643 0.702785 0.752682
0.645548 0.646754 0.85481
0.874128 0.652262 0.860716
0.872023 0.644526 0.85716
0.871229 0.637751 0.848966
0.859312 0.591485 0.822904
0.144366 0.919478 0.841871
0.141253 0.916289 0.838758
0.135393 0.90782 0.831235
0.119951 0.877012 0.802365
0.312047 0.859083 0.79675
0.858015 0.874159 0.843656
0.887083 0.848463 0.817823
0.88307 0.840803 0.807828
0.885206 0.843656 0.790097
0.156222 0.926848 0.853666
0.15639 0.925963 0.849271
0.149355 0.926406 0.84065
0.131334 0.927932 0.819776
0.127413 0.932998 0.781918
0.787442 0.891203 0.781811
0.898787 0.915633 0.804913
0.904555 0.911589 0.797726
0.902495 0.909453 0.79237
0.157092 0.926528 0.855344
0.153872 0.927352 0.851072
0.145342 0.928145 0.840955
0.12665 0.929381 0.817517
0.126925 0.929442 0.770718
0.748058 0.879881 0.754223
0.857618 0.885603 0.727504
0.812879 0.817151 0.382879
0.812619 0.817166 0.383429
0.144411 0.928191 0.839338
0.140627 0.928328 0.834409
0.132647 0.928588 0.824308
0.119371 0.929458 0.802625
0.128771 0.921508 0.741207
0.661692 0.860792 0.69099
0.828016 0.863279 0.662211
0.812741 0.817182 0.380972
0.812604 0.817151 0.383642
0.0199588 0.139651 0.635294
0.055787 0.138994 0.646143
0.209857 0.0995346 0.670726
0.516823 0.0977188 0.718654
0.738369 0.118166 0.785702
0.738369 0.118166 0.785702
0.738369 0.118166 0.785702
0.738369 0.118166 0.785702
0.738369 0.118166 0.785702
0.0192874 0.143465 0.628168
0.0223392 0.139803 0.636301
0.196384 0.132494 0.672358
0.497673 0.0918135 0.713176
0.738369 0.118166 0.785702
0.738354 0.118166 0.785702
0.738354 0.118166 0.785702
0.738369 0.118166 0.785702
0.738369 0.118166 0.785702
0.0194247 0.252796 0.665614
0.0194247 0.220768 0.654398
0.0314641 0.139986 0.640085
0.419333 0.0731823 0.691356
0.737087 0.117952 0.785107
0.738369 0.118166 0.785702
0.738369 0.118166 0.785702
0.738369 0.118181 0.785702
0.738369 0.118181 0.785702
0.0204623 0.423163 0.695827
0.0201877 0.41297 0.693629
0.0200961 0.380575 0.687602
0.15993 0.192813 0.703532
0.668879 0.144915 0.769955
0.739162 0.119524 0.786267
0.739178 0.119524 0.786297
0.73933 0.119707 0.786404
0.73904 0.119234 0.786206
0.021088 0.729885 0.771282
0.0213321 0.727337 0.770764
0.0212711 0.71902 0.768551
0.0210269 0.693095 0.763943
0.625666 0.610315 0.860487
0.861234 0.614466 0.869047
0.858015 0.604425 0.866026
0.857466 0.599908 0.865721
0.848508 0.567086 0.858427
0.127245 0.907134 0.861555
0.123598 0.902586 0.859983
0.114122 0.889113 0.85452
0.0746471 0.835401 0.824689
0.104738 0.842588 0.843717
0.819883 0.831006 0.894026
0.909606 0.835859 0.899077
0.90901 0.830655 0.896712
0.906065 0.814801 0.88632
0.145769 0.92697 0.865064
0.145373 0.927169 0.865202
0.145769 0.92697 0.86511
0.145861 0.926909 0.86508
0.161837 0.935058 0.855619
0.723125 0.899382 0.852995
0.914107 0.93048 0.906126
0.919524 0.918669 0.890486
0.91519 0.911528 0.880339
0.145357 0.927184 0.865202
0.145357 0.927184 0.865202
0.145373 0.927169 0.865202
0.146395 0.926635 0.864927
0.152056 0.93315 0.846143
0.319234 0.917906 0.823697
0.900465 0.938048 0.892424
0.933639 0.943542 0.892744
0.932876 0.941955 0.886854
0.145357 0.927184 0.865202
0.145373 0.927169 0.865202
0.145373 0.927169 0.865202
0.151415 0.926848 0.862348
0.139147 0.929641 0.832807
0.169177 0.947814 0.823529
0.873732 0.930129 0.869215
0.923537 0.939208 0.877119
0.926589 0.93611 0.862211
0.0276341 0.139925 0.638376
0.0681926 0.139849 0.650462
0.212467 0.0867933 0.669154
0.527184 0.101579 0.723323
0.738369 0.118166 0.785702
0.738369 0.118166 0.785702
0.738369 0.118166 0.785702
0.738369 0.118166 0.785702
0.738369 0.118166 0.785702
0.01944 0.142519 0.629664
0.0293126 0.140017 0.639384
0.201083 0.124102 0.672511
0.507515 0.0953231 0.716991
0.738369 0.118166 0.785702
0.738369 0.118166 0.785702
0.738369 0.118166 0.785702
0.738369 0.118166 0.785702
0.738369 0.118166 0.785702
0.0193179 0.250553 0.664729
0.0195315 0.212909 0.650126
0.0394751 0.140078 0.643214
0.428901 0.0753033 0.693782
0.73817 0.11812 0.78558
0.738354 0.118166 0.785702
0.738354 0.118166 0.785672
0.738369 0.118181 0.785702
0.738354 0.118166 0.785702
0.0203098 0.414557 0.694743
0.0200504 0.404501 0.692134
0.0201572 0.369711 0.685924
0.152316 0.180316 0.695445
0.665522 0.136584 0.766476
0.738964 0.119112 0.78613
0.73904 0.119265 0.786191
0.739101 0.119463 0.786221
0.738811 0.118944 0.786023
0.0213474 0.728328 0.770626
0.021088 0.725048 0.770077
0.0211643 0.717159 0.768078
0.0210117 0.687877 0.762814
0.622751 0.599863 0.859739
0.858076 0.604044 0.866117
0.855665 0.592523 0.864912
0.853147 0.587991 0.862425
0.845731 0.559487 0.856443
0.124575 0.904341 0.86041
0.121386 0.899657 0.859174
0.106859 0.878553 0.848981
0.0617838 0.827237 0.820813
0.106981 0.833402 0.838605
0.816602 0.821973 0.896223
0.906386 0.82359 0.89955
0.904982 0.818006 0.89836
0.901808 0.803662 0.896422
0.145846 0.926925 0.865064
0.145373 0.927169 0.865187
0.145617 0.927047 0.865141
0.145586 0.927062 0.865156
0.144183 0.931121 0.867704
0.650294 0.880919 0.860883
0.903456 0.916747 0.912886
0.928817 0.919478 0.918044
0.927749 0.913832 0.916747
0.145357 0.927184 0.865202
0.145357 0.927184 0.865202
0.146059 0.926802 0.864973
0.147555 0.92607 0.864622
0.15053 0.932891 0.867033
0.173312 0.946914 0.867857
0.861295 0.93489 0.906035
0.935637 0.946349 0.930007
0.935821 0.943877 0.924346
0.145357 0.927184 0.865202
0.145373 0.927169 0.865202
0.145373 0.927169 0.865202
0.145357 0.927184 0.865202
0.146883 0.928161 0.865309
0.175738 0.944274 0.860487
0.780392 0.922194 0.875029
0.932494 0.94873 0.92488
0.941711 0.951354 0.925887
0.0299229 0.140017 0.639567
0.0726024 0.14049 0.65211
0.213031 0.0859998 0.669352
0.525704 0.100984 0.722637
0.738369 0.118166 0.785702
0.738369 0.118166 0.785702
0.738369 0.118166 0.785702
0.738369 0.118166 0.785702
0.738369 0.118166 0.785702
0.0194553 0.141772 0.630228
0.0328985 0.140093 0.640833
0.20145 0.123491 0.67248
0.50634 0.0948348 0.71664
0.738369 0.118166 0.785702
0.738369 0.118166 0.785702
0.738369 0.118166 0.785702
0.738369 0.118166 0.785702
0.738369 0.118166 0.785702
0.0195621 0.246403 0.664286
0.019379 0.207156 0.647074
0.0416724 0.139986 0.643961
0.428275 0.0751965 0.69366
0.738369 0.118166 0.785702
0.738354 0.118166 0.785702
0.738354 0.118166 0.785687
0.738369 0.118181 0.785702
0.738354 0.118166 0.785687
0.0198825 0.405692 0.692576
0.0200351 0.394736 0.690105
0.0200809 0.360372 0.684428
0.144183 0.171084 0.688945
0.663554 0.134798 0.765393
0.738766 0.118868 0.785992
0.738872 0.11902 0.786068
0.738964 0.119173 0.78613
0.738674 0.118746 0.785916
0.0210574 0.724819 0.770016
0.0209812 0.72166 0.769299
0.0211185 0.713954 0.767498
0.0211032 0.683467 0.762173
0.617578 0.590204 0.85687
0.855314 0.592035 0.864683
0.851835 0.580209 0.860517
0.850874 0.574868 0.860044
0.842054 0.54493 0.85301
0.122362 0.900649 0.859556
0.118334 0.894896 0.856886
0.0997024 0.868666 0.843946
0.0570077 0.823178 0.820096
0.0908827 0.829938 0.837797
0.812863 0.814923 0.896284
0.904509 0.816739 0.898054
0.903334 0.809903 0.896834
0.900221 0.795575 0.895659
0.145846 0.926925 0.86508
0.145373 0.927169 0.865187
0.145571 0.927062 0.865141
0.145541 0.927077 0.865156
0.138323 0.926223 0.868086
0.651255 0.877302 0.860822
0.900053 0.912337 0.911589
0.927275 0.914549 0.91696
0.925414 0.908202 0.916152
0.145357 0.927184 0.865202
0.145357 0.927184 0.865202
0.145892 0.926894 0.86508
0.147341 0.926192 0.864851
0.149889 0.93228 0.866911
0.161929 0.947936 0.87097
0.842466 0.927687 0.903868
0.933165 0.944121 0.930266
0.937484 0.943542 0.930358
0.145357 0.927184 0.865202
0.145373 0.927169 0.865187
0.145373 0.927169 0.865202
0.145357 0.927184 0.865202
0.146304 0.928084 0.865446
0.164843 0.949493 0.87155
0.604227 0.904784 0.857664
0.923613 0.947768 0.929305
0.943771 0.952392 0.93492
