bundles/resolve-cinematic-luts/Gamut/_Conversion/Panasonic/Panasonic S5II BaseLUTs/Monitor LUTs/BaseLUT - Panasonic S5II - V-Log to Rec709 (Bold) ML.cube
TITLE "BaseLUT - Panasonic S5II - V-Log to Rec709 (Bold) ML"
# Monitoring LUT. Developed for converting V-Log / V-Gamut to Rec.709. Version 1.0 - 05/01/2025 - Copyright 2025 Gamut, LLC.
LUT_3D_SIZE 17
0.0000000000 0.0000000000 0.0000000000
0.0000000000 0.0000000000 0.0000000000
0.0000000000 0.0000000000 0.0000000000
0.0000000000 0.0000000000 0.0000000000
0.0000000000 0.0000000000 0.0000000000
0.0000000000 0.0000000000 0.0000000000
0.0103882565 0.0000000000 0.0000000000
0.1174374359 0.0000000000 0.0000000000
0.2702244483 0.0025626042 0.0027584619
0.4125872441 0.0045692404 0.0050496477
0.5171946336 0.0058735794 0.0380556968
0.6681814690 0.0056229408 0.2338183018
0.8341246873 0.0161005821 0.3193680329
0.9410044409 0.0441391703 0.3882156770
0.9990387605 0.1020256207 0.4614161755
1.0000000000 0.1888309232 0.5477042222
1.0000000000 0.3027695703 0.6399685161
0.0000000000 0.0000000000 0.0000000000
0.0000000000 0.0000000000 0.0000000000
0.0000000000 0.0000000000 0.0000000000
0.0000000000 0.0000000000 0.0000000000
0.0000369672 0.0000000000 0.0000000000
0.0637565563 0.0000000000 0.0000000000
0.1809820332 0.0010578815 0.0017088596
0.3048173289 0.0029139437 0.0031882408
0.4237209916 0.0049205799 0.0053839202
0.5453825977 0.0072781103 0.0086293230
0.6474657781 0.0080304717 0.0814910957
0.7688779223 0.0113918897 0.1846422535
0.8718809215 0.0222404414 0.2816382517
0.9564979797 0.0512104036 0.3650583871
0.9998579477 0.1087811313 0.4481783175
1.0000000000 0.1944610979 0.5414596806
1.0000000000 0.3065802333 0.6374411508
0.0000000000 0.0000000000 0.0000000000
0.0000000000 0.0000000000 0.0000000000
0.0000000000 0.0000000000 0.0000000000
0.0470521484 0.0000000000 0.0000000000
0.1332275800 0.0003876032 0.0011359421
0.2335608124 0.0019104347 0.0025199985
0.3382803497 0.0034654124 0.0039994402
0.4392551256 0.0052719194 0.0054794267
0.5540441100 0.0080807266 0.0072453272
0.6602121122 0.0115920251 0.0098699382
0.7371025624 0.0134695758 0.0319249707
0.8203662185 0.0175624652 0.1245988761
0.8966267389 0.0283827525 0.2442628482
0.9687587298 0.0588034455 0.3419081515
1.0000000000 0.1160737021 0.4356523338
1.0000000000 0.1998904142 0.5357968203
1.0000000000 0.3103195507 0.6353074619
0.0000000000 0.0000000000 0.0000000000
0.0000000000 0.0002372510 0.0000000000
0.0000000000 0.0245794296 0.0000000000
0.0566342763 0.0491321672 0.0000000000
0.1568741330 0.0327007161 0.0068156693
0.2734590093 0.0074283663 0.0027584619
0.3815588092 0.0052217280 0.0042855963
0.4890713621 0.0072779831 0.0062429334
0.6058574833 0.0108395970 0.0079608385
0.7109653006 0.0162469002 0.0099653235
0.7844265609 0.0185368891 0.0181124601
0.8513070305 0.0231660515 0.0826458012
0.9151252540 0.0354768144 0.2073292826
0.9786194464 0.0659971058 0.3186283497
1.0000000000 0.1233128716 0.4229616031
1.0000000000 0.2051845047 0.5297167831
1.0000000000 0.3142254036 0.6326276409
0.0000000000 0.0029636261 0.0000000000
0.0000000000 0.0375397089 0.0000000000
0.0000000000 0.0761605649 0.0000000000
0.0012082011 0.1183710245 0.0000000000
0.1322314829 0.1228823910 0.0000000000
0.2652899225 0.1062959498 0.0181607894
0.4001272762 0.0593284096 0.0126664994
0.5281257593 0.0204861694 0.0063860114
0.6517672570 0.0168806156 0.0084859423
0.7447613408 0.0218019198 0.0107293749
0.8222094538 0.0306167307 0.0151103359
0.8801251230 0.0337288641 0.0469112874
0.9362095654 0.0473783573 0.1601441064
0.9891682919 0.0781716156 0.2866838903
1.0000000000 0.1340352449 0.4043095493
1.0000000000 0.2134956597 0.5205315975
1.0000000000 0.3200048399 0.6286953269
0.0000000000 0.0630165058 0.0000000000
0.0000000000 0.1203595758 0.0000000000
0.0000000000 0.1552544694 0.0000000000
0.0000000000 0.1903856629 0.0000000000
0.0396755872 0.2199195871 0.0000000000
0.2367391684 0.2203085561 0.0000000000
0.3896897298 0.1946487418 0.0136086904
0.5380986524 0.1518469920 0.0322832757
0.6795897242 0.0746272270 0.0172408757
0.7766485603 0.0398395364 0.0114450074
0.8483020557 0.0486755621 0.0156426331
0.9103233702 0.0655730808 0.0310181033
0.9605391791 0.0709026071 0.1040180393
0.9977820021 0.1007811670 0.2395471217
1.0000000000 0.1532659089 0.3738278294
1.0000000000 0.2280245265 0.5047969752
1.0000000000 0.3308190974 0.6214762531
0.0000000000 0.1843488845 0.0000000000
0.0000000000 0.2323734803 0.0000000000
0.0000000000 0.2622194171 0.0000000000
0.0000000000 0.2855097873 0.0000000000
0.0000000000 0.3173966800 0.0000000000
0.1312267783 0.3381252342 0.0000000000
0.3634290816 0.3353950951 0.0000000000
0.5279226193 0.3077382207 0.0071496392
0.6771889460 0.2711012205 0.0444494701
0.7921394830 0.1628610825 0.0365057162
0.8709173785 0.0997140244 0.0253767693
0.9307346094 0.1148252831 0.0381562815
0.9838240830 0.1327416491 0.0760522366
1.0000000000 0.1435990876 0.1824051419
1.0000000000 0.1866347233 0.3304149459
1.0000000000 0.2532464745 0.4793688146
1.0000000000 0.3486588664 0.6097312698
0.0000000000 0.3648153428 0.0000000000
0.0000000000 0.3705588228 0.0000000000
0.0000000000 0.3851994725 0.0000000000
0.0000000000 0.3994460144 0.0000000000
0.0000000000 0.4192278336 0.0000000000
0.0010076265 0.4502227298 0.0000000000
0.2186285347 0.4705850857 0.0000000000
0.4820000439 0.4664095782 0.0000000000
0.6517667560 0.4245155027 0.0029495958
0.7838232086 0.3689696181 0.0397214107
0.8773731439 0.2766806886 0.0605983170
0.9471857543 0.2043232275 0.0556669663
0.9943965491 0.2116429606 0.0847595512
1.0000000000 0.2224925788 0.1537733666
1.0000000000 0.2444502261 0.2822634167
1.0000000000 0.2967491997 0.4430310998
1.0000000000 0.3791631320 0.5909821006
0.0000000000 0.5021662777 0.0000000000
0.0000000000 0.4936967413 0.0000000000
0.0000000000 0.5000664239 0.0000000000
0.0000000000 0.5086940114 0.0000000000
0.0000000000 0.5208564121 0.0000000000
0.0000000000 0.5407428611 0.0000000000
0.0061746003 0.5713937640 0.0000000000
0.2966870815 0.5901163174 0.0000000000
0.5946630289 0.5836677126 0.0012318117
0.7579436722 0.5389789195 0.0012313275
0.8681711104 0.4756426010 0.0249887844
0.9498190404 0.3970048876 0.0768124938
0.9981669709 0.3239130386 0.1055169311
1.0000000000 0.3130370630 0.1626872363
1.0000000000 0.3344978480 0.2605072783
1.0000000000 0.3704025395 0.4050936932
1.0000000000 0.4301399318 0.5654316572
0.0000000000 0.6241721551 0.0000000000
0.0000000000 0.6198972318 0.0000000000
0.0000000000 0.6173246635 0.0000000000
0.0000000000 0.6209996208 0.0000000000
0.0000000000 0.6277832407 0.0000000000
0.0015092856 0.6389886262 0.0000000000
0.0045690496 0.6569947680 0.0000000000
0.0390510069 0.6841983570 0.0000000000
0.3921468265 0.7015873131 0.0072925962
0.7031250694 0.6970798034 0.0263935258
0.8431533779 0.6574491731 0.0166114287
0.9388303445 0.5955842411 0.0222287362
0.9970477753 0.5157630534 0.0841811355
1.0000000000 0.4465927447 0.1800671639
1.0000000000 0.4374283403 0.2724691859
1.0000000000 0.4672645271 0.3893783415
1.0000000000 0.5119570451 0.5408809158
0.0592046845 0.7315107105 0.0016135953
0.0571920750 0.7295260654 0.0013270760
0.0555944003 0.7277768599 0.0000000000
0.0540211158 0.7262851635 0.0000000000
0.0558473852 0.7282243063 0.0000000000
0.0620489051 0.7338728839 0.0016135953
0.0734335965 0.7431428277 0.0023770414
0.0936884558 0.7581321805 0.0054789425
0.1550348182 0.7801099101 0.0157880507
0.5130481726 0.7958484467 0.0549708126
0.7968656192 0.7957473961 0.0857227229
0.9134790438 0.7651598703 0.0698014786
0.9900304483 0.7134952309 0.0622628700
1.0000000000 0.6366324168 0.1211902874
1.0000000000 0.5710514199 0.2639109797
1.0000000000 0.5723793456 0.4002202055
1.0000000000 0.6041858314 0.5321788409
0.2003419189 0.8163116403 0.0416062672
0.1984722027 0.8154261339 0.0408408732
0.1967170741 0.8146359410 0.0400742597
0.1949855279 0.8139082119 0.0390912638
0.1931553247 0.8128949159 0.0383191941
0.1951353636 0.8139889048 0.0386226814
0.2049227894 0.8183574215 0.0423190901
0.2218030145 0.8256663924 0.0487977648
0.2508556015 0.8373156200 0.0597709987
0.3236840067 0.8553628690 0.0816142826
0.6462177714 0.8723388878 0.1352907530
0.8738213961 0.8770302740 0.1728079651
0.9719958634 0.8533713746 0.1573475287
1.0000000000 0.8181596269 0.1572603282
1.0000000000 0.7555962574 0.2085964027
1.0000000000 0.6877119215 0.3622220182
1.0000000000 0.6953564614 0.5386096657
0.3896876135 0.8866686188 0.1194024044
0.3884106078 0.8862133927 0.1187553159
0.3870988699 0.8858323153 0.1181049838
0.3858137102 0.8853836022 0.1175762849
0.3840345793 0.8847725633 0.1166453856
0.3813910606 0.8837955399 0.1152207180
0.3848192319 0.8850395993 0.1162731257
0.3972736392 0.8892362723 0.1214063578
0.4181581210 0.8961816882 0.1301781627
0.4524462086 0.9073160698 0.1453979345
0.5237904237 0.9241494340 0.1735646820
0.7628592614 0.9409854017 0.2309509600
0.9404975692 0.9488708236 0.2730029283
0.9981153127 0.9367734384 0.2702064600
1.0000000000 0.9141957426 0.2800328776
1.0000000000 0.8598748006 0.3442306760
1.0000000000 0.7879825343 0.5054849861
0.5839003633 0.9496322603 0.2224381674
0.5832852246 0.9494404715 0.2219548577
0.5827711126 0.9492377485 0.2215874823
0.5822423081 0.9490443259 0.2212149792
0.5814151956 0.9487617956 0.2204272637
0.5797830093 0.9482570621 0.2191847531
0.5776612613 0.9475589244 0.2174795057
0.5818189883 0.9489796003 0.2196945764
0.5928526195 0.9524593854 0.2263701165
0.6107298987 0.9580057386 0.2380343474
0.6387847450 0.9661884988 0.2582340084
0.6925870153 0.9766548949 0.2934360538
0.8591590545 0.9874948599 0.3536209045
0.9872698613 0.9946860107 0.4016067488
1.0000000000 0.9928099148 0.4102277083
1.0000000000 0.9830583223 0.4273296085
1.0000000000 0.9456455085 0.5078619904
0.7391381443 0.9856973928 0.3580498595
0.7388745325 0.9856851319 0.3575106124
0.7386508980 0.9855993056 0.3573236642
0.7384754492 0.9855993056 0.3571552548
0.7381245516 0.9855427858 0.3566618864
0.7374572822 0.9854769956 0.3556816413
0.7364711974 0.9853430912 0.3542146444
0.7355027827 0.9852403084 0.3527225546
0.7391294972 0.9858055713 0.3561802530
0.7480248763 0.9867283332 0.3656253488
0.7622139879 0.9880293286 0.3812558453
0.7846513944 0.9894433620 0.4075484615
0.8265792236 0.9911760701 0.4506001924
0.9470511429 0.9977092934 0.5129506408
0.9998497066 1.0000000000 0.5493885165
1.0000000000 1.0000000000 0.5578257495
1.0000000000 0.9999950212 0.5838376075
0.8690462641 0.9924156574 0.5237802418
0.8688670680 0.9924156574 0.5233096191
0.8688313652 0.9924156574 0.5232975072
0.8687108681 0.9924156574 0.5231322893
0.8686150406 0.9924156574 0.5228959531
0.8683903482 0.9923330096 0.5224699890
0.8680574316 0.9923330096 0.5218193657
0.8674346152 0.9923330096 0.5207329646
0.8667799390 0.9923274997 0.5193408482
0.8697670154 0.9924413701 0.5226861388
0.8771872028 0.9927436662 0.5326609543
0.8893692423 0.9932894026 0.5490461722
0.9079716737 0.9941600312 0.5753688050
0.9383527573 0.9959067080 0.6155613168
0.9928346610 0.9999896797 0.6614682248
1.0000000000 1.0000000000 0.6823442124
1.0000000000 1.0000000000 0.6919583673
0.9701750496 0.9979458465 0.6836286444
0.9701750496 0.9979458465 0.6836286444
0.9701471921 0.9979458465 0.6838061446
0.9701471921 0.9979458465 0.6838061446
0.9700845126 0.9979458465 0.6835958019
0.9700253153 0.9979458465 0.6833135690
0.9699253266 0.9979458465 0.6829371959
0.9697947444 0.9979458465 0.6826377897
0.9695492498 0.9979458465 0.6819669618
0.9691654624 0.9978772604 0.6810862927
0.9705465250 0.9980200543 0.6830859902
0.9749493849 0.9984100203 0.6913264616
0.9809331775 0.9989062895 0.7048652450
0.9880992156 0.9995014134 0.7245817205
0.9956473805 1.0000000000 0.7523130187
1.0000000000 1.0000000000 0.7785990969
1.0000000000 1.0000000000 0.7935117509
0.0000000000 0.0000000000 0.0000000000
0.0000000000 0.0000000000 0.0000000000
0.0000000000 0.0000000000 0.0000000000
0.0000000000 0.0000000000 0.0000000000
0.0000000000 0.0000000000 0.0000000000
0.0000000000 0.0000000000 0.0000000000
0.0334480929 0.0000000000 0.0000000000
0.1654668205 0.0010076901 0.0016611064
0.3001878536 0.0029139437 0.0031404876
0.3993506448 0.0041677096 0.0085338771
0.5149206614 0.0045692404 0.0781617971
0.6712682623 0.0050708359 0.2590119914
0.8349193338 0.0161005821 0.3348509600
0.9410460000 0.0442593724 0.3993043610
0.9990001405 0.1020010467 0.4683824886
1.0000000000 0.1888309232 0.5518507646
1.0000000000 0.3026559808 0.6424801470
0.0000000000 0.0000000000 0.0000000000
0.0000000000 0.0000000000 0.0000000000
0.0000000000 0.0000000000 0.0000000000
0.0000000000 0.0000000000 0.0000000000
0.0133098451 0.0000000000 0.0000000000
0.1082466457 0.0000000000 0.0000000000
0.2232636816 0.0018101156 0.0024245526
0.3417588957 0.0033650933 0.0039039943
0.4390605183 0.0053221107 0.0061474875
0.5327321353 0.0061743459 0.0303442434
0.6439965087 0.0064253662 0.1338774423
0.7676553485 0.0105888947 0.2202165309
0.8715086449 0.0222404414 0.3013532873
0.9562622239 0.0513202597 0.3775689816
0.9997856319 0.1087577329 0.4557624484
1.0000000000 0.1942609112 0.5459524146
1.0000000000 0.3065727232 0.6398210755
0.0000000000 0.0000000000 0.0000000000
0.0000000000 0.0000000000 0.0000000000
0.0053717932 0.0032646470 0.0000000000
0.0809656441 0.0003876032 0.0000000000
0.1670727684 0.0011582642 0.0018043660
0.2646821617 0.0021109457 0.0026630765
0.3653699971 0.0041678369 0.0041902110
0.4686524029 0.0060740904 0.0057181927
0.5586182856 0.0080807266 0.0077223751
0.6431415641 0.0096857684 0.0194201132
0.7314430856 0.0119892157 0.0697941049
0.8178591297 0.0160520772 0.1650489319
0.8956497055 0.0278446580 0.2676337514
0.9683784868 0.0588034455 0.3557943720
1.0000000000 0.1160296728 0.4434180571
1.0000000000 0.1997545019 0.5400725563
1.0000000000 0.3103121658 0.6374071742
0.0000000000 0.0000000000 0.0000000000
0.0000000000 0.0078797068 0.0000000000
0.0000000000 0.0463290812 0.0000000000
0.0712192664 0.0655233809 0.0000000000
0.1787122846 0.0476329952 0.0098224270
0.2991908627 0.0130310541 0.0034746391
0.4064046142 0.0066764502 0.0047631285
0.5130776999 0.0080807902 0.0065290895
0.6134734909 0.0112411278 0.0084859423
0.7020789528 0.0139083446 0.0122416643
0.7771715032 0.0165394745 0.0371387517
0.8486615528 0.0216557253 0.1191271391
0.9139750288 0.0347012632 0.2335037659
0.9782209481 0.0659971058 0.3336003160
1.0000000000 0.1230257378 0.4311630191
1.0000000000 0.2050182648 0.5344343238
1.0000000000 0.3140140582 0.6350308853
0.0000000000 0.0130799298 0.0000000000
0.0000000000 0.0595762424 0.0000000000
0.0000000000 0.0990129716 0.0000000000
0.0021616459 0.1397485427 0.0000000000
0.1493084549 0.1422749365 0.0000000000
0.2879750983 0.1228606279 0.0177252121
0.4225973707 0.0761810928 0.0160305566
0.5453795232 0.0237510148 0.0072928988
0.6479732362 0.0170753768 0.0084859423
0.7401084388 0.0220456802 0.0114930027
0.8171573168 0.0263335162 0.0201464642
0.8774345158 0.0312487778 0.0732919902
0.9349191142 0.0456648030 0.1872658428
0.9887722481 0.0772385326 0.3019933705
1.0000000000 0.1336732134 0.4131324956
1.0000000000 0.2133494127 0.5252432901
1.0000000000 0.3198903350 0.6309832893
0.0000000000 0.0854649213 0.0000000000
0.0000000000 0.1371153928 0.0000000000
0.0000000000 0.1787040819 0.0000000000
0.0000000000 0.2132382171 0.0000000000
0.0483387873 0.2419679273 0.0000000000
0.2542684887 0.2423665382 0.0000000000
0.4061914114 0.2143190971 0.0105382410
0.5488082254 0.1670592363 0.0348652928
0.6752247486 0.0694197924 0.0163209620
0.7702438484 0.0393942851 0.0119687308
0.8464693434 0.0481928725 0.0179188975
0.9079442079 0.0582790241 0.0389051146
0.9591089023 0.0679740708 0.1265646061
0.9975989810 0.0991467425 0.2551458341
1.0000000000 0.1523588956 0.3831994636
1.0000000000 0.2275629467 0.5099018730
1.0000000000 0.3306137654 0.6235925150
0.0000000000 0.2455344428 0.0000000000
0.0000000000 0.2805002824 0.0000000000
0.0000000000 0.2831781310 0.0000000000
0.0000000000 0.3059535820 0.0000000000
0.0000000000 0.3359209530 0.0000000000
0.1159869447 0.3583262569 0.0000000000
0.3638659293 0.3555338075 0.0000000000
0.5274797105 0.3176151460 0.0050975220
0.6719361019 0.2657105276 0.0445484547
0.7883014817 0.1551767111 0.0352065235
0.8679713356 0.1001261118 0.0267324446
0.9297603862 0.1131206578 0.0414813547
0.9828053141 0.1251163647 0.0834708409
1.0000000000 0.1405473036 0.1962172677
1.0000000000 0.1849848083 0.3398299687
1.0000000000 0.2524960412 0.4846494156
1.0000000000 0.3483486222 0.6119345449
0.0000000000 0.4181128660 0.0000000000
0.0000000000 0.3992551596 0.0000000000
0.0000000000 0.3914599090 0.0000000000
0.0000000000 0.4037422500 0.0000000000
0.0000000000 0.4224211224 0.0000000000
0.0000000000 0.4522775817 0.0000000000
0.1972841166 0.4731243732 0.0000000000
0.4749440149 0.4671955363 0.0000000000
0.6479920481 0.4228209320 0.0029495958
0.7810673868 0.3662528957 0.0404992574
0.8755111586 0.2728301130 0.0611574482
0.9457337689 0.2037362086 0.0581409643
0.9940045990 0.2091567886 0.0894096352
1.0000000000 0.2177572224 0.1598053876
1.0000000000 0.2420747204 0.2900110428
1.0000000000 0.2955751909 0.4482149690
1.0000000000 0.3787440743 0.5932381243
0.0000000000 0.5254916836 0.0000000000
0.0000000000 0.5154949819 0.0000000000
0.0000000000 0.5092703208 0.0000000000
0.0000000000 0.5115980140 0.0000000000
0.0000000000 0.5230491840 0.0000000000
0.0000000000 0.5421136354 0.0000000000
0.0041179636 0.5717572706 0.0000000000
0.2836373003 0.5910222109 0.0000000000
0.5906442845 0.5842734944 0.0012318117
0.7558026145 0.5384313767 0.0012313275
0.8667855796 0.4744173889 0.0263933415
0.9488476443 0.3949222410 0.0790873874
0.9979116159 0.3218099827 0.1088362859
1.0000000000 0.3111962241 0.1671374846
1.0000000000 0.3325011538 0.2647922218
1.0000000000 0.3687129971 0.4092562595
1.0000000000 0.4294773492 0.5677245186
0.0000364589 0.6358473900 0.0000000000
0.0000000000 0.6315229688 0.0000000000
0.0000000000 0.6276875271 0.0000000000
0.0000000000 0.6249360446 0.0000000000
0.0000000000 0.6292511203 0.0000000000
0.0015092856 0.6401558800 0.0000000000
0.0045690496 0.6577724684 0.0000000000
0.0368667698 0.6845832785 0.0000000000
0.3852076990 0.7019928198 0.0069110547
0.7009092381 0.6973911003 0.0263935258
0.8422079989 0.6570899212 0.0166114287
0.9380279482 0.5948917749 0.0236330477
0.9968979755 0.5144704528 0.0881938401
1.0000000000 0.4452532827 0.1847898995
1.0000000000 0.4369914466 0.2758552899
1.0000000000 0.4664460109 0.3922639009
1.0000000000 0.5108709064 0.5432620611
0.0646707065 0.7367380936 0.0021862707
0.0625828004 0.7348169873 0.0018997514
0.0606259684 0.7330541629 0.0016135953
0.0589742800 0.7314634959 0.0016135953
0.0575424957 0.7301225263 0.0013270760
0.0626484010 0.7344917591 0.0016135953
0.0738144964 0.7436392715 0.0023770414
0.0939017819 0.7584328002 0.0057654617
0.1534945554 0.7802127630 0.0161756672
0.5091857091 0.7959800735 0.0547596707
0.7959155972 0.7958518026 0.0857227229
0.9128960853 0.7650282161 0.0698014786
0.9898229702 0.7129012217 0.0639190323
1.0000000000 0.6358852113 0.1251689664
1.0000000000 0.5710609086 0.2683089296
1.0000000000 0.5724328446 0.4028488463
1.0000000000 0.6040244577 0.5338976196
0.2052108578 0.8186040542 0.0440260571
0.2033387583 0.8177211057 0.0433305927
0.2015517057 0.8168883735 0.0423700558
0.1997867303 0.8161107480 0.0415556218
0.1974695767 0.8150105998 0.0405800719
0.1964481977 0.8145535683 0.0398114684
0.2053598154 0.8186183132 0.0428276041
0.2221549425 0.8258458525 0.0490766528
0.2511208738 0.8374249020 0.0602212404
0.3231053055 0.8554190302 0.0818674099
0.6447824279 0.8723368180 0.1350980316
0.8733276926 0.8770302740 0.1726430812
0.9718420873 0.8532188296 0.1573475287
1.0000000000 0.8178569755 0.1585059073
1.0000000000 0.7551501482 0.2112848983
1.0000000000 0.6877941014 0.3657620487
1.0000000000 0.6955358083 0.5404970583
0.3932515228 0.8879382295 0.1213655639
0.3919790779 0.8874713550 0.1207074972
0.3907316384 0.8870218904 0.1200675196
0.3894095678 0.8865763712 0.1194240488
0.3875132307 0.8859491122 0.1183902292
0.3844954366 0.8849388972 0.1168080622
0.3854305961 0.8852726295 0.1168226582
0.3976206727 0.8893789962 0.1217341436
0.4183631863 0.8962728781 0.1304055963
0.4526231639 0.9073785022 0.1455137174
0.5235860378 0.9241399665 0.1736995870
0.7623417748 0.9409799798 0.2308319616
0.9403416758 0.9488270868 0.2730029283
0.9981153127 0.9366782757 0.2704032323
1.0000000000 0.9140316209 0.2808209569
1.0000000000 0.8596315038 0.3461776834
1.0000000000 0.7880593477 0.5077120521
0.5857150757 0.9502097632 0.2238330060
0.5850510876 0.9499699016 0.2234580642
0.5844920818 0.9498108526 0.2229884490
0.5838682784 0.9496120886 0.2224781254
0.5829984069 0.9493262906 0.2218028424
0.5815832804 0.9488415400 0.2206590073
0.5792175364 0.9480599953 0.2188011818
0.5820437710 0.9490046736 0.2200476320
0.5930086484 0.9524755354 0.2266291240
0.6108533385 0.9580487214 0.2383597161
0.6389280241 0.9662672870 0.2584796708
0.6925581286 0.9766601252 0.2934631648
0.8590679998 0.9874948599 0.3540056619
0.9872598161 0.9946860107 0.4015179071
1.0000000000 0.9928099148 0.4102277083
1.0000000000 0.9830018852 0.4286356283
1.0000000000 0.9455118943 0.5091152244
0.7399837448 0.9857408100 0.3592443927
0.7396931264 0.9857408100 0.3587179417
0.7395136674 0.9857379832 0.3586090187
0.7392883410 0.9856973928 0.3583282531
0.7389422683 0.9856176970 0.3577320164
0.7382906013 0.9855427858 0.3569221782
0.7372485608 0.9854399886 0.3554996868
0.7360340792 0.9852951259 0.3534815829
0.7392499303 0.9858055713 0.3565987173
0.7480370950 0.9867454696 0.3656803408
0.7622520227 0.9880293286 0.3814235324
0.7847667835 0.9894433620 0.4079545594
0.8265750741 0.9911760701 0.4506577116
0.9470527823 0.9977092934 0.5130417591
0.9998497066 1.0000000000 0.5493885165
1.0000000000 1.0000000000 0.5578257495
1.0000000000 0.9999950212 0.5845027895
0.8693846354 0.9924156574 0.5244253370
0.8692666176 0.9924156574 0.5242468893
0.8691738274 0.9924156574 0.5239654598
0.8690659750 0.9924156574 0.5238296208
0.8689739906 0.9924156574 0.5236450860
0.8687390089 0.9924156574 0.5231864510
0.8684002657 0.9923330096 0.5224311690
0.8677798047 0.9923330096 0.5212866931
0.8670652519 0.9923274997 0.5199117197
0.8698332144 0.9924413701 0.5230539039
0.8772596531 0.9927436662 0.5329425701
0.8894381047 0.9932894026 0.5492897287
0.9079587523 0.9941600312 0.5754783783
0.9383473988 0.9959067080 0.6156089786
0.9928346610 0.9999896797 0.6615052134
1.0000000000 1.0000000000 0.6823442124
1.0000000000 1.0000000000 0.6919583673
0.9703125962 0.9979998158 0.6843531235
0.9702829976 0.9979964427 0.6839385176
0.9702586223 0.9979964427 0.6841039839
0.9702586223 0.9979458465 0.6839357599
0.9702116126 0.9979458465 0.6840101570
0.9701541565 0.9979458465 0.6837617696
0.9700636195 0.9979458465 0.6835100602
0.9698922458 0.9979458465 0.6827568126
0.9696711266 0.9979458465 0.6823325546
0.9692908213 0.9978788845 0.6814528882
0.9705360784 0.9980200543 0.6831025369
0.9749943425 0.9984100203 0.6917381843
0.9809958400 0.9989062895 0.7050671938
0.9880992156 0.9995014134 0.7246150658
0.9956473805 1.0000000000 0.7523130187
1.0000000000 1.0000000000 0.7785990969
1.0000000000 1.0000000000 0.7935117509
0.0000000000 0.0000000000 0.0000000000
0.0000000000 0.0000000000 0.0000000000
0.0000000000 0.0000000000 0.0000000000
0.0000000000 0.0000000000 0.0000000000
0.0000000000 0.0000000000 0.0000000000
0.0025123493 0.0000000000 0.0000000000
0.0676702201 0.0000000000 0.0000000000
0.1843981219 0.0010076901 0.0016611064
0.2926445968 0.0025626042 0.0049542624
0.3952285577 0.0037661788 0.0248438580
0.5150225740 0.0037661788 0.1155871146
0.6750262811 0.0050708359 0.2794525883
0.8358163369 0.0168806156 0.3483414134
0.9411499290 0.0448633928 0.4095697047
0.9989973621 0.1020672075 0.4750202810
1.0000000000 0.1886615248 0.5559614405
1.0000000000 0.3026484081 0.6447472972
0.0000000000 0.0000000000 0.0000000000
0.0000000000 0.0000000000 0.0000000000
0.0000000000 0.0000000000 0.0000000000
0.0000000000 0.0000000000 0.0000000000
0.0460874337 0.0000000000 0.0000000000
0.1443093636 0.0003978554 0.0011836348
0.2434284147 0.0019104347 0.0027107692
0.3389740738 0.0034152847 0.0057654617
0.4279306183 0.0045190491 0.0202916362
0.5272935144 0.0046194318 0.0841509328
0.6429346123 0.0056228771 0.1750550696
0.7672604394 0.0100869812 0.2489739361
0.8712452124 0.0222404414 0.3189051544
0.9561911051 0.0518258986 0.3893229884
0.9997856319 0.1087811313 0.4633670252
