bundles/resolve-cinematic-luts/Gamut/_Conversion/Panasonic/Panasonic S5II BaseLUTs/Monitor LUTs/BaseLUT - Panasonic S5II - V-Log to Rec709 (Bold) ML.cube
TITLE "BaseLUT - Panasonic S5II - V-Log to Rec709 (Bold) ML"
# Monitoring LUT. Developed for converting V-Log / V-Gamut to Rec.709. Version 1.0 - 05/01/2025 - Copyright 2025 Gamut, LLC.
LUT_3D_SIZE 5
0.0000000000 0.0000000000 0.0000000000
0.0000000000 0.0000000000 0.0000000000
0.2702244483 0.0025626042 0.0027584619
0.8341246873 0.0161005821 0.3193680329
1.0000000000 0.3027695703 0.6399685161
0.0000000000 0.0029636261 0.0000000000
0.1322314829 0.1228823910 0.0000000000
0.6517672570 0.0168806156 0.0084859423
0.9362095654 0.0473783573 0.1601441064
1.0000000000 0.3200048399 0.6286953269
0.0000000000 0.5021662777 0.0000000000
0.0000000000 0.5208564121 0.0000000000
0.5946630289 0.5836677126 0.0012318117
0.9981669709 0.3239130386 0.1055169311
1.0000000000 0.4301399318 0.5654316572
0.3896876135 0.8866686188 0.1194024044
0.3840345793 0.8847725633 0.1166453856
0.4181581210 0.8961816882 0.1301781627
0.9404975692 0.9488708236 0.2730029283
1.0000000000 0.7879825343 0.5054849861
0.9701750496 0.9979458465 0.6836286444
0.9700845126 0.9979458465 0.6835958019
0.9695492498 0.9979458465 0.6819669618
0.9809331775 0.9989062895 0.7048652450
1.0000000000 1.0000000000 0.7935117509
0.0000000000 0.0000000000 0.0000000000
0.0000369672 0.0000000000 0.0000000000
0.2927341536 0.0013590296 0.0450624467
0.8386470067 0.0174653935 0.3780775534
1.0000000000 0.3025262446 0.6503316157
0.0000000000 0.0782863343 0.1486645132
0.1453432284 0.1453420992 0.1453405161
0.6351816663 0.0129824256 0.0703917573
0.9307775612 0.0421806821 0.2697191408
1.0000000000 0.3195766368 0.6391969604
0.0000000000 0.5722792143 0.1275260978
0.0000000000 0.5537294515 0.0058132150
0.5858009703 0.5902903611 0.0019953789
0.9971180939 0.3171456172 0.1254105408
1.0000000000 0.4269566885 0.5771696789
0.4055637590 0.8920822343 0.1292084595
0.3999766697 0.8902330228 0.1257880309
0.4196010894 0.8967150091 0.1318431060
0.9398291341 0.9488270868 0.2730338770
1.0000000000 0.7885691995 0.5157129480
0.9707374238 0.9979998158 0.6854176859
0.9705988822 0.9979998158 0.6849433492
0.9701262989 0.9979458465 0.6834408653
0.9810303169 0.9989062895 0.7053324550
1.0000000000 1.0000000000 0.7935117509
0.0053717932 0.0069774075 0.1917895067
0.0817808664 0.0075791948 0.3054824280
0.4832070717 0.0000000000 0.3795420297
0.8725861147 0.0314921859 0.5356181708
1.0000000000 0.3049494881 0.7088001193
0.0160579286 0.0401100789 0.5346452852
0.0429596427 0.0268203574 0.4591825335
0.5827238329 0.0059740894 0.4916252273
0.9217779980 0.0483755898 0.5454234780
1.0000000000 0.3196057015 0.7026424133
0.0009574988 0.5347213822 0.6914005454
0.0009574988 0.5596329328 0.6530783740
0.5631747791 0.5631730845 0.5631760294
0.9890595303 0.2625635353 0.4050442742
1.0000000000 0.4107726527 0.6540713886
0.4446876922 0.9028419753 0.3602926133
0.4425728336 0.9026114173 0.3352618389
0.4401959794 0.9033991986 0.2323614941
0.9391370221 0.9505763111 0.2875290391
1.0000000000 0.7982994590 0.5854085959
0.9742900068 0.9982686631 0.6972801138
0.9741656427 0.9982416784 0.6970752866
0.9737094754 0.9982146937 0.6949460365
0.9815708754 0.9989229604 0.7092735855
1.0000000000 1.0000000000 0.7952662622
0.0174827318 0.1686921557 0.8114119114
0.0399404988 0.1436118608 0.7918141290
0.5139691862 0.0968859955 0.8080672235
0.9475272509 0.1354558209 0.8291203557
1.0000000000 0.3686412913 0.8893337192
0.0162616195 0.1939570117 0.8372886475
0.0264407393 0.1756389685 0.8207237961
0.5010396170 0.1127964136 0.8236380574
0.9519784865 0.1458076080 0.8439059352
1.0000000000 0.3769418246 0.8926504366
0.0185009277 0.3204763895 0.9231856423
0.0182974951 0.3296483040 0.9116028700
0.3984380543 0.3093013128 0.8734525498
0.9668706973 0.2089720152 0.9002139466
1.0000000000 0.4256343951 0.9075211988
0.5394260236 0.8920333863 0.9752979573
0.5457547384 0.8959805102 0.9746990163
0.5717418783 0.9129495774 0.9694643734
0.9303196556 0.9303206417 0.9303220013
1.0000000000 0.8233756663 0.9063305329
0.9882985706 0.9985442565 0.8936062651
0.9882583896 0.9985375103 0.8925838837
0.9881700905 0.9985375103 0.8860532582
0.9886165466 0.9988840617 0.8451502129
1.0000000000 1.0000000000 0.8763909850
0.2742704708 0.5336280371 1.0000000000
0.2846104741 0.5313953293 1.0000000000
0.4282789591 0.5305737831 1.0000000000
0.9091560114 0.5084737601 1.0000000000
1.0000000000 0.6300220974 1.0000000000
0.2754413560 0.5377651607 1.0000000000
0.2852711933 0.5355825321 1.0000000000
0.4227614328 0.5335342302 1.0000000000
0.9087145611 0.5128400745 1.0000000000
1.0000000000 0.6327494947 1.0000000000
0.2865215161 0.5625831748 1.0000000000
0.2921458515 0.5609664960 1.0000000000
0.3896756625 0.5580444236 1.0000000000
0.9058004400 0.5448269614 1.0000000000
1.0000000000 0.6505579895 1.0000000000
0.4421093029 0.7411093356 1.0000000000
0.4453414216 0.7441566856 1.0000000000
0.4710290904 0.7643305681 1.0000000000
0.8921807679 0.8392498804 1.0000000000
1.0000000000 0.8030651295 1.0000000000
0.9954689489 1.0000000000 1.0000000000
0.9955768320 1.0000000000 1.0000000000
0.9957791127 1.0000000000 1.0000000000
0.9970549310 1.0000000000 1.0000000000
1.0000000000 1.0000000000 1.0000000000
