bundles/resolve-cinematic-luts/Phantom Luts/Fx6 Phntm Film LUTs-G5/ATOMOS Monitor LUTs/Bleach Fx6 AML.cube
TITLE "Generated by Resolve"
LUT_3D_SIZE 9
0.0734264 0.0845808 0.0745708
0.0755016 0.0851759 0.0749981
0.110506 0.0924239 0.0811475
0.172778 0.0987106 0.0909895
0.291966 0.108644 0.103059
0.465003 0.115297 0.12697
0.604028 0.122713 0.165072
0.724071 0.142596 0.249653
0.755688 0.146792 0.292515
0.0746777 0.0888838 0.0767681
0.0796674 0.0911269 0.0777447
0.117159 0.0970779 0.0826123
0.220569 0.10042 0.0911727
0.369863 0.110292 0.100969
0.539361 0.122957 0.129
0.650782 0.131655 0.177295
0.754604 0.152728 0.256413
0.756069 0.151064 0.270146
0.0906691 0.153292 0.0951858
0.0946517 0.158328 0.0910658
0.147662 0.165896 0.0941787
0.279698 0.148287 0.0987106
0.476493 0.143084 0.111528
0.581109 0.129076 0.114336
0.657511 0.133791 0.139437
0.727352 0.15555 0.183749
0.730053 0.155962 0.186633
0.0914778 0.278233 0.119844
0.0899519 0.287343 0.111345
0.144167 0.291127 0.099382
0.298756 0.323766 0.0973373
0.564172 0.310964 0.128115
0.711788 0.331472 0.187823
0.850065 0.362051 0.254673
0.88603 0.345922 0.264439
0.890181 0.364157 0.273182
0.0781567 0.429267 0.140383
0.078294 0.440116 0.135393
0.0844434 0.431937 0.0956283
0.287541 0.494408 0.147601
0.558953 0.575036 0.150698
0.747616 0.613519 0.219028
0.862562 0.625177 0.282689
0.895949 0.642496 0.300145
0.897246 0.655833 0.303609
0.144381 0.628275 0.267887
0.149828 0.636179 0.267597
0.146761 0.62974 0.237354
0.309239 0.643839 0.195438
0.588388 0.689418 0.277729
0.732433 0.744167 0.269337
0.851606 0.769345 0.328161
0.893629 0.780499 0.357641
0.896925 0.78819 0.368246
0.24152 0.741756 0.379446
0.240711 0.741787 0.371237
0.233387 0.736309 0.343099
0.277333 0.72604 0.264515
0.610758 0.753552 0.340139
0.738415 0.798154 0.371649
0.836301 0.840085 0.390066
0.885985 0.85304 0.432807
0.89041 0.856214 0.44802
0.255619 0.75111 0.408179
0.254627 0.750805 0.390982
0.246998 0.746044 0.356237
0.305241 0.742977 0.294545
0.636545 0.775341 0.382605
0.753597 0.817945 0.439017
0.843931 0.853956 0.455314
0.882383 0.865614 0.487053
0.889967 0.868696 0.514778
0.25565 0.751461 0.420188
0.254948 0.75079 0.394369
0.247471 0.745449 0.351904
0.343832 0.743862 0.293309
0.66041 0.783139 0.396323
0.771923 0.824445 0.44097
0.851438 0.856992 0.457496
0.883879 0.866163 0.489387
0.889937 0.868666 0.51397
0.0733806 0.0847181 0.0754559
0.0736858 0.0851759 0.0751965
0.107851 0.0915389 0.0881666
0.175097 0.0990768 0.099321
0.306371 0.107851 0.121096
0.483223 0.113619 0.144213
0.615518 0.122011 0.188495
0.729503 0.14023 0.275563
0.753841 0.142962 0.315679
0.0744182 0.0883192 0.077821
0.0756847 0.0871595 0.0771954
0.124437 0.0952468 0.0855573
0.224308 0.103883 0.096437
0.378943 0.114229 0.117464
0.549722 0.11841 0.143801
0.657969 0.129778 0.201282
0.755886 0.149096 0.280797
0.755535 0.146029 0.297719
0.0904707 0.154208 0.107347
0.0916304 0.159518 0.0983291
0.14815 0.165667 0.0967727
0.2934 0.143847 0.100572
0.483238 0.136873 0.110948
0.57583 0.123247 0.114382
0.661234 0.137636 0.154467
0.741009 0.156039 0.209628
0.744472 0.1561 0.217594
0.0906386 0.284382 0.135012
0.0905776 0.292576 0.123919
0.127794 0.291478 0.0935225
0.302495 0.326986 0.097612
0.574701 0.310887 0.131914
0.721401 0.331441 0.19234
0.851637 0.354696 0.252995
0.87747 0.326299 0.253635
0.884535 0.348348 0.265354
0.0776684 0.436805 0.152514
0.0783398 0.446952 0.145357
0.080293 0.438224 0.112001
0.277348 0.495186 0.144656
0.56376 0.579293 0.153643
0.753857 0.615732 0.222507
0.865248 0.625727 0.283787
0.896406 0.640604 0.299901
0.896925 0.652277 0.302419
0.14699 0.633204 0.282612
0.152865 0.641505 0.280705
0.149187 0.634699 0.251133
0.286915 0.6421 0.189395
0.584924 0.689738 0.279774
0.733196 0.745296 0.271015
0.853559 0.769375 0.330327
0.894347 0.778637 0.357382
0.896956 0.786053 0.366354
0.24239 0.742367 0.392706
0.243778 0.743221 0.382895
0.235233 0.73727 0.352361
0.261173 0.725643 0.274571
0.60293 0.751751 0.336889
0.734661 0.796262 0.372213
0.835447 0.839551 0.389746
0.88542 0.851835 0.432944
0.890394 0.854887 0.445853
0.255589 0.75172 0.42948
0.255558 0.75111 0.409491
0.250278 0.748241 0.370901
0.285328 0.742412 0.30576
0.623758 0.772183 0.375708
0.747097 0.815595 0.443351
0.841367 0.853376 0.460838
0.880827 0.864973 0.490517
0.890028 0.868803 0.517678
0.255711 0.752239 0.450919
0.255665 0.751492 0.420981
0.252018 0.748547 0.371862
0.299397 0.743038 0.294621
0.644327 0.7785 0.390249
0.760723 0.820386 0.447715
0.846128 0.854994 0.463996
0.881773 0.865446 0.491646
0.890013 0.868788 0.516945
0.0730144 0.0893873 0.0901503
0.0809186 0.0891432 0.0912642
0.107485 0.0927901 0.103075
0.179706 0.0980545 0.122988
0.314076 0.105379 0.150835
0.495415 0.110552 0.178271
0.625696 0.119051 0.231708
0.727718 0.133837 0.318334
0.748257 0.135119 0.360952
0.0741741 0.0926223 0.0897841
0.0747692 0.0919051 0.100465
0.124224 0.0946059 0.117006
0.23122 0.10071 0.132876
0.39527 0.109758 0.16083
0.563882 0.114061 0.19205
0.667247 0.124666 0.259388
0.75172 0.139239 0.336278
0.749096 0.135637 0.35668
0.0894942 0.150057 0.1308
0.0901961 0.156435 0.136187
0.151659 0.161456 0.14992
0.309621 0.161028 0.149905
0.467704 0.137194 0.138705
0.581277 0.123491 0.154833
0.684077 0.134783 0.217899
0.756374 0.148562 0.284733
0.756176 0.145861 0.299947
0.08925 0.286946 0.176165
0.088365 0.298161 0.17258
0.099855 0.297612 0.134218
0.318715 0.337224 0.147158
0.584649 0.312703 0.1738
0.745098 0.320592 0.222019
0.837873 0.285328 0.235492
0.818204 0.219684 0.19704
0.82858 0.240558 0.212314
0.074815 0.442466 0.194461
0.0760204 0.454734 0.190326
0.0789807 0.445197 0.148531
0.208148 0.469917 0.121157
0.560845 0.57554 0.157778
0.768246 0.607767 0.247883
0.872099 0.617395 0.30106
0.899306 0.623804 0.312261
0.89984 0.636149 0.318257
0.142901 0.632349 0.316854
0.14966 0.64126 0.31693
0.148775 0.635737 0.278843
0.162112 0.619425 0.180835
0.558892 0.681285 0.277333
0.728466 0.739971 0.269612
0.856489 0.762737 0.337285
0.89752 0.76849 0.365728
0.898634 0.775387 0.373037
0.237568 0.740505 0.426108
0.239109 0.741161 0.41561
0.235477 0.737148 0.37789
0.228641 0.725414 0.312917
0.562982 0.742535 0.323003
0.718257 0.788067 0.374365
0.829953 0.835187 0.383734
0.885451 0.847898 0.431861
0.891203 0.850935 0.441764
0.254978 0.753124 0.47715
0.25568 0.75256 0.458122
0.255543 0.751125 0.411032
0.251835 0.744717 0.343771
0.568704 0.760647 0.357443
0.728084 0.808942 0.454017
0.831342 0.849775 0.473686
0.876539 0.863325 0.497261
0.890089 0.868574 0.517784
0.253956 0.754894 0.50753
0.254765 0.753307 0.481392
0.256123 0.751598 0.422614
0.253193 0.744457 0.340993
0.587854 0.765301 0.370565
0.73901 0.813489 0.462135
0.834028 0.850843 0.476967
0.874983 0.862852 0.497887
0.890028 0.86894 0.522454
0.0735332 0.0979934 0.125429
0.0844587 0.0940566 0.130343
0.117968 0.0961013 0.146044
0.190845 0.0987106 0.171435
0.337316 0.108843 0.210163
0.511254 0.11017 0.248875
0.635355 0.115282 0.30869
0.722698 0.127077 0.37438
0.744884 0.130999 0.424384
0.0715953 0.104265 0.136675
0.0757763 0.10164 0.158068
0.126589 0.0991684 0.192966
0.252766 0.102983 0.224002
0.424918 0.111864 0.250996
0.577813 0.112062 0.291081
0.680949 0.121523 0.350118
0.744091 0.130861 0.40853
0.74548 0.130968 0.434058
0.0800641 0.149279 0.171832
0.0782635 0.151781 0.187839
0.119966 0.143282 0.228107
0.295323 0.13225 0.261219
0.457847 0.116609 0.248661
0.595376 0.113848 0.281163
0.691264 0.12314 0.336736
0.744717 0.131655 0.386786
0.744793 0.131014 0.405554
0.0882277 0.277867 0.244373
0.0873579 0.289265 0.255619
0.0909743 0.291096 0.25771
0.341131 0.342229 0.329183
0.607614 0.33521 0.317311
0.740993 0.317281 0.321309
0.807706 0.237278 0.313039
0.807858 0.182818 0.322042
0.816983 0.191302 0.345281
0.0718547 0.446174 0.27361
0.0727855 0.459281 0.27657
0.0734722 0.456977 0.254261
0.182895 0.504234 0.243107
0.587442 0.598291 0.327413
0.779904 0.615473 0.398032
0.886488 0.626734 0.443198
0.905241 0.619608 0.451026
0.905943 0.635081 0.471519
0.136675 0.635996 0.38703
0.142199 0.644602 0.390677
0.142214 0.639536 0.361807
0.158206 0.632166 0.282841
0.51899 0.6822 0.33489
0.728878 0.7393 0.37026
0.868299 0.756558 0.474617
0.903639 0.766293 0.491585
0.904875 0.772717 0.502571
0.226505 0.73933 0.496651
0.228183 0.739513 0.489174
0.225559 0.735119 0.453193
0.234989 0.729091 0.372915
0.441718 0.737072 0.355856
0.699641 0.782284 0.454429
0.827253 0.832135 0.476631
0.889143 0.845014 0.531777
0.896513 0.847791 0.539162
0.253925 0.75819 0.550179
0.253834 0.756909 0.536583
0.254047 0.754421 0.501503
0.269108 0.752941 0.414145
0.443626 0.758938 0.407294
0.714565 0.809369 0.52639
0.825666 0.84921 0.551019
0.877745 0.865919 0.569619
0.895109 0.872862 0.589746
0.255116 0.761517 0.582696
0.254307 0.759625 0.563821
0.254017 0.756115 0.524376
0.27187 0.753307 0.425711
0.479118 0.76231 0.436927
0.726665 0.815503 0.547463
0.829908 0.851637 0.568902
0.876905 0.867079 0.584741
0.896498 0.875547 0.607874
0.0757458 0.107622 0.194598
0.0911421 0.101564 0.204334
0.128084 0.101946 0.233921
0.209567 0.104738 0.273564
0.361334 0.110826 0.315663
0.551934 0.12076 0.355795
0.661616 0.122179 0.422263
0.747555 0.132998 0.491356
0.769635 0.137942 0.531624
0.0667277 0.121248 0.226291
0.0779278 0.117205 0.261326
0.130678 0.107897 0.302098
0.267079 0.11162 0.357473
0.460685 0.113741 0.388403
0.615946 0.126162 0.433097
0.712703 0.129839 0.486763
0.766323 0.136873 0.524071
0.777142 0.140536 0.550912
0.0687877 0.147112 0.255039
0.0680705 0.147616 0.275303
0.0906996 0.125261 0.311299
0.261189 0.115129 0.388861
0.489281 0.116594 0.41529
0.63328 0.129885 0.446967
0.722972 0.131289 0.489799
0.766262 0.136843 0.520272
0.775097 0.139788 0.542412
0.0719005 0.263935 0.31986
0.0702678 0.272633 0.335775
0.0700694 0.265217 0.348363
0.263828 0.285466 0.487434
0.594888 0.276722 0.540703
0.720134 0.245533 0.534569
0.773846 0.169894 0.513771
0.786633 0.145846 0.514656
0.792203 0.147402 0.532601
0.071809 0.433646 0.369848
0.0717174 0.446296 0.381094
0.0722057 0.445182 0.380484
0.159579 0.490166 0.434974
0.606897 0.593332 0.57583
0.787686 0.607446 0.588403
0.891188 0.602319 0.587076
0.905043 0.577249 0.585367
0.906371 0.588006 0.598871
0.129885 0.635126 0.496788
0.134661 0.64387 0.505257
0.132525 0.640009 0.489128
0.142351 0.634928 0.442176
0.523049 0.703304 0.539208
0.74583 0.745815 0.588739
0.876432 0.753689 0.628885
0.913603 0.770916 0.638392
0.915724 0.776852 0.648219
0.215366 0.740734 0.579156
0.215732 0.740871 0.575875
0.210651 0.736141 0.556176
0.216571 0.727611 0.506172
0.455573 0.750927 0.513664
0.702007 0.793301 0.593225
0.839826 0.839246 0.619852
0.902235 0.849577 0.658198
0.912108 0.852796 0.666941
0.262364 0.766339 0.624842
0.259251 0.765499 0.61619
0.255848 0.762966 0.593713
0.266545 0.758572 0.545724
0.49427 0.777447 0.549233
0.694423 0.818723 0.617502
0.831479 0.858656 0.655451
0.888365 0.8757 0.667979
0.908446 0.882292 0.690608
0.277745 0.769284 0.653925
0.27097 0.767956 0.641825
0.261143 0.765469 0.616648
0.275349 0.760266 0.563775
0.527382 0.784848 0.57641
0.707134 0.828992 0.641474
0.837964 0.865538 0.679423
0.888762 0.882414 0.689708
0.907515 0.888823 0.708721
0.078233 0.122179 0.290257
0.0994736 0.113603 0.306386
0.135088 0.111681 0.340124
0.225391 0.114687 0.401663
0.390005 0.118273 0.460472
0.570916 0.120424 0.506096
0.697032 0.132052 0.547601
0.789563 0.147875 0.596704
0.810162 0.155138 0.634775
0.0679637 0.143328 0.343252
0.0828717 0.137636 0.38233
0.134844 0.121767 0.425666
0.272099 0.123919 0.508278
0.490806 0.123812 0.542351
0.63122 0.126406 0.567987
0.751385 0.144183 0.599619
0.808179 0.154238 0.630045
0.818357 0.159304 0.656428
0.0666514 0.168673 0.374578
0.0662242 0.170016 0.401373
0.0892958 0.143603 0.440314
0.251896 0.128527 0.532067
0.50692 0.127245 0.566766
0.649317 0.13077 0.585153
0.763851 0.146975 0.608591
0.810513 0.155215 0.633005
0.818647 0.159609 0.655497
0.0671244 0.257298 0.425544
0.0662089 0.264775 0.44976
0.0662242 0.254475 0.47013
0.193606 0.239826 0.576333
0.559243 0.224308 0.646601
0.702724 0.188602 0.637629
0.770947 0.152651 0.605432
0.811353 0.156344 0.621012
0.816251 0.158587 0.633768
0.0627298 0.417807 0.478813
0.0624857 0.430426 0.491051
0.0606851 0.426719 0.49749
0.101228 0.43566 0.541436
0.550484 0.558267 0.6795
0.781842 0.58146 0.726543
0.889525 0.566217 0.72372
0.914626 0.533455 0.741421
0.915114 0.551003 0.750164
0.12781 0.624048 0.57348
0.132174 0.632837 0.582483
0.13077 0.628931 0.578668
0.132952 0.621653 0.571679
0.518853 0.699596 0.662776
0.758373 0.739574 0.719829
0.881636 0.749569 0.730556
0.915618 0.748394 0.730663
0.915648 0.746593 0.732174
0.212619 0.7411 0.646113
0.212787 0.741543 0.645624
0.207507 0.737224 0.636545
0.208026 0.729717 0.614801
0.463386 0.757275 0.63978
0.728161 0.820844 0.711101
0.859098 0.847822 0.733593
0.908431 0.852018 0.754314
0.916075 0.857694 0.75903
0.294133 0.771221 0.679561
0.290822 0.770947 0.674891
0.282841 0.76997 0.663478
0.282658 0.765789 0.638315
0.50869 0.788083 0.652903
0.722942 0.846204 0.715023
0.847807 0.872068 0.753368
0.898665 0.885618 0.760464
0.916304 0.888365 0.780011
0.307317 0.770901 0.698329
0.302205 0.771176 0.691722
0.294759 0.771969 0.67953
0.305257 0.770214 0.6533
0.548409 0.800931 0.674556
0.741421 0.859693 0.73637
0.849134 0.88191 0.774792
0.897337 0.893828 0.778058
0.915633 0.898436 0.787396
0.0830243 0.140536 0.396887
0.10547 0.132555 0.42681
0.13872 0.126192 0.465599
0.233524 0.129671 0.534722
0.426215 0.133608 0.586511
0.598611 0.135225 0.61088
0.716869 0.141741 0.645792
0.825666 0.165896 0.691905
0.838071 0.17319 0.728115
0.066743 0.168032 0.481712
0.0847791 0.162066 0.520638
0.136629 0.143923 0.547112
0.277333 0.145037 0.607752
0.515236 0.145174 0.644419
0.654612 0.145327 0.660716
0.768902 0.155581 0.690349
0.837095 0.172183 0.72256
0.840452 0.176532 0.744076
0.0649424 0.195758 0.519493
0.0650492 0.196323 0.54197
0.0854658 0.172961 0.561608
0.250507 0.14992 0.619776
0.523003 0.150866 0.664698
0.669596 0.150179 0.677501
0.781933 0.159854 0.701549
0.838575 0.173495 0.726497
0.841093 0.177066 0.744564
0.0654154 0.255268 0.538857
0.0653849 0.263966 0.556939
0.0657054 0.255665 0.573556
0.142748 0.223224 0.636408
0.506874 0.195331 0.705425
0.68246 0.17142 0.70251
0.781033 0.16051 0.700725
0.838666 0.172961 0.715801
0.841428 0.175814 0.727367
0.0559091 0.43093 0.553765
0.0554208 0.443351 0.562753
0.0564889 0.438773 0.572427
0.0686809 0.433417 0.611215
0.491081 0.531594 0.749233
0.783032 0.578286 0.818524
0.898009 0.56257 0.824079
0.916899 0.527169 0.819089
0.916671 0.544564 0.824613
0.130007 0.615595 0.630137
0.134066 0.622873 0.637873
0.129702 0.617197 0.637659
0.124834 0.607752 0.640925
0.46923 0.673838 0.726757
0.728374 0.720989 0.785946
0.874128 0.733532 0.812192
0.915419 0.729076 0.810117
0.91545 0.729198 0.817258
0.209506 0.731594 0.683879
0.209323 0.73167 0.684001
0.203632 0.727016 0.679011
0.204623 0.720546 0.672511
0.442542 0.747997 0.704433
0.735042 0.822614 0.784787
0.865125 0.843702 0.812238
0.911574 0.849058 0.817563
0.915953 0.847944 0.820172
0.311238 0.769299 0.709239
0.305943 0.768566 0.706355
0.294636 0.767407 0.700175
0.289738 0.764172 0.688869
0.510658 0.788632 0.711604
0.738979 0.856138 0.785489
0.862608 0.882445 0.820661
0.904967 0.888075 0.821622
0.916396 0.888884 0.828214
0.324575 0.769558 0.722011
0.322042 0.769787 0.717998
0.317357 0.770306 0.710597
0.333333 0.773877 0.699718
0.568811 0.810239 0.73051
0.760037 0.871458 0.79675
0.866529 0.893965 0.826917
0.902052 0.898634 0.828901
0.916335 0.902007 0.832837
0.0844739 0.161059 0.515724
0.10724 0.155581 0.543252
0.142763 0.147646 0.567254
0.240986 0.149233 0.615427
0.448585 0.155047 0.66746
0.628534 0.160922 0.698711
0.735409 0.153307 0.711101
0.841718 0.179355 0.757992
0.84535 0.184268 0.77847
0.0659648 0.197086 0.582757
0.0798352 0.193912 0.60766
0.13286 0.174609 0.627039
0.277867 0.168093 0.672862
0.52607 0.172213 0.717754
0.683696 0.177966 0.741604
0.780056 0.164248 0.742702
0.844846 0.18323 0.77348
0.846128 0.186389 0.785351
0.0665293 0.228626 0.61413
0.066453 0.230259 0.628046
0.0758373 0.210422 0.636851
0.246799 0.17351 0.680583
0.528786 0.180606 0.734157
0.696406 0.185321 0.755032
0.791333 0.168551 0.751492
0.845258 0.183948 0.775464
0.846525 0.186496 0.78436
0.0663005 0.266606 0.613092
0.0669718 0.27512 0.626337
0.0674907 0.268055 0.64062
0.10425 0.23772 0.682292
0.466484 0.196979 0.74432
0.695506 0.203861 0.771908
0.78999 0.171603 0.753674
0.845441 0.183734 0.769955
0.846403 0.185626 0.775433
0.0587167 0.448157 0.612451
0.059266 0.460014 0.619989
0.0599985 0.455589 0.630442
0.0641184 0.449409 0.661967
0.440482 0.523476 0.78732
0.761074 0.577203 0.853925
0.897017 0.56965 0.859403
0.917144 0.529137 0.859403
0.916594 0.546654 0.860899
0.119066 0.625559 0.670802
0.122179 0.631312 0.676646
0.113725 0.62501 0.675837
0.100923 0.614023 0.678248
0.409735 0.662013 0.756558
0.705653 0.710048 0.81883
0.877302 0.737774 0.851148
0.915526 0.734844 0.859648
0.915541 0.733333 0.859922
0.209842 0.725887 0.707195
0.209339 0.725216 0.707607
0.204913 0.71989 0.706127
0.205951 0.711009 0.705684
0.423301 0.734173 0.739315
0.723156 0.809354 0.813123
0.852522 0.834806 0.837064
0.905211 0.839704 0.842527
0.915953 0.837995 0.841337
0.316518 0.766949 0.725063
0.31136 0.766079 0.722866
0.298421 0.76376 0.71899
0.286137 0.75816 0.712718
0.498253 0.780118 0.736584
0.73196 0.850797 0.808347
0.866377 0.881498 0.845762
0.905348 0.885878 0.849836
0.916075 0.88751 0.851591
0.300023 0.768002 0.732708
0.324483 0.768917 0.731273
0.328771 0.769268 0.727001
0.349218 0.772885 0.721477
0.574746 0.809415 0.754162
0.764401 0.872755 0.819745
0.873655 0.896391 0.850736
0.904906 0.901167 0.853361
0.916442 0.902419 0.855009
0.0800031 0.190341 0.599481
0.101396 0.187915 0.624628
0.140307 0.179278 0.643076
0.244343 0.172244 0.677958
0.462654 0.183841 0.732158
0.655772 0.19855 0.770581
0.770687 0.185809 0.773526
0.847044 0.187411 0.788449
0.847791 0.189868 0.795682
0.0676432 0.236057 0.657313
0.0700236 0.234958 0.669596
0.117113 0.216663 0.687633
0.274479 0.195468 0.722118
0.534157 0.209415 0.7729
0.712978 0.228458 0.804395
0.805356 0.191241 0.788342
0.847669 0.189425 0.794583
0.847822 0.190402 0.796826
0.068452 0.2636 0.676829
0.0687114 0.266911 0.685573
0.0689555 0.252934 0.690227
0.238178 0.20737 0.727886
0.532311 0.221073 0.784131
0.725353 0.241016 0.814649
0.814618 0.196704 0.794156
0.84828 0.190356 0.795666
0.848203 0.191104 0.797116
0.0682994 0.288853 0.66598
0.0686656 0.299016 0.675792
0.0691997 0.292882 0.686473
0.0760204 0.268513 0.711055
0.450858 0.22974 0.780163
0.715831 0.255543 0.822873
0.818631 0.215625 0.803571
0.848875 0.190127 0.792462
0.849287 0.191501 0.795041
0.061799 0.467826 0.652247
0.0625162 0.478157 0.658274
0.0633097 0.476036 0.66923
0.0650187 0.470161 0.694148
0.397101 0.530999 0.802014
0.736385 0.583169 0.865141
0.893202 0.58616 0.874662
0.916381 0.555047 0.870863
0.916411 0.56759 0.871305
0.107073 0.634638 0.694163
0.10869 0.638727 0.698268
0.0997482 0.631983 0.69836
0.0928969 0.621408 0.704326
0.3879 0.657816 0.774624
0.686473 0.70811 0.831052
0.873487 0.743786 0.869795
0.915465 0.743053 0.874617
0.91548 0.742168 0.877409
0.205264 0.72752 0.723583
0.203372 0.726238 0.723934
0.196551 0.721004 0.723323
0.190753 0.711742 0.724407
0.383444 0.728939 0.752804
0.701152 0.799252 0.820493
0.844343 0.830839 0.850858
0.904005 0.83978 0.861921
0.916091 0.836484 0.863447
0.282506 0.766827 0.73373
0.293172 0.765393 0.732204
0.284153 0.761975 0.730007
0.273091 0.755383 0.72755
0.477516 0.772869 0.750149
0.719814 0.842481 0.818204
0.861906 0.877867 0.85536
0.900435 0.882475 0.859754
0.916381 0.884352 0.863157
0.226307 0.769467 0.737392
0.227604 0.76939 0.73727
0.295918 0.768215 0.734295
0.35314 0.772335 0.733028
0.577737 0.808133 0.766369
0.758862 0.868925 0.827405
0.8719 0.894545 0.857786
0.905394 0.900038 0.862577
0.916487 0.901534 0.864912
