bundles/resolve-cinematic-luts/Phantom Luts/Fx6 Phntm Film LUTs-G5/ATOMOS Monitor LUTs/Bleach Fx6 AML.cube
TITLE "Generated by Resolve"
LUT_3D_SIZE 5
0.0734264 0.0845808 0.0745708
0.110506 0.0924239 0.0811475
0.291966 0.108644 0.103059
0.604028 0.122713 0.165072
0.755688 0.146792 0.292515
0.0906691 0.153292 0.0951858
0.147662 0.165896 0.0941787
0.476493 0.143084 0.111528
0.657511 0.133791 0.139437
0.730053 0.155962 0.186633
0.0781567 0.429267 0.140383
0.0844434 0.431937 0.0956283
0.558953 0.575036 0.150698
0.862562 0.625177 0.282689
0.897246 0.655833 0.303609
0.24152 0.741756 0.379446
0.233387 0.736309 0.343099
0.610758 0.753552 0.340139
0.836301 0.840085 0.390066
0.89041 0.856214 0.44802
0.25565 0.751461 0.420188
0.247471 0.745449 0.351904
0.66041 0.783139 0.396323
0.851438 0.856992 0.457496
0.889937 0.868666 0.51397
0.0730144 0.0893873 0.0901503
0.107485 0.0927901 0.103075
0.314076 0.105379 0.150835
0.625696 0.119051 0.231708
0.748257 0.135119 0.360952
0.0894942 0.150057 0.1308
0.151659 0.161456 0.14992
0.467704 0.137194 0.138705
0.684077 0.134783 0.217899
0.756176 0.145861 0.299947
0.074815 0.442466 0.194461
0.0789807 0.445197 0.148531
0.560845 0.57554 0.157778
0.872099 0.617395 0.30106
0.89984 0.636149 0.318257
0.237568 0.740505 0.426108
0.235477 0.737148 0.37789
0.562982 0.742535 0.323003
0.829953 0.835187 0.383734
0.891203 0.850935 0.441764
0.253956 0.754894 0.50753
0.256123 0.751598 0.422614
0.587854 0.765301 0.370565
0.834028 0.850843 0.476967
0.890028 0.86894 0.522454
0.0757458 0.107622 0.194598
0.128084 0.101946 0.233921
0.361334 0.110826 0.315663
0.661616 0.122179 0.422263
0.769635 0.137942 0.531624
0.0687877 0.147112 0.255039
0.0906996 0.125261 0.311299
0.489281 0.116594 0.41529
0.722972 0.131289 0.489799
0.775097 0.139788 0.542412
0.071809 0.433646 0.369848
0.0722057 0.445182 0.380484
0.606897 0.593332 0.57583
0.891188 0.602319 0.587076
0.906371 0.588006 0.598871
0.215366 0.740734 0.579156
0.210651 0.736141 0.556176
0.455573 0.750927 0.513664
0.839826 0.839246 0.619852
0.912108 0.852796 0.666941
0.277745 0.769284 0.653925
0.261143 0.765469 0.616648
0.527382 0.784848 0.57641
0.837964 0.865538 0.679423
0.907515 0.888823 0.708721
0.0830243 0.140536 0.396887
0.13872 0.126192 0.465599
0.426215 0.133608 0.586511
0.716869 0.141741 0.645792
0.838071 0.17319 0.728115
0.0649424 0.195758 0.519493
0.0854658 0.172961 0.561608
0.523003 0.150866 0.664698
0.781933 0.159854 0.701549
0.841093 0.177066 0.744564
0.0559091 0.43093 0.553765
0.0564889 0.438773 0.572427
0.491081 0.531594 0.749233
0.898009 0.56257 0.824079
0.916671 0.544564 0.824613
0.209506 0.731594 0.683879
0.203632 0.727016 0.679011
0.442542 0.747997 0.704433
0.865125 0.843702 0.812238
0.915953 0.847944 0.820172
0.324575 0.769558 0.722011
0.317357 0.770306 0.710597
0.568811 0.810239 0.73051
0.866529 0.893965 0.826917
0.916335 0.902007 0.832837
0.0800031 0.190341 0.599481
0.140307 0.179278 0.643076
0.462654 0.183841 0.732158
0.770687 0.185809 0.773526
0.847791 0.189868 0.795682
0.068452 0.2636 0.676829
0.0689555 0.252934 0.690227
0.532311 0.221073 0.784131
0.814618 0.196704 0.794156
0.848203 0.191104 0.797116
0.061799 0.467826 0.652247
0.0633097 0.476036 0.66923
0.397101 0.530999 0.802014
0.893202 0.58616 0.874662
0.916411 0.56759 0.871305
0.205264 0.72752 0.723583
0.196551 0.721004 0.723323
0.383444 0.728939 0.752804
0.844343 0.830839 0.850858
0.916091 0.836484 0.863447
0.226307 0.769467 0.737392
0.295918 0.768215 0.734295
0.577737 0.808133 0.766369
0.8719 0.894545 0.857786
0.916487 0.901534 0.864912
