bundles/resolve-cinematic-luts/Phantom Luts/Fx6 Phntm Film LUTs-G5/ATOMOS Monitor LUTs/Bleach Fx6 AML.cube
TITLE "Generated by Resolve"
LUT_3D_SIZE 33
0.0734264 0.0845808 0.0745708
0.0734264 0.0845808 0.0745708
0.0734264 0.0845808 0.0745708
0.0738689 0.0848707 0.0747997
0.0755016 0.0851759 0.0749981
0.0815137 0.0875105 0.0770581
0.0886091 0.0896773 0.0780652
0.099382 0.0908827 0.0791028
0.110506 0.0924239 0.0811475
0.122133 0.0937819 0.0833753
0.135531 0.0947127 0.0855268
0.1523 0.0964675 0.0882582
0.172778 0.0987106 0.0909895
0.196979 0.100877 0.0937057
0.224369 0.103639 0.0960403
0.256764 0.106264 0.0985885
0.291966 0.108644 0.103059
0.329442 0.111269 0.109087
0.368734 0.113375 0.11548
0.414969 0.114992 0.121584
0.465003 0.115297 0.12697
0.507134 0.116197 0.133867
0.542336 0.117311 0.141115
0.574624 0.119631 0.151873
0.604028 0.122713 0.165072
0.632242 0.126314 0.181689
0.658503 0.129976 0.200702
0.689158 0.135454 0.223468
0.724071 0.142596 0.249653
0.743236 0.146273 0.267857
0.75581 0.14876 0.282124
0.755734 0.147662 0.287602
0.755688 0.146792 0.292515
0.0734264 0.0845808 0.0745708
0.0734264 0.0845808 0.0745708
0.0734264 0.0845808 0.0745708
0.0737316 0.0848096 0.0747539
0.0764477 0.0857099 0.0754864
0.0830854 0.0881361 0.0774701
0.0911727 0.0903487 0.0784314
0.103929 0.0914168 0.0801099
0.116258 0.09308 0.0825055
0.130724 0.0942702 0.0846723
0.148562 0.0961776 0.0876173
0.16875 0.0981613 0.0903944
0.193729 0.100374 0.0930648
0.222461 0.10312 0.0955825
0.254887 0.105837 0.098146
0.29073 0.108339 0.102464
0.328695 0.111177 0.108614
0.368902 0.113497 0.114992
0.416464 0.115053 0.120958
0.465705 0.115465 0.126452
0.507958 0.116442 0.133257
0.543084 0.117617 0.140459
0.574929 0.119799 0.151003
0.604135 0.12285 0.164111
0.631785 0.126497 0.179843
0.657618 0.130175 0.198489
0.687785 0.135607 0.220584
0.721721 0.14258 0.245518
0.741802 0.14641 0.263798
0.755779 0.149462 0.278538
0.755749 0.14847 0.283162
0.755779 0.147646 0.287907
0.755734 0.146899 0.291936
0.0734264 0.0845808 0.0745708
0.0734264 0.0845808 0.0745708
0.0734264 0.0845808 0.0745708
0.0734264 0.0845808 0.0745708
0.0769665 0.0860609 0.0757916
0.0839399 0.0886702 0.0778821
0.0930037 0.0910201 0.0788891
0.106126 0.092256 0.0807965
0.120348 0.0937819 0.082887
0.136355 0.0949111 0.0849775
0.156435 0.0961929 0.0873426
0.180774 0.0984817 0.0903487
0.21033 0.100771 0.0929885
0.241627 0.103593 0.095552
0.275624 0.106416 0.09897
0.311894 0.109255 0.102998
0.35082 0.113161 0.109545
0.39469 0.115297 0.115419
0.444953 0.115984 0.121401
0.490806 0.116762 0.12726
0.528298 0.118074 0.134508
0.560967 0.119478 0.143252
0.590433 0.121447 0.15346
0.619455 0.125231 0.168826
0.644831 0.128969 0.184833
0.669779 0.132647 0.202884
0.704189 0.13959 0.227146
0.732631 0.145754 0.249653
0.748699 0.149157 0.26511
0.755871 0.15021 0.274632
0.75584 0.149477 0.278569
0.755886 0.148745 0.282399
0.755825 0.147921 0.286473
0.0734264 0.0845808 0.0745708
0.0734264 0.0845808 0.0745708
0.0734264 0.0845808 0.0745708
0.0734264 0.0845808 0.0745708
0.0764477 0.0862287 0.0757305
0.0822461 0.0895247 0.0776989
0.0898299 0.0917525 0.0795911
0.10248 0.0929122 0.080293
0.118334 0.0946212 0.0826123
0.136843 0.0954757 0.0843824
0.159167 0.0963607 0.0866255
0.185672 0.098085 0.0892195
0.216052 0.100206 0.0915236
0.249393 0.102525 0.0936904
0.283452 0.105669 0.0963912
0.321187 0.108812 0.100572
0.361715 0.112886 0.105882
0.405753 0.115343 0.112001
0.454215 0.117571 0.117769
0.497398 0.118959 0.124239
0.534264 0.119707 0.131197
0.565316 0.120241 0.139528
0.594675 0.122744 0.150622
0.6224 0.126665 0.164813
0.648539 0.130434 0.181704
0.676143 0.134936 0.201007
0.709529 0.14197 0.224399
0.734646 0.14725 0.245014
0.751385 0.150881 0.261402
0.755932 0.151247 0.268605
0.755962 0.150637 0.27274
0.755962 0.150042 0.276081
0.755932 0.149447 0.279164
0.0746777 0.0888838 0.0767681
0.0754711 0.0904402 0.0776532
0.0760052 0.0914931 0.0779126
0.0773632 0.0910658 0.0773938
0.0796674 0.0911269 0.0777447
0.0830854 0.0928511 0.079408
0.0885481 0.0944076 0.0807507
0.0993515 0.0960098 0.0813306
0.117159 0.0970779 0.0826123
0.139315 0.0986343 0.0853132
0.161578 0.0985885 0.0873121
0.189151 0.0993362 0.0894026
0.220569 0.10042 0.0911727
0.253925 0.102342 0.0927291
0.290379 0.104875 0.0944228
0.328801 0.107485 0.0970779
0.369863 0.110292 0.100969
0.415778 0.114244 0.107057
0.463355 0.1178 0.114076
0.503639 0.121492 0.121416
0.539361 0.122957 0.129
0.569436 0.122728 0.136477
0.598428 0.125063 0.147951
0.624826 0.127932 0.160159
0.650782 0.131655 0.177295
0.680415 0.136812 0.197528
0.714824 0.14432 0.22121
0.736721 0.149004 0.239429
0.754604 0.152728 0.256413
0.755962 0.152407 0.261158
0.755917 0.151934 0.264515
0.756008 0.151492 0.267414
0.756069 0.151064 0.270146
0.0794995 0.100435 0.082475
0.0800336 0.102296 0.0830701
0.080293 0.102983 0.0829938
0.0814832 0.101625 0.0819409
0.0847944 0.100328 0.0819562
0.0897993 0.102174 0.0831159
0.095613 0.103334 0.085008
0.105684 0.10518 0.0845808
0.124483 0.104738 0.0850233
0.146777 0.105287 0.0868391
0.173419 0.105776 0.088838
0.201114 0.104707 0.0911269
0.233448 0.10457 0.0928511
0.26154 0.1037 0.0928969
0.298466 0.106004 0.0943008
0.336126 0.1075 0.0955978
0.37702 0.109514 0.0973068
0.425879 0.111788 0.102327
0.473686 0.115312 0.108568
0.513939 0.121218 0.117922
0.546654 0.124239 0.125628
0.574258 0.127077 0.134096
0.601755 0.128557 0.143954
0.627192 0.129335 0.15555
0.651453 0.13283 0.170748
0.682979 0.138796 0.191028
0.71635 0.145922 0.213092
0.737575 0.15082 0.23122
0.753521 0.154376 0.245823
0.754925 0.15404 0.249638
0.755688 0.153643 0.253193
0.755871 0.153262 0.255756
0.756039 0.152926 0.258076
0.0838026 0.115282 0.0867475
0.0845197 0.117403 0.0874495
0.0844129 0.118395 0.0870985
0.0855726 0.116762 0.0860456
0.0889143 0.114534 0.0854963
0.0941939 0.114992 0.0870375
0.104479 0.118074 0.0886702
0.115038 0.119997 0.0886549
0.13402 0.118898 0.0877852
0.157107 0.116686 0.0890974
0.183124 0.115755 0.090074
0.215641 0.116228 0.0925612
0.254688 0.115846 0.095491
0.289082 0.114702 0.0977188
0.320485 0.112688 0.098024
0.354559 0.112551 0.0983902
0.390402 0.111788 0.0982986
0.436866 0.111925 0.0983749
0.483619 0.113207 0.102434
0.521706 0.116747 0.109102
0.55462 0.123369 0.119875
0.581765 0.128252 0.129
0.605158 0.129137 0.137194
0.629053 0.132692 0.14966
0.652369 0.134737 0.16202
0.684062 0.140887 0.180835
0.713954 0.14728 0.201022
0.736187 0.152361 0.218067
0.748425 0.155383 0.229236
0.749798 0.155276 0.23299
0.750912 0.155215 0.235798
0.751904 0.155215 0.238483
0.752239 0.155093 0.240131
0.0875257 0.132586 0.0906996
0.0881208 0.135637 0.0912337
0.0881971 0.137316 0.0909743
0.0888228 0.136126 0.0896162
0.0923476 0.134051 0.0890059
0.0990921 0.133593 0.0906233
0.109957 0.135409 0.0934768
0.124208 0.139986 0.0925765
0.140993 0.141344 0.0901656
0.169528 0.137041 0.0904402
0.197498 0.132876 0.0920119
0.226764 0.129412 0.093843
0.268803 0.129366 0.0978561
0.308782 0.128969 0.100908
0.348562 0.128801 0.103471
0.39501 0.126894 0.105043
0.430823 0.12253 0.103792
0.464744 0.1187 0.102098
0.501976 0.118532 0.103227
0.532326 0.117922 0.105806
0.561761 0.119585 0.10956
0.588693 0.124102 0.119188
0.6121 0.129107 0.129976
0.631601 0.132494 0.139544
0.650156 0.13608 0.149676
0.679973 0.142229 0.166827
0.708659 0.148516 0.184939
0.73228 0.154162 0.201541
0.740093 0.156008 0.20853
0.74136 0.155978 0.210483
0.74226 0.155962 0.212604
0.74342 0.156085 0.214633
0.743603 0.156069 0.215183
0.0906691 0.153292 0.0951858
0.0910658 0.15787 0.0959945
0.090959 0.159792 0.0953078
0.0910353 0.159701 0.0928969
0.0946517 0.158328 0.0910658
0.101061 0.157412 0.091783
0.113878 0.157733 0.0964218
0.130541 0.160204 0.0993057
0.147662 0.165896 0.0941787
0.173083 0.166506 0.0907454
0.212879 0.160159 0.0923476
0.246128 0.154696 0.0948959
0.279698 0.148287 0.0987106
0.32459 0.147799 0.102678
0.369528 0.146929 0.106676
0.424552 0.14522 0.109758
0.476493 0.143084 0.111528
0.511788 0.139605 0.1131
0.544106 0.137621 0.114595
0.565255 0.134936 0.114565
0.581109 0.129076 0.114336
0.602548 0.128939 0.117906
0.621515 0.12932 0.123781
0.639536 0.130434 0.129992
0.657511 0.133791 0.139437
0.674052 0.140215 0.151156
0.698161 0.148119 0.165484
0.726925 0.155474 0.183093
0.727352 0.15555 0.183749
0.728038 0.155505 0.184878
0.728847 0.155627 0.185473
0.729534 0.155779 0.186099
0.730053 0.155962 0.186633
0.0928359 0.178775 0.100038
0.0929274 0.184207 0.10103
0.092607 0.186877 0.100008
0.0916457 0.186496 0.0962539
0.0940414 0.186297 0.0919966
0.101534 0.185183 0.0920729
0.114885 0.185855 0.0966201
0.133715 0.187594 0.101701
0.15317 0.190295 0.103029
0.17612 0.197208 0.0953231
0.212848 0.197482 0.0913252
0.261585 0.190631 0.0938888
0.300893 0.183429 0.0990158
0.345495 0.172915 0.104662
0.391058 0.170916 0.108583
0.443961 0.168414 0.111376
0.503151 0.167956 0.117037
0.543557 0.168612 0.121996
0.577844 0.169604 0.128252
0.609766 0.169619 0.133944
0.630182 0.165805 0.135729
0.642145 0.157061 0.132052
0.655238 0.151156 0.132738
0.660151 0.138613 0.129809
0.670832 0.137865 0.136202
0.682048 0.137697 0.143587
0.703212 0.14461 0.155276
0.718898 0.151965 0.165454
0.719478 0.153033 0.167956
0.719387 0.153063 0.167681
0.719722 0.153872 0.167987
0.720104 0.154116 0.168124
0.719738 0.154437 0.167407
0.0939956 0.209277 0.107347
0.0939193 0.216144 0.108476
0.0932784 0.218845 0.106981
0.0926986 0.217945 0.102617
0.093019 0.2168 0.0966964
0.0982071 0.217166 0.091783
0.112367 0.216953 0.0944839
0.133349 0.22005 0.101106
0.15581 0.222492 0.106584
0.180896 0.226154 0.107469
0.211765 0.234516 0.0959945
0.258991 0.23534 0.0927596
0.314992 0.228428 0.0964675
0.364019 0.220706 0.102663
0.423407 0.20557 0.109895
0.47129 0.199786 0.113649
0.5149 0.198932 0.118959
0.563928 0.203021 0.128771
0.600885 0.206729 0.138003
0.63621 0.212573 0.147402
0.669139 0.21503 0.157336
0.692454 0.212985 0.161959
0.709224 0.203815 0.16257
0.72372 0.195041 0.160021
0.727016 0.177508 0.152819
0.729625 0.16463 0.149691
0.73109 0.157275 0.151949
0.732799 0.150912 0.152361
0.739437 0.158495 0.15874
0.739605 0.155947 0.157671
0.743786 0.156252 0.156649
0.744289 0.154757 0.15584
0.744854 0.152804 0.154757
0.0931411 0.243107 0.11426
0.0932021 0.250278 0.115282
0.0926833 0.252872 0.113512
0.092195 0.252628 0.109422
0.0920882 0.251896 0.103944
0.0948043 0.250599 0.0967575
0.104738 0.251026 0.0911421
0.127337 0.253361 0.0969863
0.152819 0.257282 0.105516
0.18204 0.260868 0.11162
0.214405 0.26627 0.111742
0.252399 0.276204 0.0966506
0.309499 0.278294 0.0940261
0.376089 0.27245 0.0990463
0.438163 0.263996 0.104616
0.50074 0.249454 0.116579
0.54107 0.24686 0.124804
0.575845 0.250431 0.13225
0.618875 0.25481 0.145876
0.65536 0.259068 0.158083
0.693065 0.267933 0.172396
0.724971 0.273335 0.184039
0.755154 0.279194 0.193973
0.779461 0.273808 0.201511
0.804395 0.272221 0.20856
0.805447 0.24889 0.198795
0.805417 0.227314 0.186572
0.802869 0.216022 0.179812
0.800198 0.207477 0.174792
0.803571 0.211917 0.177722
0.807233 0.21799 0.181827
0.812604 0.224353 0.185611
0.818204 0.233371 0.192294
0.0914778 0.278233 0.119844
0.0909285 0.285008 0.120531
0.0905928 0.288319 0.119463
0.0902266 0.288136 0.116121
0.0899519 0.287343 0.111345
0.0905928 0.285557 0.10309
0.0959793 0.284764 0.0927291
0.116533 0.286564 0.0905776
0.144167 0.291127 0.099382
0.176715 0.29691 0.111147
0.214099 0.302556 0.118212
0.252903 0.310765 0.115648
0.298756 0.323766 0.0973373
0.365042 0.326726 0.0966049
0.445975 0.322026 0.101442
0.510903 0.319661 0.110033
0.564172 0.310964 0.128115
0.602777 0.311986 0.142184
0.636454 0.31986 0.155184
0.675044 0.322591 0.171466
0.711788 0.331472 0.187823
0.75404 0.344671 0.209201
0.790204 0.349401 0.226551
0.821836 0.358389 0.240787
0.850065 0.362051 0.254673
0.866041 0.361044 0.260166
0.874662 0.351614 0.261082
0.882429 0.348455 0.263813
0.88603 0.345922 0.264439
0.885405 0.346365 0.264668
0.887037 0.350881 0.267109
0.88809 0.355978 0.269261
0.890181 0.364157 0.273182
0.0883345 0.313008 0.125048
0.0876173 0.319844 0.125582
0.0872816 0.323095 0.124346
0.0871595 0.323171 0.121721
0.0870222 0.322591 0.11873
0.0870832 0.321324 0.112612
0.0881208 0.318822 0.0991684
0.101228 0.318364 0.0888685
0.129793 0.322347 0.0910964
0.165026 0.330709 0.102846
0.206317 0.339345 0.118822
0.251179 0.347219 0.126146
0.296071 0.359182 0.118456
0.349279 0.376196 0.0987411
0.433173 0.382025 0.100893
0.5149 0.385336 0.110704
0.572061 0.391974 0.126101
0.62446 0.392538 0.150576
0.66743 0.399359 0.173098
0.704768 0.410376 0.193759
0.740826 0.420035 0.213886
0.769451 0.430045 0.228489
0.810025 0.433066 0.249363
0.8421 0.434852 0.265034
0.865888 0.441367 0.275425
0.884123 0.440558 0.286732
0.894621 0.440024 0.291188
0.901259 0.439811 0.293141
0.903395 0.441978 0.294453
0.9037 0.447623 0.294926
0.903181 0.453208 0.294545
0.903075 0.458534 0.294911
0.902647 0.463661 0.295003
0.0847639 0.348043 0.129488
0.0838483 0.35462 0.130037
0.0834516 0.358831 0.129091
0.0833753 0.358907 0.126467
0.0832837 0.357931 0.123278
0.0832685 0.356649 0.118975
0.0844282 0.354498 0.109499
0.0864576 0.351873 0.092668
0.110552 0.354299 0.0870222
0.147326 0.361654 0.0934615
0.192477 0.374121 0.110506
0.242847 0.387427 0.129976
0.292897 0.400336 0.134463
0.344961 0.419059 0.121721
0.411353 0.441199 0.103655
0.504051 0.455879 0.113252
0.573983 0.470085 0.130587
0.625177 0.481743 0.148928
0.671992 0.486366 0.172915
0.713161 0.492988 0.195987
0.752163 0.499321 0.22005
0.782055 0.505287 0.235859
0.804211 0.512673 0.244388
0.832807 0.514488 0.25716
0.857298 0.51696 0.268406
0.875883 0.518639 0.278218
0.889708 0.518105 0.287556
0.898528 0.518822 0.291844
0.899062 0.521141 0.292668
0.899733 0.52398 0.293751
0.899641 0.528542 0.294148
0.898848 0.534096 0.293431
0.898268 0.540642 0.292851
0.0809339 0.385779 0.134874
0.0800793 0.394339 0.135668
0.0794232 0.397589 0.134356
0.0795605 0.39736 0.131472
0.0799268 0.396506 0.128618
0.0798505 0.395605 0.124758
0.0802014 0.394141 0.117388
0.0820172 0.390829 0.103548
0.0893721 0.388205 0.0838026
0.1243 0.39469 0.0856641
0.171756 0.409155 0.100298
0.227588 0.427314 0.12166
0.287785 0.448508 0.14435
0.345739 0.467765 0.145708
0.414221 0.489967 0.135332
0.492149 0.514611 0.124514
0.567407 0.530694 0.137819
0.625528 0.542641 0.155505
0.669032 0.552361 0.172824
0.710414 0.558282 0.193133
0.746777 0.563973 0.212512
0.787259 0.565682 0.237751
0.817853 0.56846 0.255253
0.836439 0.574838 0.261555
0.85565 0.57911 0.270237
0.873075 0.581735 0.278874
0.883421 0.585595 0.283818
0.893187 0.586328 0.290745
0.896452 0.59089 0.292943
0.896696 0.594522 0.293263
0.896849 0.600427 0.293599
0.896559 0.605386 0.293431
0.897047 0.609216 0.294835
0.0781567 0.429267 0.140383
0.0783398 0.437812 0.141909
0.0782177 0.441367 0.141253
0.0783093 0.441001 0.138674
0.078294 0.440116 0.135393
0.0780041 0.439231 0.131106
0.0779278 0.43772 0.125872
0.0789654 0.434562 0.113603
0.0844434 0.431937 0.0956283
0.104112 0.432685 0.0805371
0.151644 0.445701 0.0927901
0.213184 0.467063 0.116381
0.287541 0.494408 0.147601
0.359228 0.520104 0.174502
0.426551 0.536858 0.171237
0.49749 0.553918 0.158251
0.558953 0.575036 0.150698
0.62118 0.589532 0.165469
0.670604 0.599924 0.183612
0.709895 0.607416 0.200778
0.747616 0.613519 0.219028
0.781826 0.619394 0.235721
0.816388 0.620264 0.256504
0.845335 0.620096 0.274022
0.862562 0.625177 0.282689
0.877485 0.629541 0.291569
0.886015 0.63389 0.295262
0.891752 0.638712 0.296864
0.895949 0.642496 0.300145
0.897246 0.645624 0.301534
0.897154 0.6486 0.302205
0.897383 0.65214 0.303105
0.897246 0.655833 0.303609
0.0810407 0.474617 0.153964
0.0829938 0.483772 0.157809
0.0835737 0.487694 0.158053
0.0835584 0.487404 0.155657
0.0834363 0.486061 0.151659
0.0833753 0.484749 0.147463
0.0827649 0.483467 0.142794
0.0828412 0.481392 0.13254
0.0851453 0.47744 0.114199
0.101015 0.477195 0.0970932
0.138216 0.484092 0.0919356
0.208133 0.507759 0.118715
0.292317 0.537774 0.157229
0.369863 0.562615 0.188968
0.44239 0.578119 0.203372
0.507942 0.59115 0.193744
0.564431 0.607309 0.184848
0.613016 0.625467 0.179004
0.6654 0.637781 0.195087
0.711391 0.647166 0.214405
0.747616 0.654093 0.2309
0.78323 0.660014 0.248432
0.812177 0.664652 0.262577
0.840787 0.665949 0.278904
0.86215 0.666484 0.291218
0.877684 0.669612 0.301289
0.890059 0.674357 0.311025
0.895369 0.678508 0.31397
0.897978 0.683085 0.313848
0.898375 0.68632 0.315404
0.898466 0.689265 0.317143
0.898589 0.692103 0.318349
0.898482 0.69485 0.319524
0.0931411 0.523842 0.18114
0.0969863 0.533623 0.188144
0.0982834 0.537926 0.189456
0.0980392 0.537163 0.186725
0.0978714 0.535531 0.182055
0.097322 0.533837 0.17641
0.0961471 0.532097 0.170321
0.0958419 0.530266 0.16289
0.0971084 0.526436 0.146227
0.100908 0.522362 0.121202
0.136843 0.52752 0.111055
0.209445 0.548409 0.127626
0.301762 0.578271 0.169818
0.383291 0.600427 0.206928
0.460472 0.613138 0.224399
0.521019 0.624109 0.227176
0.571893 0.636957 0.21883
0.617441 0.652613 0.211917
0.657694 0.668696 0.209094
0.706065 0.679927 0.226734
0.749538 0.688228 0.24625
0.782254 0.694881 0.26183
0.811963 0.699779 0.276081
0.836439 0.703365 0.287938
0.858915 0.705501 0.301122
0.874159 0.707713 0.309255
0.886351 0.710597 0.317647
0.893477 0.714931 0.324727
0.899199 0.718883 0.330404
0.899016 0.721416 0.331502
0.899077 0.72401 0.333181
0.899229 0.72639 0.334707
0.899321 0.728405 0.335943
0.116426 0.577859 0.223987
0.121279 0.587762 0.231983
0.123354 0.591424 0.234043
0.123171 0.590829 0.231128
0.122179 0.589151 0.226093
0.12134 0.587045 0.219196
0.120516 0.585245 0.212634
0.119707 0.584298 0.20589
0.119753 0.580652 0.189532
0.12195 0.576059 0.16434
0.131868 0.571801 0.133501
0.210956 0.58851 0.145068
0.307836 0.613184 0.182208
0.392248 0.632212 0.219318
0.474876 0.642771 0.243412
0.534524 0.653147 0.251957
0.580179 0.664851 0.252018
0.621942 0.677546 0.245487
0.66125 0.692866 0.241611
0.697353 0.708141 0.240146
0.741833 0.717342 0.256931
0.781109 0.724468 0.275578
0.810712 0.73077 0.289708
0.834455 0.735744 0.302251
0.8551 0.739605 0.313298
0.870268 0.742855 0.321675
0.882795 0.744778 0.329473
0.891569 0.747372 0.336431
0.896284 0.750042 0.342367
0.898024 0.750927 0.346227
0.898833 0.752728 0.348302
0.898711 0.755291 0.349508
0.898726 0.757839 0.350973
0.144381 0.628275 0.267887
0.149477 0.636088 0.274113
0.15111 0.639139 0.275441
0.150668 0.63798 0.272312
0.149828 0.636179 0.267597
0.149279 0.635294 0.262196
0.148882 0.634043 0.256123
0.14728 0.632334 0.2486
0.146761 0.62974 0.237354
0.148913 0.626444 0.21265
0.157244 0.621683 0.179995
0.196826 0.623987 0.159533
0.309239 0.643839 0.195438
0.398917 0.660151 0.231205
0.482841 0.668757 0.254765
0.543984 0.678218 0.272541
0.588388 0.689418 0.277729
0.626886 0.700908 0.276646
0.663203 0.713558 0.272007
0.697887 0.728374 0.269306
0.732433 0.744167 0.269337
0.772244 0.752117 0.285847
0.809537 0.758709 0.304311
0.83238 0.764492 0.31693
0.851606 0.769345 0.328161
0.866926 0.772747 0.336751
0.877974 0.776349 0.344259
0.888014 0.778592 0.351034
0.893629 0.780499 0.357641
0.897017 0.781888 0.363226
0.897276 0.783825 0.365316
0.897002 0.786068 0.366629
0.896925 0.78819 0.368246
0.172519 0.670146 0.304189
0.176349 0.675181 0.308766
0.177752 0.677028 0.309026
0.177264 0.67628 0.306096
0.176486 0.675029 0.30219
0.175708 0.674052 0.296864
0.17496 0.672374 0.290547
0.173632 0.671031 0.283909
0.172625 0.668849 0.273976
0.173556 0.665644 0.255512
0.17966 0.661021 0.225025
0.206958 0.659556 0.193469
0.290196 0.667811 0.203006
0.405661 0.683635 0.243
0.48983 0.69073 0.265873
0.550958 0.699382 0.285466
0.594293 0.709346 0.297932
0.631281 0.720485 0.301274
0.665873 0.732296 0.299825
0.699886 0.745296 0.296529
0.732815 0.759976 0.295689
0.763928 0.774395 0.29868
0.800061 0.781674 0.314916
0.832258 0.788052 0.332433
0.849546 0.793423 0.342947
0.864591 0.798276 0.353704
0.874998 0.802029 0.360754
0.88394 0.80589 0.368322
0.889464 0.807614 0.37464
0.894499 0.809079 0.380682
0.894881 0.810773 0.383642
0.894911 0.812146 0.385534
0.894438 0.81413 0.386908
0.196948 0.701411 0.333242
0.20061 0.705867 0.336965
0.201648 0.706966 0.336675
0.200992 0.70602 0.333333
0.199832 0.704662 0.329488
0.199466 0.703929 0.324666
0.198138 0.70222 0.318135
0.196918 0.700374 0.310613
0.195163 0.698894 0.303426
0.196155 0.696208 0.287495
0.201129 0.691493 0.260807
0.217853 0.687724 0.230594
0.28397 0.690669 0.220508
0.381979 0.700938 0.247333
0.494682 0.709056 0.275456
0.556817 0.717388 0.297749
0.60032 0.726894 0.312963
0.634653 0.737011 0.32166
0.668772 0.748333 0.324346
0.701732 0.760891 0.323735
0.734203 0.774563 0.32137
0.765301 0.789151 0.323156
0.79173 0.801221 0.328191
0.824125 0.807935 0.344747
0.849042 0.812955 0.359503
0.863355 0.817823 0.370092
0.873976 0.821912 0.379294
0.882033 0.825254 0.38677
0.88748 0.828214 0.392432
0.891142 0.830228 0.398138
0.892058 0.831937 0.402136
0.892668 0.833051 0.405493
0.892348 0.833738 0.406409
0.220996 0.725338 0.358511
0.223865 0.728405 0.361135
0.224308 0.729015 0.360372
0.222995 0.728008 0.356649
0.221378 0.726513 0.352163
0.21973 0.725338 0.347143
0.218402 0.723705 0.340597
0.216678 0.722042 0.332692
0.215198 0.720317 0.324666
0.214267 0.718334 0.314748
0.217212 0.714031 0.290623
0.233173 0.71043 0.261295
0.274769 0.710262 0.241184
0.382528 0.718318 0.259586
0.487175 0.723522 0.282856
0.560204 0.731884 0.306905
0.606851 0.742016 0.328923
0.640253 0.752026 0.339223
0.671061 0.762829 0.345739
0.703944 0.774441 0.348211
0.735561 0.787717 0.347036
0.766293 0.801724 0.346288
0.79205 0.813703 0.351217
0.815732 0.823056 0.358206
0.842054 0.828962 0.373404
0.862684 0.833371 0.387945
0.873762 0.836728 0.397024
0.880583 0.839551 0.403952
0.886519 0.842496 0.411353
0.889601 0.843961 0.4177
0.89102 0.845243 0.422675
0.891585 0.846098 0.425406
0.891569 0.846906 0.426474
0.24152 0.741756 0.379446
0.244312 0.743679 0.381506
0.244144 0.743679 0.379843
0.242359 0.742855 0.375601
0.240711 0.741787 0.371237
0.238666 0.740597 0.366262
0.237293 0.739483 0.359915
0.23563 0.73814 0.352193
0.233387 0.736309 0.343099
0.231785 0.734554 0.333394
0.232242 0.731044 0.315129
0.245899 0.727611 0.290196
0.277333 0.72604 0.264515
0.355337 0.729198 0.267903
0.489418 0.735439 0.29337
0.562799 0.743481 0.317403
0.610758 0.753552 0.340139
0.646693 0.764172 0.356542
0.675471 0.77409 0.364767
0.704784 0.785046 0.369619
0.738415 0.798154 0.371649
0.767239 0.811536 0.371374
0.793225 0.824231 0.372442
0.815869 0.832914 0.38056
0.836301 0.840085 0.390066
0.856092 0.844465 0.402365
0.87306 0.847822 0.416297
0.879713 0.850584 0.424735
0.885985 0.85304 0.432807
0.888182 0.854261 0.438621
0.890059 0.855161 0.444327
0.890471 0.855817 0.447196
0.89041 0.856214 0.44802
0.255039 0.750805 0.394751
0.254963 0.750805 0.394324
0.254749 0.75079 0.392309
0.254139 0.750668 0.388327
0.252827 0.750301 0.384054
0.251209 0.749569 0.378836
0.249317 0.748379 0.372763
0.247166 0.747189 0.364477
0.245579 0.745861 0.355489
0.242817 0.743908 0.345663
0.242298 0.741421 0.330541
0.258061 0.73846 0.30782
0.286961 0.737041 0.286625
0.3402 0.738109 0.278477
0.473625 0.743511 0.302342
0.566155 0.752682 0.329076
0.615824 0.763607 0.355291
0.652308 0.773877 0.374762
0.68159 0.784222 0.38706
0.708995 0.794324 0.394812
0.739925 0.80621 0.39852
0.772702 0.819501 0.39968
0.798733 0.831601 0.400931
0.818769 0.841031 0.403357
0.838468 0.847196 0.413245
0.85275 0.850614 0.421057
0.868421 0.854368 0.434989
0.878126 0.857603 0.44741
0.884443 0.860151 0.455589
0.887175 0.861616 0.461143
0.889235 0.862791 0.465812
0.889342 0.863172 0.46836
0.889448 0.863233 0.470787
0.255329 0.750881 0.400031
0.255222 0.75082 0.39942
0.255039 0.75079 0.395804
0.254749 0.75079 0.391867
0.253605 0.750576 0.386954
0.25185 0.749935 0.38143
0.24976 0.748745 0.374929
0.247501 0.747494 0.366934
0.24654 0.746059 0.356405
0.243519 0.744183 0.346258
0.246799 0.742657 0.331426
0.262623 0.741543 0.313573
0.289586 0.742199 0.295476
0.351141 0.744366 0.296391
0.45536 0.748745 0.311696
0.568261 0.759213 0.341848
0.620706 0.771084 0.370642
0.658442 0.782238 0.395666
0.688472 0.792691 0.410147
0.715969 0.802548 0.420768
0.742855 0.812467 0.426581
0.77438 0.825299 0.428351
0.802823 0.836439 0.429236
0.822232 0.845319 0.429496
0.839384 0.851698 0.434409
0.854215 0.854765 0.442206
