bundles/resolve-cinematic-luts/Phantom Luts/Fx6 Phntm Film LUTs-G5/ATOMOS Monitor LUTs/Eastman Fx6 AML.cube
TITLE "Generated by Resolve"
LUT_3D_SIZE 5
0.0875105 0.0875105 0.0875105
0.16144 0.087541 0.0916152
0.388861 0.101442 0.0946822
0.570825 0.1149 0.206668
0.563836 0.121767 0.249424
0.1131 0.162921 0.115007
0.174655 0.164706 0.109529
0.443976 0.158999 0.103075
0.568017 0.160647 0.135988
0.566308 0.146502 0.149569
0.200519 0.548104 0.295918
0.191928 0.530053 0.238178
0.543633 0.547524 0.182498
0.791821 0.532357 0.258457
0.799619 0.530037 0.259358
0.358419 0.80145 0.518624
0.342214 0.788083 0.491127
0.563928 0.764202 0.401877
0.762402 0.777371 0.3691
0.799344 0.773938 0.383581
0.366369 0.809384 0.549584
0.351659 0.795819 0.502678
0.534783 0.768429 0.403693
0.750851 0.79028 0.385412
0.802625 0.794812 0.424048
0.0875563 0.0875563 0.110216
0.150698 0.0877394 0.132906
0.375677 0.087541 0.153063
0.541634 0.112902 0.257008
0.536309 0.119677 0.278111
0.109133 0.158068 0.143282
0.171313 0.164416 0.165896
0.420172 0.122042 0.109255
0.574853 0.124147 0.226246
0.558251 0.123629 0.250324
0.21091 0.570214 0.361898
0.196536 0.545769 0.307149
0.538598 0.541543 0.183062
0.793927 0.514107 0.258228
0.800351 0.501122 0.259831
0.371984 0.816281 0.562371
0.35581 0.799558 0.523323
0.529961 0.759838 0.401114
0.754467 0.772229 0.362921
0.798398 0.765362 0.377111
0.382422 0.827741 0.591272
0.367559 0.810803 0.545647
0.467506 0.765606 0.402869
0.737301 0.789105 0.396414
0.799298 0.796506 0.434165
0.0875105 0.121874 0.273304
0.1308 0.107805 0.320638
0.385367 0.0937362 0.338338
0.568139 0.129763 0.371618
0.576501 0.140322 0.401663
0.0875105 0.159411 0.276249
0.0874495 0.127779 0.306645
0.399405 0.0996414 0.352758
0.574548 0.130465 0.370825
0.577966 0.137728 0.394064
0.200626 0.587091 0.491096
0.198688 0.583261 0.492576
0.56759 0.587732 0.571099
0.81117 0.441978 0.474647
0.800671 0.401282 0.469856
0.403571 0.871656 0.686702
0.391669 0.857023 0.666819
0.467918 0.791562 0.566873
0.761852 0.793545 0.540368
0.822828 0.771115 0.548791
0.424475 0.886 0.716213
0.415167 0.875731 0.690349
0.435157 0.815351 0.575845
0.735714 0.82295 0.577752
0.82855 0.835294 0.6065
0.0874189 0.191959 0.430823
0.120897 0.161822 0.457618
0.434073 0.15874 0.544579
0.6065 0.172793 0.541192
0.614694 0.180148 0.564691
0.0874189 0.244221 0.450202
0.08748 0.210803 0.451438
0.43978 0.16965 0.565423
0.608301 0.17435 0.546136
0.614282 0.179751 0.562295
0.163241 0.578515 0.594354
0.160021 0.568689 0.598489
0.419501 0.524895 0.71989
0.787427 0.417365 0.711833
0.78616 0.364492 0.682002
0.378225 0.861479 0.758801
0.364889 0.851102 0.747784
0.494209 0.844312 0.761654
0.803418 0.82858 0.803449
0.867308 0.788739 0.773007
0.460136 0.895781 0.796292
0.457893 0.896895 0.789944
0.52015 0.903868 0.780484
0.780133 0.888075 0.81239
0.877943 0.897917 0.823102
0.101762 0.329671 0.547234
0.121813 0.314229 0.56701
0.472221 0.270161 0.69929
0.61709 0.184955 0.579293
0.61709 0.184955 0.579293
0.103319 0.339651 0.547036
0.101701 0.329381 0.547234
0.468238 0.270497 0.698863
0.61503 0.18439 0.579248
0.617441 0.185229 0.579553
0.173175 0.595178 0.666789
0.171221 0.587396 0.668742
0.351965 0.525673 0.748119
0.776761 0.433066 0.766003
0.787411 0.372305 0.734157
0.341115 0.845365 0.773037
0.324437 0.831632 0.765545
0.395682 0.823056 0.791669
0.740246 0.804608 0.84448
0.865858 0.77792 0.846448
0.373541 0.881041 0.788388
0.373724 0.88098 0.788632
0.49305 0.899626 0.819181
0.796078 0.898573 0.864271
0.884367 0.906813 0.879377
