bundles/resolve-cinematic-luts/Phantom Luts/Fx6 Phntm Film LUTs-G5/ATOMOS Monitor LUTs/EastmanRM Fx6 AML.cube
TITLE "Generated by Resolve"
LUT_3D_SIZE 33
0.0916915 0.0865644 0.0890822
0.0920424 0.0861677 0.0884718
0.0933547 0.085771 0.0874495
0.0987259 0.0860304 0.0870375
0.109102 0.086244 0.0867018
0.125109 0.0856794 0.0860456
0.149432 0.0856489 0.0859846
0.170047 0.0853742 0.085832
0.190906 0.08542 0.0860456
0.213855 0.0860914 0.0873732
0.240162 0.0865644 0.0883955
0.269657 0.0867781 0.0893111
0.304814 0.086305 0.090837
0.343954 0.0858167 0.0923323
0.381964 0.0856794 0.0952926
0.418021 0.0851911 0.0983902
0.452506 0.0851148 0.102144
0.483284 0.085008 0.106661
0.509972 0.0847486 0.111376
0.532815 0.0852979 0.11809
0.554086 0.0869459 0.127489
0.573083 0.0905623 0.140719
0.593393 0.0968032 0.16022
0.619135 0.109575 0.186481
0.632136 0.118379 0.201617
0.63183 0.118563 0.204105
0.630869 0.118242 0.204959
0.630274 0.118044 0.206271
0.628183 0.118242 0.209476
0.622721 0.119142 0.216114
0.615824 0.120424 0.224094
0.604105 0.122713 0.238102
0.591501 0.125307 0.252171
0.0920119 0.0862135 0.0885176
0.0918288 0.0864118 0.0887922
0.0920424 0.0861677 0.0884718
0.0959335 0.0870069 0.0881056
0.103426 0.0876326 0.0876326
0.116335 0.0872511 0.0869917
0.137377 0.0868238 0.0870222
0.161532 0.0859083 0.0861372
0.185382 0.0855116 0.0859998
0.209369 0.0856336 0.0865644
0.235492 0.0858778 0.0877241
0.266575 0.085832 0.0887465
0.305806 0.0850996 0.089601
0.346456 0.0848859 0.0908827
0.383871 0.085832 0.0934615
0.41976 0.0856794 0.0968338
0.453803 0.0853437 0.100298
0.484916 0.0854353 0.105058
0.511589 0.0853285 0.110338
0.53431 0.0855116 0.116808
0.555581 0.0872969 0.126406
0.574868 0.0907454 0.139681
0.596994 0.0978714 0.160784
0.6206 0.110201 0.185672
0.63331 0.118929 0.201236
0.632746 0.118776 0.202686
0.631708 0.118532 0.204334
0.630915 0.118257 0.205051
0.628656 0.118456 0.207767
0.623499 0.119249 0.214099
0.616571 0.120546 0.22208
0.604639 0.122805 0.235935
0.592035 0.125399 0.250034
0.0920272 0.0862135 0.0885176
0.0918288 0.0864118 0.0887922
0.0920424 0.0861677 0.0884718
0.0951247 0.0870069 0.0879988
0.100389 0.0885939 0.0875563
0.10927 0.0889143 0.0872663
0.124849 0.0887617 0.0876631
0.150027 0.087602 0.0872206
0.177874 0.0868849 0.0868696
0.205737 0.0860456 0.0868849
0.233982 0.0859083 0.0874952
0.264561 0.0856336 0.0886397
0.303517 0.0846418 0.0895399
0.346731 0.083772 0.0900587
0.388113 0.0845197 0.0915999
0.423835 0.0852064 0.094728
0.456901 0.0855879 0.0990921
0.487068 0.0861524 0.104051
0.514076 0.086183 0.10956
0.535912 0.0858778 0.115404
0.557122 0.087602 0.125414
0.576684 0.0908675 0.138567
0.599237 0.0987716 0.160388
0.621973 0.110964 0.185077
0.633631 0.118975 0.199481
0.633265 0.118944 0.201556
0.632654 0.118776 0.202991
0.631785 0.118563 0.204379
0.629526 0.118669 0.206653
0.624308 0.119432 0.212528
0.617334 0.120653 0.220005
0.605371 0.122911 0.234012
0.592676 0.125536 0.248005
0.0930953 0.0941787 0.0912184
0.0925765 0.0938125 0.0912032
0.0929274 0.0932326 0.0910658
0.0939956 0.0926528 0.0903792
0.0970932 0.0926375 0.0901198
0.103029 0.0920729 0.0890669
0.116899 0.0915694 0.0886244
0.140398 0.0902266 0.0880751
0.170016 0.0892042 0.0878767
0.20061 0.0879988 0.087602
0.232273 0.0867628 0.0879072
0.264698 0.0860456 0.0886091
0.303273 0.0847028 0.0893111
0.346624 0.0833906 0.090135
0.388602 0.0834669 0.0909743
0.428214 0.0835431 0.0932326
0.461845 0.0853437 0.0972763
0.490959 0.0870832 0.102846
0.516548 0.0871138 0.108263
0.538231 0.0866865 0.114839
0.558663 0.0880446 0.123842
0.578149 0.0910811 0.137148
0.602075 0.0997024 0.160006
0.623758 0.111833 0.184176
0.634028 0.118914 0.197559
0.633631 0.11902 0.200168
0.63328 0.11899 0.20177
0.632761 0.118822 0.203006
0.630457 0.11899 0.205905
0.624979 0.119768 0.211383
0.618235 0.120867 0.218601
0.606241 0.12311 0.232044
0.593439 0.125719 0.245548
0.0943465 0.10486 0.0932631
0.0933242 0.104082 0.0934005
0.0936141 0.102678 0.09308
0.0947433 0.101152 0.0928664
0.0975204 0.10132 0.0922408
0.104341 0.100603 0.0925307
0.117357 0.0991073 0.091371
0.140215 0.0973373 0.0904707
0.16878 0.0953994 0.0900587
0.199573 0.0927901 0.089189
0.231083 0.0900435 0.0886091
0.267613 0.0876478 0.0891432
0.307164 0.0854353 0.0894331
0.349371 0.0839857 0.090013
0.389609 0.0836042 0.0907301
0.428 0.0827497 0.0922866
0.463615 0.0838178 0.0959029
0.495369 0.0867018 0.101808
0.520027 0.0883955 0.107347
0.540413 0.0879683 0.113909
0.560067 0.0887617 0.122286
0.579263 0.0914321 0.135683
0.60473 0.100832 0.15967
0.625452 0.112688 0.18349
0.634394 0.118807 0.19527
0.634089 0.119005 0.198169
0.633692 0.119081 0.200488
0.633387 0.119051 0.201785
0.631235 0.119219 0.204623
0.625895 0.120089 0.210452
0.619074 0.121218 0.217731
0.606897 0.12343 0.231159
0.594156 0.125963 0.244526
0.0959945 0.120104 0.0954757
0.0944839 0.119371 0.0958877
0.0945754 0.116991 0.0953078
0.0958724 0.114244 0.0950484
0.097673 0.113924 0.0955367
0.103197 0.115084 0.0945296
0.118349 0.113832 0.0949569
0.141268 0.109575 0.0936599
0.167651 0.106096 0.0923781
0.196719 0.103563 0.0919203
0.230564 0.101396 0.0921187
0.276219 0.0943465 0.0904402
0.312901 0.0880293 0.089601
0.356893 0.0856794 0.090013
0.394232 0.0844739 0.090837
0.430625 0.0832227 0.0919203
0.463706 0.0833448 0.0945296
0.494179 0.0852674 0.0999771
0.521355 0.0888685 0.107195
0.541543 0.0896468 0.113268
0.560601 0.0892958 0.120836
0.579309 0.0915847 0.133257
0.606287 0.101198 0.157656
0.626764 0.113344 0.181277
0.634485 0.118517 0.192676
0.634501 0.118883 0.195483
0.634241 0.119051 0.198016
0.633158 0.11928 0.200839
0.631266 0.119615 0.203677
0.626444 0.12047 0.208927
0.620066 0.121538 0.216373
0.607858 0.123827 0.229694
0.595209 0.126314 0.243259
0.097612 0.13724 0.0977798
0.0959945 0.137148 0.0980697
0.0962234 0.135073 0.097612
0.0984054 0.131609 0.0965286
0.10309 0.128923 0.0961776
0.110536 0.129839 0.0964981
0.127764 0.131731 0.0940414
0.15433 0.127642 0.0944228
0.180316 0.121782 0.0939498
0.205447 0.116609 0.0927291
0.235737 0.112276 0.0924544
0.277928 0.108446 0.093019
0.323568 0.102174 0.0919356
0.370474 0.0920272 0.0904555
0.404822 0.0874952 0.0916762
0.436194 0.085008 0.0919051
0.467811 0.0843977 0.0940719
0.495262 0.0847334 0.0978256
0.519417 0.086717 0.104967
0.541436 0.0910811 0.114305
0.558373 0.0912337 0.121538
0.57615 0.0927901 0.133043
0.603037 0.101579 0.156466
0.62269 0.113237 0.17995
0.629282 0.117693 0.190448
0.631037 0.119219 0.194965
0.63093 0.11957 0.197971
0.630457 0.119844 0.200381
0.629557 0.120119 0.202533
0.62681 0.120638 0.206516
0.622751 0.121416 0.211643
0.615335 0.12282 0.22031
0.60705 0.124468 0.229282
0.10544 0.153567 0.0983139
0.100969 0.153796 0.0988632
0.0986648 0.154055 0.0992447
0.0998093 0.152529 0.0987411
0.103517 0.150317 0.0990768
0.111788 0.149416 0.0997635
0.125353 0.150744 0.10013
0.150271 0.152514 0.096849
0.181857 0.147463 0.0975204
0.21207 0.139681 0.0973983
0.240757 0.132067 0.0953231
0.279774 0.12401 0.0945144
0.326558 0.116289 0.0945907
0.373739 0.110658 0.0940719
0.420371 0.10251 0.0934768
0.450095 0.0917678 0.092668
0.477806 0.0881666 0.0948959
0.50074 0.0863355 0.0979019
0.522011 0.0869001 0.102861
0.539513 0.0886702 0.109346
0.557504 0.0925154 0.119783
0.5738 0.0944686 0.130449
0.598672 0.10164 0.151369
0.619058 0.111864 0.17409
0.624918 0.115908 0.183749
0.626078 0.116945 0.187869
0.627359 0.118273 0.192554
0.628122 0.119265 0.195926
0.628305 0.11986 0.198428
0.626749 0.12047 0.201785
0.623407 0.121218 0.206729
0.616144 0.122744 0.215045
0.608133 0.124361 0.224018
0.10959 0.17438 0.102708
0.104326 0.175021 0.103441
0.101442 0.175616 0.103059
0.102403 0.175463 0.101854
0.106249 0.173739 0.101579
0.115328 0.17174 0.102007
0.13022 0.171679 0.104341
0.14876 0.173281 0.104051
0.175463 0.175402 0.0995956
0.215671 0.168536 0.10132
0.25301 0.158373 0.100587
0.290501 0.146517 0.0979782
0.333761 0.135531 0.0966201
0.375509 0.129641 0.0968032
0.422766 0.124468 0.0974441
0.462898 0.119051 0.0981308
0.495247 0.104341 0.0974136
0.516121 0.0948196 0.0996719
0.530434 0.0907301 0.103044
0.543236 0.0896315 0.107485
0.556252 0.0913252 0.115038
0.569726 0.094255 0.124315
0.592264 0.101167 0.141848
0.616053 0.110933 0.163958
0.618692 0.112108 0.169482
0.620706 0.113329 0.174472
0.622904 0.11487 0.179644
0.624567 0.116106 0.183795
0.625223 0.116564 0.186572
0.623941 0.117601 0.190219
0.621012 0.118547 0.194919
0.614054 0.120272 0.2038
0.606714 0.122194 0.213199
0.113863 0.198459 0.109117
0.107317 0.198993 0.1093
0.103395 0.199374 0.108629
0.102327 0.199481 0.106416
0.105165 0.199542 0.105394
0.112108 0.198077 0.106264
0.12607 0.197681 0.108904
0.147768 0.199145 0.111559
0.170764 0.200443 0.109621
0.205234 0.202243 0.102892
0.262043 0.192218 0.104234
0.307652 0.180209 0.102937
0.350134 0.164752 0.100816
0.388571 0.152834 0.0994736
0.424475 0.148547 0.100343
0.471916 0.145022 0.103243
0.5075 0.141054 0.104433
0.542672 0.135149 0.108843
0.55729 0.112444 0.106691
0.562097 0.100465 0.110719
0.562905 0.0943465 0.114717
0.569924 0.0943008 0.121569
0.584527 0.0991684 0.131807
0.610864 0.110796 0.152178
0.613214 0.111177 0.155795
0.614038 0.110994 0.158007
0.615457 0.111009 0.161227
0.616953 0.111437 0.164538
0.618006 0.111971 0.166949
0.617304 0.112795 0.171038
0.614878 0.113787 0.176257
0.608484 0.115328 0.184482
0.600839 0.117128 0.193027
0.114092 0.226429 0.113451
0.108186 0.227131 0.114595
0.10399 0.227695 0.114
0.102312 0.227115 0.110567
0.102174 0.226764 0.10631
0.107683 0.227008 0.105379
0.119677 0.226444 0.107546
0.141726 0.228077 0.112642
0.165942 0.230961 0.115969
0.195239 0.234531 0.113832
0.244404 0.23917 0.105745
0.322301 0.226535 0.108385
0.373281 0.214176 0.108598
0.416144 0.194644 0.108598
0.449485 0.181811 0.106813
0.482368 0.177401 0.108476
0.52874 0.177218 0.115007
0.566552 0.176425 0.119997
0.602274 0.173602 0.126299
0.613046 0.155352 0.126741
0.604028 0.125887 0.124102
0.589883 0.106905 0.125002
0.585382 0.099733 0.129015
0.604562 0.108568 0.143542
0.605478 0.108904 0.145129
0.606439 0.109468 0.145937
0.60763 0.109987 0.147768
0.609262 0.11043 0.149523
0.610269 0.110689 0.15079
0.609323 0.111254 0.153262
0.606714 0.112184 0.156878
0.599588 0.113725 0.164172
0.591959 0.115267 0.171847
0.112184 0.26276 0.116258
0.106508 0.263325 0.117296
0.102251 0.263615 0.116991
0.100435 0.263188 0.114336
0.0999008 0.262181 0.109606
0.100755 0.261189 0.103548
0.109361 0.262318 0.103441
0.127855 0.265248 0.108492
0.155245 0.270527 0.115694
0.186435 0.276905 0.121904
0.230488 0.285451 0.121431
0.298085 0.291646 0.109194
0.389593 0.279133 0.115114
0.443565 0.266438 0.115679
0.486885 0.243137 0.120439
0.52015 0.228534 0.121111
0.552392 0.225818 0.124117
0.593042 0.220081 0.131533
0.635691 0.221637 0.141344
0.667018 0.219974 0.150301
0.683482 0.209613 0.159701
0.669429 0.174975 0.152193
0.637888 0.141299 0.148363
0.610422 0.114916 0.140902
0.606867 0.112093 0.142596
0.608225 0.113237 0.143969
0.606744 0.111437 0.143633
0.604486 0.109697 0.143114
0.602747 0.108171 0.14258
0.599802 0.107851 0.143893
0.596323 0.107958 0.146593
0.58912 0.109133 0.152438
0.580987 0.110597 0.159091
0.112123 0.306981 0.120684
0.106355 0.307805 0.122408
0.102327 0.308751 0.124025
0.100801 0.308278 0.121798
0.100038 0.307576 0.118105
0.100603 0.305959 0.11133
0.102235 0.302937 0.101884
0.118578 0.306264 0.103319
0.145892 0.312337 0.109865
0.1785 0.320836 0.120348
0.219501 0.331456 0.129397
0.280934 0.343267 0.126955
0.361898 0.352697 0.111666
0.45803 0.339879 0.120668
0.513176 0.329107 0.12285
0.55436 0.304616 0.126818
0.591348 0.286244 0.133272
0.623331 0.281895 0.136233
0.65713 0.275029 0.143755
0.699031 0.274647 0.159319
0.726482 0.274479 0.172854
0.742351 0.26804 0.187625
0.737102 0.242985 0.197009
0.709224 0.199329 0.184329
0.680003 0.173068 0.176318
0.662211 0.159426 0.168765
0.650889 0.151217 0.165026
0.645335 0.147356 0.163333
0.640757 0.143664 0.16202
0.636759 0.141955 0.161929
0.633478 0.14078 0.162325
0.627894 0.141009 0.165988
0.622873 0.14342 0.172457
0.110948 0.352758 0.123278
0.106615 0.353674 0.125872
0.103059 0.354574 0.12781
0.101091 0.355093 0.127398
0.0999161 0.355077 0.12607
0.0996414 0.353719 0.121599
0.0996262 0.350469 0.11136
0.103441 0.347356 0.0994736
0.125093 0.351888 0.101961
0.159335 0.360815 0.110536
0.201587 0.372168 0.124468
0.262165 0.387778 0.136522
0.341527 0.404044 0.130205
0.427909 0.415183 0.11339
0.524178 0.403311 0.129015
0.576471 0.393851 0.134142
0.61735 0.370443 0.135882
0.656596 0.349142 0.145144
0.690669 0.340719 0.15108
0.716716 0.340185 0.157717
0.749004 0.329732 0.17612
0.77116 0.331441 0.194507
0.781598 0.325551 0.208804
0.783902 0.311482 0.217853
0.781445 0.296773 0.221775
0.774456 0.285405 0.220035
0.768048 0.274907 0.218814
0.761761 0.266133 0.217426
0.757626 0.260441 0.216403
0.754635 0.25713 0.215991
0.752544 0.254963 0.215747
0.748714 0.255009 0.218601
0.74287 0.256565 0.224033
0.107622 0.398215 0.125277
0.1037 0.399496 0.12929
0.100679 0.400427 0.132326
0.0993515 0.401038 0.132967
0.0983902 0.401526 0.132982
0.0980697 0.401266 0.130404
0.0980545 0.398596 0.121843
0.0991226 0.394934 0.108965
0.107591 0.392874 0.0972305
0.136233 0.399252 0.101244
0.178302 0.409934 0.112154
0.240497 0.425605 0.131533
0.319387 0.448539 0.147753
0.40621 0.466499 0.136461
0.491173 0.477531 0.122148
0.581765 0.46833 0.144793
0.632181 0.459983 0.154406
0.671702 0.440665 0.156115
0.709041 0.41677 0.161852
0.744305 0.403052 0.173632
0.764401 0.403464 0.179721
0.787152 0.397375 0.195544
0.802014 0.389197 0.215747
0.8094 0.38143 0.227497
0.810315 0.375525 0.230365
0.808499 0.370504 0.228855
0.807645 0.3664 0.228305
0.806134 0.362905 0.227543
0.805203 0.360082 0.227497
0.804776 0.358404 0.227619
0.80441 0.357275 0.227619
0.801404 0.357946 0.231006
0.795987 0.359869 0.23801
0.107073 0.444297 0.132219
0.1037 0.445762 0.138445
0.100816 0.447135 0.143404
0.0998703 0.447822 0.144915
0.0990158 0.448615 0.145571
0.0985275 0.448875 0.144183
0.0983902 0.447639 0.138323
0.0983902 0.444358 0.125628
0.100404 0.440223 0.110094
0.116075 0.439643 0.0983139
0.154894 0.447135 0.104341
0.21767 0.460548 0.120653
0.296788 0.482414 0.146654
0.386496 0.511025 0.161532
0.472648 0.527214 0.150439
0.55021 0.537682 0.141558
0.635019 0.529732 0.168185
0.681086 0.522881 0.181567
0.716457 0.508202 0.185657
0.748898 0.485374 0.188861
0.780545 0.46537 0.206516
0.798199 0.465263 0.215183
0.813077 0.462867 0.227497
0.823835 0.456428 0.241154
0.827222 0.44976 0.245167
0.826169 0.443854 0.244358
0.825971 0.440009 0.243702
0.824781 0.436957 0.24242
0.824308 0.434501 0.241917
0.82443 0.433371 0.241856
0.824414 0.433417 0.241779
0.821546 0.434989 0.244968
0.816052 0.438041 0.251713
0.114 0.491279 0.157275
0.109422 0.49308 0.165026
0.106233 0.494942 0.171344
0.104448 0.496071 0.173358
0.103624 0.496696 0.173892
0.103334 0.496925 0.172427
0.102983 0.496635 0.168399
0.102953 0.494194 0.156954
0.103899 0.489738 0.138384
0.108049 0.484932 0.116533
0.138613 0.485512 0.104707
0.199268 0.495323 0.116335
0.280629 0.514534 0.142565
0.368338 0.543954 0.174624
0.455222 0.570153 0.181537
0.534722 0.5841 0.170397
0.604578 0.592905 0.168368
0.682872 0.586084 0.199191
0.72491 0.580423 0.221027
0.756436 0.569497 0.231434
0.78204 0.548791 0.233845
0.805844 0.527123 0.242649
0.823743 0.523384 0.256245
0.831296 0.523552 0.26276
0.83621 0.521035 0.269306
0.836789 0.518334 0.269566
0.836469 0.515923 0.268315
0.836698 0.514336 0.267964
0.836454 0.513176 0.26746
0.836255 0.512688 0.267185
0.836378 0.512734 0.267323
0.833921 0.513909 0.271809
0.829145 0.516258 0.279423
0.12781 0.53753 0.197009
0.122347 0.539956 0.20676
0.118212 0.542123 0.21471
0.115923 0.543648 0.218097
0.114855 0.544533 0.219486
0.114351 0.544701 0.216938
0.113863 0.544457 0.213672
0.113542 0.543069 0.2065
0.113787 0.539651 0.189197
0.115755 0.533715 0.159655
0.125429 0.527367 0.128161
0.185855 0.530541 0.119631
0.265156 0.544671 0.141176
0.351553 0.570001 0.180697
0.437446 0.601114 0.211444
0.519066 0.625101 0.210483
0.59089 0.637964 0.200671
0.654292 0.645945 0.203906
0.725002 0.638788 0.244968
0.764279 0.634485 0.273335
0.790402 0.626703 0.288121
0.809903 0.611597 0.291569
0.825956 0.594263 0.291783
0.840589 0.586084 0.298833
0.845258 0.587503 0.298848
0.845853 0.58616 0.297337
0.845533 0.584726 0.296361
0.84564 0.583841 0.296056
0.845685 0.583505 0.295857
0.845685 0.583459 0.295857
0.845655 0.583719 0.296086
0.843748 0.584833 0.299702
0.839887 0.586908 0.307332
0.151247 0.581888 0.244968
0.145724 0.584344 0.254902
0.1411 0.58703 0.264591
0.138628 0.588479 0.268315
0.136568 0.589685 0.27042
0.135882 0.589822 0.268299
0.135439 0.589227 0.264515
0.135103 0.588632 0.259968
0.134539 0.586023 0.249317
0.13402 0.580682 0.225483
0.139147 0.572946 0.187167
0.162768 0.565454 0.143801
0.256962 0.574655 0.150072
0.340703 0.595819 0.187381
0.421836 0.623911 0.231266
0.500725 0.654307 0.255146
0.574548 0.676097 0.253162
0.641367 0.688579 0.247471
0.698222 0.696925 0.255528
0.763119 0.688594 0.298756
0.797192 0.685328 0.32755
0.818769 0.680751 0.343893
0.833555 0.671229 0.351263
0.844877 0.66096 0.353277
0.852354 0.656733 0.356603
0.853239 0.657099 0.355154
0.8533 0.656367 0.353902
0.853437 0.65539 0.353429
0.8533 0.654734 0.353002
0.853284 0.654627 0.352956
0.853437 0.654994 0.353292
0.852872 0.655787 0.355459
0.851606 0.657084 0.358907
0.185092 0.622019 0.296803
0.181445 0.624384 0.303532
0.177737 0.626993 0.311696
0.175311 0.628885 0.31696
0.173724 0.62977 0.319219
0.173419 0.629908 0.31841
0.173281 0.629374 0.314855
0.172717 0.628092 0.3093
0.17142 0.62649 0.303212
0.170565 0.622324 0.288548
0.170748 0.61503 0.258946
0.180941 0.605005 0.213947
0.226337 0.60119 0.175051
0.33576 0.621042 0.203464
0.415183 0.646265 0.245792
0.487404 0.674784 0.283879
0.557641 0.702922 0.30248
0.626398 0.722652 0.303929
0.686854 0.735042 0.302495
0.738109 0.744595 0.314855
0.794629 0.736187 0.35288
0.824781 0.734447 0.380713
0.843534 0.732311 0.397269
0.855985 0.727398 0.405753
0.863218 0.721263 0.41004
0.864164 0.714336 0.408408
0.864317 0.713222 0.407355
0.864347 0.712749 0.406867
0.864332 0.712902 0.407004
0.864439 0.713527 0.407507
0.864454 0.71426 0.408103
0.864805 0.715343 0.409613
0.865003 0.716472 0.411185
0.226688 0.656809 0.342596
0.225055 0.658381 0.347692
0.221576 0.660746 0.354726
0.219059 0.662425 0.359747
0.217456 0.66363 0.362814
0.216922 0.663661 0.362036
0.21648 0.66302 0.359258
0.215869 0.661479 0.35378
0.215 0.659571 0.347982
0.213657 0.657572 0.341222
0.211948 0.65153 0.320943
0.213367 0.642054 0.285176
0.233265 0.632898 0.238804
0.304555 0.637812 0.220096
0.412345 0.666072 0.264164
0.481941 0.692271 0.30454
0.546166 0.719799 0.335943
0.610544 0.745068 0.351507
0.673472 0.763043 0.355749
0.72842 0.775753 0.360403
0.7729 0.785077 0.374792
0.820096 0.778164 0.406256
0.846235 0.776699 0.429892
0.861997 0.775723 0.444511
0.87129 0.773434 0.452934
0.874968 0.769802 0.456336
0.874983 0.769116 0.45594
0.874937 0.76907 0.455726
0.874937 0.769238 0.455833
0.875319 0.769528 0.455024
0.87602 0.769726 0.453285
0.877409 0.770108 0.450263
0.878553 0.770794 0.448493
0.27483 0.683268 0.370428
0.272953 0.684535 0.375006
0.268299 0.686702 0.382849
0.265553 0.688502 0.388647
0.263188 0.689876 0.392905
0.262135 0.689952 0.392767
0.26099 0.689296 0.390219
0.260288 0.687755 0.385687
0.259388 0.685512 0.379294
0.258015 0.683207 0.372519
0.256275 0.680186 0.362493
0.255177 0.672908 0.33785
0.262013 0.662531 0.296468
0.296834 0.658457 0.258427
0.399649 0.678889 0.27155
0.488609 0.710109 0.318837
0.550912 0.736431 0.355612
0.608942 0.761608 0.380255
0.666743 0.782696 0.393088
0.722881 0.797711 0.399649
0.769329 0.810391 0.40827
0.805905 0.817716 0.423285
0.844038 0.812299 0.446815
0.865476 0.81062 0.4645
0.876478 0.810346 0.476539
0.881209 0.809628 0.483482
0.881697 0.809293 0.485252
0.881346 0.809369 0.486519
0.880659 0.809644 0.489113
0.879271 0.810285 0.492851
0.878828 0.811139 0.494789
0.879225 0.811566 0.494102
0.880568 0.811795 0.491142
0.312795 0.707546 0.405615
0.311635 0.708721 0.40943
0.307073 0.71075 0.416403
0.303487 0.711971 0.421271
0.300603 0.71284 0.424949
0.299229 0.712535 0.424262
0.297887 0.711894 0.422614
0.296422 0.710231 0.41825
0.294728 0.708263 0.412726
0.29279 0.706065 0.40557
0.290242 0.703059 0.397879
0.288045 0.698405 0.383215
0.288731 0.689784 0.353475
0.305043 0.681407 0.313497
0.36141 0.684657 0.291646
0.476188 0.717281 0.333028
0.546395 0.745418 0.374594
0.606134 0.772137 0.407141
0.659251 0.79469 0.427375
0.712245 0.81265 0.439979
0.762448 0.827085 0.450797
0.798444 0.838941 0.464057
0.828016 0.843412 0.479194
0.859052 0.838941 0.496574
0.87425 0.838331 0.508095
0.880018 0.838514 0.516365
0.881666 0.838499 0.520119
0.881331 0.838483 0.520974
0.880705 0.838804 0.523751
0.879683 0.839384 0.527016
0.879225 0.839857 0.528191
0.879454 0.840146 0.527474
0.880323 0.840299 0.525063
0.340429 0.723598 0.429633
0.338567 0.724376 0.43209
0.334173 0.726299 0.439017
0.331258 0.727855 0.444678
0.328222 0.728618 0.447471
0.326238 0.728069 0.44683
0.324285 0.727047 0.444785
0.322469 0.725551 0.440742
0.32018 0.723568 0.435538
0.316625 0.720546 0.427558
0.313451 0.717083 0.418692
0.309728 0.71342 0.409339
0.308415 0.707012 0.38854
0.319783 0.69955 0.355261
0.351629 0.696651 0.326192
0.43563 0.71281 0.336919
0.539223 0.749538 0.391501
0.601419 0.776791 0.43061
0.656931 0.801694 0.457191
0.706447 0.821668 0.475074
0.755474 0.837522 0.488426
0.796582 0.851026 0.503639
0.823621 0.860502 0.519524
0.846464 0.860655 0.531548
0.867567 0.859876 0.546227
0.876295 0.860349 0.554711
0.879118 0.860502 0.558206
0.879042 0.860441 0.558556
0.878416 0.860548 0.559121
0.877501 0.861036 0.561959
0.876997 0.861448 0.564385
0.876799 0.861784 0.565087
0.877134 0.861997 0.564126
0.341848 0.728237 0.442206
0.340627 0.728115 0.442206
0.336843 0.729046 0.446357
0.333257 0.729839 0.449805
0.330159 0.73019 0.452369
0.328069 0.729763 0.451469
0.326299 0.728817 0.448875
0.324346 0.727138 0.445075
0.322042 0.725155 0.439673
0.318791 0.722133 0.432166
0.314855 0.718486 0.422354
0.311101 0.714519 0.411521
0.309316 0.70898 0.394888
0.32256 0.70428 0.368353
0.348272 0.701915 0.342733
0.421408 0.714061 0.347555
0.521172 0.745373 0.394614
0.596628 0.776944 0.442222
0.652491 0.802594 0.473793
0.704662 0.824796 0.495033
0.750668 0.84094 0.508843
0.794339 0.85507 0.52459
0.82089 0.866239 0.543008
0.842329 0.869581 0.557946
0.859632 0.870497 0.571969
0.871229 0.872648 0.589258
0.874846 0.873594 0.599405
0.874617 0.874205 0.604715
0.874266 0.874418 0.605875
0.87361 0.874861 0.608499
0.873121 0.875273 0.610819
0.872908 0.875685 0.612299
0.873106 0.875975 0.612619
0.336538 0.732128 0.458228
0.33698 0.731624 0.45536
0.335851 0.731533 0.455177
0.333944 0.731395 0.455512
0.331258 0.731319 0.456596
0.329519 0.730907 0.455222
0.327962 0.730114 0.452995
0.32607 0.728634 0.448447
0.3234 0.726421 0.442954
0.320394 0.723751 0.436011
0.316197 0.719646 0.425299
0.312169 0.71545 0.413855
0.309911 0.710399 0.397787
0.321202 0.704677 0.370825
0.345312 0.701534 0.34313
0.414786 0.71223 0.345006
0.519234 0.744656 0.394171
0.592142 0.775051 0.441718
0.648325 0.800839 0.474372
0.701167 0.823835 0.497368
0.749203 0.841276 0.513542
0.790738 0.855039 0.528313
0.820111 0.866835 0.547677
0.841245 0.871733 0.564584
0.856855 0.872145 0.577569
0.868757 0.874784 0.59646
0.872801 0.876768 0.612329
0.872938 0.877775 0.62002
0.872572 0.877882 0.620966
0.871962 0.878111 0.622827
0.871504 0.878187 0.623453
0.871336 0.878202 0.623713
0.871321 0.878172 0.623423
0.334279 0.734798 0.469657
0.3346 0.734051 0.466865
0.334874 0.733288 0.463584
0.334203 0.732784 0.461906
0.332601 0.732586 0.461204
0.330526 0.731914 0.459205
0.328908 0.731044 0.456001
0.32755 0.729717 0.45185
0.324681 0.727443 0.445762
0.32163 0.724834 0.43859
0.317479 0.720638 0.427451
0.313252 0.716274 0.416281
0.310979 0.711055 0.399649
0.320455 0.704921 0.372473
0.345769 0.701946 0.344411
0.409781 0.710674 0.342687
0.521523 0.745525 0.395178
0.591791 0.774838 0.442084
0.647059 0.800229 0.474815
0.698909 0.823102 0.498802
0.747158 0.840818 0.515938
0.78851 0.854765 0.530404
0.818891 0.866377 0.547433
0.841337 0.872908 0.565667
0.856199 0.871916 0.575723
0.868238 0.87454 0.595087
0.872404 0.876844 0.61297
