bundles/resolve-cinematic-luts/Phantom Luts/Fx6 Phntm Film LUTs-G5/ATOMOS Monitor LUTs/EastmanRM Fx6-Legacy AML.cube
TITLE "Generated by Resolve"
LUT_3D_SIZE 9
0.0953384 0.0979629 0.0965744
0.110231 0.0947585 0.0911269
0.175387 0.0908522 0.0873579
0.257847 0.0913252 0.0902876
0.39968 0.0886549 0.0984054
0.521614 0.0868849 0.115602
0.612818 0.106432 0.171359
0.610742 0.107286 0.180529
0.574517 0.114015 0.220371
0.0981613 0.10721 0.0970321
0.0991836 0.106126 0.097322
0.152056 0.100511 0.0920424
0.256962 0.0916304 0.0901961
0.413886 0.0865949 0.0940261
0.528603 0.0885634 0.112612
0.613733 0.105943 0.163851
0.612284 0.10724 0.174258
0.57557 0.114229 0.213855
0.11017 0.154131 0.101472
0.103578 0.154604 0.103227
0.153124 0.15433 0.0995804
0.270344 0.127077 0.0966354
0.442573 0.09691 0.0942092
0.527321 0.0871595 0.107073
0.596429 0.103578 0.146105
0.603723 0.105562 0.157305
0.585138 0.109483 0.180652
0.11873 0.249897 0.118578
0.104494 0.25304 0.119173
0.135042 0.255238 0.1122
0.288945 0.284321 0.114748
0.51931 0.229892 0.125353
0.683146 0.227039 0.157183
0.64773 0.142962 0.151095
0.614511 0.12134 0.138643
0.589105 0.121218 0.152163
0.116045 0.445686 0.134188
0.104067 0.451316 0.150057
0.103655 0.446891 0.12694
0.232547 0.467277 0.130266
0.554299 0.54548 0.152377
0.758694 0.487709 0.197559
0.828534 0.460288 0.247196
0.828016 0.451682 0.246403
0.819989 0.454536 0.257664
0.198367 0.629419 0.29044
0.188312 0.637293 0.314702
0.187274 0.634974 0.301518
0.20737 0.613794 0.209857
0.494881 0.687724 0.297032
0.74519 0.762921 0.331975
0.868772 0.744427 0.424079
0.87129 0.738384 0.42565
0.874769 0.740444 0.420859
0.325765 0.717281 0.407111
0.312932 0.719203 0.419745
0.306661 0.714168 0.408347
0.299046 0.700526 0.368261
0.480522 0.732326 0.353597
0.711803 0.827741 0.474601
0.859739 0.867247 0.535866
0.87718 0.869184 0.561578
0.875502 0.870314 0.568582
0.320317 0.727169 0.440726
0.324193 0.721798 0.422736
0.320333 0.713573 0.399313
0.312093 0.698833 0.353994
0.504601 0.740887 0.346944
0.720653 0.830411 0.469703
0.858595 0.865324 0.524269
0.877394 0.870756 0.567712
0.872023 0.872999 0.587579
0.316732 0.731655 0.458595
0.318166 0.727138 0.441672
0.317876 0.715572 0.406821
0.310964 0.698131 0.352209
0.51957 0.746715 0.35697
0.733562 0.834607 0.474037
0.860121 0.867399 0.536248
0.874922 0.871687 0.576028
0.870085 0.873549 0.59321
0.0951247 0.098146 0.0983291
0.103426 0.097673 0.097612
0.150057 0.0957504 0.0969711
0.231998 0.0962539 0.104341
0.375097 0.0921645 0.115846
0.501442 0.0903182 0.139315
0.591516 0.110842 0.199847
0.587488 0.111177 0.208362
0.56347 0.115633 0.234379
0.0972763 0.10454 0.099321
0.0983139 0.102144 0.0987564
0.141924 0.0985885 0.0970169
0.229206 0.0969253 0.100435
0.38291 0.0921492 0.110597
0.509621 0.0906386 0.135164
0.592554 0.11075 0.193698
0.588769 0.111406 0.203357
0.56556 0.115846 0.230121
0.107088 0.154345 0.111742
0.100755 0.154223 0.107408
0.145739 0.152773 0.101915
0.266743 0.122408 0.0991226
0.426001 0.0923629 0.0969253
0.518517 0.0915389 0.117845
0.597116 0.106905 0.16614
0.60029 0.108492 0.177203
0.580484 0.113039 0.200549
0.115084 0.25478 0.132464
0.105333 0.255207 0.129152
0.1196 0.250523 0.108888
0.288075 0.282429 0.114839
0.518181 0.220462 0.123919
0.678859 0.219303 0.156771
0.631846 0.132326 0.144518
0.60589 0.115465 0.135286
0.584283 0.1178 0.150896
0.116426 0.450202 0.147845
0.104738 0.455116 0.161761
0.103685 0.451347 0.141527
0.217884 0.464378 0.124498
0.555001 0.546059 0.153262
0.762478 0.48217 0.198978
0.828138 0.457115 0.246586
0.827695 0.448066 0.245731
0.819394 0.451316 0.256428
0.200961 0.632975 0.302586
0.190127 0.640406 0.324453
0.188846 0.637507 0.310262
0.19707 0.615747 0.22295
0.490684 0.686336 0.295628
0.746075 0.763653 0.333181
0.868742 0.743923 0.423774
0.871077 0.737148 0.424704
0.87216 0.739071 0.425467
0.326284 0.72105 0.419348
0.314992 0.722301 0.42858
0.308904 0.716777 0.414908
0.299886 0.702754 0.376867
0.474128 0.730007 0.349828
0.709545 0.826947 0.475166
0.859556 0.867536 0.536995
0.877226 0.869352 0.563241
0.875563 0.870924 0.57113
0.319432 0.731121 0.45536
0.326421 0.72517 0.432624
0.322789 0.716945 0.408011
0.312383 0.700999 0.362554
0.491432 0.736049 0.33962
0.716899 0.82919 0.470161
0.85684 0.865766 0.525628
0.877424 0.870924 0.568673
0.871946 0.873121 0.588907
0.318166 0.734081 0.467475
0.320989 0.730205 0.451438
0.321386 0.719112 0.416114
0.313451 0.700969 0.361501
0.50988 0.742824 0.35108
0.72932 0.833356 0.474479
0.858412 0.86836 0.538445
0.874922 0.8719 0.577386
0.870024 0.873686 0.594339
0.0935683 0.100832 0.109819
0.0996719 0.101411 0.118196
0.13991 0.100023 0.116014
0.232807 0.0993668 0.112734
0.374807 0.093843 0.125689
0.503761 0.0918898 0.151553
0.588922 0.110613 0.207523
0.584298 0.110658 0.215946
0.561074 0.115175 0.244251
0.0955673 0.104417 0.106905
0.0935836 0.101381 0.112749
0.129046 0.101884 0.119844
0.22707 0.0996262 0.11339
0.387259 0.0929885 0.124239
0.512856 0.0918593 0.150484
0.590036 0.110719 0.205402
0.585626 0.110811 0.211902
0.562142 0.115206 0.239292
0.106554 0.150881 0.124254
0.100114 0.151369 0.130159
0.137514 0.154284 0.138369
0.277195 0.127703 0.119677
0.418463 0.0939498 0.110811
0.527779 0.0903487 0.133288
0.600183 0.109483 0.187762
0.598901 0.109575 0.193805
0.577874 0.113512 0.217166
0.117159 0.25742 0.154772
0.106386 0.26067 0.156802
0.108522 0.256977 0.134798
0.292638 0.290303 0.138674
0.529793 0.219501 0.135668
0.666056 0.186725 0.158038
0.603616 0.111696 0.137346
0.599466 0.108263 0.139025
0.573754 0.107851 0.154131
0.117464 0.458473 0.186679
0.105669 0.464729 0.201099
0.104005 0.456367 0.167193
0.160052 0.451102 0.113024
0.55317 0.543359 0.154086
0.768994 0.466758 0.2038
0.826535 0.442557 0.244907
0.825208 0.433036 0.24332
0.816846 0.438041 0.2533
0.202029 0.639155 0.329702
0.191791 0.647944 0.352758
0.190066 0.642634 0.33164
0.185138 0.622736 0.263813
0.467948 0.676585 0.282948
0.743877 0.761395 0.330022
0.86833 0.737362 0.420905
0.869535 0.727749 0.417639
0.869612 0.729686 0.418982
0.328161 0.728252 0.441886
0.316701 0.730663 0.454887
0.314519 0.72401 0.433677
0.303578 0.708492 0.391791
0.437583 0.718883 0.336706
0.698131 0.823148 0.476036
0.857328 0.867552 0.536507
0.87744 0.869352 0.563241
0.875532 0.870848 0.569268
0.323049 0.736507 0.474998
0.319951 0.73547 0.471885
0.325383 0.726818 0.437644
0.317571 0.70782 0.380819
0.438987 0.718227 0.319326
0.7028 0.824247 0.472114
0.852537 0.868208 0.529412
0.877455 0.871305 0.571557
0.871855 0.873365 0.591394
0.323186 0.740337 0.488304
0.320699 0.738766 0.483192
0.324666 0.729534 0.446906
0.318318 0.708293 0.381979
0.464958 0.726696 0.331731
0.713573 0.828244 0.47657
0.851682 0.868574 0.539101
0.874922 0.872358 0.580743
0.869703 0.874189 0.598749
0.0918441 0.113375 0.147921
0.0987106 0.111055 0.158968
0.127901 0.108598 0.175723
0.222614 0.106935 0.16968
0.38352 0.100832 0.158007
0.505791 0.0946517 0.181598
0.584009 0.110399 0.228473
0.580896 0.111162 0.238758
0.55726 0.116411 0.269459
0.0916609 0.117845 0.144884
0.0919051 0.115389 0.154528
0.113329 0.109377 0.179171
0.221286 0.108919 0.180377
0.394522 0.0999771 0.158556
0.515953 0.0950637 0.183902
0.584054 0.110399 0.228305
0.581064 0.111086 0.238148
0.557351 0.116289 0.267918
0.0988937 0.150713 0.149081
0.0937209 0.148211 0.161685
0.104356 0.140764 0.183307
0.223667 0.123659 0.198703
0.411017 0.0977798 0.145769
0.532631 0.0939651 0.171252
0.593973 0.108629 0.213275
0.592584 0.108827 0.21976
0.570657 0.113329 0.245808
0.116701 0.248447 0.194186
0.107149 0.251911 0.20734
0.108278 0.251362 0.208316
0.285786 0.29955 0.278996
0.552544 0.235584 0.240269
0.644526 0.148135 0.198734
0.615503 0.113146 0.188861
0.608423 0.109682 0.190143
0.587121 0.11339 0.212085
0.12578 0.473991 0.277699
0.111498 0.481651 0.302647
0.11017 0.480446 0.284184
0.133898 0.472007 0.209888
0.543099 0.548547 0.254261
0.77705 0.465461 0.262516
0.842298 0.424933 0.286473
0.841138 0.415229 0.287098
0.833829 0.415396 0.299931
0.206058 0.649119 0.386923
0.195361 0.658854 0.414832
0.194095 0.657328 0.401923
0.184604 0.637507 0.330236
0.400824 0.649454 0.26923
0.737774 0.757458 0.347051
0.868223 0.718547 0.424536
0.868025 0.704921 0.413825
0.867781 0.707362 0.418128
0.336767 0.739757 0.482338
0.325093 0.743313 0.497948
0.321584 0.739635 0.486061
0.316823 0.72575 0.437598
0.35964 0.709026 0.354589
0.669001 0.810636 0.480461
0.854017 0.867216 0.539895
0.877531 0.869749 0.564935
0.875853 0.870085 0.57145
0.334127 0.749477 0.518013
0.33048 0.749172 0.518242
0.326696 0.745083 0.504494
0.327794 0.727947 0.440055
0.356298 0.705669 0.34136
0.667918 0.810147 0.474678
0.841016 0.86949 0.540368
0.877012 0.87274 0.585061
0.87155 0.875013 0.60679
0.337102 0.754162 0.533272
0.333852 0.753231 0.531273
0.329381 0.748333 0.515114
0.329976 0.73019 0.447318
0.370352 0.709834 0.349523
0.676768 0.813901 0.486213
0.838193 0.871366 0.559075
0.874403 0.874403 0.600809
0.870069 0.876234 0.617258
0.0914778 0.13875 0.226169
0.0962692 0.131746 0.241474
0.112932 0.129366 0.266361
0.198199 0.118608 0.305364
0.37583 0.111879 0.300435
0.528359 0.112917 0.280705
0.597787 0.127886 0.296544
0.603906 0.135531 0.31606
0.58645 0.145403 0.353323
0.0903182 0.146197 0.223011
0.0907912 0.142153 0.243122
0.102602 0.132387 0.270558
0.193103 0.119753 0.321172
0.387381 0.113207 0.315282
0.538643 0.114137 0.288151
0.601892 0.131334 0.30457
0.606271 0.138476 0.3234
0.588174 0.148272 0.360754
0.0907454 0.158846 0.218143
0.0900282 0.155505 0.236362
0.0913252 0.144167 0.263523
0.17232 0.120272 0.330327
0.391821 0.116228 0.331762
0.559655 0.113481 0.277592
0.616342 0.128206 0.288594
0.619989 0.134478 0.305745
0.599298 0.143969 0.343496
0.0953536 0.237797 0.257816
0.091783 0.237034 0.273472
0.0910353 0.229908 0.27866
0.162234 0.23006 0.364324
0.469642 0.211505 0.427466
0.591867 0.135851 0.293004
0.612222 0.121477 0.263462
0.613397 0.122805 0.270314
0.596201 0.130327 0.300557
0.125353 0.467247 0.374334
0.110506 0.471641 0.398795
0.109789 0.474174 0.402579
0.133227 0.480156 0.413825
0.533028 0.542611 0.516609
0.804837 0.466545 0.468666
0.874434 0.371572 0.46334
0.867933 0.354879 0.465476
0.85977 0.356481 0.477974
0.212665 0.661494 0.476616
0.198215 0.669932 0.5037
0.199069 0.671397 0.501671
0.196201 0.664805 0.475288
0.377935 0.669551 0.43975
0.721141 0.751431 0.517693
0.861601 0.693019 0.502083
0.86891 0.686229 0.493492
0.865003 0.688823 0.504555
0.358663 0.762905 0.558801
0.347005 0.766186 0.573617
0.343114 0.764111 0.56817
0.334112 0.754513 0.537789
0.38793 0.741588 0.466651
0.641566 0.796445 0.541161
0.84979 0.873915 0.62826
0.877562 0.871153 0.65626
0.876341 0.870604 0.663249
0.360754 0.771893 0.591821
0.354192 0.77261 0.597162
0.350347 0.770199 0.589258
0.34229 0.761227 0.556756
0.393744 0.74522 0.469123
0.633066 0.794217 0.536812
0.831662 0.874205 0.64004
0.874098 0.884871 0.69369
0.868696 0.887297 0.711574
0.363012 0.776562 0.612192
0.359762 0.776654 0.613077
0.354498 0.774258 0.604212
0.346349 0.764889 0.56817
0.410132 0.751217 0.483879
0.640681 0.798062 0.555245
0.826993 0.874693 0.657084
0.873106 0.88632 0.706142
0.868055 0.888334 0.722499
0.0902724 0.167376 0.345434
0.0918441 0.15964 0.357015
0.0997177 0.152529 0.372122
0.157687 0.134417 0.419898
0.36083 0.131746 0.455497
0.529198 0.135546 0.440681
0.65568 0.181811 0.441703
0.666773 0.186847 0.463981
0.646097 0.197116 0.50454
0.0903334 0.17911 0.347723
0.0903639 0.172152 0.364385
0.0940261 0.160006 0.378332
0.154665 0.145327 0.425925
0.372061 0.135531 0.471809
0.537057 0.143206 0.461769
0.660517 0.185657 0.459586
0.663706 0.191897 0.487083
0.642847 0.201862 0.525093
0.0902876 0.191653 0.343755
0.0904555 0.186923 0.361288
0.0904402 0.176287 0.378866
0.138582 0.155581 0.424002
0.37351 0.139376 0.486305
0.546685 0.148913 0.473793
0.676219 0.183993 0.454932
0.680018 0.188678 0.47689
0.656489 0.199252 0.516274
0.0909133 0.232746 0.346502
0.0907149 0.229923 0.363104
0.0907454 0.224384 0.372091
0.0943618 0.200168 0.425101
0.35494 0.16144 0.511864
0.541131 0.151843 0.481727
0.671855 0.181582 0.438712
0.679088 0.184009 0.449241
0.661616 0.192523 0.481361
0.0947127 0.445289 0.446448
0.0932021 0.448676 0.467628
0.0928817 0.447883 0.472496
0.0924086 0.439765 0.486702
0.374533 0.461646 0.614633
0.761761 0.475288 0.715618
0.869993 0.371664 0.628626
0.86833 0.354192 0.619364
0.849485 0.364553 0.637003
0.200717 0.647623 0.55552
0.18555 0.654536 0.577844
0.186404 0.656596 0.581567
0.185138 0.653956 0.579065
0.387137 0.681834 0.62005
0.714794 0.73312 0.704356
0.879881 0.683879 0.668605
0.889937 0.659175 0.662669
0.886397 0.660044 0.672877
0.374304 0.778012 0.646693
0.361028 0.779187 0.657267
0.359762 0.778988 0.656153
0.353674 0.775723 0.642908
0.415869 0.779034 0.623911
0.659144 0.820233 0.678218
0.837903 0.869978 0.737591
0.876814 0.865248 0.753872
0.876371 0.864607 0.758618
0.406882 0.791104 0.673274
0.38999 0.79089 0.682261
0.386877 0.790082 0.678721
0.382101 0.788205 0.66305
0.435325 0.792035 0.637629
0.669032 0.835172 0.69015
0.819608 0.875486 0.753491
0.874296 0.894835 0.787976
0.870146 0.896147 0.800183
0.398856 0.792279 0.693019
0.396338 0.792508 0.695018
0.39324 0.792111 0.690867
0.387823 0.790051 0.673274
0.454124 0.797528 0.652033
0.682399 0.840696 0.705806
0.819715 0.876188 0.764141
0.867796 0.895491 0.798306
0.863676 0.896819 0.813825
0.0907607 0.207706 0.43386
0.0908064 0.201022 0.447501
0.0927901 0.191684 0.460472
0.138888 0.179904 0.491798
0.323659 0.170459 0.56611
0.5234 0.188479 0.590295
0.644083 0.222782 0.613748
0.647654 0.226825 0.628611
0.645655 0.229587 0.637598
0.090837 0.220752 0.437324
0.0909285 0.214847 0.443061
0.0909438 0.204547 0.460487
0.132662 0.184894 0.497398
0.334112 0.179049 0.581491
0.537652 0.196231 0.601663
0.645579 0.225345 0.622354
0.645182 0.229297 0.636744
0.643397 0.23183 0.64445
0.0910048 0.236027 0.445182
0.090959 0.232883 0.44651
0.0908827 0.222248 0.447684
0.115831 0.191913 0.49659
0.330755 0.183917 0.590631
0.547143 0.202625 0.611688
0.648295 0.225971 0.625834
0.648798 0.228779 0.636011
0.644129 0.231632 0.64419
0.0912032 0.246113 0.437415
0.0912184 0.245762 0.441413
0.091249 0.244907 0.447074
0.0910353 0.22652 0.462379
0.261372 0.179049 0.578653
0.551064 0.211948 0.627741
0.649516 0.225147 0.62089
0.651286 0.226871 0.627588
0.646296 0.229267 0.634607
0.0921035 0.446662 0.525704
0.0923171 0.450645 0.532296
0.0923171 0.449989 0.538201
0.0926375 0.440665 0.551186
0.237095 0.435904 0.672221
0.689494 0.457267 0.830381
0.813046 0.375647 0.775143
0.804517 0.359258 0.760998
0.794476 0.365332 0.765087
0.168353 0.628061 0.6224
0.166186 0.632273 0.63061
0.166934 0.632929 0.632975
0.158953 0.625559 0.631525
0.267704 0.638209 0.681285
0.616846 0.677134 0.774975
0.862974 0.696391 0.834073
0.890959 0.674891 0.821515
0.88574 0.678416 0.826368
0.357549 0.763195 0.69247
0.349554 0.764996 0.700053
0.349065 0.764782 0.699931
0.342489 0.760983 0.695583
0.394598 0.770489 0.705364
0.668208 0.830503 0.785534
0.831037 0.862928 0.834943
0.880385 0.854398 0.821683
0.876234 0.852354 0.82417
0.413901 0.789563 0.719875
0.401175 0.788724 0.724529
0.400641 0.788998 0.723445
0.403143 0.790906 0.719081
0.462013 0.8065 0.723995
0.699611 0.863233 0.79707
0.828428 0.891844 0.8392
0.870069 0.901488 0.851087
0.871321 0.902327 0.854505
0.403098 0.787198 0.72781
0.400671 0.787381 0.728832
0.399527 0.787793 0.727886
0.404639 0.790631 0.722759
0.478233 0.809766 0.730816
0.710109 0.866239 0.803388
0.829938 0.892638 0.843168
0.864256 0.902205 0.857618
0.867628 0.903563 0.861097
0.0917067 0.284627 0.499992
0.0916609 0.278981 0.499275
0.0915236 0.270344 0.504601
0.12491 0.248615 0.547311
0.295277 0.239719 0.633005
0.57818 0.267414 0.714244
0.642741 0.234653 0.6533
0.643076 0.234577 0.653147
0.643458 0.234485 0.652964
0.0916457 0.287068 0.50013
0.0916915 0.28481 0.501106
0.0914778 0.275776 0.499641
0.121309 0.255085 0.548821
0.307332 0.239078 0.643473
0.595132 0.266529 0.71342
0.643198 0.234562 0.653086
0.643076 0.234577 0.653147
0.642832 0.234638 0.653254
0.0918288 0.289143 0.498756
0.0918288 0.288914 0.500496
0.0916304 0.285939 0.502663
0.106676 0.26305 0.540856
0.307485 0.23946 0.643809
0.602686 0.266743 0.712673
0.643595 0.234852 0.653407
0.643427 0.234546 0.653056
0.642649 0.234684 0.653361
0.0919051 0.301839 0.500343
0.0919356 0.300038 0.500404
0.0917678 0.293004 0.498039
0.0916915 0.283345 0.502403
0.255146 0.253712 0.610834
0.590158 0.268727 0.716152
0.64416 0.235431 0.654246
0.64477 0.235279 0.65391
0.644129 0.235431 0.654276
0.0933242 0.461753 0.574899
0.0936751 0.466972 0.580056
0.0940566 0.468315 0.585504
0.0939803 0.457389 0.588556
0.184222 0.45304 0.68336
0.613718 0.444251 0.819181
0.811536 0.401999 0.807309
0.803479 0.386725 0.796048
0.80145 0.390417 0.798581
0.155444 0.624247 0.643748
0.157305 0.627604 0.647791
0.15697 0.627924 0.64976
0.148592 0.620645 0.649073
0.223362 0.630701 0.703273
0.552514 0.658534 0.782238
0.838666 0.703853 0.875013
0.881437 0.688029 0.878309
0.880735 0.689281 0.878294
0.339117 0.748089 0.708247
0.332601 0.750072 0.713024
0.331563 0.749386 0.712963
0.322896 0.743267 0.710262
0.345296 0.748638 0.723369
0.615549 0.80914 0.799573
0.80911 0.849439 0.854124
0.876585 0.849332 0.857618
0.872755 0.8486 0.86038
0.355413 0.768292 0.717388
0.351034 0.768536 0.719326
0.351568 0.768734 0.719493
0.374258 0.778424 0.727596
0.443122 0.79794 0.743694
0.694499 0.861036 0.817105
0.828351 0.892851 0.859266
0.870695 0.90602 0.874281
0.872099 0.90454 0.87187
0.362982 0.768093 0.714717
0.351263 0.768521 0.719234
0.350927 0.768551 0.719387
0.357763 0.771099 0.721752
0.463249 0.802716 0.749081
0.707607 0.864302 0.821118
0.833021 0.894392 0.860609
0.868254 0.906172 0.874861
0.869673 0.906569 0.874968
0.0916915 0.284718 0.5019
0.0916609 0.27924 0.501274
0.0917067 0.274846 0.512856
0.130983 0.25449 0.555306
0.304906 0.241184 0.641825
0.588586 0.26807 0.715267
0.642756 0.234653 0.6533
0.642969 0.234592 0.653178
0.643275 0.234531 0.653056
0.0916457 0.28687 0.50103
0.0916915 0.284596 0.502464
0.0915236 0.276707 0.504479
0.128023 0.255695 0.554208
0.317098 0.234623 0.651026
0.601343 0.26598 0.712001
0.643183 0.234546 0.653101
0.643061 0.234577 0.653147
0.643091 0.234577 0.653147
0.0918441 0.289555 0.499702
0.0916915 0.288212 0.500603
0.0917067 0.284535 0.502464
0.112016 0.260578 0.545251
0.315709 0.233967 0.649805
0.607248 0.266285 0.711391
0.643336 0.234653 0.653193
0.643565 0.234653 0.653132
0.642664 0.234714 0.653376
0.0920882 0.307942 0.5066
0.0920272 0.302876 0.503883
0.0918593 0.291646 0.497169
0.0916762 0.281376 0.501945
0.262348 0.254002 0.613687
0.59202 0.267247 0.714534
0.644083 0.235309 0.654063
0.6448 0.235294 0.653941
0.644144 0.235447 0.654292
0.0950484 0.474037 0.595041
0.0952773 0.476112 0.596231
0.095079 0.472679 0.594873
0.0937819 0.450553 0.584802
0.179873 0.445701 0.680064
0.613687 0.435691 0.818677
0.803388 0.390082 0.799435
0.793423 0.374929 0.787259
0.792477 0.380224 0.79057
0.155093 0.626337 0.656168
0.156283 0.629908 0.659022
0.154589 0.628931 0.65771
0.148074 0.62034 0.654002
0.219959 0.626825 0.70312
0.548333 0.65388 0.780911
0.837797 0.700557 0.8757
0.881254 0.685283 0.878584
0.880369 0.687541 0.878508
0.330159 0.744366 0.709316
0.325154 0.74638 0.71313
0.323919 0.745571 0.712886
0.313207 0.738827 0.709651
0.330663 0.742763 0.719646
0.568475 0.793652 0.788846
0.79353 0.841901 0.852262
0.87393 0.849882 0.860792
0.871702 0.848722 0.862623
0.355261 0.768307 0.717433
0.351019 0.768551 0.719326
0.350927 0.768551 0.719387
0.352773 0.769345 0.720394
0.380453 0.781811 0.731258
0.585702 0.833799 0.787305
0.729656 0.867155 0.83061
0.866163 0.90074 0.869642
0.872038 0.903532 0.870832
0.366796 0.767987 0.713268
0.351247 0.768521 0.719219
0.350927 0.768551 0.719387
0.353536 0.769665 0.720775
0.386191 0.784283 0.733562
0.621042 0.843778 0.797314
0.808072 0.888197 0.853574
0.86656 0.905257 0.874495
0.86952 0.906661 0.875044
