bundles/resolve-cinematic-luts/Phantom Luts/Fx6 Phntm Film LUTs-G5/ATOMOS Monitor LUTs/EastmanRM Fx6 AML.cube
TITLE "Generated by Resolve"
LUT_3D_SIZE 9
0.0916915 0.0865644 0.0890822
0.109102 0.086244 0.0867018
0.190906 0.08542 0.0860456
0.304814 0.086305 0.090837
0.452506 0.0851148 0.102144
0.554086 0.0869459 0.127489
0.632136 0.118379 0.201617
0.628183 0.118242 0.209476
0.591501 0.125307 0.252171
0.0943465 0.10486 0.0932631
0.0975204 0.10132 0.0922408
0.16878 0.0953994 0.0900587
0.307164 0.0854353 0.0894331
0.463615 0.0838178 0.0959029
0.560067 0.0887617 0.122286
0.634394 0.118807 0.19527
0.631235 0.119219 0.204623
0.594156 0.125963 0.244526
0.10959 0.17438 0.102708
0.106249 0.173739 0.101579
0.175463 0.175402 0.0995956
0.333761 0.135531 0.0966201
0.495247 0.104341 0.0974136
0.556252 0.0913252 0.115038
0.618692 0.112108 0.169482
0.625223 0.116564 0.186572
0.606714 0.122194 0.213199
0.112123 0.306981 0.120684
0.100038 0.307576 0.118105
0.145892 0.312337 0.109865
0.361898 0.352697 0.111666
0.591348 0.286244 0.133272
0.726482 0.274479 0.172854
0.680003 0.173068 0.176318
0.640757 0.143664 0.16202
0.622873 0.14342 0.172457
0.114 0.491279 0.157275
0.103624 0.496696 0.173892
0.103899 0.489738 0.138384
0.280629 0.514534 0.142565
0.604578 0.592905 0.168368
0.78204 0.548791 0.233845
0.83621 0.521035 0.269306
0.836454 0.513176 0.26746
0.829145 0.516258 0.279423
0.226688 0.656809 0.342596
0.217456 0.66363 0.362814
0.215 0.659571 0.347982
0.233265 0.632898 0.238804
0.546166 0.719799 0.335943
0.7729 0.785077 0.374792
0.87129 0.773434 0.452934
0.874937 0.769238 0.455833
0.878553 0.770794 0.448493
0.341848 0.728237 0.442206
0.330159 0.73019 0.452369
0.322042 0.725155 0.439673
0.309316 0.70898 0.394888
0.521172 0.745373 0.394614
0.750668 0.84094 0.508843
0.859632 0.870497 0.571969
0.874266 0.874418 0.605875
0.873106 0.875975 0.612619
0.337652 0.736156 0.473426
0.341405 0.731731 0.454932
0.336767 0.724727 0.432349
0.322316 0.70753 0.381567
0.545937 0.754498 0.388937
0.75816 0.843183 0.504952
0.860288 0.869764 0.560998
0.876692 0.876173 0.606653
0.871824 0.878264 0.624063
0.332982 0.740856 0.491875
0.335378 0.736294 0.474769
0.334218 0.727047 0.440452
0.321263 0.706493 0.379461
0.562417 0.761776 0.400671
0.769482 0.845823 0.508446
0.861082 0.871015 0.569619
0.874449 0.877073 0.61416
0.869703 0.879026 0.630488
0.0914015 0.0882887 0.0929122
0.100008 0.08925 0.0948959
0.163195 0.0906081 0.0972915
0.274617 0.090898 0.107759
0.428244 0.0883497 0.12459
0.534539 0.0911574 0.157839
0.609216 0.122042 0.22945
0.604074 0.122255 0.241993
0.579965 0.126787 0.272572
0.0934615 0.0996109 0.0957198
0.0961013 0.096849 0.0956893
0.156191 0.092546 0.0949874
0.274952 0.0911879 0.100877
0.434287 0.0883192 0.117876
0.541085 0.0910658 0.151644
0.611856 0.12282 0.224842
0.606592 0.122545 0.233249
0.58291 0.126925 0.262547
0.106661 0.174884 0.119097
0.100282 0.172305 0.10898
0.166766 0.172824 0.102495
0.329992 0.128481 0.0989242
0.478035 0.0940871 0.0982834
0.551431 0.0935683 0.12813
0.618341 0.118791 0.196963
0.620951 0.121599 0.209323
0.600565 0.125902 0.233845
0.1093 0.31339 0.140398
0.101183 0.311742 0.133623
0.120653 0.305058 0.10454
0.360845 0.350149 0.111833
0.591608 0.277455 0.132784
0.723659 0.266041 0.174151
0.659098 0.157076 0.167514
0.630838 0.13698 0.15906
0.618296 0.139712 0.17113
0.114488 0.49723 0.178882
0.104326 0.501411 0.191348
0.103517 0.495644 0.160372
0.262776 0.510216 0.133791
0.605142 0.593683 0.169192
0.784588 0.545617 0.233524
0.836072 0.518242 0.268315
0.835859 0.510399 0.266102
0.828565 0.512886 0.27837
0.229343 0.660563 0.35523
0.21976 0.667094 0.372869
0.216983 0.662974 0.35758
0.221317 0.635737 0.256382
0.541161 0.718257 0.334417
0.7738 0.785672 0.375402
0.871489 0.773022 0.452674
0.874907 0.768429 0.455116
0.875319 0.770153 0.455894
0.342123 0.731472 0.454078
0.33254 0.732494 0.4607
0.325032 0.727855 0.446662
0.310475 0.712154 0.404273
0.51426 0.742824 0.390112
0.748379 0.840452 0.509697
0.859327 0.870573 0.573114
0.874266 0.874952 0.608087
0.873014 0.876982 0.616434
0.33695 0.739864 0.487526
0.343923 0.734783 0.466239
0.339864 0.727687 0.441001
0.323323 0.71046 0.391577
0.532341 0.748989 0.380407
0.75494 0.841856 0.505058
0.859449 0.869886 0.562737
0.876661 0.876341 0.607797
0.871397 0.878569 0.626886
0.33611 0.74374 0.50193
0.338537 0.739223 0.484535
0.337774 0.729854 0.44921
0.324559 0.710262 0.389883
0.551614 0.756878 0.393378
0.766018 0.845258 0.509575
0.859525 0.87129 0.571542
0.874403 0.877272 0.615808
0.869612 0.879164 0.632181
0.0903792 0.097612 0.110872
0.0986343 0.0953384 0.124102
0.153094 0.0948043 0.124926
0.277729 0.0949874 0.122591
0.426078 0.0902266 0.139239
0.535561 0.0926223 0.172961
0.605371 0.121645 0.244251
0.600229 0.122042 0.257359
0.576013 0.126757 0.28716
0.091371 0.102464 0.107149
0.090837 0.0983291 0.115969
0.141054 0.0964065 0.128801
0.27216 0.0941329 0.120912
0.43743 0.0895705 0.13608
0.543328 0.0931716 0.17023
0.60679 0.121767 0.23801
0.601938 0.122057 0.251347
0.577615 0.126726 0.281361
0.105592 0.169268 0.136797
0.099733 0.168826 0.143969
0.158679 0.174533 0.158663
0.342977 0.136477 0.131731
0.470573 0.0928054 0.119921
0.557412 0.091783 0.151858
0.618738 0.121447 0.218296
0.615854 0.120836 0.22359
0.595193 0.124712 0.249241
0.112917 0.319448 0.176776
0.103273 0.322179 0.176974
0.10515 0.314412 0.141985
0.363668 0.357717 0.148257
0.599084 0.272068 0.147417
0.714855 0.232624 0.189303
0.631159 0.134203 0.164446
0.619425 0.123354 0.162966
0.600565 0.121798 0.174777
0.116732 0.506767 0.228214
0.107073 0.513802 0.244999
0.103899 0.503334 0.199207
0.181277 0.492302 0.115679
0.60293 0.5906 0.169436
0.788434 0.530007 0.233661
0.835538 0.505226 0.265232
0.834913 0.496529 0.262089
0.82742 0.498665 0.273472
0.230686 0.666667 0.382818
0.222232 0.67248 0.400946
0.220203 0.669047 0.380636
0.210788 0.646052 0.305089
0.518044 0.707774 0.324376
0.772656 0.783688 0.372412
0.871168 0.768093 0.451164
0.874006 0.761868 0.45008
0.874403 0.763561 0.451698
0.346151 0.737545 0.476326
0.33431 0.739605 0.487053
0.331807 0.733593 0.465904
0.317128 0.718547 0.420981
0.472465 0.728511 0.371603
0.738735 0.837247 0.510964
0.857359 0.870558 0.574548
0.874617 0.874449 0.607126
0.873335 0.874952 0.610956
0.343206 0.746029 0.508919
0.339452 0.744961 0.50547
0.34316 0.735744 0.470237
0.331655 0.718196 0.41181
0.474388 0.727901 0.353384
0.742885 0.838514 0.508507
0.855573 0.87071 0.566491
0.8766 0.876646 0.61146
0.871321 0.878874 0.629587
0.343572 0.750469 0.525383
0.341131 0.748409 0.518441
0.342718 0.738354 0.480522
0.332448 0.718547 0.412573
0.502495 0.737667 0.369162
0.75317 0.84213 0.513909
0.854627 0.872297 0.575021
0.874327 0.877684 0.619669
0.869078 0.879561 0.636332
0.0897993 0.116045 0.167452
0.0984817 0.110567 0.182574
0.142321 0.105409 0.206241
0.270146 0.102419 0.204944
0.439155 0.101839 0.201434
0.539879 0.0986038 0.230198
0.599802 0.122881 0.273014
0.598947 0.126482 0.288121
0.577859 0.134005 0.321935
0.0890211 0.124285 0.162112
0.0896162 0.119036 0.175433
0.120272 0.105837 0.211933
0.270268 0.104005 0.219104
0.448569 0.101244 0.202121
0.547173 0.0994736 0.231312
0.60087 0.123659 0.273808
0.59881 0.126085 0.286625
0.577676 0.13344 0.319783
0.0947738 0.170413 0.172808
0.0914931 0.16614 0.186542
0.107012 0.155077 0.22153
0.280079 0.125429 0.24715
0.464668 0.0994736 0.184237
0.559625 0.0974594 0.213611
0.607416 0.120348 0.256733
0.607492 0.121599 0.264851
0.58819 0.127337 0.293385
0.113008 0.310658 0.24445
0.103517 0.31368 0.257816
0.105135 0.314199 0.259831
0.357534 0.368231 0.346212
0.62652 0.285954 0.296056
0.695644 0.179019 0.259403
0.630625 0.125826 0.222614
0.622278 0.121263 0.221942
0.603647 0.124453 0.24419
0.124712 0.524956 0.327031
0.112795 0.532677 0.353796
0.111864 0.531212 0.335744
0.144152 0.519707 0.250629
0.590494 0.599207 0.300511
0.795621 0.524407 0.302892
0.851347 0.4757 0.304768
0.851377 0.466239 0.305303
0.844221 0.470298 0.317586
0.237079 0.678706 0.441276
0.22739 0.685512 0.461341
0.225528 0.683452 0.448539
0.215396 0.664897 0.379614
0.448875 0.677668 0.316274
0.768215 0.783307 0.39585
0.871855 0.75581 0.468147
0.871748 0.745998 0.46157
0.872511 0.747539 0.465171
0.359121 0.750439 0.519829
0.346761 0.753216 0.533516
0.343008 0.749447 0.521263
0.334966 0.735088 0.469612
0.384741 0.716655 0.383871
0.712978 0.828122 0.520775
0.855222 0.870863 0.582116
0.8766 0.871168 0.599619
0.875288 0.871122 0.604364
0.357931 0.75996 0.555123
0.353597 0.759396 0.554696
0.348287 0.755108 0.539666
0.346029 0.737087 0.473854
0.378439 0.713405 0.369741
0.71194 0.827817 0.517449
0.848951 0.874586 0.584161
0.876188 0.878447 0.626261
0.870695 0.880766 0.646464
0.359442 0.765057 0.572534
0.357565 0.763699 0.568673
0.351904 0.758404 0.551141
0.348577 0.739315 0.481147
0.396872 0.718288 0.381949
0.719753 0.831296 0.529931
0.845335 0.874846 0.600763
0.873686 0.88043 0.642924
0.86923 0.882246 0.657984
0.0899977 0.146349 0.272175
0.0956436 0.134874 0.289662
0.123644 0.130709 0.321004
0.254963 0.11696 0.36199
0.430152 0.113878 0.356207
0.566293 0.12871 0.337346
0.621744 0.150149 0.354467
0.627527 0.158145 0.375448
0.609979 0.169024 0.413123
0.0899367 0.161242 0.268269
0.090013 0.150088 0.290044
0.106538 0.136324 0.321401
0.24831 0.119203 0.377584
0.440513 0.116564 0.371618
0.573709 0.131121 0.343603
0.625483 0.153002 0.361913
0.629648 0.160662 0.38172
0.612345 0.172 0.419883
0.0899977 0.177432 0.266041
0.0899519 0.172473 0.284535
0.0905318 0.151461 0.310719
0.220706 0.121263 0.387686
0.44596 0.122118 0.389227
0.591775 0.133501 0.33785
0.637324 0.150195 0.348394
0.641855 0.15639 0.365286
0.623087 0.166979 0.40174
0.0915084 0.293126 0.312245
0.0906691 0.291356 0.328374
0.0907149 0.281422 0.333577
0.200183 0.283131 0.435859
0.553185 0.258549 0.514961
0.642634 0.166445 0.366278
0.635767 0.142245 0.320882
0.637858 0.14464 0.329046
0.620188 0.152499 0.359197
0.121386 0.51635 0.422538
0.110277 0.521355 0.448127
0.109773 0.523445 0.452369
0.139437 0.529656 0.463447
0.583001 0.594644 0.568048
0.824094 0.520974 0.519905
0.884153 0.424735 0.511421
0.880873 0.408484 0.514076
0.873106 0.409827 0.526177
0.246815 0.689494 0.519951
0.232029 0.696483 0.544762
0.23238 0.697597 0.54258
0.229236 0.692271 0.517723
0.43389 0.703563 0.492851
0.752926 0.783108 0.571389
0.861982 0.744915 0.573465
0.867781 0.737743 0.562905
0.865538 0.739147 0.570184
0.384222 0.773358 0.596689
0.371923 0.77525 0.608988
0.367941 0.773526 0.603647
0.359045 0.76495 0.575174
0.433265 0.757122 0.515297
0.691661 0.816388 0.603098
0.852964 0.874907 0.667414
0.876387 0.874327 0.693568
0.874922 0.874357 0.700282
0.383948 0.780713 0.628168
0.379263 0.780728 0.630472
0.375021 0.778927 0.623301
0.367681 0.771313 0.593149
0.434119 0.758953 0.517082
0.688518 0.816846 0.603922
0.842069 0.881285 0.690074
0.873899 0.891707 0.739483
0.867613 0.89308 0.753902
0.388754 0.784268 0.644373
0.385504 0.784192 0.645335
0.379507 0.781857 0.636637
0.371969 0.774197 0.603998
0.454582 0.765896 0.534615
0.695186 0.820768 0.621302
0.837812 0.881651 0.70605
0.871305 0.892744 0.751446
0.866941 0.894331 0.765194
0.0905013 0.178958 0.389471
0.0927291 0.167865 0.402777
0.109758 0.159625 0.419776
0.210376 0.138033 0.476326
0.423484 0.146761 0.507851
0.56289 0.154986 0.486534
0.671336 0.195087 0.494987
0.677333 0.200656 0.518044
0.66096 0.210224 0.550637
0.0904707 0.195789 0.389639
0.0905623 0.184024 0.406165
0.0974594 0.167285 0.423362
0.197116 0.140948 0.485405
0.435126 0.153475 0.524361
0.568627 0.16321 0.504662
0.674815 0.198764 0.51104
0.674434 0.205768 0.537285
0.656764 0.214771 0.567407
0.0906844 0.21416 0.390677
0.0907301 0.208911 0.405264
0.0906844 0.189044 0.418448
0.173129 0.159808 0.480201
0.439551 0.159075 0.53875
0.57882 0.170565 0.516701
0.690074 0.197238 0.507866
0.691905 0.202304 0.529427
0.667918 0.212665 0.562432
0.0915847 0.282322 0.404135
0.0916457 0.279393 0.41738
0.0914015 0.269505 0.423667
0.101061 0.230442 0.477424
0.438621 0.192798 0.577905
0.57763 0.175677 0.526253
0.688121 0.195102 0.493217
0.693385 0.197299 0.503975
0.673335 0.206287 0.532662
0.0961776 0.497078 0.496162
0.0949874 0.501396 0.51426
0.0945907 0.500435 0.517998
0.0944991 0.492241 0.530434
0.434546 0.51339 0.659831
0.790524 0.528405 0.75256
0.883955 0.426078 0.696132
0.884749 0.404639 0.688258
0.86775 0.411627 0.701259
0.233417 0.67512 0.58967
0.21915 0.681147 0.609384
0.219791 0.682689 0.611994
0.218997 0.680903 0.610056
0.440314 0.716609 0.658351
0.748074 0.768627 0.739483
0.873091 0.731823 0.709972
0.882765 0.708675 0.70486
0.878584 0.710338 0.713252
0.396445 0.784024 0.671855
0.384466 0.784375 0.680079
0.3841 0.784329 0.679118
0.379034 0.781674 0.668971
0.465171 0.792599 0.665293
0.711528 0.839826 0.730205
0.841947 0.874678 0.77145
0.874281 0.874601 0.784985
0.873579 0.874144 0.788144
0.435981 0.795651 0.693965
0.41854 0.794354 0.700847
0.414908 0.79379 0.698466
0.412024 0.793393 0.687236
0.483055 0.803906 0.678065
0.720989 0.853788 0.742443
0.833005 0.884153 0.791501
0.87126 0.899931 0.822034
0.870863 0.900969 0.830274
0.426795 0.794583 0.708247
0.423194 0.794263 0.709148
0.419898 0.794263 0.706722
0.418677 0.794858 0.695262
0.505013 0.809918 0.691966
0.73196 0.858122 0.754742
0.833127 0.884779 0.798917
0.866194 0.899184 0.82591
0.866728 0.901534 0.839048
0.0909743 0.230579 0.459251
0.0914321 0.221546 0.477501
0.100618 0.207813 0.495583
0.190494 0.203052 0.540917
0.417792 0.206897 0.624384
0.577188 0.216266 0.627482
0.660883 0.232609 0.634318
0.664408 0.235492 0.643992
0.663005 0.238315 0.651286
0.0913863 0.25275 0.46865
0.0911116 0.241596 0.468742
0.0928359 0.226276 0.491707
0.180957 0.209537 0.544411
0.430716 0.216724 0.639155
0.589639 0.222354 0.635935
0.661692 0.234348 0.640116
0.662699 0.237934 0.650294
0.661143 0.240284 0.656596
0.0914626 0.273136 0.480385
0.0914168 0.269032 0.480751
0.09131 0.251438 0.475059
0.155657 0.215274 0.538506
0.428733 0.222385 0.647868
0.5991 0.227771 0.643992
0.664668 0.23505 0.642634
0.665843 0.237522 0.649973
0.662318 0.240162 0.656153
0.0918898 0.293431 0.481422
0.0918135 0.291646 0.483986
0.0915999 0.287648 0.486763
0.09131 0.256855 0.491768
0.359731 0.215122 0.634195
0.606775 0.239216 0.661982
0.666255 0.234531 0.638926
0.668482 0.235798 0.643656
0.6636 0.238224 0.649622
0.095613 0.498558 0.565835
0.0958572 0.502144 0.57174
0.0959945 0.501213 0.576364
0.0956283 0.491325 0.585748
0.304189 0.475105 0.694987
0.742779 0.512367 0.846677
0.833906 0.408621 0.802777
0.825666 0.392218 0.790417
0.81799 0.39855 0.794293
0.210239 0.656901 0.643351
0.207095 0.6607 0.650126
0.20856 0.661448 0.652613
0.193622 0.655573 0.651621
0.326726 0.671656 0.698344
0.674464 0.72546 0.794369
0.857618 0.733989 0.832685
0.880018 0.714687 0.822507
0.875319 0.71754 0.826398
0.375921 0.768719 0.701717
0.367788 0.77023 0.707988
0.367773 0.770077 0.708034
0.36144 0.766552 0.705074
0.438376 0.780209 0.720623
0.713634 0.843854 0.803479
0.837888 0.870314 0.842023
0.873289 0.869795 0.841199
0.873945 0.867582 0.839933
0.44622 0.793591 0.728222
0.432502 0.79237 0.731731
0.431937 0.792493 0.731044
0.435264 0.794141 0.728206
0.507576 0.812787 0.741024
0.743938 0.871656 0.816159
0.841901 0.896132 0.849485
0.871061 0.902953 0.857603
0.873976 0.903578 0.860578
0.435523 0.791547 0.734722
0.433005 0.791516 0.735302
0.431327 0.79173 0.734157
0.438392 0.794263 0.731533
0.526314 0.817121 0.748516
0.752605 0.87425 0.820813
0.843976 0.897902 0.853513
0.866865 0.905074 0.864302
0.871077 0.906722 0.868208
0.0923018 0.320928 0.528908
0.0922255 0.316503 0.52842
0.0932631 0.307347 0.539437
0.1664 0.277775 0.590661
0.383429 0.265797 0.690944
0.651865 0.303975 0.750835
0.662394 0.24242 0.662425
0.662928 0.242283 0.662089
0.662852 0.242298 0.66215
0.0923476 0.3243 0.529412
0.0923018 0.321111 0.530098
0.0920272 0.313497 0.530266
0.160082 0.284489 0.591913
0.401053 0.272145 0.699275
0.661784 0.302602 0.747158
0.662715 0.242344 0.662242
0.662654 0.242344 0.662257
0.661372 0.242649 0.662898
0.092546 0.330327 0.530358
0.0925307 0.328771 0.531273
0.0923323 0.322438 0.531182
0.136309 0.293477 0.583291
0.400732 0.272251 0.699336
0.666682 0.301411 0.743633
0.66334 0.242634 0.662593
0.663417 0.242206 0.661936
0.662028 0.242512 0.662608
0.0928664 0.350744 0.537331
0.0930343 0.347417 0.537255
0.0928054 0.338354 0.532753
0.0922866 0.320836 0.531502
0.32752 0.275319 0.665751
0.659129 0.305486 0.750744
0.663951 0.243534 0.663844
0.665003 0.243244 0.663233
0.663813 0.243565 0.66392
0.099855 0.510063 0.604898
0.100465 0.513878 0.608606
0.100725 0.51487 0.612222
0.099382 0.505135 0.613916
0.244556 0.483543 0.701335
0.687541 0.507057 0.84445
0.835599 0.436774 0.832517
0.830182 0.420325 0.822705
0.826322 0.425772 0.824857
0.186877 0.653056 0.659434
0.188922 0.655741 0.663172
0.187655 0.655802 0.664073
0.176425 0.649104 0.662928
0.275837 0.661524 0.711513
0.623667 0.709148 0.799832
0.83827 0.740536 0.865476
0.86981 0.724453 0.86714
0.868513 0.725765 0.867063
0.357168 0.756939 0.712779
0.350301 0.758236 0.717617
0.348913 0.757794 0.71751
0.340887 0.75256 0.714717
0.377172 0.760052 0.728374
0.673716 0.827726 0.81268
0.823728 0.861295 0.855802
0.875288 0.862852 0.858732
0.874098 0.862348 0.860716
0.369955 0.771801 0.71986
0.364065 0.771832 0.722225
0.364401 0.77203 0.722454
0.391409 0.781872 0.730785
0.489647 0.805356 0.753674
0.741817 0.869963 0.830182
0.840238 0.894896 0.861143
0.869551 0.903899 0.870939
0.874754 0.904097 0.86978
0.364996 0.771817 0.721798
0.364248 0.771832 0.722103
0.363943 0.771832 0.722286
0.369894 0.774838 0.724575
0.514626 0.811276 0.760708
0.752438 0.873442 0.833509
0.847242 0.89984 0.865721
0.868635 0.907393 0.874601
0.872526 0.908721 0.876524
0.0923171 0.32166 0.530938
0.092256 0.317113 0.530282
0.0954604 0.312215 0.550301
0.17409 0.283543 0.59884
0.396826 0.271855 0.698436
0.658686 0.304601 0.74995
0.662425 0.242405 0.662394
0.662715 0.242329 0.662242
0.662577 0.242374 0.662303
0.0922713 0.323644 0.530083
0.0923018 0.321645 0.531502
0.0925612 0.315511 0.538018
0.16936 0.285451 0.597803
0.416846 0.276173 0.70515
0.665446 0.300694 0.743297
0.662715 0.242329 0.662242
0.662638 0.242344 0.662272
0.661372 0.242649 0.662898
0.0925307 0.33022 0.530724
0.0925002 0.326482 0.530709
0.0923018 0.321599 0.531502
0.145495 0.290517 0.587442
0.415167 0.275135 0.704067
0.669093 0.29984 0.741115
0.663157 0.242405 0.662257
0.663554 0.242313 0.662074
0.662043 0.242527 0.662623
0.0930648 0.356512 0.542733
0.0929122 0.350393 0.53962
0.092668 0.336202 0.53196
0.092256 0.319142 0.530953
0.334676 0.272114 0.671519
0.66038 0.303517 0.748241
0.663767 0.243366 0.663569
0.665019 0.243259 0.663264
0.663859 0.243595 0.663935
0.102556 0.518624 0.61799
0.102602 0.520623 0.619211
0.101793 0.517357 0.618112
0.0983597 0.498894 0.61117
0.239185 0.476371 0.699977
0.687846 0.497978 0.844785
0.828305 0.424292 0.82501
0.820035 0.408118 0.813428
0.817746 0.413489 0.816037
0.182925 0.653758 0.666651
0.185382 0.656413 0.669902
0.184039 0.655802 0.669703
0.170397 0.64799 0.6645
0.27129 0.658305 0.710857
0.619425 0.704677 0.798535
0.836835 0.737163 0.865553
0.869963 0.721675 0.867597
0.86865 0.723629 0.867582
0.349142 0.753033 0.713634
0.343404 0.754849 0.717342
0.342061 0.754116 0.717083
0.332891 0.748257 0.713848
0.355795 0.753948 0.725567
0.631495 0.814496 0.803601
0.813718 0.85626 0.855955
0.872709 0.863844 0.862547
0.87187 0.863371 0.864805
0.369619 0.771817 0.719966
0.364065 0.771832 0.722225
0.363943 0.771832 0.722286
0.365728 0.772503 0.722927
0.397696 0.784695 0.733974
0.642741 0.844907 0.803388
0.768444 0.874205 0.842145
0.866407 0.899382 0.869108
0.874403 0.903288 0.870802
0.364965 0.771817 0.721813
0.364263 0.771832 0.722118
0.363943 0.771832 0.722286
0.366201 0.772808 0.723171
0.407919 0.787671 0.736843
0.676066 0.854551 0.813092
0.829145 0.893965 0.860899
0.867781 0.907225 0.875654
0.872953 0.909056 0.877424
