bundles/resolve-cinematic-luts/Phantom Luts/Fx6 Phntm Film LUTs-G5/ATOMOS Monitor LUTs/Eastman Fx6-Legacy AML.cube
TITLE "Generated by Resolve"
LUT_3D_SIZE 5
0.096376 0.0875563 0.0889754
0.146365 0.0874647 0.0952316
0.343053 0.0980392 0.0938888
0.542672 0.106889 0.15021
0.540887 0.114534 0.196002
0.113329 0.140764 0.11194
0.15108 0.140414 0.106935
0.38912 0.137697 0.0966812
0.529656 0.155169 0.117327
0.531991 0.155016 0.128115
0.191302 0.49601 0.256092
0.183017 0.483497 0.216709
0.504814 0.508797 0.174502
0.792905 0.471275 0.252537
0.799023 0.467475 0.253513
0.33312 0.793729 0.483955
0.32076 0.779171 0.458839
0.531899 0.762234 0.382101
0.755749 0.778241 0.340475
0.799863 0.772015 0.355245
0.340337 0.80293 0.517098
0.328054 0.786831 0.468574
0.50251 0.767117 0.378897
0.733242 0.784527 0.354864
0.801297 0.79028 0.388708
0.0909285 0.0875563 0.107713
0.136568 0.0912032 0.123049
0.336126 0.0876478 0.123857
0.518685 0.106294 0.210895
0.517586 0.113832 0.237537
0.109316 0.138186 0.129686
0.146883 0.140047 0.142184
0.370809 0.11342 0.102144
0.550423 0.115999 0.169802
0.53547 0.11664 0.19736
0.198505 0.513924 0.314794
0.186084 0.49276 0.265202
0.498909 0.502266 0.174853
0.791959 0.451987 0.250858
0.793484 0.441444 0.24773
0.344427 0.808209 0.527398
0.330983 0.791272 0.490242
0.496681 0.757259 0.377554
0.746517 0.773877 0.333928
0.79968 0.76112 0.349264
0.353826 0.818402 0.556207
0.341024 0.804105 0.511727
0.436072 0.765393 0.376761
0.716136 0.781155 0.365103
0.797253 0.791638 0.398093
0.0875715 0.116381 0.234089
0.113878 0.10782 0.272862
0.340017 0.0914321 0.295872
0.542046 0.120607 0.32462
0.55465 0.133654 0.356725
0.087602 0.139345 0.232425
0.0874189 0.120653 0.26569
0.352697 0.0939651 0.309056
0.550378 0.121111 0.323644
0.555825 0.130632 0.348669
0.192142 0.530098 0.44239
0.18938 0.525902 0.443259
0.521492 0.538628 0.524361
0.806638 0.399817 0.434409
0.791531 0.362524 0.429358
0.375586 0.862272 0.652781
0.364202 0.844648 0.631952
0.426001 0.778042 0.524193
0.739498 0.77731 0.486137
0.818662 0.746426 0.495964
0.393988 0.879561 0.683757
0.386725 0.866651 0.656886
0.401297 0.81001 0.537942
0.699229 0.808469 0.527642
0.812802 0.815656 0.542702
0.08748 0.169741 0.392081
0.0972763 0.148623 0.412375
0.367163 0.133654 0.494957
0.58822 0.163455 0.518502
0.599557 0.172778 0.552422
0.0876326 0.202441 0.402747
0.087602 0.183169 0.413718
0.369497 0.143633 0.51809
0.591546 0.165026 0.525368
0.599069 0.172168 0.548348
0.146136 0.521202 0.547601
0.142962 0.510338 0.550851
0.366705 0.477211 0.687465
0.775036 0.376852 0.689464
0.771191 0.32697 0.65391
0.351431 0.856123 0.744991
0.339361 0.841993 0.732036
0.454276 0.830915 0.740185
0.784131 0.809323 0.785122
0.862837 0.752331 0.739879
0.425269 0.899336 0.788037
0.424826 0.901366 0.779751
0.48069 0.903822 0.757687
0.741146 0.879088 0.78471
0.871504 0.887526 0.793805
0.0929122 0.285863 0.513603
0.0989242 0.269688 0.524224
0.391379 0.235309 0.655833
0.600641 0.177874 0.572961
0.600641 0.177874 0.572961
0.0930953 0.290028 0.507759
0.0927443 0.285252 0.513405
0.387503 0.235645 0.655207
0.597299 0.17731 0.573068
0.601007 0.178134 0.57319
0.154711 0.546365 0.64181
0.151644 0.538262 0.645335
0.295171 0.489433 0.728542
0.757855 0.393347 0.75697
0.773739 0.337331 0.71754
0.315724 0.833967 0.76672
0.299947 0.815763 0.7579
0.348196 0.804318 0.782834
0.699458 0.778393 0.838926
0.864118 0.737255 0.837293
0.348196 0.880751 0.784649
0.34844 0.880659 0.784985
0.451301 0.902678 0.81503
0.76379 0.901137 0.861494
0.884352 0.906783 0.879255
