bundles/resolve-cinematic-luts/Phantom Luts/Fx6 Phntm Film LUTs-G5/ATOMOS Monitor LUTs/Eastman Fx6 AML.cube
TITLE "Generated by Resolve"
LUT_3D_SIZE 9
0.0875105 0.0875105 0.0875105
0.102281 0.087602 0.087602
0.16144 0.087541 0.0916152
0.269139 0.092195 0.0889143
0.388861 0.101442 0.0946822
0.479515 0.101686 0.107286
0.570825 0.1149 0.206668
0.578241 0.119524 0.239872
0.563836 0.121767 0.249424
0.0956436 0.0962081 0.0943618
0.100359 0.0920119 0.0916152
0.155535 0.0935225 0.0959029
0.270909 0.0983444 0.0875105
0.392905 0.115389 0.0921645
0.482506 0.127611 0.102785
0.577585 0.119402 0.182788
0.584421 0.12282 0.21709
0.562722 0.127153 0.228809
0.1131 0.162921 0.115007
0.116625 0.158282 0.108385
0.174655 0.164706 0.109529
0.316304 0.139834 0.103792
0.443976 0.158999 0.103075
0.494102 0.151003 0.0979934
0.568017 0.160647 0.135988
0.572519 0.152529 0.143618
0.566308 0.146502 0.149569
0.146334 0.329885 0.173114
0.139422 0.325338 0.162722
0.186709 0.332052 0.155169
0.361196 0.356451 0.141405
0.55108 0.325139 0.169238
0.676326 0.319524 0.182635
0.740688 0.321462 0.197238
0.729671 0.304524 0.194858
0.71191 0.298695 0.193439
0.200519 0.548104 0.295918
0.195499 0.544259 0.288685
0.191928 0.530053 0.238178
0.369711 0.539345 0.23267
0.543633 0.547524 0.182498
0.701518 0.545357 0.220035
0.791821 0.532357 0.258457
0.802213 0.533303 0.259281
0.799619 0.530037 0.259358
0.288243 0.729107 0.447105
0.283299 0.723461 0.443137
0.275532 0.712734 0.4206
0.351827 0.678553 0.303029
0.548241 0.686961 0.312032
0.677073 0.700145 0.277745
0.770901 0.697398 0.315099
0.800595 0.692287 0.320058
0.803494 0.685771 0.314382
0.358419 0.80145 0.518624
0.353811 0.797467 0.512718
0.342214 0.788083 0.491127
0.348882 0.761913 0.416876
0.563928 0.764202 0.401877
0.67689 0.767102 0.369146
0.762402 0.777371 0.3691
0.800931 0.776867 0.386007
0.799344 0.773938 0.383581
0.364141 0.807523 0.532418
0.35993 0.802426 0.51809
0.347906 0.792905 0.491249
0.346609 0.767819 0.423972
0.557443 0.770108 0.40473
0.671977 0.776135 0.391608
0.758602 0.789639 0.384512
0.804532 0.792233 0.409888
0.806104 0.79382 0.419776
0.366369 0.809384 0.549584
0.362646 0.805249 0.532906
0.351659 0.795819 0.502678
0.338994 0.772381 0.440482
0.534783 0.768429 0.403693
0.661952 0.77586 0.395529
0.750851 0.79028 0.385412
0.800977 0.791775 0.405982
0.802625 0.794812 0.424048
0.0875105 0.0875105 0.0875105
0.0988174 0.0875563 0.0921798
0.151614 0.087541 0.107195
0.263951 0.0875715 0.106111
0.380453 0.0875715 0.0991836
0.467536 0.0876173 0.130816
0.552926 0.116564 0.229145
0.559915 0.121141 0.254444
0.546044 0.123186 0.261769
0.0923323 0.0894636 0.0941176
0.0966506 0.0875715 0.0931563
0.151171 0.0881056 0.0963607
0.261158 0.0957656 0.0898299
0.381353 0.106416 0.0941329
0.47071 0.104204 0.109575
0.561288 0.121874 0.213413
0.564797 0.123522 0.240208
0.551827 0.125307 0.249195
0.113085 0.162768 0.129091
0.108919 0.157626 0.116045
0.169116 0.161089 0.110903
0.313252 0.136324 0.101534
0.429328 0.150866 0.0978714
0.483497 0.145296 0.0992447
0.572259 0.139254 0.151064
0.576165 0.125872 0.167971
0.569986 0.129763 0.18526
0.147646 0.336446 0.191226
0.140932 0.329213 0.176669
0.158679 0.322744 0.147417
0.358923 0.353262 0.14168
0.551629 0.312566 0.170672
0.67808 0.313924 0.181384
0.733501 0.310964 0.194537
0.715618 0.290791 0.191608
0.697307 0.285039 0.189441
0.203601 0.555734 0.317113
0.19733 0.548699 0.304829
0.192294 0.534463 0.262562
0.354742 0.536675 0.229969
0.542245 0.545922 0.182757
0.703624 0.541039 0.219959
0.792508 0.526452 0.256977
0.801755 0.526131 0.257877
0.799298 0.521477 0.257725
0.290501 0.732097 0.458656
0.285924 0.726284 0.453086
0.276509 0.713664 0.427008
0.313787 0.676646 0.303136
0.541512 0.685267 0.313252
0.674586 0.697383 0.276204
0.770459 0.693126 0.312673
0.799023 0.686946 0.318288
0.798169 0.681498 0.315373
0.363043 0.805844 0.534478
0.358144 0.801282 0.52282
0.347051 0.792569 0.501686
0.338949 0.764569 0.430198
0.556374 0.762783 0.400763
0.670665 0.764889 0.368566
0.75935 0.775952 0.366781
0.800961 0.774014 0.383108
0.798901 0.771328 0.381003
0.368536 0.811719 0.554574
0.364126 0.807477 0.533883
0.353353 0.797223 0.502266
0.33962 0.772824 0.44094
0.544427 0.768582 0.402579
0.665904 0.77615 0.395651
0.754955 0.790356 0.387304
0.803922 0.792264 0.410651
0.799924 0.795926 0.429953
0.371099 0.814618 0.562448
0.367041 0.810147 0.543526
0.356664 0.800092 0.513283
0.338293 0.777493 0.456107
0.518212 0.766751 0.401373
0.656611 0.775692 0.398367
0.746593 0.790036 0.389044
0.79971 0.791745 0.405341
0.799542 0.796017 0.430152
0.0875563 0.0875563 0.110216
0.102296 0.0874647 0.123857
0.150698 0.0877394 0.132906
0.263722 0.087602 0.137682
0.375677 0.087541 0.153063
0.465522 0.0877394 0.192691
0.541634 0.112902 0.257008
0.54931 0.117342 0.274662
0.536309 0.119677 0.278111
0.0882124 0.0920119 0.108736
0.0875715 0.0875715 0.116609
0.143755 0.0878157 0.130358
0.262684 0.0876173 0.126925
0.382589 0.0875257 0.130053
0.470817 0.0888991 0.175402
0.549554 0.11664 0.252613
0.551873 0.118975 0.269337
0.538964 0.120714 0.273594
0.109133 0.158068 0.143282
0.106416 0.155459 0.142168
0.171313 0.164416 0.165896
0.327306 0.142611 0.144381
0.420172 0.122042 0.109255
0.486992 0.099321 0.115465
0.574853 0.124147 0.226246
0.569329 0.122332 0.241596
0.558251 0.123629 0.250324
0.152407 0.34403 0.230137
0.147097 0.341527 0.220218
0.148013 0.332387 0.185382
0.366217 0.364279 0.180423
0.557382 0.309819 0.190768
0.692134 0.305119 0.193576
0.686915 0.260838 0.195834
0.663111 0.238865 0.187533
0.64268 0.230594 0.180301
0.21091 0.570214 0.361898
0.205356 0.564569 0.354162
0.196536 0.545769 0.307149
0.293935 0.528038 0.222934
0.538598 0.541543 0.183062
0.713771 0.52639 0.232517
0.793927 0.514107 0.258228
0.80412 0.507134 0.260594
0.800351 0.501122 0.259831
0.295933 0.740581 0.487312
0.291066 0.733883 0.481346
0.2813 0.720012 0.450858
0.269337 0.679561 0.349355
0.524483 0.682429 0.319524
0.670146 0.692424 0.273152
0.771939 0.685832 0.313237
0.799344 0.676722 0.316121
0.798657 0.670192 0.312322
0.371984 0.816281 0.562371
0.367315 0.810864 0.554391
0.35581 0.799558 0.523323
0.332311 0.774227 0.464103
0.529961 0.759838 0.401114
0.658686 0.761105 0.370962
0.754467 0.772229 0.362921
0.800977 0.76936 0.378653
0.798398 0.765362 0.377111
0.380407 0.824979 0.583978
0.375357 0.818952 0.572091
0.364309 0.807767 0.535073
0.343297 0.78378 0.470695
0.497459 0.767452 0.406516
0.653681 0.777798 0.408301
0.747005 0.790036 0.394842
0.802274 0.792157 0.412284
0.800107 0.796246 0.432898
0.382422 0.827741 0.591272
0.377554 0.821714 0.578943
0.367559 0.810803 0.545647
0.346853 0.78793 0.482338
0.467506 0.765606 0.402869
0.642161 0.777279 0.410208
0.737301 0.789105 0.396414
0.79646 0.791928 0.410788
0.799298 0.796506 0.434165
0.08748 0.0999008 0.172564
0.0983597 0.0958114 0.194217
0.147738 0.0944991 0.222553
0.26125 0.0876173 0.224613
0.384802 0.0907149 0.231006
0.469047 0.094377 0.256443
0.537346 0.113832 0.293324
0.547387 0.118944 0.310658
0.538567 0.122652 0.317586
0.0874952 0.109194 0.166903
0.0875868 0.102129 0.18352
0.12636 0.0974899 0.225391
0.263386 0.0876173 0.22771
0.386679 0.0906996 0.227893
0.471504 0.09514 0.253773
0.5393 0.115129 0.292515
0.545708 0.119112 0.307652
0.537758 0.122667 0.314946
0.0921798 0.156771 0.187457
0.0881819 0.150988 0.193713
0.110613 0.14052 0.237903
0.283314 0.109117 0.250706
0.39443 0.0924392 0.22031
0.480964 0.0941634 0.243549
0.54902 0.115526 0.285878
0.549096 0.116762 0.29572
0.541756 0.119951 0.301427
0.140673 0.340093 0.283635
0.137591 0.34052 0.285863
0.140047 0.340322 0.287037
0.381964 0.388281 0.381323
0.570184 0.32401 0.338735
0.677928 0.244343 0.296529
0.646494 0.167758 0.282292
0.619745 0.151278 0.282795
0.593591 0.141146 0.274907
0.216785 0.593164 0.430838
0.214893 0.590784 0.431266
0.213565 0.583154 0.414786
0.262165 0.563714 0.365042
0.545373 0.567849 0.342962
0.722271 0.525551 0.34789
0.810605 0.493309 0.341985
0.814038 0.480049 0.337453
0.808835 0.473243 0.335531
0.305104 0.762356 0.543557
0.302342 0.756512 0.541909
0.296147 0.74493 0.52224
0.27921 0.707362 0.445502
0.493141 0.689281 0.386633
0.662974 0.693507 0.339559
0.781643 0.676417 0.378332
0.806073 0.666499 0.368856
0.805432 0.659129 0.362478
0.391012 0.842023 0.618494
0.385809 0.835691 0.611124
0.37583 0.823529 0.589181
0.354147 0.793881 0.520729
0.44004 0.762325 0.440925
0.639124 0.765103 0.420294
0.74876 0.771878 0.397879
0.801877 0.763378 0.406287
0.800061 0.758694 0.39968
0.401724 0.853651 0.641032
0.397559 0.847288 0.630823
0.388617 0.835126 0.60737
0.369284 0.808225 0.541131
0.414145 0.777218 0.455421
0.628122 0.786343 0.452323
0.7337 0.79234 0.432029
0.799466 0.796399 0.44506
0.802228 0.799176 0.455604
0.402853 0.854902 0.646204
0.39884 0.84892 0.63476
0.390356 0.837736 0.612177
0.371374 0.811856 0.5505
0.385763 0.777279 0.453941
0.613535 0.784024 0.448539
0.721828 0.789487 0.431449
0.789456 0.794934 0.441108
0.801434 0.799741 0.4589
0.0875105 0.121874 0.273304
0.0911574 0.111345 0.289464
0.1308 0.107805 0.320638
0.272801 0.0928054 0.338628
0.385367 0.0937362 0.338338
0.493431 0.105776 0.342412
0.568139 0.129763 0.371618
0.579828 0.13489 0.390265
0.576501 0.140322 0.401663
0.0874647 0.137987 0.271855
0.087602 0.124895 0.285939
0.108568 0.111482 0.31812
0.269001 0.0944228 0.348318
0.390097 0.095079 0.343694
0.497078 0.106661 0.344167
0.570169 0.131579 0.37322
0.578759 0.135561 0.3906
0.576059 0.140505 0.402106
0.0875105 0.159411 0.276249
0.087602 0.154376 0.284169
0.0874495 0.127779 0.306645
0.250248 0.0983902 0.362112
0.399405 0.0996414 0.352758
0.50544 0.111284 0.347021
0.574548 0.130465 0.370825
0.581155 0.133104 0.385824
0.577966 0.137728 0.394064
0.111284 0.329397 0.345403
0.108095 0.325856 0.34815
0.10457 0.314092 0.351095
0.264668 0.318059 0.45388
0.522179 0.272328 0.480629
0.610376 0.202045 0.428077
0.584451 0.137301 0.363546
0.582696 0.134829 0.363867
0.576547 0.136141 0.365438
0.200626 0.587091 0.491096
0.199832 0.585885 0.494469
0.198688 0.583261 0.492576
0.251362 0.589334 0.508553
0.56759 0.587732 0.571099
0.728359 0.524788 0.521385
0.81117 0.441978 0.474647
0.807752 0.412024 0.471107
0.800671 0.401282 0.469856
0.300175 0.776013 0.60592
0.298817 0.771695 0.606439
0.296345 0.76614 0.597757
0.297749 0.750866 0.569604
0.49424 0.719326 0.555978
0.684779 0.720974 0.542031
0.801541 0.687343 0.537758
0.828321 0.673152 0.517388
0.826764 0.661814 0.510903
0.403571 0.871656 0.686702
0.399603 0.866041 0.681849
0.391669 0.857023 0.666819
0.379934 0.834974 0.627375
0.467918 0.791562 0.566873
0.637522 0.79173 0.569009
0.761852 0.793545 0.540368
0.823301 0.778347 0.55436
0.822828 0.771115 0.548791
0.422278 0.885161 0.712016
0.419471 0.881498 0.703853
0.414771 0.874693 0.687678
0.407538 0.85568 0.648798
0.457771 0.814633 0.579553
0.609888 0.815396 0.583627
0.746426 0.823468 0.573373
0.814389 0.824903 0.572305
0.826246 0.828473 0.5897
0.424475 0.886 0.716213
0.420813 0.882231 0.707118
0.415167 0.875731 0.690349
0.407706 0.85803 0.653315
0.435157 0.815351 0.575845
0.58613 0.812772 0.577935
0.735714 0.82295 0.577752
0.805615 0.828092 0.578241
0.82855 0.835294 0.6065
0.0873732 0.150317 0.360204
0.0885176 0.137652 0.370794
0.122408 0.128832 0.394507
0.268406 0.117098 0.437354
0.405676 0.115877 0.437156
0.497337 0.121508 0.439109
0.592508 0.153262 0.462058
0.602533 0.160937 0.486152
0.604898 0.16492 0.502235
0.0874189 0.170367 0.364477
0.0875715 0.156008 0.372793
0.103365 0.135393 0.39237
0.258579 0.121157 0.444831
0.410712 0.11841 0.445426
0.503609 0.123842 0.445274
0.598108 0.155657 0.466926
0.603418 0.161746 0.489906
0.605493 0.165454 0.504616
0.08748 0.193484 0.371664
0.08748 0.188556 0.376654
0.087541 0.160174 0.38706
0.228946 0.128298 0.451881
0.416098 0.122789 0.458412
0.512352 0.127626 0.452522
0.600229 0.155352 0.469276
0.60618 0.160098 0.487572
0.6038 0.163851 0.49659
0.101305 0.328344 0.417151
0.0998703 0.32285 0.419348
0.0961929 0.306813 0.421912
0.171923 0.269703 0.490913
0.471153 0.213825 0.558389
0.538628 0.154101 0.478813
0.595636 0.152239 0.451926
0.601709 0.154437 0.457557
0.5991 0.156435 0.460349
0.170611 0.571405 0.545647
0.169299 0.569726 0.546792
0.163867 0.563912 0.546395
0.179309 0.558923 0.567681
0.482368 0.544457 0.661707
0.709728 0.502007 0.66421
0.786572 0.425498 0.614984
0.790707 0.389776 0.610407
0.783551 0.379019 0.604044
0.282048 0.76141 0.651728
0.280385 0.757641 0.650782
0.277378 0.753079 0.646418
0.275807 0.742596 0.637446
0.509453 0.741756 0.677897
0.70602 0.731487 0.709346
0.813275 0.691249 0.676081
0.836454 0.63389 0.636042
0.829862 0.617258 0.62855
0.395193 0.877501 0.738231
0.390494 0.873106 0.73431
0.38497 0.867628 0.726604
0.377813 0.856107 0.705638
0.511925 0.84184 0.703716
0.667643 0.81828 0.707668
0.789319 0.822446 0.700633
0.851499 0.805386 0.695232
0.853178 0.798062 0.682506
0.449073 0.899336 0.767926
0.447318 0.898817 0.763989
0.443 0.896895 0.754986
0.441093 0.891279 0.73402
0.513664 0.873777 0.712077
0.643565 0.851316 0.707897
0.765377 0.859297 0.721279
0.839582 0.862043 0.712169
0.85951 0.86125 0.725826
0.45005 0.89929 0.770748
0.448417 0.89926 0.766644
0.444099 0.897856 0.75787
0.439628 0.892088 0.736324
0.491783 0.874601 0.706859
0.629328 0.850462 0.703197
0.754833 0.863478 0.730205
0.83006 0.87219 0.725475
0.863767 0.877485 0.747539
0.0874189 0.191959 0.430823
0.0902876 0.17908 0.441703
0.120897 0.161822 0.457618
0.261036 0.156786 0.516625
0.434073 0.15874 0.544579
0.521675 0.14931 0.520317
0.6065 0.172793 0.541192
0.613046 0.17792 0.556497
0.614694 0.180148 0.564691
0.0875868 0.217288 0.438911
0.0874189 0.200549 0.441032
0.10367 0.176349 0.458595
0.249546 0.161868 0.52015
0.438972 0.163333 0.553017
0.528817 0.152117 0.526741
0.611063 0.174777 0.545205
0.613397 0.17847 0.558236
0.614633 0.180316 0.565133
0.0874189 0.244221 0.450202
0.08748 0.239841 0.454139
0.08748 0.210803 0.451438
0.217182 0.167971 0.517021
0.43978 0.16965 0.565423
0.535332 0.155947 0.533318
0.608301 0.17435 0.546136
0.613611 0.178332 0.556786
0.614282 0.179751 0.562295
0.0999313 0.334752 0.480568
0.0987106 0.329351 0.482506
0.0965438 0.314763 0.484367
0.118181 0.268269 0.516136
0.411505 0.197925 0.59617
0.55024 0.177707 0.561334
0.603937 0.170962 0.536019
0.613825 0.175051 0.542962
0.613306 0.175921 0.545724
0.163241 0.578515 0.594354
0.162356 0.575769 0.595499
0.160021 0.568689 0.598489
0.155642 0.549187 0.612085
0.419501 0.524895 0.71989
0.689494 0.48571 0.763455
0.787427 0.417365 0.711833
0.791455 0.378195 0.688212
0.78616 0.364492 0.682002
0.26894 0.744869 0.686015
0.266056 0.740703 0.68455
0.26038 0.733715 0.681758
0.248249 0.717525 0.676631
0.457832 0.722652 0.741344
0.650187 0.704387 0.770748
0.803052 0.677897 0.769039
0.830457 0.621912 0.733837
0.826856 0.607767 0.726558
0.378225 0.861479 0.758801
0.372473 0.856901 0.75436
0.364889 0.851102 0.747784
0.357015 0.840925 0.737423
0.494209 0.844312 0.761654
0.678538 0.828138 0.781872
0.803418 0.82858 0.803449
0.866697 0.807645 0.786618
0.867308 0.788739 0.773007
0.459373 0.896178 0.794202
0.458793 0.896529 0.792035
0.457206 0.897139 0.78764
0.462287 0.899504 0.780865
0.532555 0.900862 0.783688
0.679057 0.880964 0.795758
0.786297 0.878325 0.80911
0.855558 0.882063 0.806897
0.875624 0.877943 0.808545
0.460136 0.895781 0.796292
0.459327 0.896178 0.794003
0.457893 0.896895 0.789944
0.460929 0.899138 0.78204
0.52015 0.903868 0.780484
0.674907 0.888533 0.797238
0.780133 0.888075 0.81239
0.852033 0.89485 0.818067
0.877943 0.897917 0.823102
0.0902113 0.27155 0.500786
0.0933547 0.259709 0.504952
0.121965 0.239429 0.526802
0.25684 0.217426 0.585107
0.457542 0.225513 0.650248
0.590036 0.215549 0.633341
0.614267 0.183078 0.575372
0.61706 0.184878 0.579126
0.617243 0.184878 0.5794
0.0938888 0.292836 0.513771
0.0925307 0.283818 0.511299
0.105653 0.260868 0.523354
0.245457 0.222721 0.585
0.46215 0.23212 0.658732
0.597772 0.219516 0.637781
0.616739 0.184451 0.578058
0.61709 0.184955 0.579293
0.617105 0.184939 0.579309
0.0978103 0.313191 0.524483
0.0975204 0.311727 0.525567
0.0945602 0.295048 0.520119
0.214618 0.235111 0.579675
0.458564 0.240772 0.668116
0.603998 0.223758 0.644007
0.613321 0.183276 0.577157
0.617441 0.185229 0.579553
0.61735 0.185153 0.579492
0.105333 0.357015 0.535149
0.104479 0.352239 0.535393
0.102647 0.341375 0.53518
0.0965744 0.300328 0.527199
0.392142 0.249775 0.661936
0.58999 0.230732 0.655268
0.610758 0.183032 0.575296
0.618418 0.185061 0.577661
0.618616 0.185626 0.579171
0.166552 0.583612 0.638331
0.166354 0.580957 0.640253
0.164477 0.575372 0.643107
0.159915 0.559258 0.652354
0.370428 0.528008 0.747738
0.645243 0.497002 0.8177
0.782238 0.430854 0.760525
0.795056 0.386633 0.738582
0.789212 0.371252 0.732021
0.254475 0.741939 0.709102
0.250111 0.737377 0.7066
0.24184 0.728954 0.702525
0.223377 0.709941 0.694041
0.408133 0.714595 0.771481
0.604379 0.690288 0.801083
0.790707 0.671061 0.824414
0.837354 0.614527 0.789151
0.834943 0.59968 0.7841
0.36202 0.850034 0.77026
0.355703 0.844495 0.766278
0.346975 0.83714 0.761852
0.332372 0.822705 0.753765
0.448585 0.827207 0.788373
0.648157 0.817243 0.816464
0.771954 0.812711 0.836347
0.85893 0.798749 0.837339
0.864118 0.778317 0.824964
0.455222 0.893431 0.807538
0.457694 0.893462 0.806409
0.459876 0.893874 0.804715
0.458305 0.892103 0.800198
0.513085 0.891493 0.807202
0.672084 0.882567 0.827497
0.791012 0.878645 0.845869
0.861189 0.884001 0.857679
0.883818 0.880262 0.854582
0.404639 0.887114 0.79649
0.427314 0.890501 0.801877
0.457115 0.893492 0.806317
0.468635 0.895369 0.803967
0.525994 0.902892 0.811017
0.687022 0.899901 0.834012
0.797162 0.897673 0.854032
0.861067 0.905776 0.86627
0.881758 0.906905 0.864698
0.101762 0.329671 0.547234
0.100954 0.324529 0.546212
0.121813 0.314229 0.56701
0.258824 0.268925 0.624033
0.472221 0.270161 0.69929
0.61912 0.241016 0.666621
0.61709 0.184955 0.579293
0.61709 0.184955 0.579293
0.61709 0.184955 0.579293
0.102327 0.332403 0.546899
0.101732 0.329549 0.547265
0.106813 0.318791 0.552941
0.248783 0.269841 0.619959
0.474723 0.269474 0.699107
0.621515 0.239063 0.66363
0.61709 0.184955 0.579293
0.61709 0.184955 0.579293
0.617105 0.184955 0.579309
0.103319 0.339651 0.547036
0.103349 0.338628 0.547875
0.101701 0.329381 0.547234
0.217014 0.277256 0.608347
0.468238 0.270497 0.698863
0.623178 0.239719 0.664073
0.61503 0.18439 0.579248
0.617548 0.185275 0.57966
0.617441 0.185229 0.579553
0.113832 0.39028 0.573816
0.111986 0.381003 0.568978
0.106981 0.358541 0.555657
0.101915 0.326497 0.547768
0.387671 0.274113 0.681712
0.606256 0.252583 0.683177
0.618585 0.189731 0.587228
0.618784 0.186114 0.580468
0.618799 0.18613 0.580499
0.173175 0.595178 0.666789
0.172686 0.592554 0.667704
0.171221 0.587396 0.668742
0.161334 0.561395 0.66099
0.351965 0.525673 0.748119
0.626368 0.49601 0.820615
0.776761 0.433066 0.766003
0.792691 0.386648 0.739818
0.787411 0.372305 0.734157
0.242206 0.739132 0.717464
0.237568 0.733608 0.715068
0.230686 0.725719 0.7122
0.21828 0.707866 0.706249
0.38471 0.708919 0.777737
0.580636 0.687419 0.807263
0.774426 0.674083 0.842191
0.836835 0.617746 0.801099
0.836011 0.602426 0.798306
0.341115 0.845365 0.773037
0.334264 0.839628 0.770092
0.324437 0.831632 0.765545
0.307225 0.816251 0.757565
0.395682 0.823056 0.791669
0.615839 0.814847 0.827161
0.740246 0.804608 0.84448
0.854215 0.798886 0.856428
0.865858 0.77792 0.846448
0.367697 0.883467 0.781064
0.367758 0.883436 0.781186
0.36669 0.882017 0.780606
0.39408 0.883391 0.788556
0.44097 0.882918 0.800946
0.598123 0.88333 0.831586
0.749264 0.872816 0.849973
0.850935 0.877028 0.871473
0.883253 0.876554 0.874708
0.373541 0.881041 0.788388
0.373724 0.88098 0.788632
0.373724 0.88098 0.788632
0.378378 0.882383 0.790448
0.49305 0.899626 0.819181
0.670924 0.901152 0.845777
0.796078 0.898573 0.864271
0.860349 0.903731 0.878828
0.884367 0.906813 0.879377
