bundles/resolve-cinematic-luts/Phantom Luts/Fx6 Phntm Film LUTs-G5/ATOMOS Monitor LUTs/EastmanRM Fx6 AML.cube
TITLE "Generated by Resolve"
LUT_3D_SIZE 5
0.0916915 0.0865644 0.0890822
0.190906 0.08542 0.0860456
0.452506 0.0851148 0.102144
0.632136 0.118379 0.201617
0.591501 0.125307 0.252171
0.10959 0.17438 0.102708
0.175463 0.175402 0.0995956
0.495247 0.104341 0.0974136
0.618692 0.112108 0.169482
0.606714 0.122194 0.213199
0.114 0.491279 0.157275
0.103899 0.489738 0.138384
0.604578 0.592905 0.168368
0.83621 0.521035 0.269306
0.829145 0.516258 0.279423
0.341848 0.728237 0.442206
0.322042 0.725155 0.439673
0.521172 0.745373 0.394614
0.859632 0.870497 0.571969
0.873106 0.875975 0.612619
0.332982 0.740856 0.491875
0.334218 0.727047 0.440452
0.562417 0.761776 0.400671
0.861082 0.871015 0.569619
0.869703 0.879026 0.630488
0.0903792 0.097612 0.110872
0.153094 0.0948043 0.124926
0.426078 0.0902266 0.139239
0.605371 0.121645 0.244251
0.576013 0.126757 0.28716
0.105592 0.169268 0.136797
0.158679 0.174533 0.158663
0.470573 0.0928054 0.119921
0.618738 0.121447 0.218296
0.595193 0.124712 0.249241
0.116732 0.506767 0.228214
0.103899 0.503334 0.199207
0.60293 0.5906 0.169436
0.835538 0.505226 0.265232
0.82742 0.498665 0.273472
0.346151 0.737545 0.476326
0.331807 0.733593 0.465904
0.472465 0.728511 0.371603
0.857359 0.870558 0.574548
0.873335 0.874952 0.610956
0.343572 0.750469 0.525383
0.342718 0.738354 0.480522
0.502495 0.737667 0.369162
0.854627 0.872297 0.575021
0.869078 0.879561 0.636332
0.0899977 0.146349 0.272175
0.123644 0.130709 0.321004
0.430152 0.113878 0.356207
0.621744 0.150149 0.354467
0.609979 0.169024 0.413123
0.0899977 0.177432 0.266041
0.0905318 0.151461 0.310719
0.44596 0.122118 0.389227
0.637324 0.150195 0.348394
0.623087 0.166979 0.40174
0.121386 0.51635 0.422538
0.109773 0.523445 0.452369
0.583001 0.594644 0.568048
0.884153 0.424735 0.511421
0.873106 0.409827 0.526177
0.384222 0.773358 0.596689
0.367941 0.773526 0.603647
0.433265 0.757122 0.515297
0.852964 0.874907 0.667414
0.874922 0.874357 0.700282
0.388754 0.784268 0.644373
0.379507 0.781857 0.636637
0.454582 0.765896 0.534615
0.837812 0.881651 0.70605
0.866941 0.894331 0.765194
0.0909743 0.230579 0.459251
0.100618 0.207813 0.495583
0.417792 0.206897 0.624384
0.660883 0.232609 0.634318
0.663005 0.238315 0.651286
0.0914626 0.273136 0.480385
0.09131 0.251438 0.475059
0.428733 0.222385 0.647868
0.664668 0.23505 0.642634
0.662318 0.240162 0.656153
0.095613 0.498558 0.565835
0.0959945 0.501213 0.576364
0.304189 0.475105 0.694987
0.833906 0.408621 0.802777
0.81799 0.39855 0.794293
0.375921 0.768719 0.701717
0.367773 0.770077 0.708034
0.438376 0.780209 0.720623
0.837888 0.870314 0.842023
0.873945 0.867582 0.839933
0.435523 0.791547 0.734722
0.431327 0.79173 0.734157
0.526314 0.817121 0.748516
0.843976 0.897902 0.853513
0.871077 0.906722 0.868208
0.0923171 0.32166 0.530938
0.0954604 0.312215 0.550301
0.396826 0.271855 0.698436
0.662425 0.242405 0.662394
0.662577 0.242374 0.662303
0.0925307 0.33022 0.530724
0.0923018 0.321599 0.531502
0.415167 0.275135 0.704067
0.663157 0.242405 0.662257
0.662043 0.242527 0.662623
0.102556 0.518624 0.61799
0.101793 0.517357 0.618112
0.239185 0.476371 0.699977
0.828305 0.424292 0.82501
0.817746 0.413489 0.816037
0.349142 0.753033 0.713634
0.342061 0.754116 0.717083
0.355795 0.753948 0.725567
0.813718 0.85626 0.855955
0.87187 0.863371 0.864805
0.364965 0.771817 0.721813
0.363943 0.771832 0.722286
0.407919 0.787671 0.736843
0.829145 0.893965 0.860899
0.872953 0.909056 0.877424
