bundles/resolve-cinematic-luts/Phantom Luts/Fx6 Phntm Film LUTs-G5/ATOMOS Monitor LUTs/EastmanRM Fx6-Legacy AML.cube
TITLE "Generated by Resolve"
LUT_3D_SIZE 33
0.0953384 0.0979629 0.0965744
0.0959029 0.097734 0.0961166
0.0972 0.0971847 0.0949874
0.101701 0.0961166 0.0930037
0.110231 0.0947585 0.0911269
0.123919 0.0934005 0.0894484
0.141436 0.0926375 0.0882277
0.158419 0.0915694 0.0876478
0.175387 0.0908522 0.0873579
0.193118 0.0905318 0.0876936
0.212741 0.0907454 0.087953
0.234165 0.0910506 0.0888228
0.257847 0.0913252 0.0902876
0.287785 0.0910658 0.0915541
0.324346 0.0905013 0.0928969
0.3626 0.0897078 0.0959487
0.39968 0.0886549 0.0984054
0.434531 0.0878462 0.101503
0.466987 0.0868544 0.104921
0.496117 0.0864271 0.109514
0.521614 0.0868849 0.115602
0.544732 0.0885786 0.123934
0.570138 0.0916609 0.136675
0.598749 0.0995804 0.157015
0.612818 0.106432 0.171359
0.613275 0.106844 0.17406
0.612848 0.106905 0.176181
0.612543 0.106966 0.177752
0.610742 0.107286 0.180529
0.605753 0.108095 0.186816
0.599054 0.1093 0.194232
0.586892 0.11162 0.207095
0.574517 0.114015 0.220371
0.0970016 0.0970779 0.0950332
0.0964828 0.0974289 0.0956741
0.0970626 0.0970321 0.0949722
0.100603 0.0961776 0.0930495
0.106813 0.0955367 0.0916762
0.116487 0.094667 0.0906844
0.130419 0.0942092 0.0898451
0.150286 0.092958 0.0885481
0.169696 0.0917983 0.0878157
0.188937 0.0909743 0.0876783
0.208759 0.0906233 0.0879225
0.232517 0.0905623 0.0884871
0.259556 0.0906233 0.0894636
0.290166 0.0905165 0.090959
0.325261 0.0904555 0.0919661
0.363653 0.0899672 0.0942702
0.401297 0.0889601 0.0973678
0.436561 0.0882582 0.100511
0.468833 0.0871901 0.104082
0.497887 0.086656 0.108766
0.523522 0.0872511 0.114839
0.547005 0.088838 0.123293
0.573388 0.0920119 0.136294
0.599817 0.099855 0.15613
0.613794 0.106691 0.170214
0.613642 0.106828 0.172702
0.613275 0.106889 0.174441
0.612909 0.10692 0.176318
0.611093 0.10721 0.179431
0.606165 0.108125 0.185397
0.599344 0.109377 0.192966
0.587182 0.111666 0.205814
0.574807 0.114076 0.218997
0.0970321 0.0970779 0.0950332
0.0958877 0.0977493 0.0961166
0.0959029 0.097734 0.0961166
0.0975509 0.0975509 0.09514
0.102281 0.096849 0.0931411
0.109224 0.0960555 0.0917067
0.121538 0.0955978 0.0908827
0.139284 0.0951858 0.0903334
0.162844 0.0934005 0.0888838
0.185138 0.0919661 0.0880903
0.20676 0.091249 0.087953
0.230167 0.0909743 0.0887922
0.257664 0.0906386 0.0895857
0.292134 0.0897078 0.090425
0.330694 0.0892042 0.0913558
0.367788 0.0892958 0.0930648
0.404242 0.0890059 0.0961776
0.438285 0.0887617 0.0994278
0.471183 0.0878309 0.103532
0.499626 0.0869459 0.107851
0.525124 0.0876326 0.114366
0.549081 0.0891585 0.122759
0.576547 0.0927749 0.136507
0.601205 0.100175 0.155032
0.613794 0.106508 0.168292
0.61384 0.106767 0.17084
0.613672 0.106874 0.172961
0.613367 0.106935 0.174502
0.611551 0.10721 0.177539
0.606607 0.10808 0.183902
0.599786 0.109361 0.191241
0.587579 0.111681 0.204135
0.575067 0.114183 0.217288
0.0975204 0.100755 0.0958114
0.0962844 0.100954 0.0967422
0.0961166 0.100404 0.0968795
0.0970779 0.0995804 0.0958419
0.100343 0.0990463 0.0948348
0.106035 0.0976883 0.0929122
0.115541 0.0976272 0.0918593
0.131106 0.0973373 0.0912337
0.153841 0.0962081 0.0906539
0.1794 0.0938277 0.0893111
0.204044 0.0927291 0.088716
0.228672 0.0917678 0.0888991
0.255711 0.0909743 0.0897993
0.290791 0.0895705 0.0906386
0.332158 0.0880903 0.0909895
0.373678 0.0879683 0.092134
0.409705 0.087953 0.0949264
0.44181 0.0887617 0.0982834
0.473564 0.088304 0.102281
0.501869 0.0875715 0.107012
0.526925 0.088014 0.113634
0.550912 0.0894942 0.122118
0.579355 0.0933089 0.136217
0.602914 0.100679 0.154208
0.613794 0.106264 0.165896
0.61387 0.106615 0.168933
0.613901 0.106844 0.171191
0.613748 0.10692 0.172976
0.611917 0.107225 0.176059
0.606973 0.10808 0.182162
0.600214 0.109331 0.189776
0.587976 0.111696 0.20235
0.575326 0.114214 0.215717
0.0981613 0.10721 0.0970321
0.0967575 0.107164 0.0977035
0.0964065 0.106569 0.0979171
0.0970016 0.105943 0.0978866
0.0991836 0.106126 0.097322
0.103975 0.10518 0.0967727
0.113542 0.1037 0.0946059
0.128801 0.102632 0.0929427
0.152056 0.100511 0.0920424
0.176211 0.0979934 0.091249
0.202014 0.0950332 0.0899367
0.228428 0.0933547 0.0896162
0.256962 0.0916304 0.0901961
0.291295 0.0900282 0.0909895
0.332158 0.0880598 0.0912795
0.373648 0.0872663 0.0917983
0.413886 0.0865949 0.0940261
0.447288 0.0873579 0.097322
0.476844 0.0885328 0.101488
0.504234 0.0886091 0.106508
0.528603 0.0885634 0.112612
0.552148 0.0898604 0.121386
0.58172 0.0941329 0.135897
0.604669 0.10132 0.15349
0.613733 0.105943 0.163851
0.61387 0.106401 0.166613
0.613962 0.106722 0.169253
0.613993 0.106889 0.171191
0.612284 0.10724 0.174258
0.607355 0.108095 0.180331
0.600626 0.109346 0.187655
0.588235 0.111711 0.200549
0.57557 0.114229 0.213855
0.0990768 0.116655 0.0982834
0.0973068 0.116548 0.0988327
0.0971237 0.115282 0.0990005
0.097673 0.11371 0.0988174
0.0991684 0.113313 0.0988327
0.102968 0.113756 0.0980697
0.113664 0.111727 0.097322
0.12961 0.109575 0.0955367
0.151156 0.106706 0.0937362
0.174578 0.103822 0.0928511
0.201526 0.102007 0.0919051
0.233967 0.0979629 0.0909438
0.25977 0.0939193 0.0905776
0.295903 0.0911727 0.090898
0.334707 0.0889754 0.0914931
0.374807 0.0876326 0.0919356
0.413581 0.0861372 0.0934615
0.449989 0.0863355 0.0967117
0.480598 0.0875868 0.100328
0.505974 0.0891432 0.105379
0.530007 0.0890211 0.111559
0.552254 0.0900893 0.120119
0.583032 0.0945907 0.134417
0.605905 0.101915 0.152178
0.613565 0.105501 0.160906
0.613825 0.10605 0.163989
0.613931 0.106447 0.166491
0.614023 0.106722 0.168811
0.612543 0.107149 0.172335
0.607782 0.10808 0.178347
0.601068 0.109331 0.185824
0.588663 0.111727 0.198291
0.575967 0.114229 0.211643
0.100267 0.12813 0.0999771
0.0983902 0.127718 0.100465
0.0977646 0.126909 0.100298
0.0993057 0.125444 0.0999466
0.101884 0.123873 0.0995804
0.10663 0.123644 0.0983902
0.118364 0.12401 0.0967727
0.13959 0.120485 0.0954452
0.160021 0.116182 0.0945907
0.179553 0.112596 0.0931868
0.203433 0.109987 0.0927749
0.233509 0.107698 0.0928664
0.266651 0.103944 0.0921492
0.307759 0.0961624 0.091249
0.343465 0.0915084 0.0908675
0.379568 0.088304 0.0921187
0.416342 0.0867018 0.0935225
0.450217 0.0859541 0.0959487
0.48127 0.0861067 0.0996872
0.507286 0.0883955 0.104738
0.530373 0.089662 0.110124
0.552926 0.090547 0.118135
0.582925 0.0950942 0.13225
0.605158 0.101884 0.148531
0.611673 0.104341 0.156146
0.613611 0.10544 0.159899
0.613825 0.105882 0.162493
0.613611 0.106294 0.164965
0.6121 0.106828 0.16849
0.608316 0.107683 0.174044
0.603967 0.108629 0.179889
0.595636 0.110353 0.188602
0.58764 0.111971 0.197024
0.107195 0.139712 0.0990311
0.103197 0.140536 0.100313
0.100237 0.140902 0.101213
0.100893 0.139727 0.101106
0.103334 0.13814 0.100816
0.108751 0.137377 0.100389
0.117235 0.137331 0.0998398
0.135576 0.138384 0.0977798
0.158892 0.134707 0.0977798
0.182528 0.129458 0.0971695
0.203387 0.124895 0.095201
0.230457 0.120531 0.0946059
0.266133 0.114687 0.0944228
0.309743 0.108888 0.0938888
0.360678 0.0993973 0.0925154
0.39205 0.0924544 0.0924849
0.424262 0.088838 0.093492
0.453635 0.0863661 0.0954604
0.482444 0.0861982 0.0989242
0.506142 0.0863203 0.103014
0.525795 0.0888228 0.109361
0.548119 0.0912642 0.117922
0.576837 0.0959487 0.131441
0.599268 0.10219 0.146715
0.604868 0.104417 0.152758
0.60679 0.105028 0.156222
0.607645 0.105272 0.159503
0.608576 0.105837 0.162295
0.608606 0.106523 0.165042
0.606821 0.107164 0.169207
0.603174 0.108019 0.174243
0.595529 0.109606 0.182467
0.587564 0.111254 0.190814
0.11017 0.154131 0.101472
0.105547 0.154864 0.103029
0.102129 0.155779 0.103578
0.101701 0.155856 0.103395
0.103578 0.154604 0.103227
0.107637 0.15349 0.103044
0.117861 0.153155 0.103578
0.130251 0.15349 0.102556
0.153124 0.15433 0.0995804
0.181552 0.149493 0.100145
0.20885 0.143114 0.0992294
0.235309 0.135866 0.0978408
0.270344 0.127077 0.0966354
0.309743 0.121447 0.0962081
0.360723 0.115114 0.095964
0.405371 0.108202 0.0955978
0.442573 0.09691 0.0942092
0.46894 0.0912184 0.0961929
0.489311 0.0876936 0.098436
0.51043 0.0868544 0.102449
0.527321 0.0871595 0.107073
0.540902 0.0892042 0.11342
0.567178 0.0949874 0.126009
0.592935 0.102785 0.142382
0.596429 0.103578 0.146105
0.598733 0.104051 0.149416
0.600656 0.104372 0.152239
0.602426 0.105119 0.154955
0.603723 0.105562 0.157305
0.602533 0.105974 0.15993
0.599374 0.106615 0.164202
0.592676 0.107851 0.17258
0.585138 0.109483 0.180652
0.113909 0.171221 0.105547
0.108293 0.172366 0.106874
0.10457 0.173098 0.107576
0.103624 0.173404 0.10631
0.104585 0.173297 0.105592
0.108629 0.171923 0.105379
0.117235 0.171054 0.106523
0.130999 0.170916 0.10721
0.14789 0.171695 0.106096
0.17258 0.17258 0.102129
0.208988 0.166461 0.103243
0.241993 0.158145 0.102449
0.278981 0.146288 0.099855
0.319768 0.13547 0.0985122
0.359442 0.13193 0.0987411
0.410559 0.126345 0.099733
0.451652 0.121904 0.0998856
0.493614 0.110628 0.0998093
0.513878 0.0988022 0.100328
0.525887 0.0923476 0.103578
0.534691 0.089128 0.106889
0.54406 0.0885939 0.111467
0.557961 0.0915694 0.11902
0.58497 0.100801 0.133562
0.587655 0.101656 0.136263
0.589456 0.102007 0.138277
0.592142 0.102953 0.140703
0.593912 0.103334 0.143099
0.595605 0.103639 0.144945
0.595087 0.10425 0.147723
0.592752 0.105058 0.151781
0.585901 0.106538 0.158984
0.578637 0.108049 0.167224
0.117632 0.191577 0.110704
0.111284 0.192859 0.112581
0.106996 0.19379 0.113481
0.105348 0.194049 0.111955
0.104784 0.194003 0.109606
0.107866 0.193652 0.108858
0.114656 0.192752 0.109392
0.12755 0.193179 0.111986
0.146273 0.193652 0.113268
0.167269 0.194995 0.111452
0.197528 0.196094 0.105699
0.248524 0.18761 0.106661
0.292638 0.177508 0.105165
0.33518 0.161929 0.102586
0.375128 0.150866 0.101091
0.412924 0.14902 0.102419
0.46482 0.147204 0.105608
0.506981 0.144823 0.108202
0.545724 0.140352 0.111513
0.563149 0.119402 0.108873
0.566171 0.104509 0.111727
0.56112 0.0946365 0.114031
0.561257 0.0917067 0.118074
0.575647 0.0966812 0.126329
0.57789 0.0975052 0.127703
0.578683 0.0979934 0.12842
0.58085 0.0991684 0.129961
0.582391 0.0996567 0.131273
0.5832 0.0997635 0.132128
0.582055 0.100114 0.133913
0.579293 0.100694 0.13724
0.572137 0.101839 0.14374
0.563394 0.103258 0.150576
0.120272 0.216571 0.116289
0.113603 0.217823 0.118151
0.108629 0.218906 0.119097
0.106691 0.219196 0.118196
0.105898 0.21886 0.115053
0.106355 0.218418 0.110857
0.112291 0.218204 0.110201
0.123919 0.218616 0.112627
0.142901 0.220142 0.116121
0.164462 0.222736 0.118624
0.1906 0.226047 0.116838
0.233082 0.229953 0.109056
0.309483 0.219837 0.111482
0.360845 0.210178 0.11133
0.404715 0.192828 0.111269
0.44062 0.180819 0.109529
0.478019 0.1785 0.112093
0.528038 0.181003 0.118669
0.574472 0.181506 0.125307
0.611139 0.179828 0.130648
0.63154 0.169207 0.135241
0.623545 0.140078 0.129656
0.601953 0.115816 0.128496
0.585077 0.100664 0.126116
0.581353 0.0987869 0.126299
0.582116 0.0991684 0.12694
0.58085 0.0983749 0.126787
0.579126 0.0974136 0.126375
0.577203 0.0965133 0.125826
0.573617 0.0959335 0.126314
0.569497 0.0960403 0.128603
0.561563 0.0971695 0.134356
0.553429 0.0984207 0.140764
0.11873 0.249897 0.118578
0.112078 0.251423 0.12076
0.107286 0.252857 0.122316
0.105531 0.253025 0.121462
0.104494 0.25304 0.119173
0.104723 0.251942 0.114763
0.10602 0.250813 0.108293
0.116716 0.251713 0.108415
0.135042 0.255238 0.1122
0.159289 0.261219 0.118868
0.186313 0.268208 0.124819
0.224643 0.277089 0.125093
0.288945 0.284321 0.114748
0.38088 0.27454 0.12015
0.436851 0.265309 0.120623
0.482185 0.244053 0.125017
0.51931 0.229892 0.125353
0.554574 0.226474 0.128542
0.595575 0.223804 0.135103
0.647242 0.227298 0.147433
0.683146 0.227039 0.157183
0.705669 0.22237 0.169543
0.698817 0.19472 0.1673
0.673671 0.164675 0.161501
0.64773 0.142962 0.151095
0.633646 0.133669 0.145617
0.626062 0.128389 0.142443
0.619394 0.124544 0.140017
0.614511 0.12134 0.138643
0.609644 0.119509 0.138338
0.604288 0.118563 0.139681
0.596445 0.119219 0.14519
0.589105 0.121218 0.152163
0.120974 0.296117 0.122576
0.114611 0.297658 0.125139
0.109819 0.299016 0.126787
0.107393 0.299809 0.126848
0.105852 0.300175 0.126009
0.105226 0.299504 0.122347
0.105364 0.297612 0.115206
0.108248 0.295766 0.106371
0.125185 0.29958 0.109178
0.150011 0.30631 0.115816
0.179858 0.315541 0.125704
0.218173 0.325994 0.134722
0.2766 0.338796 0.133288
0.35671 0.349111 0.118761
0.453407 0.339071 0.12784
0.510811 0.33051 0.129335
0.554498 0.308614 0.132357
0.595621 0.289952 0.137652
0.632074 0.28336 0.142
0.66424 0.279133 0.148638
0.711559 0.280278 0.165377
0.744106 0.283604 0.184878
0.76025 0.27982 0.200687
0.764385 0.266819 0.210285
0.759884 0.252964 0.213275
0.750866 0.241428 0.208743
0.741222 0.229404 0.201968
0.732296 0.219562 0.196002
0.725353 0.212161 0.191318
0.721279 0.208728 0.190097
0.717586 0.207095 0.190082
0.7122 0.207538 0.193805
0.705715 0.20914 0.199603
0.120577 0.346777 0.126116
0.114366 0.34844 0.12961
0.109514 0.349813 0.132418
0.107118 0.35082 0.132921
0.105394 0.351644 0.132906
0.104555 0.351675 0.131289
0.104189 0.349691 0.125292
0.105196 0.347402 0.115999
0.11252 0.346044 0.105592
0.134813 0.350683 0.109133
0.165499 0.359792 0.118196
0.206134 0.371466 0.131243
0.264439 0.387106 0.143633
0.34023 0.403906 0.138689
0.426825 0.416007 0.122652
0.523049 0.406043 0.137499
0.577783 0.398199 0.142565
0.620676 0.376562 0.142458
0.663752 0.35317 0.150881
0.701473 0.34197 0.15697
0.726146 0.341619 0.162905
0.7608 0.335515 0.184192
0.786236 0.340291 0.21033
0.795331 0.33637 0.224125
0.795666 0.330159 0.227024
0.793729 0.325322 0.226276
0.791791 0.321294 0.225666
0.790036 0.317571 0.224918
0.789532 0.315435 0.225284
0.788983 0.314229 0.225391
0.788754 0.313375 0.225559
0.785657 0.314 0.228748
0.780179 0.315877 0.235126
0.117128 0.39617 0.127749
0.111315 0.397879 0.133104
0.107088 0.399527 0.136767
0.105196 0.400427 0.137804
0.103624 0.401297 0.138399
0.103136 0.401724 0.137728
0.102617 0.401038 0.133669
0.103044 0.398596 0.125154
0.104967 0.396002 0.113252
0.118059 0.395834 0.103609
0.146593 0.401892 0.108858
0.188128 0.412985 0.121004
0.249088 0.42884 0.139757
0.325246 0.452171 0.155718
0.408789 0.4701 0.146746
0.4934 0.482475 0.13254
0.584222 0.473777 0.154513
0.635828 0.466468 0.163134
0.676616 0.447349 0.163226
0.718013 0.420279 0.169238
0.755947 0.402823 0.180072
0.777981 0.403311 0.189471
0.797574 0.397833 0.20798
0.812024 0.394476 0.228351
0.815839 0.390936 0.234806
0.814847 0.387915 0.234195
0.814466 0.385733 0.234195
0.814237 0.384375 0.234226
0.813748 0.383536 0.23389
0.813672 0.383108 0.233875
0.813672 0.382956 0.233982
0.810712 0.384024 0.237446
0.80502 0.386007 0.244251
0.116045 0.445686 0.134188
0.110689 0.447333 0.1411
0.107103 0.449058 0.147204
0.105455 0.450309 0.149218
0.104067 0.451316 0.150057
0.103502 0.451957 0.149142
0.103029 0.451926 0.146715
0.102922 0.450034 0.139528
0.103655 0.446891 0.12694
0.106401 0.443442 0.112474
0.127413 0.444877 0.104112
0.168521 0.452689 0.112459
0.232547 0.467277 0.130266
0.308354 0.489387 0.156237
0.393973 0.517372 0.170138
0.476936 0.533898 0.160967
0.554299 0.54548 0.152377
0.63917 0.53698 0.177646
0.687129 0.529976 0.190982
0.723903 0.514504 0.193606
0.758694 0.487709 0.197559
0.792966 0.464027 0.215976
0.815229 0.46273 0.231815
0.824292 0.46389 0.242206
0.828534 0.460288 0.247196
0.82887 0.457145 0.24773
0.828809 0.454627 0.247303
0.828077 0.45275 0.246555
0.828016 0.451682 0.246403
0.82797 0.451118 0.246296
0.827985 0.451148 0.246357
0.825177 0.452323 0.249912
0.819989 0.454536 0.257664
0.122332 0.494423 0.157626
0.11725 0.49662 0.166613
0.113207 0.498726 0.174105
0.111086 0.500114 0.176806
0.109621 0.501076 0.177615
0.108949 0.501579 0.176181
0.108507 0.501793 0.173602
0.1084 0.501335 0.168963
0.108476 0.4981 0.156008
0.110231 0.494209 0.137377
0.11606 0.489082 0.116991
0.1561 0.493004 0.112184
0.220005 0.504143 0.126513
0.297627 0.524178 0.154314
0.380316 0.55259 0.183993
0.463767 0.578393 0.191669
0.539025 0.592294 0.181445
0.609628 0.603372 0.178576
0.687938 0.594308 0.21004
0.732784 0.587686 0.232273
0.766018 0.575753 0.24155
0.792813 0.551843 0.242908
0.818463 0.526131 0.256245
0.836942 0.520348 0.273747
0.840421 0.52253 0.275425
0.840604 0.521111 0.275166
0.840253 0.519829 0.274144
0.840009 0.519066 0.273655
0.839963 0.518746 0.273518
0.839979 0.5187 0.273548
0.84004 0.51902 0.273747
0.837736 0.52018 0.278416
0.832776 0.522728 0.28629
0.137423 0.542351 0.19501
0.130877 0.544778 0.205219
0.125612 0.547173 0.213794
0.123552 0.548837 0.218006
0.122011 0.550149 0.220249
0.121508 0.550637 0.218738
0.121172 0.550484 0.21561
0.120897 0.550256 0.212268
0.120684 0.548501 0.202792
0.121523 0.544945 0.183658
0.124468 0.539132 0.154467
0.139986 0.534035 0.126986
0.212406 0.540307 0.13022
0.288624 0.557061 0.15639
0.36733 0.581277 0.194751
0.446891 0.610849 0.223362
0.524849 0.634501 0.223987
0.593881 0.64799 0.214893
0.65948 0.659541 0.216098
0.732036 0.648997 0.257008
0.773968 0.643107 0.285405
0.801389 0.634043 0.298985
0.821363 0.617426 0.301717
0.83769 0.597848 0.30248
0.84921 0.587167 0.30753
0.851209 0.586831 0.304631
0.851301 0.585794 0.303517
0.851026 0.585061 0.302968
0.851026 0.584848 0.302846
0.850965 0.585031 0.302892
0.851133 0.585748 0.303304
0.849302 0.587427 0.307591
0.84564 0.590234 0.315526
0.161151 0.587121 0.239094
0.15523 0.589944 0.249851
0.150546 0.592615 0.259907
0.148226 0.594675 0.264973
0.146548 0.596078 0.267674
0.146441 0.596582 0.266926
0.146426 0.596445 0.26421
0.14638 0.595682 0.259358
0.145678 0.594598 0.254139
0.145052 0.591531 0.240299
0.147478 0.586297 0.216022
0.155917 0.579065 0.180041
0.192645 0.575982 0.149676
0.286137 0.589731 0.168902
0.36141 0.610468 0.205097
0.433616 0.636408 0.244831
0.507088 0.66566 0.269993
0.578363 0.687861 0.270329
0.643427 0.70071 0.264027
0.703212 0.713024 0.270481
0.772045 0.702022 0.312062
0.809537 0.698161 0.342428
0.831632 0.693141 0.358999
0.847059 0.683223 0.366888
0.855421 0.672953 0.368002
0.85655 0.664469 0.363317
0.85716 0.663432 0.361151
0.857328 0.663294 0.360616
0.857298 0.663493 0.360784
0.857343 0.663981 0.361334
0.857649 0.664912 0.362509
0.857496 0.666529 0.365179
0.856306 0.668269 0.368582
0.198367 0.629419 0.29044
0.195651 0.631586 0.297536
0.191928 0.634256 0.306371
0.189929 0.635981 0.311284
0.188312 0.637293 0.314702
0.187839 0.637644 0.314611
0.187732 0.637324 0.312093
0.187854 0.636347 0.307378
0.187274 0.634974 0.301518
0.18645 0.632837 0.294606
0.186404 0.628504 0.277897
0.188769 0.620935 0.247517
0.20737 0.613794 0.209857
0.265995 0.617151 0.191028
0.362356 0.639185 0.223636
0.430594 0.662043 0.260807
0.494881 0.687724 0.297032
0.561822 0.715221 0.317922
0.629023 0.736294 0.321965
0.690059 0.749706 0.320699
0.74519 0.762921 0.331975
0.805661 0.753552 0.368566
0.838483 0.751095 0.397253
0.858335 0.749187 0.414755
0.868772 0.744427 0.424079
0.871656 0.739284 0.426383
0.871336 0.73843 0.425803
0.871275 0.738262 0.425574
0.87129 0.738384 0.42565
0.87155 0.738674 0.425849
0.872099 0.738949 0.425193
0.873365 0.73962 0.423667
0.874769 0.740444 0.420859
0.248905 0.662882 0.326696
0.247395 0.664317 0.330205
0.244297 0.66659 0.338918
0.240696 0.668482 0.345418
0.238804 0.669856 0.34995
0.238148 0.67013 0.350072
0.237751 0.669764 0.348455
0.237736 0.668772 0.344259
0.237232 0.666835 0.338354
0.235904 0.665034 0.332403
0.235035 0.662623 0.323583
0.235431 0.656382 0.301579
0.242405 0.648203 0.26746
0.272419 0.64567 0.235462
0.357076 0.661234 0.238911
0.44126 0.687755 0.277317
0.502419 0.711818 0.313619
0.56083 0.736843 0.344869
0.622019 0.761486 0.362875
0.683925 0.779934 0.36762
0.739437 0.79266 0.370001
0.787854 0.8056 0.384955
0.837293 0.797513 0.413504
0.864942 0.795804 0.437278
0.877775 0.794781 0.451545
0.881956 0.793805 0.458167
0.881895 0.792798 0.458244
0.881575 0.792767 0.459541
0.880751 0.793088 0.461814
0.879576 0.793805 0.46595
0.879667 0.794629 0.467887
0.880201 0.795148 0.467597
0.881392 0.795636 0.464454
0.29369 0.692912 0.366888
0.292088 0.69398 0.370535
0.287861 0.696071 0.378637
0.284031 0.697581 0.384451
0.281514 0.698497 0.388495
0.280095 0.698268 0.388159
0.278737 0.697673 0.386938
0.278279 0.696468 0.383337
0.277592 0.694789 0.378485
0.276432 0.692744 0.372137
0.275212 0.690211 0.365194
0.274327 0.686366 0.352163
0.275944 0.679149 0.325536
0.290578 0.672633 0.293278
0.337285 0.67628 0.271855
0.435187 0.702525 0.297536
0.501076 0.726909 0.332937
0.559014 0.7514 0.36907
0.614572 0.776196 0.397116
0.671824 0.798627 0.412879
0.729168 0.81529 0.420615
0.780072 0.828901 0.429541
0.819257 0.840955 0.446815
0.858137 0.833356 0.467094
0.876493 0.832074 0.48304
0.882185 0.832349 0.491905
0.882506 0.831724 0.493812
0.882185 0.831647 0.495033
0.88159 0.831998 0.497368
0.880583 0.832547 0.501091
0.879942 0.83328 0.503899
0.879942 0.834089 0.504463
0.88069 0.834623 0.503136
0.322133 0.712902 0.397925
0.320958 0.713436 0.399893
0.317311 0.715007 0.406317
0.314244 0.716457 0.411612
0.311055 0.717235 0.415274
0.309621 0.716854 0.414847
0.308415 0.716152 0.413199
0.307195 0.714702 0.409751
0.305333 0.712596 0.404471
0.302602 0.710002 0.397208
0.300862 0.706905 0.389136
0.298634 0.703639 0.380941
0.298711 0.698619 0.363043
0.308766 0.692668 0.335332
0.33547 0.691051 0.309239
0.405112 0.704677 0.30956
0.49752 0.735012 0.350195
0.55555 0.758526 0.386954
0.612558 0.783642 0.422385
0.664179 0.806439 0.443992
0.718379 0.825925 0.458244
0.771511 0.841337 0.468788
0.810208 0.854734 0.481834
0.842268 0.860395 0.498589
0.869642 0.858701 0.516579
0.878782 0.859434 0.526116
0.880095 0.859266 0.52813
0.879759 0.859205 0.529335
0.879118 0.859312 0.530922
0.878035 0.859815 0.534051
0.877333 0.860288 0.53637
0.877302 0.860853 0.537331
0.877577 0.861204 0.536095
0.325765 0.717281 0.407111
0.324102 0.717296 0.408042
0.320073 0.718166 0.41294
0.316213 0.718898 0.417304
0.312932 0.719203 0.419745
0.310719 0.718593 0.418814
0.309453 0.717556 0.41709
0.308461 0.716243 0.413458
0.306661 0.714168 0.408347
0.304173 0.711421 0.401694
0.301839 0.708232 0.392599
0.299641 0.704662 0.382849
0.299046 0.700526 0.368261
0.31133 0.697627 0.346944
0.333852 0.696498 0.325124
0.393805 0.706935 0.321553
0.480522 0.732326 0.353597
0.551675 0.759716 0.396765
0.607034 0.783749 0.431632
0.661616 0.807965 0.458473
0.711803 0.827741 0.474601
0.765118 0.844266 0.487266
0.804868 0.858335 0.503059
0.835706 0.867567 0.522011
0.859739 0.867247 0.535866
0.874434 0.868528 0.551202
0.877485 0.86894 0.557229
0.877668 0.869093 0.560525
0.87718 0.869184 0.561578
0.876341 0.86952 0.564675
0.875685 0.869886 0.56701
0.875425 0.87013 0.568429
0.875502 0.870314 0.568582
0.324132 0.720272 0.418158
0.323171 0.720012 0.417853
0.320226 0.72047 0.420615
0.317327 0.720775 0.423102
0.314473 0.721019 0.425177
0.312535 0.72018 0.423896
0.310597 0.719081 0.420462
0.309377 0.717403 0.416724
0.307912 0.715572 0.411765
0.305486 0.712718 0.404746
0.30248 0.709346 0.395407
0.300603 0.705623 0.385153
0.300252 0.70135 0.371756
0.310216 0.697963 0.34902
0.331609 0.696223 0.325567
0.387427 0.705287 0.319905
0.478294 0.731533 0.353491
0.546548 0.757626 0.396338
0.602258 0.781689 0.432624
0.657786 0.806409 0.460258
0.709895 0.827253 0.477089
0.761715 0.84387 0.49044
0.804181 0.858122 0.507729
0.833005 0.868605 0.528496
0.856184 0.868849 0.544182
0.870634 0.869581 0.56109
0.87451 0.871153 0.572412
0.874617 0.871946 0.577935
0.874434 0.871992 0.578744
0.873808 0.87219 0.580972
0.873259 0.872312 0.582315
0.872984 0.872358 0.582818
0.872953 0.872328 0.58262
0.318883 0.724605 0.433448
0.31873 0.723995 0.431724
0.318257 0.7234 0.430304
0.31725 0.722881 0.429572
0.315007 0.722469 0.429145
0.313542 0.721736 0.427359
0.31194 0.720378 0.424598
0.310216 0.718547 0.419211
0.308721 0.716518 0.414084
0.306294 0.71368 0.40708
0.303288 0.710079 0.397116
0.300984 0.706233 0.38732
0.30074 0.7019 0.372992
0.309743 0.698146 0.350317
0.331685 0.696406 0.326558
0.382391 0.703716 0.317845
0.480156 0.732296 0.354299
0.545419 0.757107 0.396353
0.600748 0.781064 0.433524
0.655009 0.805203 0.461769
0.707637 0.826566 0.479225
0.760403 0.843992 0.492134
0.803616 0.857649 0.508003
0.831846 0.868589 0.527764
0.85449 0.868025 0.542245
0.870207 0.869673 0.562509
0.873686 0.871534 0.57644
0.873381 0.872389 0.582681
