bundles/resolve-cinematic-luts/Phantom Luts/Fx6 Phntm Film LUTs-G5/ATOMOS Monitor LUTs/Eastman Fx6-Legacy AML.cube
TITLE "Generated by Resolve"
LUT_3D_SIZE 33
0.096376 0.0875563 0.0889754
0.096376 0.0875563 0.0889906
0.096788 0.0875563 0.0890364
0.0999008 0.0875715 0.0899214
0.105135 0.087602 0.0909743
0.113237 0.0874342 0.0916915
0.122469 0.0875257 0.0926375
0.134127 0.0875868 0.0935683
0.146365 0.0874647 0.0952316
0.159762 0.0877089 0.0967117
0.176913 0.0888991 0.0975357
0.198932 0.0906233 0.0978561
0.225299 0.0913558 0.0959335
0.254017 0.0928359 0.0940261
0.284566 0.0936294 0.0929427
0.314305 0.0948806 0.0931716
0.343053 0.0980392 0.0938888
0.370153 0.101701 0.0944686
0.395758 0.104753 0.0957351
0.41973 0.10753 0.0977646
0.441611 0.108995 0.100267
0.462913 0.109392 0.105257
0.484443 0.107149 0.113222
0.515999 0.104616 0.128084
0.542672 0.106889 0.15021
0.559274 0.112749 0.169787
0.558022 0.112428 0.174914
0.556741 0.112169 0.179248
0.555352 0.112016 0.18352
0.55201 0.112474 0.187533
0.547768 0.113268 0.190845
0.543038 0.114229 0.193698
0.540887 0.114534 0.196002
0.0960403 0.0875563 0.0891432
0.0962539 0.0875563 0.0890364
0.0965133 0.0875563 0.0890059
0.0984512 0.0875563 0.0896315
0.102678 0.087602 0.0908522
0.108782 0.0876478 0.0917525
0.117983 0.08748 0.0926986
0.129549 0.0875868 0.0936294
0.143236 0.087541 0.0945296
0.157687 0.088014 0.0954147
0.175448 0.0892653 0.0958419
0.19823 0.09131 0.0959793
0.224231 0.0927443 0.0945602
0.251865 0.094789 0.0929274
0.281041 0.0968643 0.0920729
0.311894 0.0982071 0.0926375
0.341161 0.10071 0.0930495
0.369604 0.104311 0.094255
0.395605 0.108049 0.0954757
0.419455 0.110964 0.0971084
0.441428 0.112703 0.0997177
0.462959 0.113756 0.104128
0.484367 0.112322 0.111376
0.516808 0.110735 0.125917
0.543038 0.107347 0.143328
0.559594 0.113329 0.163653
0.558785 0.113039 0.169192
0.557412 0.11284 0.173846
0.556054 0.112657 0.177752
0.552956 0.113039 0.181674
0.54876 0.113832 0.184939
0.54435 0.114763 0.18793
0.54226 0.115053 0.190494
0.096376 0.0875563 0.0895705
0.0965896 0.0875563 0.0893568
0.096849 0.0875563 0.0892653
0.0979324 0.0875563 0.0895705
0.100618 0.087602 0.0905776
0.104982 0.087602 0.0914778
0.113664 0.0874342 0.0927291
0.125811 0.087541 0.0938125
0.140383 0.0881361 0.09514
0.156115 0.0890516 0.096025
0.174456 0.090425 0.095964
0.197314 0.0919814 0.0954299
0.224155 0.0935225 0.0929732
0.253544 0.0955978 0.0908064
0.284291 0.0983902 0.0894331
0.312963 0.100267 0.0908064
0.342 0.104402 0.0929427
0.369726 0.107988 0.0939956
0.395804 0.110918 0.0949722
0.419257 0.113588 0.0961624
0.441627 0.11545 0.0987869
0.46389 0.117006 0.103395
0.486809 0.117342 0.111086
0.519829 0.116167 0.125948
0.544549 0.112276 0.141253
0.559808 0.113771 0.157519
0.559335 0.113527 0.163455
0.558267 0.113375 0.16849
0.556878 0.113252 0.172686
0.553811 0.113619 0.176333
0.549722 0.114382 0.179492
0.542626 0.11606 0.182757
0.535286 0.117922 0.184878
0.0961166 0.0882277 0.0931258
0.0959335 0.0875563 0.0927901
0.0969558 0.0875563 0.0920882
0.09897 0.0875563 0.0916304
0.101656 0.087602 0.0916915
0.105303 0.087602 0.0923629
0.1122 0.0883192 0.0932326
0.123964 0.0898146 0.0946517
0.139376 0.0897993 0.0956283
0.154391 0.090547 0.0968948
0.173556 0.0919356 0.0970474
0.197238 0.0928969 0.095613
0.22446 0.0944839 0.0924239
0.254688 0.0965591 0.0894484
0.284871 0.0997482 0.0877089
0.316457 0.102022 0.0900282
0.344717 0.106203 0.0918593
0.371695 0.110033 0.0933242
0.396414 0.114656 0.0947433
0.420462 0.117128 0.0961166
0.443122 0.119402 0.0987106
0.465309 0.12105 0.1028
0.489799 0.121859 0.110689
0.523232 0.122057 0.125765
0.546654 0.118318 0.140291
0.559991 0.114031 0.150912
0.559701 0.113909 0.157397
0.55903 0.113741 0.162966
0.557794 0.11368 0.167559
0.555062 0.114061 0.171237
0.550912 0.114824 0.174807
0.54374 0.116518 0.177432
0.5364 0.118425 0.179477
0.0991073 0.0961013 0.0970321
0.0979782 0.0950179 0.0964675
0.0979782 0.0938888 0.0959793
0.0990616 0.0932326 0.0957656
0.102007 0.0935225 0.0953536
0.10724 0.0934157 0.0954299
0.115236 0.0936294 0.0958877
0.126375 0.0938582 0.0966964
0.14136 0.0934005 0.0978103
0.156207 0.0940414 0.0983597
0.177737 0.0956283 0.0987259
0.198169 0.0950027 0.0961776
0.226459 0.0958724 0.0926833
0.25594 0.0977951 0.0889448
0.287449 0.101045 0.087602
0.31812 0.103761 0.0892653
0.347387 0.10695 0.0910964
0.37377 0.112306 0.0925917
0.398917 0.116762 0.0943465
0.420096 0.120836 0.0957504
0.443366 0.122683 0.0984512
0.465492 0.124163 0.102296
0.490578 0.126162 0.109728
0.524361 0.127672 0.124132
0.548974 0.124498 0.139483
0.560693 0.120165 0.148379
0.559609 0.114244 0.149752
0.559319 0.114183 0.155428
0.558541 0.114183 0.160052
0.555978 0.11458 0.164431
0.55227 0.115312 0.168292
0.5449 0.11722 0.170977
0.537743 0.119112 0.172686
0.102571 0.106126 0.101152
0.101167 0.104875 0.100252
0.100877 0.103334 0.0995804
0.102022 0.101961 0.0992905
0.104143 0.102113 0.0994125
0.109361 0.10309 0.0990616
0.118853 0.102846 0.0993362
0.13048 0.10193 0.0999008
0.143542 0.0995956 0.100008
0.158282 0.100053 0.100771
0.180041 0.100633 0.100252
0.20557 0.100649 0.0980087
0.232486 0.100343 0.0937667
0.260746 0.100481 0.0898756
0.289937 0.102525 0.0878157
0.320363 0.106035 0.0891432
0.348714 0.108782 0.090074
0.375662 0.113802 0.0919661
0.399481 0.11902 0.093019
0.421683 0.123201 0.0952468
0.442252 0.126345 0.0972152
0.46363 0.128634 0.101213
0.489158 0.131411 0.108476
0.522301 0.1346 0.121828
0.546822 0.13344 0.136202
0.558038 0.128923 0.144457
0.558373 0.124331 0.146654
0.559121 0.12018 0.148669
0.557748 0.115129 0.149538
0.555871 0.115358 0.153353
0.552758 0.116152 0.157488
0.545617 0.118135 0.160174
0.538689 0.119997 0.162615
0.106081 0.11722 0.105455
0.10457 0.115877 0.104326
0.107057 0.114076 0.10248
0.108095 0.112444 0.101884
0.110399 0.11223 0.102403
0.114977 0.113222 0.103044
0.124117 0.11426 0.101976
0.136156 0.113268 0.102052
0.14995 0.10988 0.10248
0.164599 0.107362 0.102678
0.18291 0.105989 0.101442
0.211063 0.105806 0.0992905
0.241489 0.106889 0.0956436
0.27602 0.108064 0.0928969
0.299519 0.108385 0.0899672
0.326452 0.108858 0.0898451
0.353323 0.11191 0.0901045
0.380011 0.116106 0.0913405
0.403693 0.120317 0.0925307
0.42562 0.125048 0.0937362
0.444358 0.129274 0.0960861
0.464469 0.132448 0.0998093
0.48983 0.13669 0.107012
0.5196 0.1411 0.118273
0.54519 0.142016 0.131334
0.553124 0.139757 0.137545
0.554894 0.135821 0.140444
0.55613 0.132158 0.142565
0.557809 0.129061 0.145052
0.556115 0.125948 0.146075
0.554772 0.123781 0.147478
0.551064 0.122744 0.148547
0.545876 0.12166 0.14876
0.110277 0.127779 0.107851
0.109224 0.127367 0.106828
0.10927 0.12697 0.105928
0.110857 0.125399 0.105058
0.113466 0.12459 0.105318
0.117937 0.124758 0.106218
0.124941 0.125612 0.10602
0.136522 0.126146 0.104097
0.151217 0.124559 0.104173
0.168811 0.120333 0.104662
0.188083 0.115618 0.104463
0.215274 0.112596 0.101244
0.247074 0.1131 0.0988022
0.28333 0.115541 0.0964218
0.31664 0.118853 0.0937514
0.341665 0.120424 0.0924239
0.366735 0.121263 0.091371
0.383902 0.120592 0.09131
0.408209 0.124178 0.0924849
0.428962 0.127977 0.093019
0.447211 0.131334 0.0940566
0.46244 0.134569 0.0959945
0.48249 0.138613 0.100755
0.512291 0.146258 0.112856
0.53994 0.150744 0.125826
0.544213 0.149554 0.128801
0.546288 0.147509 0.130999
0.548241 0.145586 0.133501
0.549691 0.14374 0.135637
0.550591 0.142473 0.13727
0.549859 0.140902 0.138827
0.546685 0.139956 0.140108
0.543359 0.139406 0.141314
0.113329 0.140764 0.11194
0.112474 0.139849 0.110597
0.111528 0.139345 0.108629
0.113115 0.13872 0.107515
0.114855 0.138048 0.107195
0.119432 0.137743 0.108248
0.127275 0.13817 0.10985
0.137285 0.139132 0.109438
0.15108 0.140414 0.106935
0.172198 0.138338 0.107332
0.196506 0.131777 0.107744
0.225132 0.124239 0.10631
0.256657 0.121462 0.102846
0.288121 0.124758 0.100954
0.327443 0.129213 0.0992294
0.359045 0.133654 0.0977646
0.38912 0.137697 0.0966812
0.413764 0.141253 0.0962539
0.424842 0.136599 0.0939193
0.438514 0.135821 0.0934615
0.453269 0.136522 0.0940719
0.468864 0.138506 0.0949111
0.479606 0.139696 0.096788
0.498207 0.144961 0.102327
0.529656 0.155169 0.117327
0.530388 0.1552 0.118212
0.533516 0.155688 0.120562
0.535439 0.155337 0.122133
0.537514 0.154635 0.124071
0.538399 0.154284 0.125521
0.538354 0.15407 0.126619
0.535302 0.154482 0.127413
0.531991 0.155016 0.128115
0.115099 0.158343 0.117449
0.113252 0.157702 0.11606
0.112108 0.157382 0.114595
0.112078 0.157076 0.112902
0.114611 0.156481 0.111742
0.119478 0.15555 0.111681
0.129015 0.155764 0.113481
0.14081 0.157641 0.115999
0.15346 0.15874 0.115328
0.17026 0.160647 0.111421
0.202228 0.157031 0.111833
0.236164 0.148775 0.11252
0.271366 0.139986 0.110048
0.30399 0.137484 0.106737
0.333364 0.141939 0.106188
0.375845 0.149462 0.106767
0.410132 0.15581 0.10724
0.441642 0.162203 0.108461
0.470405 0.168597 0.110597
0.48043 0.166186 0.107683
0.48687 0.160861 0.104402
0.489403 0.152712 0.0987259
0.496773 0.150805 0.0991989
0.502205 0.14789 0.0996719
0.519081 0.153704 0.107256
0.519066 0.153613 0.108827
0.519982 0.154162 0.109743
0.520272 0.15433 0.11017
0.521889 0.154589 0.11133
0.52108 0.154711 0.111452
0.520058 0.154925 0.111513
0.516411 0.155901 0.111391
0.511986 0.157076 0.11107
0.118151 0.182834 0.123568
0.115938 0.182254 0.122042
0.114015 0.181872 0.120668
0.113069 0.180987 0.118395
0.112764 0.180667 0.115526
0.116213 0.180499 0.114961
0.125246 0.180819 0.116197
0.139696 0.182666 0.120104
0.155398 0.185428 0.123003
0.173114 0.187457 0.122393
0.198199 0.191424 0.117464
0.245335 0.187396 0.118471
0.286336 0.179278 0.120638
0.32575 0.168551 0.120409
0.35938 0.165438 0.118608
0.387961 0.169329 0.118624
0.431174 0.179232 0.12195
0.469108 0.187961 0.126085
0.504692 0.196506 0.129961
0.532586 0.202579 0.133196
0.552117 0.204074 0.134386
0.565698 0.203204 0.134707
0.560433 0.193225 0.129107
0.553475 0.181094 0.11986
0.542702 0.169345 0.111055
0.541176 0.167391 0.111803
0.537408 0.16463 0.109987
0.535271 0.163424 0.109346
0.534051 0.162173 0.108446
0.529564 0.159915 0.106966
0.522866 0.157015 0.104891
0.516594 0.156329 0.103822
0.510185 0.15642 0.103227
0.122118 0.216373 0.132357
0.120073 0.215686 0.130816
0.11783 0.215549 0.12961
0.116396 0.214679 0.127474
0.115541 0.213825 0.123781
0.115541 0.212879 0.120089
0.121996 0.213901 0.119753
0.136263 0.216922 0.122942
0.15584 0.221668 0.129442
0.177569 0.226917 0.135653
0.205035 0.231403 0.135012
0.243229 0.237797 0.127489
0.300267 0.235996 0.129854
0.346975 0.232151 0.135348
0.388296 0.21854 0.14049
0.42295 0.210651 0.139239
0.453925 0.213596 0.140902
0.491859 0.220569 0.143908
0.528038 0.227253 0.147051
0.569314 0.237583 0.152377
0.59762 0.242756 0.155612
0.62446 0.24741 0.160479
0.646067 0.250126 0.167239
0.643595 0.240757 0.166918
0.639307 0.233188 0.164981
0.62324 0.21944 0.15639
0.617731 0.215259 0.152773
0.611917 0.211521 0.149599
0.607523 0.209003 0.147753
0.60441 0.207752 0.146654
0.597879 0.204089 0.14287
0.591882 0.203143 0.141085
0.584863 0.202976 0.139467
0.134203 0.263661 0.149126
0.130968 0.262364 0.147707
0.128634 0.262165 0.146456
0.127535 0.262135 0.145037
0.128359 0.261357 0.142428
0.127306 0.259693 0.13669
0.127749 0.258427 0.129931
0.139742 0.261326 0.131289
0.160418 0.268223 0.138933
0.185565 0.276234 0.148974
0.216724 0.283726 0.15639
0.257069 0.28986 0.151797
0.302174 0.297124 0.140551
0.362036 0.294957 0.143465
0.409216 0.293111 0.148638
0.45185 0.282551 0.154635
0.489906 0.268254 0.160937
0.522972 0.268284 0.161563
0.555245 0.269673 0.162966
0.586694 0.273167 0.164767
0.628611 0.280369 0.16968
0.663386 0.287083 0.174868
0.693492 0.294682 0.182345
0.707927 0.294453 0.186831
0.715587 0.292241 0.189837
0.71754 0.287495 0.192599
0.711376 0.282948 0.190906
0.707469 0.280049 0.189609
0.703304 0.277119 0.188373
0.698497 0.274159 0.187655
0.694057 0.272358 0.186374
0.689311 0.272038 0.185931
0.683558 0.272236 0.185672
0.150729 0.321584 0.172427
0.148913 0.320851 0.171618
0.146929 0.320882 0.170779
0.145983 0.321019 0.16965
0.145464 0.321187 0.168063
0.144869 0.319677 0.163897
0.143542 0.316579 0.156039
0.145953 0.315022 0.14612
0.164782 0.320027 0.150591
0.190326 0.328359 0.15996
0.224704 0.337697 0.172213
0.267399 0.344884 0.176043
0.312871 0.348943 0.163867
0.360388 0.356497 0.149798
0.42121 0.353521 0.153094
0.467567 0.352255 0.156588
0.511315 0.34551 0.16434
0.551736 0.332021 0.173388
0.587747 0.323156 0.179721
0.61941 0.321798 0.180743
0.643854 0.324132 0.181338
0.681941 0.325399 0.18584
0.713848 0.328359 0.192111
0.741466 0.334661 0.20119
0.751949 0.334936 0.204608
0.755398 0.333257 0.205768
0.753918 0.331746 0.204517
0.752728 0.330678 0.203937
0.752026 0.329717 0.203738
0.750469 0.328084 0.203159
0.748425 0.327153 0.202808
0.745083 0.327367 0.202884
0.740856 0.328328 0.203021
0.164767 0.379873 0.19646
0.162615 0.37882 0.195178
0.160708 0.378592 0.194095
0.159777 0.37882 0.193042
0.159167 0.378927 0.191897
0.158816 0.378134 0.1888
0.158221 0.376303 0.182605
0.158541 0.373693 0.172671
0.16849 0.373724 0.163088
0.191592 0.379248 0.169528
0.225971 0.388266 0.180819
0.273106 0.39678 0.19266
0.320699 0.402609 0.1897
0.366003 0.405707 0.169986
0.413703 0.411902 0.154757
0.47335 0.407553 0.158999
0.518517 0.406653 0.163546
0.560159 0.403006 0.171572
0.600107 0.393561 0.181521
0.64062 0.381216 0.193683
0.674388 0.373373 0.201617
0.697551 0.374929 0.203311
0.725185 0.373617 0.206516
0.748913 0.372076 0.211414
0.766842 0.372122 0.217411
0.775891 0.372 0.22118
0.775219 0.371572 0.220981
0.774624 0.371221 0.220722
0.774227 0.370703 0.220523
0.773495 0.370123 0.220462
0.772427 0.369757 0.220279
0.769146 0.369909 0.220218
0.765469 0.370306 0.220264
0.178378 0.439109 0.22359
0.176425 0.438163 0.222736
0.174609 0.438148 0.222004
0.173556 0.437827 0.220905
0.172686 0.437736 0.219409
0.172061 0.437125 0.216953
0.171283 0.434989 0.210819
0.170764 0.43183 0.200336
0.174594 0.429419 0.187457
0.192569 0.431113 0.180209
0.224247 0.437003 0.188663
0.273518 0.445167 0.200488
0.325765 0.451789 0.207324
0.372427 0.45478 0.195392
0.415076 0.457282 0.173846
0.461585 0.462028 0.162417
0.518334 0.457481 0.169863
0.561913 0.457298 0.176028
0.601038 0.45626 0.182971
0.640345 0.450263 0.193622
0.681407 0.439628 0.206943
0.716121 0.425361 0.219791
0.741207 0.42266 0.227939
0.765301 0.421149 0.231342
0.778897 0.422507 0.233722
0.788632 0.421622 0.236393
0.792294 0.41973 0.237308
0.79147 0.418204 0.236576
0.791531 0.417151 0.236591
0.791333 0.416388 0.236652
0.790173 0.415106 0.236072
0.787671 0.414267 0.235752
0.784131 0.414267 0.236042
0.191302 0.49601 0.256092
0.189258 0.495308 0.254994
0.18761 0.494743 0.2542
0.186572 0.494209 0.252461
0.185702 0.493828 0.250904
0.18497 0.49305 0.248157
0.183978 0.491951 0.244297
0.18294 0.488472 0.232746
0.183017 0.483497 0.216709
0.192248 0.481041 0.201434
0.220493 0.484047 0.197757
0.271061 0.490105 0.208026
0.326879 0.496559 0.218616
0.376516 0.501793 0.219898
0.421317 0.501701 0.20238
0.459464 0.504082 0.182742
0.504814 0.508797 0.174502
0.559213 0.504524 0.182666
0.601617 0.504524 0.189624
0.638865 0.504494 0.197238
0.675853 0.501839 0.207233
0.713207 0.493339 0.220157
0.746181 0.480446 0.234104
0.771908 0.47541 0.243183
0.792905 0.471275 0.252537
0.799939 0.47274 0.253727
0.80293 0.472236 0.254765
0.802762 0.471565 0.254383
0.802518 0.470893 0.254017
0.802594 0.469917 0.253971
0.802258 0.46894 0.253468
0.80119 0.467994 0.253315
0.799023 0.467475 0.253513
0.208682 0.550546 0.295445
0.206882 0.549157 0.294087
0.20502 0.548394 0.293568
0.203998 0.547616 0.292332
0.203159 0.54699 0.29015
0.202426 0.546044 0.286824
0.20145 0.544656 0.282582
0.200214 0.542062 0.274678
0.19913 0.536538 0.256153
0.199695 0.530037 0.231739
0.220371 0.52929 0.21857
0.27039 0.53286 0.2206
0.328496 0.537987 0.230686
0.381521 0.544213 0.23978
0.423346 0.546548 0.2327
0.465827 0.54612 0.211902
0.500954 0.548592 0.194644
0.545403 0.553841 0.188525
0.596643 0.549081 0.198428
0.637919 0.548302 0.206439
0.673091 0.549172 0.214878
0.707591 0.549081 0.223774
0.737682 0.544091 0.234699
0.766873 0.534051 0.247211
0.791226 0.528695 0.25684
0.805676 0.524636 0.264866
0.808057 0.526925 0.264958
0.80798 0.526543 0.264729
0.807797 0.525536 0.264408
0.80798 0.524178 0.264424
0.807874 0.522774 0.264088
0.80708 0.521904 0.264225
0.805737 0.521157 0.264515
0.226856 0.60267 0.335241
0.225147 0.600732 0.333669
0.223621 0.599771 0.33373
0.222568 0.599054 0.332815
0.221637 0.598321 0.331029
0.221027 0.596994 0.327291
0.220111 0.595193 0.322621
0.218631 0.592447 0.315648
0.217548 0.58761 0.301274
0.217182 0.58117 0.275746
0.221866 0.573343 0.24448
0.263828 0.574884 0.238254
0.33164 0.578317 0.244968
0.383932 0.58381 0.256504
0.42887 0.588266 0.262776
0.467964 0.588983 0.249073
0.505287 0.587961 0.225559
0.539925 0.591363 0.211307
0.582361 0.597757 0.205875
0.631693 0.591592 0.21738
0.671351 0.590768 0.227527
0.70396 0.59173 0.235798
0.731991 0.591653 0.243275
0.757427 0.590723 0.250858
0.783108 0.584298 0.26096
0.798825 0.580941 0.268406
0.80824 0.576455 0.273838
0.808164 0.576501 0.273808
0.808164 0.575647 0.27361
0.80824 0.574807 0.273442
0.808286 0.573648 0.273182
0.807675 0.571923 0.27303
0.806516 0.57084 0.273442
0.246448 0.652674 0.37229
0.245319 0.650752 0.371466
0.244327 0.650141 0.371832
0.243153 0.649058 0.370977
0.242008 0.647929 0.369329
0.241337 0.646372 0.365805
0.240269 0.64387 0.360388
0.238819 0.641688 0.354452
0.237369 0.637354 0.344076
0.235752 0.629923 0.321813
0.237018 0.620462 0.287816
0.254658 0.615732 0.2598
0.331792 0.618814 0.262974
0.389487 0.623011 0.273976
0.433982 0.627298 0.283055
0.472618 0.629786 0.284718
0.508843 0.628992 0.267063
0.542763 0.628351 0.244755
0.575921 0.632547 0.232898
0.616053 0.639429 0.227924
0.663523 0.633127 0.239872
0.701045 0.631556 0.25034
0.72932 0.633219 0.259098
0.753552 0.633631 0.265385
0.774792 0.633356 0.271092
0.792462 0.630594 0.275837
0.801541 0.627405 0.279225
0.805081 0.623514 0.281544
0.80499 0.622782 0.281331
0.805097 0.6215 0.281147
0.805402 0.62034 0.281056
0.804929 0.618616 0.280919
0.803754 0.617166 0.280949
0.267521 0.697841 0.405722
0.266697 0.696483 0.405371
0.265888 0.695415 0.405493
0.264759 0.694072 0.404685
0.263523 0.692744 0.403189
0.262333 0.690654 0.39942
0.260853 0.688258 0.394141
0.259632 0.685557 0.388251
0.257389 0.68188 0.380987
0.254856 0.675181 0.363714
0.254475 0.665156 0.333272
0.267048 0.65771 0.299092
0.31957 0.656275 0.281895
0.39617 0.659403 0.293309
0.439246 0.663142 0.302739
0.47837 0.665919 0.308888
0.512886 0.666789 0.302892
0.548424 0.665522 0.285588
0.578363 0.666026 0.266667
0.609995 0.670954 0.256748
0.648493 0.678172 0.252216
0.692546 0.672114 0.263859
0.72726 0.670726 0.274617
0.750072 0.672465 0.28159
0.771405 0.67274 0.287205
0.789212 0.672877 0.291997
0.799161 0.670466 0.294911
0.804639 0.667948 0.296284
0.805783 0.66569 0.294835
0.807935 0.663493 0.292424
0.809445 0.660899 0.290867
0.810101 0.659373 0.290517
0.809537 0.658076 0.29044
0.290425 0.736767 0.430335
0.289113 0.735378 0.429953
0.288167 0.733867 0.430045
0.286915 0.732525 0.429694
0.285481 0.730861 0.427893
0.284153 0.729274 0.425376
0.28249 0.726238 0.420127
0.280583 0.723033 0.413611
0.278019 0.719326 0.406317
0.275837 0.714794 0.396063
0.273716 0.70544 0.370306
0.27921 0.694911 0.333684
0.31693 0.691112 0.307088
0.39115 0.691798 0.307576
0.447669 0.69485 0.318318
0.487572 0.697551 0.32459
0.521111 0.69926 0.325872
0.553399 0.69865 0.315267
0.58732 0.697536 0.298512
0.6159 0.699123 0.283696
0.647776 0.705043 0.277424
0.68307 0.711879 0.273442
0.723918 0.706401 0.284031
0.753933 0.704082 0.29456
0.773098 0.705211 0.300526
0.790768 0.705196 0.305135
0.801099 0.705531 0.308263
0.806073 0.702907 0.309728
0.806638 0.700725 0.308995
0.807401 0.699199 0.30782
0.808499 0.697993 0.307271
0.808515 0.69604 0.306554
0.807965 0.693996 0.306065
0.312108 0.768597 0.456001
0.310658 0.767193 0.455085
0.309346 0.765728 0.454963
0.308034 0.764355 0.454398
0.306294 0.762524 0.453635
0.304387 0.760571 0.450553
0.302144 0.757778 0.445899
0.30016 0.754467 0.439673
0.297322 0.750561 0.431708
0.295171 0.746075 0.421958
0.292607 0.738445 0.403464
0.294896 0.72784 0.373114
0.309758 0.720424 0.336248
0.387762 0.721447 0.330388
0.448829 0.723095 0.338094
0.491646 0.725109 0.344182
0.527153 0.727077 0.347234
0.557183 0.727764 0.342916
0.58941 0.726925 0.330312
0.620539 0.727001 0.315236
0.648539 0.728985 0.304082
0.678782 0.735409 0.299931
0.711498 0.741924 0.297902
0.746853 0.736614 0.307591
0.772381 0.733776 0.315694
0.78851 0.733928 0.320378
0.799405 0.73492 0.323995
0.803708 0.734005 0.326421
0.804059 0.731914 0.326589
0.804593 0.730144 0.325414
0.804379 0.728588 0.323888
0.804883 0.727489 0.323247
0.805112 0.725856 0.322499
0.32929 0.788342 0.476036
0.32781 0.786908 0.474418
0.326543 0.785779 0.474235
0.325704 0.784817 0.474006
0.324422 0.7832 0.472663
0.322698 0.781201 0.469413
0.320211 0.77882 0.465156
0.318318 0.776333 0.46006
0.315129 0.772488 0.451347
0.312139 0.768765 0.443656
0.309285 0.762676 0.429191
0.310536 0.753582 0.404501
0.323537 0.745205 0.372641
0.363058 0.742199 0.349111
0.449729 0.744411 0.354513
0.49395 0.746593 0.361242
0.530617 0.74815 0.365087
0.562387 0.749462 0.366705
0.590021 0.749538 0.356985
0.623041 0.749203 0.343618
0.65037 0.74995 0.331044
0.678904 0.753918 0.323339
0.708263 0.760357 0.320806
0.736645 0.766888 0.320714
0.765194 0.761059 0.327504
0.787686 0.758328 0.334615
0.799237 0.758999 0.33814
0.802441 0.75874 0.34107
0.802304 0.757626 0.343038
0.801694 0.756634 0.342794
0.802228 0.755474 0.341573
0.803113 0.75346 0.339498
0.804334 0.75198 0.338018
0.33312 0.793729 0.483955
0.332509 0.792798 0.48275
0.331838 0.791836 0.482353
0.331258 0.790753 0.481468
0.329824 0.789014 0.47985
0.328176 0.787427 0.476341
0.325917 0.785367 0.472465
0.324025 0.782818 0.467292
0.32076 0.779171 0.458839
0.317998 0.775296 0.450111
0.314641 0.770977 0.439429
0.317693 0.765393 0.420081
0.329763 0.758877 0.394018
0.357763 0.755093 0.368231
0.430808 0.757733 0.368658
0.495705 0.760128 0.376349
0.531899 0.762234 0.382101
0.563516 0.7635 0.385504
0.592355 0.764401 0.37995
0.619898 0.764004 0.369207
0.650019 0.763745 0.355383
0.677867 0.765728 0.345296
0.702785 0.770565 0.339635
0.731075 0.777722 0.338003
0.755749 0.778241 0.340475
0.780514 0.774929 0.346548
0.797314 0.776364 0.351797
0.801205 0.776318 0.354696
0.801205 0.775372 0.356817
0.800092 0.774716 0.357763
0.799573 0.774197 0.357244
0.799359 0.773236 0.356802
0.799863 0.772015 0.355245
0.334768 0.79527 0.493416
0.333776 0.794507 0.489677
0.332769 0.7935 0.487602
0.331899 0.792096 0.484947
0.331258 0.79086 0.483223
0.329473 0.788632 0.479881
0.327062 0.786557 0.474922
0.325002 0.784176 0.469551
0.321981 0.780407 0.46154
0.31902 0.776318 0.452201
0.315358 0.771969 0.441016
0.31873 0.767102 0.423941
0.331106 0.763088 0.401373
0.356649 0.762295 0.382284
0.418616 0.765026 0.379004
0.485191 0.766842 0.385519
0.531228 0.769284 0.392798
0.563027 0.771618 0.397711
0.591897 0.772702 0.395254
0.619821 0.772488 0.386984
0.647517 0.771908 0.375372
0.674952 0.773037 0.362249
0.700542 0.77702 0.355535
0.725032 0.783062 0.351507
0.750164 0.785122 0.35317
0.772091 0.784344 0.356008
0.793088 0.785946 0.361975
0.799527 0.786389 0.366567
0.800671 0.786664 0.371832
0.79971 0.78613 0.3729
0.799008 0.785733 0.372152
0.798657 0.785382 0.371237
0.798611 0.784848 0.369985
0.336187 0.797055 0.499138
0.335424 0.796002 0.496193
0.334325 0.794888 0.493034
0.33286 0.793652 0.489372
0.331685 0.791913 0.486259
0.330648 0.790173 0.482765
0.328481 0.787686 0.477699
0.325734 0.785077 0.471809
0.323003 0.781506 0.464134
0.319982 0.777218 0.454093
0.316091 0.772946 0.444114
0.318929 0.767971 0.426886
0.329351 0.763439 0.403632
0.355169 0.762356 0.383169
0.410437 0.763912 0.377478
0.482109 0.766781 0.385061
0.527825 0.7691 0.392203
0.560098 0.771557 0.39736
0.589654 0.773007 0.398383
0.61648 0.773159 0.391257
0.644739 0.77261 0.381048
0.670283 0.77322 0.369985
0.69575 0.777279 0.363012
0.721889 0.782849 0.360647
0.746456 0.787839 0.361364
0.767468 0.788556 0.363699
0.786908 0.786923 0.368399
0.796201 0.787976 0.374594
0.800931 0.789532 0.382315
0.801083 0.790311 0.388937
0.801938 0.789944 0.386542
0.804364 0.789014 0.382437
