bundles/resolve-cinematic-luts/Phantom Luts/Fx6 Phntm Film LUTs-G5/ATOMOS Monitor LUTs/Eastman Fx6-Legacy AML.cube
TITLE "Generated by Resolve"
LUT_3D_SIZE 9
0.096376 0.0875563 0.0889754
0.105135 0.087602 0.0909743
0.146365 0.0874647 0.0952316
0.225299 0.0913558 0.0959335
0.343053 0.0980392 0.0938888
0.441611 0.108995 0.100267
0.542672 0.106889 0.15021
0.555352 0.112016 0.18352
0.540887 0.114534 0.196002
0.0991073 0.0961013 0.0970321
0.102007 0.0935225 0.0953536
0.14136 0.0934005 0.0978103
0.226459 0.0958724 0.0926833
0.347387 0.10695 0.0910964
0.443366 0.122683 0.0984512
0.548974 0.124498 0.139483
0.558541 0.114183 0.160052
0.537743 0.119112 0.172686
0.113329 0.140764 0.11194
0.114855 0.138048 0.107195
0.15108 0.140414 0.106935
0.256657 0.121462 0.102846
0.38912 0.137697 0.0966812
0.453269 0.136522 0.0940719
0.529656 0.155169 0.117327
0.537514 0.154635 0.124071
0.531991 0.155016 0.128115
0.134203 0.263661 0.149126
0.128359 0.261357 0.142428
0.160418 0.268223 0.138933
0.302174 0.297124 0.140551
0.489906 0.268254 0.160937
0.628611 0.280369 0.16968
0.715587 0.292241 0.189837
0.703304 0.277119 0.188373
0.683558 0.272236 0.185672
0.191302 0.49601 0.256092
0.185702 0.493828 0.250904
0.183017 0.483497 0.216709
0.326879 0.496559 0.218616
0.504814 0.508797 0.174502
0.675853 0.501839 0.207233
0.792905 0.471275 0.252537
0.802518 0.470893 0.254017
0.799023 0.467475 0.253513
0.267521 0.697841 0.405722
0.263523 0.692744 0.403189
0.257389 0.68188 0.380987
0.31957 0.656275 0.281895
0.512886 0.666789 0.302892
0.648493 0.678172 0.252216
0.771405 0.67274 0.287205
0.805783 0.66569 0.294835
0.809537 0.658076 0.29044
0.33312 0.793729 0.483955
0.329824 0.789014 0.47985
0.32076 0.779171 0.458839
0.329763 0.758877 0.394018
0.531899 0.762234 0.382101
0.650019 0.763745 0.355383
0.755749 0.778241 0.340475
0.801205 0.775372 0.356817
0.799863 0.772015 0.355245
0.338125 0.800641 0.49723
0.334279 0.794598 0.483864
0.325475 0.783688 0.457862
0.327703 0.764477 0.398733
0.523613 0.767773 0.380728
0.641962 0.771847 0.376104
0.744625 0.785245 0.352926
0.805524 0.788083 0.37528
0.804959 0.789258 0.384024
0.340337 0.80293 0.517098
0.336538 0.798001 0.499229
0.328054 0.786831 0.468574
0.321141 0.766934 0.413214
0.50251 0.767117 0.378897
0.63006 0.772137 0.381308
0.733242 0.784527 0.354864
0.801663 0.787686 0.37232
0.801297 0.79028 0.388708
0.0928664 0.0875257 0.0926223
0.102464 0.0876173 0.0954147
0.138048 0.0884565 0.105165
0.220157 0.0881361 0.109621
0.336828 0.0902571 0.0979629
0.432151 0.0977035 0.104814
0.526436 0.109148 0.173953
0.538354 0.114153 0.203662
0.528542 0.115221 0.214115
0.0972457 0.0923629 0.0976883
0.0997024 0.0897841 0.0962692
0.137392 0.0915389 0.0995041
0.218173 0.095079 0.0976577
0.337072 0.102541 0.0941176
0.433829 0.113985 0.100786
0.53344 0.112902 0.156298
0.541466 0.11606 0.18439
0.528359 0.118318 0.196185
0.112398 0.140703 0.120775
0.110521 0.137652 0.112108
0.147707 0.138567 0.108019
0.256077 0.120089 0.101793
0.377997 0.132738 0.0936446
0.442527 0.133242 0.0944381
0.539071 0.150256 0.129168
0.546532 0.142061 0.138277
0.540703 0.136477 0.143633
0.134966 0.26807 0.160708
0.12874 0.262577 0.150698
0.141161 0.259464 0.132143
0.299565 0.294118 0.140322
0.488899 0.257786 0.157717
0.629892 0.275227 0.168246
0.706355 0.281865 0.18793
0.686946 0.264378 0.183902
0.665385 0.259129 0.179934
0.192798 0.501289 0.272557
0.186892 0.496574 0.263905
0.183688 0.48632 0.233036
0.312779 0.493629 0.215503
0.503609 0.506752 0.174792
0.678309 0.495491 0.20763
0.79324 0.46479 0.25182
0.801511 0.462531 0.252827
0.797406 0.458686 0.252018
0.269551 0.701167 0.417212
0.264775 0.694209 0.411353
0.257603 0.681773 0.387045
0.288396 0.653361 0.283116
0.506279 0.664439 0.302937
0.645472 0.674815 0.250813
0.77145 0.667826 0.285344
0.804196 0.659541 0.293721
0.803769 0.652354 0.291783
0.336904 0.798779 0.500237
0.33286 0.793683 0.489647
0.324681 0.783764 0.469123
0.321324 0.759991 0.406027
0.522988 0.760525 0.379843
0.643793 0.762158 0.356268
0.752453 0.777417 0.337713
0.801602 0.772259 0.354406
0.799496 0.76788 0.352117
0.341833 0.804807 0.519875
0.33814 0.800626 0.498848
0.329259 0.788113 0.468238
0.321721 0.76759 0.413855
0.511772 0.76733 0.378729
0.634623 0.772259 0.380789
0.739193 0.784527 0.355383
0.805646 0.788174 0.376043
0.798154 0.791272 0.394064
0.343771 0.807095 0.528496
0.340719 0.803723 0.510353
0.332036 0.791836 0.478874
0.319326 0.770932 0.426749
0.486671 0.766491 0.37641
0.624048 0.772549 0.383948
0.727398 0.783505 0.357305
0.800458 0.787381 0.371389
0.797665 0.791394 0.394598
0.0909285 0.0875563 0.107713
0.101991 0.0887312 0.116869
0.136568 0.0912032 0.123049
0.220706 0.0897841 0.127474
0.336126 0.0876478 0.123857
0.432898 0.0874342 0.145785
0.518685 0.106294 0.210895
0.530251 0.111238 0.232517
0.517586 0.113832 0.237537
0.0937057 0.092256 0.1066
0.0919203 0.0895094 0.112093
0.131487 0.091371 0.121386
0.219318 0.0899214 0.121889
0.342123 0.0876631 0.108782
0.437476 0.087541 0.126497
0.52665 0.10988 0.203159
0.531838 0.112367 0.224842
0.519265 0.114702 0.2318
0.109316 0.138186 0.129686
0.106722 0.136355 0.129152
0.146883 0.140047 0.142184
0.266484 0.124483 0.127794
0.370809 0.11342 0.102144
0.451652 0.113085 0.10425
0.550423 0.115999 0.169802
0.546502 0.114946 0.186496
0.53547 0.11664 0.19736
0.138033 0.271656 0.183307
0.133074 0.270985 0.177325
0.13402 0.266728 0.157626
0.307027 0.303731 0.166186
0.494636 0.257679 0.172534
0.646723 0.269215 0.177325
0.655055 0.234119 0.177951
0.627955 0.215106 0.163378
0.605158 0.20795 0.154284
0.198505 0.513924 0.314794
0.192157 0.509789 0.306676
0.186084 0.49276 0.265202
0.257832 0.48481 0.208774
0.498909 0.502266 0.174853
0.689967 0.478416 0.21883
0.791959 0.451987 0.250858
0.798444 0.445289 0.249348
0.793484 0.441444 0.24773
0.273487 0.707698 0.444785
0.269139 0.701488 0.439994
0.260578 0.686336 0.409277
0.253346 0.650629 0.316365
0.488579 0.659739 0.304524
0.640162 0.668452 0.248142
0.773236 0.658442 0.286061
0.805264 0.64625 0.292226
0.804349 0.637766 0.289281
0.344427 0.808209 0.527398
0.340429 0.803342 0.52076
0.330983 0.791272 0.490242
0.313115 0.765957 0.434302
0.496681 0.757259 0.377554
0.631571 0.759243 0.360479
0.746517 0.773877 0.333928
0.801785 0.765652 0.350225
0.79968 0.76112 0.349264
0.351629 0.816052 0.548119
0.347143 0.810666 0.537743
0.338399 0.800885 0.50193
0.32285 0.776425 0.439994
0.464973 0.766674 0.380255
0.620462 0.773968 0.392035
0.727749 0.783444 0.362295
0.804334 0.788235 0.377676
0.798413 0.791302 0.396033
0.353826 0.818402 0.556207
0.349264 0.813062 0.544396
0.341024 0.804105 0.511727
0.325002 0.780026 0.449683
0.436072 0.765393 0.376761
0.609583 0.773861 0.394766
0.716136 0.781155 0.365103
0.79765 0.787533 0.375799
0.797253 0.791638 0.398093
0.0887922 0.0983902 0.147036
0.100237 0.0964981 0.160555
0.134432 0.0973678 0.181292
0.219135 0.0924392 0.186969
0.340566 0.0893721 0.188678
0.432242 0.0884718 0.211124
0.509819 0.104143 0.246693
0.521447 0.109331 0.264286
0.511223 0.113268 0.27097
0.0887617 0.102831 0.14374
0.0881971 0.0997177 0.153903
0.120211 0.0982071 0.183291
0.220203 0.0924239 0.18912
0.342977 0.0892653 0.185
0.435401 0.088716 0.208408
0.514519 0.106523 0.247761
0.519173 0.108705 0.260182
0.510277 0.112825 0.267445
0.0984054 0.136294 0.155642
0.0942092 0.132586 0.160418
0.107866 0.125795 0.191516
0.23154 0.105287 0.203204
0.351446 0.088838 0.17734
0.448524 0.0882124 0.1991
0.530388 0.108888 0.24448
0.527138 0.108293 0.251484
0.517647 0.110887 0.256428
0.128908 0.264912 0.222095
0.12578 0.265446 0.223835
0.127352 0.265309 0.22501
0.317128 0.318715 0.314931
0.508904 0.273671 0.288258
0.62858 0.210788 0.248249
0.625223 0.1561 0.227314
0.601923 0.142504 0.229114
0.576043 0.133501 0.222675
0.207233 0.535027 0.382849
0.203952 0.533272 0.383398
0.201572 0.525032 0.36669
0.236835 0.512322 0.321019
0.505196 0.522728 0.306203
0.694514 0.477623 0.314733
0.807965 0.436088 0.311742
0.805173 0.423423 0.307607
0.797269 0.418677 0.306935
0.283787 0.72636 0.50103
0.280156 0.719707 0.499046
0.273884 0.70779 0.479423
0.257267 0.670481 0.403128
0.456565 0.661326 0.355978
0.632074 0.664805 0.30518
0.78262 0.643931 0.344091
0.813138 0.631647 0.339223
0.812146 0.62211 0.334051
0.361379 0.83035 0.581094
0.357351 0.823789 0.575128
0.347646 0.812345 0.553903
0.328862 0.78378 0.486503
0.408392 0.758129 0.410864
0.606073 0.759945 0.400534
0.738323 0.770535 0.362448
0.803555 0.757015 0.37322
0.801389 0.75082 0.367483
0.37171 0.841856 0.603815
0.367422 0.835599 0.594369
0.359518 0.824781 0.571588
0.342885 0.801602 0.506065
0.386481 0.775326 0.425452
0.593225 0.780285 0.427466
0.711238 0.783047 0.394476
0.800534 0.790356 0.403555
0.799664 0.792569 0.414862
0.372869 0.84361 0.609522
0.368948 0.837858 0.598398
0.360647 0.826871 0.576242
0.344305 0.805295 0.515358
0.360922 0.774533 0.424949
0.578927 0.778576 0.422354
0.69514 0.780896 0.397482
0.786816 0.788907 0.401099
0.798062 0.793256 0.418524
0.0875715 0.116381 0.234089
0.0919966 0.109438 0.247562
0.113878 0.10782 0.272862
0.221759 0.0957504 0.297002
0.340017 0.0914321 0.295872
0.453285 0.0981003 0.295262
0.542046 0.120607 0.32462
0.55761 0.127214 0.344686
0.55465 0.133654 0.356725
0.0875105 0.123751 0.23122
0.087602 0.118517 0.246052
0.102159 0.109712 0.273381
0.217716 0.0970016 0.306508
0.345022 0.0918898 0.301152
0.457298 0.0991989 0.297307
0.545327 0.122408 0.326299
0.556664 0.127977 0.345144
0.554147 0.133928 0.357382
0.087602 0.139345 0.232425
0.0874647 0.135012 0.239994
0.0874189 0.120653 0.26569
0.196384 0.100755 0.317556
0.352697 0.0939651 0.309056
0.466117 0.101595 0.299138
0.550378 0.121111 0.323644
0.558648 0.124636 0.33933
0.555825 0.130632 0.348669
0.103105 0.255161 0.280613
0.0994736 0.252369 0.283162
0.0946365 0.241062 0.285786
0.20647 0.25333 0.380896
0.456443 0.22501 0.416556
0.55494 0.173022 0.368124
0.561471 0.125475 0.314336
0.560418 0.124346 0.315984
0.553201 0.12636 0.317556
0.192142 0.530098 0.44239
0.189837 0.52874 0.445289
0.18938 0.525902 0.443259
0.22858 0.532158 0.45713
0.521492 0.538628 0.524361
0.697353 0.476768 0.476677
0.806638 0.399817 0.434409
0.800198 0.372473 0.431891
0.791531 0.362524 0.429358
0.281254 0.740642 0.564996
0.280247 0.735668 0.566033
0.277592 0.729 0.556191
0.277455 0.711131 0.527153
0.452079 0.68455 0.512993
0.648264 0.68545 0.498253
0.794644 0.638972 0.488014
0.828458 0.623194 0.467262
0.826673 0.61088 0.461479
0.375586 0.862272 0.652781
0.371542 0.854765 0.647547
0.364202 0.844648 0.631952
0.351766 0.818784 0.590509
0.426001 0.778042 0.524193
0.593683 0.775769 0.522011
0.739498 0.77731 0.486137
0.819806 0.754986 0.499214
0.818662 0.746426 0.495964
0.39205 0.878386 0.678508
0.389349 0.873716 0.670222
0.38584 0.865141 0.65362
0.377142 0.844694 0.612421
0.419715 0.808789 0.539559
0.558312 0.802426 0.530602
0.712459 0.807309 0.520424
0.804623 0.80766 0.50927
0.812207 0.812528 0.528237
0.393988 0.879561 0.683757
0.390616 0.874739 0.673503
0.386725 0.866651 0.656886
0.377462 0.846586 0.616815
0.401297 0.81001 0.537942
0.535302 0.800885 0.525872
0.699229 0.808469 0.527642
0.791058 0.81117 0.516106
0.812802 0.815656 0.542702
0.0875715 0.137865 0.319921
0.0876631 0.129564 0.330068
0.102037 0.121828 0.347982
0.20827 0.111528 0.389929
0.353124 0.103166 0.393561
0.456992 0.108705 0.399298
0.57731 0.140566 0.424338
0.588907 0.149859 0.450507
0.589883 0.155505 0.46862
0.0875257 0.150515 0.322728
0.0873884 0.142306 0.332753
0.0926375 0.127687 0.349248
0.198383 0.114778 0.396689
0.358053 0.104723 0.401801
0.462943 0.111192 0.404974
0.585046 0.143862 0.429572
0.590387 0.150607 0.454047
0.590204 0.156054 0.470619
0.0875715 0.16527 0.325505
0.0875257 0.161151 0.331273
0.0875868 0.14612 0.347127
0.171542 0.120577 0.400854
0.361593 0.107576 0.413901
0.471489 0.113558 0.412284
0.58645 0.143648 0.431662
0.594369 0.148394 0.452506
0.589792 0.153475 0.46244
0.0894026 0.253697 0.34818
0.0882429 0.249897 0.351598
0.087541 0.237491 0.356817
0.129107 0.217197 0.42443
0.400031 0.175357 0.494408
0.488029 0.132784 0.430106
0.580697 0.140276 0.411551
0.592004 0.142763 0.41912
0.586328 0.145251 0.422477
0.162875 0.514763 0.497292
0.161212 0.512718 0.498558
0.156283 0.506447 0.497826
0.166415 0.500465 0.518029
0.433555 0.494957 0.615656
0.671778 0.455222 0.624292
0.778088 0.379004 0.57023
0.782849 0.346014 0.567514
0.773556 0.337148 0.560678
0.262882 0.727275 0.614694
0.261891 0.722545 0.615244
0.259144 0.716777 0.610239
0.257069 0.704265 0.600122
0.466896 0.704799 0.638621
0.66833 0.693248 0.672251
0.799802 0.64033 0.627985
0.831174 0.578332 0.585519
0.825833 0.56144 0.578073
0.367651 0.873075 0.71397
0.36527 0.86656 0.710384
0.358114 0.858122 0.698466
0.350103 0.841947 0.672572
0.467597 0.823926 0.664149
0.619272 0.797162 0.662135
0.76463 0.801083 0.652979
0.848295 0.774655 0.641962
0.847333 0.766201 0.628595
0.417044 0.901381 0.748699
0.415518 0.899016 0.742611
0.410285 0.894942 0.72961
0.408423 0.885954 0.702464
0.469261 0.863371 0.67187
0.587961 0.839612 0.657542
0.72549 0.846616 0.671489
0.82446 0.84593 0.653452
0.844724 0.846357 0.669886
0.418173 0.901381 0.752514
0.416266 0.899733 0.745968
0.411399 0.895979 0.733501
0.407065 0.887129 0.706035
0.449866 0.86392 0.666865
0.575021 0.839384 0.654459
0.710063 0.847364 0.680323
0.810529 0.854292 0.668742
0.848142 0.857954 0.691493
0.08748 0.169741 0.392081
0.0875715 0.161181 0.400473
0.0972763 0.148623 0.412375
0.195926 0.138811 0.461112
0.367163 0.133654 0.494957
0.47451 0.130465 0.484779
0.58822 0.163455 0.518502
0.59762 0.169986 0.54052
0.599557 0.172778 0.552422
0.087541 0.185031 0.396841
0.0874342 0.176059 0.402747
0.0892042 0.15938 0.415534
0.184558 0.142504 0.463111
0.371298 0.137942 0.50518
0.481498 0.133242 0.491676
0.596231 0.16643 0.524453
0.598077 0.170565 0.54229
0.599664 0.173068 0.553292
0.0876326 0.202441 0.402747
0.08748 0.199939 0.408682
0.087602 0.183169 0.413718
0.157519 0.148058 0.461738
0.369497 0.143633 0.51809
0.488441 0.136934 0.500603
0.591546 0.165026 0.525368
0.598352 0.170336 0.540597
0.599069 0.172168 0.548348
0.0879835 0.263081 0.413077
0.0875105 0.25951 0.416602
0.0875257 0.249592 0.421958
0.095613 0.220264 0.461982
0.333776 0.166552 0.541131
0.497124 0.154589 0.524865
0.584955 0.160632 0.510857
0.599435 0.166339 0.520592
0.598886 0.167651 0.524315
0.146136 0.521202 0.547601
0.144961 0.517891 0.548333
0.142962 0.510338 0.550851
0.138231 0.492012 0.56788
0.366705 0.477211 0.687465
0.645029 0.440543 0.74725
0.775036 0.376852 0.689464
0.778302 0.340291 0.661463
0.771191 0.32697 0.65391
0.247059 0.708156 0.657938
0.24419 0.703273 0.656199
0.239017 0.695415 0.652674
0.227466 0.677943 0.647272
0.409049 0.68455 0.715404
0.603021 0.662928 0.749081
0.787533 0.629999 0.745342
0.824994 0.565881 0.701671
0.821515 0.552102 0.693751
0.351431 0.856123 0.744991
0.346517 0.849805 0.740139
0.339361 0.841993 0.732036
0.331167 0.828595 0.718425
0.454276 0.830915 0.740185
0.637079 0.813428 0.760967
0.784131 0.809323 0.785122
0.865476 0.775738 0.756512
0.862837 0.752331 0.739879
0.424842 0.900069 0.785138
0.425101 0.900725 0.78265
0.424491 0.90193 0.776761
0.429557 0.903456 0.766537
0.493309 0.90277 0.763317
0.634867 0.881849 0.773877
0.751797 0.872557 0.782788
0.848585 0.875395 0.778958
0.870054 0.869764 0.78024
0.425269 0.899336 0.788037
0.425162 0.900114 0.784909
0.424826 0.901366 0.779751
0.428397 0.903487 0.768475
0.48069 0.903822 0.757687
0.627955 0.889448 0.772976
0.741146 0.879088 0.78471
0.83711 0.885145 0.789181
0.871504 0.887526 0.793805
0.0873732 0.230213 0.463172
0.0874189 0.221607 0.467674
0.0959945 0.208133 0.483085
0.186847 0.18349 0.527474
0.376928 0.196216 0.607721
0.533288 0.193378 0.611902
0.597787 0.176104 0.56817
0.600641 0.177798 0.572732
0.600824 0.177798 0.573083
0.0876326 0.247837 0.473716
0.0874647 0.240192 0.473182
0.0893111 0.223407 0.48246
0.177295 0.188418 0.528618
0.381308 0.201953 0.616022
0.541726 0.196887 0.617075
0.600183 0.177279 0.570809
0.600641 0.177874 0.572961
0.600671 0.177859 0.572976
0.0881971 0.264103 0.481178
0.0884413 0.264546 0.484428
0.0874189 0.250568 0.482216
0.153017 0.203708 0.527703
0.37673 0.208896 0.624277
0.546548 0.200793 0.623758
0.595148 0.175937 0.570062
0.601007 0.178134 0.57319
0.600931 0.178058 0.573129
0.0919356 0.289693 0.475807
0.0916609 0.287221 0.477958
0.09131 0.282307 0.483635
0.087602 0.255253 0.49102
0.312566 0.215076 0.61117
0.527214 0.205264 0.63151
0.590417 0.174289 0.565927
0.602075 0.177874 0.569909
0.602121 0.178576 0.572335
0.148119 0.530648 0.602686
0.146899 0.527031 0.603647
0.145052 0.521721 0.608194
0.141695 0.507393 0.623178
0.314488 0.489296 0.72842
0.586267 0.454292 0.808759
0.76701 0.391913 0.752148
0.784848 0.351553 0.723995
0.776135 0.336446 0.715236
0.230426 0.705684 0.687938
0.226535 0.700847 0.685206
0.218219 0.691646 0.680583
0.20325 0.672404 0.674113
0.356069 0.671489 0.75642
0.550317 0.648615 0.793667
0.769802 0.623438 0.824826
0.835843 0.562158 0.780362
0.833494 0.547875 0.775235
0.334585 0.839582 0.762371
0.329473 0.832349 0.758236
0.321111 0.822278 0.75198
0.308156 0.803525 0.743267
0.404913 0.808454 0.778332
0.599741 0.80116 0.81088
0.738247 0.787915 0.831113
0.858183 0.764446 0.828748
0.860731 0.739483 0.812467
0.417624 0.895598 0.802792
0.420478 0.895781 0.801495
0.423362 0.896193 0.799252
0.422751 0.893965 0.792752
0.473106 0.893614 0.799481
0.62916 0.888777 0.823423
0.761929 0.878965 0.840024
0.859724 0.882734 0.856626
0.882658 0.874937 0.849928
0.374212 0.887694 0.79234
0.393713 0.891951 0.797147
0.42034 0.895171 0.801068
0.432288 0.8981 0.797864
0.485435 0.907774 0.802838
0.645365 0.910475 0.83064
0.7673 0.899153 0.847654
0.851774 0.902617 0.861357
0.880858 0.903487 0.858152
0.0929122 0.285863 0.513603
0.092195 0.27953 0.512947
0.0989242 0.269688 0.524224
0.196109 0.232685 0.57496
0.391379 0.235309 0.655833
0.559838 0.215396 0.646082
0.600641 0.177874 0.572961
0.600641 0.177874 0.572961
0.600641 0.177874 0.572961
0.0931411 0.288258 0.511955
0.0928359 0.285573 0.513558
0.0932479 0.273472 0.515328
0.18735 0.234821 0.571756
0.393759 0.234806 0.656184
0.563104 0.213794 0.642817
0.600641 0.177874 0.572961
0.600641 0.177874 0.572961
0.600656 0.177874 0.572961
0.0930953 0.290028 0.507759
0.0933394 0.290852 0.510552
0.0927443 0.285252 0.513405
0.159533 0.243534 0.561074
0.387503 0.235645 0.655207
0.565377 0.214862 0.644343
0.597299 0.17731 0.573068
0.601114 0.17821 0.573281
0.601007 0.178134 0.57319
0.100389 0.329839 0.527276
0.0987716 0.321523 0.522713
0.0952773 0.303227 0.511879
0.092195 0.280613 0.513375
0.311345 0.236515 0.631098
0.541543 0.224567 0.660304
0.596689 0.180392 0.5794
0.602121 0.179141 0.574243
0.602136 0.179171 0.574273
0.154711 0.546365 0.64181
0.153994 0.544121 0.643259
0.151644 0.538262 0.645335
0.14284 0.510033 0.635843
0.295171 0.489433 0.728542
0.566491 0.453483 0.808774
0.757855 0.393347 0.75697
0.781353 0.351217 0.725032
0.773739 0.337331 0.71754
0.219776 0.705165 0.702846
0.215976 0.699733 0.700969
0.21088 0.691218 0.699168
0.202808 0.672694 0.695399
0.33164 0.666789 0.764309
0.525292 0.64625 0.801495
0.745037 0.62771 0.84419
0.836103 0.564721 0.792691
0.835904 0.550271 0.790921
0.315724 0.833967 0.76672
0.309682 0.826276 0.763317
0.299947 0.815763 0.7579
0.283665 0.795819 0.749111
0.348196 0.804318 0.782834
0.56524 0.795743 0.824872
0.699458 0.778393 0.838926
0.851698 0.765133 0.851438
0.864118 0.737255 0.837293
0.342168 0.883299 0.776806
0.34229 0.883238 0.776989
0.340795 0.881514 0.776165
0.360678 0.883238 0.783764
0.398886 0.881682 0.795392
0.54905 0.889021 0.830991
0.709392 0.873884 0.848447
0.842176 0.872969 0.871824
0.882536 0.869688 0.875914
0.348196 0.880751 0.784649
0.34844 0.880659 0.784985
0.34844 0.880659 0.784985
0.352193 0.882429 0.787121
0.451301 0.902678 0.81503
0.626719 0.91165 0.847272
0.76379 0.901137 0.861494
0.852186 0.902449 0.878126
0.884352 0.906783 0.879255
