bundles/resolve-cinematic-luts/Phantom Luts/Fx6 Phntm Film LUTs-G5/ATOMOS Monitor LUTs/EastmanRM Fx6-Legacy AML.cube
TITLE "Generated by Resolve"
LUT_3D_SIZE 5
0.0953384 0.0979629 0.0965744
0.175387 0.0908522 0.0873579
0.39968 0.0886549 0.0984054
0.612818 0.106432 0.171359
0.574517 0.114015 0.220371
0.11017 0.154131 0.101472
0.153124 0.15433 0.0995804
0.442573 0.09691 0.0942092
0.596429 0.103578 0.146105
0.585138 0.109483 0.180652
0.116045 0.445686 0.134188
0.103655 0.446891 0.12694
0.554299 0.54548 0.152377
0.828534 0.460288 0.247196
0.819989 0.454536 0.257664
0.325765 0.717281 0.407111
0.306661 0.714168 0.408347
0.480522 0.732326 0.353597
0.859739 0.867247 0.535866
0.875502 0.870314 0.568582
0.316732 0.731655 0.458595
0.317876 0.715572 0.406821
0.51957 0.746715 0.35697
0.860121 0.867399 0.536248
0.870085 0.873549 0.59321
0.0935683 0.100832 0.109819
0.13991 0.100023 0.116014
0.374807 0.093843 0.125689
0.588922 0.110613 0.207523
0.561074 0.115175 0.244251
0.106554 0.150881 0.124254
0.137514 0.154284 0.138369
0.418463 0.0939498 0.110811
0.600183 0.109483 0.187762
0.577874 0.113512 0.217166
0.117464 0.458473 0.186679
0.104005 0.456367 0.167193
0.55317 0.543359 0.154086
0.826535 0.442557 0.244907
0.816846 0.438041 0.2533
0.328161 0.728252 0.441886
0.314519 0.72401 0.433677
0.437583 0.718883 0.336706
0.857328 0.867552 0.536507
0.875532 0.870848 0.569268
0.323186 0.740337 0.488304
0.324666 0.729534 0.446906
0.464958 0.726696 0.331731
0.851682 0.868574 0.539101
0.869703 0.874189 0.598749
0.0914778 0.13875 0.226169
0.112932 0.129366 0.266361
0.37583 0.111879 0.300435
0.597787 0.127886 0.296544
0.58645 0.145403 0.353323
0.0907454 0.158846 0.218143
0.0913252 0.144167 0.263523
0.391821 0.116228 0.331762
0.616342 0.128206 0.288594
0.599298 0.143969 0.343496
0.125353 0.467247 0.374334
0.109789 0.474174 0.402579
0.533028 0.542611 0.516609
0.874434 0.371572 0.46334
0.85977 0.356481 0.477974
0.358663 0.762905 0.558801
0.343114 0.764111 0.56817
0.38793 0.741588 0.466651
0.84979 0.873915 0.62826
0.876341 0.870604 0.663249
0.363012 0.776562 0.612192
0.354498 0.774258 0.604212
0.410132 0.751217 0.483879
0.826993 0.874693 0.657084
0.868055 0.888334 0.722499
0.0907607 0.207706 0.43386
0.0927901 0.191684 0.460472
0.323659 0.170459 0.56611
0.644083 0.222782 0.613748
0.645655 0.229587 0.637598
0.0910048 0.236027 0.445182
0.0908827 0.222248 0.447684
0.330755 0.183917 0.590631
0.648295 0.225971 0.625834
0.644129 0.231632 0.64419
0.0921035 0.446662 0.525704
0.0923171 0.449989 0.538201
0.237095 0.435904 0.672221
0.813046 0.375647 0.775143
0.794476 0.365332 0.765087
0.357549 0.763195 0.69247
0.349065 0.764782 0.699931
0.394598 0.770489 0.705364
0.831037 0.862928 0.834943
0.876234 0.852354 0.82417
0.403098 0.787198 0.72781
0.399527 0.787793 0.727886
0.478233 0.809766 0.730816
0.829938 0.892638 0.843168
0.867628 0.903563 0.861097
0.0916915 0.284718 0.5019
0.0917067 0.274846 0.512856
0.304906 0.241184 0.641825
0.642756 0.234653 0.6533
0.643275 0.234531 0.653056
0.0918441 0.289555 0.499702
0.0917067 0.284535 0.502464
0.315709 0.233967 0.649805
0.643336 0.234653 0.653193
0.642664 0.234714 0.653376
0.0950484 0.474037 0.595041
0.095079 0.472679 0.594873
0.179873 0.445701 0.680064
0.803388 0.390082 0.799435
0.792477 0.380224 0.79057
0.330159 0.744366 0.709316
0.323919 0.745571 0.712886
0.330663 0.742763 0.719646
0.79353 0.841901 0.852262
0.871702 0.848722 0.862623
0.366796 0.767987 0.713268
0.350927 0.768551 0.719387
0.386191 0.784283 0.733562
0.808072 0.888197 0.853574
0.86952 0.906661 0.875044
