bundles/resolve-cinematic-luts/Phantom Luts/Fx6 Phntm Film LUTs-G5/ATOMOS Monitor LUTs/Eastman Fx6 AML.cube
TITLE "Generated by Resolve"
LUT_3D_SIZE 33
0.0875105 0.0875105 0.0875105
0.0875105 0.0875105 0.0875105
0.0878767 0.0875105 0.0875105
0.0932937 0.0875563 0.0875563
0.102281 0.087602 0.087602
0.1149 0.0874647 0.0874647
0.129107 0.0875563 0.0886854
0.144366 0.0875868 0.0901656
0.16144 0.087541 0.0916152
0.182223 0.0874647 0.0929885
0.208484 0.0884413 0.0927291
0.237598 0.090425 0.0907454
0.269139 0.092195 0.0889143
0.301122 0.0937514 0.0898451
0.332006 0.0942397 0.0923781
0.361151 0.0979019 0.0932021
0.388861 0.101442 0.0946822
0.414237 0.105013 0.0962997
0.437263 0.106737 0.0981003
0.458564 0.105623 0.100572
0.479515 0.101686 0.107286
0.498939 0.0940108 0.117479
0.518044 0.0935836 0.14139
0.547356 0.104829 0.177478
0.570825 0.1149 0.206668
0.584009 0.120989 0.226612
0.582071 0.120378 0.231479
0.580179 0.119875 0.235767
0.578241 0.119524 0.239872
0.574762 0.119982 0.242939
0.57052 0.12079 0.245838
0.565957 0.121645 0.247395
0.563836 0.121767 0.249424
0.0875105 0.0875105 0.0875105
0.0875105 0.0875105 0.0875105
0.0875105 0.0875105 0.0875105
0.0915694 0.0875105 0.0875105
0.0983597 0.0875563 0.0875563
0.10901 0.0876478 0.0876478
0.122011 0.0875105 0.0879072
0.138735 0.0876173 0.08925
0.156832 0.0874952 0.090425
0.178958 0.0874342 0.0914321
0.206027 0.0890669 0.0909133
0.236545 0.091371 0.0885023
0.26746 0.0941482 0.0875105
0.298711 0.0972152 0.0885023
0.329168 0.0993515 0.0911727
0.35938 0.101961 0.0927291
0.387488 0.105638 0.0939345
0.413474 0.109361 0.0955215
0.437034 0.111635 0.0972763
0.458015 0.111299 0.0997024
0.479255 0.10898 0.105394
0.499397 0.102541 0.115053
0.518746 0.0941024 0.131136
0.548577 0.105669 0.169223
0.57203 0.115587 0.199847
0.585153 0.121843 0.220508
0.583764 0.121294 0.22562
0.581842 0.120775 0.230335
0.579873 0.120394 0.23444
0.576471 0.120562 0.23798
0.571878 0.121233 0.240574
0.567468 0.122194 0.243229
0.565805 0.122362 0.245472
0.0875105 0.0875105 0.0875105
0.0875105 0.0875105 0.0875105
0.0878309 0.0875105 0.0875105
0.0908217 0.0875105 0.0875105
0.0960403 0.0875563 0.0875563
0.103227 0.087602 0.087602
0.116182 0.08748 0.0878004
0.133593 0.0875715 0.0900282
0.153246 0.0874952 0.0910811
0.176928 0.087541 0.0916457
0.204562 0.0897383 0.0906539
0.235431 0.0923934 0.0874037
0.267094 0.0950484 0.0875105
0.300069 0.0989242 0.087602
0.331914 0.101518 0.0900587
0.360998 0.106142 0.0919814
0.389044 0.110979 0.0936294
0.41413 0.114565 0.095079
0.437644 0.11635 0.0967117
0.458778 0.116716 0.0987716
0.480247 0.115114 0.103838
0.50106 0.109972 0.113527
0.521019 0.0996414 0.126467
0.551644 0.107317 0.163531
0.573526 0.116762 0.194293
0.585992 0.122515 0.214755
0.584802 0.122103 0.220096
0.583154 0.121721 0.224826
0.581216 0.121324 0.229084
0.577859 0.121431 0.233158
0.573358 0.122042 0.236011
0.566247 0.123537 0.238758
0.559319 0.124956 0.240467
0.0903334 0.0875105 0.0879988
0.0899825 0.0875105 0.0875105
0.0911727 0.0875105 0.0875105
0.0939651 0.0875563 0.0875563
0.0977951 0.0875563 0.0875563
0.103105 0.087602 0.087602
0.114458 0.0874342 0.0891585
0.131655 0.0875715 0.0914168
0.152514 0.0874952 0.0927443
0.174533 0.0888685 0.092607
0.203708 0.0908064 0.0905928
0.236667 0.0936904 0.0874952
0.268284 0.0964065 0.0875105
0.301396 0.100389 0.0876326
0.332631 0.104067 0.0887465
0.363684 0.10779 0.0910506
0.39089 0.114031 0.0928359
0.416861 0.11928 0.094667
0.440024 0.122347 0.0969863
0.460319 0.121996 0.0984207
0.481727 0.121355 0.103029
0.50222 0.116564 0.111742
0.524971 0.107622 0.126085
0.55523 0.109163 0.158312
0.57583 0.118059 0.189181
0.586969 0.123278 0.208682
0.585611 0.122759 0.214557
0.584405 0.122408 0.219577
0.582559 0.122133 0.223743
0.579416 0.122271 0.227863
0.575219 0.122744 0.231281
0.567681 0.124163 0.234028
0.56054 0.125856 0.235569
0.0956436 0.0962081 0.0943618
0.094377 0.0948196 0.0935683
0.0943465 0.0921187 0.0921035
0.0956283 0.0908064 0.0914015
0.100359 0.0920119 0.0916152
0.107897 0.092256 0.0924239
0.119585 0.0918288 0.0931563
0.13579 0.0914168 0.0941176
0.155535 0.0935225 0.0959029
0.178012 0.0953384 0.0956588
0.20911 0.0965133 0.0924849
0.237827 0.0956283 0.0875563
0.270909 0.0983444 0.0875105
0.303456 0.10248 0.0874647
0.33518 0.106233 0.0886244
0.364767 0.109972 0.0898146
0.392905 0.115389 0.0921645
0.41854 0.122637 0.0937362
0.441444 0.125841 0.0961318
0.461265 0.128069 0.0988632
0.482506 0.127611 0.102785
0.502434 0.123186 0.110262
0.526467 0.116335 0.124529
0.557061 0.110719 0.151003
0.577585 0.119402 0.182788
0.587274 0.123934 0.20116
0.586603 0.123659 0.207324
0.585489 0.123125 0.212726
0.584421 0.12282 0.21709
0.581353 0.123064 0.221393
0.577356 0.123644 0.224689
0.569879 0.125154 0.227314
0.562722 0.127153 0.228809
0.100816 0.111116 0.100099
0.0990616 0.10927 0.0988022
0.0993515 0.106813 0.0978714
0.100649 0.104524 0.0973678
0.104509 0.105058 0.098085
0.112825 0.107088 0.0978256
0.125994 0.106889 0.098085
0.142046 0.104189 0.0987564
0.1608 0.102327 0.0992752
0.181872 0.102342 0.0981003
0.214908 0.102968 0.094316
0.248524 0.104356 0.0901503
0.279271 0.105135 0.0874952
0.309316 0.106172 0.0875715
0.338399 0.10927 0.088838
0.367041 0.113451 0.0894331
0.39408 0.118456 0.0910506
0.42034 0.124697 0.0930648
0.443091 0.130495 0.0949569
0.46453 0.134325 0.0995651
0.48246 0.133791 0.101854
0.501427 0.131716 0.108248
0.525628 0.127169 0.121508
0.556802 0.11931 0.144137
0.576272 0.120317 0.170367
0.585336 0.124285 0.188144
0.585397 0.124315 0.195071
0.585428 0.124498 0.20177
0.584726 0.124239 0.2065
0.582238 0.124483 0.210544
0.578744 0.124865 0.214389
0.571908 0.126818 0.2168
0.565087 0.128603 0.218997
0.104356 0.125902 0.104875
0.102953 0.124666 0.103731
0.106233 0.122026 0.101747
0.10808 0.120119 0.101335
0.11223 0.119371 0.102052
0.120058 0.120882 0.103319
0.132189 0.122072 0.10071
0.149355 0.121401 0.101274
0.169314 0.115358 0.101823
0.191684 0.111406 0.100465
0.221653 0.110338 0.0972
0.258671 0.111269 0.0932631
0.293278 0.113817 0.0910353
0.327672 0.117723 0.0897688
0.350011 0.119036 0.0893873
0.37496 0.119356 0.0902876
0.399893 0.123232 0.0912642
0.424063 0.127962 0.0921798
0.447318 0.133211 0.0937362
0.468055 0.137087 0.0962234
0.487419 0.141726 0.102113
0.504952 0.140597 0.107164
0.527871 0.139437 0.118425
0.555245 0.134081 0.136629
0.576593 0.124636 0.15462
0.58262 0.123369 0.166552
0.583627 0.12398 0.175204
0.584298 0.124315 0.182879
0.584985 0.124987 0.189532
0.583627 0.125231 0.193881
0.581964 0.125902 0.198291
0.578058 0.127245 0.201511
0.573312 0.128496 0.203555
0.109697 0.141604 0.108843
0.10811 0.140215 0.107012
0.108095 0.139315 0.105318
0.110689 0.137591 0.104524
0.11516 0.136477 0.105135
0.123644 0.13727 0.107317
0.135622 0.138537 0.107515
0.150759 0.140459 0.104326
0.174411 0.138308 0.105303
0.202655 0.129885 0.105394
0.232197 0.123705 0.102571
0.266972 0.121874 0.0992294
0.302373 0.125078 0.0965591
0.338781 0.129305 0.0947585
0.371328 0.133501 0.0930953
0.394827 0.135561 0.0928817
0.415976 0.137438 0.0932937
0.430259 0.135088 0.0926223
0.451469 0.13843 0.0934615
0.47039 0.141772 0.0945296
0.487861 0.144121 0.0969253
0.503578 0.146532 0.102037
0.523033 0.149004 0.111696
0.549233 0.148806 0.127306
0.574487 0.144488 0.14641
0.577951 0.139605 0.150591
0.578622 0.134417 0.153292
0.579767 0.129534 0.15671
0.580087 0.123919 0.158511
0.580179 0.124422 0.164401
0.579355 0.125292 0.169711
0.576303 0.126726 0.173434
0.572702 0.128374 0.177172
0.1131 0.162921 0.115007
0.111574 0.161135 0.113054
0.110903 0.160098 0.11043
0.1131 0.159319 0.108537
0.116625 0.158282 0.108385
0.12607 0.158206 0.11136
0.139696 0.160113 0.114137
0.155032 0.16228 0.114199
0.174655 0.164706 0.109529
0.209689 0.160204 0.109606
0.247684 0.150118 0.110414
0.282216 0.14168 0.107057
0.316304 0.139834 0.103792
0.346639 0.142931 0.101732
0.386206 0.149447 0.101946
0.416632 0.154696 0.102251
0.443976 0.158999 0.103075
0.466484 0.162356 0.1037
0.472755 0.157336 0.101137
0.482765 0.152712 0.0982376
0.494102 0.151003 0.0979934
0.507942 0.152087 0.10013
0.518715 0.152499 0.104707
0.538567 0.157519 0.11603
0.568017 0.160647 0.135988
0.568246 0.15967 0.136599
0.570016 0.157427 0.139071
0.571542 0.155276 0.141665
0.572519 0.152529 0.143618
0.572747 0.150332 0.145174
0.57232 0.148272 0.146883
0.569802 0.147066 0.148394
0.566308 0.146502 0.149569
0.115175 0.191882 0.122164
0.112902 0.189822 0.119936
0.110323 0.188418 0.116152
0.110719 0.188022 0.113405
0.114778 0.187488 0.112306
0.123369 0.187076 0.113512
0.139773 0.188235 0.117296
0.15758 0.191485 0.121874
0.177218 0.194064 0.12137
0.205905 0.198566 0.115038
0.255161 0.192706 0.115938
0.297108 0.182589 0.118044
0.33611 0.170718 0.117311
0.36907 0.167269 0.115282
0.396597 0.169497 0.114336
0.437873 0.177859 0.116899
0.471305 0.184924 0.119753
0.501579 0.191043 0.122377
0.528298 0.196445 0.126253
0.535454 0.191806 0.123674
0.536583 0.185321 0.121157
0.531472 0.172168 0.110536
0.536736 0.168063 0.111452
0.540093 0.161761 0.111635
0.559823 0.16701 0.125429
0.559731 0.165789 0.127062
0.56054 0.166369 0.128771
0.560601 0.16611 0.129061
0.56199 0.165331 0.130419
0.562203 0.165759 0.131289
0.561822 0.166201 0.132067
0.55935 0.167132 0.132631
0.555215 0.168795 0.132937
0.120089 0.228458 0.13283
0.117723 0.226825 0.130175
0.115038 0.226017 0.127749
0.113176 0.224338 0.122454
0.113008 0.223529 0.118364
0.119066 0.223804 0.117723
0.134035 0.225483 0.121019
0.156344 0.229664 0.127871
0.181323 0.235401 0.134981
0.211276 0.239048 0.133425
0.250797 0.244846 0.124056
0.307897 0.240009 0.12604
0.353338 0.233356 0.130755
0.394614 0.217334 0.135729
0.427802 0.209201 0.133959
0.455848 0.212512 0.13547
0.49398 0.217151 0.137972
0.528572 0.222889 0.141466
0.563027 0.230808 0.146395
0.588525 0.235233 0.149798
0.606836 0.234516 0.152651
0.616785 0.231632 0.156115
0.606516 0.218891 0.150912
0.594858 0.202594 0.142687
0.579431 0.185657 0.128664
0.579431 0.183352 0.131075
0.572931 0.179095 0.126787
0.571099 0.177493 0.12604
0.569528 0.176043 0.124895
0.56585 0.173678 0.122942
0.559976 0.170901 0.12076
0.554391 0.170214 0.119814
0.547784 0.16939 0.118791
0.132525 0.276738 0.151354
0.128817 0.274525 0.148547
0.126131 0.273747 0.146319
0.124163 0.272526 0.142809
0.123095 0.271214 0.137453
0.122759 0.268894 0.129961
0.134386 0.270665 0.129686
0.156893 0.276478 0.136522
0.184604 0.283406 0.146578
0.218967 0.290455 0.154849
0.260243 0.294102 0.147875
0.305516 0.300008 0.134813
0.365988 0.295872 0.137255
0.412238 0.291798 0.142229
0.454612 0.277989 0.149157
0.489998 0.26389 0.155138
0.51902 0.265797 0.156435
0.552117 0.265934 0.157626
0.585855 0.269184 0.160235
0.623011 0.275074 0.165606
0.649973 0.279881 0.169421
0.671626 0.282795 0.174121
0.687343 0.282185 0.179736
0.682551 0.268818 0.180301
0.675639 0.257862 0.180209
0.658289 0.244373 0.175006
0.651225 0.239765 0.172107
0.644877 0.234836 0.17113
0.641001 0.231815 0.169421
0.637934 0.23003 0.168322
0.633417 0.2271 0.165591
0.62707 0.225452 0.163745
0.620127 0.224659 0.162188
0.146334 0.329885 0.173114
0.143496 0.328542 0.171267
0.140688 0.328008 0.169558
0.139116 0.327459 0.167529
0.139422 0.325338 0.162722
0.138521 0.323278 0.155306
0.139178 0.32047 0.143633
0.158099 0.324712 0.145647
0.186709 0.332052 0.155169
0.221851 0.340444 0.167102
0.266804 0.346822 0.172076
0.314107 0.350317 0.157473
0.361196 0.356451 0.141405
0.422721 0.351659 0.145037
0.469261 0.349264 0.149767
0.512139 0.33904 0.15903
0.55108 0.325139 0.169238
0.583551 0.320912 0.175814
0.614038 0.320043 0.176883
0.642939 0.322454 0.178653
0.676326 0.319524 0.182635
0.702937 0.322332 0.187472
0.725246 0.32668 0.193668
0.735409 0.325551 0.195773
0.740688 0.321462 0.197238
0.741756 0.315465 0.198566
0.73695 0.311025 0.197284
0.733166 0.307301 0.19585
0.729671 0.304524 0.194858
0.725185 0.300649 0.194171
0.722225 0.299153 0.193744
0.717372 0.298695 0.19353
0.71191 0.298695 0.193439
0.158297 0.384039 0.195361
0.155764 0.38233 0.193194
0.15346 0.381598 0.191424
0.152331 0.381415 0.189792
0.15172 0.381292 0.187289
0.151553 0.379767 0.181949
0.150622 0.375784 0.170855
0.154986 0.372763 0.155886
0.18143 0.379309 0.16141
0.217868 0.388205 0.17322
0.266087 0.396353 0.18587
0.317067 0.40177 0.183963
0.364538 0.404242 0.162356
0.411872 0.408621 0.144823
0.473396 0.403937 0.150912
0.518578 0.402426 0.156664
0.560861 0.397147 0.165896
0.600717 0.387167 0.177508
0.63682 0.378836 0.189487
0.665812 0.37351 0.198566
0.687541 0.376257 0.200931
0.715801 0.3729 0.203601
0.739803 0.371511 0.208759
0.757534 0.368109 0.213993
0.766552 0.366247 0.215702
0.77116 0.364584 0.216098
0.770321 0.363714 0.215717
0.769467 0.362509 0.215457
0.768277 0.360647 0.21474
0.766659 0.359167 0.21384
0.765148 0.357763 0.213397
0.761822 0.357427 0.213718
0.758038 0.358068 0.213901
0.169467 0.439109 0.221302
0.167681 0.438025 0.219898
0.166201 0.437339 0.218067
0.165408 0.437278 0.216297
0.164736 0.436988 0.214649
0.163821 0.435355 0.209018
0.162676 0.432349 0.199649
0.164508 0.428672 0.186069
0.17882 0.427985 0.171695
0.209979 0.434226 0.17911
0.260151 0.442588 0.191943
0.317342 0.449348 0.201343
0.367025 0.452247 0.189944
0.411429 0.453712 0.165454
0.459358 0.457893 0.153903
0.518303 0.454154 0.162799
0.561456 0.453437 0.169543
0.600107 0.451286 0.1776
0.638849 0.445441 0.188968
0.676966 0.436301 0.203555
0.707576 0.429084 0.215564
0.726223 0.430304 0.220523
0.748196 0.426169 0.227939
0.766415 0.425742 0.230854
0.78172 0.421012 0.233936
0.790555 0.417777 0.236698
0.791028 0.414771 0.236301
0.790097 0.412818 0.235554
0.789105 0.411078 0.234699
0.788251 0.409796 0.234333
0.78703 0.408423 0.233661
0.78407 0.408087 0.233661
0.780728 0.40795 0.23357
0.182483 0.494697 0.254353
0.180987 0.493217 0.252125
0.179583 0.492638 0.251209
0.178241 0.491829 0.249165
0.177127 0.49131 0.246616
0.176303 0.490394 0.242878
0.175357 0.487556 0.233448
0.175174 0.482902 0.217853
0.180194 0.479057 0.199374
0.204379 0.480415 0.188098
0.251835 0.486244 0.198566
0.31284 0.492287 0.210346
0.367788 0.497841 0.21326
0.416114 0.49836 0.196429
0.457237 0.500252 0.175738
0.503227 0.50425 0.167071
0.55903 0.500542 0.177111
0.600153 0.500557 0.184192
0.636591 0.500603 0.192706
0.672465 0.49807 0.202747
0.709163 0.490761 0.217884
0.736812 0.481865 0.230259
0.755856 0.482078 0.236042
0.775479 0.480339 0.243351
0.785595 0.482414 0.245731
0.79498 0.480003 0.250019
0.799588 0.478294 0.251972
0.799329 0.477501 0.251789
0.799207 0.476555 0.251713
0.799115 0.475746 0.251743
0.799039 0.474144 0.251881
0.798001 0.473091 0.252186
0.795727 0.472709 0.252888
0.200519 0.548104 0.295918
0.198871 0.546761 0.294255
0.197452 0.545861 0.293278
0.19646 0.544915 0.291371
0.195499 0.544259 0.288685
0.194232 0.542748 0.284566
0.193271 0.540993 0.278538
0.192065 0.536202 0.262242
0.191928 0.530053 0.238178
0.204089 0.525917 0.216068
0.24535 0.52845 0.210925
0.310018 0.532555 0.221622
0.369711 0.539345 0.23267
0.416205 0.542336 0.226841
0.461631 0.541436 0.204334
0.498894 0.543923 0.188235
0.543633 0.547524 0.182498
0.596506 0.54519 0.193866
0.636362 0.545678 0.202731
0.669703 0.546075 0.211063
0.701518 0.545357 0.220035
0.730938 0.540627 0.232532
0.756176 0.534295 0.243595
0.775509 0.533394 0.251331
0.791821 0.532357 0.258457
0.798566 0.53431 0.25922
0.802869 0.534401 0.259922
0.802548 0.534005 0.259525
0.802213 0.533303 0.259281
0.801907 0.532357 0.259083
0.801816 0.531228 0.258885
0.801007 0.530282 0.258869
0.799619 0.530037 0.259358
0.221271 0.600244 0.339544
0.219165 0.598428 0.337835
0.217914 0.597452 0.337407
0.217227 0.596826 0.336385
0.215885 0.595468 0.333562
0.214893 0.593561 0.329015
0.21323 0.591546 0.323262
0.211994 0.588357 0.313863
0.210788 0.580621 0.289189
0.211536 0.571694 0.254459
0.239109 0.570397 0.236255
0.307195 0.571801 0.235096
0.369162 0.57731 0.247044
0.421408 0.582452 0.256611
0.462791 0.583154 0.241093
0.503243 0.583124 0.217075
0.539086 0.586023 0.205249
0.582254 0.590494 0.201709
0.630365 0.586969 0.214069
0.66836 0.586816 0.224491
0.697887 0.588296 0.234028
0.724727 0.588006 0.2421
0.747326 0.586923 0.249912
0.769009 0.582635 0.25864
0.787106 0.580941 0.266392
0.799161 0.580835 0.272496
0.802075 0.58291 0.272343
0.802075 0.582681 0.272221
0.802289 0.58201 0.272145
0.802228 0.580896 0.271901
0.802029 0.579538 0.271336
0.801572 0.578729 0.271473
0.80061 0.578332 0.271931
0.242512 0.648951 0.379721
0.240925 0.647105 0.378164
0.239811 0.646036 0.378317
0.238911 0.645075 0.377447
0.237903 0.643961 0.375494
0.236698 0.642176 0.371069
0.235019 0.639567 0.365332
0.233433 0.636255 0.357916
0.231189 0.630274 0.34197
0.23006 0.620722 0.309377
0.236362 0.610162 0.264576
0.296315 0.610864 0.255406
0.370718 0.613642 0.263767
0.423392 0.618524 0.274922
0.467842 0.621942 0.27776
0.506157 0.621042 0.257939
0.541924 0.622019 0.236057
0.575952 0.625635 0.226947
0.616632 0.630915 0.223987
0.662074 0.62594 0.238132
0.695903 0.625834 0.250034
0.721386 0.627359 0.259266
0.743008 0.627726 0.265797
0.761639 0.627588 0.271443
0.779736 0.625101 0.276677
0.792218 0.625284 0.282261
0.799893 0.623377 0.286351
0.799924 0.623362 0.286351
0.800122 0.622522 0.286137
0.800565 0.621668 0.286168
0.800549 0.620508 0.285786
0.800031 0.619104 0.285618
0.798978 0.618311 0.285618
0.265126 0.692393 0.415732
0.263966 0.690684 0.414816
0.262684 0.689815 0.414847
0.261723 0.688441 0.413764
0.260624 0.686992 0.412039
0.259388 0.685267 0.407889
0.257511 0.68246 0.401938
0.255665 0.679942 0.396384
0.252995 0.674937 0.385092
0.250355 0.665629 0.360098
0.251682 0.653193 0.317906
0.275883 0.646006 0.277852
0.367361 0.648402 0.283574
0.427771 0.652461 0.296574
0.472114 0.656275 0.30248
0.508736 0.657145 0.295521
0.546273 0.656291 0.276844
0.577905 0.657801 0.25893
0.611048 0.662638 0.252171
0.64828 0.66862 0.25005
0.688304 0.663737 0.26421
0.718624 0.662562 0.276524
0.739437 0.664775 0.285679
0.757733 0.665721 0.291417
0.774182 0.665843 0.295338
0.787549 0.66389 0.298192
0.795529 0.66125 0.300572
0.799329 0.657877 0.3028
0.799268 0.657176 0.302495
0.798871 0.656245 0.301671
0.799023 0.65507 0.301228
0.798688 0.653834 0.300801
0.798306 0.652964 0.30106
0.288243 0.729107 0.447105
0.287007 0.727611 0.44651
0.286183 0.726497 0.44651
0.28484 0.72517 0.44535
0.283299 0.723461 0.443137
0.281758 0.721401 0.439612
0.280324 0.719066 0.434073
0.278202 0.716197 0.427466
0.275532 0.712734 0.4206
0.271794 0.70454 0.401068
0.269398 0.692042 0.366888
0.285801 0.68127 0.32343
0.351827 0.678553 0.303029
0.432624 0.682063 0.317205
0.477668 0.685466 0.324742
0.514244 0.687297 0.324315
0.548241 0.686961 0.312032
0.581643 0.686503 0.295644
0.611627 0.689021 0.281987
0.644816 0.694469 0.277821
0.677073 0.700145 0.277745
0.712642 0.695674 0.29099
0.739528 0.694789 0.302785
0.755673 0.696452 0.309834
0.770901 0.697398 0.315099
0.783536 0.697749 0.31873
0.792721 0.69575 0.32047
0.798886 0.693782 0.321523
0.800595 0.692287 0.320058
0.80238 0.690166 0.317723
0.803906 0.688426 0.315847
0.804547 0.686793 0.314748
0.803494 0.685771 0.314382
0.312078 0.759319 0.469245
0.310842 0.758053 0.468406
0.309743 0.756542 0.468193
0.308492 0.755001 0.467735
0.306767 0.753368 0.465965
0.305058 0.751659 0.46273
0.30277 0.74876 0.457328
0.300221 0.74551 0.450309
0.2972 0.741695 0.442573
0.293721 0.736736 0.431861
0.290044 0.725673 0.403998
0.295964 0.712077 0.36083
0.343359 0.706767 0.330694
0.425162 0.706966 0.33167
0.483848 0.709972 0.341283
0.522637 0.71223 0.344579
0.554971 0.71252 0.337163
0.587472 0.711681 0.323568
0.617319 0.7122 0.309346
0.647013 0.716121 0.300847
0.677958 0.721996 0.298848
0.705989 0.726268 0.30106
0.737133 0.722316 0.312886
0.759579 0.721325 0.322499
0.773983 0.722255 0.328435
0.786572 0.722576 0.332418
0.794797 0.722835 0.335348
0.800061 0.721202 0.337606
0.800946 0.719768 0.337316
0.801587 0.718608 0.336355
0.801831 0.717556 0.335302
0.801892 0.716289 0.334585
0.80177 0.714702 0.333806
0.3355 0.782559 0.493217
0.333761 0.781476 0.491798
0.332555 0.780774 0.491508
0.330983 0.779202 0.490303
0.329137 0.777264 0.488579
0.326314 0.775036 0.485435
0.323934 0.772808 0.480674
0.320653 0.7691 0.473533
0.317372 0.76553 0.465232
0.313817 0.76083 0.454902
0.309895 0.752102 0.434302
0.311162 0.739528 0.400443
0.328511 0.729091 0.357565
0.4177 0.729397 0.353216
0.482399 0.730999 0.360296
0.526467 0.733471 0.363439
0.560357 0.734676 0.361959
0.5897 0.734386 0.351598
0.620569 0.734035 0.338338
0.648035 0.735622 0.327016
0.675822 0.741238 0.322866
0.703227 0.746029 0.32372
0.72813 0.749065 0.326787
0.754299 0.745357 0.336156
0.774319 0.744305 0.343801
0.786511 0.744381 0.348165
0.795148 0.745144 0.351446
0.800259 0.744732 0.354025
0.801526 0.743694 0.354406
0.80177 0.742596 0.353277
0.801846 0.74139 0.35198
0.801724 0.740047 0.350637
0.801648 0.738628 0.349783
0.353918 0.797635 0.510887
0.352682 0.796399 0.509224
0.351263 0.795407 0.508598
0.349584 0.794369 0.507256
0.348013 0.793088 0.505852
0.345693 0.790921 0.502464
0.343282 0.7888 0.498466
0.340032 0.786496 0.492515
0.336126 0.782208 0.483436
0.331563 0.778698 0.474876
0.326802 0.771603 0.458915
0.327916 0.760403 0.430488
0.342519 0.74992 0.394308
0.388388 0.745266 0.370581
0.48188 0.74728 0.377188
0.527108 0.749508 0.381979
0.562188 0.751446 0.381735
0.592966 0.75172 0.374701
0.621759 0.751568 0.364492
0.649607 0.752178 0.352468
0.677028 0.755184 0.345281
0.699596 0.761639 0.344274
0.7243 0.765103 0.345815
0.746181 0.766018 0.349874
0.7691 0.763775 0.35668
0.785992 0.762219 0.361578
0.795026 0.763516 0.365423
0.799268 0.763546 0.368658
0.800687 0.763149 0.370901
0.800015 0.762371 0.370947
0.800259 0.761212 0.370092
0.801434 0.75967 0.368017
0.80209 0.758404 0.365789
0.358419 0.80145 0.518624
0.357458 0.80087 0.516884
0.356634 0.799969 0.515938
0.355657 0.799023 0.514824
0.353811 0.797467 0.512718
0.351919 0.79585 0.50959
0.349096 0.794263 0.505165
0.34612 0.791455 0.499306
0.342214 0.788083 0.491127
0.337911 0.783795 0.4813
0.332753 0.778851 0.468666
0.335729 0.770947 0.446998
0.348882 0.761913 0.416876
0.380056 0.756466 0.389609
0.461158 0.757778 0.391913
0.528069 0.7617 0.39884
0.563928 0.764202 0.401877
0.594537 0.765484 0.397971
0.623331 0.765362 0.388739
0.649897 0.765499 0.37937
0.67689 0.767102 0.369146
0.701717 0.771634 0.366171
0.723674 0.777676 0.365194
0.744839 0.780087 0.367163
0.762402 0.777371 0.3691
0.782116 0.776257 0.375555
0.794202 0.776654 0.379919
0.799588 0.777111 0.383444
0.800931 0.776867 0.386007
0.799817 0.776211 0.386572
0.798901 0.775464 0.385153
0.798657 0.774823 0.384665
0.799344 0.773938 0.383581
0.360311 0.802808 0.527413
0.359533 0.802029 0.523827
0.358022 0.801221 0.521065
0.356909 0.800214 0.518791
0.355657 0.798978 0.516365
0.353429 0.797024 0.512642
0.350668 0.795224 0.508171
0.347448 0.79295 0.502159
0.343496 0.789029 0.494087
0.339086 0.784802 0.483116
0.333913 0.779828 0.470802
0.336812 0.772747 0.450629
0.350378 0.765835 0.425193
0.378851 0.763165 0.404715
0.448875 0.764752 0.403342
0.517128 0.767636 0.409506
0.563973 0.771588 0.414328
0.595285 0.77467 0.416022
0.623468 0.775036 0.408713
0.65185 0.774945 0.399741
0.674632 0.775647 0.390311
0.700938 0.77847 0.383154
0.722698 0.78378 0.382483
0.743206 0.788739 0.381552
0.759945 0.786786 0.383536
0.775982 0.785687 0.386801
0.790967 0.786007 0.392264
0.799023 0.787182 0.397787
0.801984 0.78793 0.404105
0.801038 0.78761 0.405066
0.800061 0.787137 0.403647
0.799573 0.786603 0.402136
0.799466 0.786023 0.400824
0.36173 0.804196 0.532845
0.360739 0.803265 0.529564
0.360098 0.802487 0.527047
0.358144 0.801251 0.522683
0.356725 0.799985 0.519783
0.354925 0.798383 0.515816
0.352285 0.79617 0.510887
0.348852 0.793957 0.504585
0.344823 0.790204 0.49659
0.340627 0.785779 0.485359
0.335195 0.781231 0.474601
0.336889 0.773526 0.453803
0.348241 0.766476 0.427436
0.376776 0.763455 0.406058
0.439902 0.764065 0.401877
0.513741 0.76733 0.409155
0.561105 0.771481 0.41442
0.59263 0.774533 0.416617
0.620996 0.77583 0.411887
0.649363 0.77612 0.404578
0.672831 0.777325 0.396612
0.697108 0.779736 0.391653
0.718791 0.785016 0.390814
0.740871 0.790448 0.391546
0.756985 0.789715 0.393744
0.772305 0.790051 0.397238
0.786282 0.790784 0.401144
0.796307 0.792416 0.408652
0.800855 0.793942 0.417121
0.801968 0.794903 0.425025
0.803037 0.794324 0.422019
