bundles/resolve-cinematic-luts/Phantom Luts/Fx6 Phntm Film LUTs-G5/ATOMOS Monitor LUTs/Eterna Fx6 AML.cube
TITLE "Generated by Resolve"
LUT_3D_SIZE 5
0.0639811 0.089189 0.089189
0.156619 0.103883 0.100542
0.428107 0.144945 0.189029
0.677516 0.174151 0.326299
0.695445 0.162097 0.359243
0.100526 0.188098 0.12723
0.173754 0.187488 0.118502
0.479088 0.15111 0.160555
0.684245 0.183642 0.279973
0.703685 0.178958 0.305409
0.191455 0.655131 0.343969
0.179248 0.689555 0.337255
0.616403 0.644709 0.224567
0.896193 0.620951 0.308904
0.893065 0.590249 0.300587
0.376532 0.892592 0.574701
0.372915 0.892409 0.555962
0.39704 0.878981 0.421012
0.906233 0.903563 0.580285
0.916655 0.906325 0.600565
0.370596 0.895735 0.595804
0.379095 0.892073 0.578332
0.365118 0.881224 0.497993
0.836439 0.889128 0.521416
0.915984 0.910689 0.631785
0.0656443 0.0995651 0.130251
0.161593 0.105318 0.140703
0.417441 0.135866 0.219013
0.686046 0.162463 0.359045
0.695521 0.151858 0.388586
0.0993515 0.175372 0.159121
0.166644 0.17586 0.173648
0.467552 0.14757 0.208637
0.689784 0.167941 0.344045
0.693446 0.157671 0.372
0.173205 0.625559 0.37818
0.163897 0.657649 0.362036
0.599069 0.629145 0.217914
0.894774 0.608209 0.304829
0.8916 0.57052 0.297169
0.380682 0.894881 0.62388
0.380056 0.893584 0.601938
0.395682 0.880385 0.440192
0.904112 0.903838 0.583658
0.915938 0.904692 0.592691
0.378912 0.897688 0.656504
0.386633 0.893874 0.633631
0.374334 0.884306 0.512642
0.825071 0.887663 0.524834
0.915679 0.911009 0.635843
0.0963607 0.14551 0.352743
0.185092 0.129458 0.387732
0.481025 0.149737 0.344884
0.67602 0.156725 0.40737
0.713405 0.155566 0.473045
0.081651 0.169604 0.267201
0.0777447 0.170092 0.358968
0.499474 0.152026 0.396811
0.694621 0.161791 0.453315
0.729641 0.168841 0.531991
0.156069 0.582422 0.489632
0.144732 0.608667 0.53608
0.57055 0.594827 0.558526
0.919509 0.520195 0.565347
0.913573 0.458274 0.579248
0.412848 0.895796 0.745708
0.388708 0.900969 0.753017
0.471931 0.897597 0.656428
0.89749 0.895811 0.681132
0.918532 0.891859 0.714763
0.426535 0.898848 0.797513
0.411826 0.9019 0.79736
0.432425 0.895521 0.702388
0.82443 0.895811 0.700542
0.917891 0.91397 0.767437
0.10724 0.251591 0.65536
0.1523 0.259556 0.707988
0.559045 0.189929 0.7196
0.741253 0.184741 0.649973
0.744183 0.183627 0.659495
0.0967117 0.253193 0.588937
0.101915 0.271397 0.664439
0.499199 0.213016 0.756771
0.73344 0.190997 0.68455
0.738628 0.190967 0.717906
0.119997 0.55581 0.647196
0.109163 0.55996 0.67541
0.22443 0.533181 0.789837
0.894545 0.378744 0.787243
0.879774 0.331868 0.776471
0.434073 0.886229 0.832288
0.381231 0.885405 0.836042
0.383597 0.871794 0.815732
0.873472 0.878767 0.865202
0.92105 0.868757 0.863874
0.478202 0.887007 0.864027
0.456794 0.892271 0.874525
0.48957 0.898299 0.859525
0.86836 0.913649 0.895277
0.925109 0.918547 0.907546
0.127871 0.328786 0.750439
0.12813 0.324453 0.751186
0.502892 0.272984 0.838605
0.738094 0.197757 0.761608
0.738094 0.197757 0.761608
0.124926 0.33698 0.743816
0.125826 0.336996 0.746197
0.365133 0.266606 0.799512
0.738216 0.197864 0.761669
0.738094 0.197757 0.761608
0.149859 0.58352 0.777752
0.156374 0.585016 0.794903
0.152941 0.542367 0.8047
0.821027 0.35172 0.88632
0.783597 0.243397 0.801572
0.382055 0.872053 0.879408
0.358785 0.861341 0.877211
0.316396 0.825864 0.865202
0.72491 0.8421 0.898955
0.908507 0.830121 0.909209
0.359533 0.880491 0.883589
0.359533 0.880491 0.883589
0.426032 0.888548 0.88925
0.847013 0.90988 0.908812
0.922164 0.922103 0.922164
