bundles/resolve-cinematic-luts/Phantom Luts/Fx6 Phntm Film LUTs-G5/ATOMOS Monitor LUTs/Eterna Fx6-Legacy AML.cube
TITLE "Generated by Resolve"
LUT_3D_SIZE 9
0.0800946 0.103929 0.103975
0.0958877 0.106157 0.105058
0.142351 0.109483 0.103807
0.224308 0.122698 0.123568
0.373617 0.143359 0.170611
0.528969 0.161196 0.232853
0.639612 0.175189 0.287007
0.640314 0.171496 0.299214
0.658274 0.164828 0.315923
0.0847028 0.112062 0.107042
0.0874189 0.10956 0.106767
0.137362 0.113939 0.106645
0.234485 0.121126 0.116747
0.388907 0.147433 0.164477
0.564874 0.167193 0.233921
0.643168 0.17792 0.277562
0.643488 0.174838 0.287755
0.664363 0.167971 0.30454
0.10222 0.165911 0.123217
0.0970626 0.17052 0.119585
0.149218 0.165133 0.118929
0.269139 0.151461 0.127367
0.413855 0.143969 0.150088
0.567697 0.169436 0.21323
0.637232 0.179644 0.249271
0.646525 0.179644 0.259678
0.662043 0.176669 0.270024
0.130114 0.306218 0.178744
0.117174 0.328023 0.175204
0.121798 0.331731 0.147936
0.305455 0.326375 0.146441
0.560769 0.299275 0.182498
0.77351 0.299382 0.22977
0.774487 0.257465 0.239261
0.748211 0.233936 0.232517
0.728954 0.21503 0.227085
0.179568 0.602121 0.301305
0.166354 0.627985 0.302785
0.166003 0.638529 0.295598
0.209812 0.605097 0.189136
0.564569 0.596185 0.208499
0.82118 0.576165 0.263737
0.894667 0.554116 0.299184
0.892088 0.539254 0.295705
0.888869 0.521157 0.292103
0.327016 0.862821 0.482536
0.315862 0.873594 0.479957
0.309407 0.875563 0.471717
0.29929 0.861845 0.435843
0.526146 0.823606 0.348348
0.777096 0.821393 0.354726
0.911162 0.816114 0.403983
0.910933 0.794079 0.387869
0.910323 0.776257 0.376043
0.352178 0.893523 0.532921
0.349233 0.893172 0.525307
0.346136 0.891539 0.51284
0.338674 0.886061 0.483696
0.373205 0.877836 0.391852
0.729885 0.880461 0.472297
0.903548 0.903624 0.536782
0.917556 0.90695 0.575784
0.916075 0.906126 0.558083
0.353628 0.894057 0.546777
0.354376 0.89337 0.539498
0.360281 0.890471 0.52958
0.355398 0.885817 0.502144
0.346151 0.873671 0.438514
0.647715 0.877958 0.447196
0.869245 0.894743 0.502647
0.920226 0.905989 0.587518
0.917266 0.907912 0.585107
0.342763 0.897627 0.552895
0.343771 0.896757 0.545159
0.352926 0.893645 0.536675
0.357092 0.887984 0.512688
0.344594 0.877623 0.45948
0.54377 0.880339 0.40882
0.80177 0.884504 0.481468
0.918212 0.906798 0.57113
0.914809 0.909255 0.581155
0.0803998 0.104173 0.106859
0.0953841 0.10631 0.110536
0.135897 0.108919 0.115877
0.216083 0.119753 0.140124
0.370138 0.139116 0.183886
0.528771 0.154131 0.243839
0.653452 0.16846 0.305241
0.650538 0.165316 0.316182
0.663951 0.159457 0.331594
0.0836194 0.108156 0.10692
0.0846113 0.10631 0.106783
0.139086 0.111589 0.11284
0.235065 0.123751 0.132982
0.388464 0.140917 0.1785
0.562097 0.158846 0.246647
0.657618 0.170443 0.29778
0.656214 0.166995 0.3093
0.669215 0.161654 0.323186
0.100252 0.160433 0.1337
0.0959335 0.164599 0.127016
0.146181 0.161868 0.119905
0.274952 0.145937 0.128817
0.40415 0.140078 0.153475
0.573648 0.16643 0.224689
0.656916 0.177447 0.268635
0.657969 0.175692 0.278218
0.669184 0.171954 0.288457
0.125063 0.300191 0.189593
0.117403 0.318685 0.183185
0.119356 0.329763 0.167407
0.302617 0.323766 0.14612
0.546426 0.294682 0.180072
0.768185 0.297932 0.226764
0.771939 0.252857 0.238697
0.740276 0.22678 0.230152
0.717494 0.205386 0.223239
0.173007 0.590402 0.307805
0.15906 0.610178 0.304479
0.159854 0.620676 0.2925
0.193027 0.598657 0.19646
0.55639 0.590127 0.205371
0.815274 0.572839 0.259403
0.894301 0.553872 0.298512
0.89163 0.538399 0.294942
0.887999 0.517861 0.290547
0.31577 0.855406 0.486015
0.307195 0.867201 0.483009
0.299977 0.867048 0.467826
0.288594 0.851652 0.425849
0.515206 0.819699 0.342535
0.772366 0.817945 0.350225
0.910277 0.812116 0.398642
0.910491 0.791531 0.384512
0.909957 0.773785 0.373617
0.35172 0.894591 0.546365
0.349676 0.894697 0.53872
0.347738 0.893187 0.52314
0.339315 0.886305 0.484642
0.375494 0.878141 0.394049
0.725093 0.880278 0.471321
0.902754 0.903929 0.538399
0.917403 0.906828 0.57499
0.915938 0.905898 0.557061
0.354986 0.894911 0.5626
0.356802 0.893751 0.554299
0.361395 0.891402 0.541497
0.356374 0.886473 0.505394
0.350851 0.874311 0.435157
0.642985 0.877943 0.445426
0.86595 0.894057 0.502419
0.920195 0.90605 0.588693
0.917189 0.908003 0.585946
0.345022 0.898344 0.570077
0.345983 0.897383 0.561624
0.355215 0.893858 0.550027
0.358679 0.889128 0.520363
0.344091 0.877302 0.458137
0.549935 0.880476 0.411475
0.796841 0.88394 0.480964
0.918181 0.906752 0.569467
0.914824 0.909285 0.582406
0.0808423 0.105715 0.126192
0.0996719 0.108095 0.137255
0.143923 0.110948 0.132403
0.219638 0.119478 0.150164
0.36321 0.136858 0.192432
0.518608 0.1514 0.250751
0.649042 0.16527 0.316304
0.645014 0.161608 0.328115
0.658701 0.155886 0.343664
0.0839857 0.110094 0.114565
0.0810254 0.10692 0.130373
0.142077 0.11162 0.135561
0.229801 0.120485 0.15111
0.374182 0.137972 0.19266
0.535256 0.153048 0.255421
0.649851 0.164797 0.317479
0.646876 0.160739 0.33051
0.659922 0.1552 0.345663
0.101015 0.157046 0.144274
0.0970016 0.159518 0.149722
0.143862 0.156924 0.155001
0.273594 0.145647 0.157198
0.406271 0.146044 0.186084
0.561639 0.160357 0.248936
0.651835 0.169711 0.302388
0.648096 0.166217 0.314244
0.656992 0.16112 0.328405
0.124758 0.290486 0.206546
0.117388 0.310689 0.211002
0.118929 0.321126 0.191653
0.300877 0.320226 0.150591
0.55256 0.281422 0.187793
0.762066 0.278981 0.23238
0.727596 0.212482 0.234989
0.694835 0.195621 0.228992
0.668757 0.181353 0.225284
0.165316 0.572229 0.332021
0.153338 0.592767 0.337285
0.154437 0.604471 0.317403
0.157946 0.590356 0.225559
0.547158 0.580118 0.20296
0.808515 0.558221 0.258762
0.892317 0.540017 0.295979
0.88922 0.523934 0.292531
0.885008 0.501045 0.288319
0.299931 0.838437 0.50454
0.289082 0.849088 0.504479
0.280797 0.84744 0.482551
0.270573 0.828733 0.419013
0.481178 0.807889 0.327764
0.75874 0.804776 0.339315
0.908339 0.799039 0.389105
0.910109 0.780453 0.377417
0.909102 0.761624 0.365728
0.357015 0.89575 0.580941
0.3523 0.896727 0.576272
0.352117 0.895476 0.559319
0.345525 0.890166 0.506279
0.370413 0.879164 0.408072
0.712367 0.880278 0.474479
0.899107 0.903059 0.537316
0.917327 0.906203 0.571786
0.915709 0.904845 0.551766
0.35938 0.896284 0.60264
0.354543 0.897078 0.595636
0.366262 0.893019 0.580285
0.362539 0.890883 0.538018
0.349813 0.876066 0.448692
0.633219 0.878325 0.444785
0.857511 0.891997 0.503639
0.920577 0.905913 0.591791
0.91751 0.907851 0.589303
0.349401 0.899687 0.612207
0.347631 0.89958 0.604257
0.358251 0.89572 0.590234
0.363119 0.892012 0.55581
0.350698 0.881285 0.472389
0.553674 0.880354 0.416846
0.787564 0.882948 0.484581
0.918273 0.906874 0.574762
0.914534 0.90956 0.58468
0.0859846 0.114626 0.182376
0.101915 0.114076 0.203464
0.150408 0.115251 0.19443
0.243732 0.124239 0.182605
0.376867 0.136629 0.218448
0.524834 0.148791 0.27361
0.640574 0.160571 0.331411
0.637797 0.157 0.343755
0.652323 0.150225 0.365408
0.0828565 0.116213 0.159594
0.0827649 0.117678 0.186542
0.13547 0.116243 0.220066
0.249454 0.124895 0.193957
0.376242 0.136156 0.220905
0.528267 0.148013 0.281697
0.639124 0.158083 0.339712
0.63888 0.154131 0.356252
0.655222 0.148714 0.38114
0.0993973 0.153765 0.164935
0.0925154 0.15465 0.184771
0.0942092 0.142916 0.221942
0.26804 0.129809 0.218647
0.394675 0.139925 0.233082
0.538811 0.14966 0.292042
0.634241 0.15758 0.342702
0.634089 0.155154 0.358236
0.649973 0.1514 0.380621
0.127535 0.278431 0.236011
0.121523 0.293675 0.253834
0.122652 0.303563 0.266194
0.306249 0.317143 0.2981
0.568856 0.287068 0.29691
0.728786 0.234806 0.315358
0.70837 0.185306 0.323842
0.675151 0.172519 0.326925
0.663844 0.163668 0.333974
0.158618 0.548898 0.376242
0.145296 0.569894 0.398596
0.148684 0.581506 0.401495
0.152987 0.577783 0.32105
0.534081 0.5691 0.254978
0.809522 0.539956 0.325795
0.904631 0.509941 0.351064
0.90338 0.493126 0.35375
0.900023 0.471 0.350835
0.280873 0.815625 0.546532
0.267048 0.823133 0.555428
0.258427 0.818982 0.543496
0.254322 0.809827 0.481529
0.355322 0.799741 0.346624
0.739315 0.785183 0.344182
0.909789 0.769619 0.411307
0.911879 0.752667 0.403265
0.911192 0.736324 0.391485
0.370871 0.895994 0.640665
0.353582 0.900679 0.644114
0.355001 0.899794 0.632776
0.35671 0.89604 0.584833
0.368536 0.889158 0.480812
0.670146 0.882506 0.485191
0.88957 0.900404 0.53901
0.917266 0.903426 0.56376
0.916106 0.900084 0.545846
0.36614 0.899351 0.670985
0.357275 0.901549 0.669871
0.362799 0.899138 0.65658
0.370947 0.894026 0.614359
0.370474 0.888838 0.509377
0.571832 0.883299 0.464225
0.828977 0.885924 0.514214
0.921355 0.905592 0.597757
0.917876 0.907851 0.597375
0.356405 0.902815 0.683848
0.354711 0.902937 0.679911
0.354406 0.902083 0.668269
0.371878 0.895308 0.631891
0.371649 0.893584 0.545968
0.491569 0.886595 0.464775
0.762051 0.882826 0.504936
0.913527 0.905562 0.57644
0.914977 0.909529 0.593118
0.0980545 0.138445 0.303487
0.112779 0.137636 0.330434
0.157855 0.127367 0.335286
0.266331 0.129458 0.307942
0.417029 0.144411 0.2907
0.549477 0.147387 0.323323
0.633066 0.155459 0.355749
0.643137 0.154406 0.376822
0.677653 0.152377 0.417334
0.0843214 0.138247 0.259068
0.0867475 0.141924 0.292683
0.123018 0.132815 0.330343
0.258137 0.130388 0.334905
0.415061 0.144198 0.302846
0.554665 0.148089 0.336538
0.643961 0.154696 0.377279
0.672389 0.157824 0.416602
0.705898 0.157107 0.463462
0.0928054 0.150912 0.225864
0.0854963 0.151614 0.2598
0.0817578 0.150881 0.305791
0.235203 0.133196 0.373144
0.43331 0.146334 0.336675
0.562707 0.150515 0.352453
0.658183 0.158633 0.399252
0.68397 0.163256 0.438834
0.710857 0.163012 0.481376
0.122942 0.259113 0.27715
0.113161 0.270344 0.306127
0.107881 0.281483 0.340215
0.159075 0.269932 0.414816
0.519753 0.224475 0.428397
0.627909 0.185885 0.390509
0.66331 0.162936 0.387503
0.6692 0.163226 0.407218
0.691417 0.161089 0.437095
0.154681 0.526009 0.434684
0.141329 0.540963 0.460548
0.14258 0.552956 0.481117
0.144091 0.546593 0.476738
0.517937 0.542153 0.505745
0.81912 0.522805 0.510918
0.91519 0.474296 0.51841
0.913115 0.450904 0.528862
0.908385 0.413291 0.530068
0.268132 0.785931 0.593332
0.244785 0.793683 0.608377
0.236057 0.78912 0.611337
0.233677 0.779019 0.583398
0.389593 0.787945 0.526772
0.716747 0.764965 0.495521
0.906325 0.743862 0.547723
0.917113 0.740734 0.560449
0.917311 0.727443 0.554772
0.377981 0.898589 0.704051
0.361196 0.903349 0.714061
0.353292 0.903792 0.710231
0.358022 0.898268 0.672526
0.429892 0.900832 0.61004
0.616159 0.892195 0.586679
0.88986 0.894926 0.634134
0.920516 0.891127 0.674311
0.918502 0.888441 0.667781
0.381109 0.901778 0.746029
0.373831 0.903975 0.751949
0.364981 0.905364 0.746456
0.367971 0.901747 0.708843
0.418662 0.898299 0.636683
0.605447 0.897871 0.62417
0.820981 0.889647 0.634134
0.922332 0.90779 0.718181
0.919097 0.91014 0.726284
0.387472 0.901869 0.762463
0.379751 0.90399 0.766827
0.369894 0.905516 0.761593
0.366812 0.903578 0.729747
0.396399 0.898238 0.658869
0.587533 0.902052 0.638361
0.783078 0.892668 0.647227
0.910109 0.905821 0.68716
0.916777 0.911009 0.714061
0.10988 0.17435 0.443015
0.115358 0.180316 0.477089
0.156252 0.16492 0.486198
0.284474 0.148836 0.481147
0.448798 0.144549 0.459083
0.62562 0.156466 0.437949
0.689082 0.163043 0.446235
0.696132 0.164721 0.45948
0.717205 0.162829 0.492988
0.0875257 0.175723 0.401724
0.0892195 0.182956 0.438102
0.122042 0.175601 0.47306
0.242023 0.150866 0.487938
0.446555 0.146777 0.485786
0.631586 0.157366 0.460838
0.702449 0.166354 0.473396
0.713756 0.16965 0.502556
0.734981 0.16939 0.553933
0.0859846 0.17821 0.350072
0.0803998 0.186419 0.392401
0.0828717 0.185763 0.432135
0.183505 0.154101 0.479683
0.446387 0.150683 0.520531
0.628946 0.159213 0.479301
0.702968 0.171313 0.485832
0.714382 0.175784 0.524987
0.730846 0.176165 0.583154
0.102937 0.261219 0.35816
0.0902724 0.266453 0.389914
0.0887617 0.27158 0.426505
0.089601 0.254475 0.477104
0.409277 0.175845 0.568429
0.609003 0.157153 0.482643
0.698665 0.170535 0.464546
0.710643 0.174701 0.496895
0.727337 0.175036 0.541543
0.153857 0.498756 0.49987
0.13933 0.50518 0.523308
0.1364 0.513451 0.547219
0.12726 0.508888 0.572915
0.372503 0.496727 0.66807
0.779934 0.457572 0.66125
0.904372 0.403189 0.641123
0.89807 0.369009 0.641382
0.889906 0.33579 0.645747
0.257038 0.762341 0.650584
0.231495 0.764141 0.662821
0.223072 0.758511 0.668132
0.218143 0.747097 0.662486
0.371893 0.747356 0.666636
0.698543 0.727428 0.687404
0.910796 0.713054 0.691081
0.923125 0.688914 0.691737
0.923079 0.676173 0.694987
0.388006 0.897734 0.763668
0.371756 0.901686 0.77261
0.357366 0.899855 0.772366
0.341512 0.892668 0.749554
0.433387 0.887816 0.720775
0.657633 0.889158 0.722423
0.87538 0.883116 0.722927
0.919005 0.878279 0.759136
0.917708 0.875608 0.764645
0.426932 0.897398 0.805615
0.403265 0.903975 0.817288
0.394736 0.905898 0.818769
0.387671 0.905867 0.797269
0.45565 0.903975 0.75404
0.670726 0.90576 0.76141
0.80589 0.898512 0.754101
0.923415 0.909361 0.80885
0.925307 0.911284 0.836988
0.415366 0.901457 0.827253
0.408865 0.90341 0.834928
0.402762 0.905425 0.837324
0.395041 0.905653 0.820493
0.424048 0.904555 0.772686
0.665644 0.906065 0.786007
0.805097 0.903655 0.79292
0.91284 0.908629 0.807202
0.921782 0.912657 0.834653
0.101534 0.223209 0.586679
0.101167 0.238148 0.626139
0.129244 0.233753 0.654871
0.258244 0.185336 0.634424
0.491554 0.174502 0.659449
0.664149 0.164889 0.626474
0.727275 0.179583 0.600427
0.726329 0.179736 0.601373
0.732769 0.177676 0.615747
0.0911879 0.221668 0.554833
0.0931106 0.234058 0.592233
0.101457 0.236515 0.627878
0.203159 0.202441 0.643915
0.474037 0.184344 0.689708
0.661952 0.166827 0.653056
0.724743 0.182406 0.642939
0.726314 0.182086 0.654948
0.73019 0.181445 0.681392
0.0919966 0.220783 0.504891
0.0906081 0.231083 0.546899
0.0927138 0.236454 0.587167
0.12575 0.223499 0.625391
0.42948 0.192035 0.698817
0.650339 0.166903 0.671321
0.716396 0.186343 0.647242
0.716426 0.186954 0.658091
0.722255 0.185428 0.690242
0.0923934 0.267491 0.477012
0.0907759 0.270695 0.506462
0.0916457 0.270344 0.537606
0.0930495 0.264469 0.57351
0.293843 0.188052 0.643015
0.61207 0.166934 0.677974
0.722347 0.184497 0.617441
0.720256 0.185611 0.613733
0.728664 0.183566 0.652583
0.120439 0.501671 0.592096
0.105135 0.506294 0.612146
0.0971542 0.508553 0.627466
0.0926833 0.503853 0.648249
0.186404 0.484718 0.752941
0.672435 0.42916 0.861784
0.884794 0.339559 0.743404
0.885634 0.338796 0.718547
0.865766 0.299779 0.728054
0.243473 0.735561 0.709865
0.221668 0.731044 0.719173
0.215717 0.717693 0.71873
0.211337 0.702159 0.720867
0.237339 0.686137 0.749538
0.594339 0.686992 0.821668
0.894301 0.662226 0.812222
0.919493 0.6365 0.800092
0.918776 0.617609 0.806317
0.400214 0.890684 0.815167
0.366827 0.895186 0.823178
0.348165 0.887953 0.817517
0.327504 0.875395 0.803677
0.344305 0.86865 0.790845
0.638239 0.872038 0.82269
0.857069 0.867857 0.84506
0.923339 0.85626 0.841337
0.921874 0.851896 0.844602
0.437736 0.894179 0.846998
0.413413 0.899886 0.856977
0.408347 0.901289 0.857939
0.405447 0.903181 0.848981
0.452827 0.907179 0.831327
0.690135 0.909483 0.85655
0.839551 0.911254 0.867704
0.923781 0.912154 0.877302
0.92781 0.913359 0.891417
0.432639 0.893294 0.860929
0.418601 0.896208 0.868818
0.41236 0.897536 0.872175
0.410483 0.899168 0.866102
0.442451 0.904936 0.848798
0.695659 0.909606 0.873014
0.838529 0.912276 0.883925
0.905257 0.912734 0.883558
0.922576 0.915846 0.895003
0.116457 0.291341 0.708186
0.11725 0.296483 0.716091
0.118563 0.289937 0.719005
0.197436 0.266743 0.75024
0.482307 0.239506 0.81117
0.670848 0.192325 0.755276
0.721736 0.190158 0.745373
0.722316 0.189883 0.743755
0.722194 0.189242 0.73756
0.108721 0.28127 0.691875
0.115663 0.299489 0.713436
0.117388 0.295674 0.716609
0.136965 0.282582 0.72842
0.440909 0.243198 0.804639
0.683513 0.209171 0.783612
0.719829 0.191791 0.754376
0.719554 0.191913 0.754757
0.720058 0.191577 0.751598
0.101061 0.271427 0.659251
0.106798 0.286 0.686549
0.113909 0.297749 0.708293
0.117617 0.295399 0.717205
0.367605 0.238178 0.779355
0.673609 0.217258 0.795438
0.719036 0.192248 0.756512
0.719234 0.192142 0.7561
0.719036 0.192248 0.756436
0.0946365 0.286732 0.599329
0.0965744 0.294835 0.627527
0.0998398 0.297627 0.656687
0.105547 0.299718 0.684321
0.164569 0.27396 0.737179
0.602625 0.235798 0.822995
0.721401 0.191882 0.752087
0.722408 0.190967 0.747433
0.723339 0.190372 0.743786
0.100633 0.518364 0.680171
0.10695 0.520577 0.696025
0.112505 0.51603 0.711025
0.117372 0.505165 0.725902
0.132296 0.480842 0.767147
0.516503 0.436149 0.89308
0.835386 0.317647 0.857527
0.813596 0.264698 0.795972
0.805447 0.251621 0.781353
0.23386 0.71989 0.777493
0.229862 0.714458 0.78378
0.222034 0.702586 0.783612
0.209842 0.686488 0.781186
0.186725 0.659281 0.781338
0.4813 0.663157 0.882658
0.826688 0.650446 0.914137
0.917327 0.596735 0.891264
0.917205 0.598871 0.885252
0.375036 0.878813 0.853422
0.353429 0.875792 0.855985
0.338277 0.865415 0.850675
0.318456 0.8477 0.839933
0.30602 0.824491 0.832059
0.533806 0.833219 0.868421
0.777707 0.8448 0.895262
0.915572 0.828168 0.893614
0.916411 0.8215 0.889921
0.429587 0.891051 0.876997
0.414786 0.894591 0.881788
0.41352 0.894942 0.881392
0.413779 0.896147 0.876783
0.431678 0.900389 0.866545
0.642222 0.904997 0.882628
0.830839 0.910735 0.901732
0.915663 0.91664 0.91397
0.923384 0.915129 0.912993
0.426978 0.887953 0.881544
0.410712 0.892576 0.888624
0.408804 0.89308 0.889784
0.412528 0.892851 0.88658
0.436988 0.897475 0.877394
0.674296 0.905501 0.892409
0.847089 0.911147 0.907088
0.910597 0.917586 0.914992
0.925032 0.917357 0.913787
0.117906 0.295338 0.717983
0.118074 0.294621 0.718273
0.118593 0.289357 0.718975
0.168978 0.274784 0.742123
0.435065 0.24239 0.802396
0.679698 0.212604 0.788754
0.719051 0.192248 0.756542
0.719051 0.192248 0.756542
0.719036 0.192233 0.756527
0.116045 0.297307 0.714076
0.116258 0.297032 0.714473
0.117739 0.295659 0.717556
0.126207 0.285069 0.72282
0.382452 0.239384 0.785367
0.674281 0.217578 0.796002
0.719051 0.192248 0.756542
0.719051 0.192248 0.756542
0.719051 0.192248 0.756542
0.113176 0.298573 0.706661
0.113375 0.298924 0.70753
0.114717 0.299626 0.711055
0.117067 0.296391 0.716091
0.306371 0.237858 0.762966
0.648066 0.227878 0.811917
0.719203 0.192355 0.756603
0.719051 0.192248 0.756542
0.719036 0.192233 0.756527
0.107713 0.321401 0.697673
0.112154 0.329778 0.711208
0.117159 0.332769 0.72343
0.115068 0.32018 0.716274
0.117556 0.294041 0.716838
0.538689 0.241062 0.823285
0.719722 0.192721 0.756786
0.719799 0.192752 0.756817
0.719753 0.192737 0.756802
0.132204 0.534798 0.751507
0.136797 0.538521 0.762493
0.141558 0.537423 0.774533
0.144533 0.52874 0.786175
0.1411 0.492592 0.787778
0.392309 0.421576 0.885283
0.782635 0.314778 0.871382
0.776944 0.238849 0.799283
0.76492 0.228534 0.790753
0.234989 0.721904 0.820294
0.229496 0.717525 0.821775
0.22005 0.708446 0.821073
0.201816 0.690623 0.815656
0.177371 0.659144 0.813092
0.344533 0.646113 0.893156
0.705745 0.640131 0.910552
0.913268 0.57612 0.915831
0.913405 0.556695 0.915541
0.350805 0.867933 0.877699
0.343481 0.862287 0.877241
0.331777 0.852827 0.874495
0.31722 0.836713 0.869459
0.293355 0.806394 0.860822
0.377035 0.815167 0.892821
0.672618 0.82179 0.901778
0.901411 0.822232 0.91165
0.912123 0.797848 0.912123
0.354742 0.885283 0.886992
0.356527 0.885267 0.887144
0.361013 0.886015 0.887892
0.364233 0.887007 0.887892
0.416312 0.893202 0.889769
0.532891 0.895048 0.89398
0.720348 0.89958 0.903258
0.877485 0.90602 0.911498
0.916518 0.912123 0.916518
0.335622 0.879759 0.882872
0.335622 0.879759 0.882872
0.335622 0.879759 0.882872
0.335622 0.879759 0.882872
0.386069 0.891386 0.891218
0.574456 0.900236 0.896361
0.809323 0.908568 0.908156
0.908049 0.91664 0.916701
0.919951 0.919951 0.919951
