bundles/resolve-cinematic-luts/Phantom Luts/Fx6 Phntm Film LUTs-G5/ATOMOS Monitor LUTs/Eterna Fx6-Legacy AML.cube
TITLE "Generated by Resolve"
LUT_3D_SIZE 33
0.0800946 0.103929 0.103975
0.0800946 0.103929 0.103975
0.0810559 0.104158 0.103899
0.0873732 0.105226 0.104982
0.0958877 0.106157 0.105058
0.10721 0.107042 0.104128
0.118715 0.107683 0.103258
0.129747 0.108461 0.103075
0.142351 0.109483 0.103807
0.15639 0.111788 0.106767
0.174273 0.114717 0.110918
0.19646 0.118456 0.116228
0.224308 0.122698 0.123568
0.25771 0.127398 0.1337
0.295369 0.133089 0.145602
0.33463 0.138643 0.158251
0.373617 0.143359 0.170611
0.41268 0.147784 0.18381
0.451392 0.15201 0.197925
0.489021 0.15642 0.214008
0.528969 0.161196 0.232853
0.589685 0.169436 0.258076
0.627253 0.174502 0.274723
0.640665 0.17612 0.283803
0.639612 0.175189 0.287007
0.638788 0.17438 0.290013
0.63827 0.17348 0.293004
0.638575 0.172656 0.295888
0.640314 0.171496 0.299214
0.643397 0.170153 0.302922
0.648066 0.168368 0.307332
0.652949 0.166613 0.311543
0.658274 0.164828 0.315923
0.0811017 0.103441 0.102342
0.0803845 0.103777 0.103502
0.0805829 0.103975 0.103746
0.0847486 0.105013 0.10428
0.0926528 0.106355 0.104616
0.104173 0.107439 0.104204
0.116884 0.108171 0.103105
0.129351 0.108705 0.102083
0.14255 0.109834 0.102464
0.156985 0.1122 0.105104
0.17525 0.115465 0.109545
0.197284 0.119081 0.115068
0.22504 0.122942 0.121798
0.258824 0.12784 0.130938
0.296773 0.133486 0.143191
0.336645 0.139147 0.155795
0.375769 0.143862 0.168307
0.415579 0.148119 0.181613
0.454429 0.15285 0.196338
0.493584 0.157641 0.212894
0.535637 0.162646 0.23212
0.598871 0.171496 0.25835
0.633188 0.176104 0.274464
0.641215 0.176837 0.281193
0.640452 0.175921 0.284398
0.639582 0.175097 0.287419
0.639216 0.174243 0.290288
0.639673 0.173281 0.293172
0.641077 0.172213 0.296452
0.644236 0.170779 0.300252
0.648814 0.169024 0.304646
0.654154 0.167269 0.308843
0.65951 0.165576 0.312963
0.0810254 0.103471 0.102449
0.080354 0.103792 0.103532
0.0802014 0.103868 0.103792
0.0827649 0.104784 0.104234
0.0892958 0.106416 0.104967
0.0989395 0.107698 0.105104
0.112016 0.108843 0.104311
0.126162 0.109621 0.103243
0.140856 0.11046 0.102953
0.15729 0.111955 0.104067
0.176684 0.114275 0.10721
0.200397 0.117983 0.113146
0.228199 0.122438 0.120439
0.260426 0.127932 0.128817
0.298375 0.133867 0.140551
0.339193 0.139849 0.153872
0.379705 0.144625 0.166812
0.418631 0.148791 0.179904
0.458427 0.153719 0.19498
0.498421 0.158755 0.212177
0.544656 0.16434 0.232242
0.606897 0.173022 0.258366
0.639155 0.1776 0.274327
0.642008 0.177432 0.279225
0.641062 0.176608 0.282139
0.64036 0.175784 0.285008
0.640055 0.17496 0.287846
0.64062 0.173999 0.290806
0.64213 0.172885 0.29395
0.645243 0.171527 0.297658
0.64979 0.169802 0.302129
0.655131 0.168048 0.306264
0.66067 0.166278 0.310521
0.0817426 0.105028 0.103441
0.0810101 0.105257 0.104189
0.0810101 0.105028 0.104326
0.0818799 0.105165 0.104433
0.0861372 0.106584 0.105165
0.0934005 0.107958 0.105653
0.105974 0.10959 0.10544
0.122393 0.111086 0.105089
0.139147 0.111742 0.104707
0.157168 0.113191 0.105379
0.178256 0.115114 0.107698
0.202472 0.117632 0.111528
0.231067 0.121431 0.117815
0.265064 0.126802 0.126696
0.302892 0.133349 0.137972
0.343542 0.140871 0.152163
0.383642 0.145846 0.165576
0.422705 0.149142 0.178378
0.462287 0.15407 0.193545
0.503166 0.159503 0.210681
0.553216 0.16611 0.232456
0.611627 0.174273 0.257359
0.642802 0.17879 0.272999
0.642664 0.178073 0.27686
0.641978 0.17734 0.279774
0.641169 0.176608 0.282307
0.640894 0.175814 0.285023
0.641474 0.174899 0.287953
0.64329 0.173785 0.291264
0.646342 0.172412 0.294621
0.650797 0.170748 0.29897
0.656397 0.168963 0.303166
0.662577 0.167102 0.307652
0.0847028 0.112062 0.107042
0.0838331 0.111894 0.107057
0.0838941 0.111223 0.106813
0.0846113 0.109499 0.106508
0.0874189 0.10956 0.106767
0.092546 0.11046 0.10695
0.102251 0.111849 0.106477
0.1187 0.11339 0.106371
0.137362 0.113939 0.106645
0.156802 0.114855 0.107454
0.178988 0.116487 0.109102
0.204776 0.118456 0.112032
0.234485 0.121126 0.116747
0.268879 0.125399 0.123888
0.308125 0.131685 0.134951
0.348241 0.140261 0.149599
0.388907 0.147433 0.164477
0.42855 0.15021 0.177417
0.468223 0.153994 0.192752
0.510002 0.159655 0.210513
0.564874 0.167193 0.233921
0.618219 0.174945 0.25684
0.643702 0.179141 0.270237
0.643534 0.178531 0.273899
0.643168 0.17792 0.277562
0.642496 0.177279 0.279927
0.641917 0.176669 0.282063
0.64213 0.175845 0.284749
0.643488 0.174838 0.287755
0.646799 0.17351 0.291218
0.651377 0.171954 0.295155
0.657481 0.170031 0.299748
0.664363 0.167971 0.30454
0.0879835 0.122057 0.111208
0.0868086 0.121889 0.110643
0.0863355 0.121569 0.110018
0.0877089 0.119646 0.109163
0.0909285 0.117647 0.108965
0.0966201 0.118227 0.109483
0.105898 0.118395 0.109178
0.120912 0.118929 0.108385
0.139834 0.118471 0.108827
0.158953 0.119127 0.109941
0.183108 0.119905 0.112169
0.208194 0.120134 0.114366
0.238941 0.122286 0.118257
0.27361 0.12546 0.12282
0.312322 0.130159 0.131716
0.353414 0.137667 0.145602
0.394293 0.14696 0.16199
0.433661 0.152529 0.176516
0.474418 0.154788 0.19147
0.517266 0.159686 0.209812
0.576272 0.167712 0.234684
0.628046 0.175189 0.257481
0.649546 0.178363 0.269398
0.648905 0.177783 0.273106
0.648356 0.177279 0.276478
0.647959 0.176822 0.279377
0.647456 0.176379 0.281498
0.646983 0.175814 0.283604
0.647578 0.175128 0.285695
0.64976 0.174075 0.288563
0.654047 0.17261 0.29218
0.660105 0.170764 0.296529
0.666957 0.16875 0.30132
0.0912947 0.134829 0.114916
0.0900587 0.13492 0.114214
0.0889754 0.134798 0.113558
0.0893873 0.133959 0.112322
0.0937667 0.130709 0.11223
0.0995041 0.129046 0.112108
0.110216 0.129305 0.111849
0.126314 0.12871 0.111299
0.144091 0.126207 0.110491
0.163607 0.126085 0.110536
0.190265 0.127108 0.113222
0.215412 0.126421 0.115373
0.246128 0.126558 0.119234
0.278599 0.127413 0.122881
0.31667 0.13109 0.129717
0.356512 0.136324 0.140673
0.39733 0.144427 0.156756
0.436088 0.153124 0.172946
0.475288 0.156741 0.187716
0.516457 0.160861 0.206165
0.577768 0.169512 0.2309
0.628565 0.176837 0.253223
0.646906 0.179217 0.26389
0.64828 0.178897 0.268177
0.648432 0.178256 0.271687
0.648447 0.177707 0.274495
0.648386 0.177218 0.277134
0.648417 0.176852 0.27924
0.648707 0.176379 0.281117
0.649882 0.175784 0.283085
0.652262 0.174838 0.285573
0.65597 0.173632 0.28835
0.660533 0.172259 0.29131
0.0982834 0.148516 0.11693
0.0958419 0.149752 0.116976
0.0935378 0.150591 0.11667
0.0928054 0.151019 0.116045
0.0955673 0.149722 0.115068
0.100725 0.145968 0.115206
0.11133 0.144686 0.115816
0.128344 0.145632 0.115068
0.148531 0.143526 0.115145
0.168887 0.139422 0.114748
0.194629 0.138231 0.11632
0.224979 0.137911 0.119326
0.259022 0.136721 0.123003
0.292348 0.135119 0.127001
0.326436 0.13492 0.132204
0.364675 0.137636 0.13991
0.403723 0.14197 0.150988
0.441764 0.148608 0.16582
0.477653 0.156054 0.1823
0.518181 0.162112 0.200519
0.577752 0.170413 0.224948
0.626764 0.1776 0.246082
0.641871 0.179751 0.255619
0.645426 0.179675 0.259815
0.647715 0.179492 0.263554
0.648478 0.179278 0.266377
0.648692 0.178882 0.268772
0.648951 0.17847 0.270939
0.649546 0.178027 0.272847
0.650797 0.177447 0.274876
0.653468 0.176516 0.277394
0.657221 0.175418 0.28014
0.662409 0.174014 0.283131
0.10222 0.165911 0.123217
0.100084 0.167544 0.123186
0.0979934 0.169085 0.122835
0.0966201 0.170123 0.121828
0.0970626 0.17052 0.119585
0.102113 0.168536 0.118578
0.110262 0.165194 0.119829
0.126818 0.163561 0.120836
0.149218 0.165133 0.118929
0.174426 0.162631 0.120134
0.200793 0.156619 0.121035
0.233341 0.151186 0.12314
0.269139 0.151461 0.127367
0.312566 0.152026 0.133394
0.346929 0.148699 0.138018
0.381674 0.145541 0.143526
0.413855 0.143969 0.150088
0.450324 0.146502 0.160159
0.48307 0.150713 0.172778
0.51519 0.157366 0.188724
0.567697 0.169436 0.21323
0.619348 0.177951 0.234562
0.628901 0.179187 0.240818
0.633509 0.17937 0.245167
0.637232 0.179644 0.249271
0.640879 0.179858 0.252583
0.643412 0.180087 0.255955
0.644984 0.179873 0.258076
0.646525 0.179644 0.259678
0.648936 0.179385 0.261921
0.652522 0.178866 0.264637
0.656886 0.177966 0.267002
0.662043 0.176669 0.270024
0.107607 0.18764 0.13286
0.10544 0.189731 0.131609
0.102785 0.191974 0.130877
0.101122 0.193606 0.129458
0.10045 0.194888 0.127184
0.102068 0.195514 0.123262
0.10988 0.193164 0.122652
0.123644 0.189609 0.126131
0.146227 0.187701 0.127825
0.173556 0.189532 0.12398
0.207858 0.186313 0.125978
0.243168 0.176532 0.128893
0.280766 0.169818 0.133089
0.324712 0.17171 0.138918
0.371969 0.173358 0.14609
0.416709 0.171878 0.153094
0.451667 0.165164 0.159396
0.472862 0.156161 0.163653
0.496895 0.15227 0.170596
0.522881 0.153338 0.180697
0.547356 0.158968 0.193729
0.604212 0.175143 0.21915
0.608331 0.17583 0.222431
0.610697 0.176242 0.224292
0.616175 0.178225 0.228321
0.620157 0.178698 0.231495
0.623133 0.179004 0.233906
0.625437 0.178927 0.235721
0.627863 0.179141 0.237781
0.631037 0.179004 0.239918
0.635172 0.178607 0.242298
0.640177 0.177676 0.244694
0.645914 0.176638 0.247257
0.114199 0.217121 0.145449
0.111711 0.219928 0.144274
0.108843 0.223056 0.143465
0.106798 0.225254 0.141482
0.105776 0.227131 0.138994
0.105394 0.228138 0.134112
0.106767 0.228626 0.128267
0.119478 0.225681 0.128115
0.141833 0.222156 0.133639
0.169986 0.219715 0.136141
0.204898 0.221988 0.130861
0.251728 0.219272 0.13434
0.297566 0.207568 0.140276
0.341466 0.198337 0.145754
0.391257 0.201785 0.153597
0.447242 0.205859 0.163165
0.501198 0.207584 0.172427
0.543572 0.202365 0.179629
0.571221 0.189166 0.184955
0.574838 0.168566 0.185657
0.58143 0.161822 0.193118
0.601007 0.164965 0.205463
0.596551 0.166155 0.208164
0.597452 0.167666 0.209812
0.59794 0.168032 0.210315
0.599588 0.168933 0.211505
0.599741 0.168902 0.211902
0.599512 0.168994 0.212024
0.599542 0.1691 0.212146
0.600458 0.168994 0.212482
0.602777 0.168582 0.213153
0.606546 0.167987 0.214206
0.61178 0.167407 0.215885
0.121706 0.255222 0.161074
0.118776 0.259098 0.159564
0.115007 0.262806 0.158251
0.113024 0.266148 0.156832
0.111833 0.269917 0.155901
0.111589 0.27219 0.152422
0.111833 0.273762 0.146853
0.113939 0.273045 0.137301
0.132586 0.269108 0.134997
0.16492 0.265797 0.14255
0.201968 0.263478 0.148058
0.249134 0.267201 0.140139
0.312352 0.266423 0.143069
0.366583 0.256458 0.151324
0.417075 0.242618 0.161181
0.470359 0.244541 0.16994
0.532021 0.248081 0.179217
0.595468 0.251118 0.188418
0.647776 0.250095 0.196048
0.690898 0.240436 0.2065
0.694591 0.217472 0.212116
0.684718 0.196323 0.214679
0.669947 0.182223 0.213291
0.658457 0.174594 0.210056
0.649516 0.170275 0.208698
0.642222 0.166781 0.207599
0.63331 0.163195 0.205997
0.623774 0.160616 0.204669
0.615427 0.15938 0.204135
0.609369 0.158785 0.203983
0.607248 0.159335 0.205035
0.607996 0.159075 0.205844
0.612009 0.158633 0.206912
0.130114 0.306218 0.178744
0.125521 0.311894 0.177218
0.121599 0.317937 0.177096
0.119097 0.323018 0.17612
0.117174 0.328023 0.175204
0.117006 0.331807 0.17319
0.116777 0.33434 0.170413
0.117311 0.334401 0.163424
0.121798 0.331731 0.147936
0.149874 0.326101 0.141482
0.193011 0.323537 0.151705
0.243763 0.321431 0.160739
0.305455 0.326375 0.146441
0.382879 0.327276 0.147311
0.443091 0.320241 0.156176
0.504021 0.303731 0.172137
0.560769 0.299275 0.182498
0.614633 0.298589 0.190082
0.687633 0.301518 0.202823
0.741772 0.302831 0.215366
0.77351 0.299382 0.22977
0.785382 0.285924 0.238361
0.786969 0.271519 0.242115
0.780789 0.26392 0.240772
0.774487 0.257465 0.239261
0.768154 0.251347 0.237644
0.761624 0.244923 0.23595
0.754879 0.239353 0.234211
0.748211 0.233936 0.232517
0.741955 0.229007 0.230869
0.735988 0.22388 0.229114
0.731502 0.219364 0.228
0.728954 0.21503 0.227085
0.136736 0.371786 0.19823
0.13228 0.378408 0.19765
0.12842 0.384863 0.19733
0.124651 0.390661 0.19646
0.12192 0.396445 0.195453
0.119844 0.401022 0.193423
0.119036 0.405402 0.192096
0.11873 0.407477 0.189151
0.119722 0.404868 0.1794
0.127092 0.399893 0.155993
0.169146 0.391852 0.145693
0.227649 0.388846 0.16141
0.293645 0.385901 0.172671
0.36878 0.39295 0.148547
0.452232 0.394553 0.151278
0.517006 0.391669 0.161242
0.584192 0.375891 0.179034
0.651926 0.36408 0.196994
0.695293 0.36257 0.20415
0.756542 0.357855 0.219684
0.803525 0.358618 0.239704
0.830457 0.359243 0.254841
0.838483 0.351995 0.258961
0.837507 0.349233 0.258244
0.835492 0.345724 0.256641
0.834073 0.342214 0.256077
0.832288 0.338796 0.255253
0.830594 0.335012 0.254337
0.829114 0.331792 0.253849
0.827283 0.327932 0.252995
0.82594 0.325063 0.252628
0.824506 0.321645 0.252293
0.823392 0.318151 0.251789
0.140597 0.447761 0.222995
0.135836 0.455207 0.222797
0.131914 0.461936 0.222568
0.128298 0.467857 0.221942
0.125872 0.473487 0.221088
0.124331 0.478416 0.219516
0.123934 0.482597 0.217716
0.123659 0.485191 0.215839
0.123476 0.485313 0.211429
0.124559 0.480949 0.194583
0.136843 0.472786 0.162066
0.197589 0.463066 0.154681
0.275761 0.458656 0.178439
0.355322 0.455329 0.186755
0.435004 0.463539 0.160098
0.518288 0.465919 0.16553
0.584115 0.464103 0.179217
0.64889 0.453315 0.194629
0.721431 0.435996 0.216007
0.76788 0.430335 0.22826
0.810895 0.423468 0.243183
0.843626 0.418982 0.260731
0.862654 0.414405 0.273396
0.861799 0.411032 0.273106
0.860746 0.408316 0.272496
0.859937 0.405951 0.272068
0.859236 0.403372 0.271519
0.858259 0.400687 0.271046
0.857267 0.397391 0.270436
0.855772 0.39408 0.269444
0.854932 0.390799 0.269169
0.853452 0.387457 0.267994
0.852872 0.384466 0.267659
0.154208 0.525643 0.25687
0.151308 0.533227 0.257816
0.147448 0.539864 0.25803
0.143603 0.546044 0.258152
0.140917 0.5514 0.257832
0.13991 0.556374 0.257282
0.139544 0.559777 0.255543
0.140185 0.562402 0.2533
0.140185 0.563226 0.250507
0.139773 0.561456 0.242832
0.140703 0.553811 0.216434
0.161944 0.541161 0.170901
0.249699 0.531456 0.177569
0.342992 0.525292 0.206195
0.425147 0.522759 0.205432
0.502235 0.531106 0.182712
0.581933 0.5346 0.189319
0.64715 0.532525 0.203418
0.708431 0.525551 0.217197
0.775799 0.507164 0.237964
0.827604 0.495491 0.25687
0.861204 0.49247 0.272831
0.87631 0.490333 0.28159
0.881697 0.484794 0.286046
0.880796 0.480735 0.285328
0.880018 0.476585 0.284962
0.878981 0.472633 0.28426
0.877745 0.468086 0.28336
0.877134 0.463996 0.282918
0.875502 0.459205 0.281651
0.874968 0.455024 0.281422
0.873594 0.450584 0.280278
0.872938 0.447181 0.27985
0.179568 0.602121 0.301305
0.176913 0.609461 0.30222
0.172625 0.615976 0.302235
0.16939 0.622614 0.302953
0.166354 0.627985 0.302785
0.165545 0.633127 0.302892
0.16553 0.636088 0.302113
0.165835 0.637919 0.299443
0.166003 0.638529 0.295598
0.165591 0.637476 0.290333
0.164813 0.632151 0.276081
0.166476 0.621256 0.238056
0.209812 0.605097 0.189136
0.320851 0.596078 0.212177
0.415869 0.590341 0.23714
0.491737 0.587655 0.227481
0.564569 0.596185 0.208499
0.639628 0.598947 0.215534
0.703914 0.595941 0.231189
0.762356 0.59144 0.245014
0.82118 0.576165 0.263737
0.867674 0.561807 0.284367
0.891081 0.557733 0.299016
0.89546 0.5579 0.300572
0.894667 0.554116 0.299184
0.894179 0.550362 0.29839
0.893736 0.547524 0.297734
0.892836 0.543465 0.296559
0.892088 0.539254 0.295705
0.891234 0.53431 0.294911
0.89044 0.529885 0.294011
0.889387 0.525154 0.292775
0.888869 0.521157 0.292103
0.208789 0.676966 0.347845
0.206439 0.684199 0.34902
0.202579 0.691157 0.349584
0.199359 0.69749 0.34966
0.196674 0.703029 0.349905
0.195956 0.707546 0.350057
0.196399 0.710857 0.349645
0.196765 0.712337 0.34728
0.196948 0.71252 0.343633
0.196872 0.711254 0.337621
0.195193 0.706294 0.328038
0.194018 0.696956 0.304311
0.199802 0.68098 0.250446
0.283223 0.667063 0.221439
0.399374 0.658976 0.251255
0.483482 0.652613 0.267552
0.553826 0.6495 0.252888
0.622171 0.65803 0.237781
0.693462 0.66009 0.245792
0.756817 0.656046 0.263935
0.809613 0.652064 0.277745
0.856825 0.64155 0.292317
0.889677 0.630014 0.307729
0.903136 0.623438 0.317708
0.902785 0.620706 0.317067
0.902434 0.617456 0.315862
0.902037 0.61387 0.314717
0.901473 0.609888 0.313298
0.901061 0.605585 0.312184
0.900542 0.601129 0.310903
0.900053 0.596613 0.309606
0.899748 0.592691 0.308858
0.899062 0.589014 0.307378
0.241764 0.751339 0.394324
0.24152 0.757473 0.395163
0.239658 0.763699 0.396033
0.236606 0.769024 0.396094
0.234333 0.773816 0.396338
0.233616 0.777707 0.396338
0.23328 0.779934 0.395605
0.233967 0.780835 0.393988
0.233829 0.780621 0.390173
0.233387 0.779171 0.384405
0.231617 0.774548 0.374838
0.229206 0.767315 0.361929
0.227878 0.75436 0.326452
0.25005 0.735866 0.263005
0.372457 0.72636 0.261677
0.471992 0.719402 0.289509
0.547311 0.712627 0.299413
0.61178 0.708553 0.284352
0.676295 0.716838 0.272847
0.744686 0.718898 0.282521
0.805234 0.714168 0.301656
0.849882 0.711391 0.315297
0.883619 0.703807 0.325734
0.903395 0.694423 0.334371
0.906355 0.685863 0.334966
0.90576 0.681376 0.332891
0.905364 0.677546 0.331456
0.905196 0.673365 0.330007
0.90486 0.668849 0.328313
0.904784 0.664179 0.327016
0.904601 0.659815 0.325933
0.904418 0.655497 0.324758
0.90428 0.65156 0.323934
0.28278 0.813367 0.438987
0.283619 0.817838 0.440162
0.282048 0.822431 0.440604
0.27982 0.82739 0.441093
0.277134 0.831464 0.44094
0.275181 0.834607 0.440497
0.274083 0.836301 0.439384
0.273686 0.836881 0.437705
0.273014 0.836408 0.433982
0.271824 0.834867 0.428977
0.26981 0.831083 0.420264
0.266682 0.82501 0.408927
0.263157 0.816068 0.389899
0.265751 0.800641 0.340703
0.323186 0.786709 0.287694
0.455909 0.780209 0.30602
0.537682 0.772915 0.327764
0.604273 0.76669 0.331258
0.665309 0.763958 0.319173
0.727443 0.771893 0.312078
0.792844 0.774716 0.324117
0.846799 0.770779 0.343084
0.881056 0.768902 0.355245
0.902022 0.763317 0.362188
0.909178 0.754314 0.363851
0.90927 0.747646 0.360601
0.908904 0.74258 0.357748
0.908553 0.737682 0.354864
0.90808 0.732479 0.352224
0.90779 0.728023 0.34995
0.907622 0.722988 0.347677
0.907256 0.718364 0.345922
0.906996 0.71397 0.343786
0.327016 0.862821 0.482536
0.325933 0.865141 0.482338
0.323293 0.867994 0.48188
0.319463 0.871 0.481086
0.315862 0.873594 0.479957
0.313191 0.875227 0.478965
0.311559 0.876204 0.477348
0.310353 0.876204 0.47509
0.309407 0.875563 0.471717
0.307851 0.874235 0.467369
0.305638 0.871809 0.46038
0.302586 0.867658 0.449485
0.29929 0.861845 0.435843
0.295995 0.852506 0.409827
0.309194 0.837308 0.350729
0.410391 0.83003 0.322789
0.526146 0.823606 0.348348
0.597757 0.817365 0.367208
0.657176 0.813321 0.365789
0.716533 0.811948 0.356466
0.777096 0.821393 0.354726
0.836423 0.825284 0.369909
0.879835 0.821897 0.389212
0.901228 0.820249 0.399405
0.911162 0.816114 0.403983
0.912215 0.809583 0.401144
0.911757 0.80415 0.396139
0.91136 0.799161 0.391669
0.910933 0.794079 0.387869
0.910826 0.789288 0.38439
0.910552 0.784695 0.381384
0.910475 0.780179 0.378668
0.910323 0.776257 0.376043
0.36112 0.886687 0.514
0.359518 0.887098 0.512505
0.356359 0.887663 0.510735
0.352789 0.888334 0.508721
0.349401 0.888975 0.506493
0.346639 0.889418 0.504524
0.344991 0.889403 0.502281
0.344015 0.88896 0.499397
0.343053 0.888289 0.496162
0.342 0.887648 0.491997
0.340108 0.886397 0.486397
0.337926 0.884459 0.478035
0.335363 0.881605 0.466087
0.333013 0.878111 0.453574
0.340505 0.872511 0.421042
0.373312 0.861509 0.367239
0.506355 0.858381 0.367773
0.595529 0.853788 0.393423
0.659953 0.849577 0.410895
0.713863 0.847669 0.406912
0.771542 0.848707 0.401419
0.828382 0.860624 0.40824
0.87599 0.865064 0.428275
0.90341 0.861036 0.444968
0.915114 0.860731 0.454231
0.917082 0.856794 0.454215
0.916777 0.85243 0.449149
0.915877 0.848463 0.44332
0.915175 0.844663 0.437568
0.91429 0.840787 0.43154
0.913649 0.837446 0.426734
0.913252 0.834028 0.422751
0.912978 0.83032 0.418753
0.362158 0.888273 0.52163
0.360082 0.888548 0.519844
0.356924 0.889097 0.517861
0.353506 0.889784 0.515938
0.350423 0.890303 0.513558
0.347753 0.890593 0.511299
0.346105 0.890501 0.508812
0.345129 0.89012 0.505501
0.344442 0.88954 0.502113
0.343221 0.888548 0.497337
0.34165 0.887663 0.491707
0.339193 0.885893 0.483833
0.336461 0.883146 0.472663
0.333684 0.879942 0.459037
0.333303 0.875639 0.437873
0.362051 0.875334 0.402914
0.438209 0.875868 0.380957
0.578164 0.874723 0.41004
0.649744 0.872572 0.436881
0.707424 0.871565 0.44773
0.76054 0.871733 0.445975
0.817349 0.876768 0.446265
0.864668 0.888228 0.460716
0.897063 0.889494 0.481865
0.914778 0.889937 0.499962
0.918563 0.888808 0.504768
0.918563 0.886595 0.50132
0.918029 0.884016 0.494636
0.917281 0.881575 0.487724
0.916823 0.878996 0.481102
0.916045 0.875837 0.474388
0.915602 0.872969 0.469093
0.91545 0.870436 0.46482
0.361135 0.889998 0.528298
0.359335 0.890242 0.52665
0.356359 0.89073 0.524636
0.353185 0.891264 0.522164
0.350439 0.89163 0.519753
0.348257 0.891783 0.517357
0.346807 0.891691 0.514656
0.345983 0.891249 0.511666
0.34519 0.890547 0.507637
0.344457 0.889723 0.502815
0.342718 0.888502 0.496483
0.340505 0.887175 0.489265
0.33785 0.884733 0.479011
0.335241 0.881621 0.464332
0.331777 0.877638 0.447578
0.349432 0.876951 0.41677
0.398856 0.878813 0.38793
0.524453 0.881209 0.403723
0.628992 0.879789 0.439353
0.693492 0.879408 0.463722
0.747204 0.880476 0.472877
0.801709 0.883177 0.475013
0.852705 0.892256 0.484382
0.887343 0.89926 0.505257
0.90901 0.902876 0.532479
0.917952 0.905303 0.553033
0.918441 0.904921 0.553704
0.917906 0.904128 0.546349
0.917067 0.902525 0.536767
0.916259 0.900832 0.52842
0.915709 0.899245 0.521737
0.915602 0.897795 0.516732
0.915373 0.896239 0.512078
0.352178 0.893523 0.532921
0.35201 0.893324 0.53138
0.351507 0.893187 0.529244
0.350484 0.893217 0.527276
0.349233 0.893172 0.525307
0.348013 0.893034 0.522789
0.347066 0.89276 0.520088
0.346365 0.892302 0.516915
0.346136 0.891539 0.51284
0.345083 0.890608 0.507668
0.343755 0.889555 0.501228
0.341558 0.888258 0.493629
0.338674 0.886061 0.483696
0.336202 0.883024 0.469917
0.332509 0.879438 0.454475
0.341314 0.877211 0.427756
0.373205 0.877836 0.391852
0.471443 0.881285 0.390951
0.601434 0.880629 0.427482
0.672068 0.879957 0.457023
0.729885 0.880461 0.472297
0.782925 0.882124 0.478279
0.837064 0.888823 0.488121
0.879652 0.899016 0.510872
0.903548 0.903624 0.536782
0.91545 0.905165 0.559991
0.918715 0.90663 0.578134
0.918257 0.906905 0.581323
0.917556 0.90695 0.575784
0.91696 0.90692 0.56994
0.916442 0.906737 0.565072
0.916152 0.906462 0.561395
0.916075 0.906126 0.558083
0.349737 0.894606 0.537179
0.349859 0.894438 0.535424
0.349844 0.89424 0.533669
0.349462 0.894163 0.531838
0.348699 0.894072 0.529488
0.347875 0.894011 0.527291
0.347158 0.893721 0.525002
0.346731 0.893217 0.521675
0.346288 0.892424 0.517433
0.345632 0.891524 0.5122
0.344549 0.890303 0.505455
0.342397 0.88896 0.49778
0.339422 0.887297 0.488579
0.336767 0.88452 0.475715
0.333059 0.881117 0.459983
0.335698 0.877913 0.43769
0.360037 0.877897 0.402579
0.427436 0.880644 0.385199
0.568063 0.881697 0.41529
0.647272 0.88069 0.447013
0.710018 0.880735 0.468452
0.763226 0.88188 0.475883
0.818921 0.886091 0.483085
0.868742 0.896223 0.501945
0.897261 0.903181 0.528328
0.912535 0.904311 0.549798
0.918654 0.9066 0.57467
0.918379 0.90721 0.586069
0.917723 0.907576 0.585061
0.917205 0.907866 0.583169
0.916777 0.90808 0.581521
0.916579 0.908202 0.58053
0.916533 0.908217 0.580118
0.349844 0.894759 0.54081
0.349813 0.894682 0.539178
0.349599 0.894621 0.537438
0.34905 0.894682 0.535363
0.348013 0.894774 0.533303
0.346792 0.894804 0.531075
0.34609 0.894728 0.52845
0.345754 0.894347 0.525673
0.345602 0.893553 0.521477
0.345388 0.892485 0.516258
0.344701 0.891249 0.509972
0.343236 0.889906 0.502083
0.340307 0.88838 0.492622
0.336996 0.885832 0.480964
0.333669 0.88275 0.465217
0.331823 0.879332 0.446067
0.348943 0.878294 0.414191
0.396521 0.879911 0.38703
0.515953 0.882292 0.400748
0.619562 0.88159 0.435264
0.687297 0.881117 0.462425
0.742184 0.882155 0.473045
0.797528 0.883986 0.478859
0.854978 0.893004 0.492622
0.889357 0.902632 0.519585
0.907973 0.902968 0.538994
0.918517 0.906523 0.569436
0.918334 0.90721 0.585367
0.917723 0.907591 0.585275
0.91725 0.907897 0.584924
0.916976 0.908049 0.584237
0.917006 0.908019 0.583352
0.917174 0.907866 0.582956
0.35288 0.894087 0.543862
0.353658 0.893736 0.542321
0.354635 0.893355 0.540764
0.355627 0.892973 0.539178
0.356542 0.892622 0.537255
0.357946 0.892073 0.535119
