bundles/resolve-cinematic-luts/Phantom Luts/Fx6 Phntm Film LUTs-G5/ATOMOS Monitor LUTs/Eterna Fx6-Legacy AML.cube
TITLE "Generated by Resolve"
LUT_3D_SIZE 5
0.0800946 0.103929 0.103975
0.142351 0.109483 0.103807
0.373617 0.143359 0.170611
0.639612 0.175189 0.287007
0.658274 0.164828 0.315923
0.10222 0.165911 0.123217
0.149218 0.165133 0.118929
0.413855 0.143969 0.150088
0.637232 0.179644 0.249271
0.662043 0.176669 0.270024
0.179568 0.602121 0.301305
0.166003 0.638529 0.295598
0.564569 0.596185 0.208499
0.894667 0.554116 0.299184
0.888869 0.521157 0.292103
0.352178 0.893523 0.532921
0.346136 0.891539 0.51284
0.373205 0.877836 0.391852
0.903548 0.903624 0.536782
0.916075 0.906126 0.558083
0.342763 0.897627 0.552895
0.352926 0.893645 0.536675
0.344594 0.877623 0.45948
0.80177 0.884504 0.481468
0.914809 0.909255 0.581155
0.0808423 0.105715 0.126192
0.143923 0.110948 0.132403
0.36321 0.136858 0.192432
0.649042 0.16527 0.316304
0.658701 0.155886 0.343664
0.101015 0.157046 0.144274
0.143862 0.156924 0.155001
0.406271 0.146044 0.186084
0.651835 0.169711 0.302388
0.656992 0.16112 0.328405
0.165316 0.572229 0.332021
0.154437 0.604471 0.317403
0.547158 0.580118 0.20296
0.892317 0.540017 0.295979
0.885008 0.501045 0.288319
0.357015 0.89575 0.580941
0.352117 0.895476 0.559319
0.370413 0.879164 0.408072
0.899107 0.903059 0.537316
0.915709 0.904845 0.551766
0.349401 0.899687 0.612207
0.358251 0.89572 0.590234
0.350698 0.881285 0.472389
0.787564 0.882948 0.484581
0.914534 0.90956 0.58468
0.0980545 0.138445 0.303487
0.157855 0.127367 0.335286
0.417029 0.144411 0.2907
0.633066 0.155459 0.355749
0.677653 0.152377 0.417334
0.0928054 0.150912 0.225864
0.0817578 0.150881 0.305791
0.43331 0.146334 0.336675
0.658183 0.158633 0.399252
0.710857 0.163012 0.481376
0.154681 0.526009 0.434684
0.14258 0.552956 0.481117
0.517937 0.542153 0.505745
0.91519 0.474296 0.51841
0.908385 0.413291 0.530068
0.377981 0.898589 0.704051
0.353292 0.903792 0.710231
0.429892 0.900832 0.61004
0.88986 0.894926 0.634134
0.918502 0.888441 0.667781
0.387472 0.901869 0.762463
0.369894 0.905516 0.761593
0.396399 0.898238 0.658869
0.783078 0.892668 0.647227
0.916777 0.911009 0.714061
0.101534 0.223209 0.586679
0.129244 0.233753 0.654871
0.491554 0.174502 0.659449
0.727275 0.179583 0.600427
0.732769 0.177676 0.615747
0.0919966 0.220783 0.504891
0.0927138 0.236454 0.587167
0.42948 0.192035 0.698817
0.716396 0.186343 0.647242
0.722255 0.185428 0.690242
0.120439 0.501671 0.592096
0.0971542 0.508553 0.627466
0.186404 0.484718 0.752941
0.884794 0.339559 0.743404
0.865766 0.299779 0.728054
0.400214 0.890684 0.815167
0.348165 0.887953 0.817517
0.344305 0.86865 0.790845
0.857069 0.867857 0.84506
0.921874 0.851896 0.844602
0.432639 0.893294 0.860929
0.41236 0.897536 0.872175
0.442451 0.904936 0.848798
0.838529 0.912276 0.883925
0.922576 0.915846 0.895003
0.117906 0.295338 0.717983
0.118593 0.289357 0.718975
0.435065 0.24239 0.802396
0.719051 0.192248 0.756542
0.719036 0.192233 0.756527
0.113176 0.298573 0.706661
0.114717 0.299626 0.711055
0.306371 0.237858 0.762966
0.719203 0.192355 0.756603
0.719036 0.192233 0.756527
0.132204 0.534798 0.751507
0.141558 0.537423 0.774533
0.1411 0.492592 0.787778
0.782635 0.314778 0.871382
0.76492 0.228534 0.790753
0.350805 0.867933 0.877699
0.331777 0.852827 0.874495
0.293355 0.806394 0.860822
0.672618 0.82179 0.901778
0.912123 0.797848 0.912123
0.335622 0.879759 0.882872
0.335622 0.879759 0.882872
0.386069 0.891386 0.891218
0.809323 0.908568 0.908156
0.919951 0.919951 0.919951
