bundles/resolve-cinematic-luts/Phantom Luts/Fx6 Phntm Film LUTs-G5/ATOMOS Monitor LUTs/Eterna Fx6 AML.cube
TITLE "Generated by Resolve"
LUT_3D_SIZE 33
0.0639811 0.089189 0.089189
0.0640421 0.0891432 0.0890516
0.0680705 0.0899062 0.0892348
0.0792554 0.0921492 0.0928359
0.0954299 0.094255 0.0934768
0.111803 0.0968032 0.0940414
0.12604 0.0987716 0.0943618
0.140276 0.100969 0.0966812
0.156619 0.103883 0.100542
0.176425 0.1075 0.105989
0.200992 0.111818 0.112932
0.229343 0.116335 0.120836
0.263859 0.121386 0.130999
0.302708 0.127306 0.144396
0.344244 0.133867 0.159014
0.386542 0.140078 0.173892
0.428107 0.144945 0.189029
0.468009 0.148592 0.20441
0.507393 0.152224 0.221744
0.546105 0.156771 0.241779
0.58555 0.161242 0.264866
0.641016 0.169543 0.294133
0.670726 0.174624 0.313451
0.679011 0.17554 0.322744
0.677516 0.174151 0.326299
0.676478 0.173129 0.329595
0.675914 0.172305 0.332631
0.67602 0.171099 0.335912
0.677333 0.169665 0.339559
0.680507 0.168017 0.343923
0.684932 0.166079 0.348791
0.689998 0.164096 0.353719
0.695445 0.162097 0.359243
0.0647746 0.088777 0.087892
0.0642405 0.0890516 0.0886854
0.0657816 0.0894484 0.0887922
0.0762646 0.0925612 0.0901045
0.0907607 0.0948348 0.0911421
0.107744 0.0967575 0.0920882
0.12462 0.0988022 0.0931258
0.140215 0.100999 0.095079
0.156863 0.103944 0.0983749
0.17702 0.107576 0.103105
0.201678 0.112322 0.109636
0.230243 0.116991 0.117342
0.265095 0.121767 0.127031
0.304906 0.127443 0.14052
0.346731 0.134295 0.155749
0.38938 0.140612 0.17113
0.430579 0.145342 0.185748
0.471214 0.149386 0.201526
0.510872 0.153353 0.219455
0.551171 0.15819 0.24036
0.592218 0.162936 0.264012
0.649973 0.172107 0.29456
0.675166 0.176211 0.312215
0.679988 0.176547 0.319982
0.678691 0.175189 0.32372
0.677409 0.174029 0.32668
0.676783 0.173022 0.329961
0.677211 0.172122 0.332967
0.678782 0.170718 0.336996
0.68188 0.169039 0.341146
0.686198 0.167071 0.346365
0.691768 0.165118 0.351125
0.697444 0.163165 0.356176
0.0646983 0.0888228 0.0879835
0.0641794 0.0890822 0.0888075
0.0641794 0.0890822 0.0888075
0.0724651 0.0924849 0.0902571
0.0846571 0.0958572 0.0917067
0.10042 0.0977035 0.0926223
0.118959 0.099382 0.0931716
0.136553 0.100832 0.0943008
0.155322 0.102846 0.0965133
0.177157 0.105959 0.100465
0.203464 0.110063 0.106752
0.233646 0.114885 0.114458
0.268498 0.120653 0.123552
0.307698 0.127672 0.136126
0.34992 0.135042 0.152316
0.394034 0.141253 0.168399
0.435935 0.146136 0.183673
0.475517 0.149645 0.198886
0.515618 0.154223 0.217212
0.556359 0.159503 0.239216
0.601221 0.164904 0.264073
0.657572 0.174121 0.294545
0.679896 0.178286 0.311727
0.681086 0.177554 0.317357
0.679637 0.176196 0.320882
0.678523 0.17496 0.324331
0.677836 0.173861 0.327169
0.678019 0.172778 0.330526
0.67982 0.171603 0.334066
0.683391 0.170001 0.338552
0.687816 0.168063 0.343633
0.693248 0.166079 0.348516
0.699138 0.164034 0.353704
0.0665293 0.0924239 0.0906844
0.0659648 0.0928969 0.0907912
0.066865 0.0924392 0.0904555
0.0710155 0.0938277 0.0912032
0.0791028 0.0974899 0.0927596
0.091722 0.0993362 0.0933852
0.111238 0.10071 0.094789
0.132525 0.102815 0.0965438
0.153628 0.104753 0.0986801
0.177829 0.107027 0.101396
0.205631 0.11014 0.106264
0.236301 0.114 0.111971
0.272038 0.118929 0.12018
0.312352 0.126055 0.132021
0.355215 0.13518 0.14844
0.39939 0.14342 0.166064
0.442512 0.147585 0.18204
0.48246 0.149737 0.197024
0.523705 0.154345 0.216098
0.565148 0.159701 0.238666
0.613489 0.166323 0.265309
0.664591 0.175051 0.29395
0.685756 0.179187 0.310903
0.684443 0.177951 0.315496
0.682841 0.176852 0.319066
0.681315 0.175738 0.322087
0.680217 0.174685 0.325063
0.680186 0.173617 0.327901
0.681361 0.172381 0.331273
0.684428 0.170779 0.33547
0.689219 0.168963 0.340139
0.694865 0.166964 0.345663
0.701183 0.164874 0.350896
0.0726635 0.107149 0.0984054
0.0714885 0.106996 0.0977646
0.072755 0.105776 0.0962539
0.0762341 0.102968 0.0950332
0.0809491 0.10312 0.0957656
0.0894331 0.104051 0.0964065
0.10573 0.104295 0.0966201
0.12845 0.105898 0.0983444
0.15288 0.107927 0.100923
0.178378 0.109255 0.103822
0.207935 0.111513 0.107454
0.240742 0.114656 0.112505
0.27689 0.118563 0.11841
0.316823 0.123949 0.127306
0.359991 0.132723 0.142473
0.404776 0.144106 0.162371
0.447532 0.150851 0.179614
0.488502 0.151598 0.194873
0.529915 0.15462 0.213657
0.573297 0.160006 0.237598
0.626978 0.167361 0.26656
0.673274 0.175372 0.294392
0.691402 0.179019 0.309743
0.690517 0.177722 0.314488
0.689632 0.17644 0.318822
0.688411 0.175479 0.322362
0.687373 0.174502 0.325109
0.68661 0.173526 0.32781
0.686519 0.172549 0.330602
0.688151 0.171435 0.333303
0.691691 0.169894 0.337438
0.697169 0.167926 0.342351
0.703731 0.165774 0.347723
0.0789349 0.123781 0.105409
0.0776379 0.123537 0.104341
0.0770123 0.122972 0.103365
0.0809491 0.119249 0.101152
0.0862287 0.115831 0.100954
0.0960555 0.116732 0.101854
0.111208 0.116701 0.102403
0.132631 0.115404 0.102495
0.157137 0.116091 0.104295
0.183474 0.116609 0.106981
0.215351 0.117006 0.110674
0.246555 0.117021 0.114488
0.283894 0.120272 0.119142
0.322988 0.124178 0.125307
0.364538 0.13019 0.136095
0.410208 0.14139 0.156268
0.45452 0.153109 0.177493
0.493217 0.155642 0.192721
0.533898 0.156725 0.210407
0.577264 0.161257 0.234394
0.634012 0.169497 0.264973
0.676829 0.176959 0.291661
0.692866 0.179919 0.306294
0.691829 0.178775 0.310857
0.690791 0.177646 0.314885
0.68954 0.176669 0.318334
0.688304 0.175921 0.321141
0.68748 0.175036 0.323934
0.687633 0.174136 0.326207
0.689723 0.172824 0.329549
0.693858 0.171176 0.333715
0.700084 0.169039 0.339086
0.70663 0.166918 0.344457
0.0851453 0.143145 0.111589
0.08365 0.143557 0.109926
0.0818036 0.143572 0.108705
0.0839399 0.142107 0.107118
0.0905623 0.136263 0.106477
0.100832 0.133806 0.106981
0.118242 0.135149 0.106142
0.140002 0.132601 0.106416
0.164019 0.129061 0.107088
0.190539 0.128618 0.108461
0.225559 0.12932 0.113268
0.256825 0.127031 0.116167
0.294209 0.127031 0.120974
0.330022 0.128161 0.126406
0.370367 0.132219 0.13402
0.413443 0.138903 0.148089
0.457847 0.150408 0.16997
0.497795 0.159228 0.189151
0.535042 0.15938 0.205585
0.576318 0.163104 0.228412
0.635584 0.172351 0.259709
0.6766 0.179553 0.285969
0.689937 0.181781 0.299107
0.690501 0.180819 0.30428
0.689921 0.179797 0.308232
0.689235 0.178927 0.311604
0.688655 0.178027 0.31458
0.688197 0.177249 0.317189
0.688075 0.176532 0.319448
0.689052 0.175692 0.321828
0.691417 0.174517 0.324865
0.69482 0.173205 0.328206
0.69955 0.171603 0.331899
0.093904 0.162463 0.116365
0.0916609 0.164218 0.115145
0.0888533 0.165454 0.114412
0.0882734 0.166308 0.113207
0.0927749 0.164172 0.110964
0.102708 0.158663 0.112154
0.120226 0.156649 0.114244
0.144106 0.15874 0.111666
0.171557 0.155398 0.113802
0.199939 0.148943 0.114855
0.233555 0.145464 0.117494
0.271977 0.14493 0.121828
0.312612 0.143404 0.126787
0.347814 0.140398 0.131441
0.383963 0.139101 0.137697
0.423713 0.141085 0.146349
0.465156 0.146853 0.161212
0.505089 0.155367 0.180179
0.541466 0.162661 0.200214
0.578286 0.164935 0.220172
0.636591 0.173892 0.251606
0.676249 0.181186 0.276738
0.686992 0.183032 0.288167
0.689357 0.182681 0.293751
0.690578 0.182147 0.298405
0.690913 0.181445 0.302144
0.6907 0.180728 0.305013
0.690593 0.180087 0.307408
0.690608 0.179492 0.309545
0.691691 0.178683 0.312047
0.693965 0.17763 0.31487
0.697887 0.176226 0.318181
0.702678 0.174746 0.321889
0.100526 0.188098 0.12723
0.0981308 0.190311 0.125338
0.0949569 0.192691 0.123598
0.0934615 0.1944 0.121981
0.0949874 0.195193 0.118364
0.104204 0.192493 0.116548
0.11931 0.187106 0.120317
0.143999 0.184894 0.122683
0.173754 0.187488 0.118502
0.209506 0.183185 0.12137
0.244251 0.173388 0.123919
0.285206 0.165896 0.127733
0.328099 0.166476 0.133242
0.374441 0.166049 0.139742
0.410468 0.160433 0.145373
0.446448 0.155077 0.152377
0.479088 0.15111 0.160555
0.515328 0.152438 0.171939
0.549477 0.158114 0.188296
0.580407 0.164721 0.207889
0.628305 0.173877 0.235233
0.671473 0.182574 0.260929
0.67892 0.183871 0.269581
0.681819 0.183627 0.274876
0.684245 0.183642 0.279973
0.686336 0.183612 0.284382
0.688121 0.183444 0.288228
0.689219 0.183185 0.290944
0.690303 0.182773 0.293431
0.692134 0.182223 0.295979
0.695079 0.181415 0.299123
0.699107 0.18024 0.302296
0.703685 0.178958 0.305409
0.108278 0.220661 0.142184
0.105608 0.223377 0.139574
0.102022 0.226352 0.136858
0.0989548 0.228504 0.133715
0.097673 0.230137 0.128267
0.101778 0.230976 0.12256
0.116228 0.227832 0.122881
0.139681 0.223072 0.129046
0.171878 0.220157 0.132418
0.209384 0.223133 0.125139
0.255787 0.218006 0.128725
0.300572 0.204669 0.13434
0.344793 0.194751 0.140337
0.39202 0.195224 0.14699
0.442023 0.196384 0.154452
0.48954 0.193759 0.163455
0.524559 0.183658 0.171572
0.544533 0.169467 0.177371
0.565774 0.160159 0.184405
0.59147 0.160449 0.197604
0.615778 0.16701 0.214145
0.666514 0.182391 0.242908
0.669398 0.182986 0.247135
0.669963 0.18294 0.249409
0.672389 0.183169 0.253437
0.675013 0.18349 0.257328
0.676829 0.183749 0.260243
0.678203 0.183886 0.263249
0.679591 0.184024 0.265736
0.681727 0.183703 0.267887
0.684871 0.183169 0.270756
0.689357 0.182361 0.273655
0.694575 0.181292 0.276844
0.115541 0.260624 0.159945
0.111971 0.263935 0.156863
0.108125 0.267811 0.154101
0.105272 0.270771 0.150774
0.102693 0.273228 0.146197
0.101762 0.274311 0.136934
0.106432 0.274678 0.127779
0.128939 0.271077 0.128344
0.163714 0.266285 0.13753
0.204135 0.26302 0.142672
0.251637 0.266453 0.130648
0.311574 0.261875 0.135149
0.366171 0.247974 0.144335
0.412894 0.234363 0.153201
0.464256 0.233387 0.161288
0.521691 0.234943 0.171267
0.576226 0.235264 0.180163
0.618357 0.228244 0.189029
0.64303 0.211139 0.197101
0.641688 0.185 0.200305
0.645289 0.173281 0.210254
0.66482 0.176669 0.226856
0.662684 0.17644 0.230915
0.664164 0.17818 0.232639
0.664988 0.178698 0.233448
0.666682 0.179355 0.235264
0.667826 0.179934 0.236454
0.668223 0.180529 0.237034
0.668238 0.181094 0.237186
0.668269 0.181353 0.237247
0.66894 0.181399 0.237446
0.670848 0.181109 0.238041
0.674372 0.180423 0.239322
0.120699 0.309743 0.177844
0.116747 0.314778 0.175051
0.112154 0.319661 0.172808
0.108492 0.323827 0.169558
0.106615 0.327718 0.16701
0.106065 0.330098 0.161532
0.106126 0.331411 0.151888
0.110521 0.330007 0.136294
0.142565 0.325109 0.133089
0.189548 0.319921 0.14464
0.241901 0.316106 0.152193
0.302296 0.32047 0.13431
0.377432 0.317388 0.136843
0.436637 0.304494 0.148028
0.491859 0.288426 0.163714
0.545419 0.2851 0.173175
0.605661 0.283528 0.184207
0.665919 0.284749 0.194949
0.711208 0.283696 0.204044
0.742199 0.273976 0.217639
0.739269 0.246937 0.225055
0.724147 0.218708 0.228229
0.709743 0.202716 0.22829
0.698283 0.192386 0.224979
0.68896 0.184604 0.223148
0.683986 0.180224 0.222965
0.678126 0.176043 0.222354
0.672068 0.172549 0.22179
0.667567 0.170413 0.22237
0.664103 0.169406 0.222889
0.663172 0.16994 0.224308
0.663523 0.170001 0.22504
0.666789 0.170016 0.2262
0.123445 0.367147 0.195727
0.117342 0.373907 0.193362
0.11223 0.380041 0.191592
0.109087 0.385397 0.189456
0.10663 0.390524 0.187335
0.105653 0.394171 0.184176
0.105928 0.396567 0.180011
0.107057 0.396033 0.169421
0.115068 0.392309 0.146136
0.159289 0.384527 0.135058
0.220035 0.380514 0.15108
0.287098 0.376135 0.161471
0.362127 0.382757 0.134218
0.445869 0.381277 0.137896
0.510002 0.373236 0.150423
0.574212 0.356237 0.171298
0.630198 0.350118 0.185412
0.681498 0.347738 0.195926
0.74165 0.340902 0.213428
0.780911 0.34258 0.226886
0.803525 0.338354 0.239338
0.811322 0.322164 0.245548
0.812131 0.30576 0.248493
0.806958 0.29749 0.246891
0.801587 0.290135 0.245823
0.796307 0.28275 0.244755
0.790951 0.275639 0.243473
0.785321 0.269184 0.242267
0.779507 0.262974 0.241077
0.773983 0.257191 0.239887
0.768933 0.251759 0.238575
0.765286 0.246921 0.237964
0.762936 0.24271 0.23769
0.125277 0.435172 0.217411
0.120745 0.442298 0.215976
0.115923 0.448402 0.214313
0.112444 0.454643 0.213184
0.108888 0.460136 0.210849
0.107134 0.464866 0.208713
0.1066 0.468986 0.206775
0.106874 0.470542 0.20267
0.108248 0.467353 0.187457
0.120287 0.461357 0.154574
0.181064 0.451774 0.139803
0.260578 0.446601 0.164141
0.343053 0.442115 0.174258
0.42533 0.450584 0.140932
0.511437 0.450904 0.14963
0.576089 0.447135 0.164416
0.642329 0.43331 0.185122
0.706569 0.422431 0.208057
0.744533 0.422629 0.216419
0.792905 0.413474 0.233845
0.826947 0.407462 0.251286
0.845701 0.398962 0.262654
0.854047 0.391928 0.266514
0.852323 0.388647 0.26482
0.850767 0.385489 0.26363
0.849393 0.382208 0.262531
0.84744 0.378408 0.261326
0.846281 0.374914 0.260746
0.844694 0.37084 0.259724
0.843687 0.367468 0.259449
0.842329 0.364141 0.258747
0.84097 0.360464 0.257939
0.840391 0.357549 0.257664
0.133425 0.50959 0.24889
0.129198 0.516899 0.248569
0.125307 0.522942 0.247608
0.122118 0.528969 0.246998
0.119829 0.534005 0.24593
0.118746 0.538964 0.244495
0.118944 0.542779 0.243
0.119097 0.544991 0.240085
0.119448 0.544579 0.233783
0.120806 0.539361 0.211337
0.137255 0.530022 0.165042
0.221027 0.519219 0.157214
0.319753 0.512688 0.190326
0.408331 0.509255 0.192035
0.489754 0.517678 0.163455
0.573663 0.520684 0.173556
0.637812 0.518837 0.189746
0.698772 0.51107 0.206149
0.763531 0.49633 0.231022
0.801587 0.493553 0.243717
0.835401 0.490578 0.256748
0.861372 0.484123 0.270954
0.877775 0.476173 0.283436
0.877882 0.468086 0.283742
0.876982 0.462608 0.283177
0.87538 0.457664 0.282017
0.874159 0.452583 0.280995
0.872892 0.447349 0.280415
0.871366 0.442237 0.279423
0.870176 0.437537 0.278889
0.86862 0.432471 0.277882
0.867597 0.429099 0.276905
0.867018 0.426078 0.276265
0.15906 0.58265 0.292744
0.156191 0.589731 0.293172
0.151995 0.596597 0.293446
0.148165 0.60235 0.293263
0.145495 0.607782 0.293172
0.144533 0.612558 0.292638
0.144701 0.615671 0.291035
0.145617 0.617929 0.288182
0.146075 0.618296 0.283833
0.146136 0.615915 0.273777
0.147768 0.60737 0.241627
0.175753 0.59379 0.181781
0.287877 0.582696 0.191455
0.395041 0.576059 0.224247
0.478706 0.574334 0.214588
0.555978 0.582834 0.192706
0.634089 0.586679 0.203769
0.696254 0.585138 0.221118
0.751522 0.580484 0.235706
0.806348 0.566567 0.255695
0.845563 0.559487 0.271962
0.871229 0.559686 0.283833
0.883268 0.559014 0.289998
0.889815 0.555138 0.294896
0.889586 0.551705 0.294301
0.889403 0.548272 0.293858
0.888884 0.544427 0.293126
0.888762 0.540627 0.292943
0.888304 0.53611 0.292256
0.887755 0.531228 0.291554
0.887022 0.52575 0.290806
0.886534 0.520943 0.290227
0.885374 0.516274 0.288869
0.191455 0.655131 0.343969
0.188693 0.662516 0.34519
0.184558 0.668757 0.345327
0.180926 0.675334 0.346471
0.178347 0.680293 0.346258
0.178042 0.684977 0.346303
0.17821 0.687709 0.345113
0.178744 0.689403 0.342046
0.179248 0.689555 0.337255
0.179217 0.688029 0.330541
0.178119 0.682185 0.31342
0.179553 0.6701 0.266438
0.235035 0.653239 0.204669
0.368856 0.643915 0.233097
0.468727 0.638285 0.256947
0.545495 0.637018 0.240223
0.616403 0.644709 0.224567
0.688212 0.647944 0.237522
0.747814 0.64625 0.256397
0.79617 0.642893 0.270771
0.839826 0.633234 0.284764
0.873762 0.625742 0.299016
0.891798 0.623438 0.309209
0.896803 0.624414 0.310338
0.896193 0.620951 0.308904
0.895644 0.617731 0.307515
0.895415 0.615015 0.30663
0.89485 0.611521 0.305348
0.894636 0.607477 0.304433
0.893919 0.602853 0.302953
0.893797 0.598596 0.302419
0.89337 0.594064 0.301457
0.893065 0.590249 0.300587
0.225071 0.725872 0.395178
0.224826 0.732128 0.39646
0.222736 0.738079 0.397452
0.219638 0.743358 0.397406
0.217166 0.748348 0.397589
0.216526 0.752026 0.39762
0.216678 0.754498 0.396597
0.21709 0.755611 0.394217
0.217182 0.755428 0.389441
0.217136 0.753948 0.382605
0.215106 0.749294 0.37258
0.212985 0.739757 0.345525
0.220218 0.723125 0.279835
0.322972 0.709117 0.243732
0.451484 0.701518 0.27686
0.535988 0.695933 0.286915
0.606561 0.694728 0.270909
0.67187 0.702708 0.260914
0.737606 0.704616 0.27451
0.792828 0.702266 0.295354
0.833173 0.699672 0.308751
0.866697 0.692943 0.318074
0.890043 0.686458 0.327123
0.901442 0.684474 0.333501
0.901244 0.682612 0.332601
0.900893 0.679576 0.331151
0.900481 0.676524 0.329351
0.900389 0.672923 0.32781
0.899931 0.668971 0.325841
0.899626 0.664851 0.324346
0.899077 0.660456 0.322377
0.898955 0.656855 0.321096
0.898634 0.653346 0.319677
0.266224 0.78703 0.444099
0.26685 0.792462 0.445396
0.264958 0.797269 0.445655
0.26215 0.802167 0.446128
0.259113 0.806104 0.445655
0.258396 0.80914 0.445548
0.258061 0.810956 0.444663
0.258457 0.811627 0.442405
0.258289 0.811124 0.438544
0.257755 0.809445 0.431998
0.255985 0.805386 0.421866
0.252705 0.799054 0.40827
0.250416 0.786603 0.367514
0.277684 0.767941 0.291432
0.420783 0.759258 0.291188
0.524971 0.752621 0.318303
0.59649 0.74789 0.318868
0.661906 0.747112 0.306142
0.722545 0.755871 0.301427
0.782925 0.758053 0.317067
0.831067 0.754833 0.337911
0.863737 0.753307 0.350149
0.88661 0.74847 0.355917
0.901671 0.742687 0.360632
0.904616 0.735348 0.360662
0.904295 0.731533 0.358236
0.904051 0.728466 0.355978
0.903807 0.725032 0.35375
0.90341 0.721248 0.351598
0.903197 0.71754 0.349325
0.903075 0.714015 0.347326
0.902937 0.710582 0.346014
0.902693 0.707301 0.344121
0.309392 0.834821 0.487312
0.309819 0.838422 0.488075
0.308156 0.842618 0.488548
0.305501 0.846799 0.488899
0.302281 0.850431 0.488365
0.300633 0.853025 0.487999
0.299245 0.854414 0.486412
0.298497 0.854841 0.484199
0.297505 0.854292 0.480751
0.296254 0.852918 0.475364
0.293889 0.849439 0.465736
0.290684 0.844099 0.453498
0.286381 0.83624 0.433173
0.288319 0.821805 0.376989
0.360021 0.807553 0.316365
0.507469 0.800137 0.338613
0.588693 0.794263 0.356939
0.650706 0.791058 0.352056
0.712093 0.792065 0.342962
0.769223 0.80174 0.344015
0.822522 0.804013 0.361791
0.863111 0.801297 0.382483
0.885801 0.800031 0.39324
0.900786 0.796887 0.39794
0.90782 0.790021 0.399207
0.907759 0.784634 0.395254
0.907393 0.780453 0.391348
0.906889 0.776501 0.3879
0.906477 0.77232 0.384329
0.906142 0.76875 0.381491
0.905791 0.764889 0.378775
0.905653 0.76112 0.375921
0.905303 0.75761 0.373648
0.352331 0.870588 0.526772
0.351644 0.872557 0.526604
0.348821 0.875181 0.526299
0.345113 0.877943 0.525643
0.341085 0.8804 0.524666
0.338506 0.881956 0.523812
0.336904 0.882841 0.522103
0.335592 0.882872 0.519661
0.334112 0.882429 0.516075
0.332006 0.881315 0.511177
0.329488 0.879164 0.503441
0.325704 0.875639 0.491737
0.321187 0.870893 0.477012
0.316213 0.862928 0.448432
0.331167 0.848356 0.380148
0.452628 0.838468 0.353079
0.576196 0.831785 0.381949
0.643977 0.828138 0.393011
0.700328 0.826734 0.387503
0.758144 0.830198 0.382361
0.809506 0.841428 0.389136
0.854932 0.84332 0.410712
0.885496 0.84123 0.430518
0.900679 0.839933 0.439887
0.909514 0.837125 0.444846
0.911025 0.832776 0.442786
0.910506 0.828794 0.437949
0.910262 0.824872 0.43299
0.909728 0.821225 0.428321
0.909682 0.817609 0.424689
0.909255 0.813962 0.420935
0.909316 0.810468 0.418128
0.909224 0.807462 0.415534
0.389883 0.887083 0.556435
0.388602 0.887495 0.555261
0.385229 0.888319 0.553704
0.381125 0.889342 0.551705
0.376928 0.890379 0.549615
0.373693 0.891051 0.547601
0.371405 0.891402 0.545419
0.370001 0.89134 0.542611
0.368643 0.890959 0.5393
0.367071 0.890303 0.534737
0.364446 0.889387 0.528634
0.360754 0.887724 0.519585
0.357076 0.884947 0.506233
0.352438 0.881804 0.4916
0.359609 0.876081 0.454841
0.399939 0.864302 0.39472
0.551431 0.857801 0.402182
0.64184 0.854109 0.426825
0.700221 0.852186 0.432013
0.752789 0.852537 0.43006
0.807706 0.859983 0.431556
0.849485 0.870756 0.445869
0.882292 0.871473 0.466896
0.902464 0.869993 0.481621
0.911604 0.870192 0.490684
0.914839 0.868009 0.493233
0.91458 0.864866 0.488991
0.914137 0.862348 0.483787
0.913466 0.859632 0.478401
0.912535 0.857053 0.473289
0.912062 0.854612 0.469032
0.911833 0.852049 0.465461
0.911635 0.848981 0.46186
0.389105 0.888197 0.563531
0.387945 0.888457 0.562081
0.385153 0.889204 0.560418
0.381613 0.890059 0.558648
0.37789 0.890959 0.556435
0.37496 0.891569 0.55436
0.372946 0.891875 0.551873
0.371618 0.891875 0.548775
0.370474 0.891646 0.545251
0.368917 0.891218 0.540551
0.366674 0.890364 0.534447
0.363317 0.889052 0.526238
0.358709 0.886534 0.513573
0.35436 0.88365 0.49836
0.350958 0.879316 0.473655
0.38497 0.877195 0.433265
0.475013 0.874449 0.414343
0.623331 0.872328 0.447135
0.692729 0.871626 0.467491
0.745953 0.872099 0.472724
0.798032 0.87451 0.474418
0.845655 0.883345 0.483268
0.877363 0.890227 0.50132
0.899031 0.890028 0.517891
0.911406 0.890898 0.532433
0.915633 0.891066 0.538796
0.915862 0.889693 0.536126
0.914839 0.88809 0.529381
0.914336 0.886717 0.523247
0.913436 0.884794 0.516884
0.912657 0.882673 0.510826
0.912245 0.88069 0.506127
0.912428 0.878798 0.502937
0.378973 0.891615 0.569482
0.37995 0.891188 0.568078
0.379995 0.891051 0.566323
0.379034 0.891264 0.564324
0.377203 0.891707 0.562325
0.375387 0.892119 0.560174
0.373892 0.892317 0.557565
0.372793 0.892287 0.554665
0.371786 0.892103 0.550729
0.370428 0.891768 0.545876
0.368231 0.891234 0.53962
0.365362 0.890028 0.531975
0.360632 0.888106 0.52047
0.356466 0.885023 0.504356
0.3505 0.881422 0.484855
0.370596 0.879301 0.449134
0.429267 0.878386 0.418845
0.568887 0.877897 0.442222
0.674586 0.878355 0.476326
0.735042 0.880476 0.495094
0.786648 0.882597 0.504921
0.837003 0.888243 0.514748
0.875807 0.897444 0.533486
0.89604 0.900374 0.549783
0.909911 0.901549 0.568338
0.917189 0.903349 0.585809
0.918166 0.903212 0.588113
0.917388 0.902388 0.58056
0.916686 0.901366 0.572122
0.915694 0.900145 0.564431
0.914931 0.898909 0.558328
0.914611 0.89778 0.553689
0.914412 0.896513 0.549371
0.376532 0.892592 0.574701
0.377539 0.892256 0.573053
0.378134 0.892027 0.571191
0.377752 0.891997 0.569467
0.376471 0.892164 0.56762
0.375143 0.892454 0.565164
0.374044 0.892653 0.562753
0.373327 0.892714 0.559747
0.372915 0.892409 0.555962
0.371679 0.892149 0.550774
0.369741 0.891752 0.544396
0.366705 0.890852 0.536461
0.362387 0.889372 0.52607
0.357885 0.886549 0.510765
0.351751 0.883192 0.492943
0.360601 0.8804 0.462211
0.39704 0.878981 0.421012
0.512993 0.878706 0.428397
0.646616 0.878523 0.465629
0.714595 0.880262 0.489754
0.769482 0.882719 0.503471
0.820645 0.886931 0.516838
0.86537 0.895354 0.537224
0.891264 0.90132 0.56083
0.906233 0.903563 0.580285
0.916121 0.906477 0.605234
0.919341 0.907973 0.625544
0.918959 0.908141 0.628595
0.918196 0.907881 0.621729
0.91754 0.907729 0.615213
0.917189 0.907423 0.609476
0.916823 0.906905 0.60499
0.916655 0.906325 0.600565
0.376944 0.892744 0.579126
0.377447 0.892485 0.577539
0.377737 0.892287 0.575769
0.377218 0.892363 0.5738
0.375982 0.892638 0.571527
0.374655 0.892866 0.569512
0.373648 0.892973 0.567208
0.373251 0.892973 0.564126
0.373007 0.892851 0.560235
0.37232 0.8925 0.555306
0.370916 0.892103 0.548791
0.3682 0.891508 0.540948
0.364218 0.89015 0.531197
0.358999 0.887907 0.517052
0.353384 0.884703 0.499214
0.353979 0.881437 0.473579
0.382147 0.879744 0.432944
0.464424 0.879164 0.420035
0.61294 0.878874 0.453681
0.692164 0.880186 0.483375
0.749538 0.882658 0.498116
0.801495 0.885756 0.510903
0.850752 0.892729 0.527855
0.884504 0.90103 0.552758
0.902358 0.903563 0.573495
0.913344 0.905516 0.594629
0.918807 0.908019 0.621164
0.919173 0.908858 0.635508
0.918547 0.909194 0.634577
0.917967 0.909483 0.632731
0.91754 0.909651 0.6309
0.917372 0.909728 0.629816
0.917342 0.909728 0.629328
0.377111 0.892882 0.583062
0.377386 0.892714 0.581369
0.377508 0.892592 0.579416
0.376913 0.892638 0.577478
0.375479 0.892912 0.575402
0.373877 0.893278 0.573022
0.372671 0.893523 0.570489
0.372061 0.893523 0.568017
0.371984 0.893355 0.564004
0.371984 0.893065 0.559182
0.371191 0.892561 0.553063
0.369253 0.891997 0.545174
0.365667 0.890883 0.535393
0.360555 0.889082 0.522988
0.355032 0.886137 0.505287
0.351156 0.882719 0.483253
0.369879 0.8804 0.446311
0.428305 0.879438 0.418982
0.560647 0.879286 0.439384
0.665568 0.880018 0.473716
0.728405 0.882246 0.492546
0.781598 0.884916 0.505531
0.833204 0.889815 0.519493
0.874907 0.899748 0.542535
0.897734 0.904372 0.568109
0.909728 0.904601 0.583886
0.917922 0.907805 0.614054
0.919081 0.908873 0.634714
0.918547 0.909224 0.634882
0.918044 0.909514 0.634653
0.917739 0.909682 0.634043
0.917784 0.909606 0.633158
0.918059 0.909392 0.632471
0.381262 0.891936 0.586007
