bundles/resolve-cinematic-luts/Phantom Luts/Fx6 Phntm Film LUTs-G5/ATOMOS Monitor LUTs/Eterna Fx6 AML.cube
TITLE "Generated by Resolve"
LUT_3D_SIZE 9
0.0639811 0.089189 0.089189
0.0954299 0.094255 0.0934768
0.156619 0.103883 0.100542
0.263859 0.121386 0.130999
0.428107 0.144945 0.189029
0.58555 0.161242 0.264866
0.677516 0.174151 0.326299
0.677333 0.169665 0.339559
0.695445 0.162097 0.359243
0.0726635 0.107149 0.0984054
0.0809491 0.10312 0.0957656
0.15288 0.107927 0.100923
0.27689 0.118563 0.11841
0.447532 0.150851 0.179614
0.626978 0.167361 0.26656
0.689632 0.17644 0.318822
0.686519 0.172549 0.330602
0.703731 0.165774 0.347723
0.100526 0.188098 0.12723
0.0949874 0.195193 0.118364
0.173754 0.187488 0.118502
0.328099 0.166476 0.133242
0.479088 0.15111 0.160555
0.628305 0.173877 0.235233
0.684245 0.183642 0.279973
0.690303 0.182773 0.293431
0.703685 0.178958 0.305409
0.123445 0.367147 0.195727
0.10663 0.390524 0.187335
0.115068 0.392309 0.146136
0.362127 0.382757 0.134218
0.630198 0.350118 0.185412
0.803525 0.338354 0.239338
0.801587 0.290135 0.245823
0.779507 0.262974 0.241077
0.762936 0.24271 0.23769
0.191455 0.655131 0.343969
0.178347 0.680293 0.346258
0.179248 0.689555 0.337255
0.235035 0.653239 0.204669
0.616403 0.644709 0.224567
0.839826 0.633234 0.284764
0.896193 0.620951 0.308904
0.894636 0.607477 0.304433
0.893065 0.590249 0.300587
0.352331 0.870588 0.526772
0.341085 0.8804 0.524666
0.334112 0.882429 0.516075
0.321187 0.870893 0.477012
0.576196 0.831785 0.381949
0.809506 0.841428 0.389136
0.909514 0.837125 0.444846
0.909728 0.821225 0.428321
0.909224 0.807462 0.415534
0.376532 0.892592 0.574701
0.376471 0.892164 0.56762
0.372915 0.892409 0.555962
0.362387 0.889372 0.52607
0.39704 0.878981 0.421012
0.769482 0.882719 0.503471
0.906233 0.903563 0.580285
0.918196 0.907881 0.621729
0.916655 0.906325 0.600565
0.379858 0.892546 0.588876
0.383871 0.890822 0.581598
0.386679 0.889494 0.570993
0.381094 0.888273 0.544701
0.364965 0.877272 0.474281
0.692226 0.877226 0.483284
0.886625 0.900496 0.554223
0.919341 0.908705 0.634379
0.915984 0.910719 0.633097
0.370596 0.895735 0.595804
0.372671 0.894514 0.587549
0.379095 0.892073 0.578332
0.383658 0.889067 0.55555
0.365118 0.881224 0.497993
0.588861 0.876707 0.447181
0.836439 0.889128 0.521416
0.918639 0.908278 0.618631
0.915984 0.910689 0.631785
0.0644999 0.0911116 0.0979629
0.0951858 0.0953689 0.103807
0.150011 0.102388 0.117296
0.256107 0.116564 0.152331
0.425681 0.138903 0.206851
0.585931 0.152239 0.279301
0.691615 0.166537 0.347204
0.68867 0.162112 0.359823
0.701381 0.155856 0.376608
0.0708324 0.100923 0.0992599
0.0749371 0.0949416 0.0963302
0.155123 0.105501 0.109545
0.280079 0.121889 0.140795
0.447272 0.1411 0.197406
0.623468 0.157122 0.283513
0.700862 0.167697 0.342275
0.696773 0.164126 0.353521
0.706935 0.158709 0.367849
0.098436 0.180545 0.143633
0.0928054 0.185687 0.130007
0.169375 0.181979 0.118929
0.333791 0.15758 0.133471
0.467994 0.144274 0.16434
0.634287 0.169024 0.251179
0.69926 0.17966 0.304372
0.698878 0.176791 0.315969
0.709194 0.172198 0.328344
0.117891 0.361349 0.213519
0.107164 0.381033 0.200275
0.110185 0.39089 0.176242
0.359411 0.380056 0.134279
0.617075 0.346487 0.181994
0.799451 0.336553 0.237385
0.799344 0.28513 0.245441
0.773053 0.255375 0.23975
0.751888 0.230869 0.23476
0.18381 0.643427 0.352346
0.16939 0.664042 0.347631
0.171176 0.67332 0.334188
0.215518 0.648325 0.215442
0.60853 0.639078 0.220829
0.835996 0.629511 0.281102
0.895537 0.62118 0.307439
0.893874 0.606317 0.303105
0.892515 0.58706 0.299458
0.340734 0.864439 0.530694
0.33193 0.874937 0.527794
0.324971 0.876661 0.513344
0.310735 0.863874 0.468147
0.565484 0.829221 0.375875
0.806516 0.839124 0.38526
0.908293 0.834516 0.439307
0.90898 0.819425 0.424826
0.908446 0.805844 0.412039
0.37705 0.893324 0.588586
0.377249 0.892729 0.580743
0.37435 0.892699 0.565469
0.36347 0.889433 0.527001
0.401099 0.878904 0.42388
0.764874 0.882628 0.502541
0.905669 0.903883 0.5823
0.918013 0.90779 0.621134
0.916472 0.906157 0.59997
0.381826 0.893339 0.605371
0.387579 0.890944 0.596872
0.388174 0.889647 0.583215
0.382025 0.888457 0.548028
0.370825 0.877546 0.470024
0.687633 0.876997 0.481315
0.884382 0.899886 0.554025
0.919371 0.908751 0.63566
0.916014 0.910765 0.63418
0.373587 0.896345 0.613642
0.375418 0.895094 0.604791
0.381613 0.892317 0.592264
0.385153 0.889311 0.562676
0.364462 0.881041 0.496666
0.594903 0.877012 0.449958
0.832593 0.888457 0.52047
0.918379 0.90811 0.616068
0.915999 0.910719 0.633143
0.0656443 0.0995651 0.130251
0.100252 0.100237 0.145937
0.161593 0.105318 0.140703
0.260166 0.116732 0.166339
0.417441 0.135866 0.219013
0.575204 0.148928 0.288731
0.686046 0.162463 0.359045
0.68217 0.158022 0.371405
0.695521 0.151858 0.388586
0.0706951 0.105089 0.112566
0.066743 0.102159 0.136233
0.159365 0.10573 0.14406
0.273289 0.117983 0.16669
0.431342 0.136706 0.219242
0.595972 0.149218 0.296315
0.691585 0.160662 0.363516
0.685374 0.156725 0.375021
0.696544 0.151171 0.390478
0.0993515 0.175372 0.159121
0.0943008 0.177829 0.164202
0.166644 0.17586 0.173648
0.331609 0.157229 0.176242
0.467552 0.14757 0.208637
0.619348 0.159747 0.284962
0.689784 0.167941 0.344045
0.684459 0.163561 0.356481
0.693446 0.157671 0.372
0.119203 0.350286 0.240467
0.108141 0.372946 0.242496
0.108934 0.383246 0.21239
0.356817 0.376226 0.142031
0.624735 0.329152 0.193744
0.796384 0.317388 0.244343
0.761151 0.236622 0.247745
0.735241 0.2177 0.246876
0.716365 0.201099 0.246372
0.173205 0.625559 0.37818
0.161227 0.645716 0.383047
0.163897 0.657649 0.362036
0.166812 0.642344 0.251621
0.599069 0.629145 0.217914
0.830579 0.616236 0.279088
0.894774 0.608209 0.304829
0.893385 0.592782 0.301213
0.8916 0.57052 0.297169
0.325216 0.85127 0.550774
0.314519 0.860349 0.550698
0.305882 0.859907 0.528557
0.294713 0.847562 0.4645
0.531548 0.821027 0.361242
0.795727 0.82829 0.374044
0.906294 0.824781 0.42977
0.908324 0.811399 0.416876
0.907317 0.796857 0.402548
0.380682 0.894881 0.62388
0.380041 0.894911 0.619196
0.380056 0.893584 0.601938
0.371893 0.891951 0.549355
0.395682 0.880385 0.440192
0.752697 0.882048 0.50547
0.904112 0.903838 0.583658
0.917967 0.907118 0.617243
0.915938 0.904692 0.592691
0.387747 0.894514 0.645975
0.383139 0.895232 0.639185
0.3944 0.890944 0.622797
0.388571 0.889387 0.579095
0.370047 0.879347 0.485618
0.678187 0.877073 0.481361
0.879316 0.898054 0.555611
0.919539 0.908766 0.638865
0.916304 0.910719 0.637293
0.378912 0.897688 0.656504
0.376913 0.897597 0.648341
0.386633 0.893874 0.633631
0.390707 0.890135 0.59791
0.374334 0.884306 0.512642
0.598795 0.877302 0.455634
0.825071 0.887663 0.524834
0.917739 0.907973 0.619867
0.915679 0.911009 0.635843
0.0780804 0.113191 0.209171
0.104692 0.10956 0.236439
0.171359 0.110201 0.224689
0.290776 0.123629 0.212634
0.430198 0.134844 0.252415
0.578622 0.145083 0.316945
0.676966 0.156909 0.374319
0.677073 0.155169 0.390433
0.695277 0.150561 0.418753
0.0682994 0.11725 0.177066
0.0684367 0.119448 0.21326
0.151263 0.112001 0.256611
0.29752 0.123842 0.226291
0.431937 0.134447 0.257862
0.582345 0.14403 0.325826
0.676524 0.155428 0.384512
0.681361 0.154803 0.407843
0.699092 0.150423 0.437812
0.0960555 0.17229 0.187579
0.0856184 0.173617 0.213977
0.0905013 0.157198 0.261463
0.322072 0.132174 0.258244
0.451774 0.140291 0.273945
0.591821 0.14638 0.336553
0.673671 0.156451 0.38938
0.677012 0.156558 0.410208
0.693172 0.15349 0.43653
0.123201 0.336004 0.2813
0.11368 0.353597 0.302663
0.113939 0.363775 0.317693
0.361486 0.370718 0.348653
0.643397 0.32871 0.340749
0.779477 0.255207 0.358526
0.733867 0.185977 0.364675
0.707164 0.170565 0.370245
0.696803 0.160464 0.377157
0.163149 0.604044 0.427359
0.148821 0.624689 0.45069
0.153674 0.635904 0.453483
0.161181 0.631907 0.365393
0.586038 0.619532 0.28307
0.834058 0.600015 0.361151
0.90927 0.582712 0.378378
0.909422 0.568017 0.381231
0.90808 0.5393 0.376898
0.306615 0.835096 0.594461
0.292409 0.842054 0.603769
0.28368 0.839582 0.59234
0.280049 0.831876 0.530159
0.396475 0.820356 0.38674
0.780499 0.812619 0.38436
0.907149 0.802228 0.459693
0.909392 0.788907 0.449989
0.908766 0.775677 0.43679
0.394675 0.895613 0.68455
0.383932 0.898528 0.688228
0.385183 0.897551 0.67686
0.38497 0.894072 0.627909
0.400351 0.890547 0.523629
0.714855 0.882338 0.523949
0.897932 0.901961 0.588678
0.916976 0.902678 0.602228
0.915038 0.900145 0.583947
0.398428 0.896895 0.714366
0.389471 0.899153 0.713405
0.393545 0.897017 0.700343
0.399924 0.892149 0.657603
0.401114 0.890043 0.552758
0.618341 0.880781 0.507073
0.859052 0.892378 0.561364
0.922042 0.90753 0.646616
0.918776 0.909606 0.647898
0.389609 0.900221 0.727443
0.387961 0.900343 0.723644
0.386603 0.899672 0.711986
0.401129 0.893217 0.675029
0.401129 0.891737 0.588296
0.534752 0.884565 0.508965
0.802152 0.885878 0.543786
0.91397 0.90692 0.622446
0.916228 0.911055 0.6448
0.0963607 0.14551 0.352743
0.1205 0.142855 0.38201
0.185092 0.129458 0.387732
0.320043 0.129625 0.360983
0.481025 0.149737 0.344884
0.610468 0.148455 0.376638
0.67602 0.156725 0.40737
0.684779 0.156847 0.431006
0.713405 0.155566 0.473045
0.0744793 0.152972 0.304677
0.0777905 0.153918 0.341009
0.135805 0.135698 0.381369
0.311376 0.131731 0.39089
0.479347 0.149706 0.358648
0.615595 0.149096 0.391196
0.685435 0.157122 0.431403
0.705653 0.161807 0.470268
0.73077 0.162158 0.51725
0.081651 0.169604 0.267201
0.0759747 0.170611 0.307851
0.0777447 0.170092 0.358968
0.287587 0.137774 0.435279
0.499474 0.152026 0.396811
0.623713 0.15256 0.409049
0.694621 0.161791 0.453315
0.710826 0.16791 0.491127
0.729641 0.168841 0.531991
0.119081 0.313024 0.336309
0.105074 0.326101 0.368704
0.0948196 0.337362 0.407248
0.178851 0.319142 0.491127
0.596567 0.252811 0.499779
0.69398 0.199527 0.454276
0.69662 0.167437 0.439857
0.699855 0.167803 0.459297
0.717754 0.166323 0.489464
0.156069 0.582422 0.489632
0.142321 0.597345 0.515877
0.144732 0.608667 0.53608
0.147204 0.602304 0.532143
0.57055 0.594827 0.558526
0.84741 0.572885 0.561608
0.919509 0.520195 0.565347
0.917708 0.497078 0.576684
0.913573 0.458274 0.579248
0.295155 0.812009 0.64239
0.272068 0.820005 0.65742
0.263035 0.8168 0.660655
0.25977 0.809232 0.633646
0.439414 0.81677 0.578912
0.760052 0.79794 0.550668
0.902968 0.782696 0.602167
0.91223 0.780438 0.614771
0.912139 0.769619 0.60911
0.412848 0.895796 0.745708
0.397452 0.900343 0.756436
0.388708 0.900969 0.753017
0.390448 0.896529 0.716258
0.471931 0.897597 0.656428
0.66717 0.890394 0.6392
0.89749 0.895811 0.681132
0.920684 0.893782 0.719738
0.918532 0.891859 0.714763
0.420859 0.898116 0.783642
0.41442 0.900252 0.788846
0.404898 0.901823 0.784894
0.403265 0.898939 0.751064
0.456367 0.895491 0.681117
0.657877 0.896239 0.675731
0.854856 0.89369 0.687083
0.923445 0.910384 0.767208
0.921187 0.912902 0.778851
0.426535 0.898848 0.797513
0.421561 0.900374 0.801236
0.411826 0.9019 0.79736
0.404623 0.900481 0.770611
0.432425 0.895521 0.702388
0.640101 0.899672 0.688899
0.82443 0.895811 0.700542
0.912551 0.908232 0.737377
0.917891 0.91397 0.767437
0.114824 0.191302 0.508965
0.124681 0.19794 0.544533
0.185992 0.175921 0.54995
0.346731 0.160876 0.553109
0.514778 0.148638 0.525826
0.67538 0.161166 0.49456
0.713481 0.168109 0.496956
0.718196 0.169879 0.51014
0.73579 0.168521 0.545159
0.0866102 0.197772 0.467643
0.0861372 0.205829 0.506264
0.134874 0.191119 0.538994
0.298955 0.164874 0.558541
0.513558 0.152789 0.554253
0.679927 0.162783 0.518212
0.721325 0.172091 0.522774
0.728298 0.175753 0.550744
0.74519 0.176074 0.60148
0.0917372 0.203647 0.412848
0.0857557 0.213245 0.462058
0.0870832 0.21326 0.50457
0.222278 0.165362 0.54345
0.514961 0.159411 0.591272
0.676493 0.165118 0.535317
0.719249 0.177508 0.533669
0.726665 0.182193 0.570657
0.740444 0.182879 0.627756
0.0987869 0.314488 0.430945
0.088426 0.320958 0.467628
0.0889143 0.32639 0.507958
0.0918898 0.302266 0.561044
0.480827 0.19408 0.645853
0.663142 0.162509 0.541619
0.71696 0.176715 0.513298
0.72459 0.180957 0.544305
0.738048 0.181476 0.589212
0.154452 0.554116 0.555596
0.139055 0.560723 0.578729
0.137255 0.568322 0.602304
0.127886 0.563195 0.627802
0.422293 0.548837 0.717601
0.814817 0.509224 0.710674
0.9075 0.451164 0.693782
0.904555 0.413062 0.695476
0.898421 0.374838 0.70106
0.286671 0.792889 0.696788
0.259648 0.795483 0.70811
0.250507 0.790478 0.712489
0.245808 0.782635 0.707927
0.419699 0.783917 0.712673
0.743847 0.768368 0.733852
0.907485 0.754726 0.735622
0.919524 0.731594 0.735119
0.918502 0.719707 0.737057
0.427512 0.894453 0.79675
0.412192 0.898375 0.805371
0.39736 0.897566 0.805936
0.379355 0.891997 0.787182
0.48217 0.887434 0.762921
0.709621 0.889967 0.768063
0.888518 0.888136 0.769238
0.919356 0.886336 0.801999
0.917967 0.884611 0.806882
0.46894 0.89279 0.82771
0.445411 0.89839 0.837644
0.437049 0.90013 0.838956
0.43183 0.901869 0.825254
0.50367 0.900008 0.79176
0.720836 0.902983 0.800351
0.84686 0.901808 0.801465
0.924056 0.912413 0.849653
0.926696 0.914961 0.873899
0.45658 0.895216 0.843122
0.450187 0.89659 0.84889
0.443732 0.898238 0.850675
0.438239 0.900374 0.84097
0.470893 0.900252 0.806043
0.716213 0.902815 0.81944
0.847074 0.905943 0.832441
0.917327 0.911742 0.847929
0.924239 0.91606 0.873411
0.10724 0.251591 0.65536
0.110491 0.267887 0.684703
0.1523 0.259556 0.707988
0.316335 0.208347 0.697581
0.559045 0.189929 0.7196
0.697169 0.174487 0.669291
0.741253 0.184741 0.649973
0.739879 0.185016 0.648417
0.744183 0.183627 0.659495
0.0981613 0.252705 0.633906
0.102571 0.267124 0.666133
0.11133 0.265568 0.684947
0.250782 0.219532 0.699168
0.542977 0.202472 0.746715
0.694621 0.177203 0.689067
0.739483 0.18764 0.68278
0.740612 0.187625 0.691768
0.743084 0.187671 0.710781
0.0967117 0.253193 0.588937
0.0973373 0.265003 0.62829
0.101915 0.271397 0.664439
0.144793 0.248554 0.686213
0.499199 0.213016 0.756771
0.68574 0.177447 0.701915
0.73344 0.190997 0.68455
0.733669 0.191577 0.693095
0.738628 0.190967 0.717906
0.0924086 0.320958 0.565469
0.0926986 0.323857 0.594949
0.0951247 0.321706 0.626352
0.0995956 0.309865 0.658625
0.356512 0.212863 0.709926
0.660151 0.179721 0.713252
0.738262 0.18912 0.663798
0.736263 0.190219 0.659846
0.742443 0.188983 0.690562
0.119997 0.55581 0.647196
0.111269 0.558877 0.662913
0.109163 0.55996 0.67541
0.112291 0.555535 0.693843
0.22443 0.533181 0.789837
0.724132 0.480781 0.875486
0.894545 0.378744 0.787243
0.895521 0.376425 0.766079
0.879774 0.331868 0.776471
0.267201 0.770153 0.749584
0.248798 0.766247 0.756817
0.242634 0.754925 0.756085
0.237369 0.741985 0.758068
0.268421 0.727977 0.782849
0.645182 0.732754 0.838544
0.892897 0.709911 0.833646
0.914458 0.685588 0.823667
0.913497 0.667704 0.829694
0.434073 0.886229 0.832288
0.401663 0.890486 0.839902
0.381231 0.885405 0.836042
0.358129 0.876646 0.825132
0.383597 0.871794 0.815732
0.689723 0.877592 0.844831
0.873472 0.878767 0.865202
0.922957 0.871122 0.861311
0.92105 0.868757 0.863874
0.476616 0.888334 0.855299
0.454871 0.893904 0.864088
0.451316 0.894972 0.86479
0.447852 0.896422 0.858946
0.502052 0.901152 0.849256
0.736996 0.906706 0.872404
0.868315 0.91284 0.885725
0.924254 0.914366 0.892958
0.928679 0.914 0.900099
0.478202 0.887007 0.864027
0.461952 0.891005 0.871931
0.456794 0.892271 0.874525
0.454276 0.893416 0.87042
0.48957 0.898299 0.859525
0.743175 0.90663 0.882368
0.86836 0.913649 0.895277
0.91107 0.915846 0.898482
0.925109 0.918547 0.907546
0.127123 0.325093 0.743252
0.127443 0.330068 0.749157
0.128237 0.324987 0.751415
0.245594 0.29305 0.788891
0.552651 0.269261 0.845197
0.70869 0.203723 0.766705
0.739269 0.195727 0.754147
0.739528 0.195453 0.753063
0.739315 0.194827 0.749187
0.121248 0.315663 0.730526
0.126421 0.335607 0.747616
0.127535 0.329122 0.749493
0.164553 0.316304 0.76611
0.509438 0.273869 0.840681
0.723445 0.223301 0.792447
0.738506 0.197284 0.75996
0.738384 0.197482 0.760418
0.738552 0.19707 0.758572
0.114443 0.30808 0.712184
0.120272 0.323842 0.729427
0.12517 0.334661 0.744015
0.127703 0.328801 0.749889
0.431235 0.269581 0.818936
0.720241 0.234867 0.806195
0.738094 0.197772 0.761608
0.738216 0.19765 0.761242
0.738094 0.197757 0.761532
0.102068 0.338354 0.682567
0.107439 0.346609 0.702541
0.114199 0.346883 0.719432
0.120043 0.344503 0.73312
0.201846 0.303868 0.776272
0.667491 0.261311 0.843046
0.739635 0.197436 0.758801
0.740078 0.196643 0.755795
0.74052 0.196002 0.753216
0.126085 0.56936 0.721401
0.13135 0.571527 0.733989
0.135363 0.566995 0.74641
0.138079 0.556008 0.758434
0.146166 0.530739 0.789944
0.572015 0.488716 0.897215
0.859236 0.350683 0.875669
0.828809 0.287236 0.815885
0.819196 0.27126 0.802823
0.261143 0.756176 0.801999
0.257343 0.751232 0.807172
0.250202 0.741299 0.807324
0.237659 0.726497 0.805188
0.213367 0.700496 0.804135
0.533135 0.710628 0.879164
0.844846 0.698756 0.906584
0.912169 0.647303 0.890639
0.911849 0.649607 0.885924
0.410193 0.877836 0.860395
0.386847 0.876677 0.863233
0.368597 0.869703 0.859709
0.346059 0.857069 0.851667
0.334401 0.840223 0.845609
0.5888 0.847822 0.871504
0.815122 0.861708 0.894408
0.913481 0.852415 0.893645
0.915297 0.847517 0.890898
0.473152 0.886961 0.877012
0.460258 0.89012 0.881559
0.459052 0.89041 0.881239
0.458671 0.891264 0.87776
0.478065 0.894469 0.870771
0.692378 0.901152 0.885863
0.859281 0.90988 0.903502
0.915404 0.91545 0.913527
0.924697 0.914351 0.912551
0.469718 0.884978 0.881086
0.45626 0.888655 0.88658
0.454734 0.889082 0.88751
0.457877 0.889418 0.885298
0.484581 0.892454 0.878325
0.724025 0.902556 0.893477
0.87538 0.913344 0.909438
0.914778 0.919661 0.917189
0.925322 0.920348 0.917922
0.127871 0.328786 0.750439
0.128008 0.328313 0.75082
0.12813 0.324453 0.751186
0.21117 0.304631 0.782223
0.502892 0.272984 0.838605
0.72253 0.228107 0.798276
0.738094 0.197757 0.761608
0.738094 0.197757 0.761608
0.738094 0.197757 0.761608
0.126574 0.331716 0.7476
0.126711 0.331106 0.747738
0.127749 0.329152 0.750088
0.146426 0.319738 0.758816
0.44712 0.270649 0.823957
0.720974 0.235477 0.806836
0.738094 0.197757 0.761608
0.738094 0.197757 0.761608
0.738094 0.197757 0.761608
0.124926 0.33698 0.743816
0.125139 0.337301 0.744366
0.125826 0.336996 0.746197
0.127337 0.330159 0.749142
0.365133 0.266606 0.799512
0.704051 0.249744 0.825422
0.738216 0.197864 0.761669
0.738094 0.197757 0.761608
0.738094 0.197757 0.761608
0.123156 0.371221 0.744793
0.126482 0.379751 0.754421
0.128954 0.380331 0.761852
0.127611 0.365774 0.755795
0.127703 0.329427 0.750011
0.60853 0.269902 0.852003
0.738643 0.19823 0.761944
0.73872 0.198306 0.762005
0.738674 0.19826 0.761975
0.149859 0.58352 0.777752
0.153536 0.58677 0.786145
0.156374 0.585016 0.794903
0.157366 0.57583 0.802838
0.152941 0.542367 0.8047
0.448325 0.466682 0.890028
0.821027 0.35172 0.88632
0.795193 0.25626 0.811841
0.783597 0.243397 0.801572
0.261341 0.756542 0.83505
0.256794 0.75285 0.836332
0.247135 0.745174 0.835004
0.229633 0.728603 0.830152
0.198886 0.697841 0.824308
0.392874 0.691005 0.889906
0.751141 0.690257 0.906203
0.908186 0.626947 0.911055
0.908721 0.607553 0.911315
0.382055 0.872053 0.879408
0.372671 0.867979 0.879149
0.358785 0.861341 0.877211
0.341573 0.849287 0.872633
0.316396 0.825864 0.865202
0.428931 0.831891 0.889357
0.72491 0.8421 0.898955
0.899474 0.848432 0.909422
0.908507 0.830121 0.909209
0.381109 0.885084 0.887541
0.38378 0.885267 0.887816
0.390219 0.88571 0.888121
0.394888 0.886351 0.887907
0.463264 0.889403 0.887678
0.588556 0.891142 0.89099
0.768811 0.898604 0.90222
0.88922 0.906661 0.912367
0.917327 0.912917 0.917037
0.359533 0.880491 0.883589
0.359533 0.880491 0.883589
0.359533 0.880491 0.883589
0.359533 0.880491 0.883589
0.426032 0.888548 0.88925
0.629267 0.896269 0.894133
0.847013 0.90988 0.908812
0.913756 0.919158 0.918761
0.922164 0.922103 0.922164
