bundles/resolve-cinematic-luts/Phantom Luts/Fx6 Phntm Film LUTs-G5/ATOMOS Monitor LUTs/VisionTeal Fx6 AML.cube
TITLE "Generated by Resolve"
LUT_3D_SIZE 33
0.0725872 0.0813611 0.0796368
0.0725872 0.0813611 0.0796368
0.0725414 0.0811475 0.0793011
0.0726635 0.0826734 0.0803845
0.0807202 0.0841688 0.0816205
0.0914168 0.0847028 0.0820172
0.1084 0.0843977 0.0815747
0.130983 0.0840009 0.0809033
0.156283 0.0849317 0.0804761
0.188556 0.0854505 0.0796826
0.230533 0.0848402 0.0778668
0.271687 0.085481 0.0779278
0.315511 0.0865339 0.078233
0.357122 0.0866865 0.0788128
0.402472 0.0871595 0.0813764
0.447318 0.0932326 0.0914473
0.488289 0.0948196 0.100435
0.523659 0.0976272 0.110658
0.561807 0.0944839 0.127901
0.602045 0.105058 0.161196
0.654307 0.12134 0.214252
0.695445 0.136172 0.270985
0.707927 0.142229 0.291859
0.707362 0.142214 0.299153
0.706416 0.142199 0.304067
0.70573 0.142184 0.307805
0.705226 0.142229 0.310918
0.704936 0.142184 0.312779
0.705058 0.142245 0.313817
0.705425 0.142306 0.315007
0.706233 0.142412 0.315526
0.707149 0.142626 0.315587
0.708339 0.142779 0.313008
0.0725719 0.0813001 0.0795605
0.0725719 0.0813458 0.0796216
0.0725567 0.0812695 0.0794995
0.0725414 0.0832532 0.080415
0.0806744 0.0849622 0.0819562
0.0907607 0.0852216 0.0823835
0.108431 0.0851759 0.0826581
0.131518 0.0848707 0.0816205
0.157351 0.0852674 0.0808423
0.19144 0.0856336 0.0799115
0.233921 0.0851759 0.0783398
0.27512 0.0856336 0.0778058
0.319677 0.0868696 0.0778973
0.359472 0.0870069 0.0777447
0.403388 0.0906233 0.0816358
0.447227 0.0919509 0.0868544
0.491493 0.0963455 0.100114
0.526696 0.101625 0.111803
0.563256 0.0957351 0.125673
0.602502 0.105135 0.159121
0.656703 0.121996 0.211414
0.694575 0.13521 0.25597
0.706127 0.140505 0.275257
0.707973 0.14226 0.29543
0.707332 0.14226 0.300145
0.706554 0.142245 0.303761
0.706203 0.142275 0.306493
0.705928 0.142229 0.307652
0.706096 0.142336 0.30898
0.706477 0.142428 0.31014
0.707332 0.14255 0.310506
0.708324 0.142626 0.309483
0.709682 0.142748 0.307073
0.0726024 0.0814221 0.0796063
0.0726177 0.0815442 0.0796979
0.0726177 0.081529 0.0796979
0.0725719 0.0831006 0.0797742
0.0771344 0.0860304 0.0818341
0.0871443 0.0861219 0.0832532
0.104448 0.086305 0.0838026
0.128954 0.0860761 0.0828717
0.15642 0.0862898 0.0816968
0.191592 0.0865339 0.0801556
0.23505 0.0857557 0.0786297
0.276921 0.086656 0.0783856
0.321584 0.08748 0.0786145
0.364492 0.0888685 0.079469
0.404791 0.0912795 0.0802625
0.449409 0.0925307 0.085359
0.49247 0.0959029 0.0958267
0.532372 0.100618 0.111559
0.56405 0.0956741 0.122805
0.602609 0.104997 0.155306
0.657938 0.122271 0.208713
0.694072 0.134737 0.251102
0.705684 0.13994 0.269932
0.709697 0.142412 0.281041
0.707958 0.14229 0.296178
0.707546 0.142306 0.299321
0.70724 0.142306 0.301717
0.707012 0.142275 0.302739
0.707286 0.142382 0.303593
0.707591 0.142428 0.304189
0.708476 0.142458 0.303395
0.709529 0.14258 0.302907
0.710613 0.142824 0.301488
0.0723278 0.0912947 0.081651
0.0724651 0.0902113 0.0805371
0.0726024 0.0884108 0.0801099
0.0725567 0.0880751 0.0806439
0.0758984 0.0886702 0.0829328
0.0834211 0.0884871 0.0837568
0.0996109 0.0877394 0.084184
0.12607 0.0875715 0.0833753
0.155917 0.087892 0.0823682
0.191974 0.0880751 0.0812695
0.235584 0.0866712 0.0793469
0.27895 0.0874189 0.0786603
0.322972 0.0879377 0.0782177
0.366903 0.090135 0.0800641
0.408515 0.0926528 0.0813916
0.45095 0.0963302 0.0857557
0.494011 0.0967727 0.0938888
0.536797 0.104295 0.112963
0.569635 0.0988479 0.122011
0.605417 0.105821 0.152224
0.658106 0.122225 0.202243
0.694301 0.134524 0.245716
0.704952 0.139391 0.265156
0.706096 0.140154 0.271733
0.707622 0.14136 0.278065
0.708095 0.142245 0.292332
0.708141 0.142321 0.295735
0.708156 0.142367 0.296651
0.707881 0.142214 0.296605
0.708186 0.142184 0.296407
0.709346 0.142397 0.296223
0.710552 0.142641 0.296025
0.709987 0.142092 0.290028
0.0717021 0.103136 0.0843214
0.0716259 0.100908 0.0831311
0.0719615 0.097612 0.0827039
0.073518 0.0957809 0.0832685
0.0792096 0.0959945 0.0843061
0.0875105 0.0966201 0.0868391
0.10103 0.0955825 0.0856489
0.126024 0.0935836 0.0853437
0.155077 0.0927291 0.0836805
0.195209 0.0906386 0.0819257
0.236408 0.0892195 0.0798505
0.281956 0.0892195 0.0793774
0.325521 0.0895399 0.0792248
0.368292 0.0914473 0.0801099
0.410239 0.0935683 0.0807507
0.451896 0.0972915 0.0839704
0.496925 0.100633 0.0941482
0.535531 0.100725 0.105913
0.574289 0.107225 0.124544
0.606714 0.106111 0.147036
0.658412 0.12224 0.195392
0.693004 0.133761 0.237995
0.704234 0.138872 0.255985
0.704967 0.1393 0.261997
0.706813 0.140414 0.268284
0.709545 0.142077 0.275135
0.708812 0.142275 0.286458
0.70808 0.142016 0.285908
0.708186 0.142016 0.286076
0.709163 0.142199 0.286656
0.709743 0.142214 0.285008
0.709285 0.141619 0.281682
0.708309 0.140719 0.276295
0.0713054 0.117571 0.0864576
0.0711376 0.115068 0.0843366
0.0712596 0.112673 0.0843061
0.0746929 0.109041 0.0855573
0.0804456 0.107652 0.0870069
0.0908522 0.108522 0.088014
0.103639 0.108873 0.0882887
0.126635 0.104158 0.0868849
0.15259 0.101305 0.0858015
0.194018 0.0997177 0.08365
0.242069 0.0969558 0.0812238
0.287434 0.0930495 0.0798657
0.328191 0.0925307 0.0795758
0.371359 0.09308 0.0805371
0.414405 0.0961013 0.0829938
0.456138 0.099443 0.0856947
0.498939 0.101472 0.0923171
0.541222 0.107988 0.107851
0.575204 0.106676 0.119707
0.605631 0.105913 0.138247
0.656016 0.120989 0.18323
0.693278 0.133761 0.228214
0.703212 0.138262 0.245411
0.703838 0.13843 0.251026
0.704494 0.138903 0.255009
0.704997 0.139193 0.258244
0.705074 0.139178 0.259174
0.707118 0.140734 0.27248
0.707378 0.140764 0.272267
0.707256 0.140429 0.269627
0.706966 0.140047 0.267872
0.706615 0.139452 0.265202
0.705974 0.138766 0.259602
0.0706188 0.13521 0.088426
0.0706798 0.132998 0.085832
0.0708019 0.131212 0.0849012
0.0746014 0.127489 0.0853895
0.0812543 0.124437 0.0885786
0.0921492 0.124208 0.0915236
0.10898 0.126055 0.0899977
0.127749 0.124468 0.087068
0.156374 0.118593 0.0876326
0.190906 0.111589 0.085008
0.244541 0.106279 0.0816205
0.291646 0.104158 0.0812238
0.343114 0.100862 0.0810407
0.375982 0.0967575 0.0807965
0.419699 0.0992142 0.0837262
0.461402 0.102892 0.0879377
0.504265 0.107118 0.0949874
0.543954 0.10753 0.103532
0.576257 0.110033 0.116487
0.605447 0.108141 0.130571
0.651987 0.119387 0.169604
0.691157 0.133104 0.21268
0.699504 0.135882 0.227832
0.701823 0.13695 0.234104
0.702937 0.137804 0.239399
0.703044 0.137926 0.241886
0.703258 0.137987 0.241688
0.703136 0.137728 0.239307
0.704616 0.138781 0.250584
0.704616 0.138628 0.248051
0.704234 0.138338 0.245548
0.703014 0.137362 0.238788
0.701213 0.13608 0.230961
0.0720836 0.155871 0.0920882
0.0706188 0.153674 0.0888838
0.070573 0.152193 0.0872053
0.0772412 0.14963 0.0883345
0.0828107 0.146319 0.0895857
0.0926528 0.144625 0.0945449
0.108858 0.143862 0.0962539
0.130007 0.146578 0.0898451
0.156451 0.143175 0.0872969
0.19408 0.134188 0.0878462
0.242679 0.120745 0.0847486
0.291463 0.116258 0.0832227
0.345495 0.115618 0.0835889
0.391531 0.11516 0.0848859
0.431098 0.11017 0.0860914
0.46685 0.106905 0.0895247
0.509957 0.111788 0.0966506
0.550973 0.115587 0.107149
0.584482 0.113222 0.116426
0.608957 0.109865 0.12639
0.644129 0.116304 0.151919
0.688441 0.131563 0.195865
0.695491 0.134066 0.207446
0.696757 0.134508 0.211536
0.697246 0.134951 0.215518
0.697658 0.135119 0.2168
0.697993 0.135256 0.216632
0.696971 0.134707 0.215412
0.697017 0.134508 0.21033
0.698405 0.135134 0.218997
0.697444 0.1346 0.213642
0.697169 0.134325 0.207996
0.696406 0.133394 0.200916
0.071046 0.182315 0.0948501
0.0704356 0.180026 0.0925612
0.0717632 0.177661 0.0900587
0.0754864 0.176272 0.0888533
0.0827497 0.173266 0.0898756
0.0896925 0.170581 0.0939193
0.105943 0.169558 0.100084
0.129412 0.167956 0.10071
0.153521 0.171908 0.0892958
0.193393 0.165042 0.0872969
0.243534 0.154299 0.0887312
0.29955 0.135973 0.088304
0.342077 0.134356 0.0871901
0.400443 0.13611 0.0903182
0.446311 0.138659 0.093904
0.496468 0.138582 0.100542
0.520836 0.125002 0.102602
0.558663 0.123751 0.109789
0.593835 0.122225 0.120073
0.618112 0.114214 0.126741
0.644144 0.112261 0.142809
0.6851 0.130083 0.176608
0.689235 0.131075 0.18088
0.693019 0.132921 0.190265
0.694881 0.133639 0.194385
0.692988 0.132952 0.189639
0.690013 0.131701 0.183963
0.68954 0.131273 0.181353
0.689372 0.130999 0.178073
0.691539 0.13048 0.182315
0.692332 0.131304 0.184421
0.691539 0.130159 0.181949
0.690318 0.129076 0.179095
0.0696727 0.218204 0.0973526
0.0693675 0.215549 0.0945907
0.0694896 0.211475 0.0930343
0.0700389 0.208957 0.0888838
0.0759747 0.207263 0.0876173
0.0848249 0.204929 0.0896315
0.0984054 0.202518 0.0956436
0.122683 0.203174 0.103517
0.151385 0.201083 0.102998
0.183368 0.206088 0.0868086
0.244465 0.19823 0.088426
0.298573 0.188464 0.0937514
0.358465 0.165484 0.0968643
0.398596 0.164157 0.0984817
0.459541 0.170642 0.105348
0.506035 0.173617 0.110201
0.557519 0.174517 0.118685
0.586938 0.15816 0.12256
0.606897 0.139544 0.124483
0.632197 0.128649 0.131411
0.648814 0.114855 0.138277
0.682704 0.12755 0.164477
0.688502 0.130144 0.170199
0.688563 0.130388 0.170138
0.688518 0.130434 0.169268
0.687968 0.129686 0.167025
0.687526 0.12874 0.165728
0.687129 0.127825 0.165057
0.688334 0.127382 0.166842
0.688472 0.126604 0.165698
0.687617 0.125002 0.163287
0.687419 0.125795 0.162844
0.688701 0.124819 0.163394
0.0752117 0.265812 0.114504
0.0744488 0.261692 0.110857
0.0736248 0.258518 0.107149
0.0725261 0.253025 0.0994583
0.0742504 0.248859 0.0934005
0.0813764 0.247211 0.091783
0.0948196 0.246098 0.0949569
0.116732 0.246357 0.103182
0.14638 0.24831 0.114336
0.185168 0.246265 0.110307
0.230442 0.250095 0.088365
0.297383 0.242267 0.092256
0.353628 0.234791 0.099321
0.411368 0.211063 0.110079
0.45156 0.207904 0.111482
0.508446 0.210178 0.117968
0.561166 0.215747 0.126467
0.608286 0.217899 0.134432
0.650126 0.202564 0.143725
0.668513 0.171283 0.145266
0.677134 0.144961 0.146914
0.689128 0.128801 0.15462
0.688441 0.125017 0.158022
0.687037 0.125902 0.159518
0.686809 0.125154 0.158923
0.68629 0.124331 0.157977
0.686091 0.123522 0.157122
0.690196 0.125002 0.156207
0.694743 0.127474 0.156344
0.697108 0.128099 0.156298
0.698207 0.126818 0.154543
0.692699 0.120226 0.152346
0.693782 0.119783 0.155047
0.0830091 0.315282 0.131945
0.0826734 0.313558 0.129412
0.0818494 0.311452 0.126848
0.0808118 0.3066 0.120272
0.081239 0.302556 0.113176
0.0824445 0.297063 0.104021
0.0929274 0.295186 0.101167
0.112596 0.293965 0.105364
0.138888 0.294286 0.114549
0.178607 0.295033 0.12781
0.229175 0.29099 0.116625
0.276356 0.294865 0.0901503
0.35198 0.288624 0.098024
0.405219 0.285573 0.106065
0.461494 0.265415 0.121386
0.502907 0.262119 0.12961
0.555337 0.258808 0.134981
0.613306 0.265827 0.144915
0.656291 0.267582 0.151019
0.703136 0.259205 0.15903
0.725109 0.223636 0.163424
0.735149 0.184924 0.168978
0.724407 0.16022 0.16524
0.717403 0.152544 0.16257
0.712917 0.144579 0.159609
0.714534 0.143694 0.159075
0.715602 0.143206 0.158465
0.715602 0.141238 0.157397
0.714717 0.13785 0.155505
0.718532 0.148089 0.159808
0.72723 0.164263 0.166659
0.736584 0.183627 0.175341
0.742611 0.18996 0.179553
0.0936141 0.366964 0.152728
0.0925307 0.365103 0.149996
0.0911269 0.3626 0.147082
0.0906386 0.360616 0.144015
0.0897231 0.356329 0.137636
0.0901656 0.352071 0.129107
0.0912947 0.34435 0.115618
0.108904 0.341146 0.110445
0.133059 0.33901 0.116152
0.168154 0.340215 0.128695
0.224186 0.339864 0.143084
0.275425 0.337057 0.124086
0.324071 0.338109 0.0977646
0.404791 0.339498 0.108614
0.457282 0.339666 0.116869
0.51342 0.326879 0.136461
0.559853 0.321859 0.150866
0.60119 0.320027 0.158587
0.66006 0.318212 0.1682
0.705608 0.322545 0.176684
0.739834 0.316381 0.181262
0.762966 0.289219 0.184771
0.770077 0.260197 0.1832
0.767865 0.246967 0.180697
0.764416 0.234668 0.178042
0.762051 0.22533 0.176608
0.759976 0.219684 0.177066
0.759213 0.22295 0.176913
0.76173 0.231357 0.178408
0.765454 0.240421 0.180346
0.770565 0.250233 0.182147
0.772869 0.25803 0.18436
0.774685 0.267811 0.187106
0.108507 0.419165 0.180346
0.106508 0.41735 0.176593
0.105547 0.415351 0.173297
0.105013 0.41413 0.171191
0.103395 0.411078 0.166583
0.103182 0.407538 0.159991
0.102953 0.401328 0.148623
0.104646 0.391928 0.129976
0.129412 0.386938 0.12314
0.155901 0.384375 0.129824
0.211826 0.385702 0.145861
0.275334 0.385428 0.160754
0.32874 0.38323 0.130816
0.375219 0.384817 0.110521
0.458351 0.390677 0.124804
0.509407 0.393713 0.134371
0.563684 0.387472 0.152438
0.615732 0.382177 0.173999
0.648005 0.382986 0.184573
0.700465 0.375143 0.198901
0.742351 0.378408 0.209415
0.766842 0.372412 0.212451
0.782879 0.36173 0.213031
0.782681 0.353368 0.209232
0.782208 0.345663 0.205814
0.781964 0.339834 0.203708
0.780545 0.333928 0.201175
0.780545 0.330083 0.200183
0.779553 0.326833 0.198367
0.780362 0.330449 0.200061
0.780697 0.338262 0.202014
0.782254 0.346868 0.205615
0.783276 0.357061 0.209812
0.127214 0.474083 0.221149
0.125628 0.472572 0.217975
0.124269 0.470207 0.212924
0.122652 0.468009 0.208453
0.12192 0.466941 0.205447
0.121691 0.464424 0.200229
0.121233 0.459174 0.188693
0.121889 0.451896 0.171954
0.124361 0.440833 0.147295
0.153903 0.433829 0.138827
0.194232 0.431205 0.150561
0.26598 0.429526 0.169558
0.330098 0.430381 0.178637
0.381872 0.429984 0.142397
0.429282 0.434195 0.129
0.509514 0.4421 0.14435
0.560754 0.447578 0.156268
0.612055 0.447822 0.173861
0.665782 0.441566 0.203861
0.695827 0.444205 0.215305
0.732662 0.441413 0.234043
0.76524 0.434928 0.245396
0.783871 0.430838 0.248234
0.78558 0.425849 0.246052
0.785214 0.421653 0.244663
0.784634 0.418219 0.242435
0.78497 0.416037 0.24184
0.784772 0.413138 0.240238
0.784039 0.410376 0.238422
0.784527 0.40763 0.238178
0.784268 0.403815 0.236027
0.785122 0.40679 0.238361
0.78529 0.41059 0.240192
0.14905 0.530343 0.266743
0.14696 0.52845 0.263157
0.145159 0.526421 0.259358
0.144518 0.525231 0.255894
0.143725 0.523018 0.252308
0.143053 0.521111 0.248737
0.142672 0.51838 0.243366
0.143053 0.511452 0.229145
0.144366 0.502052 0.201953
0.148394 0.487755 0.16527
0.18909 0.479133 0.159945
0.253162 0.474586 0.177493
0.328374 0.475105 0.202228
0.385092 0.476204 0.197421
0.434882 0.478172 0.158846
0.483711 0.484306 0.149844
0.561349 0.494331 0.168536
0.611872 0.501198 0.182437
0.66009 0.506355 0.198825
0.709987 0.499916 0.233555
0.738399 0.503471 0.246876
0.763745 0.504921 0.258289
0.784192 0.502968 0.2692
0.789609 0.498955 0.273365
0.788876 0.495232 0.272465
0.788769 0.493523 0.272084
0.788769 0.491539 0.271977
0.788693 0.489693 0.272114
0.787854 0.487007 0.270848
0.788159 0.484031 0.271092
0.787686 0.479515 0.270054
0.787305 0.473945 0.269474
0.787808 0.470527 0.269108
0.166217 0.589685 0.313375
0.166155 0.588724 0.311467
0.166217 0.586725 0.309148
0.167758 0.584894 0.307134
0.167697 0.583017 0.303548
0.166567 0.580575 0.29955
0.165789 0.577981 0.295537
0.166461 0.574945 0.288792
0.168032 0.56553 0.269703
0.17026 0.552605 0.238392
0.176791 0.534966 0.187259
0.245136 0.522972 0.190097
0.318593 0.519097 0.216052
0.390387 0.521538 0.239582
0.43827 0.523018 0.220157
0.486183 0.527443 0.180316
0.535119 0.535439 0.173358
0.610239 0.546349 0.196017
0.658167 0.554284 0.216403
0.703059 0.561074 0.233341
0.741802 0.55877 0.25803
0.771038 0.563577 0.276387
0.787259 0.567636 0.283925
0.79501 0.568399 0.287037
0.796384 0.567468 0.287709
0.796124 0.565759 0.286702
0.796185 0.563699 0.286519
0.795956 0.562066 0.285985
0.795407 0.560464 0.285206
0.795422 0.558785 0.284916
0.795544 0.555093 0.284642
0.795254 0.549462 0.283452
0.794522 0.541039 0.281407
0.190066 0.649546 0.36202
0.187427 0.648524 0.359564
0.184512 0.646799 0.356664
0.181659 0.645563 0.353155
0.181292 0.644038 0.350179
0.185245 0.641169 0.347478
0.189792 0.638437 0.345083
0.191623 0.634913 0.340764
0.19292 0.63006 0.331868
0.195926 0.6177 0.307607
0.200748 0.601068 0.268574
0.221836 0.57969 0.216892
0.309941 0.56614 0.230991
0.385916 0.56553 0.255329
0.444144 0.568109 0.268345
0.490043 0.570367 0.243015
0.535973 0.576303 0.207721
0.582483 0.586664 0.205493
0.652949 0.596811 0.230365
0.698924 0.605844 0.251865
0.735759 0.61326 0.267918
0.766323 0.617243 0.282292
0.788663 0.620127 0.298787
0.799771 0.624292 0.304082
0.800732 0.624033 0.303746
0.800488 0.622171 0.303151
0.799771 0.620676 0.302296
0.799832 0.619135 0.302159
0.799558 0.617624 0.301656
0.799863 0.61561 0.301366
0.799512 0.612222 0.299992
0.799008 0.607523 0.298421
0.799069 0.600534 0.296468
0.228717 0.704097 0.409293
0.225055 0.703578 0.407248
0.221927 0.7028 0.405264
0.218463 0.701488 0.402792
0.215915 0.700298 0.399466
0.214603 0.699077 0.396475
0.211475 0.696132 0.390036
0.21619 0.69221 0.385901
0.22182 0.688945 0.382391
0.225605 0.681102 0.368978
0.232364 0.666133 0.339422
0.240009 0.644511 0.291814
0.282704 0.621195 0.25037
0.382834 0.610193 0.272694
0.449088 0.611292 0.294301
0.495995 0.613931 0.295308
0.540566 0.616556 0.266651
0.58497 0.625254 0.241398
0.626154 0.636439 0.243381
0.691279 0.644724 0.265843
0.730587 0.654139 0.287633
0.758663 0.660487 0.301793
0.781338 0.665019 0.311925
0.796597 0.66804 0.320974
0.801053 0.667597 0.324208
0.801083 0.666835 0.323735
0.801221 0.665263 0.322835
0.801343 0.664378 0.322042
0.801801 0.662913 0.321798
0.802182 0.661433 0.32134
0.80177 0.658778 0.318624
0.801907 0.654444 0.317082
0.801678 0.648936 0.314611
0.271138 0.749752 0.454047
0.26772 0.749447 0.452445
0.265278 0.749462 0.450645
0.262364 0.749386 0.448707
0.259815 0.748135 0.446494
0.257939 0.746944 0.443244
0.254826 0.744808 0.438163
0.252415 0.742199 0.431632
0.252827 0.738842 0.425269
0.259495 0.734524 0.420737
0.262547 0.725139 0.401801
0.269932 0.706859 0.364294
0.284627 0.680873 0.30988
0.360327 0.657526 0.289921
0.450614 0.65214 0.314321
0.503594 0.65362 0.32874
0.543496 0.655467 0.320195
0.587137 0.659205 0.295735
0.628931 0.669642 0.275578
0.667643 0.682063 0.281224
0.723171 0.688609 0.303059
0.752636 0.69807 0.322087
0.774289 0.703624 0.333532
0.790143 0.706249 0.341344
0.799023 0.705272 0.346883
0.800549 0.703441 0.347463
0.800366 0.702296 0.346517
0.800656 0.701045 0.346334
0.800931 0.699626 0.345663
0.801053 0.697673 0.344533
0.800809 0.69482 0.341817
0.801099 0.691234 0.339467
0.801465 0.685664 0.336187
0.314855 0.787274 0.498054
0.311879 0.787152 0.496529
0.309712 0.787091 0.494789
0.306416 0.786419 0.492515
0.303471 0.785809 0.490333
0.301823 0.784909 0.487846
0.299596 0.783886 0.484031
0.296391 0.781796 0.478416
0.293217 0.779034 0.47042
0.29247 0.774624 0.462394
0.296529 0.769451 0.454139
0.299809 0.757 0.427619
0.310018 0.735393 0.382391
0.338537 0.709728 0.332006
0.438972 0.688533 0.332967
0.506783 0.687312 0.353262
0.549691 0.688579 0.359121
0.586435 0.690364 0.345983
0.627756 0.695415 0.324468
0.669367 0.708705 0.311772
0.703883 0.719707 0.322469
0.746883 0.725582 0.341436
0.769757 0.732174 0.356023
0.785031 0.737133 0.365759
0.795758 0.739284 0.372137
0.798871 0.738689 0.374304
0.798856 0.737301 0.373312
0.798962 0.736156 0.372198
0.79913 0.734615 0.370672
0.799191 0.732784 0.369238
0.798886 0.730694 0.367529
0.799329 0.727306 0.364706
0.799405 0.722042 0.360449
0.356268 0.810361 0.53225
0.354742 0.810697 0.530846
0.352224 0.810849 0.52903
0.349248 0.81062 0.527352
0.346609 0.8103 0.52546
0.344076 0.809476 0.522484
0.341253 0.808682 0.519097
0.338689 0.807172 0.51429
0.334249 0.80415 0.506981
0.329809 0.801282 0.497581
0.331991 0.796216 0.489464
0.331487 0.789593 0.474434
0.339895 0.7738 0.440467
0.355749 0.750057 0.391501
0.404944 0.724697 0.355627
0.506447 0.713252 0.372168
0.556237 0.714305 0.385367
0.593011 0.716625 0.38378
0.627741 0.719249 0.371038
0.669047 0.727092 0.354101
0.706538 0.740871 0.347906
0.733074 0.747936 0.361913
0.765759 0.752758 0.376699
0.782666 0.75758 0.387213
0.792966 0.760327 0.39411
0.796735 0.761166 0.39823
0.797436 0.760555 0.39826
0.797452 0.759808 0.397498
0.797162 0.75903 0.396323
0.796826 0.757702 0.394797
0.797498 0.75639 0.393362
0.797452 0.754284 0.390997
0.797909 0.750118 0.386007
0.375708 0.8206 0.55108
0.374411 0.820508 0.549157
0.372549 0.820844 0.547997
0.370779 0.821149 0.546426
0.368765 0.821408 0.545464
0.367407 0.821317 0.543359
0.365301 0.820859 0.540627
0.362936 0.819852 0.536431
0.359838 0.817594 0.530282
0.355108 0.81532 0.521874
0.351217 0.811521 0.511452
0.351064 0.807294 0.501366
0.356313 0.798245 0.48069
0.374792 0.779232 0.44329
0.405493 0.755276 0.402991
0.47808 0.735775 0.389303
0.558434 0.734676 0.408698
0.596155 0.736049 0.412573
0.629816 0.738155 0.407614
0.664805 0.742733 0.397177
0.70486 0.752773 0.383688
0.733959 0.764874 0.383688
0.754208 0.767697 0.397162
0.779126 0.771405 0.407233
0.790631 0.775082 0.414176
0.79527 0.776562 0.419181
0.796719 0.776532 0.42063
0.796719 0.775647 0.419715
0.796826 0.77499 0.418433
0.796582 0.774182 0.417182
0.79678 0.772869 0.415213
0.797131 0.771038 0.41236
0.797284 0.767987 0.408545
0.378317 0.821439 0.55729
0.376837 0.821454 0.555627
0.375357 0.821744 0.554101
0.373678 0.822019 0.552651
0.371862 0.822339 0.55082
0.370169 0.822385 0.548913
0.367971 0.821942 0.54583
0.365576 0.821012 0.541207
0.362524 0.819684 0.535836
0.358053 0.816678 0.527626
0.352392 0.813535 0.515938
0.351995 0.808637 0.505119
0.353552 0.801221 0.487144
0.373678 0.786694 0.457099
0.406165 0.769116 0.427146
0.467628 0.751553 0.413016
0.546365 0.746838 0.425452
0.598871 0.750286 0.439689
0.633433 0.753017 0.440131
0.66685 0.756222 0.434073
0.70161 0.7617 0.424018
0.73463 0.771939 0.415595
0.756313 0.781216 0.417716
0.771572 0.780362 0.425834
0.787778 0.785229 0.435676
0.794537 0.78732 0.441993
0.796139 0.787625 0.444083
0.796094 0.786969 0.442206
0.796262 0.786404 0.440238
0.796445 0.785687 0.438895
0.796185 0.784573 0.435706
0.796551 0.783261 0.433204
0.796353 0.781201 0.429404
0.379629 0.822446 0.562799
0.378637 0.822538 0.561273
0.376822 0.822812 0.559808
0.375204 0.82298 0.557671
0.373724 0.822965 0.555779
0.372015 0.82298 0.553567
0.370321 0.822858 0.550225
0.367742 0.822126 0.545953
0.364904 0.820844 0.54023
0.360891 0.818433 0.53257
0.354757 0.815015 0.520882
0.353628 0.809995 0.509041
0.35314 0.803494 0.492271
0.369039 0.789364 0.462593
0.400824 0.771191 0.430137
0.458366 0.753307 0.413565
0.536934 0.746593 0.423148
0.594247 0.750591 0.439963
0.630655 0.753887 0.443503
0.663615 0.758144 0.440238
0.697337 0.76321 0.433997
0.730983 0.77258 0.428016
0.754604 0.783047 0.430426
0.767651 0.782605 0.43888
0.782544 0.787457 0.445991
0.7935 0.791669 0.458473
0.797345 0.79382 0.469169
0.797635 0.793912 0.470466
0.797299 0.793362 0.46833
0.797101 0.792844 0.465797
0.79649 0.792294 0.462623
0.796338 0.791318 0.459861
0.796689 0.79028 0.455131
0.380926 0.823117 0.567712
0.379553 0.823117 0.565805
0.378225 0.823194 0.563394
0.376455 0.823499 0.562097
0.37525 0.823636 0.560418
0.374029 0.823575 0.557717
0.371893 0.823178 0.553918
0.369772 0.822873 0.549615
0.366995 0.821683 0.543832
0.36257 0.819883 0.536233
0.356893 0.816266 0.525475
0.35317 0.811093 0.511269
0.352514 0.805493 0.497276
0.366796 0.792477 0.469123
0.394446 0.773877 0.433265
0.447059 0.755383 0.41326
0.527962 0.746151 0.420615
0.58996 0.750179 0.439719
0.626184 0.753643 0.443809
0.659937 0.75787 0.441184
0.693629 0.762692 0.436027
0.726421 0.771359 0.430335
0.751522 0.782025 0.431449
0.765438 0.783246 0.439857
0.780056 0.78703 0.445945
0.791974 0.791592 0.456199
0.797208 0.794903 0.472419
0.79765 0.795453 0.478828
0.79762 0.795392 0.478218
0.797574 0.79527 0.477028
0.797513 0.795132 0.476112
0.797559 0.795117 0.475456
0.797574 0.795071 0.475151
0.381079 0.824292 0.572625
0.379705 0.82417 0.570062
0.378592 0.824125 0.568109
0.377157 0.824247 0.565942
0.375753 0.824277 0.563485
0.374777 0.824079 0.561212
0.373358 0.82385 0.557794
0.371023 0.823209 0.552804
0.368277 0.822416 0.547021
0.364263 0.820768 0.539467
0.358526 0.817197 0.528801
0.352041 0.812787 0.513817
0.352071 0.807004 0.500435
0.363409 0.795254 0.475029
0.389563 0.776333 0.437095
0.437278 0.757656 0.413718
0.519295 0.74667 0.41912
0.585138 0.749783 0.438865
0.622934 0.753536 0.444053
0.655299 0.757244 0.441855
0.689219 0.761868 0.437339
0.722484 0.769818 0.43064
0.748074 0.780621 0.429648
0.763348 0.783703 0.437339
0.777279 0.786282 0.442725
0.789609 0.790768 0.453712
