bundles/resolve-cinematic-luts/Phantom Luts/Fx6 Phntm Film LUTs-G5/ATOMOS Monitor LUTs/VisionTeal Fx6 AML.cube
TITLE "Generated by Resolve"
LUT_3D_SIZE 9
0.0725872 0.0813611 0.0796368
0.0807202 0.0841688 0.0816205
0.156283 0.0849317 0.0804761
0.315511 0.0865339 0.078233
0.488289 0.0948196 0.100435
0.654307 0.12134 0.214252
0.706416 0.142199 0.304067
0.705058 0.142245 0.313817
0.708339 0.142779 0.313008
0.0717021 0.103136 0.0843214
0.0792096 0.0959945 0.0843061
0.155077 0.0927291 0.0836805
0.325521 0.0895399 0.0792248
0.496925 0.100633 0.0941482
0.658412 0.12224 0.195392
0.706813 0.140414 0.268284
0.708186 0.142016 0.286076
0.708309 0.140719 0.276295
0.071046 0.182315 0.0948501
0.0827497 0.173266 0.0898756
0.153521 0.171908 0.0892958
0.342077 0.134356 0.0871901
0.520836 0.125002 0.102602
0.644144 0.112261 0.142809
0.694881 0.133639 0.194385
0.689372 0.130999 0.178073
0.690318 0.129076 0.179095
0.0936141 0.366964 0.152728
0.0897231 0.356329 0.137636
0.133059 0.33901 0.116152
0.324071 0.338109 0.0977646
0.559853 0.321859 0.150866
0.739834 0.316381 0.181262
0.764416 0.234668 0.178042
0.76173 0.231357 0.178408
0.774685 0.267811 0.187106
0.166217 0.589685 0.313375
0.167697 0.583017 0.303548
0.168032 0.56553 0.269703
0.318593 0.519097 0.216052
0.535119 0.535439 0.173358
0.741802 0.55877 0.25803
0.796384 0.567468 0.287709
0.795407 0.560464 0.285206
0.794522 0.541039 0.281407
0.314855 0.787274 0.498054
0.303471 0.785809 0.490333
0.293217 0.779034 0.47042
0.310018 0.735393 0.382391
0.549691 0.688579 0.359121
0.703883 0.719707 0.322469
0.795758 0.739284 0.372137
0.79913 0.734615 0.370672
0.799405 0.722042 0.360449
0.379629 0.822446 0.562799
0.373724 0.822965 0.555779
0.364904 0.820844 0.54023
0.35314 0.803494 0.492271
0.536934 0.746593 0.423148
0.697337 0.76321 0.433997
0.782544 0.787457 0.445991
0.797299 0.793362 0.46833
0.796689 0.79028 0.455131
0.382055 0.825528 0.578012
0.379294 0.823758 0.567742
0.37322 0.821118 0.549279
0.356939 0.806775 0.504067
0.497017 0.746059 0.412863
0.681483 0.759976 0.438972
0.773449 0.785519 0.440055
0.797925 0.795392 0.477073
0.797696 0.79556 0.478401
0.38204 0.827436 0.584497
0.379095 0.826047 0.575067
0.375952 0.823331 0.560433
0.35964 0.814221 0.52192
0.418875 0.762524 0.419455
0.641489 0.755474 0.443366
0.757336 0.784451 0.431968
0.797452 0.794919 0.471031
0.797482 0.795422 0.477378
0.0723888 0.0835889 0.0899825
0.0851606 0.0840772 0.101488
0.163317 0.0831006 0.114092
0.33753 0.0795758 0.114305
0.502785 0.0864881 0.144961
0.676631 0.130632 0.28751
0.702068 0.141924 0.332921
0.700755 0.142168 0.341192
0.705242 0.143053 0.334279
0.0720684 0.0957351 0.0906996
0.0743572 0.0919509 0.0902419
0.156542 0.0846723 0.0852369
0.313375 0.0819409 0.0847791
0.482918 0.0866255 0.116258
0.65771 0.122988 0.249897
0.706203 0.142473 0.317235
0.706264 0.142748 0.320287
0.710643 0.142733 0.303243
0.0702525 0.180667 0.116258
0.0702983 0.170581 0.0962692
0.146731 0.164446 0.0904402
0.348989 0.125231 0.0867475
0.505821 0.11046 0.0969406
0.649607 0.119051 0.175021
0.702586 0.137575 0.241718
0.70248 0.137026 0.235172
0.692958 0.132296 0.191089
0.0828107 0.374136 0.169986
0.0883955 0.360037 0.152361
0.101778 0.333196 0.108995
0.319951 0.334661 0.0981308
0.55436 0.311452 0.148363
0.743542 0.30164 0.179767
0.756497 0.211704 0.174289
0.760723 0.223545 0.177859
0.773968 0.263188 0.186694
0.15938 0.594949 0.33051
0.151797 0.586358 0.310506
0.1635 0.570611 0.288991
0.295811 0.51722 0.206958
0.530388 0.532296 0.172992
0.744869 0.554635 0.259785
0.795575 0.560037 0.285267
0.794919 0.552117 0.283375
0.794141 0.531395 0.280293
0.315404 0.787289 0.506767
0.305272 0.787823 0.499397
0.294102 0.780163 0.479072
0.30312 0.742641 0.401419
0.54313 0.686183 0.357107
0.700252 0.716182 0.318669
0.795392 0.735683 0.368246
0.798474 0.730007 0.367102
0.800153 0.717189 0.357458
0.382147 0.824063 0.573251
0.376593 0.824323 0.565225
0.369589 0.822629 0.548867
0.353277 0.807523 0.502724
0.522026 0.746456 0.419409
0.692699 0.761929 0.434821
0.781155 0.786709 0.445106
0.797024 0.79266 0.465782
0.796384 0.789258 0.451392
0.384314 0.827176 0.587457
0.381674 0.825788 0.578347
0.377523 0.822477 0.559472
0.360388 0.810025 0.513237
0.479271 0.74844 0.411261
0.675669 0.759304 0.439536
0.771145 0.785214 0.44184
0.79794 0.795514 0.478264
0.797742 0.795712 0.479576
0.384176 0.82826 0.592645
0.382559 0.827115 0.584222
0.379431 0.82414 0.569436
0.364431 0.817746 0.533379
0.408103 0.768643 0.429358
0.636561 0.754726 0.443809
0.754696 0.783337 0.432471
0.797192 0.794873 0.470863
0.797482 0.795544 0.47863
0.0713359 0.100221 0.145205
0.0862898 0.0936294 0.162768
0.159472 0.0845045 0.173663
0.327123 0.080766 0.185657
0.499046 0.0877241 0.226459
0.671595 0.132525 0.352041
0.685954 0.1393 0.381292
0.684855 0.139284 0.385626
0.689784 0.140856 0.380362
0.0716411 0.100725 0.125124
0.0716411 0.098024 0.142733
0.143145 0.0847791 0.160784
0.316823 0.080766 0.159411
0.50547 0.0877699 0.193133
0.676844 0.133227 0.331945
0.692256 0.140688 0.365209
0.69163 0.140749 0.368841
0.698085 0.14226 0.35993
0.0703899 0.173373 0.145892
0.0702678 0.167239 0.143801
0.151308 0.171328 0.16437
0.366552 0.123705 0.123766
0.498497 0.0899672 0.122087
0.665888 0.125582 0.251347
0.707774 0.142657 0.305623
0.708553 0.142611 0.301259
0.706722 0.139269 0.265431
0.0846723 0.375357 0.219013
0.0813764 0.368963 0.197406
0.0865644 0.347601 0.149722
0.320562 0.3364 0.115465
0.567483 0.290318 0.151125
0.743282 0.256596 0.177584
0.747097 0.195514 0.178317
0.758602 0.198978 0.176471
0.769879 0.250965 0.183337
0.161624 0.596216 0.363256
0.153429 0.592142 0.346716
0.146578 0.576562 0.304982
0.237598 0.515587 0.187091
0.526604 0.528023 0.172488
0.746914 0.546517 0.261479
0.795163 0.548333 0.28275
0.794553 0.538155 0.281041
0.794522 0.52874 0.2804
0.316686 0.786343 0.523919
0.306203 0.787198 0.516091
0.297078 0.783154 0.495613
0.289006 0.754269 0.432609
0.531289 0.682597 0.354528
0.696315 0.712032 0.315511
0.794781 0.729961 0.363348
0.798993 0.724041 0.362051
0.800473 0.710155 0.352728
0.386908 0.826749 0.590631
0.381353 0.827771 0.5841
0.376089 0.824689 0.56611
0.355505 0.813535 0.51722
0.495613 0.747066 0.41474
0.685206 0.760784 0.439429
0.77879 0.785443 0.444358
0.796796 0.791745 0.462791
0.796323 0.7879 0.447227
0.389319 0.829465 0.603876
0.384451 0.829099 0.596124
0.381735 0.825971 0.578988
0.364691 0.816495 0.530724
0.451011 0.753399 0.411307
0.667582 0.75874 0.442527
0.767651 0.784482 0.445975
0.797986 0.795773 0.480232
0.797803 0.795926 0.481147
0.388754 0.830213 0.605859
0.384634 0.829465 0.59733
0.382544 0.827344 0.585122
0.371374 0.820706 0.54612
0.39147 0.777874 0.444083
0.628885 0.753658 0.443519
0.751385 0.78204 0.435538
0.796719 0.794812 0.471
0.797574 0.795789 0.480262
0.0701305 0.133791 0.293095
0.0812695 0.118776 0.31632
0.149065 0.0952468 0.333364
0.325841 0.0829328 0.331044
0.507103 0.0945907 0.352102
0.648615 0.117113 0.41622
0.668818 0.123583 0.425681
0.66862 0.123812 0.419898
0.671214 0.125841 0.41503
0.0705119 0.14226 0.262592
0.0702373 0.13254 0.288075
0.12459 0.109712 0.327932
0.315496 0.0826429 0.321874
0.497505 0.0923629 0.335241
0.646097 0.117494 0.401831
0.668467 0.124208 0.413596
0.669367 0.125002 0.414145
0.673686 0.128847 0.411292
0.0699168 0.176822 0.242679
0.070161 0.169818 0.254231
0.0766003 0.15288 0.314748
0.302022 0.0862593 0.311498
0.485847 0.0926375 0.306508
0.655818 0.12578 0.389013
0.673411 0.130907 0.40351
0.675227 0.132723 0.400641
0.683635 0.139422 0.393103
0.0704814 0.363638 0.298573
0.0699931 0.359243 0.2963
0.0699168 0.350439 0.288792
0.368826 0.374472 0.349447
0.607401 0.295216 0.288869
0.715694 0.162142 0.284642
0.719509 0.147738 0.300145
0.715801 0.143496 0.274556
0.745434 0.15967 0.234318
0.15227 0.601892 0.432181
0.148714 0.598718 0.425269
0.151461 0.589731 0.406699
0.154742 0.562554 0.304997
0.532891 0.538872 0.256001
0.752651 0.543557 0.323522
0.795956 0.517403 0.324727
0.794141 0.504097 0.31104
0.793256 0.503227 0.295155
0.317021 0.787686 0.568276
0.306523 0.787778 0.562799
0.299168 0.782544 0.545983
0.279973 0.76669 0.480613
0.482826 0.677989 0.35108
0.687343 0.703395 0.313039
0.796704 0.718578 0.368307
0.800595 0.709865 0.364263
0.80148 0.695735 0.353353
0.398367 0.834089 0.632578
0.392584 0.834699 0.626734
0.389105 0.832441 0.613535
0.376638 0.824811 0.567651
0.419913 0.772137 0.443946
0.667384 0.759472 0.450248
0.774151 0.783291 0.44509
0.796765 0.788403 0.454612
0.796521 0.783719 0.439338
0.400732 0.836805 0.643885
0.395239 0.836454 0.636606
0.391241 0.834363 0.623133
0.38201 0.826307 0.581262
0.38941 0.784436 0.461799
0.648295 0.759564 0.457694
0.76318 0.78703 0.454002
0.798352 0.79649 0.485618
0.798154 0.796506 0.485588
0.397024 0.836057 0.63772
0.39324 0.835325 0.630594
0.390173 0.833829 0.619669
0.383551 0.827207 0.586389
0.366232 0.801892 0.494896
0.611841 0.754559 0.452567
0.741054 0.7785 0.444099
0.795285 0.794537 0.473152
0.798001 0.79646 0.485069
0.0700542 0.193194 0.460044
0.0737774 0.171054 0.476463
0.148425 0.158083 0.502235
0.332204 0.112001 0.509316
0.518364 0.112245 0.532586
0.701946 0.137484 0.56875
0.724437 0.147295 0.597436
0.719432 0.14197 0.585489
0.696757 0.127245 0.522316
0.0699016 0.213443 0.438041
0.0700389 0.192065 0.458991
0.106065 0.162875 0.489204
0.312428 0.110842 0.50695
0.514061 0.112306 0.527245
0.695811 0.133822 0.557961
0.71928 0.141833 0.585077
0.712917 0.13434 0.566308
0.691218 0.125536 0.507973
0.0698253 0.22504 0.415351
0.0696117 0.22002 0.423865
0.0697795 0.186236 0.457191
0.269017 0.112779 0.50248
0.505241 0.112337 0.517296
0.682368 0.127596 0.536736
0.707271 0.132647 0.552361
0.700236 0.130297 0.53135
0.682231 0.123156 0.487602
0.0699016 0.361715 0.418235
0.06981 0.353262 0.422095
0.0700694 0.337728 0.428244
0.198566 0.310231 0.538231
0.550027 0.204639 0.550057
0.659419 0.127001 0.491432
0.687648 0.12784 0.488029
0.681178 0.125353 0.472511
0.67245 0.124086 0.440253
0.131044 0.59173 0.522942
0.125734 0.58909 0.522271
0.123522 0.583368 0.517113
0.124483 0.569924 0.504433
0.590356 0.583734 0.559625
0.798276 0.541009 0.527459
0.818158 0.463462 0.495216
0.818189 0.460395 0.472923
0.811109 0.475624 0.431861
0.275227 0.802075 0.649577
0.267185 0.80174 0.646647
0.264073 0.796445 0.636149
0.263844 0.780377 0.602609
0.444068 0.748928 0.532204
0.704967 0.729397 0.498817
0.819471 0.732906 0.530434
0.823102 0.725368 0.519661
0.819043 0.706996 0.486809
0.389563 0.855634 0.706416
0.386328 0.855238 0.701213
0.388067 0.852338 0.690394
0.394553 0.844358 0.663996
0.433997 0.822599 0.582437
0.661021 0.78439 0.552666
0.78027 0.79556 0.542062
0.810101 0.797833 0.548608
0.808194 0.789685 0.527352
0.389685 0.85742 0.715328
0.38526 0.85745 0.708919
0.386603 0.854597 0.69781
0.392798 0.84622 0.670314
0.407706 0.826032 0.586297
0.625589 0.784237 0.54493
0.76199 0.798642 0.546334
0.809842 0.812085 0.572122
0.807538 0.809308 0.5579
0.389334 0.854139 0.700328
0.389105 0.852644 0.692775
0.389593 0.850065 0.682719
0.394675 0.843366 0.660822
0.393835 0.827665 0.590036
0.545861 0.772671 0.501259
0.728267 0.783444 0.510719
0.796246 0.80264 0.534432
0.80415 0.805493 0.538003
0.0703288 0.303975 0.637125
0.0699321 0.279866 0.644739
0.12723 0.24892 0.65507
0.330434 0.176593 0.691646
0.5505 0.183963 0.710872
0.721935 0.168368 0.746105
0.746532 0.17847 0.772732
0.746761 0.181811 0.783795
0.746853 0.178943 0.775357
0.0700542 0.323247 0.630594
0.0700847 0.302602 0.635859
0.0816358 0.262562 0.646387
0.305028 0.18114 0.689052
0.542 0.181582 0.70808
0.717433 0.166583 0.740536
0.746151 0.177066 0.76733
0.746426 0.180224 0.778561
0.747143 0.176425 0.765652
0.0701152 0.332586 0.615686
0.0703593 0.328893 0.624262
0.0704204 0.297658 0.629847
0.270054 0.222126 0.675456
0.526268 0.177554 0.702037
0.707103 0.162722 0.729885
0.746792 0.175525 0.756359
0.745754 0.177203 0.766934
0.748028 0.172229 0.742901
0.0707103 0.383429 0.584863
0.0703593 0.376989 0.589487
0.0700389 0.364813 0.597284
0.0700694 0.309728 0.651514
0.478859 0.177188 0.693141
0.679652 0.153323 0.700526
0.748791 0.182818 0.719676
0.748837 0.177432 0.729809
0.756298 0.18822 0.691661
0.0710613 0.593805 0.622843
0.0712749 0.591165 0.623331
0.0711986 0.585885 0.6224
0.0711986 0.571221 0.630854
0.472831 0.530083 0.739391
0.761532 0.473243 0.753033
0.796658 0.396414 0.709468
0.789288 0.352972 0.687114
0.774701 0.255802 0.637201
0.251316 0.792813 0.731182
0.244724 0.790951 0.729213
0.23798 0.786847 0.723873
0.228336 0.775509 0.711223
0.417609 0.756176 0.702876
0.750179 0.753292 0.732876
0.86743 0.726329 0.711421
0.869169 0.698253 0.691722
0.861631 0.68954 0.66125
0.421103 0.866133 0.776883
0.411521 0.868635 0.774533
0.404654 0.868177 0.769085
0.385367 0.865354 0.757275
0.418601 0.847745 0.722545
0.683986 0.833143 0.717327
0.809506 0.829694 0.71017
0.85597 0.827176 0.716381
0.85304 0.817121 0.697154
0.42739 0.864958 0.782437
0.417609 0.867918 0.779293
0.411246 0.868788 0.773999
0.402152 0.867552 0.760708
0.423499 0.856977 0.721981
0.655268 0.845579 0.711192
0.787823 0.842206 0.715923
0.845609 0.855406 0.728359
0.849897 0.855695 0.727123
0.41294 0.867689 0.772656
0.407858 0.867796 0.767773
0.402731 0.867643 0.761852
0.395026 0.865736 0.749126
0.402472 0.856306 0.710262
0.590829 0.836194 0.674235
0.751705 0.827817 0.680751
0.824964 0.843259 0.694118
0.845762 0.850904 0.712947
0.070573 0.429252 0.757046
0.0707561 0.420142 0.75964
0.070634 0.385809 0.768139
0.320989 0.313268 0.782498
0.560265 0.263188 0.803967
0.730663 0.218036 0.809079
0.749172 0.204669 0.814435
0.749126 0.20473 0.814435
0.749096 0.20473 0.814374
0.0708324 0.432471 0.752758
0.0709697 0.426947 0.756405
0.0709087 0.40383 0.76286
0.289662 0.318273 0.779629
0.549111 0.261418 0.802991
0.728023 0.220401 0.808408
0.749203 0.204608 0.814389
0.749157 0.204715 0.81445
0.749126 0.20473 0.814435
0.0709544 0.435004 0.744854
0.0707561 0.431662 0.74699
0.0706951 0.420249 0.752041
0.22211 0.329427 0.772915
0.527138 0.258869 0.798703
0.718303 0.221485 0.803983
0.749187 0.204211 0.813947
0.749126 0.20473 0.814435
0.749157 0.204715 0.81445
0.0707256 0.43711 0.711192
0.0707408 0.433631 0.715923
0.0709392 0.428885 0.722835
0.070985 0.405341 0.746548
0.4542 0.251652 0.788647
0.69424 0.233997 0.79585
0.749996 0.198734 0.809293
0.749325 0.202411 0.811902
0.749126 0.202014 0.811383
0.0710918 0.622934 0.724269
0.0714122 0.617853 0.725475
0.0713817 0.611017 0.729015
0.0715496 0.596918 0.744228
0.383078 0.543328 0.804211
0.720439 0.473472 0.829358
0.789609 0.348424 0.820127
0.784009 0.318563 0.815778
0.770962 0.246586 0.800778
0.197711 0.786297 0.784085
0.190494 0.783764 0.783047
0.18114 0.779629 0.781384
0.158495 0.768994 0.776944
0.291615 0.748775 0.78616
0.686961 0.720684 0.828748
0.852918 0.69514 0.841703
0.866667 0.669963 0.829984
0.857572 0.634043 0.802396
0.428153 0.860578 0.80798
0.41796 0.860838 0.807523
0.403037 0.859968 0.805325
0.376196 0.857359 0.80206
0.389303 0.844617 0.791897
0.675914 0.836713 0.799542
0.837583 0.847761 0.827619
0.885374 0.833341 0.815839
0.881285 0.814679 0.799817
0.450111 0.861494 0.81297
0.44773 0.86247 0.811154
0.445411 0.862699 0.807996
0.440635 0.86334 0.802136
0.456092 0.864118 0.788922
0.666926 0.86891 0.79411
0.810727 0.884718 0.819623
0.874662 0.887694 0.823713
0.881239 0.884459 0.822828
0.449439 0.861036 0.807721
0.444648 0.862638 0.805982
0.441474 0.863218 0.803159
0.436942 0.86392 0.797894
0.439185 0.865553 0.783352
0.604395 0.862013 0.774594
0.77818 0.877134 0.798138
0.860197 0.884855 0.813519
0.881453 0.890196 0.82327
0.0709544 0.441245 0.767849
0.0706645 0.436744 0.771069
0.0710765 0.412284 0.784482
0.326574 0.333883 0.794568
0.570001 0.279332 0.810727
0.735912 0.216861 0.812284
0.749157 0.204715 0.81445
0.749157 0.204715 0.81445
0.749142 0.204715 0.81445
0.0709087 0.441825 0.761715
0.0709392 0.441215 0.767758
0.0707256 0.428183 0.777783
0.293156 0.34078 0.791806
0.558465 0.281163 0.810529
0.733379 0.223606 0.812314
0.749157 0.204715 0.81445
0.749157 0.204715 0.81445
0.749142 0.204715 0.814435
0.0708782 0.445777 0.754208
0.0708782 0.445106 0.757977
0.0709544 0.44126 0.767605
0.217395 0.360708 0.789776
0.534249 0.284337 0.810697
0.726665 0.234882 0.811612
0.749172 0.204791 0.814435
0.749142 0.204715 0.814435
0.749157 0.204715 0.81445
0.0708782 0.478141 0.756756
0.0708476 0.470405 0.754849
0.0710155 0.45684 0.75169
0.0708171 0.439933 0.769375
0.451102 0.288579 0.807416
0.702312 0.268025 0.811872
0.749172 0.205219 0.814237
0.749203 0.205203 0.814252
0.749187 0.205127 0.814267
0.0714427 0.644678 0.775982
0.0714427 0.640742 0.777951
0.071397 0.635309 0.780514
0.0713359 0.615625 0.780087
0.335393 0.553674 0.8159
0.699763 0.474296 0.841581
0.786572 0.35874 0.829435
0.780713 0.331762 0.826978
0.770459 0.281254 0.823896
0.148928 0.805142 0.818296
0.139162 0.801999 0.81709
0.12604 0.797772 0.816693
0.0967422 0.788113 0.814527
0.219409 0.759564 0.821286
0.642054 0.722789 0.856474
0.829007 0.698344 0.878813
0.855558 0.667643 0.875273
0.85124 0.639292 0.874525
0.347555 0.867948 0.827131
0.350545 0.865812 0.827405
0.345251 0.862654 0.826978
0.32372 0.857191 0.826246
0.314382 0.844465 0.825177
0.629908 0.828351 0.835431
0.803326 0.828031 0.864042
0.881468 0.814679 0.872847
0.880385 0.798688 0.867857
0.331167 0.875547 0.826322
0.32752 0.877028 0.827207
0.32752 0.877028 0.827207
0.347539 0.874952 0.825284
0.467491 0.861402 0.815686
0.662257 0.867185 0.824887
0.80737 0.88513 0.857298
0.882719 0.894133 0.875624
0.891829 0.890013 0.870405
0.330053 0.876036 0.826917
0.327626 0.876982 0.827207
0.32755 0.877028 0.827207
0.374304 0.870481 0.823301
0.460914 0.861479 0.81387
0.610803 0.863951 0.812848
0.784588 0.887404 0.846555
0.87512 0.900679 0.873472
0.89279 0.901869 0.877531
0.0709544 0.440833 0.76936
0.0711528 0.43418 0.773892
0.070634 0.407858 0.785519
0.331579 0.333059 0.794736
0.572244 0.279332 0.810895
0.736568 0.213001 0.81207
0.749157 0.204715 0.81445
0.749157 0.204715 0.81445
0.749157 0.204715 0.81445
0.0709087 0.442115 0.763577
0.0709544 0.440848 0.769238
0.0708476 0.424918 0.77966
0.298085 0.33962 0.792096
0.559731 0.281056 0.810636
0.733974 0.220783 0.812329
0.749157 0.204715 0.81445
0.749157 0.204715 0.81445
0.749157 0.204715 0.81445
0.0708782 0.445838 0.755138
0.0708934 0.443854 0.759426
0.0709544 0.440925 0.769085
0.225315 0.357992 0.789517
0.535348 0.284199 0.810605
0.727184 0.233616 0.811612
0.749172 0.204837 0.81442
0.749142 0.204746 0.81445
0.749157 0.204715 0.81445
0.0711681 0.476036 0.75697
0.0708476 0.467872 0.75433
0.0709544 0.453986 0.750866
0.0706035 0.438941 0.769207
0.452064 0.288502 0.807324
0.701854 0.267536 0.811704
0.749187 0.205219 0.814252
0.749187 0.205203 0.814252
0.749172 0.205127 0.814267
0.0714275 0.644617 0.784253
0.0711681 0.638315 0.783032
0.0713054 0.629633 0.782086
0.071107 0.606638 0.778683
0.316136 0.54313 0.814237
0.68716 0.453819 0.837903
0.780667 0.328695 0.827115
0.773693 0.298207 0.824918
0.761059 0.246448 0.819638
0.125628 0.808042 0.826337
0.118669 0.804532 0.825315
0.10721 0.798993 0.823499
0.0833143 0.785504 0.817441
0.187304 0.753918 0.820584
0.631205 0.710918 0.856184
0.823606 0.685847 0.87837
0.852415 0.651789 0.875029
0.846876 0.623362 0.872908
0.34461 0.866682 0.828016
0.343801 0.864302 0.828641
0.327886 0.861936 0.82945
0.300145 0.857359 0.830732
0.273838 0.844556 0.8318
0.598947 0.822568 0.837888
0.785641 0.818189 0.868086
0.877317 0.808499 0.877531
0.875975 0.793606 0.877058
0.330159 0.876005 0.826917
0.32752 0.877028 0.827207
0.32752 0.877028 0.827207
0.32752 0.877028 0.827207
0.341039 0.876158 0.826673
0.540703 0.860456 0.823865
0.706508 0.864103 0.842908
0.869703 0.885374 0.879652
0.890867 0.885863 0.882872
0.328084 0.876814 0.827176
0.32752 0.877028 0.827207
0.32752 0.877028 0.827207
0.32752 0.877028 0.827207
0.336187 0.876432 0.826932
0.510826 0.863661 0.821836
0.728832 0.877607 0.844648
0.863828 0.900343 0.881651
0.896559 0.904189 0.889693
