bundles/resolve-cinematic-luts/Phantom Luts/Fx6 Phntm Film LUTs-G5/ATOMOS Monitor LUTs/VisionTeal Fx6 AML.cube
TITLE "Generated by Resolve"
LUT_3D_SIZE 5
0.0725872 0.0813611 0.0796368
0.156283 0.0849317 0.0804761
0.488289 0.0948196 0.100435
0.706416 0.142199 0.304067
0.708339 0.142779 0.313008
0.071046 0.182315 0.0948501
0.153521 0.171908 0.0892958
0.520836 0.125002 0.102602
0.694881 0.133639 0.194385
0.690318 0.129076 0.179095
0.166217 0.589685 0.313375
0.168032 0.56553 0.269703
0.535119 0.535439 0.173358
0.796384 0.567468 0.287709
0.794522 0.541039 0.281407
0.379629 0.822446 0.562799
0.364904 0.820844 0.54023
0.536934 0.746593 0.423148
0.782544 0.787457 0.445991
0.796689 0.79028 0.455131
0.38204 0.827436 0.584497
0.375952 0.823331 0.560433
0.418875 0.762524 0.419455
0.757336 0.784451 0.431968
0.797482 0.795422 0.477378
0.0713359 0.100221 0.145205
0.159472 0.0845045 0.173663
0.499046 0.0877241 0.226459
0.685954 0.1393 0.381292
0.689784 0.140856 0.380362
0.0703899 0.173373 0.145892
0.151308 0.171328 0.16437
0.498497 0.0899672 0.122087
0.707774 0.142657 0.305623
0.706722 0.139269 0.265431
0.161624 0.596216 0.363256
0.146578 0.576562 0.304982
0.526604 0.528023 0.172488
0.795163 0.548333 0.28275
0.794522 0.52874 0.2804
0.386908 0.826749 0.590631
0.376089 0.824689 0.56611
0.495613 0.747066 0.41474
0.77879 0.785443 0.444358
0.796323 0.7879 0.447227
0.388754 0.830213 0.605859
0.382544 0.827344 0.585122
0.39147 0.777874 0.444083
0.751385 0.78204 0.435538
0.797574 0.795789 0.480262
0.0700542 0.193194 0.460044
0.148425 0.158083 0.502235
0.518364 0.112245 0.532586
0.724437 0.147295 0.597436
0.696757 0.127245 0.522316
0.0698253 0.22504 0.415351
0.0697795 0.186236 0.457191
0.505241 0.112337 0.517296
0.707271 0.132647 0.552361
0.682231 0.123156 0.487602
0.131044 0.59173 0.522942
0.123522 0.583368 0.517113
0.590356 0.583734 0.559625
0.818158 0.463462 0.495216
0.811109 0.475624 0.431861
0.389563 0.855634 0.706416
0.388067 0.852338 0.690394
0.433997 0.822599 0.582437
0.78027 0.79556 0.542062
0.808194 0.789685 0.527352
0.389334 0.854139 0.700328
0.389593 0.850065 0.682719
0.393835 0.827665 0.590036
0.728267 0.783444 0.510719
0.80415 0.805493 0.538003
0.070573 0.429252 0.757046
0.070634 0.385809 0.768139
0.560265 0.263188 0.803967
0.749172 0.204669 0.814435
0.749096 0.20473 0.814374
0.0709544 0.435004 0.744854
0.0706951 0.420249 0.752041
0.527138 0.258869 0.798703
0.749187 0.204211 0.813947
0.749157 0.204715 0.81445
0.0710918 0.622934 0.724269
0.0713817 0.611017 0.729015
0.383078 0.543328 0.804211
0.789609 0.348424 0.820127
0.770962 0.246586 0.800778
0.428153 0.860578 0.80798
0.403037 0.859968 0.805325
0.389303 0.844617 0.791897
0.837583 0.847761 0.827619
0.881285 0.814679 0.799817
0.449439 0.861036 0.807721
0.441474 0.863218 0.803159
0.439185 0.865553 0.783352
0.77818 0.877134 0.798138
0.881453 0.890196 0.82327
0.0709544 0.440833 0.76936
0.070634 0.407858 0.785519
0.572244 0.279332 0.810895
0.749157 0.204715 0.81445
0.749157 0.204715 0.81445
0.0708782 0.445838 0.755138
0.0709544 0.440925 0.769085
0.535348 0.284199 0.810605
0.749172 0.204837 0.81442
0.749157 0.204715 0.81445
0.0714275 0.644617 0.784253
0.0713054 0.629633 0.782086
0.316136 0.54313 0.814237
0.780667 0.328695 0.827115
0.761059 0.246448 0.819638
0.34461 0.866682 0.828016
0.327886 0.861936 0.82945
0.273838 0.844556 0.8318
0.785641 0.818189 0.868086
0.875975 0.793606 0.877058
0.328084 0.876814 0.827176
0.32752 0.877028 0.827207
0.336187 0.876432 0.826932
0.728832 0.877607 0.844648
0.896559 0.904189 0.889693
