bundles/resolve-cinematic-luts/Phantom Luts/Fx6 Phntm Film LUTs-G5/ATOMOS Monitor LUTs/Vision Fx6 AML.cube
TITLE "Generated by Resolve"
LUT_3D_SIZE 5
0.0724956 0.0800336 0.0724956
0.146868 0.0874647 0.0769513
0.486778 0.11252 0.106996
0.717235 0.148882 0.298741
0.719997 0.147707 0.303181
0.083238 0.179889 0.104372
0.142535 0.175311 0.0858167
0.513939 0.131243 0.102586
0.703853 0.135546 0.183185
0.702785 0.131426 0.167178
0.203876 0.582895 0.36022
0.186007 0.564111 0.312779
0.549844 0.561715 0.172641
0.772686 0.52845 0.278767
0.769589 0.501884 0.269749
0.42388 0.803403 0.603021
0.414115 0.8009 0.582422
0.541527 0.78439 0.517449
0.793957 0.814893 0.469902
0.808972 0.813214 0.474159
0.420386 0.805524 0.614481
0.423255 0.80322 0.599268
0.431022 0.779248 0.499458
0.759915 0.816175 0.471656
0.809323 0.820661 0.497795
0.0746166 0.0907759 0.140307
0.162387 0.0873884 0.146685
0.504952 0.0980392 0.211978
0.69958 0.149203 0.36379
0.704952 0.147921 0.356924
0.0763409 0.16994 0.150164
0.156863 0.169818 0.157351
0.504952 0.0944228 0.115908
0.718715 0.148302 0.299519
0.721233 0.143435 0.263554
0.193744 0.584894 0.396963
0.19202 0.567834 0.348013
0.542565 0.553826 0.171023
0.76994 0.50869 0.271992
0.769284 0.486595 0.267155
0.420142 0.80618 0.621118
0.422614 0.803937 0.602899
0.505501 0.781765 0.507759
0.789548 0.814069 0.470069
0.809201 0.809308 0.464759
0.418204 0.807996 0.631022
0.420523 0.805447 0.615503
0.408331 0.781765 0.511345
0.751308 0.814313 0.478264
0.809583 0.821302 0.501244
0.112856 0.152667 0.486763
0.206058 0.119402 0.473991
0.531823 0.130159 0.481575
0.731136 0.161257 0.54284
0.706615 0.146166 0.479225
0.0888991 0.181445 0.46157
0.115969 0.147631 0.478172
0.51754 0.129702 0.468406
0.714336 0.148699 0.50486
0.690654 0.144747 0.447333
0.1075 0.566018 0.563806
0.103502 0.557214 0.554925
0.574395 0.587808 0.568215
0.840299 0.460822 0.497627
0.825208 0.442939 0.428489
0.377966 0.828809 0.727245
0.386313 0.825071 0.707927
0.481727 0.809369 0.624628
0.786923 0.823484 0.575158
0.817823 0.80824 0.547524
0.381628 0.82742 0.719799
0.390204 0.823346 0.70016
0.432578 0.807645 0.620935
0.719829 0.817655 0.567361
0.814908 0.831678 0.562676
0.156558 0.349035 0.817441
0.230152 0.31107 0.805264
0.603296 0.270542 0.768582
0.760052 0.205127 0.748516
0.759991 0.205219 0.748516
0.153658 0.357259 0.80618
0.155047 0.340917 0.811261
0.575631 0.264668 0.765972
0.760113 0.204623 0.748119
0.760052 0.205188 0.748577
0.0855573 0.559075 0.778851
0.093492 0.548669 0.784604
0.451301 0.497826 0.829404
0.803418 0.358526 0.778866
0.782284 0.264225 0.743603
0.406989 0.828138 0.838163
0.383474 0.824292 0.833967
0.369772 0.80885 0.815244
0.821988 0.851682 0.83476
0.862852 0.823377 0.807462
0.426291 0.831968 0.839445
0.424125 0.832654 0.833219
0.423529 0.838209 0.811597
0.780362 0.878477 0.816281
0.86389 0.897978 0.844923
0.159304 0.358938 0.830594
0.244373 0.32987 0.822477
0.614466 0.285756 0.776181
0.760052 0.205188 0.748577
0.760052 0.205188 0.748577
0.156222 0.366445 0.816968
0.159182 0.359045 0.830457
0.583413 0.28809 0.779812
0.760174 0.205417 0.748669
0.760052 0.205188 0.748577
0.115709 0.575891 0.843473
0.122957 0.562737 0.842588
0.406088 0.485634 0.846586
0.794751 0.33666 0.781765
0.772717 0.249058 0.760922
0.316625 0.823133 0.860822
0.299763 0.815946 0.860166
0.242557 0.790722 0.859037
0.777462 0.816068 0.88159
0.864195 0.800748 0.875105
0.296666 0.831601 0.863752
0.296666 0.831601 0.863752
0.306767 0.832197 0.863737
0.713069 0.871336 0.866392
0.877409 0.908614 0.893904
