bundles/resolve-cinematic-luts/Phantom Luts/Fx6 Phntm Film LUTs-G5/ATOMOS Monitor LUTs/Vision Fx6 AML.cube
TITLE "Generated by Resolve"
LUT_3D_SIZE 9
0.0724956 0.0800336 0.0724956
0.0820172 0.0847028 0.0725261
0.146868 0.0874647 0.0769513
0.301595 0.0919509 0.0784924
0.486778 0.11252 0.106996
0.668803 0.129091 0.214679
0.717235 0.148882 0.298741
0.715785 0.14931 0.30959
0.719997 0.147707 0.303181
0.0757763 0.101228 0.0813306
0.0813458 0.0959487 0.0784009
0.149935 0.0932784 0.0788128
0.312795 0.0939956 0.078294
0.496178 0.113588 0.0979477
0.668986 0.127459 0.189807
0.717632 0.145174 0.264454
0.718669 0.147204 0.282643
0.722683 0.144274 0.26833
0.083238 0.179889 0.104372
0.0882277 0.172061 0.0953536
0.142535 0.175311 0.0858167
0.325658 0.131701 0.0893873
0.513939 0.131243 0.102586
0.652216 0.127626 0.142229
0.703853 0.135546 0.183185
0.699687 0.133608 0.170932
0.702785 0.131426 0.167178
0.107469 0.365835 0.179568
0.104677 0.356039 0.162554
0.136355 0.347295 0.14168
0.336126 0.357 0.0957656
0.543343 0.303029 0.15172
0.722774 0.292042 0.18114
0.76109 0.227161 0.170199
0.758434 0.222461 0.169787
0.767224 0.240909 0.173053
0.203876 0.582895 0.36022
0.196628 0.576471 0.344045
0.186007 0.564111 0.312779
0.303899 0.547677 0.274846
0.549844 0.561715 0.172641
0.730739 0.528527 0.264393
0.772686 0.52845 0.278767
0.771923 0.521859 0.276005
0.769589 0.501884 0.269749
0.364996 0.767849 0.542443
0.357076 0.764477 0.531579
0.347845 0.758434 0.514534
0.326574 0.733425 0.44036
0.526696 0.732433 0.440604
0.717601 0.753491 0.341253
0.808545 0.74081 0.357092
0.810086 0.734142 0.356863
0.80705 0.717418 0.347784
0.42388 0.803403 0.603021
0.423117 0.802884 0.596155
0.414115 0.8009 0.582422
0.39147 0.788586 0.541375
0.541527 0.78439 0.517449
0.680781 0.803326 0.49633
0.793957 0.814893 0.469902
0.809232 0.817777 0.490517
0.808972 0.813214 0.474159
0.421454 0.805051 0.611307
0.423331 0.80415 0.604837
0.421393 0.802029 0.59234
0.399039 0.791547 0.553994
0.505867 0.781445 0.508003
0.664179 0.802518 0.506645
0.783978 0.816068 0.46772
0.809064 0.820645 0.500847
0.809308 0.820951 0.500252
0.420386 0.805524 0.614481
0.421622 0.804913 0.608423
0.423255 0.80322 0.599268
0.407965 0.796429 0.569924
0.431022 0.779248 0.499458
0.628244 0.797192 0.524712
0.759915 0.816175 0.471656
0.809277 0.819944 0.492454
0.809323 0.820661 0.497795
0.0726024 0.0814679 0.0794232
0.088365 0.0843519 0.0865644
0.165774 0.0840925 0.0986496
0.336675 0.0834058 0.103487
0.510109 0.0926986 0.136904
0.692332 0.138735 0.279286
0.714153 0.148928 0.320195
0.712978 0.148852 0.326741
0.718593 0.147616 0.316335
0.0741741 0.0941329 0.0833448
0.0805371 0.0906844 0.0827039
0.153521 0.0885176 0.0797284
0.313237 0.0924849 0.0846418
0.49189 0.0918288 0.107301
0.67921 0.132479 0.244938
0.718669 0.148074 0.303517
0.718532 0.148089 0.306859
0.723613 0.145586 0.288045
0.081117 0.177417 0.120562
0.0832837 0.167498 0.102861
0.136828 0.167498 0.0860304
0.335409 0.123171 0.0878004
0.505013 0.119631 0.098085
0.663508 0.123339 0.164675
0.714061 0.140093 0.230335
0.713863 0.139666 0.224582
0.708293 0.134218 0.185122
0.108461 0.370352 0.20351
0.105257 0.357687 0.176562
0.109789 0.337881 0.134325
0.330755 0.352361 0.095201
0.538613 0.293248 0.150134
0.728603 0.279377 0.178241
0.75639 0.209873 0.167452
0.756298 0.213458 0.168536
0.76614 0.233036 0.171435
0.205554 0.585794 0.37496
0.198352 0.57734 0.354925
0.188785 0.566293 0.330358
0.287388 0.543786 0.267247
0.545968 0.558495 0.171557
0.730526 0.522972 0.262272
0.772015 0.52105 0.275624
0.771069 0.513359 0.273732
0.768994 0.491966 0.267399
0.365545 0.766873 0.548363
0.358206 0.764981 0.537438
0.348562 0.758648 0.5205
0.323369 0.735653 0.453758
0.519402 0.728954 0.438132
0.714137 0.750347 0.33753
0.807645 0.736522 0.353582
0.808896 0.728237 0.353201
0.805798 0.710521 0.345113
0.422599 0.804486 0.609476
0.422858 0.803815 0.602823
0.41886 0.801968 0.589395
0.396078 0.790768 0.550439
0.528832 0.783276 0.512993
0.675181 0.802823 0.497948
0.792432 0.814557 0.46981
0.809216 0.816556 0.487785
0.809522 0.811643 0.470527
0.420264 0.805814 0.617731
0.421698 0.804959 0.611444
0.423606 0.803082 0.599527
0.404547 0.794324 0.562264
0.487831 0.780133 0.50367
0.659083 0.80209 0.509865
0.781323 0.81651 0.471351
0.809171 0.82092 0.502297
0.809415 0.821195 0.501793
0.419471 0.806455 0.620737
0.420493 0.805478 0.614969
0.422889 0.804318 0.606287
0.41268 0.799481 0.57908
0.420325 0.780102 0.503609
0.624262 0.796201 0.526497
0.755978 0.81532 0.473381
0.809049 0.819944 0.492363
0.809384 0.820905 0.498924
0.0746166 0.0907759 0.140307
0.0992599 0.0878462 0.146624
0.162387 0.0873884 0.146685
0.325078 0.0892653 0.168276
0.504952 0.0980392 0.211978
0.685328 0.142702 0.334997
0.69958 0.149203 0.36379
0.698253 0.148989 0.367712
0.704952 0.147921 0.356924
0.0718395 0.0949264 0.119249
0.0760357 0.0892958 0.13666
0.146929 0.0872663 0.135714
0.317449 0.0854353 0.141772
0.508919 0.0954452 0.171298
0.690761 0.142016 0.314168
0.706615 0.149065 0.347311
0.705821 0.149004 0.351003
0.71165 0.148119 0.340154
0.0763409 0.16994 0.150164
0.0767834 0.163516 0.145495
0.156863 0.169818 0.157351
0.368322 0.132753 0.121935
0.504952 0.0944228 0.115908
0.683482 0.134386 0.249348
0.718715 0.148302 0.299519
0.7196 0.148119 0.29604
0.721233 0.143435 0.263554
0.0985733 0.36849 0.241276
0.099733 0.362325 0.222263
0.104021 0.34519 0.17261
0.331197 0.352102 0.11191
0.550484 0.275166 0.155718
0.735485 0.24445 0.171633
0.746441 0.194446 0.167407
0.751492 0.193698 0.165591
0.761624 0.212284 0.166308
0.193744 0.584894 0.396963
0.19443 0.580041 0.380926
0.19202 0.567834 0.348013
0.2421 0.536446 0.252125
0.542565 0.553826 0.171023
0.731228 0.514595 0.260975
0.76994 0.50869 0.271992
0.769284 0.498573 0.269032
0.769284 0.486595 0.267155
0.357427 0.765255 0.55845
0.355871 0.763363 0.548882
0.35137 0.759823 0.532494
0.32697 0.739132 0.479316
0.509636 0.724666 0.437049
0.710979 0.746548 0.333135
0.805737 0.729305 0.349081
0.807462 0.720195 0.34905
0.804166 0.701289 0.341115
0.420142 0.80618 0.621118
0.420356 0.80557 0.61413
0.422614 0.803937 0.602899
0.405707 0.795316 0.564446
0.505501 0.781765 0.507759
0.668544 0.802563 0.504891
0.789548 0.814069 0.470069
0.809079 0.815122 0.484672
0.809201 0.809308 0.464759
0.41857 0.807782 0.630396
0.41886 0.806806 0.623438
0.421576 0.80502 0.611688
0.412894 0.799008 0.577371
0.460609 0.780194 0.499931
0.651881 0.801495 0.516777
0.777813 0.816678 0.477546
0.809354 0.821393 0.504524
0.809628 0.82153 0.5037
0.418204 0.807996 0.631022
0.418692 0.80705 0.624323
0.420523 0.805447 0.615503
0.419379 0.801633 0.58941
0.408331 0.781765 0.511345
0.618296 0.795163 0.529091
0.751308 0.814313 0.478264
0.808652 0.819974 0.492668
0.809583 0.821302 0.501244
0.0865492 0.109621 0.300526
0.118593 0.100298 0.303792
0.182132 0.0963607 0.295979
0.330114 0.0913863 0.290425
0.512703 0.114366 0.330846
0.659831 0.140917 0.397421
0.681849 0.147539 0.408835
0.682399 0.147982 0.404181
0.686961 0.147417 0.394598
0.0768444 0.118196 0.274495
0.0856489 0.108492 0.294133
0.15349 0.0962234 0.298466
0.320409 0.090547 0.281743
0.503929 0.111635 0.316045
0.654444 0.140642 0.382849
0.68278 0.148287 0.397101
0.683787 0.148592 0.397742
0.689799 0.147555 0.388754
0.0703288 0.162905 0.26656
0.0712902 0.152361 0.275471
0.115251 0.133242 0.319966
0.307637 0.0928054 0.2701
0.49337 0.112078 0.291768
0.673548 0.143862 0.369833
0.688518 0.148928 0.385626
0.689448 0.149081 0.383841
0.699351 0.148394 0.36939
0.0762951 0.352071 0.332952
0.0758373 0.346593 0.327565
0.0760967 0.338354 0.319005
0.362127 0.376089 0.353582
0.617578 0.30164 0.288823
0.729503 0.163943 0.272725
0.727031 0.151034 0.296361
0.724117 0.148196 0.282994
0.731319 0.143847 0.229786
0.155459 0.584894 0.458854
0.158831 0.581445 0.447745
0.166217 0.573602 0.42826
0.2 0.554543 0.346303
0.542397 0.565332 0.26598
0.73225 0.521553 0.320012
0.770977 0.488212 0.317128
0.769192 0.471183 0.304021
0.767407 0.459373 0.283146
0.335088 0.764111 0.590341
0.333516 0.762463 0.582223
0.332891 0.757443 0.567163
0.335286 0.744381 0.518166
0.47393 0.717174 0.434669
0.702083 0.738705 0.332494
0.803998 0.715068 0.359884
0.803586 0.702007 0.356939
0.800641 0.681559 0.347662
0.414405 0.812039 0.654215
0.414649 0.811261 0.647211
0.416739 0.809171 0.635203
0.423026 0.804135 0.603433
0.438315 0.783856 0.518471
0.653284 0.801617 0.523888
0.785748 0.813489 0.472206
0.80972 0.810452 0.475288
0.810208 0.803418 0.454765
0.412161 0.813764 0.662654
0.412894 0.812604 0.655177
0.415045 0.810727 0.643305
0.421408 0.805097 0.61236
0.412009 0.785382 0.525551
0.638056 0.799802 0.538415
0.767834 0.818326 0.49424
0.809644 0.821988 0.510231
0.809812 0.821912 0.508232
0.412909 0.812619 0.65713
0.414313 0.811749 0.650172
0.415625 0.810269 0.640391
0.420554 0.805539 0.616648
0.403967 0.789685 0.547646
0.609018 0.793988 0.540917
0.737881 0.812711 0.493172
0.807294 0.820172 0.495995
0.809842 0.82182 0.506615
0.112856 0.152667 0.486763
0.14406 0.13756 0.477653
0.206058 0.119402 0.473991
0.365347 0.124681 0.465797
0.531823 0.130159 0.481575
0.710369 0.151751 0.516106
0.731136 0.161257 0.54284
0.727123 0.155062 0.530678
0.706615 0.146166 0.479225
0.0922103 0.16788 0.480003
0.112734 0.151629 0.484886
0.174807 0.13106 0.474296
0.347646 0.121401 0.463218
0.526406 0.128923 0.476112
0.704524 0.148989 0.507088
0.727428 0.15555 0.531487
0.719295 0.148577 0.513161
0.700572 0.14548 0.466102
0.0888991 0.181445 0.46157
0.0903334 0.175616 0.468757
0.115969 0.147631 0.478172
0.3122 0.119371 0.460182
0.51754 0.129702 0.468406
0.691051 0.143755 0.490867
0.714336 0.148699 0.50486
0.704906 0.147234 0.482765
0.690654 0.144747 0.447333
0.0698558 0.330053 0.473396
0.0699321 0.322103 0.475975
0.0696422 0.306981 0.481926
0.267704 0.278126 0.553155
0.560342 0.217044 0.5122
0.669551 0.14493 0.456031
0.695415 0.148379 0.451621
0.688685 0.147387 0.436179
0.685115 0.147326 0.413581
0.1075 0.566018 0.563806
0.105272 0.562585 0.560616
0.103502 0.557214 0.554925
0.106981 0.545357 0.541436
0.574395 0.587808 0.568215
0.803296 0.535897 0.527901
0.840299 0.460822 0.497627
0.83888 0.447333 0.475547
0.825208 0.442939 0.428489
0.258305 0.76994 0.668849
0.25658 0.768582 0.662226
0.256199 0.762982 0.649729
0.266468 0.749905 0.61677
0.493645 0.74667 0.582818
0.70724 0.754223 0.533349
0.81062 0.730144 0.537682
0.811643 0.721294 0.527169
0.805554 0.69926 0.492988
0.377966 0.828809 0.727245
0.380652 0.82771 0.719676
0.386313 0.825071 0.707927
0.401724 0.818204 0.680507
0.481727 0.809369 0.624628
0.671397 0.810544 0.627283
0.786923 0.823484 0.575158
0.818357 0.817746 0.570092
0.817823 0.80824 0.547524
0.37409 0.830823 0.737713
0.375952 0.829419 0.727947
0.382513 0.826719 0.715282
0.39765 0.819776 0.686687
0.449042 0.808408 0.621149
0.645014 0.809873 0.623865
0.758801 0.828992 0.591745
0.81677 0.838453 0.596429
0.815808 0.835462 0.582132
0.381628 0.82742 0.719799
0.385534 0.825528 0.711055
0.390204 0.823346 0.70016
0.403159 0.817624 0.677333
0.432578 0.807645 0.620935
0.57116 0.799756 0.585718
0.719829 0.817655 0.567361
0.805066 0.8309 0.561669
0.814908 0.831678 0.562676
0.140536 0.241337 0.685496
0.176638 0.222065 0.675517
0.248661 0.193347 0.654337
0.400992 0.180636 0.656382
0.578195 0.19733 0.655436
0.731716 0.183612 0.676478
0.754177 0.191699 0.703532
0.755123 0.191684 0.714931
0.754421 0.191501 0.704753
0.126345 0.258839 0.688228
0.140917 0.240665 0.683818
0.208133 0.206348 0.662974
0.381491 0.179492 0.655146
0.571786 0.196429 0.6542
0.727306 0.182116 0.67155
0.753674 0.191791 0.69752
0.754482 0.191653 0.709743
0.754833 0.190265 0.694377
0.123598 0.270115 0.675807
0.125414 0.265782 0.682887
0.14078 0.236652 0.67631
0.338994 0.174411 0.65069
0.556848 0.192294 0.648997
0.71809 0.179568 0.661234
0.755428 0.186114 0.688487
0.753185 0.191913 0.697276
0.756741 0.177417 0.670268
0.114778 0.333104 0.652934
0.115373 0.324422 0.655802
0.118654 0.309453 0.663676
0.186908 0.252522 0.688823
0.516823 0.190906 0.647242
0.692027 0.172 0.63473
0.757794 0.185214 0.657633
0.757916 0.182177 0.664759
0.755291 0.194873 0.609415
0.0712444 0.541924 0.678843
0.0708019 0.538354 0.678538
0.0711833 0.532464 0.678569
0.0710307 0.514794 0.687633
0.504295 0.50898 0.752651
0.770611 0.489616 0.733272
0.804913 0.411292 0.684504
0.798795 0.372976 0.658534
0.786267 0.278111 0.594293
0.211368 0.75346 0.757031
0.205936 0.750271 0.754177
0.200229 0.746319 0.749798
0.193423 0.735943 0.739116
0.408942 0.734585 0.725811
0.738064 0.756436 0.741238
0.856001 0.724636 0.714321
0.862379 0.701976 0.694209
0.849897 0.68574 0.663478
0.402579 0.838209 0.805966
0.396979 0.838895 0.802045
0.390768 0.837888 0.795895
0.372107 0.834043 0.782025
0.404517 0.823926 0.741207
0.711162 0.831586 0.750622
0.799084 0.84625 0.735882
0.848539 0.837736 0.725338
0.847898 0.825223 0.705058
0.408179 0.837095 0.811963
0.402274 0.838712 0.807874
0.396674 0.839078 0.801633
0.389334 0.837613 0.786587
0.412467 0.832807 0.742687
0.685237 0.843168 0.74493
0.783536 0.859541 0.754009
0.835584 0.876127 0.749447
0.840558 0.87657 0.747631
0.397375 0.83859 0.8009
0.393606 0.838346 0.794903
0.389944 0.837858 0.787579
0.381506 0.836103 0.772549
0.394247 0.830259 0.730114
0.624659 0.831693 0.711803
0.75494 0.845151 0.731456
0.817472 0.866194 0.719036
0.837552 0.872816 0.73228
0.156558 0.349035 0.817441
0.160433 0.340307 0.817899
0.230152 0.31107 0.805264
0.400839 0.255573 0.773556
0.603296 0.270542 0.768582
0.74522 0.216602 0.747677
0.760052 0.205127 0.748516
0.760037 0.205188 0.748562
0.759991 0.205219 0.748516
0.155215 0.35375 0.813169
0.155673 0.346609 0.816205
0.185519 0.326787 0.812467
0.378347 0.253559 0.772427
0.594018 0.268742 0.767987
0.742443 0.218753 0.747524
0.760052 0.205005 0.748394
0.760052 0.205188 0.748577
0.760052 0.205188 0.748562
0.153658 0.357259 0.80618
0.153903 0.353994 0.807919
0.155047 0.340917 0.811261
0.341436 0.267231 0.772519
0.575631 0.264668 0.765972
0.733822 0.221332 0.743572
0.760113 0.204623 0.748119
0.760052 0.205188 0.748577
0.760052 0.205188 0.748577
0.144228 0.367025 0.775204
0.146197 0.362112 0.77969
0.147799 0.354162 0.785382
0.155108 0.327245 0.803723
0.515663 0.253788 0.760357
0.711833 0.237095 0.73756
0.760372 0.201556 0.742367
0.76083 0.203891 0.746715
0.7608 0.203677 0.746273
0.0855573 0.559075 0.778851
0.0883192 0.554421 0.780529
0.093492 0.548669 0.784604
0.111299 0.535851 0.802441
0.451301 0.497826 0.829404
0.74052 0.478996 0.803937
0.803418 0.358526 0.778866
0.796735 0.328176 0.769726
0.782284 0.264225 0.743603
0.183307 0.732906 0.810956
0.177539 0.729458 0.810376
0.169192 0.723659 0.809003
0.151034 0.709804 0.806149
0.296208 0.699519 0.815976
0.693187 0.710719 0.837049
0.846952 0.706157 0.828428
0.861479 0.683848 0.816114
0.854795 0.652445 0.787793
0.406989 0.828138 0.838163
0.398215 0.827375 0.836683
0.383474 0.824292 0.833967
0.355245 0.81828 0.828489
0.369772 0.80885 0.815244
0.665248 0.82974 0.817868
0.821988 0.851682 0.83476
0.866911 0.839094 0.822751
0.862852 0.823377 0.807462
0.428794 0.831159 0.844648
0.428138 0.831678 0.842573
0.426429 0.832044 0.838682
0.423438 0.832761 0.832105
0.440024 0.837873 0.817548
0.65362 0.861189 0.811231
0.807904 0.887358 0.837217
0.858091 0.894133 0.845365
0.861616 0.892348 0.84239
0.426291 0.831968 0.839445
0.426001 0.832181 0.836957
0.424125 0.832654 0.833219
0.418235 0.834272 0.827909
0.423529 0.838209 0.811597
0.591791 0.851179 0.793042
0.780362 0.878477 0.816281
0.847089 0.892363 0.836164
0.86389 0.897978 0.844923
0.15877 0.359457 0.829145
0.162295 0.354421 0.831739
0.234562 0.333623 0.824598
0.407065 0.27393 0.787457
0.612421 0.285634 0.776333
0.749355 0.215427 0.74963
0.760052 0.205188 0.748577
0.760052 0.205188 0.748577
0.760052 0.205188 0.748577
0.157656 0.360967 0.823331
0.158755 0.359442 0.829038
0.189151 0.348348 0.831739
0.39147 0.287694 0.788083
0.602838 0.286778 0.777417
0.747814 0.22179 0.751537
0.760052 0.205188 0.748577
0.760052 0.205188 0.748577
0.760052 0.205188 0.748577
0.155917 0.366476 0.816403
0.157122 0.365026 0.819821
0.158694 0.359503 0.828855
0.344335 0.294362 0.794705
0.582605 0.288075 0.77998
0.741711 0.234699 0.752636
0.760159 0.205356 0.748638
0.760052 0.205203 0.748577
0.760052 0.205188 0.748577
0.157031 0.402365 0.820218
0.156939 0.393988 0.818524
0.155169 0.378164 0.813931
0.159716 0.357961 0.831098
0.516808 0.286 0.783291
0.720974 0.271168 0.758312
0.760388 0.206058 0.748745
0.760388 0.206043 0.74873
0.760357 0.205936 0.74873
0.10956 0.57644 0.832639
0.112383 0.572946 0.834897
0.117098 0.567712 0.839185
0.131319 0.549081 0.841993
0.418906 0.4981 0.847517
0.72459 0.478111 0.818143
0.802258 0.368414 0.788525
0.795193 0.339956 0.782345
0.782864 0.285359 0.769604
0.133577 0.735241 0.844831
0.126329 0.731441 0.844282
0.115251 0.724681 0.844022
0.0919356 0.709941 0.845655
0.237232 0.694286 0.856443
0.658625 0.703746 0.870954
0.829419 0.706401 0.862852
0.858518 0.680125 0.856443
0.856733 0.653422 0.851835
0.319661 0.825132 0.861021
0.323156 0.823056 0.859968
0.318334 0.819287 0.85919
0.296529 0.810681 0.855833
0.289647 0.796872 0.853239
0.62237 0.8121 0.859602
0.793179 0.827802 0.876936
0.867231 0.821775 0.874022
0.866133 0.806302 0.86717
0.296681 0.831601 0.863752
0.296681 0.831601 0.863752
0.296681 0.831601 0.863752
0.318212 0.832288 0.862196
0.448371 0.83299 0.84802
0.646616 0.856199 0.850721
0.789548 0.885023 0.868544
0.865553 0.897871 0.883177
0.87628 0.893812 0.881331
0.296681 0.831601 0.863752
0.296681 0.831601 0.863752
0.296712 0.831617 0.863767
0.347601 0.831922 0.859358
0.442405 0.832532 0.845624
0.595666 0.849271 0.840192
0.770352 0.886091 0.860044
0.857618 0.904524 0.880659
0.87953 0.905211 0.887266
0.159304 0.358938 0.830594
0.171099 0.352621 0.83183
0.244373 0.32987 0.822477
0.410437 0.273899 0.786938
0.614466 0.285756 0.776181
0.749813 0.211612 0.748821
0.760052 0.205188 0.748577
0.760052 0.205188 0.748577
0.760052 0.205188 0.748577
0.157961 0.360998 0.824613
0.159274 0.358953 0.830549
0.199161 0.345556 0.830503
0.39321 0.283803 0.788296
0.603723 0.286732 0.777386
0.748165 0.218845 0.750881
0.760052 0.205188 0.748577
0.760052 0.205188 0.748577
0.760052 0.205188 0.748577
0.156222 0.366445 0.816968
0.157717 0.363836 0.821637
0.159182 0.359045 0.830457
0.348302 0.293141 0.793988
0.583413 0.28809 0.779812
0.742412 0.233463 0.75256
0.760174 0.205417 0.748669
0.760067 0.205234 0.748592
0.760052 0.205188 0.748577
0.156802 0.399558 0.819348
0.156374 0.391012 0.817609
0.15523 0.375784 0.813291
0.159762 0.356588 0.83151
0.517449 0.286229 0.783337
0.720699 0.270665 0.758267
0.760388 0.206043 0.748745
0.760388 0.206043 0.74873
0.760357 0.205936 0.74873
0.115709 0.575891 0.843473
0.118563 0.570489 0.843488
0.122957 0.562737 0.842588
0.13637 0.540215 0.84126
0.406088 0.485634 0.846586
0.714275 0.456687 0.814237
0.794751 0.33666 0.781765
0.786633 0.303731 0.774243
0.772717 0.249058 0.760922
0.112596 0.73228 0.853605
0.107195 0.727138 0.852979
0.0979629 0.719921 0.852445
0.0804303 0.702846 0.849561
0.208469 0.684947 0.857008
0.649897 0.690944 0.870451
0.824948 0.693889 0.860685
0.857359 0.665431 0.853651
0.854337 0.638773 0.849485
0.316625 0.823133 0.860822
0.316548 0.820539 0.860395
0.299763 0.815946 0.860166
0.270756 0.807095 0.859846
0.242557 0.790722 0.859037
0.592813 0.803342 0.864317
0.777462 0.816068 0.88159
0.863859 0.815442 0.87834
0.864195 0.800748 0.875105
0.296666 0.831601 0.863752
0.296666 0.831601 0.863752
0.296666 0.831601 0.863752
0.296666 0.831601 0.863752
0.311849 0.832486 0.863767
0.524819 0.839078 0.856504
0.691539 0.855955 0.866224
0.847837 0.889464 0.888884
0.870146 0.890608 0.890333
0.296666 0.831601 0.863752
0.296666 0.831601 0.863752
0.296666 0.831601 0.863752
0.296666 0.831601 0.863752
0.306767 0.832197 0.863737
0.492561 0.839521 0.856428
0.713069 0.871336 0.866392
0.844358 0.903029 0.88864
0.877409 0.908614 0.893904
