bundles/resolve-cinematic-luts/Phantom Luts/Fx6 Phntm Film LUTs-G5/ATOMOS Monitor LUTs/Vision Fx6 AML.cube
TITLE "Generated by Resolve"
LUT_3D_SIZE 33
0.0724956 0.0800336 0.0724956
0.0724956 0.0800336 0.0724956
0.0724498 0.0801709 0.0724498
0.0754864 0.0822003 0.0731975
0.0820172 0.0847028 0.0725261
0.0935836 0.0843824 0.0739605
0.106035 0.0850538 0.0746014
0.124178 0.0858625 0.0759289
0.146868 0.0874647 0.0769513
0.176532 0.0889448 0.0774853
0.215503 0.0889754 0.0767376
0.256901 0.0901198 0.0772106
0.301595 0.0919509 0.0784924
0.345312 0.0932021 0.0807813
0.394583 0.0974746 0.0858167
0.442527 0.104677 0.0953841
0.486778 0.11252 0.106996
0.52781 0.1084 0.115312
0.568383 0.101167 0.127169
0.611734 0.112444 0.161242
0.668803 0.129091 0.214679
0.70518 0.141451 0.255909
0.719234 0.147189 0.277302
0.718883 0.147845 0.283803
0.717235 0.148882 0.298741
0.716381 0.149096 0.303288
0.715984 0.149264 0.305776
0.715541 0.149401 0.308583
0.715785 0.14931 0.30959
0.716594 0.149035 0.309667
0.71751 0.148669 0.308049
0.718593 0.14818 0.305409
0.719997 0.147707 0.303181
0.0724956 0.0800336 0.0724956
0.0724956 0.0800336 0.0724956
0.0724804 0.0800946 0.0724804
0.0757153 0.082826 0.0733501
0.0816663 0.0854353 0.0730907
0.0928969 0.0850538 0.074052
0.106401 0.0855268 0.0749828
0.125597 0.0865644 0.0766766
0.14905 0.0877852 0.0772106
0.17966 0.0890059 0.0777142
0.220722 0.0893263 0.076936
0.260884 0.0903639 0.0771038
0.305165 0.0915999 0.0778668
0.347311 0.0928817 0.0789654
0.395331 0.097734 0.0843519
0.443427 0.104005 0.0918746
0.491478 0.110414 0.105257
0.530373 0.114244 0.115908
0.570199 0.102464 0.124331
0.611994 0.112184 0.157626
0.669322 0.128893 0.209949
0.706188 0.141482 0.252857
0.719112 0.146624 0.273747
0.719005 0.147448 0.280644
0.717784 0.148791 0.294942
0.717327 0.148882 0.298604
0.716777 0.149035 0.301961
0.716396 0.149203 0.304082
0.716838 0.14905 0.304433
0.71751 0.14876 0.303761
0.718288 0.148425 0.302785
0.719646 0.147997 0.300908
0.721599 0.147417 0.296971
0.0724651 0.0801709 0.0724651
0.0724651 0.0802014 0.0724651
0.0724651 0.0802319 0.0724651
0.0745861 0.0826123 0.0732738
0.0788891 0.0860609 0.0744182
0.0896925 0.0863661 0.0732738
0.103929 0.0863203 0.0755932
0.124269 0.0872663 0.0770581
0.149081 0.0885176 0.0776226
0.180331 0.089662 0.0779736
0.221759 0.0898299 0.0768749
0.263493 0.0911727 0.0773632
0.307546 0.0919051 0.0777447
0.351308 0.0946365 0.0801709
0.394934 0.0979934 0.0818952
0.444404 0.103426 0.0892958
0.494347 0.111559 0.10399
0.536614 0.115557 0.116869
0.571298 0.106691 0.124575
0.611872 0.111711 0.153628
0.670253 0.128786 0.20473
0.705425 0.140688 0.247501
0.716716 0.144854 0.266072
0.7196 0.147036 0.275273
0.719173 0.147616 0.281392
0.717861 0.148791 0.29456
0.717617 0.148867 0.296986
0.717418 0.148913 0.298497
0.717678 0.148806 0.298878
0.718242 0.148623 0.298451
0.719356 0.148257 0.297246
0.720851 0.147692 0.294316
0.72256 0.146563 0.289586
0.0738994 0.0898909 0.0772412
0.0736706 0.0887465 0.0756542
0.0749828 0.0876326 0.074876
0.076112 0.0873426 0.0747997
0.0787213 0.0883497 0.0758679
0.0833295 0.0891127 0.0748913
0.10045 0.0874037 0.0755169
0.122927 0.0883192 0.077821
0.149218 0.0898604 0.0780499
0.181369 0.0910353 0.0783398
0.222889 0.0905776 0.0769818
0.265766 0.0917372 0.0772869
0.309865 0.0925765 0.0775006
0.351659 0.0945754 0.0786603
0.397314 0.0994583 0.0823224
0.444968 0.104387 0.0880903
0.494316 0.110842 0.0995956
0.53991 0.119448 0.117723
0.572381 0.109743 0.123537
0.613703 0.111818 0.149599
0.669139 0.128099 0.197772
0.705669 0.140261 0.242161
0.716091 0.144503 0.259861
0.71931 0.146334 0.269429
0.717876 0.146029 0.274052
0.718547 0.148211 0.28864
0.718379 0.148516 0.290486
0.718196 0.14873 0.292485
0.718578 0.148623 0.293111
0.719051 0.148318 0.292119
0.720165 0.147539 0.289311
0.721798 0.146761 0.285786
0.723537 0.145815 0.281956
0.0757763 0.101228 0.0813306
0.0749676 0.0992447 0.0798962
0.0770275 0.0962844 0.0786145
0.0782177 0.0947738 0.0782635
0.0813458 0.0959487 0.0784009
0.0864118 0.0972457 0.0795148
0.102861 0.0957504 0.0758526
0.124743 0.093019 0.0785534
0.149935 0.0932784 0.0788128
0.184665 0.0933242 0.0791638
0.225055 0.0920577 0.0775921
0.268788 0.0931868 0.077821
0.312795 0.0939956 0.078294
0.356329 0.0964218 0.0806744
0.39881 0.0997177 0.0813153
0.443809 0.104738 0.0855573
0.496178 0.113588 0.0979477
0.540383 0.117769 0.112367
0.579583 0.121157 0.127962
0.614389 0.111742 0.143435
0.668986 0.127459 0.189807
0.705455 0.139727 0.234913
0.71487 0.14374 0.251667
0.715969 0.144244 0.257984
0.717632 0.145174 0.264454
0.719402 0.146426 0.270222
0.719005 0.147814 0.282902
0.7187 0.147646 0.282979
0.718669 0.147204 0.282643
0.719249 0.146853 0.281621
0.720913 0.146441 0.279423
0.723003 0.145892 0.276341
0.722683 0.144274 0.26833
0.0778515 0.115541 0.0851148
0.0767529 0.113146 0.0834669
0.0779126 0.110826 0.0824292
0.0803998 0.107637 0.0824292
0.083772 0.106905 0.0830396
0.089128 0.109712 0.0821241
0.103807 0.110338 0.0792401
0.129168 0.102647 0.0801099
0.149813 0.100313 0.0809186
0.185748 0.10013 0.0809949
0.230304 0.0982528 0.0793774
0.274693 0.095964 0.0788739
0.316121 0.0960403 0.0792706
0.358892 0.0981613 0.080766
0.40383 0.102098 0.0835126
0.448447 0.106889 0.0866407
0.496757 0.113283 0.0948348
0.54464 0.123033 0.11284
0.582071 0.122988 0.1252
0.613214 0.113756 0.136095
0.667491 0.125933 0.178622
0.704784 0.13843 0.222492
0.712474 0.142168 0.238621
0.714397 0.142947 0.245548
0.715221 0.143801 0.251759
0.716213 0.14403 0.253758
0.718013 0.145708 0.268467
0.717906 0.145708 0.269001
0.718593 0.145693 0.269245
0.719509 0.145357 0.268055
0.719844 0.144518 0.263508
0.720256 0.143496 0.258396
0.720348 0.14255 0.251514
0.0795148 0.132876 0.0896773
0.0786145 0.130373 0.0878614
0.0787976 0.128832 0.0863661
0.0816968 0.125643 0.0856794
0.0857252 0.123522 0.0871443
0.0923781 0.124559 0.0883192
0.102312 0.128771 0.0841077
0.129793 0.125246 0.0782788
0.156115 0.115541 0.0817884
0.183093 0.110536 0.0831159
0.231586 0.10634 0.0814832
0.27599 0.104936 0.0813458
0.32784 0.103426 0.0819867
0.363012 0.100786 0.0815747
0.408957 0.10515 0.084596
0.453544 0.110369 0.0887007
0.502129 0.116808 0.0964675
0.545922 0.121736 0.107271
0.581994 0.126253 0.121233
0.612818 0.123827 0.134356
0.66273 0.124422 0.164691
0.702342 0.136324 0.205325
0.710079 0.139666 0.220295
0.711055 0.140475 0.226902
0.711971 0.141268 0.23209
0.713222 0.142077 0.236988
0.712718 0.141939 0.237598
0.715877 0.143786 0.250217
0.715908 0.143572 0.248631
0.716045 0.142977 0.245853
0.71606 0.142123 0.24123
0.71635 0.141299 0.236866
0.715434 0.139498 0.227131
0.0823377 0.153384 0.0964218
0.0812238 0.150835 0.0941787
0.0808576 0.149218 0.0920577
0.0836347 0.14786 0.0906844
0.0874647 0.145281 0.090898
0.0947433 0.144305 0.0941939
0.104952 0.145647 0.0942245
0.120272 0.149355 0.0850233
0.160159 0.142885 0.0791028
0.193133 0.130266 0.0840009
0.232471 0.119142 0.0846265
0.277409 0.115892 0.0846113
0.328878 0.115465 0.0854505
0.375174 0.11606 0.0865949
0.418418 0.113832 0.0876783
0.458183 0.114 0.0904555
0.504479 0.12134 0.096788
0.552499 0.128618 0.109117
0.58909 0.128206 0.118929
0.61532 0.126604 0.129076
0.653834 0.124224 0.147951
0.700008 0.134936 0.185824
0.705089 0.13666 0.196796
0.706859 0.137728 0.202609
0.708492 0.13846 0.207416
0.709377 0.138796 0.209094
0.709804 0.13904 0.209903
0.709987 0.138949 0.208621
0.711727 0.140124 0.221302
0.711467 0.139452 0.216449
0.711269 0.138766 0.210483
0.710552 0.137453 0.202167
0.709178 0.135851 0.193454
0.083238 0.179889 0.104372
0.0821698 0.176761 0.101305
0.0824598 0.175051 0.098146
0.0834363 0.173754 0.0955367
0.0882277 0.172061 0.0953536
0.0942245 0.16997 0.0978714
0.105867 0.169924 0.101701
0.118593 0.171374 0.0992599
0.142535 0.175311 0.0858167
0.200015 0.162554 0.0812085
0.240986 0.147967 0.0863508
0.286137 0.132906 0.0888838
0.325658 0.131701 0.0893873
0.381628 0.133913 0.0926375
0.428199 0.136843 0.0963912
0.483284 0.139147 0.102617
0.513939 0.131243 0.102586
0.557885 0.133639 0.110399
0.596887 0.135729 0.120912
0.624933 0.130266 0.128939
0.652216 0.127626 0.142229
0.694697 0.131624 0.164767
0.697871 0.133089 0.169146
0.700435 0.134157 0.173877
0.703853 0.135546 0.183185
0.703059 0.135195 0.180453
0.699901 0.134096 0.174411
0.700038 0.13402 0.17406
0.699687 0.133608 0.170932
0.70309 0.134646 0.178393
0.702907 0.134142 0.174029
0.703151 0.133089 0.171801
0.702785 0.131426 0.167178
0.0818189 0.216007 0.111757
0.08159 0.212909 0.108827
0.0811017 0.209125 0.104128
0.080705 0.206653 0.0996414
0.0839857 0.206104 0.0978408
0.090425 0.204746 0.0992142
0.10135 0.203754 0.102998
0.117754 0.205325 0.107927
0.134157 0.206928 0.102556
0.173358 0.211261 0.0845502
0.251041 0.193408 0.0844282
0.295216 0.177951 0.0925307
0.342336 0.159121 0.0987259
0.37969 0.157778 0.100481
0.439994 0.163912 0.1084
0.488579 0.168475 0.114641
0.543618 0.171176 0.121355
0.580865 0.15993 0.122606
0.607263 0.148287 0.123659
0.635935 0.140978 0.130556
0.656199 0.131502 0.138949
0.691173 0.135927 0.158022
0.696788 0.13669 0.161334
0.697124 0.136675 0.161807
0.697032 0.137301 0.161593
0.694652 0.140398 0.159579
0.695598 0.137224 0.159564
0.695933 0.135744 0.158984
0.696559 0.133608 0.15874
0.69691 0.133288 0.158114
0.69752 0.134951 0.158892
0.697704 0.136004 0.158022
0.697414 0.137713 0.156405
0.0889754 0.264515 0.131762
0.0883803 0.260746 0.127932
0.0866255 0.256687 0.122423
0.0858167 0.252628 0.115969
0.0851301 0.248661 0.108873
0.0902266 0.248844 0.107378
0.101411 0.249454 0.11017
0.11754 0.249699 0.114916
0.138918 0.252842 0.122805
0.161044 0.255512 0.114412
0.225406 0.25742 0.0878157
0.30518 0.237156 0.0883345
0.352392 0.222248 0.100954
0.398001 0.20177 0.113481
0.435752 0.199207 0.117494
0.491524 0.20058 0.124422
0.54551 0.205676 0.132052
0.593088 0.207614 0.137758
0.640864 0.197574 0.143572
0.666331 0.175906 0.141161
0.681788 0.15581 0.144289
0.695994 0.142626 0.152255
0.696757 0.138811 0.155322
0.695125 0.138705 0.156374
0.695033 0.138354 0.155856
0.694972 0.137881 0.155245
0.694713 0.137682 0.154696
0.696956 0.139849 0.155032
0.700328 0.141329 0.154498
0.703716 0.142901 0.154818
0.704524 0.142947 0.152514
0.700389 0.138537 0.151598
0.702037 0.137407 0.151446
0.0975052 0.314794 0.153323
0.0964828 0.311604 0.149523
0.0957504 0.309667 0.145922
0.0953994 0.306538 0.141405
0.093431 0.301732 0.132525
0.0941024 0.298436 0.12517
0.102052 0.298039 0.122026
0.117403 0.298253 0.124956
0.138415 0.30013 0.130465
0.164553 0.302815 0.141054
0.196887 0.30396 0.124987
0.279438 0.306096 0.0907454
0.3617 0.284276 0.0938888
0.407279 0.270695 0.111666
0.449546 0.251789 0.123598
0.486992 0.249348 0.135271
0.537499 0.244785 0.139803
0.595697 0.249729 0.149615
0.639551 0.25037 0.153887
0.689067 0.244083 0.159533
0.719951 0.218097 0.160403
0.736919 0.189075 0.161486
0.728756 0.169574 0.159869
0.722393 0.162737 0.158114
0.718151 0.156542 0.15555
0.719127 0.155169 0.155032
0.719829 0.154025 0.154665
0.720165 0.152651 0.153811
0.718746 0.150469 0.152132
0.717205 0.15024 0.15172
0.723964 0.162203 0.157321
0.728649 0.168124 0.159228
0.73611 0.178561 0.162936
0.107469 0.365835 0.179568
0.107134 0.363897 0.176196
0.10663 0.361791 0.172702
0.105516 0.360159 0.168536
0.104677 0.356039 0.162554
0.103471 0.352743 0.154162
0.103563 0.346883 0.142153
0.116655 0.346899 0.137301
0.136355 0.347295 0.14168
0.163302 0.350942 0.149935
0.199588 0.353445 0.161868
0.242817 0.354528 0.136538
0.336126 0.357 0.0957656
0.416739 0.337224 0.0978408
0.461326 0.323934 0.125292
0.502556 0.309178 0.138415
0.543343 0.303029 0.15172
0.582605 0.300526 0.162829
0.640162 0.297124 0.171283
0.686122 0.298543 0.1776
0.722774 0.292042 0.18114
0.751507 0.269642 0.180163
0.763546 0.247562 0.175463
0.762402 0.236728 0.172473
0.76109 0.227161 0.170199
0.759945 0.220722 0.169207
0.757855 0.215686 0.16849
0.757885 0.217563 0.169421
0.758434 0.222461 0.169787
0.761151 0.228626 0.171679
0.763394 0.234104 0.17258
0.76701 0.239628 0.172961
0.767224 0.240909 0.173053
0.121294 0.417914 0.216861
0.120775 0.416434 0.212375
0.12079 0.414511 0.208453
0.119234 0.412802 0.204486
0.117693 0.410163 0.198734
0.117876 0.407843 0.191989
0.116228 0.402808 0.179995
0.115984 0.396567 0.162341
0.136233 0.397086 0.156161
0.159335 0.397208 0.16173
0.199313 0.400977 0.175174
0.244327 0.403586 0.186175
0.294163 0.404547 0.147936
0.38941 0.404913 0.107958
0.47274 0.39089 0.105257
0.514961 0.379492 0.138506
0.556374 0.365972 0.157504
0.598795 0.358679 0.174105
0.629129 0.358099 0.184512
0.678981 0.34873 0.19881
0.721508 0.348989 0.207492
0.746288 0.341619 0.208209
0.763714 0.330724 0.207294
0.765057 0.323552 0.203647
0.76463 0.316701 0.200885
0.764416 0.311421 0.198352
0.764767 0.306706 0.196384
0.76405 0.303273 0.194766
0.763989 0.300481 0.193988
0.76379 0.302586 0.194385
0.763867 0.307225 0.19588
0.764309 0.312978 0.198306
0.764248 0.317906 0.199725
0.142229 0.472404 0.26006
0.140841 0.471046 0.256275
0.139147 0.468772 0.251423
0.138521 0.466972 0.247013
0.137285 0.465446 0.244617
0.136095 0.463142 0.239078
0.134981 0.459266 0.230182
0.132967 0.453788 0.21384
0.132769 0.446998 0.187762
0.159228 0.446983 0.179751
0.195102 0.447807 0.191562
0.246525 0.450309 0.210193
0.291661 0.454765 0.214694
0.349508 0.455512 0.164355
0.442069 0.455528 0.126604
0.525917 0.445533 0.119997
0.569116 0.435904 0.155901
0.609293 0.424384 0.1823
0.649775 0.414984 0.20238
0.675929 0.41503 0.211246
0.710521 0.409934 0.229129
0.74258 0.401877 0.238849
0.761074 0.395926 0.239872
0.763607 0.390677 0.238239
0.762951 0.386526 0.236179
0.763287 0.383749 0.235019
0.762783 0.38114 0.233082
0.76257 0.378332 0.231525
0.76286 0.37586 0.230991
0.762951 0.373678 0.230137
0.762875 0.369467 0.228244
0.763149 0.371328 0.228962
0.764218 0.373816 0.230381
0.169665 0.527398 0.308995
0.167727 0.52575 0.304631
0.166354 0.523903 0.299794
0.165133 0.522255 0.296407
0.16347 0.519768 0.291432
0.161913 0.518639 0.288457
0.160311 0.517098 0.283024
0.157702 0.511421 0.270176
0.155947 0.504707 0.250172
0.155764 0.496422 0.21912
0.195209 0.495949 0.215656
0.247318 0.496986 0.231266
0.299733 0.500465 0.251774
0.342657 0.505653 0.240116
0.405127 0.506325 0.186648
0.49749 0.507927 0.146624
0.578912 0.498756 0.14229
0.620874 0.491447 0.177646
0.657588 0.480949 0.21239
0.693721 0.470481 0.232898
0.718181 0.471122 0.242069
0.741115 0.469413 0.249989
0.759396 0.464408 0.258839
0.76437 0.461036 0.263325
0.764385 0.457908 0.263569
0.763851 0.455879 0.262867
0.763409 0.453849 0.262333
0.763684 0.452445 0.262745
0.763531 0.450202 0.262425
0.763043 0.447074 0.261982
0.76257 0.443122 0.261799
0.762783 0.437659 0.260029
0.763027 0.433143 0.259052
0.203876 0.582895 0.36022
0.201892 0.581827 0.356329
0.200427 0.580194 0.352499
0.198535 0.57818 0.347646
0.196628 0.576471 0.344045
0.194736 0.574731 0.339818
0.193439 0.5729 0.336172
0.190372 0.570184 0.329747
0.186007 0.564111 0.312779
0.183291 0.556191 0.287968
0.185061 0.546288 0.251606
0.248249 0.544823 0.256031
0.303899 0.547677 0.274846
0.354513 0.552331 0.291768
0.396155 0.557961 0.266316
0.463539 0.55819 0.215641
0.549844 0.561715 0.172641
0.629191 0.553017 0.164874
0.667994 0.547005 0.20383
0.702983 0.540383 0.239567
0.730739 0.528527 0.264393
0.752377 0.529488 0.274067
0.764858 0.530404 0.277409
0.771618 0.530098 0.278859
0.772686 0.52845 0.278767
0.772366 0.526711 0.277775
0.772305 0.525231 0.27718
0.772229 0.52369 0.276722
0.771923 0.521859 0.276005
0.771603 0.519844 0.275166
0.771206 0.51635 0.274525
0.770016 0.510353 0.272435
0.769589 0.501884 0.269749
0.243931 0.637125 0.410147
0.241779 0.635416 0.406226
0.240024 0.63418 0.402625
0.238666 0.632609 0.3991
0.236988 0.630808 0.394888
0.234943 0.628473 0.390433
0.233433 0.627253 0.386572
0.230716 0.624979 0.382208
0.226566 0.621057 0.372992
0.219318 0.61413 0.352224
0.216999 0.604837 0.321675
0.230976 0.594614 0.285771
0.307546 0.594324 0.299107
0.363317 0.598718 0.320211
0.407843 0.604334 0.328389
0.448585 0.609903 0.293919
0.518715 0.61004 0.246754
0.596429 0.615854 0.20943
0.67274 0.605859 0.202228
0.709789 0.602304 0.237263
0.737606 0.597955 0.266026
0.759258 0.589715 0.289555
0.775143 0.586984 0.305699
0.783505 0.5888 0.308232
0.784329 0.588083 0.307591
0.783825 0.586328 0.306554
0.783566 0.584878 0.305943
0.783078 0.583352 0.304677
0.782513 0.581582 0.303349
0.78262 0.579431 0.302815
0.781613 0.575662 0.300374
0.781201 0.570901 0.297932
0.7794 0.562814 0.292866
0.28217 0.688182 0.456825
0.280858 0.686793 0.454093
0.279225 0.685618 0.451041
0.277943 0.684581 0.448264
0.276036 0.683085 0.444785
0.27393 0.681147 0.440284
0.272221 0.678859 0.435966
0.270253 0.677043 0.431617
0.266911 0.674174 0.425162
0.262745 0.669749 0.414191
0.254307 0.661265 0.387366
0.253727 0.649363 0.350591
0.29073 0.642252 0.325628
0.372732 0.644434 0.347478
0.423301 0.649073 0.367056
0.4589 0.654353 0.3617
0.502144 0.659358 0.323796
0.570718 0.660349 0.282582
0.640757 0.670848 0.25066
0.710628 0.656809 0.25156
0.744076 0.655238 0.270466
0.764294 0.652857 0.291829
0.781048 0.647913 0.308843
0.791638 0.645731 0.321218
0.794842 0.643214 0.326528
0.794537 0.641886 0.325887
0.793973 0.639811 0.325124
0.793423 0.638437 0.324651
0.793576 0.636088 0.324697
0.793805 0.634211 0.324773
0.79237 0.630259 0.323644
0.792309 0.625696 0.322713
0.789792 0.617624 0.320851
0.322881 0.731807 0.500587
0.321157 0.731395 0.498192
0.319081 0.730297 0.495079
0.317952 0.72958 0.492668
0.316915 0.728328 0.489586
0.31458 0.726741 0.486824
0.312093 0.725216 0.482185
0.310353 0.723278 0.477195
0.30721 0.720302 0.471229
0.303655 0.717861 0.464759
0.298665 0.711757 0.448722
0.28954 0.702495 0.416815
0.297307 0.689464 0.377966
0.363668 0.686763 0.37261
0.435904 0.690669 0.396185
0.477501 0.694881 0.406958
0.508293 0.699565 0.390707
0.551995 0.70309 0.353994
0.618204 0.705928 0.320562
0.681941 0.71751 0.295811
0.739284 0.704021 0.298497
0.767803 0.70396 0.307027
0.785061 0.702724 0.318395
0.796597 0.700252 0.329824
0.801831 0.695384 0.337621
0.802655 0.69221 0.339361
0.802365 0.690547 0.338903
0.802396 0.689082 0.338796
0.801724 0.686748 0.337987
0.801221 0.68365 0.336934
0.800931 0.680415 0.33608
0.799985 0.675212 0.333928
0.798672 0.667369 0.331609
0.364996 0.767849 0.542443
0.363043 0.767269 0.540093
0.361318 0.766506 0.537575
0.358938 0.765209 0.533989
0.357076 0.764477 0.531579
0.355703 0.763684 0.529122
0.353719 0.762356 0.525826
0.351522 0.760464 0.52079
0.347845 0.758434 0.514534
0.34435 0.755108 0.50724
0.339117 0.75198 0.497978
0.333303 0.744686 0.476783
0.326574 0.733425 0.44036
0.348638 0.724437 0.408713
0.43679 0.724086 0.419959
0.491524 0.727672 0.439429
0.526696 0.732433 0.440604
0.555322 0.736538 0.4177
0.598199 0.738262 0.384604
0.661387 0.74342 0.356817
0.717601 0.753491 0.341253
0.761303 0.743847 0.346426
0.784329 0.743236 0.352972
0.798856 0.742489 0.354788
0.808545 0.74081 0.357092
0.810803 0.739223 0.360388
0.810391 0.737469 0.35967
0.810315 0.73608 0.358343
0.810086 0.734142 0.356863
0.809659 0.732021 0.355215
0.809018 0.729122 0.354177
0.808347 0.724804 0.351965
0.80705 0.717418 0.347784
0.403479 0.792218 0.576608
0.402182 0.792157 0.575021
0.399817 0.791516 0.573159
0.398138 0.790829 0.57026
0.396216 0.790112 0.567926
0.394232 0.789273 0.565454
0.392157 0.788602 0.562585
0.389029 0.786908 0.558038
0.38529 0.784466 0.552193
0.381598 0.781872 0.544442
0.375753 0.778759 0.535302
0.369985 0.774319 0.522942
0.3635 0.766461 0.495766
0.36878 0.756573 0.461387
0.412406 0.750256 0.443565
0.499977 0.752941 0.464775
0.542199 0.756222 0.476188
0.570443 0.761044 0.467201
0.601068 0.765576 0.442298
0.645029 0.767086 0.415076
0.7028 0.7738 0.393149
0.744701 0.780209 0.38587
0.778225 0.772824 0.390402
0.795544 0.771954 0.393866
0.806149 0.771801 0.39675
0.810193 0.771099 0.398871
0.811048 0.76994 0.398367
0.811292 0.768841 0.396811
0.810956 0.767483 0.394491
0.810971 0.765942 0.391653
0.810864 0.763394 0.388586
0.811093 0.760647 0.384024
0.811597 0.754513 0.37583
0.423484 0.802136 0.595285
0.422095 0.801984 0.593286
0.4206 0.801801 0.59115
0.419135 0.801724 0.589288
0.417868 0.801526 0.587625
0.416464 0.801389 0.585412
0.414389 0.800992 0.582803
0.412421 0.800137 0.579873
0.409354 0.798352 0.574548
0.405035 0.796307 0.567697
0.399634 0.793652 0.558862
0.39408 0.790494 0.548837
0.390784 0.785595 0.532433
0.393301 0.779202 0.505501
0.417456 0.771893 0.482582
0.485206 0.770596 0.483497
0.553124 0.774502 0.50248
0.583429 0.778958 0.502297
0.610941 0.783307 0.486564
0.642298 0.786511 0.462028
0.690822 0.789197 0.438666
0.732555 0.796078 0.425483
0.76611 0.798901 0.422812
0.79115 0.793393 0.424903
0.803021 0.793408 0.427207
0.808316 0.793271 0.431403
0.809766 0.792523 0.431846
0.809903 0.791653 0.43006
0.810315 0.790326 0.427924
0.810483 0.789227 0.425605
0.810376 0.787305 0.421942
0.81088 0.784375 0.417884
0.810941 0.780392 0.41178
0.423972 0.802899 0.599161
0.424094 0.802747 0.597543
0.423682 0.802579 0.59617
0.42211 0.802441 0.59411
0.420615 0.802243 0.592004
0.419165 0.801953 0.589624
0.417426 0.801572 0.58706
0.414878 0.801282 0.583658
0.412238 0.799954 0.579263
0.407553 0.797406 0.572244
0.402975 0.794919 0.563043
0.396109 0.791409 0.552819
0.391104 0.787594 0.538064
0.395468 0.783185 0.516564
0.418799 0.779767 0.499947
0.477516 0.781109 0.503563
0.549691 0.785016 0.519326
0.595499 0.789868 0.529992
0.621515 0.795148 0.524117
0.649119 0.799237 0.505348
0.684169 0.801358 0.483574
0.730709 0.80589 0.46273
0.759838 0.811719 0.454093
0.782971 0.8103 0.451133
0.79913 0.809155 0.456641
0.807034 0.809384 0.462181
0.808774 0.809018 0.463111
0.808957 0.808103 0.461021
0.809247 0.80708 0.45771
0.809476 0.805722 0.454932
0.81001 0.804501 0.452064
0.809812 0.802594 0.447898
0.809659 0.799161 0.442054
0.42388 0.803403 0.603021
0.423743 0.803235 0.601221
0.423484 0.803113 0.599359
0.423362 0.803067 0.597482
0.423117 0.802884 0.596155
0.421515 0.802655 0.593698
0.419593 0.802152 0.590417
0.41735 0.801617 0.58703
0.414115 0.8009 0.582422
0.410727 0.798993 0.575921
0.404593 0.795987 0.567041
0.398459 0.79263 0.555642
0.39147 0.788586 0.541375
0.39382 0.783932 0.520088
0.414221 0.780179 0.501244
0.468635 0.780941 0.501839
0.541527 0.78439 0.517449
0.591897 0.789685 0.531289
0.619654 0.795727 0.527779
0.647562 0.800824 0.513954
0.680781 0.803326 0.49633
0.724269 0.807523 0.478065
0.755856 0.814755 0.470283
0.7785 0.814511 0.467231
0.793957 0.814893 0.469902
0.805173 0.816648 0.481178
0.80914 0.818387 0.491646
0.809415 0.818402 0.493217
0.809232 0.817777 0.490517
0.809232 0.816907 0.487297
0.809064 0.816068 0.484001
0.809064 0.814878 0.480049
0.808972 0.813214 0.474159
0.423651 0.804013 0.605936
0.423651 0.803784 0.604196
0.423392 0.80354 0.602762
0.423178 0.803418 0.600763
0.422965 0.803296 0.598886
0.423026 0.803113 0.596735
0.421592 0.802747 0.593988
0.41915 0.80206 0.589746
0.41619 0.801495 0.58526
0.412284 0.800046 0.579522
0.406622 0.797009 0.570169
0.400504 0.793698 0.55874
0.393469 0.789761 0.545937
0.396643 0.784146 0.525841
0.409766 0.780667 0.502464
0.458061 0.780529 0.499352
0.534264 0.783688 0.514794
0.588602 0.788678 0.530571
0.616876 0.794934 0.528649
0.644633 0.799954 0.515709
0.676371 0.803296 0.498985
0.717678 0.807294 0.482658
0.751446 0.814069 0.47277
0.775204 0.816068 0.469535
0.791638 0.815305 0.47068
0.803128 0.817105 0.478141
0.808896 0.82002 0.494575
0.809171 0.820844 0.501289
0.809155 0.820706 0.500069
0.809201 0.820508 0.498695
0.809277 0.820371 0.497749
0.809339 0.820325 0.497124
0.809354 0.820264 0.496803
0.422538 0.804501 0.608255
0.422827 0.804349 0.606592
0.422919 0.804227 0.604578
0.422812 0.803937 0.603189
0.42298 0.803632 0.601267
0.422812 0.803433 0.599145
0.422889 0.803143 0.59646
0.420691 0.802579 0.592447
0.417853 0.801755 0.587945
0.413581 0.800778 0.582147
0.408087 0.797818 0.573449
0.402808 0.794522 0.56112
0.394705 0.790341 0.548226
0.395941 0.785092 0.529686
0.405829 0.781231 0.504479
0.44892 0.77998 0.498146
0.527001 0.783276 0.512612
0.584115 0.788052 0.5299
0.613748 0.794522 0.529473
0.640467 0.799603 0.517342
0.672297 0.803143 0.501167
0.711879 0.806485 0.484489
0.747097 0.813153 0.472572
0.772549 0.816617 0.469215
0.789578 0.81651 0.467582
0.801709 0.816861 0.475914
0.808515 0.819562 0.490532
0.809216 0.820737 0.499397
