bundles/resolve-cinematic-luts/Gamut/ETHER/ETHER/Ether 02.cube
TITLE "Generated by 3D LUT Creator Pro (c) Oleg Sharonov"
# INPUTGAMMA sRGB
# IMAGEPROFILE sRGB
# OUTPUTGAMMA sRGB
# 
LUT_3D_SIZE 5
0.0007890000 0.0055200000 0.0102510000
0.1982402500 0.0063090000 0.0053227500
0.4359995000 0.0185315000 0.0098570000
0.6784840000 0.0348942500 0.0343032500
0.8526590000 0.0432640000 0.0530020000
0.0000000000 0.1605707500 0.1023205000
0.1626582500 0.1886220000 0.0130117500
0.4193082500 0.1743872500 0.0232632500
0.6913552500 0.1717615000 0.0470647500
0.8829160000 0.1621940000 0.0670292500
0.0000000000 0.3328000000 0.1927070000
0.0861465000 0.3511602500 0.0761370000
0.3676830000 0.3735390000 0.0496570000
0.6075702500 0.3388597500 0.0643737500
0.7911030000 0.3292950000 0.0788580000
0.0000000000 0.5090845000 0.2590245000
0.0541820000 0.5108202500 0.1667855000
0.3732172500 0.5730495000 0.0961040000
0.5941642500 0.5572982500 0.0997060000
0.7402100000 0.5154715000 0.1073362500
0.0031540000 0.6286590000 0.2964060000
0.0545140000 0.6235462500 0.2187450000
0.3799285000 0.6942465000 0.1517865000
0.6787702500 0.7624317500 0.1703722500
0.7528530000 0.6847480000 0.1554210000
0.0069000000 0.0549265000 0.2156985000
0.2218112500 0.0238545000 0.2515167500
0.4906522500 0.0311487500 0.1892107500
0.7316870000 0.0515167500 0.1582490000
0.9095307500 0.0603052500 0.1482697500
0.0029570000 0.2157727500 0.2528372500
0.1754928438 0.2267407594 0.2347252031
0.4442568000 0.1957077000 0.1764067156
0.6824869688 0.1888540750 0.1603401375
0.8619400000 0.1799482500 0.1565770000
0.0000000000 0.3888355000 0.3275527500
0.0676055844 0.3899497281 0.2966586125
0.3865571219 0.4193671281 0.1872417813
0.6533688906 0.3881569125 0.1726631375
0.8533260000 0.3722400000 0.1731550000
0.0007890000 0.5635515000 0.3811645000
0.0529191719 0.5599659344 0.3454593156
0.3257552813 0.5976271281 0.2252026469
0.6256128719 0.6038504656 0.2007480219
0.7842165000 0.5642222500 0.1956122500
0.0145887500 0.6886322500 0.4116365000
0.0643170000 0.6845117500 0.3764845000
0.3190780000 0.7215102500 0.2772942500
0.6942825000 0.7936495000 0.2570902500
0.7941957500 0.7403752500 0.2417277500
0.0240515000 0.1078775000 0.4258080000
0.1795320000 0.0760272500 0.4816102500
0.5037765000 0.0681025000 0.4948875000
0.8148477500 0.0737677500 0.3970822500
0.9314725000 0.0946725000 0.3589385000
0.0283885000 0.2621975000 0.4472332500
0.1530480125 0.2636123156 0.4326363563
0.4505975469 0.2275392375 0.4567079813
0.7362757469 0.2065184312 0.3808401406
0.9214380000 0.2040265000 0.3399127500
0.0264170000 0.4497775000 0.4911380000
0.1152995500 0.4496442969 0.4569687656
0.3950123750 0.4725396094 0.4314984531
0.6874022500 0.4397194656 0.3746019375
0.8875185000 0.4127785000 0.3422920000
0.0226717500 0.6294867500 0.5340050000
0.0881383000 0.6272240750 0.5098054844
0.2528269437 0.6453288000 0.4633036938
0.6653982219 0.6755094125 0.3892026781
0.8503667500 0.6488587500 0.3692795000
0.0475930000 0.7712675000 0.5870175000
0.1063560000 0.7673910000 0.5581860000
0.2668160000 0.7797020000 0.5106515000
0.6960442500 0.8402555000 0.4226710000
0.8621400000 0.8312520000 0.3954440000
0.0479432500 0.1627342500 0.6382425000
0.1351767500 0.1416467500 0.6968072500
0.3966175000 0.1382840000 0.7619347500
0.8128477500 0.1262937500 0.7258827500
0.9145045000 0.1214817500 0.6472452500
0.0583565000 0.3130705000 0.6503932500
0.1414071656 0.2942995469 0.6334416375
0.3848584219 0.2558020813 0.6851677063
0.7485090469 0.2440799125 0.6770398625
0.9210720000 0.2331680000 0.6119120000
0.0572805000 0.4788522500 0.6998790000
0.1424204125 0.4915721875 0.6475200313
0.3597242781 0.5049527656 0.6321451750
0.7000555937 0.4811263937 0.6396575813
0.9196050000 0.4453962500 0.5833990000
0.0616375000 0.6925160000 0.7483030000
0.1359916750 0.6884727406 0.6901247437
0.2947127156 0.7048134594 0.6495373375
0.6840517594 0.7457999906 0.6224791938
0.9065465000 0.7257630000 0.5842290000
0.0657850000 0.8285625000 0.7741962500
0.1371162500 0.8280050000 0.7457495000
0.2803045000 0.8443145000 0.7178367500
0.6062372500 0.8820882500 0.6657157500
0.9260350000 0.9197975000 0.5856802500
0.0656460000 0.2085380000 0.7938070000
0.1397097500 0.2164122500 0.8655057500
0.2813030000 0.2381610000 0.9111375000
0.6838817500 0.2430590000 0.9137270000
0.8300420000 0.2488450000 0.9084010000
0.0776460000 0.3480417500 0.8156827500
0.1481652500 0.3163592500 0.7910360000
0.2868037500 0.3067087500 0.8616495000
0.6332002500 0.3184820000 0.8911667500
0.8641880000 0.3122330000 0.8587470000
0.0771550000 0.5117545000 0.8815190000
0.1571755000 0.5137062500 0.8191907500
0.3060505000 0.5124980000 0.7977955000
0.6245740000 0.4960505000 0.8354640000
0.8954670000 0.4917735000 0.8089145000
0.0801790000 0.7231872500 0.8767017500
0.1511022500 0.7172625000 0.8718555000
0.2988527500 0.7341827500 0.8240512500
0.6684287500 0.7814070000 0.7909997500
0.9307057500 0.7653422500 0.7912920000
0.0851700000 0.8920280000 0.8293560000
0.1495155000 0.8828765000 0.8319862500
0.2758060000 0.8853315000 0.8340265000
0.5807245000 0.9216322500 0.8237837500
0.9504920000 0.9725370000 0.7915470000
