bundles/resolve-cinematic-luts/Gamut/ETHER/ETHER/Ether 02.cube
TITLE "Generated by 3D LUT Creator Pro (c) Oleg Sharonov"
# INPUTGAMMA sRGB
# IMAGEPROFILE sRGB
# OUTPUTGAMMA sRGB
# 
LUT_3D_SIZE 33
0.0007890000 0.0055200000 0.0102510000
0.0186056250 0.0024399062 0.0048295937
0.0431768125 0.0008382500 0.0008875625
0.0658245000 0.0015031250 0.0015031250
0.0889218750 0.0022673750 0.0015770000
0.1145245938 0.0030308750 0.0023660000
0.1412831250 0.0045832500 0.0031540000
0.1692946875 0.0053474062 0.0039430000
0.1982402500 0.0063090000 0.0053227500
0.2280680938 0.0076640937 0.0060870938
0.2581038125 0.0084277500 0.0068507500
0.2883127187 0.0086740000 0.0076147813
0.3184377500 0.0094630000 0.0083785000
0.3485763438 0.0107194687 0.0091424687
0.3778086250 0.0127160625 0.0094630000
0.4064692500 0.0158207812 0.0094630000
0.4359995000 0.0185315000 0.0098570000
0.4662727500 0.0208728438 0.0114098437
0.4970571250 0.0232137500 0.0140959375
0.5279790313 0.0258750625 0.0175211875
0.5601965000 0.0281913750 0.0210943750
0.5917290000 0.0302368750 0.0249880938
0.6223172500 0.0317895625 0.0280928125
0.6512495937 0.0341306250 0.0311978125
0.6784840000 0.0348942500 0.0343032500
0.7032821250 0.0362740000 0.0366191875
0.7249931875 0.0370630000 0.0389356875
0.7456446250 0.0379751250 0.0412318125
0.7661776250 0.0387386250 0.0434482500
0.7871793750 0.0402170000 0.0455969688
0.8086369375 0.0410418125 0.0483371875
0.8306045937 0.0417826562 0.0503898125
0.8526590000 0.0432640000 0.0530020000
0.0007890000 0.0241010000 0.0187781250
0.0170779063 0.0271810625 0.0102510000
0.0395516563 0.0256533750 0.0048049375
0.0611962812 0.0263190938 0.0024152500
0.0871113125 0.0256040625 0.0023413438
0.1129804688 0.0241748438 0.0023660000
0.1403393125 0.0226717500 0.0030308750
0.1684941875 0.0225486250 0.0037950625
0.1969952500 0.0231642813 0.0039676250
0.2260980938 0.0246920000 0.0053227500
0.2548627813 0.0257026250 0.0055446563
0.2843421875 0.0277727813 0.0063336250
0.3132246875 0.0293251250 0.0068261250
0.3418951875 0.0313459375 0.0071216563
0.3707602187 0.0331941875 0.0075900938
0.3991733438 0.0355596250 0.0090931562
0.4282850000 0.0379010000 0.0118038438
0.4582699375 0.0394780000 0.0148839375
0.4890103750 0.0417709375 0.0179650000
0.5204212188 0.0432480312 0.0214149063
0.5526543750 0.0454204687 0.0249634375
0.5839077188 0.0468515000 0.0280928125
0.6144589375 0.0482329062 0.0311978438
0.6434763750 0.0493979062 0.0343032500
0.6706902500 0.0502475938 0.0374079687
0.6953820625 0.0514228125 0.0397220625
0.7169259063 0.0520863125 0.0419930000
0.7375468750 0.0527437500 0.0441862813
0.7583547813 0.0533951250 0.0463127813
0.7791685938 0.0540414375 0.0483790937
0.8006007500 0.0546826875 0.0510194063
0.8224219063 0.0553603125 0.0530012812
0.8443001875 0.0559706563 0.0555282187
0.0015770000 0.0412190625 0.0326764375
0.0049281563 0.0428025000 0.0226471875
0.0355347500 0.0489304375 0.0058156875
0.0547539687 0.0456771562 0.0031540000
0.0791510000 0.0449335625 0.0016756250
0.1095429687 0.0455125625 0.0015770000
0.1409729375 0.0455125625 0.0023660000
0.1727809688 0.0455743438 0.0024152500
0.2031506250 0.0454632500 0.0031540000
0.2329248750 0.0455125625 0.0039430000
0.2616263750 0.0460013750 0.0047310000
0.2900632187 0.0462776875 0.0052980937
0.3183035625 0.0474725000 0.0055693125
0.3462725937 0.0488431250 0.0063090000
0.3743641875 0.0501891875 0.0068015000
0.4022798125 0.0515107812 0.0095117813
0.4302638750 0.0531773125 0.0125681875
0.4593355000 0.0547725625 0.0157222187
0.4893251875 0.0562891250 0.0191721250
0.5199707812 0.0578608438 0.0226714062
0.5514102500 0.0592833750 0.0261212500
0.5820991875 0.0608352188 0.0296698438
0.6120239375 0.0619917500 0.0327755000
0.6405589375 0.0630934687 0.0359295313
0.6674576250 0.0640783750 0.0387880000
0.6918032188 0.0648062813 0.0412783750
0.7133643125 0.0653515625 0.0434936250
0.7337853437 0.0658926875 0.0456409687
0.7539066250 0.0664313750 0.0477256250
0.7747464063 0.0668774375 0.0497529062
0.7960228125 0.0674272500 0.0523871875
0.8176746563 0.0680085625 0.0548932500
0.8394272500 0.0685510000 0.0573613125
0.0015770000 0.0560854687 0.0427566250
0.0015770313 0.0573514375 0.0381225000
0.0270578750 0.0636412187 0.0099065625
0.0521585313 0.0689397812 0.0039430000
0.0728997813 0.0627548750 0.0016756250
0.1023936250 0.0619477187 0.0015770000
0.1341394375 0.0625360000 0.0015770000
0.1665353125 0.0625900000 0.0016509688
0.2005158438 0.0641046563 0.0023660000
0.2338686250 0.0646548750 0.0031540000
0.2656403750 0.0647600625 0.0039430000
0.2962688750 0.0647600625 0.0045340000
0.3261739687 0.0656686875 0.0047310000
0.3549672500 0.0662085000 0.0059884687
0.3829200000 0.0672953125 0.0082552812
0.4105125625 0.0683688125 0.0110154375
0.4386415000 0.0694292187 0.0141205312
0.4670172188 0.0705318125 0.0172252500
0.4962634062 0.0715664688 0.0203305000
0.5263070937 0.0731055000 0.0238297813
0.5569583125 0.0745672500 0.0273294063
0.5868870937 0.0756084375 0.0304341250
0.6159714063 0.0765879687 0.0336128125
0.6438640312 0.0775578125 0.0367178125
0.6702442813 0.0780310938 0.0397462813
0.6940810937 0.0784459375 0.0426086563
0.7154218750 0.0789295000 0.0448052188
0.7355942813 0.0794109688 0.0469353438
0.7555059688 0.0794109688 0.0490057188
0.7761617188 0.0795035938 0.0510814063
0.7971007187 0.0799380625 0.0536304062
0.8184629687 0.0799528750 0.0555670312
0.8400678125 0.0804623125 0.0579954375
0.0008875000 0.0735367500 0.0541903750
0.0008382187 0.0740818125 0.0491853437
0.0142926250 0.0796986250 0.0236076875
0.0446590937 0.0868672187 0.0078612812
0.0707963750 0.0916981250 0.0031540000
0.0964425000 0.0832146250 0.0022673750
0.1265868125 0.0811849375 0.0015770000
0.1592877188 0.0819595625 0.0015770000
0.1925781250 0.0825337500 0.0021687500
0.2259290938 0.0829981250 0.0023660000
0.2597656250 0.0838348125 0.0031540000
0.2936482812 0.0846105625 0.0037704063
0.3266527500 0.0855040000 0.0052241250
0.3585060312 0.0867752500 0.0079348438
0.3888027500 0.0876498750 0.0102514375
0.4179925937 0.0885172500 0.0128390313
0.4473072500 0.0890010000 0.0156728750
0.4767541250 0.0897976562 0.0187777187
0.5062055000 0.0906470625 0.0218833125
0.5362645625 0.0915474062 0.0257765625
0.5667451250 0.0922257500 0.0288817500
0.5963108125 0.0928478750 0.0319864687
0.6248073750 0.0931820000 0.0350913125
0.6524439375 0.0936005000 0.0381969062
0.6782697500 0.0936565000 0.0410881250
0.7019160937 0.0937466250 0.0434929375
0.7229108125 0.0939953750 0.0456403125
0.7429206875 0.0937121250 0.0477250313
0.7627882500 0.0937676250 0.0503471250
0.7831238437 0.0937288125 0.0523866250
0.8038677500 0.0934053750 0.0549330000
0.8250562500 0.0934183125 0.0573218437
0.8466473750 0.0938228750 0.0597172500
0.0007890000 0.0946442188 0.0674304063
0.0007890000 0.0945735938 0.0608467812
0.0042879688 0.0989498125 0.0418193125
0.0304336875 0.1043031250 0.0173736562
0.0644431562 0.1124067813 0.0076887813
0.0932528438 0.1155627500 0.0039430000
0.1203976562 0.1067272500 0.0036965938
0.1513898125 0.1048522500 0.0024152500
0.1835297500 0.1045807813 0.0022427187
0.2170063437 0.1046451562 0.0022427187
0.2506427500 0.1052767813 0.0030308750
0.2844514062 0.1060140937 0.0043368437
0.3182969063 0.1067467500 0.0063823437
0.3518555625 0.1081191563 0.0090193437
0.3845853750 0.1089292500 0.0118037812
0.4169781250 0.1099433750 0.0141205000
0.4491090000 0.1106523750 0.0172252188
0.4809770000 0.1111921250 0.0203305625
0.5125689688 0.1116085937 0.0237804063
0.5439931562 0.1119639062 0.0273293750
0.5752622188 0.1120235937 0.0304340938
0.6057985938 0.1120235937 0.0335389687
0.6348207500 0.1120831250 0.0366440000
0.6625746250 0.1117878125 0.0397458750
0.6886248437 0.1117000625 0.0427699687
0.7121435000 0.1111351250 0.0449391250
0.7336076875 0.1107707188 0.0475057812
0.7536971250 0.1104225937 0.0495602500
0.7737349375 0.1097735313 0.0517464375
0.7940884375 0.1091540313 0.0536698750
0.8149080937 0.1087899688 0.0561755625
0.8362647813 0.1084862188 0.0586231563
0.8577161875 0.1084862188 0.0614587812
0.0001479375 0.1167165625 0.0785650000
0.0001479375 0.1165900625 0.0725932188
0.0008381875 0.1187006875 0.0594037500
0.0165600000 0.1246087813 0.0321101875
0.0483572500 0.1316212500 0.0162643125
0.0868090313 0.1395301563 0.0092411563
0.1161674375 0.1404308750 0.0061610625
0.1438621250 0.1318836875 0.0066287500
0.1755947500 0.1286910000 0.0052736250
0.2076739063 0.1279926875 0.0052243125
0.2407387500 0.1279926875 0.0057667500
0.2741353125 0.1283195000 0.0068013125
0.3080350625 0.1289311875 0.0082305625
0.3413288125 0.1296018125 0.0105717188
0.3744385625 0.1306829375 0.0133563125
0.4079118438 0.1314196875 0.0156728437
0.4415379375 0.1320168750 0.0187777500
0.4755499687 0.1326118438 0.0218832812
0.5098499375 0.1330741875 0.0257766250
0.5438461562 0.1333146875 0.0288817188
0.5774181875 0.1331341875 0.0319864375
0.6097347813 0.1329727813 0.0350913438
0.6404083750 0.1324401875 0.0381968750
0.6692665937 0.1318448125 0.0412763750
0.6962880625 0.1310638125 0.0442305625
0.7207861875 0.1303961250 0.0467780625
0.7428811250 0.1295540625 0.0491110000
0.7638370937 0.1287074687 0.0511013438
0.7843553125 0.1275803750 0.0535668750
0.8053108750 0.1267110312 0.0555665000
0.8265953750 0.1260890000 0.0580137500
0.8483220000 0.1254641250 0.0608698437
0.8701671875 0.1248996875 0.0631654375
0.0000000000 0.1390034375 0.0912621875
0.0000000000 0.1389362812 0.0847842187
0.0007396875 0.1403574063 0.0740248750
0.0094136250 0.1452169062 0.0497043125
0.0312965625 0.1510212813 0.0280931563
0.0726269375 0.1594230625 0.0163135625
0.1109478125 0.1670815938 0.0114345312
0.1389362812 0.1646279375 0.0092904062
0.1674395938 0.1564694375 0.0097336563
0.1993094375 0.1528277500 0.0097336563
0.2318372812 0.1515908125 0.0097336563
0.2646037187 0.1511086875 0.0104238125
0.2978147812 0.1511376563 0.0111881562
0.3305773438 0.1513535000 0.0127405000
0.3634705938 0.1521343750 0.0150812813
0.3967496250 0.1527103437 0.0180141875
0.4303998125 0.1532241250 0.0209465312
0.4650227500 0.1537359687 0.0234356250
0.5002673125 0.1539873750 0.0265403438
0.5358150625 0.1541347500 0.0298176562
0.5713095000 0.1541347500 0.0335390000
0.6055477812 0.1537881562 0.0366440625
0.6382090625 0.1530759688 0.0397454687
0.6689823750 0.1523004688 0.0427691875
0.6973999688 0.1514555938 0.0456616563
0.7232538750 0.1504753437 0.0482924687
0.7466044375 0.1492214062 0.0504503437
0.7687499375 0.1481634063 0.0530607500
0.7904981250 0.1468897187 0.0549519688
0.8122534375 0.1457895000 0.0574182500
0.8344259375 0.1446010313 0.0602758437
0.8570073750 0.1437692812 0.0626051875
0.8795801562 0.1430150313 0.0653999063
0.0000000000 0.1605707500 0.1023205000
0.0000000000 0.1606935625 0.0962003125
0.0000000000 0.1612291875 0.0882583750
0.0041648438 0.1656056875 0.0663556875
0.0222775000 0.1709042500 0.0427452500
0.0547680313 0.1777447188 0.0257027500
0.0995555625 0.1870385625 0.0177921250
0.1359610313 0.1929812500 0.0137751250
0.1626582500 0.1886220000 0.0130117500
0.1912550313 0.1805197812 0.0136027500
0.2236923750 0.1766663750 0.0136027500
0.2560441875 0.1747417500 0.0143175313
0.2882821250 0.1737238750 0.0150812500
0.3207816250 0.1736400000 0.0163136875
0.3530949375 0.1737000000 0.0181865625
0.3858790625 0.1739880000 0.0205279062
0.4193082500 0.1743872500 0.0232632500
0.4536197500 0.1745027500 0.0257766875
0.4888813125 0.1747302500 0.0286846875
0.5248119687 0.1747897500 0.0311980625
0.5606732500 0.1744786250 0.0348941250
0.5957910312 0.1740905000 0.0381968438
0.6295865625 0.1735709375 0.0412753750
0.6615537812 0.1727326875 0.0442298125
0.6913552500 0.1717615000 0.0470647500
0.7184566562 0.1707987188 0.0492831563
0.7431611250 0.1695248125 0.0517662500
0.7665427500 0.1683270937 0.0543329063
0.7894322500 0.1669888750 0.0568181250
0.8123793438 0.1655987500 0.0592279687
0.8357570000 0.1643938125 0.0615689375
0.8592911250 0.1630937187 0.0642887812
0.8829160000 0.1621940000 0.0670292500
0.0000000000 0.1822846250 0.1145082188
0.0000000000 0.1821386563 0.1084088750
0.0000000000 0.1814892812 0.0987943125
0.0015770938 0.1858883125 0.0813997500
0.0167327813 0.1906356875 0.0579859375
0.0395727813 0.1963179063 0.0382193125
0.0847057188 0.2051876250 0.0263683750
0.1272271563 0.2142600000 0.0207496250
0.1610653750 0.2184708750 0.0168805625
0.1867404687 0.2118546875 0.0166835625
0.2157849375 0.2041893125 0.0174469375
0.2478422500 0.1999888125 0.0182112500
0.2800467187 0.1977082500 0.0189749687
0.3118654375 0.1964130312 0.0197389375
0.3436880313 0.1957686250 0.0212914375
0.3760035312 0.1955506563 0.0236326250
0.4087799375 0.1953556563 0.0259739687
0.4428205625 0.1953714062 0.0283148437
0.4776765000 0.1952847812 0.0306556563
0.5133885313 0.1951486562 0.0335390312
0.5491822187 0.1948111563 0.0366441250
0.5841246250 0.1943448437 0.0397450625
0.6181819688 0.1937498437 0.0427684063
0.6504995313 0.1930081563 0.0454610312
0.6807935000 0.1919993125 0.0477452500
0.7084902813 0.1909840938 0.0504497187
0.7340304375 0.1899247187 0.0530602187
0.7581725000 0.1886951250 0.0555853125
0.7819152188 0.1874310937 0.0574934062
0.8058222500 0.1859775625 0.0604069062
0.8301286875 0.1845754375 0.0627148437
0.8546570313 0.1831683438 0.0655400625
0.8792848125 0.1819533125 0.0682415625
0.0000000000 0.2037003750 0.1268555625
0.0000000000 0.2035079375 0.1206270625
0.0000000000 0.2021943750 0.1084869375
0.0014291563 0.2057439062 0.0956495625
0.0129130625 0.2104575625 0.0723570625
0.0321342187 0.2159169687 0.0516755937
0.0693952500 0.2233441250 0.0365209375
0.1149423125 0.2326750000 0.0278467500
0.1545227500 0.2404756875 0.0230656250
0.1863143750 0.2431670000 0.0207742500
0.2113675625 0.2349701875 0.0205526250
0.2404268750 0.2274608750 0.0213406250
0.2721170000 0.2231850625 0.0223761875
0.3037735312 0.2203112188 0.0236326563
0.3352287500 0.2186312500 0.0251850000
0.3669535625 0.2175880625 0.0267375000
0.3994168125 0.2168536875 0.0286846875
0.4330473125 0.2163710625 0.0306310313
0.4675126875 0.2158958750 0.0333171250
0.5025582500 0.2155270000 0.0358800938
0.5379572500 0.2149959375 0.0387385625
0.5725277812 0.2144021563 0.0412743750
0.6061410000 0.2137508125 0.0442290625
0.6382859687 0.2129648125 0.0470641250
0.6684506875 0.2120595000 0.0494090625
0.6962392813 0.2111105938 0.0517657500
0.7217793750 0.2100763125 0.0543324375
0.7462080625 0.2089769062 0.0567217187
0.7703386875 0.2077863125 0.0586224375
0.7946867813 0.2063615313 0.0612200625
0.8194736875 0.2050546875 0.0638453125
0.8446008125 0.2036089687 0.0666171250
0.8698335625 0.2022825625 0.0693025000
0.0000000000 0.2248405000 0.1383144687
0.0000000000 0.2252949375 0.1328298437
0.0000000000 0.2232807187 0.1201953125
0.0014291563 0.2261507813 0.1104277188
0.0100048125 0.2303368125 0.0871845937
0.0274769688 0.2354514063 0.0649340000
0.0561220937 0.2416684375 0.0471909375
0.1016199063 0.2507205625 0.0365701250
0.1447957187 0.2595566563 0.0307790938
0.1817342500 0.2659749063 0.0269593437
0.2116163750 0.2667376563 0.0246672812
0.2363341562 0.2578238125 0.0246919062
0.2651301250 0.2505328750 0.0259740312
0.2961741250 0.2459630313 0.0267866875
0.3273183438 0.2427820000 0.0282901563
0.3588376250 0.2406610000 0.0302616875
0.3910360938 0.2390203125 0.0321835625
0.4242928125 0.2378420000 0.0341061250
0.4581763125 0.2368089063 0.0364222812
0.4928492500 0.2361910937 0.0387385625
0.5275340000 0.2354443750 0.0412976563
0.5615888750 0.2345806250 0.0435135625
0.5945815625 0.2338320938 0.0461271562
0.6262734375 0.2330229688 0.0486999062
0.6559926563 0.2321029687 0.0511207500
0.6834926250 0.2311791250 0.0537085625
0.7088754063 0.2301915938 0.0555848125
0.7331314375 0.2291990312 0.0580316250
0.7572168437 0.2281207500 0.0601999062
0.7814532187 0.2268432813 0.0625137500
0.8062642813 0.2254971562 0.0649609375
0.8314367813 0.2241413750 0.0671671875
0.8567955625 0.2227768125 0.0700030000
0.0000000000 0.2463353750 0.1498431250
0.0000000000 0.2468353750 0.1452431563
0.0000000000 0.2448183750 0.1337752500
0.0007150312 0.2462694687 0.1253555937
0.0075901250 0.2500255000 0.1025671250
0.0235587813 0.2550309063 0.0787190313
0.0473800000 0.2605543750 0.0591446250
0.0880003438 0.2685540625 0.0460899688
0.1332777500 0.2778011250 0.0385418750
0.1738661250 0.2856175937 0.0339577812
0.2085245625 0.2905681875 0.0308530625
0.2366940938 0.2889886875 0.0290787500
0.2615297500 0.2802343750 0.0295712500
0.2898259062 0.2732256250 0.0306310937
0.3203772500 0.2685058750 0.0321835000
0.3516471250 0.2649942500 0.0337362500
0.3835841250 0.2621780000 0.0352886250
0.4164600000 0.2600918750 0.0376296250
0.4501205000 0.2585110000 0.0395223125
0.4840935312 0.2572387187 0.0417921563
0.5182092500 0.2560982500 0.0439933750
0.5516765625 0.2550923438 0.0461262812
0.5840820000 0.2541643750 0.0486778750
0.6151986875 0.2532325313 0.0508865938
0.6443866250 0.2523053750 0.0533230000
0.6712859063 0.2513562188 0.0553645000
0.6963263125 0.2503930625 0.0574361875
0.7203344375 0.2495340938 0.0596013750
0.7439726250 0.2484803750 0.0615682500
0.7679200312 0.2473267188 0.0638450000
0.7922812500 0.2461066250 0.0660624375
0.8172942187 0.2448145312 0.0685616562
0.8424506250 0.2435493750 0.0711898750
0.0000000000 0.2674597188 0.1610949688
0.0000000000 0.2681595937 0.1572760938
0.0000000000 0.2661081875 0.1459819375
0.0007150312 0.2665788125 0.1373779687
0.0053476562 0.2698673125 0.1171494687
0.0205771875 0.2743424063 0.0924675312
0.0418430312 0.2796384063 0.0717889375
0.0753886562 0.2865210625 0.0564946250
0.1210116250 0.2956570938 0.0474493437
0.1641751563 0.3043358125 0.0416034375
0.2022178750 0.3110217500 0.0377775313
0.2347568750 0.3140574063 0.0352639063
0.2617346875 0.3107653437 0.0337362188
0.2869204375 0.3027201875 0.0345248125
0.3150035625 0.2960877188 0.0353132187
0.3452683438 0.2910355000 0.0368415000
0.3769597188 0.2869718125 0.0388618125
0.4094841875 0.2836862813 0.0407168125
0.4427130000 0.2811402813 0.0426660000
0.4762388750 0.2790805312 0.0447254063
0.5098087500 0.2774909063 0.0468372188
0.5426575938 0.2761337500 0.0490602500
0.5745455937 0.2749473750 0.0515536875
0.6050695313 0.2738264062 0.0534820937
0.6337776875 0.2727961875 0.0558393125
0.6601878437 0.2718415625 0.0578176563
0.6848341875 0.2709413438 0.0596008125
0.7083197813 0.2699793750 0.0615862500
0.7315468750 0.2689955937 0.0636285313
0.7549666875 0.2678889063 0.0658001563
0.7789121562 0.2667774688 0.0677309063
0.8034299063 0.2656554375 0.0701340000
0.8282416250 0.2644536250 0.0724115625
0.0000000000 0.2888909375 0.1716697500
0.0000000000 0.2893482500 0.1680118125
0.0000000000 0.2872036875 0.1576663125
0.0007150312 0.2868004063 0.1476542500
0.0045833125 0.2899441250 0.1323728125
0.0180387187 0.2940598125 0.1073396562
0.0374541875 0.2990651875 0.0846563125
0.0650862813 0.3051730000 0.0675235937
0.1089927500 0.3136755625 0.0559813125
0.1537292188 0.3227905625 0.0493135625
0.1944050000 0.3306571250 0.0446390000
0.2303408125 0.3361835313 0.0417034063
0.2610819375 0.3374714375 0.0399148750
0.2874664687 0.3332669062 0.0391823125
0.3127342500 0.3258062500 0.0396193750
0.3409013438 0.3191563125 0.0407157187
0.3714450000 0.3136377500 0.0422241250
0.4033619063 0.3090488437 0.0440370000
0.4361150625 0.3053181875 0.0458607500
0.4692500938 0.3023230625 0.0479613438
0.5022671250 0.3000235000 0.0502534375
0.5346648750 0.2981350313 0.0522146875
0.5660190000 0.2965285625 0.0542868750
0.5959656562 0.2951072188 0.0561689687
0.6241202500 0.2939231250 0.0584284375
0.6501353750 0.2928867500 0.0601982187
0.6743255625 0.2918149375 0.0621483750
0.6973688750 0.2909241875 0.0641108125
0.7201164375 0.2899853750 0.0658511875
0.7431592188 0.2889607813 0.0677280000
0.7664645000 0.2878837500 0.0696013750
0.7905690312 0.2867993125 0.0721999687
0.8147573125 0.2856326875 0.0742199375
0.0000000000 0.3104456562 0.1822569687
0.0000000000 0.3112092500 0.1790436250
0.0000000000 0.3089852813 0.1691790937
0.0007150312 0.3074811563 0.1581513750
0.0036472500 0.3103834062 0.1464811562
0.0164861875 0.3141692188 0.1224600000
0.0343031562 0.3189095937 0.0980424375
0.0585313125 0.3244114687 0.0790998750
0.0972280312 0.3320813125 0.0657747812
0.1424054375 0.3412024062 0.0574992187
0.1852359687 0.3499828750 0.0520699688
0.2238963750 0.3570939687 0.0485204062
0.2581135937 0.3613434375 0.0458135938
0.2877827813 0.3613045000 0.0443854688
0.3138513438 0.3566184688 0.0441049688
0.3397211562 0.3494646563 0.0448136563
0.3680048750 0.3425946250 0.0458600938
0.3983895625 0.3365494063 0.0472599062
0.4302670625 0.3314207500 0.0489943438
0.4629147500 0.3273001563 0.0510090625
0.4953751250 0.3239497500 0.0532110312
0.5273454062 0.3212998125 0.0554016563
0.5582602813 0.3191960312 0.0573728437
0.5877823438 0.3173910000 0.0593513438
0.6154140313 0.3159072813 0.0613810937
0.6410724688 0.3146145312 0.0630897500
0.6649216250 0.3135206250 0.0649566562
0.6875599063 0.3125397812 0.0666128125
0.7098529688 0.3114984688 0.0683040313
0.7323162188 0.3104587812 0.0701332500
0.7552591250 0.3093983125 0.0721996250
0.7787150312 0.3083444375 0.0742351875
0.8023544688 0.3072240000 0.0761965313
0.0000000000 0.3328000000 0.1927070000
0.0000000000 0.3333430312 0.1892785938
0.0000000000 0.3311367500 0.1799052500
0.0007150312 0.3295016875 0.1697201875
0.0036472500 0.3314257500 0.1598430000
0.0147853750 0.3347939062 0.1371814375
0.0313461875 0.3391748750 0.1122680625
0.0538978437 0.3443074375 0.0913931562
0.0861465000 0.3511602500 0.0761370000
0.1304133125 0.3599550625 0.0661664375
0.1748737500 0.3691868125 0.0598905000
0.2159885313 0.3773851250 0.0555751250
0.2531932500 0.3835033750 0.0525012500
0.2861626875 0.3865410625 0.0502707187
0.3151534375 0.3856241875 0.0492773750
0.3413925000 0.3805932187 0.0489938125
0.3676830000 0.3735390000 0.0496570000
0.3959244687 0.3663207813 0.0509873437
0.4260891875 0.3597890000 0.0522949375
0.4573836875 0.3542847500 0.0542255625
0.4891903750 0.3497283750 0.0563393750
0.5205843437 0.3460530000 0.0584650625
0.5510765000 0.3431801250 0.0605274375
0.5802761563 0.3408400938 0.0625470938
0.6075702500 0.3388597500 0.0643737500
0.6328033438 0.3372810000 0.0660405938
0.6563441250 0.3359485000 0.0677767500
0.6786765000 0.3347245312 0.0693636563
0.7006217500 0.3336590000 0.0711882500
0.7226405000 0.3325774062 0.0729716563
0.7451570000 0.3315135000 0.0749755625
0.7679802187 0.3304302813 0.0769369062
0.7911030000 0.3292950000 0.0788580000
0.0000000000 0.3555348750 0.2026662500
0.0000000000 0.3557903125 0.1989496562
0.0000000000 0.3538923125 0.1905781563
0.0007150312 0.3519648438 0.1806444375
0.0036472500 0.3529043750 0.1714306250
0.0136273750 0.3559828437 0.1512568750
0.0290294688 0.3600042187 0.1268169062
0.0496135313 0.3647750937 0.1044295312
0.0774332812 0.3708955938 0.0872046875
0.1186285313 0.3791570312 0.0753925000
0.1638839375 0.3884718437 0.0677539062
0.2069297187 0.3973200312 0.0627055000
0.2467772500 0.4047190625 0.0593155937
0.2828533750 0.4098457187 0.0566535938
0.3149405938 0.4119157500 0.0551257188
0.3434809063 0.4101260625 0.0542048125
0.3698999687 0.4049374375 0.0542048125
0.3964466563 0.3978601875 0.0548439687
0.4243347812 0.3903606562 0.0560888750
0.4537250625 0.3834372500 0.0575596563
0.4841400625 0.3774449375 0.0597286875
0.5146573437 0.3726015000 0.0616874375
0.5446394062 0.3686554062 0.0636974063
0.5733637812 0.3655286875 0.0656191875
0.6003571250 0.3630616875 0.0672459375
0.6252980000 0.3610155938 0.0693794375
0.6486322813 0.3593885937 0.0709387187
0.6707220312 0.3579462500 0.0724715000
0.6924063437 0.3566575000 0.0744859062
0.7139955000 0.3554246562 0.0759605625
0.7359916562 0.3541871250 0.0779014375
0.7584428750 0.3530417188 0.0798037188
0.7811041250 0.3518986875 0.0816690625
0.0000000000 0.3784431875 0.2121136875
0.0000000000 0.3787117187 0.2084822188
0.0000000000 0.3769650625 0.2008353125
0.0007150312 0.3748255625 0.1913132500
0.0036472500 0.3749016250 0.1813023125
0.0125435000 0.3776155000 0.1642181875
0.0273538125 0.3813190000 0.1408570625
0.0463494687 0.3858445938 0.1179976875
0.0710636250 0.3913410625 0.0990013125
0.1076943125 0.3989341875 0.0853528125
0.1522188750 0.4079326250 0.0759964375
0.1972180937 0.4171301250 0.0701045000
0.2393369375 0.4253371875 0.0660543750
0.2779760937 0.4319925937 0.0630476563
0.3130943750 0.4362723125 0.0613390000
0.3444098437 0.4373824687 0.0597093750
0.3726633750 0.4350053750 0.0593668125
