bundles/resolve-cinematic-luts/Gamut/ETHER/ETHER/Ether 03.cube
TITLE "Generated by 3D LUT Creator Pro (c) Oleg Sharonov"
# INPUTGAMMA sRGB
# IMAGEPROFILE sRGB
# OUTPUTGAMMA sRGB
# 
LUT_3D_SIZE 5
0.0063090000 0.0189260000 0.0228690000
0.1799602500 0.0181370000 0.0009860000
0.4222950000 0.0000000000 0.0000000000
0.6289552500 0.0000000000 0.0000000000
0.7790770000 0.0000000000 0.0000000000
0.0000000000 0.1865750000 0.0503480000
0.1757765000 0.2031125000 0.0345000000
0.4647130000 0.1801440000 0.0153772500
0.6685880000 0.1636265000 0.0007890000
0.8173137500 0.1848200000 0.0035487500
0.0000000000 0.4403315000 0.0619230000
0.1507845000 0.4799227500 0.0575745000
0.4771985000 0.4806450000 0.0536405000
0.7009342500 0.4537907500 0.0437905000
0.8407415000 0.4745830000 0.0618940000
0.0838635000 0.7553540000 0.1618627500
0.2826840000 0.7715942500 0.1534912500
0.5588272500 0.7598892500 0.1331085000
0.7548070000 0.7394655000 0.1277525000
0.8790452500 0.7543730000 0.1694975000
0.3995720000 0.9999460000 0.4511390000
0.5733890000 0.9995032500 0.4157342500
0.7292175000 0.9870095000 0.3853065000
0.8390065000 0.9796020000 0.3760060000
0.9155240000 0.9807040000 0.3746410000
0.0000000000 0.0352887500 0.1463277500
0.2006927500 0.0120260000 0.1519475000
0.4684115000 0.0000000000 0.0769737500
0.6608467500 0.0000000000 0.0236572500
0.8036220000 0.0096597500 0.0155745000
0.0000000000 0.1924832500 0.2198390000
0.1622908844 0.2167661312 0.2142353719
0.4822383906 0.1933929000 0.1520698969
0.6885224094 0.1904063031 0.1135359781
0.8320025000 0.2182095000 0.1043805000
0.0000000000 0.4654550000 0.2672630000
0.1112473844 0.4964755375 0.2538148125
0.4656199531 0.5115321375 0.2145966500
0.7077011313 0.4921511000 0.1921688969
0.8473117500 0.5066625000 0.1847837500
0.0404622500 0.7617250000 0.3573455000
0.2288299344 0.7839804688 0.3465110000
0.5311185906 0.7811102656 0.3095150812
0.7549635688 0.7641894875 0.2937781531
0.8796972500 0.7683320000 0.3085225000
0.3898110000 0.9999460000 0.5715412500
0.5649580000 0.9993355000 0.5373030000
0.7222242500 0.9853287500 0.5008882500
0.8366420000 0.9771575000 0.4814665000
0.9146332500 0.9772342500 0.4754907500
0.0000000000 0.0542925000 0.3133810000
0.1164842500 0.0364715000 0.3598035000
0.4793145000 0.0000000000 0.2776595000
0.6924767500 0.0000000000 0.1881102500
0.8258420000 0.0110400000 0.1612200000
0.0000000000 0.2040592500 0.3879462500
0.0876690563 0.2216916375 0.3794190125
0.4623741563 0.1869880563 0.3953747313
0.7196432187 0.1824152937 0.3068456250
0.8519952500 0.2354745000 0.2764962500
0.0000000000 0.4665920000 0.4620745000
0.0911403938 0.5022236750 0.4621800437
0.4299654531 0.5413354844 0.4434311250
0.7187884125 0.5193609688 0.3891606500
0.8580340000 0.5447625000 0.3592740000
0.0161657500 0.7688845000 0.5482675000
0.1670130375 0.7924819250 0.5435689656
0.4741033906 0.7979065031 0.5105139969
0.7462706594 0.7874101500 0.4759311500
0.8798240000 0.7912905000 0.4660600000
0.3734105000 0.9998120000 0.6704810000
0.5488240000 0.9995032500 0.6438187500
0.7098445000 0.9855070000 0.6130390000
0.8308767500 0.9758080000 0.5878955000
0.9134850000 0.9743030000 0.5763300000
0.0000000000 0.0723622500 0.4934027500
0.0311487500 0.0630892500 0.5200535000
0.3812545000 0.0116317500 0.5298625000
0.6930317500 0.0000000000 0.4363892500
0.8421907500 0.0015770000 0.3811125000
0.0000000000 0.2149877500 0.5231937500
0.0204412719 0.2254416625 0.5266728375
0.3080675719 0.2187726344 0.5643501719
0.7121287125 0.1748970219 0.5223262375
0.8717912500 0.2221995000 0.4762205000
0.0000000000 0.4735460000 0.5827597500
0.0601649250 0.5058929719 0.5803630531
0.3104018813 0.5448876375 0.5808620219
0.7067789531 0.5247811187 0.5833239594
0.8758160000 0.5396767500 0.5317697500
0.0130117500 0.7714765000 0.6539355000
0.1443082375 0.7958276969 0.6564589719
0.3696157562 0.8133663562 0.6490261719
0.7137736281 0.8061403406 0.6205044156
0.8880050000 0.8078585000 0.6021610000
0.2694420000 0.9997050000 0.7411535000
0.4507572500 0.9999460000 0.7244647500
0.6606715000 0.9913782500 0.6971782500
0.8193365000 0.9791952500 0.6745362500
0.9146257500 0.9787055000 0.6588752500
0.0000000000 0.1499370000 0.6325340000
0.0000000000 0.1515250000 0.6409390000
0.1149135000 0.1549070000 0.6556365000
0.5400220000 0.1031880000 0.6532272500
0.8518960000 0.1007000000 0.6196120000
0.0000000000 0.3092125000 0.6368515000
0.0005917500 0.3292215000 0.6414550000
0.1173000000 0.3493040000 0.6548307500
0.4925210000 0.3281150000 0.6688987500
0.8664952500 0.3101652500 0.6544805000
0.0000000000 0.5422320000 0.6705975000
0.0303602500 0.5712520000 0.6717065000
0.1600215000 0.5985555000 0.6775075000
0.4856770000 0.5965960000 0.6807072500
0.8756325000 0.5748780000 0.6796060000
0.0104487500 0.7891675000 0.7418075000
0.1242752500 0.8118970000 0.7423145000
0.2669187500 0.8314172500 0.7397390000
0.5635680000 0.8259802500 0.7176947500
0.8884605000 0.8188430000 0.7208690000
0.1609580000 1.0000000000 0.8193850000
0.2933555000 1.0000000000 0.8130807500
0.4570500000 1.0000000000 0.7968730000
0.6930612500 0.9920360000 0.7656532500
0.9021260000 0.9988990000 0.7521510000
