bundles/resolve-cinematic-luts/Gamut/ETHER/ETHER/Ether 05.cube
TITLE "Generated by 3D LUT Creator Pro (c) Oleg Sharonov"
# INPUTGAMMA sRGB
# IMAGEPROFILE sRGB
# OUTPUTGAMMA sRGB
# 
LUT_3D_SIZE 33
0.0110400000 0.0315430000 0.0482940000
0.0265162812 0.0299906250 0.0482940000
0.0508706250 0.0284382500 0.0455523125
0.0685698125 0.0283150313 0.0419000937
0.0869603750 0.0282903750 0.0395275000
0.1079335625 0.0277232812 0.0373094063
0.1325266875 0.0276000000 0.0356337500
0.1596723750 0.0261955937 0.0325043750
0.1901792500 0.0246430000 0.0295712500
0.2224528750 0.0217355312 0.0264665313
0.2557486250 0.0186298125 0.0228193750
0.2903494688 0.0155250937 0.0181619688
0.3256120000 0.0111382500 0.0142928750
0.3599544688 0.0072697812 0.0096351875
0.3934790625 0.0034006875 0.0054213750
0.4227653438 0.0003698438 0.0015282188
0.4492740000 0.0000000000 0.0000000000
0.4746871563 0.0000000000 0.0000000000
0.4990344375 0.0000000000 0.0000000000
0.5219600937 0.0000000000 0.0000000000
0.5432431250 0.0000000000 0.0000000000
0.5632153438 0.0000000000 0.0000000000
0.5828488125 0.0000000000 0.0000000000
0.6014951875 0.0000000000 0.0000000000
0.6191202500 0.0000000000 0.0000000000
0.6355897500 0.0000000000 0.0000000000
0.6512678125 0.0000000000 0.0000000000
0.6660591563 0.0000000000 0.0000000000
0.6800473750 0.0000000000 0.0000000000
0.6936249375 0.0000000000 0.0000000000
0.7065389375 0.0000000000 0.0000000000
0.7189283438 0.0000000000 0.0000000000
0.7312420000 0.0000000000 0.0000000000
0.0110400000 0.0486617187 0.0462032187
0.0265162812 0.0473161250 0.0448053125
0.0448887188 0.0466068438 0.0419217812
0.0652635312 0.0444941875 0.0403137500
0.0843619375 0.0444242188 0.0386646562
0.1050732500 0.0444488750 0.0372109063
0.1296431875 0.0444242187 0.0356337500
0.1570044688 0.0437141250 0.0340567500
0.1870998750 0.0423860000 0.0311238437
0.2195435000 0.0401155313 0.0280189063
0.2542426250 0.0372354688 0.0243470937
0.2893297812 0.0333417500 0.0204780313
0.3245450938 0.0297192500 0.0163380938
0.3592722812 0.0258501875 0.0119519062
0.3927783125 0.0224249375 0.0077623125
0.4227269062 0.0185558750 0.0038439375
0.4494870000 0.0162396250 0.0007638750
0.4751873125 0.0135535625 0.0000000000
0.4997503750 0.0112620000 0.0000000000
0.5232519688 0.0097337500 0.0000000000
0.5444987187 0.0085015000 0.0000000000
0.5650661875 0.0077135000 0.0000000000
0.5848867500 0.0069491563 0.0000000000
0.6036054687 0.0069491562 0.0000000000
0.6214209063 0.0071464062 0.0000000000
0.6384757187 0.0078858750 0.0000000000
0.6542830312 0.0086494375 0.0000000000
0.6693671562 0.0101771562 0.0000000000
0.6837116250 0.0118043125 0.0000000000
0.6974629687 0.0139969063 0.0007643438
0.7104420938 0.0162889687 0.0007643437
0.7231035625 0.0186302812 0.0007889687
0.7356371875 0.0208976875 0.0015523750
0.0148351250 0.0661736875 0.0433561250
0.0318390937 0.0650748750 0.0432871563
0.0482891875 0.0634681875 0.0439586875
0.0631865312 0.0639394375 0.0395996250
0.0846775000 0.0628852500 0.0386400000
0.1060701563 0.0627738125 0.0379258750
0.1305030625 0.0627018125 0.0370630000
0.1577730000 0.0617814687 0.0356091250
0.1884431875 0.0606217500 0.0326769375
0.2209830000 0.0585365625 0.0295712813
0.2558980000 0.0561227500 0.0264665625
0.2907573125 0.0530288750 0.0225728438
0.3261614375 0.0495490000 0.0186791250
0.3612460000 0.0460975313 0.0147360937
0.3946758750 0.0425364375 0.0108427500
0.4246984062 0.0394733438 0.0069496563
0.4518188125 0.0367675000 0.0038439375
0.4776849687 0.0344261562 0.0018975938
0.5027011875 0.0328245000 0.0007396875
0.5261370625 0.0308530000 0.0007396875
0.5477613750 0.0297192500 0.0000000000
0.5684963437 0.0289062188 0.0000000000
0.5884528750 0.0284377500 0.0000000000
0.6076193125 0.0286596563 0.0000000000
0.6256625000 0.0293744375 0.0001972500
0.6427348438 0.0301380313 0.0007396875
0.6587573125 0.0318390625 0.0007396875
0.6739954375 0.0339824687 0.0009121250
0.6885046875 0.0363237500 0.0015277500
0.7022115625 0.0387378438 0.0022674375
0.7154708750 0.0417261250 0.0030554375
0.7284055000 0.0446596562 0.0038937188
0.7409415000 0.0480920000 0.0061118125
0.0217103437 0.0851898125 0.0431938750
0.0380485937 0.0838059375 0.0439355312
0.0541494375 0.0828987812 0.0460683750
0.0674816250 0.0832661250 0.0459770000
0.0835390312 0.0845664063 0.0403122188
0.1073513438 0.0829081875 0.0379012500
0.1333061562 0.0828030625 0.0378520000
0.1610456875 0.0819769688 0.0364465937
0.1919232188 0.0806992500 0.0342292813
0.2249814687 0.0792952813 0.0316909375
0.2599505937 0.0773818125 0.0281915312
0.2949444688 0.0745962187 0.0249141250
0.3305279062 0.0716125625 0.0212424062
0.3655757188 0.0684706875 0.0178418125
0.3990582812 0.0657722500 0.0146622188
0.4286123437 0.0633508437 0.0115574062
0.4558978125 0.0610565625 0.0084526875
0.4822836250 0.0592372500 0.0060620938
0.5074039375 0.0577755000 0.0041645312
0.5311463437 0.0565552812 0.0026860313
0.5530757187 0.0558779687 0.0019222812
0.5738261875 0.0554790000 0.0015031250
0.5939814688 0.0556724375 0.0015031250
0.6130483125 0.0562126562 0.0015031250
0.6312412188 0.0573696875 0.0017003750
0.6483410938 0.0587094375 0.0022181563
0.6643667187 0.0610059062 0.0030061563
0.6795749375 0.0632402812 0.0039182813
0.6942237813 0.0660443437 0.0061117187
0.7081756563 0.0691579687 0.0076640938
0.7214650625 0.0726850313 0.0099307500
0.7344030625 0.0761661250 0.0122227500
0.7472124688 0.0803689062 0.0145393750
0.0294731250 0.1061736250 0.0439123750
0.0440956563 0.1050632812 0.0460456875
0.0590787500 0.1046478750 0.0481183125
0.0745124688 0.1049476250 0.0500912500
0.0874046250 0.1063428750 0.0480298750
0.1061210312 0.1077600313 0.0410880937
0.1351473125 0.1064396875 0.0379505625
0.1646775000 0.1053069375 0.0371369687
0.1962991250 0.1039052500 0.0355845000
0.2303476250 0.1028345000 0.0332432812
0.2655312500 0.1013125000 0.0303601875
0.3012615625 0.0994589063 0.0272554688
0.3370758750 0.0970957500 0.0240512500
0.3721339687 0.0946799375 0.0214150000
0.4052901250 0.0926296250 0.0185313125
0.4344643750 0.0907641563 0.0158450937
0.4617756250 0.0890588750 0.0135043750
0.4883167812 0.0879715000 0.0111634063
0.5136090625 0.0870347500 0.0096106250
0.5374268125 0.0863323750 0.0083783750
0.5592655000 0.0860476250 0.0074916250
0.5801547188 0.0862676250 0.0067027500
0.6003781250 0.0868518750 0.0067027500
0.6194188437 0.0877848437 0.0069246563
0.6374868750 0.0893861250 0.0076886250
0.6545331562 0.0915440313 0.0084523437
0.6706863750 0.0939752500 0.0099061875
0.6858972500 0.0967610000 0.0115825312
0.7003050000 0.0999058750 0.0138982500
0.7142066250 0.1036156563 0.0161164687
0.7275635000 0.1075470625 0.0184330625
0.7405149687 0.1117357500 0.0215379063
0.7533587500 0.1157611250 0.0246426250
0.0365701875 0.1301753125 0.0453497188
0.0503416562 0.1292726875 0.0480527187
0.0652730000 0.1289105000 0.0507229687
0.0807510625 0.1289105000 0.0527339375
0.0958994375 0.1303048750 0.0539699688
0.1096933750 0.1329031562 0.0488770313
0.1336261563 0.1345852500 0.0418747500
0.1667293750 0.1329584062 0.0379505625
0.2002595937 0.1315271875 0.0363479688
0.2355708750 0.1302964688 0.0347956250
0.2719661875 0.1288258438 0.0324551250
0.3084967813 0.1275987813 0.0301137500
0.3443675312 0.1257935313 0.0271569687
0.3794321250 0.1240910313 0.0248402500
0.4119356250 0.1224920000 0.0224004062
0.4408542813 0.1212018750 0.0205031563
0.4683159687 0.1201724375 0.0181618125
0.4948852187 0.1193464687 0.0166094687
0.5201364063 0.1191066562 0.0154014687
0.5441351250 0.1190477500 0.0141696562
0.5659643437 0.1191703750 0.0137011875
0.5868930000 0.1198807188 0.0129130312
0.6068498125 0.1207973437 0.0131592812
0.6258309063 0.1224506563 0.0139230937
0.6436507188 0.1246495937 0.0146871875
0.6605702188 0.1270405313 0.0161165000
0.6765505938 0.1298630000 0.0176688437
0.6916056875 0.1332957500 0.0194677500
0.7060370938 0.1367300625 0.0216610313
0.7198773750 0.1408421250 0.0239777500
0.7330613750 0.1449187812 0.0270824687
0.7459681563 0.1493770000 0.0294238438
0.7587425000 0.1539019375 0.0325039062
0.0419371875 0.1559538750 0.0467586875
0.0549526875 0.1552018125 0.0494973437
0.0701015000 0.1551326250 0.0521394375
0.0865506875 0.1553380938 0.0552080938
0.1032677500 0.1563272500 0.0571274375
0.1192517500 0.1591383438 0.0565050625
0.1365663750 0.1630908750 0.0489850000
0.1650464688 0.1640569375 0.0418747500
0.2024995000 0.1620753750 0.0379505625
0.2397024688 0.1608267812 0.0355598750
0.2770374375 0.1595976875 0.0340075000
0.3145788125 0.1583594688 0.0316662813
0.3511631250 0.1569551250 0.0294726875
0.3861123438 0.1557025000 0.0277725937
0.4179908125 0.1546450000 0.0254312500
0.4471234687 0.1539026250 0.0237311562
0.4748936250 0.1534643125 0.0221788125
0.5013562500 0.1532043125 0.0209961250
0.5264801875 0.1532614375 0.0200593750
0.5503070000 0.1536662500 0.0192705625
0.5720989375 0.1544767500 0.0192705625
0.5928915938 0.1555242187 0.0187532500
0.6126968750 0.1571820625 0.0191226250
0.6314278125 0.1591414063 0.0199116250
0.6489690000 0.1616153750 0.0208974375
0.6656776875 0.1644543750 0.0224498125
0.6814583750 0.1677033125 0.0240023750
0.6964696563 0.1713384375 0.0263435625
0.7106838125 0.1752856875 0.0286842500
0.7243655937 0.1795488437 0.0310994688
0.7374835000 0.1839790625 0.0334160000
0.7503915625 0.1886292187 0.0365209062
0.7630261250 0.1933666250 0.0396256250
0.0469708125 0.1837430938 0.0475960000
0.0598310000 0.1831045938 0.0501565000
0.0747269375 0.1832477500 0.0533851563
0.0912826563 0.1838647187 0.0565052813
0.1097019375 0.1851981562 0.0600504062
0.1282347813 0.1877578125 0.0618040937
0.1459486563 0.1918881250 0.0578003125
0.1672507813 0.1957443437 0.0489850000
0.2007282500 0.1960516875 0.0418747500
0.2416202812 0.1942400937 0.0373834687
0.2807021875 0.1929727500 0.0350174375
0.3190736875 0.1917695000 0.0327015000
0.3564191562 0.1907339063 0.0310498750
0.3916475625 0.1898369062 0.0293249375
0.4232876250 0.1891319687 0.0277725938
0.4527683437 0.1888304375 0.0266394063
0.4806066875 0.1887297813 0.0252835312
0.5071227188 0.1889847813 0.0245196563
0.5322450313 0.1895041875 0.0237558437
0.5558046875 0.1903612188 0.0233120313
0.5773849375 0.1914822188 0.0231396563
0.5980017187 0.1930670000 0.0231396562
0.6175722812 0.1950295938 0.0235585938
0.6360720313 0.1973575312 0.0247166562
0.6533472812 0.2001853750 0.0257026875
0.6698936562 0.2034364375 0.0272550312
0.6853825313 0.2069421875 0.0289553438
0.7002318750 0.2108890625 0.0312718438
0.7143078125 0.2151072187 0.0335885625
0.7279044688 0.2195779375 0.0359045937
0.7410739375 0.2242330312 0.0389606875
0.7538252813 0.2290063125 0.0412963437
0.7664681563 0.2338041563 0.0442519375
0.0511817500 0.2138535000 0.0481195000
0.0642890625 0.2136715000 0.0508094063
0.0794273125 0.2141447500 0.0546525000
0.0964162500 0.2148585625 0.0583356562
0.1155016250 0.2164588750 0.0622933750
0.1360595000 0.2186383125 0.0651335313
0.1560920000 0.2223230000 0.0636648750
0.1764635000 0.2272372813 0.0573003437
0.2026720000 0.2306685000 0.0489850000
0.2402300625 0.2306787188 0.0420640000
0.2821720625 0.2291298750 0.0372108750
0.3220987813 0.2280205000 0.0340568438
0.3600258750 0.2268912500 0.0319373750
0.3956338125 0.2261977813 0.0307540000
0.4274624375 0.2258367500 0.0293249375
0.4570420312 0.2257905000 0.0281917500
0.4852050000 0.2261285000 0.0274030000
0.5117705313 0.2266629063 0.0266147500
0.5368431875 0.2274533750 0.0260723125
0.5603195938 0.2286675938 0.0258257500
0.5818801250 0.2302348750 0.0261216250
0.6023199062 0.2320679688 0.0264175000
0.6215542500 0.2343080625 0.0272057500
0.6397902500 0.2370465937 0.0282163750
0.6569025000 0.2402060000 0.0295715000
0.6731425000 0.2436279063 0.0313213438
0.6885227500 0.2475538750 0.0330214375
0.7032602812 0.2516721563 0.0352148750
0.7172275000 0.2559618750 0.0376546250
0.7306499688 0.2606386250 0.0399673125
0.7437861250 0.2653540000 0.0427886250
0.7566800000 0.2702154063 0.0456812188
0.7693037500 0.2751255000 0.0484617500
0.0561098438 0.2468675938 0.0487906562
0.0686286875 0.2468675938 0.0516229688
0.0835853437 0.2474195937 0.0552689375
0.1010994063 0.2485198750 0.0599559687
0.1210064375 0.2501430937 0.0640725000
0.1431447813 0.2525057813 0.0673703125
0.1659546875 0.2559106875 0.0680362500
0.1880221875 0.2606555000 0.0643044375
0.2112725313 0.2656120938 0.0567006875
0.2416637188 0.2685827500 0.0484883438
0.2813035312 0.2683936875 0.0418520937
0.3233043438 0.2670604688 0.0366437813
0.3624464687 0.2660210937 0.0334897500
0.3984062500 0.2653877500 0.0316416250
0.4305508125 0.2651422187 0.0305323750
0.4606011875 0.2652160625 0.0293249375
0.4888675000 0.2656355313 0.0289553750
0.5154633125 0.2663552812 0.0281670938
0.5405765938 0.2674456562 0.0281670938
0.5638950312 0.2688461563 0.0281670938
0.5853895625 0.2705079687 0.0284625938
0.6056103438 0.2726155312 0.0287334688
0.6247052500 0.2750608750 0.0297687187
0.6427135938 0.2780006875 0.0307542813
0.6597457812 0.2812487812 0.0320851875
0.6757537500 0.2848705938 0.0340320625
0.6910842500 0.2888781875 0.0359784062
0.7056623438 0.2931562188 0.0383197500
0.7195705313 0.2975312187 0.0407440938
0.7330556250 0.3022479687 0.0429789062
0.7461892500 0.3070421562 0.0458635938
0.7591971562 0.3119499375 0.0486369375
0.7718814687 0.3168961250 0.0513096875
0.0603078750 0.2823070625 0.0494552500
0.0731329063 0.2825288750 0.0527348437
0.0883961250 0.2833391875 0.0565061875
0.1062004062 0.2847925313 0.0612351250
0.1270213750 0.2864811875 0.0656400625
0.1505164063 0.2887650625 0.0694144063
0.1753403125 0.2919561875 0.0715136875
0.1998361250 0.2963710000 0.0696334687
0.2234545625 0.3013892500 0.0638769375
0.2503050625 0.3057525000 0.0560757188
0.2836800625 0.3082229375 0.0482940000
0.3232894063 0.3080336250 0.0418520937
0.3635656250 0.3068609375 0.0372108750
0.4002626250 0.3062458437 0.0338102812
0.4327233750 0.3060240000 0.0321839375
0.4631525000 0.3062062812 0.0312964375
0.4915460000 0.3066225000 0.0305077500
0.5183913750 0.3074998438 0.0302611875
0.5433533750 0.3086204375 0.0302611875
0.5666615937 0.3101025937 0.0302611875
0.5880641875 0.3119388125 0.0305077500
0.6082535000 0.3141363750 0.0310501875
0.6272532500 0.3166887500 0.0320851250
0.6451650625 0.3197369688 0.0336378125
0.6620514375 0.3230765000 0.0351901875
0.6780985000 0.3267708750 0.0367427812
0.6933131250 0.3307661250 0.0390839375
0.7079540313 0.3350245625 0.0413954063
0.7219290625 0.3395490625 0.0437219375
0.7353792813 0.3441448437 0.0463503125
0.7486121875 0.3489573750 0.0486781250
0.7616116562 0.3538575625 0.0517630625
0.7744903125 0.3586970000 0.0545330625
0.0657924687 0.3199434688 0.0512260625
0.0788212500 0.3202785938 0.0544315625
0.0940069688 0.3212404688 0.0581246563
0.1123211875 0.3229249687 0.0632832813
0.1338250937 0.3248160312 0.0677421562
0.1585132500 0.3270536562 0.0714966875
0.1851879375 0.3299874375 0.0744532813
0.2117741875 0.3340076250 0.0741867187
0.2371630312 0.3388298750 0.0706275000
0.2630551562 0.3437591563 0.0636976875
0.2923733750 0.3475526562 0.0560757188
0.3266509687 0.3493065625 0.0489850000
0.3646049688 0.3492094375 0.0430980313
0.4017416562 0.3484861875 0.0385162500
0.4347836250 0.3482300000 0.0358058750
0.4653889063 0.3483211250 0.0342535312
0.4939934687 0.3487278750 0.0333669062
0.5206726250 0.3495323125 0.0325779062
0.5455667187 0.3505933438 0.0325779062
0.5688171250 0.3521722500 0.0325779062
0.5903153125 0.3540212812 0.0333669063
0.6104244063 0.3562335937 0.0339086563
0.6294130000 0.3588468438 0.0351901563
0.6473614062 0.3618577188 0.0359538125
0.6642950625 0.3651782188 0.0377038125
0.6803310313 0.3688774375 0.0398448750
0.6955900625 0.3727934375 0.0421330625
0.7102417500 0.3770414375 0.0443445937
0.7242976875 0.3814557813 0.0465760313
0.7379134375 0.3860534063 0.0493230000
0.7511876875 0.3907759688 0.0519723438
0.7643015000 0.3955997500 0.0549481562
0.7771701875 0.4004193437 0.0576291563
0.0722817500 0.3599138750 0.0535645000
0.0853669375 0.3601056563 0.0566774688
0.1010457500 0.3612219375 0.0604586875
0.1195185000 0.3629676250 0.0658614375
0.1417372500 0.3648832500 0.0706538750
0.1675236250 0.3671504688 0.0746700937
0.1955933750 0.3698546875 0.0776989375
0.2239751875 0.3734734687 0.0787792812
0.2509617500 0.3778298750 0.0765333750
0.2771791563 0.3826545312 0.0715591250
0.3046886250 0.3870236875 0.0646199375
0.3352905938 0.3899938750 0.0570875625
0.3689485000 0.3913105000 0.0505133750
0.4039508750 0.3912420625 0.0457059062
0.4370996250 0.3908733750 0.0413211250
0.4677349687 0.3908738438 0.0389843437
0.4963451250 0.3912626250 0.0377527500
0.5228914375 0.3919757188 0.0369647500
0.5477492500 0.3930439375 0.0361757500
0.5708465312 0.3945150938 0.0361757500
0.5923996250 0.3963397500 0.0369647500
0.6126018438 0.3985285625 0.0375311250
0.6316498750 0.4010660625 0.0382951875
0.6496222188 0.4039708125 0.0398441562
0.6666225000 0.4072297500 0.0413700000
0.6827865312 0.4108045313 0.0430220625
0.6981051250 0.4146351250 0.0451841875
0.7128087500 0.4187437188 0.0472824062
0.7270081250 0.4231415000 0.0500041250
0.7406302812 0.4275905313 0.0523799687
0.7539360625 0.4322023750 0.0551688750
0.7670568125 0.4369709688 0.0580275625
0.7799943750 0.4416558750 0.0609773750
0.0802015000 0.4016798750 0.0570434688
0.0933915000 0.4021185312 0.0602720937
0.1094217188 0.4030885312 0.0642477812
0.1285358125 0.4050157187 0.0694064062
0.1515144062 0.4067445312 0.0743807500
0.1781384062 0.4087187500 0.0784865937
0.2070490937 0.4111027812 0.0816594687
0.2367080625 0.4142536562 0.0832195625
0.2648908437 0.4181163437 0.0824389062
0.2917767187 0.4223724062 0.0786856250
0.3187029688 0.4266357500 0.0729362813
0.3470895000 0.4300000625 0.0660913750
0.3774975312 0.4322385313 0.0596352500
0.4092015313 0.4330901250 0.0541491250
0.4407237500 0.4331691563 0.0495760312
0.4709817500 0.4331310312 0.0461477500
0.4991744687 0.4333833125 0.0439705937
0.5255740000 0.4340720313 0.0427817812
0.5501368125 0.4350710313 0.0416989063
0.5731469375 0.4364922813 0.0412619062
0.5947234688 0.4382381875 0.0415820312
0.6150002187 0.4403218750 0.0418391562
0.6341412500 0.4427812187 0.0425733750
0.6522122500 0.4455924688 0.0432987187
0.6693103125 0.4487262813 0.0447491562
0.6855738437 0.4521774688 0.0466181563
0.7010211562 0.4558973750 0.0486762812
0.7157306250 0.4598791875 0.0509698750
0.7299100938 0.4641024375 0.0532816250
0.7436083438 0.4684882813 0.0561694062
0.7569354688 0.4730018437 0.0585991875
0.7700002188 0.4776236250 0.0615468750
0.7829608437 0.4822495625 0.0643931562
0.0894590625 0.4450295625 0.0621053750
0.1034520000 0.4453645000 0.0654575000
0.1198964375 0.4462544375 0.0692221875
0.1395185000 0.4478320312 0.0743171250
0.1632005625 0.4493030625 0.0790245000
0.1901725312 0.4508450938 0.0832111250
0.2196281250 0.4528491250 0.0864217500
0.2497056250 0.4552442812 0.0883498438
0.2786308750 0.4583273125 0.0883637500
0.3061891875 0.4618976563 0.0856439062
0.3329229375 0.4655686875 0.0809701250
0.3601647813 0.4688837188 0.0752206875
0.3883955000 0.4712786875 0.0690922500
0.4175396250 0.4727451563 0.0634436563
0.4467293750 0.4735458125 0.0588053125
0.4755583125 0.4738287812 0.0548566563
0.5030986250 0.4742872500 0.0522861250
0.5289569063 0.4750228750 0.0499517813
0.5532727500 0.4761523125 0.0485389375
0.5760266875 0.4775241563 0.0477582500
0.5975824375 0.4792621250 0.0470554375
0.6179109062 0.4812985312 0.0470554375
0.6370843750 0.4836431875 0.0472713750
0.6552681875 0.4863901250 0.0482616875
0.6724216875 0.4893603125 0.0493120000
0.6887749063 0.4927216562 0.0506489063
0.7041906875 0.4963247500 0.0523773125
0.7189625625 0.5001369063 0.0549249375
0.7330847500 0.5042035000 0.0567733125
0.7468497813 0.5085345000 0.0595197187
0.7601190625 0.5128798125 0.0621475625
0.7731880938 0.5173394375 0.0649571563
0.7860931875 0.5218872500 0.0676773750
0.1002577188 0.4873141563 0.0679381250
0.1147211562 0.4875116875 0.0710939375
0.1318570000 0.4880715937 0.0751205937
0.1520215625 0.4893511875 0.0801587187
0.1760722813 0.4904188437 0.0847391563
0.2033748125 0.4915875938 0.0887522188
0.2328766875 0.4930159063 0.0917953125
0.2629512187 0.4948829062 0.0939505625
0.2920164063 0.4972757187 0.0941354062
0.3198053438 0.5001521250 0.0925399688
0.3465896563 0.5031679062 0.0888691875
0.3731633125 0.5060876562 0.0839627187
0.4001167500 0.5085094062 0.0786961250
0.4274776563 0.5104136250 0.0735431250
0.4548781875 0.5116378437 0.0686689375
0.4819885938 0.5125860000 0.0646101250
0.5083170313 0.5134700938 0.0612006875
0.5334368125 0.5145075313 0.0585135000
0.5573085000 0.5158411875 0.0560799062
0.5798097813 0.5173326563 0.0547768125
0.6012098437 0.5190967813 0.0535105625
0.6214573125 0.5211834687 0.0527598438
0.6406175937 0.5234640000 0.0527598438
0.6587693125 0.5260954375 0.0532517500
0.6759826875 0.5289803750 0.0538798437
0.6922130313 0.5321560625 0.0551395312
0.7077042500 0.5356167500 0.0570023438
0.7224722813 0.5393516250 0.0589150312
0.7365915000 0.5432896563 0.0612655937
0.7502572812 0.5474124063 0.0635511562
0.7634899063 0.5516002812 0.0660750937
0.7765562187 0.5560036875 0.0687612500
0.7893508125 0.5603208750 0.0716427813
0.1116435000 0.5275080000 0.0743945000
0.1271776875 0.5275375313 0.0778117187
0.1449916875 0.5278651875 0.0818111250
0.1658147812 0.5286722500 0.0864723125
0.1901612500 0.5294348750 0.0908211250
0.2175159375 0.5302330625 0.0947453125
0.2466665625 0.5312474375 0.0980123125
0.2762157500 0.5326582500 0.0999232812
0.3051090000 0.5344990000 0.1004910000
0.3328699687 0.5368042187 0.0994466250
0.3596306875 0.5393841875 0.0968103750
0.3858658437 0.5419610625 0.0928812500
0.4120360000 0.5444141250 0.0884406250
0.4381505937 0.5464316563 0.0835721250
0.4641813125 0.5481881875 0.0789674375
0.4899021250 0.5496534063 0.0748345937
0.5150065000 0.5511185000 0.0710460000
0.5391525000 0.5525469062 0.0678856875
0.5623261875 0.5541038750 0.0648951250
0.5844756562 0.5557793438 0.0626106250
0.6055591250 0.5576636250 0.0608193750
0.6256500000 0.5597323125 0.0596462188
0.6446781250 0.5620120000 0.0589515000
0.6627290313 0.5645436875 0.0589515000
0.6798340000 0.5673607500 0.0595545000
0.6960766563 0.5703750625 0.0602802500
0.7115477500 0.5737098125 0.0618500625
0.7262345313 0.5772504063 0.0635497812
0.7403077500 0.5810023750 0.0657755000
0.7538959062 0.5849623750 0.0679452187
0.7671101875 0.5890236875 0.0703238750
0.7800679688 0.5931824688 0.0729182187
0.7928415000 0.5973620000 0.0756630000
0.1240850313 0.5654973125 0.0818145313
0.1407394063 0.5653298750 0.0851907500
0.1594421875 0.5654657500 0.0891018750
0.1807766875 0.5659363750 0.0936803750
0.2054005625 0.5663029375 0.0977463438
0.2324160625 0.5668143750 0.1014813125
0.2610663438 0.5675176875 0.1045694688
0.2899677187 0.5686228750 0.1067780000
0.3182885937 0.5701540312 0.1075641563
0.3457581250 0.5720978437 0.1069316250
0.3723311563 0.5743488438 0.1049402813
0.3982933125 0.5767646562 0.1019845625
0.4238216250 0.5791720625 0.0981153750
0.4491823125 0.5814313750 0.0938794375
0.4741175625 0.5835320937 0.0895023437
0.4986826250 0.5854648437 0.0851693750
0.5226236250 0.5873606250 0.0810679063
0.5458770000 0.5891245625 0.0772782188
0.5683505937 0.5909565000 0.0738215313
0.5899577500 0.5927816250 0.0710435000
0.6106513125 0.5947962813 0.0689166562
0.6303909375 0.5968586250 0.0669562187
0.6492068438 0.5990860937 0.0660824063
0.6670976250 0.6015997500 0.0655242500
0.6840743437 0.6042278750 0.0655242500
0.7002087188 0.6071875937 0.0662009687
0.7155515625 0.6103427500 0.0672877500
0.7301858750 0.6136775625 0.0687348437
0.7442404687 0.6172367500 0.0708338125
0.7577312187 0.6209830000 0.0728852500
0.7708797500 0.6248592500 0.0749217500
0.7837907812 0.6288115313 0.0773614063
0.7964865313 0.6327857188 0.0797397813
0.1376628125 0.6012887500 0.0899871875
0.1554563750 0.6010607188 0.0934992812
0.1751623750 0.6009829375 0.0973020625
0.1971880625 0.6012144062 0.1015502813
0.2217058125 0.6013269375 0.1056675625
0.2482834688 0.6016062500 0.1093386562
0.2761184375 0.6021645625 0.1122152500
0.3042161562 0.6030947187 0.1142316875
0.3318812500 0.6044031250 0.1153367500
0.3588833750 0.6061297812 0.1153258125
0.3851239375 0.6082055000 0.1139716250
0.4107578438 0.6105224062 0.1115395937
0.4358295625 0.6129879375 0.1083973750
0.4604725625 0.6153589063 0.1045824375
0.4845321250 0.6177035000 0.1004120625
0.5081209375 0.6199452812 0.0960790625
0.5311383125 0.6221446250 0.0918073125
