bundles/resolve-cinematic-luts/Gamut/ETHER/ETHER/Ether 01.cube
TITLE "Generated by 3D LUT Creator Pro (c) Oleg Sharonov"
# INPUTGAMMA sRGB
# IMAGEPROFILE sRGB
# OUTPUTGAMMA sRGB
# 
LUT_3D_SIZE 33
0.0000000000 0.0000000000 0.0000000000
0.0108182187 0.0000000000 0.0000000000
0.0356333125 0.0000000000 0.0015277500
0.0605840938 0.0000000000 0.0030801250
0.0842522500 0.0000000000 0.0046325000
0.1078084063 0.0000000000 0.0061857188
0.1320492500 0.0000000000 0.0070970000
0.1565579687 0.0000000000 0.0085016250
0.1847922500 0.0000000000 0.0100540000
0.2132213750 0.0000000000 0.0129624688
0.2414442500 0.0000000000 0.0152781875
0.2690882187 0.0000000000 0.0178661250
0.2960560000 0.0000000000 0.0202071250
0.3236227500 0.0000000000 0.0225484687
0.3513707500 0.0000000000 0.0253330625
0.3792719375 0.0000000000 0.0280191562
0.4079685000 0.0000000000 0.0307545000
0.4372160938 0.0000000000 0.0338592188
0.4660268125 0.0000000000 0.0361759375
0.4954579375 0.0000000000 0.0400647813
0.5251528750 0.0000000000 0.0438167500
0.5551850625 0.0000000000 0.0478465937
0.5852712500 0.0000000000 0.0531554375
0.6149296875 0.0000000000 0.0582897812
0.6445817500 0.0000000000 0.0642255000
0.6746293125 0.0000000000 0.0708005625
0.7045590000 0.0000000000 0.0779661250
0.7348752188 0.0000000000 0.0863784062
0.7650266250 0.0000000000 0.0961978750
0.7956476875 0.0000000000 0.1077947188
0.8280373125 0.0000000000 0.1215954375
0.8630555313 0.0000000000 0.1386193438
0.8988590000 0.0000000000 0.1566970000
0.0000000000 0.0162396562 0.0007643437
0.0154753125 0.0201087187 0.0000000000
0.0348206250 0.0209223437 0.0000000000
0.0604131250 0.0179152187 0.0007643125
0.0853796563 0.0148597813 0.0030061563
0.1110970938 0.0118043125 0.0046325000
0.1361483750 0.0101771562 0.0055446562
0.1620185937 0.0078858750 0.0069492500
0.1906139063 0.0063581563 0.0090933750
0.2185626562 0.0048296875 0.0121981250
0.2467295938 0.0033020000 0.0145148125
0.2736757500 0.0010105937 0.0176195625
0.3006516875 0.0007643437 0.0199362500
0.3280182812 0.0007643438 0.0225484687
0.3551730625 0.0007643438 0.0245687188
0.3829492500 0.0007643438 0.0276497812
0.4114187187 0.0000000000 0.0307545000
0.4402448750 0.0000000000 0.0330958438
0.4689889063 0.0000000000 0.0369643750
0.4982020000 0.0000000000 0.0403755625
0.5279796563 0.0000000000 0.0440886250
0.5572820625 0.0000000000 0.0485420000
0.5871430000 0.0000000000 0.0537834062
0.6163160313 0.0000000000 0.0587119063
0.6459455000 0.0000000000 0.0642255000
0.6756870000 0.0000000000 0.0708005625
0.7057212812 0.0000000000 0.0784530000
0.7358769687 0.0000000000 0.0867440312
0.7666465313 0.0000000000 0.0965429687
0.7978397187 0.0000000000 0.1078273437
0.8306747812 0.0000493125 0.1222386875
0.8655882500 0.0016016562 0.1388986563
0.9014056875 0.0046324375 0.1566970000
0.0000000000 0.0363730000 0.0023166875
0.0124938125 0.0424821562 0.0000246562
0.0363236875 0.0453646875 0.0000000000
0.0615316563 0.0459597813 0.0000000000
0.0858157500 0.0459326875 0.0000493125
0.1118346250 0.0418413750 0.0008875625
0.1388879375 0.0372604375 0.0031048125
0.1670556562 0.0333175313 0.0053967187
0.1961018125 0.0302613125 0.0077380625
0.2240889375 0.0272056563 0.0100786250
0.2510846250 0.0236078125 0.0124200000
0.2777738125 0.0203057813 0.0145394687
0.3045158750 0.0167572500 0.0163627500
0.3314101250 0.0142432812 0.0192212187
0.3588743750 0.0117301875 0.0227208750
0.3862755000 0.0090189687 0.0261216250
0.4145230000 0.0056183125 0.0296207500
0.4435272500 0.0018482813 0.0331204687
0.4722288125 0.0014784375 0.0362251875
0.5011514062 0.0007396875 0.0403755625
0.5306592500 0.0007396875 0.0440886250
0.5600072500 0.0004684687 0.0485420000
0.5893886875 0.0000000000 0.0538038750
0.6185923437 0.0000000000 0.0588975938
0.6482524375 0.0000000000 0.0647910000
0.6776401875 0.0000000000 0.0713259687
0.7072483750 0.0000000000 0.0784530000
0.7376998437 0.0000000000 0.0872418437
0.7687725000 0.0000000000 0.0969835625
0.8004720625 0.0000739688 0.1085038750
0.8337331875 0.0008382500 0.1228790625
0.8687288125 0.0032526250 0.1394550938
0.9042196875 0.0115825625 0.1566970000
0.0000000000 0.0593878437 0.0038690313
0.0108921562 0.0655461875 0.0007643125
0.0325532500 0.0693049688 0.0000000000
0.0615744063 0.0709005313 0.0000000000
0.0890822500 0.0708842813 0.0000000000
0.1117107500 0.0740932187 0.0000000000
0.1398025625 0.0719132812 0.0000739688
0.1696428750 0.0677061250 0.0015524688
0.1995103125 0.0624729062 0.0037704688
0.2280510313 0.0571880625 0.0068752812
0.2552050000 0.0512474063 0.0099060312
0.2821365937 0.0469049687 0.0124200000
0.3089597813 0.0420382500 0.0152535938
0.3360278750 0.0383406250 0.0175703125
0.3625825625 0.0344753125 0.0199609063
0.3900219062 0.0299660937 0.0226470000
0.4176694062 0.0245939062 0.0258508125
0.4466469375 0.0203057813 0.0297193125
0.4754630313 0.0162147187 0.0335145313
0.5047243750 0.0117055000 0.0381720313
0.5341662500 0.0072696250 0.0430172188
0.5636884375 0.0031052188 0.0479125937
0.5928307812 0.0021441875 0.0532168437
0.6219162500 0.0014291562 0.0588975937
0.6511882813 0.0012321562 0.0647910000
0.6804241250 0.0007150312 0.0717989687
0.7102264062 0.0007150312 0.0789368750
0.7405553750 0.0007150313 0.0876701562
0.7719561875 0.0007150312 0.0977769063
0.8041428125 0.0008628750 0.1092521563
0.8374063438 0.0023905937 0.1234965625
0.8722246563 0.0070723438 0.1397149688
0.9073556875 0.0200593750 0.1562119063
0.0000000000 0.0827413750 0.0054213750
0.0071955937 0.0876776875 0.0023166563
0.0264669375 0.0930260000 0.0007396875
0.0552365625 0.0958418125 0.0000000000
0.0867132500 0.0969775000 0.0000000000
0.1170496250 0.0974693750 0.0000000000
0.1411718125 0.1017823125 0.0000000000
0.1693245000 0.1022692812 0.0000000000
0.1987810000 0.0980127500 0.0000986250
0.2280099375 0.0917282500 0.0022180938
0.2569599375 0.0853765000 0.0053229375
0.2849725625 0.0790459063 0.0084276562
0.3123497500 0.0726796250 0.0115330000
0.3398731875 0.0669912813 0.0146379688
0.3669297500 0.0616352500 0.0176441875
0.3945891250 0.0564481250 0.0206509375
0.4224673750 0.0502217500 0.0237560000
0.4504578125 0.0440143438 0.0268608438
0.4793115625 0.0380437500 0.0300640625
0.5085088438 0.0322577187 0.0342783125
0.5376578750 0.0269101250 0.0393258750
0.5673836875 0.0218831875 0.0445415937
0.5965647500 0.0170037500 0.0506747500
0.6256017812 0.0126417187 0.0568422188
0.6548361250 0.0081815000 0.0637270000
0.6841064375 0.0046821562 0.0713918438
0.7137495625 0.0035487500 0.0789975000
0.7442325625 0.0034254688 0.0877779688
0.7756578750 0.0030555000 0.0982155000
0.8082527500 0.0037211250 0.1099320000
0.8417575625 0.0069491875 0.1238306875
0.8761272500 0.0161164375 0.1394479062
0.9108376250 0.0300640000 0.1554530000
0.0000000000 0.1063283125 0.0077627188
0.0026123438 0.1115759375 0.0053228750
0.0189013438 0.1166607500 0.0022181562
0.0461961875 0.1214995000 0.0000000000
0.0795630000 0.1242775000 0.0000000000
0.1132475000 0.1257431563 0.0000000000
0.1461597188 0.1256885625 0.0000000000
0.1718011875 0.1288540000 0.0000000000
0.1971198437 0.1309251875 0.0000000000
0.2263308750 0.1276431250 0.0000000000
0.2561076250 0.1218272188 0.0007888437
0.2857143438 0.1150344687 0.0037704375
0.3140819062 0.1075463437 0.0068753125
0.3425151875 0.1005340000 0.0099800313
0.3704063750 0.0932230000 0.0138737500
0.3986854687 0.0865060313 0.0173976250
0.4268480937 0.0790420313 0.0211435625
0.4556537813 0.0714708750 0.0246426250
0.4843763750 0.0644965937 0.0280930937
0.5132018125 0.0574834688 0.0318384688
0.5421955938 0.0511081250 0.0362005000
0.5712995625 0.0444694062 0.0407346875
0.6000539687 0.0385352500 0.0461858125
0.6291155000 0.0330955625 0.0530848437
0.6582771875 0.0276495000 0.0600720625
0.6874993750 0.0229916562 0.0680378125
0.7173115937 0.0187287188 0.0768137500
0.7479174375 0.0159935312 0.0862079688
0.7795727500 0.0146620938 0.0971839688
0.8124485625 0.0149333125 0.1093110000
0.8461237500 0.0195172500 0.1229625313
0.8805265625 0.0290788750 0.1383959375
0.9149074687 0.0415406875 0.1544724688
0.0000000000 0.1322870000 0.0099553125
0.0001232812 0.1372282813 0.0076395938
0.0098079375 0.1419422500 0.0045338750
0.0351152187 0.1468025313 0.0015031250
0.0702861250 0.1509060625 0.0000000000
0.1052121875 0.1532430625 0.0000000000
0.1403780000 0.1533222500 0.0000000000
0.1741103750 0.1527581562 0.0000000000
0.2011344375 0.1546787500 0.0000000000
0.2259334063 0.1576654063 0.0000000000
0.2541527500 0.1563625625 0.0000000000
0.2838708125 0.1512944375 0.0001479375
0.3136550000 0.1443422500 0.0015771875
0.3431866250 0.1367291250 0.0051503750
0.3723344375 0.1282460000 0.0084276875
0.4016405000 0.1196132500 0.0128883125
0.4307172500 0.1107826875 0.0166096250
0.4601081250 0.1019882187 0.0212666875
0.4892121875 0.0934715625 0.0249878125
0.5180760625 0.0852779375 0.0296454688
0.5472607500 0.0778756250 0.0341551875
0.5761256875 0.0703442813 0.0388127188
0.6045217500 0.0632444375 0.0440901250
0.6332691562 0.0565342500 0.0495058125
0.6619878750 0.0500870000 0.0562196250
0.6913132812 0.0448479375 0.0642174687
0.7211088750 0.0400275000 0.0733407500
0.7516902813 0.0356831875 0.0832194687
0.7835051875 0.0327749375 0.0945509375
0.8165108438 0.0329966562 0.1072655937
0.8505185625 0.0362740625 0.1214129375
0.8849564062 0.0440616563 0.1370183750
0.9193782500 0.0548439375 0.1534533125
0.0000000000 0.1585822188 0.0122720313
0.0000000000 0.1622406250 0.0093396875
0.0014049375 0.1661104688 0.0068505937
0.0235338125 0.1712837500 0.0038443750
0.0582655625 0.1759308125 0.0000986250
0.0953647187 0.1784429688 0.0000000000
0.1319973437 0.1798791563 0.0000000000
0.1678096875 0.1803044062 0.0000000000
0.2019905000 0.1794289688 0.0000000000
0.2301404062 0.1802994687 0.0000000000
0.2550991250 0.1835896250 0.0000000000
0.2822360625 0.1836193125 0.0000000000
0.3118029687 0.1792501875 0.0000000000
0.3422562812 0.1725692813 0.0008134375
0.3724427188 0.1642794687 0.0035980313
0.4030315000 0.1548438437 0.0074668750
0.4334353125 0.1448514063 0.0119515625
0.4637599375 0.1346820625 0.0166096250
0.4935978438 0.1246314063 0.0212666875
0.5230742812 0.1151105000 0.0259247500
0.5521091875 0.1062675313 0.0311982188
0.5809458750 0.0976165312 0.0366442812
0.6095372500 0.0896384375 0.0418707188
0.6381565312 0.0821015625 0.0474715313
0.6666417500 0.0749184062 0.0539424687
0.6956390938 0.0681918437 0.0610214687
0.7253134375 0.0620479375 0.0696352813
0.7558879688 0.0572037500 0.0798157812
0.7877554375 0.0541791562 0.0916182188
0.8209095937 0.0527630625 0.1044272500
0.8551092188 0.0548011875 0.1192187813
0.8897774375 0.0604925312 0.1352866875
0.9241853750 0.0693804375 0.1519599375
0.0000000000 0.1831580000 0.0139970000
0.0000000000 0.1862006250 0.0108920625
0.0007396875 0.1896085625 0.0085262500
0.0142680313 0.1945616875 0.0060624375
0.0472640000 0.1996170000 0.0022673750
0.0852116875 0.2033085625 0.0000000000
0.1231458750 0.2053709375 0.0000000000
0.1601010625 0.2064852188 0.0000000000
0.1961555000 0.2068507500 0.0000000000
0.2304828125 0.2056417187 0.0000000000
0.2594139375 0.2058125625 0.0000000000
0.2846511875 0.2087571563 0.0000000000
0.3112026250 0.2093855000 0.0000000000
0.3407777188 0.2057317812 0.0000000000
0.3715206250 0.1989323750 0.0006410625
0.4029516875 0.1899895625 0.0028090312
0.4345982500 0.1796902500 0.0061115000
0.4663098438 0.1687260625 0.0109416562
0.4970812500 0.1576210000 0.0158206250
0.5273170000 0.1468981875 0.0215872188
0.5566763750 0.1367195000 0.0270086250
0.5858093438 0.1271124375 0.0324300312
0.6144807500 0.1178983750 0.0386401250
0.6430342812 0.1092584688 0.0451814688
0.6715187500 0.1009535000 0.0515082500
0.7004360312 0.0934063438 0.0586643750
0.7301419375 0.0866028750 0.0672898125
0.7605070625 0.0803118438 0.0767517812
0.7923035000 0.0759707500 0.0882661250
0.8255138125 0.0739080000 0.1017968125
0.8598006875 0.0746467500 0.1169005000
0.8945630625 0.0787550938 0.1332324375
0.9292140000 0.0852115000 0.1502022500
0.0000000000 0.2073322813 0.0155493750
0.0000000000 0.2100400313 0.0124446562
0.0001725938 0.2131171875 0.0101279375
0.0065307188 0.2173709375 0.0070232187
0.0369050000 0.2226592813 0.0039182188
0.0758330313 0.2270862188 0.0002464062
0.1145923125 0.2298822813 0.0000000000
0.1521528750 0.2315599375 0.0000000000
0.1891088438 0.2323747812 0.0000000000
0.2251484375 0.2322522187 0.0000000000
0.2594645938 0.2310386563 0.0000000000
0.2888500000 0.2306543125 0.0000000000
0.3147051250 0.2332686562 0.0000000000
0.3413607500 0.2341858438 0.0000000000
0.3710407812 0.2305460313 0.0000000000
0.4026908437 0.2235122187 0.0006410625
0.4352887187 0.2140261875 0.0021934063
0.4678534063 0.2029462500 0.0057175000
0.4997145000 0.1914249062 0.0109416562
0.5306405000 0.1799863437 0.0163630625
0.5606676250 0.1687597188 0.0223511875
0.5900282187 0.1577538125 0.0285613437
0.6191655000 0.1475774375 0.0347710625
0.6476810938 0.1377602187 0.0417160625
0.6763025938 0.1284784375 0.0485126563
0.7054666250 0.1200560937 0.0564122813
0.7352147187 0.1122650937 0.0651040625
0.7657569375 0.1052253125 0.0747865000
0.7974983125 0.0999900937 0.0859233438
0.8306676250 0.0964486563 0.0993532812
0.8648975625 0.0960042812 0.1145385000
0.8997546562 0.0985615313 0.1311467188
0.9342612812 0.1026549062 0.1482896875
0.0000000000 0.2311195625 0.0165600000
0.0000000000 0.2338342500 0.0139970312
0.0000000000 0.2365561875 0.0111385625
0.0023165625 0.2402293125 0.0080338438
0.0295713125 0.2453462500 0.0054706875
0.0683820625 0.2505062813 0.0015771562
0.1071818750 0.2540093750 0.0000000000
0.1451484375 0.2559432500 0.0000000000
0.1826936875 0.2572839375 0.0000000000
0.2193158125 0.2575419063 0.0000000000
0.2548933125 0.2569045000 0.0000000000
0.2890778750 0.2552478750 0.0000000000
0.3189704375 0.2549614375 0.0000000000
0.3451645625 0.2569664063 0.0000000000
0.3727830625 0.2576929375 0.0000000000
0.4031643750 0.2539540312 0.0000000000
0.4357413750 0.2462853125 0.0007890000
0.4689633750 0.2364773125 0.0021934063
0.5014812500 0.2254586875 0.0062592500
0.5332024062 0.2137336562 0.0114836875
0.5639103750 0.2019048750 0.0171513750
0.5938449688 0.1902045625 0.0231152500
0.6233100000 0.1789639375 0.0303602500
0.6522526563 0.1680430312 0.0373343437
0.6811362500 0.1578220000 0.0450341875
0.7105870938 0.1483016562 0.0532866250
0.7405183125 0.1395665625 0.0625677500
0.7713299063 0.1319823438 0.0727788438
0.8032077500 0.1255233125 0.0840090000
0.8363650625 0.1210495313 0.0976356562
0.8703521250 0.1189866875 0.1123518750
0.9050145000 0.1197961250 0.1290186250
0.9393910625 0.1220733750 0.1461469375
0.0000000000 0.2549885000 0.0170777813
0.0000000000 0.2572283750 0.0147610625
0.0000000000 0.2600528750 0.0124446875
0.0021441875 0.2634360000 0.0093396250
0.0261707188 0.2682980000 0.0065061250
0.0632393125 0.2733620000 0.0031295313
0.1019854062 0.2772532187 0.0001479375
0.1398136875 0.2799874688 0.0000000000
0.1772266563 0.2813608125 0.0000000000
0.2139908125 0.2817979687 0.0000000000
0.2502348437 0.2817383125 0.0000000000
0.2857400937 0.2807337187 0.0000000000
0.3199590000 0.2790665937 0.0000000000
0.3499931250 0.2785909375 0.0004684687
0.3774243750 0.2804135625 0.0000000000
0.4058925000 0.2803852187 0.0000000000
0.4374456875 0.2762510312 0.0000000000
0.4702713750 0.2686392188 0.0007890000
0.5030676563 0.2587184375 0.0028090312
0.5351700625 0.2475638438 0.0070232813
0.5664848750 0.2357211250 0.0122474375
0.5969328750 0.2236177188 0.0184575000
0.6269199062 0.2116961875 0.0251853750
0.6563845625 0.2000628437 0.0326762813
0.6857794375 0.1888295313 0.0406051875
0.7155570313 0.1784210938 0.0493478750
0.7458743125 0.1688242500 0.0590736875
0.7770129687 0.1601218125 0.0699267813
0.8091885000 0.1529348438 0.0821882500
0.8423628125 0.1475712812 0.0960415938
0.8762640937 0.1444450625 0.1110545312
0.9105786250 0.1432501875 0.1273754062
0.9447096875 0.1436547812 0.1442489688
0.0000000000 0.2787481250 0.0178415000
0.0000000000 0.2809324687 0.0150322812
0.0000000000 0.2835356875 0.0132086875
0.0021441875 0.2868593750 0.0108920625
0.0242487500 0.2912153750 0.0077872500
0.0605937812 0.2960504063 0.0046819062
0.0980525000 0.3000481250 0.0009367500
0.1356230625 0.3030029687 0.0000000000
0.1727737500 0.3048363750 0.0000000000
0.2098551250 0.3057444687 0.0000000000
0.2463243750 0.3059153750 0.0000000000
0.2825224063 0.3055222187 0.0000000000
0.3183416250 0.3040541250 0.0000000000
0.3525877813 0.3021780938 0.0000000000
0.3829781875 0.3021368125 0.0004438125
0.4114943750 0.3036449375 0.0000000000
0.4411526250 0.3030977500 0.0000000000
0.4726615312 0.2985788437 0.0006657188
0.5048357500 0.2906507500 0.0014292500
0.5368909687 0.2807349063 0.0035980313
0.5685271250 0.2695737500 0.0077872500
0.5995646562 0.2576941875 0.0130114375
0.6299566250 0.2456144375 0.0200101875
0.6600842188 0.2335186875 0.0275260938
0.6899767500 0.2216726250 0.0359786250
0.7202343125 0.2104526563 0.0451889375
0.7510367500 0.1999325625 0.0554228750
0.7826690000 0.1905373750 0.0667270937
0.8151528750 0.1823328750 0.0798555000
0.8484418750 0.1760001250 0.0940449687
0.8822941250 0.1717204375 0.1095590625
0.9163004063 0.1692647500 0.1261359688
0.9501533750 0.1678791250 0.1428848750
0.0000000000 0.3027300000 0.0186054687
0.0000000000 0.3045385000 0.0162887812
0.0000000000 0.3071825000 0.0139724375
0.0026120625 0.3104956250 0.0119028750
0.0252835937 0.3145359688 0.0093395937
0.0602103437 0.3189593438 0.0055691563
0.0969522187 0.3231626250 0.0023411562
0.1333055312 0.3263628750 0.0001725938
0.1700928125 0.3283959375 0.0000000000
0.2068387187 0.3295259375 0.0000000000
0.2436908125 0.3300657813 0.0000000000
0.2805314063 0.3298592812 0.0000000000
0.3172285312 0.3290193437 0.0000000000
0.3533420938 0.3273565938 0.0000000000
0.3876529687 0.3256363438 0.0000000000
0.4183274062 0.3258874375 0.0007890000
0.4472812188 0.3269376562 0.0004684688
0.4768874062 0.3256346250 0.0003698438
0.5075970000 0.3206555313 0.0007890000
0.5390659062 0.3127573125 0.0018975313
0.5705321563 0.3029843125 0.0046819062
0.6017307812 0.2918581563 0.0093396250
0.6325756563 0.2800253750 0.0153524062
0.6632317813 0.2678796250 0.0225731562
0.6937651563 0.2558203125 0.0308530625
0.7247280938 0.2441142188 0.0406078125
0.7561038125 0.2329212188 0.0511977188
0.7881925938 0.2227034688 0.0634043125
0.8210500313 0.2138323438 0.0767390625
0.8544618438 0.2064632500 0.0917587500
0.8882088750 0.2010551875 0.1079889375
0.9220245000 0.1972288125 0.1248849688
0.9556433438 0.1944142187 0.1419563125
0.0000000000 0.3274127500 0.0181370000
0.0000000000 0.3291001250 0.0165846562
0.0007396875 0.3314278125 0.0147363750
0.0044604062 0.3344562812 0.0124200937
0.0298672500 0.3385052500 0.0101033750
0.0634910938 0.3428640312 0.0069986563
0.0983300000 0.3468885625 0.0031049375
0.1339119687 0.3501140000 0.0001725938
0.1696744375 0.3523308750 0.0000000000
0.2061108125 0.3536473438 0.0000000000
0.2428473750 0.3543484375 0.0000000000
0.2802337188 0.3544816875 0.0000000000
0.3178498125 0.3538412500 0.0000000000
0.3551986250 0.3524621562 0.0000000000
0.3914626250 0.3505506250 0.0000000000
0.4249461562 0.3491723750 0.0007890000
0.4548480000 0.3496550000 0.0007890000
0.4834005625 0.3499892500 0.0007890000
0.5124223750 0.3480007500 0.0007890000
0.5425116875 0.3427296563 0.0011091250
0.5732485000 0.3349335000 0.0026615000
0.6041538125 0.3251877500 0.0062346875
0.6352192500 0.3143246875 0.0111385625
0.6661928125 0.3026178125 0.0179150937
0.6973591875 0.2907120000 0.0258751250
0.7288401562 0.2788877500 0.0359785938
0.7608973125 0.2673853750 0.0468582500
0.7934605625 0.2566588438 0.0593453125
0.8266874375 0.2470538125 0.0737744375
0.8602842500 0.2389524688 0.0892193750
0.8939870000 0.2323889375 0.1059763750
0.9276647500 0.2273988125 0.1233078750
0.9609436875 0.2231416250 0.1410042500
0.0000000000 0.3530138750 0.0189260000
0.0000000000 0.3547020937 0.0165846562
0.0018975937 0.3569724375 0.0150322500
0.0118780000 0.3598372813 0.0131840000
0.0376848750 0.3635915625 0.0108674062
0.0695539375 0.3675826562 0.0077625625
0.1031092500 0.3713774063 0.0040167813
0.1373771875 0.3744159062 0.0009613750
0.1725920938 0.3766814688 0.0000000000
0.2085779063 0.3782082187 0.0000000000
0.2453008437 0.3789249062 0.0000000000
0.2828255938 0.3789839063 0.0000000000
0.3210123750 0.3784898125 0.0000000000
0.3592821875 0.3772945937 0.0000000000
0.3965115938 0.3754791250 0.0000000000
0.4316117500 0.3733886250 0.0004191562
0.4631714062 0.3725870000 0.0011830000
0.4918746250 0.3730037812 0.0012076250
0.5196005625 0.3727641875 0.0012076250
0.5480192500 0.3702636875 0.0012076250
0.5774669375 0.3649038438 0.0019961563
0.6076290937 0.3571476563 0.0044850938
0.6383537188 0.3476605625 0.0088218437
0.6695590938 0.3370440937 0.0144651875
0.7009673750 0.3256860312 0.0222279688
0.7328685313 0.3141097812 0.0317401250
0.7654742187 0.3026702187 0.0428133125
0.7984510313 0.2918322812 0.0559481250
0.8320041875 0.2818524375 0.0707111563
0.8657624688 0.2731416875 0.0868529375
0.8993383125 0.2656909688 0.1041308750
0.9328282500 0.2595132187 0.1220379375
0.9658268750 0.2540532500 0.1400091875
0.0003945000 0.3797120000 0.0181370000
0.0015528437 0.3814820000 0.0165846562
0.0061113750 0.3834240625 0.0154262500
0.0235588438 0.3863193125 0.0134798750
0.0501328750 0.3897442500 0.0116316250
0.0803849688 0.3932958438 0.0081324062
0.1119216250 0.3967069375 0.0047806250
0.1449688750 0.3994767500 0.0015279688
0.1794032500 0.4015692500 0.0001972500
0.2149924687 0.4029797500 0.0000000000
0.2516747500 0.4036158125 0.0000000000
0.2893845312 0.4036582500 0.0000000000
0.3276998750 0.4030185000 0.0000000000
0.3661504375 0.4018003125 0.0000000000
0.4037464375 0.3999728750 0.0000000000
0.4394594375 0.3977432813 0.0004191562
0.4722740000 0.3960140000 0.0011830000
0.5015779375 0.3956998125 0.0019468438
0.5290015625 0.3960120000 0.0019715000
0.5559992813 0.3952840625 0.0019715000
0.5838886250 0.3924862500 0.0027600000
0.6128390938 0.3871518125 0.0044850938
0.6427971875 0.3796181250 0.0075898125
0.6735701562 0.3703920625 0.0123215625
0.7049747500 0.3601737500 0.0195172500
0.7372021250 0.3493451875 0.0288080000
0.7698991250 0.3383721250 0.0399316250
0.8031843438 0.3276725313 0.0528775625
0.8368281250 0.3176918750 0.0678112500
0.8706071562 0.3086440937 0.0846293438
0.9041569375 0.3006530625 0.1020623750
0.9373566875 0.2936169062 0.1207551250
0.9701805000 0.2870190000 0.1393130000
0.0037951250 0.4076476250 0.0185068438
0.0091180000 0.4092722188 0.0173736250
0.0220803750 0.4112157500 0.0161901563
0.0420355937 0.4138712813 0.0146378125
0.0673507188 0.4167694375 0.0120261250
0.0954311875 0.4198275938 0.0092902500
0.1253107500 0.4226762500 0.0055444687
0.1570491875 0.4250586563 0.0022918125
0.1907268438 0.4269164063 0.0007890000
0.2259423750 0.4280125938 0.0000000000
0.2624353125 0.4284146250 0.0000000000
0.3000533125 0.4282191563 0.0000000000
0.3382627188 0.4274401250 0.0000000000
0.3764156875 0.4260401562 0.0000000000
0.4137854062 0.4240926562 0.0003698438
0.4495107187 0.4217691875 0.0007890000
0.4827579375 0.4197260000 0.0015528437
0.5126946563 0.4186768125 0.0027353750
0.5401433750 0.4187415625 0.0035238438
0.5663979375 0.4189995313 0.0038932187
0.5928304063 0.4179971250 0.0046082500
0.6202778438 0.4149360625 0.0053720625
0.6490279062 0.4096681875 0.0079596563
0.6789485937 0.4024147500 0.0120750000
0.7099074062 0.3937417813 0.0183347500
0.7418470937 0.3841200938 0.0270579062
0.7745021563 0.3740038438 0.0378635312
0.8077627188 0.3639062188 0.0511470625
0.8413526875 0.3541973438 0.0663895312
0.8749173438 0.3451579688 0.0830358750
0.9082141875 0.3368474062 0.1011044063
0.9411793750 0.3292600625 0.1197613125
0.9736712500 0.3221013125 0.1388820000
0.0205029375 0.4366821875 0.0192707500
0.0320110938 0.4380610312 0.0185068438
0.0478082500 0.4399573125 0.0169545000
0.0670013437 0.4420887187 0.0154016250
0.0897956875 0.4444645000 0.0127156250
0.1158944062 0.4470136875 0.0100541562
0.1442982500 0.4492623125 0.0066046875
0.1748015313 0.4511626875 0.0038441563
0.2074557500 0.4524686250 0.0013307500
0.2419211250 0.4531857812 0.0005670937
0.2779168750 0.4532818125 0.0003451875
0.3150469062 0.4527989688 0.0000000000
0.3526594375 0.4517503750 0.0003451875
0.3901312812 0.4502699375 0.0003451875
0.4268546875 0.4482317500 0.0007890000
0.4620814375 0.4458762188 0.0015528125
0.4951605625 0.4435503125 0.0026614375
