bundles/resolve-cinematic-luts/Gamut/ETHER/ETHER/Ether 01.cube
TITLE "Generated by 3D LUT Creator Pro (c) Oleg Sharonov"
# INPUTGAMMA sRGB
# IMAGEPROFILE sRGB
# OUTPUTGAMMA sRGB
# 
LUT_3D_SIZE 5
0.0000000000 0.0000000000 0.0000000000
0.1847922500 0.0000000000 0.0100540000
0.4079685000 0.0000000000 0.0307545000
0.6445817500 0.0000000000 0.0642255000
0.8988590000 0.0000000000 0.1566970000
0.0000000000 0.1831580000 0.0139970000
0.1961555000 0.2068507500 0.0000000000
0.4345982500 0.1796902500 0.0061115000
0.6715187500 0.1009535000 0.0515082500
0.9292140000 0.0852115000 0.1502022500
0.0003945000 0.3797120000 0.0181370000
0.1794032500 0.4015692500 0.0001972500
0.4722740000 0.3960140000 0.0011830000
0.7049747500 0.3601737500 0.0195172500
0.9701805000 0.2870190000 0.1393130000
0.2980040000 0.6231390000 0.0679242500
0.4227350000 0.6216362500 0.0634405000
0.6257237500 0.6089827500 0.0725152500
0.7896107500 0.6066497500 0.0899237500
0.9712620000 0.6070637500 0.1881275000
0.8456660000 0.9064480000 0.5089430000
0.8614742500 0.9066692500 0.5083460000
0.8929310000 0.9085530000 0.5076190000
0.9459775000 0.9101957500 0.4999605000
1.0000000000 0.9079740000 0.4802660000
0.0000000000 0.0084770000 0.1676025000
0.1564292500 0.0045340000 0.2035607500
0.3917700000 0.0000000000 0.2165060000
0.6423427500 0.0000000000 0.2172292500
0.9193505000 0.0536177500 0.2386900000
0.0000000000 0.1952697500 0.2086520000
0.1581845844 0.2352932625 0.2407646406
0.4361679781 0.1819254063 0.1971375437
0.6761866094 0.1471578594 0.1960013219
0.9376207500 0.1428007500 0.2320445000
0.0000000000 0.4155230000 0.2272035000
0.0449096031 0.4315559063 0.1954169875
0.4242921312 0.4511544250 0.1572816938
0.7037129313 0.4128463375 0.1610520625
0.9691955000 0.3366485000 0.2153155000
0.1047792500 0.6499052500 0.2071382500
0.2496332969 0.6605234000 0.2072042375
0.5419782875 0.6604688594 0.2014227438
0.7739056969 0.6459288469 0.2115203844
0.9655297500 0.6395820000 0.2553935000
0.8284617500 0.9114100000 0.5270870000
0.8477295000 0.9116377500 0.5268252500
0.8833420000 0.9130237500 0.5249842500
0.9417560000 0.9135685000 0.5135747500
1.0000000000 0.9076690000 0.4785970000
0.0000000000 0.0366690000 0.3574960000
0.1299715000 0.0327260000 0.3889755000
0.3385045000 0.0228685000 0.4262095000
0.6138885000 0.0102515000 0.4339290000
0.9029705000 0.0878500000 0.4266975000
0.0000000000 0.1969325000 0.3917877500
0.0808316031 0.2018040750 0.4192362469
0.3537142969 0.2003843344 0.4483278281
0.6451470687 0.1833936219 0.4313020750
0.9259390000 0.1995582500 0.4176580000
0.0000000000 0.4128135000 0.3838960000
0.0027797813 0.4372792750 0.3963465156
0.3526544688 0.4975459844 0.4318469062
0.6827055687 0.4598787094 0.3929837781
0.9566080000 0.3964530000 0.3773165000
0.0477475000 0.6715290000 0.3861385000
0.0994750156 0.6841580625 0.3879631781
0.4005566250 0.7057097875 0.3898745000
0.7339891844 0.6981161344 0.3905105688
0.9550125000 0.6911630000 0.3910647500
0.7720885000 0.9203615000 0.5620735000
0.8014825000 0.9205115000 0.5614480000
0.8543290000 0.9211400000 0.5584210000
0.9297065000 0.9201445000 0.5448560000
1.0000000000 0.9109705000 0.4948635000
0.0000000000 0.0853780000 0.5618385000
0.0405097500 0.0861642500 0.5773072500
0.2716395000 0.0869395000 0.6097165000
0.5500642500 0.0730995000 0.6389647500
0.8879270000 0.1048110000 0.6533357500
0.0000000000 0.1865970000 0.5799530000
0.0044996813 0.1826601188 0.5928050656
0.2580949094 0.1841342562 0.6173074437
0.5666737719 0.1978996188 0.6461263406
0.9052237500 0.2418657500 0.6529602500
0.0000000000 0.3944535000 0.5784077500
0.0000394500 0.4056480375 0.5891698406
0.2228421187 0.4457285625 0.6215796031
0.6088565125 0.4911949094 0.6456273000
0.9270965000 0.4515200000 0.6228907500
0.0248402500 0.6566005000 0.5506812500
0.0397691406 0.6708475531 0.5578448031
0.2045443094 0.7048102531 0.5835313406
0.6261786000 0.7420448875 0.5891460500
0.9446140000 0.7228925000 0.5897452500
0.4991022500 0.9228427500 0.6274902500
0.5547927500 0.9257757500 0.6295715000
0.6766825000 0.9321502500 0.6310180000
0.8531965000 0.9348472500 0.6239470000
1.0000000000 0.9291547500 0.5930947500
0.0000000000 0.3395310000 0.8611150000
0.0000000000 0.3441452500 0.8628777500
0.0007890000 0.3559060000 0.8675890000
0.2650110000 0.3743812500 0.8801265000
0.7587880000 0.3978230000 0.8988590000
0.0000000000 0.3813567500 0.8618582500
0.0000000000 0.3850047500 0.8637250000
0.0011830000 0.3943350000 0.8684295000
0.2697435000 0.4131670000 0.8813485000
0.7865050000 0.4478927500 0.8977690000
0.0000000000 0.4718295000 0.8659360000
0.0000000000 0.4755335000 0.8674997500
0.0031545000 0.4850665000 0.8718480000
0.2968370000 0.5113707500 0.8825365000
0.8385770000 0.5622160000 0.8858355000
0.0169540000 0.6451747500 0.8663002500
0.0185317500 0.6505615000 0.8676292500
0.0395202500 0.6651975000 0.8712610000
0.3715220000 0.7026987500 0.8727720000
0.9034130000 0.7660852500 0.8758805000
0.1841570000 0.9111370000 0.8209190000
0.1914985000 0.9142330000 0.8219010000
0.2307525000 0.9225590000 0.8241130000
0.5245310000 0.9387595000 0.8256182500
0.9842470000 0.9716180000 0.8468370000
