bundles/resolve-cinematic-luts/Gamut/ETHER/ETHER/Ether 05.cube
TITLE "Generated by 3D LUT Creator Pro (c) Oleg Sharonov"
# INPUTGAMMA sRGB
# IMAGEPROFILE sRGB
# OUTPUTGAMMA sRGB
# 
LUT_3D_SIZE 5
0.0110400000 0.0315430000 0.0482940000
0.1901792500 0.0246430000 0.0295712500
0.4492740000 0.0000000000 0.0000000000
0.6191202500 0.0000000000 0.0000000000
0.7312420000 0.0000000000 0.0000000000
0.0511817500 0.2138535000 0.0481195000
0.2026720000 0.2306685000 0.0489850000
0.4852050000 0.2261285000 0.0274030000
0.6569025000 0.2402060000 0.0295715000
0.7693037500 0.2751255000 0.0484617500
0.1116435000 0.5275080000 0.0743945000
0.3051090000 0.5344990000 0.1004910000
0.5150065000 0.5511185000 0.0710460000
0.6798340000 0.5673607500 0.0595545000
0.7928415000 0.5973620000 0.0756630000
0.2398037500 0.7883670000 0.1535912500
0.4208912500 0.7850302500 0.1784115000
0.5942160000 0.7977317500 0.1682400000
0.7219140000 0.8165065000 0.1317127500
0.8246665000 0.8343382500 0.1206562500
0.3992230000 0.9871190000 0.2572650000
0.5408975000 0.9703482500 0.2785842500
0.6875940000 0.9662605000 0.2843645000
0.7761215000 0.9839050000 0.2419087500
0.8525590000 1.0000000000 0.1943520000
0.0000000000 0.0407997500 0.2186145000
0.2307537500 0.0163625000 0.2212637500
0.5020475000 0.0000000000 0.1331207500
0.6570445000 0.0000000000 0.0971932500
0.7578695000 0.0000000000 0.0933015000
0.0001972500 0.2366377500 0.2282770000
0.1919471719 0.2457233250 0.2197935781
0.4940542531 0.2021115625 0.1579372156
0.6620376719 0.2017651313 0.1341061562
0.7735237500 0.2332727500 0.1404662500
0.0358802500 0.5712540000 0.2122175000
0.2641142438 0.5613182094 0.2384532937
0.5151365344 0.5519109656 0.2229147750
0.6793371094 0.5515324937 0.1958945375
0.7907795000 0.5712875000 0.1947247500
0.1685072500 0.8241340000 0.2985970000
0.3780843531 0.8087339375 0.3125775344
0.5889340094 0.7998110687 0.3097088438
0.7195758937 0.8088226094 0.2699482313
0.8193755000 0.8209310000 0.2465852500
0.3276535000 0.9991945000 0.3891085000
0.5008157500 0.9834457500 0.3942262500
0.6781087500 0.9670952500 0.4021562500
0.7739727500 0.9758422500 0.3731707500
0.8473205000 0.9932217500 0.3165042500
0.0000000000 0.0425160000 0.4455745000
0.1354650000 0.0238542500 0.5010687500
0.5224755000 0.0000000000 0.4135720000
0.6836332500 0.0000000000 0.3681790000
0.7827195000 0.0055200000 0.3478975000
0.0000000000 0.2515197500 0.4485905000
0.1252172750 0.2689762219 0.4512378594
0.5226885250 0.2239131312 0.4476392719
0.6932190844 0.2105245719 0.3935631031
0.7947790000 0.2273967500 0.3674282500
0.0094630000 0.5834325000 0.4666870000
0.2038079063 0.5894833750 0.4598922531
0.5073346094 0.5879651250 0.4485747344
0.6908282656 0.5505650344 0.4092378031
0.7979035000 0.5510910000 0.3869915000
0.1068435000 0.8471922500 0.4995212500
0.3065093750 0.8401268781 0.4938928625
0.5624588188 0.8184300813 0.4846395531
0.7201141969 0.8101014219 0.4591776906
0.8174707500 0.8111140000 0.4303415000
0.2373415000 1.0000000000 0.5556900000
0.4210300000 0.9957017500 0.5439592500
0.6455355000 0.9789950000 0.5395125000
0.7714940000 0.9737540000 0.5299105000
0.8440065000 0.9876375000 0.4853295000
0.0000000000 0.0484667500 0.5823347500
0.0708067500 0.0360772500 0.6180852500
0.5047490000 0.0000000000 0.5855295000
0.6957347500 0.0000000000 0.5537287500
0.7857137500 0.0078860000 0.5415445000
0.0000000000 0.2808227500 0.5711677500
0.0842220938 0.2915546031 0.5859804063
0.4709385219 0.2541650437 0.6077692094
0.7065002750 0.2400512750 0.5799442687
0.8151657500 0.2532265000 0.5616312500
0.0136030000 0.5986317500 0.6019810000
0.1729995187 0.6111180000 0.5968239688
0.4579629219 0.6182301219 0.5955788375
0.7118568969 0.5873789469 0.5941837688
0.8145502500 0.5626740000 0.5654390000
0.0946387500 0.8575797500 0.6436287500
0.2701011750 0.8577798031 0.6369185312
0.5246531938 0.8414109344 0.6207039250
0.7163934938 0.8275918094 0.6091730844
0.8201780000 0.8122475000 0.5869417500
0.1966602500 1.0000000000 0.6890122500
0.3583752500 0.9996380000 0.6743177500
0.5918850000 0.9942570000 0.6521315000
0.7557547500 0.9846787500 0.6414382500
0.8451047500 0.9884210000 0.6253260000
0.0000000000 0.0604640000 0.6574530000
0.0368660000 0.0472425000 0.6581267500
0.4431935000 0.0015775000 0.6420900000
0.6979095000 0.0000000000 0.6392187500
0.7919850000 0.0197140000 0.6475480000
0.0000000000 0.3173572500 0.6486607500
0.0588192500 0.3197357500 0.6623337500
0.3976435000 0.2925575000 0.6696820000
0.6968472500 0.2619732500 0.6713930000
0.8290720000 0.2838360000 0.6768832500
0.0232630000 0.6281100000 0.6714825000
0.1458550000 0.6418197500 0.6750092500
0.4133015000 0.6386600000 0.6782690000
0.6882702500 0.6146147500 0.6790942500
0.8319610000 0.6190890000 0.6833345000
0.1002765000 0.8694185000 0.7148337500
0.2564412500 0.8739572500 0.7169157500
0.4968657500 0.8624395000 0.7065242500
0.6923370000 0.8506132500 0.6964370000
0.8332332500 0.8374517500 0.6947842500
0.1912930000 1.0000000000 0.7622890000
0.3410672500 1.0000000000 0.7571645000
0.5636705000 1.0000000000 0.7392030000
0.7336042500 0.9985567500 0.7231552500
0.8457660000 0.9963960000 0.7159710000
