bundles/resolve-cinematic-luts/Gamut/ETHER/ETHER/Ether 04.cube
TITLE "Generated by 3D LUT Creator Pro (c) Oleg Sharonov"
# INPUTGAMMA sRGB
# IMAGEPROFILE sRGB
# OUTPUTGAMMA sRGB
# 
LUT_3D_SIZE 5
0.0362740000 0.0000000000 0.0542950000
0.1810610000 0.0063090000 0.0319372500
0.4462335000 0.0000000000 0.0000000000
0.6438765000 0.0000000000 0.0000000000
0.7718380000 0.0000000000 0.0000000000
0.0005915000 0.2210975000 0.0244457500
0.1692867500 0.2208755000 0.0240512500
0.4554040000 0.2106005000 0.0153770000
0.6550545000 0.2133702500 0.0013800000
0.7912277500 0.2396172500 0.0059145000
0.0000000000 0.5125400000 0.0003945000
0.1568447500 0.5232447500 0.0049285000
0.4639650000 0.5143030000 0.0122230000
0.6788242500 0.5158327500 0.0199117500
0.8120120000 0.5481955000 0.0374570000
0.0208970000 0.7993232500 0.0459707500
0.2147370000 0.8092377500 0.0484425000
0.5052082500 0.8000237500 0.0481000000
0.7173342500 0.7925875000 0.0572630000
0.8490542500 0.8081500000 0.0826417500
0.1190880000 0.9995710000 0.1356830000
0.3062110000 0.9998120000 0.1246450000
0.5639430000 0.9998120000 0.1047290000
0.7556395000 0.9989260000 0.0989272500
0.8732940000 1.0000000000 0.1200870000
0.0000000000 0.0234600000 0.2344422500
0.2086315000 0.0001972500 0.2384877500
0.5002975000 0.0000000000 0.1569580000
0.6807810000 0.0000000000 0.1131042500
0.7971175000 0.0000000000 0.1030237500
0.0001972500 0.2254250000 0.2376635000
0.1590730594 0.2321077625 0.2231461125
0.4755274000 0.2149727344 0.1906854844
0.6733485625 0.2197870219 0.1684284000
0.8059977500 0.2472647500 0.1671950000
0.0000000000 0.5221840000 0.2260450000
0.1631015437 0.5336284594 0.2214742563
0.4729542906 0.5243082313 0.2091996813
0.6831203875 0.5277719594 0.2101190938
0.8161657500 0.5598310000 0.2172417500
0.0274030000 0.8084827500 0.2767040000
0.2207334875 0.8183953219 0.2709341094
0.5111754531 0.8074815406 0.2539829500
0.7223931062 0.7970388531 0.2614026469
0.8492127500 0.8121370000 0.2834645000
0.1211600000 0.9998120000 0.3592857500
0.3053990000 1.0000000000 0.3441110000
0.5634602500 1.0000000000 0.3136450000
0.7570827500 0.9982742500 0.3022515000
0.8734220000 1.0000000000 0.3265560000
0.0000000000 0.0323320000 0.4249490000
0.1189610000 0.0149830000 0.4638577500
0.5162430000 0.0000000000 0.3815160000
0.7032615000 0.0000000000 0.3185772500
0.8173225000 0.0000000000 0.2863595000
0.0000000000 0.2394727500 0.4006400000
0.1048551625 0.2509032062 0.4007477344
0.4953445656 0.2075152156 0.4050275625
0.7044028625 0.2133063344 0.3542058031
0.8259805000 0.2472685000 0.3419237500
0.0000000000 0.5237905000 0.4337080000
0.1608337344 0.5374541156 0.4233516844
0.4681133906 0.5353747344 0.3970756719
0.6951711000 0.5307069594 0.3823014906
0.8252195000 0.5644640000 0.3823525000
0.0287830000 0.8109027500 0.4686550000
0.2217720906 0.8209910531 0.4596368906
0.5108059406 0.8103152406 0.4359695594
0.7243471656 0.7988872375 0.4275023938
0.8485297500 0.8141652500 0.4396227500
0.1195875000 0.9998120000 0.5246905000
0.3033412500 1.0000000000 0.5089475000
0.5604505000 1.0000000000 0.4776360000
0.7559395000 0.9964300000 0.4571350000
0.8729730000 0.9983210000 0.4788845000
0.0000000000 0.0404112500 0.5763435000
0.0594235000 0.0295715000 0.5983760000
0.4816390000 0.0000000000 0.5710275000
0.7113695000 0.0000000000 0.5152950000
0.8297505000 0.0000000000 0.4874007500
0.0000000000 0.2550867500 0.5415052500
0.0597855062 0.2650049437 0.5529307000
0.4167753938 0.2369629500 0.5770272312
0.7186071344 0.2069398656 0.5385329406
0.8445685000 0.2405660000 0.5163917500
0.0000000000 0.5342810000 0.5733005000
0.1279010187 0.5540113000 0.5642871187
0.4139925031 0.5613462344 0.5569111875
0.7154774687 0.5248840406 0.5513474969
0.8425272500 0.5589890000 0.5354000000
0.0305570000 0.8139352500 0.6198287500
0.2205371844 0.8236259188 0.6134710625
0.5037433906 0.8134856969 0.5930220750
0.7239721625 0.8007784219 0.5745641813
0.8518380000 0.8124215000 0.5707657500
0.1178282500 0.9998255000 0.6653770000
0.2994785000 1.0000000000 0.6519517500
0.5551835000 0.9999460000 0.6237997500
0.7511895000 0.9942907500 0.5994115000
0.8723620000 0.9961132500 0.6067235000
0.0000000000 0.0542950000 0.6630930000
0.0169540000 0.0465347500 0.6768157500
0.3951550000 0.0015775000 0.6752670000
0.7114050000 0.0000000000 0.6319220000
0.8416020000 0.0000000000 0.6175500000
0.0000000000 0.2763902500 0.6339362500
0.0228687500 0.2852445000 0.6464212500
0.3305742500 0.2777615000 0.6676585000
0.7035567500 0.2204980000 0.6581032500
0.8602730000 0.2399270000 0.6468962500
0.0000000000 0.5606440000 0.6520060000
0.0834850000 0.5832732500 0.6524292500
0.3592685000 0.5915210000 0.6576385000
0.6787737500 0.5534962500 0.6621955000
0.8609840000 0.5572245000 0.6559400000
0.0305570000 0.8273240000 0.7094997500
0.2081592500 0.8396470000 0.7051660000
0.4761717500 0.8348750000 0.6875070000
0.6939482500 0.8217945000 0.6730860000
0.8659597500 0.8111840000 0.6727252500
0.1230360000 1.0000000000 0.7604060000
0.3017557500 1.0000000000 0.7491767500
0.5547345000 1.0000000000 0.7233500000
0.7493380000 0.9961937500 0.7021562500
0.8740960000 0.9984150000 0.6957900000
