bundles/resolve-cinematic-luts/Gamut/ETHER/ETHER/Ether 03.cube
TITLE "Generated by 3D LUT Creator Pro (c) Oleg Sharonov"
# INPUTGAMMA sRGB
# IMAGEPROFILE sRGB
# OUTPUTGAMMA sRGB
# 
LUT_3D_SIZE 33
0.0063090000 0.0189260000 0.0228690000
0.0272303438 0.0181616563 0.0205522812
0.0514903125 0.0173490000 0.0189752500
0.0774549062 0.0158449688 0.0137016875
0.0971843750 0.0164613750 0.0112371250
0.1166031875 0.0173490000 0.0087972813
0.1364540625 0.0179892500 0.0066046875
0.1572853750 0.0181370000 0.0034989688
0.1799602500 0.0181370000 0.0009860000
0.2044495312 0.0173490000 0.0000000000
0.2314060625 0.0160175625 0.0000000000
0.2601667812 0.0139480937 0.0000000000
0.2910418750 0.0116313750 0.0000000000
0.3234290937 0.0085266563 0.0000000000
0.3558865000 0.0049781250 0.0000000000
0.3892168125 0.0015282188 0.0000000000
0.4222950000 0.0000000000 0.0000000000
0.4543680625 0.0000000000 0.0000000000
0.4837419375 0.0000000000 0.0000000000
0.5093096875 0.0000000000 0.0000000000
0.5346351250 0.0000000000 0.0000000000
0.5597539688 0.0000000000 0.0000000000
0.5839695000 0.0000000000 0.0000000000
0.6069837188 0.0000000000 0.0000000000
0.6289552500 0.0000000000 0.0000000000
0.6505749063 0.0000000000 0.0000000000
0.6711150625 0.0000000000 0.0000000000
0.6908448437 0.0000000000 0.0000000000
0.7096201250 0.0000000000 0.0000000000
0.7268999063 0.0000000000 0.0000000000
0.7440421875 0.0000000000 0.0000000000
0.7614490000 0.0000000000 0.0000000000
0.7790770000 0.0000000000 0.0000000000
0.0047556562 0.0382950000 0.0267626875
0.0264423437 0.0398473750 0.0236570000
0.0482645312 0.0390593437 0.0190245625
0.0735519688 0.0383196875 0.0166093125
0.0980216875 0.0367673125 0.0157956875
0.1182307812 0.0374823437 0.0142187188
0.1384021562 0.0375070000 0.0112371250
0.1592745313 0.0375070000 0.0081570313
0.1818418125 0.0369152500 0.0058156875
0.2071857187 0.0367180000 0.0027355938
0.2338960000 0.0346231875 0.0002219062
0.2628162500 0.0325290938 0.0000000000
0.2940426875 0.0302123750 0.0000000000
0.3261295938 0.0263433125 0.0000000000
0.3589284375 0.0227947500 0.0000000000
0.3919427812 0.0189256875 0.0000000000
0.4252769687 0.0147114375 0.0000000000
0.4571741563 0.0104981250 0.0000000000
0.4861544063 0.0070235625 0.0000000000
0.5117662500 0.0035239063 0.0000000000
0.5371707500 0.0019961875 0.0000000000
0.5622907812 0.0015277187 0.0000000000
0.5865946250 0.0015277187 0.0000000000
0.6091895312 0.0007643437 0.0000000000
0.6315028125 0.0007643438 0.0000000000
0.6528832187 0.0007643438 0.0000000000
0.6737340625 0.0007643438 0.0000000000
0.6935698437 0.0007643438 0.0000000000
0.7124039063 0.0007643437 0.0000000000
0.7299486562 0.0008382187 0.0000000000
0.7473923437 0.0016016875 0.0000000000
0.7651137188 0.0039183750 0.0000000000
0.7834505625 0.0085015000 0.0000000000
0.0032033125 0.0586243750 0.0313951250
0.0241256250 0.0598315313 0.0275260625
0.0462283750 0.0609790625 0.0236077500
0.0704851875 0.0598502500 0.0197140625
0.0956595625 0.0580893750 0.0188274375
0.1192906250 0.0573994375 0.0188274375
0.1400383750 0.0568238125 0.0173488750
0.1619040312 0.0568238125 0.0143418437
0.1851746250 0.0563595625 0.0112371250
0.2099206875 0.0557510000 0.0081324062
0.2373166875 0.0539027500 0.0042879375
0.2664920312 0.0515297500 0.0004435313
0.2975412500 0.0484796250 0.0000000000
0.3294519062 0.0449987500 0.0000000000
0.3625963125 0.0418327500 0.0000000000
0.3955228750 0.0375806250 0.0000000000
0.4285063125 0.0336622500 0.0000000000
0.4604113437 0.0290047187 0.0000000000
0.4889158750 0.0247416250 0.0000000000
0.5147800938 0.0207986562 0.0000000000
0.5403763125 0.0169541875 0.0000000000
0.5655220625 0.0132083437 0.0000000000
0.5896422500 0.0104484375 0.0000000000
0.6125730625 0.0078854687 0.0000000000
0.6349498125 0.0056680625 0.0000000000
0.6562867187 0.0037458750 0.0000000000
0.6770743125 0.0037458750 0.0000000000
0.6967489688 0.0037458750 0.0000000000
0.7158685625 0.0038936250 0.0000000000
0.7337491562 0.0053475312 0.0000000000
0.7517536250 0.0085755000 0.0000000000
0.7696672500 0.0155245937 0.0000000000
0.7878940000 0.0262205625 0.0000000000
0.0016509688 0.0780981250 0.0360522812
0.0218089688 0.0795816563 0.0321841250
0.0434195625 0.0805204062 0.0282657500
0.0668757812 0.0814005000 0.0243720312
0.0931864688 0.0805186875 0.0220307812
0.1173380313 0.0786936250 0.0219321563
0.1416838125 0.0776548750 0.0220061250
0.1644416562 0.0772306875 0.0204537813
0.1881338125 0.0763845312 0.0174474688
0.2134758438 0.0753775312 0.0143418437
0.2409745625 0.0735283438 0.0099065937
0.2705217812 0.0714905625 0.0052486250
0.3020474687 0.0685896562 0.0012325313
0.3342832812 0.0650039062 0.0002465625
0.3671323438 0.0616269687 0.0000000000
0.4002542188 0.0579476250 0.0000000000
0.4331052187 0.0536621562 0.0000000000
0.4647745625 0.0497381562 0.0000000000
0.4929344688 0.0456753437 0.0000000000
0.5190922188 0.0416277188 0.0000000000
0.5448789375 0.0378026250 0.0000000000
0.5698185000 0.0343521563 0.0000000000
0.5941415313 0.0308038750 0.0000000000
0.6171559375 0.0276984688 0.0000000000
0.6393012812 0.0253085313 0.0000000000
0.6607408750 0.0231644375 0.0000000000
0.6815739687 0.0216860625 0.0000000000
0.7014396563 0.0211189688 0.0000000000
0.7203917187 0.0212175937 0.0000000000
0.7386740938 0.0235588437 0.0000000000
0.7566621250 0.0282653125 0.0000000000
0.7746325312 0.0362449375 0.0000000000
0.7928394687 0.0479412813 0.0000000000
0.0000986250 0.0982817500 0.0400198750
0.0187781250 0.0994471250 0.0368411875
0.0398185625 0.1005484375 0.0329228750
0.0630574687 0.1016775625 0.0290292188
0.0886657500 0.1020513750 0.0258258750
0.1145460625 0.1016234375 0.0250368750
0.1397711250 0.1004896250 0.0250368750
0.1657835938 0.0992946875 0.0251108438
0.1908122500 0.0979251250 0.0235585000
0.2168307187 0.0963891562 0.0205522812
0.2456351875 0.0945497500 0.0166585625
0.2754342500 0.0920761562 0.0121490937
0.3071331250 0.0893325000 0.0074913750
0.3398947500 0.0862962500 0.0027109063
0.3730223125 0.0827658125 0.0006903750
0.4063047500 0.0791036563 0.0000000000
0.4390575000 0.0752962500 0.0000000000
0.4702200000 0.0717761875 0.0000000000
0.4977523125 0.0678814375 0.0000000000
0.5241918750 0.0645994062 0.0000000000
0.5502366250 0.0611846250 0.0000000000
0.5753207188 0.0579194375 0.0000000000
0.5998119375 0.0548268750 0.0000000000
0.6226516562 0.0517021250 0.0000000000
0.6449027500 0.0493045000 0.0000000000
0.6663794687 0.0472449687 0.0000000000
0.6870323125 0.0459836250 0.0000000000
0.7068915313 0.0452691250 0.0000000000
0.7258553750 0.0460708750 0.0000000000
0.7441517500 0.0475869063 0.0000000000
0.7621560000 0.0523056250 0.0000000000
0.7801093438 0.0608499688 0.0000000000
0.7979843750 0.0720748750 0.0000000000
0.0000000000 0.1187451875 0.0443908125
0.0150323125 0.1200575625 0.0407983750
0.0352888125 0.1209940312 0.0375808750
0.0580052188 0.1223166250 0.0336871563
0.0839405312 0.1235269063 0.0297934375
0.1095764375 0.1244270313 0.0281425938
0.1361406875 0.1244369063 0.0281425938
0.1626890625 0.1229282500 0.0282657188
0.1916235625 0.1208080312 0.0282164688
0.2194925000 0.1188686875 0.0259737187
0.2491765000 0.1169301875 0.0228690000
0.2806141562 0.1146767812 0.0184575000
0.3129764375 0.1116182500 0.0138000625
0.3462890938 0.1088431250 0.0091423750
0.3795658750 0.1054186562 0.0044851563
0.4128800625 0.1020500625 0.0012818125
0.4455363750 0.0986444062 0.0002712187
0.4764103125 0.0952498438 0.0000000000
0.5037946562 0.0920319375 0.0000000000
0.5302066563 0.0888117812 0.0000000000
0.5563108125 0.0858215625 0.0000000000
0.5816429687 0.0831229063 0.0000000000
0.6059972188 0.0803480313 0.0000000000
0.6288975625 0.0779795625 0.0000000000
0.6510939375 0.0757622187 0.0000000000
0.6725462188 0.0738799375 0.0000000000
0.6930225937 0.0728685000 0.0000000000
0.7126628437 0.0724452500 0.0000000000
0.7315889375 0.0730256250 0.0000000000
0.7500514687 0.0750502188 0.0000000000
0.7680406875 0.0791002812 0.0000000000
0.7857085937 0.0871501875 0.0000000000
0.8034110625 0.0978228750 0.0000000000
0.0000000000 0.1402666875 0.0473306875
0.0104481875 0.1415993438 0.0445076875
0.0292263125 0.1427143125 0.0408461875
0.0513298437 0.1445319063 0.0369891250
0.0779415000 0.1460528750 0.0330214375
0.1041722500 0.1473499375 0.0305815938
0.1304058125 0.1486182500 0.0298180625
0.1580948125 0.1484112187 0.0306062500
0.1876600000 0.1468293750 0.0312473125
0.2200833125 0.1440496250 0.0305322813
0.2517926875 0.1416306875 0.0282904375
0.2844247813 0.1391261250 0.0245444687
0.3181241250 0.1364302500 0.0205030000
0.3522227187 0.1333994375 0.0161408125
0.3862952500 0.1304258125 0.0113358125
0.4197541563 0.1271333438 0.0066782812
0.4524770625 0.1239139375 0.0027108750
0.4827547187 0.1204381250 0.0010598750
0.5101509375 0.1176883750 0.0002958750
0.5366795000 0.1147165313 0.0000000000
0.5628061875 0.1120825625 0.0000000000
0.5880891250 0.1096069687 0.0000000000
0.6122673125 0.1074469375 0.0000000000
0.6350684063 0.1053238125 0.0000000000
0.6573504375 0.1035571875 0.0000000000
0.6786566563 0.1021260312 0.0000000000
0.6990749375 0.1012798125 0.0000000000
0.7186256563 0.1011021562 0.0000000000
0.7374102500 0.1018345000 0.0000000000
0.7556796562 0.1037572812 0.0000000000
0.7734458750 0.1078313125 0.0000000000
0.7911884375 0.1151488125 0.0000246562
0.8085221875 0.1251461250 0.0006410625
0.0000000000 0.1628359375 0.0495193750
0.0058650625 0.1644497812 0.0467806875
0.0223017812 0.1655826250 0.0438181563
0.0443890000 0.1672078125 0.0400927187
0.0706773750 0.1693732813 0.0362247813
0.0970750312 0.1711693125 0.0330214375
0.1241005625 0.1731294063 0.0315183438
0.1517258750 0.1744305938 0.0321594063
0.1821410625 0.1746117500 0.0329476250
0.2153561563 0.1725095625 0.0329476250
0.2518624375 0.1694300937 0.0322332812
0.2868727813 0.1665149062 0.0299905313
0.3222094688 0.1636945938 0.0267132187
0.3575193437 0.1606620938 0.0223512500
0.3921168437 0.1573700313 0.0176937500
0.4261216250 0.1541562188 0.0136522812
0.4589277187 0.1510011875 0.0089944687
0.4888059375 0.1479057500 0.0050517500
0.5163331250 0.1451371250 0.0021190938
0.5430330313 0.1424659375 0.0010845000
0.5689379375 0.1401334063 0.0006164062
0.5941801250 0.1378668125 0.0006164062
0.6183321562 0.1359472500 0.0000000000
0.6411414063 0.1341977188 0.0000000000
0.6632354062 0.1328000000 0.0000000000
0.6845424688 0.1319124063 0.0000000000
0.7047085000 0.1311850938 0.0000000000
0.7241350313 0.1314075312 0.0000000000
0.7427762500 0.1323087500 0.0000986250
0.7609594375 0.1344628438 0.0006164062
0.7785683750 0.1384440937 0.0006164062
0.7960564375 0.1448613438 0.0008136250
0.8132785625 0.1541400000 0.0014046250
0.0000000000 0.1865750000 0.0503480000
0.0011093125 0.1880770938 0.0481629062
0.0159683125 0.1894010625 0.0453719375
0.0363461562 0.1915390312 0.0417805625
0.0622240000 0.1940307500 0.0386401250
0.0897026875 0.1966548438 0.0353381563
0.1173523125 0.1990957500 0.0330707500
0.1456473125 0.2012520937 0.0335393750
0.1757765000 0.2031125000 0.0345000000
0.2092669062 0.2031184062 0.0352887500
0.2469556875 0.2005128125 0.0352887500
0.2866502188 0.1965914687 0.0337856250
0.3242415000 0.1934317500 0.0315428750
0.3609685625 0.1901554688 0.0276494063
0.3967389375 0.1866435625 0.0239036250
0.4316755000 0.1834556562 0.0198621875
0.4647130000 0.1801440000 0.0153772500
0.4943690625 0.1771970000 0.0113111875
0.5221041250 0.1745316875 0.0079845625
0.5488835938 0.1722079687 0.0048791875
0.5749017500 0.1697498750 0.0024642500
0.6000110312 0.1677447813 0.0017005313
0.6240195625 0.1660038750 0.0013800000
0.6466720000 0.1646472500 0.0007890000
0.6685880000 0.1636265000 0.0007890000
0.6896789063 0.1629616875 0.0007890000
0.7096618125 0.1627473750 0.0007890000
0.7289067188 0.1632657187 0.0007890000
0.7474578750 0.1643937500 0.0008875000
0.7653765625 0.1665308750 0.0013800000
0.7829578125 0.1704368750 0.0014293125
0.8003270000 0.1765320625 0.0021933750
0.8173137500 0.1848200000 0.0035487500
0.0000000000 0.2118430312 0.0510200000
0.0007643438 0.2134076250 0.0488336250
0.0106454687 0.2149597188 0.0462694375
0.0285368438 0.2171813125 0.0439347812
0.0537827187 0.2202797813 0.0401910000
0.0825067188 0.2235206250 0.0370876563
0.1105279062 0.2265899687 0.0354120312
0.1389427813 0.2296126250 0.0344753750
0.1691542812 0.2318984375 0.0352887500
0.2022958125 0.2333570000 0.0366194688
0.2397478750 0.2329796563 0.0368410937
0.2815542812 0.2297289375 0.0360523750
0.3235488125 0.2256444688 0.0347709687
0.3624116563 0.2219147500 0.0322085938
0.3998732188 0.2182514688 0.0287585313
0.4360137500 0.2149209375 0.0253082500
0.4694466250 0.2115752500 0.0214150625
0.4992066875 0.2084220937 0.0175213437
0.5273630938 0.2058305938 0.0138492500
0.5544363125 0.2034425937 0.0103005937
0.5804610000 0.2012310000 0.0079845625
0.6053470938 0.1993614375 0.0056678438
0.6292860937 0.1978038750 0.0038195938
0.6516197812 0.1964880938 0.0027104688
0.6732424687 0.1956613437 0.0021440938
0.6940513437 0.1952479375 0.0021440938
0.7139647188 0.1954621250 0.0021440938
0.7329990938 0.1962225312 0.0021440938
0.7514425937 0.1977288437 0.0027104688
0.7691999375 0.2000798437 0.0034994688
0.7866218437 0.2038504063 0.0043367812
0.8038193438 0.2094422500 0.0056928438
0.8207505312 0.2167583437 0.0080088437
0.0000000000 0.2386717500 0.0510200000
0.0002219062 0.2403561875 0.0490275938
0.0051746875 0.2423229375 0.0469360000
0.0215628437 0.2449453437 0.0446456250
0.0469213750 0.2484399375 0.0417101875
0.0754716875 0.2522939063 0.0393057187
0.1036423125 0.2562989375 0.0369643750
0.1325268438 0.2596914688 0.0360277500
0.1628500000 0.2628608125 0.0360770000
0.1961413438 0.2649971875 0.0368410937
0.2333017500 0.2660173750 0.0376054375
0.2739045313 0.2650026875 0.0376054375
0.3182500625 0.2612075625 0.0368657500
0.3616064375 0.2565158125 0.0355598750
0.4013215000 0.2525018750 0.0329723750
0.4385899375 0.2487135000 0.0299658438
0.4727071250 0.2451283750 0.0260721250
0.5032420000 0.2418964375 0.0229674062
0.5318923750 0.2390475000 0.0196156875
0.5592950625 0.2366191250 0.0165107188
0.5853301250 0.2343100000 0.0134060000
0.6102708750 0.2324748437 0.0113605000
0.6339619375 0.2309414375 0.0090191250
0.6561277187 0.2298901875 0.0074667500
0.6775617500 0.2291461875 0.0063576250
0.6980743437 0.2289625625 0.0055696250
0.7177055000 0.2293055000 0.0055696250
0.7365881563 0.2303545312 0.0055696250
0.7547875625 0.2320286875 0.0064562500
0.7724736250 0.2346768438 0.0072205000
0.7897876250 0.2384665000 0.0093146875
0.8067729375 0.2438852813 0.0116560312
0.8235971250 0.2503781250 0.0139973750
0.0000000000 0.2674703438 0.0510200000
0.0000000000 0.2697656875 0.0490275938
0.0017003438 0.2718992500 0.0476396250
0.0156971563 0.2746284375 0.0455303125
0.0403726562 0.2786050625 0.0431930000
0.0688185937 0.2829722188 0.0408483125
0.0973573438 0.2874299375 0.0385168750
0.1264561563 0.2916680625 0.0375807813
0.1567658125 0.2951322500 0.0375807813
0.1901822187 0.2978484062 0.0376300937
0.2270743125 0.2995364688 0.0383937500
0.2674799688 0.2997767812 0.0391577813
0.3111261875 0.2982484375 0.0386646562
0.3569498438 0.2939436875 0.0376300313
0.4005662187 0.2890961562 0.0360770937
0.4396969687 0.2847964687 0.0337362812
0.4749407500 0.2810818438 0.0307296875
0.5062875937 0.2775392812 0.0276248125
0.5356408750 0.2745029375 0.0248645000
0.5633816875 0.2717764687 0.0219321563
0.5896075938 0.2694086875 0.0193938125
0.6145155937 0.2674399375 0.0170528125
0.6380296563 0.2658085000 0.0149830000
0.6602034062 0.2647285312 0.0128881875
0.6813759688 0.2639523437 0.0121242187
0.7016796563 0.2639351875 0.0113604375
0.7209890625 0.2643263438 0.0107444687
0.7396903750 0.2655853125 0.0111388125
0.7577355937 0.2675611875 0.0119023125
0.7752255000 0.2703504063 0.0132576562
0.7924242188 0.2742565937 0.0155251250
0.8094029375 0.2793505625 0.0178907500
0.8260604375 0.2853799062 0.0207245937
0.0000000000 0.2984045000 0.0510200000
0.0000000000 0.3006643125 0.0496902187
0.0007396875 0.3032569375 0.0481190625
0.0104729063 0.3062398125 0.0466920313
0.0354855000 0.3102603750 0.0445547500
0.0636826562 0.3152604375 0.0423504063
0.0923384375 0.3201403125 0.0408483125
0.1212903438 0.3245596250 0.0397982188
0.1519507500 0.3286792500 0.0391331250
0.1853050937 0.3319089063 0.0396256250
0.2222915625 0.3342267500 0.0399215000
0.2627374062 0.3351081563 0.0407026250
0.3060020000 0.3347988750 0.0407026250
0.3509755313 0.3324127500 0.0399215000
0.3971881875 0.3277374375 0.0386893125
0.4392024687 0.3228780313 0.0368410937
0.4760370000 0.3186821250 0.0349931250
0.5085591875 0.3150415938 0.0322825312
0.5385415625 0.3115823750 0.0299658125
0.5667227188 0.3086413750 0.0271812187
0.5933757500 0.3060653750 0.0248398750
0.6183663750 0.3038754375 0.0224992500
0.6418257500 0.3020757500 0.0206510000
0.6639203437 0.3008639375 0.0190983437
0.6849453750 0.3001553750 0.0177428750
0.7049782187 0.3000882500 0.0169542500
0.7241563750 0.3006445000 0.0169542500
0.7425910937 0.3018837500 0.0174473750
0.7604887500 0.3039392500 0.0186298750
0.7779465313 0.3069379063 0.0201827500
0.7950090625 0.3109935625 0.0222769375
0.8117985000 0.3159140000 0.0249141875
0.8283885000 0.3214685000 0.0279942500
0.0000000000 0.3306240000 0.0520784687
0.0000000000 0.3331696250 0.0507680000
0.0007396875 0.3359782813 0.0494338750
0.0072201563 0.3392567500 0.0480758750
0.0317647812 0.3436801563 0.0464900938
0.0598479687 0.3488771875 0.0449852188
0.0883407188 0.3542765000 0.0435403438
0.1174862187 0.3594333750 0.0425091562
0.1483319687 0.3638036875 0.0418976875
0.1816692500 0.3676620312 0.0418976875
0.2186420312 0.3701651250 0.0424135312
0.2594324375 0.3716671250 0.0426525937
0.3029104062 0.3720949063 0.0426525937
0.3475614687 0.3710097500 0.0426525937
0.3929566250 0.3679082188 0.0414718750
0.4371914688 0.3629564375 0.0404060313
0.4760437500 0.3582459688 0.0388622187
0.5099686250 0.3541922813 0.0369395937
0.5409425625 0.3504291562 0.0346232812
0.5697146875 0.3470724063 0.0323071562
0.5966530313 0.3441647500 0.0302859375
0.6219108438 0.3417590312 0.0279453437
0.6454267812 0.3396782500 0.0260724375
0.6675467187 0.3382236250 0.0247416875
0.6884647187 0.3374482500 0.0237556875
0.7083362500 0.3372724062 0.0231646875
0.7273918750 0.3377308437 0.0231646875
0.7457020625 0.3390621250 0.0240759687
0.7634782188 0.3411769375 0.0253086562
0.7807340938 0.3442575938 0.0268610313
0.7977107812 0.3484082187 0.0292511875
0.8144244063 0.3533406875 0.0323564375
0.8308638750 0.3587461250 0.0354611563
0.0000000000 0.3647223750 0.0537293125
0.0000000000 0.3675507813 0.0531009687
0.0007396875 0.3707818750 0.0521765000
0.0058653750 0.3741535312 0.0508672187
0.0305576250 0.3792868750 0.0495357500
0.0582322813 0.3849450938 0.0481793125
0.0862008125 0.3905786875 0.0473695625
0.1154462812 0.3960748750 0.0461082187
0.1463768750 0.4010559375 0.0459496250
0.1798983125 0.4049508438 0.0452290000
0.2170455625 0.4078901875 0.0457205625
0.2581365937 0.4097841875 0.0459496250
0.3017742500 0.4104173125 0.0459496250
0.3466624062 0.4099401563 0.0459496250
0.3913981875 0.4079404375 0.0455496875
0.4349585937 0.4041390313 0.0441157812
0.4754075000 0.3991803750 0.0433993750
0.5108775625 0.3946091563 0.0415803125
0.5429235000 0.3905283750 0.0396241875
0.5724010937 0.3867903125 0.0377281562
0.5998361250 0.3835172500 0.0357320000
0.6253306563 0.3806929687 0.0338349062
0.6491278125 0.3783717500 0.0322821250
0.6713046250 0.3767103438 0.0309516875
0.6921851875 0.3756426250 0.0301631250
0.7119990625 0.3753454687 0.0293741250
0.7308743750 0.3757111875 0.0298179375
0.7491073437 0.3769861250 0.0307300625
0.7667408125 0.3791287500 0.0322824375
0.7838670625 0.3823730938 0.0342539687
0.8007521875 0.3865303125 0.0370135000
0.8172936250 0.3915399375 0.0401198750
0.8336790000 0.3969154375 0.0438425000
0.0000000000 0.4012475000 0.0571825313
0.0000000000 0.4044831250 0.0562845938
0.0015277500 0.4078902812 0.0556763437
0.0074912500 0.4119975000 0.0550634063
0.0314940312 0.4173647812 0.0538032187
0.0588586250 0.4232304375 0.0530720312
0.0869066562 0.4291728437 0.0524177188
0.1160108438 0.4348887812 0.0515881875
0.1472354687 0.4399581875 0.0510916875
0.1809144375 0.4441986875 0.0507710625
0.2184436875 0.4470592187 0.0504199063
0.2594966563 0.4489478750 0.0504199063
0.3033297188 0.4496847812 0.0504199063
0.3481905625 0.4492970625 0.0504199063
0.3925676563 0.4476002188 0.0500445000
0.4352238750 0.4447040313 0.0486972813
0.4752942812 0.4404634687 0.0480252812
0.5118653750 0.4357086875 0.0466397812
0.5448674687 0.4313866875 0.0452276562
0.5751743437 0.4273467500 0.0437870625
0.6030869063 0.4236932188 0.0415552187
0.6289771875 0.4204414687 0.0400340000
0.6529490625 0.4178684687 0.0384923125
0.6753144375 0.4158606250 0.0373588125
0.6963096250 0.4145495625 0.0367917188
0.7160353437 0.4140416250 0.0365454687
0.7349273125 0.4142996250 0.0367917188
0.7529454687 0.4155139375 0.0377038437
0.7704697812 0.4176619062 0.0393415938
0.7874748750 0.4208884375 0.0419966875
0.8041695938 0.4250966250 0.0449715625
0.8206740312 0.4301402500 0.0484776562
0.8369556563 0.4356616562 0.0521265625
0.0000000000 0.4403315000 0.0619230000
0.0007643438 0.4440323125 0.0613556250
0.0030559375 0.4477432500 0.0610740625
0.0128145313 0.4526177188 0.0605012188
0.0361758750 0.4580910000 0.0599241250
0.0626493438 0.4639557500 0.0592475000
0.0906991250 0.4696975625 0.0587580625
0.1196789688 0.4751300000 0.0581685000
0.1507845000 0.4799227500 0.0575745000
0.1849718750 0.4838611250 0.0571150000
0.2228531250 0.4865043125 0.0567980000
0.2640955000 0.4881700625 0.0564935000
0.3076455000 0.4887582500 0.0561066250
0.3520778438 0.4882037500 0.0558670000
0.3959284375 0.4866875000 0.0552355000
0.4378065313 0.4841115625 0.0542850000
0.4771985000 0.4806450000 0.0536405000
0.5137176562 0.4764262500 0.0523556250
0.5474246250 0.4720540625 0.0510489375
0.5782791875 0.4678608438 0.0497194375
0.6067767500 0.4639786250 0.0483653750
0.6330672188 0.4605120312 0.0469864688
0.6573116875 0.4575427500 0.0455805000
0.6799203438 0.4552854063 0.0445040312
0.7009342500 0.4537907500 0.0437905000
0.7206675625 0.4530070312 0.0437680625
0.7394331875 0.4530930625 0.0444818125
0.7574064375 0.4541661250 0.0455390625
0.7747453750 0.4563257500 0.0473943750
0.7916654063 0.4595745312 0.0500937500
0.8082091250 0.4638488750 0.0534109375
0.8246063125 0.4690076875 0.0574747188
0.8407415000 0.4745830000 0.0618940000
0.0000000000 0.4814040625 0.0682780312
0.0019222188 0.4852461875 0.0679837188
0.0056922500 0.4893875625 0.0679837188
0.0203303750 0.4942610312 0.0674385000
0.0437308750 0.4995282188 0.0672105938
0.0695934375 0.5049725000 0.0668892188
0.0970404063 0.5103812813 0.0665895937
0.1260285312 0.5153771563 0.0660347187
0.1575293750 0.5197114063 0.0654773125
0.1922246563 0.5231839062 0.0648195625
0.2303044375 0.5254777187 0.0640902813
0.2714750625 0.5267325312 0.0635194063
0.3146564063 0.5269697187 0.0626802187
0.3583406250 0.5262347813 0.0623399688
0.4012867500 0.5247999062 0.0615151875
0.4424609688 0.5225193437 0.0606545000
0.4811820312 0.5194644375 0.0600403125
0.5173743750 0.5159231875 0.0588569688
0.5511050937 0.5118779687 0.0579858125
0.5822143125 0.5077312187 0.0567709063
0.6110600000 0.5037761875 0.0551945000
0.6376628750 0.5001776875 0.0541512188
0.6622288750 0.4970445000 0.0533075625
0.6849789687 0.4945453125 0.0521981563
0.7060714375 0.4927757188 0.0515355625
0.7258465000 0.4918421250 0.0515355625
0.7445593437 0.4918362813 0.0523179687
0.7623926250 0.4927644063 0.0537013125
0.7796275000 0.4948238750 0.0558661875
0.7964035938 0.4980577187 0.0589696875
0.8128699688 0.5024321563 0.0627688437
0.8290342187 0.5076048750 0.0669393437
0.8451067500 0.5132794063 0.0719046875
0.0007890000 0.5228100625 0.0761096875
0.0041398438 0.5267875625 0.0761096875
0.0112863750 0.5310373750 0.0761096875
0.0305570000 0.5356285938 0.0761096875
0.0538801250 0.5403788125 0.0758870000
0.0792598438 0.5454016875 0.0758233750
0.1064990000 0.5502545000 0.0754191875
0.1356812187 0.5547274375 0.0749326563
0.1673841875 0.5584728750 0.0742276250
0.2022529063 0.5613468125 0.0734416875
0.2405040000 0.5632387500 0.0725050000
0.2813724375 0.5641001250 0.0714815313
0.3239644375 0.5641071875 0.0704462500
0.3667068125 0.5633878750 0.0694847500
0.4086926250 0.5619896875 0.0686486250
0.4489632813 0.5599483125 0.0678649375
0.4870425000 0.5573484375 0.0670494375
