bundles/resolve-cinematic-luts/Gamut/ETHER/ETHER/Ether 04.cube
TITLE "Generated by 3D LUT Creator Pro (c) Oleg Sharonov"
# INPUTGAMMA sRGB
# IMAGEPROFILE sRGB
# OUTPUTGAMMA sRGB
# 
LUT_3D_SIZE 33
0.0362740000 0.0000000000 0.0542950000
0.0570420937 0.0000000000 0.0490275938
0.0721860000 0.0007890000 0.0448726250
0.0871652187 0.0022920313 0.0425861250
0.1010196250 0.0038443750 0.0410896250
0.1159169375 0.0047310000 0.0388864062
0.1313809375 0.0055200000 0.0365698750
0.1529931563 0.0063090000 0.0348695937
0.1810610000 0.0063090000 0.0319372500
0.2130260938 0.0055200000 0.0282654375
0.2464289375 0.0036468125 0.0243963750
0.2808139062 0.0018482188 0.0197393125
0.3152501250 0.0002958750 0.0150812500
0.3501004688 0.0000000000 0.0096351875
0.3844876250 0.0000000000 0.0041891250
0.4174250625 0.0000000000 0.0003698438
0.4462335000 0.0000000000 0.0000000000
0.4740018437 0.0000000000 0.0000000000
0.5012220000 0.0000000000 0.0000000000
0.5281452187 0.0000000000 0.0000000000
0.5535605000 0.0000000000 0.0000000000
0.5774198125 0.0000000000 0.0000000000
0.6007530625 0.0000000000 0.0000000000
0.6229442188 0.0000000000 0.0000000000
0.6438765000 0.0000000000 0.0000000000
0.6635043750 0.0000000000 0.0000000000
0.6816754375 0.0000000000 0.0000000000
0.6990084062 0.0000000000 0.0000000000
0.7154277500 0.0000000000 0.0000000000
0.7308173437 0.0000000000 0.0000000000
0.7452201875 0.0000000000 0.0000000000
0.7582962812 0.0000000000 0.0000000000
0.7718380000 0.0000000000 0.0000000000
0.0253818750 0.0341055625 0.0503690000
0.0520397813 0.0317898437 0.0490485938
0.0670049688 0.0317651875 0.0441854375
0.0814684375 0.0325778437 0.0419232500
0.0952129375 0.0333668437 0.0403380313
0.1096233750 0.0340563750 0.0387632812
0.1258848125 0.0348452187 0.0372109375
0.1464126250 0.0349931250 0.0356583750
0.1737420000 0.0343767500 0.0327015938
0.2058791875 0.0336131250 0.0295959063
0.2386007813 0.0320854062 0.0251607187
0.2730996250 0.0297440313 0.0205026875
0.3072152188 0.0269105000 0.0158455937
0.3421861562 0.0238540937 0.0104241875
0.3769147812 0.0207986562 0.0052982500
0.4104535938 0.0177432187 0.0007145938
0.4408023125 0.0146868125 0.0000000000
0.4683886563 0.0120011875 0.0000000000
0.4957974687 0.0093392812 0.0000000000
0.5229640625 0.0073929688 0.0000000000
0.5487793750 0.0050762813 0.0000000000
0.5732470938 0.0038197813 0.0000000000
0.5967779063 0.0038197813 0.0000000000
0.6194216563 0.0038197813 0.0000000000
0.6411494688 0.0038444375 0.0000000000
0.6612816563 0.0038444375 0.0000000000
0.6802241562 0.0046078125 0.0000000000
0.6981370625 0.0047310938 0.0000000000
0.7148717812 0.0053721563 0.0000000000
0.7307630625 0.0062350000 0.0000000000
0.7458369687 0.0077627500 0.0000000000
0.7599363750 0.0093151250 0.0000000000
0.7738020625 0.0115825625 0.0000000000
0.0236570000 0.0613993750 0.0463130625
0.0424304062 0.0607868750 0.0427672812
0.0624318750 0.0596157500 0.0418993750
0.0793944375 0.0596157500 0.0418063125
0.0930134375 0.0601777500 0.0403141250
0.1074945312 0.0602583750 0.0395521250
0.1236580000 0.0608086875 0.0379505000
0.1440570000 0.0608518750 0.0357816562
0.1710333125 0.0608518750 0.0334650000
0.2023954063 0.0593608750 0.0303602188
0.2353943125 0.0576145000 0.0264665625
0.2690328750 0.0557836563 0.0220557188
0.3033393750 0.0533086875 0.0173979375
0.3382972500 0.0500761875 0.0122227500
0.3732682500 0.0469640000 0.0072944375
0.4068265313 0.0438184375 0.0022669687
0.4374579375 0.0408720625 0.0003451875
0.4652783750 0.0378025937 0.0000000000
0.4926413125 0.0354859375 0.0000000000
0.5197029687 0.0331199062 0.0000000000
0.5459475000 0.0308038125 0.0000000000
0.5706414063 0.0288075937 0.0000000000
0.5944564375 0.0275511250 0.0000000000
0.6178486250 0.0267621250 0.0000000000
0.6397764375 0.0260233750 0.0000000000
0.6604593750 0.0261957500 0.0000000000
0.6798231250 0.0269593750 0.0000000000
0.6978714688 0.0277235000 0.0000000000
0.7151771250 0.0292266250 0.0000000000
0.7313946250 0.0314694375 0.0000000000
0.7466941875 0.0331203750 0.0000000000
0.7612390312 0.0361758437 0.0000000000
0.7755151250 0.0384925625 0.0000000000
0.0214398437 0.0875046250 0.0434021875
0.0407218125 0.0871076875 0.0404085937
0.0583008125 0.0862298437 0.0388364062
0.0755391563 0.0857643437 0.0387878438
0.0928880625 0.0849073437 0.0395028750
0.1087535938 0.0848593437 0.0395028750
0.1254105625 0.0852713438 0.0387879375
0.1455289375 0.0850110625 0.0372355937
0.1726957188 0.0849550625 0.0350173750
0.2038799375 0.0838010625 0.0319126563
0.2365048750 0.0824414063 0.0281915312
0.2699207813 0.0806386875 0.0243224687
0.3037335938 0.0782654688 0.0196653125
0.3387544062 0.0755902500 0.0150073437
0.3731706875 0.0725843438 0.0103501875
0.4068488750 0.0700092187 0.0056182500
0.4374406875 0.0671399375 0.0014296562
0.4652809688 0.0649462500 0.0003451875
0.4930086250 0.0626939687 0.0000000000
0.5199304375 0.0604450625 0.0000000000
0.5463366563 0.0583594687 0.0000000000
0.5710220625 0.0570785625 0.0000000000
0.5950435312 0.0558465312 0.0000000000
0.6184096562 0.0552325313 0.0000000000
0.6405746250 0.0547708125 0.0000000000
0.6614404375 0.0549073125 0.0000000000
0.6810640937 0.0555240938 0.0000000000
0.6993987188 0.0568562187 0.0000000000
0.7170236250 0.0590636875 0.0000000000
0.7335332187 0.0609511562 0.0000000000
0.7489431875 0.0636454375 0.0000000000
0.7637325938 0.0664656250 0.0000000000
0.7781237812 0.0695481875 0.0000000000
0.0191231250 0.1130643750 0.0410896250
0.0384921250 0.1123712812 0.0380980312
0.0558230000 0.1117231250 0.0364219375
0.0730502500 0.1113304688 0.0356831250
0.0892533750 0.1106275000 0.0357817500
0.1059626875 0.1105780000 0.0371369687
0.1256435625 0.1093055625 0.0372601250
0.1480055625 0.1092333750 0.0372355937
0.1758662500 0.1083792500 0.0356830000
0.2077570313 0.1076680313 0.0334650312
0.2406300625 0.1065819375 0.0298177500
0.2740369687 0.1051097187 0.0264665938
0.3076751250 0.1029993750 0.0219817500
0.3417385312 0.1009952500 0.0174225625
0.3760519375 0.0984312500 0.0134550000
0.4094851563 0.0963966250 0.0092160937
0.4397415000 0.0939641250 0.0052242500
0.4676255938 0.0921557812 0.0018975313
0.4951678125 0.0902269375 0.0003451875
0.5221329062 0.0885009062 0.0000000000
0.5484317500 0.0870246250 0.0000000000
0.5732680313 0.0857071875 0.0000000000
0.5973881250 0.0847180000 0.0000000000
0.6207648437 0.0841955000 0.0000000000
0.6429537500 0.0845875000 0.0000000000
0.6638106563 0.0851395000 0.0000000000
0.6836021875 0.0860472500 0.0000000000
0.7020611250 0.0877409687 0.0000000000
0.7196287500 0.0898937500 0.0000000000
0.7362795625 0.0924003125 0.0000000000
0.7518570000 0.0952116875 0.0000000000
0.7668828750 0.0983637500 0.0000000000
0.7813515000 0.1020687500 0.0000000000
0.0160175625 0.1385495000 0.0380984062
0.0353874062 0.1377005625 0.0356830625
0.0533044062 0.1373605937 0.0334157187
0.0700143125 0.1368565312 0.0325784062
0.0862028125 0.1363110625 0.0325784062
0.1030001875 0.1360274687 0.0333664062
0.1220024375 0.1359368125 0.0341307500
0.1483364062 0.1343580938 0.0349434063
0.1785859063 0.1335139688 0.0349434062
0.2118382812 0.1325943750 0.0333419062
0.2452645938 0.1314905000 0.0304588125
0.2789030625 0.1302883750 0.0273540938
0.3127851875 0.1285742813 0.0241252500
0.3469674062 0.1269095937 0.0202317812
0.3810535938 0.1251152188 0.0163380938
0.4138633750 0.1232707813 0.0123218125
0.4434437500 0.1216158125 0.0086989688
0.4711823438 0.1201484063 0.0053227500
0.4987128125 0.1185561250 0.0025628438
0.5256517187 0.1172246563 0.0007890000
0.5517437500 0.1160050625 0.0000000000
0.5764753750 0.1152670000 0.0000000000
0.6005975625 0.1146911563 0.0000000000
0.6240015313 0.1146305312 0.0000000000
0.6461285313 0.1150619375 0.0000000000
0.6669917187 0.1160387813 0.0000000000
0.6865726562 0.1174457187 0.0000000000
0.7050511250 0.1194272812 0.0000000000
0.7225360938 0.1219176875 0.0000000000
0.7391477500 0.1247092812 0.0000000000
0.7549150937 0.1277909375 0.0000000000
0.7699494375 0.1313394687 0.0000246562
0.7844061250 0.1350748750 0.0006657187
0.0114836250 0.1651330000 0.0343524375
0.0308526250 0.1644245000 0.0318879688
0.0488350625 0.1637459375 0.0303110000
0.0662638125 0.1632913125 0.0288324375
0.0826836875 0.1632258125 0.0286846875
0.0996895937 0.1629988750 0.0288324375
0.1187466250 0.1627537500 0.0294726875
0.1432594375 0.1626624687 0.0310252500
0.1779985000 0.1605641250 0.0324304375
0.2136102188 0.1592380938 0.0318386875
0.2484306250 0.1580788750 0.0303601875
0.2833082813 0.1570515000 0.0278712188
0.3178033750 0.1556350000 0.0250373750
0.3520821875 0.1539619063 0.0217847188
0.3861466875 0.1525755625 0.0186791875
0.4186779687 0.1511595000 0.0150073750
0.4475963750 0.1499035000 0.0116807500
0.4753715625 0.1489195313 0.0084280938
0.5027219375 0.1479496875 0.0056679375
0.5295290938 0.1468819062 0.0030066563
0.5554406250 0.1461248125 0.0011337500
0.5801974688 0.1456775000 0.0006410625
0.6041616875 0.1456210625 0.0000000000
0.6272326562 0.1459141875 0.0000000000
0.6491813125 0.1467359375 0.0000000000
0.6698256562 0.1480776250 0.0000000000
0.6894561875 0.1499240625 0.0000000000
0.7078372500 0.1522029688 0.0000000000
0.7252313750 0.1550013125 0.0000986250
0.7418129062 0.1581105000 0.0006410625
0.7575380625 0.1614861250 0.0007890000
0.7725999375 0.1652346875 0.0008136250
0.7871493125 0.1691176250 0.0014292500
0.0060375625 0.1924988125 0.0296945625
0.0255545000 0.1914876875 0.0273786250
0.0440715313 0.1915968125 0.0258008750
0.0618894687 0.1913781875 0.0249635625
0.0785150313 0.1913781875 0.0247909687
0.0961425625 0.1913781875 0.0248402812
0.1155356562 0.1915283437 0.0256038125
0.1403852188 0.1911722500 0.0271569687
0.1723566250 0.1905653125 0.0285367188
0.2132790625 0.1879204687 0.0294727188
0.2505845625 0.1866237813 0.0287339688
0.2860182812 0.1852327187 0.0272554688
0.3213531250 0.1839422500 0.0249140937
0.3566486562 0.1826684375 0.0227206562
0.3908873125 0.1815056563 0.0196159375
0.4231542500 0.1804258438 0.0171268437
0.4516456875 0.1796675938 0.0140219063
0.4794080000 0.1788585313 0.0109167187
0.5067422812 0.1782497500 0.0084280938
0.5333943437 0.1776770313 0.0058158750
0.5592412187 0.1774015000 0.0034745313
0.5838950938 0.1775718125 0.0019221875
0.6076527500 0.1778102500 0.0011583750
0.6305532188 0.1784787812 0.0007890000
0.6522082500 0.1795210312 0.0006164062
0.6727303750 0.1810793125 0.0006164062
0.6920020937 0.1832060625 0.0006164062
0.7102937500 0.1858824688 0.0007890000
0.7276281250 0.1889224062 0.0008875000
0.7440825312 0.1923076250 0.0014046250
0.7597756562 0.1959719375 0.0014539375
0.7748405625 0.1997994375 0.0022180312
0.7894494687 0.2038636250 0.0029816250
0.0005915000 0.2210975000 0.0244457500
0.0199605000 0.2210161250 0.0227207812
0.0386871250 0.2207108750 0.0211437500
0.0566895000 0.2208580625 0.0203794688
0.0736827500 0.2209812500 0.0203055000
0.0913096875 0.2212791875 0.0203055000
0.1117638125 0.2216120000 0.0209465625
0.1369012813 0.2214372500 0.0224989062
0.1692867500 0.2208755000 0.0240512500
0.2067828750 0.2197987187 0.0250375000
0.2491589375 0.2173234375 0.0256285000
0.2874664062 0.2156954375 0.0249141250
0.3240896250 0.2144288750 0.0241498750
0.3598397500 0.2132190000 0.0218093750
0.3944193750 0.2121365625 0.0200591875
0.4265073125 0.2111439688 0.0177183750
0.4554040000 0.2106005000 0.0153770000
0.4833112812 0.2101915938 0.0124695312
0.5106227500 0.2098045000 0.0101528125
0.5372359062 0.2097547500 0.0081568750
0.5629228750 0.2098230000 0.0058158750
0.5874456875 0.2102015313 0.0040658750
0.6109576250 0.2108888750 0.0029570000
0.6335127188 0.2118803438 0.0021687500
0.6550545000 0.2133702500 0.0013800000
0.6752770625 0.2153211875 0.0013800000
0.6942893125 0.2177345000 0.0013800000
0.7124227813 0.2206366875 0.0021687500
0.7296068750 0.2239582500 0.0022672500
0.7459698438 0.2274465938 0.0030309688
0.7616352500 0.2313018125 0.0037950000
0.7766305625 0.2354075000 0.0051504062
0.7912277500 0.2396172500 0.0059145000
0.0000000000 0.2518855938 0.0190243437
0.0139973437 0.2518458438 0.0180388125
0.0331940000 0.2518508125 0.0164857500
0.0509243750 0.2522047188 0.0156484375
0.0685820625 0.2525313125 0.0150813438
0.0866629687 0.2530398437 0.0149580625
0.1069313437 0.2536360000 0.0162886875
0.1328147813 0.2538762187 0.0178417813
0.1659048438 0.2538218750 0.0193941875
0.2028005938 0.2530199687 0.0209465313
0.2426892812 0.2515868438 0.0217355312
0.2858537187 0.2488865625 0.0219571562
0.3250751875 0.2470601875 0.0217355312
0.3618365937 0.2457332812 0.0202564375
0.3968755625 0.2447511250 0.0187038125
0.4291331250 0.2440394687 0.0171514687
0.4585204375 0.2435742188 0.0153770000
0.4866808125 0.2434165625 0.0132331562
0.5140797500 0.2433229063 0.0114838125
0.5407022500 0.2433854688 0.0093887187
0.5662030625 0.2437526875 0.0073682188
0.5905824063 0.2443765938 0.0060870937
0.6140079375 0.2454105313 0.0048299062
0.6363768125 0.2467402187 0.0040658438
0.6575428125 0.2484808437 0.0037210938
0.6775319063 0.2507536250 0.0034994688
0.6964284687 0.2534304063 0.0034994688
0.7142315938 0.2565963438 0.0038442187
0.7312773125 0.2600012500 0.0046080000
0.7475621250 0.2637346563 0.0058651875
0.7630712500 0.2677803125 0.0067027813
0.7781480938 0.2719777500 0.0076887187
0.7928379688 0.2764026250 0.0090194687
0.0000000000 0.2843228750 0.0136026250
0.0084279375 0.2849730000 0.0125927187
0.0271568750 0.2849730000 0.0110396875
0.0454426250 0.2854665625 0.0109903750
0.0630905000 0.2860561250 0.0102023750
0.0816430312 0.2867694375 0.0108672500
0.1024358750 0.2872809375 0.0116314375
0.1286720937 0.2880517500 0.0129374375
0.1621518750 0.2882936875 0.0147361250
0.1999917813 0.2878863125 0.0168311875
0.2387409375 0.2871595000 0.0178418125
0.2797342500 0.2853243437 0.0186051875
0.3228060000 0.2824343750 0.0186298125
0.3620714375 0.2805685937 0.0181619375
0.3980155000 0.2794335000 0.0171514375
0.4307534687 0.2788067187 0.0161408437
0.4608093125 0.2784073125 0.0148347500
0.4894290625 0.2782030625 0.0130361563
0.5170311250 0.2782938125 0.0114838125
0.5436517812 0.2784821563 0.0099308750
0.5692665625 0.2789800000 0.0086740000
0.5935115313 0.2797736875 0.0073682188
0.6167543125 0.2810863750 0.0066045000
0.6388513437 0.2826845000 0.0060624375
0.6598050625 0.2846075625 0.0052734375
0.6796083750 0.2871221250 0.0054460313
0.6983326875 0.2900559375 0.0058158750
0.7160226250 0.2933190625 0.0066041875
0.7329675625 0.2969421250 0.0073931875
0.7490737188 0.3008573438 0.0082551562
0.7646207500 0.3051420625 0.0097581875
0.7796285625 0.3094498125 0.0105718437
0.7943322500 0.3138941875 0.0121241875
0.0000000000 0.3183929375 0.0086989688
0.0030557812 0.3192212500 0.0071466250
0.0214642813 0.3196312188 0.0063825625
0.0401264062 0.3200805000 0.0056182813
0.0583136875 0.3208738125 0.0060620937
0.0769872188 0.3216326875 0.0062100313
0.0981090312 0.3228375625 0.0069742188
0.1249196563 0.3237256562 0.0090437187
0.1584580938 0.3243421562 0.0106700625
0.1966664375 0.3241041875 0.0129374688
0.2358685938 0.3233631563 0.0139727187
0.2758034687 0.3224007500 0.0147360938
0.3173855000 0.3204267813 0.0150073125
0.3598514688 0.3177290313 0.0155250937
0.3981450313 0.3161191875 0.0152538750
0.4318243438 0.3151790313 0.0144652187
0.4624593750 0.3147058125 0.0136768750
0.4915357500 0.3145121562 0.0128882187
0.5193992188 0.3145615938 0.0114838125
0.5462215937 0.3148835313 0.0102510000
0.5718640312 0.3154553750 0.0094630000
0.5961657500 0.3164472500 0.0084031250
0.6193109375 0.3177643438 0.0076147813
0.6413387500 0.3195576875 0.0076147813
0.6621121875 0.3216934063 0.0076147813
0.6817917187 0.3243790000 0.0076147813
0.7003767813 0.3274861875 0.0081319062
0.7179720312 0.3308815937 0.0089209062
0.7348065938 0.3347512813 0.0098075312
0.7508198125 0.3387942812 0.0112865625
0.7663406563 0.3431917188 0.0121242188
0.7813285625 0.3476494375 0.0136765625
0.7961440937 0.3523065312 0.0152289063
0.0000000000 0.3539580000 0.0040412500
0.0022920625 0.3551945938 0.0032528750
0.0168558125 0.3557045625 0.0029573750
0.0351902187 0.3564060313 0.0021683750
0.0538448750 0.3574143750 0.0021683750
0.0728404063 0.3584221563 0.0028340937
0.0946220625 0.3596248125 0.0035976250
0.1215645938 0.3608986875 0.0057664062
0.1553991250 0.3616853750 0.0074913750
0.1937960938 0.3618127187 0.0090437500
0.2335309375 0.3612883125 0.0105961875
0.2735877187 0.3604757813 0.0116313750
0.3140978750 0.3592442500 0.0121245000
0.3555715938 0.3571644063 0.0124203750
0.3961827500 0.3548375000 0.0129128750
0.4316021250 0.3533537500 0.0129128750
0.4633910000 0.3526247500 0.0122230000
0.4931668125 0.3523130625 0.0121245000
0.5214556250 0.3522853125 0.0113358750
0.5485881563 0.3525662187 0.0104235937
0.5743616250 0.3531790000 0.0096600000
0.5987163125 0.3541312812 0.0094630000
0.6219028125 0.3555171250 0.0091671250
0.6438492812 0.3574116250 0.0091671250
0.6645580000 0.3597253750 0.0091671250
0.6841334063 0.3625334063 0.0096596250
0.7026786250 0.3657287500 0.0104486250
0.7202165937 0.3692780625 0.0113603750
0.7369700000 0.3732201250 0.0129131250
0.7529850938 0.3774897500 0.0137504687
0.7684758125 0.3819761875 0.0157220625
0.7835097500 0.3866326875 0.0172744062
0.7983008750 0.3913478750 0.0191226250
0.0000000000 0.3916241875 0.0006406563
0.0022920625 0.3929914375 0.0003451563
0.0135537813 0.3938945938 0.0003205312
0.0317649687 0.3947619062 0.0003205312
0.0503302188 0.3958369687 0.0003205312
0.0699408437 0.3970784375 0.0009860000
0.0919716250 0.3985295938 0.0017495937
0.1196716875 0.3998881875 0.0033019375
0.1536288437 0.4009379375 0.0049775625
0.1921443438 0.4013134063 0.0071956250
0.2321357187 0.4010760625 0.0082800938
0.2725021250 0.4003443125 0.0095122500
0.3129161875 0.3991601563 0.0098077812
0.3530310625 0.3976270312 0.0105715312
0.3929611250 0.3954618125 0.0110153437
0.4303733438 0.3933926250 0.0113605312
0.4636756875 0.3921342812 0.0113605312
0.4943845625 0.3915325937 0.0113605312
0.5233153437 0.3912934687 0.0110400000
0.5508236562 0.3914050937 0.0110400000
0.5768842813 0.3919283750 0.0104235937
0.6013894687 0.3928292500 0.0102510000
0.6246826562 0.3942501563 0.0104975625
0.6466575313 0.3961803125 0.0107194687
0.6673557500 0.3985081875 0.0111879375
0.6869536875 0.4013748750 0.0119763437
0.7054379063 0.4046515937 0.0129130938
0.7230111875 0.4083727187 0.0144654688
0.7397126563 0.4123631875 0.0160179688
0.7557397500 0.4166834062 0.0175703125
0.7711085937 0.4212851250 0.0191719687
0.7861510000 0.4260051562 0.0211434687
0.8009291563 0.4308291875 0.0226962188
0.0000000000 0.4314595000 0.0000000000
0.0023167188 0.4330604062 0.0000000000
0.0114840000 0.4342965000 0.0000000000
0.0294236875 0.4352527500 0.0000000000
0.0486996875 0.4363400000 0.0000000000
0.0685684688 0.4376880312 0.0000000000
0.0911887500 0.4392283750 0.0007890000
0.1192380313 0.4407776562 0.0021934063
0.1533362500 0.4420148125 0.0038935000
0.1918511250 0.4424196875 0.0056432812
0.2318478125 0.4421565000 0.0070970000
0.2724098437 0.4412886250 0.0079598750
0.3128702500 0.4400370000 0.0087233125
0.3527116250 0.4386151875 0.0094630000
0.3915091250 0.4368351250 0.0102510000
0.4287503750 0.4348280313 0.0102510000
0.4633490625 0.4329581250 0.0110400000
0.4952242500 0.4318043437 0.0110400000
0.5249851875 0.4312253125 0.0113851875
0.5530124687 0.4311145625 0.0114838125
0.5794638125 0.4313935625 0.0114838125
0.6043325000 0.4321772500 0.0114838125
0.6277853750 0.4335213750 0.0122722500
0.6498870313 0.4353556562 0.0127160625
0.6707163125 0.4377659375 0.0137013125
0.6903238125 0.4406262187 0.0144654375
0.7087679375 0.4439270000 0.0160180000
0.7263919375 0.4476586875 0.0175703438
0.7430318750 0.4516976875 0.0195665000
0.7590021563 0.4560942813 0.0211188437
0.7743851250 0.4607088125 0.0234601250
0.7894325937 0.4655285312 0.0250371563
0.8041183125 0.4703643125 0.0273538750
0.0000000000 0.4724243125 0.0000000000
0.0023167188 0.4739533438 0.0000000000
0.0114840000 0.4754850625 0.0000000000
0.0290788437 0.4765062812 0.0000000000
0.0477905000 0.4778048437 0.0000000000
0.0683255000 0.4790985625 0.0004191562
0.0917485625 0.4805583125 0.0012076250
0.1201575313 0.4820720625 0.0026120312
0.1545147188 0.4831228437 0.0041643750
0.1927749375 0.4834690000 0.0057172500
0.2326822500 0.4831085312 0.0068507500
0.2733084688 0.4821866563 0.0078860000
0.3137012500 0.4808623750 0.0086740000
0.3534099375 0.4793456563 0.0094630000
0.3917434687 0.4776945000 0.0099062500
0.4284184688 0.4758655312 0.0106701562
0.4631778437 0.4740294375 0.0110400000
0.4959813750 0.4724894687 0.0114591562
0.5265352813 0.4714230625 0.0122476250
0.5552207812 0.4710465313 0.0122476250
0.5821830625 0.4710920625 0.0130361563
0.6074942813 0.4717269375 0.0134547813
0.6313167188 0.4728830312 0.0142437813
0.6536400312 0.4746810312 0.0152536875
0.6745328125 0.4769474375 0.0168063125
0.6941686250 0.4797911563 0.0177427500
0.7127383125 0.4831045312 0.0195418750
0.7302490000 0.4868535312 0.0214640625
0.7468962188 0.4908936875 0.0234354375
0.7628044063 0.4953136250 0.0257768125
0.7781631562 0.4999321250 0.0273785000
0.7931863125 0.5047898125 0.0296947188
0.8078413125 0.5096654375 0.0320109375
0.0000000000 0.5125400000 0.0003945000
0.0030800938 0.5142039375 0.0003945000
0.0122227500 0.5159266875 0.0003945000
0.0294728437 0.5169972500 0.0007890000
0.0487285000 0.5182322500 0.0011830000
0.0695732500 0.5194713750 0.0011830000
0.0936569375 0.5208704375 0.0023655000
0.1224214063 0.5223155000 0.0033761250
0.1568447500 0.5232447500 0.0049285000
0.1948736250 0.5235735000 0.0064810937
0.2345768125 0.5231766875 0.0080334375
0.2750831875 0.5222445000 0.0087976250
0.3153810000 0.5209597500 0.0095611250
0.3549055937 0.5194109375 0.0103253750
0.3930151250 0.5177654375 0.0106455000
0.4294034688 0.5160535937 0.0114345000
0.4639650000 0.5143030000 0.0122230000
0.4970583125 0.5127628750 0.0130115000
0.5282146875 0.5115163125 0.0133562500
0.5575984063 0.5108379375 0.0141205312
0.5851093750 0.5106437500 0.0149825000
0.6109547500 0.5110505938 0.0157715000
0.6351046875 0.5119601875 0.0168062500
0.6577463437 0.5136236250 0.0183591250
0.6788242500 0.5158327500 0.0199117500
0.6985915938 0.5186083437 0.0214640937
0.7171156875 0.5218659375 0.0234107500
0.7346038438 0.5255583750 0.0254809063
0.7512527500 0.5296495000 0.0277976250
0.7671293438 0.5339618437 0.0297194375
0.7824877500 0.5385804375 0.0327752500
0.7974057813 0.5433791875 0.0351408125
0.8120120000 0.5481955000 0.0374570000
0.0000000000 0.5517798438 0.0019468438
0.0042384375 0.5535760938 0.0019468438
0.0141695938 0.5551752812 0.0023162188
0.0313950625 0.5563539375 0.0023162188
0.0509663750 0.5575573437 0.0027353750
0.0721480937 0.5588568125 0.0034007188
0.0966059375 0.5601210625 0.0045342813
0.1258268438 0.5613815625 0.0057172500
0.1602310000 0.5622529062 0.0072698438
0.1980448125 0.5625509063 0.0086252188
0.2375553437 0.5621742188 0.0095858125
0.2777644687 0.5612402812 0.0103499688
0.3178748125 0.5599852188 0.0111139687
0.3571751562 0.5585256250 0.0118778437
0.3951914375 0.5569414688 0.0125682187
0.4314668437 0.5553515000 0.0133562187
0.4660494063 0.5537589063 0.0141452188
0.4990942500 0.5522701250 0.0149332188
0.5305111875 0.5509997813 0.0156975625
0.5602360312 0.5500888125 0.0164613750
0.5883277813 0.5497206875 0.0175950937
0.6146574063 0.5498770625 0.0183590937
0.6392005312 0.5506086875 0.0199117812
0.6620872187 0.5520343437 0.0214641250
0.6833992813 0.5540929375 0.0232134688
0.7032769062 0.5567158750 0.0255301875
0.7218791250 0.5599190937 0.0274277500
0.7393793438 0.5634969375 0.0297441563
0.7560120625 0.5675152187 0.0320601875
0.7718390625 0.5717713125 0.0351655312
0.7870836562 0.5762935625 0.0374816250
0.8019038750 0.5809138437 0.0401490625
0.8165136875 0.5856523438 0.0428118125
0.0000000000 0.5899884375 0.0046329375
0.0057419687 0.5917681563 0.0046329375
0.0172008125 0.5933764375 0.0053721250
0.0344997813 0.5945997188 0.0054213750
0.0538404375 0.5958020625 0.0057661250
0.0757092812 0.5969875937 0.0065551250
0.1007186875 0.5982223125 0.0076391875
0.1302553750 0.5993454062 0.0089206875
0.1645882500 0.6001263750 0.0099556875
0.2022335312 0.6004076875 0.0115080312
0.2415153125 0.6000466250 0.0122723750
0.2814375312 0.5992415625 0.0130360625
0.3214640625 0.5981002500 0.0138000625
0.3605713750 0.5967007813 0.0145638125
0.3983666250 0.5952245000 0.0153277500
0.4345062187 0.5936873437 0.0156729375
0.4690223750 0.5922223125 0.0164613750
