bundles/resolve-cinematic-luts/Phantom Luts/Apple Log Phantom LUTS/iPhone 15 Phantom Movie LUTs/65x/Eastman iPhone_15_65x.cube
TITLE "Generated by Resolve"
LUT_3D_SIZE 9
0.0390021 0.0390021 0.0390021
0.0390021 0.0390021 0.0390021
0.144259 0.0390021 0.0410315
0.293431 0.047715 0.0390021
0.414191 0.0613107 0.043946
0.506859 0.097673 0.0652934
0.588769 0.0988022 0.113375
0.600488 0.076936 0.189242
0.622034 0.114748 0.34139
0.0390021 0.0390021 0.0390021
0.0390021 0.0390021 0.0390021
0.0840772 0.0390021 0.0404364
0.25034 0.0496681 0.0390021
0.381247 0.0643168 0.0390021
0.455421 0.0875257 0.0391089
0.576425 0.113909 0.0887617
0.597086 0.0699779 0.15787
0.625147 0.112886 0.332494
0.0654612 0.0948806 0.0610208
0.0619974 0.0844739 0.0551003
0.118547 0.0929732 0.0560159
0.276081 0.0797131 0.0508125
0.374289 0.0803082 0.0390021
0.45597 0.0925612 0.0390021
0.505379 0.103151 0.0451209
0.586267 0.0772106 0.115038
0.612421 0.114351 0.30956
0.0772259 0.220279 0.0974899
0.0745403 0.230259 0.0686198
0.0756085 0.214801 0.0667124
0.323613 0.275471 0.090074
0.535851 0.244816 0.114336
0.61529 0.232212 0.123491
0.629511 0.200412 0.110674
0.506676 0.102205 0.0441901
0.571847 0.0787518 0.159304
0.0937209 0.425284 0.177905
0.0881208 0.434928 0.157946
0.0936751 0.442298 0.0980697
0.10248 0.437888 0.0818494
0.529732 0.511849 0.133516
0.705531 0.490135 0.166155
0.776104 0.440635 0.192844
0.776501 0.394095 0.187488
0.722591 0.296086 0.15584
0.134112 0.624689 0.355596
0.129259 0.61677 0.335271
0.125063 0.614389 0.304204
0.146639 0.61529 0.15111
0.292515 0.633143 0.150088
0.681956 0.690974 0.208865
0.823178 0.683711 0.232593
0.82359 0.668299 0.228473
0.804425 0.637415 0.222644
0.206989 0.773266 0.522713
0.202045 0.76527 0.507424
0.193103 0.753262 0.47451
0.171969 0.725536 0.387381
0.194751 0.680003 0.172427
0.581231 0.800214 0.23714
0.791653 0.804868 0.264134
0.856214 0.792416 0.277607
0.846418 0.779309 0.279072
0.215717 0.798367 0.598749
0.218067 0.797971 0.596735
0.218326 0.796872 0.583398
0.213413 0.788159 0.538308
0.171557 0.722362 0.384482
0.320531 0.709377 0.236332
0.704753 0.836454 0.291554
0.87512 0.844556 0.339742
0.873213 0.84564 0.347204
0.206043 0.799939 0.639597
0.209171 0.799146 0.635904
0.210544 0.79884 0.626841
0.210544 0.799222 0.607034
0.213184 0.797818 0.569177
0.217868 0.756817 0.458808
0.475608 0.760204 0.376364
0.814145 0.862776 0.433127
0.873335 0.862364 0.452201
0.0390021 0.0390021 0.0390021
0.0390021 0.0390021 0.0390021
0.162387 0.0390021 0.0868544
0.31429 0.0390021 0.0692302
0.423789 0.0403754 0.0539101
0.512215 0.0724041 0.08365
0.569039 0.0742809 0.13283
0.594888 0.093904 0.230747
0.611002 0.120211 0.357366
0.0390021 0.0390021 0.0390021
0.0390021 0.0390021 0.0390021
0.14609 0.0390021 0.0431067
0.292103 0.0520485 0.0390021
0.409415 0.0700084 0.0453498
0.506279 0.104341 0.0702831
0.587442 0.0934157 0.115434
0.598886 0.0812695 0.201678
0.6206 0.116091 0.349966
0.0625925 0.105287 0.0830396
0.0622568 0.105577 0.0675517
0.123583 0.099321 0.0577249
0.283375 0.0746471 0.0449989
0.372534 0.0755474 0.0390021
0.480766 0.102541 0.0487221
0.563363 0.117891 0.084596
0.576715 0.0750134 0.151202
0.614115 0.116365 0.330953
0.0795453 0.222004 0.121324
0.078294 0.227176 0.0998398
0.0798047 0.236042 0.0698863
0.325246 0.276997 0.0903182
0.536233 0.241566 0.11371
0.612268 0.228977 0.122591
0.626902 0.195315 0.107347
0.538964 0.112657 0.0599374
0.578424 0.0874495 0.19881
0.0973831 0.426703 0.207828
0.0906996 0.427863 0.181949
0.0923934 0.439399 0.143877
0.096437 0.434958 0.0822156
0.528466 0.509804 0.132982
0.703792 0.486122 0.16524
0.774166 0.435752 0.192401
0.77644 0.3888 0.186191
0.716075 0.287434 0.155291
0.137652 0.629206 0.370275
0.13257 0.6206 0.351949
0.125917 0.612375 0.317845
0.131823 0.605722 0.173953
0.285969 0.628672 0.148486
0.679103 0.686931 0.207263
0.820859 0.679088 0.230076
0.821973 0.663096 0.226658
0.802472 0.629801 0.220798
0.207553 0.774227 0.528817
0.202869 0.766125 0.513283
0.194522 0.754665 0.481804
0.174166 0.728771 0.400595
0.171557 0.678782 0.196628
0.568429 0.794919 0.236118
0.78613 0.795926 0.267201
0.855207 0.784237 0.291417
0.840635 0.769894 0.295033
0.215641 0.798306 0.600183
0.21796 0.79794 0.597971
0.218082 0.79707 0.584039
0.213687 0.789563 0.540764
0.174273 0.728466 0.399435
0.298939 0.706767 0.250294
0.694453 0.836027 0.302068
0.872389 0.846098 0.34963
0.873289 0.847272 0.358633
0.206149 0.799908 0.639582
0.209339 0.7991 0.636057
0.210575 0.79884 0.626703
0.210391 0.799237 0.606897
0.213245 0.798123 0.571511
0.215763 0.759945 0.465126
0.468452 0.758404 0.375525
0.809216 0.863416 0.436606
0.873503 0.86334 0.457252
0.0390021 0.0390021 0.0550393
0.0904555 0.0390021 0.0775311
0.16611 0.0390021 0.108034
0.304143 0.0390021 0.13434
0.430274 0.0390021 0.103807
0.521645 0.0607004 0.125399
0.572122 0.0842756 0.183337
0.608164 0.108705 0.276616
0.61416 0.121996 0.378836
0.0443122 0.0414588 0.0530404
0.0390021 0.0390021 0.0727855
0.15697 0.0390021 0.105486
0.317769 0.0390021 0.0771496
0.42974 0.0462348 0.0541848
0.521798 0.0757 0.0894636
0.574823 0.0749523 0.147997
0.610559 0.0992752 0.254078
0.62356 0.118013 0.374426
0.0599222 0.110079 0.0963607
0.0571756 0.108598 0.0965591
0.118639 0.102968 0.104555
0.298573 0.0856031 0.0876173
0.413062 0.0858015 0.0612802
0.529061 0.0978866 0.0927443
0.583246 0.0883192 0.118288
0.588403 0.0899519 0.215122
0.617411 0.118349 0.359823
0.0785229 0.223468 0.144839
0.0792859 0.226886 0.132982
0.0820325 0.227726 0.110201
0.330373 0.286503 0.146075
0.551659 0.253956 0.164843
0.635309 0.245304 0.17496
0.666255 0.218784 0.172549
0.584955 0.0902266 0.112673
0.596246 0.108064 0.262562
0.103563 0.435645 0.248096
0.0972457 0.432074 0.228824
0.0955673 0.429328 0.185122
0.0937362 0.423682 0.104051
0.526726 0.508598 0.160723
0.701579 0.473915 0.200336
0.784421 0.432059 0.240726
0.794186 0.388556 0.241672
0.741451 0.3019 0.229252
0.142992 0.637995 0.393545
0.139025 0.630167 0.38056
0.131991 0.619074 0.351751
0.124254 0.607965 0.262547
0.268345 0.61503 0.157824
0.67425 0.680201 0.227253
0.820096 0.658732 0.267994
0.824628 0.638941 0.272969
0.806607 0.595682 0.271824
0.208911 0.777539 0.542977
0.204654 0.770108 0.528389
0.198779 0.760113 0.502007
0.178973 0.732021 0.428321
0.155016 0.686046 0.256077
0.537331 0.782696 0.25716
0.784329 0.796094 0.29955
0.854978 0.775402 0.337469
0.855039 0.763348 0.340352
0.215122 0.798184 0.60499
0.217395 0.797864 0.60354
0.218341 0.797833 0.592187
0.215152 0.793103 0.554147
0.183062 0.742412 0.430274
0.273213 0.708522 0.287617
0.660319 0.830991 0.335744
0.867536 0.850858 0.376181
0.872084 0.851926 0.385351
0.205875 0.799878 0.642176
0.209018 0.799146 0.63827
0.210224 0.798917 0.629297
0.210758 0.798993 0.612528
0.213031 0.798657 0.578103
0.217731 0.7682 0.481621
0.452094 0.756329 0.399145
0.806058 0.86659 0.453437
0.874601 0.865843 0.473884
0.0390021 0.0390021 0.145266
0.133394 0.0390021 0.207721
0.22356 0.0390021 0.206561
0.300984 0.0390021 0.20499
0.424277 0.0393988 0.21976
0.548028 0.0912795 0.246845
0.598566 0.115679 0.290089
0.604349 0.12166 0.350591
0.617288 0.121736 0.420539
0.0403906 0.0684977 0.118898
0.0390021 0.0390021 0.171542
0.146639 0.0390021 0.232364
0.301961 0.0390021 0.207248
0.428916 0.0416876 0.207752
0.550286 0.0882887 0.222202
0.594293 0.112612 0.272251
0.606699 0.120012 0.343755
0.628 0.118608 0.421042
0.0511482 0.121157 0.140932
0.0399786 0.10425 0.158572
0.0687877 0.0977493 0.180209
0.280278 0.0680858 0.197757
0.424155 0.0541695 0.174334
0.560708 0.095201 0.234791
0.591928 0.111894 0.265507
0.604379 0.119432 0.330724
0.623163 0.121004 0.412406
0.0654917 0.221515 0.184253
0.0641947 0.221408 0.184665
0.0636606 0.220417 0.184787
0.332769 0.311208 0.307652
0.586618 0.288136 0.303746
0.701045 0.252506 0.279973
0.715572 0.215122 0.274479
0.604837 0.108385 0.276432
0.607614 0.12163 0.359655
0.103426 0.439078 0.301076
0.102007 0.439445 0.298375
0.104677 0.440513 0.288579
0.105074 0.426108 0.23563
0.53724 0.532845 0.327932
0.724544 0.480247 0.328862
0.815473 0.449393 0.345708
0.816632 0.412222 0.346319
0.776761 0.306325 0.328099
0.147143 0.648142 0.440299
0.145724 0.64329 0.433127
0.143847 0.63856 0.416754
0.132067 0.61387 0.349279
0.240528 0.615 0.285039
0.669734 0.688045 0.332174
0.816129 0.624704 0.356191
0.83032 0.604959 0.359335
0.824475 0.574014 0.360403
0.208057 0.778241 0.568444
0.204913 0.773068 0.555154
0.202686 0.768032 0.539528
0.193347 0.750088 0.492287
0.175525 0.717235 0.397086
0.443549 0.732036 0.30724
0.773388 0.795972 0.376242
0.872404 0.759716 0.407996
0.862165 0.737163 0.408057
0.213779 0.798077 0.616556
0.216159 0.797436 0.614206
0.216693 0.797925 0.605081
0.217609 0.797269 0.583658
0.203708 0.771542 0.497597
0.290028 0.728908 0.391608
0.578958 0.801907 0.381933
0.846922 0.861708 0.443778
0.868116 0.86038 0.444251
0.205432 0.799435 0.651499
0.208286 0.799023 0.647181
0.209583 0.798978 0.638346
0.211032 0.798703 0.624765
0.212451 0.798917 0.593423
0.217746 0.782544 0.51313
0.447578 0.764797 0.451987
0.788861 0.873884 0.513588
0.877638 0.874525 0.522667
0.0390021 0.0431983 0.263661
0.0506447 0.0446937 0.302083
0.174548 0.0390021 0.334676
0.335882 0.0390021 0.319692
0.424353 0.0482032 0.312795
0.54548 0.0937057 0.361471
0.613581 0.124529 0.411475
0.604929 0.120531 0.434226
0.591897 0.117296 0.455817
0.0390021 0.065919 0.224384
0.0390021 0.0431067 0.254261
0.0435187 0.0442359 0.2907
0.315099 0.0390021 0.329473
0.428107 0.0497139 0.317525
0.553841 0.0975357 0.364996
0.611154 0.125017 0.408881
0.603571 0.120851 0.43444
0.596063 0.116335 0.458045
0.0390021 0.108064 0.237217
0.0390021 0.0895247 0.249714
0.0390021 0.0784466 0.252094
0.245747 0.0512398 0.319142
0.396887 0.042237 0.291081
0.556451 0.0993515 0.37026
0.609659 0.124681 0.415671
0.60235 0.121752 0.433249
0.594064 0.116625 0.456458
0.0475624 0.22974 0.254444
0.0457923 0.221225 0.258854
0.041474 0.213352 0.267842
0.219944 0.288167 0.384848
0.544808 0.256718 0.45594
0.717296 0.26389 0.456886
0.737423 0.239536 0.458991
0.611597 0.127779 0.409842
0.596628 0.11751 0.441764
0.0879835 0.446845 0.373877
0.0870222 0.444068 0.372793
0.0879377 0.442817 0.371145
0.0846113 0.412375 0.344732
0.541497 0.552651 0.536187
0.750072 0.502876 0.501961
0.840299 0.466026 0.482979
0.83093 0.427878 0.489982
0.800534 0.327214 0.500069
0.142733 0.648493 0.491279
0.141405 0.643656 0.486168
0.140169 0.639246 0.476875
0.13901 0.632029 0.454459
0.304173 0.656855 0.477043
0.693767 0.708385 0.52961
0.831296 0.642374 0.505364
0.8542 0.635538 0.511986
0.855909 0.602792 0.514733
0.20235 0.773236 0.597177
0.199145 0.768017 0.586435
0.197589 0.763851 0.577081
0.195544 0.757046 0.55581
0.181094 0.724788 0.486488
0.442191 0.737102 0.467826
0.785397 0.806104 0.519493
0.873121 0.749691 0.520989
0.860655 0.732738 0.52401
0.213031 0.797848 0.642878
0.214145 0.797604 0.636606
0.214191 0.797787 0.626154
0.215351 0.797696 0.612512
0.218128 0.795819 0.575555
0.334081 0.770428 0.508431
0.554055 0.794553 0.485054
0.85008 0.878706 0.54612
0.873549 0.874556 0.558007
0.208804 0.796414 0.67686
0.208347 0.797559 0.666804
0.207904 0.79855 0.656046
0.210651 0.798383 0.647593
0.214054 0.797833 0.626673
0.219257 0.793713 0.569238
0.505806 0.799985 0.569802
0.789822 0.887922 0.612314
0.883162 0.894652 0.624323
0.0390021 0.0499886 0.32697
0.0390021 0.0522774 0.34696
0.0688487 0.0486305 0.389929
0.291157 0.0450294 0.427741
0.456123 0.0712291 0.417411
0.550607 0.102296 0.432044
0.595438 0.120897 0.469154
0.599481 0.12639 0.487068
0.605875 0.132692 0.511772
0.0390021 0.0773022 0.315068
0.0390021 0.0620584 0.324712
0.0390021 0.0515908 0.320806
0.170047 0.0390021 0.389853
0.417777 0.0572366 0.391699
0.557 0.105715 0.439475
0.596399 0.122011 0.472862
0.601282 0.126085 0.488533
0.607141 0.133288 0.515023
0.0390021 0.124132 0.332815
0.0390021 0.110979 0.341863
0.0390021 0.0969253 0.332784
0.133211 0.0841077 0.401022
0.421683 0.078996 0.411017
0.521279 0.0913863 0.408438
0.596475 0.122667 0.474662
0.600931 0.12723 0.491142
0.608362 0.133547 0.517082
0.0390021 0.263432 0.368765
0.0390021 0.25098 0.372091
0.0390021 0.239261 0.378149
0.116289 0.256397 0.421454
0.522011 0.266789 0.570123
0.659403 0.24564 0.548043
0.754101 0.25452 0.586114
0.631083 0.152987 0.498512
0.60296 0.1299 0.501488
0.0807507 0.480323 0.464012
0.0795453 0.476127 0.463493
0.0783703 0.471901 0.464576
0.0714275 0.428885 0.432212
0.458824 0.531106 0.621347
0.741833 0.490425 0.661021
0.8654 0.465217 0.64065
0.860319 0.430167 0.649134
0.812604 0.331228 0.631983
0.139315 0.651331 0.560906
0.136339 0.645945 0.552117
0.134386 0.641062 0.547677
0.131212 0.633356 0.539925
0.303853 0.649866 0.578027
0.698604 0.724163 0.699794
0.851011 0.674083 0.665003
0.874693 0.652522 0.66215
0.87335 0.607111 0.66479
0.196078 0.769345 0.638453
0.19321 0.764263 0.629816
0.191073 0.759121 0.621653
0.188037 0.751308 0.604929
0.173571 0.716945 0.557626
0.540856 0.78967 0.66389
0.806226 0.82887 0.692805
0.888579 0.784787 0.674479
0.884077 0.773159 0.67718
0.209735 0.796536 0.67393
0.210895 0.796918 0.667643
0.211261 0.797513 0.659434
0.21265 0.797848 0.647257
0.215381 0.797604 0.623285
0.3458 0.811673 0.612772
0.627253 0.845853 0.665034
0.87393 0.902251 0.694484
0.904082 0.890517 0.698558
0.208301 0.796216 0.692775
0.208453 0.796002 0.688487
0.208545 0.796048 0.683192
0.209445 0.796323 0.676402
0.212009 0.797375 0.659266
0.216266 0.793408 0.615106
0.571069 0.84831 0.690883
0.786358 0.897963 0.720653
0.902235 0.922652 0.735622
0.0390021 0.0686809 0.362676
0.0390021 0.0636606 0.36495
0.0390021 0.0593881 0.364752
0.117205 0.0561379 0.427497
0.382773 0.0649424 0.459632
0.527993 0.101106 0.467491
0.608026 0.134478 0.520378
0.613764 0.14023 0.54696
0.61561 0.142199 0.558328
0.0390021 0.134218 0.39086
0.0390021 0.124331 0.393011
0.0390021 0.110292 0.383383
0.0840162 0.1037 0.432624
0.404944 0.115846 0.509544
0.559365 0.135348 0.50312
0.605478 0.132494 0.501198
0.615015 0.140734 0.550591
0.615732 0.142168 0.55845
0.0390021 0.194339 0.413306
0.0390021 0.18407 0.415641
0.0390021 0.167468 0.407675
0.098085 0.17821 0.462989
0.446754 0.191333 0.583032
0.631495 0.209506 0.579599
0.689632 0.206226 0.57792
0.610651 0.135485 0.518242
0.616495 0.141878 0.558877
0.0390021 0.329915 0.471901
0.0390021 0.318288 0.472023
0.0390021 0.313909 0.473503
0.0944076 0.310094 0.489311
0.40296 0.312947 0.647456
0.697581 0.320119 0.662898
0.78761 0.314199 0.661006
0.76556 0.273915 0.642069
0.616129 0.141497 0.528023
0.0882429 0.520729 0.547738
0.0862135 0.514763 0.547875
0.0834363 0.507744 0.549676
0.0738842 0.469657 0.521202
0.377966 0.524468 0.650004
0.735088 0.521874 0.763668
0.838376 0.465232 0.725948
0.857816 0.431556 0.722789
0.824826 0.36759 0.693599
0.14403 0.666819 0.610376
0.141802 0.660243 0.607385
0.138598 0.654276 0.602747
0.134051 0.64332 0.600641
0.284001 0.640696 0.630381
0.64889 0.711482 0.769146
0.850614 0.672251 0.786755
0.907469 0.634501 0.775418
0.901656 0.582345 0.764355
0.193103 0.767697 0.670176
0.190112 0.761379 0.664729
0.186389 0.755734 0.656992
0.182498 0.747662 0.649302
0.16759 0.709453 0.611337
0.560113 0.791211 0.740658
0.81207 0.839429 0.811948
0.908614 0.809049 0.789776
0.905303 0.787076 0.786099
0.208057 0.796399 0.696178
0.208316 0.796201 0.692409
0.207965 0.796231 0.688014
0.208377 0.796155 0.681453
0.210681 0.796857 0.668727
0.367864 0.806043 0.672358
0.696773 0.886275 0.791165
0.891752 0.918807 0.808957
0.922377 0.904097 0.813123
0.21146 0.803754 0.717052
0.210269 0.800641 0.709422
0.208927 0.797818 0.702113
0.207965 0.796445 0.695674
0.208545 0.795911 0.68687
0.229511 0.791089 0.649165
0.602426 0.87837 0.772061
0.817441 0.92282 0.819196
0.915465 0.945098 0.827848
0.0390021 0.213855 0.45301
0.0390021 0.218784 0.457633
0.0390021 0.20705 0.448783
0.100404 0.242329 0.519219
0.340673 0.2477 0.637522
0.654826 0.289021 0.701747
0.769802 0.301183 0.696406
0.773404 0.28072 0.686183
0.656657 0.177752 0.593576
0.0390021 0.283909 0.487221
0.0390021 0.284276 0.489158
0.0390021 0.266041 0.475898
0.105348 0.298024 0.540917
0.333715 0.292714 0.655421
0.674189 0.326314 0.732631
0.790158 0.330526 0.717632
0.799496 0.310613 0.708034
0.711223 0.224537 0.640146
0.0410315 0.344045 0.522133
0.0410468 0.344152 0.523705
0.0390021 0.323568 0.506798
0.119829 0.355795 0.569848
0.341512 0.34609 0.68127
0.699962 0.375235 0.769268
0.809445 0.368597 0.739025
0.821439 0.349599 0.731563
0.775784 0.283253 0.693172
0.0673381 0.447318 0.573938
0.0662699 0.442496 0.573404
0.064332 0.435386 0.569085
0.116762 0.434424 0.590906
0.340902 0.442054 0.692622
0.704173 0.45388 0.812863
0.828199 0.42977 0.768109
0.843427 0.405554 0.755062
0.826719 0.358083 0.737926
0.10959 0.578164 0.617395
0.107713 0.571694 0.61706
0.106081 0.567193 0.618067
0.0958877 0.537331 0.593835
0.336553 0.566567 0.686397
0.611536 0.551156 0.811109
0.848524 0.547951 0.81561
0.874632 0.507134 0.790127
0.862867 0.461814 0.778027
0.154864 0.690181 0.656306
0.151812 0.68336 0.652781
0.148882 0.676875 0.649958
0.139605 0.655528 0.63566
0.28751 0.657191 0.678203
0.596139 0.699702 0.795727
0.844297 0.703365 0.868864
0.905089 0.649943 0.831586
0.897368 0.613519 0.821118
0.195926 0.774136 0.69366
0.192279 0.767254 0.690776
0.18883 0.760266 0.687099
0.183642 0.751171 0.682414
0.183719 0.719249 0.657526
0.555032 0.775235 0.785107
0.780026 0.833371 0.866499
0.919493 0.799283 0.872358
0.919676 0.776898 0.86656
0.211383 0.803861 0.717281
0.211475 0.803815 0.717479
0.211444 0.8038 0.717083
0.210285 0.802747 0.712886
0.203128 0.785916 0.688624
0.385412 0.799619 0.72192
0.720882 0.890532 0.85034
0.900862 0.926177 0.897978
0.929885 0.915557 0.892836
0.211475 0.803815 0.717479
0.211475 0.803815 0.717479
0.211475 0.803815 0.717479
0.211307 0.803906 0.717113
0.211337 0.803479 0.715984
0.25156 0.7935 0.692683
0.631266 0.879576 0.820188
0.85481 0.943847 0.900206
0.926589 0.956497 0.904479
0.0698558 0.456687 0.587823
0.064271 0.435447 0.575753
0.0703441 0.449912 0.582925
0.156024 0.476524 0.632517
0.328115 0.49543 0.699367
0.575921 0.4925 0.80763
0.83267 0.521187 0.827298
0.874891 0.499886 0.797894
0.868391 0.477836 0.789883
0.0821241 0.498726 0.603296
0.0751812 0.477363 0.59176
0.0785077 0.485267 0.594263
0.1691 0.505821 0.639902
0.344594 0.524834 0.70489
0.584772 0.516838 0.81268
0.840909 0.542229 0.833661
0.879118 0.51722 0.804089
0.872633 0.493111 0.795682
0.093431 0.531945 0.61178
0.0881819 0.517052 0.60383
0.0913405 0.522362 0.604639
0.193057 0.540627 0.65069
0.372137 0.560983 0.714977
0.600366 0.550942 0.819532
0.85034 0.570428 0.841276
0.884901 0.542596 0.812909
0.878614 0.515846 0.803647
0.111955 0.583169 0.625834
0.105699 0.566232 0.616724
0.106294 0.568017 0.616037
0.199023 0.582498 0.656016
0.385153 0.601938 0.719875
0.595071 0.597498 0.819776
0.853208 0.613031 0.85655
0.892439 0.578912 0.824704
0.887358 0.55024 0.815961
0.139528 0.654948 0.644526
0.133715 0.641032 0.638956
0.128405 0.627283 0.630854
0.172183 0.63505 0.650568
0.388373 0.651499 0.725948
0.600183 0.673045 0.81738
0.847318 0.682628 0.882429
0.902937 0.642634 0.844358
0.898741 0.614404 0.835874
0.170352 0.723995 0.673518
0.167681 0.7187 0.671412
0.161639 0.705242 0.664576
0.15198 0.68394 0.649241
0.351461 0.701823 0.718441
0.609308 0.743465 0.814557
0.786816 0.758068 0.889815
0.916884 0.730449 0.871763
0.913222 0.706447 0.864118
0.204211 0.790372 0.706477
0.199649 0.781613 0.699489
0.195987 0.77348 0.694652
0.180117 0.743297 0.674784
0.269169 0.745037 0.698268
0.575509 0.79173 0.807721
0.773877 0.848219 0.880217
0.918944 0.837278 0.902434
0.924819 0.818082 0.89575
0.211414 0.803845 0.717342
0.211475 0.803815 0.717479
0.211475 0.803815 0.717479
0.21117 0.803967 0.716823
0.199329 0.779553 0.68719
0.44007 0.814679 0.756924
0.731319 0.893797 0.872007
0.899535 0.931731 0.922835
0.93193 0.92314 0.924056
0.211475 0.803815 0.717479
0.211475 0.803815 0.717479
0.211475 0.803815 0.717479
0.211292 0.803906 0.717098
0.211444 0.803738 0.717281
0.317143 0.798444 0.717037
0.658396 0.887022 0.845548
0.869062 0.948226 0.919966
0.930861 0.958877 0.930129
