bundles/resolve-cinematic-luts/Phantom Luts/Apple Log Phantom LUTS/iPhone 15 Phantom Movie LUTs/65x/EastmanRM iPhone_15_65x.cube
TITLE "Generated by Resolve"
LUT_3D_SIZE 65
0.0431525 0.034699 0.0379187
0.0431525 0.034699 0.0379034
0.0431373 0.0347143 0.0379187
0.043122 0.0347295 0.0379339
0.0430915 0.0347601 0.0379797
0.0430304 0.0347906 0.0380407
0.0429847 0.0348363 0.0380865
0.0429541 0.0348516 0.038117
0.0430915 0.0347448 0.0379797
0.0433967 0.0345159 0.0376135
0.0441749 0.0342107 0.0370489
0.0488899 0.0332494 0.0365148
0.0602426 0.0328222 0.0364843
0.0785229 0.0328679 0.0369726
0.100603 0.0332036 0.0379492
0.121691 0.0336767 0.0390936
0.139956 0.0338903 0.040116
0.15848 0.0339818 0.0413672
0.175586 0.033814 0.042237
0.193744 0.0336156 0.043122
0.211414 0.0331579 0.043473
0.231983 0.0327764 0.044358
0.252995 0.0322881 0.0450294
0.2748 0.0318151 0.0457771
0.296147 0.0313573 0.0463264
0.316274 0.0310216 0.0460365
0.336507 0.0309148 0.0463569
0.354162 0.0310369 0.0468452
0.371191 0.0314183 0.0478676
0.387778 0.0321813 0.0484321
0.404456 0.0321965 0.0500801
0.420951 0.0332494 0.0536202
0.437491 0.0345159 0.0576333
0.452735 0.0360418 0.0625315
0.465232 0.0380255 0.0693523
0.474678 0.0397192 0.0762493
0.486183 0.0415961 0.0826276
0.499458 0.0430304 0.0890974
0.513268 0.0445106 0.0947738
0.526436 0.046479 0.101549
0.53872 0.0487373 0.108354
0.54992 0.051667 0.115023
0.560769 0.0553445 0.122988
0.57261 0.0594492 0.131365
0.584024 0.0639963 0.140368
0.594064 0.0668345 0.146593
0.600931 0.0683757 0.15111
0.607385 0.0688945 0.153094
0.608499 0.067277 0.153811
0.603052 0.062562 0.153414
0.602167 0.0625925 0.15845
0.603906 0.0646372 0.165545
0.606058 0.0668803 0.173022
0.609995 0.0705272 0.182422
0.614038 0.0746929 0.191318
0.62063 0.0807355 0.20267
0.628809 0.087602 0.216938
0.638086 0.0954604 0.23537
0.643748 0.101579 0.258518
0.647166 0.107225 0.282994
0.650339 0.112505 0.306767
0.652873 0.117327 0.329366
0.655634 0.123156 0.350652
0.65655 0.128435 0.371862
0.656016 0.135332 0.395758
0.0435645 0.0343938 0.0373693
0.0432746 0.0346075 0.0377508
0.0431373 0.0347143 0.0379187
0.043122 0.0347295 0.0379339
0.0430915 0.0347448 0.0379797
0.0430304 0.0347906 0.0380407
0.0429847 0.0348363 0.0380865
0.0429541 0.0348516 0.038117
0.0429541 0.0348516 0.038117
0.0430915 0.0347601 0.0379797
0.0433967 0.0345617 0.0376287
0.047013 0.0337987 0.0368658
0.0557717 0.0330358 0.0365606
0.0717937 0.0327611 0.0366522
0.0927596 0.0329747 0.0372931
0.114473 0.0331884 0.0382696
0.135058 0.0331426 0.0388037
0.154513 0.0333562 0.0397345
0.171984 0.0329595 0.0399329
0.190661 0.0328679 0.0406653
0.209766 0.0322881 0.0410163
0.229725 0.0317082 0.0414588
0.250874 0.0310674 0.041825
0.271595 0.0306249 0.0420233
0.292592 0.030045 0.0422675
0.31429 0.029572 0.0423438
0.334829 0.0289311 0.0424964
0.353689 0.0289616 0.043122
0.370565 0.0290837 0.0438544
0.387045 0.0301061 0.0450752
0.403388 0.0305486 0.0463569
0.41915 0.0307012 0.047837
0.433906 0.0309911 0.0495003
0.447303 0.0318608 0.0525063
0.458351 0.0331731 0.0574197
0.467338 0.0349737 0.0643626
0.478477 0.0371099 0.0724041
0.492943 0.040177 0.0807355
0.508797 0.0428321 0.0887617
0.522469 0.0454108 0.0959182
0.535546 0.0481117 0.103746
0.546807 0.0511177 0.110887
0.558602 0.0547341 0.118959
0.570184 0.059205 0.127733
0.581659 0.0631723 0.136645
0.590692 0.0655222 0.142245
0.598154 0.0672313 0.146548
0.605997 0.0682231 0.149508
0.610574 0.0683757 0.153017
0.605814 0.0645457 0.153124
0.601373 0.061738 0.155215
0.60325 0.06392 0.16286
0.60557 0.0664225 0.171054
0.608881 0.0694133 0.179522
0.613397 0.0741131 0.189609
0.619684 0.07953 0.20058
0.627665 0.0863203 0.21445
0.637339 0.0946822 0.233204
0.643091 0.100877 0.256001
0.646998 0.106844 0.281346
0.65005 0.112093 0.305272
0.65275 0.117128 0.328237
0.655589 0.122927 0.349767
0.65658 0.128435 0.371771
0.656031 0.135241 0.395315
0.0435645 0.0343938 0.0373693
0.0432746 0.0346075 0.0377508
0.0431525 0.034699 0.0379187
0.043122 0.0347295 0.0379492
0.0430915 0.0347448 0.0379797
0.0430304 0.0347906 0.0380407
0.0429847 0.0348363 0.0380865
0.0429541 0.0348516 0.038117
0.0429541 0.0348516 0.038117
0.0430915 0.0347601 0.0379797
0.0433967 0.0345159 0.0376287
0.0460822 0.0339818 0.0369421
0.0535439 0.0330053 0.0364996
0.0671092 0.0327764 0.0366064
0.0864424 0.0330358 0.0372168
0.108568 0.033051 0.0378729
0.130053 0.0333867 0.0387732
0.150301 0.0333867 0.0394903
0.168124 0.0330816 0.0397955
0.186557 0.0328985 0.0402838
0.205173 0.0323491 0.0406653
0.226871 0.031632 0.0409857
0.248966 0.0311131 0.0416114
0.270542 0.0305791 0.0418708
0.291798 0.0299535 0.0421759
0.313008 0.0294499 0.0422217
0.333852 0.0288243 0.0424201
0.353704 0.0285496 0.0425727
0.371191 0.0284276 0.0429847
0.387381 0.028275 0.0436255
0.402731 0.0289769 0.0438544
0.417487 0.0287633 0.0445106
0.431678 0.0291295 0.0460212
0.444495 0.0295567 0.0482185
0.455177 0.0309453 0.0526741
0.464103 0.0328222 0.0588846
0.475074 0.0349279 0.0657969
0.487312 0.0370489 0.0731212
0.501869 0.0397498 0.0806744
0.517723 0.0433661 0.0902113
0.531029 0.0465553 0.0985733
0.543786 0.0501259 0.107332
0.555917 0.0541238 0.115648
0.56791 0.0587015 0.12491
0.580148 0.0627451 0.133974
0.588327 0.0646372 0.138918
0.596063 0.065919 0.14313
0.604364 0.0675822 0.146777
0.610071 0.0682994 0.150607
0.609323 0.0671244 0.153643
0.601877 0.0619364 0.15375
0.602579 0.0631876 0.160678
0.604822 0.0657969 0.169009
0.608011 0.0685283 0.177661
0.612497 0.0731823 0.187488
0.618936 0.0787976 0.199283
0.626627 0.0852827 0.212665
0.636622 0.0939956 0.231144
0.642756 0.100481 0.254215
0.64686 0.106584 0.280079
0.649851 0.111833 0.304234
0.652674 0.117006 0.32752
0.655573 0.122896 0.349691
0.656641 0.128466 0.371756
0.655924 0.135256 0.395575
0.0435645 0.0343938 0.0373693
0.0432746 0.0346075 0.0377508
0.0431525 0.034699 0.0379187
0.043122 0.0347295 0.0379339
0.0430915 0.0347448 0.0379797
0.0430304 0.0347906 0.0380407
0.0429847 0.0348363 0.0380865
0.0429541 0.0348516 0.038117
0.0429541 0.0348516 0.038117
0.0430915 0.0347601 0.0379797
0.0433967 0.0345312 0.0376135
0.0448615 0.0341344 0.0370031
0.0505226 0.0331426 0.0364843
0.0612497 0.0327459 0.0364691
0.0771344 0.0328832 0.0368048
0.0994736 0.0331273 0.0375677
0.121843 0.0334173 0.0383917
0.141421 0.0334173 0.03888
0.16025 0.0335088 0.0396124
0.177981 0.0330358 0.039765
0.197711 0.0327153 0.0402991
0.219043 0.0318914 0.0405585
0.242893 0.0313268 0.0410773
0.266011 0.0307164 0.041474
0.287419 0.030045 0.0418555
0.308934 0.029572 0.0420539
0.331411 0.0288701 0.0423896
0.352285 0.0286412 0.0427863
0.371191 0.0284276 0.043061
0.388037 0.0282597 0.0436408
0.403693 0.0289006 0.0438087
0.418189 0.0284581 0.0441596
0.432105 0.0284733 0.0449073
0.444465 0.0285954 0.0464637
0.452476 0.0289006 0.0483406
0.460182 0.0303044 0.0530098
0.470726 0.0323644 0.0599832
0.483925 0.0348821 0.0679637
0.4972 0.0373388 0.0751354
0.510842 0.0407263 0.0836652
0.52668 0.045182 0.0944533
0.541375 0.049485 0.10428
0.55407 0.0537118 0.113527
0.566613 0.0581521 0.12221
0.578408 0.0622568 0.131456
0.584955 0.0646525 0.138048
0.590692 0.0655375 0.142367
0.598596 0.0674144 0.147433
0.6056 0.0682536 0.151034
0.609415 0.0678874 0.153841
0.602731 0.0623178 0.152728
0.602213 0.0626383 0.158831
0.604303 0.0651408 0.167376
0.60705 0.0678264 0.176028
0.611704 0.0724041 0.186069
0.617823 0.0780194 0.197589
0.625666 0.0844434 0.211139
0.635187 0.0928969 0.22977
0.642786 0.100359 0.253056
0.646616 0.106279 0.278538
0.649744 0.111696 0.3037
0.652628 0.11693 0.327123
0.655573 0.122866 0.349645
0.656687 0.128496 0.371817
0.655879 0.135378 0.396323
0.0435645 0.0343938 0.0373693
0.0432746 0.0346075 0.0377508
0.0431525 0.034699 0.0379187
0.043122 0.0347295 0.0379339
0.0430915 0.0347448 0.0379797
0.0430304 0.0347906 0.0380407
0.0429847 0.0348363 0.0380865
0.0429541 0.0348516 0.038117
0.0429541 0.0348516 0.038117
0.0430915 0.0347601 0.0379797
0.0433967 0.0345464 0.0376287
0.0443122 0.0342107 0.0370642
0.0486458 0.0333104 0.0364996
0.057084 0.0328069 0.0363928
0.0703593 0.0327306 0.0365911
0.0906539 0.0332189 0.0371405
0.113085 0.0337072 0.0379034
0.131731 0.0338598 0.0382544
0.150439 0.0341497 0.0389258
0.167895 0.0336309 0.0390021
0.187335 0.0332799 0.0399176
0.208026 0.032578 0.040177
0.232502 0.0317082 0.0405737
0.257389 0.030808 0.0408179
0.282658 0.0301976 0.0413519
0.305364 0.0296178 0.0417639
0.328252 0.0290074 0.0423438
0.349172 0.0287633 0.0429541
0.369253 0.0285039 0.0432136
0.387701 0.028275 0.0436713
0.403922 0.0289006 0.0438087
0.418723 0.0284428 0.0441749
0.432868 0.0284581 0.0449378
0.445106 0.0285954 0.0465248
0.453101 0.028809 0.0482643
0.45922 0.0295872 0.0509651
0.466865 0.0302434 0.0544594
0.477546 0.0317693 0.060029
0.491524 0.0344854 0.0686656
0.505837 0.0383612 0.0793774
0.520623 0.0424811 0.0891127
0.535973 0.0472267 0.0997787
0.552071 0.0530404 0.110842
0.56524 0.0576486 0.120302
0.576196 0.0617075 0.129137
0.582116 0.0639811 0.135164
0.587198 0.0649882 0.140978
0.592447 0.067155 0.14815
0.598917 0.0694133 0.155261
0.602472 0.0686046 0.158038
0.602625 0.0656901 0.157458
0.600671 0.0623331 0.157885
0.603891 0.064622 0.165423
0.606531 0.0673686 0.174456
0.611139 0.0717784 0.185199
0.617258 0.0773632 0.196353
0.624949 0.0838331 0.209827
0.634165 0.0921798 0.228489
0.64268 0.100145 0.251896
0.64651 0.106157 0.277836
0.649714 0.111666 0.303471
0.652644 0.116976 0.327382
0.655589 0.122942 0.349798
0.656703 0.128573 0.372045
0.655863 0.13547 0.396857
0.0435645 0.0343938 0.0373693
0.0432746 0.0346075 0.0377508
0.0431525 0.034699 0.0379187
0.043122 0.0347295 0.0379339
0.0430915 0.0347448 0.0379797
0.0430304 0.0347906 0.0380407
0.0429847 0.0348363 0.0380865
0.0429541 0.0348516 0.038117
0.0429541 0.0348516 0.038117
0.0430915 0.0347601 0.0379797
0.0433967 0.0345464 0.0376287
0.0442817 0.0341955 0.0370489
0.0471962 0.0336614 0.0366064
0.0538338 0.0327916 0.0362554
0.0650339 0.0328985 0.0365759
0.0831006 0.0334325 0.0370947
0.104616 0.0340581 0.037583
0.124071 0.0347448 0.038117
0.141909 0.0351263 0.0386358
0.158465 0.0348211 0.0387427
0.177127 0.0345922 0.0391241
0.197833 0.0337835 0.0394598
0.221622 0.0327611 0.0395361
0.24802 0.0314946 0.0405127
0.273503 0.0305333 0.0406043
0.299092 0.0295872 0.0411536
0.323095 0.0292058 0.041886
0.345937 0.0286412 0.0425269
0.36701 0.0285954 0.0433967
0.386252 0.0283513 0.0438392
0.403861 0.0289158 0.0438544
0.419333 0.0284428 0.0442054
0.433661 0.0284581 0.0449836
0.445747 0.0286107 0.0466163
0.453803 0.0288701 0.0483253
0.460075 0.0296178 0.051133
0.467048 0.0301366 0.0539864
0.474617 0.030518 0.0567178
0.484993 0.0319982 0.0618753
0.49868 0.0354772 0.0719615
0.513848 0.0399329 0.083238
0.529961 0.0449836 0.0949111
0.545052 0.0497902 0.105684
0.562081 0.0565957 0.117525
0.574136 0.0611429 0.126543
0.580209 0.0632334 0.133104
0.585153 0.0648508 0.139162
0.590173 0.0664225 0.146105
0.595743 0.068925 0.154437
0.598611 0.0693828 0.160418
0.600046 0.0682536 0.163088
0.596368 0.0625772 0.160403
0.601938 0.0645762 0.165805
0.606119 0.0669413 0.173129
0.610636 0.0712749 0.183978
0.616678 0.0767681 0.195377
0.62414 0.0832074 0.208331
0.633707 0.0918441 0.22742
0.642542 0.0999924 0.251225
0.646326 0.105928 0.276738
0.649668 0.111589 0.303059
0.652644 0.116991 0.327489
0.655558 0.122881 0.349691
0.656703 0.128634 0.372229
0.655909 0.135576 0.397375
0.0435645 0.0343938 0.0373693
0.0432746 0.0346075 0.0377356
0.0431525 0.034699 0.0379187
0.043122 0.0347143 0.0379339
0.0430915 0.0347448 0.0379797
0.0430304 0.0347906 0.0380407
0.0429847 0.0348363 0.0380865
0.0429541 0.0348516 0.038117
0.0429541 0.0348516 0.038117
0.0430915 0.0347601 0.0379797
0.0433967 0.0345464 0.0376287
0.0443122 0.0341955 0.0370489
0.0465095 0.0337377 0.0366674
0.0513924 0.0329595 0.0362554
0.060853 0.03299 0.0364691
0.0771649 0.0336767 0.0369573
0.0972152 0.0346838 0.0374456
0.117235 0.0357366 0.038056
0.134234 0.0365148 0.0386053
0.150103 0.0364538 0.0387121
0.168154 0.0364233 0.0390478
0.18764 0.0357214 0.0392004
0.210712 0.0346685 0.0394598
0.237003 0.0333715 0.0396887
0.264607 0.0317235 0.039826
0.291508 0.0304112 0.0407111
0.316808 0.0297246 0.0415198
0.34078 0.0289464 0.0422522
0.362936 0.0287785 0.0432746
0.383871 0.0285039 0.0442512
0.402014 0.0290379 0.0441596
0.419471 0.0284733 0.0443275
0.434287 0.0284428 0.0450141
0.446372 0.0286107 0.0466621
0.45449 0.0288701 0.0483711
0.460746 0.029633 0.0512551
0.46772 0.0301823 0.0543221
0.475044 0.0305638 0.0568246
0.484504 0.031632 0.0606546
0.494224 0.0335851 0.0669871
0.506996 0.0373236 0.0770275
0.522332 0.0419776 0.0884871
0.538384 0.047013 0.100526
0.554955 0.0528573 0.112139
0.571893 0.0601816 0.124086
0.577783 0.0624704 0.130602
0.58291 0.0644999 0.137407
0.588357 0.0657664 0.143801
0.594079 0.0682689 0.152483
0.597269 0.0699016 0.160449
0.596719 0.0684977 0.164538
0.59234 0.0639811 0.164202
0.597375 0.0651102 0.169223
0.60354 0.0670787 0.174624
0.610086 0.0709239 0.183459
0.615839 0.0762036 0.194369
0.623682 0.0827802 0.207553
0.633844 0.0918593 0.226978
0.642359 0.099855 0.250507
0.646235 0.105821 0.276356
0.649699 0.11162 0.303212
0.652644 0.117006 0.32755
0.655604 0.123064 0.350317
0.656703 0.12871 0.372503
0.656001 0.135744 0.397986
0.0435645 0.0343938 0.0373693
0.0432746 0.0346075 0.0377508
0.0431525 0.034699 0.0379187
0.043122 0.0347143 0.0379339
0.0430915 0.0347448 0.0379797
0.0430304 0.0347906 0.0380407
0.0429847 0.0348363 0.0380865
0.0429541 0.0348516 0.038117
0.0429541 0.0348516 0.038117
0.0430915 0.0347601 0.0379797
0.0433967 0.0345159 0.0376287
0.0442206 0.0342107 0.0370489
0.0460517 0.0337377 0.0366827
0.0498207 0.0331579 0.036286
0.0574197 0.0331884 0.0364385
0.071931 0.0340581 0.0368658
0.0907149 0.0354772 0.0374304
0.110628 0.036759 0.0382086
0.127825 0.037705 0.0387884
0.143252 0.0379034 0.0388495
0.161364 0.0380865 0.0392004
0.179751 0.0374762 0.0393378
0.201358 0.036759 0.0394293
0.227314 0.0352483 0.0396887
0.254994 0.0332189 0.0396124
0.284031 0.0315557 0.0402075
0.311208 0.0303655 0.0411994
0.335927 0.0293736 0.041886
0.359442 0.0289616 0.0430457
0.380743 0.0285954 0.0437018
0.400961 0.0292363 0.0446174
0.41799 0.0286412 0.0447395
0.434333 0.0285039 0.0452277
0.446662 0.0286259 0.0467994
0.455238 0.0288853 0.0484169
0.461601 0.0296635 0.0514076
0.468269 0.0301671 0.0542306
0.475563 0.0305333 0.0568551
0.483879 0.0313726 0.0598154
0.492515 0.0333257 0.0647593
0.503273 0.0359655 0.0728161
0.515953 0.0396735 0.0822461
0.532967 0.0449989 0.0956741
0.549844 0.0503395 0.107942
0.565927 0.0569467 0.11957
0.57525 0.0617533 0.128664
0.581277 0.0639048 0.135134
0.586938 0.0651408 0.141588
0.592645 0.0677653 0.150332
0.597116 0.0700694 0.159487
0.595682 0.0684977 0.164431
0.591165 0.0653544 0.167025
0.592874 0.0656901 0.172168
0.598978 0.0678264 0.17847
0.606699 0.0710307 0.185336
0.614755 0.0759289 0.194247
0.623316 0.0824598 0.206867
0.633768 0.0917678 0.22623
0.641978 0.0996109 0.250141
0.646189 0.105745 0.276097
0.649653 0.111559 0.303014
0.652689 0.117067 0.327886
0.655619 0.12311 0.350545
0.656703 0.128862 0.373053
0.656153 0.135927 0.398581
0.0435645 0.0344091 0.0373846
0.0432746 0.0346075 0.0377508
0.0431525 0.034699 0.0379187
0.043122 0.0347143 0.0379339
0.0430915 0.0347448 0.0379797
0.0430304 0.0347906 0.0380407
0.0429847 0.0348363 0.0380865
0.0429541 0.0348516 0.038117
0.0429541 0.0348516 0.038117
0.0430915 0.0347448 0.0379797
0.0433967 0.0345159 0.0376135
0.0440986 0.0342107 0.0370489
0.0456092 0.033814 0.0367132
0.0487068 0.0333715 0.036347
0.0552071 0.0336156 0.0364843
0.0673075 0.0346532 0.03682
0.0852216 0.0364233 0.0375219
0.103944 0.038117 0.0383917
0.120912 0.0396277 0.0390326
0.136629 0.0403601 0.0392462
0.153979 0.0408331 0.0395972
0.172473 0.0402991 0.0395972
0.193774 0.0390478 0.0397498
0.218494 0.0373846 0.0396429
0.246372 0.03505 0.0395972
0.275715 0.0330968 0.0399023
0.305089 0.031342 0.0403296
0.331716 0.0299229 0.0416114
0.355962 0.0293431 0.0427558
0.377157 0.0286717 0.0433204
0.381216 0.0301976 0.0484321
0.40032 0.0303349 0.0495003
0.416281 0.0299992 0.0498817
0.430701 0.0299535 0.0511025
0.441718 0.0300603 0.0526131
0.450172 0.0306554 0.0555123
0.458061 0.0310674 0.0578164
0.466194 0.0315251 0.0607462
0.475486 0.0320897 0.0628824
0.485634 0.033051 0.0648203
0.500725 0.03505 0.069749
0.516228 0.0381628 0.0776684
0.531777 0.0422217 0.0871443
0.550378 0.0480812 0.101183
0.56527 0.0537575 0.11191
0.577081 0.0597696 0.122042
0.584115 0.0625467 0.129717
0.589578 0.0641642 0.136538
0.595865 0.066331 0.144762
0.601129 0.0690776 0.153979
0.600076 0.0677958 0.159442
0.596414 0.0655528 0.163577
0.594934 0.0648814 0.169177
0.598932 0.0677348 0.177905
0.604944 0.071046 0.186038
0.613077 0.0759289 0.195056
0.622629 0.0823835 0.206531
0.633585 0.0916457 0.225895
0.641688 0.0994278 0.249714
0.64622 0.105791 0.276249
0.649668 0.111589 0.30309
0.65275 0.117144 0.328313
0.655665 0.123232 0.351034
0.657496 0.128817 0.372976
0.658289 0.135424 0.396582
0.0440833 0.0340581 0.0369116
0.0438392 0.034226 0.0371099
0.0437171 0.0343023 0.0372168
0.0436866 0.0343175 0.0372473
0.0436103 0.0343633 0.0373083
0.043534 0.0344244 0.0374304
0.043473 0.0344701 0.0375067
0.0434424 0.0344854 0.0375525
0.0434272 0.0344854 0.0375677
0.0434272 0.0345006 0.0375677
0.0435187 0.0344396 0.0374456
0.0438087 0.0343023 0.0372015
0.0448463 0.0340581 0.0368811
0.0474861 0.033753 0.0365301
0.0532845 0.0342107 0.0365911
0.0635538 0.035523 0.0368658
0.0801251 0.0373999 0.0377813
0.0981613 0.0393378 0.0384985
0.11577 0.0411383 0.0392004
0.131304 0.0422065 0.0394598
0.148669 0.0429541 0.0400549
0.167056 0.0431067 0.0403449
0.18674 0.0424964 0.0403449
0.209964 0.0401312 0.0399176
0.238025 0.0371099 0.0395819
0.268193 0.0348974 0.0399481
0.297963 0.0325933 0.0400092
0.325978 0.0310826 0.0404669
0.349981 0.0300298 0.0428016
0.368673 0.0294957 0.0443275
0.38381 0.0298466 0.0469368
0.400397 0.0301366 0.0487221
0.415549 0.0301671 0.0502327
0.429709 0.0300755 0.0517891
0.441108 0.0301976 0.0530861
0.450294 0.0307622 0.0559243
0.458473 0.0310979 0.0580911
0.466712 0.0315557 0.0609598
0.474281 0.0324102 0.063859
0.482979 0.0334783 0.0663615
0.493538 0.0347295 0.0689555
0.510567 0.0376745 0.0770428
0.52723 0.0414893 0.0848859
0.544579 0.0458381 0.0962539
0.561105 0.0520485 0.109209
0.573693 0.0582284 0.119417
0.582498 0.0620432 0.128313
0.588602 0.0640879 0.135164
0.594827 0.0658427 0.143236
0.600366 0.0688487 0.153063
0.601373 0.0685435 0.159701
0.596765 0.0658427 0.163165
0.594369 0.0647898 0.168948
0.597528 0.0678721 0.178485
0.603021 0.0712902 0.187518
0.610712 0.0760967 0.196979
0.620981 0.0822461 0.207599
0.633158 0.091371 0.225345
0.641199 0.0991684 0.249714
0.646265 0.105837 0.276371
0.649744 0.111696 0.303624
0.652781 0.117205 0.328771
0.655741 0.12343 0.35172
0.657526 0.128939 0.373419
0.658473 0.135714 0.39762
0.0440986 0.0340581 0.0369268
0.0438392 0.034226 0.0371099
0.0437171 0.0343023 0.0372168
0.0436866 0.0343328 0.0372473
0.0436103 0.0343633 0.0373236
0.0435187 0.0344244 0.0374456
0.043473 0.0344701 0.0375067
0.0434424 0.0344854 0.0375525
0.0434424 0.0344854 0.0375677
0.0434272 0.0345006 0.0375677
0.0435187 0.0344396 0.0374456
0.0437476 0.034287 0.0371862
0.0445411 0.034165 0.0369116
0.0466773 0.0340734 0.0365911
0.0516365 0.0348363 0.0366369
0.0610971 0.0361639 0.0369726
0.0760815 0.0383917 0.0378424
0.0943923 0.0404974 0.0384527
0.112032 0.0423133 0.0392309
0.128252 0.043473 0.0396887
0.144945 0.0444495 0.0401617
0.162875 0.0449989 0.0405432
0.181979 0.0449073 0.041001
0.203586 0.0430915 0.0406195
0.231327 0.0402686 0.0402533
0.26125 0.03682 0.0397803
0.291218 0.0342107 0.0398718
0.321614 0.0319982 0.0406043
0.346151 0.0305943 0.0425269
0.36611 0.0298466 0.0441138
0.382528 0.029984 0.04654
0.398535 0.0302586 0.0480507
0.415183 0.0301671 0.0502327
0.429129 0.0301976 0.0522316
0.440223 0.0303655 0.0537728
0.449592 0.0309148 0.0566415
0.458412 0.0311894 0.0586862
0.466865 0.0316167 0.0614023
0.474571 0.032517 0.0641947
0.483619 0.0336614 0.0667887
0.493538 0.0349432 0.0682078
0.505913 0.036286 0.0719921
0.524956 0.040528 0.0832227
0.541756 0.0446326 0.0933394
0.557809 0.0504616 0.106416
0.57084 0.0569009 0.117449
0.580804 0.0614481 0.126558
0.587549 0.0638285 0.134188
0.593729 0.0654765 0.141878
0.599695 0.0685435 0.152163
0.602762 0.0697032 0.160281
0.596414 0.0655528 0.162325
0.594064 0.064622 0.168276
0.59704 0.0677958 0.178363
0.601587 0.0714427 0.188571
0.608469 0.0762646 0.19884
0.61886 0.0824903 0.209552
0.631662 0.0914168 0.226505
0.641062 0.0990921 0.249592
0.646296 0.105882 0.276524
0.649851 0.111818 0.304158
0.652796 0.117235 0.328923
0.655818 0.123583 0.352255
0.657603 0.129091 0.373922
0.658549 0.135821 0.39794
0.0441749 0.0341955 0.0369268
0.0438849 0.0343328 0.0371099
0.0437476 0.0343786 0.0372168
0.0436866 0.0343633 0.0372473
0.0436103 0.0343786 0.0373236
0.0435187 0.0344396 0.0374456
0.043473 0.0344701 0.0375219
0.0434424 0.0344854 0.0375525
0.0434424 0.0344854 0.0375677
0.0434272 0.0344854 0.0375677
0.0435187 0.0344396 0.0374456
0.0438239 0.0344244 0.037232
0.0448768 0.0345159 0.0368811
0.0472877 0.0351568 0.0367132
0.0525216 0.0365148 0.0369421
0.0615396 0.0383307 0.0375525
0.074342 0.0406958 0.0381628
0.0921187 0.0429541 0.0389105
0.109606 0.0440528 0.0395056
0.126345 0.0451972 0.0399023
0.143099 0.0463417 0.0402075
0.161425 0.0472114 0.0407416
0.179202 0.0471351 0.0410163
0.200229 0.0465248 0.0414282
0.225681 0.0436255 0.0409552
0.254185 0.0402533 0.0403143
0.285176 0.0362554 0.0398718
0.315877 0.0335546 0.0404364
0.342123 0.0314488 0.0417487
0.363638 0.0302739 0.0438849
0.38056 0.0301518 0.0464637
0.398184 0.0304112 0.0479896
0.415 0.0300908 0.0500191
0.429633 0.0302281 0.0523995
0.439979 0.030457 0.0542458
0.449134 0.0310826 0.0571298
0.45774 0.0313268 0.0594797
0.466545 0.0317388 0.0620584
0.474418 0.0326696 0.0645457
0.484001 0.0338598 0.0674907
0.493614 0.0351263 0.0684672
0.505547 0.0365454 0.0702831
0.518151 0.0376135 0.0781415
0.537835 0.0429999 0.0907912
0.553124 0.0486305 0.103426
0.567956 0.0556344 0.115221
0.579232 0.0608377 0.1252
0.586145 0.0634928 0.133104
0.591974 0.0650797 0.140719
0.599039 0.0681926 0.150958
0.603769 0.0708934 0.160479
0.59527 0.0648203 0.160952
0.593866 0.0645609 0.167819
0.596735 0.067628 0.177798
0.600534 0.0712596 0.188479
0.606744 0.0763714 0.199802
0.616297 0.0827192 0.21149
0.629328 0.091371 0.227619
0.640467 0.0994888 0.25066
0.646326 0.105913 0.276585
0.649775 0.111727 0.303807
0.652842 0.117281 0.329198
0.655833 0.123598 0.352331
0.65771 0.129183 0.374334
0.658503 0.135897 0.398337
0.0443885 0.0367742 0.0373083
0.0442359 0.0370489 0.0376745
0.0441138 0.037232 0.0378424
0.0439612 0.0367895 0.0377661
0.0436255 0.0362402 0.0375525
0.0435035 0.0357061 0.0376135
0.0433967 0.0353399 0.0376287
0.0433661 0.035172 0.0376287
0.0433509 0.0350195 0.0376135
0.0433661 0.0350652 0.0376287
0.0434882 0.0355535 0.037705
0.0442817 0.0366674 0.0378424
0.047013 0.0381018 0.0381933
0.0515145 0.0401465 0.0382086
0.0584268 0.0425422 0.0383307
0.0693675 0.0455634 0.0391852
0.0822156 0.0483864 0.0396277
0.0982071 0.050248 0.0399786
0.114183 0.0511177 0.0403449
0.130556 0.0513008 0.0407721
0.147295 0.0512703 0.0413214
0.163973 0.0510719 0.0415503
0.182086 0.0510109 0.041886
0.201587 0.0498054 0.0418555
0.223911 0.0480201 0.0417029
0.25214 0.0442664 0.0414282
0.282277 0.0395514 0.0407263
0.311543 0.0354467 0.0402533
0.337362 0.0328374 0.0417639
0.360769 0.0308995 0.0438239
0.379355 0.0303502 0.0462806
0.39675 0.0304112 0.0475929
0.414099 0.0300603 0.0497292
0.429847 0.0301976 0.0521706
0.440711 0.0305028 0.0544594
0.449271 0.0311742 0.0573892
0.457481 0.0314641 0.0601968
0.465797 0.0319524 0.0626535
0.473854 0.0328527 0.0652628
0.483925 0.0341344 0.0680247
0.493751 0.0353399 0.0689403
0.505821 0.036759 0.0704204
0.517525 0.0378424 0.0740673
0.531579 0.0404212 0.0865339
0.547585 0.0462348 0.0991379
0.564492 0.0540322 0.112261
0.57615 0.0598917 0.122728
0.5841 0.0628824 0.131304
0.590341 0.0645914 0.138827
0.597604 0.0677501 0.149126
0.602441 0.070161 0.158907
0.596674 0.0660258 0.161425
0.59472 0.065156 0.168002
0.596063 0.0672923 0.176806
0.600015 0.0709087 0.18761
0.605402 0.076173 0.199786
0.614237 0.0828107 0.212818
0.626032 0.0914321 0.229908
0.639078 0.0999924 0.251637
0.645396 0.105852 0.276539
