bundles/resolve-cinematic-luts/Phantom Luts/Apple Log Phantom LUTS/iPhone 15 Phantom Movie LUTs/65x/Eastman iPhone_15_65x.cube
TITLE "Generated by Resolve"
LUT_3D_SIZE 65
0.0390021 0.0390021 0.0390021
0.0390021 0.0390021 0.0390021
0.0390021 0.0390021 0.0390021
0.0390021 0.0390021 0.0390021
0.0390021 0.0390021 0.0390021
0.0390021 0.0390021 0.0390021
0.0390021 0.0390021 0.0390021
0.0390021 0.0390021 0.0390021
0.0390021 0.0390021 0.0390021
0.0390021 0.0390021 0.0390021
0.0402991 0.0390021 0.0390021
0.0509957 0.0390021 0.0390021
0.0686656 0.0390021 0.0390021
0.0872969 0.0390021 0.0390021
0.105745 0.0390021 0.0400092
0.124575 0.0390021 0.0407111
0.144259 0.0390021 0.0410315
0.165057 0.0390021 0.0409705
0.18497 0.0408942 0.0397345
0.203769 0.0421759 0.0390021
0.222492 0.043534 0.0390021
0.241169 0.0447242 0.0390021
0.258808 0.0454871 0.0390021
0.275807 0.046479 0.0390021
0.293431 0.047715 0.0390021
0.310094 0.0486305 0.0390021
0.326314 0.0495155 0.0390021
0.341238 0.0505379 0.0390021
0.355795 0.0518807 0.0390021
0.370535 0.0524605 0.0390021
0.385168 0.0543374 0.039704
0.399695 0.0579232 0.041825
0.414191 0.0613107 0.043946
0.426139 0.0658122 0.0452277
0.436164 0.0708476 0.0469062
0.443931 0.0767681 0.0480659
0.453986 0.0818647 0.0501869
0.466072 0.0866102 0.053315
0.479988 0.0905776 0.056672
0.493263 0.0941329 0.0607919
0.506859 0.097673 0.0652934
0.520653 0.101427 0.0707408
0.533959 0.103914 0.0763409
0.547845 0.106432 0.0828565
0.561563 0.108003 0.0897993
0.574243 0.108492 0.09691
0.582895 0.107225 0.103151
0.586511 0.103624 0.108659
0.588769 0.0988022 0.113375
0.588586 0.0916304 0.11574
0.587839 0.0830549 0.117113
0.581735 0.0708476 0.115129
0.581765 0.0690623 0.12546
0.585687 0.0700084 0.140017
0.590234 0.0716411 0.155825
0.595376 0.0734722 0.171695
0.600488 0.076936 0.189242
0.605081 0.0808576 0.206806
0.610147 0.0868849 0.225925
0.616037 0.0935988 0.246006
0.622934 0.101244 0.267018
0.625772 0.105974 0.287449
0.626642 0.108919 0.30721
0.625849 0.112139 0.325887
0.622034 0.114748 0.34139
0.0390021 0.0390021 0.0390021
0.0390021 0.0390021 0.0390021
0.0390021 0.0390021 0.0390021
0.0390021 0.0390021 0.0390021
0.0390021 0.0390021 0.0390021
0.0390021 0.0390021 0.0390021
0.0390021 0.0390021 0.0390021
0.0390021 0.0390021 0.0390021
0.0390021 0.0390021 0.0390021
0.0390021 0.0390021 0.0390021
0.0390021 0.0390021 0.0390021
0.0469978 0.0390021 0.0390021
0.0624247 0.0390021 0.0390021
0.0805524 0.0390021 0.0390021
0.100298 0.0390021 0.0390173
0.118746 0.0390021 0.0397803
0.139208 0.0390021 0.0403601
0.16025 0.0390021 0.0402228
0.180163 0.0407568 0.0390173
0.200168 0.0423285 0.0390021
0.219623 0.0433356 0.0390021
0.238025 0.0447852 0.0390021
0.255573 0.0459297 0.0390021
0.272435 0.0469368 0.0390021
0.289967 0.0483711 0.0390021
0.306737 0.049485 0.0390021
0.323278 0.0504005 0.0390021
0.337407 0.0514229 0.0390021
0.351919 0.0527199 0.0390021
0.363622 0.0537881 0.0390021
0.376684 0.0552682 0.0390021
0.389319 0.0564584 0.0390021
0.402411 0.0581826 0.0390021
0.414389 0.0613413 0.0395819
0.425147 0.0660563 0.0417487
0.43537 0.0722972 0.0442054
0.44654 0.0790417 0.0464485
0.459617 0.0860151 0.0492561
0.473732 0.0905165 0.0528267
0.488609 0.0950942 0.0572061
0.5019 0.0985428 0.0612192
0.515938 0.102556 0.0667887
0.529732 0.105745 0.0724193
0.543404 0.108553 0.0782483
0.557946 0.110811 0.0854047
0.569924 0.111299 0.0920119
0.579278 0.11046 0.098146
0.583108 0.107271 0.103304
0.586648 0.103365 0.10901
0.588678 0.0974594 0.113375
0.590631 0.091722 0.118349
0.585962 0.0783551 0.11545
0.582925 0.0703136 0.119615
0.584451 0.0692149 0.131823
0.588663 0.0704509 0.14789
0.594095 0.0724804 0.16495
0.598733 0.0751965 0.182071
0.604089 0.0795758 0.200565
0.608865 0.0853437 0.220417
0.614328 0.0916457 0.240116
0.621485 0.0996567 0.261906
0.624704 0.104662 0.282933
0.626444 0.108476 0.303487
0.62562 0.111788 0.322652
0.621866 0.114565 0.338888
0.0390021 0.0390021 0.0390021
0.0390021 0.0390021 0.0390021
0.0390021 0.0390021 0.0390021
0.0390021 0.0390021 0.0390021
0.0390021 0.0390021 0.0390021
0.0390021 0.0390021 0.0390021
0.0390021 0.0390021 0.0390021
0.0390021 0.0390021 0.0390021
0.0390021 0.0390021 0.0390021
0.0390021 0.0390021 0.0390021
0.0390021 0.0390021 0.0390021
0.0433967 0.0390021 0.0390021
0.0544747 0.0390021 0.0390021
0.0715648 0.0390021 0.0390021
0.0903639 0.0390021 0.0390021
0.109697 0.0390021 0.0395819
0.129458 0.0390021 0.0404517
0.14995 0.0390021 0.0402991
0.171679 0.0396735 0.0392462
0.192752 0.0420233 0.0390021
0.21471 0.043595 0.0390021
0.234897 0.044419 0.0390021
0.253635 0.0458686 0.0390021
0.270085 0.0470283 0.0390021
0.287724 0.0486915 0.0390021
0.304814 0.0496986 0.0390021
0.321324 0.05066 0.0390021
0.336461 0.0515297 0.0390021
0.350896 0.0527504 0.0390021
0.363027 0.0539712 0.0390021
0.375311 0.0554971 0.0390021
0.386252 0.0567025 0.0390021
0.398138 0.0586099 0.0390021
0.407614 0.0604257 0.0390021
0.417304 0.0633249 0.0390021
0.425284 0.0682383 0.0390021
0.436606 0.0735332 0.0415961
0.451026 0.0802319 0.0449226
0.466743 0.0873274 0.0480507
0.481926 0.0934157 0.0526589
0.497459 0.0988479 0.0578775
0.511742 0.102739 0.0628367
0.525826 0.10634 0.0689708
0.540169 0.109758 0.0750896
0.554314 0.112764 0.0817273
0.566567 0.113451 0.0880446
0.575814 0.113069 0.0943465
0.57995 0.110124 0.0991836
0.583627 0.106355 0.104585
0.588373 0.102144 0.110567
0.590326 0.0950637 0.115434
0.589471 0.0861219 0.116991
0.585 0.0717784 0.115572
0.583932 0.0683452 0.124895
0.58822 0.0694591 0.14168
0.59353 0.0714733 0.159182
0.597864 0.0738842 0.176577
0.603281 0.0783703 0.195895
0.607385 0.0835584 0.214878
0.612879 0.0902113 0.23595
0.61973 0.0980545 0.257389
0.623896 0.103548 0.279057
0.6262 0.107973 0.300526
0.625406 0.111482 0.320058
0.621698 0.114382 0.336751
0.0390021 0.0390021 0.0390021
0.0390021 0.0390021 0.0390021
0.0390021 0.0390021 0.0390021
0.0390021 0.0390021 0.0390021
0.0390021 0.0390021 0.0390021
0.0390021 0.0390021 0.0390021
0.0390021 0.0390021 0.0390021
0.0390021 0.0390021 0.0390021
0.0390021 0.0390021 0.0390021
0.0390021 0.0390021 0.0390021
0.0390021 0.0390021 0.0390021
0.0407568 0.0390021 0.0390021
0.0490578 0.0390021 0.0390021
0.0633707 0.0390021 0.0390021
0.0813611 0.0390021 0.0390021
0.100191 0.0390021 0.0391699
0.118669 0.0390021 0.0399634
0.138964 0.0390021 0.0403754
0.16022 0.0390021 0.040177
0.182544 0.0417487 0.0390021
0.20499 0.0428626 0.0390021
0.226825 0.0440375 0.0390021
0.246174 0.0453803 0.0390021
0.266026 0.0471351 0.0390021
0.283848 0.0488136 0.0390021
0.301869 0.0499733 0.0390021
0.319173 0.0509651 0.0390021
0.334905 0.0517128 0.0390021
0.350042 0.0529183 0.0390021
0.362844 0.0539864 0.0390021
0.375463 0.0555734 0.0390021
0.386114 0.0568093 0.0390021
0.397726 0.0588388 0.0390021
0.406928 0.0605631 0.0390021
0.414786 0.0630045 0.0390021
0.422187 0.0673686 0.0390021
0.431464 0.0713207 0.0390021
0.443214 0.0759899 0.0406348
0.458808 0.0825055 0.0442817
0.475196 0.0899672 0.0477913
0.491875 0.0966659 0.0534981
0.50663 0.101793 0.0590066
0.522347 0.106737 0.0657359
0.537011 0.110658 0.0722057
0.551537 0.114031 0.0786297
0.563333 0.115267 0.0847334
0.572015 0.1149 0.0906081
0.576638 0.112337 0.0954299
0.581308 0.108995 0.101213
0.585595 0.104479 0.107088
0.590036 0.0986954 0.113085
0.592187 0.0913252 0.118151
0.587396 0.0764477 0.115114
0.584924 0.0688182 0.120974
0.588098 0.0687724 0.136645
0.59292 0.0704204 0.153918
0.597513 0.0728466 0.172274
0.60238 0.0771649 0.191058
0.606622 0.0820325 0.2112
0.611688 0.0889448 0.232395
0.618418 0.0963302 0.253513
0.623453 0.102831 0.27686
0.626123 0.107774 0.297826
0.625254 0.111238 0.3178
0.621592 0.11426 0.335271
0.0390021 0.0390021 0.0390021
0.0390021 0.0390021 0.0390021
0.0390021 0.0390021 0.0390021
0.0390021 0.0390021 0.0390021
0.0390021 0.0390021 0.0390021
0.0390021 0.0390021 0.0390021
0.0390021 0.0390021 0.0390021
0.0390021 0.0390021 0.0390021
0.0390021 0.0390021 0.0390021
0.0390021 0.0390021 0.0390021
0.0390021 0.0390021 0.0390021
0.0390021 0.0390021 0.0390021
0.0458991 0.0390021 0.0390021
0.0573281 0.0390021 0.0390021
0.0737011 0.0390021 0.0390021
0.0916762 0.0390021 0.0390021
0.110002 0.0390021 0.0402838
0.128191 0.0390021 0.0410315
0.147417 0.0390021 0.0409247
0.168887 0.0409857 0.0395361
0.19205 0.0435492 0.0390021
0.215915 0.0440681 0.0390021
0.238636 0.0454871 0.0390021
0.259693 0.0467384 0.0390021
0.279469 0.0484627 0.0390021
0.298299 0.0500343 0.0390021
0.315801 0.0515145 0.0390021
0.332647 0.052079 0.0390021
0.348165 0.0531777 0.0390021
0.362036 0.0541085 0.0390021
0.375204 0.0555734 0.0390021
0.386191 0.0568704 0.0390021
0.397848 0.0589609 0.0390021
0.406729 0.0608377 0.0390021
0.413901 0.0630045 0.0390021
0.420172 0.066804 0.0390021
0.429145 0.0708171 0.0390021
0.438682 0.0740368 0.0390021
0.453696 0.0793011 0.0414282
0.468437 0.0855116 0.0448157
0.484459 0.0931411 0.0485084
0.500298 0.0994278 0.0539254
0.517052 0.105379 0.061387
0.533501 0.111009 0.0691691
0.547967 0.114778 0.0759747
0.560678 0.11667 0.0820325
0.5682 0.116426 0.0873732
0.572839 0.114488 0.0922713
0.577798 0.111269 0.0975814
0.582757 0.106874 0.103593
0.589029 0.101793 0.110628
0.593057 0.0940108 0.116594
0.589395 0.0815747 0.115999
0.585977 0.0693523 0.117723
0.587976 0.0680705 0.131762
0.592462 0.0695811 0.149722
0.597116 0.0719768 0.168063
0.601724 0.0762341 0.188083
0.605722 0.0810254 0.207507
0.610819 0.0878004 0.22945
0.617411 0.0953689 0.251225
0.623468 0.10251 0.274495
0.626093 0.107546 0.296056
0.625086 0.111025 0.316747
0.621546 0.114199 0.334173
0.0390021 0.0390021 0.0390021
0.0390021 0.0390021 0.0390021
0.0390021 0.0390021 0.0390021
0.0390021 0.0390021 0.0390021
0.0390021 0.0390021 0.0390021
0.0390021 0.0390021 0.0390021
0.0390021 0.0390021 0.0390021
0.0390021 0.0390021 0.0390021
0.0390021 0.0390021 0.0390021
0.0390021 0.0390021 0.0390021
0.0390021 0.0390021 0.0390021
0.0390021 0.0390021 0.0390021
0.043183 0.0390021 0.0390021
0.0517433 0.0390021 0.0390021
0.0677043 0.0390021 0.0390021
0.0846265 0.0390021 0.0390021
0.101411 0.0390021 0.040528
0.118059 0.0390021 0.041413
0.135927 0.0390021 0.041474
0.156954 0.0407111 0.0411078
0.180209 0.0437629 0.0398413
0.205417 0.0450294 0.0390021
0.22829 0.0460365 0.0390021
0.25127 0.0467079 0.0390021
0.27274 0.0480964 0.0390021
0.293187 0.0501564 0.0390021
0.3131 0.0516823 0.0390021
0.329915 0.0523232 0.0390021
0.346136 0.0536965 0.0390021
0.360174 0.0545357 0.0390021
0.374472 0.0558022 0.0390021
0.386175 0.0569772 0.0390021
0.397726 0.0589914 0.0390021
0.406958 0.0608835 0.0390021
0.413703 0.0630961 0.0390021
0.419318 0.0668956 0.0390021
0.426871 0.0703136 0.0390021
0.435859 0.0737163 0.0390021
0.448676 0.0771038 0.0394446
0.462837 0.082475 0.0418708
0.478416 0.0888075 0.0457771
0.493751 0.0962692 0.0492714
0.510063 0.102525 0.0554513
0.52636 0.108553 0.0626841
0.542657 0.113771 0.0708934
0.558022 0.117586 0.079408
0.564492 0.117388 0.084535
0.569604 0.115831 0.0894942
0.574594 0.113146 0.0948653
0.580133 0.109209 0.101305
0.585992 0.103975 0.108019
0.590967 0.0966659 0.114351
0.592355 0.0865644 0.117449
0.58761 0.0702831 0.1149
0.58793 0.0674601 0.128008
0.592386 0.0688945 0.145541
0.596994 0.0716259 0.165347
0.601083 0.0753948 0.184756
0.604959 0.0802319 0.204929
0.610178 0.0871138 0.226749
0.616709 0.0944991 0.248402
0.623774 0.102464 0.272435
0.626047 0.107286 0.294133
0.624979 0.110918 0.315648
0.621469 0.114168 0.333379
0.0390021 0.0390021 0.0390021
0.0390021 0.0390021 0.0390021
0.0390021 0.0390021 0.0390021
0.0390021 0.0390021 0.0390021
0.0390021 0.0390021 0.0390021
0.0390021 0.0390021 0.0390021
0.0390021 0.0390021 0.0390021
0.0390021 0.0390021 0.0390021
0.0390021 0.0390021 0.0390021
0.0390021 0.0390021 0.0390021
0.0390021 0.0390021 0.0390021
0.0390021 0.0390021 0.0390021
0.0410315 0.0390021 0.0390021
0.0482948 0.0390021 0.0390021
0.061738 0.0390021 0.0390021
0.078172 0.0390021 0.0390021
0.094728 0.0390021 0.0407568
0.109712 0.0390021 0.0415351
0.126848 0.0390021 0.0424811
0.146548 0.0412146 0.0426032
0.169009 0.0436561 0.0415351
0.193027 0.0457465 0.0390021
0.218723 0.0464027 0.0390021
0.242466 0.0473335 0.0390021
0.265583 0.0480659 0.0390021
0.287816 0.0498817 0.0390021
0.307729 0.0515755 0.0390021
0.326284 0.0522774 0.0390021
0.343145 0.0538949 0.0390021
0.358846 0.0549935 0.0390021
0.373083 0.0563058 0.0390021
0.385397 0.0572976 0.0390021
0.397787 0.059144 0.0390021
0.407034 0.0609293 0.0390021
0.414176 0.0633097 0.0390021
0.419608 0.0670787 0.0390021
0.426734 0.0706188 0.0390021
0.435492 0.0739452 0.0390021
0.445502 0.0767681 0.0390021
0.457771 0.0801556 0.0399176
0.471305 0.0850996 0.0424964
0.487556 0.0922866 0.0464027
0.503594 0.099733 0.0506142
0.520287 0.10602 0.0577401
0.537087 0.112016 0.0657816
0.55404 0.117327 0.0759747
0.560784 0.117586 0.0814069
0.566522 0.116945 0.0870527
0.571817 0.114778 0.0924697
0.576928 0.111238 0.0984054
0.58265 0.106508 0.105226
0.588525 0.0997177 0.112474
0.593057 0.0906996 0.118425
0.58854 0.0731823 0.115053
0.588098 0.0673991 0.124361
0.592309 0.0684367 0.142672
0.596735 0.0712291 0.162402
0.60029 0.0747234 0.181949
0.604532 0.0798657 0.202884
0.609796 0.0868391 0.22501
0.616281 0.0942397 0.247593
0.623987 0.102449 0.270726
0.625772 0.107118 0.293721
0.624887 0.110857 0.314931
0.621378 0.114153 0.332921
0.0390021 0.0390021 0.0390021
0.0390021 0.0390021 0.0390021
0.0390021 0.0390021 0.0390021
0.0390021 0.0390021 0.0390021
0.0390021 0.0390021 0.0390021
0.0390021 0.0390021 0.0390021
0.0390021 0.0390021 0.0390021
0.0390021 0.0390021 0.0390021
0.0390021 0.0390021 0.0390021
0.0390021 0.0390021 0.0390021
0.0390021 0.0390021 0.0390021
0.0390021 0.0390021 0.0390021
0.039704 0.0390021 0.0390021
0.046067 0.0390021 0.0390021
0.0573587 0.0390021 0.0390021
0.0736248 0.0390021 0.0390021
0.0885939 0.0390021 0.0405432
0.103548 0.0390021 0.0417945
0.11989 0.0390021 0.0430304
0.138582 0.041062 0.0429999
0.159731 0.0434119 0.0424659
0.183474 0.0458228 0.0405585
0.208789 0.0476081 0.0390021
0.233661 0.0479438 0.0390021
0.258183 0.0491646 0.0390021
0.281697 0.0500649 0.0390021
0.303548 0.0514382 0.0390021
0.322393 0.0526589 0.0390021
0.340215 0.0541238 0.0390021
0.356695 0.0552071 0.0390021
0.371847 0.0568093 0.0390021
0.38436 0.0577707 0.0390021
0.397253 0.0594644 0.0390021
0.407126 0.0610513 0.0390021
0.414405 0.0634775 0.0390021
0.420066 0.0673228 0.0390021
0.427298 0.0709087 0.0390021
0.435569 0.0740978 0.0390021
0.445258 0.0769665 0.0390021
0.454917 0.0799573 0.0390021
0.466758 0.0841993 0.0405127
0.481315 0.0890669 0.0435798
0.4981 0.0967422 0.0480507
0.515312 0.104097 0.0538949
0.532006 0.110323 0.0616312
0.550835 0.117174 0.0727703
0.556268 0.117296 0.0777295
0.563745 0.117693 0.0848249
0.569299 0.115908 0.0903029
0.574594 0.112734 0.0961318
0.57998 0.10808 0.103258
0.586038 0.102495 0.110826
0.591318 0.0937819 0.117968
0.588586 0.077348 0.115557
0.588113 0.0682536 0.122789
0.591974 0.0681163 0.140276
0.596109 0.0707408 0.159609
0.599329 0.0742657 0.179767
0.603983 0.0797284 0.201144
0.609354 0.0867781 0.224063
0.615946 0.0940414 0.246555
0.624063 0.102556 0.269627
0.625162 0.106859 0.293202
0.624704 0.110826 0.314168
0.621256 0.114168 0.33254
0.0390021 0.0390021 0.0390021
0.0390021 0.0390021 0.0390021
0.0390021 0.0390021 0.0390021
0.0390021 0.0390021 0.0390021
0.0390021 0.0390021 0.0390021
0.0390021 0.0390021 0.0390021
0.0390021 0.0390021 0.0390021
0.0390021 0.0390021 0.0390021
0.0390021 0.0390021 0.0390021
0.0390021 0.0390021 0.0390021
0.0390021 0.0390021 0.0390021
0.0390021 0.0390021 0.0390021
0.0390021 0.0390021 0.0390021
0.0442817 0.0390021 0.0390021
0.0539559 0.0390021 0.0390021
0.0690013 0.0390021 0.0390021
0.0840772 0.0390021 0.0404364
0.0983444 0.0390021 0.0420996
0.114473 0.0390021 0.0432898
0.132189 0.0411841 0.0433967
0.152773 0.0436713 0.0433051
0.175769 0.0459907 0.0420691
0.200351 0.0481727 0.0390631
0.226062 0.0492714 0.0390021
0.25034 0.0496681 0.0390021
0.275135 0.0510109 0.0390021
0.298222 0.0514992 0.0390021
0.319768 0.0527657 0.0390021
0.337942 0.0542 0.0390021
0.354192 0.0551308 0.0390021
0.355978 0.0613107 0.0390021
0.36875 0.062501 0.0390021
0.381247 0.0643168 0.0390021
0.391699 0.0655375 0.0390021
0.400778 0.0678569 0.0390021
0.408347 0.0710002 0.0390021
0.415946 0.0746014 0.0390021
0.425116 0.077348 0.0390021
0.435035 0.0804913 0.0390021
0.444205 0.0840772 0.0390021
0.455421 0.0875257 0.0391089
0.468757 0.0916609 0.0411994
0.486076 0.096376 0.0450752
0.504845 0.103288 0.0496681
0.525322 0.108782 0.0571603
0.545159 0.113771 0.0666056
0.558526 0.115572 0.0756237
0.568719 0.115587 0.0825055
0.576425 0.113909 0.0887617
0.582681 0.110674 0.0948806
0.587976 0.106615 0.101656
0.59292 0.101289 0.109407
0.595758 0.0926986 0.115389
0.593271 0.0788434 0.115953
0.591714 0.0685283 0.122179
0.593576 0.0672313 0.137636
0.597086 0.0699779 0.15787
0.600229 0.0733043 0.177661
0.604929 0.0792248 0.199741
0.610269 0.0859998 0.222553
0.616693 0.0932326 0.245441
0.624887 0.101778 0.269627
0.626581 0.106172 0.292332
0.626856 0.110079 0.313924
0.625147 0.112886 0.332494
0.0391089 0.0390021 0.0390021
0.0390021 0.0390021 0.0390021
0.0390021 0.0390021 0.0390021
0.0390021 0.0390021 0.0390021
0.0390021 0.0390021 0.0390021
0.0390021 0.0390021 0.0390021
0.0390021 0.0390021 0.0390021
0.0390021 0.0390021 0.0390021
0.0390021 0.0390021 0.0390021
0.0390021 0.0390021 0.0390021
0.0390021 0.0390021 0.0390021
0.0390021 0.0390021 0.0390021
0.0395209 0.0390021 0.0390021
0.04477 0.0390021 0.0390021
0.0534829 0.0390021 0.0390021
0.0678874 0.0390021 0.0390021
0.0825971 0.0390021 0.0401465
0.0972457 0.0390021 0.0419776
0.112474 0.0390021 0.0433814
0.129076 0.0415045 0.0437171
0.148165 0.0440681 0.0439918
0.170214 0.0466316 0.0432746
0.193439 0.0488594 0.0404059
0.218204 0.0499733 0.0390021
0.242145 0.0509041 0.0390021
0.26714 0.0518502 0.0390021
0.291295 0.0530861 0.0390021
0.313863 0.0535439 0.0390021
0.331258 0.0552224 0.0390021
0.345998 0.0572519 0.0390021
0.358328 0.0601205 0.0390021
0.369848 0.0623636 0.0390021
0.380499 0.0647746 0.0390021
0.391028 0.0659953 0.0390021
0.400732 0.0683604 0.0390021
0.408255 0.0712596 0.0390021
0.41651 0.0750286 0.0390021
0.425467 0.0774701 0.0390021
0.435492 0.0809033 0.0390021
0.44477 0.084535 0.0390021
0.455253 0.0886244 0.0390021
0.467292 0.0919051 0.0407263
0.480964 0.09514 0.0428016
0.500099 0.101686 0.047364
0.519463 0.107057 0.0535439
0.53901 0.112108 0.0624704
0.555611 0.116426 0.0742199
0.565744 0.116121 0.0807965
0.573892 0.114702 0.0869001
0.580545 0.111894 0.0931258
0.586099 0.107881 0.0999924
0.590997 0.10277 0.107286
0.593393 0.0943923 0.113619
0.593591 0.0839094 0.117418
0.588937 0.0700236 0.119966
0.59118 0.0676738 0.135195
0.595697 0.0698253 0.154955
0.599557 0.0730907 0.175448
0.604013 0.0788891 0.197971
0.609018 0.0855421 0.220676
0.615763 0.092958 0.243839
0.622827 0.100862 0.267552
0.626551 0.106462 0.291493
0.626612 0.110079 0.3131
0.624994 0.112917 0.332235
0.039292 0.0390021 0.0390021
0.0390021 0.0390021 0.0390021
0.0390021 0.0390021 0.0390021
0.0390021 0.0390021 0.0390021
0.0390021 0.0390021 0.0390021
0.0390021 0.0390021 0.0390021
0.0390021 0.0390021 0.0390021
0.0390021 0.0390021 0.0390021
0.0390021 0.0390021 0.0390021
0.0390021 0.0390021 0.0390021
0.0390021 0.0390021 0.0390021
0.0390021 0.0390021 0.0390021
0.0408942 0.0390021 0.0390021
0.0452735 0.0390021 0.0390021
0.0540322 0.0390021 0.0390021
0.0666667 0.0390021 0.0390021
0.0812085 0.0390021 0.0408026
0.0955367 0.0390021 0.0427863
0.11078 0.0395972 0.0438392
0.127337 0.0424964 0.0445258
0.146136 0.0450752 0.0446784
0.16759 0.0474861 0.0437476
0.189776 0.0493019 0.0413825
0.21384 0.0506905 0.0390021
0.237171 0.0514229 0.0390021
0.261875 0.0527199 0.0390021
0.286381 0.0535286 0.0390021
0.310323 0.0536965 0.0390021
0.328969 0.0553292 0.0390021
0.344091 0.0572671 0.0390021
0.357733 0.0601816 0.0390021
0.370123 0.0625162 0.0390021
0.380392 0.0650339 0.0390021
0.390677 0.0664073 0.0390021
0.400259 0.0688792 0.0390021
0.407919 0.0716411 0.0390021
0.416434 0.0753948 0.0390021
0.426108 0.0778363 0.0390021
0.436118 0.0817121 0.0390021
0.445823 0.0851759 0.0390021
0.455817 0.0894026 0.0390021
0.466407 0.0927749 0.0403601
0.478889 0.0961013 0.0420691
0.494545 0.0995193 0.045304
0.513222 0.106081 0.050248
0.531487 0.110536 0.0582742
0.548409 0.11516 0.0695048
0.561196 0.11632 0.0779583
0.570306 0.115679 0.0845197
0.577737 0.113176 0.090837
0.583902 0.109499 0.0973831
0.589166 0.104265 0.105058
0.593408 0.0975052 0.112779
0.59559 0.0892958 0.119783
0.585595 0.070222 0.115572
0.586725 0.068452 0.131044
0.592416 0.0701762 0.151568
0.597375 0.0730297 0.172686
0.602808 0.0781567 0.194873
0.607645 0.0846723 0.217395
0.614374 0.0922408 0.241093
0.621302 0.100374 0.266102
0.625864 0.106355 0.289525
0.625925 0.110079 0.311543
0.624414 0.113024 0.331365
0.0410315 0.0390021 0.0390021
0.0403906 0.0390021 0.0390021
0.0396735 0.0390021 0.0390021
0.0390478 0.0390021 0.0390021
0.0390021 0.0390021 0.0390021
0.0390021 0.0390021 0.0390021
0.0390021 0.0390021 0.0390021
0.0390021 0.0390021 0.0390021
0.0390021 0.0390021 0.0390021
0.0390021 0.0390021 0.0390021
0.0390021 0.0390021 0.0390021
0.0416724 0.0390021 0.0390021
0.0463111 0.0390021 0.0390021
0.0530251 0.0390021 0.0390021
0.0618601 0.0390021 0.0392309
0.0739605 0.0390021 0.0419928
0.0867475 0.0405737 0.0435035
0.101137 0.0429084 0.0453803
0.115709 0.0443885 0.0462959
0.131762 0.0462348 0.0468147
0.149752 0.0480049 0.046067
0.169116 0.0494392 0.0445716
0.190616 0.0506447 0.0423133
0.213306 0.0519417 0.039353
0.235523 0.0522774 0.0390021
0.258213 0.0532387 0.0390021
0.281651 0.0547189 0.0390021
0.305211 0.0552529 0.0390021
0.326009 0.0554818 0.0390021
0.342809 0.0574502 0.0390021
0.35581 0.0602426 0.0390021
0.368658 0.0624857 0.0390021
0.381384 0.0651255 0.0390021
0.391104 0.0666056 0.0390021
0.400259 0.0693217 0.0390021
0.407126 0.0720684 0.0390021
0.416449 0.0759289 0.0390021
0.426444 0.0784314 0.0390021
0.436713 0.0823987 0.0390021
0.446738 0.0857252 0.0390021
0.456321 0.090074 0.0390478
0.466331 0.0937057 0.0400854
0.476432 0.0968948 0.0412757
0.490105 0.100786 0.0437018
0.507652 0.104936 0.0476997
0.522148 0.108156 0.0532998
0.537972 0.112352 0.0623789
0.555367 0.116808 0.0747539
0.566262 0.116548 0.0820478
0.574075 0.114641 0.0878614
0.581155 0.111254 0.0946975
0.587198 0.106493 0.102144
0.592386 0.100725 0.110506
0.5935 0.0909133 0.116716
0.585245 0.0736095 0.114092
0.584131 0.0699626 0.128008
0.587915 0.0707713 0.14786
0.593912 0.0731518 0.168521
0.599924 0.0776226 0.190585
0.605982 0.0835889 0.213779
0.61297 0.0917372 0.238529
0.619699 0.0995499 0.263081
0.625071 0.106111 0.28687
0.625025 0.11014 0.309941
0.623514 0.113191 0.329534
0.0463722 0.0390021 0.0390021
0.0456397 0.0390021 0.0390021
0.0451362 0.0390021 0.0390021
0.0439307 0.0390021 0.0390021
0.0425269 0.0390021 0.0390021
0.0410315 0.0390021 0.0390021
0.0399329 0.0390021 0.0390021
0.0396429 0.0390021 0.0390021
0.0397192 0.0390021 0.0390021
0.041062 0.0390021 0.0390021
0.0439765 0.0390021 0.0390021
0.0485847 0.0390021 0.0390021
0.0539559 0.0390021 0.0390021
0.0616922 0.0397192 0.0407721
0.0716869 0.0439612 0.0433814
0.0827344 0.0472877 0.0454261
0.0952468 0.0491035 0.0471809
0.10869 0.0508888 0.0490425
0.12195 0.0513619 0.049546
0.137804 0.0522469 0.0497902
0.155032 0.0520027 0.0483711
0.175799 0.0531014 0.0466468
0.196201 0.0534371 0.0435492
0.218051 0.0544289 0.040177
0.238087 0.0551614 0.0390021
0.258152 0.0556802 0.0390021
0.27779 0.0560769 0.0390021
0.299504 0.0571298 0.0390021
0.319188 0.0577096 0.0390021
0.337942 0.0583047 0.0390021
0.353292 0.0604105 0.0390021
0.366567 0.0624552 0.0390021
0.380011 0.065156 0.0390021
0.391959 0.0667887 0.0390021
0.40058 0.0695201 0.0390021
0.407294 0.0729992 0.0390021
0.416419 0.0764782 0.0390021
0.426078 0.0790417 0.0390021
0.437079 0.0830701 0.0390021
0.44744 0.0862898 0.0390021
0.457023 0.0906233 0.0390478
0.466575 0.094377 0.0401312
0.476326 0.0983444 0.0410925
0.487724 0.10164 0.0428626
0.500481 0.103853 0.0450141
0.513573 0.106676 0.0493782
0.527428 0.109361 0.0559701
0.544579 0.114427 0.0670481
0.557641 0.115541 0.0756237
0.569497 0.115801 0.0844434
0.577798 0.113054 0.0915694
0.584314 0.108827 0.0987564
0.590158 0.102861 0.107332
0.593027 0.0942245 0.114519
0.589303 0.0808881 0.116869
0.582727 0.0705119 0.123308
