bundles/resolve-cinematic-luts/Phantom Luts/Apple Log Phantom LUTS/iPhone 15 Phantom Movie LUTs/65x/EastmanRM iPhone_15_65x.cube
TITLE "Generated by Resolve"
LUT_3D_SIZE 9
0.0431525 0.034699 0.0379187
0.0430915 0.0347448 0.0379797
0.139956 0.0338903 0.040116
0.296147 0.0313573 0.0463264
0.437491 0.0345159 0.0576333
0.53872 0.0487373 0.108354
0.608499 0.067277 0.153811
0.628809 0.087602 0.216938
0.656016 0.135332 0.395758
0.0435645 0.0344091 0.0373846
0.0429541 0.0348516 0.038117
0.0852216 0.0364233 0.0375219
0.246372 0.03505 0.0395972
0.416281 0.0299992 0.0498817
0.500725 0.03505 0.069749
0.595865 0.066331 0.144762
0.622629 0.0823835 0.206531
0.658289 0.135424 0.396582
0.0493172 0.102449 0.0464485
0.0477607 0.0892042 0.0439918
0.104829 0.0990311 0.045243
0.254307 0.0794842 0.0468299
0.399786 0.0378729 0.0475013
0.492622 0.036408 0.0719463
0.577905 0.0606088 0.126024
0.608362 0.0797742 0.207095
0.652979 0.136538 0.401083
0.0504158 0.2159 0.0749828
0.0502327 0.222568 0.0432136
0.0519112 0.208499 0.0442817
0.297688 0.254749 0.0529946
0.54725 0.213397 0.090486
0.618631 0.154681 0.126146
0.513954 0.040177 0.0760815
0.596811 0.0694438 0.163684
0.634379 0.127581 0.370977
0.0453803 0.405432 0.0991836
0.0447852 0.423987 0.0809949
0.0465095 0.43595 0.043183
0.0478523 0.429664 0.0361028
0.554177 0.527642 0.0923323
0.768429 0.479667 0.174853
0.812619 0.415213 0.216251
0.76759 0.284916 0.193378
0.573754 0.0643778 0.147723
0.0823072 0.632105 0.343359
0.0877394 0.633219 0.324636
0.095613 0.639353 0.30927
0.13344 0.639719 0.209689
0.263249 0.64921 0.13019
0.753201 0.749859 0.26273
0.876143 0.73547 0.368536
0.868574 0.714611 0.353155
0.851499 0.665553 0.326299
0.233051 0.767742 0.560876
0.235248 0.768795 0.557504
0.236332 0.766964 0.543801
0.232593 0.759976 0.501778
0.20383 0.707271 0.287327
0.549371 0.794186 0.295232
0.872389 0.884215 0.452186
0.90869 0.87602 0.481117
0.908156 0.871855 0.486015
0.236851 0.767697 0.639948
0.235264 0.7682 0.640879
0.236622 0.768307 0.636774
0.238682 0.769604 0.626932
0.242359 0.772656 0.578912
0.321416 0.751415 0.399191
0.781231 0.894133 0.494499
0.908019 0.91516 0.589014
0.907332 0.917205 0.602502
0.241581 0.759793 0.68542
0.237644 0.760723 0.687404
0.237644 0.761044 0.685252
0.240818 0.761196 0.67715
0.243122 0.763378 0.657404
0.252033 0.773327 0.577142
0.715648 0.865843 0.618448
0.9075 0.931975 0.729442
0.907515 0.931792 0.727092
0.0429389 0.0348669 0.038117
0.0428016 0.0349737 0.0383001
0.147265 0.0417487 0.0796674
0.304051 0.0409247 0.0877394
0.449485 0.0379187 0.101213
0.54432 0.0507057 0.14313
0.592432 0.0684672 0.182574
0.629786 0.103075 0.266835
0.64651 0.144015 0.428397
0.0431525 0.034699 0.0379034
0.0428016 0.0349737 0.0382849
0.138689 0.036347 0.0437171
0.291997 0.0366979 0.055314
0.440803 0.0402686 0.0778363
0.549203 0.0530251 0.121614
0.588556 0.0638437 0.164904
0.635111 0.0972915 0.241337
0.65536 0.141695 0.418997
0.0490883 0.117784 0.0726635
0.0478828 0.120775 0.0543984
0.113756 0.110689 0.046952
0.273213 0.0673381 0.0469062
0.41117 0.033341 0.0485084
0.515435 0.0430152 0.0945754
0.595209 0.0702678 0.159823
0.617578 0.0924544 0.236454
0.655009 0.140826 0.417044
0.0503853 0.21976 0.106096
0.0507668 0.224704 0.0738689
0.0507362 0.229145 0.0424048
0.303899 0.259434 0.0528115
0.55053 0.210224 0.0907301
0.615808 0.152224 0.125444
0.520546 0.0410315 0.0809033
0.591257 0.0671397 0.175738
0.636362 0.131792 0.387472
0.0454566 0.405097 0.131594
0.0448463 0.415991 0.106905
0.0452125 0.432502 0.0755169
0.0479591 0.43241 0.0361639
0.555337 0.528084 0.0925612
0.769375 0.47895 0.175051
0.812345 0.415122 0.215976
0.767346 0.283543 0.19237
0.586679 0.0703746 0.170947
0.084184 0.635538 0.363973
0.0880446 0.636347 0.346014
0.0927749 0.639261 0.325765
0.125643 0.645426 0.258717
0.261707 0.648737 0.129976
0.753582 0.749401 0.262776
0.875929 0.734874 0.367971
0.868254 0.713756 0.352468
0.850599 0.662943 0.324666
0.23473 0.768978 0.568368
0.236088 0.769757 0.564553
0.236667 0.767498 0.550973
0.234226 0.761669 0.511833
0.215045 0.717357 0.337514
0.537072 0.789563 0.303136
0.873503 0.887037 0.459724
0.910185 0.877607 0.488121
0.908949 0.872618 0.492683
0.236652 0.767529 0.64126
0.235111 0.768017 0.642664
0.236988 0.768017 0.637537
0.238529 0.769299 0.628702
0.242496 0.772854 0.583261
0.327977 0.756054 0.413458
0.775906 0.893095 0.502159
0.907759 0.916609 0.597787
0.906966 0.918151 0.610559
0.241535 0.75967 0.686275
0.237644 0.760632 0.688045
0.237644 0.760922 0.686137
0.241367 0.760983 0.677592
0.24303 0.76318 0.659129
0.261311 0.77583 0.584054
0.71487 0.865492 0.622751
0.907485 0.932372 0.734447
0.9075 0.932235 0.732631
0.0418097 0.03682 0.0517891
0.0622263 0.0367285 0.0607767
0.154101 0.041001 0.10219
0.302571 0.0412909 0.129351
0.45568 0.0412299 0.118517
0.550439 0.0540322 0.16199
0.59144 0.0769818 0.208774
0.634409 0.110491 0.299031
0.646525 0.144884 0.442115
0.0435492 0.0416876 0.0457771
0.0410163 0.0389715 0.0691234
0.14966 0.0409552 0.102495
0.31342 0.0407874 0.0896468
0.460609 0.0383001 0.100664
0.563806 0.0572519 0.146075
0.593133 0.0690623 0.185168
0.641489 0.105745 0.276768
0.655222 0.142123 0.434104
0.0487526 0.123003 0.0881514
0.0466468 0.123049 0.0928511
0.111009 0.113008 0.0888838
0.285313 0.0780652 0.0773175
0.43949 0.046891 0.0892958
0.553643 0.0593576 0.143435
0.587991 0.0652781 0.172213
0.629557 0.104662 0.27361
0.65539 0.142077 0.433082
0.0502937 0.220111 0.130892
0.0501564 0.225727 0.113939
0.0513924 0.226246 0.0825818
0.299016 0.264469 0.102083
0.566293 0.220508 0.136248
0.649027 0.156619 0.15494
0.582681 0.0658274 0.138338
0.599008 0.0751965 0.19968
0.640757 0.139193 0.411994
0.0466011 0.409628 0.174441
0.0450141 0.415167 0.150713
0.0451667 0.421653 0.11017
0.0462196 0.420569 0.0425879
0.552621 0.524681 0.114717
0.772671 0.475914 0.200855
0.829084 0.419684 0.251423
0.799817 0.288899 0.248478
0.585061 0.0715953 0.195666
0.0883345 0.638422 0.383413
0.0903182 0.640421 0.374105
0.0925307 0.642847 0.357397
0.107912 0.643122 0.290639
0.238575 0.638666 0.131212
0.751125 0.744747 0.263035
0.880613 0.724269 0.383536
0.875868 0.699443 0.371099
0.862181 0.644434 0.352102
0.236194 0.770397 0.579538
0.236225 0.770153 0.575677
0.237552 0.768872 0.563882
0.237736 0.763317 0.525582
0.221088 0.732372 0.397436
0.512184 0.780835 0.31014
0.872724 0.891981 0.473869
0.912001 0.879469 0.506249
0.911772 0.874083 0.515129
0.236271 0.767056 0.6448
0.234516 0.767651 0.64567
0.23508 0.767987 0.642802
0.238087 0.768704 0.632105
0.242481 0.773037 0.593439
0.333577 0.763241 0.437171
0.766461 0.890455 0.523766
0.907988 0.919081 0.616999
0.906401 0.921187 0.63183
0.241474 0.759472 0.687785
0.237644 0.760342 0.689967
0.237644 0.760632 0.687953
0.241749 0.760555 0.679576
0.242847 0.762768 0.662806
0.262638 0.776028 0.593179
0.711498 0.866026 0.640772
0.907332 0.933532 0.746624
0.907317 0.933333 0.745083
0.0400702 0.0491188 0.123232
0.134325 0.0406195 0.181491
0.206165 0.0422065 0.197116
0.305287 0.0402991 0.193881
0.453651 0.0456703 0.207279
0.571939 0.070985 0.209689
0.617243 0.100954 0.262135
0.636713 0.125734 0.363348
0.63946 0.140551 0.461143
0.0414588 0.0775616 0.105058
0.0402686 0.0534371 0.147692
0.138231 0.0425269 0.218738
0.31136 0.0402838 0.200656
0.468406 0.0464637 0.185046
0.572259 0.0678264 0.197498
0.61471 0.0951247 0.245441
0.643046 0.123796 0.354421
0.646784 0.137026 0.453544
0.0467994 0.13904 0.12604
0.0427405 0.122591 0.143328
0.0655375 0.110674 0.156283
0.276844 0.0764172 0.168841
0.453498 0.0499275 0.151369
0.576776 0.072221 0.205707
0.604883 0.0912184 0.239017
0.640208 0.123445 0.354101
0.646601 0.13666 0.454322
0.0483558 0.21648 0.16965
0.0483711 0.217792 0.171176
0.0487678 0.21799 0.170809
0.305074 0.288548 0.249012
0.612146 0.249851 0.261799
0.723903 0.187594 0.27953
0.591745 0.0779889 0.209369
0.634806 0.107652 0.286
0.642573 0.144488 0.453162
0.0476081 0.405295 0.24799
0.0469215 0.413672 0.248051
0.0469215 0.420813 0.233921
0.0464942 0.40882 0.150576
0.546304 0.539117 0.26096
0.793561 0.498238 0.323888
0.868223 0.446265 0.364248
0.850599 0.309117 0.357641
0.624659 0.11136 0.302922
0.0945449 0.640192 0.426764
0.0940566 0.645396 0.429007
0.0969253 0.649134 0.420035
0.0961929 0.643442 0.363363
0.168078 0.648188 0.251835
0.745693 0.755398 0.34551
0.888655 0.700572 0.439109
0.88481 0.675944 0.431464
0.879149 0.639719 0.434043
0.233646 0.769146 0.599298
0.23534 0.768841 0.594873
0.24062 0.769024 0.584695
0.243885 0.768872 0.560418
0.224674 0.749859 0.463752
0.457404 0.764675 0.340978
0.865812 0.897276 0.523033
0.916396 0.881376 0.568475
0.918227 0.873579 0.583078
0.23621 0.766018 0.652506
0.233814 0.766659 0.653407
0.233982 0.767025 0.650248
0.235096 0.767971 0.642878
0.240574 0.772183 0.611795
0.350286 0.777584 0.48368
0.742687 0.881148 0.568643
0.907057 0.925109 0.666957
0.906996 0.926635 0.679026
0.241474 0.759045 0.692164
0.237629 0.759823 0.694469
0.237598 0.759945 0.692836
0.237644 0.760662 0.68777
0.242237 0.761807 0.670512
0.256031 0.773434 0.61059
0.719448 0.87187 0.674022
0.905699 0.936446 0.776806
0.907774 0.93608 0.771527
0.0417029 0.0668345 0.243259
0.0652781 0.0618448 0.302937
0.162631 0.046952 0.342626
0.33518 0.0461433 0.348486
0.459342 0.0496529 0.326268
0.584543 0.105608 0.363668
0.639033 0.137575 0.40621
0.639612 0.144671 0.456046
0.614984 0.127611 0.485878
0.0413519 0.0902571 0.205524
0.0418555 0.0683757 0.252216
0.0542458 0.0683146 0.30454
0.310842 0.0463417 0.366659
0.467582 0.051667 0.337087
0.597818 0.112093 0.368887
0.64036 0.139208 0.411978
0.639445 0.14284 0.458656
0.624506 0.127062 0.483665
0.0417945 0.130495 0.22179
0.041413 0.112718 0.242695
0.0414435 0.100282 0.240467
0.213779 0.062211 0.324742
0.434623 0.0467231 0.307851
0.607919 0.122072 0.38941
0.6392 0.141146 0.419104
0.634867 0.142306 0.465232
0.622477 0.128603 0.490501
0.0430457 0.217441 0.241764
0.0424659 0.210605 0.251209
0.0423285 0.203494 0.262806
0.174655 0.258183 0.35552
0.560845 0.219303 0.442252
0.745373 0.213092 0.43267
0.635813 0.128573 0.372839
0.643946 0.144808 0.450111
0.618387 0.127825 0.486549
0.0462348 0.404135 0.339086
0.0456703 0.408255 0.347082
0.0461433 0.411795 0.346761
0.0466468 0.386526 0.321614
0.555001 0.555169 0.517205
0.835294 0.513283 0.524224
0.899672 0.464805 0.536431
0.858305 0.348119 0.522942
0.63331 0.14078 0.466606
0.0928206 0.632547 0.482902
0.0910964 0.636637 0.488655
0.0932479 0.640131 0.488899
0.0935225 0.642481 0.476707
0.160601 0.659098 0.439063
0.742504 0.759808 0.539834
0.898589 0.717906 0.56875
0.896849 0.707027 0.579278
0.899382 0.680049 0.59115
0.226337 0.761913 0.623835
0.233021 0.761395 0.617151
0.235508 0.763058 0.615335
0.238712 0.766766 0.608362
0.235126 0.766659 0.566537
0.472679 0.791974 0.497185
0.862913 0.897459 0.631189
0.923156 0.879942 0.672099
0.921736 0.870878 0.681758
0.236088 0.76405 0.669505
0.233341 0.764797 0.670375
0.233539 0.765103 0.667704
0.233722 0.76582 0.661524
0.235416 0.768383 0.639353
0.370794 0.800427 0.567346
0.738476 0.876265 0.649348
0.90576 0.933913 0.751186
0.905821 0.934905 0.760357
0.238483 0.759838 0.701732
0.238331 0.759854 0.701335
0.238193 0.759854 0.70013
0.237888 0.759854 0.697154
0.237415 0.760739 0.687831
0.243183 0.766796 0.633005
0.745983 0.889662 0.741405
0.904219 0.940887 0.818219
0.905241 0.940841 0.817029
0.0419318 0.0843061 0.335622
0.0420539 0.0897993 0.357412
0.0541238 0.0900587 0.408698
0.230655 0.0580301 0.469596
0.454841 0.0727092 0.468284
0.568765 0.109209 0.462867
0.617136 0.130602 0.498863
0.621164 0.135195 0.521385
0.621592 0.142626 0.555489
0.0420386 0.115969 0.345174
0.0419623 0.10277 0.349248
0.0419013 0.0906539 0.335653
0.095552 0.0652934 0.412238
0.416983 0.0609903 0.451942
0.581064 0.11664 0.478553
0.6177 0.13167 0.506142
0.622171 0.137514 0.530922
0.623835 0.144427 0.563592
0.0422217 0.151049 0.364904
0.0423438 0.142779 0.373465
0.0421454 0.13521 0.368948
0.0836194 0.118715 0.413458
0.423285 0.082887 0.477058
0.549371 0.0988479 0.445838
0.618357 0.134264 0.517296
0.621881 0.138994 0.537881
0.624933 0.145983 0.570413
0.0433814 0.243717 0.388281
0.0432746 0.236652 0.394263
0.0430457 0.231952 0.401312
0.0606088 0.2271 0.419989
0.494697 0.234195 0.599374
0.709606 0.221866 0.604227
0.676646 0.174609 0.54789
0.623163 0.138567 0.536263
0.622553 0.146731 0.573877
0.0446784 0.445762 0.466514
0.0448005 0.447639 0.470344
0.044831 0.44828 0.474784
0.0442206 0.416159 0.458045
0.423911 0.515114 0.622965
0.795163 0.482536 0.708186
0.902007 0.469596 0.70869
0.866361 0.365316 0.7084
0.624674 0.144808 0.534646
0.0931868 0.628504 0.574487
0.100984 0.630014 0.570367
0.102098 0.631754 0.572625
0.101488 0.631617 0.573037
0.146044 0.625254 0.565759
0.742702 0.76704 0.735668
0.915694 0.745953 0.743603
0.915541 0.719158 0.75227
0.908858 0.666438 0.751995
0.220615 0.751812 0.657053
0.225452 0.751369 0.653147
0.226368 0.752087 0.652705
0.225772 0.752621 0.647944
0.217868 0.753613 0.637125
0.536202 0.821988 0.678355
0.861067 0.894652 0.762249
0.918547 0.880125 0.787884
0.916503 0.877256 0.795102
0.233509 0.760906 0.695689
0.231998 0.761273 0.695979
0.234333 0.760922 0.693446
0.235996 0.761044 0.688701
0.233051 0.763928 0.676646
0.330312 0.793835 0.651453
0.783322 0.902907 0.773831
0.903487 0.942626 0.838041
0.901549 0.943038 0.843992
0.24097 0.765255 0.723064
0.241871 0.764324 0.720241
0.242252 0.76286 0.717037
0.238087 0.761044 0.711604
0.236179 0.760433 0.706844
0.251911 0.761196 0.662242
0.78468 0.912108 0.817212
0.901915 0.945525 0.865354
0.901732 0.945907 0.867796
0.0424506 0.140002 0.412818
0.0426184 0.138964 0.414603
0.0424048 0.131853 0.404349
0.0522469 0.132784 0.461479
0.311437 0.11223 0.551995
0.546715 0.130022 0.549447
0.624994 0.145403 0.567834
0.62652 0.152865 0.6056
0.62475 0.153521 0.608042
0.0428779 0.20325 0.445029
0.0428016 0.198352 0.446571
0.042771 0.190066 0.440528
0.0513008 0.196674 0.49189
0.321141 0.17583 0.614359
0.641947 0.206073 0.652461
0.651438 0.16788 0.5888
0.626413 0.153033 0.606439
0.625223 0.153399 0.607691
0.043534 0.255924 0.471763
0.0434882 0.252415 0.473152
0.0432746 0.248524 0.469261
0.0535592 0.254002 0.51783
0.31986 0.228275 0.647013
0.700511 0.260899 0.717494
0.737118 0.237995 0.67071
0.625559 0.151232 0.597299
0.625498 0.153353 0.607507
0.0446326 0.348577 0.518105
0.0446021 0.345068 0.520027
0.0446784 0.348516 0.521035
0.0476387 0.341741 0.540719
0.308522 0.348318 0.65771
0.746487 0.357061 0.780636
0.83682 0.340322 0.75555
0.748394 0.249653 0.689174
0.62417 0.153674 0.608362
0.0491035 0.504677 0.577203
0.0492103 0.504646 0.581003
0.0501106 0.503441 0.581476
0.0458839 0.477058 0.562539
0.289113 0.521309 0.65687
0.750393 0.541924 0.830106
0.896468 0.488777 0.81738
0.884565 0.435874 0.810559
0.832654 0.346593 0.772763
0.115816 0.645609 0.636423
0.114336 0.647211 0.639521
0.117357 0.646891 0.638758
0.118029 0.643046 0.636835
0.153628 0.635554 0.642664
0.682414 0.74258 0.808469
0.900832 0.718975 0.8486
0.917861 0.689204 0.852598
0.908446 0.647471 0.85272
0.219852 0.745739 0.694331
0.217456 0.746792 0.696513
0.223743 0.745281 0.691875
0.221805 0.744167 0.691341
0.195331 0.727886 0.67657
0.553933 0.80827 0.765301
0.862715 0.89781 0.865843
0.918395 0.891814 0.863279
0.914214 0.885786 0.870436
0.241413 0.766262 0.72578
0.239887 0.76556 0.724636
0.245365 0.764614 0.720836
0.244663 0.763867 0.718593
0.233539 0.761028 0.709621
0.36321 0.784421 0.70576
0.818311 0.9252 0.861799
0.907774 0.95024 0.897795
0.906889 0.950805 0.900725
0.241871 0.766491 0.726986
0.241367 0.766583 0.727291
0.243977 0.766079 0.725795
0.24303 0.766262 0.726299
0.242344 0.7664 0.726711
0.272358 0.759609 0.701427
0.79794 0.916472 0.864622
0.909239 0.951431 0.90515
0.909133 0.952209 0.907698
0.0451514 0.350301 0.544625
0.0449836 0.355749 0.548501
0.0449378 0.34609 0.539727
0.0571908 0.376043 0.599374
0.221988 0.38854 0.675364
0.62678 0.394583 0.821271
0.846357 0.400671 0.832364
0.843885 0.366476 0.802945
0.746487 0.258412 0.71812
0.0451972 0.407279 0.572076
0.0452583 0.411002 0.574868
0.0449531 0.396902 0.56524
0.0609445 0.426246 0.619593
0.248356 0.437705 0.688151
0.647074 0.444022 0.835065
0.864439 0.439414 0.847745
0.86595 0.404181 0.829038
0.802304 0.318471 0.765988
0.0463111 0.454002 0.59144
0.0462348 0.454688 0.592462
0.045655 0.439658 0.583078
0.0697642 0.464866 0.634424
0.280003 0.479576 0.699062
0.6663 0.486519 0.843122
0.877379 0.47512 0.856931
0.87921 0.437263 0.843824
0.841413 0.367575 0.803449
0.0532998 0.513176 0.614435
0.0538033 0.517327 0.616968
0.0501564 0.497536 0.604715
0.0776837 0.517922 0.644556
0.301228 0.535897 0.702907
0.659175 0.539895 0.840375
0.886412 0.533074 0.866468
0.893034 0.494835 0.858946
0.878233 0.43447 0.843229
0.082536 0.590341 0.639841
0.0821088 0.592859 0.641962
0.0829938 0.591287 0.640284
0.0798657 0.575936 0.62974
0.307744 0.606409 0.704295
0.636194 0.632624 0.828504
0.891112 0.634607 0.882383
0.903258 0.602152 0.876249
0.897734 0.557794 0.869749
0.141436 0.677226 0.675532
0.140246 0.677928 0.676936
0.142565 0.677317 0.674922
0.129946 0.658549 0.6598
0.244831 0.674189 0.696239
0.658396 0.758495 0.829664
0.880934 0.777508 0.901152
0.912291 0.753948 0.894774
0.908522 0.734859 0.892989
0.232349 0.755718 0.717464
0.230137 0.756252 0.71928
0.232776 0.755245 0.716686
0.22977 0.752239 0.71371
0.198734 0.726818 0.692897
0.586557 0.813123 0.807446
0.855329 0.900999 0.898894
0.917906 0.895338 0.905058
0.91429 0.891478 0.907118
0.24239 0.766384 0.72668
0.241367 0.766583 0.727291
0.244465 0.766003 0.725368
0.246693 0.765545 0.723934
0.241093 0.766369 0.726925
0.429175 0.796384 0.751842
0.830777 0.926131 0.891966
0.915129 0.954864 0.919554
0.91458 0.954986 0.920134
0.242405 0.766384 0.726665
0.241367 0.766583 0.727291
0.241657 0.766537 0.727108
0.243503 0.766171 0.72604
0.243458 0.766186 0.72607
0.318029 0.771725 0.72372
0.809735 0.918853 0.88426
0.915129 0.954589 0.919066
0.914595 0.954986 0.920104
0.0628824 0.549416 0.622904
0.063859 0.554238 0.623056
0.0823987 0.571069 0.644678
0.141512 0.586725 0.673075
0.314168 0.606058 0.706218
0.576822 0.639506 0.805066
0.853758 0.661311 0.890349
0.907378 0.634089 0.880705
0.901564 0.607279 0.876677
0.0753033 0.576593 0.630045
0.075227 0.580423 0.630655
0.0990921 0.597223 0.65388
0.170596 0.608576 0.678447
0.361456 0.632639 0.721035
0.612833 0.67039 0.818311
0.863523 0.688258 0.892683
0.906706 0.662623 0.884001
0.903593 0.636347 0.880766
0.0848554 0.59675 0.635096
0.0889906 0.601801 0.640284
0.119341 0.617731 0.661936
0.204379 0.625681 0.682216
0.40528 0.655222 0.735378
0.6439 0.69691 0.829664
0.872801 0.710674 0.894026
0.908522 0.686488 0.886976
0.906035 0.663096 0.88426
0.0982986 0.620249 0.642435
0.100389 0.623911 0.646723
0.132815 0.638697 0.665949
0.225452 0.646387 0.686625
0.439124 0.680385 0.747127
0.673396 0.730495 0.839796
0.880369 0.740719 0.897017
0.911742 0.718441 0.890227
0.908461 0.698268 0.888289
0.122057 0.653407 0.657282
0.11931 0.654154 0.65893
0.135088 0.658183 0.662318
0.224659 0.674128 0.689418
0.454887 0.709163 0.753384
0.700557 0.77528 0.845838
0.881193 0.788098 0.901671
0.912932 0.768902 0.896483
0.909789 0.754681 0.895521
0.167544 0.695354 0.678279
0.165576 0.696208 0.680034
0.169329 0.695857 0.678309
0.213016 0.703151 0.68806
0.405219 0.735744 0.742031
0.713146 0.820798 0.852598
0.869291 0.856199 0.905486
0.914595 0.843641 0.900816
0.911116 0.836881 0.901701
0.243305 0.76524 0.725353
0.238544 0.764462 0.725551
0.231739 0.75404 0.711482
0.217395 0.740353 0.695598
0.299367 0.756848 0.7187
0.655467 0.84979 0.831998
0.866255 0.918288 0.902525
0.917571 0.924132 0.912764
0.916823 0.921889 0.913146
0.241367 0.766583 0.727291
0.241367 0.766583 0.727291
0.243153 0.766232 0.726238
0.246418 0.765606 0.724086
0.236271 0.752605 0.704387
0.557061 0.834333 0.794797
0.845426 0.930892 0.895735
0.915114 0.954864 0.91957
0.91426 0.955077 0.920501
0.241367 0.766583 0.727291
0.241367 0.766583 0.727291
0.241367 0.766583 0.727291
0.241367 0.766583 0.727291
0.240574 0.765927 0.726528
0.463127 0.806043 0.762905
0.831189 0.926131 0.891814
0.91516 0.954864 0.919524
0.91426 0.955077 0.920501
