bundles/resolve-cinematic-luts/Phantom Luts/Apple Log Phantom LUTS/iPhone 15 Phantom Movie LUTs/65x/Eastman_Legacy iPhone_15_65x.cube
TITLE "Generated by Resolve"
LUT_3D_SIZE 65
0.0475776 0.0390021 0.0391852
0.0475471 0.0390021 0.0392004
0.0475013 0.0390021 0.0392157
0.0473335 0.0390021 0.0392767
0.0470436 0.0390021 0.0393835
0.0466316 0.0390021 0.0395209
0.0463722 0.0390021 0.0396277
0.0462196 0.0390021 0.0396735
0.0461891 0.0390021 0.0396887
0.0466011 0.0390021 0.0397803
0.0493324 0.0390021 0.040238
0.0555886 0.0390021 0.0417182
0.0645457 0.0390021 0.0432288
0.0760052 0.0390021 0.045243
0.088838 0.0390021 0.046479
0.102266 0.0390021 0.0475776
0.115969 0.0399329 0.048127
0.130816 0.0410163 0.048188
0.146715 0.0420691 0.0476081
0.163272 0.0432746 0.0467079
0.181537 0.04448 0.0452125
0.200076 0.0459144 0.0436561
0.218875 0.0468147 0.0409247
0.236423 0.0476387 0.0390021
0.254093 0.0485084 0.0390021
0.270802 0.0490272 0.0390021
0.288396 0.0500496 0.0390021
0.305516 0.0503548 0.0390021
0.321752 0.0513161 0.0390021
0.337758 0.0520027 0.0390021
0.353262 0.0533455 0.0390021
0.367971 0.0543984 0.0390021
0.382177 0.0555886 0.0390021
0.39382 0.0581521 0.0394446
0.403769 0.0616159 0.0404974
0.411109 0.0661479 0.0412146
0.420539 0.0700389 0.0426184
0.430838 0.0745403 0.043595
0.443671 0.0788739 0.0452583
0.45565 0.0835737 0.0464179
0.468818 0.088777 0.0485237
0.481636 0.0935836 0.051606
0.494545 0.097734 0.0548867
0.506584 0.101778 0.0586099
0.519478 0.106126 0.0631418
0.531136 0.109911 0.0682841
0.539086 0.111528 0.0714733
0.542199 0.111376 0.0742199
0.545129 0.110872 0.0770275
0.548379 0.10985 0.0796216
0.552285 0.108309 0.083299
0.556893 0.105837 0.0872511
0.561807 0.10251 0.092134
0.567956 0.0987259 0.0977798
0.575219 0.0932937 0.104677
0.57969 0.084184 0.108324
0.578546 0.0708476 0.107149
0.578546 0.0607156 0.111437
0.584924 0.0628061 0.129641
0.589502 0.0657054 0.147967
0.594507 0.0700236 0.166812
0.598978 0.0747387 0.187289
0.604395 0.0806287 0.208164
0.607919 0.0890822 0.231128
0.610529 0.0991989 0.254917
0.049134 0.0390021 0.0390021
0.0481422 0.0390021 0.0390021
0.0475166 0.0390021 0.0392157
0.0473335 0.0390021 0.0392767
0.0470436 0.0390021 0.0393683
0.0466468 0.0390021 0.0395209
0.0463722 0.0390021 0.0396277
0.0462196 0.0390021 0.0396887
0.0461891 0.0390021 0.039704
0.0461891 0.0390021 0.039704
0.048661 0.0390021 0.0401465
0.0530404 0.0390021 0.0411688
0.0610971 0.0390021 0.042771
0.0720378 0.0390021 0.0442817
0.0853437 0.0390021 0.0458991
0.0986801 0.0390021 0.0468452
0.112963 0.0399023 0.0475929
0.127718 0.0411841 0.0474098
0.143633 0.0424506 0.0469978
0.161227 0.0430762 0.0457008
0.179294 0.0444953 0.0447395
0.198825 0.0458381 0.0427558
0.216785 0.0469673 0.0396124
0.235203 0.0475166 0.0390021
0.252705 0.0483406 0.0390021
0.270085 0.0488441 0.0390021
0.287968 0.0499886 0.0390021
0.304753 0.0505226 0.0390021
0.321294 0.0514382 0.0390021
0.336172 0.052079 0.0390021
0.350744 0.0533913 0.0390021
0.363958 0.0545357 0.0390021
0.377432 0.0561074 0.0390021
0.388251 0.0575418 0.0390021
0.398154 0.059968 0.0390021
0.406043 0.0639048 0.0390021
0.414939 0.0678721 0.0393988
0.425696 0.0713359 0.0410468
0.4374 0.0749523 0.0419165
0.450645 0.0795605 0.0443122
0.462287 0.084062 0.0455634
0.475456 0.0895247 0.0476997
0.488258 0.0944228 0.050248
0.500465 0.09897 0.0539559
0.513222 0.103502 0.0581369
0.525475 0.107637 0.0628977
0.535164 0.110964 0.0682994
0.538918 0.111467 0.0713207
0.542367 0.111284 0.0744335
0.5458 0.11075 0.0774853
0.549416 0.109529 0.0803845
0.553887 0.107515 0.0844587
0.559197 0.104463 0.0891432
0.565026 0.100572 0.0941939
0.572457 0.0959945 0.101488
0.579644 0.0889143 0.108019
0.579934 0.0768597 0.108324
0.578805 0.0618906 0.107698
0.583276 0.0618601 0.123583
0.588571 0.0649119 0.142443
0.593271 0.0688334 0.162188
0.597818 0.0734264 0.182284
0.603494 0.0796216 0.204471
0.607004 0.0877394 0.227131
0.608881 0.0972763 0.249989
0.049134 0.0390021 0.0390021
0.0481422 0.0390021 0.0390021
0.0475166 0.0390021 0.0392157
0.0473487 0.0390021 0.0392767
0.0470436 0.0390021 0.0393683
0.0466468 0.0390021 0.0395209
0.0463722 0.0390021 0.0396277
0.0462196 0.0390021 0.0396887
0.0461738 0.0390021 0.039704
0.0461585 0.0390021 0.039704
0.0476844 0.0390021 0.0400549
0.0508583 0.0390021 0.0406348
0.057023 0.0390021 0.0419471
0.0663005 0.0390021 0.0433356
0.0786145 0.0390021 0.0453498
0.0920577 0.0390021 0.0464637
0.105989 0.0393683 0.0474098
0.1205 0.0406653 0.0474556
0.136995 0.042237 0.0473182
0.154391 0.043183 0.0461738
0.174487 0.0451209 0.0450446
0.195254 0.045594 0.0429847
0.215122 0.046952 0.0398871
0.23357 0.0476692 0.0390021
0.251438 0.0482795 0.0390021
0.268681 0.0489662 0.0390021
0.28687 0.0500649 0.0390021
0.304555 0.0505989 0.0390021
0.321218 0.0514534 0.0390021
0.336629 0.0522011 0.0390021
0.351049 0.0535439 0.0390021
0.364065 0.0546578 0.0390021
0.376837 0.0562448 0.0390021
0.386862 0.0579385 0.0390021
0.395941 0.0601968 0.0390021
0.402472 0.0626688 0.0390021
0.41088 0.0665446 0.0390021
0.421607 0.0695048 0.0390021
0.434226 0.0734112 0.0403754
0.446403 0.0769513 0.0417945
0.458473 0.0813916 0.0437018
0.471489 0.0861677 0.0458228
0.483284 0.0916915 0.047776
0.496315 0.0966201 0.0505684
0.508278 0.100771 0.0541085
0.520043 0.104936 0.0584268
0.529046 0.1084 0.062974
0.536263 0.111421 0.0693675
0.539818 0.111574 0.0720989
0.543374 0.111101 0.0751965
0.547204 0.110292 0.0782177
0.551629 0.108598 0.0821241
0.557137 0.105806 0.0867323
0.562783 0.102266 0.0919966
0.570123 0.0977951 0.0988022
0.578256 0.0914626 0.105928
0.581109 0.0809186 0.108736
0.580118 0.0657816 0.10811
0.581903 0.0613565 0.118914
0.588006 0.064271 0.138918
0.59234 0.0679026 0.158297
0.597009 0.0724346 0.17879
0.603159 0.0790723 0.201404
0.606622 0.087129 0.224369
0.608133 0.0965133 0.247364
0.049134 0.0390021 0.0390021
0.0481422 0.0390021 0.0390021
0.0475166 0.0390021 0.0392157
0.0473487 0.0390021 0.0392767
0.0470588 0.0390021 0.0393683
0.0466468 0.0390021 0.0395209
0.0463722 0.0390021 0.0396277
0.0462196 0.0390021 0.0396887
0.0461738 0.0390021 0.039704
0.0461433 0.0390021 0.039704
0.046952 0.0390021 0.0399023
0.0496071 0.0390021 0.0402838
0.0543526 0.0390021 0.0415198
0.0616465 0.0390021 0.0428321
0.0726177 0.0390021 0.0444343
0.0854658 0.0390021 0.0459297
0.098909 0.0390021 0.0469825
0.113069 0.0404059 0.0476692
0.128084 0.0417945 0.0476234
0.145541 0.0429389 0.046891
0.165347 0.0443885 0.0457008
0.185733 0.0458228 0.0435645
0.207218 0.04654 0.0409552
0.228794 0.0478676 0.0390021
0.247364 0.0483406 0.0390021
0.266575 0.0490883 0.0390021
0.285115 0.0502022 0.0390021
0.303243 0.0507362 0.0390021
0.320897 0.0514687 0.0390021
0.336446 0.0522011 0.0390021
0.351324 0.0535897 0.0390021
0.364309 0.0547341 0.0390021
0.37705 0.0563363 0.0390021
0.387228 0.0581216 0.0390021
0.395819 0.0605325 0.0390021
0.402167 0.0629435 0.0390021
0.409873 0.0661479 0.0390021
0.418906 0.0687877 0.0390021
0.431235 0.0719615 0.0390021
0.443229 0.0754253 0.0399939
0.455619 0.0793317 0.0419165
0.467628 0.0841688 0.0439307
0.480247 0.0889754 0.0462196
0.492348 0.0944228 0.0484474
0.504479 0.0990616 0.0510872
0.516091 0.103365 0.0552834
0.524742 0.106538 0.0597086
0.53167 0.109819 0.0652323
0.536706 0.110933 0.0697032
0.541375 0.111376 0.0734417
0.545357 0.110842 0.0768902
0.549905 0.109392 0.080354
0.555138 0.106996 0.0849012
0.561547 0.103456 0.0901961
0.568399 0.0990158 0.0960861
0.576699 0.0932479 0.103899
0.581308 0.0829023 0.108049
0.581308 0.0695506 0.108492
0.581109 0.0608072 0.115282
0.587335 0.0636149 0.135409
0.591531 0.0670329 0.155016
0.596338 0.071809 0.176242
0.602411 0.078233 0.198459
0.605997 0.086305 0.221973
0.60763 0.0958724 0.245716
0.0491493 0.0390021 0.0390021
0.0481422 0.0390021 0.0390021
0.0475166 0.0390021 0.0392157
0.0473487 0.0390021 0.0392767
0.0470588 0.0390021 0.0393683
0.0466468 0.0390021 0.0395209
0.0463722 0.0390021 0.0396277
0.0462043 0.0390021 0.0396887
0.0461738 0.0390021 0.039704
0.0461891 0.0390021 0.0397192
0.0466011 0.0390021 0.039826
0.0488746 0.0390021 0.0401923
0.0522316 0.0390021 0.0409857
0.0582589 0.0390021 0.0422217
0.0677195 0.0390021 0.0437629
0.0799115 0.0390021 0.0457923
0.0923323 0.0390021 0.0466163
0.105394 0.0400092 0.0476692
0.11902 0.0413977 0.0479286
0.135531 0.0429084 0.0478828
0.154284 0.0437781 0.0466011
0.175616 0.0454871 0.0450141
0.198901 0.0472114 0.0423743
0.222034 0.0476997 0.0390631
0.242664 0.0482795 0.0390021
0.263096 0.0491951 0.0390021
0.282399 0.0503548 0.0390021
0.301137 0.0510719 0.0390021
0.319417 0.051606 0.0390021
0.335851 0.0522316 0.0390021
0.351003 0.0536049 0.0390021
0.364477 0.0547646 0.0390021
0.377417 0.0564279 0.0390021
0.387503 0.0582132 0.0390021
0.396201 0.0606546 0.0390021
0.401602 0.063035 0.0390021
0.409247 0.0661936 0.0390021
0.417823 0.0687572 0.0390021
0.429679 0.0716869 0.0390021
0.441032 0.0746929 0.0390173
0.453513 0.078645 0.0408789
0.464973 0.0825818 0.0424964
0.4766 0.0866712 0.0445716
0.48864 0.0920882 0.0467994
0.501045 0.0975052 0.0492256
0.511971 0.10135 0.0522774
0.519814 0.104585 0.0563363
0.526314 0.107485 0.0612802
0.534264 0.110842 0.0677195
0.538643 0.111131 0.0711681
0.543709 0.11104 0.0753033
0.548074 0.109926 0.078645
0.553704 0.107836 0.0832227
0.560189 0.104341 0.0886397
0.566873 0.0999924 0.0941634
0.575479 0.0947127 0.102159
0.582177 0.0856184 0.108217
0.581537 0.0710613 0.107958
0.580789 0.0604715 0.112459
0.586694 0.0630655 0.132708
0.591089 0.0665599 0.152682
0.596002 0.071397 0.173816
0.601816 0.0776379 0.196735
0.605264 0.0856184 0.219913
0.607324 0.0954604 0.244419
0.0491493 0.0390021 0.0390021
0.0481422 0.0390021 0.0390021
0.0475166 0.0390021 0.0392157
0.047364 0.0390021 0.0392615
0.0470741 0.0390021 0.0393683
0.0466468 0.0390021 0.0395209
0.0463722 0.0390021 0.0396277
0.0462043 0.0390021 0.0396887
0.0461738 0.0390021 0.039704
0.0461585 0.0390021 0.0397192
0.0465858 0.0390021 0.039826
0.0482338 0.0390021 0.0401312
0.050721 0.0390021 0.0406195
0.0558175 0.0390021 0.041825
0.0640421 0.0390021 0.0433204
0.0746166 0.0390021 0.0452583
0.0864118 0.0390021 0.0464637
0.098558 0.0397803 0.0475319
0.111482 0.0411688 0.0481575
0.126604 0.0429084 0.0484627
0.14435 0.0438697 0.0478218
0.165835 0.0454566 0.0460365
0.188647 0.0465248 0.0436103
0.212375 0.0480201 0.0397803
0.235782 0.0480507 0.0390021
0.257649 0.0493629 0.0390021
0.278889 0.050721 0.0390021
0.298146 0.0512856 0.0390021
0.317647 0.0519722 0.0390021
0.334478 0.0524758 0.0390021
0.350561 0.0537423 0.0390021
0.364614 0.0548257 0.0390021
0.377325 0.0564431 0.0390021
0.387869 0.0583047 0.0390021
0.396201 0.0607004 0.0390021
0.401953 0.0632181 0.0390021
0.408972 0.0663157 0.0390021
0.417533 0.0688792 0.0390021
0.428641 0.0716411 0.0390021
0.439216 0.0741131 0.0390021
0.451011 0.0775311 0.0399023
0.462165 0.0811627 0.0410925
0.473915 0.0854505 0.0433204
0.485985 0.0901656 0.0455024
0.497581 0.0954147 0.0476844
0.50898 0.100282 0.0500496
0.516106 0.103304 0.0540017
0.522469 0.106096 0.0584726
0.530434 0.109972 0.0648203
0.536049 0.110964 0.0695048
0.541772 0.111406 0.0739147
0.54667 0.110491 0.0776074
0.552163 0.108522 0.0818341
0.558526 0.105394 0.0869154
0.565621 0.100954 0.092958
0.574304 0.0956741 0.100694
0.582467 0.0874495 0.107958
0.58204 0.0732586 0.107698
0.582269 0.0616312 0.111986
0.586191 0.0626383 0.130159
0.590509 0.0661326 0.150027
0.595834 0.071107 0.172442
0.601205 0.0769665 0.194491
0.604807 0.0851453 0.218463
0.607126 0.09514 0.243259
0.0491646 0.0390021 0.0390021
0.0481422 0.0390021 0.0390021
0.0475166 0.0390021 0.0392157
0.047364 0.0390021 0.0392615
0.0470741 0.0390021 0.0393683
0.0466621 0.0390021 0.0395209
0.0463722 0.0390021 0.0396277
0.0462043 0.0390021 0.0396887
0.0461585 0.0390021 0.039704
0.046128 0.0390021 0.0397192
0.046479 0.0390021 0.0397955
0.0476844 0.0390021 0.0400854
0.0497749 0.0390021 0.0403449
0.0539254 0.0390021 0.0415961
0.0607004 0.0390021 0.0431678
0.0705425 0.0390021 0.0448463
0.0813916 0.0390021 0.0461433
0.0925154 0.0398108 0.0471809
0.105303 0.0413825 0.0485084
0.118853 0.0425269 0.0485847
0.136233 0.0442969 0.0487831
0.155734 0.0453803 0.047425
0.178607 0.0465248 0.0451209
0.203891 0.0475166 0.0414588
0.228061 0.0492103 0.0390021
0.251942 0.0490883 0.0390021
0.273045 0.050248 0.0390021
0.293797 0.0514382 0.0390021
0.313832 0.0522469 0.0390021
0.332845 0.0529946 0.0390021
0.349538 0.0541238 0.0390021
0.364248 0.055024 0.0390021
0.377646 0.0565347 0.0390021
0.388037 0.0583658 0.0390021
0.396902 0.0608225 0.0390021
0.402258 0.0633402 0.0390021
0.409552 0.0665141 0.0390021
0.418128 0.0690623 0.0390021
0.428504 0.0718395 0.0390021
0.438346 0.0741588 0.0390021
0.448569 0.0770581 0.0390021
0.460197 0.0805676 0.0402991
0.471626 0.0845197 0.0419623
0.483299 0.0886397 0.0441596
0.495201 0.0936294 0.0463722
0.505913 0.0986343 0.0485847
0.512398 0.101991 0.0518044
0.518837 0.104677 0.0560464
0.526223 0.108217 0.0617685
0.533486 0.110857 0.0676432
0.539574 0.111788 0.0725109
0.544701 0.111025 0.0765545
0.550607 0.109163 0.0805524
0.557321 0.106081 0.0855879
0.564584 0.101915 0.0915847
0.573404 0.0966049 0.0995804
0.582391 0.0890822 0.107546
0.582452 0.0751965 0.107683
0.583322 0.0623484 0.112261
0.585657 0.0623026 0.128115
0.590158 0.06598 0.149447
0.595453 0.0707561 0.170779
0.600885 0.0766918 0.193652
0.604486 0.0848707 0.217563
0.606973 0.0949111 0.242542
0.0491646 0.0390021 0.0390021
0.0481422 0.0390021 0.0390021
0.0475166 0.0390021 0.0392157
0.047364 0.0390021 0.0392615
0.0470893 0.0390021 0.0393683
0.0466621 0.0390021 0.0395209
0.0463722 0.0390021 0.0396277
0.0462043 0.0390021 0.0396887
0.0461585 0.0390021 0.039704
0.046128 0.0390021 0.0397192
0.0463264 0.0390021 0.0397803
0.0472725 0.0390021 0.0400397
0.0491188 0.0390021 0.0402533
0.0525673 0.0390021 0.0413825
0.0582895 0.0390021 0.0429236
0.0669718 0.0390021 0.0445869
0.0768597 0.0390021 0.0460975
0.0878157 0.0402228 0.0471656
0.0997635 0.041413 0.0484627
0.113176 0.042649 0.0489509
0.129335 0.0443427 0.0492103
0.147784 0.0454261 0.0483253
0.170321 0.0468147 0.0464485
0.194858 0.0479896 0.0434577
0.221073 0.0491951 0.0390326
0.244846 0.0491035 0.0390021
0.268025 0.0500649 0.0390021
0.289815 0.0515755 0.0390021
0.310445 0.0524758 0.0390021
0.329976 0.0534066 0.0390021
0.348196 0.0546426 0.0390021
0.363394 0.0554513 0.0390021
0.377356 0.0567941 0.0390021
0.388708 0.0585031 0.0390021
0.397208 0.0609293 0.0390021
0.402823 0.0635386 0.0390021
0.409964 0.0666972 0.0390021
0.41857 0.0692302 0.0390021
0.428855 0.0720989 0.0390021
0.438376 0.074342 0.0390021
0.448615 0.0775006 0.0390021
0.458473 0.080354 0.0396124
0.469535 0.0840162 0.0410468
0.481361 0.0877699 0.0431525
0.492287 0.0921492 0.0449989
0.50425 0.0977493 0.0480354
0.509483 0.100771 0.0499428
0.515755 0.103746 0.0542153
0.522759 0.106889 0.0593118
0.531228 0.110811 0.0662394
0.537209 0.111971 0.0712902
0.542519 0.111513 0.0753643
0.54818 0.109972 0.0793164
0.555337 0.107042 0.084596
0.563424 0.102617 0.0906539
0.572473 0.0973068 0.0981308
0.581735 0.0901503 0.106355
0.583185 0.0771344 0.108095
0.583566 0.0627298 0.111437
0.585184 0.0621195 0.127138
0.589761 0.0658274 0.14847
0.595071 0.070573 0.16965
0.60058 0.076524 0.193011
0.604013 0.0844892 0.216526
0.606821 0.094789 0.242145
0.0491646 0.0390021 0.0390021
0.0481422 0.0390021 0.0390021
0.0475013 0.0390021 0.0392157
0.0473487 0.0390021 0.0392767
0.0470588 0.0390021 0.0393683
0.0466621 0.0390021 0.0395209
0.0463874 0.0390021 0.0396277
0.0462196 0.0390021 0.0396887
0.0461738 0.0390021 0.039704
0.046128 0.0390021 0.039704
0.0462043 0.0390021 0.0397498
0.0469368 0.0390021 0.0399481
0.0485695 0.0390021 0.0402075
0.0515908 0.0390021 0.0413062
0.0567941 0.0390021 0.042771
0.0640116 0.0390021 0.0442054
0.0736095 0.0395361 0.0461433
0.0833143 0.0407111 0.0472267
0.0952621 0.0418555 0.0484169
0.108354 0.0430762 0.0493477
0.123583 0.0445258 0.0496223
0.141695 0.0457313 0.0490578
0.162783 0.0471962 0.0478523
0.186526 0.0481422 0.0447395
0.212634 0.0489052 0.0404517
0.238407 0.0499428 0.0390021
0.262867 0.0500191 0.0390021
0.286168 0.0515755 0.0390021
0.307652 0.0525521 0.0390021
0.326986 0.0534066 0.0390021
0.331884 0.059266 0.0390021
0.347433 0.0602579 0.0390021
0.361822 0.0615549 0.0390021
0.373892 0.063035 0.0390021
0.383688 0.0652934 0.0390021
0.391241 0.0673228 0.0390021
0.399496 0.0699931 0.0390021
0.408072 0.0728008 0.0390021
0.418311 0.0756695 0.0390021
0.428305 0.0778515 0.0390021
0.437949 0.0814527 0.0390021
0.447929 0.0841993 0.0390021
0.458885 0.0871748 0.0399329
0.470832 0.090074 0.041474
0.48397 0.0939345 0.0437171
0.496529 0.0975509 0.0462806
0.504219 0.100145 0.0484474
0.513436 0.102449 0.0525826
0.523507 0.104372 0.0573892
0.535302 0.108248 0.0646983
0.54342 0.109178 0.0703136
0.549737 0.109117 0.0748913
0.554574 0.107973 0.0787366
0.560906 0.105562 0.0838026
0.568612 0.101396 0.090013
0.576532 0.0964065 0.0968185
0.584466 0.0888228 0.104845
0.587671 0.0781262 0.10901
0.58468 0.0620279 0.109651
0.585855 0.0615702 0.125521
0.590524 0.0652018 0.147311
0.595819 0.0702525 0.169207
0.601389 0.0756237 0.191333
0.606073 0.0836194 0.216083
0.610697 0.0931716 0.241474
0.0508431 0.0390021 0.0390021
0.0501564 0.0390021 0.0390021
0.0496986 0.0390021 0.0390021
0.049485 0.0390021 0.0390021
0.0491646 0.0390021 0.0390021
0.0488289 0.0390021 0.0390021
0.0486152 0.0390021 0.0390021
0.0484779 0.0390021 0.0390021
0.0484169 0.0390021 0.0390021
0.0483406 0.0390021 0.0390021
0.048249 0.0390021 0.0390021
0.0487526 0.0390021 0.0391546
0.0500801 0.0390021 0.0396124
0.0528725 0.0390021 0.0406806
0.0575723 0.0390021 0.0419013
0.0643015 0.0390021 0.043473
0.0734112 0.039353 0.0456245
0.0827802 0.0405432 0.0466773
0.0943923 0.0416419 0.0478828
0.107332 0.0429847 0.0492256
0.120943 0.0443732 0.0497444
0.137865 0.045655 0.0493782
0.157473 0.0470893 0.0485695
0.17969 0.0485542 0.0456703
0.205127 0.049485 0.0420539
0.231052 0.0503853 0.0390021
0.256794 0.0513161 0.0390021
0.28127 0.0519112 0.0390021
0.301335 0.0537118 0.0390021
0.319203 0.0552071 0.0390021
0.333516 0.0582895 0.0390021
0.348211 0.0602121 0.0390021
0.360754 0.062089 0.0390021
0.373465 0.0636606 0.0390021
0.383719 0.0657511 0.0390021
0.391501 0.0675517 0.0390021
0.400137 0.0702373 0.0390021
0.408484 0.0731518 0.0390021
0.419104 0.0759899 0.0390021
0.42887 0.078233 0.0390021
0.438743 0.0822461 0.0390021
0.448432 0.0850538 0.0390021
0.458488 0.0882429 0.0395514
0.469566 0.0903944 0.0408942
0.482307 0.0941176 0.0431525
0.493278 0.096376 0.0453498
0.501213 0.0992294 0.0478218
0.510369 0.10135 0.0507668
0.520562 0.10396 0.0560464
0.531762 0.106767 0.0623789
0.541711 0.10927 0.0691997
0.54789 0.109422 0.0738384
0.553002 0.108598 0.0779126
0.558679 0.106355 0.0827955
0.56611 0.102419 0.0888838
0.574639 0.0972457 0.0957961
0.582849 0.090074 0.103456
0.588495 0.0797436 0.109438
0.583398 0.0624399 0.107576
0.585061 0.061387 0.123552
0.589776 0.0650797 0.145586
0.595209 0.0699626 0.167361
0.600885 0.0754101 0.190509
0.605646 0.083238 0.214954
0.610452 0.0930495 0.241047
0.0508888 0.0390021 0.0390021
0.0501717 0.0390021 0.0390021
0.0497597 0.0390021 0.0390021
0.0495155 0.0390021 0.0390021
0.0491798 0.0390021 0.0390021
0.0488289 0.0390021 0.0390021
0.0486152 0.0390021 0.0390021
0.0484932 0.0390021 0.0390021
0.0484321 0.0390021 0.0390021
0.0483711 0.0390021 0.0390021
0.0484932 0.0390021 0.0390326
0.0491493 0.0390021 0.0394598
0.0505989 0.0390021 0.0400244
0.0534218 0.0390021 0.0411841
0.0580148 0.0390021 0.0426795
0.0636606 0.0390021 0.0438392
0.0724804 0.0399939 0.0457618
0.0810559 0.0412146 0.0467994
0.0925612 0.0425422 0.048127
0.105364 0.0437781 0.0496223
0.119295 0.0451057 0.0501869
0.135683 0.0462348 0.0499886
0.153948 0.0475013 0.049134
0.175341 0.0487068 0.0466011
0.199329 0.0499123 0.0433967
0.225834 0.050782 0.0390021
0.252079 0.0514076 0.0390021
0.277272 0.0519112 0.0390021
0.29868 0.0535897 0.0390021
0.316411 0.0551156 0.0390021
0.332753 0.0582589 0.0390021
0.348318 0.0604105 0.0390021
0.360464 0.0623941 0.0390021
0.372961 0.0642863 0.0390021
0.383093 0.066331 0.0390021
0.391592 0.0679942 0.0390021
0.400244 0.070573 0.0390021
0.409308 0.0735637 0.0390021
0.419974 0.0763561 0.0390021
0.42977 0.0788739 0.0390021
0.439506 0.082826 0.0390021
0.448783 0.0859083 0.0390021
0.458869 0.089601 0.0395209
0.468818 0.0920882 0.0407111
0.480339 0.0941482 0.0425269
0.489265 0.0958724 0.0442969
0.497139 0.0981918 0.0466468
0.506004 0.100999 0.0493782
0.516045 0.103105 0.0538491
0.527184 0.105577 0.059678
0.539315 0.109468 0.0680247
0.546136 0.109758 0.072694
0.551339 0.10901 0.0770123
0.556374 0.107317 0.0813764
0.563333 0.103807 0.087541
0.571405 0.0986954 0.0940566
0.581567 0.0922408 0.102892
0.588754 0.0820935 0.109697
0.581857 0.0639353 0.105806
0.584115 0.0611887 0.120912
0.588846 0.0649729 0.143282
0.594385 0.0698863 0.166155
0.599939 0.0751507 0.189197
0.604669 0.0824598 0.213153
0.609567 0.0927749 0.239689
0.0515602 0.0390021 0.0390631
0.0507973 0.0390021 0.0393378
0.0503548 0.0390021 0.0393072
0.0501411 0.0390021 0.0392615
0.0497292 0.0390021 0.0392615
0.0491951 0.0390021 0.0392767
0.0489052 0.0390021 0.0392767
0.0487221 0.0390021 0.0392462
0.048661 0.0390021 0.0392309
0.0488136 0.0390021 0.0393988
0.0494087 0.0390021 0.0397803
0.0513466 0.0390021 0.0407263
0.0535439 0.0390021 0.0417029
0.0571756 0.0390021 0.0430762
0.0610056 0.0390936 0.0442969
0.0675059 0.0415808 0.0459297
0.0748608 0.043061 0.0470741
0.0848707 0.0445258 0.0488441
0.0961166 0.0457008 0.0499123
0.107088 0.0460975 0.0505226
0.120882 0.0476997 0.0512245
0.135805 0.0479591 0.0508278
0.15346 0.0489204 0.0498512
0.173266 0.0494087 0.047364
0.197009 0.0504005 0.0442054
0.221637 0.0512703 0.0401465
0.247562 0.0521401 0.0390021
0.271824 0.0531014 0.0390021
0.295125 0.0535134 0.0390021
0.314687 0.0552071 0.0390021
0.330251 0.0581369 0.0390021
0.346517 0.0603647 0.0390021
0.361303 0.0624247 0.0390021
0.373114 0.0646677 0.0390021
0.382986 0.066865 0.0390021
0.390906 0.0685435 0.0390021
0.400427 0.0712139 0.0390021
0.409934 0.0740826 0.0390021
0.420935 0.0768444 0.0390021
0.430655 0.079408 0.0390021
0.440009 0.0831769 0.0390021
0.449836 0.0868086 0.0390021
0.458717 0.0904555 0.0391699
0.468544 0.093431 0.0404059
0.478965 0.0954452 0.0420539
0.485756 0.0956436 0.0431373
0.492515 0.0965133 0.0452583
0.500648 0.0995499 0.0477913
0.510582 0.102083 0.051194
0.521111 0.104326 0.0565957
0.533669 0.108141 0.0641184
0.542397 0.109178 0.0701762
0.54931 0.10927 0.0755169
0.554208 0.108049 0.0798962
0.560174 0.105211 0.0857099
0.567636 0.100511 0.0926528
0.578012 0.0942245 0.101701
0.585412 0.0838483 0.107836
0.582513 0.0677958 0.106661
0.583108 0.0609903 0.118318
0.588235 0.0648356 0.141238
0.593103 0.069398 0.163607
0.59855 0.0746777 0.186633
0.603555 0.0820325 0.211276
0.608026 0.0918593 0.236988
0.0543221 0.0390021 0.0424353
0.0535744 0.0390021 0.0426337
0.0529641 0.0390021 0.0425422
0.0521859 0.0390021 0.0419471
0.0511025 0.0390021 0.0413062
0.0505837 0.0390021 0.0412146
0.0502632 0.0390021 0.0410925
0.0500343 0.0390021 0.0409552
0.0500954 0.0390021 0.0409094
0.050721 0.0390021 0.0413214
0.0520943 0.0390021 0.0419928
0.0545968 0.0390021 0.0430152
0.0575113 0.0391241 0.0434882
0.0611429 0.0414435 0.0451667
0.066041 0.0434424 0.04654
0.071931 0.0455482 0.0479133
0.0801251 0.0478981 0.0496223
0.08925 0.049012 0.0507057
0.0995193 0.049546 0.051545
0.112108 0.0506294 0.0529488
0.123659 0.0507057 0.0526741
0.139193 0.0510567 0.0521553
0.155703 0.0509346 0.0509499
0.175463 0.0512856 0.0486152
0.197177 0.0517128 0.0451362
0.220005 0.052369 0.0418402
0.242725 0.0539254 0.0390021
0.266056 0.0541848 0.0390021
0.287388 0.055024 0.0390021
0.309575 0.0556191 0.0390021
0.327901 0.0580758 0.0390021
0.344244 0.0601816 0.0390021
0.359731 0.0625467 0.0390021
0.373922 0.0648508 0.0390021
0.383246 0.0671702 0.0390021
0.390997 0.0690776 0.0390021
0.400244 0.0718853 0.0390021
0.409857 0.0746471 0.0390021
0.421668 0.0773022 0.0390021
0.431327 0.0798962 0.0390021
0.440452 0.0834363 0.0390021
0.450553 0.0874189 0.0390021
0.459129 0.0911574 0.0390021
0.468666 0.0946059 0.0404059
0.476997 0.0967422 0.0413977
0.482292 0.0962692 0.0424811
0.48809 0.0961776 0.0438544
0.495613 0.0977188 0.0461433
0.504524 0.101045 0.0489509
0.515068 0.103532 0.0538796
0.527413 0.106416 0.0606699
0.538842 0.109422 0.0681468
