bundles/resolve-cinematic-luts/Phantom Luts/Apple Log Phantom LUTS/iPhone 15 Phantom Movie LUTs/65x/Eastman_Legacy iPhone_15_65x.cube
TITLE "Generated by Resolve"
LUT_3D_SIZE 9
0.0475776 0.0390021 0.0391852
0.0461891 0.0390021 0.0396887
0.115969 0.0399329 0.048127
0.254093 0.0485084 0.0390021
0.382177 0.0555886 0.0390021
0.468818 0.088777 0.0485237
0.545129 0.110872 0.0770275
0.578546 0.0708476 0.107149
0.610529 0.0991989 0.254917
0.0491646 0.0390021 0.0390021
0.0461738 0.0390021 0.039704
0.0736095 0.0395361 0.0461433
0.212634 0.0489052 0.0404517
0.361822 0.0615549 0.0390021
0.437949 0.0814527 0.0390021
0.523507 0.104372 0.0573892
0.584466 0.0888228 0.104845
0.610697 0.0931716 0.241474
0.0663767 0.0788128 0.060029
0.0627756 0.0698405 0.0559243
0.0993973 0.0763561 0.0583505
0.223026 0.0662242 0.0534829
0.343572 0.0686961 0.0390021
0.439963 0.0854505 0.0390021
0.480461 0.0968032 0.0417182
0.557839 0.106233 0.0848402
0.591684 0.0864118 0.212436
0.0706645 0.177768 0.083772
0.0683909 0.183185 0.0666514
0.069337 0.17229 0.0645304
0.261845 0.215579 0.0844739
0.480674 0.193484 0.103349
0.562295 0.188296 0.103166
0.557778 0.160464 0.0753948
0.490654 0.093904 0.0423896
0.560037 0.0970474 0.105226
0.0932326 0.376471 0.138949
0.0885176 0.385718 0.127275
0.0924849 0.390387 0.0843366
0.094789 0.386755 0.0810254
0.487312 0.465049 0.120897
0.680003 0.43125 0.159213
0.764645 0.390112 0.190646
0.762341 0.347372 0.179232
0.677333 0.249241 0.141711
0.116609 0.583597 0.291585
0.114153 0.580575 0.276539
0.11429 0.585275 0.252537
0.137407 0.583474 0.130373
0.229526 0.600946 0.137346
0.661402 0.669688 0.196887
0.816846 0.662013 0.228305
0.81854 0.645945 0.226749
0.799069 0.604364 0.220188
0.190982 0.746212 0.478676
0.184802 0.736782 0.460365
0.175738 0.725155 0.425422
0.16846 0.711009 0.350103
0.191913 0.679377 0.172259
0.535103 0.784298 0.228199
0.783566 0.79649 0.258137
0.850767 0.783902 0.274403
0.840803 0.770092 0.276356
0.209186 0.78471 0.575128
0.211292 0.783841 0.571191
0.210666 0.781033 0.553719
0.200702 0.764431 0.500679
0.163287 0.706752 0.34197
0.286 0.701335 0.217151
0.695476 0.832044 0.276768
0.874464 0.841474 0.320851
0.873075 0.842786 0.327825
0.200412 0.787305 0.621317
0.203494 0.786236 0.617029
0.204379 0.785672 0.607294
0.205035 0.785443 0.588952
0.206149 0.782055 0.539895
0.193378 0.744137 0.432441
0.464393 0.754711 0.346044
0.811826 0.858656 0.407507
0.872389 0.858259 0.426703
0.0462348 0.0390021 0.0396887
0.0450904 0.0390021 0.0400702
0.128161 0.0428473 0.0752117
0.270893 0.0390021 0.0553902
0.392386 0.0581064 0.0488899
0.479927 0.0939651 0.0632944
0.550439 0.105013 0.0941939
0.570321 0.0686809 0.134188
0.604013 0.111818 0.281453
0.0474556 0.0390021 0.0395056
0.0450446 0.0390021 0.0400397
0.117266 0.0414893 0.049485
0.252338 0.0529946 0.0392004
0.377859 0.0637522 0.0403143
0.468132 0.0975509 0.0515755
0.545068 0.110872 0.0789349
0.573877 0.0618753 0.106783
0.612696 0.104463 0.269734
0.0646525 0.0872511 0.073518
0.0631571 0.0878614 0.0649271
0.10341 0.0817121 0.0599985
0.232853 0.0635691 0.0478828
0.347539 0.0655375 0.0390021
0.449165 0.0871748 0.0403296
0.512032 0.104585 0.0538186
0.565652 0.0975204 0.102602
0.600732 0.0962539 0.240574
0.0716869 0.179614 0.100313
0.0707256 0.183536 0.0846876
0.0722057 0.187442 0.0663157
0.263539 0.216266 0.0844892
0.481559 0.190906 0.102525
0.558297 0.185733 0.100725
0.553536 0.156222 0.0722667
0.502632 0.0953231 0.0461128
0.557122 0.0701305 0.108415
0.0950637 0.372213 0.155505
0.0900435 0.379034 0.142031
0.0932631 0.388937 0.117433
0.0945296 0.385687 0.0808728
0.485985 0.462608 0.119677
0.678035 0.426902 0.158221
0.762768 0.385809 0.189471
0.760586 0.342611 0.177523
0.668376 0.241291 0.138384
0.118456 0.584482 0.304265
0.114977 0.579431 0.289021
0.113283 0.580392 0.263081
0.126116 0.575265 0.141985
0.223392 0.596643 0.135592
0.65803 0.664836 0.195056
0.813993 0.656764 0.226093
0.81677 0.639338 0.225025
0.796872 0.593576 0.218585
0.192264 0.747738 0.485466
0.186069 0.737774 0.467216
0.17702 0.72549 0.433051
0.166735 0.711757 0.360616
0.175891 0.678187 0.187488
0.525719 0.779461 0.22562
0.777218 0.788052 0.257115
0.850797 0.776364 0.283055
0.836866 0.76112 0.286046
0.20914 0.784833 0.576959
0.211307 0.784024 0.573205
0.210941 0.781582 0.556512
0.201312 0.766323 0.501854
0.168917 0.713573 0.36144
0.265629 0.699825 0.228809
0.687282 0.831861 0.284352
0.872602 0.843107 0.329717
0.873259 0.844419 0.338109
0.200504 0.787305 0.621225
0.203632 0.786206 0.617044
0.204456 0.785657 0.607355
0.204837 0.785489 0.588464
0.206332 0.782589 0.542733
0.192401 0.746273 0.437751
0.454109 0.751553 0.347127
0.809674 0.859052 0.407721
0.872221 0.858808 0.431083
0.0443275 0.0390021 0.0542458
0.074815 0.0390021 0.0667887
0.128771 0.0426184 0.0921798
0.270756 0.0390021 0.0958114
0.401572 0.0390021 0.0528115
0.494621 0.0818494 0.076997
0.556085 0.0823987 0.106996
0.579858 0.0771496 0.176318
0.606928 0.116884 0.314107
0.0507973 0.042771 0.0518196
0.0417639 0.0390021 0.0669413
0.122179 0.0424201 0.0896468
0.277211 0.0390021 0.057145
0.399847 0.0619364 0.0490272
0.488869 0.0977188 0.0663615
0.56202 0.0994583 0.101244
0.580728 0.0706493 0.155673
0.617456 0.112016 0.306691
0.062501 0.0919203 0.0835279
0.0593423 0.0907607 0.0835889
0.0983902 0.0832685 0.0862745
0.244007 0.0682078 0.0727092
0.370291 0.071809 0.0477607
0.48806 0.10399 0.0630961
0.54432 0.11078 0.0821698
0.564416 0.0669108 0.119142
0.611978 0.109773 0.285039
0.0712139 0.181628 0.117479
0.0714733 0.184192 0.108064
0.0740063 0.184482 0.0927749
0.264973 0.222232 0.119799
0.490455 0.198764 0.133028
0.574823 0.199268 0.133089
0.58703 0.170916 0.1084
0.549798 0.108858 0.0794842
0.567422 0.0775769 0.163485
0.0983749 0.371176 0.184985
0.0931411 0.372992 0.16875
0.0948653 0.379522 0.143175
0.0941329 0.373907 0.0876478
0.484611 0.461097 0.139055
0.67834 0.420737 0.177722
0.768566 0.384497 0.216327
0.773877 0.343374 0.213825
0.692378 0.257847 0.182925
0.123827 0.59147 0.330404
0.119097 0.583551 0.315877
0.114229 0.577523 0.288334
0.116762 0.573236 0.192432
0.209506 0.585794 0.138231
0.653803 0.658396 0.207767
0.810559 0.642496 0.247974
0.817868 0.621042 0.253178
0.799893 0.569055 0.248432
0.195712 0.753124 0.502327
0.189548 0.742794 0.483848
0.181933 0.730938 0.454932
0.16466 0.709087 0.382406
0.155901 0.679606 0.226947
0.50695 0.769619 0.238254
0.777768 0.788357 0.281331
0.850385 0.770031 0.316594
0.849867 0.758938 0.318883
0.209033 0.784924 0.583322
0.211124 0.784527 0.580102
0.211292 0.783017 0.56582
0.204837 0.772427 0.518242
0.172183 0.724666 0.390616
0.243778 0.701854 0.26508
0.661997 0.829572 0.309636
0.869337 0.846723 0.353262
0.873365 0.848157 0.363333
0.200275 0.787305 0.624445
0.203403 0.786343 0.620218
0.204288 0.785718 0.610346
0.204868 0.785489 0.593103
0.20647 0.783902 0.551507
0.19704 0.754253 0.454551
0.434363 0.747631 0.366018
0.803525 0.861646 0.422553
0.87248 0.861402 0.446967
0.0390021 0.0390021 0.115007
0.0992752 0.0390021 0.163622
0.174044 0.0390021 0.168841
0.255558 0.0390021 0.16733
0.398398 0.0390021 0.166903
0.506996 0.0595865 0.150439
0.572305 0.0847791 0.190402
0.596841 0.111421 0.271427
0.607294 0.118608 0.362921
0.0469215 0.0606546 0.0990768
0.0390021 0.0390021 0.138338
0.103243 0.0390021 0.187472
0.256291 0.0390021 0.16936
0.406195 0.0390021 0.145922
0.507973 0.0571908 0.124849
0.565728 0.0806287 0.17348
0.599908 0.105684 0.260838
0.618128 0.114839 0.361959
0.0543069 0.103532 0.117571
0.0453651 0.0904402 0.133394
0.0646372 0.0829023 0.146242
0.232502 0.0573587 0.154849
0.391379 0.0390021 0.100114
0.516701 0.0625467 0.137087
0.562982 0.0800488 0.167208
0.592233 0.0991836 0.24097
0.61355 0.116503 0.352987
0.0619211 0.182422 0.151324
0.0611734 0.182345 0.151751
0.0608225 0.181689 0.15201
0.267735 0.243641 0.240848
0.525414 0.228534 0.243397
0.640894 0.20589 0.221607
0.668437 0.167773 0.202579
0.580926 0.0782788 0.177676
0.600443 0.113741 0.285603
0.10193 0.375738 0.24828
0.0997787 0.376562 0.243641
0.102342 0.377493 0.230472
0.101259 0.369787 0.185458
0.496071 0.485603 0.275441
0.706615 0.430259 0.291081
0.796414 0.403082 0.31165
0.793683 0.36202 0.310185
0.743908 0.259571 0.274083
0.133486 0.608682 0.386206
0.130739 0.601816 0.375814
0.126467 0.592706 0.354742
0.114443 0.568582 0.283574
0.180621 0.586679 0.241443
0.651514 0.665476 0.290379
0.80708 0.604837 0.325856
0.822705 0.582971 0.330159
0.81677 0.545464 0.32987
0.199222 0.760006 0.536828
0.194949 0.752636 0.519814
0.190616 0.744183 0.499123
0.175662 0.718868 0.44329
0.161837 0.700694 0.360616
0.42533 0.725383 0.276005
0.768505 0.787869 0.347112
0.869841 0.751858 0.382925
0.857923 0.727932 0.38294
0.207645 0.784833 0.596231
0.210117 0.78439 0.594293
0.210422 0.78471 0.582971
0.210376 0.781857 0.555062
0.18703 0.74548 0.450095
0.255665 0.720806 0.365682
0.586297 0.8056 0.356542
0.846387 0.85742 0.418891
0.871336 0.856458 0.417014
0.19942 0.787015 0.63386
0.202441 0.786496 0.629236
0.203708 0.786175 0.619745
0.204776 0.785504 0.604929
0.206332 0.785351 0.569772
0.206714 0.772198 0.491081
0.417548 0.752239 0.414725
0.784237 0.868559 0.480629
0.875532 0.86894 0.490837
0.0390021 0.0405432 0.229175
0.0390021 0.0429236 0.25919
0.105837 0.0390021 0.292622
0.285542 0.0390021 0.284871
0.387747 0.0390021 0.271763
0.51574 0.0797589 0.301839
0.601999 0.12018 0.352209
0.603387 0.120439 0.387961
0.58999 0.115236 0.42565
0.0390021 0.0567941 0.195804
0.0390021 0.0406195 0.226246
0.0390021 0.0423896 0.253162
0.261234 0.0390021 0.298131
0.390677 0.0390021 0.276005
0.522423 0.0831769 0.304372
0.600183 0.120806 0.349874
0.602106 0.120882 0.388449
0.594018 0.113359 0.427146
0.0390021 0.0909743 0.209995
0.0390021 0.0753796 0.223438
0.0390021 0.0660563 0.226734
0.196384 0.0407721 0.285527
0.363699 0.0390021 0.254032
0.525567 0.0856947 0.310979
0.598169 0.121477 0.358007
0.599802 0.121798 0.386801
0.592157 0.114351 0.42594
0.0455024 0.182452 0.217792
0.0424201 0.174792 0.224659
0.0390021 0.166629 0.234882
0.160723 0.220935 0.32256
0.484001 0.193576 0.392218
0.665537 0.215961 0.39794
0.692195 0.195254 0.385473
0.603632 0.121996 0.352209
0.599954 0.119478 0.406851
0.0832685 0.37644 0.313726
0.0811322 0.373617 0.312062
0.0822003 0.371969 0.310277
0.0803082 0.354574 0.295476
0.502358 0.506874 0.493355
0.732448 0.457618 0.458854
0.828229 0.422126 0.441993
0.815778 0.380835 0.445548
0.76878 0.279011 0.446754
0.130922 0.611139 0.447059
0.129534 0.60592 0.441535
0.128496 0.601205 0.432258
0.127779 0.593683 0.408988
0.245472 0.62623 0.430365
0.670802 0.684977 0.487434
0.822644 0.616464 0.468071
0.852125 0.60647 0.475517
0.849867 0.571206 0.477409
0.1944 0.756222 0.572564
0.191012 0.750088 0.560235
0.189166 0.745418 0.550118
0.186358 0.736873 0.522972
0.172396 0.707652 0.45565
0.399634 0.719722 0.424399
0.774136 0.794125 0.480461
0.871138 0.735576 0.48632
0.858976 0.716014 0.488304
0.206104 0.78526 0.622263
0.207752 0.784573 0.617517
0.20798 0.784649 0.606516
0.209277 0.784604 0.591882
0.209613 0.778378 0.543587
0.301717 0.762844 0.486488
0.529458 0.783215 0.447456
0.84625 0.872877 0.514229
0.870344 0.868467 0.526268
0.202228 0.784405 0.660563
0.201328 0.785702 0.648264
0.201953 0.78613 0.639109
0.203464 0.786297 0.6262
0.206607 0.785016 0.603281
0.214649 0.789471 0.554238
0.470985 0.786572 0.539193
0.782071 0.882399 0.580514
0.87834 0.888289 0.594583
0.0390021 0.0475624 0.308934
0.0390021 0.0505531 0.331228
0.0390021 0.0509804 0.358434
0.2159 0.0390173 0.4047
0.416663 0.0564279 0.38909
0.513771 0.0847334 0.392889
0.584878 0.112154 0.435462
0.589548 0.115679 0.452491
0.597314 0.124559 0.479713
0.0390021 0.0598917 0.293034
0.0390021 0.0508125 0.306264
0.0390021 0.0474098 0.305028
0.112627 0.0407721 0.364172
0.380667 0.0466011 0.367758
0.519677 0.0872053 0.399878
0.58468 0.112291 0.438453
0.591241 0.116014 0.453773
0.599374 0.125078 0.483391
0.0390021 0.0925154 0.307027
0.0390021 0.0823682 0.318791
0.0390021 0.0735332 0.312566
0.0824445 0.0626688 0.364508
0.377066 0.0488289 0.375906
0.491295 0.0748302 0.374624
0.585138 0.112337 0.440055
0.591012 0.117494 0.457298
0.600153 0.12549 0.485191
0.0390021 0.187915 0.325368
0.0390021 0.178653 0.332799
0.0390021 0.172595 0.342397
0.0641337 0.181582 0.370672
0.451011 0.192767 0.505776
0.60589 0.191394 0.493507
0.709255 0.211398 0.534539
0.604288 0.126268 0.452705
0.593713 0.121294 0.468223
0.0708019 0.4168 0.413993
0.0695659 0.411734 0.413672
0.0680858 0.406638 0.415167
0.0614023 0.372015 0.394568
0.402396 0.481254 0.581155
0.719005 0.439124 0.631022
0.851759 0.425422 0.614404
0.84271 0.389899 0.623209
0.780789 0.286748 0.597604
0.125109 0.616083 0.526986
0.122484 0.609628 0.517006
0.12047 0.603464 0.511955
0.11722 0.594934 0.503624
0.235706 0.615167 0.53817
0.678203 0.702739 0.679332
0.845228 0.648569 0.641779
0.8701 0.625666 0.640085
0.869261 0.575708 0.642023
0.188525 0.75259 0.617243
0.184878 0.746441 0.606668
0.181918 0.740505 0.596979
0.178912 0.731273 0.577707
0.169635 0.707546 0.542824
0.498711 0.774517 0.635279
0.797543 0.818204 0.670832
0.884688 0.769192 0.651652
0.879377 0.757763 0.65568
0.203677 0.784192 0.6589
0.204868 0.784482 0.65182
0.205173 0.785092 0.642451
0.206378 0.785214 0.629175
0.20914 0.784451 0.603311
0.308263 0.806851 0.597253
0.59971 0.833875 0.638849
0.870314 0.895705 0.672511
0.900969 0.881559 0.678599
0.201663 0.783215 0.679347
0.202014 0.783246 0.674998
0.201663 0.783917 0.667842
0.202945 0.784237 0.660395
0.205844 0.78497 0.641978
0.213107 0.792386 0.609689
0.540505 0.839231 0.670237
0.778271 0.893538 0.703532
0.899199 0.918532 0.719585
0.0390021 0.0551614 0.349157
0.0390021 0.0547646 0.354269
0.0390021 0.0535134 0.354726
0.0647593 0.0509804 0.401816
0.337575 0.052903 0.447715
0.503838 0.0900893 0.446281
0.59968 0.127367 0.490806
0.607843 0.134325 0.518883
0.612604 0.138872 0.540948
0.0390021 0.0974899 0.369787
0.0390021 0.0897841 0.372656
0.0390021 0.0810712 0.366079
0.044892 0.0751354 0.400229
0.337652 0.0691234 0.466468
0.510323 0.0957961 0.45623
0.596048 0.123842 0.476234
0.609003 0.134585 0.522942
0.612375 0.138491 0.539681
0.0390021 0.139803 0.390158
0.0390021 0.132692 0.393866
0.0390021 0.122072 0.38793
0.0505379 0.127245 0.422446
0.368673 0.129335 0.523949
0.570245 0.155047 0.519997
0.631678 0.155596 0.519081
0.60174 0.127764 0.494575
0.613443 0.138552 0.54136
0.0390021 0.25156 0.427604
0.0390021 0.243854 0.42974
0.0390021 0.24007 0.432425
0.0525978 0.240772 0.446372
0.339147 0.244892 0.592416
0.652186 0.263066 0.61825
0.751232 0.270253 0.626062
0.713207 0.226459 0.594553
0.603128 0.130053 0.502022
0.0726787 0.463233 0.514183
0.0706798 0.455665 0.51368
0.068513 0.446983 0.515358
0.0619211 0.416678 0.496208
0.311711 0.475242 0.613657
0.71133 0.472786 0.742367
0.82118 0.42211 0.704356
0.839292 0.392737 0.70219
0.804364 0.327825 0.671733
0.130617 0.634241 0.584024
0.127947 0.626596 0.580728
0.124605 0.61944 0.575753
0.119753 0.607385 0.572946
0.213657 0.610086 0.595209
0.620493 0.686229 0.753979
0.843488 0.645518 0.774533
0.906905 0.605341 0.763333
0.895888 0.550439 0.752514
0.184894 0.751263 0.653864
0.181598 0.743954 0.647486
0.177218 0.737301 0.638209
0.172793 0.727672 0.629358
0.161227 0.700908 0.603418
0.517632 0.775235 0.720272
0.803128 0.830701 0.803326
0.905745 0.797818 0.779721
0.902296 0.774212 0.776715
0.201419 0.78323 0.682979
0.201785 0.783154 0.679316
0.201617 0.783413 0.674586
0.202365 0.783764 0.66714
0.204746 0.784405 0.653117
0.3234 0.797147 0.655894
0.678203 0.879805 0.779828
0.888243 0.91519 0.8
0.920134 0.897612 0.802319
0.201205 0.783413 0.691615
0.201297 0.783337 0.689708
0.201404 0.783291 0.686625
0.201297 0.783307 0.682445
0.202243 0.783276 0.673381
0.215076 0.788556 0.643748
0.571466 0.870253 0.757275
0.809461 0.919478 0.811002
0.91284 0.942031 0.820783
0.0390021 0.1523 0.426551
0.0390021 0.156451 0.43064
0.0390021 0.151034 0.426322
0.0549325 0.177234 0.473823
0.285069 0.191302 0.587991
0.60415 0.23386 0.651942
0.728038 0.255207 0.655406
0.720958 0.232975 0.638941
0.621927 0.14699 0.554345
0.0390021 0.2121 0.45066
0.0390021 0.212818 0.452628
0.0390021 0.199969 0.444709
0.0625772 0.230671 0.495674
0.283925 0.237552 0.61088
0.632776 0.273472 0.690364
0.757763 0.287373 0.684901
0.758572 0.266423 0.671595
0.65301 0.174029 0.582956
0.0390021 0.271565 0.480842
0.0390021 0.271763 0.482307
0.0390021 0.256809 0.471748
0.0771801 0.291173 0.526177
0.291035 0.29044 0.638926
0.664744 0.322957 0.733684
0.789578 0.328969 0.717205
0.797452 0.309758 0.706889
0.723995 0.23563 0.645945
0.0482643 0.370672 0.531212
0.0471199 0.366659 0.530877
0.0451057 0.359319 0.526406
0.0797589 0.37528 0.55285
0.28748 0.388449 0.663264
0.677058 0.402945 0.788144
0.811627 0.390066 0.748455
0.829984 0.371588 0.739773
0.804395 0.318959 0.714733
0.0924086 0.530861 0.593439
0.0898299 0.522957 0.592523
0.087953 0.517281 0.593332
0.0812238 0.498146 0.579705
0.281056 0.523995 0.662516
0.584466 0.512108 0.799039
0.838636 0.51104 0.802472
0.864576 0.472648 0.777325
0.850584 0.42707 0.763058
0.142931 0.663188 0.635966
0.139864 0.655711 0.631952
0.136751 0.648417 0.62916
0.127947 0.6271 0.617761
0.230579 0.636545 0.653727
0.561654 0.67744 0.779232
0.836973 0.680903 0.862242
0.900114 0.625238 0.822736
0.891569 0.585153 0.811353
0.18793 0.758465 0.679362
0.184054 0.750881 0.675853
0.180102 0.74284 0.672099
0.17435 0.732265 0.666453
0.163317 0.708217 0.646525
0.509834 0.759762 0.76553
0.767666 0.823301 0.86009
0.917418 0.787701 0.867811
0.9178 0.763348 0.861845
0.201083 0.78349 0.691539
0.201205 0.783429 0.691707
0.201175 0.783429 0.691585
0.200656 0.783627 0.690166
0.198566 0.777752 0.680644
0.340826 0.789807 0.706401
0.701885 0.88333 0.842008
0.89688 0.922591 0.894163
0.92813 0.911254 0.889128
0.201205 0.783429 0.691707
0.201205 0.783429 0.691707
0.201205 0.783429 0.691707
0.200977 0.78352 0.691432
0.201205 0.783398 0.691356
0.228122 0.790585 0.68751
0.600626 0.87013 0.806882
0.849149 0.941421 0.896498
0.925002 0.95433 0.901534
0.051545 0.383444 0.547051
0.0480964 0.370321 0.540627
0.0538338 0.392828 0.553246
0.111894 0.428321 0.60293
0.276448 0.449073 0.675563
0.548745 0.449744 0.792966
0.820523 0.481941 0.811612
0.865476 0.46598 0.785367
0.85745 0.443397 0.775982
0.0636454 0.431952 0.568368
0.0592966 0.415854 0.561486
0.0635996 0.431876 0.570443
0.121218 0.460441 0.613931
0.29305 0.480568 0.682734
0.557595 0.476448 0.799252
0.830442 0.504936 0.81944
0.871092 0.48394 0.792477
0.862394 0.458579 0.782101
0.0749371 0.476143 0.585031
0.072221 0.466224 0.581613
0.0757458 0.479042 0.588083
0.143114 0.503029 0.628
0.320836 0.521294 0.693614
0.574868 0.513741 0.808423
0.841688 0.535607 0.828946
0.877592 0.510094 0.801755
0.869978 0.482597 0.791302
0.0958419 0.539025 0.604074
0.0914321 0.526238 0.599924
0.0939345 0.534478 0.603784
0.151827 0.552621 0.635126
0.332296 0.570413 0.698375
0.5664 0.564004 0.807904
0.846082 0.581689 0.846799
0.886473 0.548455 0.815274
0.879713 0.518242 0.804578
0.126436 0.622644 0.625574
0.121126 0.60914 0.621454
0.118257 0.601511 0.618494
0.131151 0.607019 0.626322
0.334356 0.629404 0.703563
0.569421 0.648798 0.803586
0.840482 0.658885 0.875639
0.898558 0.617136 0.836378
0.893721 0.586007 0.827268
0.159762 0.701732 0.655634
0.157229 0.69575 0.653498
0.15169 0.682841 0.647913
0.147265 0.672709 0.642878
0.297017 0.688029 0.696834
0.57763 0.726436 0.799725
0.776852 0.741161 0.884962
0.913634 0.713741 0.865904
0.909453 0.687312 0.857557
0.194385 0.77116 0.685435
0.1906 0.764416 0.682216
0.186969 0.75697 0.678767
0.175463 0.734081 0.66807
0.222278 0.739101 0.685588
0.535088 0.779004 0.791012
0.761364 0.839475 0.874357
0.917082 0.828428 0.899199
0.923201 0.808347 0.892607
0.201114 0.783475 0.691585
0.201205 0.783429 0.691707
0.201205 0.783429 0.691707
0.200793 0.783597 0.691234
0.199084 0.779232 0.687434
0.396597 0.804288 0.741161
0.713787 0.886809 0.864393
0.895811 0.928145 0.919875
0.930083 0.919036 0.921431
0.201205 0.783429 0.691707
0.201205 0.783429 0.691707
0.201205 0.783429 0.691707
0.200961 0.78352 0.691417
0.201205 0.783444 0.691707
0.278035 0.796506 0.709834
0.632044 0.878813 0.834409
0.863264 0.945113 0.916732
0.928557 0.956497 0.927199
