bundles/resolve-cinematic-luts/Phantom Luts/Apple Log Phantom LUTS/iPhone 15 Phantom Movie LUTs/65x/Eastman iPhone_15_65x.cube
TITLE "Generated by Resolve"
LUT_3D_SIZE 5
0.0390021 0.0390021 0.0390021
0.144259 0.0390021 0.0410315
0.414191 0.0613107 0.043946
0.588769 0.0988022 0.113375
0.622034 0.114748 0.34139
0.0654612 0.0948806 0.0610208
0.118547 0.0929732 0.0560159
0.374289 0.0803082 0.0390021
0.505379 0.103151 0.0451209
0.612421 0.114351 0.30956
0.0937209 0.425284 0.177905
0.0936751 0.442298 0.0980697
0.529732 0.511849 0.133516
0.776104 0.440635 0.192844
0.722591 0.296086 0.15584
0.206989 0.773266 0.522713
0.193103 0.753262 0.47451
0.194751 0.680003 0.172427
0.791653 0.804868 0.264134
0.846418 0.779309 0.279072
0.206043 0.799939 0.639597
0.210544 0.79884 0.626841
0.213184 0.797818 0.569177
0.475608 0.760204 0.376364
0.873335 0.862364 0.452201
0.0390021 0.0390021 0.0550393
0.16611 0.0390021 0.108034
0.430274 0.0390021 0.103807
0.572122 0.0842756 0.183337
0.61416 0.121996 0.378836
0.0599222 0.110079 0.0963607
0.118639 0.102968 0.104555
0.413062 0.0858015 0.0612802
0.583246 0.0883192 0.118288
0.617411 0.118349 0.359823
0.103563 0.435645 0.248096
0.0955673 0.429328 0.185122
0.526726 0.508598 0.160723
0.784421 0.432059 0.240726
0.741451 0.3019 0.229252
0.208911 0.777539 0.542977
0.198779 0.760113 0.502007
0.155016 0.686046 0.256077
0.784329 0.796094 0.29955
0.855039 0.763348 0.340352
0.205875 0.799878 0.642176
0.210224 0.798917 0.629297
0.213031 0.798657 0.578103
0.452094 0.756329 0.399145
0.874601 0.865843 0.473884
0.0390021 0.0431983 0.263661
0.174548 0.0390021 0.334676
0.424353 0.0482032 0.312795
0.613581 0.124529 0.411475
0.591897 0.117296 0.455817
0.0390021 0.108064 0.237217
0.0390021 0.0784466 0.252094
0.396887 0.042237 0.291081
0.609659 0.124681 0.415671
0.594064 0.116625 0.456458
0.0879835 0.446845 0.373877
0.0879377 0.442817 0.371145
0.541497 0.552651 0.536187
0.840299 0.466026 0.482979
0.800534 0.327214 0.500069
0.20235 0.773236 0.597177
0.197589 0.763851 0.577081
0.181094 0.724788 0.486488
0.785397 0.806104 0.519493
0.860655 0.732738 0.52401
0.208804 0.796414 0.67686
0.207904 0.79855 0.656046
0.214054 0.797833 0.626673
0.505806 0.799985 0.569802
0.883162 0.894652 0.624323
0.0390021 0.0686809 0.362676
0.0390021 0.0593881 0.364752
0.382773 0.0649424 0.459632
0.608026 0.134478 0.520378
0.61561 0.142199 0.558328
0.0390021 0.194339 0.413306
0.0390021 0.167468 0.407675
0.446754 0.191333 0.583032
0.689632 0.206226 0.57792
0.616495 0.141878 0.558877
0.0882429 0.520729 0.547738
0.0834363 0.507744 0.549676
0.377966 0.524468 0.650004
0.838376 0.465232 0.725948
0.824826 0.36759 0.693599
0.193103 0.767697 0.670176
0.186389 0.755734 0.656992
0.16759 0.709453 0.611337
0.81207 0.839429 0.811948
0.905303 0.787076 0.786099
0.21146 0.803754 0.717052
0.208927 0.797818 0.702113
0.208545 0.795911 0.68687
0.602426 0.87837 0.772061
0.915465 0.945098 0.827848
0.0698558 0.456687 0.587823
0.0703441 0.449912 0.582925
0.328115 0.49543 0.699367
0.83267 0.521187 0.827298
0.868391 0.477836 0.789883
0.093431 0.531945 0.61178
0.0913405 0.522362 0.604639
0.372137 0.560983 0.714977
0.85034 0.570428 0.841276
0.878614 0.515846 0.803647
0.139528 0.654948 0.644526
0.128405 0.627283 0.630854
0.388373 0.651499 0.725948
0.847318 0.682628 0.882429
0.898741 0.614404 0.835874
0.204211 0.790372 0.706477
0.195987 0.77348 0.694652
0.269169 0.745037 0.698268
0.773877 0.848219 0.880217
0.924819 0.818082 0.89575
0.211475 0.803815 0.717479
0.211475 0.803815 0.717479
0.211444 0.803738 0.717281
0.658396 0.887022 0.845548
0.930861 0.958877 0.930129
