bundles/resolve-cinematic-luts/Phantom Luts/Apple Log Phantom LUTS/iPhone 15 Phantom Movie LUTs/65x/EastmanRM iPhone_15_65x.cube
TITLE "Generated by Resolve"
LUT_3D_SIZE 5
0.0431525 0.034699 0.0379187
0.139956 0.0338903 0.040116
0.437491 0.0345159 0.0576333
0.608499 0.067277 0.153811
0.656016 0.135332 0.395758
0.0493172 0.102449 0.0464485
0.104829 0.0990311 0.045243
0.399786 0.0378729 0.0475013
0.577905 0.0606088 0.126024
0.652979 0.136538 0.401083
0.0453803 0.405432 0.0991836
0.0465095 0.43595 0.043183
0.554177 0.527642 0.0923323
0.812619 0.415213 0.216251
0.573754 0.0643778 0.147723
0.233051 0.767742 0.560876
0.236332 0.766964 0.543801
0.20383 0.707271 0.287327
0.872389 0.884215 0.452186
0.908156 0.871855 0.486015
0.241581 0.759793 0.68542
0.237644 0.761044 0.685252
0.243122 0.763378 0.657404
0.715648 0.865843 0.618448
0.907515 0.931792 0.727092
0.0418097 0.03682 0.0517891
0.154101 0.041001 0.10219
0.45568 0.0412299 0.118517
0.59144 0.0769818 0.208774
0.646525 0.144884 0.442115
0.0487526 0.123003 0.0881514
0.111009 0.113008 0.0888838
0.43949 0.046891 0.0892958
0.587991 0.0652781 0.172213
0.65539 0.142077 0.433082
0.0466011 0.409628 0.174441
0.0451667 0.421653 0.11017
0.552621 0.524681 0.114717
0.829084 0.419684 0.251423
0.585061 0.0715953 0.195666
0.236194 0.770397 0.579538
0.237552 0.768872 0.563882
0.221088 0.732372 0.397436
0.872724 0.891981 0.473869
0.911772 0.874083 0.515129
0.241474 0.759472 0.687785
0.237644 0.760632 0.687953
0.242847 0.762768 0.662806
0.711498 0.866026 0.640772
0.907317 0.933333 0.745083
0.0417029 0.0668345 0.243259
0.162631 0.046952 0.342626
0.459342 0.0496529 0.326268
0.639033 0.137575 0.40621
0.614984 0.127611 0.485878
0.0417945 0.130495 0.22179
0.0414435 0.100282 0.240467
0.434623 0.0467231 0.307851
0.6392 0.141146 0.419104
0.622477 0.128603 0.490501
0.0462348 0.404135 0.339086
0.0461433 0.411795 0.346761
0.555001 0.555169 0.517205
0.899672 0.464805 0.536431
0.63331 0.14078 0.466606
0.226337 0.761913 0.623835
0.235508 0.763058 0.615335
0.235126 0.766659 0.566537
0.862913 0.897459 0.631189
0.921736 0.870878 0.681758
0.238483 0.759838 0.701732
0.238193 0.759854 0.70013
0.237415 0.760739 0.687831
0.745983 0.889662 0.741405
0.905241 0.940841 0.817029
0.0424506 0.140002 0.412818
0.0424048 0.131853 0.404349
0.311437 0.11223 0.551995
0.624994 0.145403 0.567834
0.62475 0.153521 0.608042
0.043534 0.255924 0.471763
0.0432746 0.248524 0.469261
0.31986 0.228275 0.647013
0.737118 0.237995 0.67071
0.625498 0.153353 0.607507
0.0491035 0.504677 0.577203
0.0501106 0.503441 0.581476
0.289113 0.521309 0.65687
0.896468 0.488777 0.81738
0.832654 0.346593 0.772763
0.219852 0.745739 0.694331
0.223743 0.745281 0.691875
0.195331 0.727886 0.67657
0.862715 0.89781 0.865843
0.914214 0.885786 0.870436
0.241871 0.766491 0.726986
0.243977 0.766079 0.725795
0.242344 0.7664 0.726711
0.79794 0.916472 0.864622
0.909133 0.952209 0.907698
0.0628824 0.549416 0.622904
0.0823987 0.571069 0.644678
0.314168 0.606058 0.706218
0.853758 0.661311 0.890349
0.901564 0.607279 0.876677
0.0848554 0.59675 0.635096
0.119341 0.617731 0.661936
0.40528 0.655222 0.735378
0.872801 0.710674 0.894026
0.906035 0.663096 0.88426
0.122057 0.653407 0.657282
0.135088 0.658183 0.662318
0.454887 0.709163 0.753384
0.881193 0.788098 0.901671
0.909789 0.754681 0.895521
0.243305 0.76524 0.725353
0.231739 0.75404 0.711482
0.299367 0.756848 0.7187
0.866255 0.918288 0.902525
0.916823 0.921889 0.913146
0.241367 0.766583 0.727291
0.241367 0.766583 0.727291
0.240574 0.765927 0.726528
0.831189 0.926131 0.891814
0.91426 0.955077 0.920501
