bundles/resolve-cinematic-luts/Phantom Luts/Apple Log Phantom LUTS/iPhone 15 Phantom Movie LUTs/65x/Eastman_Legacy iPhone_15_65x.cube
TITLE "Generated by Resolve"
LUT_3D_SIZE 5
0.0475776 0.0390021 0.0391852
0.115969 0.0399329 0.048127
0.382177 0.0555886 0.0390021
0.545129 0.110872 0.0770275
0.610529 0.0991989 0.254917
0.0663767 0.0788128 0.060029
0.0993973 0.0763561 0.0583505
0.343572 0.0686961 0.0390021
0.480461 0.0968032 0.0417182
0.591684 0.0864118 0.212436
0.0932326 0.376471 0.138949
0.0924849 0.390387 0.0843366
0.487312 0.465049 0.120897
0.764645 0.390112 0.190646
0.677333 0.249241 0.141711
0.190982 0.746212 0.478676
0.175738 0.725155 0.425422
0.191913 0.679377 0.172259
0.783566 0.79649 0.258137
0.840803 0.770092 0.276356
0.200412 0.787305 0.621317
0.204379 0.785672 0.607294
0.206149 0.782055 0.539895
0.464393 0.754711 0.346044
0.872389 0.858259 0.426703
0.0443275 0.0390021 0.0542458
0.128771 0.0426184 0.0921798
0.401572 0.0390021 0.0528115
0.556085 0.0823987 0.106996
0.606928 0.116884 0.314107
0.062501 0.0919203 0.0835279
0.0983902 0.0832685 0.0862745
0.370291 0.071809 0.0477607
0.54432 0.11078 0.0821698
0.611978 0.109773 0.285039
0.0983749 0.371176 0.184985
0.0948653 0.379522 0.143175
0.484611 0.461097 0.139055
0.768566 0.384497 0.216327
0.692378 0.257847 0.182925
0.195712 0.753124 0.502327
0.181933 0.730938 0.454932
0.155901 0.679606 0.226947
0.777768 0.788357 0.281331
0.849867 0.758938 0.318883
0.200275 0.787305 0.624445
0.204288 0.785718 0.610346
0.20647 0.783902 0.551507
0.434363 0.747631 0.366018
0.87248 0.861402 0.446967
0.0390021 0.0405432 0.229175
0.105837 0.0390021 0.292622
0.387747 0.0390021 0.271763
0.601999 0.12018 0.352209
0.58999 0.115236 0.42565
0.0390021 0.0909743 0.209995
0.0390021 0.0660563 0.226734
0.363699 0.0390021 0.254032
0.598169 0.121477 0.358007
0.592157 0.114351 0.42594
0.0832685 0.37644 0.313726
0.0822003 0.371969 0.310277
0.502358 0.506874 0.493355
0.828229 0.422126 0.441993
0.76878 0.279011 0.446754
0.1944 0.756222 0.572564
0.189166 0.745418 0.550118
0.172396 0.707652 0.45565
0.774136 0.794125 0.480461
0.858976 0.716014 0.488304
0.202228 0.784405 0.660563
0.201953 0.78613 0.639109
0.206607 0.785016 0.603281
0.470985 0.786572 0.539193
0.87834 0.888289 0.594583
0.0390021 0.0551614 0.349157
0.0390021 0.0535134 0.354726
0.337575 0.052903 0.447715
0.59968 0.127367 0.490806
0.612604 0.138872 0.540948
0.0390021 0.139803 0.390158
0.0390021 0.122072 0.38793
0.368673 0.129335 0.523949
0.631678 0.155596 0.519081
0.613443 0.138552 0.54136
0.0726787 0.463233 0.514183
0.068513 0.446983 0.515358
0.311711 0.475242 0.613657
0.82118 0.42211 0.704356
0.804364 0.327825 0.671733
0.184894 0.751263 0.653864
0.177218 0.737301 0.638209
0.161227 0.700908 0.603418
0.803128 0.830701 0.803326
0.902296 0.774212 0.776715
0.201205 0.783413 0.691615
0.201404 0.783291 0.686625
0.202243 0.783276 0.673381
0.571466 0.870253 0.757275
0.91284 0.942031 0.820783
0.051545 0.383444 0.547051
0.0538338 0.392828 0.553246
0.276448 0.449073 0.675563
0.820523 0.481941 0.811612
0.85745 0.443397 0.775982
0.0749371 0.476143 0.585031
0.0757458 0.479042 0.588083
0.320836 0.521294 0.693614
0.841688 0.535607 0.828946
0.869978 0.482597 0.791302
0.126436 0.622644 0.625574
0.118257 0.601511 0.618494
0.334356 0.629404 0.703563
0.840482 0.658885 0.875639
0.893721 0.586007 0.827268
0.194385 0.77116 0.685435
0.186969 0.75697 0.678767
0.222278 0.739101 0.685588
0.761364 0.839475 0.874357
0.923201 0.808347 0.892607
0.201205 0.783429 0.691707
0.201205 0.783429 0.691707
0.201205 0.783444 0.691707
0.632044 0.878813 0.834409
0.928557 0.956497 0.927199
