bundles/resolve-cinematic-luts/Phantom Luts/Apple Log Phantom LUTS/iPhone 15 Phantom Movie LUTs/65x/Eterna_Legacy iPhone_15_65x.cube
TITLE "Generated by Resolve"
LUT_3D_SIZE 65
0.0316777 0.0505837 0.0445869
0.0316472 0.0505989 0.0446326
0.0315709 0.0506447 0.0447852
0.0313726 0.050721 0.0450599
0.0311131 0.0508431 0.0454871
0.0308232 0.0509804 0.0459449
0.0305638 0.0511025 0.0463264
0.030396 0.051194 0.0465248
0.0303349 0.0512245 0.0466011
0.0308995 0.0512703 0.0465248
0.0327306 0.0514076 0.0462348
0.0408637 0.0523537 0.0458839
0.0528878 0.053666 0.0455787
0.0661173 0.054963 0.0459602
0.0858167 0.0580606 0.0514229
0.0988022 0.060441 0.0550698
0.112001 0.0630808 0.0603037
0.126314 0.0654917 0.0641489
0.139956 0.0684367 0.0698711
0.15552 0.0720531 0.0766155
0.171801 0.0750286 0.0822919
0.1897 0.0783246 0.0886549
0.208682 0.0821088 0.0951247
0.228077 0.0858167 0.101183
0.238224 0.0779431 0.0826123
0.257633 0.0809796 0.0865187
0.278309 0.0843824 0.0920424
0.300359 0.0871748 0.0975357
0.323064 0.0906386 0.10338
0.346487 0.0937819 0.10901
0.369909 0.0969863 0.114748
0.393225 0.0999771 0.120348
0.415183 0.102617 0.12488
0.438331 0.10547 0.130709
0.464256 0.10779 0.137667
0.492744 0.109926 0.145403
0.52134 0.112322 0.153124
0.549447 0.114427 0.160601
0.575814 0.117189 0.167865
0.60145 0.119844 0.175174
0.627131 0.122698 0.18323
0.656367 0.12781 0.199344
0.667964 0.1299 0.205798
0.671946 0.13077 0.210773
0.67631 0.132021 0.215808
0.681331 0.133639 0.221836
0.686885 0.135149 0.228489
0.691508 0.136416 0.234989
0.684627 0.127901 0.235782
0.687022 0.128588 0.242786
0.684504 0.126436 0.247318
0.685939 0.127871 0.25481
0.688045 0.12958 0.263676
0.691127 0.131182 0.273075
0.697032 0.133288 0.284932
0.703075 0.135531 0.298161
0.710185 0.139406 0.31339
0.717128 0.142596 0.331289
0.722789 0.144549 0.35108
0.724575 0.142748 0.373754
0.725292 0.140917 0.39472
0.724437 0.138735 0.414481
0.723171 0.136675 0.433234
0.723018 0.134859 0.451469
0.72398 0.132616 0.472679
0.0337072 0.0496376 0.041413
0.0326085 0.0501564 0.0431373
0.0319982 0.0504311 0.0440833
0.0314794 0.0506752 0.0449226
0.0310826 0.0508583 0.0455329
0.0307469 0.0510109 0.0460517
0.0304875 0.0511482 0.0464179
0.0303349 0.0512245 0.0466163
0.0303197 0.0512398 0.0466316
0.031632 0.0513771 0.04654
0.0348516 0.0517433 0.0462806
0.0439002 0.0526589 0.0458686
0.0567941 0.0540017 0.0455329
0.0706188 0.0552224 0.0461738
0.0842451 0.0570077 0.047715
0.0974289 0.0588235 0.0499123
0.110979 0.0612802 0.0534981
0.124376 0.0632486 0.0571145
0.138705 0.0653239 0.0611429
0.154147 0.0677958 0.065568
0.169802 0.06981 0.0694591
0.187335 0.0723125 0.0741131
0.205417 0.0747387 0.0785534
0.224414 0.0769665 0.0830549
0.24419 0.0795758 0.0878309
0.264439 0.0826276 0.092546
0.285451 0.0857557 0.0984054
0.307225 0.0890974 0.103792
0.330373 0.0923171 0.10959
0.35404 0.095613 0.115358
0.378241 0.0990005 0.12134
0.400549 0.101839 0.125856
0.423011 0.104509 0.130358
0.446143 0.107286 0.136126
0.472023 0.109606 0.142626
0.500465 0.111406 0.149767
0.528481 0.113283 0.157046
0.556771 0.115663 0.164279
0.582391 0.118135 0.171023
0.608164 0.120638 0.178454
0.633127 0.123522 0.185946
0.653941 0.126772 0.1935
0.66183 0.128054 0.199054
0.666728 0.129397 0.20444
0.671595 0.130755 0.210117
0.676616 0.132021 0.216083
0.68246 0.133944 0.223056
0.68806 0.135561 0.230243
0.688594 0.133227 0.235309
0.685603 0.128252 0.238636
0.683772 0.125856 0.244099
0.685481 0.127275 0.252354
0.687846 0.128985 0.261173
0.690455 0.130617 0.270939
0.696193 0.132921 0.283452
0.702678 0.135195 0.297078
0.70988 0.139239 0.313191
0.718624 0.143877 0.331167
0.722713 0.144213 0.353277
0.724788 0.14255 0.376501
0.725124 0.140566 0.39794
0.724193 0.138293 0.41825
0.722942 0.136355 0.4365
0.722957 0.134524 0.456031
0.723095 0.132219 0.477134
0.0337224 0.0496376 0.0413977
0.0326085 0.0501411 0.043122
0.0320134 0.0504311 0.0440833
0.0314488 0.0506905 0.0449531
0.0310216 0.0508888 0.0456245
0.0306706 0.0510567 0.0461891
0.030396 0.051194 0.04654
0.0302434 0.0512703 0.0467384
0.0301976 0.0513008 0.0467842
0.0304417 0.0512551 0.0466163
0.0332799 0.0515908 0.0464027
0.0403601 0.0522927 0.0458839
0.0519417 0.0535897 0.0452583
0.0655528 0.054612 0.0448157
0.0793622 0.0557107 0.0446326
0.0935073 0.0573587 0.045655
0.107286 0.0588693 0.0467384
0.121035 0.0601968 0.0481422
0.135348 0.0614328 0.0500343
0.150469 0.0618753 0.0513619
0.165682 0.0632944 0.053666
0.181964 0.0646677 0.0560311
0.199512 0.0663615 0.0587472
0.216968 0.0678416 0.0614023
0.235569 0.0695811 0.0645914
0.254871 0.0719921 0.0682994
0.274601 0.0740978 0.0715648
0.29514 0.0766613 0.0760662
0.315953 0.0799725 0.0817578
0.339117 0.0836347 0.0891585
0.362692 0.0878462 0.0971542
0.386923 0.0917372 0.105043
0.40972 0.0951095 0.111498
0.433097 0.0985122 0.118669
0.46006 0.101686 0.12668
0.489097 0.104692 0.135164
0.518624 0.1075 0.143816
0.546944 0.110369 0.151919
0.57435 0.113664 0.160204
0.600702 0.11725 0.16849
0.626581 0.120821 0.177035
0.647227 0.124132 0.184756
0.653834 0.126055 0.190341
0.658763 0.12723 0.195529
0.664546 0.128786 0.201923
0.670619 0.13048 0.208804
0.676295 0.131945 0.215793
0.68275 0.134112 0.223484
0.688487 0.13579 0.231281
0.687404 0.131899 0.235966
0.683772 0.127169 0.240101
0.683818 0.126665 0.247562
0.686458 0.128252 0.257206
0.689189 0.130098 0.267399
0.694331 0.132265 0.279438
0.701167 0.134585 0.293507
0.708217 0.138323 0.310079
0.717266 0.143145 0.328695
0.722393 0.144183 0.351583
0.724681 0.142687 0.374807
0.72517 0.140597 0.397681
0.724269 0.138384 0.417609
0.722942 0.136355 0.436561
0.723339 0.134493 0.456062
0.722911 0.132128 0.477974
0.033753 0.0496223 0.0413367
0.0326085 0.0501411 0.043122
0.0320287 0.0504158 0.0440528
0.0314641 0.0506905 0.0449378
0.0310063 0.0508888 0.0456397
0.0306401 0.0510719 0.0462196
0.0303502 0.0512245 0.0465858
0.0301823 0.0513008 0.0467994
0.0301213 0.0513313 0.0468757
0.0301976 0.0512856 0.0467689
0.0324559 0.0515908 0.0466163
0.0376745 0.0520333 0.046128
0.0477913 0.0530251 0.0454871
0.0608072 0.0542916 0.0449226
0.0757153 0.0554208 0.0446479
0.091249 0.0570993 0.0456092
0.105913 0.0586862 0.0466316
0.120226 0.0601968 0.048127
0.135027 0.061326 0.0498665
0.150378 0.0618296 0.0511788
0.165988 0.0629435 0.0529183
0.182437 0.0639658 0.0542763
0.199695 0.0650492 0.0560311
0.217578 0.0659342 0.0576333
0.236011 0.0674296 0.0597543
0.254658 0.0686351 0.0616159
0.274327 0.0699321 0.06392
0.294286 0.0718547 0.0671244
0.31458 0.0737469 0.0708324
0.334646 0.0761425 0.0755627
0.357137 0.079118 0.0819562
0.379217 0.082414 0.0889143
0.401923 0.0857557 0.0966506
0.425696 0.0899977 0.105241
0.452873 0.09337 0.114473
0.482704 0.0967575 0.124239
0.512139 0.0997024 0.13344
0.541451 0.103395 0.142443
0.56936 0.108034 0.15227
0.597528 0.113222 0.162539
0.623575 0.118471 0.172045
0.644266 0.123033 0.180987
0.65008 0.12488 0.186419
0.655512 0.126513 0.191989
0.661204 0.12781 0.19823
0.667582 0.129564 0.205264
0.673289 0.131029 0.212146
0.68014 0.133196 0.220401
0.686687 0.135225 0.228672
0.688594 0.133898 0.235035
0.683848 0.127306 0.238392
0.684047 0.126314 0.246387
0.686595 0.127947 0.256229
0.689464 0.129931 0.266835
0.694087 0.132235 0.278935
0.700984 0.13463 0.293492
0.708721 0.138582 0.310948
0.717372 0.143038 0.330114
0.722789 0.144396 0.352941
0.724849 0.142504 0.377569
0.725383 0.14049 0.400031
0.723964 0.137972 0.420996
0.722698 0.136019 0.439612
0.723171 0.134279 0.459358
0.722316 0.131823 0.482139
0.0337835 0.0496071 0.0412909
0.0326085 0.0501411 0.043122
0.0320287 0.0504158 0.0440223
0.0314794 0.0506752 0.0449073
0.0310369 0.0508888 0.0456092
0.0306554 0.0510567 0.0461891
0.0303502 0.0512245 0.0465858
0.0301671 0.0513161 0.0468299
0.0300755 0.0513619 0.0469368
0.0300908 0.0513466 0.0469062
0.0312047 0.0514382 0.0467689
0.0352026 0.0519112 0.0465095
0.042771 0.0525978 0.0459144
0.0540322 0.0536965 0.0450752
0.0677195 0.0547036 0.0445563
0.0845502 0.0565652 0.0451667
0.100084 0.0582895 0.0462043
0.115709 0.0602426 0.0478218
0.130922 0.0611276 0.0491493
0.147082 0.0620584 0.0509194
0.16408 0.0627451 0.0521859
0.181689 0.06392 0.0540475
0.200122 0.0650187 0.0559854
0.218448 0.0658732 0.0575265
0.237003 0.0672618 0.0594339
0.256107 0.0683757 0.0611276
0.275807 0.0692607 0.0629129
0.296681 0.070573 0.0655528
0.316411 0.0715343 0.0678569
0.335836 0.0728313 0.0706035
0.355886 0.074876 0.0747845
0.376989 0.0768139 0.0801556
0.399191 0.0800793 0.0874647
0.42208 0.0839246 0.0960098
0.448951 0.0874189 0.105531
0.478004 0.0903639 0.115206
0.508354 0.0939345 0.125704
0.537469 0.0977951 0.135241
0.565393 0.102525 0.145434
0.593378 0.107576 0.155901
0.619348 0.113451 0.166369
0.638575 0.119097 0.175891
0.647044 0.12372 0.183368
0.652888 0.125704 0.189197
0.658274 0.127092 0.19501
0.664683 0.128817 0.202136
0.671458 0.130694 0.209873
0.67808 0.132464 0.217838
0.685634 0.135012 0.226963
0.689952 0.135363 0.234684
0.684215 0.12752 0.237568
0.684199 0.126101 0.245518
0.686732 0.127749 0.255695
0.689693 0.129824 0.266773
0.694209 0.132174 0.278981
0.701106 0.134707 0.294041
0.709285 0.138903 0.311864
0.71751 0.142809 0.332204
0.723049 0.144198 0.355474
0.72491 0.142245 0.379919
0.725216 0.140139 0.40296
0.723842 0.137728 0.423255
0.722606 0.13579 0.442832
0.722591 0.133913 0.463203
0.721569 0.131426 0.484932
0.0337835 0.0496071 0.0412909
0.0326085 0.0501564 0.0431373
0.0320439 0.0504158 0.0440223
0.0314946 0.0506752 0.0449073
0.0310521 0.0508736 0.0455787
0.0306554 0.0510719 0.0462196
0.0303197 0.0512398 0.0466316
0.0301213 0.0513313 0.0468605
0.030045 0.0513771 0.0469825
0.030045 0.0513771 0.0469825
0.0304265 0.0514076 0.0469215
0.033341 0.0517891 0.0467842
0.0394141 0.0523537 0.0463264
0.0489815 0.0531777 0.0452735
0.0623484 0.0545815 0.0449378
0.0778821 0.0561074 0.0450141
0.0941024 0.0579538 0.0458686
0.109529 0.0601205 0.0473487
0.123857 0.0611734 0.0485237
0.140581 0.0619821 0.0502327
0.157763 0.062623 0.0516213
0.177356 0.0639353 0.0535439
0.196704 0.0647898 0.0551919
0.215839 0.0656138 0.0567788
0.236713 0.0670634 0.0589151
0.256138 0.0683757 0.0611276
0.276783 0.0693828 0.0631418
0.297932 0.0705882 0.0658427
0.318608 0.0714275 0.0683299
0.339132 0.072282 0.0707103
0.359091 0.0736248 0.0738384
0.377981 0.0746624 0.076463
0.39765 0.0759899 0.0809644
0.419684 0.0783551 0.0876326
0.445487 0.0817426 0.0969558
0.475486 0.0853742 0.108186
0.505776 0.0892042 0.119203
0.535103 0.0931868 0.129595
0.5626 0.0978256 0.139727
0.590311 0.103029 0.150149
0.61622 0.109331 0.161563
0.63328 0.115038 0.170932
0.643626 0.121508 0.179889
0.650599 0.124697 0.186496
0.656291 0.126574 0.192721
0.662867 0.12813 0.199863
0.669642 0.130114 0.207721
0.676631 0.13196 0.215976
0.684611 0.134539 0.225299
0.689296 0.134722 0.233387
0.68748 0.129458 0.23859
0.68484 0.125704 0.244968
0.687404 0.127459 0.255573
0.690135 0.129671 0.266865
0.694591 0.132219 0.279622
0.70164 0.13489 0.295186
0.710002 0.139315 0.313069
0.718593 0.143343 0.334447
0.723308 0.143984 0.358343
0.72517 0.141985 0.383093
0.725017 0.139818 0.405615
0.723629 0.137392 0.426261
0.722515 0.135592 0.445579
0.722118 0.133639 0.466163
0.720531 0.1308 0.487907
0.0337835 0.0496071 0.0412909
0.0326085 0.0501564 0.0431373
0.0320439 0.0504158 0.0440223
0.0314946 0.0506752 0.044892
0.0310521 0.0508736 0.0455634
0.0306249 0.0510719 0.0462348
0.0302892 0.0512398 0.0466621
0.0301213 0.0513313 0.0468757
0.0300145 0.0513771 0.0470283
0.0299992 0.0513924 0.0470588
0.0301366 0.0513771 0.0469673
0.0319677 0.051667 0.0469978
0.0363165 0.0521401 0.0467079
0.0447547 0.0530404 0.0459297
0.0571756 0.0543984 0.0455177
0.0721294 0.0560464 0.0453346
0.0886854 0.0583352 0.0463111
0.10312 0.06009 0.047013
0.11696 0.061326 0.0480201
0.132876 0.0623026 0.0498054
0.150347 0.0626993 0.0509651
0.170031 0.0638743 0.0527657
0.190631 0.0645609 0.0540475
0.212497 0.065568 0.0562905
0.233845 0.0668803 0.0584573
0.255161 0.0682383 0.0606088
0.276707 0.0693523 0.0628824
0.298558 0.0705425 0.0659037
0.319509 0.0713664 0.068513
0.34107 0.0721141 0.0711223
0.36228 0.0732738 0.0743877
0.38172 0.0740063 0.0768139
0.401022 0.0747539 0.079942
0.422004 0.076051 0.0843214
0.445548 0.077821 0.0912032
0.47303 0.0808423 0.100832
0.503273 0.0844129 0.112535
0.533028 0.0888838 0.123995
0.560571 0.093904 0.13492
0.587915 0.0988022 0.14551
0.612436 0.104936 0.156344
0.629404 0.112322 0.166979
0.639521 0.118654 0.176135
0.648722 0.123751 0.18436
0.655131 0.125841 0.190799
0.661097 0.127443 0.197543
0.668605 0.129549 0.205921
0.675532 0.13135 0.214359
0.683635 0.134005 0.223911
0.688899 0.134081 0.232425
0.68983 0.130526 0.239307
0.687007 0.125154 0.245396
0.689616 0.126833 0.256275
0.692515 0.129061 0.268055
0.696025 0.131975 0.280949
0.702296 0.135088 0.296345
0.710658 0.139666 0.314763
0.720058 0.144366 0.335927
0.723568 0.143786 0.361089
0.725399 0.141787 0.386175
0.724788 0.139406 0.408804
0.723339 0.137011 0.429664
0.722377 0.135363 0.448203
0.721614 0.133379 0.469917
0.719753 0.130266 0.490623
0.0337835 0.0496071 0.0412909
0.0326085 0.0501564 0.0431373
0.0320439 0.0504158 0.0440223
0.0314946 0.0506752 0.0448768
0.0310674 0.0508736 0.0455482
0.0306249 0.0510719 0.0462348
0.0302892 0.0512398 0.0466621
0.0301213 0.0513313 0.0468757
0.0299992 0.0513771 0.0470436
0.0299687 0.0514076 0.0470893
0.0300145 0.0513771 0.0470283
0.0311284 0.0515297 0.0469825
0.0345922 0.052018 0.046891
0.0413062 0.0527352 0.0462959
0.0522774 0.0544289 0.0461585
0.0664225 0.0562753 0.0459907
0.0821241 0.0585336 0.04654
0.0967422 0.0602731 0.047013
0.110506 0.0619516 0.048249
0.125658 0.0629892 0.049546
0.143252 0.063508 0.0508888
0.1626 0.0641489 0.0522774
0.184009 0.064744 0.0536355
0.206302 0.0657511 0.0554971
0.229465 0.0666514 0.0574807
0.252338 0.0680705 0.0595712
0.27602 0.069276 0.0624552
0.298329 0.0704967 0.0657969
0.320104 0.0713207 0.068574
0.342092 0.0720836 0.0713207
0.363912 0.0730602 0.0746471
0.384863 0.0736858 0.0773785
0.404639 0.0742046 0.0804608
0.425925 0.0751202 0.0841993
0.447929 0.0755932 0.0887007
0.472908 0.0769055 0.0955367
0.501595 0.0801862 0.105852
0.530602 0.0846265 0.11809
0.557717 0.0895552 0.129091
0.584878 0.0947738 0.140444
0.609628 0.100999 0.151736
0.624201 0.108278 0.162325
0.635935 0.115816 0.172229
0.646189 0.121798 0.181537
0.653742 0.125032 0.188754
0.66006 0.126818 0.195682
0.667582 0.128908 0.204135
0.6748 0.130755 0.212818
0.683253 0.133486 0.222919
0.689815 0.134524 0.23209
0.690517 0.129931 0.239216
0.689372 0.124926 0.246296
0.693477 0.125933 0.258228
0.696757 0.127962 0.270314
0.700267 0.131121 0.283467
0.704433 0.13489 0.2981
0.71107 0.139879 0.316045
0.72166 0.145586 0.337896
0.72372 0.143587 0.363867
0.725567 0.141573 0.389364
0.724544 0.13904 0.411887
0.723171 0.136751 0.432135
0.722148 0.135103 0.451057
0.721279 0.133257 0.472724
0.719127 0.1299 0.493172
0.0337835 0.0496071 0.0412909
0.0326085 0.0501411 0.043122
0.0320439 0.0504005 0.0440223
0.0315099 0.05066 0.0448768
0.0310826 0.0508583 0.0455329
0.0306401 0.0510719 0.0462348
0.0302892 0.0512398 0.0466621
0.0301213 0.0513313 0.0468757
0.0299992 0.0513771 0.0470436
0.0299687 0.0514076 0.0470893
0.0299992 0.0513924 0.0470436
0.0305791 0.0514534 0.0469673
0.0331579 0.0518654 0.0469825
0.0386358 0.0526894 0.0466926
0.0481422 0.0545357 0.0466163
0.0607309 0.0567636 0.0466163
0.0759594 0.0590066 0.046952
0.090486 0.0607156 0.0473335
0.104616 0.0625315 0.0485542
0.119249 0.0637217 0.0495613
0.136416 0.0646677 0.0511025
0.155718 0.0649577 0.0522774
0.176928 0.065507 0.0535744
0.200793 0.0661479 0.0552377
0.224216 0.0667277 0.0570077
0.248386 0.0678874 0.059205
0.273442 0.0691844 0.0618906
0.298268 0.0704204 0.065507
0.321263 0.0713359 0.0687114
0.343053 0.0720684 0.0714733
0.376745 0.0705119 0.0771191
0.398856 0.0710613 0.080293
0.420935 0.0712596 0.0833448
0.442985 0.0717021 0.0870222
0.465827 0.0715953 0.0907301
0.490272 0.0720836 0.0958419
0.514397 0.0739147 0.102998
0.540444 0.0774701 0.113054
0.566888 0.0825513 0.125292
0.593133 0.0881056 0.137194
0.616464 0.0948043 0.149111
0.627054 0.103197 0.159274
0.636866 0.112688 0.170291
0.644663 0.120134 0.179141
0.650645 0.124865 0.186679
0.655161 0.12726 0.193194
0.661631 0.12961 0.201205
0.668833 0.131762 0.209964
0.67715 0.134356 0.220005
0.685527 0.136522 0.230228
0.68336 0.129946 0.235904
0.684718 0.126894 0.244633
0.689113 0.127092 0.256336
0.695064 0.128527 0.269795
0.700618 0.131334 0.284352
0.70573 0.135027 0.299886
0.71223 0.14023 0.318425
0.721294 0.144854 0.340658
0.724025 0.143297 0.366995
0.725353 0.141238 0.39202
0.724422 0.138766 0.414267
0.723018 0.136477 0.435248
0.721767 0.13489 0.454231
0.719615 0.133196 0.474372
0.717845 0.130282 0.491615
0.0357519 0.0486305 0.0382391
0.035172 0.0489357 0.0392615
0.0345922 0.0492256 0.0400244
0.0341802 0.049424 0.0406806
0.0336309 0.0496834 0.0415351
0.033051 0.0499428 0.0424506
0.0325475 0.0501869 0.0432288
0.0322271 0.0503243 0.0437324
0.0320897 0.0503853 0.043946
0.0320287 0.0504158 0.0440223
0.0320287 0.0504158 0.0440528
0.0322271 0.0504463 0.0440223
0.0339666 0.0507668 0.0440528
0.0383459 0.0517739 0.0442054
0.0462196 0.0538338 0.0445411
0.057969 0.0567788 0.0453193
0.0712444 0.0591287 0.0458839
0.0851301 0.0609293 0.0464332
0.0995956 0.0630045 0.047837
0.113802 0.0643778 0.0489967
0.130724 0.0656443 0.0508431
0.149096 0.0660868 0.0521706
0.170703 0.0665599 0.0535286
0.193713 0.0667124 0.0546273
0.218784 0.0670329 0.0562905
0.244068 0.0679789 0.0585336
0.269291 0.0693675 0.0612955
0.296788 0.0704662 0.0651255
0.322271 0.0710002 0.0687266
0.348379 0.0713359 0.0726329
0.373022 0.0713512 0.076112
0.398306 0.0714885 0.0800793
0.422049 0.071397 0.0834974
0.445228 0.0714885 0.0872816
0.46949 0.0711986 0.0911269
0.493828 0.0707866 0.0951705
0.518257 0.0719463 0.10135
0.541909 0.0744793 0.108888
0.566033 0.0782788 0.119753
0.591165 0.0843214 0.132479
0.613153 0.091249 0.144488
0.621881 0.0998856 0.154986
0.631739 0.109545 0.165896
0.642298 0.119432 0.177371
0.648844 0.124315 0.185122
0.654383 0.127062 0.192142
0.660945 0.129122 0.20029
0.668757 0.131533 0.209323
0.677211 0.133944 0.219409
0.686549 0.13669 0.230228
0.684794 0.130098 0.236164
0.686702 0.126986 0.24538
0.691081 0.126619 0.257435
0.697108 0.128069 0.271519
0.703456 0.130877 0.286671
0.709239 0.134615 0.303197
0.715297 0.139986 0.321096
0.72134 0.144244 0.344121
0.724254 0.143069 0.369741
0.725216 0.140902 0.394568
0.724239 0.138415 0.417258
0.722896 0.136278 0.43743
0.721447 0.134691 0.457313
0.71902 0.132906 0.477073
0.717723 0.130144 0.492012
0.0357214 0.0486458 0.0382696
0.035172 0.0489357 0.0392615
0.0345769 0.0492256 0.0400397
0.034165 0.049424 0.0406958
0.0336309 0.0496834 0.0415351
0.033051 0.0499428 0.0424506
0.0325628 0.0501717 0.0431983
0.0322576 0.0503243 0.0437018
0.0321202 0.0503853 0.0439155
0.0320745 0.0504005 0.0439918
0.0320439 0.0504005 0.0440223
0.0320897 0.0504005 0.044007
0.0331884 0.05066 0.0440528
0.0366674 0.0517433 0.0444038
0.0437476 0.0538796 0.0448615
0.054139 0.057084 0.045716
0.0670787 0.0598611 0.0462196
0.0803388 0.061677 0.0466926
0.0946517 0.0636912 0.0478828
0.109346 0.0653391 0.0491493
0.12546 0.0669871 0.0510719
0.144167 0.0672465 0.0523232
0.16492 0.0675822 0.0537118
0.187945 0.067628 0.0547494
0.213306 0.067689 0.0562448
0.239872 0.0684215 0.0584573
0.267338 0.0696269 0.0614176
0.293446 0.0703288 0.0640574
0.323323 0.070985 0.0688945
0.34934 0.0712596 0.072755
0.37496 0.0713054 0.0764172
0.400259 0.0715496 0.0803845
0.423377 0.0714427 0.0837568
0.447181 0.071397 0.0875715
0.471794 0.0710002 0.0913558
0.497719 0.0699321 0.0951553
0.521813 0.0701915 0.099794
0.546365 0.072694 0.107271
0.569543 0.0763714 0.116472
0.591836 0.0813916 0.128481
0.610651 0.0881514 0.140826
0.619211 0.0968338 0.151324
0.629633 0.106416 0.163073
0.640482 0.117098 0.174823
0.648524 0.123445 0.184039
0.654261 0.126513 0.191302
0.66067 0.128664 0.199344
0.668894 0.131304 0.208942
0.677226 0.133639 0.21886
0.685389 0.135149 0.229618
0.686885 0.130999 0.237079
0.686427 0.125704 0.245075
0.692622 0.126345 0.258778
0.699123 0.127657 0.272984
0.706493 0.130404 0.289342
0.71252 0.134096 0.305989
0.719738 0.139742 0.325872
0.724453 0.143206 0.349172
0.724804 0.142733 0.373205
0.725124 0.140566 0.397818
0.724086 0.138125 0.419776
0.722728 0.136004 0.440208
0.721279 0.134585 0.459464
0.718379 0.132601 0.47953
0.717479 0.129992 0.492638
0.0357519 0.0486305 0.0382239
0.0351873 0.0489357 0.0392309
0.0346075 0.0492256 0.0400092
0.0341955 0.0494087 0.04065
0.0336461 0.0496681 0.0415045
0.0330816 0.0499275 0.0423896
0.0326085 0.0501564 0.0431525
0.0323033 0.0502937 0.0436255
0.0321508 0.0503548 0.0438544
0.032105 0.0503853 0.0439307
0.0320897 0.0504005 0.0439612
0.0320745 0.0504005 0.0439765
0.0325933 0.0505531 0.044007
0.0354009 0.0515755 0.044419
0.041474 0.053666 0.0449531
0.0512398 0.0572366 0.0461585
0.0634928 0.0604715 0.0466163
0.076524 0.0625925 0.0471809
0.0911879 0.0645457 0.0482032
0.105974 0.0663462 0.049424
0.122454 0.0682078 0.0513161
0.139651 0.068513 0.0525216
0.160678 0.0687572 0.0538338
0.18352 0.0687724 0.0550088
0.208759 0.0686809 0.0564889
0.236301 0.068925 0.0583963
0.263874 0.0701152 0.0612802
0.292271 0.0705425 0.0641031
0.320699 0.0703899 0.0673991
0.352239 0.0712139 0.0733196
0.377798 0.0712749 0.0769665
0.402182 0.0715038 0.0807202
0.425803 0.071397 0.084184
0.449226 0.0713054 0.0879072
0.474861 0.0709239 0.091783
0.500832 0.0696269 0.0953994
0.526513 0.0695659 0.0992905
0.550881 0.0711681 0.105379
0.573877 0.074403 0.114107
0.594446 0.0784161 0.125109
0.609934 0.0850385 0.137392
0.618372 0.0937514 0.148699
0.627848 0.103655 0.160006
0.638727 0.114183 0.171984
0.647974 0.122332 0.18265
0.65362 0.125887 0.190066
0.660395 0.128313 0.19855
0.668345 0.130877 0.208133
0.677317 0.13341 0.218509
0.685481 0.134829 0.22948
0.687877 0.131456 0.237568
0.686564 0.125231 0.245136
0.693263 0.126238 0.259297
0.700099 0.127565 0.274159
0.708019 0.130251 0.290654
0.715221 0.133883 0.308965
0.723491 0.139361 0.329732
0.728511 0.142321 0.353826
0.728206 0.141649 0.378759
0.725872 0.1402 0.400732
0.723888 0.137804 0.422431
0.722591 0.135821 0.442145
0.721065 0.134463 0.462119
0.717556 0.132464 0.481727
0.717266 0.129931 0.493034
0.0359808 0.0493782 0.0386053
0.0352178 0.0489509 0.0392462
0.0346075 0.0492256 0.0400092
0.0342107 0.0494087 0.0406348
0.0336614 0.0496529 0.041474
0.0330968 0.0499275 0.042359
0.0326238 0.0501411 0.043122
0.0323186 0.0502937 0.043595
0.0321813 0.0503548 0.0438087
0.0321355 0.05037 0.0438849
0.032105 0.0503853 0.0439155
0.032105 0.0503853 0.0439307
0.0323491 0.0505074 0.0439918
0.034165 0.0513161 0.0443427
0.0391394 0.0533913 0.0449683
0.0484474 0.0571603 0.0464027
0.0600595 0.0609903 0.0471809
0.0737163 0.063386 0.0477607
0.0881666 0.0654917 0.0485389
0.103548 0.0674296 0.0497444
0.119539 0.0693675 0.0517128
0.137209 0.069688 0.0529183
0.157809 0.0699626 0.0541848
0.18027 0.0698711 0.0552834
0.20557 0.0695506 0.0565652
0.232151 0.0697032 0.0585794
0.261311 0.0704662 0.0610056
0.28954 0.0707408 0.0637369
0.319249 0.070573 0.0673381
0.350118 0.0703899 0.0711223
0.379965 0.0712749 0.0773327
0.405219 0.0713664 0.081178
0.42858 0.0712596 0.0846571
0.452659 0.0710613 0.088426
0.478004 0.0707561 0.0923018
0.504112 0.0695201 0.0959335
0.530175 0.0695506 0.0995651
0.554574 0.0711833 0.104143
0.577691 0.0737316 0.111864
0.598077 0.076524 0.122286
0.611093 0.0819104 0.134676
0.619272 0.0904555 0.146059
0.628519 0.100511 0.157809
0.638483 0.11133 0.170092
0.648341 0.121248 0.181567
0.654124 0.125277 0.189364
0.659953 0.127825 0.197543
0.668116 0.130617 0.207553
0.677043 0.133196 0.218021
0.686122 0.135271 0.22948
0.687892 0.131258 0.237491
0.686778 0.1252 0.245151
0.693492 0.126253 0.259388
0.700252 0.127596 0.27425
0.708492 0.130388 0.291493
0.716289 0.134096 0.310582
0.725048 0.139193 0.332113
0.731777 0.142107 0.35761
0.732082 0.14049 0.383749
0.729915 0.138933 0.406607
0.725216 0.137194 0.425772
0.722484 0.135653 0.444083
0.720729 0.134264 0.463828
0.717357 0.132509 0.481544
0.717449 0.130266 0.491661
0.0373693 0.0534371 0.0407874
0.0361639 0.0525063 0.0407416
0.0354314 0.0517586 0.0412604
0.0349279 0.0514382 0.0416114
0.0342565 0.0512703 0.0422217
0.0334783 0.0508125 0.0427558
0.0328527 0.0505989 0.0433051
0.0324712 0.0505989 0.0437171
0.0322423 0.0504005 0.0438087
