bundles/resolve-cinematic-luts/Phantom Luts/Apple Log Phantom LUTS/iPhone 15 Phantom Movie LUTs/65x/Eterna iPhone_15_65x.cube
TITLE "Generated by Resolve"
LUT_3D_SIZE 9
0.0127413 0.0338598 0.0287327
0.0114443 0.0345312 0.0303197
0.138186 0.0562295 0.0655985
0.282628 0.0766308 0.0982376
0.464271 0.108659 0.151324
0.687297 0.135805 0.225757
0.706661 0.131426 0.285267
0.725917 0.141115 0.394781
0.718395 0.126787 0.52369
0.0145724 0.032929 0.0259861
0.0112917 0.0346075 0.0306249
0.087129 0.0466621 0.0335851
0.257252 0.0611124 0.0525521
0.449058 0.0708782 0.0872206
0.679927 0.125856 0.192721
0.700557 0.129076 0.259724
0.726848 0.140505 0.401022
0.706935 0.120348 0.531884
0.0347906 0.101518 0.071107
0.0267491 0.0979324 0.0478828
0.0872053 0.0964523 0.0503243
0.252049 0.0962387 0.0632792
0.46215 0.0701457 0.08748
0.628336 0.0809033 0.121843
0.710307 0.13138 0.250095
0.739284 0.136828 0.414618
0.727504 0.117845 0.551217
0.0508888 0.263249 0.165377
0.0502785 0.29749 0.104967
0.059617 0.304707 0.0676738
0.296986 0.299504 0.0647288
0.614099 0.275807 0.139727
0.745312 0.210224 0.164508
0.615152 0.0833448 0.116594
0.717281 0.129946 0.296468
0.754131 0.126741 0.527733
0.0409247 0.562814 0.296239
0.039704 0.604456 0.27306
0.0543374 0.630091 0.257572
0.101823 0.661067 0.102785
0.545617 0.599771 0.0695811
0.851225 0.577829 0.198505
0.898512 0.511193 0.231052
0.851804 0.346792 0.213916
0.728313 0.132738 0.276249
0.142412 0.842969 0.557565
0.163333 0.850462 0.552941
0.171984 0.852949 0.541894
0.180316 0.856214 0.489052
0.269108 0.885588 0.212543
0.760678 0.823957 0.196765
0.92575 0.80087 0.266285
0.916457 0.754726 0.246662
0.906081 0.673014 0.232242
0.197665 0.90399 0.725612
0.200534 0.903807 0.722759
0.202914 0.904814 0.71696
0.207401 0.908873 0.695933
0.207507 0.923018 0.594965
0.418799 0.924437 0.259968
0.900359 0.933974 0.320455
0.955657 0.929366 0.372442
0.948791 0.910903 0.346639
0.212085 0.874983 0.813962
0.203967 0.877806 0.816312
0.203861 0.878431 0.812894
0.207523 0.879103 0.800702
0.203845 0.88513 0.77702
0.204623 0.914382 0.677516
0.65742 0.950301 0.479393
0.962234 0.951324 0.595911
0.963516 0.950484 0.596277
0.228275 0.863508 0.845563
0.220203 0.866423 0.847318
0.218601 0.867155 0.846372
0.22385 0.865919 0.841306
0.227314 0.866194 0.830533
0.204852 0.87921 0.806134
0.367758 0.951614 0.669169
0.940551 0.954772 0.728054
0.966781 0.957153 0.75996
0.0112764 0.0346227 0.0306554
0.0105135 0.0350652 0.032105
0.152392 0.0500954 0.118242
0.296452 0.0682536 0.175051
0.478431 0.0960098 0.193332
0.700252 0.117464 0.263188
0.726513 0.131212 0.313603
0.745007 0.134859 0.424933
0.736049 0.119875 0.551431
0.0121767 0.034165 0.0290532
0.00978103 0.0354009 0.0331121
0.147478 0.0538643 0.0556344
0.306355 0.0771038 0.100694
0.487587 0.104036 0.154574
0.707469 0.134829 0.229603
0.716365 0.128252 0.288151
0.735531 0.137026 0.423911
0.712749 0.113802 0.549035
0.0350042 0.120256 0.0996872
0.0303655 0.127123 0.0771496
0.113039 0.116091 0.0580453
0.27042 0.087068 0.0615702
0.469795 0.075227 0.0994278
0.697215 0.123796 0.197726
0.719646 0.124681 0.271733
0.748821 0.133379 0.434394
0.723445 0.11516 0.554406
0.05066 0.25861 0.180224
0.0514992 0.283009 0.1449
0.0573739 0.307668 0.0988327
0.300114 0.304326 0.0638285
0.607202 0.274815 0.138262
0.748867 0.219013 0.166232
0.622507 0.0867018 0.127001
0.723339 0.130449 0.306386
0.752117 0.125521 0.535241
0.0391699 0.545922 0.298909
0.0339818 0.576455 0.279744
0.0453498 0.600656 0.261723
0.0744793 0.638926 0.117098
0.538018 0.591287 0.0686351
0.843442 0.573587 0.193713
0.898802 0.516442 0.230579
0.858534 0.36405 0.217304
0.727092 0.127108 0.293172
0.135561 0.831815 0.553933
0.15317 0.837171 0.547768
0.161318 0.837491 0.532692
0.171618 0.842206 0.478401
0.26215 0.87808 0.208209
0.757961 0.817655 0.19411
0.924575 0.79585 0.263706
0.916274 0.753414 0.246372
0.905669 0.666377 0.23151
0.197711 0.904692 0.723491
0.200732 0.904677 0.719844
0.205005 0.905501 0.712032
0.207568 0.910918 0.687861
0.207538 0.922683 0.593317
0.401266 0.92871 0.292699
0.902571 0.937194 0.340139
0.957305 0.927398 0.387778
0.950744 0.908629 0.365545
0.211276 0.876036 0.809705
0.203296 0.879042 0.810697
0.206409 0.87866 0.805661
0.206683 0.880629 0.793637
0.203479 0.886687 0.771374
0.204639 0.91339 0.681422
0.650401 0.950286 0.49276
0.9626 0.951751 0.607141
0.963775 0.950912 0.606668
0.228595 0.86305 0.847807
0.2206 0.865965 0.849454
0.218891 0.866789 0.848203
0.22707 0.864729 0.840909
0.227237 0.8663 0.829953
0.204776 0.879286 0.80589
0.341833 0.945556 0.671046
0.93727 0.954696 0.731106
0.966995 0.957305 0.765423
0.0125124 0.0341039 0.0590219
0.0536202 0.0375372 0.0577859
0.170306 0.0504616 0.141756
0.296864 0.0618448 0.194339
0.479362 0.0967422 0.227222
0.694469 0.118273 0.275959
0.736461 0.132372 0.329259
0.745205 0.134417 0.430808
0.736263 0.120211 0.550942
0.0120851 0.0343175 0.0296635
0.0116121 0.0341192 0.0784772
0.167315 0.0514076 0.130129
0.317021 0.0728161 0.135897
0.482979 0.0975967 0.175204
0.694286 0.127733 0.240482
0.721859 0.130678 0.306371
0.735042 0.136461 0.434592
0.711376 0.113252 0.552544
0.0369879 0.123827 0.113298
0.0331731 0.127306 0.116167
0.107042 0.11284 0.105684
0.289601 0.102419 0.113497
0.523796 0.109438 0.180529
0.729549 0.133425 0.237995
0.727275 0.127321 0.302739
0.748272 0.132128 0.455802
0.712978 0.110338 0.559289
0.0500801 0.25005 0.196139
0.0491035 0.272038 0.182589
0.0584421 0.286854 0.150149
0.297444 0.29807 0.0960403
0.611994 0.276921 0.181186
0.768719 0.245975 0.216312
0.7093 0.141955 0.207752
0.731441 0.134966 0.329137
0.746654 0.121736 0.549874
0.0381628 0.521431 0.317876
0.0316777 0.547173 0.30927
0.0399023 0.567849 0.288228
0.0518502 0.617761 0.202441
0.526986 0.575235 0.0678874
0.829465 0.561822 0.213993
0.915297 0.51899 0.269261
0.892454 0.386465 0.277607
0.737591 0.131991 0.330114
0.126574 0.813794 0.565515
0.143587 0.814588 0.55761
0.145937 0.812039 0.53492
0.153903 0.815305 0.472587
0.185107 0.845258 0.244862
0.743404 0.797635 0.184665
0.931609 0.780392 0.290745
0.929793 0.744198 0.286854
0.929839 0.65594 0.295171
0.197574 0.90248 0.730037
0.200763 0.90251 0.726406
0.206302 0.903777 0.715892
0.207507 0.911406 0.685924
0.207782 0.922805 0.585504
0.381491 0.932769 0.332708
0.903471 0.940764 0.364767
0.957732 0.923903 0.418738
0.954681 0.901152 0.407385
0.211887 0.875593 0.81091
0.203326 0.878935 0.81117
0.202625 0.880293 0.805051
0.206424 0.881407 0.789899
0.203235 0.888273 0.765713
0.206577 0.913283 0.6766
0.639384 0.950927 0.508064
0.963134 0.952239 0.621973
0.964309 0.951659 0.624369
0.229511 0.861936 0.853666
0.221317 0.864713 0.85565
0.219562 0.86569 0.853849
0.229252 0.86334 0.844129
0.227543 0.865873 0.832135
0.204761 0.879179 0.806424
0.309346 0.944869 0.677287
0.931746 0.954833 0.735775
0.967269 0.957443 0.774517
0.0169528 0.0317388 0.16849
0.168215 0.0444953 0.23476
0.21648 0.0475166 0.20766
0.313237 0.0585489 0.223331
0.49839 0.099794 0.265553
0.710536 0.122835 0.302129
0.749355 0.137377 0.361776
0.749111 0.131792 0.458396
0.729595 0.115694 0.557092
0.0251011 0.0710307 0.106157
0.0138094 0.0345617 0.177813
0.163455 0.04477 0.261158
0.322225 0.0605325 0.221012
0.497948 0.0978256 0.21767
0.707851 0.12108 0.281376
0.742885 0.139879 0.356146
0.742885 0.133242 0.471366
0.710185 0.112383 0.561059
0.0399023 0.139361 0.14168
0.0350042 0.138109 0.169314
0.0306249 0.100313 0.203204
0.293492 0.0804608 0.207553
0.529686 0.102205 0.259632
0.737957 0.124971 0.313863
0.752636 0.135683 0.388525
0.748272 0.130648 0.503182
0.708751 0.114946 0.570626
0.0505379 0.243046 0.219059
0.0488441 0.256443 0.226963
0.0568399 0.262455 0.234897
0.305699 0.301656 0.278752
0.654078 0.302815 0.3093
0.840009 0.281163 0.3458
0.777218 0.170169 0.323461
0.745769 0.133791 0.438331
0.727153 0.10753 0.574197
0.0389868 0.481437 0.354726
0.0312505 0.504524 0.36762
0.0332799 0.52195 0.373068
0.0375677 0.543008 0.305562
0.515816 0.568307 0.237644
0.851942 0.566262 0.358602
0.948196 0.547753 0.415442
0.93257 0.4486 0.414893
0.752667 0.132204 0.439155
0.122683 0.780011 0.590845
0.133425 0.778256 0.590951
0.131212 0.776028 0.578943
0.135286 0.78085 0.525734
0.133639 0.811292 0.398611
0.72958 0.792676 0.284596
0.9561 0.75874 0.434424
0.956344 0.73611 0.444099
0.956069 0.673091 0.453086
0.19704 0.896376 0.747677
0.199069 0.895979 0.74641
0.199496 0.89839 0.739422
0.210819 0.903639 0.710781
0.213153 0.917983 0.619562
0.362905 0.944717 0.461555
0.89485 0.938704 0.460029
0.961242 0.91487 0.530831
0.962875 0.891508 0.524742
0.214542 0.872679 0.821057
0.204898 0.876265 0.822568
0.203769 0.877867 0.81648
0.200855 0.881773 0.800519
0.203571 0.886809 0.770611
0.205509 0.912505 0.684428
0.615305 0.956283 0.565591
0.965133 0.953735 0.67509
0.96553 0.953857 0.682109
0.232074 0.860975 0.861692
0.222782 0.864027 0.864378
0.221927 0.864347 0.862806
0.223514 0.863935 0.857038
0.228717 0.863951 0.841657
0.204349 0.877714 0.815961
0.304921 0.939803 0.704372
0.921233 0.956252 0.759075
0.968399 0.958251 0.801175
0.0179446 0.0368505 0.328756
0.0573281 0.0413977 0.383169
0.232166 0.0535897 0.393164
0.378363 0.0623484 0.342672
0.526406 0.086305 0.349874
0.743114 0.133806 0.38526
0.753796 0.132036 0.437903
0.756054 0.127977 0.514122
0.721248 0.108568 0.577203
0.0245518 0.0872511 0.232532
0.0120699 0.0486458 0.288716
0.0476081 0.0406348 0.389044
0.364324 0.0605478 0.386435
0.519265 0.0822919 0.355673
0.743984 0.134539 0.388388
0.754025 0.130663 0.458091
0.740001 0.125246 0.535164
0.716182 0.113695 0.591134
0.0433967 0.151064 0.219242
0.0343328 0.121157 0.260395
0.0285496 0.0923018 0.307668
0.231708 0.0554208 0.350011
0.52958 0.0758679 0.392615
0.754421 0.130114 0.439521
0.758541 0.128145 0.498665
0.730983 0.112444 0.565026
0.719799 0.114458 0.61265
0.0515602 0.240757 0.259251
0.051667 0.243595 0.279088
0.0513924 0.250599 0.312215
0.118776 0.252399 0.369467
0.603586 0.228595 0.463539
0.838132 0.254765 0.475593
0.79968 0.17052 0.484504
0.738766 0.118563 0.555383
0.723781 0.111467 0.607797
0.0408179 0.455146 0.397925
0.0334325 0.470481 0.416678
0.0354162 0.483558 0.43949
0.0449378 0.483482 0.44155
0.525216 0.550668 0.514717
0.878157 0.56405 0.553903
0.961303 0.556466 0.589364
0.946578 0.455085 0.590631
0.729137 0.111147 0.568856
0.12488 0.739361 0.610895
0.119738 0.740276 0.617029
0.116442 0.735561 0.61735
0.113817 0.733608 0.598962
0.0897536 0.730968 0.522347
0.712047 0.77731 0.489937
0.966888 0.770825 0.600641
0.968521 0.762356 0.63006
0.969223 0.697398 0.63856
0.196109 0.889601 0.770245
0.20061 0.887236 0.769924
0.214008 0.88101 0.761288
0.211902 0.881514 0.743557
0.212207 0.896223 0.695308
0.432227 0.950545 0.619394
0.88365 0.926986 0.59939
0.965606 0.900893 0.660975
0.963836 0.880461 0.662364
0.212772 0.87013 0.840513
0.206882 0.872175 0.841794
0.205203 0.873549 0.837507
0.202487 0.876951 0.824537
0.200214 0.883345 0.792859
0.205905 0.899245 0.72015
0.664881 0.954147 0.698543
0.965331 0.957992 0.769039
0.968292 0.957275 0.781369
0.230976 0.861097 0.873274
0.229831 0.861463 0.873579
0.228107 0.862043 0.872908
0.22652 0.862654 0.869383
0.222156 0.864302 0.862333
0.207553 0.874128 0.828901
0.393149 0.932372 0.764782
0.910033 0.958633 0.811307
0.969573 0.960235 0.851301
0.0139315 0.0405127 0.463798
0.0271916 0.0444495 0.516625
0.171923 0.0572824 0.574044
0.366445 0.0663157 0.549233
0.599649 0.0793164 0.517037
0.752499 0.12372 0.542077
0.745327 0.120745 0.551141
0.727825 0.107683 0.574716
0.735622 0.108034 0.631434
0.0269322 0.109209 0.401434
0.0285039 0.0994736 0.447028
0.0268254 0.0807355 0.495521
0.182864 0.0532235 0.483574
0.602609 0.078172 0.556863
0.742596 0.117708 0.554284
0.732921 0.112963 0.564736
0.727443 0.108553 0.599329
0.72871 0.114183 0.650828
0.0395209 0.147646 0.353277
0.0417334 0.137255 0.390051
0.0419318 0.125811 0.446632
0.100465 0.113954 0.462852
0.524224 0.0709087 0.52752
0.73373 0.107546 0.573693
0.727306 0.105669 0.580728
0.732372 0.109026 0.625452
0.730205 0.115434 0.675608
0.0465095 0.257664 0.360815
0.0536049 0.254215 0.392264
0.0557259 0.259663 0.447944
0.0538338 0.250141 0.506889
0.497078 0.230167 0.61709
0.777173 0.190478 0.612421
0.801343 0.17023 0.598566
0.727764 0.109865 0.612421
0.735836 0.11249 0.675608
0.0339055 0.467826 0.49308
0.0360876 0.476005 0.512581
0.0466011 0.485588 0.53547
0.0438087 0.495399 0.575082
0.352102 0.509544 0.634485
0.829023 0.466651 0.694881
0.957809 0.495995 0.695293
0.938979 0.393088 0.705516
0.759594 0.128832 0.633539
0.10573 0.726452 0.673106
0.118257 0.715129 0.669352
0.116472 0.707515 0.671565
0.111345 0.701747 0.6701
0.0826429 0.66479 0.62417
0.718624 0.754421 0.719478
0.969497 0.765667 0.754879
0.969589 0.744961 0.772122
0.9691 0.661402 0.780087
0.200473 0.877211 0.797681
0.210758 0.869368 0.793072
0.210651 0.86157 0.788602
0.203525 0.854353 0.775982
0.182879 0.860746 0.758007
0.426261 0.886976 0.731731
0.877363 0.913008 0.733806
0.965362 0.893263 0.786191
0.96466 0.887205 0.802762
0.212314 0.867674 0.861295
0.206394 0.86949 0.863645
0.20824 0.869276 0.860182
0.208698 0.869917 0.852659
0.200916 0.876478 0.830442
0.207538 0.877989 0.762005
0.718822 0.954818 0.811948
0.96759 0.960922 0.861234
0.96643 0.96318 0.880339
0.222126 0.87361 0.906264
0.234928 0.8692 0.901076
0.237766 0.868376 0.899519
0.23209 0.866499 0.893217
0.217899 0.865553 0.884321
0.205158 0.870558 0.857649
0.543587 0.924147 0.840574
0.912245 0.960143 0.878325
0.965576 0.96524 0.911803
0.0442512 0.171206 0.622324
0.0518959 0.203037 0.653193
0.0559243 0.196201 0.664973
0.162493 0.144488 0.634791
0.546197 0.0764935 0.647623
0.73933 0.108934 0.655818
0.730663 0.111864 0.639933
0.735515 0.111391 0.659175
0.741863 0.111696 0.703151
0.0447242 0.196094 0.6009
0.0498512 0.227176 0.64007
0.0585794 0.238911 0.675349
0.0794232 0.228901 0.677943
0.502083 0.153079 0.703975
0.727993 0.105455 0.643626
0.735897 0.111742 0.66807
0.736843 0.113375 0.692332
0.738888 0.114702 0.734493
0.0438392 0.212436 0.568276
0.049424 0.232502 0.607004
0.0610361 0.23621 0.639094
0.0590219 0.24213 0.656672
0.429984 0.224628 0.739147
0.746838 0.142184 0.686961
0.739727 0.111727 0.68957
0.739101 0.113359 0.70663
0.736568 0.115755 0.734218
0.0420996 0.309178 0.563012
0.0479133 0.315663 0.602975
0.0569467 0.316136 0.644434
0.0606088 0.328222 0.683055
0.32163 0.329931 0.722911
0.772473 0.243275 0.757916
0.821714 0.189136 0.702602
0.73846 0.110552 0.669184
0.739467 0.114565 0.737026
0.040238 0.515846 0.623362
0.0470588 0.5196 0.641093
0.0590982 0.519554 0.659419
0.0629892 0.523323 0.692439
0.155474 0.494118 0.696254
0.723461 0.487114 0.837736
0.933181 0.404898 0.785534
0.927291 0.358907 0.772778
0.85687 0.224399 0.742184
0.124666 0.720104 0.737636
0.121798 0.715221 0.739986
0.12752 0.701976 0.732219
0.13695 0.69041 0.728206
0.103624 0.663722 0.72607
0.611337 0.717464 0.828138
0.952712 0.686519 0.854414
0.96968 0.670695 0.852567
0.958801 0.572198 0.853056
0.203449 0.862211 0.836713
0.19527 0.857588 0.837354
0.205493 0.842023 0.825086
0.197253 0.831342 0.816281
0.176822 0.831586 0.815518
0.441566 0.832486 0.803571
0.87837 0.898894 0.873335
0.972366 0.893828 0.882048
0.968811 0.880156 0.891691
0.207202 0.868849 0.881559
0.209186 0.868177 0.880156
0.221241 0.864271 0.872786
0.223011 0.863844 0.867964
0.204211 0.87013 0.865461
0.261173 0.87631 0.819333
0.738613 0.94313 0.890745
0.96614 0.964843 0.92723
0.965942 0.967086 0.941268
0.217838 0.8757 0.912047
0.222599 0.874144 0.910079
0.224277 0.873594 0.909331
0.223331 0.873899 0.909789
0.218036 0.875639 0.911971
0.202136 0.86305 0.872374
0.645319 0.913252 0.893751
0.93164 0.962402 0.93666
0.966461 0.967636 0.94905
0.0775921 0.358053 0.769421
0.0846113 0.408331 0.791318
0.0860761 0.423865 0.788983
0.135103 0.424216 0.81474
0.447227 0.350958 0.863828
0.783902 0.221607 0.810208
0.741955 0.112413 0.714183
0.739162 0.114778 0.7393
0.739162 0.114778 0.7393
0.0716259 0.34966 0.753902
0.0817731 0.393606 0.783093
0.0892653 0.444587 0.798291
0.0892805 0.456062 0.795377
0.397101 0.449683 0.86331
0.790158 0.308888 0.871412
0.838514 0.210681 0.794202
0.739116 0.114794 0.739208
0.739055 0.114824 0.739086
0.0648661 0.339605 0.734417
0.074342 0.378485 0.763745
0.0852064 0.41706 0.791028
0.0884108 0.439429 0.791196
0.331258 0.48101 0.852277
0.76199 0.381033 0.899519
0.889738 0.278874 0.839246
0.754421 0.127596 0.743191
0.738964 0.114855 0.738903
0.0597696 0.401846 0.730266
0.0700847 0.43444 0.756115
0.0829786 0.447654 0.783627
0.0949264 0.47245 0.79498
0.227649 0.481163 0.838407
0.678904 0.45922 0.917296
0.912367 0.331807 0.859739
0.856184 0.23125 0.801205
0.739162 0.114778 0.7393
0.0819562 0.570138 0.740215
0.0892042 0.580987 0.761563
0.0981918 0.580636 0.777478
0.10837 0.576745 0.788739
0.097612 0.548882 0.776165
0.560906 0.590143 0.894179
0.902159 0.470039 0.885512
0.918379 0.373709 0.837446
0.892287 0.277165 0.815763
0.145953 0.739162 0.804532
0.143359 0.736934 0.811612
0.145449 0.724163 0.808103
0.1514 0.707973 0.801358
0.139895 0.695781 0.809796
0.47013 0.704311 0.86273
0.875135 0.711971 0.94548
0.951217 0.623377 0.894804
0.944244 0.573419 0.886625
0.207279 0.857084 0.871489
0.198871 0.854261 0.872892
0.197818 0.842771 0.864805
0.198978 0.825788 0.851606
0.181613 0.819913 0.855207
0.303044 0.806073 0.849699
0.810575 0.872969 0.935943
0.969436 0.856199 0.936996
0.966781 0.839826 0.93843
0.217288 0.875761 0.91165
0.217655 0.875761 0.912093
0.218723 0.875105 0.909712
0.229465 0.867063 0.894438
0.208362 0.868498 0.887373
0.239918 0.863554 0.860533
0.738186 0.927932 0.927901
0.967559 0.967132 0.964126
0.968215 0.967758 0.966842
0.217472 0.875822 0.912154
0.217487 0.875822 0.912139
0.221286 0.874571 0.910628
0.218875 0.875364 0.911635
0.217655 0.875761 0.912093
0.206622 0.863462 0.890227
0.681529 0.917159 0.931456
0.946731 0.961471 0.962203
0.968872 0.969039 0.967178
0.103792 0.558404 0.80911
0.111757 0.605753 0.810147
0.155535 0.652003 0.824384
0.243717 0.674403 0.851255
0.432837 0.660197 0.869322
0.748852 0.579797 0.936095
0.92137 0.404303 0.890074
0.882445 0.271336 0.840955
0.739055 0.114824 0.739101
0.105058 0.555108 0.813764
0.108705 0.585931 0.811566
0.116396 0.629786 0.809094
0.216693 0.679454 0.847791
0.416129 0.691173 0.870329
0.740612 0.677867 0.942565
0.93286 0.516899 0.90988
0.918242 0.373678 0.882933
0.828931 0.203708 0.806821
0.0995651 0.524895 0.810117
0.109514 0.579858 0.816922
0.111482 0.6038 0.809369
0.169039 0.65391 0.82681
0.368215 0.691066 0.864179
0.714183 0.721447 0.932708
0.9411 0.59498 0.924559
0.925765 0.450584 0.897108
0.899199 0.298711 0.859785
0.102388 0.541497 0.812284
0.110552 0.584024 0.817441
0.112627 0.603449 0.813504
0.119783 0.627756 0.809155
0.267613 0.66949 0.852216
0.626291 0.712688 0.909682
0.919814 0.642237 0.935256
0.930266 0.491997 0.903685
0.912016 0.330495 0.874571
0.124437 0.644663 0.82504
0.129412 0.663539 0.827695
0.13312 0.673976 0.828702
0.134813 0.676219 0.827451
0.125139 0.658747 0.812985
0.503609 0.699779 0.886183
0.856123 0.706188 0.950637
0.938827 0.563775 0.917159
0.922972 0.420005 0.892836
0.165499 0.767376 0.859754
0.166217 0.768566 0.860761
0.164538 0.763684 0.858518
0.161685 0.75378 0.854505
0.14522 0.719432 0.835126
0.391531 0.73547 0.875654
0.785916 0.801541 0.940063
0.956558 0.724849 0.944427
0.945342 0.622583 0.929152
0.215457 0.871794 0.909651
0.213718 0.869505 0.908339
0.208377 0.86041 0.901305
0.199329 0.842908 0.886763
0.190234 0.826459 0.880674
0.261204 0.805661 0.87747
0.746807 0.864439 0.938842
0.959548 0.901274 0.957702
0.961456 0.850797 0.954574
0.217472 0.875822 0.912154
0.217472 0.875822 0.912154
0.217533 0.875807 0.912139
0.218784 0.875395 0.911665
0.217472 0.875822 0.912154
0.201053 0.854917 0.875257
0.648493 0.912886 0.927932
0.947387 0.963912 0.964858
0.968017 0.967041 0.967956
0.217472 0.875822 0.912154
0.217472 0.875822 0.912154
0.217533 0.875807 0.912139
0.217472 0.875822 0.912154
0.217472 0.875822 0.912154
0.217472 0.875822 0.912154
0.613596 0.907195 0.922866
0.940337 0.962448 0.96379
0.969436 0.969436 0.969436
