bundles/resolve-cinematic-luts/Phantom Luts/Apple Log Phantom LUTS/iPhone 15 Phantom Movie LUTs/65x/Eterna iPhone_15_65x.cube
TITLE "Generated by Resolve"
LUT_3D_SIZE 5
0.0127413 0.0338598 0.0287327
0.138186 0.0562295 0.0655985
0.464271 0.108659 0.151324
0.706661 0.131426 0.285267
0.718395 0.126787 0.52369
0.0347906 0.101518 0.071107
0.0872053 0.0964523 0.0503243
0.46215 0.0701457 0.08748
0.710307 0.13138 0.250095
0.727504 0.117845 0.551217
0.0409247 0.562814 0.296239
0.0543374 0.630091 0.257572
0.545617 0.599771 0.0695811
0.898512 0.511193 0.231052
0.728313 0.132738 0.276249
0.197665 0.90399 0.725612
0.202914 0.904814 0.71696
0.207507 0.923018 0.594965
0.900359 0.933974 0.320455
0.948791 0.910903 0.346639
0.228275 0.863508 0.845563
0.218601 0.867155 0.846372
0.227314 0.866194 0.830533
0.367758 0.951614 0.669169
0.966781 0.957153 0.75996
0.0125124 0.0341039 0.0590219
0.170306 0.0504616 0.141756
0.479362 0.0967422 0.227222
0.736461 0.132372 0.329259
0.736263 0.120211 0.550942
0.0369879 0.123827 0.113298
0.107042 0.11284 0.105684
0.523796 0.109438 0.180529
0.727275 0.127321 0.302739
0.712978 0.110338 0.559289
0.0381628 0.521431 0.317876
0.0399023 0.567849 0.288228
0.526986 0.575235 0.0678874
0.915297 0.51899 0.269261
0.737591 0.131991 0.330114
0.197574 0.90248 0.730037
0.206302 0.903777 0.715892
0.207782 0.922805 0.585504
0.903471 0.940764 0.364767
0.954681 0.901152 0.407385
0.229511 0.861936 0.853666
0.219562 0.86569 0.853849
0.227543 0.865873 0.832135
0.309346 0.944869 0.677287
0.967269 0.957443 0.774517
0.0179446 0.0368505 0.328756
0.232166 0.0535897 0.393164
0.526406 0.086305 0.349874
0.753796 0.132036 0.437903
0.721248 0.108568 0.577203
0.0433967 0.151064 0.219242
0.0285496 0.0923018 0.307668
0.52958 0.0758679 0.392615
0.758541 0.128145 0.498665
0.719799 0.114458 0.61265
0.0408179 0.455146 0.397925
0.0354162 0.483558 0.43949
0.525216 0.550668 0.514717
0.961303 0.556466 0.589364
0.729137 0.111147 0.568856
0.196109 0.889601 0.770245
0.214008 0.88101 0.761288
0.212207 0.896223 0.695308
0.88365 0.926986 0.59939
0.963836 0.880461 0.662364
0.230976 0.861097 0.873274
0.228107 0.862043 0.872908
0.222156 0.864302 0.862333
0.393149 0.932372 0.764782
0.969573 0.960235 0.851301
0.0442512 0.171206 0.622324
0.0559243 0.196201 0.664973
0.546197 0.0764935 0.647623
0.730663 0.111864 0.639933
0.741863 0.111696 0.703151
0.0438392 0.212436 0.568276
0.0610361 0.23621 0.639094
0.429984 0.224628 0.739147
0.739727 0.111727 0.68957
0.736568 0.115755 0.734218
0.040238 0.515846 0.623362
0.0590982 0.519554 0.659419
0.155474 0.494118 0.696254
0.933181 0.404898 0.785534
0.85687 0.224399 0.742184
0.203449 0.862211 0.836713
0.205493 0.842023 0.825086
0.176822 0.831586 0.815518
0.87837 0.898894 0.873335
0.968811 0.880156 0.891691
0.217838 0.8757 0.912047
0.224277 0.873594 0.909331
0.218036 0.875639 0.911971
0.645319 0.913252 0.893751
0.966461 0.967636 0.94905
0.103792 0.558404 0.80911
0.155535 0.652003 0.824384
0.432837 0.660197 0.869322
0.92137 0.404303 0.890074
0.739055 0.114824 0.739101
0.0995651 0.524895 0.810117
0.111482 0.6038 0.809369
0.368215 0.691066 0.864179
0.9411 0.59498 0.924559
0.899199 0.298711 0.859785
0.124437 0.644663 0.82504
0.13312 0.673976 0.828702
0.125139 0.658747 0.812985
0.856123 0.706188 0.950637
0.922972 0.420005 0.892836
0.215457 0.871794 0.909651
0.208377 0.86041 0.901305
0.190234 0.826459 0.880674
0.746807 0.864439 0.938842
0.961456 0.850797 0.954574
0.217472 0.875822 0.912154
0.217533 0.875807 0.912139
0.217472 0.875822 0.912154
0.613596 0.907195 0.922866
0.969436 0.969436 0.969436
