bundles/resolve-cinematic-luts/Phantom Luts/Apple Log Phantom LUTS/iPhone 15 Phantom Movie LUTs/65x/Eterna iPhone_15_65x.cube
TITLE "Generated by Resolve"
LUT_3D_SIZE 65
0.0127413 0.0338598 0.0287327
0.0127108 0.0338903 0.0287327
0.0126192 0.0339513 0.0287327
0.0124361 0.0340276 0.0287327
0.0121767 0.034165 0.0290532
0.0118715 0.0343175 0.029572
0.0115816 0.0344549 0.0300298
0.0114443 0.0345312 0.0303197
0.0114443 0.0345312 0.0303197
0.0124666 0.0345006 0.0298314
0.0159457 0.0345159 0.0288396
0.0323033 0.0352941 0.0286259
0.0531777 0.037171 0.0287327
0.0723583 0.039826 0.0314183
0.100771 0.0473793 0.0446479
0.119036 0.0516518 0.0541085
0.138186 0.0562295 0.0655985
0.157794 0.0594339 0.0724498
0.177432 0.0636912 0.0834669
0.196826 0.0669108 0.0935531
0.217166 0.0708476 0.102586
0.238117 0.0754559 0.112123
0.25977 0.0806287 0.122011
0.281697 0.0865949 0.132708
0.282628 0.0766308 0.0982376
0.303105 0.0805982 0.104082
0.325048 0.0851453 0.111299
0.347295 0.0890822 0.117815
0.371145 0.0936141 0.12578
0.394888 0.0975662 0.132815
0.418494 0.101472 0.139681
0.441642 0.105241 0.145617
0.464271 0.108659 0.151324
0.489036 0.112505 0.158923
0.517327 0.115312 0.167361
0.54876 0.118074 0.177462
0.579873 0.121126 0.187381
0.609293 0.124147 0.196872
0.637018 0.127749 0.206485
0.663066 0.131548 0.215991
0.687297 0.135805 0.225757
0.709438 0.14255 0.246647
0.710765 0.138781 0.249409
0.702602 0.130053 0.250034
0.703731 0.129961 0.255818
0.703471 0.128573 0.261448
0.704662 0.128817 0.26923
0.705882 0.129824 0.277272
0.706661 0.131426 0.285267
0.70692 0.133333 0.29369
0.708247 0.136172 0.303014
0.71104 0.139452 0.312917
0.715984 0.142565 0.326146
0.722438 0.145846 0.340597
0.7234 0.144076 0.358419
0.724834 0.142535 0.376684
0.725917 0.141115 0.394781
0.726787 0.139742 0.412512
0.727611 0.138521 0.429587
0.728405 0.137758 0.445792
0.729091 0.13724 0.462165
0.728756 0.136584 0.478904
0.726223 0.134783 0.494896
0.722438 0.131533 0.509483
0.718395 0.126787 0.52369
0.0145266 0.0329595 0.0260777
0.0135195 0.0334478 0.0276646
0.0130007 0.0337072 0.0285039
0.0125429 0.0339818 0.0287327
0.0121462 0.0341802 0.029099
0.0118257 0.0343328 0.0296483
0.0115511 0.0344701 0.0301061
0.011429 0.0345312 0.0303502
0.0115053 0.0345006 0.0301976
0.0137179 0.0345922 0.0296178
0.0200809 0.0348821 0.0287938
0.0378576 0.0357824 0.0286717
0.0591745 0.0376745 0.0289464
0.0792096 0.0412604 0.0328069
0.097261 0.0445106 0.0377508
0.114794 0.0477302 0.043534
0.132845 0.0512093 0.05037
0.151858 0.0543221 0.0575113
0.170825 0.0573892 0.0644236
0.189166 0.0602274 0.0710307
0.208331 0.0635691 0.0779889
0.228595 0.0673838 0.0851759
0.248188 0.0704967 0.0918593
0.268482 0.0742504 0.098558
0.289982 0.0779278 0.10573
0.311559 0.081651 0.112337
0.333577 0.0855726 0.119402
0.355596 0.0896468 0.125902
0.379217 0.0939193 0.133196
0.403159 0.0981308 0.140505
0.427665 0.102831 0.147982
0.450309 0.106737 0.153445
0.473396 0.110353 0.159045
0.498314 0.114092 0.166155
0.527092 0.117372 0.174899
0.558618 0.119875 0.184207
0.588754 0.122744 0.193652
0.617548 0.125429 0.202365
0.644221 0.128847 0.211231
0.669932 0.132845 0.220417
0.693935 0.13753 0.230182
0.707759 0.141131 0.237995
0.709667 0.139651 0.242741
0.706172 0.134951 0.245457
0.701961 0.129564 0.248676
0.702068 0.128374 0.255131
0.703426 0.128527 0.262989
0.704662 0.129244 0.271427
0.705592 0.130526 0.280247
0.70631 0.132509 0.289219
0.707103 0.134768 0.298528
0.709712 0.13817 0.30956
0.714092 0.141634 0.321981
0.721065 0.145174 0.337469
0.723171 0.144259 0.356298
0.724697 0.142687 0.375204
0.725902 0.1411 0.395041
0.726772 0.139681 0.413092
0.727687 0.138445 0.430655
0.728496 0.137652 0.447776
0.729213 0.137224 0.464912
0.72842 0.136309 0.482368
0.725368 0.13434 0.497597
0.721126 0.130495 0.512489
0.716381 0.125475 0.525795
0.0145724 0.032929 0.0260014
0.0135348 0.0334325 0.0276341
0.0130159 0.0337072 0.0284886
0.0125429 0.0339818 0.0287327
0.0121462 0.0341802 0.0291142
0.0118105 0.0343481 0.0296788
0.0115358 0.0344854 0.0301518
0.0113832 0.0345617 0.0304417
0.0113832 0.0345617 0.0304265
0.0118715 0.0344244 0.0298466
0.0172427 0.0346838 0.0290532
0.0309148 0.0352941 0.0287022
0.0516823 0.0365606 0.0287175
0.0713664 0.038468 0.0287327
0.0891432 0.0407263 0.0308385
0.106981 0.0436255 0.0338598
0.12459 0.0460059 0.0366979
0.142794 0.0479591 0.0391089
0.160281 0.0498054 0.0412909
0.178058 0.0517433 0.0437171
0.195514 0.0537881 0.047364
0.213336 0.0563973 0.0516976
0.232334 0.059556 0.0564431
0.251377 0.062501 0.061387
0.270985 0.0656596 0.0662242
0.291386 0.0690013 0.0717784
0.311925 0.072694 0.0778515
0.333547 0.0771954 0.0857099
0.355962 0.0830243 0.0957351
0.380972 0.0894331 0.107347
0.406897 0.0960861 0.119524
0.432486 0.101335 0.129229
0.456992 0.105882 0.137545
0.482872 0.110002 0.146227
0.512932 0.113497 0.156069
0.544991 0.116442 0.166262
0.576104 0.11928 0.176043
0.60621 0.122255 0.186145
0.633875 0.12604 0.195743
0.660197 0.12987 0.205982
0.684321 0.134447 0.216388
0.703059 0.138903 0.226429
0.707683 0.14049 0.233417
0.711315 0.141817 0.240497
0.708415 0.137514 0.244709
0.703273 0.131151 0.247959
0.701869 0.128435 0.254658
0.703105 0.128649 0.263325
0.703914 0.129641 0.272633
0.704616 0.131273 0.282078
0.705333 0.13344 0.29192
0.707454 0.136461 0.303197
0.711757 0.140185 0.31606
0.718441 0.143633 0.332021
0.72282 0.144778 0.350347
0.724315 0.143038 0.371008
0.725673 0.141421 0.391348
0.726665 0.139864 0.410941
0.727581 0.138476 0.429694
0.728405 0.137682 0.446525
0.72929 0.137285 0.464561
0.728466 0.136355 0.481743
0.725322 0.13431 0.497688
0.721233 0.130526 0.512459
0.71606 0.125139 0.526436
0.0145876 0.032929 0.0259709
0.01355 0.0334325 0.0276341
0.0130312 0.0336919 0.0284581
0.0125582 0.0339666 0.0287327
0.0121614 0.034165 0.0290684
0.0118257 0.0343328 0.029633
0.0115358 0.0344854 0.0301213
0.0113832 0.0345617 0.0304417
0.0113375 0.0345922 0.0305333
0.0115358 0.0344854 0.0301213
0.0156405 0.034699 0.0294804
0.0259556 0.0352636 0.0287327
0.0442817 0.0360266 0.0286564
0.0647746 0.0377203 0.0287327
0.0849775 0.0403296 0.0305638
0.104036 0.0432136 0.0334173
0.12311 0.0457008 0.0363622
0.14168 0.0477455 0.03888
0.159991 0.0498054 0.0412604
0.177951 0.051667 0.043534
0.1953 0.0533455 0.0458686
0.213306 0.0556191 0.0488441
0.231312 0.0576791 0.0515755
0.249928 0.0597848 0.0541085
0.268696 0.0617838 0.0569924
0.288457 0.0642252 0.0604257
0.308659 0.0671397 0.0649729
0.328405 0.0700999 0.0701915
0.348974 0.0741131 0.0768597
0.369955 0.0789349 0.0852064
0.393637 0.0847639 0.0958419
0.418647 0.0911269 0.107378
0.444862 0.0976883 0.119539
0.473167 0.104311 0.132219
0.505089 0.109438 0.144457
0.538552 0.113054 0.156008
0.570886 0.116747 0.166964
0.602472 0.120867 0.178363
0.630213 0.124468 0.188342
0.657435 0.128603 0.199481
0.681361 0.133272 0.210391
0.699367 0.137514 0.220661
0.705333 0.139513 0.228565
0.708904 0.140932 0.235706
0.708965 0.139055 0.24152
0.705852 0.134463 0.246174
0.701457 0.12871 0.250889
0.702632 0.128496 0.259709
0.703716 0.129183 0.269139
0.704585 0.130663 0.279393
0.705653 0.132998 0.289799
0.707454 0.13579 0.30161
0.711681 0.139803 0.314748
0.717906 0.143359 0.330694
0.72282 0.144854 0.349554
0.72433 0.143038 0.370672
0.725719 0.141344 0.392142
0.726726 0.139773 0.4121
0.727626 0.13843 0.430426
0.728405 0.13756 0.448402
0.729503 0.137331 0.465965
0.728344 0.136248 0.484779
0.724788 0.13402 0.500252
0.720211 0.12987 0.515068
0.714397 0.124117 0.528359
0.0145876 0.032929 0.0259709
0.01355 0.0334325 0.0276341
0.0130312 0.0336919 0.0284581
0.0125734 0.0339666 0.0287327
0.0121767 0.034165 0.0290532
0.0118257 0.0343328 0.0296178
0.0115358 0.0344854 0.0301213
0.0113832 0.0345617 0.030457
0.0113069 0.0346075 0.0305943
0.0113985 0.0345617 0.0304112
0.0131685 0.0346227 0.0298924
0.0209354 0.0351568 0.0294347
0.0353552 0.0354925 0.0286412
0.0547799 0.0369421 0.0287327
0.0745708 0.0389715 0.0292363
0.0956741 0.0419471 0.0319677
0.115511 0.0448768 0.0349584
0.135683 0.0472572 0.0377508
0.155428 0.0494087 0.0400549
0.173556 0.0510567 0.0422827
0.19266 0.052842 0.0445258
0.212528 0.0553597 0.0482643
0.231708 0.0575113 0.0513161
0.25066 0.0594797 0.053666
0.269444 0.0614023 0.0560159
0.289677 0.0636454 0.059205
0.30898 0.0654307 0.0619974
0.32874 0.0670787 0.0654307
0.347951 0.0687419 0.0688182
0.367422 0.0714885 0.0740063
0.38703 0.0750439 0.0803235
0.409094 0.080415 0.0903639
0.435645 0.0877089 0.103853
0.463706 0.0953536 0.117708
0.497887 0.10312 0.132982
0.533501 0.109545 0.147677
0.567041 0.113939 0.160082
0.599084 0.119081 0.172045
0.628504 0.123583 0.183505
0.655787 0.127657 0.194476
0.679469 0.132219 0.205722
0.69575 0.136095 0.215946
0.702571 0.138293 0.224094
0.707164 0.140017 0.231861
0.71017 0.140902 0.239307
0.706462 0.135637 0.243839
0.703349 0.130953 0.249317
0.70222 0.128389 0.256977
0.7037 0.128923 0.267185
0.704738 0.130236 0.27744
0.705806 0.132418 0.288533
0.707546 0.135302 0.300587
0.711559 0.139467 0.313939
0.718273 0.143725 0.330114
0.722484 0.144533 0.349523
0.724392 0.142992 0.371221
0.725795 0.141268 0.39292
0.726833 0.139666 0.413397
0.727749 0.138338 0.432502
0.728588 0.13756 0.450385
0.729335 0.137133 0.468711
0.727962 0.135897 0.486839
0.723659 0.133394 0.502358
0.719051 0.129122 0.517418
0.712581 0.122972 0.529442
0.0145876 0.032929 0.0259709
0.01355 0.0334325 0.0276341
0.0130312 0.0336919 0.0284581
0.0125734 0.0339666 0.0287327
0.012192 0.034165 0.0290379
0.0118105 0.0343328 0.0296483
0.0115053 0.0345006 0.0301823
0.0113527 0.0345769 0.0304875
0.0112917 0.0346075 0.0306249
0.0112612 0.0346227 0.0306706
0.0119326 0.0346075 0.0302892
0.0171969 0.0349737 0.0298466
0.029221 0.035523 0.0287327
0.0464637 0.0363165 0.0287175
0.0667124 0.0381628 0.0287633
0.0876936 0.0412299 0.0310979
0.108171 0.0447242 0.0341344
0.128115 0.0471962 0.0369421
0.146929 0.0488746 0.0386511
0.166171 0.0504616 0.0405737
0.186175 0.0524605 0.0432898
0.207446 0.0546426 0.0464637
0.228061 0.0569009 0.0497139
0.247913 0.0590219 0.0526131
0.269154 0.0611429 0.0551766
0.28983 0.0636454 0.0592203
0.309911 0.0654917 0.0622416
0.329915 0.0670634 0.0657054
0.349859 0.0685893 0.0689708
0.370016 0.0703441 0.0729534
0.388739 0.0717784 0.0762188
0.407202 0.0739757 0.0807813
0.427939 0.0776837 0.0885023
0.455421 0.0844892 0.102037
0.488975 0.0929427 0.119295
0.525917 0.101595 0.136629
0.562905 0.109865 0.152865
0.597086 0.117052 0.167147
0.627665 0.122286 0.179461
0.65507 0.126848 0.190814
0.678492 0.131228 0.202014
0.693034 0.13492 0.211902
0.700084 0.136995 0.220371
0.706249 0.139239 0.228809
0.710109 0.140993 0.236896
0.708919 0.138048 0.242756
0.70428 0.132128 0.247517
0.70251 0.128344 0.25507
0.70457 0.128511 0.265858
0.706905 0.129473 0.277195
0.708965 0.131395 0.289204
0.710384 0.134127 0.301076
0.713558 0.138659 0.314946
0.719036 0.143587 0.330373
0.722347 0.144259 0.350576
0.724529 0.142855 0.372854
0.725902 0.141131 0.394476
0.72694 0.139513 0.41529
0.72784 0.138231 0.434653
0.728878 0.13756 0.452903
0.729213 0.136995 0.471061
0.727504 0.135531 0.489174
0.722774 0.132769 0.504509
0.717891 0.128405 0.518929
0.710689 0.121584 0.530648
0.0145876 0.032929 0.0259556
0.01355 0.0334325 0.0276341
0.0130312 0.0336919 0.0284581
0.0125734 0.0339666 0.0287327
0.012192 0.0341497 0.0290379
0.0118105 0.0343328 0.0296635
0.01149 0.0345006 0.0302129
0.0113527 0.0345769 0.0304875
0.0112917 0.0346227 0.0306401
0.0112612 0.0346227 0.0306554
0.0114595 0.0346075 0.0305028
0.0146639 0.0348821 0.0300755
0.0240482 0.0352636 0.0290074
0.039353 0.0358587 0.028687
0.0590982 0.0379492 0.028748
0.0808881 0.0413367 0.0310369
0.101396 0.0452125 0.0338598
0.11989 0.0476692 0.036286
0.137942 0.0493782 0.0380865
0.157137 0.0510414 0.0396277
0.177813 0.0527352 0.0419471
0.199451 0.0543374 0.0446479
0.221607 0.05626 0.0474861
0.244419 0.0586862 0.0514992
0.266423 0.0609751 0.0543221
0.288869 0.0634928 0.0584726
0.309712 0.0652781 0.0618601
0.330526 0.0670481 0.0657969
0.350652 0.068574 0.0690929
0.371664 0.0702373 0.0732586
0.391409 0.0715648 0.0767071
0.410636 0.0728618 0.0803388
0.430518 0.0747387 0.0845655
0.452857 0.0768749 0.0910964
0.481315 0.0822919 0.103792
0.517937 0.0922103 0.124147
0.556039 0.102083 0.142885
0.59202 0.111162 0.159396
0.625605 0.120348 0.174884
0.654521 0.12575 0.187228
0.677501 0.130297 0.198779
0.690562 0.133669 0.208347
0.697978 0.135714 0.2168
0.704875 0.138155 0.225727
0.709773 0.140063 0.234318
0.712367 0.140688 0.242435
0.705058 0.132082 0.245792
0.703059 0.12813 0.25333
0.70518 0.128191 0.264561
0.708278 0.128954 0.276768
0.711711 0.13051 0.289509
0.714626 0.133013 0.303273
0.718334 0.137179 0.31754
0.722927 0.14255 0.3337
0.724361 0.143969 0.352682
0.724651 0.142779 0.374044
0.726009 0.140978 0.396551
0.727016 0.139391 0.417029
0.727886 0.138079 0.436774
0.72903 0.137514 0.454871
0.729091 0.136873 0.474113
0.727001 0.135195 0.49221
0.721981 0.132296 0.506432
0.716442 0.127535 0.520623
0.709407 0.120729 0.532158
0.0146029 0.0329137 0.0259556
0.01355 0.0334325 0.0276341
0.0130312 0.0336919 0.0284581
0.0125734 0.0339666 0.0287327
0.012192 0.0341497 0.0290379
0.0118105 0.0343328 0.0296483
0.01149 0.0345006 0.0302129
0.0113527 0.0345769 0.0304875
0.0112917 0.0346075 0.0306401
0.0112612 0.0346227 0.0306554
0.0112764 0.0346227 0.0306554
0.0130617 0.0347601 0.0302892
0.0197147 0.0351873 0.0295872
0.033051 0.0357671 0.0287327
0.0522927 0.0380407 0.0290837
0.0737926 0.0416266 0.0310216
0.0937514 0.0458381 0.0336309
0.112123 0.0490272 0.0362402
0.129107 0.0509651 0.0380865
0.148867 0.052842 0.0396887
0.169955 0.0540475 0.0416266
0.191577 0.0551614 0.0437934
0.214847 0.0565805 0.0463569
0.238193 0.0587167 0.0497597
0.262257 0.0607919 0.0533608
0.285786 0.0629892 0.0567636
0.30898 0.0650492 0.0614023
0.330388 0.0669566 0.0656291
0.351171 0.0685435 0.0691691
0.372625 0.0702525 0.0734417
0.392645 0.071519 0.0769207
0.413153 0.0726787 0.0807813
0.433692 0.0740978 0.0847791
0.455848 0.0746777 0.0890364
0.480735 0.0762341 0.0956893
0.511315 0.0823529 0.110201
0.548806 0.0934157 0.131701
0.584695 0.10367 0.149859
0.619287 0.113527 0.166705
0.651133 0.122621 0.182055
0.676158 0.129046 0.195056
0.68777 0.132311 0.204623
0.695491 0.134539 0.213199
0.703487 0.137072 0.222873
0.7093 0.139086 0.231739
0.713191 0.140764 0.241001
0.709148 0.134844 0.245945
0.704311 0.128389 0.252323
0.706004 0.127855 0.263584
0.709102 0.128542 0.275883
0.712947 0.130144 0.289769
0.716991 0.132342 0.304158
0.722118 0.136385 0.320043
0.726604 0.140719 0.336919
0.728603 0.143084 0.35671
0.727275 0.141939 0.377691
0.726329 0.140795 0.398428
0.727077 0.139193 0.419516
0.727962 0.137972 0.438407
0.729122 0.137438 0.457221
0.729137 0.136858 0.476829
0.726696 0.135042 0.494362
0.721187 0.131838 0.508843
0.715206 0.126909 0.522042
0.708049 0.120058 0.53341
0.0145724 0.032929 0.0259861
0.01355 0.0334325 0.0276341
0.0130312 0.0336919 0.0284581
0.0125887 0.0339666 0.0287327
0.012192 0.0341497 0.0290379
0.0118105 0.0343328 0.0296483
0.01149 0.0345006 0.0302129
0.0113527 0.0345769 0.0304875
0.0112917 0.0346075 0.0306249
0.0112612 0.0346227 0.0306706
0.0112917 0.0346075 0.0306249
0.0121004 0.034699 0.0304265
0.0167086 0.0350652 0.0299229
0.0281224 0.035874 0.0289769
0.0455024 0.038117 0.0292058
0.0662699 0.0419013 0.0308995
0.087129 0.0466621 0.0335851
0.105135 0.0504616 0.0363012
0.121889 0.0529335 0.0382544
0.141009 0.0549935 0.0400092
0.161837 0.0564126 0.041825
0.184192 0.0574197 0.0437629
0.207279 0.0582589 0.0459449
0.233005 0.0595712 0.0491035
0.257252 0.0611124 0.0525521
0.282521 0.0630655 0.0561074
0.307073 0.0648051 0.0607004
0.330724 0.0666972 0.0652934
0.352667 0.068513 0.0694438
0.373693 0.0702068 0.0736706
0.406317 0.0690471 0.0795605
0.427329 0.0699931 0.083238
0.449058 0.0708782 0.0872206
0.47216 0.0712749 0.0912184
0.496666 0.071107 0.0953231
0.524666 0.0740368 0.104784
0.554269 0.0806287 0.119326
0.589395 0.0925307 0.141268
0.62269 0.104143 0.159854
0.654795 0.11574 0.177722
0.679927 0.125856 0.192721
0.687877 0.130159 0.201556
0.693919 0.133669 0.210376
0.69958 0.136522 0.219165
0.705257 0.139605 0.228824
0.708461 0.14136 0.237537
0.70692 0.138354 0.244465
0.698528 0.129351 0.248569
0.700557 0.129076 0.259724
0.703655 0.129793 0.27277
0.707744 0.131304 0.286473
0.712261 0.133562 0.30132
0.718471 0.137469 0.317861
0.724453 0.141527 0.336233
0.728176 0.14313 0.357488
0.727489 0.141772 0.379278
0.726848 0.140505 0.401022
0.727199 0.139071 0.421302
0.728115 0.137896 0.441001
0.729091 0.137316 0.459709
0.728847 0.136645 0.478813
0.725795 0.134554 0.496529
0.720088 0.131075 0.510369
0.712489 0.126162 0.52195
0.706935 0.120348 0.531884
0.0163882 0.0320134 0.0227665
0.0156863 0.0323644 0.0240635
0.0151369 0.0326543 0.0251011
0.014847 0.0327916 0.0255589
0.014313 0.033051 0.0263981
0.0137636 0.0333257 0.0272831
0.0133211 0.0335546 0.0280156
0.0130465 0.0336919 0.0284428
0.0129397 0.0337377 0.0285954
0.0129397 0.0337377 0.0286107
0.0129854 0.0337224 0.0285344
0.0133822 0.0336919 0.0283207
0.0163577 0.0340276 0.0280156
0.0254673 0.0352789 0.0281071
0.0403906 0.0377203 0.0285039
0.0608072 0.0421149 0.0298009
0.0813001 0.0472267 0.0326543
0.0991989 0.051545 0.035462
0.115785 0.0546273 0.0378729
0.134112 0.0571145 0.0395666
0.154955 0.0588998 0.0415808
0.176532 0.0599832 0.043473
0.199847 0.0605936 0.0453803
0.225208 0.0614328 0.0481422
0.251698 0.0623789 0.0517128
0.277821 0.0637522 0.0552682
0.302907 0.0650187 0.0592966
0.329519 0.0667124 0.064622
0.354238 0.0679332 0.0693217
0.379522 0.0692149 0.0747539
0.40296 0.0699168 0.0788586
0.426871 0.0704662 0.0831922
0.450294 0.0709087 0.0873274
0.474128 0.0712139 0.0914015
0.499443 0.0707866 0.0955673
0.526772 0.0723278 0.10248
0.556222 0.0776379 0.114061
0.584146 0.0835279 0.127687
0.618021 0.0964981 0.15111
0.649577 0.109697 0.170489
0.675303 0.122393 0.187366
0.684398 0.128771 0.198077
0.690806 0.132799 0.207156
0.697383 0.135836 0.216571
0.704036 0.139025 0.226535
0.708232 0.140764 0.236027
0.70724 0.137972 0.243519
0.700496 0.130175 0.248325
0.701289 0.128832 0.259297
0.70425 0.129458 0.272206
0.708507 0.130877 0.286412
0.713451 0.133211 0.302083
0.720241 0.137057 0.319341
0.727733 0.141558 0.338796
0.730861 0.142336 0.360601
0.730404 0.140841 0.383795
0.729213 0.139712 0.404807
0.727886 0.138781 0.423926
0.728222 0.137835 0.44303
0.729107 0.137255 0.462119
0.728466 0.13637 0.481437
0.725124 0.134188 0.49839
0.71899 0.130358 0.512322
0.711284 0.125216 0.523171
0.706706 0.12018 0.532052
0.0163424 0.0320287 0.0228275
0.0156405 0.0323949 0.024155
0.0150912 0.0326848 0.0251774
0.0148165 0.0328069 0.0256046
0.0142977 0.0330663 0.0264439
0.0137484 0.0333257 0.0272984
0.0133211 0.0335546 0.0280156
0.0130465 0.0336919 0.0284428
0.0129549 0.0337377 0.0285954
0.0129397 0.0337377 0.0286107
0.0129702 0.0337224 0.0285496
0.013138 0.0336767 0.0283665
0.0149233 0.0339361 0.0281529
0.0217288 0.0352636 0.0283207
0.0357824 0.0380102 0.0286564
0.0552224 0.0425269 0.0299535
0.0762798 0.0483253 0.0329137
0.0938735 0.0527657 0.0356146
0.110689 0.0564126 0.0379187
0.129122 0.059144 0.0397498
0.149218 0.0615244 0.0420386
0.171389 0.062623 0.0438697
0.194003 0.0631418 0.0456092
0.219486 0.0638285 0.048249
0.246036 0.0643168 0.0514076
0.273503 0.0650339 0.0547646
0.300389 0.0657511 0.058793
0.325795 0.0663005 0.062623
0.3552 0.0679637 0.0693828
0.380774 0.068986 0.0747387
0.405615 0.06981 0.0793317
0.429419 0.0704509 0.0836042
0.452216 0.0708019 0.0876173
0.476921 0.0710918 0.0917678
0.501549 0.0704204 0.0955062
0.528572 0.0706493 0.100389
0.556542 0.0742351 0.10988
0.586679 0.0812695 0.123842
0.615732 0.0892958 0.141253
0.64741 0.10309 0.164019
0.672618 0.117601 0.182696
0.684398 0.12752 0.195743
0.690211 0.131579 0.204929
0.695994 0.134859 0.21416
0.703288 0.138293 0.224674
0.708431 0.140856 0.234882
0.706493 0.137057 0.241917
0.703487 0.13228 0.249378
0.701869 0.128695 0.258793
0.704967 0.12929 0.27216
0.709178 0.130632 0.286809
0.714061 0.132906 0.30248
0.721279 0.137057 0.32076
0.730022 0.142092 0.340429
0.732906 0.141543 0.364111
0.733898 0.139773 0.388434
0.733455 0.138354 0.411032
0.731579 0.137545 0.429953
0.729534 0.137407 0.44622
0.729213 0.13724 0.464729
0.728298 0.136202 0.48368
0.724392 0.133806 0.500542
0.718318 0.129992 0.513771
0.70988 0.1243 0.524651
0.706325 0.119905 0.532403
0.0163272 0.0320439 0.022858
0.0156252 0.0324102 0.0242008
0.0150607 0.0326848 0.0252079
0.0148165 0.0328069 0.0256046
0.014313 0.033051 0.0264134
0.0137789 0.0333257 0.0272526
0.0133364 0.0335393 0.0279698
0.0130465 0.0336767 0.0284123
0.0129397 0.0337377 0.0285954
0.0129397 0.0337377 0.0286259
0.0129702 0.0337224 0.0285649
0.0130465 0.0336767 0.0284276
0.0139467 0.0338293 0.0282139
0.0188449 0.035172 0.0284276
0.0311589 0.0380255 0.0286412
0.0505074 0.0432136 0.0304417
0.0719921 0.0495155 0.033463
0.0902419 0.0541848 0.0363012
0.107561 0.0579538 0.0384833
0.125338 0.0613107 0.0404669
0.145754 0.0637064 0.0425422
0.166659 0.0653391 0.044358
0.189624 0.0657969 0.0458839
0.214069 0.0661173 0.0479438
0.241108 0.0665446 0.0512856
0.269474 0.0665751 0.0543526
0.296864 0.0666972 0.0582437
0.324269 0.0668956 0.0621958
0.352087 0.0674296 0.0674907
0.382589 0.0690013 0.0751812
0.407706 0.0698863 0.0798352
0.43122 0.0703899 0.0840314
0.455161 0.0707103 0.0882429
0.479744 0.0709087 0.0923018
0.505043 0.0702373 0.0961318
0.531273 0.0707256 0.100114
0.557717 0.0723125 0.105501
0.586572 0.0773022 0.119219
0.615778 0.0856336 0.135805
0.644678 0.0962387 0.156771
0.670604 0.112093 0.177829
0.684825 0.124727 0.193378
0.69099 0.130053 0.20296
0.695903 0.13402 0.21236
0.702861 0.137575 0.223011
0.707652 0.140276 0.233005
0.707118 0.137682 0.241245
0.704753 0.133562 0.249165
0.701961 0.128664 0.258244
0.705135 0.129229 0.271946
0.709392 0.130587 0.286671
0.714443 0.132967 0.302983
0.721599 0.137041 0.321248
0.730632 0.142306 0.341695
0.733211 0.141268 0.366079
0.735073 0.13933 0.391501
0.735836 0.13753 0.415412
0.735592 0.136248 0.435935
0.734096 0.135927 0.453529
0.73167 0.136584 0.469093
0.728099 0.136019 0.486366
0.723949 0.133577 0.502098
0.717601 0.12961 0.51574
0.708598 0.123568 0.52578
0.706096 0.119692 0.532738
0.0168307 0.0331579 0.0235904
0.0155795 0.0324712 0.0243992
0.0149844 0.0327306 0.0253452
0.0147402 0.0328527 0.0257267
0.0142672 0.0330816 0.0264744
0.0137636 0.0333257 0.0272831
0.0133516 0.0335393 0.0279698
0.013077 0.0336767 0.028397
0.0129702 0.0337224 0.0285649
0.0129549 0.0337377 0.0285954
0.0129702 0.0337224 0.0285496
0.0130312 0.0336919 0.0284581
0.0135195 0.0337987 0.0283055
0.0166476 0.0348516 0.0284581
0.0264744 0.0379797 0.0287327
0.0449836 0.0438697 0.0309453
0.0670481 0.0509651 0.0340276
0.0870069 0.0562448 0.0371099
0.104585 0.059678 0.0392004
0.123461 0.0632181 0.0415045
0.142855 0.0656901 0.043183
0.164508 0.0675669 0.0449378
0.187076 0.0682841 0.0463569
0.21117 0.0684367 0.0481422
0.23769 0.0687572 0.0512703
0.265171 0.0686503 0.0542916
0.294209 0.0677348 0.0578775
0.32166 0.0674449 0.0617838
0.35053 0.0678264 0.0669261
0.380896 0.0686503 0.0731212
0.409232 0.0699931 0.0801099
0.433539 0.0704814 0.0844739
0.457176 0.0706951 0.0886091
0.482795 0.070634 0.0926833
0.508354 0.0699626 0.0966201
0.535378 0.0706645 0.100816
0.561425 0.0724041 0.105104
0.585702 0.0746929 0.112093
0.613535 0.0805676 0.129732
0.642695 0.0918593 0.150607
0.667262 0.106432 0.172473
0.684337 0.120821 0.190158
0.692988 0.128176 0.201709
0.698116 0.132753 0.211627
0.703395 0.136355 0.221592
0.70837 0.13962 0.232105
0.709316 0.139284 0.241062
0.703731 0.132586 0.247852
0.702007 0.128679 0.257649
0.705165 0.129152 0.27155
0.709606 0.130602 0.286656
0.714672 0.132952 0.302998
0.72195 0.137041 0.321431
0.72958 0.141268 0.342092
0.733593 0.141253 0.367102
0.735378 0.139132 0.393545
0.736385 0.13727 0.417639
0.737057 0.135714 0.439216
0.737026 0.134966 0.458137
0.73608 0.13518 0.475929
0.731289 0.134798 0.491981
0.723995 0.133028 0.504234
0.716808 0.129122 0.51693
0.708431 0.123613 0.525551
0.706828 0.120165 0.532296
0.019791 0.0413977 0.0280613
0.0176852 0.0385748 0.0272374
0.0164187 0.0367285 0.0271763
0.0157321 0.0359808 0.0274052
0.0151064 0.035523 0.0277562
0.0142367 0.0346685 0.0279545
0.0136721 0.0342412 0.0283055
0.0133974 0.034165 0.0286107
0.0130312 0.0338293 0.0286107
0.0129549 0.033753 0.0286107
