bundles/resolve-cinematic-luts/Phantom Luts/Apple Log Phantom LUTS/iPhone 15 Phantom Movie LUTs/65x/Vision_Legacy iPhone_15_65x.cube
TITLE "Generated by Resolve"
LUT_3D_SIZE 9
0.0279545 0.0393225 0.0297704
0.0279698 0.0393072 0.0299535
0.0585336 0.0417029 0.0287327
0.194934 0.0408484 0.0210117
0.444404 0.0467842 0.0267338
0.636561 0.0767071 0.0489052
0.706111 0.0753643 0.117937
0.741741 0.112428 0.327199
0.738582 0.105959 0.513069
0.0278782 0.0393683 0.029572
0.027985 0.039292 0.0299992
0.0527657 0.046067 0.0273289
0.196399 0.0425422 0.0222324
0.446342 0.0467231 0.0269932
0.637217 0.0767376 0.0484779
0.698787 0.0729534 0.106203
0.741115 0.109529 0.317571
0.73814 0.107301 0.506828
0.0268406 0.0762188 0.039765
0.0303349 0.061265 0.0356451
0.0496071 0.0705119 0.0370184
0.194446 0.0566567 0.0310369
0.44036 0.0459602 0.025742
0.637858 0.076524 0.0484627
0.677272 0.0772259 0.085832
0.740536 0.0994278 0.284886
0.739544 0.111345 0.492332
0.0254063 0.201419 0.0704204
0.0247959 0.195682 0.0486915
0.0251011 0.175753 0.0455329
0.208453 0.203601 0.0310216
0.486488 0.17438 0.083299
0.66154 0.118975 0.0686503
0.637293 0.0767224 0.0484627
0.726177 0.0845808 0.180529
0.743389 0.123232 0.453819
0.0654154 0.445212 0.198215
0.0711223 0.457664 0.168292
0.0689708 0.454261 0.118837
0.0630808 0.430198 0.108202
0.456245 0.43798 0.0476692
0.70576 0.41677 0.17052
0.757443 0.360616 0.193652
0.737957 0.201068 0.111711
0.729793 0.0852522 0.191836
0.158434 0.729961 0.465171
0.166781 0.733501 0.446555
0.166827 0.738262 0.430335
0.167514 0.748119 0.341115
0.213413 0.741009 0.263081
0.680705 0.689967 0.115297
0.827482 0.668437 0.160754
0.818769 0.633494 0.179873
0.792523 0.534142 0.214267
0.158511 0.848722 0.6869
0.185077 0.847745 0.668132
0.206622 0.845212 0.645319
0.228382 0.845243 0.599924
0.22443 0.82591 0.400412
0.437385 0.823087 0.339117
0.802747 0.826535 0.189532
0.842023 0.812039 0.178485
0.843626 0.793469 0.14963
0.0390631 0.833631 0.805142
0.0487526 0.834379 0.792935
0.0620737 0.835935 0.779904
0.0789349 0.837736 0.757321
0.152804 0.848341 0.690867
0.318456 0.84065 0.522362
0.650019 0.8439 0.401221
0.83328 0.84062 0.380941
0.833356 0.840146 0.376547
0.0553292 0.831952 0.850568
0.0519875 0.832151 0.848356
0.0490272 0.83209 0.845991
0.0415808 0.831922 0.839582
0.0366522 0.832334 0.821851
0.0800793 0.839887 0.748882
0.583307 0.862394 0.664042
0.816281 0.874113 0.590127
0.842054 0.872862 0.581048
0.027985 0.039292 0.029984
0.0288853 0.0393378 0.030457
0.145998 0.0390784 0.0702373
0.330953 0.0346685 0.0482643
0.51107 0.0584878 0.0561379
0.690517 0.0809644 0.0965591
0.728801 0.0872053 0.1776
0.745693 0.124117 0.367361
0.74287 0.10602 0.520058
0.027924 0.0394903 0.0299992
0.0280156 0.0392767 0.0301518
0.118181 0.0406043 0.0282902
0.286229 0.0400702 0.0208743
0.4663 0.0509194 0.0327001
0.674296 0.0757458 0.0816815
0.725216 0.0860456 0.16437
0.744289 0.120516 0.352331
0.740978 0.105852 0.515129
0.0218204 0.095079 0.0665293
0.0261845 0.0920729 0.0457771
0.0636301 0.0860761 0.0377661
0.23386 0.0521706 0.0268864
0.456657 0.0470436 0.0265202
0.644373 0.0661936 0.0523384
0.710689 0.0766613 0.126528
0.744152 0.10985 0.321477
0.739239 0.10898 0.501167
0.0189212 0.206088 0.100023
0.0258488 0.207874 0.0724346
0.0257725 0.206043 0.0494392
0.217227 0.211246 0.0307164
0.500816 0.165759 0.0834974
0.66038 0.114717 0.0658579
0.641871 0.070161 0.0510872
0.732601 0.0855268 0.226795
0.74316 0.119677 0.466606
0.0598764 0.434012 0.221851
0.0644236 0.441886 0.196048
0.068513 0.448493 0.175937
0.0635538 0.432059 0.108919
0.454887 0.435294 0.0466316
0.704814 0.407309 0.171618
0.756146 0.352285 0.189471
0.735241 0.194141 0.108629
0.737942 0.0904402 0.248646
0.14548 0.722393 0.477409
0.154726 0.72314 0.457069
0.16257 0.725444 0.440955
0.175753 0.73994 0.39379
0.201099 0.734142 0.260044
0.675914 0.681819 0.113313
0.825757 0.660121 0.165057
0.816495 0.624155 0.185702
0.78764 0.515053 0.211475
0.149035 0.848234 0.693706
0.174716 0.848508 0.67628
0.204288 0.845029 0.653223
0.222339 0.844495 0.609842
0.242954 0.83299 0.458762
0.436332 0.824109 0.351141
0.798535 0.822263 0.205493
0.843641 0.804883 0.194003
0.843717 0.781842 0.171893
0.0394141 0.833616 0.804837
0.0489815 0.834424 0.792554
0.0621195 0.835843 0.779995
0.0788891 0.837613 0.757717
0.143847 0.847959 0.696941
0.3131 0.843565 0.538323
0.638315 0.844312 0.426978
0.833341 0.842786 0.398764
0.833661 0.842542 0.39472
0.0576028 0.831968 0.852522
0.0547494 0.832044 0.85037
0.0515602 0.832166 0.848066
0.0443427 0.831846 0.842283
0.0332799 0.83267 0.826017
0.0789197 0.837995 0.757305
0.587732 0.863188 0.680476
0.810437 0.875792 0.599023
0.843153 0.874418 0.58938
0.0277867 0.0384527 0.0758831
0.079469 0.036347 0.0754406
0.145068 0.0373693 0.103777
0.326863 0.0361028 0.134585
0.541314 0.0500801 0.0995499
0.727245 0.0859388 0.166079
0.740871 0.0932174 0.264179
0.74255 0.125353 0.445762
0.744381 0.109728 0.536629
0.024918 0.0513466 0.0454261
0.0289006 0.0383764 0.0889448
0.125933 0.0382696 0.0937362
0.328634 0.0339055 0.0594644
0.524132 0.0531624 0.0632486
0.707988 0.0747234 0.118227
0.733593 0.0868849 0.232334
0.741314 0.131258 0.423133
0.741985 0.108644 0.530037
0.0205692 0.0978256 0.084596
0.0216068 0.0939345 0.081529
0.0733806 0.0875715 0.0760204
0.256565 0.0573892 0.0446326
0.505867 0.0576333 0.0552071
0.686412 0.0793774 0.0922866
0.727489 0.0862135 0.175723
0.746212 0.122286 0.358434
0.739788 0.105837 0.513817
0.0189822 0.205081 0.123262
0.0188907 0.205829 0.0961929
0.0252384 0.204639 0.0760357
0.214237 0.215549 0.0536507
0.505531 0.162707 0.0955673
0.662852 0.11429 0.0729076
0.682063 0.078584 0.0891432
0.737438 0.0922255 0.257618
0.742611 0.116167 0.478035
0.0498054 0.425467 0.239536
0.0610361 0.431769 0.213519
0.0634318 0.434363 0.191699
0.0628214 0.427878 0.107759
0.446921 0.426444 0.0459754
0.698573 0.398215 0.172839
0.756252 0.342855 0.190433
0.736095 0.192752 0.117891
0.741848 0.0972457 0.279484
0.136858 0.718013 0.487556
0.143938 0.716457 0.467491
0.151751 0.715434 0.44892
0.162997 0.727611 0.407309
0.189746 0.720562 0.25301
0.669703 0.672129 0.111452
0.823346 0.649912 0.173648
0.812741 0.611307 0.201022
0.782193 0.495613 0.226398
0.138277 0.847883 0.701549
0.164324 0.848554 0.683986
0.195972 0.846098 0.66125
0.218128 0.844282 0.618769
0.24773 0.837369 0.488411
0.43592 0.824948 0.369787
0.796048 0.822141 0.231281
0.842725 0.80148 0.228733
0.84097 0.77525 0.2215
0.03888 0.833661 0.805447
0.0485542 0.834348 0.793179
0.0619211 0.835904 0.780026
0.0788434 0.837507 0.758465
0.13817 0.847791 0.701869
0.303593 0.846174 0.547997
0.628153 0.844038 0.445243
0.832868 0.844068 0.409033
0.833097 0.843732 0.405493
0.0606241 0.831662 0.853819
0.0576028 0.832029 0.85275
0.0544137 0.83209 0.850202
0.0473793 0.83183 0.8448
0.0350195 0.832395 0.828534
0.0740673 0.837217 0.766979
0.575113 0.864668 0.685832
0.802426 0.876341 0.606897
0.84419 0.875837 0.595621
0.0322118 0.0335088 0.241856
0.125704 0.0302281 0.233173
0.206836 0.0276036 0.213321
0.309224 0.0246891 0.21561
0.541115 0.0704814 0.269566
0.742794 0.0978714 0.282704
0.747372 0.116991 0.343481
0.742947 0.117098 0.474479
0.747646 0.113741 0.560464
0.0298619 0.0665446 0.170169
0.0318456 0.0331884 0.255177
0.117067 0.0303655 0.250309
0.295705 0.0236973 0.205859
0.543435 0.0622416 0.2112
0.735317 0.0863661 0.232761
0.744839 0.103487 0.303655
0.742016 0.120668 0.463981
0.744884 0.113375 0.553079
0.0197147 0.114641 0.167514
0.0260777 0.0878614 0.212726
0.05037 0.0746471 0.22002
0.246632 0.0446632 0.172473
0.529809 0.0558785 0.188678
0.730755 0.0844739 0.186007
0.742779 0.0970779 0.280293
0.742443 0.124117 0.450874
0.742794 0.111727 0.541527
0.0188449 0.19855 0.193439
0.0192416 0.195209 0.18996
0.018967 0.189761 0.184466
0.23357 0.252232 0.226642
0.568612 0.210178 0.194888
0.731655 0.133028 0.152438
0.730907 0.0840467 0.190387
0.745129 0.122499 0.360021
0.741802 0.107332 0.505226
0.0273442 0.408988 0.293004
0.0344396 0.4112 0.272206
0.04094 0.409689 0.251423
0.0565499 0.410559 0.197772
0.452811 0.456382 0.163165
0.720211 0.435767 0.2869
0.789303 0.380957 0.296162
0.787839 0.234104 0.227008
0.747143 0.120195 0.359869
0.120623 0.71223 0.524742
0.124025 0.708309 0.503502
0.126909 0.70219 0.484077
0.145403 0.70013 0.436957
0.157458 0.706874 0.327825
0.663371 0.674937 0.205447
0.821271 0.649775 0.323278
0.811994 0.619821 0.333059
0.792798 0.515984 0.332937
0.108278 0.844968 0.723262
0.129488 0.847684 0.709895
0.155932 0.848005 0.689952
0.206317 0.845197 0.646922
0.249668 0.848432 0.544427
0.443412 0.829801 0.427436
0.791119 0.824704 0.308721
0.844175 0.797971 0.326131
0.848768 0.768048 0.325551
0.03682 0.833143 0.813764
0.0415656 0.833906 0.801297
0.0540932 0.834958 0.787442
0.073579 0.837217 0.767178
0.114092 0.845869 0.719417
0.302327 0.852415 0.578637
0.622919 0.846052 0.502022
0.832715 0.849561 0.447852
0.832624 0.849104 0.445335
0.0688029 0.830396 0.859266
0.0648966 0.831098 0.85742
0.0615091 0.831617 0.854383
0.0536965 0.832151 0.849775
0.0376593 0.831968 0.834897
0.0618296 0.835904 0.780285
0.566384 0.865599 0.696315
0.794644 0.879683 0.629572
0.84686 0.879271 0.614115
0.0429236 0.0506905 0.464164
0.0907607 0.0524147 0.462867
0.17377 0.0374762 0.435599
0.359625 0.044831 0.398917
0.550103 0.0580606 0.420371
0.742504 0.108507 0.500069
0.745556 0.110063 0.540413
0.752804 0.115496 0.581933
0.76286 0.119585 0.608911
0.0337072 0.0669566 0.372061
0.0344549 0.0442054 0.418906
0.0614939 0.0464485 0.419776
0.30106 0.0398718 0.398337
0.536095 0.0546426 0.407782
0.743023 0.114275 0.484459
0.743786 0.106172 0.523888
0.74966 0.114015 0.566033
0.757244 0.116945 0.599496
0.0339361 0.100679 0.369558
0.0367132 0.0772869 0.398535
0.0350652 0.0618906 0.390463
0.204044 0.0352178 0.359869
0.466072 0.0395514 0.34548
0.743542 0.117006 0.474815
0.742611 0.10927 0.497246
0.745556 0.109514 0.538186
0.754101 0.116335 0.59118
0.0190738 0.205264 0.345113
0.019089 0.184283 0.367086
0.0265507 0.166827 0.3823
0.143481 0.198444 0.435538
0.517342 0.145907 0.414343
0.748409 0.170932 0.431601
0.743648 0.12401 0.450584
0.742275 0.107988 0.501839
0.749996 0.114916 0.571435
0.0198062 0.394583 0.412314
0.0196841 0.388724 0.405875
0.0193942 0.380163 0.396506
0.0196841 0.368048 0.383673
0.487236 0.50222 0.476524
0.814313 0.488533 0.47219
0.850919 0.415579 0.441032
0.787823 0.226078 0.405921
0.743145 0.112169 0.490074
0.0499275 0.689143 0.598642
0.0491493 0.684794 0.586221
0.0495613 0.677974 0.571374
0.0648966 0.672267 0.539651
0.130678 0.668681 0.467338
0.675456 0.70161 0.424125
0.840955 0.699702 0.502815
0.839673 0.678004 0.508705
0.834134 0.560632 0.483452
0.0758679 0.837095 0.765209
0.0800488 0.83801 0.755306
0.0847486 0.840345 0.743679
0.111284 0.843595 0.719707
0.208026 0.841062 0.628214
0.475288 0.847166 0.578882
0.784253 0.827115 0.470497
0.862135 0.803998 0.486061
0.85948 0.773129 0.493324
0.0386053 0.832288 0.837613
0.0319219 0.833097 0.826566
0.0366217 0.833387 0.812161
0.0490578 0.834257 0.793011
0.0787823 0.838056 0.756054
0.275868 0.859236 0.638086
0.650889 0.857282 0.609934
0.837919 0.865812 0.543313
0.836942 0.864698 0.537408
0.0734569 0.829602 0.870237
0.074464 0.829602 0.868116
0.0744793 0.829938 0.865415
0.0711681 0.830457 0.86125
0.0519875 0.832364 0.849073
0.0412604 0.83386 0.80177
0.54789 0.869871 0.723354
0.792844 0.889113 0.685512
0.854444 0.890211 0.662257
0.054612 0.0762036 0.604349
0.0592966 0.0786297 0.625238
0.0892348 0.0758221 0.601556
0.24007 0.0504463 0.572534
0.596704 0.0920882 0.611582
0.771038 0.100694 0.652735
0.770687 0.0955673 0.668101
0.776181 0.112795 0.707362
0.777493 0.115145 0.719814
0.0672007 0.139483 0.625589
0.0673686 0.123095 0.639765
0.0617685 0.105699 0.616938
0.183566 0.0816052 0.581521
0.518441 0.0864881 0.561303
0.762066 0.102464 0.629999
0.770733 0.0972305 0.662623
0.776669 0.108705 0.703059
0.776242 0.116335 0.711116
0.0683452 0.176669 0.628229
0.0725872 0.156649 0.647181
0.0705882 0.144717 0.640635
0.162753 0.124743 0.604364
0.507057 0.104677 0.568475
0.723903 0.0919203 0.59115
0.770657 0.0994736 0.656687
0.773861 0.103044 0.690364
0.775296 0.105669 0.696193
0.0633707 0.265293 0.629801
0.068101 0.248722 0.643992
0.0697948 0.236545 0.648875
0.107729 0.216648 0.619486
0.474037 0.180758 0.600244
0.742168 0.165713 0.620218
0.768353 0.1149 0.624338
0.771267 0.0968795 0.662837
0.771542 0.0955215 0.666575
0.0202029 0.452155 0.620966
0.0203403 0.439857 0.623865
0.0200809 0.430121 0.624765
0.0225071 0.411612 0.634531
0.392752 0.452491 0.676753
0.74255 0.393713 0.65214
0.828977 0.386175 0.670222
0.793256 0.212818 0.639719
0.769268 0.111421 0.629007
0.0428779 0.680964 0.73022
0.042298 0.672755 0.721874
0.0413367 0.662394 0.710216
0.0395819 0.647883 0.694591
0.0445106 0.609567 0.645701
0.714763 0.734066 0.714565
0.911009 0.723827 0.717159
0.912734 0.676295 0.710399
0.872816 0.522988 0.668803
0.0365759 0.832212 0.834531
0.0340124 0.832639 0.825483
0.0369573 0.830671 0.813901
0.0378576 0.824277 0.795468
0.0625162 0.814878 0.750072
0.469795 0.828687 0.711009
0.811734 0.844877 0.683925
0.888151 0.823499 0.699596
0.883925 0.806745 0.697429
0.0723735 0.829374 0.875288
0.0724346 0.830167 0.867781
0.0653239 0.831113 0.858305
0.046479 0.832181 0.845106
0.0358892 0.833112 0.816571
0.0898756 0.854307 0.757977
0.72047 0.883253 0.75256
0.861524 0.899626 0.700435
0.86041 0.897383 0.691844
0.0711376 0.828077 0.890501
0.0716869 0.828397 0.886595
0.0720378 0.828595 0.883726
0.0720684 0.829053 0.879118
0.072282 0.829755 0.871565
0.0402075 0.832364 0.840314
0.450446 0.862776 0.761761
0.81181 0.907591 0.779339
0.868391 0.913314 0.749706
0.102251 0.289357 0.798291
0.101854 0.280537 0.797345
0.100572 0.269902 0.790417
0.221836 0.275471 0.786542
0.503166 0.242206 0.761578
0.767758 0.227588 0.744839
0.80911 0.188785 0.754665
0.778668 0.113817 0.728023
0.778058 0.114641 0.722957
0.102678 0.330968 0.804074
0.103395 0.323995 0.806134
0.100069 0.303456 0.793286
0.200092 0.313008 0.796323
0.48574 0.278401 0.772808
0.763058 0.257847 0.746349
0.814588 0.218158 0.757671
0.780056 0.115618 0.729549
0.778058 0.114641 0.722957
0.102647 0.353491 0.80557
0.103899 0.345144 0.808759
0.100435 0.321111 0.794186
0.17995 0.329976 0.797238
0.468803 0.296056 0.776944
0.754528 0.271839 0.742885
0.819379 0.235019 0.757336
0.779904 0.116213 0.727367
0.778058 0.114641 0.722957
0.102876 0.411826 0.807752
0.104265 0.397208 0.812512
0.103655 0.39057 0.810681
0.132662 0.375906 0.797742
0.434272 0.357809 0.790021
0.738369 0.321172 0.742458
0.826841 0.291829 0.758999
0.809171 0.191913 0.752407
0.778058 0.114641 0.722957
0.0393683 0.541894 0.795682
0.0464179 0.529992 0.799237
0.0528573 0.518791 0.801785
0.0607309 0.484764 0.787594
0.352026 0.501167 0.784115
0.732204 0.471199 0.78407
0.833021 0.422766 0.765896
0.827924 0.350973 0.759091
0.788312 0.135195 0.721065
0.026688 0.704662 0.825299
0.0255741 0.695735 0.820523
0.0242771 0.684871 0.81387
0.0227054 0.669398 0.808988
0.0273442 0.63386 0.779324
0.67306 0.701518 0.841901
0.878294 0.666682 0.827848
0.879362 0.614801 0.814923
0.835248 0.449454 0.751995
0.0714275 0.828061 0.889784
0.0711223 0.826749 0.884489
0.0710155 0.821927 0.877104
0.067216 0.811276 0.864057
0.0639506 0.798413 0.850965
0.448447 0.786755 0.802731
0.836484 0.863539 0.845853
0.912856 0.846204 0.837446
0.916945 0.808301 0.824994
0.0707561 0.827573 0.895567
0.0707561 0.827573 0.895567
0.0713359 0.827543 0.894682
0.0720226 0.827955 0.889677
0.0720836 0.829267 0.876921
0.0819715 0.835828 0.828229
0.708583 0.905241 0.831983
0.882155 0.935241 0.838239
0.883543 0.930694 0.831724
0.0707561 0.827573 0.895567
0.0707866 0.827573 0.895582
0.0708171 0.827558 0.895582
0.0707713 0.827573 0.895582
0.0707561 0.827573 0.895567
0.071809 0.829023 0.880125
0.461418 0.844205 0.813397
0.848188 0.930602 0.859236
0.886198 0.937392 0.849042
0.0650797 0.529519 0.828244
0.063859 0.535088 0.830518
0.0834974 0.539117 0.830472
0.240314 0.5449 0.823255
0.50219 0.567056 0.844297
0.77322 0.545876 0.836576
0.853254 0.522286 0.818051
0.845685 0.488365 0.808835
0.838499 0.446708 0.79881
0.0554818 0.54786 0.827558
0.0558175 0.551629 0.830045
0.0570535 0.552163 0.829206
0.218967 0.558633 0.82388
0.493126 0.580636 0.84213
0.771786 0.557763 0.842741
0.854917 0.529458 0.82005
0.846006 0.490822 0.809354
0.8374 0.440589 0.79733
0.0488899 0.560769 0.827588
0.0516365 0.558892 0.829694
0.0520027 0.558038 0.829419
0.196887 0.563256 0.825437
0.477668 0.581949 0.839033
0.764752 0.558785 0.845838
0.853849 0.526848 0.818708
0.845014 0.486381 0.807797
0.835142 0.422827 0.793805
0.0366979 0.587076 0.82858
0.0404517 0.577585 0.827314
0.0421454 0.576883 0.829313
0.134844 0.581659 0.829877
0.440131 0.595712 0.834424
0.754696 0.579873 0.85977
0.858595 0.54493 0.824613
0.84921 0.505577 0.813169
0.835706 0.429877 0.795239
0.0209354 0.650645 0.830457
0.0209354 0.635859 0.82948
0.0213626 0.621195 0.827008
0.0221561 0.621027 0.828962
0.362295 0.633356 0.829786
0.724666 0.648585 0.896284
0.871 0.608652 0.845319
0.862898 0.565621 0.830304
0.843076 0.474693 0.804974
0.031281 0.748302 0.862135
0.0300603 0.740154 0.859205
0.0277562 0.730739 0.854688
0.0242161 0.706401 0.8448
0.121981 0.703716 0.840589
0.656413 0.737896 0.885664
0.868788 0.732708 0.89369
0.897017 0.694865 0.874098
0.87715 0.616739 0.847425
0.0707561 0.827573 0.895567
0.0707561 0.827573 0.895567
0.0707561 0.825681 0.895125
0.0650797 0.816846 0.891188
0.0493172 0.787289 0.874296
0.486564 0.790356 0.858991
0.812924 0.854231 0.924468
0.91519 0.832288 0.916747
0.91162 0.796582 0.906889
0.0707561 0.827573 0.895567
0.0707561 0.827573 0.895567
0.0707561 0.827573 0.895567
0.0707561 0.827573 0.895567
0.0707561 0.827573 0.895567
0.164767 0.830411 0.878737
0.715114 0.892531 0.905379
0.914412 0.950484 0.932952
0.915755 0.941009 0.932738
0.0707561 0.827573 0.895567
0.0707561 0.827573 0.895567
0.0707561 0.827573 0.895567
0.0707561 0.827573 0.895567
0.0707561 0.827573 0.895567
0.0707561 0.827573 0.895567
0.501137 0.838315 0.863005
0.853056 0.942275 0.926024
0.917235 0.951095 0.932189
0.168032 0.720943 0.843336
0.233783 0.717937 0.836667
0.272389 0.717906 0.835508
0.373877 0.721813 0.839841
0.576257 0.745083 0.871748
0.776242 0.779232 0.924315
0.907256 0.749355 0.893004
0.901854 0.717708 0.881407
0.893767 0.680751 0.868818
0.156283 0.724041 0.845106
0.22327 0.72076 0.8383
0.264454 0.720546 0.836515
0.36643 0.724117 0.839445
0.570886 0.746883 0.870878
0.773007 0.781949 0.922469
0.907805 0.753857 0.894942
0.902541 0.72343 0.883284
0.895186 0.686336 0.87039
0.147387 0.726421 0.846571
0.213825 0.723064 0.839094
0.255772 0.722789 0.836759
0.357198 0.725811 0.839368
0.561105 0.747524 0.868879
0.766003 0.784451 0.917952
0.905211 0.759335 0.896956
0.904295 0.731212 0.88632
0.896696 0.692622 0.873167
0.119448 0.732662 0.850233
0.186038 0.73077 0.844572
0.232517 0.728252 0.839582
0.336217 0.730373 0.838972
0.543038 0.749599 0.866606
0.756436 0.790158 0.911482
0.899107 0.771847 0.901183
0.907179 0.745724 0.891905
0.900282 0.708949 0.878981
0.0431373 0.743862 0.858824
0.111269 0.748043 0.855833
0.160327 0.747417 0.852262
0.280262 0.743236 0.841199
0.503136 0.757702 0.858564
0.737224 0.801953 0.907561
0.883238 0.799908 0.912612
0.910613 0.774914 0.900832
0.906264 0.74136 0.890272
0.0468605 0.78378 0.874952
0.0444343 0.780819 0.872862
0.0432136 0.776989 0.870253
0.139605 0.777478 0.862943
0.399268 0.774289 0.848249
0.694179 0.815396 0.90866
0.849012 0.845441 0.935958
0.914214 0.821805 0.914
0.911177 0.793912 0.906035
0.0707561 0.827573 0.895567
0.0706188 0.8262 0.894362
0.0711528 0.824292 0.891768
0.0692454 0.820813 0.888243
0.217762 0.809827 0.862852
0.587686 0.837232 0.878553
0.81619 0.892653 0.926314
0.917082 0.894148 0.930632
0.917189 0.870878 0.925399
0.0707561 0.827573 0.895567
0.0707561 0.827573 0.895567
0.0707561 0.827573 0.895567
0.0707561 0.827573 0.895567
0.0717784 0.82945 0.891539
0.426871 0.826413 0.85684
0.747387 0.904189 0.910582
0.910842 0.951659 0.934096
0.91519 0.95082 0.934569
0.0707561 0.827573 0.895567
0.0707561 0.827573 0.895567
0.0707561 0.827573 0.895567
0.0707561 0.827573 0.895567
0.0707561 0.827573 0.895567
0.0713054 0.828473 0.890349
0.608072 0.861952 0.883955
0.861677 0.944091 0.93109
0.917128 0.9523 0.935607
