bundles/resolve-cinematic-luts/Phantom Luts/Apple Log Phantom LUTS/iPhone 15 Phantom Movie LUTs/65x/VisionTeal iPhone_15_65x.cube
TITLE "Generated by Resolve"
LUT_3D_SIZE 9
0.0222324 0.0283207 0.0264591
0.0222477 0.0285039 0.0266575
0.0915999 0.030518 0.023743
0.273182 0.0373236 0.0176242
0.479133 0.0395819 0.0262608
0.665965 0.0646677 0.0537881
0.738994 0.0882887 0.211109
0.726299 0.108064 0.437171
0.756191 0.106188 0.646616
0.0222324 0.0280461 0.026276
0.0222324 0.0285191 0.0266728
0.0710002 0.0352789 0.0270542
0.249989 0.0421607 0.0185702
0.478325 0.0381323 0.0270237
0.665736 0.0628824 0.0536049
0.740551 0.0899062 0.198108
0.725704 0.109575 0.427787
0.755245 0.10457 0.637339
0.0199283 0.094728 0.0346838
0.0209201 0.0690318 0.0301213
0.0719921 0.0807355 0.0325933
0.26038 0.0628977 0.0260624
0.474998 0.0398871 0.0260624
0.665599 0.0612039 0.0537881
0.71725 0.0722667 0.115541
0.727871 0.117266 0.398733
0.751781 0.101244 0.620935
0.0186007 0.256886 0.0684215
0.0198672 0.249088 0.034226
0.0183108 0.219669 0.0302892
0.251316 0.243488 0.0279088
0.544793 0.241215 0.088777
0.716457 0.168002 0.0961166
0.665721 0.0627298 0.0536812
0.729946 0.0891737 0.290028
0.742397 0.0928817 0.566079
0.038941 0.509789 0.215991
0.0707561 0.524071 0.188251
0.0845808 0.514824 0.100343
0.0751965 0.48513 0.0831159
0.480339 0.46656 0.0769207
0.747204 0.504051 0.173297
0.792462 0.450401 0.214771
0.774807 0.274952 0.140932
0.732036 0.0926528 0.30515
0.11754 0.795789 0.501808
0.113497 0.795636 0.473945
0.112093 0.799466 0.449149
0.193027 0.806424 0.365728
0.274464 0.762737 0.173999
0.689616 0.694881 0.149813
0.83003 0.716152 0.197467
0.827207 0.692027 0.190753
0.815198 0.616632 0.201312
0.136355 0.926589 0.718151
0.148913 0.924849 0.70338
0.167193 0.921645 0.685206
0.181521 0.916518 0.637018
0.243305 0.867399 0.416541
0.547921 0.79173 0.234775
0.810422 0.822629 0.243153
0.842298 0.820172 0.25626
0.841871 0.806119 0.244099
0.113573 0.925765 0.810407
0.108339 0.926772 0.799847
0.109361 0.926009 0.789166
0.112184 0.925536 0.770733
0.134997 0.926467 0.720455
0.31664 0.871092 0.506294
0.701228 0.800549 0.366873
0.820829 0.819699 0.403006
0.820768 0.819547 0.400839
0.144442 0.921096 0.845823
0.142061 0.921767 0.844694
0.140475 0.922072 0.842908
0.138613 0.921828 0.837461
0.125505 0.92369 0.82327
0.112459 0.926284 0.764111
0.573495 0.86009 0.622461
0.818814 0.846311 0.579461
0.839323 0.847318 0.580774
0.0222324 0.0284581 0.0266575
0.0222324 0.0287327 0.0281224
0.192004 0.0206302 0.112062
0.379889 0.0252384 0.0848096
0.549615 0.0429084 0.0818494
0.732509 0.0814679 0.161913
0.732036 0.0866102 0.279011
0.731426 0.101701 0.480522
0.760189 0.106325 0.659693
0.0222324 0.028336 0.0265049
0.0222324 0.0286564 0.0268101
0.157671 0.0316625 0.0238499
0.330022 0.0338293 0.020798
0.499901 0.0371557 0.0387579
0.724361 0.0771496 0.14081
0.732219 0.0846876 0.263539
0.728985 0.104494 0.462058
0.75845 0.105959 0.650736
0.019791 0.119509 0.0800946
0.0197604 0.115846 0.042771
0.0920729 0.100847 0.032517
0.299397 0.05832 0.0251469
0.487663 0.0391089 0.0269932
0.681239 0.043183 0.0722057
0.737469 0.085832 0.226764
0.727306 0.10779 0.437812
0.754437 0.1028 0.632715
0.0187533 0.262776 0.120653
0.0188449 0.263966 0.0708019
0.0227817 0.26157 0.0365148
0.259449 0.251881 0.0286564
0.556725 0.235096 0.0894331
0.715221 0.160769 0.0945144
0.676966 0.0468757 0.0666972
0.72845 0.101671 0.340307
0.745312 0.0924849 0.584466
0.0386816 0.501366 0.259953
0.0370031 0.506355 0.215
0.0644236 0.512657 0.19292
0.0774853 0.493187 0.0855268
0.479805 0.464302 0.076112
0.747585 0.495644 0.175143
0.791806 0.441825 0.214878
0.773571 0.265461 0.13547
0.728939 0.109331 0.375998
0.119295 0.792599 0.518639
0.113787 0.789151 0.493248
0.11075 0.787778 0.468879
0.120668 0.800748 0.401968
0.256504 0.759121 0.173342
0.683619 0.686915 0.147448
0.829984 0.710079 0.19646
0.824796 0.684443 0.188022
0.813291 0.599847 0.204791
0.132631 0.926955 0.722896
0.144503 0.925261 0.70956
0.161547 0.92256 0.691905
0.18436 0.916014 0.646967
0.211917 0.888334 0.473899
0.536767 0.790326 0.255283
0.803372 0.816327 0.256703
0.838499 0.810193 0.273686
0.835706 0.791287 0.265339
0.113268 0.925841 0.810132
0.108354 0.926772 0.799542
0.109972 0.925612 0.789075
0.112078 0.92549 0.771542
0.131533 0.926741 0.725292
0.29015 0.882002 0.522652
0.686122 0.799481 0.386557
0.820508 0.820661 0.416403
0.819867 0.820279 0.414618
0.1458 0.92105 0.846967
0.143374 0.92163 0.845823
0.141878 0.921798 0.84445
0.14049 0.921492 0.839612
0.12781 0.923384 0.826581
0.111498 0.925856 0.771221
0.571603 0.865217 0.637751
0.815549 0.847318 0.58468
0.841047 0.849088 0.589288
0.0213779 0.0364385 0.105882
0.100328 0.023209 0.123537
0.188693 0.0214847 0.164797
0.364401 0.0143435 0.213504
0.579171 0.0510719 0.198993
0.732876 0.0861524 0.278859
0.730968 0.11667 0.38677
0.740917 0.0943313 0.552865
0.76199 0.106813 0.673182
0.0214542 0.054551 0.0592813
0.0209201 0.0378576 0.121355
0.163073 0.0237736 0.147097
0.375708 0.0259709 0.110307
0.5785 0.0537118 0.130343
0.738766 0.0867018 0.227619
0.728389 0.104402 0.350317
0.735286 0.0971389 0.517327
0.760266 0.107256 0.664744
0.019852 0.122866 0.100725
0.0198367 0.118181 0.0979324
0.095491 0.107591 0.100572
0.321675 0.0600137 0.0583963
0.544472 0.0432136 0.0879835
0.729473 0.0792554 0.155123
0.732052 0.0859541 0.273243
0.730144 0.103716 0.466255
0.757458 0.105531 0.645853
0.0188144 0.261143 0.144335
0.018677 0.262547 0.115404
0.0188754 0.261936 0.0775006
0.264881 0.257313 0.066865
0.562753 0.234684 0.117189
0.718868 0.163317 0.118791
0.7299 0.0800183 0.152682
0.728496 0.110582 0.366827
0.748928 0.095491 0.600671
0.0389563 0.49752 0.287083
0.0370184 0.498527 0.248753
0.0374914 0.499031 0.210086
0.0754559 0.487739 0.0879835
0.472786 0.456107 0.0742809
0.74081 0.486885 0.180926
0.791943 0.431678 0.223117
0.771954 0.270665 0.17174
0.729305 0.117342 0.402335
0.119478 0.789761 0.531746
0.114519 0.785809 0.508293
0.110597 0.781491 0.484108
0.108553 0.787869 0.417838
0.24332 0.745266 0.167147
0.675746 0.677516 0.144472
0.828824 0.702281 0.19794
0.822828 0.674174 0.198032
0.812619 0.580804 0.246311
0.128038 0.927413 0.728161
0.13994 0.925628 0.715526
0.155642 0.923461 0.697978
0.186374 0.916014 0.655634
0.167971 0.901259 0.502617
0.521782 0.790051 0.278157
0.795773 0.809613 0.279088
0.833036 0.801801 0.299504
0.828901 0.780377 0.29781
0.113924 0.925765 0.811154
0.108293 0.926818 0.800198
0.109316 0.926024 0.789242
0.111604 0.925597 0.772656
0.128954 0.926986 0.727871
0.278523 0.888579 0.537514
0.673121 0.799283 0.399542
0.819638 0.821103 0.426352
0.819913 0.821057 0.423392
0.14728 0.921111 0.849134
0.14493 0.921584 0.847486
0.14313 0.921706 0.845731
0.141573 0.921416 0.841077
0.130068 0.923217 0.828931
0.110597 0.925551 0.778881
0.557137 0.872389 0.649546
0.810895 0.848066 0.590326
0.842344 0.850278 0.59472
0.0196231 0.0617533 0.296391
0.152056 0.0255741 0.321752
0.258534 0.0200809 0.310613
0.368261 0.0154574 0.313207
0.569574 0.0484932 0.372503
0.72874 0.115618 0.416342
0.731823 0.101808 0.478767
0.749813 0.0958877 0.607477
0.765362 0.108309 0.693706
0.019913 0.0961624 0.199268
0.0193027 0.0644694 0.309026
0.130236 0.0284276 0.340902
0.355215 0.014847 0.30341
0.56672 0.0564279 0.330388
0.72961 0.107576 0.360922
0.728191 0.106584 0.446464
0.744259 0.0936141 0.590097
0.76434 0.110414 0.68545
0.0194553 0.150225 0.176471
0.0197452 0.123278 0.228153
0.0261082 0.106233 0.254108
0.300603 0.0396582 0.254185
0.554376 0.055375 0.309758
0.731487 0.0932479 0.314763
0.728878 0.115236 0.417716
0.741817 0.0928054 0.568856
0.761227 0.108095 0.673884
0.0188754 0.25536 0.210025
0.0188144 0.25124 0.205798
0.0188754 0.24535 0.200641
0.305211 0.306661 0.272877
0.617151 0.270054 0.25095
0.765469 0.191516 0.248035
0.731182 0.0902876 0.302724
0.728252 0.104387 0.465339
0.755581 0.101808 0.636194
0.0202029 0.485573 0.328405
0.0206455 0.485649 0.316518
0.0284123 0.481834 0.297505
0.0352026 0.475364 0.228458
0.494728 0.486122 0.214023
0.767437 0.515099 0.33138
0.813489 0.467628 0.35024
0.786633 0.311482 0.297902
0.731197 0.102724 0.472709
0.0973831 0.78587 0.564523
0.104051 0.783398 0.549111
0.110536 0.775128 0.527916
0.106477 0.76556 0.470954
0.190753 0.74966 0.327153
0.66215 0.665049 0.238636
0.836744 0.691096 0.353674
0.836851 0.670176 0.364309
0.832441 0.590372 0.378759
0.115541 0.92842 0.745068
0.125673 0.926635 0.733089
0.138857 0.924987 0.718441
0.166903 0.92137 0.686275
0.162615 0.915114 0.565042
0.489479 0.798123 0.348837
0.780224 0.797116 0.338811
0.830915 0.79382 0.374594
0.836454 0.773816 0.381353
0.118624 0.925322 0.817914
0.109911 0.926833 0.807279
0.108797 0.926406 0.795727
0.110307 0.925628 0.779217
0.117052 0.928252 0.742138
0.276844 0.895384 0.574166
0.657313 0.805142 0.445258
0.821103 0.82475 0.459281
0.820661 0.824369 0.457938
0.150683 0.92108 0.854337
0.14905 0.921172 0.85214
0.146868 0.921538 0.850065
0.14229 0.922087 0.845777
0.133013 0.923156 0.834562
0.109514 0.925948 0.789258
0.556939 0.875761 0.669245
0.80885 0.85211 0.60914
0.846357 0.854276 0.613733
0.0192264 0.114061 0.506447
0.0480049 0.0993668 0.523873
0.17969 0.0370184 0.523262
0.418906 0.0446784 0.51574
0.600778 0.06392 0.543297
0.755901 0.101427 0.639582
0.762798 0.107012 0.679622
0.760555 0.115023 0.706294
0.763134 0.105516 0.726818
0.0192264 0.126131 0.388586
0.0191958 0.102815 0.452705
0.0190738 0.0937057 0.471199
0.351858 0.036408 0.504997
0.587243 0.0602121 0.530617
0.751705 0.0978561 0.61828
0.761288 0.106462 0.6663
0.761456 0.116335 0.69752
0.761028 0.10898 0.720012
0.019028 0.170993 0.364813
0.0191196 0.142672 0.406989
0.0191653 0.121889 0.406104
0.22089 0.0401923 0.446326
0.519402 0.0386969 0.462501
0.749691 0.094789 0.603525
0.756146 0.101015 0.6383
0.766308 0.111116 0.688533
0.760601 0.111894 0.713375
0.0191043 0.289235 0.343359
0.0191043 0.269352 0.359762
0.0191806 0.255375 0.374075
0.134005 0.283833 0.456336
0.560937 0.184771 0.498985
0.763394 0.190997 0.517266
0.742885 0.0910506 0.577722
0.758221 0.103426 0.650172
0.760037 0.118791 0.698222
0.0201877 0.48864 0.436744
0.020264 0.482414 0.429892
0.020325 0.473289 0.42063
0.0200046 0.459098 0.406973
0.557046 0.543832 0.510491
0.828962 0.544015 0.524361
0.846708 0.477333 0.500694
0.775769 0.268986 0.484276
0.750088 0.0961929 0.610941
0.0671244 0.774746 0.61973
0.0639658 0.769497 0.608331
0.0628214 0.761532 0.5944
0.0627756 0.751583 0.568765
0.131624 0.722423 0.489433
0.69279 0.699153 0.447471
0.876905 0.728725 0.542123
0.878538 0.712337 0.550622
0.867994 0.622858 0.533608
0.110811 0.925536 0.777371
0.114397 0.924987 0.767163
0.116564 0.925185 0.758099
0.118654 0.926101 0.741955
0.17435 0.916182 0.66949
0.485084 0.842054 0.535653
0.77911 0.79971 0.47277
0.85507 0.80444 0.516747
0.86334 0.783627 0.523064
0.13283 0.924239 0.8374
0.124926 0.925155 0.828031
0.116945 0.925811 0.816159
0.109834 0.926146 0.800076
0.110765 0.926223 0.769863
0.264408 0.906004 0.642771
0.656443 0.829847 0.548928
0.832242 0.84007 0.545907
0.831449 0.839063 0.542062
0.140734 0.924086 0.863508
0.143801 0.922881 0.861189
0.145037 0.922652 0.859236
0.147097 0.922316 0.85594
0.139712 0.923369 0.845853
0.110124 0.926894 0.807874
0.558251 0.884443 0.707851
0.813123 0.863844 0.661097
0.859358 0.866636 0.66099
0.0193179 0.169528 0.610712
0.019379 0.157015 0.626719
0.019379 0.142214 0.620813
0.218845 0.05066 0.649119
0.629664 0.089128 0.72697
0.767758 0.0937209 0.773419
0.768444 0.0959335 0.791928
0.77084 0.100786 0.828046
0.771237 0.101686 0.82948
0.0192569 0.259739 0.604944
0.0195315 0.239887 0.626368
0.0193332 0.210697 0.608362
0.153017 0.174304 0.648981
0.546258 0.0993057 0.665827
0.764752 0.0949569 0.747448
0.767391 0.0948196 0.785214
0.770687 0.100374 0.823255
0.770962 0.100908 0.828641
0.0194705 0.301228 0.5991
0.019379 0.279728 0.620203
0.0193484 0.267033 0.617945
0.096849 0.220523 0.633509
0.53402 0.135485 0.667231
0.748363 0.10602 0.704295
0.767361 0.0942397 0.778149
0.77055 0.0994888 0.813718
0.770611 0.100145 0.82092
0.0201877 0.390707 0.593805
0.0197604 0.37377 0.60798
0.0198367 0.362173 0.613184
0.0276646 0.32752 0.58938
0.493339 0.233249 0.669215
0.7449 0.20618 0.696223
0.773617 0.127169 0.734508
0.768078 0.0947127 0.786114
0.770138 0.0971542 0.799649
0.0208743 0.567636 0.605676
0.0207523 0.55877 0.605509
0.0205539 0.549844 0.605127
0.0205539 0.533028 0.60972
0.434806 0.521309 0.686519
0.758343 0.434485 0.705364
0.832639 0.417395 0.714397
0.800046 0.240375 0.723918
0.765362 0.0921798 0.753521
0.0762341 0.779751 0.733043
0.0748302 0.771008 0.723629
0.07187 0.760586 0.712718
0.0683909 0.745541 0.696056
0.0890669 0.681025 0.628794
0.748455 0.74995 0.724193
0.919829 0.744167 0.732021
0.915663 0.692164 0.726757
0.876295 0.551659 0.697398
0.131197 0.924224 0.834607
0.126482 0.924056 0.826093
0.120363 0.922347 0.817578
0.112123 0.917372 0.804471
0.105638 0.907103 0.770459
0.516777 0.849241 0.71104
0.82385 0.835706 0.679957
0.905486 0.829633 0.710018
0.908995 0.815488 0.711833
0.137453 0.925444 0.867857
0.141421 0.924315 0.861158
0.147509 0.922103 0.852995
0.138903 0.922652 0.841856
0.118608 0.92607 0.820752
0.132387 0.921187 0.750835
0.712963 0.877913 0.716731
0.869596 0.876646 0.694362
0.86746 0.87425 0.687037
0.126848 0.930938 0.884153
0.130999 0.927062 0.877409
0.13257 0.926635 0.87541
0.134646 0.926284 0.871824
0.138872 0.925048 0.865202
0.133272 0.924422 0.839689
0.507866 0.884474 0.749401
0.821515 0.88957 0.746868
0.881193 0.892546 0.740353
0.0201572 0.43415 0.750805
0.0202792 0.4271 0.750759
0.0203708 0.407233 0.738567
0.120546 0.400366 0.7664
0.488014 0.294514 0.7991
0.76022 0.26688 0.809003
0.812512 0.227207 0.833173
0.774441 0.106645 0.831708
0.771344 0.101671 0.829541
0.0205692 0.471992 0.755703
0.0202182 0.466255 0.757549
0.0204471 0.439399 0.738979
0.093492 0.43975 0.759701
0.472328 0.337331 0.802731
0.752728 0.29572 0.803342
0.816968 0.25597 0.829007
0.777661 0.112352 0.833234
0.771344 0.101671 0.829541
0.0203555 0.491722 0.756268
0.0205081 0.484977 0.760327
0.0204471 0.45594 0.739986
0.0708171 0.455924 0.753033
0.459007 0.360708 0.803098
0.743542 0.308705 0.797055
0.819226 0.272526 0.822797
0.787655 0.131731 0.836057
0.771344 0.101671 0.829557
0.0205692 0.547601 0.756085
0.0206912 0.53518 0.761837
0.0208133 0.528679 0.760769
0.036347 0.493812 0.740642
0.430945 0.444099 0.801785
0.731395 0.360525 0.791653
0.816373 0.324346 0.808759
0.812436 0.229694 0.830549
0.771344 0.101671 0.829557
0.0208896 0.668864 0.76231
0.0209659 0.656397 0.763638
0.0209506 0.645319 0.762951
0.0209201 0.600977 0.73492
0.35491 0.585595 0.76408
0.740444 0.512184 0.823514
0.830686 0.445914 0.804379
0.81706 0.376928 0.799512
0.797269 0.152819 0.826978
0.0475166 0.81857 0.820798
0.0421149 0.810025 0.81445
0.037705 0.799542 0.807477
0.031281 0.78529 0.798321
0.0539101 0.721187 0.742123
0.690639 0.735439 0.840116
0.891722 0.676463 0.851377
0.888655 0.628565 0.841184
0.839323 0.470558 0.795132
0.127016 0.931762 0.885176
0.129198 0.92723 0.878065
0.13257 0.920043 0.871794
0.12958 0.910536 0.864332
0.124865 0.898726 0.854154
0.507393 0.823667 0.792401
0.855604 0.865431 0.843961
0.931533 0.848356 0.834607
0.930114 0.807538 0.825345
0.120439 0.937499 0.89865
0.12047 0.937484 0.898634
0.123842 0.935744 0.895384
0.129824 0.929473 0.882795
0.135836 0.926055 0.869535
0.19147 0.893416 0.804028
0.737163 0.914321 0.824048
0.909117 0.924697 0.823316
0.908888 0.918624 0.81912
0.120439 0.937499 0.89865
0.120562 0.937438 0.898604
0.120653 0.937377 0.898543
0.120546 0.937438 0.898619
0.120455 0.937499 0.898634
0.133715 0.926574 0.872541
0.522164 0.870848 0.796872
0.852506 0.925231 0.838132
0.91136 0.927321 0.830976
0.0211643 0.646922 0.778897
0.020798 0.644144 0.77467
0.0585184 0.642298 0.780926
0.236484 0.627619 0.783246
0.509178 0.63093 0.835782
0.776364 0.577417 0.873518
0.853498 0.539803 0.852399
0.843809 0.507759 0.84387
0.833646 0.468116 0.834897
0.0209659 0.667369 0.783047
0.0211185 0.661555 0.777996
0.036759 0.658335 0.780209
0.222446 0.640925 0.78349
0.502541 0.641917 0.83154
0.773526 0.588663 0.877668
0.856107 0.546365 0.854536
0.844343 0.509834 0.844205
0.831815 0.461753 0.833341
0.02121 0.68162 0.785779
0.0212406 0.669856 0.780133
0.0211643 0.663767 0.777569
0.203449 0.646891 0.783261
0.486976 0.64416 0.825925
0.76611 0.590387 0.880217
0.854841 0.543725 0.853452
0.843061 0.505638 0.843091
0.827543 0.444968 0.830137
0.0212253 0.713085 0.795239
0.0211032 0.693004 0.784985
0.0210575 0.686397 0.781247
0.147417 0.670207 0.786068
0.456947 0.657679 0.81828
0.755184 0.611704 0.889921
0.860716 0.561074 0.858564
0.84828 0.523842 0.8477
0.828931 0.451926 0.831434
0.0211795 0.773907 0.811383
0.0210422 0.761257 0.806622
0.0213169 0.737041 0.791089
0.0214084 0.726833 0.785855
0.401511 0.695262 0.808438
0.72874 0.681666 0.911147
0.875151 0.621347 0.877485
0.866529 0.580621 0.864271
0.840024 0.494621 0.840406
0.0646067 0.862257 0.862348
0.0585336 0.854887 0.858534
0.0517281 0.846479 0.8533
0.0364385 0.817212 0.831464
0.217777 0.769512 0.803906
0.67216 0.7691 0.876066
0.87538 0.740383 0.91603
0.90338 0.700114 0.899733
0.882048 0.628428 0.879164
0.120485 0.937469 0.898634
0.120439 0.937499 0.89865
0.119677 0.935775 0.898039
0.116793 0.927352 0.893675
0.09897 0.879103 0.859403
0.53637 0.826612 0.843549
0.828244 0.861738 0.911971
0.930083 0.830686 0.922759
0.923384 0.795651 0.916762
0.121202 0.937118 0.898207
0.120439 0.937499 0.89865
0.12047 0.937484 0.898634
0.120775 0.937331 0.898497
0.120455 0.937499 0.89865
0.274952 0.875151 0.839551
0.744472 0.90605 0.883513
0.938567 0.94789 0.931136
0.939452 0.938109 0.926711
0.120485 0.937484 0.89865
0.120439 0.937499 0.89865
0.12047 0.937484 0.89865
0.121721 0.936889 0.89807
0.120607 0.937407 0.898573
0.120439 0.937499 0.89865
0.551095 0.869322 0.842252
0.878523 0.943542 0.918151
0.940185 0.948684 0.928389
0.261097 0.777737 0.806027
0.312261 0.773953 0.807568
0.347631 0.773098 0.810407
0.438224 0.770962 0.822095
0.609903 0.780682 0.859327
0.78468 0.797009 0.919707
0.914885 0.750729 0.911467
0.90837 0.721263 0.904723
0.900084 0.687312 0.897108
0.251484 0.780896 0.806775
0.303746 0.776532 0.807538
0.340108 0.775479 0.810452
0.432273 0.773373 0.821729
0.605982 0.782345 0.858412
0.782101 0.800137 0.917144
0.915633 0.755261 0.911803
0.910002 0.726833 0.907408
0.900801 0.692256 0.897475
0.244419 0.783276 0.808011
0.296193 0.778683 0.807492
0.333349 0.777447 0.81004
0.424369 0.774807 0.820356
0.598306 0.784024 0.856992
0.77528 0.803052 0.910933
0.913603 0.760678 0.913252
0.911727 0.733654 0.908782
0.902876 0.697734 0.898741
0.221225 0.791577 0.812085
0.277089 0.784787 0.808652
0.314565 0.782742 0.810208
0.405402 0.779232 0.817578
0.583322 0.787671 0.854139
0.766644 0.808804 0.90222
0.90901 0.773648 0.916777
0.914702 0.747402 0.911086
0.906477 0.712566 0.903151
0.1514 0.818982 0.826596
0.216358 0.806317 0.81825
0.261326 0.799252 0.813809
0.35903 0.791821 0.814649
0.550576 0.797513 0.847089
0.752209 0.819867 0.893538
0.895705 0.801968 0.922347
0.919402 0.774868 0.91426
0.913802 0.743023 0.910307
0.0942855 0.872801 0.855756
0.0955825 0.866468 0.851408
0.136461 0.8551 0.844968
0.247318 0.826474 0.823011
0.461982 0.815503 0.829679
0.719051 0.836027 0.888716
0.864683 0.85005 0.931228
0.928237 0.820203 0.920272
0.923491 0.793332 0.916716
0.120485 0.937469 0.898634
0.124437 0.920714 0.878477
0.122957 0.911513 0.871595
0.120851 0.906416 0.867933
0.318791 0.850477 0.827146
0.627512 0.863096 0.860685
0.836378 0.898329 0.911955
0.937179 0.891752 0.929183
0.935882 0.86836 0.926162
0.120439 0.937499 0.89865
0.120439 0.937499 0.89865
0.12047 0.937484 0.898634
0.121004 0.937224 0.89839
0.127031 0.915801 0.870359
0.486061 0.862608 0.835279
0.77377 0.91487 0.892058
0.936248 0.949065 0.932784
0.939864 0.948058 0.932952
0.120439 0.937499 0.89865
0.120439 0.937499 0.89865
0.12047 0.937484 0.89865
0.120439 0.937499 0.89865
0.120439 0.937499 0.89865
0.130419 0.913756 0.869444
0.646906 0.884596 0.860563
0.888426 0.945113 0.923629
0.940841 0.949401 0.932723
