bundles/resolve-cinematic-luts/Phantom Luts/Apple Log Phantom LUTS/iPhone 15 Phantom Movie LUTs/65x/Vision_Legacy iPhone_15_65x.cube
TITLE "Generated by Resolve"
LUT_3D_SIZE 65
0.0279545 0.0393225 0.0297704
0.0279545 0.0393225 0.0297704
0.0279545 0.0393225 0.0297856
0.0279545 0.0393225 0.0298161
0.0279545 0.0393225 0.0298619
0.0279698 0.0393072 0.0298924
0.0279698 0.0393072 0.0299229
0.0279698 0.0393072 0.0299382
0.0279698 0.0393072 0.0299535
0.027985 0.0393072 0.0299687
0.0275273 0.0390936 0.0298161
0.0282444 0.0393378 0.0299687
0.0299535 0.0394903 0.0297704
0.0319982 0.0402686 0.0296788
0.0372931 0.0415198 0.0282292
0.0493324 0.0413977 0.0277256
0.0585336 0.0417029 0.0287327
0.0695506 0.0427863 0.0292515
0.078584 0.0431678 0.0292515
0.0899214 0.0437934 0.0298161
0.104646 0.0432898 0.0287633
0.120317 0.0434882 0.0279545
0.139361 0.0438392 0.0266728
0.164614 0.0425574 0.024033
0.194934 0.0408484 0.0210117
0.230442 0.0402228 0.0194858
0.256977 0.0407721 0.0184329
0.289815 0.0405127 0.0180209
0.317739 0.0401007 0.0176089
0.351064 0.0402686 0.0184482
0.393088 0.0434882 0.0233921
0.418723 0.0451972 0.024506
0.444404 0.0467842 0.0267338
0.468238 0.049012 0.0286107
0.4925 0.0513771 0.0301061
0.518898 0.0540017 0.0322881
0.545571 0.057496 0.034699
0.573465 0.0626535 0.0387121
0.601312 0.0696574 0.0431525
0.624155 0.0748608 0.0467079
0.636561 0.0767071 0.0489052
0.638956 0.0727245 0.05066
0.643961 0.0659342 0.0543984
0.654108 0.0681468 0.0633097
0.666468 0.0725261 0.0753033
0.678141 0.0783856 0.0875868
0.690196 0.0807202 0.0987411
0.69752 0.0755627 0.104646
0.706111 0.0753643 0.117937
0.71458 0.0800336 0.137896
0.723018 0.0858473 0.161944
0.72668 0.0865644 0.186969
0.726589 0.0835126 0.207767
0.731975 0.0884413 0.235966
0.736019 0.0948653 0.264424
0.739712 0.102449 0.294789
0.741741 0.112428 0.327199
0.742641 0.124285 0.361669
0.741146 0.131991 0.402502
0.740353 0.128817 0.43418
0.739727 0.122911 0.457801
0.738979 0.116381 0.479271
0.737957 0.109071 0.50132
0.738186 0.106142 0.51339
0.738582 0.105959 0.513069
0.0278782 0.0393683 0.029572
0.027924 0.039353 0.0296635
0.0279393 0.0393378 0.0297398
0.0279545 0.0393225 0.0298009
0.0279545 0.0393225 0.0298619
0.0279698 0.0393072 0.0298924
0.0279698 0.0393072 0.0299229
0.0279698 0.0393072 0.0299535
0.0279698 0.0393072 0.0299535
0.027985 0.039292 0.0299687
0.0278935 0.0392615 0.0299229
0.0287022 0.039353 0.0299382
0.030457 0.0395819 0.0297398
0.032639 0.0404212 0.0295872
0.0409247 0.0412909 0.0271458
0.0504921 0.0415045 0.0280003
0.0606546 0.0419776 0.0288548
0.0706035 0.0429847 0.0293584
0.080293 0.0432288 0.0294041
0.0929732 0.0436713 0.0296025
0.10663 0.0440833 0.0288548
0.122255 0.0442206 0.0280766
0.13933 0.0440833 0.0267643
0.167178 0.0424659 0.023743
0.195727 0.0411994 0.0213779
0.229099 0.0404669 0.019791
0.258106 0.041001 0.0189975
0.285878 0.040528 0.0180209
0.316304 0.0401617 0.0176394
0.34966 0.0402838 0.0184787
0.382177 0.0427405 0.022034
0.419944 0.0453651 0.0246281
0.444953 0.0468452 0.0267948
0.469322 0.0491493 0.0287022
0.493736 0.051606 0.0303044
0.520485 0.0542458 0.0323949
0.54728 0.0576486 0.0348058
0.575387 0.0633097 0.0392615
0.60293 0.0698558 0.0433051
0.624613 0.0749065 0.0467384
0.636149 0.0770275 0.0487373
0.638086 0.0739147 0.0499733
0.64358 0.0679026 0.0540932
0.652811 0.0674449 0.0617227
0.664469 0.0719921 0.073167
0.677317 0.0774243 0.0861219
0.689662 0.0812238 0.098558
0.6972 0.0761425 0.104356
0.705516 0.0751354 0.116793
0.714214 0.0798047 0.13698
0.723064 0.0858473 0.161593
0.726253 0.0859083 0.185595
0.72668 0.0836042 0.20734
0.731975 0.0884565 0.236118
0.735988 0.0948501 0.264363
0.739681 0.102556 0.295048
0.741787 0.112428 0.327077
0.742596 0.124483 0.363043
0.741146 0.131991 0.402472
0.740261 0.128847 0.434012
0.739742 0.122866 0.457954
0.738979 0.116365 0.479332
0.737972 0.108995 0.501686
0.738048 0.106004 0.512581
0.73843 0.105837 0.512276
0.0278782 0.0393683 0.029572
0.027924 0.039353 0.0296635
0.0279393 0.0393378 0.0297398
0.0279545 0.0393225 0.0298009
0.0279545 0.0393225 0.0298619
0.0279698 0.0393072 0.0299077
0.0279698 0.0393072 0.0299382
0.0279698 0.0393072 0.0299535
0.027985 0.0393072 0.0299687
0.027985 0.039292 0.029984
0.0278325 0.0392309 0.0298924
0.0290379 0.0393835 0.0299229
0.0306859 0.0396735 0.0297704
0.0328679 0.0404517 0.0296025
0.0398566 0.0417487 0.0274052
0.0500343 0.0419623 0.0279088
0.0594644 0.0422522 0.0289311
0.0705119 0.0431678 0.0294194
0.0809491 0.0434577 0.0294957
0.0920882 0.044358 0.0297551
0.105669 0.0445258 0.0290074
0.11931 0.0446479 0.0283055
0.136294 0.0445411 0.0271153
0.165026 0.0433967 0.0243839
0.193713 0.0419928 0.021912
0.224628 0.0411688 0.0204013
0.25658 0.0411078 0.0191196
0.2851 0.0406195 0.0180362
0.313237 0.0397803 0.0174716
0.346014 0.040177 0.0181735
0.379995 0.0420691 0.0209659
0.416022 0.045182 0.0244602
0.445701 0.046891 0.0268406
0.46981 0.0491798 0.0287175
0.494545 0.0517281 0.030396
0.521416 0.0543679 0.0324102
0.548363 0.0577859 0.0349584
0.576379 0.0635538 0.0394446
0.603464 0.0699168 0.0433509
0.625254 0.0750134 0.0468299
0.635935 0.0771344 0.0486763
0.637613 0.0744182 0.0496223
0.642954 0.068574 0.0530861
0.651011 0.0670481 0.0601663
0.662211 0.0710613 0.071107
0.676036 0.0767987 0.0844739
0.688869 0.0816358 0.0979171
0.696788 0.0768139 0.104005
0.704433 0.0743572 0.114763
0.713878 0.07953 0.136172
0.722377 0.0852827 0.159731
0.726223 0.0857099 0.184115
0.726818 0.0832837 0.206485
0.731868 0.0881666 0.234836
0.735836 0.094728 0.264012
0.739422 0.10219 0.293828
0.741802 0.112215 0.326299
0.742458 0.123659 0.360906
0.741176 0.13193 0.402289
0.740185 0.128862 0.433768
0.739742 0.123049 0.457267
0.738994 0.116503 0.478813
0.737972 0.109163 0.501106
0.737896 0.105852 0.511879
0.738247 0.105684 0.511467
0.0278782 0.0393683 0.029572
0.027924 0.039353 0.0296635
0.0279393 0.0393378 0.0297398
0.0279545 0.0393225 0.0298009
0.0279545 0.0393225 0.0298619
0.0279698 0.0393072 0.0299077
0.0279698 0.0393072 0.0299382
0.0279698 0.0393072 0.0299535
0.027985 0.039292 0.029984
0.027924 0.0392615 0.0299535
0.0276951 0.0391699 0.0298161
0.028748 0.0393683 0.0299687
0.0304723 0.0396124 0.0297246
0.0323949 0.0403449 0.0297398
0.0395972 0.0419623 0.0276951
0.0493629 0.0424201 0.027451
0.0583658 0.0426032 0.0290532
0.0691844 0.043534 0.0293736
0.0779889 0.0439155 0.0292058
0.088838 0.0450599 0.0301518
0.104417 0.0451667 0.0292058
0.117754 0.0454261 0.0289158
0.13518 0.0452583 0.0277562
0.159335 0.0444495 0.025452
0.190906 0.0421454 0.0219883
0.223407 0.0414588 0.0206149
0.256321 0.0412604 0.0192721
0.287098 0.0410315 0.0187381
0.313207 0.0397955 0.0174868
0.345602 0.0402075 0.018204
0.377356 0.0415503 0.0202792
0.414603 0.0450752 0.0242771
0.446265 0.0470283 0.0269474
0.470115 0.0492103 0.0287327
0.495354 0.0518044 0.0304265
0.522179 0.0544747 0.0324407
0.549218 0.0579538 0.035172
0.576486 0.0635691 0.0394751
0.60444 0.0702983 0.0436255
0.625864 0.0750591 0.0469062
0.635843 0.0771801 0.048661
0.637049 0.0760357 0.0489662
0.641611 0.0699016 0.0522011
0.649241 0.0668803 0.058732
0.66128 0.0700389 0.0695964
0.675029 0.0763714 0.0836805
0.687633 0.0818494 0.0970932
0.696208 0.0776379 0.103609
0.703792 0.0740368 0.113313
0.713039 0.0791028 0.134478
0.721904 0.0848707 0.158343
0.726406 0.0859541 0.183307
0.727153 0.0838636 0.205859
0.731853 0.087953 0.233646
0.735653 0.0944381 0.26331
0.739452 0.101961 0.29276
0.741726 0.111757 0.324514
0.742397 0.123278 0.360418
0.741207 0.131762 0.401328
0.740246 0.129107 0.432914
0.739757 0.123247 0.456489
0.73904 0.116655 0.478386
0.737972 0.109331 0.500526
0.737743 0.105699 0.51104
0.738109 0.105516 0.510704
0.0278782 0.0393683 0.029572
0.027924 0.039353 0.0296635
0.0279393 0.0393378 0.0297398
0.0279545 0.0393225 0.0298161
0.0279545 0.0393225 0.0298619
0.0279698 0.0393072 0.0299077
0.0279698 0.0393072 0.0299535
0.027985 0.039292 0.0299687
0.027985 0.039292 0.029984
0.027985 0.0393072 0.029984
0.0280003 0.0392615 0.029984
0.0286259 0.0393683 0.029984
0.0302281 0.0395666 0.0297704
0.0322423 0.0404669 0.0298924
0.0365759 0.0424048 0.0289769
0.0482032 0.0431525 0.0264744
0.0572061 0.0432898 0.0293431
0.066453 0.0442512 0.0293889
0.0758984 0.0449989 0.0294652
0.0866712 0.0462348 0.0303502
0.100389 0.046128 0.0298161
0.114931 0.0459907 0.02916
0.137072 0.0455482 0.027863
0.161303 0.0444343 0.025452
0.189517 0.042771 0.0225986
0.223041 0.0415656 0.020676
0.255299 0.0413519 0.0194095
0.289235 0.0409552 0.0186618
0.317815 0.0408026 0.0188449
0.343618 0.0402991 0.0182345
0.378271 0.0417182 0.0204929
0.41532 0.0450752 0.0242924
0.446448 0.0470893 0.0269932
0.470558 0.0492256 0.028748
0.496025 0.0518654 0.0304723
0.522972 0.0545968 0.032517
0.549508 0.0580148 0.0352483
0.57763 0.06392 0.0397192
0.605402 0.0704509 0.0436866
0.626413 0.0750896 0.0469673
0.635737 0.0772717 0.0486305
0.636942 0.0761273 0.0489357
0.640421 0.071397 0.0515297
0.647181 0.0663005 0.0569772
0.660288 0.0698253 0.0686809
0.673838 0.0761425 0.0825513
0.686854 0.0821546 0.0963149
0.695399 0.0782177 0.103044
0.702724 0.073518 0.112474
0.712535 0.0787823 0.133013
0.721279 0.0844434 0.156802
0.725933 0.0853285 0.181231
0.727382 0.0841688 0.205417
0.731655 0.0874037 0.231388
0.735302 0.0939498 0.261769
0.739376 0.101839 0.292103
0.74168 0.111589 0.323796
0.742519 0.12314 0.359426
0.741238 0.131548 0.399847
0.740185 0.129183 0.432547
0.739788 0.1234 0.455909
0.739055 0.116777 0.478035
0.737987 0.10956 0.499825
0.737636 0.105608 0.510353
0.738109 0.105715 0.510155
0.0278782 0.0393683 0.029572
0.027924 0.039353 0.0296635
0.0279393 0.0393378 0.0297398
0.0279545 0.0393225 0.0298161
0.0279545 0.0393072 0.0298772
0.0279698 0.0393072 0.0299077
0.0279698 0.0393072 0.0299535
0.027985 0.039292 0.029984
0.027985 0.0393072 0.029984
0.027985 0.039292 0.0299992
0.0280919 0.0393225 0.0300145
0.0288243 0.0393988 0.0300145
0.0304417 0.0396429 0.0298161
0.0324559 0.040528 0.0298924
0.0366979 0.0425116 0.0289921
0.0472572 0.0435492 0.0267185
0.0551614 0.0443427 0.0285344
0.0644388 0.0446937 0.0294347
0.0757 0.045304 0.0295415
0.0872816 0.0466163 0.0303807
0.0997024 0.0464179 0.0299382
0.115816 0.0462654 0.0292821
0.135485 0.0457618 0.0280308
0.158968 0.0446632 0.0255589
0.192721 0.042771 0.0225376
0.225132 0.0417334 0.0206149
0.255192 0.0414282 0.0194858
0.289906 0.0410773 0.0187991
0.317052 0.0408026 0.0188449
0.344839 0.0403143 0.0183413
0.376104 0.0415808 0.0203708
0.411658 0.0442969 0.0229953
0.443427 0.0468147 0.0267643
0.470985 0.0492714 0.0287785
0.49659 0.0519112 0.0304875
0.523278 0.0546273 0.0325475
0.550362 0.0582437 0.0355077
0.578744 0.0640879 0.039826
0.605692 0.0705577 0.0437629
0.627405 0.0752117 0.0471504
0.635767 0.0772717 0.0486305
0.636545 0.0767987 0.0488441
0.639597 0.0720684 0.0509499
0.646235 0.067628 0.0563516
0.659007 0.0698558 0.0674449
0.671855 0.0754864 0.0805371
0.686213 0.0816205 0.0951858
0.694438 0.0788586 0.102358
0.702129 0.0731518 0.111269
0.711879 0.0783551 0.131853
0.72047 0.0838941 0.15491
0.726192 0.085771 0.180331
0.727504 0.0839857 0.202701
0.731594 0.0869917 0.230518
0.735256 0.0937209 0.260655
0.739315 0.101396 0.290211
0.741451 0.111147 0.322576
0.742519 0.122759 0.358389
0.741283 0.131365 0.39852
0.740139 0.129534 0.430961
0.739773 0.123507 0.455436
0.73901 0.116838 0.477806
0.738018 0.109773 0.499321
0.737667 0.105882 0.509926
0.73814 0.105989 0.509651
0.0278782 0.0393683 0.029572
0.0279088 0.039353 0.0296635
0.0279393 0.0393378 0.0297398
0.0279545 0.0393225 0.0298161
0.0279545 0.0393072 0.0298772
0.0279698 0.0393072 0.0299077
0.0279698 0.0393072 0.0299535
0.027985 0.039292 0.029984
0.027985 0.039292 0.0299992
0.027985 0.039292 0.0299992
0.0280308 0.0393072 0.0300145
0.0284581 0.0393683 0.0300298
0.0301213 0.0396124 0.0298619
0.032578 0.0406653 0.0299535
0.0365759 0.0425727 0.0291447
0.0465705 0.0437476 0.0269322
0.0552071 0.04477 0.0284123
0.0643015 0.0449378 0.0294194
0.0749828 0.0456245 0.0294957
0.0867933 0.0469368 0.0303807
0.100969 0.0464027 0.0296941
0.119051 0.0463722 0.0293431
0.138827 0.0454261 0.0276951
0.163149 0.0442206 0.0249485
0.194293 0.0425574 0.0222934
0.225025 0.0416571 0.0205081
0.256794 0.0413062 0.0192416
0.290028 0.0412146 0.0190585
0.321324 0.040589 0.0187228
0.349142 0.0413672 0.0205997
0.376516 0.0416571 0.0204776
0.410681 0.0439765 0.0221866
0.443244 0.0467689 0.0266575
0.471519 0.0492866 0.028809
0.496605 0.0519112 0.0304875
0.524132 0.0548104 0.0326543
0.55111 0.0582895 0.0355993
0.579126 0.0641184 0.039826
0.606607 0.071046 0.0441291
0.627863 0.0752728 0.0472572
0.635813 0.0772412 0.0486305
0.636255 0.0770123 0.0487221
0.638804 0.0728313 0.0505074
0.645197 0.0680552 0.0552682
0.65687 0.0693675 0.0652323
0.669703 0.0743572 0.0782483
0.684611 0.0806744 0.0931563
0.694102 0.0791638 0.101869
0.701396 0.0724956 0.109346
0.710643 0.0777295 0.129519
0.719661 0.0833753 0.152636
0.726146 0.0859693 0.178119
0.728435 0.0848554 0.20235
0.731456 0.0865492 0.229084
0.73492 0.0929885 0.257359
0.739071 0.101015 0.288869
0.741375 0.110658 0.32105
0.742519 0.122286 0.357229
0.74136 0.131167 0.396841
0.740215 0.129763 0.430396
0.739742 0.123705 0.454719
0.739025 0.117113 0.476936
0.738064 0.110033 0.498497
0.737743 0.106233 0.5093
0.738216 0.106401 0.508812
0.0278782 0.0393683 0.029572
0.0279088 0.039353 0.0296635
0.0279393 0.0393378 0.0297246
0.0279545 0.0393225 0.0298009
0.0279545 0.0393225 0.0298619
0.0279698 0.0393072 0.0299229
0.0279698 0.0393072 0.0299535
0.027985 0.039292 0.029984
0.027985 0.039292 0.0299992
0.027985 0.039292 0.0299992
0.0280003 0.039292 0.0300298
0.0282292 0.039353 0.0300298
0.0294347 0.0395819 0.029984
0.0317693 0.0404974 0.0302586
0.0351873 0.0426642 0.0298466
0.0451667 0.044007 0.0274662
0.0552071 0.0451209 0.0282902
0.0645762 0.0452583 0.0295109
0.0757763 0.0457771 0.0296025
0.0881208 0.0467994 0.0304723
0.101472 0.0463874 0.029633
0.118669 0.0465095 0.0293889
0.13959 0.0454566 0.0276646
0.16875 0.0438544 0.0245518
0.195407 0.0425879 0.0223239
0.225818 0.041825 0.0205844
0.256489 0.0414435 0.0194095
0.290562 0.0411841 0.0189975
0.321706 0.0406195 0.0187686
0.351858 0.0415808 0.0208896
0.380011 0.0429084 0.0227207
0.408194 0.0439155 0.0220798
0.444266 0.0467689 0.026688
0.469413 0.0492409 0.0287633
0.497032 0.0518959 0.0304875
0.525002 0.0549325 0.0327306
0.551308 0.0583047 0.0356298
0.580224 0.0643015 0.0399481
0.606699 0.071046 0.0441444
0.628428 0.0753796 0.0473945
0.635859 0.0772412 0.0486305
0.636133 0.0770733 0.048661
0.637705 0.0749065 0.0494392
0.64419 0.0686809 0.0544442
0.654215 0.0681773 0.0631113
0.668101 0.0728008 0.0761578
0.682689 0.07953 0.0912032
0.693462 0.0794995 0.101076
0.700267 0.0720073 0.106859
0.709636 0.0771191 0.127077
0.718746 0.0826886 0.149767
0.726085 0.0859693 0.176333
0.728191 0.0843061 0.199619
0.731182 0.0856489 0.225147
0.734981 0.0924849 0.255772
0.739025 0.10042 0.287114
0.741253 0.110079 0.319295
0.742824 0.122118 0.355108
0.741573 0.130968 0.394247
0.740139 0.130022 0.428946
0.739742 0.124071 0.453285
0.739025 0.117281 0.47628
0.738109 0.110246 0.497887
0.737835 0.106645 0.508263
0.738308 0.106798 0.507836
0.0278782 0.0393683 0.029572
0.0279088 0.039353 0.0296635
0.0279393 0.0393378 0.0297246
0.0279545 0.0393225 0.0298009
0.0279545 0.0393225 0.0298619
0.0279698 0.0393072 0.0299229
0.0279698 0.0393072 0.0299535
0.027985 0.039292 0.029984
0.027985 0.039292 0.0299992
0.027985 0.039292 0.0299992
0.027985 0.039292 0.0299992
0.0281071 0.039353 0.030045
0.0290837 0.0395666 0.0300298
0.0311894 0.0404212 0.0303349
0.0341039 0.0426184 0.0305028
0.0400854 0.0448005 0.0289158
0.0527657 0.046067 0.0273289
0.0636606 0.0456092 0.0296483
0.0759594 0.0459602 0.0295872
0.089128 0.0466163 0.030518
0.103288 0.0461891 0.0294652
0.121431 0.0461433 0.0290074
0.143114 0.045182 0.0273594
0.16907 0.0439765 0.0247196
0.196399 0.0425422 0.0222324
0.226383 0.0420233 0.0206607
0.257038 0.0416571 0.0195315
0.291066 0.0413214 0.0191196
0.323308 0.0408942 0.0191043
0.352819 0.0415503 0.0209354
0.381338 0.0427405 0.0230106
0.409125 0.0437018 0.0223392
0.446342 0.0467231 0.0269932
0.470726 0.049012 0.0288701
0.496498 0.0516365 0.0305486
0.526268 0.0548714 0.0328832
0.55346 0.0579232 0.0355688
0.581674 0.0641337 0.0399481
0.609552 0.0707713 0.0441749
0.630243 0.0753338 0.0473945
0.637217 0.0767376 0.0484779
0.637217 0.0767681 0.0484779
0.638636 0.0747234 0.049134
0.643732 0.0693523 0.0528878
0.652979 0.0670176 0.0611582
0.665599 0.0721141 0.0740063
0.679652 0.0785687 0.0888228
0.691905 0.0804913 0.100465
0.698787 0.0729534 0.106203
0.708141 0.0767681 0.124681
0.717372 0.0823529 0.147799
0.725628 0.0869154 0.175448
0.72752 0.0852827 0.199008
0.730449 0.0854505 0.22356
0.734295 0.0919661 0.253971
0.738781 0.0998856 0.284627
0.741115 0.109529 0.317571
0.743008 0.12137 0.353292
0.741772 0.1308 0.392782
0.740139 0.130327 0.428153
0.739727 0.124193 0.452811
0.738994 0.11754 0.475593
0.73817 0.110475 0.496941
0.737911 0.107088 0.507301
0.73814 0.107301 0.506828
0.0278019 0.0393988 0.0293736
0.0278325 0.0393988 0.0294347
0.0278477 0.0393835 0.0294804
0.027863 0.0393835 0.0295109
0.0278782 0.0393683 0.0295567
0.0278935 0.039353 0.0296025
0.0279088 0.039353 0.0296483
0.027924 0.0393378 0.0296788
0.027924 0.0393378 0.0296941
0.027924 0.0393378 0.0297093
0.027924 0.0393378 0.0297093
0.027985 0.0393835 0.0297246
0.0285496 0.0396277 0.0298009
0.0305791 0.0404517 0.0302129
0.0331731 0.0426337 0.0307927
0.0373083 0.0448463 0.029633
0.0485389 0.0468605 0.0276951
0.0604105 0.0466316 0.0293431
0.0731823 0.0466163 0.029572
0.0880598 0.0469368 0.0304417
0.104784 0.0460517 0.0293278
0.122759 0.0460059 0.0287175
0.144305 0.0452583 0.0273289
0.171664 0.0439918 0.0246586
0.199008 0.0423438 0.0219577
0.228611 0.0420539 0.0205539
0.257786 0.0417945 0.0195773
0.290059 0.0415198 0.0192721
0.323674 0.0410315 0.0193332
0.353491 0.0414893 0.0209506
0.380896 0.0420233 0.0212558
0.415503 0.0446479 0.0236973
0.447578 0.046891 0.0271458
0.471672 0.0490272 0.0289311
0.497581 0.0516823 0.0305638
0.526925 0.0551003 0.033051
0.553735 0.0579232 0.0355688
0.582605 0.0643168 0.0400854
0.610697 0.0709544 0.0442664
0.631067 0.0754559 0.0475471
0.637232 0.0767376 0.0484627
0.637232 0.0767376 0.0484627
0.637842 0.0763867 0.0487526
0.64181 0.0692607 0.0511788
0.650233 0.066804 0.0585946
0.662623 0.071046 0.071107
0.677317 0.077409 0.0861067
0.690639 0.0813611 0.0994583
0.697993 0.0746471 0.105348
0.707134 0.076051 0.121798
0.716976 0.0818189 0.145449
0.725307 0.0868544 0.172488
0.726848 0.0846876 0.196307
0.72987 0.0848096 0.221347
0.734401 0.0915694 0.251347
0.738613 0.0992142 0.281605
0.741115 0.108568 0.314275
0.743145 0.120806 0.350439
0.742138 0.130541 0.389792
0.740124 0.130724 0.426322
0.739834 0.124498 0.451438
0.739071 0.117906 0.474113
0.738186 0.110811 0.495567
0.738018 0.107561 0.506371
0.738231 0.107668 0.50605
0.0278019 0.0393988 0.0293736
0.0278325 0.0393835 0.0294347
0.0278477 0.0393835 0.0294804
0.027863 0.0393835 0.0295109
0.0278782 0.0393683 0.0295567
0.0278935 0.039353 0.0296178
0.0279088 0.039353 0.0296483
0.027924 0.0393378 0.0296788
0.027924 0.0393378 0.0296941
0.027924 0.0393378 0.0297093
0.027924 0.0393378 0.0297246
0.0279698 0.0393683 0.0297398
0.0283207 0.0396277 0.0298466
0.0301061 0.0404212 0.0303044
0.0327153 0.0426337 0.0311284
0.0357671 0.0449836 0.0306401
0.0446784 0.0478981 0.0289616
0.057969 0.0477302 0.0286107
0.070222 0.0472725 0.0296941
0.0856031 0.0472572 0.0302434
0.101305 0.0463569 0.029572
0.121645 0.0462654 0.0289006
0.145617 0.0453803 0.0273289
0.173373 0.0439002 0.0245518
0.20116 0.0425879 0.0221408
0.229923 0.0419165 0.0203403
0.258549 0.0419165 0.0196536
0.290806 0.0416114 0.0193332
0.322637 0.0410315 0.0192416
0.354665 0.0415045 0.0209354
0.383413 0.0428473 0.0228885
0.413703 0.0442054 0.0229801
0.446769 0.0465858 0.026566
0.473091 0.0490425 0.0289311
0.498802 0.051606 0.0305333
0.526177 0.054612 0.0327916
0.555627 0.0580758 0.0357214
0.583719 0.0644236 0.0401312
0.611032 0.0709544 0.0442664
0.632425 0.0756237 0.0476997
0.637278 0.0767224 0.0484627
0.637278 0.0767224 0.0484627
0.637766 0.076463 0.0486915
0.640726 0.0719768 0.0504616
0.647517 0.066804 0.0563973
0.660868 0.0698253 0.068864
0.674891 0.0763409 0.0834669
0.688914 0.0822003 0.0984817
0.697124 0.0762188 0.104601
0.70631 0.0755322 0.118776
0.71577 0.0810101 0.141543
0.725399 0.0876173 0.169955
0.72694 0.0849317 0.192996
0.729702 0.0843977 0.217319
0.734539 0.0910658 0.248035
0.73872 0.0982834 0.279454
0.741115 0.107729 0.312139
0.742901 0.119677 0.347478
0.74258 0.130236 0.386786
0.740169 0.131121 0.42472
0.739834 0.12491 0.449989
0.739101 0.11809 0.473457
0.738155 0.111025 0.49395
0.738064 0.107958 0.505501
0.738293 0.108064 0.504982
0.0277714 0.0395209 0.0293584
0.0278019 0.0395209 0.0294347
0.0278325 0.0394751 0.0294804
0.0278935 0.0393988 0.0295415
0.0278935 0.0393683 0.0295872
0.0278935 0.039353 0.0296178
0.0279088 0.039353 0.0296483
0.027924 0.0393378 0.0296788
0.027924 0.0393378 0.0296941
0.027924 0.0393378 0.0297093
0.027924 0.0393835 0.0297398
0.0280003 0.0394903 0.0297856
0.0283207 0.039765 0.0299382
0.0298314 0.0406043 0.030457
0.0324865 0.0428168 0.0314031
0.0348363 0.045243 0.0312963
0.0409705 0.048249 0.0300145
0.0555886 0.0488899 0.0277104
0.067689 0.0477607 0.0298466
0.0829023 0.0477607 0.0301823
0.0986496 0.0467689 0.0300145
0.118364 0.046891 0.0292973
0.142061 0.0456703 0.0275273
0.172534 0.0440833 0.0247654
0.203632 0.0426642 0.0221408
0.231327 0.0418555 0.0202182
0.260182 0.0417945 0.0195773
0.291325 0.0417029 0.0194095
0.324437 0.0413062 0.0196841
0.35581 0.0415961 0.0210422
0.384421 0.042771 0.0227817
0.41445 0.044419 0.0233005
0.446128 0.0462196 0.0260929
0.474601 0.0491798 0.0290074
0.49984 0.0516365 0.0305486
0.526787 0.0547951 0.0329442
0.554757 0.0577554 0.0354772
0.582055 0.0641337 0.0399786
0.611872 0.071046 0.0442969
0.633463 0.0758526 0.0479133
0.637308 0.0767224 0.0484627
0.637308 0.0767224 0.0484627
0.637324 0.0767224 0.0484627
0.639689 0.0731975 0.0498207
0.645624 0.0690166 0.0551156
0.657679 0.069398 0.065568
0.671046 0.0751202 0.0797436
0.686152 0.0806134 0.0949416
0.695918 0.0778821 0.103639
0.704677 0.0749371 0.115511
0.714366 0.0799268 0.137606
0.724468 0.0866865 0.16553
0.726833 0.0849012 0.189471
0.72958 0.0841535 0.214786
0.734173 0.0901656 0.245304
0.73901 0.0975509 0.276509
0.741115 0.10634 0.308614
0.742901 0.118608 0.344091
0.742748 0.129702 0.385046
0.74023 0.131563 0.422553
0.739788 0.125216 0.448646
0.739162 0.118517 0.47187
0.73843 0.11162 0.492638
0.738018 0.108385 0.504051
0.738277 0.108537 0.503319
0.0277867 0.0402228 0.0296025
0.0278019 0.0401617 0.0296483
0.0278477 0.0399634 0.0296483
0.027863 0.0399023 0.0296483
0.0278325 0.0397345 0.0296178
0.0278477 0.0396735 0.0296483
0.027863 0.0396124 0.0296788
0.027863 0.0395666 0.0296941
0.0278935 0.0395514 0.0297093
0.0279088 0.0395514 0.0297246
0.027985 0.0396735 0.0298009
0.0281987 0.0398718 0.0299382
0.0287175 0.0401617 0.0302281
0.0298772 0.0410773 0.0306096
0.0325017 0.0432288 0.0316625
0.0347295 0.0459602 0.0318151
0.0398871 0.0488594 0.0314336
0.0527962 0.0498512 0.0282597
0.0659495 0.0486 0.0300603
0.0806287 0.0485237 0.0303044
0.0955062 0.0476539 0.0304723
0.11516 0.0476539 0.0296483
0.138186 0.0462348 0.0278325
0.168917 0.0445258 0.0252995
0.199313 0.0429084 0.0224002
0.229969 0.0420539 0.0203861
0.262348 0.0415198 0.0193484
0.293446 0.0416266 0.0193637
0.325826 0.0412757 0.0196994
0.356542 0.0415656 0.0210575
0.386389 0.042649 0.0226902
0.415061 0.0445563 0.0234989
0.447089 0.0463569 0.0262303
0.475685 0.0493324 0.0291447
0.501396 0.0517128 0.0306249
0.528771 0.0551003 0.0331579
0.555535 0.0578164 0.0355535
0.583871 0.064271 0.0400549
0.611231 0.0708629 0.0442359
0.635264 0.0761273 0.0481727
0.637339 0.0767224 0.0484627
0.637354 0.0767071 0.0484627
0.637369 0.0767071 0.0484627
0.637919 0.0762951 0.0487984
0.643305 0.068925 0.0525368
0.653284 0.0673228 0.0613413
0.667948 0.0727245 0.0758221
0.682887 0.0793927 0.0914778
0.694057 0.0791638 0.102068
0.701839 0.0733196 0.111391
0.712566 0.0790265 0.133761
0.722622 0.085359 0.15996
0.726116 0.0845045 0.185061
0.729122 0.0839399 0.210513
0.734112 0.0894331 0.241367
0.738979 0.0963455 0.27245
0.741543 0.105272 0.305241
0.743328 0.117281 0.3402
0.74316 0.128283 0.380377
0.74023 0.131991 0.420371
