bundles/resolve-cinematic-luts/Phantom Luts/Apple Log Phantom LUTS/iPhone 15 Phantom Movie LUTs/65x/VisionTeal iPhone_15_65x.cube
TITLE "Generated by Resolve"
LUT_3D_SIZE 65
0.0222324 0.0283207 0.0264591
0.0222324 0.0283207 0.0264744
0.0222324 0.028336 0.0264897
0.0222324 0.0283665 0.0265049
0.0222324 0.028397 0.0265507
0.0222324 0.0284276 0.0265812
0.0222324 0.0284581 0.0266117
0.0222324 0.0284886 0.0266423
0.0222477 0.0285039 0.0266575
0.0222324 0.0285191 0.0266575
0.0222477 0.0284733 0.0263828
0.0222324 0.0285954 0.0258183
0.0222477 0.0285191 0.0258793
0.0222324 0.0276493 0.0257115
0.0319829 0.0287633 0.0275578
0.0486915 0.0304112 0.026688
0.0915999 0.030518 0.023743
0.108934 0.0328832 0.023743
0.125826 0.0344244 0.0226749
0.145357 0.035523 0.0213779
0.169451 0.0361944 0.0193942
0.19411 0.0361944 0.0185092
0.218677 0.0365454 0.0179904
0.246342 0.0370947 0.0177462
0.273182 0.0373236 0.0176242
0.303868 0.0368353 0.0172122
0.3308 0.0357671 0.0168002
0.356466 0.0358587 0.0175021
0.381826 0.0360571 0.0185702
0.407782 0.0364385 0.0196384
0.433951 0.0377661 0.0225376
0.458259 0.0383154 0.0246281
0.479133 0.0395819 0.0262608
0.501915 0.0401617 0.0277714
0.525002 0.0404974 0.0295109
0.549218 0.0419165 0.0319066
0.575708 0.0460212 0.0354314
0.603098 0.0511788 0.0400549
0.629587 0.057145 0.0458076
0.653315 0.0623178 0.0506905
0.665965 0.0646677 0.0537881
0.670024 0.0559243 0.0584726
0.682033 0.0476844 0.0728313
0.69955 0.0576944 0.0928206
0.715938 0.0720073 0.118456
0.72546 0.0783398 0.139071
0.734142 0.0838026 0.163455
0.739437 0.0881361 0.189807
0.738994 0.0882887 0.211109
0.733455 0.0834974 0.229709
0.730983 0.0835737 0.252979
0.730129 0.0879377 0.280049
0.728908 0.0936141 0.307576
0.728023 0.101823 0.336522
0.728679 0.111971 0.367926
0.726635 0.117266 0.406409
0.726299 0.108064 0.437171
0.72958 0.103548 0.468254
0.732845 0.0994278 0.49778
0.736568 0.0964828 0.527245
0.740566 0.0940566 0.559915
0.746044 0.0972 0.595468
0.751858 0.102464 0.627405
0.755978 0.106371 0.646586
0.756191 0.106188 0.646616
0.0222477 0.0280461 0.0262913
0.0222324 0.0281987 0.0263828
0.0222324 0.028275 0.0264439
0.0222324 0.0283513 0.0265049
0.0222324 0.0283818 0.0265507
0.0222324 0.0284276 0.0265812
0.0222324 0.0284733 0.0266117
0.0222324 0.0284886 0.0266423
0.0222477 0.0285039 0.0266575
0.0222324 0.0285191 0.0266728
0.0222324 0.0284886 0.0264439
0.0222324 0.0285649 0.0260929
0.0222324 0.0282292 0.0261234
0.0243992 0.0281682 0.0273594
0.0382239 0.0285954 0.026978
0.0543374 0.0303044 0.0259709
0.0674601 0.0332036 0.0260319
0.0793317 0.0353094 0.0255131
0.0950027 0.0377356 0.024979
0.11046 0.0404974 0.0246738
0.16878 0.036759 0.0197757
0.193698 0.0367285 0.0185702
0.216815 0.0372473 0.0180819
0.244831 0.037644 0.0178225
0.272358 0.0377966 0.0176547
0.301488 0.0374456 0.0173037
0.330724 0.0359503 0.0168307
0.355612 0.0360266 0.0175021
0.38117 0.0362554 0.0185092
0.406653 0.0366827 0.0196536
0.433082 0.0376898 0.0221714
0.459449 0.0383764 0.0247349
0.480293 0.0395972 0.0263218
0.503105 0.0402228 0.0278325
0.526131 0.0406195 0.0296483
0.551339 0.0421759 0.0321508
0.577966 0.0464179 0.0358892
0.604318 0.051606 0.0402991
0.631357 0.0577249 0.0463417
0.653941 0.0625162 0.0509346
0.666072 0.0645609 0.0538796
0.669306 0.0600595 0.0568704
0.679805 0.0480964 0.0704051
0.698146 0.0561837 0.090898
0.715023 0.0717021 0.116228
0.72459 0.0776989 0.136477
0.733639 0.0833753 0.16112
0.739513 0.0878004 0.188846
0.739696 0.0886702 0.210758
0.734615 0.084596 0.22977
0.731441 0.0833448 0.25304
0.730465 0.087602 0.279393
0.728969 0.0936751 0.307515
0.728069 0.101823 0.336446
0.728634 0.111894 0.368048
0.72668 0.117327 0.406073
0.726284 0.108095 0.436912
0.729625 0.103487 0.468696
0.732845 0.0994278 0.497765
0.736522 0.0964981 0.527031
0.740566 0.0939803 0.560159
0.745953 0.0970779 0.594949
0.75198 0.102617 0.627665
0.755871 0.106294 0.645853
0.756085 0.106111 0.645869
0.0222324 0.0280461 0.026276
0.0222324 0.0281987 0.0263828
0.0222324 0.028275 0.0264439
0.0222477 0.0283513 0.0265049
0.0222324 0.028397 0.0265507
0.0222324 0.0284276 0.0265812
0.0222324 0.0284733 0.026627
0.0222324 0.0285039 0.0266575
0.0222324 0.0285191 0.0266575
0.0222324 0.0285191 0.0266728
0.0222324 0.0284886 0.0264744
0.0222324 0.0284886 0.0263676
0.0222324 0.0280613 0.0264286
0.0254978 0.0282292 0.0274662
0.0390784 0.0287938 0.026978
0.056199 0.0306859 0.0261234
0.0723888 0.03299 0.0256504
0.0843061 0.0357519 0.0258488
0.0971695 0.037995 0.0247501
0.110994 0.0408789 0.0247044
0.126177 0.0430304 0.0238499
0.141924 0.0443275 0.0221103
0.169741 0.0445106 0.0202182
0.241169 0.0385901 0.0180819
0.270039 0.0383307 0.0178378
0.298161 0.0379797 0.0174563
0.326696 0.0368505 0.0169223
0.354833 0.0361944 0.0175174
0.380407 0.0363317 0.0184634
0.40531 0.0367742 0.0196536
0.43183 0.0377203 0.0218814
0.458274 0.0387579 0.024445
0.481178 0.0396124 0.0263523
0.503548 0.040238 0.027863
0.527276 0.0407721 0.0298161
0.55256 0.0422217 0.0321813
0.578393 0.0465553 0.0360723
0.604837 0.0517586 0.0404212
0.631891 0.0579538 0.0465248
0.654337 0.0625925 0.0509957
0.665858 0.0648814 0.0536355
0.66717 0.0599985 0.0548409
0.676982 0.049546 0.0666972
0.694591 0.0543679 0.0873884
0.713451 0.0703593 0.113481
0.723812 0.0771801 0.134295
0.732784 0.0825055 0.158587
0.738933 0.0872511 0.186694
0.739651 0.088716 0.210025
0.734356 0.0845045 0.229725
0.731212 0.0833295 0.25211
0.730343 0.0876478 0.279316
0.728893 0.0933852 0.306111
0.727932 0.101305 0.335271
0.72842 0.111299 0.36672
0.726696 0.117617 0.405051
0.726207 0.108186 0.436179
0.729549 0.103639 0.467582
0.732677 0.0995346 0.497169
0.736461 0.0965133 0.526894
0.74049 0.0940871 0.559274
0.745953 0.0971084 0.594888
0.751766 0.102388 0.626917
0.755749 0.106218 0.645365
0.755901 0.105989 0.645258
0.0222324 0.0280461 0.026276
0.0222324 0.0281987 0.0263828
0.0222324 0.028275 0.0264286
0.0222324 0.0283513 0.0265049
0.0222324 0.028397 0.0265507
0.0222324 0.0284428 0.0265965
0.0222477 0.0284733 0.026627
0.0222324 0.0285039 0.0266575
0.0222324 0.0285191 0.0266728
0.0222477 0.028336 0.0265812
0.0222324 0.0285039 0.0263981
0.0222477 0.0284428 0.0263828
0.0222324 0.0280461 0.0264744
0.0275578 0.0282902 0.0276493
0.0412757 0.0290074 0.0269627
0.0582132 0.0307774 0.0261234
0.0721141 0.0334936 0.0258793
0.0852064 0.0362707 0.0260471
0.0956588 0.0385748 0.0250553
0.115328 0.0411536 0.0246738
0.131258 0.043595 0.0238956
0.147539 0.0451514 0.0225223
0.169085 0.0451362 0.0204166
0.19501 0.0439765 0.0192874
0.23125 0.0424659 0.018616
0.295033 0.038468 0.0175937
0.325048 0.0370184 0.0169223
0.353964 0.0361791 0.0174563
0.379522 0.0363928 0.0184939
0.405081 0.0368353 0.0196689
0.43122 0.0377356 0.0218204
0.458869 0.0388037 0.0245365
0.48159 0.0396582 0.0263828
0.504585 0.0403143 0.0279698
0.528069 0.0408637 0.0298924
0.552407 0.0422065 0.0321813
0.5794 0.0468452 0.036347
0.605722 0.0520638 0.0406806
0.632364 0.0580911 0.0466926
0.655024 0.0626688 0.0510567
0.66566 0.065156 0.0534371
0.667033 0.0602121 0.0547189
0.67393 0.0505074 0.0625925
0.692409 0.0534218 0.0842451
0.709819 0.0677195 0.109117
0.722637 0.076524 0.132235
0.731914 0.0817731 0.155978
0.738582 0.086717 0.183627
0.740429 0.0900893 0.209079
0.73492 0.0847181 0.228458
0.731701 0.0831159 0.251698
0.730983 0.0873274 0.27866
0.729091 0.0929122 0.304524
0.728008 0.101106 0.334325
0.728206 0.11078 0.365545
0.726833 0.1178 0.403159
0.726116 0.108339 0.435172
0.729473 0.103761 0.466773
0.732647 0.0995956 0.496849
0.736202 0.0966354 0.525231
0.740459 0.0941939 0.558602
0.745815 0.0969711 0.594186
0.751705 0.102312 0.626612
0.755581 0.106111 0.644526
0.755734 0.105867 0.644388
0.0222477 0.0280461 0.026276
0.0222324 0.0281987 0.0263828
0.0222324 0.028275 0.0264286
0.0222324 0.0283513 0.0264897
0.0222477 0.028397 0.0265507
0.0222324 0.0284428 0.0265965
0.0222324 0.0284886 0.0266423
0.0222324 0.0285039 0.0266575
0.0222324 0.0285191 0.0266728
0.0222324 0.0285344 0.026688
0.0222324 0.0283055 0.0265507
0.0222324 0.0283665 0.0263523
0.0222324 0.0281987 0.0264744
0.0268254 0.0284886 0.0276646
0.0405432 0.0297704 0.0273747
0.0568246 0.0318761 0.0265507
0.073228 0.0341802 0.0262608
0.0857862 0.0371405 0.0266728
0.0982986 0.0396277 0.0255741
0.113466 0.0418708 0.0252079
0.12932 0.0443275 0.0240635
0.155383 0.0448157 0.0223087
0.178439 0.0442969 0.0202335
0.205295 0.0437018 0.0192111
0.230396 0.0426795 0.0186313
0.264012 0.0418708 0.0183719
0.302663 0.0398718 0.0176699
0.352697 0.036347 0.0175479
0.37879 0.0364385 0.0185855
0.404868 0.0368658 0.0197299
0.431098 0.0377508 0.0218357
0.458564 0.0388342 0.0244755
0.482261 0.0396887 0.0264134
0.504921 0.0403449 0.027985
0.528527 0.0409094 0.0299229
0.553613 0.0422827 0.0322728
0.579782 0.0469978 0.0364385
0.606836 0.0524147 0.0409552
0.633585 0.0581979 0.0467994
0.655467 0.0626993 0.0511482
0.665705 0.065095 0.0534524
0.666392 0.0630045 0.0542306
0.672251 0.052491 0.0608682
0.689342 0.0514839 0.0809033
0.708186 0.065095 0.105562
0.721447 0.0758526 0.130083
0.731167 0.081239 0.153307
0.738643 0.0864118 0.182208
0.740642 0.090486 0.208026
0.735439 0.08542 0.22855
0.731624 0.0830701 0.251453
0.730938 0.0872511 0.277897
0.729 0.0928664 0.304173
0.728069 0.100664 0.332296
0.728267 0.110582 0.36408
0.727016 0.117754 0.402045
0.726009 0.108522 0.433722
0.729412 0.103868 0.466026
0.732494 0.0996719 0.4963
0.736141 0.0966812 0.524804
0.740322 0.0942702 0.557336
0.745724 0.096849 0.593576
0.751644 0.102281 0.626001
0.755383 0.105974 0.643977
0.75552 0.105715 0.643824
0.0222477 0.0280461 0.026276
0.0222324 0.0281987 0.0263828
0.0222324 0.028275 0.0264286
0.0222477 0.0283513 0.0265049
0.0222324 0.028397 0.0265507
0.0222324 0.0284428 0.0265965
0.0222324 0.0284886 0.026627
0.0222324 0.0285039 0.0266575
0.0222324 0.0285191 0.0266728
0.0222324 0.0285191 0.0266728
0.0222324 0.028397 0.026566
0.0222324 0.0284733 0.026627
0.0222324 0.0282444 0.0267643
0.0291905 0.0286107 0.0275731
0.0424201 0.0297398 0.0271916
0.0586557 0.0316625 0.0263371
0.0722057 0.0343938 0.0263676
0.0859541 0.0373999 0.0266728
0.10161 0.0399329 0.0259098
0.116518 0.0422065 0.0251774
0.13402 0.0442664 0.0238193
0.153582 0.0451209 0.0221714
0.179583 0.0440223 0.0196994
0.204562 0.0433967 0.0191958
0.238865 0.0424353 0.0185855
0.27039 0.0415503 0.0181277
0.301762 0.040116 0.0177615
0.335302 0.0385138 0.0173037
0.362051 0.0372931 0.0177768
0.404425 0.0369268 0.019852
0.430457 0.0377356 0.0218814
0.458045 0.038941 0.0241703
0.482444 0.0396887 0.0264134
0.504875 0.0403601 0.0279698
0.52958 0.0410163 0.0299687
0.554086 0.0423285 0.0323644
0.580423 0.0470588 0.0365148
0.608331 0.0528573 0.041413
0.633951 0.0581521 0.0468605
0.656336 0.0628519 0.0513619
0.665751 0.0649882 0.0534676
0.666346 0.0635996 0.0541085
0.672465 0.0571908 0.0605325
0.687099 0.050248 0.078706
0.707134 0.0636454 0.103471
0.719646 0.0745556 0.126986
0.73051 0.0806897 0.151278
0.738247 0.0859541 0.180087
0.740795 0.0906081 0.207034
0.735332 0.0848402 0.226703
0.731899 0.0827802 0.249928
0.731334 0.087068 0.277043
0.72932 0.0922866 0.303075
0.728099 0.100328 0.331441
0.728115 0.110124 0.362783
0.727245 0.117662 0.400183
0.725917 0.108675 0.432654
0.729229 0.10399 0.465339
0.732357 0.0998398 0.495048
0.735943 0.0967727 0.523537
0.740261 0.0943313 0.556451
0.745647 0.0968338 0.593149
0.751492 0.102159 0.624994
0.755169 0.105837 0.643183
0.755291 0.105547 0.642969
0.0222477 0.0280461 0.026276
0.0222324 0.0281987 0.0263676
0.0222324 0.028275 0.0264286
0.0222324 0.0283513 0.0264897
0.0222477 0.028397 0.026566
0.0222324 0.0284428 0.0265965
0.0222324 0.0284886 0.0266423
0.0222324 0.0285039 0.0266575
0.0222324 0.0285191 0.0266728
0.0222324 0.0285344 0.0266728
0.0222324 0.0284733 0.026627
0.0222324 0.0284276 0.0265812
0.0222324 0.0283055 0.0267033
0.030457 0.0288548 0.0276951
0.0435035 0.0298314 0.0270237
0.0598764 0.031754 0.0262303
0.0754559 0.0341497 0.0260624
0.0893568 0.0371252 0.0266117
0.102998 0.0400854 0.0260929
0.118517 0.0424048 0.0252689
0.139635 0.0437476 0.0238193
0.162936 0.0438392 0.0217136
0.188418 0.0430304 0.0192721
0.213718 0.0429694 0.0191196
0.241047 0.0424659 0.018616
0.27277 0.041001 0.0180514
0.304952 0.0398108 0.0176242
0.3364 0.038819 0.01738
0.367544 0.0372778 0.0188144
0.392676 0.0366827 0.0188754
0.430396 0.0377661 0.0220035
0.457389 0.0390021 0.0239872
0.481926 0.0397955 0.0263523
0.505974 0.0404059 0.0281376
0.529702 0.0410163 0.0299687
0.554971 0.0424353 0.0324712
0.58175 0.0472419 0.0366522
0.608682 0.0529335 0.0415503
0.634684 0.0581521 0.046952
0.656886 0.0628824 0.0515602
0.665782 0.0648814 0.0535134
0.66627 0.0638132 0.0540475
0.669184 0.0556497 0.0573129
0.683589 0.0482948 0.0743877
0.70341 0.0599374 0.0985733
0.718517 0.0738231 0.125109
0.729335 0.0801556 0.148943
0.738293 0.0857404 0.177447
0.74107 0.0912795 0.206073
0.73547 0.0846723 0.22472
0.732128 0.0825208 0.247776
0.731502 0.0868391 0.276234
0.729519 0.0920729 0.303227
0.728191 0.100069 0.331075
0.727825 0.109438 0.361059
0.727337 0.117617 0.399252
0.725765 0.108919 0.430976
0.729046 0.104204 0.464149
0.732311 0.0999466 0.494224
0.735836 0.0968643 0.522484
0.7402 0.0945144 0.555489
0.745174 0.0964523 0.591455
0.751293 0.102022 0.624018
0.754925 0.105638 0.642329
0.755032 0.105333 0.642039
0.0222324 0.0280461 0.026276
0.0222324 0.0281987 0.0263676
0.0222324 0.028275 0.0264286
0.0222324 0.0283513 0.0264897
0.0222477 0.028397 0.0265507
0.0222324 0.0284428 0.0265965
0.0222324 0.0284733 0.026627
0.0222324 0.0285039 0.0266575
0.0222324 0.0285191 0.026688
0.0222324 0.0285344 0.0266728
0.0222324 0.0285039 0.0266575
0.0222324 0.0283665 0.0265049
0.0222477 0.028397 0.026566
0.0260624 0.0289616 0.0276646
0.0401007 0.0302434 0.0274662
0.058793 0.0321202 0.0265812
0.076051 0.0344244 0.0261082
0.0917067 0.0369573 0.0264286
0.10634 0.0400092 0.0260471
0.123064 0.0420386 0.025452
0.141939 0.0435035 0.0238193
0.164477 0.0435187 0.021561
0.195499 0.0423133 0.0192874
0.221424 0.042237 0.019028
0.245914 0.0420233 0.018555
0.274922 0.0413367 0.0180667
0.306294 0.0395514 0.0175479
0.338476 0.0383612 0.0173037
0.370474 0.0371252 0.0190127
0.395315 0.0369879 0.0197147
0.4206 0.0373541 0.020737
0.456504 0.0388952 0.0241398
0.482521 0.0396582 0.0264897
0.506111 0.0403449 0.0282139
0.529976 0.0410315 0.0300145
0.555444 0.0424353 0.0325322
0.581796 0.0472419 0.0366522
0.609522 0.0532082 0.0419165
0.635157 0.0581826 0.047013
0.657557 0.0629282 0.0517281
0.665797 0.0647898 0.0535439
0.665827 0.064683 0.0535592
0.669078 0.0567788 0.057145
0.679515 0.047013 0.0701305
0.700725 0.0573892 0.0945754
0.717433 0.0728466 0.122667
0.727916 0.0795758 0.146639
0.738293 0.0854963 0.175616
0.740932 0.0909133 0.20325
0.736095 0.085008 0.223163
0.732219 0.0820325 0.245808
0.731762 0.0865797 0.274586
0.729839 0.0917067 0.302205
0.728328 0.0995956 0.330266
0.728252 0.109453 0.360098
0.727687 0.117662 0.394934
0.725689 0.109178 0.42884
0.728923 0.104387 0.462852
0.732158 0.10016 0.492393
0.735576 0.0969558 0.521508
0.740032 0.0946365 0.553933
0.744823 0.0961929 0.59028
0.750973 0.101854 0.622995
0.754635 0.105394 0.641215
0.754788 0.105119 0.640894
0.0222324 0.0280461 0.026276
0.0222477 0.0281987 0.0263828
0.0222324 0.028275 0.0264286
0.0222324 0.0283513 0.0264897
0.0222477 0.028397 0.0265507
0.0222324 0.0284428 0.0265812
0.0222324 0.0284733 0.026627
0.0222324 0.0285039 0.0266575
0.0222324 0.0285191 0.0266728
0.0222324 0.0285191 0.0266728
0.0222324 0.0285344 0.026688
0.0222324 0.0284123 0.0265202
0.0222324 0.0287175 0.0266117
0.0222934 0.029572 0.0274968
0.0351263 0.0309453 0.0280919
0.0522774 0.03299 0.0278477
0.0710002 0.0352789 0.0270542
0.0898604 0.0376135 0.026688
0.107652 0.0400244 0.0260166
0.126162 0.0418097 0.025391
0.14609 0.0428779 0.023682
0.170672 0.042359 0.0211185
0.197681 0.0422065 0.0193027
0.222858 0.0423133 0.0189059
0.249989 0.0421607 0.0185702
0.277302 0.041474 0.0181125
0.307454 0.0397498 0.0176089
0.340169 0.0384833 0.0173342
0.371145 0.0371862 0.0189364
0.396124 0.0368963 0.0194247
0.418799 0.0373388 0.0222934
0.446204 0.0385138 0.0237888
0.478325 0.0381323 0.0270237
0.50547 0.0388495 0.0286412
0.529809 0.0395972 0.0304112
0.555016 0.0407721 0.032639
0.582315 0.0457771 0.0369421
0.609293 0.0513008 0.0419471
0.636652 0.0566262 0.0474861
0.658473 0.0612345 0.0521096
0.665736 0.0628824 0.0536049
0.665736 0.0628977 0.0536049
0.66743 0.0590982 0.0548257
0.67715 0.0475319 0.0664378
0.697993 0.0545663 0.0902571
0.716533 0.0721752 0.119646
0.726864 0.0790417 0.142138
0.736446 0.0847181 0.169162
0.740551 0.0899062 0.198108
0.736156 0.0851301 0.218036
0.732403 0.0827344 0.241321
0.731334 0.0858625 0.270436
0.729397 0.0907454 0.297429
0.728298 0.0987259 0.326955
0.728389 0.108553 0.357183
0.727993 0.117571 0.392355
0.725704 0.109575 0.427787
0.728725 0.104738 0.460273
0.732235 0.100374 0.490318
0.735668 0.0970626 0.519341
0.740368 0.0948196 0.551369
0.745129 0.0960555 0.586862
0.751431 0.101884 0.619226
0.755337 0.104845 0.637995
0.755245 0.10457 0.637339
0.0222477 0.0277867 0.0259403
0.0222477 0.0278782 0.0260319
0.0222324 0.0279545 0.0261234
0.0222324 0.027985 0.026154
0.0222477 0.0280613 0.026215
0.0222324 0.0281376 0.026276
0.0222324 0.0282139 0.0263371
0.0222324 0.0282597 0.0263676
0.0222324 0.0283055 0.0263981
0.0222324 0.0283207 0.0264286
0.0222324 0.0283207 0.0264286
0.0222324 0.0281987 0.0263218
0.0222324 0.0285954 0.0264286
0.0222324 0.0294347 0.0269169
0.032105 0.0311131 0.027924
0.0470893 0.033814 0.0284123
0.0650034 0.0364843 0.0278172
0.0849317 0.0388037 0.0270085
0.104952 0.040528 0.0264286
0.125673 0.0419623 0.0254215
0.149187 0.0425422 0.0232853
0.174655 0.0420233 0.0207065
0.200092 0.0417945 0.019089
0.22652 0.0423285 0.0187991
0.251377 0.0423285 0.0186007
0.279438 0.0415808 0.0181277
0.306676 0.0402533 0.0177615
0.337469 0.0389258 0.0178531
0.36968 0.0374456 0.0199588
0.395148 0.0368963 0.0207065
0.420401 0.0373083 0.0216678
0.452277 0.0377966 0.0248112
0.479408 0.0381018 0.0272679
0.503304 0.038941 0.0288548
0.530114 0.0393988 0.0305333
0.555718 0.0407263 0.0327001
0.582849 0.0458076 0.0371252
0.610361 0.0514382 0.0421607
0.637278 0.0567025 0.0475929
0.6589 0.0612497 0.0521401
0.665751 0.0628367 0.0536202
0.665766 0.0628367 0.0536202
0.666911 0.0599832 0.0543526
0.675319 0.0540627 0.0637369
0.692836 0.052369 0.0848859
0.712932 0.0690776 0.113466
0.724926 0.0779278 0.137697
0.734829 0.0840772 0.165225
0.740124 0.0889906 0.193668
0.737163 0.0859388 0.2159
0.732631 0.0823987 0.239322
0.731487 0.0853895 0.266773
0.729702 0.0902113 0.295735
0.72874 0.0978714 0.324529
0.728527 0.108034 0.355734
0.727993 0.117037 0.391272
0.725978 0.110613 0.425193
0.728527 0.105074 0.457877
0.731945 0.100587 0.488991
0.735439 0.0971695 0.517876
0.740246 0.0949722 0.549432
0.74435 0.095552 0.584436
0.751247 0.101717 0.618418
0.754986 0.104494 0.636271
0.75494 0.104219 0.635493
0.0222324 0.0277867 0.0259403
0.0222324 0.0278935 0.0260471
0.0222324 0.0279698 0.0261234
0.0222324 0.0280003 0.026154
0.0222324 0.0280613 0.0262303
0.0222324 0.0281376 0.0262913
0.0222324 0.0282139 0.0263218
0.0222324 0.0282597 0.0263676
0.0222324 0.0283055 0.0264134
0.0222324 0.0283207 0.0264134
0.0222477 0.028336 0.0264286
0.0222324 0.0282902 0.0263828
0.0222477 0.0285649 0.0263676
0.0222477 0.0297398 0.0268101
0.0286412 0.0317235 0.0284123
0.0422675 0.0348821 0.0288701
0.0595254 0.0377813 0.0289769
0.0796063 0.0401312 0.0281376
0.100099 0.0416266 0.0272221
0.121187 0.0422675 0.0259556
0.144701 0.0431983 0.0239261
0.17348 0.0423896 0.0209506
0.202014 0.0416571 0.019028
0.229038 0.042237 0.0187686
0.255314 0.0421302 0.0185855
0.281865 0.0416419 0.018143
0.308492 0.0403449 0.017792
0.338476 0.0392004 0.0179751
0.368963 0.0377508 0.0200351
0.396612 0.0372015 0.0206912
0.422766 0.0373999 0.0224002
0.450309 0.0382544 0.0241703
0.479149 0.0386358 0.0269169
0.504265 0.0387884 0.0288853
0.527947 0.0387427 0.0302129
0.553887 0.040116 0.0325017
0.583535 0.0457008 0.0372778
0.611643 0.051545 0.0424048
0.637736 0.0566415 0.0476387
0.659739 0.061265 0.0522316
0.665751 0.0627451 0.0536355
0.665766 0.0627756 0.0536507
0.665995 0.062501 0.0539101
0.671687 0.053666 0.0599832
0.68806 0.0498817 0.0802167
0.708537 0.064683 0.10692
0.722881 0.0766308 0.132967
0.732921 0.0826429 0.159182
0.739986 0.0879988 0.18967
0.739284 0.0886091 0.214954
0.733837 0.0844129 0.237491
0.731655 0.0850843 0.263615
0.730007 0.0894331 0.292073
0.729183 0.0969558 0.322026
0.728634 0.107317 0.353964
0.728008 0.116014 0.3888
0.726116 0.111147 0.424353
0.727962 0.105425 0.456275
0.731624 0.100877 0.487205
0.735225 0.0973678 0.516152
0.740078 0.0950637 0.547601
0.74403 0.0953231 0.583062
0.750957 0.101549 0.616358
0.754574 0.104128 0.634928
0.754498 0.103807 0.63447
0.0222324 0.0279393 0.0259251
0.0222324 0.0280613 0.0260319
0.0222324 0.0281071 0.0261082
0.0222324 0.0280613 0.0261387
0.0222324 0.0281071 0.026215
0.0222324 0.0281682 0.0262913
0.0222324 0.0282292 0.0263371
0.0222324 0.028275 0.0263676
0.0222324 0.0283055 0.0263981
0.0222324 0.0283207 0.0264134
0.0222324 0.028397 0.0264286
0.0222324 0.0285191 0.0264134
0.0222477 0.0289921 0.0265812
0.0222324 0.0302892 0.0268864
0.0268101 0.032578 0.0288701
0.0388647 0.0360266 0.0290074
0.0547799 0.0393683 0.0290684
0.0750744 0.0414282 0.0291142
0.0965286 0.042359 0.0278325
0.117037 0.0427253 0.0262913
0.140627 0.0436561 0.0243839
0.168887 0.0430304 0.0213931
0.198535 0.0423285 0.0191501
0.228656 0.0424201 0.0187839
0.257908 0.0422675 0.0184939
0.284749 0.0416419 0.0181582
0.311009 0.0400549 0.0176242
0.339345 0.0394446 0.0180209
0.370748 0.0376287 0.0199893
0.398138 0.0373083 0.0208438
0.424216 0.0374762 0.022385
0.451865 0.0382086 0.0243076
0.478889 0.0389563 0.026688
0.505653 0.0386206 0.0289006
0.529381 0.0387274 0.0304417
0.555398 0.0401312 0.0326238
0.58143 0.0448768 0.0365759
0.611902 0.0513619 0.0425574
0.63888 0.0567178 0.047776
0.660624 0.0614328 0.0524605
0.665766 0.0627146 0.0536507
0.665782 0.0627298 0.053666
0.665736 0.063035 0.0536049
0.669642 0.0573587 0.0577249
0.6822 0.0473335 0.0728923
0.703365 0.0598154 0.0986801
0.719493 0.0744182 0.12697
0.730861 0.0810407 0.152255
0.739116 0.0868238 0.183795
0.740276 0.0899825 0.2112
0.733684 0.0832837 0.232074
0.731609 0.0842756 0.259876
0.730571 0.0889754 0.288624
0.72958 0.0962387 0.319692
0.728435 0.105684 0.350637
0.728084 0.115328 0.385702
0.726589 0.112444 0.421622
0.72781 0.105684 0.454398
0.73109 0.101259 0.485084
0.734905 0.0975357 0.514321
0.739879 0.0952621 0.545892
0.743633 0.0949569 0.580453
0.750576 0.101274 0.614878
0.75404 0.1037 0.633097
0.753994 0.103365 0.632288
0.0222324 0.0301671 0.0258335
0.0222324 0.0302129 0.0259251
0.0222324 0.0295567 0.0260471
0.0222324 0.0293431 0.0260624
0.0222324 0.0289464 0.0261082
0.0222324 0.0288853 0.026215
0.0222324 0.0287938 0.026276
0.0222324 0.0287175 0.0263218
0.0222324 0.0285954 0.0263066
0.0222324 0.0286564 0.0263371
0.0222324 0.0289311 0.0263676
0.0222477 0.0294194 0.0265202
0.0222324 0.0303197 0.0268254
0.0223545 0.0313878 0.0268864
0.0256809 0.034165 0.0292515
0.0368353 0.0376135 0.0297856
0.0515145 0.0413367 0.0295567
0.0707256 0.0436561 0.0300298
0.0923018 0.0437629 0.0285801
0.113085 0.0440681 0.0269017
0.137041 0.0446784 0.0251164
0.16492 0.0440528 0.0222019
0.194934 0.0432136 0.019913
0.22504 0.0433356 0.0189059
0.254414 0.0428931 0.0186465
0.282948 0.0420844 0.0181888
0.313527 0.0403143 0.0176547
0.341314 0.0395514 0.018143
0.371664 0.0377203 0.0200351
0.399512 0.0374914 0.0210727
0.426688 0.037644 0.0226291
0.452567 0.0381933 0.0244144
0.479103 0.0392462 0.0263523
0.507149 0.0384985 0.0289006
0.531456 0.0389105 0.030808
0.556756 0.0402533 0.0328527
0.582605 0.0449836 0.0370642
0.610895 0.0506447 0.0423133
0.638071 0.0563973 0.0477607
0.661799 0.0615549 0.0528878
0.665751 0.0625162 0.0537118
0.665797 0.0626535 0.0536812
0.665721 0.0629282 0.0536049
0.667048 0.0592508 0.0546273
0.677974 0.054902 0.066804
0.697871 0.0549477 0.090547
0.716793 0.0720226 0.120684
0.728008 0.0797436 0.146563
0.738582 0.0858625 0.17763
0.741024 0.0918441 0.207645
0.7346 0.0841382 0.228336
0.731716 0.0834821 0.254627
0.730938 0.0882277 0.284962
0.729809 0.0950332 0.314961
0.728985 0.104585 0.346777
0.727764 0.113848 0.382666
0.726925 0.113527 0.419104
0.727733 0.105959 0.452384
0.730892 0.101503 0.483436
