bundles/resolve-cinematic-luts/Phantom Luts/Apple Log Phantom LUTS/iPhone 15 Phantom Movie LUTs/65x/Vision_Legacy iPhone_15_65x.cube
TITLE "Generated by Resolve"
LUT_3D_SIZE 5
0.0279545 0.0393225 0.0297704
0.0585336 0.0417029 0.0287327
0.444404 0.0467842 0.0267338
0.706111 0.0753643 0.117937
0.738582 0.105959 0.513069
0.0268406 0.0762188 0.039765
0.0496071 0.0705119 0.0370184
0.44036 0.0459602 0.025742
0.677272 0.0772259 0.085832
0.739544 0.111345 0.492332
0.0654154 0.445212 0.198215
0.0689708 0.454261 0.118837
0.456245 0.43798 0.0476692
0.757443 0.360616 0.193652
0.729793 0.0852522 0.191836
0.158511 0.848722 0.6869
0.206622 0.845212 0.645319
0.22443 0.82591 0.400412
0.802747 0.826535 0.189532
0.843626 0.793469 0.14963
0.0553292 0.831952 0.850568
0.0490272 0.83209 0.845991
0.0366522 0.832334 0.821851
0.583307 0.862394 0.664042
0.842054 0.872862 0.581048
0.0277867 0.0384527 0.0758831
0.145068 0.0373693 0.103777
0.541314 0.0500801 0.0995499
0.740871 0.0932174 0.264179
0.744381 0.109728 0.536629
0.0205692 0.0978256 0.084596
0.0733806 0.0875715 0.0760204
0.505867 0.0576333 0.0552071
0.727489 0.0862135 0.175723
0.739788 0.105837 0.513817
0.0498054 0.425467 0.239536
0.0634318 0.434363 0.191699
0.446921 0.426444 0.0459754
0.756252 0.342855 0.190433
0.741848 0.0972457 0.279484
0.138277 0.847883 0.701549
0.195972 0.846098 0.66125
0.24773 0.837369 0.488411
0.796048 0.822141 0.231281
0.84097 0.77525 0.2215
0.0606241 0.831662 0.853819
0.0544137 0.83209 0.850202
0.0350195 0.832395 0.828534
0.575113 0.864668 0.685832
0.84419 0.875837 0.595621
0.0429236 0.0506905 0.464164
0.17377 0.0374762 0.435599
0.550103 0.0580606 0.420371
0.745556 0.110063 0.540413
0.76286 0.119585 0.608911
0.0339361 0.100679 0.369558
0.0350652 0.0618906 0.390463
0.466072 0.0395514 0.34548
0.742611 0.10927 0.497246
0.754101 0.116335 0.59118
0.0198062 0.394583 0.412314
0.0193942 0.380163 0.396506
0.487236 0.50222 0.476524
0.850919 0.415579 0.441032
0.743145 0.112169 0.490074
0.0758679 0.837095 0.765209
0.0847486 0.840345 0.743679
0.208026 0.841062 0.628214
0.784253 0.827115 0.470497
0.85948 0.773129 0.493324
0.0734569 0.829602 0.870237
0.0744793 0.829938 0.865415
0.0519875 0.832364 0.849073
0.54789 0.869871 0.723354
0.854444 0.890211 0.662257
0.102251 0.289357 0.798291
0.100572 0.269902 0.790417
0.503166 0.242206 0.761578
0.80911 0.188785 0.754665
0.778058 0.114641 0.722957
0.102647 0.353491 0.80557
0.100435 0.321111 0.794186
0.468803 0.296056 0.776944
0.819379 0.235019 0.757336
0.778058 0.114641 0.722957
0.0393683 0.541894 0.795682
0.0528573 0.518791 0.801785
0.352026 0.501167 0.784115
0.833021 0.422766 0.765896
0.788312 0.135195 0.721065
0.0714275 0.828061 0.889784
0.0710155 0.821927 0.877104
0.0639506 0.798413 0.850965
0.836484 0.863539 0.845853
0.916945 0.808301 0.824994
0.0707561 0.827573 0.895567
0.0708171 0.827558 0.895582
0.0707561 0.827573 0.895567
0.461418 0.844205 0.813397
0.886198 0.937392 0.849042
0.168032 0.720943 0.843336
0.272389 0.717906 0.835508
0.576257 0.745083 0.871748
0.907256 0.749355 0.893004
0.893767 0.680751 0.868818
0.147387 0.726421 0.846571
0.255772 0.722789 0.836759
0.561105 0.747524 0.868879
0.905211 0.759335 0.896956
0.896696 0.692622 0.873167
0.0431373 0.743862 0.858824
0.160327 0.747417 0.852262
0.503136 0.757702 0.858564
0.883238 0.799908 0.912612
0.906264 0.74136 0.890272
0.0707561 0.827573 0.895567
0.0711528 0.824292 0.891768
0.217762 0.809827 0.862852
0.81619 0.892653 0.926314
0.917189 0.870878 0.925399
0.0707561 0.827573 0.895567
0.0707561 0.827573 0.895567
0.0707561 0.827573 0.895567
0.608072 0.861952 0.883955
0.917128 0.9523 0.935607
