bundles/resolve-cinematic-luts/Phantom Luts/Apple Log Phantom LUTS/iPhone 15 Phantom Movie LUTs/65x/VisionTeal iPhone_15_65x.cube
TITLE "Generated by Resolve"
LUT_3D_SIZE 5
0.0222324 0.0283207 0.0264591
0.0915999 0.030518 0.023743
0.479133 0.0395819 0.0262608
0.738994 0.0882887 0.211109
0.756191 0.106188 0.646616
0.0199283 0.094728 0.0346838
0.0719921 0.0807355 0.0325933
0.474998 0.0398871 0.0260624
0.71725 0.0722667 0.115541
0.751781 0.101244 0.620935
0.038941 0.509789 0.215991
0.0845808 0.514824 0.100343
0.480339 0.46656 0.0769207
0.792462 0.450401 0.214771
0.732036 0.0926528 0.30515
0.136355 0.926589 0.718151
0.167193 0.921645 0.685206
0.243305 0.867399 0.416541
0.810422 0.822629 0.243153
0.841871 0.806119 0.244099
0.144442 0.921096 0.845823
0.140475 0.922072 0.842908
0.125505 0.92369 0.82327
0.573495 0.86009 0.622461
0.839323 0.847318 0.580774
0.0213779 0.0364385 0.105882
0.188693 0.0214847 0.164797
0.579171 0.0510719 0.198993
0.730968 0.11667 0.38677
0.76199 0.106813 0.673182
0.019852 0.122866 0.100725
0.095491 0.107591 0.100572
0.544472 0.0432136 0.0879835
0.732052 0.0859541 0.273243
0.757458 0.105531 0.645853
0.0389563 0.49752 0.287083
0.0374914 0.499031 0.210086
0.472786 0.456107 0.0742809
0.791943 0.431678 0.223117
0.729305 0.117342 0.402335
0.128038 0.927413 0.728161
0.155642 0.923461 0.697978
0.167971 0.901259 0.502617
0.795773 0.809613 0.279088
0.828901 0.780377 0.29781
0.14728 0.921111 0.849134
0.14313 0.921706 0.845731
0.130068 0.923217 0.828931
0.557137 0.872389 0.649546
0.842344 0.850278 0.59472
0.0192264 0.114061 0.506447
0.17969 0.0370184 0.523262
0.600778 0.06392 0.543297
0.762798 0.107012 0.679622
0.763134 0.105516 0.726818
0.019028 0.170993 0.364813
0.0191653 0.121889 0.406104
0.519402 0.0386969 0.462501
0.756146 0.101015 0.6383
0.760601 0.111894 0.713375
0.0201877 0.48864 0.436744
0.020325 0.473289 0.42063
0.557046 0.543832 0.510491
0.846708 0.477333 0.500694
0.750088 0.0961929 0.610941
0.110811 0.925536 0.777371
0.116564 0.925185 0.758099
0.17435 0.916182 0.66949
0.77911 0.79971 0.47277
0.86334 0.783627 0.523064
0.140734 0.924086 0.863508
0.145037 0.922652 0.859236
0.139712 0.923369 0.845853
0.558251 0.884443 0.707851
0.859358 0.866636 0.66099
0.0201572 0.43415 0.750805
0.0203708 0.407233 0.738567
0.488014 0.294514 0.7991
0.812512 0.227207 0.833173
0.771344 0.101671 0.829541
0.0203555 0.491722 0.756268
0.0204471 0.45594 0.739986
0.459007 0.360708 0.803098
0.819226 0.272526 0.822797
0.771344 0.101671 0.829557
0.0208896 0.668864 0.76231
0.0209506 0.645319 0.762951
0.35491 0.585595 0.76408
0.830686 0.445914 0.804379
0.797269 0.152819 0.826978
0.127016 0.931762 0.885176
0.13257 0.920043 0.871794
0.124865 0.898726 0.854154
0.855604 0.865431 0.843961
0.930114 0.807538 0.825345
0.120439 0.937499 0.89865
0.120653 0.937377 0.898543
0.120455 0.937499 0.898634
0.522164 0.870848 0.796872
0.91136 0.927321 0.830976
0.261097 0.777737 0.806027
0.347631 0.773098 0.810407
0.609903 0.780682 0.859327
0.914885 0.750729 0.911467
0.900084 0.687312 0.897108
0.244419 0.783276 0.808011
0.333349 0.777447 0.81004
0.598306 0.784024 0.856992
0.913603 0.760678 0.913252
0.902876 0.697734 0.898741
0.1514 0.818982 0.826596
0.261326 0.799252 0.813809
0.550576 0.797513 0.847089
0.895705 0.801968 0.922347
0.913802 0.743023 0.910307
0.120485 0.937469 0.898634
0.122957 0.911513 0.871595
0.318791 0.850477 0.827146
0.836378 0.898329 0.911955
0.935882 0.86836 0.926162
0.120439 0.937499 0.89865
0.12047 0.937484 0.89865
0.120439 0.937499 0.89865
0.646906 0.884596 0.860563
0.940841 0.949401 0.932723
