bundles/resolve-cinematic-luts/Phantom Luts/A7s3 Phntm Arri LUTs G7/SLog3/IceBlue A7s3-Legacy.cube
TITLE "Generated by Resolve"
LUT_3D_SIZE 33
0.0415808 0.0535286 0.0554665
0.0415961 0.0535286 0.0554513
0.0415961 0.0535286 0.055436
0.0416419 0.0535439 0.0553445
0.0436866 0.0535744 0.0558938
0.0492866 0.0534676 0.0571756
0.0572061 0.053315 0.0567941
0.0705119 0.0535134 0.0568246
0.0875257 0.0533455 0.0574655
0.107866 0.0531472 0.059617
0.134737 0.0529335 0.0624857
0.16875 0.0536202 0.0663767
0.207797 0.0544594 0.0706798
0.25182 0.0550851 0.0739757
0.306523 0.0558175 0.082063
0.364141 0.0562142 0.0935988
0.421759 0.0574502 0.106661
0.479133 0.0591897 0.121691
0.530556 0.0623636 0.139498
0.577783 0.0678416 0.160601
0.622248 0.0762341 0.18555
0.665125 0.0874189 0.213703
0.706233 0.100649 0.244007
0.737545 0.111345 0.273304
0.752697 0.11667 0.299718
0.762158 0.122454 0.327199
0.774975 0.133883 0.358251
0.786191 0.143526 0.392309
0.792859 0.148547 0.424811
0.796872 0.151598 0.455314
0.80116 0.15697 0.483436
0.805508 0.164141 0.50959
0.808301 0.169955 0.53048
0.0417182 0.0534371 0.0551156
0.0416571 0.0534829 0.0552834
0.0416266 0.0535134 0.055375
0.0416266 0.0535592 0.0553597
0.0437324 0.0536355 0.0560464
0.0494545 0.0535286 0.0574655
0.0579995 0.0533303 0.0569772
0.0719615 0.0535744 0.0573281
0.0894636 0.0532998 0.057847
0.110994 0.0530556 0.0601053
0.139483 0.0530404 0.063386
0.174624 0.0537423 0.0676585
0.214633 0.0545663 0.0714275
0.260075 0.0552224 0.0753643
0.315419 0.0559701 0.084123
0.37322 0.0564431 0.0957504
0.430915 0.0576028 0.108888
0.488212 0.0596628 0.124224
0.537697 0.0631113 0.14226
0.583291 0.0688487 0.163226
0.62678 0.0772412 0.188144
0.669779 0.0889754 0.216632
0.710445 0.102235 0.246799
0.741466 0.112871 0.27599
0.753002 0.116747 0.300694
0.762173 0.122301 0.327688
0.774853 0.133715 0.358175
0.786435 0.144121 0.39115
0.792523 0.148287 0.422705
0.796338 0.151232 0.451881
0.798093 0.153353 0.475975
0.799329 0.156268 0.498405
0.80383 0.163897 0.520577
0.0417182 0.0534218 0.0551156
0.0416571 0.0534829 0.0552834
0.0416266 0.0535134 0.055375
0.0416266 0.0535286 0.0553597
0.0430762 0.0536049 0.0557107
0.0477607 0.0535744 0.0570382
0.0555123 0.0534676 0.0571298
0.0683909 0.0535286 0.0571298
0.0860456 0.0533303 0.0575265
0.107683 0.0530861 0.0596475
0.13611 0.0529488 0.0627604
0.172946 0.0536507 0.0673991
0.21416 0.0545357 0.0717021
0.261173 0.0551919 0.0756695
0.317678 0.0559396 0.0846723
0.375708 0.0565194 0.0961166
0.432883 0.0576944 0.109178
0.489693 0.0597848 0.124453
0.539117 0.0633097 0.142535
0.584283 0.0690623 0.163378
0.627436 0.0774548 0.188342
0.670604 0.0892805 0.217044
0.71107 0.102495 0.246998
0.742351 0.113268 0.275883
0.752819 0.11667 0.300008
0.76173 0.121904 0.326345
0.774121 0.132921 0.356252
0.78584 0.143816 0.387945
0.791791 0.147814 0.418173
0.795666 0.150652 0.44651
0.79733 0.152529 0.46949
0.797818 0.154192 0.490684
0.800626 0.159518 0.510399
0.0417029 0.0535592 0.0551308
0.0416419 0.0536355 0.055314
0.0416419 0.0536355 0.0553902
0.0416571 0.0536507 0.0554055
0.0424964 0.0538186 0.0556191
0.0458228 0.0537881 0.0563668
0.0518349 0.0536049 0.0571756
0.0632181 0.0534981 0.0565194
0.0809491 0.0535744 0.0573892
0.102449 0.0531167 0.0588998
0.130465 0.0528725 0.0618753
0.167514 0.0534829 0.066453
0.21088 0.0543679 0.0717784
0.258457 0.0550851 0.0758984
0.315373 0.055848 0.0843366
0.374594 0.0564736 0.0958267
0.431632 0.0576638 0.108614
0.488411 0.0597238 0.12372
0.537926 0.0632639 0.141344
0.583368 0.0689708 0.162661
0.626734 0.077348 0.187518
0.670069 0.0891737 0.216388
0.709911 0.102159 0.245777
0.742626 0.113497 0.2748
0.752346 0.116472 0.298405
0.760906 0.121263 0.324102
0.773068 0.131807 0.353475
0.785138 0.143587 0.383627
0.790845 0.147204 0.413016
0.794736 0.149889 0.440345
0.796536 0.151659 0.462806
0.797086 0.15317 0.483757
0.797299 0.155016 0.500786
0.0424811 0.0569772 0.056672
0.0424659 0.0572061 0.0567788
0.0426337 0.0569924 0.0565042
0.0434119 0.0568551 0.056611
0.0449531 0.0569619 0.0567178
0.0477455 0.0567483 0.0570382
0.0525368 0.0566262 0.0577401
0.0623789 0.0561532 0.0572061
0.0801251 0.055024 0.056611
0.102373 0.0538033 0.0576791
0.129397 0.0528115 0.059678
0.165133 0.0531014 0.0632334
0.209613 0.0542611 0.0690929
0.260716 0.0550851 0.0754406
0.318105 0.0558785 0.0840467
0.374395 0.056611 0.0934462
0.431296 0.0578927 0.105715
0.488167 0.0599985 0.12105
0.53782 0.0635386 0.139101
0.583413 0.0693523 0.160281
0.627008 0.0777905 0.185779
0.67013 0.0895857 0.214603
0.70988 0.102495 0.244129
0.742702 0.113832 0.273182
0.751934 0.116396 0.296635
0.760311 0.120912 0.322423
0.772107 0.130846 0.351293
0.784909 0.143679 0.381628
0.790539 0.147112 0.410468
0.79443 0.149691 0.438117
0.79646 0.151598 0.461036
0.797284 0.153429 0.483299
0.797803 0.155688 0.501732
0.0437476 0.0635843 0.0595102
0.0437476 0.0639048 0.0596323
0.0438392 0.0634012 0.058854
0.0447547 0.0625772 0.0583047
0.0474861 0.0627451 0.0585946
0.051194 0.0626841 0.0583047
0.0576028 0.0621805 0.059205
0.0664836 0.0618906 0.0591745
0.0810712 0.060441 0.0586404
0.102815 0.0574655 0.0578317
0.132082 0.0547646 0.0584268
0.168322 0.0535744 0.0612802
0.20856 0.0532692 0.065095
0.259525 0.0540475 0.0703288
0.32015 0.0557107 0.0806134
0.379507 0.0567483 0.0930343
0.432471 0.0581979 0.102617
0.489097 0.0603647 0.118135
0.53901 0.0640574 0.136431
0.584131 0.0700084 0.157244
0.627756 0.0786297 0.182986
0.670924 0.0904555 0.212314
0.710689 0.10338 0.242252
0.743206 0.114443 0.271595
0.751614 0.116457 0.295018
0.759945 0.120775 0.320928
0.771649 0.130449 0.350027
0.784894 0.143816 0.380774
0.790539 0.147219 0.409766
0.794553 0.149859 0.437873
0.796536 0.151736 0.460899
0.797589 0.153857 0.483528
0.798306 0.156374 0.50251
0.0449226 0.0740978 0.063508
0.044892 0.0747387 0.0636149
0.0449683 0.0741741 0.0626535
0.0456703 0.0727703 0.0615549
0.0487984 0.0724498 0.0614633
0.0535286 0.0732738 0.0618296
0.0607919 0.0732586 0.0617533
0.0728466 0.0719158 0.0615396
0.088426 0.0699474 0.0620279
0.107164 0.0668803 0.0616922
0.132616 0.0623178 0.0599374
0.169772 0.0569772 0.0589609
0.213474 0.0546731 0.0627604
0.26186 0.0531319 0.0667582
0.314977 0.0527657 0.071931
0.377554 0.0556191 0.0856031
0.43801 0.058381 0.101717
0.490349 0.0607004 0.115206
0.539757 0.0643015 0.134569
0.585138 0.0702983 0.15613
0.628382 0.0791333 0.181094
0.671534 0.0911269 0.210163
0.71162 0.104356 0.240253
0.743511 0.115038 0.269795
0.751217 0.116533 0.293004
0.759457 0.120607 0.319081
0.771115 0.129992 0.34844
0.784268 0.14316 0.379156
0.790539 0.147341 0.408927
0.794644 0.150027 0.436423
0.796826 0.15201 0.458534
0.798672 0.154726 0.479011
0.800473 0.157885 0.495644
0.0457923 0.0902724 0.0682994
0.0456397 0.0913252 0.0682536
0.0456245 0.0910353 0.0670481
0.0458381 0.0898146 0.0651713
0.048127 0.0892348 0.0642252
0.0536202 0.0897078 0.0643626
0.0612345 0.0900893 0.0641489
0.0742657 0.0891737 0.0627756
0.0928511 0.0878004 0.0633555
0.117952 0.0824598 0.0643931
0.144183 0.0766766 0.0639353
0.175021 0.0708171 0.0612955
0.215213 0.0632181 0.0605631
0.264744 0.0563973 0.0614328
0.320714 0.0524147 0.0657359
0.373327 0.0507515 0.072694
0.432807 0.0551308 0.0897841
0.495232 0.0610056 0.112123
0.539391 0.0649882 0.128466
0.58529 0.0709697 0.151736
0.628763 0.0797894 0.178027
0.672679 0.0919356 0.208896
0.712902 0.105135 0.240101
0.74374 0.115419 0.268971
0.750805 0.116564 0.291447
0.758755 0.120378 0.316503
0.770214 0.12929 0.345693
0.783322 0.142153 0.376806
0.790448 0.147433 0.407431
0.794644 0.150149 0.435004
0.796872 0.152117 0.457725
0.799207 0.155398 0.478737
0.801495 0.159228 0.496132
0.0450599 0.111299 0.0728923
0.0448157 0.112657 0.072694
0.0448157 0.112612 0.0711986
0.0450752 0.111528 0.0687572
0.0458839 0.111025 0.0664836
0.0500038 0.111391 0.0659037
0.057847 0.111208 0.0656596
0.0716564 0.110842 0.0645609
0.0921645 0.109422 0.062623
0.118441 0.107439 0.0628519
0.15761 0.0990311 0.0653849
0.197391 0.0881666 0.06598
0.232059 0.0806744 0.0635386
0.273274 0.0720989 0.0600595
0.324254 0.0603037 0.0577249
0.379263 0.0524453 0.0608682
0.432181 0.049546 0.0729992
0.485313 0.0547341 0.0941634
0.543313 0.0654002 0.123491
0.584329 0.0720226 0.143771
0.628595 0.0811322 0.171084
0.672572 0.0931411 0.20296
0.713497 0.106493 0.23621
0.743725 0.116014 0.266743
0.750362 0.116487 0.290578
0.758343 0.120104 0.316167
0.768948 0.128023 0.343481
0.781994 0.140795 0.37406
0.790265 0.14757 0.404395
0.794583 0.150256 0.43299
0.796933 0.15227 0.455879
0.800107 0.156451 0.478294
0.803021 0.161181 0.496406
0.0421759 0.137758 0.0775006
0.0417182 0.139498 0.0772259
0.0417487 0.139971 0.0755016
0.0424506 0.13901 0.0720836
0.0431525 0.13872 0.0690318
0.0450599 0.138766 0.0661936
0.0505226 0.139147 0.0653697
0.0650492 0.138888 0.0656138
0.0868086 0.137926 0.0634318
0.114336 0.135012 0.0612345
0.152422 0.132616 0.0617685
0.206073 0.119738 0.0653086
0.261753 0.103319 0.0680095
0.303685 0.0935988 0.0652628
0.34612 0.0834516 0.0609445
0.39234 0.0691997 0.057908
0.438361 0.0553597 0.0576028
0.482307 0.0501717 0.0713359
0.527733 0.0554513 0.100023
0.582483 0.0700084 0.133425
0.630762 0.0828107 0.166842
0.671901 0.0949264 0.194263
0.713603 0.108354 0.22887
0.742992 0.117327 0.259861
0.749416 0.117052 0.284916
0.757549 0.119997 0.312718
0.767269 0.126482 0.341588
0.780423 0.138903 0.373266
0.789761 0.147402 0.403738
0.794324 0.150256 0.431815
0.796933 0.152438 0.454063
0.800977 0.157626 0.477226
0.805035 0.163653 0.496727
0.0377966 0.172091 0.0834363
0.0373083 0.174594 0.0833906
0.0372778 0.175387 0.081239
0.0379492 0.174395 0.0778973
0.0388342 0.174273 0.0733196
0.0398566 0.175021 0.0694285
0.043122 0.174853 0.0648356
0.0526894 0.175555 0.0635233
0.0760967 0.17499 0.0637522
0.106096 0.173861 0.0615244
0.145312 0.170581 0.0595407
0.196506 0.167346 0.0596933
0.265644 0.152224 0.0662547
0.336339 0.128817 0.0724651
0.390082 0.113924 0.0720073
0.429053 0.103593 0.0691997
0.468009 0.0878614 0.0661784
0.503487 0.0682689 0.0668498
0.527276 0.0560922 0.0747234
0.55726 0.0547799 0.0993362
0.618006 0.0754253 0.144259
0.674861 0.0977188 0.188876
0.71284 0.110613 0.21825
0.742 0.119112 0.250706
0.748043 0.118212 0.276066
0.756024 0.119997 0.305013
0.76585 0.125826 0.335241
0.778164 0.136767 0.366781
0.789212 0.147494 0.39791
0.794079 0.150423 0.42707
0.796948 0.152651 0.450599
0.802319 0.159396 0.475303
0.807324 0.166506 0.496284
0.0334936 0.213092 0.0914778
0.03299 0.215885 0.0915694
0.0328222 0.217273 0.0896468
0.0334173 0.216892 0.0854963
0.0343633 0.216922 0.0805219
0.0349737 0.218112 0.0755474
0.0362554 0.21857 0.0694438
0.0418555 0.218143 0.0628824
0.0578927 0.218738 0.060914
0.0903639 0.219608 0.0614786
0.132448 0.219257 0.058732
0.188693 0.217212 0.0572671
0.253773 0.214908 0.0574502
0.335409 0.201434 0.0677958
0.419471 0.173938 0.083711
0.480766 0.154772 0.0878309
0.523613 0.142901 0.0891585
0.553597 0.127413 0.0899214
0.572457 0.100252 0.0893873
0.577935 0.0711986 0.0900587
0.586023 0.0592813 0.105303
0.652598 0.0818341 0.15642
0.715953 0.114427 0.210727
0.739559 0.121691 0.236667
0.746136 0.120134 0.263294
0.75404 0.1205 0.294179
0.763348 0.124681 0.325551
0.775296 0.134325 0.358175
0.788266 0.147295 0.390478
0.793713 0.150668 0.420523
0.797147 0.153277 0.445228
0.803998 0.161715 0.472343
0.810498 0.170474 0.49575
0.0304875 0.261921 0.10222
0.0301213 0.265217 0.102388
0.0300603 0.267216 0.101183
0.0306096 0.267338 0.0976272
0.031281 0.268315 0.0920119
0.0323186 0.269337 0.0862287
0.0333562 0.270497 0.0803235
0.0352026 0.27039 0.0707408
0.0426642 0.270619 0.0618906
0.066331 0.273289 0.0600748
0.110506 0.276204 0.0602274
0.170199 0.277836 0.0563668
0.242939 0.276265 0.0550393
0.32314 0.274998 0.0554055
0.410101 0.266499 0.0701762
0.501747 0.241978 0.0977951
0.570581 0.216724 0.111101
0.614298 0.199924 0.11809
0.637842 0.18529 0.123018
0.649195 0.156435 0.12462
0.642847 0.104982 0.12343
0.631251 0.0735485 0.127977
0.681712 0.0857099 0.168765
0.73727 0.123735 0.224964
0.743297 0.12343 0.245518
0.751202 0.122194 0.277577
0.760067 0.123964 0.311406
0.771618 0.131533 0.34583
0.784741 0.143908 0.379675
0.793545 0.151598 0.411597
0.799939 0.157366 0.440452
0.808316 0.167239 0.469764
0.815381 0.176654 0.494331
0.0301061 0.320134 0.117632
0.0299382 0.323568 0.117891
0.0300145 0.326238 0.117327
0.030457 0.327535 0.114336
0.0315099 0.328496 0.109239
0.0328222 0.329763 0.103182
0.034165 0.331548 0.0975662
0.0360723 0.333059 0.0890364
0.0382086 0.333333 0.0750439
0.0473335 0.334661 0.0663005
0.0791028 0.337896 0.0636149
0.140322 0.340993 0.0608835
0.21709 0.343267 0.0545357
0.307027 0.343267 0.0547951
0.398291 0.344472 0.0539254
0.482704 0.343053 0.0715953
0.578225 0.324742 0.112688
0.656016 0.29662 0.14403
0.700008 0.27538 0.159609
0.726055 0.255543 0.169207
0.734279 0.22797 0.17232
0.722179 0.17258 0.166049
0.6878 0.0993362 0.158755
0.702083 0.0896925 0.173404
0.739895 0.125689 0.229511
0.747784 0.125643 0.256428
0.756054 0.124422 0.291829
0.766308 0.128222 0.327794
0.78056 0.140551 0.364538
0.793439 0.153368 0.399313
0.805081 0.164889 0.435218
0.81474 0.176013 0.467292
0.82182 0.185016 0.492363
0.0326848 0.383322 0.13669
0.0328985 0.386908 0.13724
0.0330358 0.390082 0.13695
0.0336614 0.391257 0.134737
0.0347906 0.392569 0.130877
0.0362707 0.394125 0.125872
0.0374456 0.395575 0.120455
0.0381323 0.397848 0.113649
0.0394141 0.399771 0.102144
0.0428016 0.400504 0.0851301
0.0565042 0.401816 0.07187
0.0999008 0.405005 0.0665904
0.185626 0.408942 0.063035
0.278584 0.413733 0.0561685
0.377966 0.416388 0.0611734
0.475471 0.41886 0.0594797
0.555627 0.421622 0.0771496
0.651301 0.40853 0.13286
0.733806 0.386999 0.180285
0.784741 0.361563 0.209796
0.810895 0.33756 0.223774
0.817014 0.304494 0.224933
0.794507 0.249546 0.208667
0.738964 0.136217 0.180682
0.719661 0.103197 0.177691
0.734783 0.11928 0.220127
0.752194 0.129747 0.263569
0.762798 0.129198 0.307668
0.775418 0.137102 0.346166
0.79527 0.157961 0.387137
0.8112 0.174731 0.426093
0.821836 0.185992 0.461616
0.829267 0.195224 0.487785
0.0379797 0.450599 0.162554
0.0382849 0.454582 0.1635
0.0388495 0.457481 0.163485
0.0392004 0.458701 0.161135
0.0395666 0.459892 0.157137
0.040116 0.461662 0.152956
0.04094 0.463661 0.148363
0.042298 0.465064 0.142443
0.0440223 0.46775 0.134417
0.0466468 0.469902 0.119677
0.0534829 0.47126 0.0975204
0.0772564 0.473472 0.0798657
0.142504 0.4766 0.0722972
0.253635 0.481285 0.0680247
0.357092 0.487984 0.0643931
0.454429 0.493736 0.0800336
0.550469 0.496895 0.0815137
0.628443 0.501778 0.105379
0.720989 0.494377 0.167956
0.806943 0.476646 0.225284
0.858579 0.448615 0.261387
0.876448 0.421576 0.270848
0.860548 0.379995 0.258122
0.836667 0.326375 0.239353
0.782238 0.212757 0.202441
0.735439 0.125704 0.180911
0.736202 0.121309 0.209949
0.762768 0.141497 0.27422
0.778637 0.147723 0.327291
0.798688 0.166201 0.375387
0.8177 0.18645 0.417884
0.831098 0.200763 0.454795
0.839796 0.210529 0.481819
0.0461585 0.519844 0.199664
0.0470741 0.523873 0.201541
0.0480201 0.526772 0.201526
0.0487373 0.527916 0.199023
0.0493629 0.528939 0.195651
0.0504311 0.53106 0.192248
0.051667 0.532601 0.188144
0.0532845 0.533974 0.182269
0.0555581 0.536126 0.174838
0.0587472 0.538766 0.164935
0.0645914 0.5411 0.145907
0.0770275 0.54313 0.118929
0.1178 0.546853 0.0976425
0.213825 0.551141 0.0865339
0.339178 0.557122 0.0815595
0.438697 0.56643 0.0864576
0.532662 0.574105 0.11426
0.625528 0.57615 0.127199
0.700053 0.580926 0.15288
0.787655 0.578439 0.213718
0.866514 0.565682 0.269291
0.91046 0.544045 0.299748
0.906508 0.508736 0.29572
0.892348 0.463874 0.283528
0.870344 0.403662 0.265827
0.827832 0.307164 0.232914
0.763134 0.17499 0.192111
0.74786 0.141238 0.200092
0.773068 0.154894 0.278843
0.800092 0.178103 0.342199
0.823423 0.201572 0.391058
0.840955 0.219196 0.434867
0.853422 0.232914 0.467567
0.0644388 0.588602 0.248569
0.0659953 0.592386 0.250629
0.0674296 0.595132 0.250217
0.0687266 0.596857 0.248447
0.0700694 0.598321 0.245945
0.0714885 0.599924 0.243076
0.073167 0.601526 0.23978
0.0754101 0.603067 0.234836
0.078645 0.604547 0.226261
0.0832837 0.607385 0.21677
0.0893568 0.610559 0.204562
0.0984207 0.611902 0.17911
0.120607 0.614343 0.148333
0.189334 0.619883 0.125399
0.313664 0.627817 0.115557
0.437812 0.636133 0.115328
0.520546 0.647608 0.130892
0.610193 0.65449 0.163561
0.698222 0.654887 0.184771
0.770825 0.659617 0.211414
0.845548 0.661112 0.26273
0.908232 0.651514 0.306676
0.927779 0.634913 0.31693
0.922423 0.604654 0.308171
0.915694 0.559197 0.301366
0.900847 0.491737 0.290105
0.869825 0.403143 0.264927
0.808606 0.267033 0.219471
0.781506 0.211109 0.202838
0.802625 0.214405 0.27155
0.823529 0.218051 0.345785
0.8477 0.24184 0.396048
0.8645 0.258854 0.434424
0.0950637 0.657618 0.302892
0.0979324 0.661799 0.304356
0.100679 0.665309 0.304677
0.102083 0.666514 0.302693
0.103883 0.66807 0.301076
0.106126 0.669841 0.299107
0.108431 0.671504 0.296895
0.111177 0.673198 0.292561
0.114992 0.674952 0.285405
0.119783 0.676661 0.275364
0.126452 0.679408 0.264515
0.135378 0.682185 0.248341
0.149798 0.682948 0.216663
0.192737 0.6878 0.185168
0.290776 0.696208 0.16347
0.424125 0.706966 0.160266
0.530922 0.716793 0.167819
0.600748 0.729091 0.189258
0.686549 0.735729 0.224002
0.770794 0.735561 0.250507
0.837201 0.738582 0.275944
0.893507 0.740383 0.310491
0.929152 0.733196 0.334401
0.928359 0.716533 0.326513
0.924758 0.690517 0.315969
0.923903 0.651774 0.310719
0.919982 0.592615 0.305165
0.903059 0.502647 0.291203
0.857343 0.373373 0.25481
0.832303 0.317205 0.235752
0.838285 0.312108 0.257252
0.851774 0.28838 0.322789
0.864622 0.288212 0.368811
0.140902 0.728527 0.360418
0.144518 0.732494 0.361624
0.147539 0.735378 0.3617
0.149187 0.736416 0.360189
0.151064 0.737774 0.359182
0.153429 0.739361 0.357794
0.156329 0.741268 0.356054
0.159518 0.743023 0.352941
0.163226 0.744289 0.346654
0.167941 0.74548 0.337224
0.173709 0.746822 0.324819
0.181308 0.749371 0.312612
0.193057 0.751797 0.291127
0.213642 0.752041 0.252796
0.283436 0.759625 0.223423
0.4065 0.772793 0.212467
0.529519 0.783017 0.216007
0.614359 0.793362 0.229221
0.677348 0.805508 0.253788
0.761501 0.812589 0.289311
0.83946 0.811536 0.318441
0.894774 0.813092 0.338811
0.93492 0.813718 0.35819
0.946181 0.805341 0.361746
0.938689 0.78999 0.345647
0.929244 0.766659 0.327199
0.924376 0.732708 0.318212
0.923491 0.684733 0.3131
0.920363 0.611887 0.306111
0.900191 0.499275 0.286427
0.869993 0.401404 0.266453
0.872404 0.406699 0.268971
0.877943 0.415869 0.276356
0.19173 0.792508 0.414801
0.194537 0.795407 0.415015
0.196979 0.797604 0.414725
0.198718 0.798733 0.413718
0.200626 0.799924 0.412467
0.203143 0.801587 0.41146
0.205615 0.803052 0.410574
0.207813 0.803861 0.407477
0.210941 0.805081 0.403067
0.214878 0.806287 0.395956
0.220233 0.807309 0.384558
0.227298 0.808621 0.369528
0.235691 0.810422 0.353704
0.249592 0.811139 0.325353
0.288045 0.813291 0.286015
0.392508 0.825574 0.264591
0.51313 0.837797 0.263661
0.62385 0.846052 0.272023
0.686061 0.856718 0.28896
0.747265 0.869123 0.316106
0.83183 0.876524 0.352819
0.897551 0.875914 0.381003
0.941009 0.877745 0.39736
0.964843 0.876204 0.405417
0.964004 0.867491 0.39559
0.9561 0.85481 0.373373
0.945586 0.834241 0.347951
0.936507 0.8056 0.33463
0.927901 0.767819 0.324849
0.922927 0.715129 0.316487
0.922087 0.650309 0.310979
0.913237 0.565347 0.299458
0.907881 0.520562 0.296941
0.235172 0.842481 0.459739
0.237186 0.8448 0.459678
0.238987 0.846494 0.459236
0.240406 0.847471 0.458152
0.242161 0.848524 0.457115
0.244205 0.849546 0.455955
0.246098 0.850324 0.45481
0.248508 0.851179 0.452659
0.251194 0.852079 0.449241
0.254627 0.852995 0.443427
0.258717 0.853849 0.434775
0.264485 0.854505 0.42089
0.27248 0.854932 0.402045
0.282094 0.855467 0.38175
0.299794 0.854353 0.344274
0.37528 0.864042 0.314733
0.494438 0.875685 0.303792
0.603769 0.883146 0.307179
0.693843 0.890913 0.319677
0.746975 0.902235 0.340185
0.809659 0.915526 0.371344
0.892012 0.922316 0.408255
0.942031 0.920287 0.43209
0.974075 0.922347 0.445487
0.983246 0.920546 0.44622
0.980667 0.914397 0.436774
0.975631 0.907546 0.41976
0.968261 0.894118 0.397696
0.958587 0.871489 0.372091
0.947692 0.84445 0.348959
0.938079 0.813779 0.337362
0.929442 0.77612 0.327169
0.925292 0.754879 0.32282
0.262882 0.872679 0.491356
0.263767 0.873564 0.490501
0.264668 0.87422 0.489464
0.265812 0.874739 0.487999
0.266926 0.875059 0.48658
0.268391 0.875441 0.485206
0.270039 0.875792 0.483879
0.271931 0.876097 0.481636
0.274022 0.876539 0.478691
0.2766 0.876951 0.473793
0.279561 0.877195 0.4663
0.284016 0.877424 0.454719
0.290562 0.877379 0.437125
0.299626 0.876707 0.413184
0.310994 0.875669 0.386023
0.350103 0.878782 0.351736
0.456718 0.890013 0.330465
0.573388 0.895705 0.324514
0.673411 0.900755 0.331975
0.737728 0.90988 0.349264
0.789578 0.920668 0.372763
0.862074 0.931136 0.405158
0.930663 0.937972 0.439567
0.970504 0.93843 0.460838
0.989532 0.941665 0.471733
0.990082 0.941527 0.471412
0.988693 0.940352 0.466575
0.985962 0.938384 0.457023
0.982086 0.933455 0.444312
0.977203 0.92282 0.430472
0.971649 0.908583 0.413291
0.965194 0.893111 0.394202
0.961898 0.885039 0.384298
0.27364 0.881605 0.507958
0.273854 0.881971 0.507027
0.274434 0.882338 0.505974
0.27512 0.882551 0.504417
0.276112 0.882704 0.502754
0.277241 0.882765 0.501213
0.27863 0.88275 0.499519
0.280095 0.882795 0.497719
0.28188 0.882841 0.494194
0.283925 0.883009 0.489921
0.286946 0.883299 0.483406
0.290791 0.883574 0.473777
0.29601 0.883543 0.459205
0.303563 0.882933 0.437308
0.315084 0.881514 0.406851
0.3337 0.880644 0.374548
0.411078 0.890806 0.351888
0.528771 0.898161 0.338186
0.641627 0.9028 0.339895
0.717021 0.909743 0.35198
0.773602 0.920287 0.373053
0.834379 0.930617 0.399741
0.899825 0.937102 0.428138
0.95169 0.938521 0.455772
0.984329 0.942535 0.473198
0.991958 0.944121 0.479423
0.991821 0.943908 0.478996
0.990478 0.942962 0.475257
0.987762 0.940963 0.466896
0.984756 0.938933 0.458305
0.983658 0.938399 0.455756
0.982757 0.937194 0.452674
0.982483 0.936736 0.451377
0.281422 0.885405 0.520897
0.281666 0.885756 0.520043
0.282185 0.886198 0.519097
0.28278 0.886397 0.517479
0.283665 0.886595 0.515984
0.284825 0.886732 0.514672
0.286259 0.8869 0.513344
0.287724 0.886946 0.51104
0.289631 0.8869 0.507622
0.291341 0.887053 0.503212
0.293553 0.887266 0.497398
0.296559 0.88748 0.489357
0.300801 0.887526 0.477699
0.307515 0.887297 0.459663
0.317662 0.88632 0.43238
0.33904 0.886595 0.399374
0.382223 0.892134 0.377539
0.479652 0.900633 0.360357
0.595529 0.904997 0.353582
0.691432 0.910979 0.361151
0.752605 0.920317 0.378088
0.814496 0.931273 0.402579
0.878904 0.938415 0.42678
0.931624 0.943008 0.451148
0.970428 0.942702 0.470741
0.990799 0.945968 0.484245
0.992096 0.946303 0.488319
0.992157 0.945647 0.487129
0.991073 0.944472 0.481804
0.988632 0.942672 0.474022
0.986313 0.940963 0.467033
0.985382 0.940337 0.464591
0.98529 0.940261 0.46424
0.291478 0.88957 0.533165
0.291722 0.889906 0.532265
0.292042 0.890349 0.531304
0.292226 0.890623 0.529671
0.292775 0.890913 0.528267
0.293523 0.891142 0.527184
0.294438 0.89131 0.52575
0.295613 0.891417 0.523613
0.297185 0.891478 0.520607
0.298924 0.891569 0.516777
0.30135 0.891707 0.511513
0.304143 0.891752 0.50457
0.308141 0.891783 0.49453
0.31368 0.891707 0.480003
0.323705 0.891951 0.459861
0.345876 0.893629 0.432288
0.392523 0.90042 0.411078
0.455573 0.907622 0.401663
0.547417 0.911574 0.391791
0.65182 0.915541 0.389654
0.731365 0.924117 0.399908
0.794751 0.93341 0.418128
0.864988 0.94139 0.439643
0.916228 0.945159 0.455467
0.952621 0.94374 0.472709
0.985183 0.947036 0.490532
0.993973 0.949996 0.506203
0.994858 0.950759 0.514931
0.994141 0.950042 0.50985
0.991409 0.947311 0.494331
0.989685 0.945068 0.484581
0.987625 0.942763 0.474296
0.987076 0.941955 0.471351
0.302525 0.894209 0.545724
0.30248 0.894484 0.544961
0.30251 0.894881 0.543999
0.302495 0.895109 0.542809
0.302861 0.895384 0.541512
0.303624 0.895613 0.540276
0.304555 0.895781 0.538811
0.305821 0.895918 0.536919
0.307301 0.895949 0.534218
0.309224 0.896025 0.530282
0.311208 0.896086 0.525429
0.313863 0.896193 0.519097
0.317876 0.896468 0.510872
0.323552 0.896773 0.499657
0.336767 0.898695 0.485466
0.363638 0.902708 0.467536
