bundles/resolve-cinematic-luts/Phantom Luts/A7s3 Phntm Arri LUTs G7/SLog3/IceBlue A7s3-Legacy.cube
TITLE "Generated by Resolve"
LUT_3D_SIZE 5
0.0415808 0.0535286 0.0554665
0.0875257 0.0533455 0.0574655
0.421759 0.0574502 0.106661
0.752697 0.11667 0.299718
0.808301 0.169955 0.53048
0.0450599 0.111299 0.0728923
0.0921645 0.109422 0.062623
0.432181 0.049546 0.0729992
0.750362 0.116487 0.290578
0.803021 0.161181 0.496406
0.0461585 0.519844 0.199664
0.0555581 0.536126 0.174838
0.532662 0.574105 0.11426
0.870344 0.403662 0.265827
0.853422 0.232914 0.467567
0.281422 0.885405 0.520897
0.289631 0.8869 0.507622
0.382223 0.892134 0.377539
0.970428 0.942702 0.470741
0.98529 0.940261 0.46424
0.519738 0.933577 0.682765
0.515221 0.934676 0.671199
0.647822 0.945022 0.709773
0.968978 0.969696 0.757488
0.996323 0.971008 0.797208
0.0391089 0.0556497 0.101228
0.0871138 0.0544289 0.101305
0.429694 0.0536202 0.152468
0.759777 0.117708 0.339284
0.811292 0.177813 0.559518
0.0415808 0.108003 0.113939
0.0847639 0.105333 0.11957
0.451514 0.0573739 0.121813
0.758968 0.118898 0.326314
0.846113 0.223728 0.61265
0.0446479 0.522072 0.239109
0.0519112 0.536156 0.216876
0.514031 0.566583 0.115618
0.859937 0.378851 0.257465
0.890913 0.278798 0.600504
0.283909 0.887922 0.538827
0.289464 0.889235 0.528359
0.373327 0.894301 0.398489
0.970916 0.94287 0.472419
0.985412 0.940307 0.463737
0.521904 0.934508 0.691646
0.5346 0.937072 0.69424
0.651316 0.945449 0.720531
0.96582 0.971283 0.763043
0.996292 0.971069 0.797177
0.0314031 0.0707713 0.380331
0.0879683 0.0587625 0.407324
0.435233 0.0572824 0.396475
0.780453 0.133669 0.490105
0.819272 0.200107 0.63473
0.018204 0.0904402 0.403708
0.0302129 0.0784924 0.453773
0.474693 0.0603799 0.449149
0.784283 0.137118 0.500237
0.858274 0.257008 0.702419
0.0572061 0.517494 0.482322
0.0632029 0.533394 0.501015
0.469688 0.531609 0.537087
0.841093 0.221775 0.427878
0.941375 0.384878 0.803738
0.30277 0.899931 0.658045
0.31249 0.900862 0.655222
0.363622 0.911665 0.572778
0.962234 0.955978 0.594873
0.995163 0.949294 0.514687
0.529961 0.939193 0.757397
0.555856 0.942138 0.770871
0.674876 0.951888 0.799527
0.954726 0.976181 0.827604
0.997436 0.970687 0.801587
0.0282139 0.144961 0.631373
0.062974 0.126757 0.658061
0.373312 0.0893568 0.719936
0.741512 0.154009 0.722408
0.749828 0.179034 0.763745
0.0226139 0.163409 0.627207
0.0229648 0.164492 0.647852
0.361364 0.0939651 0.73492
0.73904 0.158328 0.740826
0.75433 0.184787 0.768627
0.0869306 0.51223 0.721294
0.0935988 0.528283 0.736416
0.336324 0.520424 0.925231
0.774136 0.20705 0.78146
0.848188 0.309743 0.858824
0.37821 0.918334 0.893187
0.39736 0.923171 0.898466
0.43595 0.935088 0.913069
0.926925 0.954055 0.961166
0.985473 0.928267 0.96022
0.545296 0.97911 0.953521
0.616098 0.972549 0.954711
0.732433 0.978225 0.966476
0.947875 0.982925 0.975799
0.989563 0.986526 0.975662
0.0285649 0.211276 0.664149
0.0267185 0.196307 0.669367
0.284657 0.0954604 0.730022
0.728313 0.153109 0.742962
0.742885 0.169116 0.756069
0.030045 0.221958 0.661921
0.042359 0.302937 0.698756
0.283085 0.190219 0.789075
0.735759 0.157275 0.744121
0.743633 0.17113 0.758358
0.116732 0.57145 0.772198
0.13228 0.607752 0.786816
0.269596 0.661524 0.881025
0.972717 0.514046 0.974304
0.748302 0.175586 0.760769
0.36936 0.913405 0.911421
0.392676 0.919051 0.914519
0.444572 0.933227 0.934768
0.913924 0.956268 0.983978
0.981857 0.92256 0.977874
0.535958 0.983627 0.971817
0.61767 0.976242 0.968795
0.745571 0.979019 0.976364
0.941695 0.983871 0.987442
0.995163 0.985962 0.985672
