bundles/resolve-cinematic-luts/Phantom Luts/A7s3 Phntm Arri LUTs G7/SLog3/IceBlue A7s3-Legacy.cube
TITLE "Generated by Resolve"
LUT_3D_SIZE 9
0.0415808 0.0535286 0.0554665
0.0436866 0.0535744 0.0558938
0.0875257 0.0533455 0.0574655
0.207797 0.0544594 0.0706798
0.421759 0.0574502 0.106661
0.622248 0.0762341 0.18555
0.752697 0.11667 0.299718
0.792859 0.148547 0.424811
0.808301 0.169955 0.53048
0.0424811 0.0569772 0.056672
0.0449531 0.0569619 0.0567178
0.0801251 0.055024 0.056611
0.209613 0.0542611 0.0690929
0.431296 0.0578927 0.105715
0.627008 0.0777905 0.185779
0.751934 0.116396 0.296635
0.790539 0.147112 0.410468
0.797803 0.155688 0.501732
0.0450599 0.111299 0.0728923
0.0458839 0.111025 0.0664836
0.0921645 0.109422 0.062623
0.232059 0.0806744 0.0635386
0.432181 0.049546 0.0729992
0.628595 0.0811322 0.171084
0.750362 0.116487 0.290578
0.790265 0.14757 0.404395
0.803021 0.161181 0.496406
0.0304875 0.261921 0.10222
0.031281 0.268315 0.0920119
0.0426642 0.270619 0.0618906
0.242939 0.276265 0.0550393
0.570581 0.216724 0.111101
0.642847 0.104982 0.12343
0.743297 0.12343 0.245518
0.784741 0.143908 0.379675
0.815381 0.176654 0.494331
0.0461585 0.519844 0.199664
0.0493629 0.528939 0.195651
0.0555581 0.536126 0.174838
0.1178 0.546853 0.0976425
0.532662 0.574105 0.11426
0.866514 0.565682 0.269291
0.870344 0.403662 0.265827
0.773068 0.154894 0.278843
0.853422 0.232914 0.467567
0.19173 0.792508 0.414801
0.200626 0.799924 0.412467
0.210941 0.805081 0.403067
0.235691 0.810422 0.353704
0.51313 0.837797 0.263661
0.83183 0.876524 0.352819
0.964004 0.867491 0.39559
0.927901 0.767819 0.324849
0.907881 0.520562 0.296941
0.281422 0.885405 0.520897
0.283665 0.886595 0.515984
0.289631 0.8869 0.507622
0.300801 0.887526 0.477699
0.382223 0.892134 0.377539
0.752605 0.920317 0.378088
0.970428 0.942702 0.470741
0.991073 0.944472 0.481804
0.98529 0.940261 0.46424
0.332921 0.904997 0.572778
0.331029 0.905226 0.567834
0.341344 0.907286 0.564202
0.369528 0.911894 0.552468
0.472618 0.923186 0.544854
0.696101 0.936278 0.572915
0.941405 0.958114 0.609674
0.998886 0.95668 0.634852
0.998886 0.960983 0.687404
0.519738 0.933577 0.682765
0.508461 0.934005 0.673365
0.515221 0.934676 0.671199
0.556115 0.937102 0.681025
0.647822 0.945022 0.709773
0.827558 0.958801 0.738674
0.968978 0.969696 0.757488
0.998886 0.967453 0.757794
0.996323 0.971008 0.797208
0.0414282 0.0536507 0.0579232
0.0438239 0.0536355 0.0580758
0.0863508 0.053727 0.0697642
0.206043 0.0532387 0.0859693
0.425193 0.0555581 0.125414
0.629297 0.0740063 0.212696
0.756497 0.116075 0.326284
0.792798 0.148379 0.452811
0.810712 0.176501 0.552956
0.0421454 0.0567788 0.0588846
0.044419 0.0568093 0.0597848
0.0950027 0.0542458 0.0625467
0.221866 0.0537881 0.0768444
0.440925 0.0566873 0.120867
0.635767 0.0773175 0.205234
0.755108 0.115419 0.321004
0.791928 0.147707 0.444602
0.807904 0.17229 0.543984
0.04477 0.112383 0.0860914
0.0446174 0.114855 0.074464
0.0900893 0.109911 0.063798
0.240116 0.0776074 0.0650797
0.446815 0.0521706 0.0879225
0.637308 0.0819104 0.1841
0.753323 0.116609 0.304967
0.793439 0.149264 0.431006
0.819074 0.184253 0.54609
0.0296635 0.264347 0.116854
0.029633 0.271504 0.104402
0.0380407 0.273625 0.0714275
0.241535 0.277806 0.0559396
0.574945 0.214603 0.113329
0.638712 0.0946517 0.122286
0.746151 0.122255 0.258228
0.793378 0.151736 0.407645
0.837659 0.206271 0.553475
0.0461128 0.522454 0.212696
0.0494545 0.533578 0.208896
0.0550393 0.539422 0.187884
0.104341 0.549279 0.105272
0.531624 0.576471 0.115831
0.873487 0.565377 0.275517
0.865187 0.391424 0.26157
0.797086 0.179644 0.324926
0.876402 0.258305 0.548806
0.191791 0.794385 0.425147
0.201923 0.804562 0.424842
0.212009 0.810162 0.416403
0.235447 0.81384 0.36492
0.50135 0.839948 0.267323
0.833814 0.879911 0.355825
0.964599 0.869093 0.396826
0.92604 0.755642 0.322789
0.907805 0.518212 0.297353
0.282475 0.886732 0.527947
0.283207 0.887434 0.524147
0.289189 0.887602 0.51577
0.300496 0.888365 0.486427
0.377447 0.892393 0.383917
0.750378 0.92076 0.380224
0.970871 0.942916 0.471458
0.99118 0.944503 0.482155
0.985412 0.940307 0.463752
0.337545 0.906142 0.578973
0.339483 0.908339 0.576242
0.348486 0.909712 0.572946
0.377844 0.914549 0.562722
0.47689 0.924117 0.555566
0.69749 0.937041 0.581994
0.941436 0.95845 0.61532
0.998886 0.956741 0.637339
0.998886 0.961089 0.688701
0.523018 0.934051 0.686915
0.520195 0.93547 0.68394
0.52575 0.936049 0.681224
0.562203 0.937881 0.688167
0.649989 0.945327 0.713222
0.826535 0.958846 0.740322
0.968261 0.970108 0.758618
0.998886 0.967453 0.757916
0.996063 0.970871 0.799283
0.0391089 0.0556497 0.101228
0.0489052 0.054902 0.100252
0.0871138 0.0544289 0.101305
0.21088 0.0529793 0.123491
0.429694 0.0536202 0.152468
0.636866 0.073579 0.235111
0.759777 0.117708 0.339284
0.793561 0.148959 0.461738
0.811292 0.177813 0.559518
0.0393378 0.0569162 0.0898756
0.0388495 0.0560769 0.1066
0.0916457 0.0545815 0.10898
0.222309 0.0527504 0.117113
0.442771 0.0542611 0.149142
0.642069 0.0762188 0.227741
0.758755 0.117098 0.335454
0.792828 0.148318 0.455161
0.808881 0.174319 0.551644
0.0415808 0.108003 0.113939
0.041001 0.110842 0.116777
0.0847639 0.105333 0.11957
0.265171 0.0777142 0.113466
0.451514 0.0573739 0.121813
0.646387 0.080766 0.208911
0.758968 0.118898 0.326314
0.79826 0.15349 0.465019
0.846113 0.223728 0.61265
0.0298161 0.263981 0.150683
0.0294041 0.270817 0.142718
0.0387274 0.269062 0.11519
0.233204 0.276051 0.0814527
0.544091 0.208469 0.123644
0.659419 0.0927901 0.155474
0.751141 0.12047 0.281956
0.801389 0.158297 0.445426
0.862486 0.243061 0.618479
0.0446479 0.522072 0.239109
0.0475471 0.532753 0.234211
0.0519112 0.536156 0.216876
0.0771649 0.539681 0.132921
0.514031 0.566583 0.115618
0.873075 0.553674 0.280461
0.859937 0.378851 0.257465
0.808209 0.183139 0.368643
0.890913 0.278798 0.600504
0.187762 0.792264 0.436957
0.198428 0.80264 0.438926
0.20766 0.807843 0.43151
0.227436 0.81088 0.385
0.467857 0.836423 0.271916
0.823896 0.875334 0.351843
0.965057 0.864652 0.399451
0.925566 0.74992 0.321416
0.907057 0.512886 0.29662
0.283909 0.887922 0.538827
0.284688 0.888777 0.536049
0.289464 0.889235 0.528359
0.300008 0.889876 0.499321
0.373327 0.894301 0.398489
0.743648 0.921447 0.385077
0.970916 0.94287 0.472419
0.991577 0.944884 0.485878
0.985412 0.940307 0.463737
0.33843 0.90724 0.586145
0.342046 0.909407 0.585168
0.352163 0.910933 0.58294
0.38024 0.91574 0.572274
0.477852 0.924819 0.565515
0.696345 0.937667 0.589929
0.940505 0.958816 0.621134
0.998886 0.956558 0.637278
0.998886 0.960983 0.688502
0.521904 0.934508 0.691646
0.517174 0.93695 0.689464
0.5346 0.937072 0.69424
0.570199 0.938476 0.701213
0.651316 0.945449 0.720531
0.821439 0.958984 0.74548
0.96582 0.971283 0.763043
0.998886 0.967483 0.758358
0.996292 0.971069 0.797177
0.0341344 0.0607919 0.202792
0.0450752 0.0583505 0.20621
0.0951858 0.0553445 0.212146
0.214939 0.0539101 0.208545
0.440925 0.0538949 0.237797
0.650172 0.0774853 0.298543
0.772335 0.128206 0.379416
0.794568 0.150103 0.486778
0.81268 0.181933 0.578119
0.0315862 0.0621042 0.203281
0.0332036 0.0618296 0.217945
0.0861524 0.0560311 0.233478
0.226993 0.0540475 0.223896
0.456565 0.0543832 0.244816
0.657984 0.0790417 0.297139
0.773449 0.12958 0.380331
0.79443 0.149905 0.484001
0.811048 0.179644 0.574075
0.0278325 0.103014 0.21088
0.0258793 0.102525 0.226719
0.0479744 0.0841993 0.268345
0.250858 0.0582589 0.254963
0.467353 0.055024 0.236683
0.662333 0.0797131 0.283131
0.774487 0.131212 0.37406
0.800336 0.155825 0.493919
0.848936 0.230747 0.635065
0.0283665 0.253025 0.238148
0.0272221 0.260578 0.244694
0.0331426 0.260349 0.248249
0.227329 0.270909 0.278767
0.557412 0.204486 0.256992
0.676066 0.0925307 0.229648
0.765667 0.125109 0.338659
0.813733 0.172351 0.506874
0.896513 0.303655 0.71899
0.0485847 0.522667 0.327352
0.05066 0.534035 0.329503
0.0535134 0.536568 0.315724
0.0699626 0.529747 0.246357
0.491478 0.557122 0.216693
0.857053 0.52607 0.307866
0.831693 0.295018 0.254459
0.829557 0.199634 0.444602
0.917372 0.325505 0.695933
0.186206 0.789364 0.482719
0.1953 0.79881 0.485451
0.202777 0.804013 0.476844
0.215564 0.806745 0.440665
0.345281 0.828168 0.316243
0.793301 0.861723 0.345052
0.967239 0.848234 0.4112
0.924498 0.73106 0.3178
0.905241 0.418158 0.340841
0.288579 0.890639 0.568811
0.289952 0.891752 0.567849
0.294316 0.892683 0.562356
0.30248 0.893492 0.538384
0.361593 0.899275 0.453391
0.71725 0.926329 0.420615
0.969162 0.944671 0.487465
0.995804 0.948455 0.5084
0.98529 0.9402 0.463462
0.342229 0.909133 0.606912
0.347265 0.910811 0.607706
0.35581 0.913314 0.606943
0.386206 0.918166 0.600092
0.480735 0.925872 0.592248
0.691646 0.939483 0.611765
0.937392 0.959838 0.64242
0.998886 0.956085 0.638651
0.997986 0.96112 0.699809
0.52163 0.935637 0.707973
0.524514 0.93637 0.710506
0.53872 0.938231 0.716548
0.585336 0.941085 0.730282
0.657099 0.947707 0.74226
0.810437 0.960128 0.763165
0.961364 0.9729 0.779599
0.998886 0.968292 0.768902
0.997192 0.971099 0.795468
0.0314031 0.0707713 0.380331
0.0436561 0.0671092 0.390936
0.0879683 0.0587625 0.407324
0.222995 0.0535744 0.404562
0.435233 0.0572824 0.396475
0.657755 0.0806134 0.420539
0.780453 0.133669 0.490105
0.793454 0.153857 0.55082
0.819272 0.200107 0.63473
0.0280461 0.0728923 0.390631
0.0311437 0.0723278 0.401556
0.0752117 0.0612955 0.426093
0.226154 0.0538643 0.42829
0.449653 0.0581826 0.414435
0.668009 0.0840009 0.430655
0.780972 0.134783 0.500145
0.79266 0.15375 0.55584
0.815381 0.195987 0.63505
0.018204 0.0904402 0.403708
0.0167697 0.0912795 0.420996
0.0302129 0.0784924 0.453773
0.213687 0.0559854 0.489921
0.474693 0.0603799 0.449149
0.6795 0.0873732 0.428824
0.784283 0.137118 0.500237
0.798978 0.160418 0.564614
0.858274 0.257008 0.702419
0.0125124 0.24416 0.411795
0.0115511 0.249226 0.427512
0.0112154 0.241871 0.447333
0.1149 0.198901 0.53669
0.51722 0.116548 0.520974
0.705791 0.0981765 0.435492
0.785351 0.137728 0.489738
0.816419 0.18265 0.585168
0.906477 0.333455 0.779675
0.0572061 0.517494 0.482322
0.0599069 0.528969 0.494865
0.0632029 0.533394 0.501015
0.075227 0.530404 0.502739
0.469688 0.531609 0.537087
0.874464 0.481697 0.5252
0.841093 0.221775 0.427878
0.836027 0.204807 0.565026
0.941375 0.384878 0.803738
0.192584 0.780133 0.596033
0.20145 0.789853 0.602152
0.207965 0.795224 0.600565
0.21651 0.797604 0.578668
0.319814 0.813596 0.499428
0.74107 0.83238 0.51548
0.994797 0.812024 0.551705
0.976196 0.648524 0.428916
0.967788 0.418769 0.583398
0.30277 0.899931 0.658045
0.307912 0.900206 0.659449
0.31249 0.900862 0.655222
0.318379 0.901503 0.633494
0.363622 0.911665 0.572778
0.646815 0.933806 0.561913
0.962234 0.955978 0.594873
0.998886 0.954162 0.601648
0.995163 0.949294 0.514687
0.351171 0.913878 0.662043
0.359213 0.91548 0.665187
0.369802 0.917571 0.665934
0.401755 0.922713 0.663127
0.499321 0.929564 0.66453
0.681498 0.943816 0.684901
0.931014 0.96408 0.711772
0.998886 0.960754 0.70399
0.998886 0.964767 0.733349
0.529961 0.939193 0.757397
0.538262 0.940002 0.763134
0.555856 0.942138 0.770871
0.600717 0.94696 0.786969
0.674876 0.951888 0.799527
0.801282 0.963836 0.816342
0.954726 0.976181 0.827604
0.998886 0.972839 0.824628
0.997436 0.970687 0.801587
0.0390173 0.0918135 0.546975
0.05626 0.0867323 0.561807
0.0889143 0.0771038 0.577508
0.215442 0.0654612 0.604868
0.414298 0.0620584 0.591867
0.622705 0.0890059 0.578302
0.768109 0.142184 0.619074
0.772061 0.16257 0.677302
0.772198 0.173022 0.699962
0.0348211 0.095491 0.549172
0.0383612 0.0948806 0.555215
0.0714122 0.0851453 0.580011
0.202899 0.0677348 0.614343
0.416831 0.0637522 0.603037
0.629664 0.0924086 0.589944
0.766186 0.143954 0.632212
0.768978 0.163363 0.685878
0.767712 0.174121 0.711727
0.0186923 0.119234 0.548928
0.0183719 0.120272 0.554665
0.0369116 0.106767 0.582391
0.166766 0.0737926 0.629648
0.432624 0.0723278 0.648371
0.642496 0.0982681 0.604868
0.767468 0.147173 0.645014
0.772641 0.168185 0.695354
0.798871 0.212955 0.744396
0.0180362 0.215427 0.561685
0.0176089 0.218128 0.567544
0.0189364 0.211719 0.581201
0.0513619 0.167834 0.63035
0.387121 0.0888838 0.684062
0.686717 0.122606 0.653666
0.765988 0.149584 0.657496
0.775235 0.172198 0.701228
0.871687 0.319966 0.838666
0.0600137 0.511406 0.622919
0.0632029 0.520867 0.632136
0.0669718 0.52459 0.643946
0.0690623 0.512886 0.659129
0.385489 0.513771 0.859373
0.837964 0.418112 0.848402
0.796033 0.180713 0.664286
0.77847 0.171984 0.691829
0.919051 0.390753 0.884291
0.217365 0.763134 0.733715
0.228183 0.773388 0.742947
0.235813 0.778836 0.748959
0.245945 0.783215 0.754833
0.324437 0.805249 0.783932
0.72369 0.790219 0.801404
0.998886 0.752056 0.797299
0.998886 0.542916 0.772259
0.907057 0.340932 0.797604
0.350561 0.916823 0.803189
0.362417 0.918654 0.808392
0.367575 0.91989 0.808698
0.370489 0.921492 0.801419
0.390021 0.928847 0.773907
0.66746 0.948409 0.780987
0.944091 0.968658 0.808728
0.998886 0.960906 0.825666
0.996368 0.949599 0.796643
0.380743 0.928206 0.791699
0.398352 0.92723 0.797345
0.409613 0.928527 0.79939
0.439567 0.935332 0.801404
0.541619 0.942229 0.804578
0.712963 0.954818 0.823285
0.918334 0.973571 0.848356
0.998886 0.974563 0.851209
0.997925 0.977157 0.877333
0.540978 0.957748 0.867033
0.581659 0.950652 0.87277
0.610193 0.949584 0.877668
0.652583 0.954025 0.885542
0.71223 0.960678 0.891951
0.825772 0.96907 0.90251
0.948226 0.979522 0.912322
0.996582 0.981064 0.909178
0.992218 0.98117 0.904158
0.0282139 0.144961 0.631373
0.0386206 0.136294 0.640604
0.062974 0.126757 0.658061
0.155459 0.0918898 0.682033
0.373312 0.0893568 0.719936
0.562722 0.09691 0.695796
0.741512 0.154009 0.722408
0.746853 0.170886 0.754238
0.749828 0.179034 0.763745
0.0264591 0.147143 0.62945
0.0272526 0.148058 0.63389
0.0492103 0.133822 0.652781
0.142565 0.0967575 0.683207
0.376684 0.0909895 0.724834
0.571557 0.0999619 0.701213
0.739971 0.155261 0.728832
0.74519 0.170932 0.7561
0.747463 0.178912 0.766049
0.0226139 0.163409 0.627207
0.0223545 0.164263 0.630945
0.0229648 0.164492 0.647852
0.0950332 0.121233 0.686946
0.361364 0.0939651 0.73492
0.608591 0.117556 0.732021
0.73904 0.158328 0.740826
0.749432 0.173495 0.756176
0.75433 0.184787 0.768627
0.027924 0.233555 0.634852
0.0280156 0.238956 0.638911
0.030396 0.244297 0.653758
0.0323033 0.224781 0.672099
0.303349 0.121767 0.751125
0.63827 0.138659 0.756878
0.739178 0.160708 0.746349
0.753399 0.17644 0.757046
0.791959 0.233158 0.8038
0.0869306 0.51223 0.721294
0.0897231 0.523018 0.726543
0.0935988 0.528283 0.736416
0.0942397 0.518517 0.749722
0.336324 0.520424 0.925231
0.754482 0.432715 0.975738
0.774136 0.20705 0.78146
0.754116 0.177615 0.758007
0.848188 0.309743 0.858824
0.202029 0.750118 0.798703
0.2103 0.758724 0.804105
0.214328 0.76321 0.808789
0.21442 0.762737 0.812741
0.285206 0.77998 0.862348
0.68893 0.795941 0.986358
0.981186 0.728267 0.985336
0.975814 0.522515 0.976196
0.804517 0.250828 0.816815
0.37821 0.918334 0.893187
0.390463 0.92105 0.895705
0.39736 0.923171 0.898466
0.405936 0.925734 0.901915
0.43595 0.935088 0.913069
0.709895 0.959625 0.95346
0.926925 0.954055 0.961166
0.994217 0.941268 0.956008
0.985473 0.928267 0.96022
0.422583 0.950332 0.906508
0.439948 0.94844 0.907805
0.448356 0.949615 0.910231
0.474128 0.957275 0.919371
0.5785 0.970687 0.938445
0.750774 0.973251 0.949462
0.922347 0.980438 0.962081
0.993774 0.985168 0.964324
0.992447 0.985824 0.974029
0.545296 0.97911 0.953521
0.583932 0.973785 0.953277
0.616098 0.972549 0.954711
0.667216 0.975753 0.961028
0.732433 0.978225 0.966476
0.842054 0.978302 0.969863
0.947875 0.982925 0.975799
0.990829 0.986175 0.975753
0.989563 0.986526 0.975662
0.0263981 0.191836 0.661677
0.0255283 0.186175 0.664668
0.0241398 0.175616 0.664012
0.0665751 0.139269 0.686564
0.314961 0.0934615 0.732647
0.59762 0.117418 0.743694
0.726055 0.154223 0.745281
0.740307 0.163943 0.750286
0.7458 0.172992 0.758877
0.0259251 0.18764 0.659266
0.0255131 0.188602 0.660868
0.0246891 0.179324 0.665202
0.0636149 0.140368 0.685252
0.323583 0.0937667 0.733944
0.612894 0.121569 0.744396
0.733196 0.156756 0.74551
0.739681 0.16405 0.751064
0.743984 0.173053 0.760678
0.0273899 0.200107 0.655634
0.0267338 0.201816 0.65742
0.0294194 0.219913 0.669703
0.0259861 0.190127 0.66775
0.276936 0.103075 0.734356
0.616831 0.129351 0.751888
0.735119 0.157351 0.744884
0.742245 0.164446 0.749355
0.748394 0.177111 0.762844
0.0414893 0.306111 0.68278
0.0426184 0.315847 0.687617
0.0515297 0.353964 0.711574
0.055314 0.365805 0.724041
0.311315 0.319753 0.85977
0.630793 0.201526 0.819364
0.742382 0.165896 0.751156
0.743542 0.16492 0.748913
0.753964 0.182742 0.766064
0.104875 0.542412 0.759304
0.10808 0.55436 0.763378
0.115419 0.569894 0.773724
0.119341 0.571557 0.78555
0.293095 0.59556 0.903868
0.713436 0.535515 0.998978
0.888792 0.367453 0.897749
0.745754 0.168612 0.752392
0.767834 0.20119 0.779919
0.214557 0.761059 0.826963
0.22266 0.769848 0.830884
0.228672 0.776425 0.835462
0.230411 0.77734 0.838849
0.295811 0.792859 0.877043
0.670573 0.818463 0.989349
0.957885 0.752071 0.992508
0.995895 0.587381 0.987442
0.762493 0.194034 0.774395
0.370535 0.911574 0.909346
0.38349 0.91516 0.911162
0.390433 0.917998 0.913909
0.400336 0.921843 0.918853
0.425193 0.927413 0.930388
0.690471 0.960723 0.978698
0.913314 0.951766 0.983917
0.988952 0.934127 0.980072
0.981353 0.914305 0.976867
0.438712 0.956283 0.938399
0.453925 0.954833 0.938003
0.462852 0.955917 0.940368
0.486656 0.964401 0.95079
0.588861 0.980285 0.971405
0.759274 0.982574 0.979736
0.919509 0.983917 0.985397
0.989883 0.986465 0.988403
0.990982 0.986954 0.989593
0.543587 0.982208 0.970733
0.580423 0.977249 0.968109
0.614404 0.976501 0.968887
0.667445 0.980056 0.974502
0.729397 0.982773 0.979309
0.835325 0.982147 0.98175
0.942321 0.983825 0.985992
0.989258 0.98677 0.989837
0.993515 0.986343 0.987259
0.0285649 0.211276 0.664149
0.0278019 0.205402 0.666926
0.0267185 0.196307 0.669367
0.0304265 0.163516 0.667964
0.284657 0.0954604 0.730022
0.598627 0.122805 0.748791
0.728313 0.153109 0.742962
0.73785 0.160845 0.74789
0.742885 0.169116 0.756069
0.0278782 0.204089 0.663096
0.0275425 0.205371 0.664439
0.0268254 0.19736 0.669108
0.0325322 0.161578 0.669306
0.298604 0.0947738 0.731517
0.616785 0.125597 0.747326
0.732616 0.1552 0.743832
0.737408 0.161013 0.748608
0.741421 0.16968 0.758236
0.030045 0.221958 0.661921
0.029572 0.225635 0.663813
0.042359 0.302937 0.698756
0.0380407 0.275349 0.69308
0.283085 0.190219 0.789075
0.593866 0.13434 0.762448
0.735759 0.157275 0.744121
0.739925 0.161456 0.747005
0.743633 0.17113 0.758358
0.0519417 0.357183 0.705715
0.0537575 0.369451 0.710933
0.0679789 0.424704 0.737758
0.0782788 0.458793 0.75433
0.30338 0.451377 0.897047
0.705943 0.359426 0.936843
0.752194 0.177829 0.760021
0.741466 0.162051 0.74638
0.7458 0.172534 0.758297
0.116732 0.57145 0.772198
0.120836 0.58468 0.776074
0.13228 0.607752 0.786816
0.140414 0.620966 0.797314
0.269596 0.661524 0.881025
0.693294 0.630274 0.998978
0.972717 0.514046 0.974304
0.741939 0.163592 0.748272
0.748302 0.175586 0.760769
0.226474 0.776349 0.838056
0.236103 0.785519 0.84126
0.244358 0.793439 0.845777
0.248417 0.79649 0.849439
0.31986 0.815549 0.886046
0.678096 0.849134 0.978378
0.945205 0.790311 0.989166
0.998886 0.658473 0.988937
0.760021 0.190799 0.771756
0.36936 0.913405 0.911421
0.38262 0.915892 0.912093
0.392676 0.919051 0.914519
0.406867 0.923491 0.919783
0.444572 0.933227 0.934768
0.720913 0.962264 0.97763
0.913924 0.956268 0.983978
0.98909 0.940673 0.981613
0.981857 0.92256 0.977874
0.452003 0.958968 0.944427
0.468345 0.958602 0.944427
0.48954 0.961532 0.948287
0.529854 0.968612 0.957336
0.625162 0.97641 0.969268
0.7785 0.979919 0.978363
0.921096 0.983673 0.986633
0.989197 0.986633 0.988815
0.991562 0.986831 0.989075
0.535958 0.983627 0.971817
0.57908 0.977478 0.968277
0.61767 0.976242 0.968795
0.677272 0.977996 0.972992
0.745571 0.979019 0.976364
0.845014 0.980041 0.980835
0.941695 0.983871 0.987442
0.986465 0.986938 0.991562
0.995163 0.985962 0.985672
