bundles/resolve-cinematic-luts/Phantom Luts/A7s3 Phntm Arri LUTs G7/SLog3/Neutral A7s3-Legacy.cube
TITLE "Generated by Resolve"
LUT_3D_SIZE 33
0.0323186 0.0320439 0.0319982
0.0323186 0.0320439 0.0319982
0.0323186 0.0320439 0.0319982
0.0323339 0.0321813 0.0319677
0.040589 0.0324559 0.03299
0.0509346 0.0326085 0.0339055
0.0700084 0.0329137 0.0351568
0.0942702 0.032578 0.0379034
0.118074 0.0315862 0.0417334
0.145678 0.0308537 0.047303
0.177401 0.0318608 0.0542763
0.213993 0.033051 0.0623484
0.25272 0.0344396 0.0684672
0.299962 0.0352941 0.0799268
0.351827 0.0350805 0.0973831
0.405142 0.0352789 0.114794
0.462669 0.035462 0.134371
0.523873 0.0355993 0.156405
0.588907 0.0354467 0.181369
0.660563 0.035111 0.210437
0.740566 0.0345922 0.245289
0.8309 0.0336461 0.285298
0.918563 0.0317235 0.328954
0.969482 0.0307164 0.37055
0.972503 0.0334173 0.406455
0.975937 0.0418402 0.444007
0.978653 0.0581826 0.482246
0.981079 0.0666972 0.523171
0.982971 0.0706951 0.561349
0.984329 0.0745251 0.595254
0.987213 0.0903487 0.630472
0.990936 0.117586 0.667872
0.993667 0.144869 0.700832
0.0323186 0.0320439 0.0319982
0.0323186 0.0320439 0.0319982
0.0323186 0.0320439 0.0319982
0.0323033 0.0321813 0.0319677
0.0396277 0.0324407 0.0328527
0.0499733 0.0325933 0.0337835
0.0685435 0.0329137 0.0349889
0.0930343 0.0326238 0.0376745
0.117128 0.0316167 0.0414588
0.145083 0.0308385 0.0471199
0.177401 0.0318608 0.0542763
0.213993 0.033051 0.0623484
0.25272 0.0344396 0.0684672
0.299962 0.0352941 0.0799268
0.351827 0.0350805 0.0973831
0.405142 0.0352789 0.114794
0.462669 0.035462 0.134371
0.523323 0.0355993 0.156146
0.586999 0.0354925 0.180255
0.656931 0.035172 0.208499
0.735286 0.0346532 0.242603
0.824491 0.033814 0.281712
0.911742 0.0319829 0.324422
0.969162 0.0306859 0.366018
0.972137 0.0328527 0.400549
0.975372 0.0397955 0.436912
0.978134 0.0543984 0.474022
0.980453 0.0657054 0.512261
0.982559 0.0695201 0.549905
0.983886 0.0732128 0.58233
0.984955 0.0765087 0.61059
0.988846 0.100267 0.644831
0.991531 0.12285 0.675029
0.0323186 0.0320439 0.0319982
0.0323186 0.0320439 0.0319982
0.0323186 0.0320439 0.0319982
0.0322881 0.0320897 0.0319677
0.0369726 0.0323644 0.0323491
0.0456703 0.0325017 0.0330663
0.059617 0.0328222 0.034165
0.0841077 0.0328985 0.0361486
0.109987 0.0319524 0.0396887
0.137591 0.0308232 0.0449531
0.170153 0.0316167 0.0521553
0.208377 0.0328985 0.0606394
0.248966 0.0343481 0.0673075
0.297246 0.0353094 0.0786908
0.350271 0.035111 0.0965744
0.402701 0.0353246 0.113619
0.459068 0.0354772 0.132876
0.519219 0.0356603 0.154116
0.583093 0.0356603 0.178073
0.652308 0.0352789 0.206073
0.729915 0.0347448 0.239826
0.818662 0.0339513 0.278889
0.905638 0.032166 0.320699
0.968811 0.0306554 0.362585
0.97203 0.0325017 0.39675
0.975341 0.0386969 0.432349
0.978027 0.0519112 0.468727
0.980362 0.065095 0.504891
0.98233 0.0687419 0.541283
0.983505 0.0721294 0.572992
0.984527 0.0752117 0.600549
0.986923 0.0896162 0.628382
0.989837 0.109667 0.656687
0.0322271 0.0324254 0.0320439
0.0322423 0.0324102 0.0320439
0.0323491 0.0323491 0.0319982
0.0323949 0.0323949 0.0320287
0.0350347 0.0329137 0.0322423
0.0413672 0.0329595 0.0326238
0.0518196 0.0328985 0.0330816
0.0763256 0.0332036 0.0344396
0.102998 0.0323796 0.0380865
0.130953 0.0310063 0.0429084
0.164263 0.0314183 0.0500496
0.202899 0.0327306 0.0587778
0.246052 0.0340887 0.0684672
0.292302 0.0353857 0.0766003
0.345754 0.035172 0.0940414
0.39852 0.0353704 0.111498
0.455039 0.0355383 0.130831
0.515404 0.0357519 0.151949
0.579187 0.0357977 0.175509
0.648081 0.0353704 0.203693
0.725063 0.0348516 0.237171
0.812833 0.0340887 0.275563
0.899214 0.0323796 0.31693
0.96849 0.0307164 0.35874
0.971664 0.0321813 0.392706
0.974899 0.0375677 0.427634
0.977737 0.0494392 0.463111
0.979904 0.0643626 0.497276
0.981735 0.0679179 0.533089
0.983108 0.0711223 0.564095
0.984329 0.0741894 0.590936
0.98529 0.0782177 0.613672
0.988342 0.0971084 0.640223
0.0328222 0.0422065 0.0340734
0.0328832 0.0418708 0.033753
0.0334783 0.0408789 0.0328222
0.0357214 0.0403906 0.0330053
0.0403906 0.0412299 0.0331121
0.0468757 0.0407263 0.0336156
0.0546578 0.0412146 0.033463
0.0760967 0.0392004 0.034287
0.105348 0.0356146 0.0355077
0.133501 0.0318914 0.0390326
0.16466 0.0310826 0.0449226
0.200946 0.0318608 0.0525673
0.247318 0.0344244 0.0639048
0.296407 0.0355688 0.0753643
0.349599 0.0354314 0.0925765
0.398672 0.0361181 0.104997
0.455497 0.0363317 0.125078
0.515755 0.0364538 0.146792
0.579538 0.0363928 0.171237
0.648371 0.0360113 0.199329
0.725643 0.0355077 0.232944
0.813611 0.0346685 0.27155
0.90016 0.0329137 0.312856
0.968215 0.0310826 0.355047
0.971466 0.0322271 0.389319
0.974716 0.0372625 0.424735
0.977661 0.0485847 0.460609
0.979843 0.0643778 0.495109
0.981689 0.0679637 0.53109
0.983093 0.0711681 0.562539
0.984344 0.0742504 0.5897
0.985534 0.0789807 0.613214
0.988434 0.0978408 0.639857
0.0330358 0.0540475 0.0356298
0.0331121 0.0536965 0.0353552
0.0334783 0.0518654 0.0335241
0.036286 0.0502174 0.0334478
0.0424811 0.051545 0.0339208
0.0496376 0.0515145 0.0337377
0.0635233 0.0504005 0.0348211
0.0803082 0.0492561 0.0357366
0.103456 0.045594 0.036347
0.131746 0.0393072 0.0366217
0.167422 0.0341192 0.0412299
0.20473 0.0328832 0.0499733
0.244312 0.0315099 0.0575113
0.292683 0.0331426 0.067689
0.350545 0.0357671 0.0862745
0.403525 0.0363165 0.10428
0.455512 0.0370184 0.119402
0.515953 0.0370489 0.14226
0.579843 0.0370184 0.166796
0.6486 0.0366522 0.194888
0.726238 0.0361944 0.228534
0.814496 0.0353094 0.26714
0.900923 0.033463 0.308751
0.967971 0.0314946 0.351186
0.971237 0.0322881 0.385733
0.974548 0.0370031 0.421958
0.977554 0.047837 0.458335
0.979782 0.06392 0.492927
0.981643 0.0679789 0.529046
0.983078 0.0711986 0.560937
0.98436 0.0742962 0.588434
0.985611 0.0797131 0.612558
0.988525 0.0985885 0.639445
0.0324865 0.0740978 0.0371405
0.0325628 0.0736553 0.036759
0.0331426 0.0713664 0.0344091
0.0351263 0.0688792 0.0332952
0.0426642 0.0696727 0.0332952
0.0502174 0.0707408 0.0332494
0.0657054 0.0697795 0.0335088
0.0882734 0.0671855 0.0354314
0.113695 0.0615244 0.0386358
0.134478 0.0564584 0.0391852
0.164797 0.0477455 0.0391852
0.203784 0.036759 0.0417029
0.248631 0.034287 0.0533913
0.295399 0.0307927 0.06215
0.343771 0.0293126 0.0726635
0.401465 0.0347448 0.0941939
0.461616 0.0373999 0.117815
0.515892 0.0379797 0.135103
0.579812 0.0378576 0.160586
0.64889 0.0375372 0.188556
0.726741 0.0371557 0.221958
0.81532 0.0361639 0.261311
0.901884 0.034165 0.30367
0.967666 0.0320134 0.346685
0.970977 0.0324559 0.38175
0.974304 0.0366674 0.418158
0.977447 0.0467994 0.454841
0.979721 0.0628519 0.490105
0.981582 0.0680247 0.526467
0.983032 0.0712596 0.558907
0.984375 0.0743725 0.586892
0.985565 0.0807813 0.611582
0.988663 0.0996872 0.638911
0.0311742 0.0983444 0.0389868
0.031281 0.0980087 0.0385443
0.0318608 0.0959487 0.0352941
0.0325322 0.0941176 0.0326848
0.0389563 0.0943313 0.0322576
0.0489204 0.0942397 0.0324254
0.0639963 0.0940871 0.031342
0.0865492 0.0927138 0.0321355
0.113375 0.0902113 0.0330205
0.149218 0.0782483 0.0409094
0.175158 0.0700084 0.0428016
0.207263 0.0623178 0.0429236
0.246891 0.0501106 0.0444038
0.295872 0.0345464 0.048249
0.351308 0.0289616 0.0632486
0.39826 0.0240482 0.0759136
0.455497 0.0316472 0.10161
0.522744 0.0386511 0.131319
0.579477 0.0389868 0.151583
0.649073 0.0386511 0.180911
0.727138 0.0382849 0.214145
0.81619 0.0372625 0.25388
0.903136 0.0351568 0.296849
0.967193 0.0328222 0.340215
0.970642 0.0327916 0.376394
0.973983 0.0362707 0.412909
0.977234 0.0455482 0.45005
0.979599 0.061387 0.486213
0.981491 0.0680552 0.523476
0.982986 0.0713207 0.556268
0.98436 0.074464 0.58468
0.985763 0.0824292 0.610483
0.988754 0.101061 0.6383
0.0289921 0.123934 0.0412604
0.0291905 0.123674 0.0408484
0.0299992 0.121813 0.0372778
0.0306706 0.11989 0.0334173
0.0332799 0.119783 0.030518
0.0418402 0.120455 0.0305638
0.0577096 0.120012 0.0311437
0.0813611 0.119356 0.0293278
0.109545 0.116594 0.0301213
0.142077 0.114534 0.0304723
0.191623 0.0986648 0.0433661
0.231586 0.0823987 0.047303
0.259709 0.0754559 0.046952
0.30193 0.0614328 0.0453346
0.350164 0.0416419 0.0448615
0.403235 0.026215 0.0551919
0.459266 0.0206302 0.0805982
0.513558 0.0269932 0.108568
0.586786 0.0388495 0.144701
0.648463 0.040116 0.169619
0.727077 0.0398413 0.203113
0.816892 0.0387884 0.243763
0.904646 0.0365301 0.287663
0.966598 0.0340124 0.331289
0.970169 0.0333562 0.368551
0.973617 0.0361181 0.406195
0.976959 0.0440223 0.443763
0.979492 0.0594797 0.481102
0.981384 0.0681468 0.518456
0.982925 0.0714275 0.552499
0.984314 0.0745708 0.581872
0.986145 0.0845197 0.609339
0.988922 0.10309 0.637369
0.0234379 0.153704 0.04448
0.0236057 0.153582 0.0442512
0.0253147 0.151705 0.0407721
0.0270695 0.149844 0.0355383
0.0288243 0.150454 0.0308995
0.0333715 0.149828 0.0272526
0.0450446 0.150896 0.0281529
0.0752117 0.149371 0.0293889
0.101381 0.148928 0.0271916
0.13521 0.144961 0.0291142
0.177646 0.14284 0.0287022
0.2421 0.12076 0.0467994
0.29247 0.100984 0.0521706
0.32845 0.0915236 0.0513924
0.367834 0.0764782 0.0489357
0.413443 0.0549172 0.0490425
0.462867 0.0292515 0.0508888
0.516014 0.0176089 0.0757916
0.575326 0.021561 0.115953
0.650065 0.0349584 0.154726
0.734035 0.0407263 0.197742
0.817151 0.0409247 0.229267
0.90602 0.0386969 0.274083
0.965667 0.0358434 0.318166
0.969451 0.0344244 0.356939
0.973114 0.0360876 0.396704
0.976623 0.042649 0.435935
0.979278 0.0569162 0.473915
0.981247 0.0682231 0.511925
0.982849 0.0715343 0.547921
0.984283 0.0747234 0.578271
0.986465 0.0870222 0.60766
0.989273 0.10576 0.636133
0.0177005 0.190341 0.0504768
0.0177005 0.190341 0.0504768
0.0192569 0.188525 0.0459449
0.0210575 0.186618 0.0410315
0.0225528 0.187442 0.0352941
0.0247501 0.187442 0.0287633
0.0340124 0.186877 0.0220035
0.0552987 0.188098 0.0239109
0.093904 0.187259 0.0268711
0.126009 0.186481 0.0256809
0.169085 0.181964 0.0291752
0.222263 0.17998 0.027985
0.300877 0.153658 0.0523384
0.363622 0.127764 0.0621042
0.410315 0.114061 0.0632639
0.443992 0.102983 0.0617075
0.488243 0.0787976 0.0610056
0.535622 0.047364 0.0606699
0.581491 0.0206149 0.0753643
0.631693 0.00944533 0.111009
0.724651 0.0293584 0.166217
0.826383 0.0424506 0.220096
0.907073 0.041474 0.255879
0.964691 0.0384527 0.301274
0.968399 0.0363165 0.341009
0.972351 0.0364538 0.383917
0.976104 0.0414588 0.425681
0.979019 0.0540475 0.465339
0.981079 0.0683146 0.50312
0.982712 0.0716869 0.540978
0.984192 0.0749218 0.572915
0.986786 0.0903944 0.604685
0.989517 0.109102 0.634211
0.013138 0.233066 0.0599527
0.013138 0.233066 0.0599527
0.0145418 0.231769 0.0557259
0.0164034 0.230335 0.0500801
0.0180056 0.230854 0.0434272
0.0197604 0.231632 0.0373846
0.0225681 0.231235 0.0265049
0.037995 0.231113 0.0183413
0.0723735 0.233097 0.0218051
0.11577 0.233783 0.0261845
0.158221 0.233555 0.0257115
0.214679 0.22974 0.0306859
0.278157 0.229572 0.0273442
0.367742 0.204669 0.0605936
0.442741 0.170962 0.0791943
0.497642 0.155962 0.0818494
0.541405 0.142382 0.084123
0.579812 0.122591 0.0841077
0.622232 0.0821393 0.0804761
0.661234 0.0321202 0.0852522
0.690486 0.00743114 0.115328
0.81181 0.0198062 0.177203
0.916701 0.0436255 0.242084
0.962921 0.0422217 0.276707
0.966842 0.0393683 0.318334
0.971176 0.0376898 0.365454
0.97528 0.0405432 0.410758
0.978698 0.0504311 0.453407
0.980941 0.0674296 0.492485
0.982559 0.0719005 0.531624
0.984085 0.0751965 0.56556
0.987274 0.0941024 0.600961
0.990005 0.113024 0.631952
0.0116274 0.285313 0.0732586
0.0116274 0.285313 0.0732586
0.012726 0.284337 0.0701457
0.0142977 0.283146 0.0649577
0.0168002 0.283604 0.0571298
0.0187991 0.284871 0.0514992
0.0212253 0.285374 0.0426032
0.0254978 0.284672 0.0264134
0.0460822 0.286351 0.0198825
0.0941176 0.28983 0.0251011
0.145006 0.29276 0.0308995
0.201907 0.292866 0.0276799
0.272236 0.289921 0.0355993
0.344869 0.291173 0.0268711
0.435843 0.27155 0.0673075
0.522255 0.238331 0.0965286
0.588815 0.21146 0.104952
0.644358 0.19118 0.106264
0.68397 0.170825 0.106325
0.726116 0.130404 0.10605
0.762768 0.0612955 0.105684
0.778943 0.0143435 0.130343
0.891875 0.00773632 0.183856
0.960723 0.0456245 0.252979
0.964904 0.0442512 0.285771
0.969329 0.0407568 0.33695
0.973922 0.040528 0.388647
0.978027 0.0468605 0.436027
0.980682 0.0628214 0.479225
0.982391 0.0723125 0.519661
0.984268 0.0784619 0.556893
0.987778 0.0984817 0.59556
0.990402 0.118135 0.628443
0.0146944 0.348119 0.0923323
0.0146944 0.348119 0.0923323
0.0155642 0.347524 0.090135
0.0172427 0.346578 0.0850996
0.0199283 0.347295 0.0779278
0.0225681 0.348043 0.0713817
0.0253758 0.350118 0.0651865
0.0297856 0.350683 0.0502022
0.0335546 0.350057 0.0334936
0.0607767 0.352972 0.0305333
0.122011 0.356405 0.0335088
0.18526 0.358785 0.0351568
0.253925 0.359136 0.0318303
0.338155 0.357198 0.0413062
0.414206 0.361379 0.021912
0.501472 0.349859 0.0703746
0.600732 0.319142 0.111406
0.68101 0.281895 0.132296
0.747951 0.254337 0.132479
0.809201 0.222797 0.131746
0.85008 0.182864 0.130556
0.88397 0.112016 0.129473
0.888075 0.0247807 0.151049
0.950652 0.000717174 0.179706
0.961929 0.0492714 0.251347
0.966705 0.0468452 0.294484
0.972122 0.0429694 0.354742
0.976684 0.0446632 0.410803
0.980224 0.056672 0.460151
0.982132 0.0729381 0.502983
0.985397 0.0872206 0.548562
0.988571 0.105837 0.588388
0.991028 0.124483 0.623011
0.0219883 0.414984 0.114855
0.0219883 0.414984 0.114855
0.0225681 0.414633 0.113466
0.0242618 0.413779 0.109651
0.0270085 0.414633 0.104082
0.029633 0.415259 0.0975204
0.0309606 0.416358 0.0910658
0.0327153 0.418997 0.0814832
0.0359655 0.419959 0.0619974
0.045594 0.420661 0.0417639
0.0826429 0.4224 0.036408
0.159991 0.425498 0.0417639
0.238743 0.427115 0.0425879
0.31577 0.430533 0.0391852
0.407523 0.428809 0.0521248
0.486961 0.435554 0.0141146
0.57023 0.427817 0.0719921
0.680598 0.398184 0.125277
0.77171 0.363104 0.152102
0.857389 0.322576 0.161791
0.925612 0.286122 0.158801
0.975769 0.238361 0.156405
0.985031 0.173236 0.149935
0.98378 0.0413062 0.15668
0.980224 0.0135348 0.176944
0.963424 0.0396429 0.238575
0.968338 0.049958 0.299916
0.974502 0.045594 0.370871
0.979385 0.050248 0.430518
0.983566 0.0749523 0.484062
0.986725 0.097322 0.535927
0.989456 0.115877 0.580133
0.991867 0.134066 0.617609
0.0306096 0.486549 0.143374
0.0306096 0.486549 0.143374
0.0309758 0.486 0.141085
0.0317082 0.485267 0.136812
0.0326696 0.485863 0.131365
0.0338903 0.486381 0.125856
0.0357214 0.487114 0.119203
0.0381476 0.489204 0.111376
0.0415656 0.491829 0.0976883
0.0464027 0.493614 0.0722972
0.0691997 0.495445 0.0491646
0.120821 0.495628 0.0436866
0.218463 0.498161 0.0517586
0.310246 0.498726 0.0469978
0.385397 0.505791 0.0548409
0.480323 0.503502 0.0696117
0.560998 0.512535 0.00764477
0.643168 0.504204 0.0780804
0.760662 0.477348 0.141268
0.862013 0.443168 0.172839
0.950729 0.393927 0.191867
1 0.356512 0.184649
1 0.310399 0.175113
1 0.249195 0.163516
1 0.111254 0.148058
0.988998 0.0292058 0.168246
0.971633 0.0376135 0.225345
0.974609 0.0637827 0.30898
0.98143 0.0621042 0.390677
0.985473 0.082063 0.458289
0.988067 0.111482 0.515343
0.990723 0.127672 0.567529
0.992828 0.147967 0.609873
0.0368505 0.561044 0.179446
0.0368505 0.561044 0.179446
0.0375525 0.560128 0.175662
0.0383764 0.559274 0.171237
0.039765 0.559838 0.166201
0.0410468 0.560357 0.160952
0.0427405 0.560891 0.153918
0.0451514 0.56202 0.144579
0.0484016 0.56495 0.135058
0.0542153 0.566903 0.115404
0.0637675 0.569055 0.0821088
0.102586 0.571252 0.0599069
0.179324 0.571603 0.0564126
0.291005 0.572656 0.0655985
0.384176 0.574533 0.0544442
0.458701 0.583078 0.0776532
0.553628 0.579263 0.0927291
0.634028 0.587427 0.0181888
0.717266 0.580255 0.0882429
0.837858 0.55639 0.158221
0.932647 0.526223 0.188968
1 0.487282 0.204532
1 0.44123 0.204791
1 0.389563 0.195209
1 0.324376 0.178271
1 0.209918 0.157763
0.997986 0.0532692 0.148272
0.985504 0.044358 0.204211
0.980117 0.0716411 0.34081
0.986969 0.0953994 0.411856
0.989609 0.121904 0.484932
0.99176 0.146136 0.546487
0.993667 0.164248 0.597269
0.0442664 0.636637 0.219226
0.044358 0.636484 0.218647
0.0452888 0.63537 0.214237
0.0462043 0.634409 0.210315
0.0476844 0.634821 0.205692
0.0492103 0.635264 0.201129
0.0513924 0.635782 0.19498
0.0552834 0.636423 0.185061
0.0600137 0.638071 0.172885
0.0654765 0.641276 0.159289
0.0742809 0.643503 0.131014
0.0865339 0.645731 0.0874647
0.145205 0.647623 0.0716106
0.261158 0.647913 0.0781567
0.378851 0.648692 0.080827
0.455314 0.654887 0.0714275
0.534417 0.661936 0.101701
0.625574 0.655741 0.119722
0.706569 0.661692 0.044892
0.791058 0.655894 0.102037
0.895613 0.636912 0.170352
0.975357 0.610895 0.196338
1 0.584466 0.198123
1 0.545098 0.197314
1 0.488075 0.202533
1 0.404273 0.199664
1 0.304768 0.173983
1 0.133516 0.149767
1 0.0829328 0.151217
0.98584 0.107942 0.34168
0.991028 0.141558 0.429465
0.99292 0.167651 0.510613
0.994736 0.18854 0.575586
0.0551766 0.714992 0.259586
0.0557259 0.714412 0.257725
0.057023 0.713344 0.253819
0.0582742 0.712383 0.25037
0.059968 0.712474 0.246235
0.0617685 0.712703 0.242481
0.0642405 0.713146 0.237049
0.0679179 0.713664 0.228519
0.0728923 0.714473 0.215686
0.0794385 0.716747 0.200778
0.0873579 0.719799 0.183139
0.0977798 0.722042 0.143252
0.12961 0.724346 0.101808
0.219318 0.72285 0.0896315
0.353704 0.726238 0.103685
0.466133 0.726833 0.0956283
0.527581 0.736675 0.0954604
0.60766 0.741421 0.128908
0.695628 0.731823 0.151675
0.777966 0.735622 0.0859541
0.85594 0.730785 0.118059
0.935897 0.715984 0.175845
0.981109 0.698833 0.189563
0.985428 0.675669 0.177996
0.991882 0.639109 0.177966
1 0.586862 0.190692
1 0.509911 0.200992
1 0.393393 0.196338
1 0.218036 0.158816
1 0.210086 0.157794
0.989853 0.166461 0.326482
0.994247 0.194614 0.446082
0.995972 0.220066 0.535882
0.0682383 0.797238 0.300206
0.0691997 0.796139 0.297429
0.0704356 0.794797 0.293843
0.0716106 0.793469 0.29073
0.0732891 0.793667 0.287419
0.0755322 0.79379 0.283955
0.0783398 0.794095 0.279118
0.0826581 0.794507 0.271061
0.0876631 0.795117 0.25861
0.0935531 0.796201 0.242542
0.101045 0.798459 0.226947
0.110414 0.801846 0.198367
0.122621 0.804181 0.144701
0.187564 0.804959 0.114534
0.321599 0.804944 0.120912
0.450111 0.807095 0.127016
0.54229 0.809857 0.116274
0.599069 0.819089 0.125002
0.679362 0.821576 0.158892
0.766583 0.811429 0.182055
0.843153 0.810361 0.138216
0.910658 0.807874 0.130755
0.968002 0.792889 0.176318
0.977295 0.778866 0.167239
0.976394 0.758404 0.143984
0.976013 0.727306 0.141878
0.984802 0.678752 0.164401
0.996963 0.608591 0.186023
1 0.497124 0.201923
1 0.29807 0.172549
1 0.292653 0.171481
1 0.207416 0.296345
0.996185 0.227222 0.502205
0.083299 0.873716 0.33843
0.0845502 0.872496 0.33463
0.0856794 0.871183 0.33164
0.0867475 0.8701 0.328435
0.088426 0.87013 0.325322
0.0901198 0.870176 0.322179
0.0928817 0.870359 0.317571
0.0967269 0.870649 0.310536
0.101854 0.871031 0.300343
0.108049 0.871214 0.28542
0.115343 0.872267 0.265995
0.123201 0.874998 0.244755
0.136355 0.877729 0.206043
0.166857 0.878981 0.145556
0.281041 0.876234 0.135698
0.42295 0.878111 0.152239
0.538735 0.877684 0.150774
0.611658 0.882048 0.143389
0.664973 0.889708 0.160052
0.748943 0.891585 0.190021
0.833585 0.88101 0.214374
0.898848 0.877821 0.189181
0.953994 0.87892 0.153155
0.984466 0.866682 0.170428
0.982818 0.853788 0.144289
0.980591 0.836225 0.0894636
0.978408 0.804486 0.0872358
0.976852 0.760403 0.120684
0.981201 0.698039 0.15639
0.99939 0.593072 0.189471
1 0.376577 0.191485
1 0.372091 0.190265
1 0.276188 0.285054
0.0974746 0.937499 0.370413
0.0992447 0.936431 0.366613
0.100633 0.935485 0.36321
0.102083 0.934447 0.360342
0.104021 0.934401 0.357366
0.10573 0.934462 0.354772
0.108049 0.934447 0.351125
0.111101 0.934539 0.346014
0.115236 0.934676 0.338231
0.121004 0.935058 0.325963
0.130068 0.935531 0.306279
0.139574 0.936187 0.282277
0.148959 0.938323 0.256092
0.164889 0.940291 0.200275
0.233631 0.938933 0.156817
0.393225 0.936797 0.174334
0.514244 0.93521 0.183642
0.617365 0.932418 0.174517
0.671199 0.939239 0.177676
0.72697 0.947143 0.199008
0.816373 0.948165 0.223194
0.890059 0.93814 0.24625
0.943114 0.934371 0.235599
0.981781 0.934173 0.210651
0.989837 0.926589 0.189029
0.988968 0.918288 0.146593
0.987747 0.908064 0.0420386
0.984558 0.878431 0.0207218
0.980606 0.838193 0.0513008
0.977371 0.776822 0.107729
0.984237 0.681773 0.163256
1 0.476036 0.203342
1 0.46392 0.203906
0.111849 0.982956 0.398993
0.113313 0.9823 0.395743
0.114656 0.981689 0.392645
0.116045 0.981125 0.389242
0.117784 0.981018 0.386709
0.119722 0.981018 0.384146
0.12224 0.980987 0.380896
0.125734 0.980926 0.376303
0.130373 0.980911 0.369512
0.135851 0.980987 0.359487
0.143099 0.981109 0.344884
0.152529 0.981369 0.322393
0.165499 0.981826 0.291295
0.177127 0.982895 0.257603
0.20412 0.983444 0.189609
0.348516 0.980224 0.194034
0.487663 0.974777 0.210147
0.595026 0.970077 0.211917
0.674159 0.970306 0.204166
0.724697 0.977539 0.215518
0.784085 0.985122 0.241138
0.873945 0.984848 0.258335
0.932631 0.974411 0.281331
0.974823 0.973617 0.272892
0.993179 0.972686 0.262852
0.992752 0.967117 0.247211
0.991958 0.962417 0.21149
0.990738 0.958282 0.14168
0.989075 0.936477 0.0775921
0.987457 0.907103 0.00315862
0.981811 0.851957 0.0365606
0.976867 0.759518 0.119554
1 0.57174 0.193469
0.124071 0.996216 0.421424
0.12578 0.996216 0.418494
0.127672 0.996216 0.415656
0.12958 0.996216 0.412497
0.131426 0.996216 0.409888
0.13312 0.996216 0.40766
0.135271 0.996216 0.404639
0.138048 0.996216 0.400854
0.141726 0.996216 0.395438
0.14667 0.996201 0.38761
0.153231 0.996201 0.375662
0.163714 0.996201 0.356817
0.175647 0.996201 0.328847
0.188144 0.996216 0.289616
0.201022 0.996246 0.244312
0.282353 0.996078 0.212543
0.448661 0.987137 0.231693
0.568383 0.979187 0.23682
0.658869 0.974517 0.231083
0.715801 0.978912 0.237263
0.766979 0.984497 0.254994
0.839643 0.988312 0.269993
0.91693 0.989776 0.28603
0.964935 0.98381 0.302068
0.992905 0.986023 0.302754
0.99443 0.98616 0.302693
0.994125 0.986053 0.291234
0.993362 0.985809 0.261982
0.992187 0.985458 0.211124
0.991379 0.975265 0.174884
0.99028 0.954421 0.118502
0.987854 0.915587 0.0203403
0.980011 0.830716 0.0562295
0.13666 0.99617 0.441169
0.13785 0.99617 0.438315
0.138979 0.99617 0.43537
0.140246 0.99617 0.432517
0.141985 0.99617 0.429999
0.143648 0.99617 0.427482
0.145556 0.99617 0.424659
0.148409 0.99617 0.4206
0.151812 0.99617 0.415732
0.157137 0.996155 0.409064
0.164645 0.996155 0.399786
0.173129 0.996155 0.385428
0.18349 0.996155 0.361913
0.19617 0.996155 0.326894
0.211917 0.99617 0.278004
0.243183 0.996155 0.235691
0.394934 0.991348 0.251652
0.530861 0.982834 0.26247
0.636744 0.976226 0.259632
0.699825 0.977813 0.257069
0.753979 0.983627 0.269764
0.814542 0.988403 0.284932
0.882856 0.989609 0.292363
0.941726 0.983825 0.315694
0.98381 0.985367 0.314214
0.994965 0.986343 0.321111
0.994934 0.986328 0.319692
0.994675 0.986236 0.311284
0.993896 0.985977 0.282826
0.992874 0.985656 0.241703
0.992493 0.98555 0.22504
0.991882 0.984543 0.197406
0.99057 0.958221 0.129366
0.153872 0.996109 0.460853
0.15494 0.996109 0.458396
0.155993 0.996109 0.455879
0.156954 0.996109 0.453086
0.158877 0.996109 0.450919
0.160754 0.996109 0.448951
0.163073 0.996109 0.446235
0.166018 0.996094 0.442557
0.169665 0.996094 0.437873
0.173785 0.996094 0.431861
0.179049 0.996094 0.423651
0.186114 0.996078 0.411719
0.195178 0.996078 0.394217
0.208148 0.996078 0.366125
0.222858 0.996094 0.321965
0.259159 0.996063 0.279301
0.335546 0.995682 0.277546
0.48603 0.987137 0.290745
0.601816 0.97995 0.293309
0.683986 0.97789 0.288396
0.73724 0.982818 0.29572
0.797406 0.98851 0.309697
0.861631 0.990158 0.312535
0.919966 0.991058 0.318578
0.966522 0.984558 0.331868
0.995377 0.986465 0.334493
0.995651 0.986557 0.343252
0.995529 0.986526 0.339361
0.995102 0.986389 0.32575
0.994263 0.986099 0.296422
0.993317 0.985794 0.260471
0.993027 0.985702 0.248585
0.992691 0.985611 0.234333
0.175433 0.996033 0.480659
0.175937 0.996033 0.478019
0.176455 0.996033 0.475288
0.177035 0.996033 0.472663
0.178302 0.996033 0.471031
0.179706 0.996033 0.469139
0.18146 0.996033 0.466712
0.18381 0.996033 0.4636
0.186664 0.996033 0.45922
0.190433 0.996017 0.453758
0.195148 0.996017 0.446784
0.202106 0.996017 0.437339
0.210803 0.996002 0.423026
0.221256 0.996002 0.401495
0.239796 0.995987 0.372412
