bundles/resolve-cinematic-luts/Phantom Luts/A7s3 Phntm Arri LUTs G7/SLog3/Neutral A7s3-Legacy.cube
TITLE "Generated by Resolve"
LUT_3D_SIZE 5
0.0323186 0.0320439 0.0319982
0.118074 0.0315862 0.0417334
0.462669 0.035462 0.134371
0.972503 0.0334173 0.406455
0.993667 0.144869 0.700832
0.0289921 0.123934 0.0412604
0.109545 0.116594 0.0301213
0.459266 0.0206302 0.0805982
0.970169 0.0333562 0.368551
0.988922 0.10309 0.637369
0.0368505 0.561044 0.179446
0.0484016 0.56495 0.135058
0.553628 0.579263 0.0927291
1 0.324376 0.178271
0.993667 0.164248 0.597269
0.13666 0.99617 0.441169
0.151812 0.99617 0.415732
0.394934 0.991348 0.251652
0.98381 0.985367 0.314214
0.99057 0.958221 0.129366
0.527687 0.9944 0.698283
0.498512 0.994568 0.670878
0.607614 0.994186 0.700252
0.912261 0.990631 0.755001
0.998703 0.985504 0.778195
0.0335546 0.0323796 0.0969863
0.11664 0.032639 0.10277
0.467445 0.0297704 0.184421
0.975082 0.0380865 0.441733
0.994644 0.156634 0.722622
0.0303197 0.113817 0.104967
0.108171 0.107164 0.107973
0.466651 0.0355383 0.135729
0.973571 0.0348058 0.413367
0.996643 0.197269 0.756573
0.0322728 0.554665 0.224704
0.0416876 0.552789 0.180163
0.538079 0.562936 0.0997177
1 0.288243 0.170626
0.996429 0.239048 0.72903
0.138842 0.996139 0.466087
0.148409 0.996139 0.444007
0.316396 0.995926 0.261601
0.983459 0.985336 0.314366
0.988937 0.934707 0.0696117
0.541909 0.994003 0.713573
0.540658 0.994324 0.707164
0.623255 0.994125 0.723064
0.908614 0.990784 0.75816
0.998688 0.985504 0.778347
0.0486458 0.0402838 0.391775
0.145022 0.0266728 0.415656
0.480491 0.0323796 0.437186
0.979568 0.0526589 0.631937
0.995682 0.177691 0.79176
0.0222934 0.0641337 0.405005
0.0601511 0.0415045 0.450095
0.501274 0.0332036 0.455619
0.979339 0.0532082 0.615625
0.995178 0.220783 0.821271
0.045243 0.51284 0.48365
0.0513161 0.509056 0.481178
0.507515 0.507103 0.5084
0.988281 0.106401 0.449653
0.993103 0.400534 0.890822
0.155657 0.990997 0.61059
0.16585 0.991257 0.593683
0.307088 0.995621 0.496071
0.972351 0.984329 0.522698
0.987213 0.902663 0
0.538949 0.992065 0.7449
0.542458 0.992279 0.742519
0.634791 0.99382 0.769009
0.900191 0.991562 0.792065
0.998611 0.985565 0.78027
0.033402 0.0904707 0.857527
0.136034 0.0639506 0.869963
0.541375 0.0214847 0.879057
0.977951 0.0529793 0.949035
0.983658 0.0832074 0.968124
0.00428779 0.112749 0.841184
0.0235294 0.102235 0.900542
0.532158 0.0215305 0.918776
0.978302 0.0537728 0.959854
0.987549 0.117983 0.977493
0.00941482 0.482246 0.835416
0.00921645 0.474662 0.857298
0.403967 0.420752 0.97351
0.982055 0.0737926 0.962386
0.990982 0.399359 0.990967
0.153597 0.94818 0.917601
0.1617 0.947601 0.917067
0.256214 0.941207 0.911299
0.925353 0.925231 0.926146
0.994385 0.666773 0.904143
0.493828 0.990784 0.905715
0.515999 0.990829 0.905638
0.641505 0.99118 0.915633
0.891951 0.992508 0.930938
0.99176 0.990448 0.935149
0 0.188037 0.915908
0 0.160388 0.946242
0.422995 0.0346075 0.959701
0.975891 0.0463874 0.975891
0.981109 0.067628 0.981109
0 0.202136 0.907637
0 0.303807 0.946273
0.373968 0.18056 0.97705
0.979858 0.06009 0.979858
0.981674 0.0701305 0.981689
0.00952163 0.545495 0.942809
0.0080415 0.574823 0.95848
0.187518 0.618555 0.981811
0.990967 0.497353 0.990967
0.983078 0.0794995 0.983078
0.0538796 0.936263 0.987854
0.0670634 0.937423 0.987961
0.214832 0.924956 0.988434
0.893233 0.917906 0.994507
0.992111 0.704219 0.992111
0.450095 0.989502 0.989868
0.480156 0.989181 0.989624
0.623713 0.988968 0.989853
0.8851 0.991394 0.991684
0.990936 0.990936 0.990951
