bundles/resolve-cinematic-luts/Phantom Luts/A7s3 Phntm Arri LUTs G7/SLog3/Neutral A7s3-Legacy.cube
TITLE "Generated by Resolve"
LUT_3D_SIZE 9
0.0323186 0.0320439 0.0319982
0.040589 0.0324559 0.03299
0.118074 0.0315862 0.0417334
0.25272 0.0344396 0.0684672
0.462669 0.035462 0.134371
0.740566 0.0345922 0.245289
0.972503 0.0334173 0.406455
0.982971 0.0706951 0.561349
0.993667 0.144869 0.700832
0.0328222 0.0422065 0.0340734
0.0403906 0.0412299 0.0331121
0.105348 0.0356146 0.0355077
0.247318 0.0344244 0.0639048
0.455497 0.0363317 0.125078
0.725643 0.0355077 0.232944
0.971466 0.0322271 0.389319
0.981689 0.0679637 0.53109
0.988434 0.0978408 0.639857
0.0289921 0.123934 0.0412604
0.0332799 0.119783 0.030518
0.109545 0.116594 0.0301213
0.259709 0.0754559 0.046952
0.459266 0.0206302 0.0805982
0.727077 0.0398413 0.203113
0.970169 0.0333562 0.368551
0.981384 0.0681468 0.518456
0.988922 0.10309 0.637369
0.0116274 0.285313 0.0732586
0.0168002 0.283604 0.0571298
0.0460822 0.286351 0.0198825
0.272236 0.289921 0.0355993
0.588815 0.21146 0.104952
0.762768 0.0612955 0.105684
0.964904 0.0442512 0.285771
0.980682 0.0628214 0.479225
0.990402 0.118135 0.628443
0.0368505 0.561044 0.179446
0.039765 0.559838 0.166201
0.0484016 0.56495 0.135058
0.179324 0.571603 0.0564126
0.553628 0.579263 0.0927291
0.932647 0.526223 0.188968
1 0.324376 0.178271
0.980117 0.0716411 0.34081
0.993667 0.164248 0.597269
0.083299 0.873716 0.33843
0.088426 0.87013 0.325322
0.101854 0.871031 0.300343
0.136355 0.877729 0.206043
0.538735 0.877684 0.150774
0.833585 0.88101 0.214374
0.982818 0.853788 0.144289
0.981201 0.698039 0.15639
1 0.276188 0.285054
0.13666 0.99617 0.441169
0.141985 0.99617 0.429999
0.151812 0.99617 0.415732
0.18349 0.996155 0.361913
0.394934 0.991348 0.251652
0.753979 0.983627 0.269764
0.98381 0.985367 0.314214
0.993896 0.985977 0.282826
0.99057 0.958221 0.129366
0.222461 0.99585 0.519875
0.220691 0.995865 0.510552
0.226993 0.995865 0.501228
0.25626 0.995804 0.479561
0.42652 0.995224 0.474418
0.703593 0.989944 0.502678
0.930663 0.991424 0.502007
0.999573 0.984649 0.537301
0.995071 0.986374 0.324361
0.527687 0.9944 0.698283
0.491997 0.994598 0.670939
0.498512 0.994568 0.670878
0.531777 0.99443 0.678752
0.607614 0.994186 0.700252
0.741085 0.993942 0.735195
0.912261 0.990631 0.755001
0.999908 0.984619 0.746242
0.998703 0.985504 0.778195
0.0324254 0.032166 0.0380865
0.0407721 0.0324712 0.0387579
0.115328 0.0327153 0.0593729
0.249378 0.0322576 0.0876631
0.46183 0.0334936 0.149325
0.746929 0.0323491 0.266026
0.973739 0.0349584 0.421759
0.983383 0.071458 0.573602
0.994507 0.155734 0.716793
0.0327764 0.0406806 0.0394293
0.0399023 0.0394446 0.0394598
0.122454 0.0335241 0.0445258
0.253147 0.0344549 0.0685435
0.462577 0.0354772 0.13434
0.736446 0.0346532 0.243366
0.972198 0.0330358 0.402686
0.98262 0.0698558 0.553201
0.992401 0.128603 0.682841
0.0293584 0.12285 0.0619364
0.0300145 0.122194 0.041886
0.108263 0.115312 0.0311131
0.266423 0.0696117 0.0486915
0.469261 0.0255131 0.095613
0.738842 0.038819 0.214908
0.971389 0.0334783 0.382422
0.982467 0.0701152 0.542977
0.992844 0.135546 0.682902
0.0100557 0.283925 0.0909895
0.0132296 0.284321 0.0738231
0.0313115 0.284764 0.0261997
0.269917 0.287541 0.0364691
0.587701 0.20679 0.105501
0.762997 0.0439765 0.106813
0.966415 0.0420233 0.305867
0.982101 0.0710765 0.507744
0.994125 0.153567 0.682078
0.0353857 0.558755 0.193011
0.0375677 0.559915 0.179431
0.0461128 0.562188 0.145464
0.155962 0.569833 0.0562448
0.551141 0.576669 0.0938582
0.937118 0.519234 0.19382
1 0.306264 0.174289
0.985138 0.089128 0.379721
0.99649 0.202609 0.67097
0.0805829 0.870619 0.351019
0.0842145 0.872236 0.338399
0.0962692 0.87216 0.316747
0.131182 0.877394 0.23061
0.523293 0.878233 0.156039
0.833371 0.880766 0.214374
0.982437 0.849607 0.147433
0.987427 0.664378 0.169802
0.996155 0.304021 0.561547
0.137881 0.996155 0.451575
0.138231 0.99617 0.441505
0.148806 0.996155 0.426627
0.179904 0.996139 0.379126
0.362295 0.993286 0.251972
0.749706 0.983246 0.270832
0.983764 0.985367 0.31426
0.99379 0.985946 0.27921
0.989197 0.938766 0.0804456
0.225605 0.995514 0.527565
0.222904 0.99585 0.520104
0.228031 0.99585 0.511131
0.257343 0.995789 0.489036
0.421286 0.995239 0.483696
0.695903 0.990066 0.509239
0.928832 0.991379 0.505653
0.999573 0.984665 0.537163
0.995071 0.986374 0.324269
0.541985 0.994186 0.710338
0.530205 0.994385 0.700084
0.535012 0.994369 0.699596
0.556359 0.994308 0.702327
0.622126 0.994141 0.718517
0.74197 0.993957 0.743236
0.910216 0.990692 0.755383
0.999878 0.984649 0.747158
0.998703 0.985504 0.77821
0.0335546 0.0323796 0.0969863
0.0546883 0.0325017 0.0973678
0.11664 0.032639 0.10277
0.254261 0.0311894 0.135195
0.467445 0.0297704 0.184421
0.758221 0.0299229 0.299077
0.975082 0.0380865 0.441733
0.983673 0.0717784 0.584497
0.994644 0.156634 0.722622
0.0324407 0.037232 0.0818799
0.0343786 0.0328374 0.100862
0.118349 0.0328069 0.104173
0.253635 0.0311437 0.11754
0.46244 0.0311131 0.167941
0.744213 0.0314031 0.274556
0.973541 0.034699 0.423606
0.982956 0.070161 0.565698
0.992325 0.129458 0.689219
0.0303197 0.113817 0.104967
0.0310521 0.113207 0.104524
0.108171 0.107164 0.107973
0.292851 0.0691234 0.110033
0.466651 0.0355383 0.135729
0.750301 0.0348516 0.248814
0.973571 0.0348058 0.413367
0.983871 0.0732738 0.580804
0.996643 0.197269 0.756573
0.0103609 0.280613 0.131289
0.0124666 0.280171 0.118196
0.0297704 0.276692 0.0800336
0.265187 0.281758 0.0631113
0.547494 0.201266 0.117662
0.803586 0.0352941 0.159945
0.969512 0.0382544 0.342855
0.983215 0.0735027 0.547005
0.996612 0.208606 0.751949
0.0322728 0.554665 0.224704
0.0344396 0.554177 0.207965
0.0416876 0.552789 0.180163
0.10811 0.557244 0.0673991
0.538079 0.562936 0.0997177
0.926665 0.504097 0.208301
1 0.288243 0.170626
0.986938 0.0928359 0.431739
0.996429 0.239048 0.72903
0.0753338 0.864408 0.368597
0.0793011 0.865003 0.357198
0.0897688 0.865049 0.338628
0.126055 0.865568 0.253651
0.495064 0.87187 0.172488
0.826032 0.873243 0.217746
0.981949 0.840085 0.182315
0.990188 0.64889 0.17496
0.995789 0.349187 0.584039
0.138842 0.996139 0.466087
0.139147 0.996155 0.45713
0.148409 0.996139 0.444007
0.179294 0.996109 0.400626
0.316396 0.995926 0.261601
0.743725 0.98294 0.280415
0.983459 0.985336 0.314366
0.994064 0.986038 0.289036
0.988937 0.934707 0.0696117
0.227222 0.99498 0.536965
0.224506 0.995361 0.529473
0.228061 0.995834 0.521324
0.257252 0.995773 0.499641
0.418189 0.995224 0.494636
0.690272 0.990234 0.518791
0.92723 0.991287 0.515038
0.999512 0.984695 0.535241
0.995148 0.986389 0.326787
0.541909 0.994003 0.713573
0.529778 0.994247 0.702739
0.540658 0.994324 0.707164
0.559808 0.994278 0.708431
0.623255 0.994125 0.723064
0.740688 0.993957 0.745968
0.908614 0.990784 0.75816
0.999741 0.984741 0.75079
0.998688 0.985504 0.778347
0.0370489 0.0352941 0.211841
0.0615244 0.031632 0.215228
0.13193 0.0306401 0.224628
0.2607 0.03122 0.231937
0.475532 0.0310674 0.283528
0.764508 0.0382086 0.382864
0.976898 0.0551614 0.495796
0.984466 0.0727245 0.616251
0.995239 0.16025 0.740597
0.0302586 0.0378576 0.20679
0.0381628 0.0354162 0.221759
0.120607 0.0307774 0.235264
0.261234 0.03122 0.232456
0.472023 0.0309758 0.274022
0.755047 0.0343938 0.36231
0.976242 0.0502327 0.480095
0.983856 0.0711681 0.599542
0.993027 0.134112 0.709316
0.0226596 0.0992599 0.214908
0.0231479 0.0935378 0.226856
0.0817426 0.0690166 0.261524
0.285374 0.0377813 0.250874
0.474754 0.0312657 0.260578
0.761028 0.0303197 0.343465
0.976471 0.0489815 0.473091
0.984482 0.0740673 0.612543
0.996399 0.201892 0.773724
0.0170443 0.257588 0.237034
0.0189364 0.257374 0.237171
0.0318608 0.253681 0.235569
0.272007 0.270741 0.272267
0.557275 0.195148 0.261021
0.793027 0.0372473 0.261952
0.974746 0.0375525 0.422232
0.985565 0.0814984 0.606577
0.994934 0.292287 0.832105
0.0370642 0.544427 0.324178
0.0378424 0.544137 0.312825
0.0436561 0.541573 0.288197
0.086656 0.536736 0.201602
0.524712 0.544137 0.214969
0.872465 0.481697 0.260456
1 0.180987 0.194446
0.988006 0.111986 0.508965
0.995575 0.308659 0.80763
0.0769665 0.851347 0.434485
0.0770581 0.85156 0.421134
0.0855879 0.850935 0.400168
0.119051 0.847486 0.34551
0.408759 0.861326 0.21825
0.804135 0.849546 0.236576
0.981155 0.812573 0.258015
0.995727 0.61622 0.184176
0.99559 0.363806 0.686152
0.145968 0.994278 0.507027
0.145251 0.994812 0.497841
0.152209 0.995697 0.487175
0.179706 0.996048 0.451118
0.295842 0.995895 0.324041
0.727443 0.983169 0.328573
0.980957 0.985382 0.33109
0.994888 0.986313 0.318318
0.988205 0.922271 0.0375982
0.231601 0.993606 0.561761
0.229374 0.993881 0.55584
0.232715 0.994415 0.548775
0.256672 0.995727 0.529412
0.412894 0.995193 0.524727
0.674342 0.990906 0.548165
0.922911 0.990997 0.544182
0.99942 0.984741 0.531914
0.995682 0.986572 0.344121
0.541863 0.993454 0.722438
0.529168 0.993683 0.712123
0.540581 0.993759 0.716747
0.569986 0.99411 0.726909
0.627207 0.99411 0.736339
0.737499 0.993988 0.754757
0.904707 0.991058 0.766751
0.999344 0.985031 0.761364
0.998672 0.985519 0.778729
0.0486458 0.0402838 0.391775
0.078294 0.0343938 0.39881
0.145022 0.0266728 0.415656
0.283131 0.0236362 0.416754
0.480491 0.0323796 0.437186
0.776654 0.0376135 0.520104
0.979568 0.0526589 0.631937
0.985687 0.0733806 0.693233
0.995682 0.177691 0.79176
0.039353 0.0425116 0.395102
0.0510872 0.040116 0.401419
0.125368 0.0271305 0.421057
0.274632 0.0237125 0.419821
0.4795 0.0323796 0.436194
0.767056 0.037232 0.510491
0.979355 0.0521859 0.619348
0.985245 0.0718853 0.681453
0.994141 0.151049 0.764935
0.0222934 0.0641337 0.405005
0.0224765 0.0610208 0.418524
0.0601511 0.0415045 0.450095
0.274952 0.0233768 0.470588
0.501274 0.0332036 0.455619
0.775128 0.0373999 0.508095
0.979339 0.0532082 0.615625
0.986068 0.0756847 0.689799
0.995178 0.220783 0.821271
0.00317388 0.229328 0.41622
0.00273136 0.224613 0.424781
0.00173953 0.211292 0.442878
0.206607 0.185779 0.49836
0.544549 0.112581 0.496101
0.808072 0.0415198 0.509606
0.978943 0.053666 0.58555
0.988205 0.0922713 0.688563
0.99382 0.311559 0.865415
0.045243 0.51284 0.48365
0.0462043 0.512169 0.483345
0.0513161 0.509056 0.481178
0.0784009 0.497063 0.471382
0.507515 0.507103 0.5084
0.862287 0.440833 0.505501
0.988281 0.106401 0.449653
0.990723 0.119738 0.637308
0.993103 0.400534 0.890822
0.0817731 0.821439 0.565072
0.0834058 0.821576 0.558236
0.0944228 0.820676 0.548272
0.127123 0.815793 0.514122
0.373449 0.823194 0.473167
0.772625 0.80325 0.486168
0.985946 0.762631 0.485893
1 0.493889 0.337118
0.99527 0.396765 0.795239
0.155657 0.990997 0.61059
0.156588 0.991058 0.603479
0.16585 0.991257 0.593683
0.192782 0.99266 0.560876
0.307088 0.995621 0.496071
0.699229 0.990097 0.518776
0.972351 0.984329 0.522698
0.998306 0.98201 0.483253
0.987213 0.902663 0
0.23801 0.991379 0.621241
0.236896 0.991485 0.615839
0.241413 0.991714 0.609522
0.268864 0.992767 0.596246
0.420294 0.995041 0.595422
0.665049 0.992615 0.615961
0.915404 0.989807 0.62649
1 0.983734 0.588312
0.999313 0.984817 0.527886
0.538949 0.992065 0.7449
0.529259 0.992172 0.737713
0.542458 0.992279 0.742519
0.57406 0.992584 0.754116
0.634791 0.99382 0.769009
0.735195 0.994018 0.779904
0.900191 0.991562 0.792065
0.995605 0.986023 0.790936
0.998611 0.985565 0.78027
0.0691844 0.0529641 0.616297
0.107668 0.0449226 0.626703
0.165164 0.0301671 0.638972
0.313222 0.0226291 0.643931
0.502052 0.0211337 0.631861
0.763638 0.0398566 0.683268
0.980423 0.0523079 0.789899
0.982574 0.071107 0.859434
0.9906 0.136858 0.874708
0.0552071 0.0562753 0.617563
0.0705425 0.0527352 0.618601
0.13463 0.0384833 0.636866
0.296895 0.0227054 0.652201
0.494087 0.0211032 0.62948
0.757046 0.0396124 0.678294
0.980545 0.0517281 0.781186
0.982651 0.0698558 0.85301
0.987579 0.103426 0.854246
0.0147402 0.0820325 0.641215
0.0149996 0.0791485 0.65243
0.0728161 0.0584268 0.683101
0.273564 0.0230259 0.700633
0.532784 0.02121 0.691814
0.772793 0.0402991 0.690227
0.980392 0.0527657 0.791547
0.983108 0.0734569 0.858091
0.992279 0.212116 0.903487
0 0.19559 0.619577
0 0.188983 0.627817
0 0.176837 0.659083
0.131685 0.11809 0.727169
0.503014 0.0390021 0.726665
0.84567 0.0468299 0.743053
0.980468 0.0531014 0.792493
0.983917 0.0764935 0.852216
0.99173 0.340307 0.931289
0 0.494347 0.661112
0 0.491096 0.665553
0 0.485832 0.676799
0.00494392 0.462135 0.700099
0.457679 0.447272 0.769253
0.851896 0.364477 0.773022
0.984161 0.0666972 0.766629
0.984878 0.0771801 0.821195
0.991562 0.44654 0.942824
0.0874952 0.770657 0.732479
0.0890516 0.770062 0.732067
0.0972 0.768093 0.730755
0.123339 0.762051 0.726513
0.347265 0.761639 0.732296
0.739284 0.739086 0.740322
0.995895 0.686046 0.741436
0.995499 0.377478 0.691615
0.993179 0.427024 0.891005
0.15314 0.978592 0.772808
0.15436 0.978805 0.768673
0.162722 0.978759 0.762798
0.189166 0.977569 0.743816
0.29395 0.979232 0.700999
0.668482 0.975265 0.725963
0.947768 0.960998 0.736538
1 0.942092 0.722148
0.987976 0.794278 0.563272
0.233845 0.990936 0.753338
0.233738 0.990936 0.749035
0.239536 0.990936 0.743343
0.262486 0.990936 0.727169
0.437537 0.991135 0.725414
0.662669 0.994064 0.750164
0.903746 0.991028 0.764446
0.999207 0.985138 0.764981
1 0.98436 0.736156
0.52932 0.990951 0.802609
0.524758 0.990951 0.798581
0.542214 0.990967 0.802853
0.580514 0.991058 0.812924
0.64741 0.991424 0.828611
0.742962 0.993606 0.838483
0.90103 0.991745 0.846555
0.988998 0.988403 0.851698
0.996216 0.987243 0.827543
0.033402 0.0904707 0.857527
0.0741588 0.0790723 0.860029
0.136034 0.0639506 0.869963
0.303212 0.0224002 0.883024
0.541375 0.0214847 0.879057
0.745449 0.0322576 0.846738
0.977951 0.0529793 0.949035
0.981353 0.0683909 0.977813
0.983658 0.0832074 0.968124
0.0267185 0.0936751 0.847654
0.0383307 0.0870222 0.850568
0.10782 0.0709087 0.862669
0.279347 0.0229496 0.877577
0.533211 0.0214084 0.879881
0.740719 0.0321508 0.843778
0.977844 0.0526284 0.942824
0.980941 0.0673533 0.974517
0.983093 0.0806134 0.966506
0.00428779 0.112749 0.841184
0.00434882 0.110857 0.851209
0.0235294 0.102235 0.900542
0.227695 0.0362402 0.90695
0.532158 0.0215305 0.918776
0.767452 0.03299 0.875822
0.978302 0.0537728 0.959854
0.98175 0.0706493 0.980209
0.987549 0.117983 0.977493
0 0.195911 0.794385
0 0.190326 0.803006
0 0.183108 0.838468
0.0433509 0.14258 0.914733
0.460075 0.0381933 0.926421
0.849912 0.0472725 0.951888
0.978607 0.0548104 0.97258
0.982147 0.0732586 0.982147
0.990982 0.251377 0.990982
0.00941482 0.482246 0.835416
0.00943008 0.478553 0.841215
0.00921645 0.474662 0.857298
0.00630198 0.4486 0.893065
0.403967 0.420752 0.97351
0.815213 0.333913 0.986206
0.982055 0.0737926 0.962386
0.982345 0.0744793 0.982345
0.990982 0.399359 0.990967
0 0.747326 0.872374
0 0.746029 0.875288
0 0.7449 0.880003
0 0.735744 0.888426
0.2056 0.72874 0.933455
0.706188 0.705226 0.945418
0.991196 0.646983 0.948287
0.991058 0.300786 0.977951
0.990982 0.362585 0.990967
0.153597 0.94818 0.917601
0.154818 0.948013 0.917479
0.1617 0.947601 0.917067
0.184009 0.94493 0.914778
0.256214 0.941207 0.911299
0.658198 0.93814 0.92224
0.925353 0.925231 0.926146
0.994476 0.895659 0.927245
0.994385 0.666773 0.904143
0.227924 0.990982 0.908507
0.228214 0.990982 0.906828
0.234287 0.990967 0.904173
0.249729 0.990951 0.895781
0.399832 0.990784 0.896544
0.66508 0.991333 0.9066
0.890623 0.992798 0.9187
0.991974 0.990295 0.921172
0.992203 0.990112 0.905638
0.493828 0.990784 0.905715
0.493568 0.990799 0.903883
0.515999 0.990829 0.905638
0.563684 0.990906 0.909422
0.641505 0.99118 0.915633
0.753399 0.991852 0.920211
0.891951 0.992508 0.930938
0.983536 0.991333 0.934142
0.99176 0.990448 0.935149
0 0.140307 0.936629
0 0.130892 0.952499
0.00230411 0.117189 0.959533
0.192721 0.0567636 0.961639
0.509636 0.021622 0.960403
0.827024 0.0301671 0.96556
0.977646 0.0509804 0.977661
0.980133 0.0620127 0.980133
0.982605 0.0760815 0.982605
0 0.135515 0.93135
0 0.133989 0.937362
0 0.120882 0.958358
0.171725 0.065095 0.961486
0.498451 0.021561 0.960357
0.820066 0.0302586 0.965393
0.977569 0.0507057 0.977569
0.980026 0.0614786 0.980026
0.982284 0.0741436 0.9823
0 0.150301 0.908034
0 0.148943 0.913954
0 0.150866 0.936599
0.0342565 0.107057 0.960708
0.454704 0.0284733 0.960052
0.836271 0.0382696 0.967941
0.977844 0.051606 0.977844
0.980499 0.0633402 0.980499
0.983383 0.081529 0.983383
0 0.258228 0.88394
0 0.256596 0.89015
0 0.276036 0.921508
0 0.266392 0.945922
0.408652 0.175235 0.977935
0.779568 0.0559396 0.971862
0.978317 0.0538796 0.978332
0.98088 0.0651102 0.98088
0.987686 0.115999 0.987686
0.00895705 0.50486 0.917128
0.00875868 0.503731 0.922683
0.00854505 0.508125 0.937499
0.0065156 0.494728 0.966598
0.342626 0.479698 0.986984
0.755093 0.422736 0.990936
0.990478 0.152316 0.990478
0.980941 0.0669108 0.980941
0.990982 0.281727 0.990982
0 0.753033 0.939757
0 0.75259 0.942519
0 0.75288 0.947372
0 0.746426 0.955947
0.182254 0.733867 0.979065
0.676463 0.711574 0.986572
0.977737 0.655726 0.991531
0.990982 0.382025 0.990967
0.990982 0.238346 0.990982
0.0962844 0.935042 0.97438
0.0960403 0.934707 0.975158
0.103105 0.934737 0.976501
0.130175 0.932754 0.978698
0.211398 0.920256 0.982193
0.630228 0.916579 0.993164
0.909773 0.911192 0.993988
0.993713 0.876921 0.993698
0.991333 0.642847 0.991318
0.227893 0.991272 0.978485
0.228687 0.991272 0.978469
0.234424 0.991257 0.978408
0.248386 0.991211 0.977707
0.384726 0.990417 0.983642
0.656138 0.989532 0.986862
0.884291 0.991501 0.99028
0.989914 0.989899 0.990066
0.989883 0.989075 0.991318
0.462501 0.989654 0.97702
0.464561 0.989639 0.976715
0.489769 0.989487 0.977371
0.544579 0.989364 0.978775
0.626047 0.989639 0.98117
0.738064 0.990723 0.983551
0.891829 0.991623 0.985901
0.981399 0.991043 0.987442
0.992248 0.989258 0.991745
0 0.188037 0.915908
0 0.172335 0.92575
0 0.160388 0.946242
6.10361e-05 0.119921 0.958862
0.422995 0.0346075 0.959701
0.805432 0.0405432 0.967666
0.975891 0.0463874 0.975891
0.978607 0.054551 0.978607
0.981109 0.067628 0.981109
0 0.166995 0.919661
0 0.167224 0.921691
0 0.15671 0.944961
0.00595102 0.117266 0.959396
0.421973 0.0323339 0.960113
0.800549 0.0388037 0.967041
0.975723 0.0459297 0.975738
0.978515 0.0542153 0.978531
0.980911 0.0667582 0.980911
0 0.202136 0.907637
0 0.205509 0.911513
0 0.303807 0.946273
0 0.266529 0.945937
0.373968 0.18056 0.97705
0.739544 0.0572976 0.970916
0.979858 0.06009 0.979858
0.978821 0.0552987 0.978821
0.981674 0.0701305 0.981689
0 0.339391 0.922667
0 0.344656 0.927626
0 0.406897 0.953231
0 0.450965 0.967987
0.314794 0.414054 0.986587
0.737713 0.352148 0.990936
0.983108 0.0780957 0.983108
0.979019 0.0560922 0.979019
0.982284 0.0740978 0.982284
0.00952163 0.545495 0.942809
0.00953689 0.549111 0.947448
0.0080415 0.574823 0.95848
0.00531014 0.593286 0.970748
0.187518 0.618555 0.981811
0.678996 0.601755 0.982834
0.990967 0.497353 0.990967
0.979904 0.0594339 0.979904
0.983078 0.0794995 0.983078
0 0.770916 0.962432
0 0.77377 0.964874
0 0.780529 0.969192
0 0.782895 0.975998
0.129351 0.77702 0.979278
0.640635 0.768856 0.985336
0.942596 0.726619 0.993133
0.990967 0.567163 0.990967
0.983368 0.0814679 0.983368
0.0538796 0.936263 0.987854
0.0544442 0.936492 0.987869
0.0670634 0.937423 0.987961
0.10779 0.936431 0.988067
0.214832 0.924956 0.988434
0.633875 0.92221 0.993637
0.893233 0.917906 0.994507
0.993576 0.888014 0.993561
0.992111 0.704219 0.992111
0.232547 0.990036 0.98996
0.233082 0.989929 0.98996
0.23798 0.98996 0.98999
0.250675 0.989197 0.990051
0.389181 0.990311 0.990524
0.643458 0.989136 0.989975
0.870451 0.99115 0.991714
0.985916 0.987076 0.991196
0.991363 0.97879 0.991363
0.450095 0.989502 0.989868
0.452857 0.989471 0.989837
0.480156 0.989181 0.989624
0.541161 0.988846 0.989471
0.623713 0.988968 0.989853
0.733776 0.990127 0.990799
0.8851 0.991394 0.991684
0.979873 0.991028 0.991058
0.990936 0.990936 0.990951
