bundles/resolve-cinematic-luts/Phantom Luts/A7s3 Phntm Arri LUTs G7/SLog3/Tungsten A7s3-Legacy.cube
TITLE "Generated by Resolve"
LUT_3D_SIZE 5
0.0311437 0.0300298 0.0351415
0.0983902 0.0318761 0.044419
0.445823 0.0472877 0.143038
0.8 0.108736 0.3953
0.868299 0.194919 0.636286
0.037705 0.117449 0.0565957
0.104997 0.113771 0.0438087
0.443198 0.0322118 0.0975357
0.796002 0.10602 0.369253
0.847776 0.165011 0.579873
0 0.461463 0.125566
0 0.466896 0.0882277
0.566522 0.516457 0.065568
0.893156 0.298146 0.254734
0.899077 0.227649 0.574166
0.11194 0.798306 0.389792
0.117342 0.798016 0.373037
0.242374 0.792508 0.187243
0.981552 0.883909 0.380346
0.980835 0.878019 0.356176
0.400809 0.833463 0.580972
0.369528 0.825315 0.550301
0.511498 0.851331 0.600992
0.935363 0.936049 0.72401
0.995438 0.950225 0.775204
0.0248569 0.0350652 0.0940261
0.0948653 0.0360876 0.0971847
0.4392 0.0457771 0.187106
0.807385 0.115557 0.422309
0.873442 0.204227 0.657069
0.0378271 0.110994 0.110689
0.0919051 0.109392 0.115084
0.451789 0.0478981 0.147143
0.803769 0.112139 0.406027
0.897581 0.243534 0.705898
0 0.462211 0.174075
0 0.464622 0.139422
0.553216 0.506386 0.0724346
0.843778 0.209018 0.236286
0.926116 0.289876 0.699367
0.115373 0.801877 0.410346
0.118425 0.801175 0.396765
0.223148 0.79353 0.207294
0.982177 0.884077 0.381201
0.980667 0.877791 0.355489
0.408484 0.836194 0.592721
0.404593 0.833829 0.582406
0.524056 0.85655 0.620111
0.932189 0.936828 0.727352
0.995315 0.950423 0.775692
0.0108034 0.0646677 0.367132
0.0970169 0.0500954 0.401144
0.435874 0.0509651 0.402594
0.810834 0.124346 0.545037
0.877562 0.220859 0.71397
0 0.0922103 0.375845
0.0049897 0.076463 0.421958
0.456138 0.0527352 0.421759
0.811933 0.125002 0.54049
0.901228 0.263859 0.764706
0.0318456 0.494011 0.46157
0.0370947 0.500206 0.468666
0.514504 0.518425 0.507042
0.838117 0.148821 0.439704
0.956146 0.426169 0.8701
0.142382 0.821591 0.530434
0.145098 0.821454 0.522377
0.204715 0.80914 0.399344
0.967391 0.893111 0.500679
0.980713 0.877852 0.355642
0.418357 0.846143 0.639689
0.422736 0.846387 0.638773
0.55108 0.872465 0.684871
0.925643 0.946853 0.77174
0.995392 0.95079 0.777447
0 0.162768 0.660899
0.058854 0.14342 0.692836
0.422797 0.0856794 0.77145
0.757259 0.145632 0.770794
0.776028 0.168536 0.796216
0 0.179522 0.655528
0 0.177844 0.667201
0.40441 0.0929122 0.783688
0.756191 0.147311 0.776272
0.78854 0.183307 0.811063
0.0749218 0.538827 0.768429
0.0831311 0.544839 0.781704
0.409903 0.54902 1
0.765499 0.159228 0.790143
0.936828 0.402838 0.960586
0.292119 0.902373 0.874922
0.300389 0.90866 0.882017
0.339773 0.923125 0.893843
0.946731 0.950484 0.943145
0.982391 0.892775 0.942931
0.466514 0.941604 0.896086
0.488533 0.943297 0.900175
0.630472 0.950011 0.912978
0.928481 0.981216 0.950835
0.99324 0.986984 0.956573
0.00560006 0.249622 0.703685
0.00291447 0.228458 0.700343
0.315389 0.11223 0.789746
0.750164 0.144244 0.7776
0.76318 0.15819 0.791104
0.00941482 0.269184 0.710323
0.0414893 0.369894 0.761212
0.328222 0.262181 0.898634
0.753857 0.147814 0.780789
0.765347 0.160433 0.793194
0.122606 0.603693 0.827451
0.137942 0.635538 0.84036
0.286305 0.722103 0.959319
0.95668 0.476738 0.976867
0.772274 0.167758 0.799786
0.300114 0.904448 0.915877
0.310369 0.912261 0.921126
0.363592 0.935912 0.951583
0.926604 0.953323 0.990448
0.980179 0.865675 0.984176
0.474845 0.973831 0.967987
0.501717 0.975555 0.970459
0.647547 0.980346 0.97702
0.927108 0.988617 0.987854
0.990433 0.989578 0.988739
