bundles/resolve-cinematic-luts/Phantom Luts/A7s3 Phntm Arri LUTs G7/SLog3/Tungsten A7s3.cube
TITLE "Generated by Resolve"
LUT_3D_SIZE 5
0.0123445 0.011017 0.0163119
0.115404 0.016846 0.0394293
0.513497 0.0356756 0.166857
0.817227 0.124346 0.451255
0.875196 0.217639 0.698528
0.0157168 0.145968 0.0509194
0.130541 0.14139 0.0306096
0.511604 0.0167544 0.0927901
0.809842 0.116457 0.418814
0.852155 0.179324 0.640635
0 0.513039 0.157351
0 0.51722 0.10988
0.624704 0.565591 0.0744182
0.918898 0.360876 0.259922
0.909285 0.257496 0.638193
0.122621 0.801144 0.436805
0.127626 0.800488 0.417182
0.277363 0.790234 0.209018
0.975692 0.886122 0.409247
0.984039 0.882094 0.373129
0.492607 0.856428 0.662745
0.455543 0.844572 0.628321
0.604456 0.880385 0.687419
0.951354 0.955169 0.794995
0.998718 0.966339 0.838224
0.00448615 0.0180209 0.109545
0.11191 0.0184787 0.114488
0.500664 0.0312505 0.22739
0.821073 0.128908 0.481483
0.880781 0.229694 0.719417
0.0187533 0.138094 0.135119
0.111757 0.137438 0.143008
0.519173 0.0365301 0.171588
0.820462 0.127932 0.46363
0.905608 0.277241 0.766308
0 0.51548 0.216861
0 0.515908 0.172625
0.611444 0.555611 0.0807202
0.874769 0.271946 0.238865
0.933227 0.332387 0.760006
0.12929 0.804944 0.459709
0.132036 0.804181 0.44419
0.251789 0.79176 0.233021
0.975982 0.886275 0.410407
0.983871 0.881834 0.372259
0.50106 0.859861 0.67451
0.496788 0.857114 0.664454
0.617487 0.886076 0.705989
0.949233 0.955749 0.798321
0.998596 0.966537 0.838651
0 0.0444953 0.425727
0.120287 0.0276646 0.470054
0.501366 0.0365911 0.470634
0.808408 0.129198 0.601373
0.884978 0.249821 0.771099
0 0.104204 0.438941
0 0.0588693 0.47834
0.521767 0.0415808 0.489967
0.810117 0.130037 0.597223
0.910338 0.300786 0.815045
0.0193332 0.554131 0.521096
0.0298772 0.560037 0.527611
0.572747 0.576364 0.564569
0.853941 0.166842 0.500252
0.957107 0.479896 0.895201
0.165606 0.830106 0.586664
0.169604 0.829587 0.578576
0.245411 0.806836 0.448447
0.96553 0.903014 0.568307
0.983841 0.881361 0.372076
0.507195 0.869612 0.715297
0.512062 0.870039 0.714931
0.645731 0.90103 0.76289
0.945159 0.963378 0.834226
0.998611 0.966735 0.839918
0 0.14786 0.655009
0.0744335 0.109834 0.688945
0.470542 0.0738537 0.765087
0.756161 0.146395 0.77583
0.781201 0.175708 0.804425
0 0.192279 0.671901
0 0.179171 0.672755
0.455299 0.0779583 0.774166
0.756191 0.147906 0.779171
0.796536 0.193362 0.820493
0.0981613 0.595834 0.788525
0.105196 0.601831 0.798917
0.483574 0.614649 1
0.769223 0.163272 0.794415
0.945998 0.453086 0.967788
0.301579 0.905074 0.883421
0.309697 0.910643 0.889525
0.367132 0.92665 0.904097
0.950973 0.953613 0.948501
0.979416 0.912001 0.945937
0.525231 0.94287 0.905745
0.549172 0.945006 0.909773
0.696422 0.955642 0.924804
0.945281 0.986038 0.95993
0.995056 0.990295 0.966934
0.0192569 0.287541 0.729305
0.0115053 0.252201 0.717342
0.375814 0.0997024 0.793118
0.749065 0.142199 0.776715
0.766415 0.161364 0.794369
0.0262608 0.316121 0.739773
0.0620279 0.431434 0.786145
0.406897 0.302358 0.947692
0.754269 0.147616 0.781338
0.769299 0.164477 0.797116
0.138308 0.654688 0.831769
0.15285 0.682841 0.841901
0.317571 0.772259 0.962585
0.958114 0.530694 0.975875
0.778103 0.174182 0.8056
0.297734 0.901915 0.909621
0.309941 0.910079 0.916503
0.379599 0.938857 0.952361
0.936294 0.955383 0.987045
0.976471 0.891478 0.979355
0.524681 0.970932 0.965911
0.555001 0.972808 0.968399
0.705852 0.979706 0.977096
0.945403 0.991424 0.99086
0.993072 0.992248 0.99147
