bundles/resolve-cinematic-luts/Phantom Luts/A7s3 Phntm Arri LUTs G7/SLog3/Tungsten A7s3-Legacy.cube
TITLE "Generated by Resolve"
LUT_3D_SIZE 33
0.0311437 0.0300298 0.0351415
0.0311437 0.0300298 0.0351415
0.0311437 0.0300298 0.0351415
0.0311437 0.0300603 0.0351415
0.0331731 0.0302281 0.0352789
0.0414282 0.0307774 0.0365301
0.0541695 0.0312047 0.0377508
0.074876 0.0319829 0.0405737
0.0983902 0.0318761 0.044419
0.124498 0.0318303 0.0496376
0.155871 0.0332189 0.0566873
0.193256 0.0353857 0.0655375
0.23389 0.0378729 0.07364
0.281193 0.0400702 0.0856031
0.33283 0.0420539 0.103456
0.386877 0.0444038 0.121965
0.445823 0.0472877 0.143038
0.508766 0.0505379 0.167498
0.573754 0.0542 0.195361
0.639216 0.0596628 0.227405
0.701137 0.0692302 0.263157
0.74995 0.0838636 0.300008
0.780377 0.0970016 0.334905
0.792966 0.103243 0.365194
0.8 0.108736 0.3953
0.811566 0.120043 0.429068
0.820493 0.129595 0.463096
0.824262 0.134279 0.494209
0.826139 0.137545 0.521187
0.832044 0.145632 0.548974
0.843671 0.160754 0.579873
0.856916 0.178561 0.610605
0.868299 0.194919 0.636286
0.0311284 0.0300908 0.0352331
0.0311437 0.030045 0.0351568
0.0311437 0.0300298 0.0351415
0.0311284 0.0300603 0.0351415
0.0327153 0.0303044 0.0354009
0.0403754 0.0308995 0.0366674
0.0524453 0.0314031 0.0379797
0.0735637 0.0321965 0.0406653
0.0974136 0.0319982 0.0442512
0.123888 0.031754 0.0493019
0.15552 0.0332494 0.0567788
0.193347 0.0354772 0.0657969
0.234302 0.0379339 0.0738689
0.281956 0.040116 0.085832
0.333074 0.0420844 0.103517
0.386679 0.0444038 0.121813
0.445441 0.0472267 0.142733
0.508064 0.0505226 0.166766
0.572808 0.0541543 0.193942
0.637705 0.059556 0.225116
0.698741 0.0687724 0.260105
0.747814 0.0831769 0.297078
0.779141 0.0965591 0.331411
0.792416 0.102953 0.361501
0.79884 0.107698 0.39089
0.809705 0.118151 0.423423
0.819135 0.128084 0.456428
0.823758 0.133532 0.486671
0.825956 0.136843 0.513451
0.828763 0.141314 0.537514
0.836072 0.150958 0.562448
0.848157 0.166583 0.590188
0.858274 0.180438 0.613504
0.0310521 0.0306859 0.036286
0.0310674 0.0306706 0.0362402
0.0310979 0.030518 0.035935
0.0311437 0.0303044 0.0354925
0.0319982 0.0303807 0.0353552
0.0375982 0.030869 0.0362554
0.0480354 0.0314641 0.0376135
0.0675212 0.0322423 0.0400397
0.0920729 0.032166 0.0432746
0.118654 0.0317845 0.0482185
0.150652 0.0330205 0.0555123
0.18938 0.0353552 0.0648661
0.231846 0.0379034 0.0732738
0.27953 0.0400854 0.0849928
0.331151 0.0419776 0.102373
0.384085 0.0443275 0.120516
0.442527 0.0472419 0.141375
0.505074 0.0504921 0.165042
0.569802 0.0541543 0.191943
0.634165 0.0592203 0.222522
0.695644 0.0683452 0.257481
0.745098 0.0822309 0.293935
0.777844 0.096025 0.328466
0.791943 0.102724 0.358358
0.797909 0.106889 0.386709
0.807797 0.116152 0.41828
0.81825 0.12697 0.450278
0.823484 0.132982 0.479835
0.825406 0.135882 0.505516
0.826703 0.138491 0.527123
0.831617 0.145174 0.548898
0.840024 0.155856 0.571038
0.849409 0.168261 0.593164
0.031693 0.0340887 0.038407
0.0316777 0.0342718 0.0387579
0.0316777 0.0343023 0.0387427
0.0320439 0.033875 0.0382391
0.033753 0.0337682 0.0378729
0.0376898 0.0339055 0.0377356
0.045243 0.0337682 0.0376593
0.0624552 0.0338293 0.039292
0.088014 0.0330663 0.0422217
0.11516 0.0321813 0.0465248
0.146807 0.0328374 0.0531624
0.185763 0.0348669 0.062211
0.229755 0.0378424 0.0725261
0.27715 0.040116 0.083711
0.329 0.0419928 0.100511
0.381598 0.0442969 0.117723
0.440314 0.0473182 0.139483
0.502861 0.0505379 0.16321
0.56762 0.0542763 0.189715
0.63154 0.0589914 0.220264
0.693233 0.0678721 0.255329
0.742885 0.0814527 0.291356
0.77702 0.0958267 0.32607
0.791562 0.102571 0.355642
0.797314 0.106447 0.38378
0.806256 0.114611 0.41387
0.817594 0.126284 0.445121
0.823056 0.132433 0.474159
0.824872 0.135073 0.49929
0.826383 0.137697 0.520333
0.828595 0.141207 0.538827
0.832731 0.146944 0.556527
0.842603 0.159289 0.578241
0.0338293 0.043061 0.0420081
0.0337987 0.0432746 0.0423743
0.0337835 0.0432441 0.0420996
0.0340276 0.0422522 0.0409247
0.0369573 0.0418708 0.040528
0.0432441 0.0421149 0.0406806
0.05066 0.0417792 0.04065
0.0644694 0.0410773 0.0409552
0.0887007 0.0384222 0.0424659
0.116594 0.0347448 0.0450904
0.147784 0.0333715 0.0505226
0.185702 0.0344701 0.0586252
0.230472 0.037171 0.0694896
0.279591 0.0398718 0.0818799
0.332448 0.0422827 0.099321
0.383383 0.0448005 0.113878
0.441611 0.0478218 0.134783
0.504051 0.0509957 0.158938
0.568551 0.0546273 0.186404
0.632654 0.0594492 0.216953
0.694286 0.0684825 0.252186
0.743725 0.0821851 0.288731
0.777249 0.0962844 0.323476
0.79144 0.102678 0.353277
0.79704 0.106294 0.381582
0.805722 0.114092 0.411933
0.817533 0.126192 0.443793
0.823102 0.132448 0.472923
0.824948 0.135103 0.498024
0.82649 0.137743 0.519402
0.829023 0.141604 0.538582
0.833692 0.147951 0.557031
0.843503 0.160311 0.578927
0.0359197 0.0549935 0.0454871
0.0358892 0.0552682 0.0457923
0.0359045 0.0553292 0.0456092
0.0360113 0.0538033 0.0441291
0.0386206 0.0524453 0.0430304
0.0456703 0.0536049 0.0431373
0.0566873 0.0525368 0.0437324
0.0714275 0.0517128 0.0441749
0.0917678 0.0490883 0.0451972
0.116838 0.0437476 0.0454871
0.14963 0.038468 0.0495918
0.187579 0.0356451 0.0561074
0.228519 0.0352636 0.0648051
0.277531 0.0377661 0.0761883
0.332708 0.0414282 0.0932174
0.387625 0.0449378 0.112856
0.442451 0.0483101 0.130663
0.504753 0.0513924 0.155428
0.569314 0.055024 0.18265
0.633951 0.0599832 0.213519
0.695384 0.0691844 0.248997
0.744244 0.0828717 0.285389
0.777371 0.0967117 0.320729
0.791333 0.102831 0.350637
0.796796 0.106172 0.379324
0.805295 0.113695 0.410376
0.817319 0.125963 0.442023
0.823087 0.132403 0.471443
0.82504 0.135164 0.496849
0.826596 0.137804 0.518608
0.82948 0.142031 0.538354
0.834546 0.148821 0.557443
0.844083 0.160998 0.579202
0.0377661 0.0732738 0.0494545
0.0377508 0.0737011 0.0499275
0.037995 0.0730907 0.0482948
0.0381018 0.071397 0.0465553
0.039826 0.0693675 0.0442664
0.0473945 0.0701762 0.0442664
0.0589456 0.0707408 0.0436408
0.0794232 0.0686961 0.0461433
0.100298 0.0660258 0.0467994
0.124315 0.0597696 0.0488746
0.151308 0.0520943 0.049424
0.188769 0.0429236 0.0531624
0.234226 0.0392462 0.0623026
0.27924 0.035874 0.0704509
0.327413 0.0358587 0.0822461
0.385794 0.0427405 0.104021
0.4486 0.0486915 0.129686
0.505928 0.052079 0.149981
0.570993 0.0556344 0.178073
0.635248 0.0607919 0.208789
0.696468 0.0699779 0.244404
0.745052 0.083772 0.281865
0.7776 0.0973068 0.317525
0.791257 0.103044 0.347997
0.796506 0.106035 0.37705
0.804776 0.113222 0.407813
0.816678 0.125277 0.440009
0.822995 0.13228 0.469703
0.825147 0.135225 0.495705
0.826703 0.137881 0.51783
0.829984 0.14255 0.538048
0.835477 0.149813 0.557229
0.844755 0.161746 0.578882
0.0387884 0.0944839 0.0528115
0.0387121 0.094789 0.0531624
0.0387427 0.0948501 0.0525826
0.0390784 0.09337 0.0501411
0.040116 0.0916152 0.0469368
0.0460212 0.0920119 0.0458686
0.0579995 0.0925307 0.045655
0.0794842 0.0915541 0.0440528
0.106889 0.0892805 0.0482032
0.133852 0.0833143 0.049485
0.16466 0.0738537 0.0540475
0.197772 0.065156 0.0550851
0.23624 0.0541695 0.0569924
0.282353 0.0410468 0.0623331
0.334844 0.0363775 0.0751202
0.381292 0.0328374 0.0881208
0.442542 0.0427863 0.115648
0.512535 0.0527047 0.146899
0.572045 0.0563973 0.171313
0.636561 0.061738 0.203159
0.697597 0.0710155 0.238926
0.745983 0.085069 0.277333
0.778195 0.0983139 0.313664
0.791272 0.103456 0.344457
0.796155 0.105913 0.373312
0.80415 0.112627 0.404593
0.815747 0.124269 0.436896
0.822828 0.132052 0.467597
0.825315 0.135332 0.49424
0.826886 0.137987 0.51664
0.830808 0.143328 0.537545
0.837003 0.151415 0.557733
0.846113 0.16321 0.579568
0.037705 0.117449 0.0565957
0.0375219 0.117906 0.0570993
0.0375219 0.118105 0.0568246
0.0381628 0.116854 0.054551
0.0390173 0.115373 0.0499428
0.0419623 0.115389 0.0463264
0.0523537 0.115816 0.0458991
0.0732738 0.11577 0.0446784
0.104997 0.113771 0.0438087
0.138323 0.111299 0.0480201
0.177081 0.102647 0.053315
0.220951 0.087129 0.0601816
0.253361 0.0783246 0.0615396
0.293477 0.0658274 0.0611582
0.338415 0.0484474 0.0629587
0.388174 0.0345006 0.072694
0.443198 0.0322118 0.0975357
0.50454 0.0433051 0.129183
0.577096 0.0567025 0.164767
0.637446 0.0628367 0.194339
0.698436 0.072343 0.231144
0.747173 0.0868086 0.271031
0.778744 0.0996262 0.30808
0.791363 0.104128 0.339651
0.796002 0.10602 0.369253
0.803235 0.111803 0.399924
0.814557 0.123018 0.432929
0.82266 0.131807 0.464652
0.825483 0.135439 0.491875
0.827146 0.13814 0.514748
0.831876 0.144381 0.536828
0.838666 0.153231 0.557992
0.847776 0.165011 0.579873
0.0326696 0.143359 0.0599374
0.0323644 0.143969 0.0606241
0.0322271 0.144335 0.0608225
0.0331579 0.143694 0.0589151
0.0348821 0.142458 0.0541848
0.037171 0.142519 0.0485847
0.0434882 0.142336 0.0443122
0.0637217 0.142962 0.0442664
0.0954757 0.142748 0.0419013
0.133913 0.139544 0.0425727
0.177203 0.137316 0.0476387
0.230335 0.123522 0.0576028
0.286412 0.104799 0.0673533
0.323568 0.0954299 0.0685893
0.36231 0.0820783 0.0683452
0.40499 0.0616159 0.0695201
0.449851 0.0381476 0.0752728
0.501564 0.032517 0.102037
0.566262 0.0439307 0.14313
0.639094 0.0607156 0.185229
0.701335 0.0743114 0.223972
0.747753 0.0889906 0.26157
0.77908 0.101396 0.299672
0.791333 0.10515 0.331807
0.795743 0.106233 0.362905
0.802426 0.111116 0.394797
0.813169 0.121508 0.427848
0.822477 0.131548 0.460441
0.825757 0.135607 0.488823
0.827466 0.138323 0.512322
0.832944 0.14548 0.535531
0.841138 0.155871 0.55877
0.849867 0.167269 0.57998
0.0250553 0.174853 0.0641642
0.0247044 0.175723 0.0648356
0.024445 0.17615 0.0653391
0.0251164 0.175418 0.0634928
0.0270848 0.174136 0.0579232
0.0288396 0.174365 0.0510567
0.0328222 0.174273 0.043122
0.0465553 0.174929 0.0375219
0.0799115 0.176272 0.0384527
0.120928 0.176196 0.0360723
0.171633 0.172045 0.0410925
0.226459 0.170809 0.0456397
0.296757 0.153552 0.0645609
0.363424 0.131426 0.0793011
0.41062 0.119356 0.0835737
0.444602 0.108309 0.0840009
0.485405 0.083772 0.0848707
0.524407 0.053727 0.0903487
0.561028 0.0350805 0.109712
0.61944 0.0429236 0.15198
0.698009 0.0710765 0.208759
0.748989 0.0917525 0.251041
0.779232 0.103838 0.288334
0.791272 0.106737 0.321324
0.795422 0.106752 0.354177
0.80145 0.110445 0.387274
0.811627 0.119921 0.421424
0.822324 0.131304 0.454826
0.826169 0.135882 0.484398
0.827939 0.138628 0.509285
0.834592 0.147112 0.534508
0.84387 0.158877 0.559335
0.852262 0.169863 0.57998
0.0159152 0.210864 0.0698863
0.0155184 0.211612 0.0704967
0.0152285 0.2121 0.0709087
0.0157778 0.211719 0.0694285
0.0175784 0.210758 0.0632639
0.0191196 0.211185 0.0557717
0.0210269 0.211749 0.0477607
0.0288853 0.211185 0.0349737
0.0541848 0.212604 0.0293736
0.0999008 0.215732 0.0313726
0.152667 0.21648 0.0285191
0.221271 0.213672 0.0383001
0.290562 0.215274 0.0419776
0.370459 0.201556 0.0713817
0.450004 0.174426 0.0979171
0.506661 0.16144 0.104646
0.549523 0.147463 0.109895
0.584176 0.122591 0.111513
0.607904 0.0793927 0.113527
0.619318 0.0443732 0.12459
0.669322 0.0504158 0.168643
0.742596 0.0874952 0.23328
0.779675 0.107362 0.274403
0.790982 0.10927 0.306493
0.795117 0.107958 0.341329
0.800336 0.109941 0.37673
0.809186 0.11754 0.412253
0.821805 0.130571 0.447089
0.82649 0.136065 0.478248
0.828519 0.138979 0.504326
0.836744 0.149172 0.532204
0.847242 0.162463 0.559182
0.855512 0.173419 0.57966
0.00503548 0.252689 0.0754864
0.00456245 0.253529 0.0761883
0.00421149 0.254063 0.0767376
0.00451667 0.254017 0.0756695
0.00636301 0.25333 0.0700694
0.00831617 0.253819 0.061677
0.0101625 0.254597 0.053193
0.0134432 0.254398 0.0400854
0.0261845 0.254368 0.024155
0.0649424 0.258137 0.0203555
0.123445 0.264637 0.0234836
0.194491 0.2663 0.0182345
0.28452 0.265461 0.0356298
0.363912 0.269047 0.036286
0.441047 0.264256 0.0729992
0.538354 0.239353 0.114824
0.608606 0.216693 0.130846
0.657862 0.196384 0.137285
0.686793 0.168841 0.141054
0.696178 0.118364 0.145678
0.681208 0.067689 0.150439
0.709133 0.0635538 0.188281
0.76939 0.101564 0.251347
0.790158 0.113085 0.28658
0.794781 0.110613 0.321843
0.799374 0.110277 0.360891
0.806516 0.115145 0.398917
0.819013 0.127489 0.43653
0.826612 0.135988 0.469703
0.831174 0.141588 0.499413
0.840574 0.153124 0.529976
0.851438 0.167071 0.558679
0.859495 0.177813 0.579232
0 0.300893 0.0817578
0 0.301778 0.0823835
0 0.302312 0.0829328
0 0.302739 0.0822614
0 0.302312 0.0767071
0 0.302892 0.0683909
0 0.30367 0.0603189
0.00242618 0.304784 0.0484016
0.00608835 0.303868 0.0287022
0.024506 0.305501 0.0158236
0.0802167 0.311192 0.0135042
0.153567 0.317327 0.0115511
0.244526 0.31957 0.00688182
0.351568 0.322393 0.0318914
0.438331 0.328695 0.0255131
0.512062 0.335836 0.072755
0.623606 0.315099 0.129305
0.709239 0.285206 0.162737
0.762646 0.258839 0.173281
0.788037 0.227207 0.182559
0.780026 0.176776 0.184939
0.74316 0.105486 0.185763
0.737163 0.0773022 0.201648
0.78027 0.109194 0.257282
0.794156 0.115755 0.29456
0.799084 0.11284 0.337148
0.804486 0.114015 0.379751
0.814679 0.123064 0.420386
0.82649 0.135668 0.457771
0.836698 0.147402 0.494667
0.847028 0.160098 0.527886
0.857466 0.173785 0.557641
0.864729 0.183719 0.577768
0 0.350927 0.0895094
0 0.351873 0.0901656
0 0.35288 0.0907454
0 0.353124 0.0897993
0 0.352804 0.0854353
0 0.353491 0.0782177
0 0.354009 0.0701457
0 0.355367 0.0606394
0 0.355932 0.0430915
0 0.355398 0.0183108
0.0292058 0.357275 0.00396735
0.10457 0.363424 0.00257877
0.198947 0.370138 0
0.30277 0.376181 0
0.420691 0.383444 0.033402
0.516609 0.392294 0.0163577
0.589303 0.405035 0.0780346
0.708354 0.389288 0.147082
0.804028 0.362631 0.19408
0.858976 0.33225 0.221271
0.873121 0.299001 0.234668
0.85536 0.246174 0.231876
0.795941 0.146136 0.215641
0.761959 0.0961471 0.210666
0.780209 0.109133 0.252842
0.796841 0.117601 0.299229
0.803204 0.115465 0.350378
0.810101 0.118898 0.396201
0.828321 0.13727 0.443351
0.843534 0.154513 0.487327
0.855894 0.169863 0.525811
0.866239 0.183963 0.557946
0.872938 0.193591 0.577264
0 0.404028 0.102358
0 0.40531 0.103197
0 0.405997 0.103746
0 0.406165 0.102251
0 0.405875 0.097673
0 0.406439 0.0913252
0 0.407202 0.0843366
0 0.408164 0.0756847
0 0.409705 0.0627451
0 0.410254 0.0384222
0.00108339 0.410986 0.00819409
0.0484627 0.412268 0
0.147738 0.419303 0
0.263005 0.42594 0
0.367559 0.43711 0.00141909
0.492576 0.447929 0.0440986
0.595697 0.460746 0.0203708
0.672084 0.474372 0.0960555
0.791333 0.466926 0.173297
0.88864 0.442573 0.235233
0.931441 0.410315 0.270008
0.927642 0.37258 0.270649
0.902602 0.317968 0.258442
0.84268 0.20856 0.234333
0.783215 0.121675 0.215213
0.780941 0.111009 0.244633
0.80737 0.128191 0.306127
0.818936 0.130526 0.368185
0.835569 0.145235 0.425162
0.85536 0.167483 0.476722
0.867445 0.183108 0.520134
0.877546 0.197604 0.55639
0.88426 0.207721 0.576455
0 0.461463 0.125566
0 0.462654 0.126574
0 0.463478 0.127337
0 0.463462 0.124559
0 0.463096 0.120348
0 0.464286 0.114931
0 0.464942 0.108446
0 0.465537 0.0997024
0 0.466896 0.0882277
0 0.468574 0.0710307
0 0.469993 0.039704
0.0181582 0.471519 0.00590524
0.0887312 0.472465 0
0.20528 0.478538 0
0.33257 0.487037 0
0.436927 0.502449 0.0140536
0.566522 0.516457 0.065568
0.671275 0.530648 0.0510719
0.753185 0.546517 0.12755
0.859113 0.54725 0.204547
0.940536 0.529427 0.264469
0.966247 0.497124 0.28983
0.957275 0.451865 0.287465
0.937285 0.394064 0.276326
0.893156 0.298146 0.254734
0.815122 0.16701 0.222431
0.79292 0.127779 0.236835
0.816953 0.136126 0.317525
0.845289 0.158297 0.392676
0.867994 0.181933 0.454917
0.882887 0.201434 0.508614
0.893187 0.217853 0.552621
0.899077 0.227649 0.574166
0 0.524163 0.160159
0 0.525444 0.161685
0 0.526299 0.161776
0 0.526284 0.158572
0 0.526329 0.15491
0 0.52694 0.149935
0 0.527718 0.144732
0 0.52845 0.137072
0 0.529183 0.124834
0 0.531182 0.10985
0 0.533272 0.0866255
0.00643931 0.53434 0.0451362
0.05037 0.53579 0.00981155
0.150759 0.537179 0
0.284916 0.544335 0
0.407034 0.55761 0
0.513115 0.574731 0.0390631
0.639765 0.588037 0.0983597
0.743542 0.602335 0.102403
0.825254 0.619211 0.17084
0.902495 0.627359 0.233799
0.953628 0.614801 0.270436
0.9635 0.588479 0.276768
0.965454 0.546258 0.280995
0.962493 0.482979 0.286503
0.93753 0.39646 0.275303
0.875105 0.263813 0.247761
0.825681 0.179736 0.231296
0.852293 0.185626 0.311879
0.879973 0.199573 0.409186
0.902739 0.225437 0.47866
0.91371 0.244846 0.537621
0.918761 0.255375 0.563653
0 0.588785 0.199374
0 0.590204 0.202441
0 0.591241 0.200595
0 0.591501 0.197162
0 0.591302 0.193683
0 0.591867 0.189502
0 0.592645 0.185565
0 0.593378 0.179385
0 0.594568 0.168795
0 0.595422 0.153155
0.00527962 0.597162 0.135241
0.0159609 0.598795 0.104677
0.0406958 0.599496 0.0577707
0.108186 0.600504 0.0222934
0.23183 0.606592 0.0137484
0.378088 0.617334 0.0136721
0.485939 0.631952 0.0291447
0.588525 0.649012 0.0771038
0.711315 0.661524 0.141634
0.812039 0.676173 0.166171
0.884718 0.690791 0.220462
0.933425 0.700542 0.263691
0.947448 0.69192 0.270237
0.945403 0.669291 0.261845
0.950118 0.634516 0.262074
0.960266 0.581262 0.272404
0.961929 0.499702 0.281483
0.928328 0.373205 0.271092
0.887999 0.288777 0.25211
0.904479 0.273304 0.314015
0.91696 0.252308 0.410224
0.941146 0.280034 0.497795
0.947051 0.293584 0.53286
0.00521859 0.653483 0.242161
0.00575265 0.65536 0.245823
0.00650034 0.656275 0.243687
0.00724804 0.656031 0.240436
0.00805676 0.655711 0.237095
0.00939956 0.656367 0.234104
0.0111238 0.657343 0.230915
0.0137026 0.658625 0.225895
0.016907 0.659068 0.216526
0.0215 0.659419 0.201923
0.0276799 0.660304 0.184176
0.0362554 0.662013 0.162646
0.0519265 0.662943 0.123445
0.0925917 0.663584 0.0739147
0.191409 0.667628 0.045304
0.330434 0.677394 0.0425574
0.470832 0.689601 0.0512245
0.562692 0.704265 0.076524
0.664607 0.721889 0.128359
0.783642 0.735988 0.194583
0.872465 0.748012 0.232029
0.930953 0.758923 0.269245
0.961898 0.760601 0.295064
0.95845 0.749233 0.285756
0.948913 0.73135 0.269123
0.94258 0.70634 0.259373
0.943099 0.667597 0.256733
0.954192 0.599512 0.265354
0.95877 0.488167 0.277852
0.931792 0.380301 0.27364
0.938293 0.371435 0.294133
0.958114 0.330205 0.400076
0.973693 0.342901 0.453513
0.0377203 0.710781 0.286183
0.0380713 0.712016 0.28957
0.0389715 0.71281 0.287358
0.0396887 0.712642 0.28397
0.0403906 0.71252 0.281025
0.0417487 0.713039 0.278294
0.0435187 0.714305 0.276066
0.0456397 0.71519 0.271855
0.0485084 0.715908 0.264729
0.0521096 0.716197 0.253986
0.0578012 0.716304 0.236606
0.0657969 0.717128 0.215259
0.0773632 0.717952 0.188571
0.101732 0.717189 0.141772
0.166064 0.718746 0.0941939
0.293629 0.727672 0.0779889
0.43299 0.738262 0.0819562
0.557977 0.750332 0.100694
0.632776 0.765133 0.131487
0.738842 0.784497 0.186892
0.847776 0.79884 0.251316
0.920195 0.809003 0.289845
0.96437 0.817258 0.315038
0.976471 0.812909 0.320333
0.97052 0.801724 0.305974
0.96083 0.784344 0.283192
0.954467 0.760662 0.271977
0.947982 0.731853 0.264393
0.941146 0.687114 0.255772
0.953094 0.600565 0.263249
0.960693 0.470298 0.287098
0.961074 0.47126 0.28751
0.972473 0.467201 0.312825
0.0704967 0.755077 0.323857
0.071046 0.756283 0.327443
0.0720531 0.756985 0.325475
0.0728313 0.757015 0.322576
0.0738689 0.757351 0.320317
0.0752117 0.75787 0.317723
0.0766613 0.758648 0.315679
0.0781872 0.759136 0.312261
0.0805066 0.759731 0.306996
0.0835126 0.760159 0.298772
0.0879988 0.760616 0.286061
0.0949416 0.760189 0.264637
0.10515 0.759503 0.237156
0.119738 0.758724 0.204623
0.154696 0.756619 0.151995
0.259403 0.764462 0.117388
0.392966 0.772885 0.112551
0.528313 0.782055 0.122881
0.623697 0.794659 0.147997
0.697169 0.81117 0.184268
0.807691 0.832303 0.244373
0.898222 0.845029 0.301427
0.955047 0.854505 0.33547
0.981094 0.858427 0.349477
0.982452 0.853162 0.344717
0.978256 0.845396 0.331151
0.971878 0.833661 0.312184
0.966522 0.813779 0.29604
0.959213 0.787579 0.27689
0.952377 0.752194 0.268574
0.941329 0.703395 0.258274
0.952804 0.607584 0.262898
0.965209 0.571908 0.278416
0.0952316 0.784131 0.354696
0.0955367 0.78497 0.357916
0.0961471 0.785199 0.35613
0.0968643 0.785183 0.353628
0.0975814 0.785122 0.351034
0.0985122 0.785229 0.34847
0.0995651 0.785504 0.346075
0.100649 0.785641 0.343114
0.10219 0.785611 0.338109
0.104524 0.785672 0.331182
0.107515 0.785306 0.320226
0.112581 0.784543 0.302754
0.120699 0.783093 0.276326
0.13312 0.780972 0.241993
0.151629 0.778424 0.202487
0.217334 0.78143 0.155718
0.350851 0.788006 0.135988
0.483421 0.794003 0.137743
0.601602 0.804288 0.156664
0.677058 0.818402 0.186862
0.761074 0.836225 0.23061
0.867491 0.857984 0.291951
0.938033 0.869047 0.339147
0.977752 0.877714 0.365133
0.984924 0.878904 0.3691
0.984024 0.876753 0.36463
0.981964 0.873686 0.35555
0.9785 0.868238 0.34284
0.975982 0.857008 0.330755
0.972244 0.840223 0.313756
0.964324 0.811856 0.288457
0.956802 0.772152 0.275044
0.951431 0.749645 0.268498
0.105303 0.794125 0.374411
0.105653 0.794568 0.376822
0.105806 0.794507 0.375219
0.106432 0.794476 0.372641
0.107057 0.7944 0.370153
0.10779 0.794369 0.36762
0.108507 0.794293 0.365087
0.109346 0.794171 0.361975
0.110552 0.793973 0.357336
0.112184 0.793652 0.350912
0.114916 0.793194 0.341344
0.1187 0.79237 0.327016
0.124666 0.790875 0.304692
0.134478 0.78851 0.271717
0.150973 0.78529 0.228946
0.182101 0.783719 0.186267
0.297276 0.790753 0.157153
0.434119 0.794568 0.151019
0.564187 0.803189 0.161669
0.652338 0.816098 0.186923
0.730968 0.83212 0.223774
0.823301 0.850813 0.272084
0.908431 0.86688 0.325505
0.96495 0.87808 0.362448
0.985031 0.883558 0.3776
0.985794 0.883696 0.377844
0.985245 0.882948 0.37464
0.983459 0.880766 0.36614
0.980835 0.877821 0.355993
0.980056 0.875975 0.352071
0.978714 0.872496 0.346242
0.976669 0.860334 0.333745
0.974914 0.851255 0.325032
0.11194 0.798306 0.389792
0.112474 0.798749 0.391852
0.112535 0.798596 0.38999
0.113039 0.798505 0.387671
0.113527 0.798428 0.385428
0.114275 0.798383 0.382986
0.115068 0.798352 0.380804
0.116045 0.79826 0.377676
0.117342 0.798016 0.373037
0.118837 0.797635 0.366766
0.120821 0.796963 0.358206
0.123873 0.796231 0.346288
0.128389 0.795026 0.328496
0.136248 0.793088 0.30071
0.149142 0.790127 0.260395
0.179324 0.788602 0.213718
0.242374 0.792508 0.187243
0.379675 0.794537 0.171786
0.514199 0.800961 0.174014
0.619379 0.812894 0.192065
0.701076 0.828321 0.223911
0.791196 0.846387 0.265965
0.875898 0.863966 0.311299
0.941909 0.874952 0.354101
0.981552 0.883909 0.380346
0.986694 0.885496 0.386435
0.986587 0.885191 0.385199
0.986084 0.884276 0.380667
0.984649 0.882322 0.371664
0.982666 0.880018 0.362921
0.981796 0.879057 0.35964
0.98117 0.878386 0.357366
0.980835 0.878019 0.356176
0.120882 0.802472 0.403372
0.121416 0.802884 0.40528
0.121447 0.802731 0.40351
0.121843 0.802609 0.401358
0.12224 0.802441 0.399115
0.122927 0.802396 0.397086
0.123659 0.80238 0.395148
0.124559 0.802213 0.392187
0.125643 0.801907 0.387884
0.126955 0.801541 0.382422
0.128817 0.801007 0.374823
0.131563 0.800305 0.364721
0.135348 0.799054 0.349187
0.140932 0.79736 0.327337
0.15201 0.795499 0.296544
0.180667 0.794308 0.253056
0.24242 0.797162 0.227741
0.331365 0.797391 0.220722
0.455787 0.799283 0.214939
0.574792 0.810101 0.22092
0.666941 0.824933 0.241581
0.762417 0.843275 0.275212
0.850309 0.860761 0.310674
0.913008 0.871351 0.346227
0.965377 0.881605 0.378149
0.986206 0.887999 0.402457
0.987488 0.889738 0.416648
0.987564 0.889067 0.410269
0.986969 0.886275 0.390417
0.985458 0.883635 0.37644
0.983902 0.881605 0.36849
0.983063 0.880583 0.364645
0.982864 0.880323 0.363851
0.131426 0.806561 0.417105
0.132097 0.806958 0.418616
0.131914 0.806806 0.41735
0.131975 0.806577 0.415167
0.132189 0.806363 0.412879
0.132906 0.806271 0.411124
0.133623 0.80618 0.409384
0.134386 0.806027 0.406836
0.135592 0.805707 0.402502
0.137041 0.805295 0.397345
0.138842 0.804685 0.390234
0.1411 0.803891 0.380835
0.14406 0.802853 0.368643
0.149172 0.801602 0.352026
0.165103 0.80087 0.329702
0.195514 0.800397 0.300862
0.259602 0.801053 0.282338
0.331563 0.800259 0.276905
0.416846 0.798901 0.27866
0.526223 0.806256 0.280171
0.633066 0.821118 0.293996
0.728695 0.837964 0.32253
0.823423 0.857801 0.355138
0.895247 0.873777 0.377905
0.943786 0.881102 0.404898
0.981216 0.889998 0.431861
0.985718 0.892607 0.452445
0.985016 0.893721 0.468071
0.985412 0.893217 0.460334
0.987411 0.890425 0.42327
0.986664 0.885725 0.388174
0.984588 0.8822 0.371298
0.983948 0.881086 0.367941
