bundles/resolve-cinematic-luts/Phantom Luts/A7s3 Phntm Arri LUTs G7/SLog3/Tungsten A7s3-Legacy.cube
TITLE "Generated by Resolve"
LUT_3D_SIZE 9
0.0311437 0.0300298 0.0351415
0.0331731 0.0302281 0.0352789
0.0983902 0.0318761 0.044419
0.23389 0.0378729 0.07364
0.445823 0.0472877 0.143038
0.701137 0.0692302 0.263157
0.8 0.108736 0.3953
0.826139 0.137545 0.521187
0.868299 0.194919 0.636286
0.0338293 0.043061 0.0420081
0.0369573 0.0418708 0.040528
0.0887007 0.0384222 0.0424659
0.230472 0.037171 0.0694896
0.441611 0.0478218 0.134783
0.694286 0.0684825 0.252186
0.79704 0.106294 0.381582
0.824948 0.135103 0.498024
0.843503 0.160311 0.578927
0.037705 0.117449 0.0565957
0.0390173 0.115373 0.0499428
0.104997 0.113771 0.0438087
0.253361 0.0783246 0.0615396
0.443198 0.0322118 0.0975357
0.698436 0.072343 0.231144
0.796002 0.10602 0.369253
0.825483 0.135439 0.491875
0.847776 0.165011 0.579873
0.00503548 0.252689 0.0754864
0.00636301 0.25333 0.0700694
0.0261845 0.254368 0.024155
0.28452 0.265461 0.0356298
0.608606 0.216693 0.130846
0.681208 0.067689 0.150439
0.794781 0.110613 0.321843
0.826612 0.135988 0.469703
0.859495 0.177813 0.579232
0 0.461463 0.125566
0 0.463096 0.120348
0 0.466896 0.0882277
0.0887312 0.472465 0
0.566522 0.516457 0.065568
0.940536 0.529427 0.264469
0.893156 0.298146 0.254734
0.845289 0.158297 0.392676
0.899077 0.227649 0.574166
0.0377203 0.710781 0.286183
0.0403906 0.71252 0.281025
0.0485084 0.715908 0.264729
0.0773632 0.717952 0.188571
0.43299 0.738262 0.0819562
0.847776 0.79884 0.251316
0.97052 0.801724 0.305974
0.941146 0.687114 0.255772
0.972473 0.467201 0.312825
0.11194 0.798306 0.389792
0.113527 0.798428 0.385428
0.117342 0.798016 0.373037
0.128389 0.795026 0.328496
0.242374 0.792508 0.187243
0.701076 0.828321 0.223911
0.981552 0.883909 0.380346
0.984649 0.882322 0.371664
0.980835 0.878019 0.356176
0.163363 0.813779 0.443839
0.159518 0.813199 0.439231
0.16733 0.812833 0.433509
0.195071 0.810727 0.414099
0.32076 0.80354 0.399756
0.61297 0.836912 0.444968
0.917952 0.890547 0.524208
0.985946 0.90866 0.584863
0.985 0.906523 0.570321
0.400809 0.833463 0.580972
0.362005 0.825147 0.550698
0.369528 0.825315 0.550301
0.409628 0.83032 0.560998
0.511498 0.851331 0.600992
0.734249 0.902205 0.675074
0.935363 0.936049 0.72401
0.994827 0.941924 0.738949
0.995438 0.950225 0.775204
0.0302434 0.031693 0.0447547
0.0361791 0.0318914 0.0444953
0.0931868 0.034638 0.0604105
0.227817 0.0374914 0.0908217
0.442878 0.0466926 0.158618
0.70425 0.0692302 0.280339
0.803586 0.111818 0.408423
0.826764 0.138796 0.531579
0.873335 0.203372 0.65243
0.0333104 0.0415656 0.0473793
0.0339208 0.0413367 0.0477455
0.101671 0.0375067 0.052079
0.234852 0.0387884 0.0769818
0.447913 0.0478828 0.146532
0.701137 0.0696117 0.263874
0.800092 0.108644 0.394766
0.826658 0.137713 0.517632
0.861982 0.185855 0.623774
0.038529 0.117144 0.0780652
0.0378424 0.117296 0.0641031
0.0993668 0.113741 0.0476539
0.258366 0.0735485 0.0645762
0.456947 0.0400092 0.115206
0.706706 0.0735332 0.243549
0.798428 0.107591 0.382269
0.826993 0.137896 0.513588
0.868894 0.194812 0.63122
0.00436408 0.253193 0.0961471
0.00440986 0.254017 0.0850843
0.0169985 0.254139 0.038819
0.281361 0.263569 0.0369268
0.604868 0.212497 0.131792
0.679103 0.058793 0.154055
0.796414 0.109621 0.339086
0.829633 0.139849 0.497337
0.881895 0.211597 0.639719
0 0.461784 0.141543
0 0.464881 0.135149
0 0.467277 0.103761
0.0662699 0.47187 0
0.564538 0.515221 0.0672007
0.944976 0.526497 0.270008
0.867002 0.250538 0.243259
0.864118 0.177478 0.446128
0.915648 0.26247 0.650736
0.0368505 0.711391 0.297932
0.0403906 0.715587 0.29482
0.0477913 0.719448 0.279805
0.0746777 0.720607 0.203281
0.41796 0.739254 0.0844892
0.849928 0.801053 0.253468
0.970642 0.80145 0.306172
0.940215 0.662074 0.253223
0.987778 0.398047 0.410727
0.113527 0.799893 0.398505
0.114046 0.799756 0.395087
0.117266 0.799268 0.383093
0.127535 0.796231 0.339483
0.231952 0.792416 0.192966
0.696971 0.827817 0.224109
0.981918 0.884016 0.38085
0.984527 0.882185 0.371176
0.980652 0.877806 0.35552
0.168063 0.815305 0.451774
0.165896 0.814862 0.448218
0.173327 0.81445 0.442924
0.203281 0.811749 0.42417
0.323415 0.804364 0.410574
0.611536 0.838209 0.453452
0.917464 0.891508 0.528252
0.985977 0.908797 0.585641
0.985473 0.906889 0.571801
0.407065 0.835126 0.58764
0.389044 0.830747 0.571893
0.396643 0.831357 0.572473
0.428321 0.83566 0.579705
0.522164 0.855207 0.613794
0.731792 0.901976 0.675792
0.933883 0.936156 0.724605
0.994827 0.941924 0.738949
0.995315 0.950423 0.775647
0.0248569 0.0350652 0.0940261
0.0365759 0.0349737 0.0953841
0.0948653 0.0360876 0.0971847
0.221775 0.0399176 0.128573
0.4392 0.0457771 0.187106
0.707698 0.0692607 0.304555
0.807385 0.115557 0.422309
0.826551 0.139101 0.53843
0.873442 0.204227 0.657069
0.0264744 0.0410163 0.0824445
0.0243839 0.0388952 0.0929427
0.0941482 0.0367742 0.101457
0.224903 0.039292 0.117174
0.439872 0.0458534 0.173648
0.703151 0.0686351 0.287724
0.803632 0.111879 0.409751
0.826291 0.137835 0.525124
0.861982 0.186694 0.628946
0.0378271 0.110994 0.110689
0.0376593 0.11162 0.112139
0.0919051 0.109392 0.115084
0.278279 0.0767681 0.119509
0.451789 0.0478981 0.147143
0.711147 0.0720836 0.269398
0.803769 0.112139 0.406027
0.83212 0.145464 0.546349
0.897581 0.243534 0.705898
0.00802625 0.253285 0.13608
0.00697337 0.254292 0.128603
0.0215152 0.252064 0.0944533
0.276967 0.263966 0.0703899
0.570535 0.203555 0.142489
0.715984 0.075761 0.202106
0.798535 0.109041 0.363882
0.839872 0.152789 0.536263
0.905104 0.255238 0.708766
0 0.462211 0.174075
0 0.464942 0.166079
0 0.464622 0.139422
0.0270085 0.464073 0.0148013
0.553216 0.506386 0.0724346
0.94464 0.517815 0.278401
0.843778 0.209018 0.236286
0.873182 0.188525 0.486412
0.926116 0.289876 0.699367
0.0344244 0.710491 0.313542
0.038056 0.714931 0.311406
0.0450904 0.71931 0.298817
0.0670939 0.718685 0.225483
0.386389 0.735439 0.090425
0.84593 0.79826 0.25214
0.973541 0.800717 0.312367
0.940169 0.648981 0.25211
1 0.417136 0.494545
0.115373 0.801877 0.410346
0.115862 0.801953 0.408103
0.118425 0.801175 0.396765
0.127687 0.798199 0.354696
0.223148 0.79353 0.207294
0.688762 0.826841 0.226139
0.982177 0.884077 0.381201
0.985 0.88278 0.373556
0.980667 0.877791 0.355489
0.170733 0.816358 0.459709
0.168444 0.816175 0.457069
0.176989 0.815915 0.452171
0.206836 0.812955 0.434104
0.324651 0.805203 0.420417
0.610605 0.839734 0.462455
0.916899 0.892714 0.53341
0.985901 0.908522 0.584039
0.985 0.907103 0.573266
0.408484 0.836194 0.592721
0.389883 0.831846 0.576867
0.404593 0.833829 0.582406
0.434607 0.838132 0.589197
0.524056 0.85655 0.620111
0.728786 0.902434 0.679484
0.932189 0.936828 0.727352
0.994827 0.941985 0.739193
0.995315 0.950423 0.775692
0.0161135 0.044831 0.193545
0.0271763 0.0429694 0.196674
0.101411 0.0388342 0.213855
0.226993 0.0408789 0.208621
0.430915 0.0504463 0.264439
0.709468 0.0750744 0.363241
0.814923 0.123674 0.459907
0.825803 0.140017 0.556848
0.873869 0.207111 0.670512
0.0106966 0.0476234 0.187976
0.0105592 0.0473945 0.197421
0.0867628 0.0400854 0.225925
0.228977 0.0411994 0.211154
0.429206 0.0502785 0.256474
0.705333 0.0721752 0.350103
0.813001 0.121492 0.449058
0.825483 0.138582 0.545052
0.86331 0.190631 0.644526
0.0115816 0.109941 0.195529
0.0100862 0.108064 0.203494
0.0456092 0.0893568 0.244831
0.253269 0.0525978 0.231205
0.43444 0.0500649 0.242283
0.710979 0.0708019 0.336233
0.813993 0.12256 0.447486
0.833295 0.148547 0.566751
0.897963 0.247379 0.720302
0.0206302 0.247639 0.23212
0.0204166 0.249531 0.234211
0.0327764 0.248585 0.234043
0.267216 0.271427 0.270008
0.578866 0.201083 0.269825
0.723903 0.0763714 0.273014
0.808377 0.116793 0.415976
0.853056 0.17203 0.590616
0.931823 0.326223 0.797482
0 0.469505 0.274006
0 0.472343 0.270207
0 0.470253 0.246357
0.0140841 0.458549 0.151812
0.537133 0.505241 0.174914
0.929885 0.494591 0.306462
0.828305 0.172702 0.261921
0.879454 0.199405 0.548379
0.94313 0.348501 0.780163
0.0370947 0.711696 0.36582
0.0393683 0.716121 0.36318
0.044358 0.719676 0.348531
0.0578622 0.717769 0.294789
0.286015 0.727321 0.119478
0.827527 0.78407 0.248707
0.980316 0.792325 0.331685
0.943679 0.611688 0.25272
0.98439 0.409659 0.634363
0.120867 0.806241 0.439948
0.12137 0.8065 0.438315
0.12372 0.806424 0.429969
0.129686 0.80351 0.393362
0.207736 0.797971 0.263279
0.657084 0.823972 0.257557
0.981186 0.884062 0.382986
0.98613 0.884337 0.381018
0.980499 0.877638 0.354971
0.175906 0.819074 0.480003
0.174701 0.819181 0.478782
0.182986 0.818982 0.475334
0.213397 0.816449 0.460029
0.326009 0.807614 0.444282
0.606546 0.843244 0.484184
0.914733 0.896483 0.549996
0.985702 0.907607 0.57908
0.985473 0.909026 0.584253
0.412879 0.838956 0.606088
0.392935 0.834501 0.590661
0.408286 0.837049 0.597452
0.452522 0.845106 0.615534
0.53225 0.86099 0.637812
0.72108 0.903883 0.690288
0.929534 0.939101 0.737179
0.994904 0.942794 0.742779
0.995331 0.950469 0.775967
0.0108034 0.0646677 0.367132
0.0303197 0.0607004 0.376028
0.0970169 0.0500954 0.401144
0.243168 0.0394141 0.400259
0.435874 0.0509651 0.402594
0.708873 0.0793927 0.476204
0.810834 0.124346 0.545037
0.822095 0.142702 0.603311
0.877562 0.220859 0.71397
0.000167849 0.0682994 0.369696
0.00434882 0.0670787 0.370932
0.0743267 0.0537118 0.406485
0.237079 0.0401312 0.409888
0.436637 0.0509804 0.403738
0.705501 0.0785077 0.471412
0.810971 0.123827 0.538598
0.821637 0.141131 0.595895
0.867475 0.204623 0.691234
0 0.0922103 0.375845
0 0.0915847 0.381689
0.0049897 0.076463 0.421958
0.231556 0.0445258 0.462623
0.456138 0.0527352 0.421759
0.713527 0.0801556 0.470985
0.811933 0.125002 0.54049
0.837339 0.160555 0.622919
0.901228 0.263859 0.764706
0 0.257481 0.398779
0 0.25684 0.404715
0 0.25005 0.426688
0.180423 0.223621 0.518013
0.518059 0.124971 0.476204
0.725246 0.0834669 0.461616
0.813901 0.125902 0.528206
0.85948 0.188205 0.652979
0.935958 0.348775 0.836011
0.0318456 0.494011 0.46157
0.0323186 0.498238 0.466728
0.0370947 0.500206 0.468666
0.0621653 0.49189 0.459571
0.514504 0.518425 0.507042
0.94287 0.471244 0.531594
0.838117 0.148821 0.439704
0.887327 0.21976 0.648386
0.956146 0.426169 0.8701
0.0630808 0.719219 0.496056
0.0657969 0.724086 0.497856
0.0708934 0.728145 0.492103
0.0785229 0.723018 0.453162
0.23064 0.708751 0.352544
0.786709 0.771359 0.435676
0.984131 0.786892 0.478492
0.990219 0.546471 0.338521
0.971588 0.439643 0.733623
0.142382 0.821591 0.530434
0.143267 0.822034 0.530495
0.145098 0.821454 0.522377
0.147265 0.817304 0.486473
0.204715 0.80914 0.399344
0.596521 0.826459 0.392767
0.967391 0.893111 0.500679
0.984314 0.894713 0.486793
0.980713 0.877852 0.355642
0.189609 0.827771 0.533822
0.189395 0.827939 0.53341
0.19939 0.827878 0.532113
0.233295 0.824918 0.522042
0.34136 0.816678 0.508583
0.60235 0.856382 0.55024
0.911345 0.9093 0.615351
0.986618 0.911437 0.59968
0.988998 0.921752 0.649744
0.418357 0.846143 0.639689
0.404395 0.843107 0.629938
0.422736 0.846387 0.638773
0.471107 0.85597 0.660685
0.55108 0.872465 0.684871
0.715557 0.910887 0.728542
0.925643 0.946853 0.77174
0.996139 0.951263 0.780789
0.995392 0.95079 0.777447
0.0153658 0.100008 0.575616
0.0386816 0.0949416 0.586343
0.0927596 0.0803082 0.608362
0.248386 0.0607156 0.63801
0.440742 0.0480659 0.606836
0.685771 0.0846113 0.620478
0.788968 0.130877 0.670359
0.794034 0.14963 0.717525
0.830427 0.191211 0.75816
0.00122072 0.104311 0.573358
0.00848402 0.10193 0.573877
0.0665293 0.0899977 0.605829
0.231373 0.0633555 0.64567
0.436423 0.0482185 0.609628
0.68397 0.0841688 0.620172
0.789242 0.130175 0.66717
0.793439 0.148608 0.715846
0.814054 0.170779 0.736324
0 0.13138 0.577249
0 0.130266 0.579019
0.00642405 0.115007 0.609491
0.198062 0.0711376 0.669123
0.464149 0.054612 0.662486
0.69572 0.0882734 0.629206
0.787915 0.13225 0.677424
0.796033 0.152346 0.721202
0.876646 0.257542 0.828122
0 0.242557 0.591379
0 0.239277 0.593988
0 0.231052 0.613962
0.0715038 0.176287 0.683619
0.438804 0.0746166 0.705699
0.728939 0.103273 0.655085
0.787152 0.13402 0.685023
0.800061 0.156039 0.723461
0.932937 0.369512 0.90695
0.027451 0.527886 0.648066
0.0287327 0.530404 0.653574
0.0323339 0.533593 0.666606
0.037171 0.522469 0.687724
0.470985 0.533822 0.859922
0.86775 0.377997 0.787182
0.793011 0.13576 0.676524
0.819287 0.173236 0.731579
0.957565 0.462943 0.937209
0.135988 0.742565 0.702708
0.141314 0.748898 0.709743
0.149157 0.755688 0.716396
0.16231 0.759762 0.71957
0.31313 0.767544 0.725933
0.77055 0.776913 0.762539
1 0.744686 0.784314
0.960143 0.392554 0.709499
0.958312 0.433326 0.864652
0.210971 0.864179 0.716609
0.214252 0.866728 0.721157
0.217136 0.868345 0.720378
0.216663 0.865629 0.70219
0.249851 0.852094 0.639368
0.604944 0.877668 0.664927
0.958648 0.93698 0.746365
0.998581 0.933867 0.743862
0.997528 0.892638 0.628916
0.230533 0.865293 0.687816
0.231815 0.866133 0.689998
0.239231 0.86627 0.688609
0.269093 0.863447 0.678767
0.395102 0.85124 0.663859
0.626642 0.891005 0.712856
0.911833 0.945281 0.770703
0.996658 0.953368 0.79173
0.996246 0.952956 0.788388
0.435264 0.87628 0.740169
0.428473 0.875517 0.738079
0.451591 0.878264 0.744823
0.506523 0.885252 0.759396
0.594827 0.899702 0.782498
0.73991 0.930312 0.818112
0.924041 0.965774 0.855695
0.995727 0.970535 0.867048
0.995804 0.967239 0.849622
0 0.162768 0.660899
0.0114748 0.155413 0.668009
0.058854 0.14342 0.692836
0.192691 0.0970016 0.731334
0.422797 0.0856794 0.77145
0.625177 0.0929274 0.736721
0.757259 0.145632 0.770794
0.765881 0.159487 0.79028
0.776028 0.168536 0.796216
0 0.16408 0.656443
0 0.161532 0.657633
0.0370031 0.14876 0.681819
0.172641 0.100542 0.725597
0.416205 0.0863355 0.772366
0.624125 0.0927443 0.736934
0.757549 0.145129 0.769162
0.765393 0.158587 0.788815
0.774258 0.167117 0.79556
0 0.179522 0.655528
0 0.17821 0.655726
0 0.177844 0.667201
0.126223 0.124208 0.723461
0.40441 0.0929122 0.783688
0.640177 0.102007 0.752529
0.756191 0.147311 0.776272
0.767712 0.161959 0.79324
0.78854 0.183307 0.811063
0 0.256947 0.677958
0 0.254688 0.677928
0 0.255756 0.68957
0.0158083 0.224857 0.704723
0.348592 0.113603 0.795651
0.695491 0.131334 0.784802
0.755795 0.149004 0.780713
0.770855 0.165255 0.796231
0.876326 0.290196 0.902647
0.0749218 0.538827 0.768429
0.0770733 0.541283 0.771389
0.0831311 0.544839 0.781704
0.086305 0.5308 0.795209
0.409903 0.54902 1
0.815549 0.368948 0.977295
0.765499 0.159228 0.790143
0.773098 0.167697 0.798474
0.936828 0.402838 0.960586
0.165499 0.750698 0.812253
0.170657 0.756527 0.817639
0.176745 0.763134 0.82475
0.179492 0.763897 0.831449
0.287648 0.81268 0.922698
0.759213 0.80885 1
0.976608 0.695735 0.958144
0.913527 0.35021 0.936767
0.915618 0.353414 0.941009
0.292119 0.902373 0.874922
0.295613 0.905287 0.878553
0.300389 0.90866 0.882017
0.307622 0.912108 0.885084
0.339773 0.923125 0.893843
0.681804 0.940764 0.921462
0.946731 0.950484 0.943145
0.988769 0.933364 0.944808
0.982391 0.892775 0.942931
0.316701 0.923613 0.869276
0.318044 0.924346 0.871015
0.321691 0.925689 0.872312
0.341894 0.93106 0.876829
0.454643 0.935531 0.882109
0.684764 0.944381 0.895521
0.918257 0.978439 0.936584
0.993744 0.984771 0.945296
0.993774 0.985626 0.948745
0.466514 0.941604 0.896086
0.464393 0.942107 0.896986
0.488533 0.943297 0.900175
0.54551 0.945525 0.905592
0.630472 0.950011 0.912978
0.775647 0.960571 0.924788
0.928481 0.981216 0.950835
0.993393 0.986633 0.955901
0.99324 0.986984 0.956573
0 0.21326 0.690105
0 0.207782 0.68957
0 0.193896 0.684703
0.0925002 0.148898 0.725185
0.37084 0.0982834 0.788586
0.654551 0.114412 0.779736
0.751171 0.145296 0.778698
0.760204 0.154711 0.787579
0.768536 0.163806 0.796246
0 0.208713 0.686809
0 0.207141 0.686595
0 0.198199 0.686778
0.0780041 0.154726 0.72015
0.363241 0.0986954 0.787854
0.652811 0.114321 0.780224
0.750988 0.145098 0.778515
0.759731 0.154345 0.787396
0.767452 0.162631 0.795178
0 0.22121 0.687602
0 0.220295 0.687907
0.00410468 0.237873 0.701701
0 0.198154 0.689357
0.3252 0.111147 0.79115
0.673304 0.123796 0.785428
0.751842 0.145846 0.779034
0.761517 0.155962 0.788495
0.772366 0.167849 0.799939
0.0231785 0.333303 0.731548
0.0225376 0.331044 0.730877
0.0384375 0.368429 0.755611
0.0437476 0.372824 0.765026
0.362127 0.304067 0.93434
0.656641 0.141192 0.815335
0.752895 0.146868 0.779934
0.763119 0.15758 0.789761
0.782315 0.178729 0.809949
0.103807 0.568109 0.810056
0.106126 0.571283 0.812726
0.115389 0.585763 0.823407
0.121157 0.584833 0.835508
0.359823 0.629358 1
0.787503 0.491783 1
0.807034 0.206409 0.833982
0.76527 0.159884 0.792004
0.857435 0.265614 0.884352
0.191608 0.767452 0.854536
0.195438 0.772976 0.857939
0.201358 0.780713 0.863767
0.204654 0.782742 0.8692
0.293294 0.821958 0.939849
0.741848 0.837888 1
0.973678 0.710613 0.98822
0.936461 0.403403 0.958602
0.834516 0.237644 0.861616
0.305928 0.906355 0.914794
0.309087 0.908995 0.917037
0.315007 0.913329 0.921126
0.325719 0.919203 0.928328
0.355169 0.930739 0.947417
0.691279 0.970977 1
0.932754 0.948318 0.990524
0.982681 0.919234 0.982681
0.979782 0.848783 0.984237
0.355444 0.946517 0.933242
0.356603 0.947265 0.934371
0.360784 0.949203 0.936965
0.379507 0.956909 0.946822
0.48838 0.974823 0.969421
0.711025 0.981903 0.978683
0.921599 0.9879 0.986465
0.989792 0.989578 0.988876
0.990356 0.989776 0.989105
0.478523 0.972488 0.964813
0.47837 0.973022 0.965881
0.50341 0.97467 0.968368
0.563287 0.977005 0.971954
0.64744 0.980194 0.976791
0.780438 0.984436 0.982254
0.930465 0.988357 0.98735
0.989639 0.989853 0.989364
0.990951 0.988357 0.987289
0.00560006 0.249622 0.703685
0.00354009 0.239033 0.700359
0.00291447 0.228458 0.700343
0 0.188586 0.683894
0.315389 0.11223 0.789746
0.656229 0.121309 0.788556
0.750164 0.144244 0.7776
0.753826 0.147967 0.781231
0.76318 0.15819 0.791104
0.00190738 0.234119 0.696941
0.00163272 0.232441 0.696788
0.00257877 0.22884 0.699504
0 0.189746 0.684627
0.31371 0.111147 0.788495
0.654765 0.120394 0.787793
0.750195 0.144274 0.77763
0.753582 0.147768 0.781094
0.762814 0.1579 0.791012
0.00941482 0.269184 0.710323
0.00819409 0.26389 0.708309
0.0414893 0.369894 0.761212
0.0337224 0.33991 0.751293
0.328222 0.262181 0.898634
0.62887 0.130236 0.809674
0.753857 0.147814 0.780789
0.754421 0.148379 0.781292
0.765347 0.160433 0.793194
0.047776 0.405722 0.765728
0.047013 0.402991 0.765026
0.0750286 0.474861 0.797391
0.0936599 0.519463 0.816251
0.335332 0.521111 0.992782
0.75407 0.359335 0.989837
0.767483 0.162264 0.794308
0.755001 0.148867 0.781537
0.768688 0.163882 0.796216
0.122606 0.603693 0.827451
0.124437 0.606851 0.82948
0.137942 0.635538 0.84036
0.148089 0.654475 0.850004
0.286305 0.722103 0.959319
0.765805 0.679011 1
0.95668 0.476738 0.976867
0.755642 0.14966 0.782452
0.772274 0.167758 0.799786
0.204761 0.783581 0.868513
0.208621 0.789471 0.871595
0.215335 0.799695 0.876677
0.219608 0.8047 0.881407
0.295506 0.840452 0.935699
0.724712 0.879835 1
0.962463 0.764874 0.989258
0.969497 0.568566 0.985336
0.77438 0.169741 0.801312
0.300114 0.904448 0.915877
0.303761 0.907423 0.917952
0.310369 0.912261 0.921126
0.324239 0.919387 0.928923
0.363592 0.935912 0.951583
0.700404 0.97232 1
0.926604 0.953323 0.990448
0.982574 0.925155 0.983825
0.980179 0.865675 0.984176
0.365087 0.951324 0.942763
0.367193 0.952377 0.944305
0.376562 0.956283 0.948455
0.399939 0.963623 0.956252
0.501945 0.975052 0.96936
0.712062 0.981765 0.9785
0.915526 0.987564 0.986221
0.989456 0.990005 0.989471
0.989532 0.989334 0.989548
0.474845 0.973831 0.967987
0.475807 0.974243 0.968765
0.501717 0.975555 0.970459
0.564141 0.977752 0.973526
0.647547 0.980346 0.97702
0.778668 0.984619 0.982635
0.927108 0.988617 0.987854
0.98883 0.98999 0.990494
0.990433 0.989578 0.988739
