bundles/resolve-cinematic-luts/Phantom Luts/A7s3 Phntm Arri LUTs G7/SLog3/Tungsten A7s3.cube
TITLE "Generated by Resolve"
LUT_3D_SIZE 33
0.0123445 0.011017 0.0163119
0.0123445 0.011017 0.0163119
0.0123445 0.011017 0.0163119
0.0123598 0.0110628 0.0163119
0.0170596 0.0115053 0.0172122
0.0337835 0.0128634 0.0215763
0.0541543 0.0137942 0.0265507
0.08336 0.0154421 0.0324407
0.115404 0.016846 0.0394293
0.152773 0.0178378 0.0476692
0.19527 0.0189364 0.0572519
0.242557 0.0200046 0.0686198
0.293263 0.0216373 0.0780652
0.344854 0.0222477 0.0951095
0.398032 0.0248264 0.117052
0.454139 0.0294347 0.140398
0.513497 0.0356756 0.166857
0.57409 0.0423438 0.196078
0.633844 0.0500801 0.230793
0.688304 0.0587015 0.268025
0.733669 0.0716564 0.306249
0.766506 0.0859541 0.343008
0.789822 0.0992599 0.377981
0.805295 0.111788 0.413474
0.817227 0.124346 0.451255
0.823499 0.132158 0.48835
0.826078 0.136736 0.52282
0.827771 0.141161 0.553643
0.828824 0.145464 0.580606
0.834638 0.155505 0.608652
0.846983 0.173861 0.640055
0.86244 0.196826 0.671855
0.875196 0.217639 0.698528
0.0123293 0.0110781 0.016434
0.0123445 0.0110323 0.0163272
0.0123445 0.011017 0.0163119
0.0123293 0.0110475 0.0163119
0.0164645 0.0115358 0.0171359
0.0322881 0.0128328 0.0209354
0.0520485 0.0137331 0.0258946
0.0821546 0.0156252 0.0322118
0.114137 0.0169375 0.0390784
0.151568 0.0178531 0.0472877
0.194751 0.019028 0.0573129
0.242725 0.0200961 0.068864
0.293797 0.0216983 0.0783093
0.345632 0.0222782 0.0954604
0.398322 0.0248264 0.117098
0.453925 0.0294194 0.14023
0.512978 0.0356451 0.166491
0.573587 0.0423285 0.195132
0.633097 0.0500649 0.228733
0.687205 0.0586557 0.265126
0.731899 0.0711376 0.302754
0.765057 0.0853895 0.339544
0.78851 0.0983597 0.374258
0.8038 0.110277 0.408988
0.816297 0.123308 0.446052
0.823377 0.131777 0.482765
0.825849 0.136019 0.516213
0.827466 0.140124 0.546212
0.828656 0.144228 0.572686
0.831113 0.150088 0.596658
0.838773 0.162051 0.622217
0.852262 0.181476 0.650828
0.864012 0.19942 0.675425
0.0122072 0.0122225 0.0181888
0.0122072 0.0122072 0.018143
0.0122683 0.0119783 0.0176547
0.0124514 0.0116121 0.0169528
0.0153506 0.0118868 0.0168612
0.0281071 0.0127718 0.0192569
0.0444495 0.0135958 0.0235294
0.0739147 0.0153353 0.030518
0.107225 0.0170443 0.037583
0.145083 0.0177768 0.0455482
0.189181 0.0188449 0.0556649
0.238437 0.0198978 0.0674449
0.29073 0.0216526 0.0772869
0.343145 0.0222477 0.0939651
0.395987 0.0246433 0.115801
0.451194 0.0291295 0.138811
0.509941 0.0353552 0.164431
0.570474 0.0419776 0.193072
0.630655 0.049897 0.226184
0.684749 0.0582742 0.262379
0.729641 0.0704051 0.299596
0.76318 0.0845197 0.336248
0.787457 0.0977646 0.370703
0.802472 0.10898 0.404883
0.815564 0.122484 0.441367
0.823072 0.131182 0.477348
0.825559 0.135302 0.510033
0.827268 0.139239 0.539071
0.828351 0.142947 0.56463
0.829313 0.146777 0.586664
0.834134 0.154986 0.608515
0.842634 0.167559 0.6309
0.853239 0.183001 0.653346
0.01355 0.0187991 0.0218509
0.01355 0.0189975 0.0221714
0.0135958 0.0189975 0.021561
0.0153201 0.0183566 0.020264
0.0186007 0.0182956 0.0200961
0.0283055 0.0191958 0.0209659
0.0415351 0.0188296 0.0229343
0.0674449 0.0180362 0.0276036
0.102632 0.018967 0.0356451
0.14052 0.0194095 0.0434577
0.183871 0.019089 0.0525063
0.233555 0.0198062 0.064332
0.288411 0.0213169 0.076112
0.340688 0.0222934 0.0914626
0.39379 0.0243381 0.113298
0.448753 0.0287938 0.134966
0.507988 0.0354009 0.161669
0.568521 0.041886 0.18996
0.62855 0.0498054 0.223453
0.682689 0.0579538 0.259464
0.727825 0.0698253 0.296803
0.761593 0.0838178 0.333532
0.786465 0.0971084 0.368277
0.801373 0.107912 0.401617
0.81445 0.121324 0.437171
0.822538 0.130404 0.472663
0.825238 0.134691 0.504646
0.826917 0.138415 0.533486
0.828199 0.142077 0.558526
0.829068 0.145556 0.579782
0.830839 0.150042 0.598337
0.835264 0.157397 0.616159
0.846052 0.172473 0.638605
0.0175937 0.0366217 0.0307622
0.0175631 0.0368505 0.0311284
0.0176547 0.036759 0.0299077
0.01944 0.0351415 0.0263371
0.0280461 0.034699 0.0248569
0.0374914 0.0352331 0.0264439
0.0495613 0.0348211 0.0279545
0.0724651 0.0321813 0.0300145
0.105547 0.0277104 0.0336919
0.144823 0.0245365 0.0406348
0.186572 0.0223087 0.0492409
0.233982 0.0203555 0.0590677
0.289113 0.0199435 0.0711528
0.343526 0.0220493 0.087892
0.397818 0.0241703 0.110246
0.451057 0.0290227 0.129107
0.509804 0.0364233 0.155947
0.570092 0.04271 0.184527
0.630137 0.0505226 0.218112
0.683818 0.058732 0.254566
0.728679 0.0706188 0.292515
0.762158 0.0843977 0.330053
0.786465 0.097261 0.365194
0.800824 0.107454 0.398566
0.813657 0.120485 0.434485
0.822324 0.130129 0.470573
0.82536 0.134737 0.503304
0.827054 0.138445 0.532097
0.828351 0.142123 0.557427
0.829221 0.145586 0.578866
0.831342 0.150469 0.597971
0.836286 0.158526 0.616724
0.847028 0.173648 0.639384
0.0207065 0.0565194 0.0369116
0.0206607 0.0568093 0.0373083
0.0207828 0.0568856 0.0367895
0.0217746 0.0544594 0.03299
0.0302586 0.0518959 0.0293431
0.0420539 0.0533761 0.0296483
0.0593729 0.0525521 0.0321965
0.0818341 0.0509194 0.0348363
0.111437 0.0446632 0.0376745
0.146441 0.0362554 0.0384833
0.191104 0.0297246 0.0464332
0.239216 0.0234073 0.0537728
0.287007 0.0179599 0.0633097
0.341726 0.0210727 0.0791333
0.398352 0.0228428 0.100603
0.455573 0.0291142 0.127138
0.511131 0.0368505 0.149691
0.571313 0.0436408 0.179065
0.631449 0.0513771 0.212497
0.685237 0.0596628 0.249577
0.72958 0.0714733 0.288304
0.762509 0.0849317 0.326268
0.78645 0.0973983 0.362036
0.800259 0.106966 0.395743
0.812879 0.119661 0.431586
0.822171 0.129931 0.468666
0.825483 0.134798 0.501625
0.827222 0.138506 0.530648
0.828534 0.142184 0.556344
0.829358 0.145647 0.578195
0.831876 0.150973 0.597726
0.837263 0.159594 0.617136
0.8477 0.174487 0.639704
0.0224002 0.0838026 0.0423438
0.0222324 0.0842756 0.04271
0.0226596 0.0836347 0.0409705
0.0240024 0.0811017 0.0381628
0.0292515 0.078233 0.0319677
0.043061 0.0790875 0.0324407
0.0638743 0.0791638 0.0317235
0.0935836 0.0770275 0.0369726
0.123934 0.0723278 0.040238
0.158816 0.0623331 0.0445563
0.196399 0.050782 0.0440833
0.243183 0.0344244 0.0467384
0.298039 0.0263218 0.0586862
0.346624 0.0183261 0.0662089
0.392645 0.018677 0.0855421
0.453773 0.0276188 0.113985
0.517418 0.0375525 0.148058
0.572885 0.0448615 0.171893
0.633234 0.0525826 0.206104
0.686748 0.0608682 0.243519
0.730678 0.0726329 0.282872
0.76318 0.0858015 0.321782
0.786587 0.0977188 0.358297
0.799786 0.1066 0.392142
0.812268 0.11899 0.428626
0.821988 0.129671 0.465843
0.82565 0.134874 0.499596
0.827359 0.138567 0.529335
0.828717 0.142275 0.555245
0.829572 0.145739 0.57734
0.832502 0.151553 0.597314
0.838346 0.160708 0.61709
0.848737 0.17554 0.639399
0.0210727 0.11342 0.0466011
0.0209354 0.113787 0.0469673
0.0210575 0.113832 0.0460517
0.0225071 0.111574 0.0425574
0.0261234 0.108965 0.035523
0.038941 0.109865 0.0323491
0.0596017 0.110689 0.0331731
0.0941939 0.109178 0.0322271
0.13373 0.106477 0.0396124
0.173098 0.0983597 0.0443885
0.216373 0.0840009 0.0515297
0.25893 0.0707103 0.0506905
0.305135 0.0535592 0.0495155
0.355413 0.0295872 0.0524758
0.405341 0.0184939 0.0685283
0.448951 0.0129549 0.0842451
0.510521 0.0317235 0.128389
0.579538 0.0462043 0.167132
0.634531 0.0540475 0.195819
0.687999 0.0623789 0.234257
0.731685 0.0741894 0.275212
0.763989 0.087068 0.31545
0.78706 0.0983902 0.353445
0.799451 0.106416 0.388098
0.811109 0.117769 0.424292
0.821744 0.129335 0.462028
0.825879 0.134966 0.496529
0.827604 0.138674 0.527276
0.828992 0.142397 0.553796
0.829847 0.145846 0.576074
0.833402 0.152377 0.596994
0.840009 0.162493 0.617746
0.850263 0.177249 0.640208
0.0157168 0.145968 0.0509194
0.0153811 0.146532 0.0515602
0.015259 0.146807 0.0511482
0.0169833 0.14493 0.0476844
0.0198367 0.142763 0.0401923
0.0285344 0.142824 0.0294194
0.0486915 0.143709 0.0289769
0.0847486 0.144305 0.0292973
0.130541 0.14139 0.0306096
0.179599 0.138369 0.0378271
0.232837 0.126574 0.0479286
0.289509 0.106188 0.0584726
0.330343 0.0926528 0.0568856
0.373495 0.0730297 0.0547036
0.415991 0.0475166 0.0537423
0.462333 0.0185855 0.0601816
0.511604 0.0167544 0.0927901
0.569467 0.0343938 0.141878
0.639231 0.0559548 0.187274
0.688533 0.064332 0.221561
0.732479 0.0763409 0.263905
0.764981 0.0890059 0.306111
0.787335 0.0993057 0.34583
0.799222 0.106432 0.382055
0.809842 0.116457 0.418814
0.821546 0.129046 0.457267
0.826215 0.135149 0.492744
0.82797 0.138842 0.524224
0.829389 0.142565 0.551431
0.830198 0.145983 0.574258
0.834607 0.153521 0.596384
0.842145 0.164782 0.61857
0.852155 0.179324 0.640635
0.00695811 0.181994 0.0555428
0.00662242 0.182696 0.0560616
0.00633249 0.183093 0.0560159
0.00683604 0.182025 0.0524758
0.00958267 0.179858 0.0442969
0.0144961 0.17995 0.0324407
0.030518 0.180102 0.0207828
0.066453 0.181796 0.0221866
0.116976 0.182147 0.0203098
0.172824 0.178332 0.0260319
0.234394 0.175586 0.0325933
0.300771 0.160967 0.0490578
0.368582 0.134234 0.0678721
0.409461 0.120943 0.0670481
0.449134 0.102144 0.063859
0.489158 0.0714885 0.063386
0.525277 0.0354467 0.0678721
0.565728 0.0212253 0.0959793
0.623941 0.0390631 0.156634
0.689708 0.0650492 0.210117
0.734401 0.0793164 0.253208
0.765759 0.091722 0.29308
0.787717 0.100847 0.334951
0.798596 0.106371 0.372702
0.807965 0.114672 0.410742
0.8215 0.128908 0.451041
0.826734 0.1355 0.487816
0.828504 0.139116 0.520287
0.829862 0.142794 0.548638
0.830686 0.146197 0.571939
0.836133 0.154955 0.595483
0.844587 0.167529 0.619181
0.854505 0.181918 0.64094
0.000747692 0.221118 0.0617838
0.000289921 0.222141 0.0624399
0 0.222629 0.0628061
0 0.2215 0.0589914
0 0.219272 0.0486152
0 0.219257 0.0374304
0.00756847 0.218967 0.0197299
0.0362554 0.220081 0.00854505
0.0902876 0.222904 0.0108034
0.1505 0.223011 0.00854505
0.222492 0.218753 0.0203403
0.296422 0.217731 0.0250248
0.374762 0.203311 0.0525521
0.450324 0.173739 0.0807202
0.500206 0.156725 0.085069
0.533852 0.141634 0.080766
0.571054 0.110353 0.080766
0.59585 0.0609598 0.0839551
0.612894 0.0279545 0.100801
0.666133 0.0471351 0.161929
0.729778 0.0778668 0.233082
0.766735 0.0953536 0.277745
0.788235 0.103639 0.31899
0.798199 0.107073 0.359747
0.806226 0.113146 0.399817
0.820172 0.127459 0.441733
0.827131 0.135729 0.480888
0.829129 0.139391 0.514641
0.830503 0.143069 0.54432
0.831312 0.146456 0.568841
0.8383 0.157015 0.594766
0.847822 0.171084 0.620096
0.857176 0.184955 0.641291
0 0.26334 0.0679789
0 0.264164 0.0686961
0 0.264668 0.0691539
0 0.264149 0.0666056
0 0.262608 0.0568551
0 0.262486 0.043183
0 0.262592 0.02916
0.000732433 0.261524 0.00578317
0.0473945 0.263828 0
0.116304 0.267445 0
0.190417 0.267781 0
0.280354 0.265339 0.0157626
0.366247 0.266651 0.0157931
0.443381 0.257816 0.0508278
0.528908 0.231144 0.0916304
0.589929 0.206958 0.108156
0.629648 0.189166 0.109361
0.658961 0.159075 0.10779
0.66862 0.103609 0.105837
0.66212 0.0530556 0.121889
0.699626 0.0586252 0.179202
0.759869 0.092546 0.253147
0.788968 0.108019 0.298665
0.798062 0.109117 0.340658
0.804318 0.11191 0.383993
0.816678 0.12369 0.428199
0.827283 0.135653 0.470695
0.829892 0.139788 0.507027
0.831296 0.143374 0.538186
0.832166 0.146807 0.564111
0.840879 0.159487 0.592462
0.852033 0.175692 0.620233
0.861234 0.189563 0.641779
0 0.307546 0.0740673
0 0.3084 0.0747692
0 0.308949 0.0753338
0 0.308827 0.0738689
0 0.30782 0.0656748
0 0.30779 0.0529488
0 0.308049 0.0394446
0 0.306981 0.0167086
0 0.306355 0
0.0624704 0.309789 0
0.146624 0.314351 0
0.237095 0.315831 0
0.347219 0.31751 0.0113985
0.435966 0.321599 0.00766003
0.508461 0.323247 0.0501717
0.604852 0.301854 0.105684
0.680507 0.27361 0.139437
0.725856 0.248371 0.145846
0.746731 0.217288 0.145037
0.744289 0.160678 0.146731
0.713146 0.0869764 0.151888
0.723918 0.0679637 0.192752
0.778958 0.103777 0.266484
0.79823 0.113939 0.31284
0.803143 0.112505 0.360449
0.812131 0.119265 0.408148
0.827359 0.135363 0.455955
0.831022 0.140566 0.496513
0.83241 0.143923 0.529976
0.836042 0.150393 0.559838
0.84564 0.164401 0.590997
0.857542 0.181842 0.620508
0.86598 0.195132 0.641382
0 0.352178 0.0815137
0 0.352926 0.0820783
0 0.353445 0.082536
0 0.353796 0.0813764
0 0.353155 0.0746014
0 0.353277 0.0639506
0 0.353521 0.0523232
0 0.353979 0.0353399
0 0.352636 0.00434882
0.00062562 0.353674 0
0.0845045 0.357153 0
0.186542 0.362127 0
0.293065 0.366918 0
0.412848 0.372335 0.00953689
0.507073 0.38088 0.00396735
0.577356 0.390906 0.0556649
0.679713 0.37612 0.121218
0.764035 0.350256 0.166445
0.815824 0.317922 0.189807
0.831098 0.285954 0.194202
0.818616 0.231617 0.192798
0.760037 0.122713 0.180133
0.742321 0.0800488 0.192737
0.788602 0.112627 0.269169
0.803021 0.117571 0.323613
0.808896 0.117266 0.378958
0.821927 0.129412 0.431891
0.832181 0.141222 0.47982
0.833936 0.144778 0.517876
0.842023 0.156497 0.555047
0.852979 0.172442 0.589242
0.86482 0.190341 0.620233
0.872801 0.203372 0.640986
0 0.400061 0.0944228
0 0.40087 0.095079
0 0.401877 0.0957809
0 0.402045 0.0944381
0 0.401495 0.0887617
0 0.401907 0.0802777
0 0.402121 0.0695964
0 0.403479 0.0568704
0 0.404486 0.03299
0 0.403952 0
0.016434 0.404639 0
0.119448 0.408377 0
0.24416 0.413504 0
0.356313 0.423453 0
0.481865 0.432929 0.0170443
0.58114 0.445884 0.0105745
0.653712 0.457298 0.0692454
0.751583 0.450828 0.140139
0.840055 0.428336 0.197024
0.890486 0.396994 0.233021
0.901411 0.35935 0.243717
0.884382 0.305409 0.237446
0.815335 0.179446 0.210254
0.761227 0.098909 0.19408
0.794018 0.120455 0.26598
0.807736 0.122057 0.330083
0.815198 0.123171 0.394614
0.831708 0.140185 0.45275
0.841184 0.152148 0.503868
0.851926 0.167254 0.548669
0.863737 0.184939 0.5879
0.874937 0.203021 0.621134
0.882017 0.215412 0.641001
0 0.453635 0.120043
0 0.455024 0.12108
0 0.455711 0.121752
0 0.455833 0.119844
0 0.455497 0.114443
0 0.456168 0.107271
0 0.456779 0.0972152
0 0.45742 0.0841688
0 0.458976 0.0674754
0 0.460182 0.0363928
0 0.460594 0
0.0538338 0.459541 0
0.179995 0.463325 0
0.317571 0.470176 0
0.42356 0.484916 0
0.552468 0.497429 0.0390021
0.652949 0.512474 0.0316625
0.728008 0.524575 0.0976883
0.816815 0.527352 0.168307
0.893904 0.509819 0.223407
0.940948 0.480888 0.263676
0.947707 0.436271 0.275975
0.926879 0.378866 0.264729
0.871855 0.267964 0.235859
0.786694 0.134142 0.197467
0.793957 0.124193 0.252018
0.820661 0.136385 0.337758
0.837308 0.147097 0.416373
0.855955 0.168505 0.483696
0.867338 0.185138 0.538674
0.877546 0.202228 0.583215
0.887907 0.220813 0.62034
0.894148 0.232944 0.64065
0 0.513039 0.157351
0 0.514229 0.158572
0 0.515053 0.15935
0 0.514885 0.156024
0 0.514366 0.150912
0 0.51548 0.144839
0 0.515846 0.136675
0 0.516106 0.124605
0 0.51722 0.10988
0 0.518654 0.0875868
0 0.519448 0.0458991
0.0205997 0.520424 0.000122072
0.116823 0.519509 0
0.260288 0.523705 0
0.390677 0.534783 0
0.499092 0.551598 0.0169833
0.624704 0.565591 0.0744182
0.720714 0.579232 0.0736706
0.796262 0.593301 0.138537
0.864042 0.602365 0.198322
0.921859 0.5906 0.240299
0.952911 0.566033 0.264851
0.960433 0.525368 0.2748
0.954269 0.459876 0.278538
0.918898 0.360876 0.259922
0.845838 0.223651 0.223651
0.811414 0.152728 0.241917
0.835782 0.152209 0.350683
0.870436 0.18584 0.445151
0.887694 0.210193 0.515221
0.89604 0.227481 0.57171
0.903929 0.24535 0.616342
0.909285 0.257496 0.638193
0 0.572519 0.201373
0 0.573709 0.203021
0 0.574441 0.203082
0 0.574319 0.199588
0 0.574197 0.195361
0 0.574639 0.189883
0 0.575128 0.183383
0 0.575433 0.173632
0 0.575723 0.1579
0 0.576852 0.140017
0 0.578195 0.110918
0.00926223 0.578073 0.0567788
0.0696117 0.578561 0.00968948
0.195026 0.579904 0
0.353811 0.587945 0
0.467674 0.602502 0.0053254
0.573709 0.620218 0.0565194
0.693706 0.633829 0.120165
0.785672 0.647105 0.135012
0.853132 0.659831 0.186114
0.901839 0.669596 0.230747
0.929641 0.665782 0.25005
0.937057 0.644495 0.250538
0.94406 0.608576 0.253727
0.95639 0.55256 0.267414
0.951156 0.461723 0.272847
0.903853 0.328984 0.251759
0.858213 0.237018 0.237797
0.886168 0.226047 0.343648
0.908003 0.235233 0.461357
0.921553 0.262379 0.538857
0.923995 0.27866 0.600748
0.927337 0.290852 0.626749
0 0.63093 0.249851
0 0.632242 0.253101
0 0.632959 0.250919
0 0.633112 0.247456
0 0.632837 0.243198
0 0.633143 0.238605
0 0.633631 0.233494
0 0.633738 0.225025
0 0.634302 0.211749
0.00277714 0.634485 0.193225
0.0105287 0.635386 0.171435
0.0234379 0.635828 0.133577
0.0563516 0.635386 0.0738384
0.144778 0.635737 0.0272984
0.292531 0.641962 0.017319
0.445747 0.653712 0.0244602
0.541009 0.669734 0.0522469
0.645457 0.688014 0.107607
0.758968 0.700908 0.173342
0.844846 0.714473 0.201633
0.899702 0.724224 0.235813
0.936339 0.729061 0.267323
0.942931 0.72314 0.267796
0.934539 0.705592 0.252872
0.93019 0.679683 0.244419
0.935866 0.638132 0.246509
0.951598 0.563836 0.261326
0.942489 0.440589 0.264851
0.914458 0.3505 0.257832
0.935683 0.326177 0.334005
0.946853 0.296666 0.457923
0.957839 0.328328 0.556909
0.956451 0.340948 0.593256
0.0148165 0.684947 0.296345
0.0155184 0.686595 0.300282
0.0161898 0.686976 0.297261
0.0169223 0.686656 0.293492
0.0177157 0.68629 0.28954
0.0190585 0.686687 0.285924
0.020798 0.687221 0.282032
0.0232395 0.688029 0.27628
0.0264286 0.688151 0.266056
0.0310369 0.687953 0.249485
0.0374914 0.687678 0.227253
0.0467536 0.688258 0.201282
0.0649882 0.687587 0.151919
0.117433 0.687007 0.0882582
0.242893 0.69012 0.0534371
0.399512 0.699733 0.0543069
0.531701 0.713268 0.0736248
0.609461 0.729488 0.108064
0.716335 0.74902 0.166079
0.82121 0.762081 0.229938
0.892439 0.773724 0.261585
0.936614 0.781567 0.284459
0.961791 0.781857 0.301259
0.958114 0.77113 0.288762
0.947173 0.753063 0.266438
0.939269 0.731243 0.254124
0.932723 0.702953 0.247074
0.932235 0.652705 0.243275
0.947814 0.546319 0.256748
0.950942 0.446937 0.276875
0.960327 0.43679 0.301793
0.984894 0.385199 0.438529
0.993805 0.39678 0.501228
0.0471046 0.728969 0.337591
0.0475166 0.729992 0.340993
0.0483558 0.730495 0.338323
0.0490425 0.730297 0.334783
0.0497597 0.730114 0.331273
0.0510109 0.730419 0.327947
0.0527962 0.731289 0.325078
0.0547189 0.731792 0.320409
0.0573129 0.732067 0.312581
0.0607614 0.731899 0.300053
0.06598 0.73138 0.2804
0.0743877 0.731197 0.254566
0.0862135 0.730892 0.221469
0.114168 0.728756 0.161257
0.199268 0.729503 0.101656
0.351522 0.73666 0.0882124
0.502754 0.747967 0.0996109
0.600763 0.762539 0.126772
0.67451 0.779171 0.16553
0.784558 0.800076 0.225925
0.872602 0.81181 0.282918
0.929427 0.82179 0.313573
0.963623 0.827939 0.330053
0.976989 0.825788 0.332616
0.96994 0.815198 0.314427
0.959304 0.799542 0.28867
0.950683 0.778439 0.268208
0.944717 0.752926 0.259525
0.936263 0.716625 0.249683
0.929717 0.651438 0.240894
0.958236 0.5402 0.27071
0.958282 0.541344 0.270619
0.971664 0.536706 0.298131
0.0759747 0.762814 0.372168
0.0764782 0.763745 0.375463
0.0772412 0.764233 0.373327
0.0779583 0.764157 0.369726
0.0789349 0.764324 0.366873
0.0801404 0.764675 0.36405
0.0815442 0.765179 0.361166
0.0831159 0.76556 0.357244
0.0852827 0.76582 0.350973
0.0881056 0.765652 0.340734
0.092668 0.765545 0.32546
0.0994583 0.764584 0.300801
0.109545 0.763348 0.269123
0.124559 0.761578 0.228321
0.168322 0.758724 0.159854
0.303761 0.764248 0.123308
0.456214 0.772564 0.125933
0.582666 0.784817 0.145663
0.6589 0.80032 0.178042
0.740795 0.818891 0.222644
0.844602 0.839734 0.281895
0.913527 0.849409 0.329137
0.955947 0.857176 0.355062
0.980346 0.861051 0.366247
0.983688 0.85742 0.360922
0.979507 0.850599 0.344701
0.971679 0.839719 0.321767
0.965469 0.823133 0.303777
0.958099 0.801785 0.284215
0.948028 0.770977 0.262943
0.938293 0.728573 0.252827
0.931548 0.659007 0.241978
0.938476 0.630472 0.249668
0.0986801 0.786374 0.400656
0.0992752 0.787137 0.403769
0.0996567 0.787335 0.401663
0.100343 0.787274 0.398688
0.100999 0.787213 0.395453
0.102007 0.787274 0.39237
0.103059 0.787457 0.3897
0.10428 0.787488 0.385748
0.105928 0.787366 0.380087
0.108339 0.787274 0.371984
0.111635 0.786694 0.359014
0.116716 0.785534 0.338872
0.124819 0.78349 0.30782
0.137102 0.780941 0.268498
0.157534 0.777951 0.219486
0.245365 0.780224 0.161364
0.40383 0.785199 0.150912
0.544732 0.794568 0.161395
0.637629 0.808927 0.188403
0.715541 0.825727 0.226444
0.806134 0.845396 0.27451
0.891524 0.864042 0.327321
0.944015 0.872557 0.365637
0.973587 0.879484 0.386404
0.986542 0.881468 0.392554
0.986358 0.878813 0.385763
0.984482 0.875349 0.371832
0.980346 0.869596 0.354498
0.977066 0.858595 0.341039
0.972457 0.844755 0.325246
0.964004 0.822065 0.299855
0.953765 0.788113 0.275502
0.94612 0.768231 0.259358
0.111666 0.796429 0.420554
0.112337 0.796857 0.422827
0.112276 0.796826 0.421241
0.112734 0.796811 0.418524
0.113283 0.796719 0.415274
0.114092 0.796628 0.41236
0.114794 0.796582 0.409735
0.115831 0.796399 0.405753
0.117281 0.796124 0.400549
0.119158 0.795666 0.393011
0.12192 0.794965 0.382376
0.125872 0.793744 0.365789
0.131838 0.791623 0.340276
0.141955 0.788602 0.301564
0.158434 0.785092 0.25214
0.198001 0.783597 0.199145
0.341497 0.787839 0.175784
0.489525 0.793851 0.177569
0.605051 0.806973 0.196155
0.687953 0.823331 0.229145
0.77644 0.842206 0.271702
0.858503 0.860105 0.315526
0.921645 0.872175 0.359335
0.963714 0.881392 0.389136
0.982986 0.887068 0.405142
0.987289 0.887739 0.406683
0.987243 0.886793 0.40148
0.98616 0.884489 0.388037
0.984009 0.881437 0.37261
0.982849 0.879133 0.366857
0.980865 0.872969 0.357717
0.977783 0.861433 0.344045
0.975586 0.853941 0.33579
0.122621 0.801144 0.436805
0.123583 0.801602 0.438865
0.123415 0.801434 0.437003
0.123766 0.801373 0.434318
0.124117 0.801266 0.431479
0.124819 0.80119 0.428946
0.125551 0.801022 0.426032
0.126329 0.800809 0.42266
0.127626 0.800488 0.417182
0.129397 0.799954 0.410208
0.131731 0.799161 0.40087
0.13518 0.798016 0.387793
0.140261 0.796246 0.367254
0.147875 0.793591 0.336141
0.160998 0.789899 0.288762
0.196536 0.788144 0.234897
0.277363 0.790234 0.209018
0.427955 0.791714 0.20267
0.561852 0.803067 0.212177
0.655772 0.818921 0.237217
0.747906 0.837446 0.275761
0.832425 0.855665 0.315877
0.897047 0.869932 0.351736
0.945266 0.878233 0.386191
0.975692 0.886122 0.409247
0.98645 0.889555 0.420233
0.987106 0.889494 0.418845
0.987198 0.888624 0.411643
0.986954 0.886687 0.397101
0.985687 0.884321 0.383536
0.985016 0.883345 0.378378
0.98439 0.882521 0.37496
0.984039 0.882094 0.373129
0.136584 0.805631 0.451759
0.137545 0.806027 0.453788
0.137331 0.805844 0.45182
0.137499 0.805646 0.449348
0.137743 0.805493 0.446754
0.138506 0.805417 0.444389
0.139132 0.805371 0.442206
0.139849 0.80502 0.438636
0.140764 0.804623 0.433631
0.142214 0.804074 0.426886
0.144396 0.803281 0.418585
0.147372 0.802136 0.407523
0.151568 0.800366 0.390921
0.157641 0.798016 0.366705
0.170657 0.795193 0.331243
0.203815 0.792981 0.282628
0.277485 0.793851 0.259281
0.377249 0.792477 0.258839
0.50341 0.798459 0.258701
0.618585 0.814023 0.271717
0.712825 0.831479 0.300557
0.804974 0.85095 0.334005
0.876341 0.866987 0.359594
0.922042 0.874388 0.386099
0.961669 0.88336 0.411856
0.982101 0.890684 0.441657
0.985245 0.893263 0.46183
0.985672 0.892592 0.453178
0.986618 0.89044 0.426276
0.987152 0.888014 0.404608
0.986511 0.886 0.39205
0.985916 0.884871 0.386297
0.985794 0.884627 0.384894
0.152956 0.809537 0.466377
0.153903 0.809964 0.468147
0.153582 0.809796 0.466651
0.153429 0.809567 0.464317
0.153429 0.809323 0.461784
0.15407 0.809171 0.459876
0.154803 0.809049 0.45771
0.155566 0.808759 0.454582
0.156374 0.808255 0.450156
0.157458 0.807691 0.444083
0.159167 0.806897 0.436057
0.161807 0.805676 0.425696
0.165621 0.804028 0.412161
0.172137 0.801984 0.393606
0.191623 0.799878 0.370169
0.227665 0.797513 0.340459
0.301122 0.795651 0.324514
0.381949 0.794888 0.323613
0.473869 0.801587 0.335576
0.585687 0.81593 0.346365
0.689525 0.83299 0.368475
0.780011 0.85037 0.399115
0.854337 0.866316 0.421683
0.904891 0.876173 0.433371
0.94226 0.883146 0.453773
0.971206 0.89131 0.478614
0.98323 0.89752 0.508415
0.984604 0.900359 0.529
0.984207 0.899031 0.518807
0.984924 0.893996 0.470329
0.987198 0.889998 0.422705
0.986923 0.88661 0.396704
0.986526 0.88542 0.391318
0.172 0.812421 0.479652
0.173129 0.812772 0.48098
0.172717 0.812665 0.479988
0.171832 0.812406 0.477852
0.171176 0.8121 0.475425
0.171878 0.811948 0.47364
0.172656 0.811765 0.472099
0.173465 0.811521 0.469642
0.17435 0.810956 0.465339
