bundles/resolve-cinematic-luts/Phantom Luts/A7s3 Phntm Arri LUTs G7/SLog3/Tungsten A7s3.cube
TITLE "Generated by Resolve"
LUT_3D_SIZE 9
0.0123445 0.011017 0.0163119
0.0170596 0.0115053 0.0172122
0.115404 0.016846 0.0394293
0.293263 0.0216373 0.0780652
0.513497 0.0356756 0.166857
0.733669 0.0716564 0.306249
0.817227 0.124346 0.451255
0.828824 0.145464 0.580606
0.875196 0.217639 0.698528
0.0175937 0.0366217 0.0307622
0.0280461 0.034699 0.0248569
0.105547 0.0277104 0.0336919
0.289113 0.0199435 0.0711528
0.509804 0.0364233 0.155947
0.728679 0.0706188 0.292515
0.813657 0.120485 0.434485
0.828351 0.142123 0.557427
0.847028 0.173648 0.639384
0.0157168 0.145968 0.0509194
0.0198367 0.142763 0.0401923
0.130541 0.14139 0.0306096
0.330343 0.0926528 0.0568856
0.511604 0.0167544 0.0927901
0.732479 0.0763409 0.263905
0.809842 0.116457 0.418814
0.829389 0.142565 0.551431
0.852155 0.179324 0.640635
0 0.307546 0.0740673
0 0.30782 0.0656748
0 0.306355 0
0.347219 0.31751 0.0113985
0.680507 0.27361 0.139437
0.713146 0.0869764 0.151888
0.803143 0.112505 0.360449
0.83241 0.143923 0.529976
0.86598 0.195132 0.641382
0 0.513039 0.157351
0 0.514366 0.150912
0 0.51722 0.10988
0.116823 0.519509 0
0.624704 0.565591 0.0744182
0.921859 0.5906 0.240299
0.918898 0.360876 0.259922
0.870436 0.18584 0.445151
0.909285 0.257496 0.638193
0.0471046 0.728969 0.337591
0.0497597 0.730114 0.331273
0.0573129 0.732067 0.312581
0.0862135 0.730892 0.221469
0.502754 0.747967 0.0996109
0.872602 0.81181 0.282918
0.96994 0.815198 0.314427
0.936263 0.716625 0.249683
0.971664 0.536706 0.298131
0.122621 0.801144 0.436805
0.124117 0.801266 0.431479
0.127626 0.800488 0.417182
0.140261 0.796246 0.367254
0.277363 0.790234 0.209018
0.747906 0.837446 0.275761
0.975692 0.886122 0.409247
0.986954 0.886687 0.397101
0.984039 0.882094 0.373129
0.199725 0.815366 0.496132
0.194614 0.814801 0.490532
0.203632 0.813809 0.484276
0.235447 0.809552 0.46363
0.387076 0.809827 0.465415
0.695033 0.864164 0.537331
0.931991 0.906844 0.602045
0.989532 0.924697 0.660792
0.987991 0.921904 0.645472
0.492607 0.856428 0.662745
0.447822 0.843671 0.62826
0.455543 0.844572 0.628321
0.497459 0.853239 0.641657
0.604456 0.880385 0.687419
0.808026 0.930541 0.759686
0.951354 0.955169 0.794995
0.997909 0.959335 0.808087
0.998718 0.966339 0.838224
0.0105592 0.0132906 0.0356756
0.0256199 0.0138247 0.0354162
0.108202 0.0177768 0.0612039
0.283665 0.0207828 0.104402
0.507973 0.0337835 0.188556
0.736217 0.0719921 0.326589
0.82005 0.127489 0.466117
0.829084 0.147112 0.591012
0.880796 0.228534 0.714794
0.016434 0.0344701 0.0398718
0.018677 0.034165 0.040528
0.123003 0.0273747 0.0498512
0.294484 0.0223545 0.0825208
0.51574 0.0363012 0.170886
0.733883 0.0719921 0.306874
0.817639 0.124605 0.450568
0.82916 0.145235 0.577081
0.868696 0.20705 0.686061
0.0179141 0.145678 0.0866255
0.016907 0.145464 0.0639658
0.123339 0.141695 0.0374304
0.335332 0.085771 0.0659648
0.524117 0.0273747 0.125048
0.738003 0.0770428 0.279286
0.815457 0.122271 0.435355
0.829892 0.145495 0.572961
0.876066 0.217609 0.693812
0 0.308873 0.103014
0 0.30927 0.0874342
0 0.306706 0.0137942
0.344335 0.315633 0.0135958
0.678737 0.267308 0.144976
0.709316 0.0766003 0.156268
0.805905 0.113802 0.381476
0.83389 0.14786 0.557244
0.890761 0.238819 0.703212
0 0.513985 0.177859
0 0.516609 0.169162
0 0.517952 0.130129
0.0869459 0.519448 0
0.622553 0.564324 0.0759899
0.927291 0.588174 0.246708
0.896498 0.313603 0.248356
0.885222 0.206165 0.505776
0.924025 0.299351 0.713069
0.0469978 0.730129 0.351019
0.0499123 0.732921 0.34612
0.0568246 0.735164 0.328405
0.08336 0.733349 0.238727
0.489677 0.748287 0.101472
0.874372 0.81355 0.284901
0.970169 0.815 0.3149
0.931991 0.698436 0.244694
1 0.465019 0.459281
0.12575 0.802869 0.446448
0.125994 0.802701 0.442527
0.128557 0.801907 0.428489
0.140002 0.797803 0.380102
0.260884 0.790738 0.215625
0.74403 0.836728 0.276585
0.975937 0.886244 0.409934
0.986893 0.886534 0.396246
0.983871 0.881834 0.37229
0.206119 0.816876 0.504479
0.20351 0.816159 0.50013
0.212436 0.815122 0.49453
0.245518 0.810544 0.47483
0.391257 0.811856 0.477531
0.69482 0.865934 0.545525
0.93164 0.907851 0.606149
0.989593 0.92488 0.661692
0.988022 0.922194 0.646647
0.499397 0.858732 0.669505
0.47921 0.852369 0.652644
0.486854 0.853635 0.653544
0.518654 0.860197 0.661723
0.61529 0.884703 0.700343
0.806012 0.930358 0.760372
0.950362 0.955261 0.795712
0.997757 0.959319 0.808026
0.998611 0.966522 0.838605
0.00448615 0.0180209 0.109545
0.0265354 0.0165713 0.111955
0.11191 0.0184787 0.114488
0.275822 0.0211032 0.157107
0.500664 0.0312505 0.22739
0.740185 0.0740368 0.354574
0.821073 0.128908 0.481483
0.828504 0.147585 0.597711
0.880781 0.229694 0.719417
0.0039826 0.0368658 0.0918898
0.00180056 0.0327153 0.106661
0.111055 0.0205539 0.120455
0.278706 0.0210422 0.139223
0.502464 0.0313726 0.209415
0.735668 0.0717174 0.335622
0.819547 0.126955 0.467353
0.828626 0.145693 0.584451
0.868513 0.208057 0.690837
0.0187533 0.138094 0.135119
0.0188907 0.138872 0.136812
0.111757 0.137438 0.143008
0.355413 0.0920882 0.15021
0.519173 0.0365301 0.171588
0.740429 0.0746014 0.31223
0.820462 0.127932 0.46363
0.834836 0.155261 0.605951
0.905608 0.277241 0.766308
0 0.310933 0.163409
0 0.311604 0.150317
0 0.307424 0.100771
0.339574 0.31812 0.0648051
0.647807 0.257542 0.163424
0.742321 0.0876326 0.219669
0.811597 0.118502 0.412253
0.844312 0.163775 0.597055
0.913481 0.291463 0.769131
0 0.51548 0.216861
0 0.517937 0.207599
0 0.515908 0.172625
0.0294804 0.512947 0.0110018
0.611444 0.555611 0.0807202
0.929992 0.579995 0.259876
0.874769 0.271946 0.238865
0.887495 0.21268 0.548852
0.933227 0.332387 0.760006
0.0468299 0.730053 0.368673
0.049424 0.733257 0.365316
0.0551156 0.736034 0.349752
0.0765393 0.732784 0.266117
0.453086 0.744884 0.10811
0.871214 0.81149 0.285344
0.973953 0.815564 0.324239
0.930465 0.688899 0.242344
1 0.478401 0.54519
0.12929 0.804944 0.459709
0.129671 0.804929 0.456641
0.132036 0.804181 0.44419
0.14136 0.799954 0.396536
0.251789 0.79176 0.233021
0.735241 0.835264 0.280079
0.975982 0.886275 0.410407
0.987137 0.887144 0.399985
0.983871 0.881834 0.372259
0.209674 0.818235 0.513329
0.206989 0.817823 0.509529
0.21796 0.816617 0.505119
0.250217 0.811872 0.485512
0.393515 0.81355 0.488396
0.695277 0.867903 0.554238
0.931411 0.909331 0.611536
0.989502 0.924514 0.660014
0.988113 0.922484 0.648096
0.50106 0.859861 0.67451
0.480217 0.853574 0.657435
0.496788 0.857114 0.664454
0.526619 0.86331 0.672007
0.617487 0.886076 0.705989
0.803693 0.93077 0.763561
0.949233 0.955749 0.798321
0.997482 0.959319 0.808103
0.998596 0.966537 0.838651
0 0.0269474 0.240375
0.0143587 0.0233616 0.244617
0.121706 0.0163729 0.265736
0.282506 0.0205844 0.26006
0.496773 0.0330053 0.326192
0.746853 0.0836042 0.422004
0.819776 0.129717 0.51899
0.826596 0.148775 0.615061
0.881163 0.233539 0.73254
0 0.0372931 0.232044
0 0.0332494 0.241764
0.100679 0.0181888 0.281651
0.284825 0.0209812 0.263005
0.494972 0.0329595 0.317449
0.744732 0.0822003 0.407767
0.82005 0.129183 0.508385
0.826841 0.147021 0.604105
0.869261 0.212573 0.706127
0 0.139849 0.246418
0 0.13753 0.255192
0.0479286 0.11014 0.312154
0.317357 0.0491493 0.294163
0.499367 0.0343023 0.300999
0.747814 0.0814527 0.391012
0.82118 0.130495 0.506752
0.834806 0.158709 0.625528
0.906218 0.2822 0.778927
0 0.314839 0.292943
0 0.31667 0.294896
0.00822461 0.315816 0.294636
0.328267 0.333669 0.330709
0.655406 0.251255 0.327306
0.750317 0.0800183 0.315557
0.822858 0.13077 0.47422
0.858701 0.188769 0.65211
0.938964 0.374472 0.842573
0 0.526162 0.329992
0 0.528725 0.326162
0 0.524147 0.298802
0.00445563 0.506035 0.180652
0.591852 0.555016 0.20351
0.931853 0.558938 0.314748
0.851225 0.200565 0.277745
0.889708 0.222507 0.612268
0.947585 0.398291 0.828046
0.0543374 0.733959 0.424811
0.0562142 0.736919 0.421576
0.0604105 0.738903 0.405493
0.0720226 0.735775 0.343908
0.336706 0.736645 0.143404
0.856291 0.80116 0.288243
0.981277 0.81091 0.349432
0.927749 0.656687 0.236912
0.979889 0.464607 0.691432
0.138231 0.810498 0.491676
0.138903 0.810636 0.489937
0.142 0.810178 0.481056
0.147478 0.80621 0.439429
0.238773 0.795071 0.298283
0.705119 0.830686 0.320806
0.974701 0.886183 0.413703
0.987228 0.888563 0.411978
0.983703 0.881666 0.371527
0.216541 0.821683 0.534234
0.215091 0.821714 0.532433
0.225895 0.820539 0.52958
0.261585 0.815457 0.514076
0.397238 0.817716 0.51426
0.694148 0.872496 0.576135
0.930892 0.914061 0.629221
0.989197 0.923415 0.655329
0.989425 0.925002 0.659815
0.505135 0.862806 0.686763
0.48307 0.856458 0.670054
0.500572 0.8607 0.678813
0.547906 0.871717 0.699275
0.625406 0.890379 0.722133
0.797925 0.932082 0.772763
0.947188 0.957382 0.806455
0.996933 0.959945 0.810834
0.998611 0.966537 0.838773
0 0.0444953 0.425727
0.0262455 0.0374762 0.436439
0.120287 0.0276646 0.470054
0.300694 0.0202792 0.465248
0.501366 0.0365911 0.470634
0.740154 0.0841382 0.532464
0.808408 0.129198 0.601373
0.820752 0.153109 0.659724
0.884978 0.249821 0.771099
0 0.05037 0.426947
0 0.0483406 0.428382
0.0889448 0.0296635 0.473243
0.294362 0.0208591 0.474662
0.502144 0.03682 0.471717
0.738231 0.0830396 0.527993
0.808835 0.12842 0.595193
0.820401 0.151019 0.652399
0.873747 0.230121 0.749996
0 0.104204 0.438941
0 0.102525 0.444175
0 0.0588693 0.47834
0.287984 0.0245518 0.525856
0.521767 0.0415808 0.489967
0.743511 0.0847639 0.527184
0.810117 0.130037 0.597223
0.838437 0.174609 0.68043
0.910338 0.300786 0.815045
0 0.330678 0.479286
0 0.330053 0.485405
0 0.323079 0.507134
0.241688 0.284794 0.609155
0.595056 0.15111 0.554421
0.752438 0.0882582 0.518242
0.813199 0.130877 0.585687
0.864546 0.209308 0.712963
0.942611 0.39852 0.871931
0.0193332 0.554131 0.521096
0.0213931 0.557885 0.525353
0.0298772 0.560037 0.527611
0.0630655 0.552087 0.518502
0.572747 0.576364 0.564569
0.955978 0.529549 0.587594
0.853941 0.166842 0.500252
0.896361 0.249058 0.712291
0.957107 0.479896 0.895201
0.0871443 0.749416 0.555688
0.0898756 0.753079 0.55729
0.094789 0.756146 0.551797
0.103609 0.750423 0.511299
0.282078 0.732006 0.40708
0.825971 0.804059 0.501915
0.979721 0.81619 0.526497
0.978042 0.598779 0.337102
0.96788 0.492317 0.783978
0.165606 0.830106 0.586664
0.166842 0.830503 0.586679
0.169604 0.829587 0.578576
0.175036 0.822782 0.540307
0.245411 0.806836 0.448447
0.674784 0.850324 0.48278
0.96553 0.903014 0.568307
0.984543 0.903578 0.5523
0.983841 0.881361 0.372076
0.232242 0.833677 0.590021
0.232105 0.833692 0.58941
0.244938 0.832837 0.588327
0.286824 0.826703 0.579034
0.419303 0.831739 0.582254
0.693248 0.887327 0.641978
0.932097 0.929488 0.693919
0.990448 0.928084 0.675532
0.993072 0.939956 0.724102
0.507195 0.869612 0.715297
0.492027 0.865583 0.705547
0.512062 0.870039 0.714931
0.563684 0.882155 0.737484
0.645731 0.90103 0.76289
0.793454 0.937514 0.80293
0.945159 0.963378 0.834226
0.995605 0.96672 0.841169
0.998611 0.966735 0.839918
0.0170596 0.0779278 0.601587
0.0479438 0.0694438 0.614267
0.11902 0.0516365 0.638361
0.300877 0.0445258 0.678035
0.491951 0.038468 0.652277
0.710689 0.0937972 0.662379
0.780743 0.136751 0.709346
0.791012 0.159014 0.749371
0.835645 0.210407 0.794827
0 0.0837568 0.59501
0.00759899 0.0805524 0.598154
0.084535 0.0593423 0.630411
0.282872 0.0473487 0.683345
0.48777 0.0385595 0.654627
0.709499 0.0934157 0.662196
0.781033 0.136095 0.706935
0.789822 0.15758 0.747906
0.814649 0.184939 0.771588
0 0.14107 0.60383
0 0.138857 0.603693
0.0078584 0.0943313 0.619501
0.246113 0.0557107 0.69723
0.507988 0.0483711 0.693004
0.716304 0.0974289 0.669612
0.780118 0.13814 0.714275
0.793713 0.162387 0.753002
0.890761 0.290623 0.862318
0 0.300938 0.654169
0 0.296529 0.655604
0 0.283101 0.667353
0.110094 0.20087 0.737636
0.492103 0.0777447 0.740139
0.738842 0.112871 0.692439
0.779767 0.140047 0.720211
0.798642 0.167147 0.756085
0.942061 0.418311 0.923796
0.0548562 0.586145 0.69604
0.057023 0.588617 0.700511
0.0619211 0.591623 0.711452
0.0651865 0.580926 0.727764
0.536126 0.594888 0.904189
0.888472 0.432197 0.83151
0.786313 0.142992 0.715434
0.820523 0.188357 0.76878
0.958648 0.517159 0.941863
0.164385 0.778393 0.744793
0.169818 0.783627 0.751003
0.177722 0.789715 0.757214
0.192584 0.7953 0.761913
0.366354 0.805997 0.771435
0.812406 0.817609 0.805722
0.999664 0.787289 0.820737
0.95906 0.432135 0.763912
0.958572 0.487404 0.890669
0.239368 0.87599 0.765164
0.242618 0.87834 0.768734
0.246036 0.879744 0.767834
0.250309 0.87805 0.753521
0.303899 0.861234 0.696376
0.697108 0.904921 0.74931
0.964553 0.948562 0.810513
0.999649 0.946471 0.807355
0.998734 0.908614 0.694621
0.273823 0.878325 0.741253
0.275288 0.879072 0.743175
0.285527 0.878889 0.742077
0.324605 0.874632 0.733166
0.477852 0.871595 0.731456
0.715602 0.919234 0.787396
0.935958 0.9626 0.83415
0.99826 0.968292 0.85005
0.99881 0.968154 0.848035
0.515419 0.894972 0.794125
0.508095 0.893919 0.791821
0.532586 0.897581 0.798779
0.590326 0.906737 0.813764
0.677897 0.922362 0.836347
0.811566 0.951003 0.869566
0.943664 0.976654 0.897536
0.993042 0.980148 0.905699
0.997635 0.978515 0.894667
0 0.14786 0.655009
0.00935378 0.131289 0.661509
0.0744335 0.109834 0.688945
0.242496 0.0780957 0.739269
0.470542 0.0738537 0.765087
0.651774 0.0930495 0.73901
0.756161 0.146395 0.77583
0.769619 0.163638 0.79472
0.781201 0.175708 0.804425
0 0.156374 0.656229
0 0.148287 0.653117
0.0450599 0.119463 0.677516
0.219532 0.0781567 0.731838
0.464607 0.0742504 0.766232
0.65098 0.0930343 0.739361
0.756207 0.145907 0.774639
0.768704 0.162524 0.793591
0.7794 0.174044 0.803494
0 0.192279 0.671901
0 0.189258 0.670771
0 0.179171 0.672755
0.158953 0.0816663 0.714458
0.455299 0.0779583 0.774166
0.665583 0.102037 0.751125
0.756191 0.147906 0.779171
0.772015 0.166567 0.797681
0.796536 0.193362 0.820493
0.0136873 0.307729 0.716136
0.013077 0.304494 0.715496
0.0172122 0.302586 0.723491
0.0222782 0.248325 0.721874
0.410834 0.10724 0.802808
0.715084 0.133715 0.78146
0.756786 0.149798 0.782498
0.776074 0.170993 0.801556
0.897032 0.325185 0.922866
0.0981613 0.595834 0.788525
0.100114 0.598077 0.791058
0.105196 0.601831 0.798917
0.10782 0.589761 0.810605
0.483574 0.614649 1
0.85333 0.418326 0.977966
0.769223 0.163272 0.794415
0.778927 0.174212 0.804379
0.945998 0.453086 0.967788
0.185077 0.781292 0.826474
0.18909 0.785855 0.830457
0.194263 0.791333 0.836072
0.196368 0.791852 0.841108
0.325216 0.847105 0.933043
0.796551 0.834699 0.987945
0.968246 0.744411 0.951308
0.92697 0.386618 0.947662
0.931365 0.399664 0.955139
0.301579 0.905074 0.883421
0.304738 0.907515 0.886473
0.309697 0.910643 0.889525
0.319448 0.914824 0.8934
0.367132 0.92665 0.904097
0.742199 0.945083 0.93135
0.950973 0.953613 0.948501
0.986831 0.942 0.949401
0.979416 0.912001 0.945937
0.339055 0.92874 0.88484
0.340551 0.929488 0.886275
0.346075 0.930877 0.887556
0.374487 0.935271 0.891554
0.51429 0.93846 0.896162
0.754253 0.955383 0.916625
0.938979 0.984329 0.951064
0.993423 0.988571 0.958328
0.995514 0.989242 0.961532
0.525231 0.94287 0.905745
0.522576 0.943343 0.906615
0.549172 0.945006 0.909773
0.609949 0.949096 0.916121
0.696422 0.955642 0.924804
0.833204 0.968902 0.939605
0.945281 0.986038 0.95993
0.989624 0.990051 0.964431
0.995056 0.990295 0.966934
0.00512703 0.231617 0.705196
0.00309758 0.222309 0.701885
0 0.198062 0.689815
0.115434 0.101228 0.71136
0.424887 0.0805066 0.778912
0.675227 0.106828 0.763882
0.750591 0.143862 0.778271
0.762722 0.156954 0.789944
0.773144 0.168688 0.800778
0.00344854 0.225818 0.701747
0.00268559 0.223041 0.700679
0 0.205447 0.693828
0.0959945 0.111345 0.707881
0.417288 0.0805524 0.778653
0.674495 0.107347 0.764889
0.750317 0.143572 0.778012
0.762142 0.15642 0.789624
0.77174 0.1673 0.799786
0.00766003 0.246662 0.708675
0.00729381 0.24477 0.70837
0.0148775 0.267811 0.722683
0.00192264 0.202701 0.695079
0.385107 0.0982071 0.793011
0.69633 0.123323 0.777111
0.751507 0.144686 0.778775
0.764111 0.158343 0.790906
0.778149 0.174365 0.805951
0.0451972 0.393927 0.763348
0.0445716 0.391211 0.762844
0.059617 0.429343 0.782116
0.0633707 0.432258 0.788418
0.441169 0.350744 0.981689
0.697643 0.14995 0.812497
0.753033 0.146304 0.780102
0.76643 0.160723 0.792844
0.78967 0.187228 0.817212
0.122087 0.62266 0.81976
0.123964 0.62562 0.821729
0.131991 0.638773 0.829541
0.136736 0.638697 0.839063
0.423957 0.692973 1
0.827924 0.541436 1
0.819394 0.220981 0.846021
0.769299 0.163851 0.795636
0.877867 0.295171 0.904143
0.203815 0.793744 0.856779
0.206851 0.797925 0.859541
0.211521 0.804074 0.863859
0.214099 0.805676 0.86807
0.324437 0.855085 0.947967
0.7823 0.859312 1
0.9635 0.758312 0.9776
0.94345 0.443717 0.963958
0.852537 0.261402 0.879271
0.306065 0.905379 0.909621
0.309499 0.907866 0.912108
0.315999 0.912169 0.916426
0.32874 0.918791 0.924346
0.367117 0.933013 0.945144
0.739513 0.966918 0.992905
0.940154 0.951629 0.98497
0.981308 0.932616 0.979828
0.975448 0.87805 0.978439
0.365866 0.946288 0.932189
0.367483 0.94728 0.933898
0.372915 0.949172 0.936049
0.397879 0.95613 0.944595
0.535927 0.968765 0.960449
0.765606 0.979538 0.973724
0.939742 0.98703 0.984344
0.987945 0.987671 0.986191
0.992203 0.987976 0.988128
0.525109 0.966537 0.956512
0.524727 0.967224 0.957839
0.553216 0.969039 0.960403
0.617136 0.972198 0.96492
0.701839 0.976349 0.970001
0.830259 0.983032 0.977478
0.946609 0.989715 0.984771
0.987076 0.992187 0.988128
0.993759 0.99176 0.988281
0.0192569 0.287541 0.729305
0.015259 0.27039 0.722957
0.0115053 0.252201 0.717342
0 0.187472 0.683909
0.375814 0.0997024 0.793118
0.684657 0.121386 0.77966
0.749065 0.142199 0.776715
0.754376 0.147875 0.781872
0.766415 0.161364 0.794369
0.0130465 0.263874 0.718959
0.0127871 0.261494 0.718593
0.0115358 0.253117 0.71725
0 0.190295 0.685496
0.371572 0.0941787 0.787503
0.683299 0.120211 0.778576
0.749111 0.14226 0.776776
0.754025 0.147555 0.781613
0.765759 0.160769 0.794003
0.0262608 0.316121 0.739773
0.0242924 0.308492 0.73698
0.0620279 0.431434 0.786145
0.0527657 0.398154 0.776989
0.406897 0.302358 0.947692
0.674281 0.137667 0.805692
0.754269 0.147616 0.781338
0.755123 0.148547 0.782162
0.769299 0.164477 0.797116
0.0698711 0.466773 0.790356
0.0693523 0.464317 0.790143
0.0948653 0.530236 0.814115
0.11281 0.574929 0.828061
0.40264 0.58793 1
0.806409 0.407218 0.988769
0.771801 0.166781 0.798489
0.75613 0.149523 0.782803
0.773327 0.168856 0.800839
0.138308 0.654688 0.831769
0.139803 0.657237 0.833219
0.15285 0.682841 0.841901
0.162844 0.699596 0.850172
0.317571 0.772259 0.962585
0.804746 0.715465 1
0.958114 0.530694 0.975875
0.756954 0.150439 0.783688
0.778103 0.174182 0.8056
0.213855 0.806195 0.866987
0.217136 0.810925 0.869657
0.222385 0.818814 0.873579
0.225742 0.822614 0.877363
0.324346 0.869047 0.943771
0.766232 0.894804 1
0.954696 0.80827 0.979644
0.964279 0.622003 0.977752
0.780499 0.176638 0.807462
0.297734 0.901915 0.909621
0.3019 0.90486 0.912245
0.309941 0.910079 0.916503
0.327733 0.919173 0.926741
0.379599 0.938857 0.952361
0.749508 0.968704 0.993301
0.936294 0.955383 0.987045
0.981628 0.936965 0.982513
0.976471 0.891478 0.979355
0.377752 0.95079 0.942748
0.380682 0.952148 0.944656
0.394614 0.956924 0.949966
0.428946 0.963775 0.957183
0.555047 0.972198 0.967437
0.770245 0.981765 0.979782
0.936767 0.986877 0.988708
0.985916 0.987442 0.991211
0.991684 0.985534 0.990417
0.524681 0.970932 0.965911
0.525536 0.971328 0.96672
0.555001 0.972808 0.968399
0.622049 0.975769 0.972335
0.705852 0.979706 0.977096
0.832105 0.986145 0.984695
0.945403 0.991424 0.99086
0.986557 0.992752 0.992569
0.993072 0.992248 0.99147
