bundles/resolve-cinematic-luts/Gamut/Foris/Foris 01.cube
TITLE "Foris 01 by Gamut"
# Version 1.0 - 05/25/2022 - Designed for Rec.709 Color Space. Copyright 2022 Gamut, LLC
LUT_3D_SIZE 33
0.0063090000 0.0063090000 0.0063090000
0.0202812187 0.0078860000 0.0055446563
0.0372605625 0.0094136875 0.0062596875
0.0522272500 0.0094630000 0.0063090000
0.0679492500 0.0102510000 0.0070970000
0.0855851563 0.0102510000 0.0070970000
0.1052753750 0.0094630000 0.0070970000
0.1276851875 0.0080583750 0.0050761875
0.1524702500 0.0057172500 0.0027602500
0.1782523437 0.0033759063 0.0002219062
0.2053770000 0.0031540000 0.0000000000
0.2322022813 0.0026368750 0.0000000000
0.2591267500 0.0023660000 0.0000000000
0.2858107187 0.0015770000 0.0000000000
0.3125636875 0.0011337500 0.0000000000
0.3382127188 0.0007890000 0.0000000000
0.3630845000 0.0007890000 0.0000000000
0.3877042813 0.0007890000 0.0000000000
0.4126441250 0.0007890000 0.0000000000
0.4377868437 0.0007890000 0.0000000000
0.4630116250 0.0007890000 0.0000000000
0.4885431250 0.0007890000 0.0000000000
0.5144828125 0.0007890000 0.0000000000
0.5406881562 0.0007890000 0.0000000000
0.5672362500 0.0007890000 0.0000000000
0.5938798125 0.0009613750 0.0000000000
0.6204445625 0.0015770000 0.0000000000
0.6469115000 0.0015770000 0.0000000000
0.6730907500 0.0015770000 0.0000000000
0.6989460312 0.0016509688 0.0000000000
0.7243500000 0.0023660000 0.0000000000
0.7486432187 0.0023906250 0.0000000000
0.7716870000 0.0031540000 0.0000000000
0.0194922187 0.0194922187 0.0179398750
0.0257272813 0.0233612813 0.0163875000
0.0425807187 0.0241256250 0.0110400000
0.0572226563 0.0248890312 0.0071955625
0.0735700625 0.0249629375 0.0033511250
0.0925256875 0.0249629375 0.0017495625
0.1134625000 0.0235338437 0.0016509375
0.1374069687 0.0220061562 0.0016509375
0.1628276250 0.0198374062 0.0008382813
0.1894700000 0.0175214375 0.0002219062
0.2165112500 0.0150074687 0.0000000000
0.2437966875 0.0126910625 0.0000000000
0.2706902500 0.0103743750 0.0000000000
0.2975028125 0.0083787812 0.0000000000
0.3240862500 0.0065305313 0.0000000000
0.3500406250 0.0061857812 0.0000000000
0.3750268750 0.0061857813 0.0000000000
0.4001891875 0.0061857813 0.0000000000
0.4256653750 0.0069491563 0.0000000000
0.4511663125 0.0069737812 0.0000000000
0.4773714375 0.0072696562 0.0000000000
0.5038063437 0.0077381250 0.0000000000
0.5306327187 0.0085015000 0.0000000000
0.5576353125 0.0087480625 0.0000000000
0.5849409375 0.0094875000 0.0000000000
0.6121446875 0.0108428437 0.0000000000
0.6393090937 0.0117795937 0.0000000000
0.6661033125 0.0125185000 0.0000000000
0.6927105313 0.0140462188 0.0000000000
0.7187239062 0.0155739063 0.0000000000
0.7437314375 0.0171764687 0.0000000000
0.7678553750 0.0194429687 0.0000000000
0.7910194063 0.0217350000 0.0000000000
0.0319376875 0.0326764375 0.0288320000
0.0350916875 0.0358550937 0.0280440000
0.0435218125 0.0389361250 0.0249383125
0.0596410625 0.0389854375 0.0187781250
0.0770170625 0.0397734375 0.0141447500
0.0944267187 0.0397734375 0.0087726563
0.1162368125 0.0390839375 0.0027602500
0.1423050625 0.0375315000 0.0009121250
0.1703490000 0.0353381250 0.0000000000
0.1982606875 0.0328490312 0.0000000000
0.2258794375 0.0305076875 0.0000000000
0.2538589688 0.0283889688 0.0000000000
0.2815876250 0.0265653750 0.0000000000
0.3091800937 0.0249630937 0.0000000000
0.3355518125 0.0234107500 0.0000000000
0.3616436250 0.0230655625 0.0000000000
0.3874850625 0.0226223125 0.0000000000
0.4132347500 0.0223268125 0.0000000000
0.4396256875 0.0230655625 0.0000000000
0.4659684688 0.0230655625 0.0000000000
0.4930825625 0.0238545625 0.0000000000
0.5202440625 0.0248645313 0.0000000000
0.5478358125 0.0256781250 0.0000000000
0.5753563750 0.0271812187 0.0000000000
0.6032556875 0.0286842500 0.0000000000
0.6308809063 0.0302365938 0.0000000000
0.6583356875 0.0317404375 0.0000000000
0.6854410000 0.0340810312 0.0000000000
0.7120610625 0.0364715625 0.0000000000
0.7380835000 0.0387871562 0.0000000000
0.7627935625 0.0417753750 0.0000000000
0.7867402813 0.0453814688 0.0000000000
0.8099642500 0.0487825625 0.0000000000
0.0426826562 0.0441663125 0.0381964688
0.0469759687 0.0476804687 0.0389115000
0.0522925625 0.0516329375 0.0358551250
0.0614833750 0.0548206250 0.0334653750
0.0774753750 0.0554355625 0.0273289062
0.0981952813 0.0548860625 0.0219074687
0.1186445312 0.0549449375 0.0150569688
0.1426714688 0.0542593125 0.0073680625
0.1699694688 0.0529840000 0.0018728125
0.1985784375 0.0511431875 0.0007150312
0.2287710625 0.0491512500 0.0000000000
0.2591328125 0.0471036250 0.0000000000
0.2897175312 0.0455261563 0.0000000000
0.3183816250 0.0445276563 0.0000000000
0.3459383750 0.0439720000 0.0000000000
0.3727343437 0.0443798125 0.0000000000
0.3995870625 0.0447388125 0.0000000000
0.4264635937 0.0453637812 0.0000000000
0.4537121875 0.0463867188 0.0000000000
0.4813184688 0.0473739688 0.0000000000
0.5088393438 0.0486678437 0.0000000000
0.5367403438 0.0499404688 0.0000000000
0.5650434375 0.0514694687 0.0000000000
0.5931684375 0.0531549063 0.0000000000
0.6214592813 0.0551532813 0.0000000000
0.6493323438 0.0570015625 0.0000000000
0.6770763125 0.0593460313 0.0000000000
0.7043367188 0.0621454687 0.0000000000
0.7309254687 0.0649849375 0.0000000000
0.7566973125 0.0681360313 0.0000000000
0.7812400625 0.0717922500 0.0000000000
0.8049338125 0.0757215625 0.0000000000
0.8279960625 0.0799438750 0.0000000000
0.0548306250 0.0560950000 0.0483625000
0.0590294688 0.0596320000 0.0496467500
0.0635571875 0.0641670000 0.0476175000
0.0705385937 0.0684548437 0.0435550625
0.0803088750 0.0715383750 0.0411720000
0.0967887188 0.0729374687 0.0351903125
0.1203420000 0.0720920000 0.0303105000
0.1453533750 0.0719890000 0.0227457812
0.1711262500 0.0718532500 0.0136030000
0.1995717188 0.0714754687 0.0058156875
0.2291941250 0.0707230000 0.0024645625
0.2591522813 0.0697756250 0.0008627500
0.2899935000 0.0691808750 0.0001972500
0.3210654687 0.0689730000 0.0000000000
0.3512412500 0.0691926875 0.0000000000
0.3808057812 0.0701688750 0.0000000000
0.4095572500 0.0706827500 0.0000000000
0.4378802500 0.0720898438 0.0000000000
0.4657225625 0.0733286875 0.0000000000
0.4942811875 0.0752573750 0.0000000000
0.5228241250 0.0766530000 0.0000000000
0.5515193438 0.0785146875 0.0000000000
0.5804180000 0.0804860625 0.0000000000
0.6091412812 0.0826007813 0.0000000000
0.6376930000 0.0849202500 0.0000000000
0.6658635937 0.0874454375 0.0000000000
0.6938111875 0.0900512500 0.0000000000
0.7211459687 0.0929249687 0.0000000000
0.7477907500 0.0964807500 0.0000000000
0.7734260000 0.0999951250 0.0000000000
0.7977092500 0.1040716875 0.0000000000
0.8212345313 0.1083953125 0.0000000000
0.8440895000 0.1128750000 0.0000000000
0.0674304063 0.0695048750 0.0595999375
0.0724843750 0.0735306875 0.0607722812
0.0759866250 0.0778439375 0.0600791563
0.0816268125 0.0832710937 0.0554272187
0.0902258437 0.0876374687 0.0517562812
0.1016475313 0.0910003125 0.0495847187
0.1199251563 0.0933704688 0.0435033438
0.1462273750 0.0933504063 0.0388352500
0.1763895625 0.0929438438 0.0318390625
0.2038402500 0.0936201250 0.0233860000
0.2321109375 0.0942964062 0.0148597187
0.2618550625 0.0952328125 0.0085015312
0.2926836875 0.0960442188 0.0047066562
0.3235522500 0.0970384688 0.0025138438
0.3536860312 0.0980529375 0.0013305938
0.3832960625 0.0991562187 0.0006657187
0.4126862813 0.1006406250 0.0006657187
0.4424196563 0.1024241875 0.0006657188
0.4723159688 0.1042466875 0.0003205313
0.5025862187 0.1061875625 0.0000000000
0.5331061563 0.1079401875 0.0000000000
0.5631690938 0.1100291875 0.0000000000
0.5923061250 0.1121884062 0.0000000000
0.6216797500 0.1145419375 0.0000000000
0.6507053750 0.1172133438 0.0000000000
0.6795049063 0.1201287500 0.0000000000
0.7076570937 0.1231878750 0.0000000000
0.7351641563 0.1265954062 0.0000000000
0.7617953438 0.1302578437 0.0000000000
0.7873390000 0.1340499375 0.0000000000
0.8116345938 0.1385223750 0.0000000000
0.8348206250 0.1429197188 0.0000246562
0.8570305625 0.1476930000 0.0007890000
0.0805838750 0.0837592500 0.0709973750
0.0863737813 0.0888656250 0.0733525000
0.0909700000 0.0941745000 0.0734206250
0.0954261250 0.1002408438 0.0703119063
0.1033764375 0.1060426250 0.0641059375
0.1140770312 0.1106273750 0.0607191875
0.1276746875 0.1153393125 0.0578431875
0.1485746875 0.1184952813 0.0523290000
0.1769600625 0.1194043125 0.0475212500
0.2092744062 0.1194043125 0.0430553125
0.2401483750 0.1202524375 0.0361265625
0.2693266875 0.1220225625 0.0284624063
0.2987095625 0.1240708750 0.0208481875
0.3283796875 0.1258867813 0.0146379375
0.3581588125 0.1279321250 0.0099554375
0.3872816875 0.1298605312 0.0072203750
0.4162290000 0.1323162500 0.0051751875
0.4457702188 0.1347509375 0.0037702500
0.4756993125 0.1372317500 0.0030064375
0.5061488438 0.1395555625 0.0020703125
0.5370246250 0.1419023125 0.0017744375
0.5680358437 0.1441412500 0.0014292500
0.5988795625 0.1467354375 0.0012813125
0.6296763438 0.1492832188 0.0006410625
0.6602260000 0.1521690625 0.0006410625
0.6899915625 0.1551335000 0.0006410625
0.7184551250 0.1583380000 0.0006410625
0.7463769062 0.1617596562 0.0006410625
0.7732995000 0.1655241875 0.0006410625
0.7989219375 0.1698205312 0.0006410625
0.8231270625 0.1741268750 0.0007890000
0.8455921563 0.1786864687 0.0014292500
0.8661364375 0.1831119375 0.0014292500
0.0962023125 0.1010139687 0.0850023125
0.1025496250 0.1064449687 0.0870107813
0.1075925000 0.1126118437 0.0879265625
0.1127651562 0.1194917188 0.0858307188
0.1195696875 0.1268226250 0.0804009063
0.1304400625 0.1335011562 0.0739865313
0.1434722812 0.1390719687 0.0713041250
0.1595073125 0.1444280938 0.0677195000
0.1817181250 0.1478036250 0.0618550312
0.2108974375 0.1495738125 0.0575365000
0.2444778437 0.1503184687 0.0542453438
0.2783704375 0.1508717813 0.0491301250
0.3089473437 0.1529134062 0.0435056562
0.3381364688 0.1553547500 0.0367160625
0.3672999062 0.1581806250 0.0307793125
0.3957667188 0.1612025625 0.0255055937
0.4241512500 0.1643424063 0.0210203750
0.4527510000 0.1674214062 0.0170773438
0.4818936250 0.1705540000 0.0141450000
0.5116277188 0.1735716875 0.0113852500
0.5419790937 0.1765345937 0.0095366250
0.5728137187 0.1794454062 0.0079842812
0.6038867500 0.1824104375 0.0066043125
0.6348830313 0.1852805625 0.0053969375
0.6656680938 0.1882994375 0.0046328125
0.6959528437 0.1915164688 0.0042136563
0.7255883125 0.1947445313 0.0034254375
0.7544690938 0.1983094062 0.0034254375
0.7822682187 0.2021005938 0.0034254375
0.8084303750 0.2061831250 0.0034254375
0.8326266250 0.2105267188 0.0034254375
0.8541535937 0.2148209375 0.0036226563
0.8730007187 0.2187914375 0.0043860313
0.1137280000 0.1207497500 0.1012212500
0.1210451250 0.1273653437 0.1037629062
0.1274594375 0.1343163750 0.1052005000
0.1335518125 0.1417575938 0.1040672500
0.1404077500 0.1500716250 0.0997028750
0.1494476563 0.1577374687 0.0915859375
0.1625189375 0.1645363750 0.0854753125
0.1769522188 0.1704799687 0.0831313438
0.1943790000 0.1762082500 0.0789415000
0.2179073125 0.1800979688 0.0728106562
0.2472985625 0.1827440000 0.0682228750
0.2809931875 0.1839283750 0.0652857500
0.3160111250 0.1847931250 0.0623813750
0.3493021875 0.1863284375 0.0583563437
0.3794332500 0.1890498125 0.0538649375
0.4083146563 0.1924691875 0.0489470625
0.4365135000 0.1962497500 0.0442325000
0.4644111250 0.1998505937 0.0394780938
0.4925836875 0.2035223750 0.0352396250
0.5215656250 0.2072605937 0.0309762187
0.5509077500 0.2107906250 0.0271071250
0.5809701563 0.2143887812 0.0239038125
0.6111633125 0.2177080625 0.0205521875
0.6415452812 0.2210059688 0.0178909687
0.6719517500 0.2243835000 0.0153772500
0.7020802188 0.2277829063 0.0140216250
0.7317825625 0.2312013125 0.0126662500
0.7608839062 0.2349083750 0.0114342500
0.7889188750 0.2385865000 0.0106460000
0.8154408125 0.2425996875 0.0100542500
0.8399129375 0.2468297500 0.0100542500
0.8610900937 0.2508670312 0.0106460000
0.8788140000 0.2544917500 0.0108432500
0.1341668750 0.1431635313 0.1198587188
0.1420779375 0.1500762812 0.1227627187
0.1493994687 0.1575565625 0.1245178437
0.1561327500 0.1657853750 0.1245284375
0.1629856875 0.1743820625 0.1208620000
0.1711034688 0.1827888750 0.1136918125
0.1830648438 0.1908200938 0.1044780625
0.1975810937 0.1977465000 0.0996499063
0.2129105313 0.2044356875 0.0972811875
0.2316347813 0.2103356563 0.0925072812
0.2559033125 0.2148711875 0.0860220000
0.2852322188 0.2180375937 0.0806622188
0.3187960000 0.2198455313 0.0777583750
0.3542566250 0.2211957187 0.0757670938
0.3891465312 0.2228159687 0.0733438125
0.4208690938 0.2253520000 0.0704718438
0.4503440312 0.2286401875 0.0672848750
0.4787134063 0.2324110938 0.0638003125
0.5068795938 0.2363610625 0.0597477812
0.5352511562 0.2404595312 0.0556791563
0.5638955625 0.2443666875 0.0511452500
0.5929505000 0.2482489063 0.0466010625
0.6222486875 0.2520188750 0.0422711250
0.6516955312 0.2557240937 0.0382301563
0.6811727812 0.2593691250 0.0345741250
0.7106525312 0.2630992500 0.0314689375
0.7397281250 0.2666536875 0.0285858437
0.7683150938 0.2703678125 0.0258258750
0.7960854063 0.2741505938 0.0244954375
0.8225807188 0.2782236875 0.0229424688
0.8468272187 0.2822278437 0.0224499688
0.8674893437 0.2860747812 0.0218828750
0.8845305313 0.2893475937 0.0218828750
0.1565856250 0.1672501875 0.1402553750
0.1650278438 0.1747759688 0.1437562500
0.1725336250 0.1824206250 0.1460651250
0.1797898438 0.1909087500 0.1466024063
0.1867734375 0.1998465625 0.1442285625
0.1947881250 0.2090899375 0.1385307188
0.2049046875 0.2180806875 0.1291667500
0.2193635625 0.2260875625 0.1195680312
0.2342296875 0.2332923125 0.1164323125
0.2503644688 0.2402314688 0.1141296563
0.2701591250 0.2465886250 0.1084883125
0.2950177500 0.2514225937 0.1013118125
0.3245323750 0.2550978750 0.0958850000
0.3576056875 0.2575575625 0.0919969375
0.3928023750 0.2593658125 0.0899449375
0.4279254688 0.2611063125 0.0884552812
0.4612038750 0.2632653125 0.0867791250
0.4917660312 0.2663726563 0.0848550625
0.5212775625 0.2699008125 0.0825384375
0.5501707188 0.2736881875 0.0793942813
0.5788061875 0.2775385000 0.0756921250
0.6074619375 0.2814165625 0.0713061250
0.6362270625 0.2853163125 0.0670743125
0.6648989687 0.2891552813 0.0622333438
0.6936221875 0.2930075625 0.0577128750
0.7221638750 0.2967669375 0.0532872187
0.7503600000 0.3005939375 0.0495663125
0.7781674375 0.3043427188 0.0460075937
0.8053285625 0.3082035625 0.0429953125
0.8314331250 0.3122865312 0.0407805312
0.8551254375 0.3163305625 0.0395324375
0.8751959062 0.3199883750 0.0382871250
0.8916096875 0.3231896250 0.0380405625
0.1805358125 0.1930806875 0.1629438437
0.1889211875 0.2007763438 0.1667297500
0.1967627188 0.2087877812 0.1694745313
0.2044289687 0.2176481875 0.1707454063
0.2117798125 0.2267840625 0.1697883750
0.2196379063 0.2364064063 0.1654510625
0.2290891250 0.2460590000 0.1577017813
0.2412671875 0.2549094687 0.1468319063
0.2564836250 0.2631135313 0.1391647500
0.2720062187 0.2704406250 0.1360947188
0.2887155000 0.2777112812 0.1330418125
0.3093407188 0.2841653125 0.1268899375
0.3349190312 0.2892822187 0.1195764063
0.3643295625 0.2931947500 0.1130506250
0.3967241563 0.2962091562 0.1080555625
0.4312180625 0.2983908750 0.1053325000
0.4658916875 0.3002957187 0.1037515625
0.4998430938 0.3024309063 0.1025570312
0.5319674062 0.3049222500 0.1014907188
0.5626721250 0.3078317812 0.0998065938
0.5926005313 0.3110492812 0.0975477500
0.6219462500 0.3144857187 0.0944386563
0.6508948750 0.3180951875 0.0908316250
0.6794595000 0.3217355000 0.0866785938
0.7077760312 0.3254558750 0.0821745312
0.7357866250 0.3292067188 0.0776336563
0.7634401562 0.3330162188 0.0731503125
0.7906390625 0.3368594688 0.0686596250
0.8172085625 0.3408383750 0.0650637187
0.8427249688 0.3449595313 0.0621710312
0.8659189375 0.3489623750 0.0595165312
0.8853183750 0.3526149063 0.0579730000
0.9010691562 0.3557196250 0.0569866250
0.2050865000 0.2198152500 0.1871262500
0.2138833438 0.2279825625 0.1915196250
0.2220115000 0.2362858125 0.1949981250
0.2298390938 0.2453525938 0.1971995938
0.2377555000 0.2548607500 0.1973006250
0.2455714063 0.2645712813 0.1942917188
0.2541852500 0.2744188125 0.1876320625
0.2649159062 0.2842056250 0.1777392812
0.2789096250 0.2931813750 0.1669043750
0.2944140625 0.3011555938 0.1605720313
0.3103338125 0.3087757500 0.1577932500
0.3276186875 0.3159961250 0.1540101250
0.3490110000 0.3224056250 0.1472620000
0.3748285625 0.3276036250 0.1393415000
0.4036466875 0.3317673750 0.1319551875
0.4351447187 0.3349897187 0.1259747500
0.4686372500 0.3374511250 0.1219851250
0.5030191875 0.3395428125 0.1197155938
0.5371991875 0.3413783125 0.1182730000
0.5705529687 0.3432680625 0.1172792187
0.6026455000 0.3455711250 0.1159345000
0.6336843437 0.3481472500 0.1143218438
0.6638771875 0.3509885000 0.1118617500
0.6933264375 0.3541277500 0.1088857813
0.7220237500 0.3573936250 0.1053648750
0.7501590000 0.3609023750 0.1012138750
0.7777147500 0.3645575625 0.0970630625
0.8047702812 0.3684000312 0.0927466875
0.8311115000 0.3723607500 0.0887380000
0.8563995312 0.3764371562 0.0852240313
0.8792644375 0.3804901875 0.0824571875
0.8981752187 0.3841280938 0.0803459375
0.9133375000 0.3871907500 0.0789333750
0.2308270625 0.2475988125 0.2135010000
0.2396189687 0.2559724063 0.2184127500
0.2481340938 0.2646973125 0.2224805313
0.2562018437 0.2741017813 0.2255399375
0.2639738437 0.2835506563 0.2263182813
0.2718458750 0.2933877812 0.2243683438
0.2800053438 0.3033338125 0.2192371250
0.2897667500 0.3134491563 0.2104365625
0.3018909375 0.3231805938 0.1987907812
0.3174040312 0.3319354062 0.1884748750
0.3329071250 0.3398696250 0.1839598125
0.3489419062 0.3474374063 0.1807094688
0.3666196250 0.3545377813 0.1762600625
0.3883205937 0.3606054062 0.1687944687
0.4137488125 0.3657390625 0.1602849687
0.4417613750 0.3699687500 0.1521456250
0.4724524063 0.3734027500 0.1449760000
0.5051128437 0.3760521875 0.1396932812
0.5389388125 0.3779616250 0.1362433438
0.5734210000 0.3795374375 0.1340203125
0.6077194688 0.3810764062 0.1326113750
0.6411560000 0.3827082813 0.1312434687
0.6734806875 0.3846585000 0.1299095937
0.7046511250 0.3869508125 0.1281650625
0.7347483125 0.3896008437 0.1259658125
0.7637740938 0.3926456875 0.1229818438
0.7920291250 0.3959803125 0.1198648125
0.8194851875 0.3995884688 0.1162018125
0.8461308125 0.4033804375 0.1124240000
0.8714870937 0.4074038125 0.1090779375
0.8944546562 0.4114067812 0.1061968125
0.9132143750 0.4149536250 0.1041456875
0.9279750313 0.4179358437 0.1026388437
0.2573533750 0.2759987500 0.2411802500
0.2661136250 0.2846804687 0.2467609063
0.2749273750 0.2937821250 0.2516359375
0.2830877500 0.3031287188 0.2550533750
0.2909557500 0.3127116250 0.2565772500
0.2986614063 0.3224578437 0.2554988437
0.3065069375 0.3325151875 0.2515265625
0.3156567188 0.3429438437 0.2444953438
0.3262085625 0.3528859375 0.2337105000
0.3397028125 0.3621040000 0.2214299688
0.3552856250 0.3702460625 0.2120543750
0.3707192188 0.3779913125 0.2080419375
0.3867189375 0.3852971875 0.2045093750
0.4046371250 0.3921465937 0.1991887187
0.4263580000 0.3980236250 0.1913031875
0.4509517188 0.4031409687 0.1822093125
0.4782858125 0.4075167500 0.1731567500
0.5081223750 0.4110193125 0.1648419688
0.5402100000 0.4136758750 0.1582697500
0.5740126875 0.4156512813 0.1534167188
0.6088450000 0.4171095000 0.1500208125
0.6439529063 0.4183160625 0.1479331563
0.6785399375 0.4195045625 0.1465181250
0.7121616875 0.4209527188 0.1452500000
0.7444204375 0.4228477500 0.1439698125
0.7752914375 0.4252470312 0.1423203438
0.8048956875 0.4279798125 0.1403416875
0.8333697187 0.4311531875 0.1377722813
0.8608138750 0.4346750000 0.1350455625
0.8868781250 0.4384200625 0.1322610000
0.9102281250 0.4422172500 0.1298856250
0.9291829062 0.4456083750 0.1279138750
0.9438678750 0.4484023750 0.1265320000
0.2845693125 0.3051871250 0.2700922813
0.2935605937 0.3139460625 0.2761298437
0.3021009687 0.3229460625 0.2813926875
0.3101777187 0.3322339062 0.2852410938
0.3181001875 0.3418230625 0.2874524688
0.3256037187 0.3514867500 0.2872385937
0.3334563750 0.3615625937 0.2844700000
0.3417500313 0.3717116250 0.2786096875
0.3512310312 0.3817395937 0.2692357500
0.3626622188 0.3912388750 0.2567883750
0.3770496562 0.3999270625 0.2447985313
0.3922215625 0.4078780625 0.2369876875
0.4073594375 0.4152887500 0.2329795625
0.4232681875 0.4224123125 0.2288082813
0.4411706250 0.4290014062 0.2227681875
0.4625651250 0.4348955625 0.2142559062
0.4865216250 0.4401254062 0.2047085625
0.5132951250 0.4445694688 0.1948257187
0.5426897813 0.4482028750 0.1853804375
0.5745638438 0.4509610937 0.1774546250
0.6084322500 0.4529565938 0.1712257188
0.6436946562 0.4543239063 0.1667089375
0.6795946875 0.4553912187 0.1637985937
0.7152546250 0.4563584063 0.1618877187
0.7500333438 0.4575194062 0.1605480937
0.7833176875 0.4590735312 0.1595677812
0.8150202813 0.4611449375 0.1583300938
0.8452144375 0.4636737187 0.1570518438
0.8740574063 0.4666782500 0.1552960938
0.9012534063 0.4700780000 0.1533852813
0.9254661875 0.4734949375 0.1517283125
0.9448884687 0.4765405937 0.1502936875
0.9597646875 0.4791474687 0.1493803125
0.3120115000 0.3344440000 0.2994045000
0.3208218125 0.3428790000 0.3057005625
0.3293891250 0.3519933750 0.3113633750
0.3374101563 0.3611965625 0.3156661875
0.3450662500 0.3705812500 0.3183616250
0.3528017500 0.3803186563 0.3194204375
0.3600868125 0.3899864375 0.3174470000
0.3677995000 0.3999020937 0.3127067500
0.3762625000 0.4097015000 0.3047952500
0.3862436875 0.4193018438 0.2933881250
0.3986113125 0.4284965625 0.2803270000
0.4132000000 0.4367322188 0.2685432187
0.4277406250 0.4444117500 0.2623037500
0.4423702812 0.4518446250 0.2582815312
0.4579853750 0.4589243750 0.2536440625
0.4760930313 0.4655721875 0.2469334687
0.4971690000 0.4715560000 0.2379930000
0.5207895938 0.4769001562 0.2276673125
0.5473221250 0.4814649375 0.2169573125
0.5766899688 0.4852170000 0.2066007813
0.6085505000 0.4881095000 0.1973630000
0.6425982187 0.4901961563 0.1898234375
0.6782571875 0.4916570000 0.1842397500
0.7148408750 0.4926568125 0.1803507500
0.7512762500 0.4934502500 0.1777650000
0.7869671875 0.4943574688 0.1761707813
0.8212449375 0.4956789375 0.1751106250
0.8537970313 0.4974510313 0.1742167813
0.8845850000 0.4998142500 0.1732006250
0.9133676250 0.5025835938 0.1722900000
0.9388002500 0.5055405000 0.1713944375
0.9589442188 0.5082550000 0.1706909062
0.9741565000 0.5105035000 0.1701195000
0.3393339063 0.3632905000 0.3285700937
0.3481706562 0.3717671563 0.3352143750
0.3564912188 0.3805930000 0.3410686562
0.3644676875 0.3896788750 0.3459818750
0.3720486875 0.3989717500 0.3493520937
0.3792899063 0.4081949687 0.3507717500
0.3863012188 0.4175685937 0.3498467187
0.3934960938 0.4271926250 0.3463414062
0.4011768750 0.4369817812 0.3398397813
0.4099176562 0.4466894687 0.3301489687
0.4203718437 0.4561902500 0.3175226250
0.4331988438 0.4650459375 0.3043606250
0.4476317500 0.4731916875 0.2936328437
0.4615205937 0.4809222500 0.2885339062
0.4759765625 0.4883868125 0.2844016563
0.4917141562 0.4955884375 0.2790909062
0.5099957187 0.5022419688 0.2716875313
0.5309274688 0.5083440938 0.2622514375
0.5546824375 0.5138313437 0.2513710313
0.5812460937 0.5184542812 0.2397842187
0.6105551563 0.5222694688 0.2284426875
0.6425461875 0.5252959375 0.2182596875
0.6767283125 0.5275270938 0.2096331250
0.7126437500 0.5289877188 0.2028766562
0.7495372500 0.5299961250 0.1979174687
0.7865969375 0.5306996563 0.1945207187
0.8230426250 0.5315101875 0.1921849375
0.8581162500 0.5326221562 0.1908757813
0.8914110625 0.5341759062 0.1899736563
0.9222852500 0.5362104688 0.1893124062
0.9492579062 0.5385580000 0.1887889687
0.9702578438 0.5407505625 0.1885864375
0.9858120312 0.5426621875 0.1883835000
0.3664616875 0.3917270000 0.3574156875
0.3749820625 0.4000694688 0.3642794062
0.3832161250 0.4085954375 0.3702648750
0.3910265937 0.4174585312 0.3756084375
0.3983916875 0.4262775625 0.3792991250
0.4054682500 0.4353764688 0.3814480313
0.4121851250 0.4445495625 0.3814706875
0.4188958750 0.4539783750 0.3793241562
0.4260146875 0.4638846875 0.3746331875
0.4337414687 0.4736929375 0.3665996563
0.4427380625 0.4834772500 0.3556208125
0.4536906563 0.4929505625 0.3423126562
0.4668136875 0.5016678125 0.3296788750
0.4806977188 0.5098025625 0.3205437187
0.4944910000 0.5175757500 0.3155336250
0.5089956875 0.5250955938 0.3109718437
0.5250659375 0.5323808750 0.3051303750
0.5436744375 0.5390446250 0.2971647500
