bundles/resolve-cinematic-luts/Gamut/Foris/Foris 04.cube
TITLE "Foris 04 by Gamut"
# Version 1.0 - 05/25/2022 - Designed for Rec.709 Color Space. Copyright 2022 Gamut, LLC
LUT_3D_SIZE 5
0.0063090000 0.0063090000 0.0055200000
0.2249680000 0.0001972500 0.0033512500
0.4587740000 0.0003945000 0.0000000000
0.6797430000 0.0287830000 0.0000000000
0.8581000000 0.0913190000 0.0000000000
0.1499327500 0.1644115000 0.1239237500
0.2488435000 0.2296825000 0.0803797500
0.5108702500 0.2400860000 0.0567965000
0.7150722500 0.2650345000 0.0193200000
0.8895785000 0.2852402500 0.0005917500
0.3776555000 0.4193565000 0.3517095000
0.4080370000 0.4547665000 0.3345860000
0.5246005000 0.5129390000 0.2322855000
0.7633270000 0.5105310000 0.1784127500
0.9796940000 0.5021885000 0.1530215000
0.5424922500 0.6067870000 0.5351545000
0.5613910000 0.6276417500 0.5458092500
0.6322830000 0.7035625000 0.4714702500
0.7464905000 0.7495347500 0.3794857500
0.9975332500 0.7404345000 0.2639547500
0.7160120000 0.8027270000 0.7070750000
0.7290702500 0.8163232500 0.7152622500
0.7769255000 0.8710225000 0.7211070000
0.8729822500 0.9439467500 0.6099225000
0.9830960000 0.9802360000 0.6191100000
0.0045340000 0.0126170000 0.1584065000
0.2209350000 0.0021687500 0.1684897500
0.4849930000 0.0003945000 0.1460925000
0.6870352500 0.0252342500 0.1679540000
0.8560357500 0.0714295000 0.2027390000
0.1067192500 0.2092690000 0.1790662500
0.2676197500 0.2417732500 0.2054477500
0.5117317500 0.2424250000 0.2030050000
0.7118032500 0.2526060000 0.2047457500
0.8814275000 0.2633550000 0.2087807500
0.3885597500 0.4345497500 0.3861777500
0.4220980000 0.4614660000 0.4143157500
0.5206092500 0.5271600000 0.3377387500
0.7804600000 0.5104620000 0.2889027500
0.9666630000 0.5191235000 0.2448702500
0.5522107500 0.6208382500 0.5556100000
0.5744895000 0.6388967500 0.5747760000
0.6355607500 0.7059202500 0.5820607500
0.7484180000 0.7622535000 0.4586710000
0.9998657500 0.7417802500 0.3795390000
0.6902645000 0.7775377500 0.6882860000
0.7036480000 0.7902397500 0.6987405000
0.7522940000 0.8430447500 0.7213237500
0.8721940000 0.9427365000 0.6090397500
0.9830340000 0.9801530000 0.6202887500
0.0327260000 0.0110400000 0.3842965000
0.2020810000 0.0007890000 0.3928112500
0.4678105000 0.0007885000 0.4195975000
0.7136565000 0.0329227500 0.4343362500
0.9065085000 0.0613455000 0.4337210000
0.0549225000 0.2353330000 0.3895067500
0.2452147500 0.2527322500 0.4255870000
0.5120320000 0.2368270000 0.4737640000
0.7449227500 0.2438510000 0.4573522500
0.9100810000 0.2556055000 0.4510077500
0.2652335000 0.4777965000 0.4269840000
0.3430592500 0.4931110000 0.4462992500
0.5129790000 0.5336345000 0.4847670000
0.7510215000 0.5249587500 0.4701540000
0.9417405000 0.5087055000 0.4802280000
0.5315762500 0.6488090000 0.5776937500
0.5630397500 0.6656362500 0.5917017500
0.6520507500 0.7150945000 0.6553962500
0.7335142500 0.7692850000 0.5964975000
1.0000000000 0.7459885000 0.5247760000
0.6838425000 0.8165515000 0.7190820000
0.7008090000 0.8260915000 0.7293647500
0.7671715000 0.8595715000 0.7777830000
0.8491840000 0.9324710000 0.8116665000
0.9862310000 0.9822580000 0.6262390000
0.0558660000 0.0337115000 0.5648710000
0.2049030000 0.0033512500 0.5741735000
0.4513080000 0.0090687500 0.6020432500
0.6919190000 0.0276002500 0.6563700000
0.8899717500 0.0309512500 0.6617000000
0.1087115000 0.2494257500 0.5836415000
0.2515085000 0.2623090000 0.6083955000
0.4863980000 0.2567450000 0.6514665000
0.7143230000 0.2480292500 0.6862562500
0.9180945000 0.2489627500 0.6866392500
0.1904132500 0.5122042500 0.6023545000
0.2846060000 0.5260890000 0.6253840000
0.4914950000 0.5429580000 0.6607167500
0.7327275000 0.5207457500 0.7112822500
0.9622760000 0.5017787500 0.7075350000
0.4001132500 0.7057675000 0.6455867500
0.4488992500 0.7184040000 0.6591895000
0.5981995000 0.7438015000 0.6920485000
0.7264805000 0.7757137500 0.7177785000
0.9692090000 0.7683032500 0.7010837500
0.6005957500 0.8574407500 0.7511152500
0.6221835000 0.8607370000 0.7583427500
0.7203942500 0.8778632500 0.7969312500
0.8613152500 0.9472100000 0.8731455000
0.9632267500 0.9971842500 0.7571895000
0.1041630000 0.0394290000 0.7295380000
0.2193432500 0.0220797500 0.7409742500
0.4381825000 0.0086745000 0.7763645000
0.6627845000 0.0384262500 0.8250210000
0.8602970000 0.0000000000 0.8565880000
0.1049110000 0.2528002500 0.7679377500
0.2652617500 0.2653317500 0.7836797500
0.4679005000 0.2529420000 0.8275382500
0.6848370000 0.2578197500 0.8545590000
0.8817997500 0.2386835000 0.8808487500
0.1681185000 0.5118460000 0.7863770000
0.2680337500 0.5217065000 0.8065770000
0.4787745000 0.5387065000 0.8404700000
0.6960475000 0.5261305000 0.8919467500
0.9187270000 0.5058580000 0.9349995000
0.2204287500 0.7279107500 0.8141620000
0.2984450000 0.7369355000 0.8273600000
0.5066047500 0.7596455000 0.8617977500
0.7036105000 0.7793847500 0.8950545000
0.9337822500 0.7679267500 0.9488545000
0.3843940000 0.9217980000 0.8555340000
0.3844850000 0.9217005000 0.8554680000
0.4097770000 0.9467515000 0.8789815000
0.7774162500 0.9803525000 0.9220205000
0.9373730000 1.0000000000 0.9464060000
