bundles/resolve-cinematic-luts/Gamut/Foris/Foris 06.cube
TITLE "Foris 06 by Gamut"
# Version 1.0 - 05/25/2022 - Designed for Rec.709 Color Space. Copyright 2022 Gamut, LLC
LUT_3D_SIZE 33
0.0110400000 0.0078860000 0.0086740000
0.0218582187 0.0102017187 0.0094383437
0.0419287500 0.0095122500 0.0079352500
0.0618254688 0.0101771250 0.0078860000
0.0798967500 0.0109413750 0.0078860000
0.1008685625 0.0110400000 0.0086740000
0.1249628125 0.0096107500 0.0072449375
0.1494371875 0.0102510000 0.0042879688
0.1769912500 0.0082802500 0.0031540000
0.2032976250 0.0073189062 0.0045093750
0.2309084375 0.0057665625 0.0068507500
0.2578565312 0.0055200000 0.0070970000
0.2861217500 0.0047310000 0.0078860000
0.3138218750 0.0047310000 0.0074175312
0.3402521875 0.0067522500 0.0066537500
0.3675564375 0.0075161563 0.0055200000
0.3964245000 0.0074915000 0.0051255000
0.4240886562 0.0090438437 0.0047310000
0.4505431875 0.0112861250 0.0047310000
0.4745498750 0.0159441875 0.0044108750
0.4991732500 0.0203057500 0.0039430000
0.5256698750 0.0241990938 0.0039430000
0.5512999375 0.0285856250 0.0039430000
0.5762376875 0.0337854375 0.0039430000
0.6012570000 0.0392285000 0.0039430000
0.6256912812 0.0440576250 0.0039430000
0.6480240625 0.0509673125 0.0031540000
0.6706542813 0.0571078125 0.0031540000
0.6955226250 0.0616297500 0.0023660000
0.7109148438 0.0721980625 0.0023660000
0.7230931250 0.0850761250 0.0023660000
0.7379011250 0.0965245625 0.0023660000
0.7523460000 0.1082580000 0.0023660000
0.0203305000 0.0249136562 0.0156231563
0.0350177812 0.0264669688 0.0133320625
0.0547478750 0.0250122500 0.0095122812
0.0749624063 0.0241995625 0.0048789375
0.0959360625 0.0227210625 0.0047556563
0.1171436563 0.0226471875 0.0047803125
0.1399993750 0.0212179687 0.0040169375
0.1670094375 0.0189258750 0.0025876563
0.1952840937 0.0160176250 0.0023906250
0.2245237812 0.0127403125 0.0037457500
0.2529492813 0.0103990000 0.0047556562
0.2791703125 0.0104236562 0.0047803125
0.3081691562 0.0096599375 0.0055692813
0.3361948125 0.0098323125 0.0055692813
0.3634313125 0.0113852500 0.0047556563
0.3918920938 0.0125184375 0.0039676250
0.4216295937 0.0125184375 0.0039676250
0.4495207812 0.0140466250 0.0039676250
0.4749559375 0.0182604687 0.0039676250
0.4987125313 0.0229179687 0.0039430000
0.5247989375 0.0275756563 0.0031786563
0.5518160938 0.0322084687 0.0031786563
0.5779675000 0.0368655312 0.0031786563
0.6041672813 0.0416933438 0.0031786563
0.6295151250 0.0469148125 0.0031786563
0.6514782188 0.0547952187 0.0031540000
0.6746835625 0.0612808437 0.0023906250
0.6998942500 0.0664745000 0.0023660000
0.7100723437 0.0805921875 0.0016016562
0.7228994375 0.0931720313 0.0023660000
0.7376780000 0.1045945312 0.0023660000
0.7488038437 0.1179281562 0.0023660000
0.7609838125 0.1310902188 0.0023660000
0.0304090000 0.0441104375 0.0226225625
0.0375315937 0.0468884063 0.0225979062
0.0584935625 0.0442090000 0.0157217500
0.0776434062 0.0427024687 0.0125184062
0.0985448750 0.0419287500 0.0079845000
0.1219847187 0.0404750313 0.0027602500
0.1492184375 0.0376055000 0.0001971875
0.1777625938 0.0330954375 0.0000493125
0.2106137500 0.0271569375 0.0000493125
0.2430011563 0.0216121563 0.0008382500
0.2723991250 0.0196155625 0.0008875625
0.2999161563 0.0188518750 0.0014539375
0.3301402500 0.0178413125 0.0016755625
0.3582575625 0.0183097812 0.0024645625
0.3853801875 0.0198621250 0.0024152500
0.4150434375 0.0202072500 0.0024152500
0.4443391250 0.0213409375 0.0031540000
0.4717300000 0.0240512188 0.0032033125
0.4977246875 0.0282408750 0.0032033125
0.5230974375 0.0329477813 0.0024152500
0.5501087500 0.0376052500 0.0024152500
0.5781561875 0.0414300625 0.0024152500
0.6049545000 0.0466845000 0.0024152500
0.6290351250 0.0532196562 0.0024152500
0.6512093125 0.0614188750 0.0024152500
0.6751626875 0.0681693750 0.0021934063
0.6948318125 0.0773298750 0.0016263125
0.7068789375 0.0907353125 0.0015770000
0.7182412500 0.1045233125 0.0015770000
0.7323864063 0.1162446562 0.0015770000
0.7447312500 0.1289783125 0.0015770000
0.7562119687 0.1422775312 0.0015770000
0.7696012500 0.1541708750 0.0015770000
0.0419308125 0.0635623125 0.0310994688
0.0482574063 0.0652443125 0.0304090625
0.0592117812 0.0652443125 0.0279946562
0.0825589375 0.0625900000 0.0196401250
0.1019314375 0.0608078437 0.0170778437
0.1242200000 0.0596780625 0.0110892812
0.1511446250 0.0579319687 0.0041647188
0.1802654375 0.0542818437 0.0008135313
0.2123724688 0.0486883125 0.0000000000
0.2468683125 0.0429339063 0.0000000000
0.2815885625 0.0375560625 0.0000000000
0.3147500938 0.0338349063 0.0000000000
0.3490125313 0.0305324687 0.0000739688
0.3784209375 0.0308036875 0.0005424375
0.4064720937 0.0328245000 0.0007890000
0.4373569688 0.0331696875 0.0008628750
0.4663106250 0.0347462812 0.0016509688
0.4927436250 0.0389302500 0.0016509688
0.5196132500 0.0433490313 0.0013062188
0.5483002500 0.0469686563 0.0008628750
0.5767536562 0.0508523750 0.0008628750
0.5993342188 0.0585729063 0.0015770000
0.6220446250 0.0661668750 0.0016509687
0.6463202188 0.0730508437 0.0015770000
0.6675928125 0.0817259688 0.0013800000
0.6832023750 0.0938365625 0.0008628750
0.6981249375 0.1058716250 0.0007890000
0.7104625312 0.1193766250 0.0001972500
0.7236139375 0.1318013125 0.0007890000
0.7375430000 0.1437401875 0.0007890000
0.7509747187 0.1555430938 0.0008628750
0.7641527187 0.1674206875 0.0008628750
0.7782456875 0.1786385000 0.0008628750
0.0552946250 0.0834603750 0.0404040000
0.0601892500 0.0848026562 0.0403301250
0.0679069375 0.0860656250 0.0388375625
0.0814492500 0.0860189375 0.0340809375
0.1081475000 0.0820672500 0.0235585000
0.1289203437 0.0806688125 0.0209469062
0.1528002500 0.0793152500 0.0148843750
0.1812000625 0.0778533125 0.0071955625
0.2129530000 0.0745226250 0.0025630000
0.2465691250 0.0699104063 0.0008135000
0.2818515000 0.0650441250 0.0000000000
0.3163350312 0.0614535312 0.0000000000
0.3528018750 0.0573720000 0.0000000000
0.3848968437 0.0567372500 0.0000000000
0.4155713750 0.0577889375 0.0000000000
0.4490363438 0.0574508750 0.0000000000
0.4808772500 0.0583453750 0.0000986250
0.5054628437 0.0642259062 0.0000986250
0.5290268125 0.0709295000 0.0000986250
0.5557243750 0.0760545938 0.0000000000
0.5830690000 0.0808090000 0.0000986250
0.6076975625 0.0873015937 0.0000986250
0.6290089375 0.0961252500 0.0000986250
0.6485814688 0.1058558125 0.0000986250
0.6675083750 0.1157102500 0.0000986250
0.6837824688 0.1271283750 0.0000000000
0.6984928125 0.1390033125 0.0000000000
0.7141484375 0.1501263750 0.0000000000
0.7297595000 0.1609511250 0.0000000000
0.7448815625 0.1717644375 0.0001725938
0.7589396875 0.1827401875 0.0007890000
0.7730256875 0.1936506563 0.0008136250
0.7868720000 0.2042542500 0.0014785000
0.0713562188 0.1053985000 0.0537874375
0.0753691250 0.1061971563 0.0526169062
0.0814988125 0.1069271563 0.0507585313
0.0914913437 0.1072593437 0.0480665000
0.1065070625 0.1087563437 0.0395516875
0.1369793438 0.1040157187 0.0282657188
0.1592216250 0.1023783438 0.0255548438
0.1853029375 0.1019926875 0.0188027500
0.2141563125 0.1014838750 0.0124198750
0.2453742188 0.1004911875 0.0076886563
0.2793882187 0.0980555625 0.0039430000
0.3146862812 0.0955840938 0.0022673438
0.3505024375 0.0933086562 0.0008380937
0.3836383437 0.0927985625 0.0006657187
0.4146304688 0.0944205938 0.0000000000
0.4444785313 0.0965502500 0.0000000000
0.4737769375 0.0997403438 0.0000000000
0.5011003125 0.1042303125 0.0000000000
0.5269245000 0.1098768125 0.0000000000
0.5537934063 0.1149795000 0.0000000000
0.5803804688 0.1205387187 0.0000000000
0.6047536250 0.1271616563 0.0000000000
0.6265738125 0.1353877813 0.0000000000
0.6458612500 0.1448401250 0.0000000000
0.6654702500 0.1537791562 0.0000000000
0.6852990625 0.1626193750 0.0000000000
0.7033295312 0.1720695000 0.0001479375
0.7202099375 0.1817720625 0.0006657187
0.7368165937 0.1914810313 0.0014538750
0.7528569063 0.2009655625 0.0014538750
0.7674863437 0.2112125937 0.0021195937
0.7809232500 0.2218997500 0.0029075938
0.7945404688 0.2320252812 0.0036965938
0.0894743750 0.1289257500 0.0689756250
0.0920624062 0.1297789688 0.0679107188
0.0965824375 0.1302003125 0.0658726875
0.1042510625 0.1309839375 0.0626137813
0.1180338750 0.1310968750 0.0573496875
0.1379957500 0.1330470625 0.0432436563
0.1703710625 0.1283045000 0.0341056250
0.1948096250 0.1277386250 0.0314940312
0.2222039375 0.1279681250 0.0262698125
0.2521907812 0.1292919375 0.0193443437
0.2838910625 0.1297375000 0.0143915000
0.3175550938 0.1300882187 0.0106703750
0.3521324375 0.1301293125 0.0075901250
0.3857962500 0.1307162813 0.0052489688
0.4175759375 0.1324861250 0.0044848125
0.4479387812 0.1353214062 0.0034993750
0.4771976250 0.1390805625 0.0028583125
0.5056822500 0.1432828750 0.0023411875
0.5325150000 0.1484445000 0.0020703125
0.5587365313 0.1539523437 0.0017497813
0.5843625000 0.1596564375 0.0012813125
0.6086389688 0.1659429062 0.0012813125
0.6313996875 0.1730466250 0.0016758125
0.6523386875 0.1807907500 0.0020703125
0.6730551875 0.1884325000 0.0020703125
0.6935029062 0.1961001562 0.0027105625
0.7121366875 0.2044280625 0.0028583125
0.7296384062 0.2131885625 0.0029815937
0.7461725625 0.2219599375 0.0037458125
0.7622450625 0.2308700938 0.0045092812
0.7765565625 0.2406048125 0.0058653750
0.7895010937 0.2509368750 0.0066780312
0.8017901250 0.2614077500 0.0082305625
0.1123874062 0.1531321250 0.0873035625
0.1147205625 0.1532452813 0.0860994062
0.1178030312 0.1537132187 0.0847727188
0.1227078750 0.1547219062 0.0829027813
0.1319953125 0.1558428125 0.0792975625
0.1460788438 0.1582794375 0.0718973125
0.1734683438 0.1609039063 0.0508693438
0.2073812500 0.1566328438 0.0435766562
0.2326852812 0.1566391250 0.0432316875
0.2627620312 0.1578086875 0.0388082188
0.2948313125 0.1592356562 0.0334403125
0.3290203125 0.1611552187 0.0272307813
0.3635835312 0.1629470000 0.0210695937
0.3971261250 0.1650697500 0.0176692188
0.4295565625 0.1677543750 0.0153525000
0.4607239687 0.1709441875 0.0125927500
0.4909058750 0.1745142188 0.0110155000
0.5196371250 0.1787143438 0.0102516562
0.5465419375 0.1836797187 0.0092160938
0.5723400312 0.1892469063 0.0084278750
0.5974352187 0.1948799375 0.0076390937
0.6213633438 0.2008683438 0.0078114687
0.6439752187 0.2071794375 0.0078114687
0.6651694375 0.2141304375 0.0078114687
0.6855310000 0.2212599687 0.0079840625
0.7053372187 0.2283744688 0.0079840625
0.7239659688 0.2360440937 0.0086004687
0.7412670937 0.2443498438 0.0087730625
0.7574827187 0.2528672188 0.0088715625
0.7725737188 0.2617866562 0.0096350313
0.7863406562 0.2711765312 0.0111880937
0.7990991875 0.2810333437 0.0125680937
0.8104117813 0.2914244062 0.0141204688
0.1360152500 0.1805795000 0.1104875000
0.1377960313 0.1804182500 0.1095147188
0.1405816875 0.1802431250 0.1074562500
0.1451134688 0.1807108125 0.1047341875
0.1527780000 0.1819468750 0.1007511250
0.1658122188 0.1836122500 0.0947867187
0.1820551875 0.1892651875 0.0813058125
0.2153731563 0.1910050938 0.0606730000
0.2509615000 0.1872122500 0.0556662500
0.2795353750 0.1877525000 0.0561267500
0.3117514375 0.1886841875 0.0541236875
0.3455216250 0.1905389688 0.0500718750
0.3798210000 0.1928677500 0.0459402500
0.4135220625 0.1957845000 0.0414267500
0.4457570000 0.1992586875 0.0378880625
0.4765817812 0.2033341563 0.0346479687
0.5063142500 0.2075795000 0.0315432500
0.5351381250 0.2123144063 0.0286350625
0.5625241875 0.2174728125 0.0249390625
0.5885261563 0.2227656875 0.0231394688
0.6134463750 0.2278580000 0.0220802500
0.6371618437 0.2333768438 0.0212176250
0.6596716875 0.2396431875 0.0190739375
0.6805587500 0.2465464063 0.0177181250
0.7006910000 0.2533402500 0.0167572500
0.7190008750 0.2602452812 0.0175211250
0.7368431250 0.2676187500 0.0179892500
0.7538198437 0.2756492500 0.0172254688
0.7695620000 0.2842737500 0.0168556250
0.7834708750 0.2931301562 0.0182849375
0.7963011250 0.3018078125 0.0219320625
0.8086190625 0.3111317813 0.0242980312
0.8193470000 0.3209067500 0.0272057500
0.1637608750 0.2097034375 0.1357375937
0.1649474687 0.2090247812 0.1345737500
0.1668818125 0.2085195313 0.1327482188
0.1699807812 0.2087315000 0.1309695312
0.1749730625 0.2099566562 0.1284927812
0.1841469688 0.2118504688 0.1250442813
0.1972372500 0.2160191562 0.1186385625
0.2179875625 0.2235245625 0.1007246563
0.2598918438 0.2241081875 0.0760150000
0.2992249063 0.2208071875 0.0712403750
0.3305673750 0.2214010625 0.0729750000
0.3638157500 0.2228878438 0.0725212500
0.3982120937 0.2245413125 0.0708565625
0.4314873750 0.2270709688 0.0689593750
0.4632824375 0.2302514687 0.0673109688
0.4935018438 0.2341671875 0.0651969375
0.5225385000 0.2384500938 0.0626662188
0.5504248750 0.2431395000 0.0597585937
0.5771982500 0.2481379687 0.0561119063
0.6026420625 0.2533524375 0.0527159062
0.6270617813 0.2588438125 0.0493834375
0.6500811250 0.2647052813 0.0461731562
0.6718127188 0.2708253438 0.0433043438
0.6921642812 0.2773455938 0.0411379375
0.7115650938 0.2842223125 0.0391476875
0.7300548750 0.2912115937 0.0376704688
0.7473949375 0.2984600000 0.0371120000
0.7635518437 0.3060945313 0.0374488438
0.7787012500 0.3141625625 0.0382203125
0.7925620313 0.3226851250 0.0398150312
0.8058102500 0.3311525000 0.0415606250
0.8180793438 0.3400120938 0.0442548438
0.8287443125 0.3490964687 0.0482387188
0.1901520000 0.2427775625 0.1641306250
0.1908197188 0.2417380937 0.1626923125
0.1920880000 0.2410432500 0.1613230625
0.1947142500 0.2405163438 0.1593006250
0.1994268750 0.2410206875 0.1565048125
0.2073979062 0.2428283125 0.1531092187
0.2200350625 0.2460659375 0.1468790625
0.2367998750 0.2531288125 0.1344087812
0.2662995625 0.2602006250 0.1115645000
0.3128427812 0.2586969375 0.0914178750
0.3537206250 0.2558001250 0.0876561250
0.3856578125 0.2574991562 0.0893836562
0.4187209375 0.2594276250 0.0898440625
0.4515771563 0.2616037500 0.0895559375
0.4826275625 0.2646785000 0.0897000625
0.5121758438 0.2681306875 0.0893307812
0.5401777500 0.2719353125 0.0886121250
0.5667113125 0.2761203750 0.0872432812
0.5924587500 0.2805711875 0.0851291250
0.6166656250 0.2855375312 0.0824058437
0.6397198125 0.2907296250 0.0794370625
0.6615432812 0.2963002812 0.0762178438
0.6820141875 0.3023035625 0.0733999375
0.7015752813 0.3085920625 0.0704924688
0.7202366875 0.3151926875 0.0681650000
0.7383864688 0.3218919062 0.0661837813
0.7554915625 0.3288300000 0.0648270000
0.7720254687 0.3360829687 0.0644746250
0.7877313750 0.3436381250 0.0642552500
0.8016895625 0.3517136875 0.0654215312
0.8145993125 0.3601411250 0.0674204375
0.8263170938 0.3687264375 0.0699568750
0.8366100000 0.3774040625 0.0747216875
0.2175877188 0.2784756250 0.1926369062
0.2182889375 0.2774172813 0.1911717500
0.2196093125 0.2760856875 0.1892768437
0.2218655000 0.2750235625 0.1870953750
0.2259363437 0.2748959687 0.1842577187
0.2324359375 0.2759004688 0.1812643125
0.2429253750 0.2787245313 0.1771981875
0.2556089375 0.2849407812 0.1707602813
0.2743335000 0.2941000000 0.1575300937
0.3100603750 0.3006369375 0.1323784375
0.3634186250 0.2972162500 0.1104896562
0.4052370937 0.2951372187 0.1063446250
0.4364326563 0.2975140312 0.1078019062
0.4668074062 0.3006305625 0.1088997188
0.4974329375 0.3032550312 0.1094835625
0.5263267812 0.3063857812 0.1101951250
0.5535790312 0.3097423125 0.1106419063
0.5797914375 0.3130371875 0.1106962813
0.6048647188 0.3165720938 0.1102817500
0.6286230000 0.3204956562 0.1089312500
0.6512565625 0.3247811562 0.1068470625
0.6727260313 0.3294617187 0.1044938437
0.6930698125 0.3345952500 0.1017285938
0.7123795938 0.3402833125 0.0987743125
0.7310081562 0.3462265937 0.0962455937
0.7486146250 0.3525749063 0.0940670000
0.7655503750 0.3592910625 0.0923941562
0.7820896250 0.3661663438 0.0912062188
0.7978003750 0.3733601562 0.0910528438
0.8116178125 0.3811081875 0.0921980625
0.8242864375 0.3891649688 0.0941422812
0.8353940937 0.3974822500 0.0972720000
0.8453908125 0.4057704688 0.1014185312
0.2445880000 0.3167266250 0.2229130000
0.2452934063 0.3152908437 0.2210253750
0.2462621250 0.3136588125 0.2189046250
0.2479727812 0.3122751563 0.2167605000
0.2509421250 0.3115310000 0.2141812500
0.2558287188 0.3121434062 0.2120717812
0.2646800625 0.3142326875 0.2092535625
0.2772612187 0.3188045625 0.2042016250
0.2933056250 0.3270593750 0.1947908750
0.3178613437 0.3372040937 0.1751824063
0.3646120625 0.3403501250 0.1454912500
0.4146521250 0.3371966875 0.1292215938
0.4535431250 0.3365946250 0.1255637500
0.4825956875 0.3397719687 0.1264943750
0.5104761875 0.3435215000 0.1272473750
0.5391312187 0.3463856250 0.1273891250
0.5664868750 0.3491741250 0.1279763750
0.5926234688 0.3519583125 0.1283253750
0.6173681875 0.3546934375 0.1285798750
0.6411574375 0.3575431875 0.1283918750
0.6636233750 0.3607332500 0.1276560000
0.6847880000 0.3643726563 0.1263706875
0.7051392500 0.3684933750 0.1245770625
0.7246741562 0.3731112187 0.1223432188
0.7431412500 0.3782470000 0.1202705000
0.7605109062 0.3840261250 0.1185695313
0.7773703125 0.3901533750 0.1172992500
0.7936636250 0.3966773437 0.1161495625
0.8090296250 0.4034307500 0.1158992500
0.8226412812 0.4108633437 0.1169769688
0.8348383125 0.4184295000 0.1190143125
0.8457386875 0.4262479063 0.1221714375
0.8548491250 0.4343568750 0.1266555000
0.2709879375 0.3561348750 0.2543817812
0.2714764687 0.3543959688 0.2524677813
0.2720704688 0.3525599375 0.2502538750
0.2732942187 0.3508700000 0.2476597500
0.2765690000 0.3494883437 0.2443176250
0.2818614687 0.3492401250 0.2408151250
0.2903512812 0.3504976875 0.2374349063
0.3024958125 0.3540150625 0.2330988750
0.3176492187 0.3612115938 0.2246164063
0.3386713750 0.3715125625 0.2071316250
0.3709218437 0.3797186563 0.1836409063
0.4176599375 0.3805520000 0.1600455000
0.4644425313 0.3776916563 0.1466621250
0.4994125312 0.3781813750 0.1433393750
0.5263548125 0.3817152500 0.1437271875
0.5521122188 0.3854468437 0.1441295938
0.5790879687 0.3882050625 0.1437162813
0.6048226563 0.3907489062 0.1436907813
0.6294399375 0.3931099687 0.1438077812
0.6528567500 0.3954300938 0.1440854688
0.6752111875 0.3980103125 0.1438672812
0.6965977187 0.4008276563 0.1434810313
0.7167711562 0.4040847188 0.1426957500
0.7362041875 0.4077559063 0.1415466562
0.7550491562 0.4119653125 0.1402583438
0.7722462500 0.4168073750 0.1396350000
0.7890226250 0.4221175312 0.1392261875
0.8054300000 0.4277959687 0.1386498750
0.8206518750 0.4340265000 0.1385974375
0.8339958438 0.4409083125 0.1396074687
0.8461374063 0.4478203437 0.1411869062
0.8563032812 0.4551555937 0.1442587500
0.8646231250 0.4628618438 0.1487054688
0.2992318125 0.3944970625 0.2865644375
0.2998374688 0.3923312500 0.2844261875
0.3006918750 0.3901177500 0.2814895625
0.3022900937 0.3878632813 0.2780299375
0.3054287500 0.3860860625 0.2738280000
0.3105231875 0.3853248125 0.2695504375
0.3183735000 0.3862475625 0.2654315625
0.3297738125 0.3888188125 0.2616982813
0.3437021875 0.3949801875 0.2543903750
0.3610588125 0.4044406563 0.2413978125
0.3833390625 0.4153856250 0.2225903125
0.4192933438 0.4214931875 0.1982827500
0.4656203125 0.4208861250 0.1763963125
0.5085833125 0.4186453750 0.1646925312
0.5407683750 0.4193945000 0.1609802500
0.5656732813 0.4227385625 0.1610922500
0.5894128125 0.4263848750 0.1611072500
0.6143269063 0.4290974063 0.1603702500
0.6388260000 0.4312988125 0.1599700000
0.6618869062 0.4334860625 0.1600383437
0.6838648125 0.4356960625 0.1601670625
0.7048649062 0.4382215313 0.1603485625
0.7250648125 0.4406580625 0.1607477500
0.7445515312 0.4433505000 0.1610710312
0.7630570000 0.4466886875 0.1613930000
0.7806737500 0.4505629375 0.1616771250
0.7979608750 0.4549090625 0.1616323125
0.8147697812 0.4596548437 0.1613178125
0.8303781250 0.4649316250 0.1612132500
0.8440553125 0.4709104375 0.1616994375
0.8559213750 0.4772328125 0.1628146250
0.8652592188 0.4842648750 0.1648969063
0.8718600000 0.4918930625 0.1691102500
0.3304521563 0.4303702500 0.3189380938
0.3309336875 0.4279729063 0.3162718438
0.3316832813 0.4254207812 0.3130486250
0.3331970625 0.4228999063 0.3090759063
0.3357481250 0.4208624687 0.3047765000
0.3399634687 0.4198949375 0.3004320000
0.3467809063 0.4204665312 0.2964959687
0.3561476562 0.4223878750 0.2944046250
0.3680358437 0.4274958750 0.2901614062
0.3813499687 0.4356180000 0.2830690313
0.3983626875 0.4460783437 0.2696000937
0.4224581875 0.4573215938 0.2464098750
0.4604852188 0.4625752500 0.2184639063
0.5065710625 0.4610975000 0.1958009375
0.5467360625 0.4588281563 0.1841926875
0.5763573438 0.4596787813 0.1803816875
0.5998762187 0.4626212813 0.1799414375
0.6219167500 0.4660839062 0.1796277187
0.6453060000 0.4686588437 0.1785363437
0.6682476250 0.4707462188 0.1780590625
0.6898564062 0.4728088437 0.1785842500
0.7105993750 0.4749154688 0.1792410938
0.7308901563 0.4770019062 0.1797424687
0.7505534687 0.4792418125 0.1803284375
0.7696831875 0.4817653438 0.1809716875
0.7874092188 0.4848789687 0.1821067188
0.8050456875 0.4883093438 0.1824552187
0.8223978750 0.4919667188 0.1823177187
0.8385535625 0.4961188438 0.1821335938
0.8526623750 0.5009155937 0.1825870000
0.8631365937 0.5069722187 0.1834964062
0.8705913125 0.5138848125 0.1855264375
0.8767104062 0.5207470937 0.1889411563
0.3612310000 0.4652005000 0.3506795000
0.3616191875 0.4626014687 0.3476494688
0.3622417500 0.4598354375 0.3442284375
0.3632355000 0.4570808125 0.3404519688
0.3650710000 0.4547908750 0.3366838750
0.3683271250 0.4536286562 0.3327303437
0.3738823750 0.4539950625 0.3290163750
0.3820301875 0.4553788438 0.3276346250
0.3916445000 0.4593952500 0.3264457500
0.4035590937 0.4660638125 0.3220204063
0.4172798750 0.4750255000 0.3137971875
0.4352594687 0.4860307500 0.2964675313
0.4622212500 0.4972255000 0.2663481250
0.5031023750 0.5009514063 0.2344822813
0.5455538125 0.4992341875 0.2138589375
0.5818313125 0.4973820000 0.2032746875
0.6097045000 0.4978810000 0.1991780000
0.6318655625 0.5005766875 0.1983040313
0.6523740000 0.5037790625 0.1978734375
0.6732956875 0.5062648438 0.1983599062
0.6947332500 0.5082497500 0.1982765000
0.7156522500 0.5102258125 0.1983478437
0.7360312500 0.5121624375 0.1986410000
0.7560096562 0.5141158437 0.1989335000
0.7754760000 0.5161950000 0.1993697500
0.7937333750 0.5187475000 0.2003433437
0.8116920625 0.5212772500 0.2011716250
0.8291951562 0.5239628125 0.2014551875
0.8455392500 0.5270566250 0.2015441250
0.8592589375 0.5308892187 0.2018620625
0.8677551875 0.5369102500 0.2029290625
0.8742103750 0.5429807188 0.2052182188
0.8789975000 0.5494150000 0.2080085000
0.3909865937 0.4990014687 0.3819227187
0.3911222188 0.4962341563 0.3787428750
0.3914308750 0.4934128125 0.3752533750
0.3919927187 0.4906571875 0.3714860625
0.3932577500 0.4882997500 0.3677040625
0.3958705625 0.4869493750 0.3640253438
0.4003009375 0.4870002500 0.3608454063
0.4075094375 0.4879188125 0.3598993125
0.4165488125 0.4909649687 0.3592559375
0.4268945312 0.4962025000 0.3578493437
0.4392392187 0.5036260625 0.3524252812
0.4535921250 0.5130169687 0.3412466563
0.4733406875 0.5243451250 0.3178989375
0.5028261563 0.5345689687 0.2828408750
0.5415502500 0.5375691250 0.2520463750
0.5812703125 0.5355006562 0.2325972188
0.6154628750 0.5334860313 0.2219811562
0.6414170938 0.5339484062 0.2176806250
0.6621988750 0.5363307187 0.2165152500
0.6807053750 0.5393196250 0.2173568750
0.6999474688 0.5416637188 0.2183618750
0.7207890000 0.5435165000 0.2180280313
0.7411677812 0.5453917187 0.2176926875
0.7611921250 0.5472090000 0.2176655000
0.7806538438 0.5491602500 0.2178594062
0.7991653125 0.5513340312 0.2182102500
0.8173586250 0.5533995312 0.2187962187
0.8350282187 0.5552215625 0.2192685000
0.8508431563 0.5574922500 0.2198899062
0.8623280000 0.5613649687 0.2207547500
0.8700257500 0.5665151562 0.2219655625
0.8759818125 0.5716215000 0.2240389375
0.8793320000 0.5776051875 0.2268102188
0.4198923125 0.5313534375 0.4126522500
0.4198547188 0.5286619062 0.4093990312
0.4200580625 0.5257235625 0.4058007500
0.4205018750 0.5229062813 0.4020864063
0.4215053750 0.5204263750 0.3982018750
0.4236243750 0.5188470000 0.3945370000
0.4273273750 0.5186520625 0.3915155000
0.4336793438 0.5192782500 0.3906643125
0.4421514375 0.5213955000 0.3905688125
0.4518437813 0.5256327188 0.3900327500
0.4625651250 0.5317444375 0.3873498125
0.4752050000 0.5396497500 0.3797042812
0.4900165000 0.5493338750 0.3645419375
0.5096337813 0.5599619688 0.3397610313
0.5394115625 0.5694267500 0.3024496875
0.5772916250 0.5717375625 0.2708239062
0.6154278125 0.5692154375 0.2514776875
0.6471897500 0.5673597500 0.2407542500
