bundles/resolve-cinematic-luts/Gamut/Foris/Foris 04.cube
TITLE "Foris 04 by Gamut"
# Version 1.0 - 05/25/2022 - Designed for Rec.709 Color Space. Copyright 2022 Gamut, LLC
LUT_3D_SIZE 33
0.0063090000 0.0063090000 0.0055200000
0.0062596875 0.0063336250 0.0055446563
0.0345495625 0.0078860000 0.0047803125
0.0627405312 0.0078860000 0.0055200000
0.0884223750 0.0064075000 0.0063090000
0.1208281250 0.0040661250 0.0056432812
0.1553725625 0.0031540000 0.0069492500
0.1913178437 0.0025383750 0.0042879688
0.2249680000 0.0001972500 0.0033512500
0.2609206250 0.0005670937 0.0010106250
0.2923359375 0.0002465625 0.0034501875
0.3242575625 0.0000000000 0.0039430000
0.3547483750 0.0000000000 0.0031540000
0.3827288750 0.0000000000 0.0011091250
0.4102821250 0.0004438125 0.0000000000
0.4359411562 0.0023660000 0.0000000000
0.4587740000 0.0003945000 0.0000000000
0.4832866250 0.0015770000 0.0000000000
0.5116707500 0.0015770000 0.0000000000
0.5443677188 0.0036473125 0.0000000000
0.5717793750 0.0127158750 0.0000000000
0.5992213437 0.0152538750 0.0000000000
0.6255096875 0.0175952500 0.0000000000
0.6535020000 0.0206013438 0.0000000000
0.6797430000 0.0287830000 0.0000000000
0.7060330625 0.0390358750 0.0000000000
0.7328551250 0.0503370625 0.0000000000
0.7566506250 0.0646635625 0.0000000000
0.7773685000 0.0792670000 0.0000000000
0.7983535938 0.0872120313 0.0000000000
0.8188649375 0.0913984375 0.0000000000
0.8388750937 0.0929846562 0.0000000000
0.8581000000 0.0913190000 0.0000000000
0.0171518438 0.0186795625 0.0148105000
0.0240270625 0.0210209062 0.0132827813
0.0452414687 0.0203058750 0.0071709375
0.0678144063 0.0188767188 0.0025630938
0.0921363750 0.0121246250 0.0038690313
0.1235625938 0.0094382812 0.0033019063
0.1597556563 0.0094382500 0.0024399063
0.1945246563 0.0037455625 0.0010106563
0.2296675625 0.0015277187 0.0000492813
0.2625038438 0.0028830938 0.0005917500
0.2943823437 0.0017742813 0.0029077500
0.3263020625 0.0002465625 0.0023906250
0.3564356875 0.0000000000 0.0023906250
0.3852569375 0.0004684687 0.0003451563
0.4122042500 0.0024147813 0.0000000000
0.4380956563 0.0038937188 0.0000000000
0.4614990937 0.0019222187 0.0000000000
0.4867806250 0.0023413438 0.0000000000
0.5160669063 0.0022669375 0.0000000000
0.5476980312 0.0070479062 0.0000000000
0.5753328125 0.0150073437 0.0000000000
0.6026362188 0.0175705625 0.0000000000
0.6296075625 0.0193695312 0.0000000000
0.6581767188 0.0223513750 0.0000000000
0.6842821875 0.0312967188 0.0000000000
0.7115238750 0.0414723438 0.0000000000
0.7387068437 0.0535608125 0.0000000000
0.7622695625 0.0684465938 0.0000000000
0.7836305312 0.0824472500 0.0000000000
0.8048849688 0.0902036562 0.0000000000
0.8253049375 0.0942738750 0.0000000000
0.8455013750 0.0962123438 0.0000000000
0.8651008750 0.0945976250 0.0000000000
0.0356826250 0.0372605625 0.0295224375
0.0373344687 0.0388375312 0.0287088125
0.0502462500 0.0445930000 0.0240516875
0.0752346250 0.0439852813 0.0171272188
0.0996354375 0.0438147500 0.0095615625
0.1296327812 0.0409165937 0.0019712500
0.1661958750 0.0343521250 0.0001479375
0.2011800000 0.0295471250 0.0000493125
0.2334149375 0.0229183125 0.0000000000
0.2666401250 0.0160175937 0.0000000000
0.3017052500 0.0103005000 0.0000493125
0.3325053125 0.0105964375 0.0000493125
0.3634787500 0.0077872500 0.0000493125
0.3916633750 0.0099557813 0.0000493125
0.4182532500 0.0137011875 0.0000000000
0.4444877812 0.0106456875 0.0000000000
0.4701452500 0.0075898125 0.0000000000
0.4974778437 0.0060625625 0.0000000000
0.5260478750 0.0100540625 0.0000000000
0.5537254375 0.0207737187 0.0000000000
0.5820052500 0.0250863125 0.0000000000
0.6097909687 0.0251602187 0.0000000000
0.6368342500 0.0279943750 0.0000000000
0.6630326250 0.0345250937 0.0000000000
0.6903543125 0.0426008750 0.0000000000
0.7175365625 0.0531196250 0.0000000000
0.7434589375 0.0659816250 0.0000000000
0.7660229375 0.0811843437 0.0000000000
0.7865740625 0.0946785625 0.0000000000
0.8089659688 0.1005152188 0.0000000000
0.8297406875 0.1042491250 0.0000000000
0.8501662500 0.1056612500 0.0000000000
0.8708136250 0.1037984375 0.0000000000
0.0521585313 0.0547546250 0.0433541875
0.0541127500 0.0566030312 0.0433541875
0.0607472188 0.0623870000 0.0396255938
0.0755766562 0.0673089375 0.0341795000
0.1001562500 0.0678563437 0.0278960937
0.1319037813 0.0657756250 0.0187041875
0.1636032812 0.0634231875 0.0081077188
0.1965868125 0.0604714688 0.0011092813
0.2303662187 0.0563255937 0.0000000000
0.2653375625 0.0524990938 0.0000000000
0.3015700625 0.0471720625 0.0000000000
0.3347648750 0.0449672812 0.0000000000
0.3694141250 0.0393110937 0.0000000000
0.3986988125 0.0402723438 0.0000000000
0.4259509375 0.0430421875 0.0000000000
0.4540994688 0.0350667500 0.0000000000
0.4813502813 0.0317153437 0.0000000000
0.5083730312 0.0341796875 0.0000000000
0.5348471563 0.0419226875 0.0000000000
0.5619519687 0.0483933750 0.0000000000
0.5901766250 0.0477194688 0.0000000000
0.6170572500 0.0481880000 0.0000000000
0.6439001562 0.0512043750 0.0000000000
0.6707837812 0.0577456875 0.0000000000
0.6975577813 0.0658217500 0.0000000000
0.7220882813 0.0780912812 0.0000000000
0.7463123125 0.0908311563 0.0000000000
0.7677210625 0.1048107500 0.0000000000
0.7913404687 0.1129719687 0.0000000000
0.8132125937 0.1180212812 0.0000000000
0.8333746562 0.1218545938 0.0000000000
0.8540922500 0.1230866875 0.0000000000
0.8744487188 0.1217609063 0.0000000000
0.0704143750 0.0744161250 0.0565526250
0.0719350625 0.0753890625 0.0565526250
0.0759901250 0.0797321250 0.0552941875
0.0855305313 0.0871568125 0.0477325000
0.1021188750 0.0929677500 0.0426860000
0.1277426875 0.0941632500 0.0380235625
0.1639086875 0.0910685000 0.0302612500
0.1968597812 0.0895884375 0.0195415000
0.2295732500 0.0889265000 0.0089697500
0.2642767188 0.0884282813 0.0011831875
0.2996693750 0.0864700000 0.0006903750
0.3325078125 0.0863500000 0.0000000000
0.3673100000 0.0829263750 0.0000000000
0.3989858438 0.0812348125 0.0000000000
0.4280041250 0.0816783750 0.0000000000
0.4581789063 0.0776197812 0.0000000000
0.4868363750 0.0767181250 0.0000000000
0.5131585312 0.0816709688 0.0000000000
0.5391732500 0.0873600000 0.0000000000
0.5689888125 0.0854705000 0.0000000000
0.5981338750 0.0825596250 0.0000000000
0.6247960312 0.0835866563 0.0000000000
0.6504168125 0.0885233125 0.0000000000
0.6755552812 0.0960788125 0.0000000000
0.7003871250 0.1048860000 0.0000000000
0.7241999688 0.1150463438 0.0000000000
0.7474851250 0.1252375000 0.0000000000
0.7726193437 0.1322128438 0.0000000000
0.7960422500 0.1383281250 0.0000000000
0.8166248125 0.1435388438 0.0000000000
0.8367617500 0.1469258125 0.0000000000
0.8580525937 0.1477172812 0.0000000000
0.8782857500 0.1468756250 0.0000000000
0.0878167187 0.0939557188 0.0710072812
0.0891034687 0.0950990313 0.0709191563
0.0935794375 0.0997695625 0.0704271562
0.1012817187 0.1086776875 0.0651718750
0.1148165313 0.1164486875 0.0555927813
0.1328419688 0.1224684375 0.0504850000
0.1600017813 0.1240225312 0.0462736563
0.1969119062 0.1222021562 0.0417248750
0.2357210625 0.1202843125 0.0338346250
0.2689725000 0.1212339062 0.0244701875
0.3028579375 0.1223518125 0.0148597187
0.3361105000 0.1233668438 0.0065551562
0.3696984688 0.1229294688 0.0016755625
0.4003336875 0.1230717500 0.0006657187
0.4286133750 0.1249884687 0.0006657187
0.4565826250 0.1263010938 0.0006657187
0.4852675625 0.1269977187 0.0000000000
0.5135260312 0.1286894062 0.0000000000
0.5406835625 0.1316379688 0.0000000000
0.5690091250 0.1312221875 0.0000000000
0.5976359688 0.1301808750 0.0000000000
0.6244785938 0.1318332812 0.0000000000
0.6496853750 0.1369149688 0.0000000000
0.6730177188 0.1450755938 0.0000000000
0.6978424688 0.1516655000 0.0000000000
0.7249249688 0.1558281875 0.0000000000
0.7507871875 0.1609097500 0.0000000000
0.7758370938 0.1655945000 0.0000000000
0.7991030625 0.1703999063 0.0000000000
0.8201623750 0.1742988750 0.0000000000
0.8399978438 0.1773455000 0.0000000000
0.8608854375 0.1783804687 0.0000000000
0.8800437812 0.1789186563 0.0000000000
0.1052753750 0.1142351250 0.0863005625
0.1053383437 0.1142938750 0.0858664375
0.1102236250 0.1185640000 0.0862405625
0.1191055625 0.1286666250 0.0832046250
0.1334926250 0.1420202500 0.0711266250
0.1492507812 0.1495438750 0.0640309063
0.1692970625 0.1550179375 0.0589428750
0.1984400000 0.1573387812 0.0547737187
0.2356692500 0.1569656875 0.0519371875
0.2755605313 0.1551860625 0.0473242500
0.3123626250 0.1549116250 0.0405115625
0.3444386875 0.1566982812 0.0327507812
0.3761649375 0.1586883125 0.0248400625
0.4064610000 0.1610822188 0.0186298437
0.4353700625 0.1637777500 0.0134548125
0.4633659688 0.1664040000 0.0096598125
0.4912059375 0.1684085000 0.0060625000
0.5184292500 0.1706306563 0.0044108437
0.5450101250 0.1732177500 0.0036471250
0.5717486563 0.1754447188 0.0022425000
0.5987155625 0.1770840000 0.0009858125
0.6241549687 0.1805933750 0.0006410625
0.6500656875 0.1842901875 0.0003945000
0.6761655313 0.1885721250 0.0000000000
0.7027651250 0.1917966250 0.0000000000
0.7289063750 0.1946921562 0.0000000000
0.7538688750 0.1982706875 0.0000000000
0.7776192187 0.2024139063 0.0000000000
0.8006756250 0.2060661875 0.0000000000
0.8215055625 0.2095052187 0.0000000000
0.8410635000 0.2125240625 0.0000000000
0.8619480938 0.2135563750 0.0000000000
0.8813861250 0.2142313750 0.0000000000
0.1330752812 0.1443480625 0.1057128125
0.1338219688 0.1450369375 0.1057128125
0.1362211562 0.1474586562 0.1057128125
0.1411210938 0.1525609687 0.1045584063
0.1503180938 0.1635105000 0.0983874687
0.1658875312 0.1761133437 0.0842793125
0.1870117813 0.1859097188 0.0750647813
0.2076871563 0.1917986250 0.0702850625
0.2364953750 0.1953291562 0.0657055937
0.2728750313 0.1955857500 0.0623227187
0.3135425313 0.1939613750 0.0596868125
0.3533516250 0.1926199375 0.0560429375
0.3875811563 0.1929648438 0.0507643125
0.4183187812 0.1951520312 0.0450900000
0.4468240625 0.1983672187 0.0394126562
0.4737701250 0.2017109062 0.0338595000
0.5003852187 0.2046121250 0.0282164375
0.5268039688 0.2077837813 0.0231153437
0.5525493125 0.2115409688 0.0194188750
0.5786704062 0.2149285938 0.0162153125
0.6053993438 0.2176351875 0.0124941875
0.6315260625 0.2205311563 0.0103498438
0.6575139062 0.2237589375 0.0086248750
0.6831540312 0.2269822813 0.0066289688
0.7087335000 0.2299833125 0.0048793750
0.7337602500 0.2328599375 0.0030804688
0.7583518125 0.2358326562 0.0017005000
0.7817285938 0.2393135625 0.0006164062
0.8045527500 0.2422938125 0.0000000000
0.8240286875 0.2460183125 0.0000000000
0.8437885625 0.2486500312 0.0000000000
0.8642950000 0.2497130938 0.0000000000
0.8829592813 0.2508427188 0.0000000000
0.1499327500 0.1644115000 0.1239237500
0.1509062500 0.1652965000 0.1239237500
0.1555090000 0.1694925000 0.1247160000
0.1639157813 0.1780874063 0.1242241250
0.1747275000 0.1907880000 0.1184758750
0.1909262500 0.2059140937 0.1024973750
0.2079104375 0.2151463125 0.0906735625
0.2258815937 0.2229253125 0.0855267187
0.2488435000 0.2296825000 0.0803797500
0.2780953750 0.2333307500 0.0760600000
0.3127280625 0.2349297500 0.0731904375
0.3511322188 0.2347176563 0.0711132813
0.3907125000 0.2328280000 0.0688766250
0.4277717812 0.2319409375 0.0654656563
0.4577708750 0.2342063125 0.0632307500
0.4849070313 0.2373512812 0.0604011562
0.5108702500 0.2400860000 0.0567965000
0.5367013125 0.2431310938 0.0523599375
0.5621237500 0.2465886875 0.0480533750
0.5877009063 0.2499025938 0.0435476562
0.6139808750 0.2526033750 0.0380236250
0.6399048438 0.2554196875 0.0330954375
0.6653843125 0.2585752500 0.0280436250
0.6899584687 0.2619639062 0.0241501875
0.7150722500 0.2650345000 0.0193200000
0.7393416250 0.2681363750 0.0156479375
0.7634018125 0.2711942500 0.0121240625
0.7866303437 0.2743211250 0.0092163437
0.8091342500 0.2773850000 0.0065058750
0.8291075000 0.2810150313 0.0043864062
0.8494338750 0.2835640625 0.0017251875
0.8706344687 0.2843378437 0.0005917500
0.8895785000 0.2852402500 0.0005917500
0.1855597812 0.2025487500 0.1513851250
0.1860915000 0.2029745000 0.1513763125
0.1880681250 0.2049651563 0.1516488750
0.1921976875 0.2093471250 0.1513585937
0.1983408750 0.2159229375 0.1499680312
0.2085091875 0.2276241875 0.1430398125
0.2229394687 0.2414042500 0.1289869375
0.2455758125 0.2541620625 0.1108137187
0.2664234375 0.2633122500 0.1044723750
0.2890449688 0.2694806875 0.0983003750
0.3173832812 0.2739741562 0.0925964375
0.3504348125 0.2762328125 0.0881542812
0.3877323750 0.2758158750 0.0851472813
0.4256175000 0.2745501875 0.0835722500
0.4618523125 0.2731899375 0.0821950312
0.4938693750 0.2734958750 0.0808845937
0.5213115000 0.2751378750 0.0786195000
0.5478036563 0.2771456250 0.0754803438
0.5739000000 0.2795658750 0.0718085000
0.5997543125 0.2821781562 0.0669968125
0.6253519063 0.2847355313 0.0616045312
0.6502910312 0.2876520625 0.0561956875
0.6753792187 0.2905309375 0.0506368125
0.6995950938 0.2937935312 0.0452651875
0.7236745312 0.2968827187 0.0399692188
0.7471896250 0.3000236250 0.0351900313
0.7702896250 0.3030043438 0.0311485625
0.7932244063 0.3058595313 0.0275013750
0.8161808125 0.3083225312 0.0231644062
0.8367574375 0.3111653750 0.0199857188
0.8578687500 0.3131461250 0.0161166562
0.8799124688 0.3142256250 0.0113606875
0.9000777187 0.3153013125 0.0084768750
0.2038250625 0.2246183125 0.1732367500
0.2040165000 0.2247904375 0.1732367500
0.2047322500 0.2254330625 0.1734500625
0.2108473750 0.2313690625 0.1747902813
0.2200340625 0.2410790625 0.1752435000
0.2319668750 0.2547724687 0.1700676875
0.2470778750 0.2706492500 0.1561513750
0.2704104375 0.2862508437 0.1321868438
0.2875366875 0.2945097500 0.1239090000
0.3065201875 0.3018660938 0.1184393438
0.3299770625 0.3082589375 0.1117243125
0.3580603125 0.3127783750 0.1051186875
0.3901262500 0.3147016250 0.1001570000
0.4243134063 0.3152372187 0.0968268125
0.4592873750 0.3146563125 0.0948663750
0.4938018437 0.3133404687 0.0933012813
0.5263331875 0.3120453750 0.0917039375
0.5563791563 0.3118697188 0.0903067812
0.5836156250 0.3129641875 0.0884520000
0.6096498125 0.3146717187 0.0862649063
0.6351828125 0.3163896875 0.0833804375
0.6602234687 0.3184750625 0.0795100937
0.6847407500 0.3209511250 0.0753196875
0.7089157812 0.3236231875 0.0704078750
0.7326846875 0.3263372500 0.0655390000
0.7559945313 0.3291787812 0.0604791875
0.7788936875 0.3319715625 0.0555775625
0.8020510625 0.3345094375 0.0502064062
0.8252654375 0.3367680000 0.0445201875
0.8458421875 0.3392852812 0.0408990625
0.8665795625 0.3413759375 0.0360773750
0.8886337813 0.3425233750 0.0306066563
0.9087821875 0.3439371250 0.0259735625
0.2357146563 0.2600570625 0.2022591250
0.2362970000 0.2605773750 0.2024529688
0.2384748437 0.2628440312 0.2029499063
0.2432528125 0.2678502187 0.2038158125
0.2501547188 0.2753773750 0.2034420625
0.2591761875 0.2857321250 0.1995073750
0.2704354062 0.2983700625 0.1902611563
0.2840144375 0.3106839062 0.1749484688
0.3025468125 0.3222776250 0.1552275625
0.3224981250 0.3320794375 0.1448375937
0.3443627500 0.3406990000 0.1379919062
0.3677080938 0.3466773750 0.1310879062
0.3940377188 0.3505407812 0.1243365938
0.4233694062 0.3530364375 0.1185214687
0.4549706562 0.3540205312 0.1137842500
0.4877006562 0.3537240938 0.1104440000
0.5201311250 0.3525038125 0.1086989063
0.5529092813 0.3505675625 0.1079230000
0.5854151875 0.3482380938 0.1073302813
0.6146760625 0.3476077500 0.1064670625
0.6414574375 0.3481316562 0.1048098125
0.6672502500 0.3492656250 0.1024288750
0.6930273125 0.3506589688 0.0988319063
0.7184600313 0.3523343125 0.0943107500
0.7428775000 0.3544915625 0.0892851875
0.7666964375 0.3569282500 0.0841692187
0.7900047500 0.3594378750 0.0787745313
0.8129216875 0.3619740312 0.0732461875
0.8364554062 0.3639908438 0.0668795000
0.8569569375 0.3665460937 0.0621177812
0.8772822500 0.3687623125 0.0571874375
0.8988229688 0.3701173750 0.0510756562
0.9185629063 0.3718014375 0.0458777812
0.2657461250 0.2936431250 0.2335070000
0.2659894688 0.2938591875 0.2334708750
0.2672412500 0.2951813125 0.2338900625
0.2697592500 0.2979032188 0.2345900625
0.2734470000 0.3018707500 0.2350781250
0.2789228437 0.3079266250 0.2350660625
0.2893275625 0.3199353750 0.2308284375
0.3018792500 0.3338159375 0.2191240625
0.3182702500 0.3484023750 0.1991423750
0.3421942188 0.3616307500 0.1738289375
0.3626729375 0.3707841250 0.1651111250
0.3811092812 0.3772174687 0.1588248750
0.4026066250 0.3822362500 0.1515260000
0.4272992187 0.3860495938 0.1445603438
0.4551169375 0.3885451250 0.1379126875
0.4848713437 0.3898112500 0.1316372188
0.5158310000 0.3899845000 0.1265797500
0.5485802813 0.3886798438 0.1230089375
0.5819348750 0.3862835000 0.1209039375
0.6153743125 0.3833420625 0.1195948750
0.6469270000 0.3810267500 0.1184777500
0.6745721562 0.3808864687 0.1171471563
0.7014955000 0.3812193750 0.1149793125
0.7283595000 0.3818338125 0.1114957188
0.7538098750 0.3830693750 0.1078846250
0.7776092187 0.3849104688 0.1048082812
0.8015113125 0.3867349375 0.1004850625
0.8245730312 0.3888980625 0.0956745313
0.8478590000 0.3907392500 0.0901126250
0.8688180625 0.3930717188 0.0850532188
0.8893435000 0.3951785000 0.0796931875
0.9106558437 0.3967498125 0.0732613125
0.9299136250 0.3985805000 0.0677390000
0.2817665000 0.3130827187 0.2547909688
0.2817665000 0.3130827187 0.2547909688
0.2824262187 0.3136657500 0.2550172813
0.2843050000 0.3156261250 0.2559011875
0.2908896875 0.3226039687 0.2584349687
0.2996507500 0.3322314375 0.2595880625
0.3108450312 0.3451143438 0.2567488750
0.3241417500 0.3601559375 0.2452563750
0.3412804063 0.3762473438 0.2244954063
0.3647949062 0.3909290313 0.1956084687
0.3827263125 0.3994456875 0.1841326875
0.3984391875 0.4057374062 0.1787531250
0.4167348125 0.4114089687 0.1721676563
0.4379490313 0.4163686563 0.1648387500
0.4620892500 0.4202017188 0.1575011562
0.4884070625 0.4226804687 0.1504613125
0.5165994375 0.4243307813 0.1435607812
0.5468819375 0.4248936875 0.1370084375
0.5791189062 0.4239627812 0.1321762812
0.6124771875 0.4216655625 0.1287894375
0.6451600313 0.4191481875 0.1270185937
0.6774013750 0.4162348437 0.1258385938
0.7090380625 0.4137732500 0.1245390000
0.7368197813 0.4134929375 0.1228225000
0.7634720313 0.4137477500 0.1207759687
0.7879116875 0.4146005938 0.1197045625
0.8119565000 0.4155897500 0.1179680312
0.8358582500 0.4166490000 0.1152151250
0.8594103750 0.4177589375 0.1112561250
0.8807213750 0.4196164688 0.1074603125
0.9020501875 0.4211078437 0.1023994375
0.9238907500 0.4222755000 0.0961165625
0.9425774375 0.4242374375 0.0916033125
0.3062142500 0.3407387500 0.2802063125
0.3067997500 0.3412539375 0.2804650938
0.3085639375 0.3431330625 0.2814447500
0.3127303750 0.3476987188 0.2830047187
0.3191064375 0.3546868750 0.2846380625
0.3274242188 0.3642912500 0.2847032187
0.3379914375 0.3765901250 0.2802291250
0.3509277812 0.3908767500 0.2669502188
0.3671852500 0.4060121250 0.2461664375
0.3854436250 0.4178161875 0.2222003750
0.4012640000 0.4260799375 0.2064301250
0.4158224062 0.4327482500 0.1998546875
0.4315888125 0.4392533125 0.1942570625
0.4501566250 0.4450841562 0.1876193750
0.4713811250 0.4497064375 0.1800740000
0.4938701875 0.4534094062 0.1734506875
0.5189214375 0.4560675000 0.1663940000
0.5463902188 0.4577081875 0.1595083438
0.5766535000 0.4580480625 0.1524978750
0.6083660000 0.4572476250 0.1469802813
0.6405102500 0.4554660000 0.1432615000
0.6730593750 0.4528197812 0.1412020312
0.7064881875 0.4492717500 0.1400052500
0.7395034687 0.4457637187 0.1390939375
0.7684368750 0.4444235000 0.1383876250
0.7937567187 0.4446184375 0.1384835312
0.8187996875 0.4449595625 0.1375704375
0.8441880312 0.4451108437 0.1355652500
0.8692243750 0.4453399375 0.1324293125
0.8916479687 0.4465023750 0.1287850313
0.9140073750 0.4475176250 0.1242023125
0.9370532813 0.4481281563 0.1178714063
0.9560466875 0.4499429375 0.1133013125
0.3453918750 0.3835905625 0.3186345625
0.3457452188 0.3839016250 0.3188013750
0.3472522500 0.3856206250 0.3192380625
0.3501119062 0.3888915937 0.3198518750
0.3547413750 0.3942905937 0.3204608125
0.3608490000 0.4015323750 0.3194514375
0.3686580000 0.4105902188 0.3155651562
0.3781345938 0.4211739688 0.3058987813
0.3889840000 0.4320054688 0.2904251875
0.4001551562 0.4410917187 0.2735014062
0.4137313437 0.4496118438 0.2542653437
0.4296475625 0.4579078750 0.2365544375
0.4441607812 0.4649961563 0.2292736875
0.4601759687 0.4716532500 0.2222360000
0.4782251875 0.4770683125 0.2147191562
0.4976847500 0.4815126250 0.2079065312
0.5199117500 0.4850447813 0.2004418125
0.5447815312 0.4874563125 0.1929545313
0.5728893125 0.4887253437 0.1849439375
0.6027636875 0.4891360938 0.1772392812
0.6339806875 0.4886043438 0.1707488125
0.6664679062 0.4869110000 0.1656323125
0.7004207500 0.4839588750 0.1618580000
0.7352666563 0.4801001563 0.1591904688
0.7685655937 0.4764510000 0.1578810312
0.7969408438 0.4751448437 0.1577049375
0.8234031250 0.4749758125 0.1566516562
0.8504158125 0.4743586250 0.1549292500
0.8772141875 0.4736948750 0.1519510000
0.9008275625 0.4741871563 0.1489198125
0.9241862188 0.4745788438 0.1448486562
0.9481329375 0.4745622812 0.1390132500
0.9689238750 0.4758042813 0.1338296875
0.3776555000 0.4193565000 0.3517095000
0.3778365312 0.4195551250 0.3518082188
0.3789618125 0.4207825625 0.3521100000
0.3811062813 0.4232514063 0.3524054062
0.3842738750 0.4270507500 0.3524355000
0.3884689375 0.4321915625 0.3517029688
0.3941633750 0.4390465000 0.3497290000
0.4004978750 0.4464403750 0.3442400313
0.4080370000 0.4547665000 0.3345860000
0.4172337188 0.4637529375 0.3198061562
0.4287220000 0.4729900000 0.3013565000
0.4430777813 0.4821808750 0.2807557500
0.4589406250 0.4908277500 0.2634687500
0.4734491250 0.4978534375 0.2545836250
0.4881433125 0.5040012500 0.2467630000
0.5049349063 0.5088981875 0.2398936250
0.5246005000 0.5129390000 0.2322855000
0.5468509062 0.5161707813 0.2246364375
0.5720169375 0.5182754375 0.2165849375
0.5992923750 0.5195384687 0.2086549375
0.6285690000 0.5201482500 0.2006490000
0.6600583750 0.5195317500 0.1931313125
0.6936069375 0.5174885625 0.1867210000
0.7287922187 0.5141714375 0.1816739062
0.7633270000 0.5105310000 0.1784127500
0.7948642187 0.5079937188 0.1768455000
0.8266123750 0.5051278750 0.1749746875
0.8552730937 0.5038651875 0.1727761563
0.8833917500 0.5025883750 0.1698488750
0.9081100313 0.5026078125 0.1671621562
0.9331575625 0.5020522500 0.1633036250
0.9580933437 0.5014090937 0.1579249375
0.9796940000 0.5021885000 0.1530215000
0.4029745313 0.4477411250 0.3795074063
0.4031880000 0.4479578125 0.3795500625
0.4038966250 0.4489073125 0.3798166250
0.4053077812 0.4505835000 0.3800390625
0.4077617812 0.4534988750 0.3805390000
0.4110777500 0.4575364375 0.3801929687
0.4157013750 0.4633257500 0.3790962187
0.4210497500 0.4699017500 0.3761130625
0.4276171562 0.4777047188 0.3696767187
0.4356970313 0.4866864063 0.3583944688
0.4461347813 0.4964314687 0.3413935312
0.4593133125 0.5066164687 0.3203681562
0.4753819375 0.5161898125 0.2975116562
0.4887599062 0.5232865312 0.2856361875
0.5008950313 0.5296535937 0.2773734063
0.5153634688 0.5356660937 0.2684805000
0.5327491562 0.5404058750 0.2605096562
0.5527146563 0.5440884062 0.2528235938
0.5755720937 0.5467662500 0.2447583750
0.5999550938 0.5488473125 0.2371409687
0.6263715313 0.5502820000 0.2293953125
0.6563184375 0.5504272812 0.2208544063
0.6882994687 0.5494796562 0.2127486250
0.7223899688 0.5471770625 0.2056275000
0.7566570938 0.5443251562 0.2000851563
0.7888604688 0.5420483437 0.1964447188
0.8225758437 0.5385554688 0.1930555937
0.8568723125 0.5343532187 0.1900515937
0.8880451875 0.5316883125 0.1865830000
0.9134418438 0.5314262500 0.1840072500
0.9397767812 0.5301495313 0.1800333750
0.9662723750 0.5285835937 0.1750947187
0.9881130938 0.5291805000 0.1703576875
0.4239480625 0.4716965000 0.4032668125
0.4241833125 0.4719004375 0.4033507500
0.4250449375 0.4730330625 0.4036813750
0.4265631250 0.4748066875 0.4041486875
0.4291081875 0.4778678125 0.4046589375
0.4323408125 0.4819237500 0.4047325937
0.4366481250 0.4872248125 0.4040669375
0.4418898437 0.4939056562 0.4021491562
0.4480703125 0.5016132500 0.3975975000
0.4556360000 0.5105218125 0.3890294375
0.4650867500 0.5204380625 0.3744767500
0.4771143438 0.5308569375 0.3543010937
0.4916496250 0.5405728125 0.3311510625
0.5043569375 0.5477531562 0.3152155000
0.5155075000 0.5539722500 0.3066396875
0.5277415000 0.5606467187 0.2978197188
0.5431629375 0.5665910000 0.2881061875
0.5610943438 0.5715635313 0.2784614375
