bundles/resolve-cinematic-luts/Gamut/Foris/Foris 06.cube
TITLE "Foris 06 by Gamut"
# Version 1.0 - 05/25/2022 - Designed for Rec.709 Color Space. Copyright 2022 Gamut, LLC
LUT_3D_SIZE 5
0.0110400000 0.0078860000 0.0086740000
0.1769912500 0.0082802500 0.0031540000
0.3964245000 0.0074915000 0.0051255000
0.6012570000 0.0392285000 0.0039430000
0.7523460000 0.1082580000 0.0023660000
0.1360152500 0.1805795000 0.1104875000
0.2509615000 0.1872122500 0.0556662500
0.5063142500 0.2075795000 0.0315432500
0.7006910000 0.2533402500 0.0167572500
0.8193470000 0.3209067500 0.0272057500
0.3612310000 0.4652005000 0.3506795000
0.3916445000 0.4593952500 0.3264457500
0.6097045000 0.4978810000 0.1991780000
0.7754760000 0.5161950000 0.1993697500
0.8789975000 0.5494150000 0.2080085000
0.5754800000 0.6884440000 0.5756812500
0.5837422500 0.6779925000 0.5581055000
0.6460980000 0.7057822500 0.5421520000
0.8201430000 0.7261987500 0.3627930000
0.8813645000 0.7401357500 0.3602687500
0.6369600000 0.7656930000 0.6317510000
0.6556475000 0.7658640000 0.6318980000
0.7141505000 0.7957480000 0.6620330000
0.8012700000 0.8533190000 0.6280295000
0.8817130000 0.8668110000 0.5751820000
0.0070970000 0.0157710000 0.1376505000
0.1797280000 0.0039430000 0.1313675000
0.3984700000 0.0264170000 0.0960457500
0.6175655000 0.0649047500 0.1233155000
0.7584787500 0.1366230000 0.1759552500
0.0967445000 0.1804767500 0.1654255000
0.2440555000 0.2061610000 0.1800147500
0.4912745000 0.2427247500 0.1857387500
0.6756060000 0.2943500000 0.2050452500
0.7932512500 0.3609747500 0.2269140000
0.3471662500 0.4483537500 0.3794437500
0.3940842500 0.4632572500 0.3878952500
0.5855365000 0.5177145000 0.3161905000
0.7725457500 0.5363367500 0.3168315000
0.8771255000 0.5797892500 0.3177842500
0.5648435000 0.6814657500 0.5944580000
0.5780740000 0.6762797500 0.5834667500
0.6439420000 0.7059840000 0.5799337500
0.8003655000 0.7345730000 0.4747962500
0.8803567500 0.7500535000 0.4888865000
0.6309190000 0.7671302500 0.6475480000
0.6481520000 0.7666355000 0.6462662500
0.6985520000 0.7874142500 0.6669380000
0.7952142500 0.8507417500 0.6479727500
0.8813800000 0.8717035000 0.6262127500
0.0169545000 0.0228690000 0.3156985000
0.1686732500 0.0132087500 0.3293605000
0.4185415000 0.0216860000 0.3430340000
0.6451767500 0.0888927500 0.3755947500
0.7747735000 0.1867090000 0.4259365000
0.0714130000 0.2186965000 0.3524327500
0.2424830000 0.2369962500 0.4057370000
0.5109732500 0.2423055000 0.4473490000
0.6898610000 0.3147255000 0.4429815000
0.8017572500 0.3857857500 0.4781915000
0.2891945000 0.4667245000 0.4347460000
0.4014552500 0.5034252500 0.4766985000
0.5535525000 0.5507180000 0.5103430000
0.7276995000 0.5775547500 0.5172677500
0.8420390000 0.6157585000 0.5503920000
0.5345440000 0.6803625000 0.6221852500
0.5739695000 0.6916587500 0.6318085000
0.6606720000 0.7166347500 0.6647755000
0.7747320000 0.7523457500 0.6147285000
0.8822510000 0.7615632500 0.6194170000
0.6420670000 0.7801570000 0.7017375000
0.6536500000 0.7794030000 0.6970815000
0.6878630000 0.7884150000 0.7022025000
0.7782605000 0.8421387500 0.7255362500
0.8815070000 0.8752970000 0.6806940000
0.0518387500 0.0505022500 0.5209140000
0.1977452500 0.0350917500 0.5522130000
0.4251517500 0.0413147500 0.5705565000
0.6572480000 0.0729497500 0.6248315000
0.7959137500 0.1609575000 0.6434460000
0.1283097500 0.2569670000 0.5672515000
0.2745450000 0.2779717500 0.6072665000
0.5018837500 0.2856000000 0.6435180000
0.7029167500 0.3000547500 0.6756240000
0.8261605000 0.3761390000 0.6815487500
0.2512427500 0.5316380000 0.6085602500
0.3666130000 0.5589882500 0.6423227500
0.5455792500 0.5794042500 0.6761610000
0.7335080000 0.5754220000 0.7066795000
0.8486792500 0.6297612500 0.7101967500
0.4737402500 0.6997262500 0.6726777500
0.5589235000 0.7178400000 0.6933640000
0.6679790000 0.7414637500 0.7202097500
0.7513265000 0.7688305000 0.7438575000
0.8674915000 0.7846502500 0.7432495000
0.5918265000 0.8157267500 0.7522267500
0.6130377500 0.8154180000 0.7518157500
0.6732747500 0.8207070000 0.7606402500
0.7850447500 0.8521267500 0.7939027500
0.8775722500 0.8799915000 0.7674720000
0.1194220000 0.0954990000 0.6894020000
0.2536330000 0.0863855000 0.7140757500
0.4618695000 0.0996980000 0.7303905000
0.6629950000 0.1319480000 0.7671970000
0.7992390000 0.1494040000 0.7973620000
0.1755157500 0.3109345000 0.7295285000
0.3244570000 0.3294467500 0.7442507500
0.5213922500 0.3398865000 0.7764322500
0.7005992500 0.3496375000 0.7998147500
0.8223877500 0.3747217500 0.8236802500
0.2616055000 0.5662700000 0.7477430000
0.3863860000 0.5866165000 0.7708647500
0.5674685000 0.6071805000 0.7964190000
0.7264162500 0.6069495000 0.8290797500
0.8494045000 0.6206395000 0.8553520000
0.3905415000 0.7355097500 0.7776682500
0.4893255000 0.7520837500 0.7956410000
0.6325292500 0.7715127500 0.8182837500
0.7473672500 0.7858477500 0.8401510000
0.8661787500 0.7840605000 0.8620132500
0.5778240000 0.8455990000 0.8183020000
0.6305985000 0.8530475000 0.8267222500
0.6846495000 0.8644410000 0.8389515000
0.8016290000 0.8756567500 0.8537832500
0.8609190000 0.8828210000 0.8635950000
