bundles/resolve-cinematic-luts/Gamut/Foris/Foris 03.cube
TITLE "Foris 03 by Gamut"
# Version 1.0 - 05/25/2022 - Designed for Rec.709 Color Space. Copyright 2022 Gamut, LLC
LUT_3D_SIZE 5
0.0063090000 0.0063090000 0.0055200000
0.1601090000 0.0017742500 0.0076887500
0.3762210000 0.0000000000 0.0055200000
0.5766587500 0.0000000000 0.0000000000
0.7831270000 0.0000000000 0.0000000000
0.1117065000 0.1226290000 0.0934765000
0.2025155000 0.1741270000 0.0752615000
0.4411282500 0.1891132500 0.0325287500
0.6790860000 0.2034840000 0.0037455000
0.8892122500 0.2142702500 0.0000000000
0.3029225000 0.3395915000 0.2830075000
0.3732237500 0.4162695000 0.2723985000
0.5081715000 0.4707005000 0.2215645000
0.7616002500 0.4866487500 0.1530277500
0.9849950000 0.4950425000 0.1318490000
0.5007967500 0.5671047500 0.4957430000
0.5639470000 0.6365350000 0.5312460000
0.6424677500 0.7132807500 0.4546585000
0.7881292500 0.7607720000 0.4038435000
0.9997580000 0.7784542500 0.3016507500
0.6765250000 0.7664170000 0.6773310000
0.7387215000 0.8271167500 0.7206845000
0.7966160000 0.8937385000 0.6921610000
0.9052165000 0.9579072500 0.6046135000
1.0000000000 0.9768670000 0.5649090000
0.0025630000 0.0126170000 0.1057202500
0.1627405000 0.0005915000 0.1209040000
0.4044087500 0.0000000000 0.0920207500
0.6161430000 0.0000000000 0.0815637500
0.8184840000 0.0000000000 0.1000602500
0.0653530000 0.1557302500 0.1293270000
0.2179615000 0.1902267500 0.1575812500
0.4559335000 0.1926732500 0.1585045000
0.6891302500 0.1938035000 0.1692327500
0.8984465000 0.1989607500 0.1934020000
0.3016440000 0.3694642500 0.3119507500
0.3934255000 0.4291185000 0.3817710000
0.5090312500 0.4924982500 0.3272110000
0.7872880000 0.4961557500 0.2670337500
0.9786245000 0.5172300000 0.2380480000
0.5053630000 0.5945977500 0.5181620000
0.5882595000 0.6543702500 0.5880422500
0.6516542500 0.7244480000 0.5990605000
0.7887662500 0.7812612500 0.5066257500
1.0000000000 0.7866407500 0.4231825000
0.6803747500 0.7919300000 0.6984932500
0.7586390000 0.8443387500 0.7620542500
0.8162592500 0.9007225000 0.7965445000
0.8899972500 0.9615965000 0.7257902500
0.9996575000 0.9922600000 0.6565155000
0.0000000000 0.0102510000 0.2999095000
0.1404642500 0.0000000000 0.3225360000
0.3834535000 0.0000000000 0.3383665000
0.6335252500 0.0000000000 0.3407092500
0.8568675000 0.0000000000 0.3446100000
0.0183342500 0.1758362500 0.3209707500
0.1985707500 0.2038655000 0.3715935000
0.4636847500 0.1918472500 0.4220225000
0.7306650000 0.1980392500 0.4239495000
0.9335095000 0.2107872500 0.4370145000
0.1597935000 0.4299345000 0.3810635000
0.3420267500 0.4677952500 0.4239337500
0.5005580000 0.5121250000 0.4573925000
0.7671002500 0.5091542500 0.4541552500
0.9708895000 0.5160770000 0.4776540000
0.4506817500 0.6344807500 0.5470842500
0.5810180000 0.6845972500 0.6085460000
0.6738382500 0.7394695000 0.6776150000
0.7784940000 0.8006682500 0.6319437500
1.0000000000 0.7952495000 0.5637955000
0.6582860000 0.8191920000 0.7277875000
0.7556587500 0.8706377500 0.7797447500
0.8324360000 0.9156870000 0.8397590000
0.8837675000 0.9631562500 0.8526365000
0.9817075000 0.9998390000 0.7707850000
0.0000000000 0.0080830000 0.5073032500
0.1190550000 0.0116315000 0.5282322500
0.3633060000 0.0000000000 0.5468012500
0.6070745000 0.0000000000 0.5848217500
0.8449035000 0.0000000000 0.6111862500
0.0003945000 0.1855532500 0.5340472500
0.1940062500 0.2150197500 0.5850120000
0.4411305000 0.2129965000 0.6340967500
0.7028120000 0.2030520000 0.6818402500
0.9348315000 0.2057910000 0.7059132500
0.0559767500 0.4658337500 0.5714452500
0.2692977500 0.4967932500 0.6202735000
0.4807040000 0.5253307500 0.6685587500
0.7495330000 0.5121530000 0.7301215000
0.9776207500 0.5132630000 0.7425665000
0.2795012500 0.6994957500 0.6392892500
0.4536080000 0.7379222500 0.6818100000
0.6186850000 0.7758880000 0.7235357500
0.7659025000 0.8172292500 0.7589202500
0.9929510000 0.8200657500 0.7468725000
0.5329750000 0.8765815000 0.7647157500
0.6989677500 0.9039505000 0.8167232500
0.8206357500 0.9388600000 0.8584912500
0.8889610000 0.9768515000 0.9029850000
0.9537490000 1.0000000000 0.8943595000
0.0000000000 0.0134060000 0.7104070000
0.0984957500 0.0181370000 0.7289997500
0.3458890000 0.0000000000 0.7487445000
0.5912752500 0.0000000000 0.7814205000
0.8269810000 0.0000000000 0.8228300000
0.0000000000 0.1964615000 0.7368925000
0.1875292500 0.2266000000 0.7829855000
0.4281957500 0.2190935000 0.8289397500
0.6839332500 0.2269647500 0.8631527500
0.9053080000 0.2170777500 0.9029547500
0.0216855000 0.4818990000 0.7656345000
0.2584805000 0.5084542500 0.8092502500
0.4810980000 0.5353895000 0.8483185000
0.7251925000 0.5303460000 0.9028525000
0.9371675000 0.5300080000 0.9474425000
0.1605405000 0.7370757500 0.7979297500
0.3646437500 0.7710222500 0.8369500000
0.5485925000 0.8037402500 0.8762215000
0.7541572500 0.8283407500 0.9086275000
0.9509295000 0.8296977500 0.9515890000
0.3883920000 0.9270080000 0.8601660000
0.5606860000 0.9546907500 0.8903787500
0.7201380000 0.9761060000 0.9151310000
0.8608207500 0.9937090000 0.9418667500
0.9476460000 1.0000000000 0.9581710000
