bundles/resolve-cinematic-luts/Gamut/Foris/Foris 01.cube
TITLE "Foris 01 by Gamut"
# Version 1.0 - 05/25/2022 - Designed for Rec.709 Color Space. Copyright 2022 Gamut, LLC
LUT_3D_SIZE 5
0.0063090000 0.0063090000 0.0063090000
0.1524702500 0.0057172500 0.0027602500
0.3630845000 0.0007890000 0.0000000000
0.5672362500 0.0007890000 0.0000000000
0.7716870000 0.0031540000 0.0000000000
0.1137280000 0.1207497500 0.1012212500
0.1943790000 0.1762082500 0.0789415000
0.4365135000 0.1962497500 0.0442325000
0.6719517500 0.2243835000 0.0153772500
0.8788140000 0.2544917500 0.0108432500
0.3120115000 0.3344440000 0.2994045000
0.3762625000 0.4097015000 0.3047952500
0.4971690000 0.4715560000 0.2379930000
0.7512762500 0.4934502500 0.1777650000
0.9741565000 0.5105035000 0.1701195000
0.5211612500 0.5573470000 0.5209860000
0.5816317500 0.6265862500 0.5615315000
0.6455960000 0.7035237500 0.5021295000
0.7724112500 0.7595497500 0.4377812500
0.9960857500 0.7837047500 0.3351737500
0.7059740000 0.7526190000 0.7111630000
0.7662722500 0.8135892500 0.7572705000
0.8136510000 0.8802500000 0.7426220000
0.9000655000 0.9359532500 0.6524525000
0.9982810000 0.9586250000 0.5833870000
0.0063090000 0.0110400000 0.1108032500
0.1607875000 0.0043372500 0.1253550000
0.4003897500 0.0000000000 0.0919042500
0.6105255000 0.0007890000 0.0774835000
0.8109162500 0.0039430000 0.0951530000
0.0724702500 0.1545132500 0.1348337500
0.2141307500 0.1899805000 0.1697557500
0.4428435000 0.2128725000 0.1745222500
0.6736005000 0.2380680000 0.1944220000
0.8801645000 0.2680607500 0.2262372500
0.3185482500 0.3621617500 0.3293602500
0.4070747500 0.4223920000 0.3998182500
0.5006930000 0.4894502500 0.3581710000
0.7726430000 0.5063147500 0.2952557500
0.9634407500 0.5349340000 0.2728330000
0.5319102500 0.5828267500 0.5456272500
0.6132225000 0.6427942500 0.6161850000
0.6696092500 0.7134692500 0.6348895000
0.7784707500 0.7752900000 0.5548977500
0.9992015000 0.7917852500 0.4630210000
0.7164907500 0.7759835000 0.7348040000
0.7919082500 0.8291030000 0.7984052500
0.8461062500 0.8861790000 0.8351480000
0.9016367500 0.9452850000 0.7705145000
0.9948175000 0.9724952500 0.6994400000
0.0003945000 0.0067030000 0.3144530000
0.1465270000 0.0013802500 0.3357162500
0.3804085000 0.0000000000 0.3478585000
0.6294250000 0.0000000000 0.3523165000
0.8504025000 0.0007890000 0.3536425000
0.0279945000 0.1736205000 0.3361412500
0.2102765000 0.1993492500 0.3880360000
0.4568637500 0.2158587500 0.4248642500
0.7197485000 0.2329647500 0.4333010000
0.9199635000 0.2646650000 0.4464627500
0.1891590000 0.4260920000 0.3963420000
0.3630222500 0.4626557500 0.4379792500
0.5093590000 0.5054235000 0.4818975000
0.7383652500 0.5286422500 0.4835090000
0.9309405000 0.5587875000 0.5120510000
0.4758452500 0.6289767500 0.5637885000
0.6132497500 0.6713070000 0.6382745000
0.7031075000 0.7261975000 0.7086480000
0.7818215000 0.7913912500 0.6749962500
0.9987380000 0.8039412500 0.6094097500
0.6874050000 0.8115170000 0.7497845000
0.7969957500 0.8523245000 0.8195032500
0.8695735000 0.8988560000 0.8783890000
0.9136722500 0.9482850000 0.8935817500
0.9869140000 0.9860810000 0.8132900000
0.0000000000 0.0007890000 0.5316475000
0.1394070000 0.0007890000 0.5533505000
0.3664807500 0.0000000000 0.5665660000
0.6034305000 0.0000000000 0.6010002500
0.8385197500 0.0015770000 0.6306502500
0.0208975000 0.1810227500 0.5595792500
0.2142102500 0.2069405000 0.6126215000
0.4493680000 0.2282812500 0.6495945000
0.6975752500 0.2457502500 0.6920500000
0.9235057500 0.2611765000 0.7217200000
0.1096280000 0.4614495000 0.5966507500
0.3007662500 0.4910032500 0.6462482500
0.5050340000 0.5164917500 0.6955912500
0.7454287500 0.5327090000 0.7316710000
0.9544770000 0.5520320000 0.7501507500
0.3314687500 0.6927957500 0.6644755000
0.4955960000 0.7295885000 0.7065657500
0.6532737500 0.7666820000 0.7465490000
0.7948217500 0.8044087500 0.7900587500
0.9699572500 0.8275917500 0.7927752500
0.5772865000 0.8679022500 0.7918537500
0.7361142500 0.8947580000 0.8418080000
0.8618537500 0.9219900000 0.8964107500
0.9308082500 0.9580982500 0.9445037500
0.9797052500 0.9977967500 0.9236272500
0.0000000000 0.0007890000 0.7448050000
0.1348910000 0.0007890000 0.7639070000
0.3640940000 0.0000000000 0.7753370000
0.5932582500 0.0015770000 0.8077870000
0.8227260000 0.0063090000 0.8451970000
0.0193197500 0.1883287500 0.7721582500
0.2191322500 0.2150592500 0.8201495000
0.4527677500 0.2380637500 0.8527470000
0.6876237500 0.2593172500 0.8849990000
0.9005400000 0.2774082500 0.9194480000
0.0891200000 0.4764735000 0.8006255000
0.2956215000 0.5013222500 0.8453957500
0.5099355000 0.5246710000 0.8854230000
0.7384150000 0.5449197500 0.9134072500
0.9346630000 0.5645090000 0.9475155000
0.2438845000 0.7301817500 0.8313007500
0.4206977500 0.7627080000 0.8704612500
0.5950830000 0.7933105000 0.9094640000
0.7916875000 0.8147717500 0.9430777500
0.9640667500 0.8298885000 0.9702295000
0.4581230000 0.9177820000 0.8938040000
0.6189520000 0.9436800000 0.9234167500
0.7706685000 0.9635315000 0.9466795000
0.8993850000 0.9825940000 0.9699357500
0.9894350000 1.0000000000 0.9978240000
