bundles/resolve-cinematic-luts/Gamut/Foris/Foris 02.cube
TITLE "Foris 02 by Gamut"
# Version 1.0 - 05/25/2022 - Designed for Rec.709 Color Space. Copyright 2022 Gamut, LLC
LUT_3D_SIZE 5
0.0047310000 0.0023660000 0.0023660000
0.1808420000 0.0000000000 0.0076887500
0.3972845000 0.0000000000 0.0019715000
0.6006370000 0.0000000000 0.0000000000
0.8150080000 0.0000000000 0.0000000000
0.0654457500 0.1318575000 0.0532740000
0.1977187500 0.1732127500 0.0274032500
0.4533152500 0.1813355000 0.0059145000
0.7025815000 0.1887820000 0.0005917500
0.9274812500 0.1907492500 0.0000000000
0.2240780000 0.3610285000 0.2091905000
0.3414932500 0.4226305000 0.2032142500
0.5131345000 0.4691315000 0.1341395000
0.7779002500 0.4793642500 0.1036392500
0.9984155000 0.4835160000 0.0873130000
0.3937320000 0.6012692500 0.3867502500
0.5077640000 0.6588062500 0.4097705000
0.6247552500 0.7212100000 0.3481760000
0.8058850000 0.7609437500 0.2722170000
0.9999460000 0.7729025000 0.2192497500
0.5414130000 0.8180570000 0.5349850000
0.6542625000 0.8682585000 0.5619765000
0.7548090000 0.9218105000 0.5365800000
0.8889960000 0.9641160000 0.4284367500
1.0000000000 0.9751490000 0.3723680000
0.0000000000 0.0047310000 0.1416400000
0.1800235000 0.0000000000 0.1447662500
0.4227885000 0.0000000000 0.1066422500
0.6410855000 0.0000000000 0.0967892500
0.8521265000 0.0000000000 0.1154172500
0.0238545000 0.1591407500 0.1398400000
0.2144100000 0.1841845000 0.1586185000
0.4676555000 0.1777792500 0.1634365000
0.7060665000 0.1770182500 0.1787360000
0.9260917500 0.1748842500 0.2025155000
0.2244255000 0.3820592500 0.2986720000
0.3538395000 0.4365980000 0.3411000000
0.5172017500 0.4859760000 0.2838787500
0.8028225000 0.4850612500 0.2529832500
0.9984355000 0.4992520000 0.2295372500
0.3939530000 0.6212920000 0.4713025000
0.5194410000 0.6752727500 0.5128352500
0.6365537500 0.7330797500 0.5100420000
0.8073480000 0.7774227500 0.4196227500
1.0000000000 0.7777192500 0.3789415000
0.5308335000 0.8398302500 0.6111895000
0.6605025000 0.8838697500 0.6515045000
0.7706485000 0.9290277500 0.6669545000
0.8821775000 0.9734060000 0.5854460000
1.0000000000 0.9869210000 0.5156390000
0.0000000000 0.0007890000 0.3478700000
0.1527052500 0.0000000000 0.3611470000
0.4042155000 0.0000000000 0.3648610000
0.6618490000 0.0000000000 0.3603227500
0.8945815000 0.0000000000 0.3597675000
0.0000000000 0.1740772500 0.3518685000
0.1911597500 0.1962352500 0.3969232500
0.4737965000 0.1787697500 0.4387440000
0.7481820000 0.1816215000 0.4335777500
0.9624860000 0.1898747500 0.4440442500
0.0952490000 0.4355015000 0.4022780000
0.3045932500 0.4681340000 0.4391057500
0.5033430000 0.5034610000 0.4595560000
0.7888227500 0.4925407500 0.4642445000
0.9960585000 0.4930015000 0.4897875000
0.3419260000 0.6581902500 0.5414260000
0.5164765000 0.6938002500 0.6023175000
0.6420385000 0.7468047500 0.6400322500
0.8016332500 0.7935847500 0.5797840000
1.0000000000 0.7814835000 0.5484417500
0.5166010000 0.8620125000 0.6904475000
0.6554525000 0.9002997500 0.7365607500
0.7691060000 0.9416985000 0.7640980000
0.8731677500 0.9764372500 0.7611520000
0.9997850000 0.9994765000 0.6525035000
0.0000000000 0.0000000000 0.5609997500
0.1246765000 0.0000000000 0.5728360000
0.3827895000 0.0000000000 0.5845335000
0.6377865000 0.0000000000 0.6123320000
0.8855362500 0.0000000000 0.6287447500
0.0000000000 0.1822240000 0.5744490000
0.1857592500 0.2065722500 0.6190582500
0.4493547500 0.1976417500 0.6623337500
0.7238850000 0.1825762500 0.6992445000
0.9692855000 0.1833415000 0.7138850000
0.0139975000 0.4642227500 0.6090212500
0.2489257500 0.4909977500 0.6526360000
0.4822852500 0.5138662500 0.6973632500
0.7730035000 0.4930932500 0.7517430000
0.9999730000 0.4907315000 0.7546792500
0.1913762500 0.7110062500 0.6688257500
0.3973837500 0.7441395000 0.7043417500
0.5886975000 0.7767482500 0.7391345000
0.7762680000 0.8084117500 0.7609842500
1.0000000000 0.7995642500 0.7539735000
0.4071127500 0.9098757500 0.7695805000
0.5979530000 0.9329877500 0.8102555000
0.7611065000 0.9527187500 0.8518572500
0.8625635000 0.9877317500 0.8645825000
0.9848910000 0.9999460000 0.8226195000
0.0000000000 0.0000000000 0.7680520000
0.1037487500 0.0000000000 0.7793290000
0.3626390000 0.0000000000 0.7956050000
0.6216105000 0.0000000000 0.8204482500
0.8683650000 0.0000000000 0.8512000000
0.0000000000 0.1917042500 0.7861652500
0.1777975000 0.2174472500 0.8265300000
0.4327537500 0.2022775000 0.8681110000
0.7047812500 0.2049777500 0.8957140000
0.9431002500 0.1880027500 0.9267775000
0.0000000000 0.4774845000 0.8156390000
0.2403600000 0.5008587500 0.8552347500
0.4821605000 0.5237405000 0.8910095000
0.7460390000 0.5117077500 0.9412975000
0.9809925000 0.5052380000 0.9770180000
0.0870705000 0.7414935000 0.8469860000
0.3274242500 0.7708495000 0.8810535000
0.5357805000 0.7983367500 0.9148285000
0.7628422500 0.8177660000 0.9431437500
0.9900470000 0.8092940000 0.9838157500
0.2730750000 0.9514960000 0.8975290000
0.4784207500 0.9741775000 0.9210572500
0.6626250000 0.9897210000 0.9378110000
0.8263892500 1.0000000000 0.9535205000
0.9650940000 1.0000000000 0.9600140000
