bundles/resolve-cinematic-luts/Gamut/Foris/Foris 02.cube
TITLE "Foris 02 by Gamut"
# Version 1.0 - 05/25/2022 - Designed for Rec.709 Color Space. Copyright 2022 Gamut, LLC
LUT_3D_SIZE 33
0.0047310000 0.0023660000 0.0023660000
0.0241256250 0.0016016562 0.0023660000
0.0433246875 0.0007890000 0.0038936875
0.0635019375 0.0007890000 0.0046571250
0.0821948750 0.0007890000 0.0055200000
0.1028055937 0.0007890000 0.0055200000
0.1267384375 0.0007890000 0.0055200000
0.1526256562 0.0007890000 0.0061364063
0.1808420000 0.0000000000 0.0076887500
0.2074723438 0.0000000000 0.0086740000
0.2363591250 0.0000000000 0.0094630000
0.2653544062 0.0000000000 0.0094630000
0.2936922500 0.0000000000 0.0094630000
0.3213228437 0.0000000000 0.0089945312
0.3482503750 0.0000000000 0.0069989375
0.3735407813 0.0000000000 0.0046822187
0.3972845000 0.0000000000 0.0019715000
0.4205018750 0.0000000000 0.0004191562
0.4440413750 0.0000000000 0.0000000000
0.4685705937 0.0000000000 0.0000000000
0.4939386250 0.0000000000 0.0000000000
0.5196835625 0.0000000000 0.0000000000
0.5462531250 0.0000000000 0.0000000000
0.5732057812 0.0000000000 0.0000000000
0.6006370000 0.0000000000 0.0000000000
0.6283172812 0.0000000000 0.0000000000
0.6557678125 0.0000000000 0.0000000000
0.6832214063 0.0000000000 0.0000000000
0.7106291250 0.0000000000 0.0000000000
0.7376396563 0.0000000000 0.0000000000
0.7642993125 0.0000000000 0.0000000000
0.7899829063 0.0000000000 0.0000000000
0.8150080000 0.0000000000 0.0000000000
0.0078367188 0.0178905625 0.0046817187
0.0217842812 0.0186302812 0.0016016562
0.0446915938 0.0171025313 0.0000492813
0.0624697187 0.0162889375 0.0000492813
0.0837615938 0.0148104375 0.0000739375
0.1046193437 0.0126170000 0.0000739375
0.1284680000 0.0103497188 0.0000739375
0.1554317500 0.0058896875 0.0000739375
0.1836344688 0.0024890937 0.0001232188
0.2135473750 0.0015277188 0.0001232188
0.2448416250 0.0009859687 0.0001478437
0.2765053750 0.0007643438 0.0001478437
0.3056833750 0.0000000000 0.0001478437
0.3332858438 0.0000000000 0.0001478437
0.3602843437 0.0000000000 0.0001232188
0.3844752500 0.0000000000 0.0000739375
0.4073219687 0.0000000000 0.0000492813
0.4313991563 0.0000000000 0.0000000000
0.4563176562 0.0000000000 0.0000000000
0.4818777813 0.0000000000 0.0000000000
0.5080968125 0.0000000000 0.0000000000
0.5350888125 0.0000000000 0.0000000000
0.5623346563 0.0000000000 0.0000000000
0.5903185625 0.0000000000 0.0000000000
0.6183885313 0.0000000000 0.0000000000
0.6465640000 0.0000000000 0.0000000000
0.6746833437 0.0000000000 0.0000000000
0.7025639687 0.0000000000 0.0000000000
0.7301630000 0.0000000000 0.0000000000
0.7573305625 0.0000000000 0.0000000000
0.7839163437 0.0000000000 0.0000000000
0.8094603750 0.0000000000 0.0000000000
0.8345130937 0.0000000000 0.0000000000
0.0132088125 0.0310994375 0.0093151250
0.0241256250 0.0326764375 0.0054460625
0.0396748750 0.0334161250 0.0023166875
0.0607090313 0.0319130000 0.0000246562
0.0812228750 0.0303597500 0.0000000000
0.1025637500 0.0295470000 0.0000000000
0.1261487500 0.0265655000 0.0000000000
0.1547875625 0.0234105312 0.0000000000
0.1847633750 0.0181370625 0.0000000000
0.2149541250 0.0141447188 0.0000000000
0.2440268125 0.0098080625 0.0000000000
0.2736333437 0.0052486250 0.0000000000
0.3028206250 0.0024643750 0.0000000000
0.3316863438 0.0022181250 0.0000000000
0.3595109375 0.0022181250 0.0000000000
0.3864839375 0.0017989688 0.0000000000
0.4125890625 0.0014784375 0.0000000000
0.4393272188 0.0007396875 0.0000000000
0.4663090625 0.0003945000 0.0000000000
0.4937561875 0.0007396875 0.0000000000
0.5218475000 0.0007396875 0.0000000000
0.5499544687 0.0007396875 0.0000000000
0.5784513125 0.0007396875 0.0000000000
0.6069704375 0.0000000000 0.0000000000
0.6357196875 0.0000000000 0.0000000000
0.6644729688 0.0000000000 0.0000000000
0.6930435625 0.0000000000 0.0000000000
0.7212961562 0.0000000000 0.0000000000
0.7492455625 0.0000000000 0.0000000000
0.7763897500 0.0000000000 0.0000000000
0.8026731250 0.0000000000 0.0000000000
0.8283784687 0.0000000000 0.0000000000
0.8534550000 0.0000000000 0.0000000000
0.0186302188 0.0440924375 0.0131841875
0.0295224062 0.0462415938 0.0108674687
0.0411708750 0.0482597500 0.0055200312
0.0566464375 0.0476096250 0.0037951562
0.0765563438 0.0469476250 0.0001232500
0.1014613750 0.0454445938 0.0000000000
0.1246105625 0.0440864375 0.0000000000
0.1514183125 0.0425534687 0.0000000000
0.1802271562 0.0396447500 0.0000000000
0.2111655312 0.0363976563 0.0000000000
0.2426483750 0.0318882187 0.0000000000
0.2749001563 0.0272304688 0.0000000000
0.3062339375 0.0230655313 0.0000000000
0.3363100937 0.0195662187 0.0000000000
0.3652607187 0.0163627812 0.0000000000
0.3934355625 0.0133320313 0.0000000000
0.4218491250 0.0096600312 0.0000000000
0.4499537812 0.0069986562 0.0000000000
0.4785485312 0.0055201875 0.0000000000
0.5071950312 0.0051503437 0.0000000000
0.5359786875 0.0051503437 0.0000000000
0.5650405938 0.0048791250 0.0000000000
0.5944972813 0.0041890625 0.0000000000
0.6238075000 0.0034254063 0.0000000000
0.6530447188 0.0027352812 0.0000000000
0.6821816875 0.0021441875 0.0000000000
0.7110638125 0.0021441875 0.0000000000
0.7396559063 0.0021441875 0.0000000000
0.7675421250 0.0022181563 0.0000000000
0.7947045937 0.0022181562 0.0000000000
0.8208660625 0.0022181562 0.0000000000
0.8464642813 0.0022181562 0.0000000000
0.8714378125 0.0022181563 0.0000000000
0.0248397500 0.0577900000 0.0177427500
0.0356826250 0.0600896250 0.0162889062
0.0461465625 0.0628652500 0.0123213125
0.0599773125 0.0650485937 0.0070477188
0.0759237500 0.0656681250 0.0060132500
0.0971252500 0.0655311562 0.0016509375
0.1236720000 0.0633929375 0.0000493125
0.1513476250 0.0617691562 0.0000000000
0.1790382500 0.0604713750 0.0000000000
0.2092747500 0.0592071250 0.0000000000
0.2406559375 0.0574168750 0.0000000000
0.2725480000 0.0548514063 0.0000000000
0.3048011250 0.0517883750 0.0000000000
0.3372768125 0.0489650625 0.0000000000
0.3690377500 0.0455101250 0.0000000000
0.4002751250 0.0432889062 0.0000000000
0.4307812500 0.0396933750 0.0000000000
0.4606258125 0.0365211562 0.0000000000
0.4899097500 0.0334155625 0.0000000000
0.5194071875 0.0305079687 0.0000000000
0.5493611250 0.0276002500 0.0000000000
0.5794645312 0.0243229375 0.0000000000
0.6093541875 0.0209961875 0.0000000000
0.6392196875 0.0179890937 0.0000000000
0.6689696250 0.0151798750 0.0000000000
0.6982987187 0.0131097500 0.0000000000
0.7274905000 0.0131097500 0.0000000000
0.7563508437 0.0131097500 0.0000000000
0.7842191250 0.0132083750 0.0000000000
0.8114128438 0.0132083750 0.0000000000
0.8375373125 0.0132083750 0.0000000000
0.8629457187 0.0132330313 0.0000000000
0.8878705000 0.0139972500 0.0000000000
0.0317159063 0.0729148750 0.0238299063
0.0431913438 0.0758024062 0.0230655625
0.0545100625 0.0786368125 0.0207744687
0.0656136250 0.0822318750 0.0153274687
0.0808929375 0.0844620937 0.0107443125
0.0990901562 0.0861027187 0.0090933125
0.1215607500 0.0868435313 0.0059885938
0.1505952813 0.0860024375 0.0030061563
0.1827243125 0.0846717812 0.0007395938
0.2124015625 0.0845089063 0.0000986250
0.2424324063 0.0844289062 0.0000000000
0.2738465625 0.0839735000 0.0000000000
0.3060767812 0.0828990312 0.0000000000
0.3383395938 0.0814251563 0.0000000000
0.3702695625 0.0796643437 0.0000000000
0.4017604688 0.0781510000 0.0000000000
0.4328679063 0.0762058125 0.0000000000
0.4640065312 0.0737071875 0.0000000000
0.4955916875 0.0713418750 0.0000000000
0.5275130937 0.0687161875 0.0000000000
0.5593746875 0.0656624688 0.0000000000
0.5909217813 0.0622704062 0.0000000000
0.6212049688 0.0594599688 0.0000000000
0.6516827187 0.0562119375 0.0000000000
0.6819717187 0.0535410937 0.0000000000
0.7119859062 0.0507224062 0.0000000000
0.7414371562 0.0488475625 0.0000000000
0.7703634688 0.0470572187 0.0000000000
0.7984890937 0.0458036250 0.0000000000
0.8257135313 0.0445949062 0.0000000000
0.8519167813 0.0445949062 0.0000000000
0.8772314375 0.0445949062 0.0000000000
0.9017020313 0.0445949062 0.0000000000
0.0408785000 0.0900830000 0.0308036875
0.0525739687 0.0929215312 0.0308036875
0.0637585000 0.0968260000 0.0298176250
0.0759526875 0.1016845625 0.0259987187
0.0898055000 0.1062125625 0.0197637500
0.1072654375 0.1093595625 0.0160917500
0.1273520000 0.1117638125 0.0143916250
0.1522708437 0.1133627188 0.0112867187
0.1827975625 0.1133114375 0.0088222500
0.2165251563 0.1123592188 0.0054461250
0.2489304375 0.1119420000 0.0016263750
0.2799049063 0.1125532812 0.0007641875
0.3108774375 0.1131010625 0.0006410625
0.3422606250 0.1133707500 0.0000000000
0.3735336250 0.1132970625 0.0000000000
0.4047278438 0.1131489375 0.0000000000
0.4355315000 0.1126460000 0.0000000000
0.4665175625 0.1122585312 0.0000000000
0.4981995000 0.1114810625 0.0000000000
0.5302968750 0.1101955313 0.0000000000
0.5626145000 0.1086046250 0.0000000000
0.5950917500 0.1065745625 0.0000000000
0.6274244375 0.1046441250 0.0000000000
0.6596321563 0.1023780313 0.0000000000
0.6915980625 0.1001523125 0.0000000000
0.7227304375 0.0979651875 0.0000000000
0.7526156250 0.0962705000 0.0000000000
0.7818669375 0.0946423437 0.0000000000
0.8104944375 0.0935563125 0.0000000000
0.8380198437 0.0927618125 0.0000000000
0.8642716250 0.0926643125 0.0000000000
0.8890973750 0.0929901250 0.0000000000
0.9120747500 0.0930876250 0.0000000000
0.0516654375 0.1093110313 0.0405591562
0.0650346875 0.1135495313 0.0413231562
0.0767089687 0.1180944375 0.0404360312
0.0887640625 0.1240103750 0.0381967500
0.1020707813 0.1299204687 0.0327507812
0.1188035937 0.1347899063 0.0253576250
0.1386155625 0.1386075312 0.0229177812
0.1611998750 0.1414163750 0.0212174687
0.1873474375 0.1432240000 0.0182851250
0.2181171562 0.1437235313 0.0157467812
0.2529273750 0.1434200938 0.0133069375
0.2878861875 0.1429026563 0.0103745937
0.3198260625 0.1433763125 0.0061609688
0.3509108125 0.1444048750 0.0023167188
0.3815517812 0.1454259063 0.0018484375
0.4119297813 0.1465815000 0.0012320313
0.4424495000 0.1477280938 0.0006164062
0.4729211250 0.1484736875 0.0006164062
0.5037141875 0.1491417500 0.0006164062
0.5351555000 0.1492717188 0.0002958750
0.5670013437 0.1492384687 0.0000000000
0.5993013125 0.1489525625 0.0000000000
0.6318594063 0.1482896250 0.0000000000
0.6643963438 0.1472779687 0.0000000000
0.6966227812 0.1462023125 0.0000000000
0.7285162500 0.1451889062 0.0000000000
0.7597959687 0.1438186563 0.0000000000
0.7903310000 0.1430392813 0.0000000000
0.8200815938 0.1424151875 0.0000000000
0.8483737813 0.1421918750 0.0000000000
0.8746443750 0.1423950000 0.0000000000
0.8990291562 0.1428785312 0.0000000000
0.9205338125 0.1435689375 0.0000000000
0.0654457500 0.1318575000 0.0532740000
0.0792902812 0.1368837187 0.0539006562
0.0922332500 0.1424999375 0.0532740000
0.1051890938 0.1486028125 0.0514294063
0.1180880000 0.1550613750 0.0467482500
0.1334741250 0.1612283750 0.0382706875
0.1526231250 0.1667618750 0.0308036875
0.1740536250 0.1703782812 0.0289802500
0.1977187500 0.1732127500 0.0274032500
0.2247846875 0.1757233125 0.0250865312
0.2560481250 0.1769580000 0.0227205625
0.2905404688 0.1771487500 0.0211682187
0.3262238750 0.1767882500 0.0192216250
0.3606702187 0.1767876875 0.0160181562
0.3924873750 0.1778787500 0.0125186875
0.4231746563 0.1795655937 0.0088222187
0.4533152500 0.1813355000 0.0059145000
0.4832684375 0.1829879375 0.0041644062
0.5133739375 0.1845668750 0.0033515000
0.5442778125 0.1859323750 0.0022426250
0.5753442500 0.1870688750 0.0016758750
0.6068617188 0.1878610000 0.0013800000
0.6387107500 0.1884526875 0.0009365000
0.6705873125 0.1887508438 0.0005917500
0.7025815000 0.1887820000 0.0005917500
0.7344564063 0.1888257500 0.0000000000
0.7658496875 0.1886535000 0.0000000000
0.7967024375 0.1883867500 0.0000000000
0.8267553750 0.1884802500 0.0000000000
0.8554969688 0.1888028438 0.0000000000
0.8823662500 0.1893776250 0.0000000000
0.9065895937 0.1901400312 0.0000000000
0.9274812500 0.1907492500 0.0000000000
0.0815153125 0.1566453750 0.0672686563
0.0959224062 0.1620726875 0.0683416875
0.1101606250 0.1683595000 0.0687385625
0.1230342813 0.1747932500 0.0672133438
0.1365095625 0.1815745000 0.0629688438
0.1506116563 0.1884434375 0.0549680938
0.1684121875 0.1947419063 0.0459441250
0.1890814063 0.2003238750 0.0383938437
0.2116925000 0.2040657188 0.0373094063
0.2365551250 0.2074560313 0.0365211250
0.2642023438 0.2104205000 0.0334156875
0.2950010937 0.2121558125 0.0310503750
0.3293294688 0.2129735313 0.0297192813
0.3654287500 0.2129517813 0.0285120000
0.4012020937 0.2131070312 0.0262939062
0.4343448438 0.2139476875 0.0237557500
0.4658083438 0.2154317188 0.0210450625
0.4960672812 0.2172845938 0.0181124687
0.5261966875 0.2192819375 0.0146623125
0.5566265625 0.2213119375 0.0117792188
0.5871081563 0.2230316250 0.0086249062
0.6179130937 0.2244601250 0.0065058125
0.6489782187 0.2258946250 0.0049534688
0.6802048125 0.2271371562 0.0036223125
0.7114695312 0.2281118125 0.0027104688
0.7426691563 0.2289217500 0.0019224687
0.7735037500 0.2295710313 0.0013553750
0.8040533438 0.2300451250 0.0005670937
0.8338683437 0.2307409375 0.0005670937
0.8625634375 0.2315257500 0.0000000000
0.8894244062 0.2325587813 0.0000000000
0.9133455938 0.2334914063 0.0000000000
0.9338448125 0.2343603750 0.0000000000
0.0993648750 0.1831010625 0.0829760625
0.1144036875 0.1889323750 0.0846469687
0.1286286250 0.1953291250 0.0855694375
0.1421722500 0.2021061875 0.0846013125
0.1557250000 0.2091416875 0.0815116875
0.1697549375 0.2166315000 0.0750011563
0.1858972500 0.2237863125 0.0654183125
0.2059013437 0.2302734375 0.0548321875
0.2274094375 0.2354736875 0.0491923125
0.2511873750 0.2397682812 0.0478758437
0.2765407500 0.2435159375 0.0460085000
0.3043951562 0.2466967500 0.0435998125
0.3352462500 0.2490428125 0.0409050000
0.3692500625 0.2501882813 0.0393444688
0.4051071875 0.2507012500 0.0384920000
0.4409926250 0.2509172813 0.0370382812
0.4755683125 0.2514645625 0.0354859375
0.5077284375 0.2528482813 0.0336868125
0.5390636250 0.2545900000 0.0307546875
0.5700290000 0.2564573125 0.0276492813
0.6005711250 0.2582427500 0.0242980000
0.6312480312 0.2600233438 0.0203796562
0.6618912500 0.2617411875 0.0167571250
0.6924878750 0.2633508125 0.0133562187
0.7230633125 0.2649143750 0.0099557500
0.7534585625 0.2661924062 0.0076392812
0.7836432500 0.2673816250 0.0057170625
0.8135429687 0.2686080000 0.0044110938
0.8428080625 0.2697766250 0.0031050000
0.8711695312 0.2710240000 0.0018731875
0.8976903125 0.2724150625 0.0013307500
0.9210205625 0.2735981250 0.0013061250
0.9410802500 0.2745840000 0.0005424375
0.1183394687 0.2107449375 0.1009018437
0.1334575000 0.2169944688 0.1026735000
0.1478781875 0.2235701250 0.1038215313
0.1619198750 0.2304954687 0.1037459688
0.1758117500 0.2380575625 0.1014614062
0.1900233125 0.2458009375 0.0965417188
0.2055476250 0.2535308125 0.0881617188
0.2234834687 0.2608219375 0.0771315938
0.2441626250 0.2671155312 0.0664957188
0.2669056250 0.2723999687 0.0620478750
0.2913527500 0.2769526875 0.0602981250
0.3171981250 0.2809135312 0.0581220312
0.3453120625 0.2842164688 0.0552706875
0.3762794375 0.2868495938 0.0523117187
0.4096280625 0.2883988125 0.0502888437
0.4448334063 0.2894155625 0.0491930313
0.4804257500 0.2898876250 0.0478280937
0.5153093750 0.2904129688 0.0471466563
0.5490124375 0.2913121563 0.0457422188
0.5813431250 0.2924047813 0.0435683125
0.6131226563 0.2938264688 0.0407890937
0.6443266875 0.2952822500 0.0372072500
0.6752554688 0.2968466875 0.0333419375
0.7058213750 0.2984395313 0.0286845312
0.7361229062 0.3000220000 0.0248154688
0.7661431250 0.3016029375 0.0204288437
0.7958373750 0.3030816250 0.0164615937
0.8251990313 0.3046148438 0.0132330937
0.8540570000 0.3061495000 0.0101037500
0.8819837188 0.3078383125 0.0080336250
0.9079745625 0.3095169063 0.0064812813
0.9307198750 0.3109899688 0.0051998125
0.9501770000 0.3122532813 0.0039180312
0.1381817500 0.2393060000 0.1199093750
0.1533605625 0.2458940937 0.1221720625
0.1680212500 0.2528303750 0.1240581875
0.1823406875 0.2600212500 0.1245205312
0.1965877500 0.2677135000 0.1231312500
0.2108819375 0.2757286562 0.1192991563
0.2257212500 0.2835419375 0.1121440625
0.2426314687 0.2915207500 0.1023195312
0.2619591250 0.2986293750 0.0904100000
0.2837087500 0.3051572188 0.0803679375
0.3070403750 0.3104098125 0.0765170625
0.3319017812 0.3149579375 0.0742395000
0.3581228750 0.3189611250 0.0719043750
0.3863528125 0.3222879063 0.0684436875
0.4169850000 0.3250596250 0.0650969375
0.4496439062 0.3269764688 0.0622530938
0.4840366250 0.3281796250 0.0607046250
0.5191217188 0.3288675000 0.0594561250
0.5543125000 0.3292598125 0.0582616250
0.5889070937 0.3296703438 0.0570490938
0.6224102500 0.3303005000 0.0555873750
0.6551499687 0.3310886563 0.0530580625
0.6871416250 0.3320700625 0.0499664375
0.7184113125 0.3332299687 0.0465494375
0.7491185000 0.3345850000 0.0422177500
0.7792881250 0.3359928750 0.0372308125
0.8090115625 0.3375817500 0.0325778125
0.8382795000 0.3392013750 0.0279205625
0.8669612500 0.3409526250 0.0236575000
0.8947262500 0.3428467813 0.0200594063
0.9203604375 0.3447276875 0.0169540625
0.9425861250 0.3464264375 0.0141694687
0.9615430000 0.3478111250 0.0126171250
0.1588635938 0.2689450313 0.1409384375
0.1740818438 0.2759076875 0.1434639375
0.1890645313 0.2830298750 0.1459634687
0.2035853750 0.2905553750 0.1471392500
0.2179687188 0.2982681563 0.1466130312
0.2322581875 0.3062494375 0.1436321250
0.2469210313 0.3142885625 0.1376533437
0.2629016250 0.3224923125 0.1288095625
0.2809615937 0.3303691250 0.1174851875
0.3016678437 0.3373779375 0.1054560312
0.3237196562 0.3436306562 0.0960798438
0.3473656562 0.3485683750 0.0921288750
0.3723344063 0.3530649688 0.0893486563
0.3986090313 0.3569481875 0.0864921875
0.4267773437 0.3604522187 0.0830998125
0.4567849687 0.3631969687 0.0791345000
0.4887735937 0.3653000312 0.0758961250
0.5223310313 0.3666374688 0.0735698438
0.5571015312 0.3673014375 0.0716752500
0.5924497188 0.3675213125 0.0701104375
0.6276486563 0.3675647813 0.0688610313
0.6622979375 0.3676783437 0.0672625000
0.6960252812 0.3679641250 0.0654629688
0.7287617813 0.3685187500 0.0628247188
0.7606963438 0.3692850937 0.0595152500
0.7917816562 0.3704270312 0.0552437812
0.8220421875 0.3717265000 0.0510158437
0.8517498125 0.3732793125 0.0462270000
0.8806890937 0.3749825000 0.0417916563
0.9085921875 0.3769371875 0.0369338438
0.9342512812 0.3789107187 0.0331200937
0.9560823750 0.3806136563 0.0300153750
0.9742371875 0.3821175625 0.0272301875
0.1801938125 0.2993113750 0.1630363750
0.1955918750 0.3063502500 0.1664060000
0.2109081250 0.3138485000 0.1692257500
0.2254558437 0.3213516250 0.1708888125
0.2397045000 0.3290722500 0.1706795000
0.2539456875 0.3369970000 0.1684342187
0.2685254375 0.3453270000 0.1638227500
0.2838444063 0.3536005938 0.1562910312
0.3006978125 0.3615932500 0.1456361875
0.3199142187 0.3690045000 0.1333781250
0.3410582500 0.3757049375 0.1215452500
0.3635698125 0.3815902812 0.1132859375
0.3872218125 0.3864493750 0.1087708750
0.4121346250 0.3908040313 0.1056748750
0.4382313750 0.3946744375 0.1021077500
0.4658362188 0.3980318438 0.0982115938
0.4952718125 0.4008840000 0.0939831250
0.5266660625 0.4030474687 0.0899730313
0.5597976250 0.4044079375 0.0866718750
0.5944277188 0.4050434063 0.0842907500
0.6300068125 0.4052229375 0.0822188125
0.6657958750 0.4049867188 0.0808365625
0.7013592500 0.4048115000 0.0791720000
0.7360305938 0.4046991875 0.0775223750
0.7697410000 0.4048809375 0.0750686875
0.8023169375 0.4054573437 0.0722004062
0.8338540625 0.4063798750 0.0690763125
0.8644220938 0.4076072188 0.0651915937
0.8940687500 0.4090791875 0.0609538750
0.9224737500 0.4108081250 0.0564975312
0.9481270000 0.4127013750 0.0527077500
0.9692044375 0.4143483125 0.0497322500
0.9860368750 0.4157382500 0.0470082500
0.2020386875 0.3299507188 0.1858100313
0.2174816563 0.3372190937 0.1898453125
0.2324862812 0.3446307813 0.1928194688
0.2471968125 0.3522360625 0.1948740000
0.2616550625 0.3600955625 0.1954395937
0.2757855000 0.3680662813 0.1939268125
0.2902443750 0.3761563750 0.1901035938
0.3050481875 0.3844036563 0.1837147813
0.3210180313 0.3924138125 0.1744500937
0.3387257188 0.4001017188 0.1626690937
0.3586441563 0.4071257812 0.1499796563
0.3798700000 0.4134615000 0.1389166250
0.4023996562 0.4189870625 0.1309470313
0.4259530938 0.4238169375 0.1258332188
0.4505100312 0.4281298125 0.1218747500
0.4762739062 0.4319375313 0.1179305625
0.5035298125 0.4353217812 0.1137026563
0.5325572188 0.4381805937 0.1091346875
0.5636348750 0.4403426250 0.1045418438
0.5966502500 0.4417863125 0.1003637500
0.6312966562 0.4425566563 0.0973274375
0.6671229062 0.4426546250 0.0948430625
0.7035371563 0.4423822813 0.0927972500
0.7398340938 0.4419854375 0.0912433437
0.7754801875 0.4416392500 0.0895475937
0.8100049375 0.4416345625 0.0876086250
0.8432978750 0.4419678437 0.0853992500
0.8753105625 0.4426850938 0.0827723437
0.9060872500 0.4437793125 0.0795819688
0.9350849062 0.4452548125 0.0759596875
0.9604778438 0.4467516875 0.0729626250
0.9800528125 0.4482035313 0.0698777500
0.9943089063 0.4493914062 0.0677493437
0.2240780000 0.3610285000 0.2091905000
0.2394192187 0.3680734688 0.2133570000
0.2545685625 0.3755780000 0.2169331875
0.2691830312 0.3831092500 0.2193346563
0.2835946250 0.3908130000 0.2202240000
0.2977729062 0.3987307187 0.2195405625
0.3118950625 0.4066628125 0.2166495625
0.3263763750 0.4146700313 0.2112580937
0.3414932500 0.4226305000 0.2032142500
0.3580035000 0.4303942500 0.1924432188
0.3763938750 0.4378016250 0.1797607500
0.3963442812 0.4445194375 0.1672512812
0.4175808750 0.4506211250 0.1565721250
0.4398242500 0.4560649062 0.1485100313
0.4631568750 0.4609291250 0.1429136875
0.4875326875 0.4652476250 0.1384614063
0.5131345000 0.4691315000 0.1341395000
0.5403074375 0.4725641250 0.1295200313
0.5692915000 0.4753846875 0.1245773750
0.6003355937 0.4776792187 0.1194360625
0.6332836250 0.4791591250 0.1147281250
0.6680563438 0.4800251875 0.1110060312
0.7041077500 0.4801815000 0.1079215625
0.7409676875 0.4798784063 0.1054832187
0.7779002500 0.4793642500 0.1036392500
0.8142562187 0.4789190937 0.1018354375
0.8495125625 0.4787097500 0.1002278750
0.8834340000 0.4788527500 0.0982827812
0.9157251250 0.4793733750 0.0960906250
0.9454244375 0.4803429375 0.0936516563
0.9701536875 0.4814782500 0.0913595000
0.9874062500 0.4826332188 0.0892554063
0.9984155000 0.4835160000 0.0873130000
0.2461836250 0.3918510625 0.2326468437
0.2613894688 0.3987853437 0.2369828125
0.2764178438 0.4059752500 0.2405623438
0.2910225938 0.4134672812 0.2434498438
0.3053357500 0.4210569375 0.2449068438
0.3191709687 0.4287153437 0.2446443125
0.3330908437 0.4365016250 0.2426260937
0.3471725313 0.4443727813 0.2383167500
0.3617065313 0.4523277187 0.2314417812
0.3772036875 0.4601241875 0.2219301250
0.3941959063 0.4677456250 0.2102339687
0.4128113750 0.4749285313 0.1974954375
0.4328715625 0.4815873750 0.1852467500
0.4539781563 0.4877156250 0.1747557500
0.4761062812 0.4932037500 0.1663465625
0.4993706875 0.4980957812 0.1602070312
0.5237667813 0.5024556562 0.1552667188
0.5494724687 0.5063656875 0.1506728125
0.5767915937 0.5098001875 0.1457829063
0.6058498437 0.5126751250 0.1403236563
0.6369112188 0.5149568125 0.1349035938
0.6699194063 0.5166007188 0.1298559687
0.7047509375 0.5174862500 0.1253241250
0.7409985000 0.5177162813 0.1216643125
0.7780938750 0.5175157812 0.1185993125
0.8154333750 0.5170522500 0.1163716250
0.8522849688 0.5164634688 0.1145236562
0.8880782500 0.5160352500 0.1127006250
0.9221996250 0.5159804375 0.1109029375
0.9528477500 0.5163582187 0.1091660625
0.9768043750 0.5169981875 0.1075247187
0.9917531250 0.5177500312 0.1060644062
0.9997092812 0.5184757500 0.1051685313
0.2680196875 0.4222043750 0.2557922500
0.2832115937 0.4291220937 0.2601927500
0.2979378125 0.4361829375 0.2639516250
0.3125034688 0.4435485000 0.2671155312
0.3266282500 0.4508439375 0.2689064375
0.3404105000 0.4583383437 0.2693776250
0.3541247500 0.4659638125 0.2680603750
0.3678409062 0.4738039063 0.2648901875
0.3819010000 0.4817440000 0.2594025625
0.3965930000 0.4896734063 0.2513874063
0.4124565625 0.4975087500 0.2409613125
0.4297638437 0.5050231875 0.2288070000
0.4486010625 0.5121759375 0.2160701250
0.4685555937 0.5188756875 0.2038865313
0.4897013125 0.5250547500 0.1931040625
0.5118827812 0.5305604063 0.1843667187
0.5353002500 0.5354949375 0.1778005625
0.5598727500 0.5398519063 0.1724093437
