bundles/resolve-cinematic-luts/Gamut/Foris/Foris 03.cube
TITLE "Foris 03 by Gamut"
# Version 1.0 - 05/25/2022 - Designed for Rec.709 Color Space. Copyright 2022 Gamut, LLC
LUT_3D_SIZE 33
0.0063090000 0.0063090000 0.0055200000
0.0210209062 0.0078613438 0.0047310000
0.0379993125 0.0078860000 0.0047310000
0.0540460938 0.0078860000 0.0054460313
0.0705587500 0.0078860000 0.0062103750
0.0889119063 0.0064321250 0.0069738750
0.1102686250 0.0040907500 0.0063090000
0.1344124063 0.0025383750 0.0069246250
0.1601090000 0.0017742500 0.0076887500
0.1860661563 0.0010106250 0.0094630000
0.2137626875 0.0000000000 0.0102510000
0.2420517812 0.0000000000 0.0107687812
0.2697717500 0.0000000000 0.0110400000
0.2967088750 0.0000000000 0.0110400000
0.3240528125 0.0000000000 0.0102510000
0.3504168125 0.0000000000 0.0086252188
0.3762210000 0.0000000000 0.0055200000
0.4015735625 0.0000000000 0.0024147813
0.4269353750 0.0000000000 0.0004438125
0.4515409062 0.0000000000 0.0000000000
0.4744356250 0.0000000000 0.0000000000
0.4991948438 0.0000000000 0.0000000000
0.5243801250 0.0000000000 0.0000000000
0.5501625938 0.0000000000 0.0000000000
0.5766587500 0.0000000000 0.0000000000
0.6033251875 0.0000000000 0.0000000000
0.6301114375 0.0000000000 0.0000000000
0.6567961562 0.0000000000 0.0000000000
0.6835216250 0.0000000000 0.0000000000
0.7097229063 0.0000000000 0.0000000000
0.7351050000 0.0000000000 0.0000000000
0.7597472187 0.0000000000 0.0000000000
0.7831270000 0.0000000000 0.0000000000
0.0187288437 0.0202565625 0.0163628437
0.0257272813 0.0233612813 0.0148351250
0.0426053750 0.0233859375 0.0095122812
0.0584302500 0.0248890312 0.0049035312
0.0750235312 0.0242487813 0.0010846250
0.0935232813 0.0234845625 0.0008629062
0.1167453750 0.0219075625 0.0008629062
0.1414203438 0.0175706250 0.0000985625
0.1686526250 0.0116067187 0.0001232188
0.1965698438 0.0060375625 0.0001478437
0.2266023750 0.0025383438 0.0001478437
0.2552130000 0.0022920625 0.0006902813
0.2824315312 0.0015277187 0.0027105000
0.3089894375 0.0002958750 0.0045340937
0.3358817500 0.0000000000 0.0056185625
0.3619250000 0.0000000000 0.0043863125
0.3879862500 0.0000000000 0.0016514063
0.4133752187 0.0000000000 0.0004437813
0.4383558750 0.0000000000 0.0000000000
0.4624612500 0.0000000000 0.0000000000
0.4875312813 0.0000000000 0.0000000000
0.5133801562 0.0000000000 0.0000000000
0.5400055000 0.0000000000 0.0000000000
0.5668418750 0.0000000000 0.0000000000
0.5942778437 0.0000000000 0.0000000000
0.6218477813 0.0000000000 0.0000000000
0.6491913125 0.0000000000 0.0000000000
0.6763140000 0.0000000000 0.0000000000
0.7030565000 0.0000000000 0.0000000000
0.7294389687 0.0000000000 0.0000000000
0.7548073438 0.0000000000 0.0000000000
0.7791575937 0.0000000000 0.0000000000
0.8026333437 0.0000000000 0.0000000000
0.0311486875 0.0327257500 0.0264670000
0.0358058125 0.0365947812 0.0249136562
0.0448886875 0.0389361250 0.0233120000
0.0607919688 0.0389854375 0.0172011250
0.0783844375 0.0389854375 0.0124691875
0.0960026875 0.0390593125 0.0064568125
0.1180693750 0.0382950625 0.0002957500
0.1448912813 0.0352888437 0.0000000000
0.1739463750 0.0313458125 0.0000000000
0.2031650625 0.0275261250 0.0000000000
0.2319456875 0.0215383125 0.0000000000
0.2606795000 0.0147363438 0.0000000000
0.2890774375 0.0084278750 0.0000000000
0.3173682187 0.0048050937 0.0000985625
0.3449610625 0.0037458750 0.0001478750
0.3714572188 0.0037458750 0.0001478750
0.3972690625 0.0037458750 0.0000493125
0.4225415625 0.0033760313 0.0000000000
0.4485116875 0.0030061875 0.0000000000
0.4747380625 0.0022674375 0.0000000000
0.5015043750 0.0014784375 0.0000000000
0.5287900000 0.0007396875 0.0000000000
0.5564595000 0.0007396875 0.0000000000
0.5842634375 0.0007396875 0.0000000000
0.6123468750 0.0007396875 0.0000000000
0.6402544063 0.0007396875 0.0000000000
0.6680568125 0.0007396875 0.0000000000
0.6954631875 0.0007396875 0.0000000000
0.7224243750 0.0007396875 0.0000000000
0.7486411875 0.0007396875 0.0000000000
0.7737495000 0.0007396875 0.0000000000
0.7979785312 0.0007396875 0.0000000000
0.8214038750 0.0007396875 0.0000000000
0.0419308125 0.0448233438 0.0350423750
0.0476085312 0.0489975937 0.0349931250
0.0529481250 0.0522723437 0.0319869375
0.0631669063 0.0541800625 0.0310994688
0.0789350000 0.0553701250 0.0250369062
0.0993078437 0.0542196875 0.0195415312
0.1196145000 0.0536608750 0.0119027812
0.1441580937 0.0529638750 0.0029573750
0.1717902813 0.0509997187 0.0001232812
0.2013052812 0.0472190313 0.0000000000
0.2325599063 0.0429418750 0.0000000000
0.2635593750 0.0382674688 0.0000000000
0.2946361563 0.0334651875 0.0000000000
0.3238001562 0.0292759687 0.0000000000
0.3517125313 0.0261711563 0.0000000000
0.3787997500 0.0240023750 0.0000000000
0.4056054063 0.0217596250 0.0000000000
0.4327873125 0.0195172187 0.0000000000
0.4603170938 0.0165599062 0.0000000000
0.4880317187 0.0136030312 0.0000000000
0.5160107188 0.0101526562 0.0000000000
0.5442923750 0.0086003125 0.0000000000
0.5729042813 0.0080826250 0.0000000000
0.6015530625 0.0079348750 0.0000000000
0.6301178125 0.0073685000 0.0000000000
0.6583931875 0.0066534687 0.0000000000
0.6865519687 0.0059393438 0.0000000000
0.7141330000 0.0052243125 0.0000000000
0.7411921562 0.0044353125 0.0000000000
0.7672029063 0.0043614375 0.0000000000
0.7920832812 0.0036473125 0.0000000000
0.8160900938 0.0036719375 0.0000000000
0.8393805938 0.0044353125 0.0000000000
0.0541903750 0.0577900000 0.0448072500
0.0590086562 0.0613347188 0.0448315313
0.0636345000 0.0657815625 0.0419329375
0.0720033125 0.0689212187 0.0397241250
0.0825973750 0.0710137500 0.0388375000
0.0991272187 0.0719890000 0.0328489687
0.1222706250 0.0715705625 0.0273042500
0.1467388125 0.0705355000 0.0188766562
0.1726807500 0.0703413750 0.0089698750
0.2012161875 0.0692822187 0.0012818125
0.2314384375 0.0675976250 0.0006903750
0.2620802500 0.0654381250 0.0000000000
0.2933328750 0.0625353750 0.0000000000
0.3247610000 0.0596148438 0.0000000000
0.3555783125 0.0565837500 0.0000000000
0.3854077500 0.0545102500 0.0000000000
0.4145932500 0.0515931250 0.0000000000
0.4432846875 0.0490338125 0.0000000000
0.4716260000 0.0462956875 0.0000000000
0.5003147500 0.0434692812 0.0000000000
0.5294087500 0.0405445000 0.0000000000
0.5586651250 0.0375064062 0.0000000000
0.5878271250 0.0352888750 0.0000000000
0.6170427812 0.0323805937 0.0000000000
0.6460522500 0.0301631250 0.0000000000
0.6746538125 0.0273288750 0.0000000000
0.7029428125 0.0250868125 0.0000000000
0.7309849375 0.0228440937 0.0000000000
0.7579460000 0.0214890000 0.0000000000
0.7839217500 0.0206013750 0.0000000000
0.8085439375 0.0206506875 0.0000000000
0.8323428750 0.0221045313 0.0000000000
0.8555573750 0.0228688750 0.0000000000
0.0657728750 0.0704804062 0.0547523750
0.0715307500 0.0749687813 0.0553872500
0.0760360312 0.0797307812 0.0528999063
0.0816883125 0.0846167812 0.0484108750
0.0930157812 0.0880645000 0.0483214062
0.1052703750 0.0904981562 0.0469191250
0.1231072813 0.0925298750 0.0412416250
0.1488443437 0.0921587188 0.0349437500
0.1781030000 0.0916354062 0.0278961563
0.2054971250 0.0915621250 0.0186548750
0.2341238125 0.0919139687 0.0089205625
0.2641345625 0.0919183750 0.0020452500
0.2952875000 0.0913566250 0.0013305937
0.3264570625 0.0907147188 0.0006657187
0.3571709062 0.0893520938 0.0000000000
0.3872520312 0.0880494062 0.0000000000
0.4169799375 0.0866487500 0.0000000000
0.4469182500 0.0849367812 0.0000000000
0.4773883750 0.0827450312 0.0000000000
0.5083738438 0.0804156250 0.0000000000
0.5394222500 0.0778484375 0.0000000000
0.5699063750 0.0754077500 0.0000000000
0.5995383438 0.0729973125 0.0000000000
0.6293445313 0.0705652187 0.0000000000
0.6588421250 0.0684436250 0.0000000000
0.6880142812 0.0664943750 0.0000000000
0.7167170312 0.0647190312 0.0000000000
0.7446740000 0.0631145938 0.0000000000
0.7716745000 0.0624315625 0.0000000000
0.7976171562 0.0620840625 0.0000000000
0.8222623125 0.0625700000 0.0000000000
0.8458025625 0.0641597187 0.0000000000
0.8683105000 0.0657189063 0.0000000000
0.0796298125 0.0851291250 0.0662433750
0.0851124062 0.0901685937 0.0667790625
0.0902543125 0.0961212500 0.0656499375
0.0957535625 0.1021490625 0.0612114063
0.1045142500 0.1071830000 0.0566881875
0.1177377187 0.1106764688 0.0571059375
0.1328208125 0.1142993750 0.0553503750
0.1531164063 0.1171422187 0.0491191562
0.1805626250 0.1181095000 0.0438771875
0.2116850000 0.1175545313 0.0378974063
0.2423322500 0.1177510625 0.0307051875
0.2717670625 0.1191817187 0.0221542188
0.3012531250 0.1204068750 0.0145393750
0.3312197188 0.1213114687 0.0073681562
0.3613531875 0.1218211250 0.0031048125
0.3908168438 0.1220916250 0.0019223750
0.4200534375 0.1224398750 0.0012813125
0.4499505000 0.1225490625 0.0009119375
0.4804020000 0.1225187500 0.0006410625
0.5112445000 0.1218527188 0.0006410625
0.5425489375 0.1206825000 0.0000000000
0.5741525000 0.1195596563 0.0000000000
0.6056686875 0.1181604375 0.0000000000
0.6369330937 0.1164769375 0.0000000000
0.6680993125 0.1151169375 0.0000000000
0.6982905938 0.1136633125 0.0000000000
0.7272179375 0.1126886250 0.0000000000
0.7555267187 0.1122651875 0.0000000000
0.7828540000 0.1122384375 0.0000000000
0.8090183750 0.1129007812 0.0000000000
0.8334658125 0.1141613125 0.0000000000
0.8563765937 0.1158126875 0.0000000000
0.8770345625 0.1176862500 0.0000000000
0.0946555625 0.1028583750 0.0790294687
0.1013890625 0.1082771563 0.0794952187
0.1068535312 0.1144218125 0.0786094062
0.1124120937 0.1216851875 0.0752199375
0.1193471250 0.1289359063 0.0697864687
0.1327342500 0.1345840625 0.0657652813
0.1485917812 0.1385943437 0.0667300937
0.1660112187 0.1426097500 0.0645124375
0.1878372500 0.1460370938 0.0584297500
0.2157560625 0.1477394375 0.0528283750
0.2483127813 0.1477890000 0.0486190937
0.2814041563 0.1480265625 0.0428473125
0.3121591563 0.1492167188 0.0361247500
0.3415067813 0.1507907187 0.0289802500
0.3706632500 0.1527715313 0.0218338750
0.3994680625 0.1546872187 0.0163875625
0.4282340625 0.1565243438 0.0114590312
0.4571720625 0.1581636875 0.0071464375
0.4866123750 0.1595272187 0.0043122812
0.5165535625 0.1604728125 0.0032530625
0.5472592188 0.1611200937 0.0023411563
0.5785805000 0.1616142188 0.0017498125
0.6102734062 0.1616731563 0.0014046250
0.6417512500 0.1614777187 0.0006164062
0.6729282813 0.1611087812 0.0006164062
0.7037242500 0.1608731875 0.0006164062
0.7338924062 0.1606152500 0.0000000000
0.7633243125 0.1607786250 0.0000000000
0.7916278438 0.1612356875 0.0000000000
0.8183597500 0.1624156875 0.0000000000
0.8427024063 0.1639988750 0.0000000000
0.8647630000 0.1660260000 0.0000000000
0.8835404375 0.1678494062 0.0000000000
0.1117065000 0.1226290000 0.0934765000
0.1192303750 0.1292334687 0.0950130625
0.1265151250 0.1366190000 0.0946408750
0.1331906875 0.1444484375 0.0914200313
0.1399135000 0.1524487500 0.0867965000
0.1497210313 0.1600374062 0.0781912500
0.1663201875 0.1650368125 0.0766910625
0.1836154375 0.1693574688 0.0780827500
0.2025155000 0.1741270000 0.0752615000
0.2252303750 0.1781607500 0.0687464375
0.2534161875 0.1804058125 0.0628054375
0.2860665000 0.1812683750 0.0586959062
0.3202886250 0.1814803750 0.0544038750
0.3531957187 0.1822774375 0.0496773438
0.3835791875 0.1840636875 0.0440910625
0.4128119062 0.1865394062 0.0381327812
0.4411282500 0.1891132500 0.0325287500
0.4692828125 0.1917991875 0.0271073125
0.4977271875 0.1942426250 0.0218831250
0.5268919062 0.1965202500 0.0171760625
0.5566775000 0.1984391250 0.0129128750
0.5868642187 0.2001660937 0.0091179062
0.6175210625 0.2015644375 0.0064564375
0.6483943750 0.2026941250 0.0051013437
0.6790860000 0.2034840000 0.0037455000
0.7096547500 0.2043228125 0.0025873750
0.7398398125 0.2050191250 0.0018238125
0.7694399375 0.2059947500 0.0013800000
0.7979685000 0.2070618750 0.0005917500
0.8249053125 0.2084599375 0.0005917500
0.8497770000 0.2103937500 0.0005424375
0.8713641250 0.2123415625 0.0000000000
0.8892122500 0.2142702500 0.0000000000
0.1320647812 0.1454900625 0.1110668125
0.1399696563 0.1524347812 0.1127126250
0.1479289688 0.1602247812 0.1127360000
0.1553648125 0.1688525938 0.1105654062
0.1623245937 0.1770534063 0.1058107500
0.1705362813 0.1856994063 0.0979605312
0.1843723750 0.1929558437 0.0899367500
0.2024874375 0.1981373125 0.0905595000
0.2206544062 0.2029939688 0.0917433750
0.2405345625 0.2080205000 0.0880207812
0.2640620625 0.2125558438 0.0807727187
0.2926801250 0.2155902188 0.0746168125
0.3250630937 0.2170139063 0.0701075312
0.3595716562 0.2178058750 0.0663745938
0.3939073438 0.2184808437 0.0627918437
0.4256427500 0.2199416875 0.0586958750
0.4554446250 0.2223821250 0.0543797812
0.4842195000 0.2251374688 0.0495981875
0.5126622813 0.2280613750 0.0446270937
0.5412420000 0.2309437813 0.0394987500
0.5700896875 0.2335609375 0.0338597500
0.5994347500 0.2361064063 0.0281424688
0.6290654687 0.2383089063 0.0231892500
0.6588444688 0.2403772813 0.0181867187
0.6887545000 0.2421807500 0.0141697187
0.7184125937 0.2439025938 0.0107195313
0.7479591562 0.2454543125 0.0079841875
0.7769025938 0.2469950312 0.0065306250
0.8051240000 0.2486319375 0.0045343125
0.8319182500 0.2505293437 0.0032775625
0.8566153125 0.2526750313 0.0026612187
0.8777484688 0.2547996875 0.0019224687
0.8947981875 0.2568008125 0.0019224688
0.1539289375 0.1700008750 0.1304055000
0.1625871250 0.1776262188 0.1322012500
0.1705876875 0.1855429375 0.1330155000
0.1783662500 0.1942283750 0.1314447500
0.1859673750 0.2033485000 0.1273236250
0.1938758750 0.2124837500 0.1208629687
0.2046078750 0.2212635625 0.1104410625
0.2216301875 0.2279917813 0.1047332500
0.2398625000 0.2334138750 0.1065978125
0.2589305312 0.2387724688 0.1073501250
0.2798678750 0.2441967500 0.1031252500
0.3043644375 0.2489355000 0.0955849062
0.3330072500 0.2523545000 0.0884754375
0.3650349063 0.2545275625 0.0829121875
0.3992817500 0.2558120625 0.0791026250
0.4336990625 0.2567737500 0.0761496250
0.4668226875 0.2580351875 0.0731618750
0.4976830000 0.2600999688 0.0696510312
0.5273680000 0.2624998750 0.0658947500
0.5565994687 0.2652078750 0.0613787500
0.5855826250 0.2679477500 0.0565998125
0.6145381250 0.2705718125 0.0508473438
0.6435368125 0.2732086875 0.0451083750
0.6726316562 0.2756799688 0.0389907812
0.7015730625 0.2780484375 0.0332680625
0.7304035625 0.2802679375 0.0278220000
0.7589495625 0.2824105625 0.0228687500
0.7870876875 0.2844478125 0.0184579375
0.8145880625 0.2865854375 0.0149336250
0.8409474375 0.2889668125 0.0120749062
0.8650704375 0.2914027500 0.0095122500
0.8854737813 0.2937029375 0.0082061563
0.9020562500 0.2957241250 0.0074418125
0.1767863125 0.1960395937 0.1515778750
0.1858418750 0.2039212500 0.1539667500
0.1942804375 0.2122807500 0.1553450312
0.2022383125 0.2211557188 0.1547622812
0.2105038750 0.2307392500 0.1508482812
0.2185740938 0.2402035937 0.1456618438
0.2282719063 0.2497453750 0.1367534375
0.2417510312 0.2583748437 0.1260519687
0.2598098438 0.2648417500 0.1230299375
0.2786005625 0.2705252500 0.1251446875
0.2983026250 0.2762473437 0.1253688750
0.3198513125 0.2817490625 0.1204634375
0.3450096875 0.2867433125 0.1124089688
0.3735617812 0.2905636562 0.1045087188
0.4051918125 0.2931030937 0.0979456562
0.4386393438 0.2947891250 0.0935424063
0.4726972500 0.2959670313 0.0898689062
0.5063431250 0.2972436250 0.0872125625
0.5385441875 0.2987364375 0.0845521563
0.5695735625 0.3006261562 0.0815198750
0.5997260937 0.3026170625 0.0774986875
0.6294264063 0.3049006250 0.0730507500
0.6587182500 0.3072733437 0.0674831250
0.6876181563 0.3096250000 0.0617432500
0.7162321562 0.3120591875 0.0557618437
0.7444951250 0.3144393750 0.0495295625
0.7724822500 0.3168721875 0.0431681875
0.7999678437 0.3192825938 0.0374886875
0.8268342813 0.3218132500 0.0323559687
0.8525926562 0.3244300000 0.0272797187
0.8761595000 0.3272057500 0.0237313437
0.8957692500 0.3297045000 0.0209215625
0.9117421250 0.3318211563 0.0193691875
0.2008762500 0.2231795000 0.1746040000
0.2099346875 0.2315355937 0.1778853125
0.2185645625 0.2401179375 0.1801373750
0.2268551250 0.2493276250 0.1806154375
0.2353878750 0.2591413750 0.1781361250
0.2439223750 0.2690838750 0.1724002813
0.2528917500 0.2786871875 0.1647590000
0.2641268750 0.2884341875 0.1536408437
0.2799315000 0.2965273750 0.1447750000
0.2985534687 0.3029822813 0.1432383125
0.3177992500 0.3088486875 0.1452016875
0.3378087500 0.3146271875 0.1445092500
0.3600691250 0.3202450000 0.1389852500
0.3852420625 0.3251275937 0.1307479375
0.4134490000 0.3290143750 0.1220921250
0.4442348437 0.3318411250 0.1144560937
0.4769822500 0.3337977500 0.1088177500
0.5106618437 0.3351707812 0.1046360625
0.5445578125 0.3362460625 0.1016546250
0.5779090000 0.3372426875 0.0988699375
0.6100532500 0.3383996250 0.0959372500
0.6414460000 0.3398591875 0.0926676563
0.6720071875 0.3414446250 0.0885500625
0.7018366562 0.3433237500 0.0836750313
0.7308487500 0.3453396250 0.0783076250
0.7593715937 0.3475892812 0.0721835313
0.7872758750 0.3499030000 0.0660361250
0.8145559375 0.3523954687 0.0600160625
0.8412025000 0.3551757500 0.0538615000
0.8666983125 0.3579691250 0.0485370625
0.8898539375 0.3608718125 0.0439503125
0.9090177188 0.3635085937 0.0406310625
0.9243882500 0.3658305000 0.0379280000
0.2254268125 0.2512300312 0.1999615937
0.2347759375 0.2599820625 0.2039196250
0.2434735937 0.2689185625 0.2066452813
0.2520735937 0.2784026562 0.2082061250
0.2606121875 0.2881449375 0.2067474375
0.2693217187 0.2982574063 0.2016215625
0.2782384375 0.3082662187 0.1942819687
0.2883536563 0.3183326875 0.1845428125
0.3012917500 0.3277584687 0.1723424062
0.3189295938 0.3352875000 0.1653404687
0.3375015937 0.3415900312 0.1649142188
0.3567478125 0.3475843750 0.1662850625
0.3770985313 0.3532054375 0.1644938438
0.3994788437 0.3585203437 0.1584674062
0.4243315313 0.3633072500 0.1501372500
0.4519971875 0.3672745000 0.1408574063
0.4821278437 0.3702684375 0.1323804687
0.5142067812 0.3723435000 0.1253269375
0.5476663750 0.3737014687 0.1201763750
0.5816952500 0.3745330000 0.1161821563
0.6157571562 0.3751306250 0.1129751250
0.6492450625 0.3756805625 0.1101151875
0.6817455937 0.3764832813 0.1069725313
0.7132703125 0.3775242500 0.1033822188
0.7438017813 0.3789089063 0.0991704375
0.7732449688 0.3806415625 0.0943761250
0.8018726562 0.3827140000 0.0890866562
0.8296360937 0.3850602500 0.0833413125
0.8566121250 0.3876416250 0.0777260938
0.8823062812 0.3905058125 0.0720180313
0.9055348438 0.3934164063 0.0670018125
0.9244504375 0.3960791875 0.0633873750
0.9394490000 0.3983749688 0.0607730312
0.2509410000 0.2803387500 0.2268026250
0.2601762187 0.2890679375 0.2314754687
0.2691390000 0.2983774375 0.2352801250
0.2777538438 0.3078489375 0.2372800937
0.2862532500 0.3177051875 0.2367408750
0.2948715937 0.3276795625 0.2329002500
0.3039604375 0.3379831875 0.2254338750
0.3135726562 0.3483090937 0.2165631562
0.3248391875 0.3582011250 0.2046199375
0.3396520313 0.3667330937 0.1929419063
0.3574221250 0.3737343750 0.1876394375
0.3758232812 0.3799590000 0.1876941875
0.3949600000 0.3857650625 0.1880129375
0.4152539687 0.3912321875 0.1852925938
0.4374486875 0.3964101250 0.1789507500
0.4618879062 0.4010316250 0.1703214687
0.4889328750 0.4049673125 0.1605716875
0.5184205312 0.4079944062 0.1509095625
0.5501063750 0.4100945625 0.1427243750
0.5834948438 0.4113954062 0.1360354375
0.6179575000 0.4121297500 0.1309931875
0.6528117187 0.4124167500 0.1271966250
0.6873355625 0.4125945625 0.1241456875
0.7210109687 0.4128755312 0.1210895938
0.7535756875 0.4135270000 0.1179885625
0.7848780938 0.4146114688 0.1142701563
0.8149366875 0.4161103125 0.1102031250
0.8438380000 0.4180556875 0.1056944375
0.8716628125 0.4202749375 0.1007875625
0.8980880938 0.4228463437 0.0960613438
0.9217465625 0.4255541875 0.0915696875
0.9409380000 0.4280907500 0.0879562812
0.9557488125 0.4302855000 0.0853103750
0.2767435625 0.3098666250 0.2546262188
0.2859606563 0.3187546875 0.2600060000
0.2948820625 0.3279301875 0.2642515625
0.3033597500 0.3374140625 0.2671921250
0.3119409375 0.3471854062 0.2674882188
0.3203719063 0.3569884063 0.2648766875
0.3293904687 0.3674493125 0.2590113125
0.3389622812 0.3778143750 0.2493561250
0.3489903437 0.3876475000 0.2381626562
0.3613486875 0.3969604375 0.2247952188
0.3772603438 0.4048977500 0.2148383125
0.3948759375 0.4115858125 0.2111604062
0.4128406250 0.4175737188 0.2108622500
0.4315154063 0.4231430937 0.2101331250
0.4516306562 0.4285146250 0.2066393438
0.4735068438 0.4336790000 0.2000831250
0.4976609687 0.4382721562 0.1909767813
0.5243144687 0.4421405000 0.1806163438
0.5536532187 0.4452599688 0.1701145937
0.5852356250 0.4474023750 0.1606560312
0.6187690000 0.4487377188 0.1527555000
0.6537300313 0.4493810937 0.1466324062
0.6892650313 0.4495574375 0.1419689375
0.7247666250 0.4495343125 0.1382530625
0.7594644687 0.4495310937 0.1352340938
0.7930318125 0.4498920000 0.1322925937
0.8251308125 0.4507319687 0.1292843125
0.8558094063 0.4520333125 0.1260033437
0.8850474063 0.4537239063 0.1222418125
0.9126903750 0.4558866250 0.1184853125
0.9372520000 0.4581775625 0.1148005000
0.9568394062 0.4604163125 0.1118611563
0.9716631250 0.4623153125 0.1097525000
0.3029225000 0.3395915000 0.2830075000
0.3119785625 0.3483764062 0.2887737188
0.3207648125 0.3574731250 0.2935241875
0.3291018125 0.3667447812 0.2969715625
0.3374798750 0.3763338750 0.2983220000
0.3458635000 0.3862382813 0.2971452813
0.3542002500 0.3960461250 0.2926264375
0.3633737812 0.4061805000 0.2840389063
0.3732237500 0.4162695000 0.2723985000
0.3840185938 0.4257845313 0.2594719688
0.3975006250 0.4345670000 0.2464920625
0.4136198125 0.4421077187 0.2380858750
0.4304752500 0.4485502500 0.2350042500
0.4480179687 0.4545752500 0.2342048750
0.4665038125 0.4602300625 0.2326768750
0.4864600937 0.4656619375 0.2285040312
0.5081715000 0.4707005000 0.2215645000
0.5323185938 0.4753013750 0.2120503125
0.5590092500 0.4792319375 0.2011866250
0.5882571875 0.4823619688 0.1897952500
0.6200335000 0.4846103750 0.1793038750
0.6538570000 0.4860205625 0.1702538750
0.6892021250 0.4866671250 0.1629163750
0.7253787500 0.4868205000 0.1573636250
0.7616002500 0.4866487500 0.1530277500
0.7971793437 0.4865678438 0.1495994687
0.8315226250 0.4867124375 0.1467502500
0.8644165938 0.4873230312 0.1439608750
0.8956320000 0.4883448750 0.1412357500
0.9248374375 0.4898730313 0.1385258438
0.9504823750 0.4916998750 0.1358143750
0.9704012813 0.4934951250 0.1334849063
0.9849950000 0.4950425000 0.1318490000
0.3289699688 0.3691337812 0.3113272188
0.3378284062 0.3776009375 0.3174380000
0.3463458125 0.3866166562 0.3226825625
0.3545821563 0.3957879687 0.3265818437
0.3627064375 0.4050114062 0.3288472812
0.3706159062 0.4144657500 0.3285760000
0.3786940000 0.4240319062 0.3255158437
0.3872218125 0.4338807500 0.3188697187
0.3965021875 0.4439020625 0.3083301250
0.4066629063 0.4537753750 0.2950414375
0.4181594375 0.4630977500 0.2811149375
0.4321899375 0.4714998750 0.2695471562
0.4480720938 0.4788937188 0.2624800938
0.4645332812 0.4854406250 0.2596897813
0.4818901250 0.4916278750 0.2581136875
0.5004364688 0.4973655312 0.2556555312
0.5203813750 0.5028374063 0.2508967812
0.5423626875 0.5079210000 0.2436132500
0.5665868438 0.5124698750 0.2337607187
0.5934178437 0.5163540313 0.2222958125
0.6229059375 0.5195194062 0.2102999063
0.6548199062 0.5218121562 0.1988623750
0.6888900625 0.5232946250 0.1888070625
0.7244777500 0.5240439688 0.1803766562
0.7610200000 0.5242078125 0.1736607813
0.7977163438 0.5240804063 0.1685809375
0.8339278438 0.5238633750 0.1646193125
0.8689647812 0.5238500312 0.1614542500
0.9024427187 0.5242413437 0.1588240312
0.9335664688 0.5250585625 0.1563644375
0.9603415312 0.5262712500 0.1542645313
0.9802671875 0.5275281562 0.1525865625
0.9939154062 0.5287769063 0.1514163125
0.3546792500 0.3981483125 0.3392217500
0.3631535938 0.4064022812 0.3454881875
0.3714871250 0.4150606250 0.3509735625
0.3796268750 0.4240523438 0.3554752500
0.3873777500 0.4329105000 0.3583010625
0.3950693438 0.4421099687 0.3591091250
0.4027158125 0.4514381875 0.3572978750
0.4106494687 0.4611066875 0.3526459063
0.4193078750 0.4711908125 0.3445650625
0.4287969375 0.4812421250 0.3323025625
0.4393291250 0.4910843750 0.3180042500
0.4513811875 0.5002300312 0.3041791250
0.4658588125 0.5084199375 0.2942963750
0.4815164375 0.5158373437 0.2880837500
0.4979350000 0.5226046250 0.2847145625
0.5154070625 0.5288642812 0.2823945313
0.5341243750 0.5347214375 0.2790273750
0.5542931562 0.5401447812 0.2738021562
