bundles/resolve-cinematic-luts/Phantom Luts/Komodo Phantom ARRI LUTs G2/Komodo Phantom ARRI LUTs G2/65x/Standard (No WB Offset)/IceBlue_Komodo_G2_33x.cube
TITLE "Generated by Resolve"
LUT_3D_SIZE 65
0.0344244 0.0467231 0.0462654
0.0344244 0.0467231 0.0462654
0.0344244 0.0467231 0.0462654
0.0344244 0.0467231 0.0462501
0.0348058 0.0466926 0.0462501
0.0363928 0.04654 0.0463722
0.042237 0.0463722 0.0474403
0.0503548 0.0462348 0.0470436
0.0594644 0.0459754 0.0464942
0.0700847 0.0456855 0.0464485
0.0823682 0.0453651 0.0465705
0.0971237 0.0445563 0.0464637
0.115206 0.0436561 0.0466011
0.136355 0.0426642 0.0469368
0.159075 0.0414588 0.0466773
0.184894 0.0405432 0.0480812
0.211719 0.0396429 0.0496071
0.240467 0.0389715 0.0514992
0.272206 0.0388647 0.0551156
0.305226 0.0389715 0.0592355
0.340276 0.0397955 0.0640269
0.376196 0.0410773 0.069749
0.411658 0.0421759 0.0772412
0.447684 0.0432593 0.0857557
0.481697 0.044831 0.0951247
0.511086 0.0467079 0.104128
0.538231 0.0489052 0.115663
0.56257 0.0510262 0.126589
0.583856 0.0533455 0.136019
0.603479 0.0567941 0.14551
0.622049 0.0615549 0.154025
0.637888 0.0660716 0.161059
0.652247 0.0702373 0.169818
0.659586 0.0721141 0.177401
0.661128 0.0720989 0.181735
0.662699 0.0721904 0.186023
0.664225 0.0723278 0.190112
0.665599 0.0724193 0.193759
0.666835 0.0725261 0.19707
0.667933 0.0726177 0.200183
0.66891 0.0727398 0.20296
0.669795 0.0728923 0.205219
0.670588 0.0730602 0.207065
0.67129 0.0732586 0.208682
0.671687 0.0733806 0.209293
0.672145 0.0735027 0.21033
0.672496 0.07364 0.210925
0.672892 0.0737926 0.211505
0.673289 0.0739452 0.212116
0.673609 0.0740673 0.212665
0.673884 0.0741741 0.213107
0.674128 0.0742504 0.213596
0.674342 0.0742809 0.21413
0.67451 0.0742962 0.214679
0.674647 0.0743114 0.215106
0.674784 0.0743114 0.215534
0.674876 0.0743267 0.215854
0.674968 0.0743267 0.216083
0.675044 0.074342 0.216281
0.675166 0.0742962 0.216815
0.675349 0.0742046 0.217746
0.675563 0.0740978 0.218814
0.675837 0.07393 0.220417
0.676173 0.0737011 0.2224
0.676585 0.0734264 0.224781
0.0345312 0.0466163 0.0459144
0.0345006 0.0466468 0.0460059
0.0344854 0.0466773 0.0460822
0.0344701 0.0466926 0.0461433
0.0345312 0.0466926 0.0461585
0.0356298 0.0466163 0.0462806
0.0410773 0.0463874 0.0472419
0.0492714 0.0462654 0.0471504
0.0588083 0.0460212 0.04654
0.0694438 0.0456855 0.0464027
0.0823224 0.0453803 0.0466316
0.0975052 0.0445106 0.0465095
0.116396 0.0435798 0.0467384
0.137545 0.0425879 0.0470436
0.16083 0.0412757 0.0466468
0.18677 0.0402228 0.0476234
0.213169 0.0391699 0.0484474
0.243153 0.0384375 0.0504921
0.274769 0.0382391 0.054078
0.308858 0.0381628 0.0584573
0.344289 0.0390021 0.0632792
0.379721 0.0404059 0.0694743
0.416495 0.0413672 0.0770886
0.451637 0.0424048 0.0861067
0.48571 0.0439765 0.0961624
0.515053 0.0459297 0.106432
0.540841 0.0479744 0.11693
0.564492 0.0500649 0.127626
0.585901 0.0532082 0.137102
0.606928 0.0572366 0.148272
0.624857 0.0619821 0.155947
0.639704 0.0663462 0.16199
0.654444 0.0706188 0.171817
0.65948 0.0718395 0.177996
0.661036 0.0718853 0.182177
0.662486 0.0719615 0.18616
0.664012 0.0721141 0.190219
0.665385 0.0722515 0.193744
0.666514 0.0723735 0.196567
0.667613 0.0725109 0.199512
0.668528 0.0726177 0.20206
0.669352 0.072755 0.204334
0.670146 0.0729076 0.206363
0.670924 0.0730907 0.208087
0.671336 0.0732586 0.208774
0.671733 0.0733654 0.209552
0.672099 0.0734874 0.210285
0.672404 0.0736095 0.210727
0.672709 0.0737316 0.211154
0.672984 0.0738842 0.211383
0.673259 0.073991 0.21181
0.673503 0.0740826 0.212222
0.673686 0.0741588 0.212573
0.673869 0.0742046 0.21294
0.674037 0.0742504 0.21326
0.674189 0.0742657 0.213672
0.674296 0.0742809 0.213977
0.674403 0.0742809 0.214282
0.674479 0.0742962 0.214527
0.674601 0.0742504 0.215091
0.674754 0.0741588 0.215976
0.674983 0.0740368 0.217243
0.675242 0.0738689 0.218677
0.675593 0.0736553 0.220661
0.676005 0.0733654 0.223133
0.0345312 0.0466163 0.0459144
0.0345006 0.0466468 0.0460212
0.0344854 0.0466773 0.0460822
0.0344701 0.0466926 0.0461433
0.0344701 0.0466926 0.0461585
0.035111 0.0466773 0.0462196
0.039826 0.046479 0.0470436
0.0480659 0.0463417 0.047303
0.0577859 0.0461433 0.0466926
0.0687266 0.0457618 0.0463722
0.0817884 0.0454566 0.0466163
0.0975204 0.0445411 0.0464942
0.116701 0.0435645 0.0467384
0.13846 0.0425727 0.0470741
0.162325 0.0412451 0.0467842
0.188266 0.0401923 0.0477455
0.215396 0.0390631 0.0482643
0.244633 0.0381781 0.0494698
0.276783 0.0378729 0.0521401
0.310704 0.0377356 0.0563058
0.345846 0.0383001 0.0614481
0.382284 0.0394903 0.0670787
0.418601 0.0406958 0.0750591
0.454643 0.0417334 0.0841077
0.48809 0.0432898 0.0945296
0.517174 0.0452125 0.105425
0.542992 0.0473182 0.116701
0.565927 0.0495155 0.126879
0.587747 0.0530861 0.13695
0.608377 0.0576638 0.147036
0.625986 0.0623026 0.154971
0.641001 0.0667277 0.161105
0.655528 0.0709544 0.171145
0.659037 0.0717174 0.177111
0.660594 0.0718395 0.18114
0.661936 0.0718853 0.184817
0.663493 0.0720226 0.188891
0.664881 0.0721752 0.192584
0.665995 0.0722972 0.1953
0.667109 0.0724346 0.198199
0.66804 0.0725261 0.200763
0.668849 0.0726482 0.203098
0.669596 0.0727855 0.204944
0.670283 0.0729229 0.206699
0.670939 0.0730755 0.208179
0.671397 0.073228 0.20911
0.671702 0.0733349 0.209613
0.671977 0.0734417 0.210025
0.672206 0.0735637 0.21033
0.672419 0.0736706 0.210483
0.672602 0.0737774 0.210651
0.672786 0.0738842 0.210773
0.672938 0.0739757 0.21088
0.673091 0.074052 0.211109
0.673259 0.0740978 0.211383
0.673381 0.0741283 0.211688
0.673503 0.0741436 0.212009
0.673609 0.0741588 0.212268
0.673701 0.0741741 0.212482
0.673823 0.0741436 0.21294
0.673991 0.0740673 0.213703
0.674205 0.07393 0.214878
0.674464 0.0737621 0.216419
0.674754 0.0735332 0.218296
0.675135 0.0732433 0.220584
0.0345312 0.0466163 0.0459297
0.0345006 0.0466468 0.0460212
0.0344701 0.0466773 0.0460975
0.0344701 0.0466926 0.0461433
0.0344549 0.0466926 0.0461738
0.034699 0.0467079 0.0462043
0.0378729 0.0466316 0.0466163
0.0456092 0.04654 0.0476234
0.0552987 0.0464637 0.0471199
0.0662089 0.046067 0.0464332
0.07953 0.0457923 0.0465705
0.0951095 0.0449378 0.0464637
0.114519 0.043946 0.0467079
0.136934 0.0428626 0.0470588
0.161059 0.0415351 0.0467384
0.187945 0.0403449 0.0476692
0.214878 0.0391699 0.0481727
0.244648 0.0381628 0.0490425
0.276783 0.0376898 0.0510109
0.30927 0.0373693 0.054139
0.344366 0.0376135 0.0581064
0.380926 0.0386664 0.0631723
0.41796 0.0396124 0.0706645
0.454337 0.0407111 0.0799878
0.487098 0.0421149 0.0904402
0.516472 0.0439765 0.102037
0.541955 0.046128 0.113085
0.565972 0.0490883 0.124681
0.588098 0.0529793 0.1355
0.608682 0.0577554 0.145357
0.626169 0.0623941 0.153094
0.640726 0.066743 0.158907
0.6551 0.0709697 0.168582
0.658076 0.071519 0.174777
0.65977 0.0717021 0.179309
0.661219 0.0717784 0.183017
0.662547 0.0718547 0.186694
0.663981 0.0720073 0.190417
0.665248 0.0721599 0.193713
0.666239 0.072282 0.196063
0.667231 0.0724041 0.198642
0.66807 0.0725261 0.200885
0.668772 0.0726482 0.202823
0.669444 0.0727703 0.204547
0.670054 0.0728771 0.206134
0.670588 0.0730144 0.207248
0.671 0.0731365 0.208194
0.671305 0.0732738 0.208637
0.671519 0.0733806 0.208881
0.671717 0.0734874 0.209049
0.671824 0.0735943 0.208957
0.671931 0.0737011 0.20885
0.672023 0.0737774 0.208759
0.672114 0.0738537 0.208804
0.672206 0.0738994 0.208881
0.672297 0.07393 0.209003
0.672374 0.0739605 0.209186
0.67248 0.0739757 0.209415
0.672557 0.0739757 0.209583
0.672663 0.0739452 0.21004
0.672816 0.0738537 0.210803
0.673014 0.0737163 0.211917
0.673243 0.0735485 0.213184
0.673548 0.0733043 0.215015
0.673899 0.0730144 0.217288
0.0345312 0.0466163 0.0459297
0.0345006 0.0466468 0.0460365
0.0344701 0.0466773 0.0461128
0.0344549 0.0467079 0.0461738
0.0344396 0.0467079 0.0462196
0.0344854 0.0467231 0.0462348
0.035874 0.0467994 0.0463722
0.0419013 0.047013 0.0476234
0.0512093 0.046952 0.0474861
0.0625772 0.0465858 0.046891
0.0755169 0.0464637 0.046891
0.0906081 0.0457618 0.0465705
0.11014 0.0448157 0.0467536
0.132677 0.0436713 0.0470436
0.158022 0.0422522 0.0470283
0.184924 0.0410315 0.0473945
0.212802 0.039704 0.0480354
0.243442 0.0385595 0.0488441
0.275517 0.0379797 0.050782
0.308385 0.0374609 0.053254
0.342519 0.0373999 0.0560616
0.378561 0.0381628 0.0600137
0.415335 0.0387732 0.065919
0.451377 0.0395056 0.0738842
0.484474 0.0407721 0.0844129
0.513695 0.0427558 0.0963607
0.540307 0.0451514 0.108415
0.564935 0.0487526 0.120623
0.587243 0.0529183 0.131853
0.608286 0.0577249 0.142702
0.625803 0.0623789 0.150774
0.639704 0.0666361 0.155459
0.653361 0.0706951 0.164431
0.656458 0.0711681 0.171054
0.65861 0.0714275 0.176654
0.660197 0.0715953 0.180865
0.661509 0.0716869 0.184176
0.662776 0.0717784 0.18761
0.664073 0.0719463 0.190906
0.665217 0.0720989 0.193835
0.666117 0.0722362 0.195926
0.666987 0.072343 0.198199
0.667735 0.0724651 0.200046
0.668391 0.0725872 0.201694
0.668956 0.0726787 0.203357
0.669444 0.0727703 0.204501
0.669886 0.0728771 0.205585
0.670268 0.0729839 0.206378
0.670573 0.0731212 0.206851
0.670802 0.0732433 0.207095
0.670924 0.0733654 0.207065
0.671 0.0735027 0.206821
0.671031 0.0736095 0.206455
0.671092 0.0736858 0.206287
0.671168 0.0737621 0.206241
0.671214 0.0738079 0.20621
0.67126 0.0738384 0.20621
0.671305 0.0738537 0.206287
0.671366 0.0738537 0.206424
0.671458 0.0738079 0.206836
0.67158 0.0737316 0.207385
0.671748 0.0735943 0.208392
0.671962 0.0734112 0.209751
0.672236 0.073167 0.211444
0.672587 0.0728771 0.213443
0.0345617 0.0469978 0.0459449
0.0345159 0.047013 0.0460212
0.0345006 0.0470283 0.0461128
0.0345312 0.0469825 0.0462043
0.0346227 0.0469062 0.0462806
0.0346075 0.0468299 0.0462959
0.0348669 0.0468452 0.0463111
0.0384833 0.0473335 0.0469368
0.0465705 0.0474556 0.0481117
0.0575875 0.0472877 0.0471656
0.0704967 0.0472267 0.0471046
0.0855726 0.0467231 0.0467842
0.104341 0.0458839 0.04654
0.127108 0.0447547 0.0466926
0.153017 0.0433967 0.0469215
0.180331 0.0420691 0.0471504
0.209491 0.0407416 0.0476997
0.239872 0.0395972 0.0484779
0.272953 0.038941 0.0502937
0.306157 0.0382849 0.0526436
0.34165 0.0381323 0.0558175
0.377722 0.0386206 0.0591592
0.412802 0.0387427 0.0634928
0.448402 0.0388647 0.0691997
0.480598 0.0396735 0.077409
0.509972 0.0417639 0.0886244
0.53785 0.0449378 0.101686
0.562661 0.0485542 0.114305
0.585458 0.052781 0.12639
0.606424 0.0574807 0.137865
0.624903 0.0623484 0.147005
0.6383 0.0664225 0.151415
0.651011 0.0701457 0.159594
0.653956 0.0706798 0.16553
0.656779 0.0710307 0.172244
0.658763 0.0712749 0.177447
0.660273 0.0714427 0.181491
0.661494 0.0715648 0.184543
0.662593 0.0716564 0.187457
0.663767 0.0718395 0.190326
0.664775 0.0719921 0.192859
0.665644 0.0721294 0.194873
0.666407 0.0722515 0.19675
0.667079 0.0723583 0.198398
0.667659 0.0724498 0.199847
0.668147 0.0725414 0.201083
0.668574 0.0726177 0.202213
0.66894 0.0727092 0.203113
0.669215 0.0728008 0.203647
0.669444 0.0729076 0.203983
0.669612 0.0730144 0.204135
0.669734 0.0731365 0.204089
0.66981 0.0732586 0.20383
0.669871 0.0733654 0.203555
0.669917 0.0734722 0.203326
0.669963 0.0735485 0.203143
0.669993 0.0736095 0.202991
0.669993 0.0736553 0.202869
0.670024 0.0736706 0.202823
0.670085 0.0736248 0.203174
0.670192 0.0735332 0.203784
0.670329 0.0733959 0.204715
0.670497 0.0731823 0.205936
0.670726 0.0729381 0.207385
0.671046 0.0726329 0.209415
0.0350347 0.0497139 0.0465095
0.0350195 0.0497444 0.0465553
0.0350042 0.0497902 0.0466621
0.0349889 0.0496681 0.0466621
0.035172 0.0492256 0.0465705
0.0355535 0.0486458 0.0466011
0.035462 0.048127 0.0465248
0.0372625 0.0484321 0.0469062
0.043183 0.0490578 0.0485084
0.0529488 0.0489357 0.0481727
0.0653849 0.0489052 0.0478828
0.0797284 0.0482643 0.0471656
0.0979782 0.0472419 0.0469673
0.120516 0.046128 0.04654
0.146624 0.0449073 0.0467994
0.174716 0.0434424 0.0467842
0.204608 0.0422065 0.0475776
0.236255 0.041001 0.0480049
0.269368 0.040238 0.0494087
0.303777 0.0397192 0.0516518
0.33994 0.039704 0.0552987
0.376226 0.0401312 0.0583352
0.412284 0.0399176 0.0631571
0.447211 0.0395209 0.0681315
0.478294 0.0396582 0.0735943
0.506767 0.0416419 0.0819715
0.533425 0.0445716 0.0927138
0.55906 0.0483253 0.105837
0.582086 0.0525063 0.118441
0.60354 0.0571603 0.130617
0.622278 0.0619974 0.140383
0.635721 0.06598 0.145281
0.647593 0.0693675 0.152697
0.651164 0.0700694 0.159411
0.653696 0.0704356 0.165454
0.656489 0.0707561 0.172152
0.658442 0.0710307 0.177157
0.659907 0.0712139 0.181048
0.661143 0.0714122 0.183978
0.662089 0.0715038 0.186572
0.663035 0.0716411 0.188739
0.663966 0.071809 0.191043
0.664759 0.0719615 0.192905
0.665431 0.0720989 0.1944
0.665995 0.0721904 0.195697
0.666545 0.0722667 0.197086
0.667018 0.072343 0.198276
0.667384 0.0724193 0.199084
0.667689 0.0724956 0.199802
0.667918 0.0725567 0.200244
0.668101 0.0726482 0.200534
0.668223 0.0727398 0.20058
0.668284 0.0728466 0.200412
0.668315 0.0729686 0.200122
0.668315 0.0730755 0.199695
0.66833 0.073167 0.199344
0.668299 0.0732433 0.198993
0.668284 0.0733043 0.198703
0.668254 0.0733349 0.198428
0.668269 0.0733196 0.19855
0.668345 0.073228 0.199084
0.668452 0.0730755 0.199939
0.668589 0.0728771 0.201038
0.668803 0.0726177 0.202472
0.669062 0.0722972 0.204334
0.0363928 0.0560769 0.0489967
0.0363928 0.0561837 0.0490425
0.0363928 0.0563363 0.0491798
0.0363622 0.0561532 0.0491035
0.0365606 0.0556954 0.0488746
0.0371405 0.0547799 0.0484169
0.0378729 0.0538186 0.0481117
0.0398108 0.0528878 0.0481117
0.044419 0.0533608 0.0491951
0.0526436 0.0537423 0.0505989
0.0633249 0.0531014 0.0497749
0.0765698 0.0525368 0.0494545
0.0927596 0.0510414 0.048249
0.114153 0.0493324 0.0472572
0.140459 0.0475776 0.0469215
0.16788 0.045655 0.046479
0.198596 0.0442969 0.0470741
0.230991 0.0430304 0.047837
0.264698 0.0419318 0.0486305
0.300389 0.0414588 0.0506752
0.336889 0.0415351 0.0541085
0.374044 0.0417334 0.0573281
0.410224 0.0413825 0.0625467
0.446418 0.04094 0.0674144
0.477455 0.0406653 0.072755
0.504707 0.0415656 0.0796521
0.530678 0.0444343 0.0878157
0.554482 0.0478828 0.0972763
0.576776 0.0519112 0.108095
0.598688 0.0566567 0.12018
0.617273 0.0612345 0.130068
0.631586 0.0652781 0.1364
0.642588 0.0684672 0.142916
0.646876 0.0691539 0.150622
0.649882 0.0695964 0.157366
0.65275 0.0699626 0.164065
0.654963 0.070222 0.16968
0.657481 0.0705272 0.175769
0.659175 0.0707866 0.180026
0.66038 0.0709697 0.183078
0.661433 0.0711681 0.185641
0.662165 0.0712749 0.187518
0.662821 0.0714122 0.188922
0.663523 0.0715648 0.190448
0.664149 0.0717021 0.191867
0.664637 0.0718395 0.192981
0.66508 0.0719463 0.193942
0.665431 0.0720378 0.194553
0.665736 0.0721141 0.195117
0.66601 0.0721904 0.195682
0.666209 0.0722667 0.196017
0.666346 0.0723583 0.19617
0.666438 0.0724498 0.196109
0.666468 0.0725414 0.19585
0.666484 0.0726635 0.195468
0.666423 0.0727703 0.194903
0.666377 0.0728618 0.194491
0.666331 0.0729229 0.194064
0.666239 0.0729686 0.193622
0.666239 0.0729686 0.193606
0.66627 0.0728771 0.193927
0.666331 0.0727398 0.194568
0.666484 0.0725109 0.195605
0.666667 0.072221 0.19707
0.666896 0.0718547 0.198886
0.037995 0.0650797 0.0526741
0.0379797 0.0653239 0.0527504
0.0379492 0.0654002 0.0527962
0.0378729 0.0653544 0.052781
0.0378271 0.0649271 0.0525063
0.0387427 0.0638743 0.0522011
0.040177 0.0625772 0.0519112
0.0421302 0.060853 0.0513924
0.0471351 0.0603647 0.0513161
0.0550393 0.0608225 0.0522774
0.0650645 0.0610971 0.0528572
0.0780041 0.0608225 0.0531319
0.0931868 0.0596628 0.0520638
0.114199 0.0576638 0.0505074
0.138445 0.0544137 0.0483558
0.165209 0.0510109 0.0472114
0.194675 0.0479438 0.0463264
0.22623 0.0461128 0.0472572
0.259724 0.0444038 0.0477913
0.295644 0.0435645 0.0493019
0.333516 0.0436561 0.0526894
0.370901 0.0434577 0.0561837
0.408545 0.0430762 0.0618753
0.445136 0.0424506 0.0665141
0.476738 0.0421454 0.0718547
0.504372 0.0421912 0.0789654
0.529778 0.0443427 0.087129
0.553414 0.0477913 0.0952468
0.574426 0.0517586 0.102953
0.593805 0.0559396 0.11136
0.615488 0.0589609 0.131472
0.629801 0.0628214 0.138796
0.639735 0.0657206 0.143954
0.643641 0.0665751 0.149294
0.64654 0.0672313 0.154238
0.649439 0.0677043 0.160342
0.651972 0.0682994 0.165698
0.654124 0.068864 0.170382
0.655924 0.0694133 0.174151
0.657664 0.0698558 0.177859
0.658885 0.070222 0.180636
0.659754 0.0705425 0.182467
0.660594 0.0708476 0.184054
0.66125 0.0710765 0.185321
0.661784 0.0712139 0.186557
0.662272 0.0712596 0.187854
0.662669 0.0713512 0.188678
0.66305 0.0714122 0.189563
0.663462 0.0714885 0.190478
0.663752 0.0715648 0.191104
0.663966 0.0716411 0.191531
0.664149 0.0717327 0.191806
0.664225 0.071809 0.191791
0.664302 0.0719158 0.191699
0.664271 0.0720226 0.191257
0.664195 0.0721294 0.190661
0.664103 0.0722362 0.189975
0.663951 0.0723278 0.189258
0.663828 0.0723735 0.188754
0.663676 0.0723735 0.188312
0.663539 0.0723583 0.187961
0.663355 0.0722972 0.18764
0.663157 0.0721904 0.187396
0.663005 0.0720378 0.187411
0.66273 0.0718547 0.187228
0.0390173 0.0759442 0.055375
0.0390021 0.076112 0.0552987
0.0390021 0.076463 0.055375
0.0389715 0.0763561 0.0553292
0.0388952 0.0760357 0.0552529
0.0392767 0.0754864 0.0551308
0.0413214 0.07393 0.0549783
0.0439765 0.0723278 0.0549783
0.0475319 0.0707103 0.0546426
0.0558938 0.0705119 0.0542153
0.0668803 0.0713054 0.0546578
0.0787976 0.0714122 0.0557107
0.0954299 0.0711528 0.0558175
0.115816 0.0690776 0.0541085
0.140749 0.0665904 0.0520027
0.16733 0.0632334 0.049073
0.196582 0.0582895 0.0465705
0.226001 0.0542153 0.0462196
0.256565 0.0495003 0.0454261
0.292012 0.0474556 0.0471656
0.329168 0.0462501 0.049958
0.367163 0.0457923 0.0540322
0.405402 0.045182 0.0588693
0.441932 0.0445258 0.0636454
0.475547 0.0442054 0.0698405
0.5037 0.0440375 0.0768597
0.528771 0.0446021 0.0854658
0.552728 0.0475624 0.0946365
0.574441 0.0513924 0.103853
0.594491 0.0554208 0.113497
0.611917 0.0594339 0.122652
0.625742 0.062974 0.129793
0.634333 0.0651408 0.134249
0.637613 0.0657054 0.139086
0.639841 0.0660716 0.142672
0.642313 0.0665446 0.146624
0.644724 0.0670481 0.150729
0.647211 0.0677653 0.154818
0.649195 0.0682841 0.158618
0.651133 0.068864 0.162417
0.652873 0.0693523 0.16585
0.654185 0.0697185 0.168673
0.655604 0.0700694 0.171679
0.65687 0.0702983 0.174624
0.657694 0.0704509 0.176761
0.658503 0.070573 0.17879
0.659022 0.070634 0.180224
0.659739 0.0707408 0.181949
0.660166 0.0708019 0.183032
0.660471 0.0708476 0.183841
0.66096 0.0709544 0.184771
0.661158 0.070985 0.185214
0.661357 0.071046 0.185595
0.661433 0.071107 0.185657
0.661448 0.0711833 0.185489
0.661418 0.0712596 0.185168
0.661311 0.0713359 0.184558
0.661158 0.0714427 0.183825
0.660945 0.071519 0.18294
0.660685 0.0715496 0.182147
0.660441 0.0715648 0.181415
0.660121 0.0715343 0.180621
0.659831 0.0714427 0.180041
0.659464 0.0713207 0.179416
0.658778 0.0711223 0.178042
0.0397192 0.0890364 0.0584115
0.0397498 0.0895247 0.05832
0.0397345 0.0898604 0.0583505
0.0397192 0.0899825 0.0583658
0.0396277 0.0897993 0.0582742
0.0395514 0.0890516 0.0580606
0.0409857 0.0880903 0.0577707
0.0441138 0.0861982 0.0576486
0.0477302 0.0841688 0.0575113
0.0543679 0.08336 0.0573587
0.0656596 0.0833295 0.0564889
0.0804608 0.0836194 0.0569924
0.0965286 0.0834821 0.0576486
0.118715 0.0829786 0.0580301
0.143969 0.0803082 0.0568246
0.171359 0.0768597 0.0545968
0.200366 0.0731365 0.0515908
0.229145 0.0684215 0.0478218
0.261646 0.0624857 0.0446937
0.294606 0.0570535 0.0449836
0.329 0.0518196 0.0473487
0.36527 0.0495003 0.0517586
0.401785 0.0475471 0.0570687
0.439277 0.0467842 0.0624247
0.473289 0.0462501 0.0683299
0.502953 0.0459907 0.075761
0.528313 0.0457465 0.0840009
0.551156 0.047425 0.0932631
0.573648 0.0512551 0.102953
0.593912 0.0553445 0.112596
0.612055 0.0594949 0.122225
0.626749 0.0632486 0.130053
0.635325 0.0655222 0.133959
0.636042 0.0655528 0.134783
0.635401 0.0652018 0.135073
0.636469 0.0653544 0.137255
0.637873 0.0657359 0.139406
0.639445 0.0663005 0.141207
0.641169 0.0669261 0.143252
0.642786 0.0674449 0.145418
0.644587 0.0680552 0.147997
0.646311 0.0684825 0.151095
0.6477 0.0688029 0.153689
0.649012 0.0691386 0.156268
0.650324 0.0694285 0.15906
0.651392 0.0695964 0.161456
0.652338 0.0697337 0.163699
0.653117 0.0698558 0.165469
0.653666 0.0699321 0.166796
0.653986 0.0699626 0.167773
0.655436 0.070222 0.170504
0.655802 0.0702373 0.171466
0.65597 0.0702525 0.171969
0.656046 0.0702831 0.172152
0.656138 0.0703288 0.17232
0.656046 0.0703746 0.171984
0.655985 0.0704356 0.171633
0.655711 0.0704967 0.170672
0.65536 0.0705425 0.169665
0.654978 0.0706188 0.168383
0.654429 0.0706493 0.16672
0.653864 0.070634 0.165209
0.65304 0.0704967 0.163394
0.652201 0.0703136 0.161608
0.650858 0.0700389 0.158907
0.0395361 0.104601 0.0606699
0.0394751 0.105028 0.0601053
0.0394141 0.10576 0.0599374
0.0393835 0.106065 0.0599374
0.0393835 0.105699 0.0598917
0.0393835 0.105455 0.0598611
0.0398871 0.104601 0.0598459
0.0430304 0.103014 0.0598306
0.0469062 0.101259 0.059556
0.0522316 0.0987106 0.0593881
0.0627298 0.0990158 0.0590677
0.0779431 0.0985733 0.0577096
0.0966659 0.0982071 0.0582132
0.119417 0.0990005 0.0594034
0.145876 0.0976272 0.0599527
0.175189 0.0945296 0.0599985
0.205127 0.0898146 0.0580148
0.235981 0.0848249 0.0547494
0.268772 0.0792706 0.0514382
0.301381 0.0729381 0.0481422
0.336019 0.065156 0.0457465
0.369924 0.0583658 0.0496376
0.402762 0.0528267 0.053666
0.437964 0.0504616 0.0601511
0.470741 0.0486763 0.0664073
0.501717 0.048127 0.0737011
0.527672 0.047837 0.0825055
0.549767 0.0477607 0.09131
0.57203 0.0509804 0.101228
0.59321 0.0552682 0.111315
0.611841 0.0595254 0.121218
0.627237 0.0634012 0.129702
0.637598 0.0661936 0.135164
0.639704 0.0666514 0.13666
0.638956 0.0662852 0.136828
0.638086 0.06598 0.136538
0.637034 0.0657664 0.135653
0.63592 0.0656748 0.134203
0.635599 0.0658579 0.133562
0.636255 0.0662547 0.13402
0.636973 0.0666209 0.134768
0.637675 0.0669718 0.135393
0.638636 0.0673381 0.136645
0.639735 0.067628 0.138262
0.640665 0.0677806 0.139803
0.641764 0.0679942 0.141604
0.642817 0.0682078 0.143481
0.643641 0.0683909 0.145037
0.644556 0.0685588 0.146731
0.645243 0.0686503 0.148211
0.645853 0.0686961 0.149493
0.646113 0.0687266 0.150042
0.646326 0.0687419 0.150484
0.646601 0.0687724 0.151064
0.646662 0.0687877 0.151171
0.646769 0.0688487 0.151354
0.646601 0.068864 0.150835
0.64625 0.0688945 0.149889
0.645914 0.0689555 0.148913
0.645289 0.0689708 0.147387
0.644648 0.068986 0.145846
0.643595 0.0689097 0.143481
0.642359 0.0687114 0.140856
0.641169 0.0684825 0.138476
0.639979 0.0682231 0.136614
0.0390173 0.124804 0.0629282
0.038941 0.125292 0.0620737
0.0388647 0.126253 0.0615549
0.0388495 0.126406 0.0615091
0.0388342 0.12639 0.0614939
0.0388495 0.125856 0.0614481
0.03888 0.125322 0.0614176
0.0407721 0.124224 0.0614481
0.0450141 0.122286 0.061265
0.0504463 0.120089 0.0612345
0.0589761 0.118196 0.0611582
0.0728313 0.118044 0.0598917
0.0929427 0.117983 0.0584573
0.118135 0.11693 0.058732
0.145693 0.117571 0.0598154
0.175586 0.116152 0.0610513
0.209064 0.112459 0.062974
0.241993 0.107927 0.0617838
0.276463 0.100877 0.0589761
0.311406 0.0937667 0.05626
0.345846 0.085771 0.053666
0.379736 0.0775616 0.0516365
0.412741 0.0680705 0.0525978
0.444022 0.0602121 0.056733
0.47303 0.0540932 0.062501
0.50106 0.0516976 0.0706035
0.526329 0.0502022 0.0797436
0.548959 0.0497749 0.0888838
0.570245 0.050721 0.0985122
0.591897 0.0551308 0.109102
0.611032 0.0594797 0.119432
0.627436 0.0635233 0.128908
0.639277 0.0666972 0.13576
0.643214 0.0675669 0.138598
0.642725 0.0672007 0.139178
0.642206 0.0669718 0.139422
0.641459 0.0668193 0.138964
0.640436 0.0667277 0.137835
0.639353 0.0666667 0.136294
0.638193 0.0666819 0.134432
0.63714 0.0666667 0.132815
0.636194 0.0666819 0.131319
0.635355 0.0666514 0.129961
0.634958 0.0667124 0.129366
0.635065 0.0668193 0.129458
0.63534 0.0669108 0.129854
0.635798 0.0670024 0.130648
0.636225 0.0670787 0.131426
0.636606 0.067155 0.132097
0.636851 0.0672007 0.13254
0.637049 0.0672313 0.132891
0.637186 0.0672618 0.133089
0.637385 0.0673075 0.133394
0.637476 0.0673228 0.133577
0.637598 0.0673533 0.133806
0.637583 0.0673533 0.133761
0.637476 0.0673533 0.133471
0.637308 0.0673686 0.133089
0.636957 0.0673533 0.132372
0.636561 0.0673381 0.131563
0.635996 0.0672923 0.130358
0.635233 0.067216 0.128908
0.634424 0.0671092 0.127535
0.633799 0.0670329 0.126268
0.634577 0.0672313 0.126711
0.0379644 0.147601 0.0642405
0.0379644 0.148577 0.0635538
