bundles/resolve-cinematic-luts/Phantom Luts/Komodo Phantom ARRI LUTs G2/Komodo Phantom ARRI LUTs G2/65x/Standard (No WB Offset)/IceBlue_Komodo_Legacy_G2_65x.cube
TITLE "Generated by Resolve"
LUT_3D_SIZE 65
0.0479744 0.0596017 0.0634623
0.0479744 0.0596017 0.0634623
0.0479744 0.0596017 0.0634775
0.0479744 0.0596017 0.0634775
0.048249 0.0595865 0.0634775
0.0494545 0.0595407 0.0636149
0.0536202 0.0595254 0.0644388
0.0577249 0.0592966 0.0645457
0.0625315 0.0588693 0.0637675
0.0685435 0.0587167 0.0636912
0.0758068 0.0585489 0.0636912
0.0847181 0.0582589 0.0638437
0.0950332 0.0575113 0.0636759
0.107942 0.0569467 0.0640116
0.124254 0.0564431 0.0643473
0.143557 0.0556191 0.0648508
0.165164 0.0552071 0.0660105
0.188342 0.0546273 0.0666056
0.214191 0.05449 0.0680247
0.242161 0.0543526 0.0693675
0.27361 0.0547036 0.0710155
0.307393 0.055375 0.0734264
0.342718 0.0558633 0.0770428
0.381216 0.0565347 0.081239
0.420981 0.0572671 0.086305
0.459998 0.0580148 0.0913863
0.497688 0.0594492 0.0990921
0.528695 0.0611276 0.106416
0.555917 0.0631418 0.114015
0.579507 0.0653391 0.122118
0.598733 0.0667582 0.129274
0.618479 0.0733196 0.13666
0.638086 0.0817578 0.146136
0.646479 0.0840162 0.152819
0.648219 0.084184 0.156497
0.649882 0.0842298 0.160082
0.651408 0.0842145 0.163638
0.652811 0.0843519 0.166629
0.654246 0.0844282 0.169879
0.655451 0.084535 0.172625
0.656611 0.0846418 0.175326
0.657649 0.0847791 0.177584
0.658534 0.0849928 0.179294
0.659297 0.0852064 0.180621
0.659754 0.0853895 0.181201
0.660288 0.0855879 0.182101
0.660716 0.0857862 0.18262
0.661051 0.0859541 0.183001
0.660258 0.0845502 0.182956
0.654475 0.0770733 0.180484
0.654841 0.0772564 0.180987
0.655177 0.0773938 0.181445
0.655375 0.0773938 0.181903
0.65565 0.0774853 0.182406
0.655879 0.0775616 0.182818
0.656092 0.0776226 0.183215
0.65626 0.0776837 0.183474
0.656397 0.0777447 0.183688
0.656519 0.0777752 0.183841
0.656703 0.0777752 0.184314
0.656931 0.0777142 0.185138
0.657237 0.0775921 0.186267
0.657572 0.0774243 0.187747
0.657969 0.0772106 0.189487
0.658473 0.076936 0.191806
0.0481117 0.0594797 0.0630808
0.0480812 0.0595102 0.0632029
0.0480507 0.059556 0.0632944
0.0480201 0.0595712 0.0633555
0.0480659 0.0595865 0.0634012
0.0489204 0.059556 0.0635386
0.0528267 0.0595407 0.0643168
0.057145 0.0593729 0.0646677
0.0620584 0.0588998 0.0638132
0.0681621 0.0587472 0.0637675
0.0757305 0.0585641 0.0638437
0.0849317 0.0582284 0.0639963
0.0957656 0.0574655 0.0639658
0.108507 0.0568856 0.0643168
0.125734 0.0563058 0.0645151
0.145251 0.0553445 0.0647898
0.166552 0.0548257 0.0658732
0.190646 0.0542 0.0666056
0.216556 0.0539864 0.0681621
0.245716 0.0536812 0.069688
0.277562 0.0540169 0.071397
0.311131 0.0547799 0.0739147
0.348089 0.0551461 0.0779583
0.385977 0.0557412 0.0824598
0.426749 0.0563973 0.087953
0.466331 0.0572518 0.0941482
0.501839 0.0585794 0.101472
0.532601 0.0603189 0.109071
0.558465 0.0622721 0.115831
0.583078 0.0646372 0.125368
0.601572 0.066041 0.132158
0.622019 0.0746777 0.139284
0.641199 0.0821241 0.149706
0.646723 0.0834974 0.154864
0.648447 0.0836805 0.158495
0.650034 0.0838331 0.161776
0.651453 0.0838331 0.165057
0.652811 0.0840009 0.16788
0.654047 0.0841382 0.17052
0.655238 0.0842908 0.173068
0.656214 0.0844282 0.175265
0.657176 0.0845808 0.177279
0.658076 0.0847944 0.178958
0.658885 0.0850385 0.180316
0.659281 0.0852064 0.180743
0.659709 0.0853742 0.181399
0.660182 0.0855726 0.181994
0.660548 0.0857862 0.182345
0.66331 0.0894026 0.183627
0.659098 0.0835431 0.181811
0.659403 0.0836957 0.182162
0.659663 0.0838178 0.182498
0.654444 0.0770886 0.180255
0.654719 0.0771954 0.180682
0.654932 0.0772564 0.181064
0.655146 0.0773175 0.18146
0.655299 0.0773632 0.181735
0.655451 0.077409 0.182025
0.655573 0.0774548 0.182254
0.655772 0.0774395 0.182788
0.655985 0.0773785 0.18349
0.656291 0.0772717 0.184604
0.656672 0.0770886 0.186114
0.657099 0.0768597 0.187991
0.657588 0.076585 0.190127
0.0481117 0.0594797 0.0630961
0.0480812 0.0595102 0.0632029
0.0480507 0.059556 0.0632944
0.0480201 0.0595712 0.0633707
0.0480049 0.0595865 0.0634012
0.0484779 0.0596017 0.0634775
0.0520027 0.0595712 0.0641184
0.0565957 0.0594339 0.0646982
0.0614939 0.0589914 0.063859
0.0677501 0.0588083 0.0637675
0.0754253 0.0586099 0.063859
0.0849012 0.0582437 0.0639963
0.0959487 0.0574502 0.0640116
0.108934 0.0568704 0.0643931
0.126986 0.0562905 0.064683
0.146334 0.055314 0.0649424
0.168338 0.0547646 0.0658122
0.191882 0.0540169 0.0662089
0.218372 0.0537575 0.0674907
0.247517 0.0533913 0.0689708
0.279652 0.0534981 0.0706188
0.314199 0.0540322 0.0731518
0.35082 0.0545663 0.076936
0.390097 0.0551308 0.0818647
0.430961 0.0556954 0.0873579
0.470848 0.0565957 0.0942397
0.505928 0.0580301 0.102068
0.535134 0.0597238 0.109499
0.561349 0.0617685 0.116548
0.584482 0.0639658 0.125017
0.602472 0.0654002 0.131609
0.624872 0.0762341 0.140002
0.642863 0.0825971 0.149996
0.646342 0.083299 0.154421
0.64802 0.0834974 0.158007
0.649622 0.083711 0.161135
0.651057 0.0837415 0.16437
0.652384 0.0838483 0.167178
0.653544 0.0840162 0.169589
0.654734 0.0841688 0.172061
0.65568 0.0843214 0.174151
0.656626 0.0844739 0.176196
0.65745 0.0846265 0.177829
0.658198 0.0848096 0.179156
0.658869 0.0850233 0.180301
0.659358 0.0852064 0.181018
0.659678 0.085359 0.181369
0.659998 0.0855421 0.181643
0.660273 0.0857252 0.181796
0.660517 0.0858778 0.181918
0.6607 0.0859846 0.182055
0.660838 0.0860914 0.182101
0.657176 0.0814069 0.180316
0.657374 0.0814984 0.180529
0.657557 0.0815747 0.180819
0.657725 0.0816205 0.181125
0.657877 0.081651 0.181415
0.657984 0.0816815 0.181613
0.658106 0.0817121 0.181827
0.658274 0.0816815 0.182315
0.658503 0.08159 0.183124
0.658793 0.0814527 0.184192
0.659129 0.0812695 0.18555
0.659556 0.0810254 0.18732
0.660044 0.0807202 0.189548
0.0481117 0.0594797 0.0630961
0.0480812 0.0595102 0.0632029
0.0480354 0.059556 0.0633097
0.0480201 0.0595712 0.0633707
0.0480049 0.0595865 0.0634012
0.0481575 0.059617 0.063447
0.0506447 0.0596475 0.0638132
0.0553597 0.0596323 0.0646982
0.0603494 0.0591897 0.0639658
0.0662547 0.0590372 0.0638132
0.0740368 0.058854 0.0638132
0.0832837 0.0585031 0.0639353
0.094728 0.0576944 0.06392
0.10782 0.0570535 0.0643473
0.12604 0.0564584 0.0646982
0.145998 0.055436 0.0648814
0.167895 0.0548562 0.0657664
0.191913 0.0540017 0.0659953
0.218479 0.0536355 0.0669718
0.246769 0.0531472 0.0680247
0.278782 0.0530251 0.0693217
0.313176 0.0534066 0.0710765
0.350713 0.0537728 0.0744182
0.390372 0.0543526 0.0791638
0.431159 0.054963 0.0852522
0.471565 0.0556802 0.0921492
0.505989 0.0571145 0.0998245
0.535805 0.0590219 0.107973
0.5617 0.0610971 0.115404
0.584329 0.0631418 0.123369
0.604868 0.0679484 0.130785
0.625116 0.0768139 0.138369
0.642542 0.0826276 0.14786
0.645579 0.0831311 0.153002
0.647135 0.0832837 0.156435
0.648753 0.0834974 0.159686
0.650233 0.0836805 0.162661
0.651514 0.0836957 0.165576
0.652735 0.0838483 0.168093
0.653803 0.0840009 0.170275
0.654871 0.0841688 0.172427
0.655726 0.0843061 0.174289
0.656519 0.0844587 0.175967
0.657282 0.084596 0.177508
0.657969 0.0847486 0.17879
0.658518 0.0849012 0.179706
0.658915 0.0850843 0.180285
0.659236 0.0852216 0.180621
0.659495 0.0853895 0.180819
0.659709 0.0855421 0.180865
0.659846 0.0857099 0.180758
0.659968 0.0858473 0.180652
0.660075 0.0859541 0.180545
0.660182 0.0860456 0.18056
0.660288 0.0861067 0.180636
0.660365 0.0861524 0.180743
0.660456 0.0861677 0.180896
0.660548 0.0861677 0.181079
0.660609 0.086183 0.181201
0.660746 0.0861372 0.181613
0.660929 0.0860304 0.182345
0.661204 0.0858778 0.183398
0.661524 0.0856641 0.184787
0.661891 0.08542 0.186313
0.662364 0.0850843 0.188434
0.0481117 0.0594797 0.0630961
0.0480812 0.0595102 0.0632029
0.0480354 0.059556 0.0633097
0.0480049 0.0595712 0.0633707
0.0479896 0.0595865 0.0634165
0.0480201 0.0596017 0.063447
0.0491035 0.0597238 0.0635843
0.0532998 0.0599832 0.0644999
0.0581216 0.0596475 0.0644846
0.0642405 0.0594034 0.0639048
0.0716259 0.0593423 0.0638437
0.0805982 0.0590219 0.063798
0.0922713 0.0582437 0.0637064
0.105348 0.0575875 0.0641794
0.123445 0.0569619 0.0647746
0.143526 0.0558938 0.064683
0.166293 0.0552071 0.0656291
0.190906 0.0542611 0.0658885
0.21735 0.0538491 0.0668803
0.245914 0.053193 0.0675822
0.277012 0.0528878 0.0684062
0.311223 0.0531014 0.0696117
0.348363 0.0532235 0.0719921
0.387945 0.0534218 0.0758068
0.42945 0.0539406 0.0814221
0.469703 0.0547646 0.0884565
0.505058 0.0559701 0.0964981
0.534722 0.0578775 0.105089
0.560647 0.0600137 0.113329
0.583398 0.0621042 0.121096
0.607996 0.0723278 0.130373
0.624582 0.077409 0.135531
0.640543 0.0821088 0.144289
0.644175 0.0829023 0.150164
0.646021 0.0830396 0.154314
0.647578 0.0831922 0.157794
0.649088 0.0834211 0.160601
0.650462 0.0835889 0.163409
0.651621 0.08365 0.165927
0.65272 0.0837873 0.168231
0.653681 0.0839399 0.170184
0.654612 0.0840925 0.17203
0.655406 0.0842451 0.173648
0.656077 0.0843824 0.175021
0.656733 0.0844892 0.176379
0.657282 0.0846113 0.177462
0.657755 0.0847334 0.178317
0.658167 0.0848859 0.178882
0.658473 0.0850385 0.179232
0.658656 0.0852064 0.179248
0.658763 0.0853437 0.17911
0.658808 0.085481 0.17882
0.658839 0.0856031 0.178531
0.6589 0.0857252 0.178363
0.658976 0.0858015 0.178302
0.659052 0.0858778 0.178286
0.659113 0.0859236 0.178286
0.65919 0.0859541 0.178378
0.659266 0.0859541 0.178515
0.659388 0.0859083 0.178897
0.659556 0.0858167 0.179477
0.65977 0.0856641 0.180392
0.660075 0.0854353 0.181689
0.660426 0.0851759 0.183276
0.660838 0.0848402 0.185183
0.048188 0.0598459 0.0631571
0.048127 0.0598611 0.0632486
0.0480812 0.0598764 0.0633402
0.0480812 0.0598306 0.0634165
0.0481117 0.0597696 0.0634775
0.0480964 0.0597086 0.063508
0.0482643 0.0597391 0.0635386
0.0511177 0.0601816 0.0640726
0.0557565 0.0601205 0.0647135
0.0614633 0.0599527 0.064271
0.0687266 0.0598917 0.0639658
0.0773785 0.059678 0.0638285
0.0886091 0.0590066 0.0635843
0.101961 0.058381 0.0639963
0.119692 0.0577249 0.0646067
0.140261 0.0566262 0.0646677
0.16321 0.0559701 0.0654307
0.188006 0.054963 0.0657054
0.215228 0.05449 0.0665599
0.24361 0.0538033 0.0673228
0.275837 0.0534218 0.0682689
0.310094 0.0534371 0.0692454
0.346014 0.053254 0.0708171
0.385336 0.0530709 0.0732128
0.425635 0.0529946 0.0773632
0.466331 0.0535592 0.0835737
0.502647 0.0548104 0.0918441
0.532158 0.0566415 0.100801
0.558465 0.0586099 0.109255
0.581018 0.0609598 0.117113
0.60737 0.0724804 0.127337
0.623163 0.0770886 0.132097
0.638148 0.0814832 0.140246
0.641245 0.0821241 0.145495
0.644495 0.0827649 0.151186
0.64622 0.0828717 0.155184
0.647654 0.0830396 0.158389
0.649058 0.0832837 0.160922
0.650309 0.0834974 0.163378
0.651377 0.0835584 0.165637
0.652323 0.08365 0.167605
0.653178 0.0838178 0.169299
0.654002 0.0839704 0.170886
0.654688 0.0841077 0.172152
0.655329 0.0842145 0.173465
0.655818 0.0843366 0.174472
0.656306 0.0844282 0.175418
0.656687 0.084535 0.176104
0.657008 0.0846571 0.176562
0.657252 0.0847791 0.176822
0.657404 0.0849012 0.176883
0.657511 0.0850385 0.176761
0.657557 0.0851911 0.176425
0.657603 0.0853285 0.17612
0.657649 0.0854353 0.175906
0.657694 0.0855268 0.175738
0.65771 0.0855879 0.175586
0.65771 0.0856336 0.175448
0.65774 0.0856489 0.175402
0.657847 0.0856031 0.175769
0.657969 0.085481 0.176379
0.658183 0.0853132 0.17734
0.658412 0.0850843 0.178546
0.658686 0.0848249 0.179904
0.659068 0.0844739 0.181827
0.0487221 0.0616922 0.0637675
0.0486763 0.0617533 0.0638285
0.0486458 0.061799 0.0639353
0.0486305 0.0617533 0.0639811
0.0487068 0.0614633 0.0639353
0.0489815 0.0610819 0.06392
0.0489052 0.0607614 0.06392
0.0502632 0.0609445 0.0641489
0.0540475 0.0610971 0.0647898
0.059266 0.0611124 0.0654154
0.0661021 0.0610513 0.0647135
0.0741283 0.0607767 0.0640116
0.0845655 0.0599374 0.063386
0.0982223 0.0593729 0.0636301
0.114748 0.0587778 0.0643778
0.136095 0.0576944 0.064332
0.15935 0.0569314 0.0652781
0.184695 0.0559854 0.0656291
0.211841 0.0554055 0.0661631
0.241016 0.0548104 0.0669261
0.274113 0.05449 0.0679789
0.308354 0.0544594 0.068864
0.344961 0.0539864 0.0705119
0.383841 0.0534829 0.0724193
0.423331 0.0529488 0.0751812
0.462791 0.0527962 0.079057
0.497887 0.053666 0.0856641
0.528069 0.0550851 0.0942855
0.554147 0.0570535 0.103304
0.579538 0.0617227 0.112886
0.605081 0.072221 0.122362
0.620798 0.0766003 0.127367
0.634821 0.0807813 0.134493
0.638346 0.0814069 0.140154
0.641016 0.0818799 0.145464
0.64419 0.082475 0.151141
0.645991 0.0826886 0.155001
0.647257 0.0828107 0.157855
0.648554 0.0830549 0.160388
0.649729 0.0832837 0.16257
0.650736 0.0834516 0.164492
0.651545 0.0835279 0.166079
0.652308 0.0836347 0.167636
0.652979 0.0837873 0.168856
0.653559 0.0838941 0.170001
0.654139 0.0839857 0.17116
0.654627 0.0840925 0.172061
0.655024 0.084184 0.172778
0.655329 0.0842756 0.173342
0.655528 0.0843824 0.173571
0.655695 0.0844892 0.173678
0.655802 0.0846113 0.173648
0.655848 0.0847334 0.173404
0.655863 0.0848707 0.173022
0.655833 0.0849928 0.172625
0.655833 0.0850843 0.172366
0.655802 0.0851606 0.172122
0.655787 0.0852216 0.171893
0.655741 0.0852522 0.171664
0.655787 0.0852216 0.171817
0.655909 0.0851148 0.172305
0.656046 0.084947 0.173037
0.656291 0.0847181 0.174182
0.65658 0.0844282 0.175601
0.656916 0.084062 0.177371
0.0495155 0.0656291 0.0644846
0.049485 0.0657054 0.0645457
0.0494698 0.0657816 0.0646677
0.0494392 0.0657054 0.064683
0.0495613 0.0654917 0.064622
0.0499733 0.0650339 0.0645151
0.0505684 0.0644388 0.0645151
0.052018 0.0638285 0.0646525
0.0548104 0.0641489 0.0653697
0.0588388 0.0644999 0.0665599
0.0650187 0.0639963 0.0664378
0.0721141 0.0632792 0.0654612
0.0816663 0.0623331 0.064622
0.0947127 0.0615854 0.0642557
0.109712 0.0605173 0.0638743
0.130602 0.059266 0.0641947
0.154467 0.0583658 0.0647898
0.180301 0.0574044 0.0654154
0.207904 0.0565194 0.0658885
0.238025 0.0560159 0.0667887
0.270954 0.055787 0.0678416
0.306111 0.0555581 0.0686351
0.342489 0.0550546 0.0702525
0.381857 0.0544442 0.0720989
0.421393 0.0538033 0.0745708
0.46038 0.0533303 0.0780652
0.495003 0.0535134 0.0823072
0.523171 0.0542306 0.088304
0.548531 0.0556954 0.095613
0.579126 0.0667277 0.10721
0.600748 0.0715496 0.115587
0.617212 0.0759899 0.121523
0.629602 0.0794842 0.127169
0.634195 0.0805219 0.133089
0.637079 0.0809186 0.138445
0.639979 0.0813764 0.143984
0.642237 0.0817578 0.148638
0.645106 0.0823529 0.153643
0.646555 0.0825055 0.156863
0.647608 0.0826734 0.159091
0.648661 0.0829175 0.160998
0.649577 0.0831311 0.16257
0.650385 0.08336 0.163958
0.651041 0.0834516 0.165179
0.651576 0.0835279 0.16614
0.652064 0.0835737 0.167193
0.652537 0.0836652 0.168078
0.652918 0.083772 0.168734
0.653239 0.0838483 0.169299
0.653529 0.0839246 0.169787
0.653727 0.0840162 0.170062
0.653864 0.0841077 0.170138
0.653956 0.0842145 0.170047
0.653971 0.0843366 0.169741
0.653956 0.0844587 0.169345
0.65388 0.0845808 0.168811
0.653788 0.0846723 0.168338
0.653727 0.0847639 0.167941
0.653635 0.0848096 0.167529
0.653635 0.0847791 0.167529
0.653681 0.0846876 0.167865
0.653819 0.0845197 0.168582
0.654002 0.0842756 0.169604
0.654231 0.0839704 0.170916
0.654505 0.0836042 0.172396
0.0505074 0.0698405 0.0659342
0.0504768 0.0699931 0.06598
0.0504311 0.0700542 0.066041
0.0503853 0.0700542 0.0660868
0.0503548 0.0698558 0.066041
0.0509499 0.0693828 0.06598
0.052079 0.0687877 0.065919
0.0533608 0.0681163 0.0659648
0.0561074 0.0676738 0.0658274
0.0600137 0.0679484 0.0666056
0.0657969 0.0679942 0.0678721
0.073167 0.0679179 0.0680705
0.0818799 0.0673686 0.0673075
0.0943618 0.0664378 0.0661784
0.108232 0.0647593 0.0648814
0.128283 0.0628519 0.0645914
0.150607 0.0608377 0.0637522
0.175753 0.0596628 0.0646525
0.203342 0.0581979 0.0652171
0.233677 0.0576791 0.0662699
0.267704 0.0574197 0.0673991
0.302678 0.0569314 0.0683452
0.340215 0.0562142 0.0700847
0.379934 0.0555276 0.0718853
0.419272 0.0548867 0.074052
0.459632 0.0543221 0.0776379
0.494453 0.0544137 0.0820935
0.522835 0.0548714 0.0871748
0.546212 0.0556039 0.0920272
0.574548 0.0661479 0.100786
0.59939 0.0691386 0.11873
0.615488 0.0732891 0.125154
0.626978 0.076463 0.130205
0.631235 0.0775006 0.134447
0.63415 0.0781262 0.138201
0.637247 0.0788586 0.143038
0.639735 0.0793774 0.147463
0.641932 0.0799573 0.151598
0.64387 0.0805829 0.154757
0.645838 0.0813306 0.15761
0.646845 0.0818036 0.159106
0.647349 0.0821088 0.159792
0.647974 0.082475 0.160388
0.648539 0.0827802 0.160983
0.649058 0.0830396 0.161517
0.649546 0.0832227 0.162234
0.650019 0.0833906 0.162966
0.650416 0.0834821 0.163622
0.650767 0.0835431 0.164248
0.65098 0.0835889 0.164614
0.651133 0.08365 0.164843
0.651255 0.083711 0.16492
0.651301 0.0837873 0.164782
0.651331 0.0838788 0.164584
0.65127 0.0839857 0.164157
0.651179 0.0841077 0.163592
0.651072 0.0842298 0.162982
0.650889 0.0843214 0.162341
0.650752 0.0843977 0.161807
0.650584 0.0844129 0.161349
0.650446 0.0843824 0.161074
0.650324 0.0843366 0.160922
0.650217 0.0842298 0.160922
0.650141 0.0840925 0.161105
0.649989 0.0839246 0.161212
0.0519112 0.0755322 0.0679789
0.0518959 0.0756237 0.0678874
0.0518654 0.0757916 0.0679332
0.0518502 0.0757763 0.0679484
0.0518502 0.0756847 0.0679789
0.0521096 0.0754253 0.0679637
0.0534676 0.0746777 0.0679179
0.0551461 0.0738384 0.0678874
0.0571603 0.0729229 0.067689
0.0614023 0.0727398 0.0677501
0.0666056 0.0729686 0.0681163
0.073518 0.0731975 0.0690166
0.0831464 0.0732738 0.0695964
0.0954757 0.0722515 0.0690776
0.109255 0.071107 0.0677348
0.129503 0.0693828 0.0665141
0.152148 0.0670024 0.0645304
0.175174 0.0645914 0.0636606
0.200763 0.0618143 0.0636454
0.229541 0.0602426 0.0640879
0.262989 0.0594034 0.0657664
0.298711 0.0586709 0.0669871
0.336736 0.0578317 0.0685893
0.37612 0.0570077 0.0700847
0.41677 0.0563516 0.0724804
0.45742 0.0557107 0.0762036
0.493462 0.0554513 0.0809796
0.522835 0.0557565 0.0871138
0.547051 0.0561837 0.0933394
0.5738 0.0634012 0.102358
0.595743 0.069688 0.111131
0.611322 0.0733349 0.117662
0.621561 0.0758526 0.122545
0.62501 0.0764019 0.126421
0.627344 0.0767681 0.129717
0.630106 0.0773938 0.132998
0.63238 0.077821 0.135958
0.634958 0.0786145 0.139147
0.637263 0.0793317 0.142443
0.639002 0.0798505 0.145129
0.64065 0.0804303 0.147707
0.641917 0.0808728 0.149889
0.643427 0.0813916 0.152071
0.644831 0.0818799 0.154131
0.645518 0.0820935 0.155413
0.646189 0.0822156 0.156847
0.646647 0.0822461 0.157885
0.647272 0.0823224 0.159136
0.647593 0.0823987 0.159731
0.647868 0.0824598 0.160296
0.648371 0.0825666 0.161105
0.648569 0.0826429 0.161364
0.648737 0.0827192 0.161547
0.648798 0.0827955 0.161471
0.648783 0.082887 0.161212
0.648737 0.0829786 0.160845
0.648585 0.0830854 0.16022
0.648432 0.0831769 0.159655
0.648188 0.0832532 0.158892
0.647913 0.0832837 0.158175
0.647669 0.0832685 0.157656
0.647379 0.0832074 0.157107
0.647105 0.0831006 0.156695
0.646784 0.0829328 0.156298
0.646235 0.0827497 0.155596
0.0527352 0.0827649 0.0699168
0.0528115 0.0830091 0.0699321
0.0528572 0.0831922 0.0700236
0.0528572 0.0832532 0.0700542
0.0527504 0.0831617 0.0699626
0.0525673 0.0827802 0.0697185
0.0536049 0.0822309 0.0697185
0.0556802 0.0812238 0.0697185
0.0577707 0.0800793 0.0696574
0.0609293 0.0796521 0.0697337
0.0666209 0.0798199 0.069749
0.0741588 0.0797589 0.0696117
0.0838026 0.0799573 0.0708476
0.096788 0.0796826 0.0715953
0.111162 0.0785229 0.0711986
0.131594 0.0767529 0.0698863
0.153735 0.0746014 0.067689
0.177264 0.0722057 0.0651408
0.204227 0.0690776 0.0636301
0.231785 0.0662242 0.0637522
0.262058 0.0629435 0.0641642
0.296498 0.061326 0.0663615
0.332158 0.0596323 0.0677043
0.372412 0.0587015 0.0695048
0.412924 0.0578622 0.0717479
0.454749 0.0570535 0.0753796
0.492332 0.0566873 0.0801404
0.521401 0.056672 0.0862898
0.54725 0.0572366 0.0930037
0.569268 0.0583047 0.100267
0.595941 0.0697948 0.11078
0.612833 0.0737469 0.118151
0.622782 0.0761883 0.122469
0.623743 0.0762036 0.123598
0.623041 0.0757763 0.124102
0.624048 0.0759136 0.125719
0.625528 0.0763104 0.127596
0.627192 0.0768902 0.129152
0.629084 0.0776226 0.130587
0.630518 0.0782025 0.13167
0.632273 0.0788891 0.133165
0.633967 0.0794995 0.135119
0.635431 0.0800031 0.13727
0.636683 0.080354 0.139055
0.637751 0.0805982 0.140887
0.638788 0.0808423 0.142596
0.63978 0.0810101 0.144503
0.640589 0.0811627 0.14612
0.641077 0.0812543 0.147173
0.641337 0.0812848 0.147845
0.643107 0.0816663 0.150347
0.643549 0.0817426 0.151202
0.643748 0.0817731 0.151598
0.643839 0.0818189 0.151797
0.643931 0.0818952 0.151904
0.643824 0.0819409 0.151537
0.643732 0.0820172 0.151171
0.643397 0.0820783 0.150225
0.642939 0.0821393 0.149004
0.642466 0.0821698 0.14786
0.641825 0.0821241 0.146532
0.641199 0.0820478 0.145312
0.640375 0.0818647 0.143816
0.639521 0.0816663 0.142275
0.638193 0.0813153 0.14023
0.0533608 0.0919356 0.0721294
0.0533303 0.092195 0.0717021
0.0532845 0.0926375 0.0715648
0.0532387 0.0928054 0.0715343
0.053254 0.092607 0.0715496
0.0532387 0.0924697 0.0715343
0.0536202 0.0919814 0.071519
0.0557259 0.0911269 0.0716564
0.0582895 0.0900435 0.0717479
0.0604105 0.088716 0.071458
0.0653391 0.088716 0.0713512
0.073106 0.0885481 0.0709239
0.0838178 0.0885939 0.071397
0.0972915 0.0888533 0.0725109
0.112718 0.0885786 0.0737469
0.134401 0.0867323 0.0734417
0.156771 0.0842908 0.0720378
0.181689 0.081529 0.0701457
0.208774 0.0781415 0.0679179
0.235676 0.0743877 0.0650187
0.267964 0.0700389 0.0637369
0.299687 0.0665751 0.0652781
0.332311 0.0630198 0.0662242
0.370138 0.061387 0.0686809
0.408682 0.0596628 0.0708629
0.451438 0.0586099 0.0742962
0.489937 0.0580148 0.0791485
0.520272 0.0579995 0.0851606
0.546456 0.05832 0.0919661
0.56968 0.059556 0.0997635
0.595834 0.06981 0.110094
0.613489 0.073991 0.118059
0.62533 0.076997 0.123552
0.627894 0.0775158 0.125383
0.6271 0.0770428 0.125765
0.626123 0.0766308 0.12578
0.624979 0.0763409 0.12517
0.623911 0.0761883 0.124041
0.623514 0.0763409 0.1234
0.623972 0.0767987 0.123217
0.624613 0.0772412 0.123323
0.625269 0.0776684 0.123537
0.6262 0.0780957 0.124132
0.627237 0.0785229 0.12491
0.628153 0.0787976 0.125887
0.629053 0.078996 0.126909
0.63006 0.0792248 0.12813
0.630961 0.0794232 0.129335
0.631815 0.0796216 0.130556
0.632486 0.0797436 0.131655
0.633188 0.079881 0.13283
0.633539 0.0799268 0.13344
0.633799 0.0800031 0.133791
0.634104 0.0800641 0.134218
0.634195 0.0801099 0.13431
0.634318 0.0801862 0.134417
0.63415 0.0802167 0.13402
0.633768 0.0802167 0.133303
0.633402 0.0802625 0.132433
0.63267 0.0802472 0.130983
0.631907 0.0802014 0.129519
0.630854 0.0800488 0.127687
0.629664 0.0798047 0.125841
0.628473 0.0795453 0.123903
0.627436 0.0793317 0.122759
0.0534524 0.104295 0.0742351
0.0534066 0.10457 0.0735332
0.0533761 0.105135 0.0731365
0.0533608 0.105196 0.073106
0.0533303 0.105165 0.0730907
0.0533303 0.104799 0.0730449
0.0533303 0.104463 0.0729992
0.0545968 0.103853 0.0731518
0.057496 0.102678 0.0731975
0.0600443 0.101442 0.0730755
0.0640421 0.100282 0.0731975
0.0710765 0.100664 0.0732128
0.0819409 0.100633 0.0726024
0.0970474 0.100038 0.0728618
0.113115 0.100969 0.0747234
0.135592 0.100023 0.075288
0.160937 0.0980545 0.0760204
0.185992 0.0952163 0.0741131
0.21384 0.0910811 0.0723583
0.243305 0.0867933 0.0701915
0.274723 0.0816205 0.0678416
0.306752 0.0766461 0.0652171
0.340154 0.0713817 0.0649271
0.37499 0.067155 0.0670939
0.409628 0.0632181 0.0688792
0.448661 0.0611887 0.072282
0.48661 0.0596323 0.0776226
0.518318 0.0594949 0.0835889
0.545602 0.0596628 0.0907149
0.569024 0.0602884 0.0983444
0.593347 0.0675822 0.107927
0.61384 0.0741436 0.117433
0.62739 0.0776532 0.124132
0.631891 0.0786908 0.126879
0.631312 0.0782635 0.127443
0.630732 0.0780041 0.127657
0.629831 0.0778058 0.127337
0.628672 0.0776226 0.126421
0.627497 0.0775006 0.125032
0.626261 0.0774853 0.123369
0.624964 0.0774701 0.121675
0.623941 0.0774548 0.12018
0.622965 0.0774243 0.119036
0.622522 0.0774853 0.118364
0.622553 0.0776074 0.118181
0.622766 0.0777295 0.118318
0.623209 0.077821 0.118853
0.623636 0.0779278 0.119387
0.624002 0.0780194 0.119783
0.624262 0.0780652 0.120058
0.624445 0.0781109 0.120317
0.624582 0.0781262 0.1205
0.624781 0.078172 0.12079
0.624887 0.0782025 0.120928
0.624994 0.078233 0.12108
0.624979 0.0782483 0.121004
0.624842 0.0782483 0.120714
0.624659 0.0782635 0.120302
0.624292 0.0782635 0.119677
0.623865 0.0782483 0.11899
0.623255 0.0782025 0.117983
0.622461 0.0781109 0.116808
0.621637 0.0779889 0.115663
0.621103 0.0778668 0.11487
0.622003 0.0781109 0.115404
0.0534066 0.118364 0.076524
