bundles/resolve-cinematic-luts/Phantom Luts/Komodo Phantom ARRI LUTs G2/Komodo Phantom ARRI LUTs G2/65x/Standard (No WB Offset)/IceBlue_Komodo_G2_33x.cube
TITLE "Generated by Resolve"
LUT_3D_SIZE 9
0.0344244 0.0467231 0.0462654
0.0594644 0.0459754 0.0464942
0.211719 0.0396429 0.0496071
0.481697 0.044831 0.0951247
0.652247 0.0702373 0.169818
0.66891 0.0727398 0.20296
0.673289 0.0739452 0.212116
0.674876 0.0743267 0.215854
0.676585 0.0734264 0.224781
0.037995 0.0650797 0.0526741
0.0471351 0.0603647 0.0513161
0.194675 0.0479438 0.0463264
0.476738 0.0421454 0.0718547
0.639735 0.0657206 0.143954
0.658885 0.070222 0.180636
0.663462 0.0714885 0.190478
0.664103 0.0722362 0.189975
0.66273 0.0718547 0.187228
0.0353704 0.227573 0.0689403
0.0352178 0.229969 0.0628824
0.187472 0.22388 0.0531777
0.532433 0.197024 0.0985885
0.640406 0.0689403 0.116075
0.653422 0.0720073 0.135729
0.650202 0.0722362 0.130953
0.650095 0.0721752 0.131014
0.655741 0.0718395 0.138796
0.0532692 0.514199 0.130831
0.0570535 0.523064 0.111437
0.0738842 0.523232 0.0923629
0.503014 0.541482 0.097734
0.822003 0.603403 0.237888
0.870787 0.592828 0.260822
0.871153 0.570809 0.259464
0.871473 0.572366 0.259281
0.866102 0.621836 0.261341
0.223865 0.788266 0.306233
0.23827 0.796902 0.294286
0.280873 0.814496 0.277211
0.44889 0.813428 0.242679
0.857466 0.878279 0.365789
0.954467 0.892576 0.418891
0.953079 0.88983 0.41561
0.953918 0.892134 0.417731
0.959258 0.908507 0.433371
0.247181 0.841031 0.409384
0.246525 0.840986 0.407263
0.246876 0.840314 0.400427
0.247929 0.836866 0.373831
0.78146 0.893599 0.360891
0.970336 0.939559 0.471656
0.973159 0.940185 0.476692
0.971557 0.940322 0.480201
0.970855 0.940734 0.478126
0.246662 0.841474 0.411154
0.247181 0.841077 0.409491
0.24715 0.840269 0.402014
0.248157 0.839216 0.395315
0.742336 0.887968 0.345098
0.961898 0.938247 0.46183
0.971511 0.940902 0.474601
0.972656 0.94049 0.475212
0.972808 0.940414 0.475547
0.246677 0.841535 0.411734
0.247623 0.84126 0.409812
0.247395 0.840513 0.401389
0.2477 0.838621 0.385367
0.760525 0.891279 0.353185
0.962356 0.938704 0.464866
0.97203 0.940581 0.476219
0.971389 0.940703 0.476875
0.972702 0.940459 0.475395
0.246555 0.841703 0.412039
0.246769 0.841352 0.408453
0.247486 0.839902 0.397253
0.38819 0.848844 0.286534
0.878798 0.917067 0.409369
0.968429 0.941238 0.474632
0.970474 0.941207 0.474647
0.970901 0.941115 0.474296
0.970672 0.940993 0.476112
0.0312352 0.0476539 0.0699168
0.0597391 0.0469825 0.0725719
0.223789 0.0458534 0.0941787
0.498634 0.0485389 0.143267
0.666728 0.0702373 0.213062
0.681239 0.0727703 0.246311
0.683604 0.0737163 0.252155
0.684352 0.0740063 0.254093
0.685557 0.0738842 0.260182
0.0357671 0.0573892 0.0590066
0.0387121 0.0540322 0.0565499
0.208316 0.0409705 0.0589914
0.497719 0.0459449 0.118685
0.662852 0.0694438 0.197818
0.673533 0.0714427 0.223239
0.677607 0.0724193 0.233555
0.678508 0.0728771 0.234974
0.679164 0.0728313 0.237613
0.0350042 0.222705 0.103624
0.035111 0.225574 0.0785077
0.17583 0.218738 0.0531319
0.533379 0.175174 0.0978103
0.641566 0.0679026 0.128618
0.650065 0.0694438 0.141833
0.647852 0.0691234 0.140017
0.647684 0.0690623 0.139986
0.650996 0.069749 0.141848
0.052079 0.512978 0.165423
0.0552071 0.521248 0.145281
0.0590677 0.520882 0.0961624
0.497398 0.542184 0.097734
0.823621 0.601328 0.240238
0.869902 0.587777 0.260456
0.870497 0.564431 0.258381
0.870375 0.565713 0.257527
0.86746 0.616648 0.260441
0.21442 0.787335 0.330983
0.227283 0.795087 0.317693
0.273411 0.810941 0.277577
0.435462 0.814878 0.243153
0.857527 0.879377 0.362387
0.952773 0.893324 0.417914
0.950912 0.890318 0.415686
0.95201 0.892683 0.417258
0.957244 0.908339 0.43151
0.246677 0.84155 0.411704
0.246784 0.841276 0.410224
0.247593 0.840406 0.402243
0.247868 0.838132 0.382483
0.777646 0.893309 0.359365
0.970123 0.940032 0.470939
0.971954 0.940703 0.475166
0.971756 0.940642 0.476463
0.970779 0.941054 0.475181
0.246632 0.841901 0.413947
0.246693 0.841581 0.412085
0.246876 0.840711 0.404227
0.247456 0.839475 0.394873
0.740063 0.887892 0.343969
0.961089 0.938125 0.46302
0.970886 0.940887 0.476509
0.972366 0.940581 0.475196
0.972488 0.94052 0.475349
0.246601 0.841932 0.415015
0.247471 0.841627 0.413138
0.247318 0.840833 0.404089
0.247196 0.839612 0.394095
0.756054 0.890623 0.350805
0.961563 0.938735 0.462593
0.971984 0.940673 0.475395
0.971679 0.940749 0.475593
0.972793 0.940414 0.475593
0.246571 0.842451 0.418021
0.246601 0.842023 0.414221
0.247211 0.840467 0.401236
0.34696 0.843229 0.288319
0.872663 0.914763 0.406363
0.968261 0.941146 0.474128
0.970352 0.941253 0.474601
0.970886 0.941115 0.474403
0.970825 0.941054 0.47512
0.0229953 0.0573587 0.209689
0.0635386 0.0489967 0.21828
0.232578 0.0476081 0.225071
0.517647 0.0624552 0.248768
0.694972 0.081529 0.300114
0.7084 0.0889906 0.325307
0.711406 0.0920119 0.332265
0.713558 0.0945754 0.330602
0.720272 0.101305 0.34638
0.0163882 0.0682536 0.189502
0.024918 0.0564279 0.211688
0.224384 0.0473945 0.227527
0.527047 0.0634318 0.250065
0.695598 0.0790417 0.303471
0.705257 0.0857099 0.322759
0.709026 0.0898604 0.32401
0.710491 0.0919661 0.321569
0.717083 0.0981765 0.337392
0.029572 0.193545 0.193637
0.0291295 0.19559 0.195666
0.153765 0.193515 0.20679
0.538186 0.130129 0.19382
0.661189 0.068452 0.203723
0.676402 0.0713817 0.234058
0.679911 0.0724193 0.24271
0.680858 0.0727398 0.245197
0.681529 0.0725567 0.248905
0.0474098 0.497536 0.261936
0.049073 0.506081 0.255436
0.0492714 0.502403 0.18378
0.469642 0.52694 0.091783
0.82948 0.573022 0.243412
0.868727 0.538155 0.256733
0.866087 0.509957 0.254261
0.86566 0.510063 0.253117
0.870008 0.564187 0.258427
0.189044 0.778408 0.411444
0.193835 0.784665 0.405417
0.208301 0.786557 0.347585
0.354635 0.804013 0.241352
0.847105 0.871626 0.353109
0.949447 0.88539 0.410025
0.947799 0.880766 0.407111
0.94847 0.882856 0.408637
0.953475 0.897856 0.424384
0.246998 0.845975 0.448035
0.24683 0.844633 0.437079
0.247044 0.841703 0.413809
0.247486 0.839765 0.39733
0.752071 0.889021 0.350958
0.967498 0.9393 0.469459
0.971374 0.940749 0.47657
0.970886 0.940749 0.477882
0.970596 0.9411 0.475303
0.248402 0.848356 0.468986
0.247761 0.847425 0.460212
0.247318 0.841825 0.416144
0.247868 0.839597 0.397635
0.707286 0.88307 0.331792
0.956161 0.93698 0.458961
0.970764 0.940993 0.475929
0.971557 0.940688 0.476524
0.972137 0.940383 0.477714
0.24831 0.850263 0.484871
0.248615 0.84921 0.475929
0.246998 0.842618 0.418601
0.247715 0.839826 0.397223
0.7205 0.885115 0.337636
0.955413 0.937346 0.458778
0.970687 0.940795 0.478096
0.972091 0.940414 0.477699
0.97319 0.940261 0.475914
0.252598 0.856352 0.539666
0.252613 0.855192 0.52958
0.24799 0.84567 0.448249
0.248341 0.837491 0.378073
0.841199 0.905913 0.390661
0.967681 0.940826 0.471443
0.969223 0.941634 0.474189
0.97055 0.94107 0.475822
0.970748 0.941024 0.475547
0.0218051 0.0652323 0.422019
0.0531014 0.0534066 0.433249
0.2094 0.0515297 0.456382
0.512078 0.0606241 0.480552
0.693599 0.0774395 0.460136
0.700999 0.0809949 0.478721
0.700603 0.0813001 0.484169
0.700542 0.0814679 0.48658
0.69955 0.0830091 0.506706
0.00961318 0.0962692 0.423499
0.0226139 0.0652171 0.435233
0.188098 0.0520485 0.472648
0.518196 0.0620279 0.498787
0.696773 0.0796979 0.478447
0.699626 0.081651 0.492836
0.69929 0.0819409 0.497459
0.70013 0.0823072 0.497658
0.699687 0.0841077 0.516701
0.0108034 0.170489 0.375113
0.0102235 0.16524 0.388693
0.0276036 0.0761273 0.437751
0.488884 0.0597696 0.481666
0.69192 0.0762493 0.45069
0.700099 0.0795758 0.46598
0.700099 0.0798352 0.469337
0.701015 0.0801862 0.468925
0.700755 0.0813764 0.48394
0.0392615 0.461677 0.439307
0.0405432 0.469902 0.448295
0.0388495 0.463951 0.4448
0.400229 0.470161 0.47628
0.859174 0.436408 0.478279
0.887724 0.361868 0.450965
0.870939 0.328191 0.436759
0.869734 0.326375 0.433707
0.895094 0.375067 0.472831
0.163745 0.762295 0.562875
0.167117 0.768978 0.568414
0.167163 0.769223 0.549737
0.171374 0.757992 0.439521
0.766308 0.817273 0.330312
0.938994 0.856458 0.388037
0.936187 0.846662 0.381033
0.938247 0.846311 0.381369
0.943099 0.865629 0.397604
0.242679 0.855299 0.590555
0.242588 0.855253 0.591897
0.246311 0.8551 0.575235
0.248829 0.848722 0.476081
0.634363 0.872587 0.313375
0.95613 0.937194 0.460716
0.970886 0.940887 0.476616
0.970626 0.940871 0.477546
0.969604 0.941115 0.478096
0.241459 0.855558 0.602594
0.240467 0.855817 0.603357
0.24329 0.855131 0.585321
0.249851 0.851087 0.496391
0.546349 0.863813 0.294987
0.934997 0.933089 0.445945
0.970855 0.940688 0.47863
0.970962 0.940597 0.479271
0.97113 0.940414 0.4804
0.2392 0.856489 0.616953
0.239353 0.856733 0.617823
0.241367 0.855756 0.5991
0.251835 0.853208 0.515007
0.547982 0.863981 0.295949
0.932158 0.932769 0.442985
0.970535 0.940703 0.477974
0.970138 0.940932 0.478279
0.971847 0.940429 0.478111
0.242679 0.861265 0.677897
0.243259 0.861204 0.677485
0.240726 0.859083 0.654398
0.25124 0.856275 0.559899
0.721523 0.885008 0.338735
0.948562 0.937163 0.457008
0.968521 0.941375 0.476921
0.968551 0.941283 0.479271
0.970581 0.940764 0.478477
0.0264439 0.0730602 0.549447
0.0533303 0.0587167 0.559289
0.176837 0.0648356 0.614923
0.438727 0.0778973 0.659846
0.694774 0.124575 0.673198
0.709224 0.131579 0.686061
0.708644 0.132235 0.688762
0.70811 0.132692 0.690715
0.705257 0.135302 0.700664
0.0142061 0.0952621 0.552895
0.0280919 0.0715953 0.554818
0.157961 0.0646982 0.614221
0.438697 0.0793469 0.667964
0.699214 0.128801 0.684031
0.706462 0.1337 0.695216
0.705425 0.134554 0.698344
0.705303 0.134966 0.699519
0.70486 0.13669 0.70454
0.0210727 0.188235 0.596323
0.0209354 0.181674 0.599054
0.0307469 0.0702983 0.554849
0.387839 0.0741741 0.660212
0.690379 0.125536 0.680323
0.707118 0.132265 0.690257
0.707271 0.132753 0.691646
0.706783 0.133181 0.693431
0.705379 0.135241 0.700435
0.0456855 0.441138 0.620157
0.0478981 0.446296 0.626398
0.0460975 0.429404 0.630198
0.181109 0.295995 0.738033
0.766827 0.260319 0.768124
0.746548 0.165026 0.681208
0.722393 0.133577 0.654734
0.72636 0.138872 0.660578
0.76083 0.18674 0.705608
0.154116 0.714549 0.695262
0.157458 0.720974 0.701442
0.157427 0.720882 0.702129
0.15111 0.710307 0.694942
0.680369 0.745693 0.75903
0.941466 0.740017 0.769329
0.939925 0.725399 0.76025
0.940383 0.725429 0.760235
0.941039 0.751598 0.783123
0.25951 0.867643 0.747372
0.262333 0.867506 0.752132
0.261128 0.866896 0.747219
0.25452 0.864073 0.720088
0.271305 0.872984 0.645563
0.935164 0.953552 0.718425
0.984482 0.956313 0.659846
0.986435 0.959594 0.689906
0.989013 0.963714 0.722957
0.263142 0.868681 0.756954
0.264057 0.869093 0.760937
0.262379 0.868269 0.754574
0.254139 0.865171 0.723644
0.259693 0.871122 0.640284
0.891478 0.926207 0.494224
0.967575 0.93933 0.489982
0.968444 0.939559 0.491798
0.96762 0.939864 0.490745
0.267964 0.869673 0.770428
0.268727 0.870344 0.774136
0.266209 0.86949 0.76669
0.257298 0.866072 0.733913
0.261051 0.873014 0.6542
0.880949 0.927337 0.524895
0.966628 0.939757 0.483818
0.967681 0.940459 0.485267
0.968505 0.940002 0.486717
0.280568 0.874784 0.817655
0.282353 0.874388 0.818067
0.279088 0.873487 0.807355
0.266819 0.86981 0.76907
0.312886 0.894331 0.714626
0.920424 0.951858 0.725811
0.966522 0.939742 0.4851
0.96701 0.940261 0.487587
0.96762 0.940322 0.485466
0.0652018 0.061326 0.58587
0.0898909 0.0610361 0.598535
0.193942 0.0686351 0.641489
0.42533 0.082475 0.686793
0.692592 0.135088 0.70692
0.70341 0.137438 0.707668
0.703059 0.137484 0.70808
0.703273 0.137438 0.707881
0.703105 0.137469 0.70808
0.0410163 0.0633097 0.571298
0.0680095 0.0615244 0.588144
0.181231 0.0682841 0.638117
0.432502 0.0833295 0.688243
0.698711 0.136507 0.707744
0.702815 0.13753 0.708309
0.702693 0.13756 0.708446
0.702815 0.13753 0.708309
0.703609 0.137407 0.707378
0.0216068 0.167544 0.611673
0.0186465 0.136721 0.596872
0.0666972 0.061326 0.586572
0.38088 0.0780194 0.680339
0.688426 0.134707 0.707912
0.701671 0.137697 0.709865
0.702388 0.137591 0.709026
0.702586 0.137545 0.708751
0.70312 0.137484 0.707927
0.041474 0.338872 0.661494
0.0421149 0.344732 0.662837
0.0388342 0.321401 0.657206
0.106218 0.109438 0.650263
0.615656 0.126406 0.715648
0.70341 0.138598 0.709346
0.703639 0.138201 0.708507
0.703822 0.138262 0.7084
0.704082 0.139483 0.709789
0.149844 0.677119 0.751659
0.153674 0.682155 0.755276
0.153613 0.680751 0.757748
0.145129 0.66511 0.754116
0.567971 0.653056 0.920897
0.934417 0.652934 0.93315
0.933959 0.637476 0.930388
0.936141 0.639185 0.93077
0.936934 0.672496 0.934432
0.274662 0.860151 0.836439
0.280507 0.863661 0.840879
0.27747 0.862165 0.839246
0.262379 0.847318 0.824964
0.256474 0.837537 0.820157
0.899825 0.920501 0.927031
0.969467 0.924865 0.934371
0.969055 0.923522 0.933303
0.970642 0.932097 0.942824
0.292439 0.873777 0.85243
0.291539 0.873396 0.853971
0.290684 0.874403 0.852659
0.288334 0.87538 0.842206
0.288212 0.879698 0.8168
0.748638 0.947234 0.881132
0.986389 0.985794 0.93109
0.997787 0.987579 0.932845
0.997284 0.989059 0.947799
0.29073 0.871839 0.854887
0.288838 0.872282 0.855482
0.286763 0.873411 0.855375
0.290272 0.875593 0.84477
0.2907 0.87982 0.817426
0.728939 0.946792 0.87744
0.979919 0.98262 0.925765
0.997467 0.978821 0.859022
0.994736 0.978683 0.860075
0.287739 0.872282 0.855909
0.287098 0.872282 0.856199
0.287739 0.872114 0.856016
0.291402 0.874403 0.852537
0.30985 0.893553 0.847242
0.839414 0.963653 0.927993
0.983948 0.987518 0.95523
0.99649 0.987076 0.926528
0.99559 0.982544 0.890822
0.0877241 0.0610819 0.597757
0.112978 0.0609903 0.608713
0.209583 0.0690929 0.64593
0.435111 0.0835431 0.688121
0.695567 0.135637 0.707073
0.703456 0.137423 0.707652
0.703655 0.137392 0.707408
0.703914 0.137346 0.707149
0.702876 0.137499 0.708431
0.0632334 0.0613565 0.584741
0.088838 0.0611429 0.59852
0.196094 0.0688029 0.642649
0.441382 0.0842145 0.688991
0.701885 0.137301 0.708232
0.702953 0.137514 0.70811
0.702724 0.137545 0.7084
0.702571 0.137575 0.708629
0.703624 0.137407 0.707362
0.019089 0.140169 0.598795
0.0164034 0.110704 0.580758
0.0856641 0.0610666 0.596597
0.38883 0.078706 0.68159
0.691188 0.135058 0.70782
0.702144 0.137621 0.7093
0.702754 0.13753 0.708583
0.702602 0.137545 0.708751
0.703075 0.137499 0.707988
0.0360113 0.301488 0.652247
0.0370184 0.309712 0.654246
0.034226 0.286854 0.64863
0.0869612 0.06598 0.604181
0.607538 0.113817 0.70367
0.703273 0.137835 0.7084
0.702663 0.137789 0.708995
0.703426 0.137789 0.708171
0.703548 0.138643 0.709239
0.14725 0.668238 0.755291
0.15024 0.674235 0.75639
0.14905 0.672114 0.755932
0.139437 0.654246 0.750866
0.562768 0.629587 0.923232
0.932082 0.62916 0.930053
0.930999 0.612406 0.927749
0.934905 0.613687 0.92755
0.937865 0.65124 0.92961
0.264027 0.846708 0.841154
0.271275 0.85156 0.843885
0.268116 0.848066 0.8421
0.250446 0.825299 0.830091
0.237369 0.802716 0.825833
0.848295 0.88542 0.940475
0.962249 0.900694 0.95816
0.963241 0.899321 0.957946
0.965164 0.911254 0.963348
0.289754 0.871687 0.855467
0.289616 0.871748 0.855482
0.289403 0.87158 0.855726
0.28716 0.872236 0.856199
0.293706 0.879011 0.86128
0.419287 0.928649 0.910582
0.977462 0.978103 0.98146
0.995315 0.980224 0.982071
0.992828 0.982391 0.98584
0.291096 0.871351 0.855146
0.292821 0.870924 0.854749
0.289189 0.871687 0.855726
0.28806 0.871855 0.856107
0.297368 0.879072 0.861219
0.333013 0.91107 0.880659
0.967605 0.986282 0.98117
0.998032 0.994492 0.989548
0.998886 0.995453 0.991348
0.288411 0.872114 0.855726
0.289158 0.871687 0.855726
0.288334 0.871992 0.855863
0.287785 0.872251 0.855894
0.310246 0.891127 0.871824
0.42446 0.93698 0.911528
0.97705 0.988724 0.985672
0.997925 0.994247 0.990692
0.998886 0.995483 0.991287
0.0937514 0.0611276 0.600748
0.119875 0.0608682 0.611215
0.214466 0.0691386 0.64715
0.438911 0.0837262 0.68809
0.696925 0.135821 0.706828
0.70338 0.137438 0.707744
0.703471 0.137423 0.707622
0.703929 0.137331 0.707149
0.702892 0.137499 0.708415
0.0689403 0.0613413 0.588083
0.0939651 0.0612039 0.601175
0.200641 0.0688792 0.643915
0.445747 0.0847028 0.689509
0.702617 0.137499 0.708354
0.702953 0.137514 0.708125
0.7028 0.137545 0.708309
0.702953 0.137514 0.708141
0.7037 0.137392 0.707271
0.018555 0.133455 0.595224
0.0159457 0.105119 0.576837
0.0914931 0.0609903 0.599207
0.393423 0.0790265 0.68191
0.692592 0.135302 0.707866
0.7019 0.137652 0.709606
0.702754 0.13753 0.708583
0.702617 0.137545 0.708751
0.703029 0.137499 0.708034
0.0355077 0.296605 0.651331
0.0361944 0.303502 0.652735
0.0332647 0.279927 0.646601
0.0878462 0.0671244 0.60473
0.609689 0.114504 0.703929
0.703227 0.137743 0.708339
0.703075 0.137758 0.708492
0.703609 0.137728 0.707942
0.703487 0.138598 0.70927
0.146654 0.667048 0.754894
0.149767 0.673213 0.756176
0.148684 0.671382 0.755764
0.139284 0.653437 0.750744
0.564248 0.626551 0.923659
0.931548 0.625986 0.929686
0.930465 0.610422 0.927214
0.933196 0.611688 0.928649
0.937407 0.649241 0.929351
0.263722 0.845167 0.840467
0.270283 0.849943 0.84303
0.267506 0.846418 0.840894
0.247532 0.821454 0.827573
0.236744 0.801022 0.825315
0.848508 0.881926 0.9402
0.961242 0.897627 0.957198
0.96173 0.896437 0.956344
0.964416 0.908217 0.961822
0.290272 0.87155 0.85536
0.289662 0.871733 0.855482
0.291096 0.871122 0.85536
0.288243 0.8719 0.855985
0.29482 0.878798 0.861448
0.461311 0.932418 0.92549
0.96669 0.971359 0.980438
0.992309 0.976623 0.984665
0.99118 0.978897 0.987808
0.291768 0.870939 0.855207
0.292912 0.870893 0.854719
0.290486 0.871473 0.855329
0.288869 0.871626 0.855924
0.297856 0.879042 0.861326
0.317525 0.903578 0.882368
0.923873 0.978821 0.97908
0.997391 0.992432 0.99585
0.998825 0.99382 0.996933
0.288563 0.872084 0.85568
0.289525 0.871595 0.85565
0.289631 0.871626 0.855589
0.288426 0.871733 0.856046
0.310445 0.890608 0.871565
0.348394 0.91577 0.894377
0.951629 0.983459 0.984771
0.997436 0.994308 0.997131
0.998886 0.996185 0.998978
0.0948806 0.0611124 0.601267
0.122545 0.0608835 0.612284
0.221088 0.0693523 0.64889
0.44918 0.0851148 0.689693
0.700969 0.136767 0.707378
0.703426 0.137423 0.707729
0.703487 0.137407 0.707622
0.70396 0.137331 0.707149
0.702937 0.137499 0.708385
0.0686503 0.0613413 0.587991
0.0953994 0.0611887 0.601892
0.206561 0.0691234 0.645762
0.45655 0.0859846 0.690898
0.702739 0.137484 0.708354
0.702998 0.137499 0.708156
0.70277 0.13753 0.708446
0.702708 0.137545 0.708568
0.703777 0.137377 0.707271
0.0191043 0.141039 0.599313
0.0161898 0.109255 0.579904
0.0927291 0.0610666 0.600183
0.403067 0.0800488 0.683772
0.697536 0.136324 0.708278
0.702007 0.137621 0.709636
0.702663 0.137514 0.708858
0.70251 0.137545 0.709041
0.702861 0.137514 0.7084
0.0372015 0.310994 0.654566
0.0383917 0.319722 0.65687
0.0353399 0.296361 0.65127
0.10576 0.0801556 0.626612
0.618036 0.119478 0.708232
0.70309 0.138064 0.709209
0.702739 0.138048 0.709545
0.703395 0.137972 0.708736
0.703655 0.139101 0.709957
0.150942 0.673945 0.756573
0.154589 0.680583 0.758236
0.153094 0.678233 0.757443
0.143465 0.660304 0.752651
0.581018 0.638956 0.922164
0.930114 0.641932 0.92694
0.927871 0.627771 0.92604
0.9308 0.629572 0.92723
0.934478 0.665141 0.927642
0.273564 0.850919 0.842939
0.278767 0.854948 0.845136
0.274586 0.851591 0.84303
0.258747 0.831662 0.833265
0.243122 0.805631 0.827604
0.856611 0.887785 0.940642
0.960296 0.90399 0.957122
0.960769 0.90251 0.956405
0.964782 0.913695 0.95996
0.288731 0.872145 0.855528
0.293675 0.870817 0.854444
0.295369 0.869993 0.854261
0.293355 0.870588 0.854795
0.302358 0.879271 0.861479
0.504646 0.937118 0.931594
0.96788 0.972641 0.98201
0.991775 0.977523 0.985306
0.990372 0.979751 0.988693
0.295842 0.87039 0.853834
0.296574 0.870161 0.853697
0.293629 0.870787 0.85449
0.287251 0.872312 0.856123
0.298894 0.881193 0.862806
0.328893 0.90248 0.881453
0.936049 0.97879 0.979812
0.995712 0.992462 0.996445
0.995727 0.994217 0.998978
0.292439 0.871427 0.854475
0.297353 0.86981 0.853666
0.295674 0.870237 0.854032
0.293873 0.870893 0.854292
0.318593 0.890043 0.870253
0.359136 0.915236 0.89395
0.950561 0.98294 0.985183
0.994995 0.994629 0.998291
0.997635 0.996551 0.998978
