bundles/resolve-cinematic-luts/Phantom Luts/Komodo Phantom ARRI LUTs G2/Komodo Phantom ARRI LUTs G2/65x/Standard (No WB Offset)/IceBlue_Komodo_Legacy_G2_65x.cube
TITLE "Generated by Resolve"
LUT_3D_SIZE 5
0.0479744 0.0596017 0.0634623
0.165164 0.0552071 0.0660105
0.638086 0.0817578 0.146136
0.660258 0.0845502 0.182956
0.658473 0.076936 0.191806
0.0526131 0.18204 0.083238
0.14789 0.180011 0.0737163
0.630869 0.0790265 0.111513
0.641184 0.0842603 0.121508
0.6477 0.0840162 0.129915
0.201831 0.763241 0.27866
0.257954 0.799832 0.267903
0.823804 0.863493 0.338384
0.948684 0.877684 0.399908
0.95668 0.902403 0.419974
0.240208 0.833082 0.380987
0.241047 0.832197 0.373434
0.694835 0.877348 0.318029
0.970138 0.940475 0.462272
0.971618 0.940124 0.461524
0.240116 0.833265 0.381628
0.241535 0.831922 0.369589
0.850904 0.912215 0.385367
0.969207 0.940902 0.460624
0.969558 0.940688 0.461845
0.038819 0.067155 0.172641
0.18117 0.0608377 0.182193
0.681773 0.090547 0.25977
0.697871 0.0985733 0.287907
0.703746 0.104082 0.299886
0.0464637 0.152575 0.158404
0.120546 0.154955 0.169894
0.645212 0.0760357 0.176211
0.662974 0.0765545 0.208103
0.664988 0.0771191 0.213138
0.166339 0.746593 0.359228
0.188373 0.760006 0.309972
0.81146 0.854109 0.324254
0.942748 0.865385 0.390341
0.949767 0.888167 0.40943
0.239185 0.83859 0.429541
0.240635 0.833326 0.385229
0.657221 0.871427 0.305455
0.969696 0.940658 0.461662
0.970993 0.940108 0.463432
0.240269 0.846159 0.493248
0.240055 0.836591 0.412116
0.804746 0.898787 0.363058
0.968002 0.941329 0.459876
0.969635 0.940719 0.46128
0.0321202 0.0848554 0.545266
0.139849 0.0767224 0.592004
0.689006 0.126299 0.656001
0.707118 0.13576 0.674754
0.701549 0.138277 0.689265
0.0275425 0.15581 0.578042
0.0351873 0.0831922 0.550683
0.683528 0.127077 0.6645
0.705333 0.136233 0.678309
0.701732 0.138262 0.68896
0.132235 0.671946 0.652567
0.136141 0.678859 0.660273
0.623529 0.693675 0.707607
0.933867 0.672709 0.709514
0.938674 0.700847 0.735286
0.259022 0.863172 0.720913
0.25832 0.862791 0.718364
0.251438 0.866651 0.593393
0.967239 0.939086 0.473243
0.967391 0.939651 0.472053
0.280797 0.86894 0.796551
0.277668 0.867857 0.783551
0.294316 0.887068 0.671733
0.966033 0.93962 0.468605
0.966796 0.940032 0.469322
0.0712139 0.0736858 0.583352
0.168124 0.0807355 0.627787
0.687236 0.136858 0.696864
0.698558 0.139879 0.69752
0.697597 0.140032 0.698817
0.0271458 0.12549 0.587915
0.0704662 0.0737774 0.582803
0.68191 0.136187 0.698009
0.697475 0.140047 0.698985
0.697566 0.140063 0.698589
0.128542 0.61738 0.727031
0.130495 0.62211 0.728008
0.495979 0.56875 0.895338
0.917876 0.552529 0.91194
0.927657 0.594156 0.917464
0.296681 0.865919 0.850996
0.296605 0.865766 0.851118
0.302739 0.875807 0.858717
0.976181 0.978103 0.981643
0.991516 0.982055 0.985748
0.295552 0.86627 0.851255
0.29572 0.866102 0.851331
0.322057 0.892897 0.87306
0.973648 0.985779 0.984726
0.99147 0.987976 0.988235
0.0768292 0.0737774 0.586587
0.17847 0.0809033 0.631022
0.694728 0.138827 0.697353
0.69839 0.13991 0.697795
0.697704 0.140002 0.698756
0.0271305 0.126192 0.588479
0.0752575 0.0739147 0.585824
0.690257 0.137942 0.6981
0.697429 0.140032 0.699229
0.697627 0.140032 0.698695
0.131823 0.624231 0.728603
0.133623 0.628702 0.729244
0.513909 0.57908 0.897414
0.916762 0.568826 0.913069
0.926009 0.608515 0.917113
0.295857 0.866331 0.851087
0.301564 0.864454 0.850095
0.31078 0.877012 0.859663
0.96527 0.971725 0.982345
0.989212 0.979004 0.987427
0.299016 0.865766 0.850126
0.301579 0.864759 0.849867
0.329946 0.892317 0.871962
0.940627 0.983673 0.985534
0.989517 0.988632 0.992752
