bundles/resolve-cinematic-luts/Phantom Luts/Komodo Phantom ARRI LUTs G2/Komodo Phantom ARRI LUTs G2/65x/Standard (No WB Offset)/IceBlue_Komodo_Legacy_G2_65x.cube
TITLE "Generated by Resolve"
LUT_3D_SIZE 9
0.0479744 0.0596017 0.0634623
0.0625315 0.0588693 0.0637675
0.165164 0.0552071 0.0660105
0.420981 0.0572671 0.086305
0.638086 0.0817578 0.146136
0.656611 0.0846418 0.175326
0.660258 0.0845502 0.182956
0.65626 0.0776837 0.183474
0.658473 0.076936 0.191806
0.0505074 0.0698405 0.0659342
0.0561074 0.0676738 0.0658274
0.150607 0.0608377 0.0637522
0.419272 0.0548867 0.074052
0.626978 0.076463 0.130205
0.646845 0.0818036 0.159106
0.650767 0.0835431 0.164248
0.651072 0.0842298 0.162982
0.649989 0.0839246 0.161212
0.0526131 0.18204 0.083238
0.052491 0.184115 0.0784772
0.14789 0.180011 0.0737163
0.459876 0.160372 0.089189
0.630869 0.0790265 0.111513
0.645502 0.0839246 0.127916
0.641184 0.0842603 0.121508
0.641032 0.0841993 0.121492
0.6477 0.0840162 0.129915
0.0552682 0.45565 0.114168
0.0562142 0.466072 0.100755
0.0660868 0.465385 0.0912184
0.434165 0.4804 0.0879835
0.784787 0.543755 0.203693
0.846845 0.535119 0.234501
0.847166 0.512505 0.233463
0.847242 0.514046 0.232914
0.843824 0.565316 0.235508
0.201831 0.763241 0.27866
0.217533 0.775982 0.273014
0.257954 0.799832 0.267903
0.389212 0.78819 0.223865
0.823804 0.863493 0.338384
0.949828 0.881209 0.403067
0.948684 0.877684 0.399908
0.949264 0.88043 0.401816
0.95668 0.902403 0.419974
0.240742 0.832654 0.379782
0.240421 0.832609 0.377935
0.241367 0.832074 0.372412
0.242359 0.829587 0.351339
0.7364 0.883833 0.33225
0.969192 0.939437 0.458366
0.971801 0.939971 0.462516
0.970459 0.940032 0.465736
0.969512 0.94052 0.463661
0.240208 0.833082 0.380987
0.240665 0.832746 0.379736
0.241047 0.832197 0.373434
0.242161 0.831312 0.368277
0.694835 0.877348 0.318029
0.959274 0.937835 0.450263
0.970138 0.940475 0.462272
0.971588 0.940154 0.461311
0.971618 0.940124 0.461524
0.240162 0.833112 0.381521
0.241199 0.832853 0.379812
0.24152 0.83238 0.372671
0.241947 0.8309 0.360021
0.714015 0.880735 0.32491
0.959747 0.93843 0.451286
0.971115 0.9402 0.462181
0.970611 0.940261 0.462989
0.971862 0.940017 0.461875
0.240116 0.833265 0.381628
0.240452 0.832959 0.378515
0.241535 0.831922 0.369589
0.35259 0.838865 0.280858
0.850904 0.912215 0.385367
0.967178 0.940826 0.46067
0.969207 0.940902 0.460624
0.969757 0.940795 0.460151
0.969558 0.940688 0.461845
0.0457313 0.0603189 0.0774853
0.0623026 0.0598001 0.0791028
0.173327 0.0596323 0.0898604
0.435233 0.0596475 0.120089
0.651408 0.0786297 0.182818
0.66453 0.0772106 0.210788
0.668086 0.0793774 0.216571
0.669398 0.0803082 0.218296
0.671168 0.0806134 0.223743
0.0489509 0.0664988 0.0719463
0.0511025 0.0644846 0.0706188
0.161654 0.0561074 0.0722515
0.437675 0.0572366 0.105119
0.650446 0.0808423 0.173022
0.661128 0.0822614 0.193362
0.65948 0.0759899 0.19852
0.66067 0.0769055 0.199359
0.661631 0.0769818 0.20206
0.0520027 0.17734 0.100359
0.0521401 0.180133 0.0881819
0.138796 0.17612 0.0739452
0.461707 0.142245 0.0900587
0.629801 0.0771038 0.119402
0.640391 0.0810254 0.131182
0.63772 0.0807507 0.128862
0.637491 0.0806592 0.128786
0.641306 0.0814984 0.130877
0.0555734 0.453254 0.13904
0.0565042 0.462943 0.124483
0.0569314 0.464118 0.0918898
0.428489 0.48101 0.0880446
0.787335 0.541466 0.20621
0.846647 0.530068 0.234852
0.847181 0.50602 0.233478
0.84712 0.507546 0.2327
0.844678 0.559945 0.234821
0.193805 0.761212 0.29691
0.207355 0.772061 0.289433
0.250858 0.795071 0.266453
0.377707 0.790204 0.225742
0.824048 0.864729 0.335378
0.948363 0.881956 0.402258
0.946593 0.878202 0.400107
0.947509 0.881056 0.401617
0.954894 0.902373 0.418387
0.240192 0.833127 0.381491
0.240269 0.832883 0.380331
0.241459 0.832303 0.373617
0.242161 0.830564 0.35787
0.732555 0.883604 0.330999
0.968963 0.939803 0.457694
0.970687 0.940444 0.461051
0.970626 0.940337 0.462257
0.969604 0.940749 0.46099
0.240131 0.833432 0.383154
0.240208 0.833158 0.381826
0.240711 0.832532 0.375204
0.241535 0.831556 0.367712
0.692378 0.876997 0.316579
0.958587 0.937789 0.449805
0.969787 0.940581 0.462226
0.971283 0.940261 0.461158
0.971298 0.94023 0.461311
0.240024 0.833478 0.384131
0.241016 0.833173 0.382376
0.241199 0.832639 0.374899
0.241382 0.831693 0.366918
0.708995 0.879988 0.322805
0.958953 0.938445 0.449271
0.971023 0.940307 0.461433
0.970901 0.940322 0.461677
0.971984 0.940002 0.461769
0.239872 0.833906 0.386694
0.240101 0.833524 0.383352
0.24123 0.832364 0.37258
0.319356 0.834379 0.283558
0.843626 0.909606 0.381781
0.967071 0.940764 0.460029
0.969253 0.940917 0.460395
0.969741 0.940795 0.460243
0.96968 0.940719 0.461128
0.038819 0.067155 0.172641
0.0627451 0.0619669 0.178347
0.18117 0.0608377 0.182193
0.44892 0.0685435 0.204135
0.681773 0.090547 0.25977
0.695674 0.0967117 0.281788
0.697871 0.0985733 0.287907
0.698909 0.100298 0.286259
0.703746 0.104082 0.299886
0.032578 0.0728771 0.156268
0.0403754 0.0666056 0.173983
0.174548 0.0608377 0.184512
0.459464 0.0687266 0.205539
0.684657 0.08925 0.263584
0.693507 0.0943618 0.279164
0.695918 0.0973526 0.280385
0.696635 0.0989395 0.278447
0.70132 0.102602 0.291188
0.0464637 0.152575 0.158404
0.0461433 0.154009 0.160464
0.120546 0.154955 0.169894
0.46566 0.10811 0.160037
0.645212 0.0760357 0.176211
0.664073 0.0815747 0.203143
0.662974 0.0765545 0.208103
0.664164 0.0771801 0.210071
0.664988 0.0771191 0.213138
0.054902 0.434272 0.218021
0.0555886 0.444038 0.212802
0.0548714 0.441489 0.154253
0.400458 0.465187 0.0855879
0.793805 0.511925 0.209857
0.844739 0.478874 0.23154
0.840299 0.450278 0.228519
0.840024 0.450919 0.227802
0.846922 0.505608 0.2336
0.166339 0.746593 0.359228
0.172824 0.755032 0.355825
0.188373 0.760006 0.309972
0.3075 0.77969 0.228016
0.81146 0.854109 0.324254
0.944259 0.871061 0.393271
0.942748 0.865385 0.390341
0.943435 0.867842 0.391928
0.949767 0.888167 0.40943
0.239124 0.836881 0.41178
0.239185 0.835584 0.402564
0.240467 0.83328 0.383124
0.241489 0.8318 0.369741
0.704845 0.87837 0.322683
0.965972 0.939254 0.45626
0.970275 0.940429 0.462333
0.969818 0.940444 0.463478
0.969619 0.940734 0.461158
0.239185 0.83859 0.429541
0.239033 0.837873 0.422095
0.240635 0.833326 0.385229
0.241749 0.831662 0.370123
0.657221 0.871427 0.305455
0.952499 0.93669 0.445426
0.969696 0.940658 0.461662
0.970459 0.940383 0.462318
0.970993 0.940108 0.463432
0.23856 0.840345 0.443488
0.239078 0.839323 0.435538
0.240314 0.834043 0.387015
0.241749 0.831861 0.369558
0.672023 0.874189 0.311208
0.951751 0.937072 0.445243
0.969711 0.940459 0.463752
0.970977 0.940124 0.463386
0.972015 0.939971 0.46186
0.240269 0.846159 0.493248
0.240452 0.844785 0.483696
0.240055 0.836591 0.412116
0.242741 0.830091 0.354376
0.804746 0.898787 0.363058
0.966476 0.940581 0.457725
0.968002 0.941329 0.459876
0.969406 0.940764 0.46154
0.969635 0.940719 0.46128
0.0335088 0.0751812 0.368933
0.051957 0.0670481 0.373907
0.164874 0.0643626 0.39089
0.458412 0.0681468 0.422217
0.688518 0.0832532 0.416236
0.703014 0.0915236 0.438712
0.702342 0.0910811 0.444068
0.703273 0.0921035 0.447562
0.698802 0.0886091 0.467201
0.0233158 0.091249 0.370336
0.0329595 0.0754711 0.384298
0.147112 0.0650645 0.407416
0.468742 0.0687877 0.443565
0.691569 0.083299 0.434791
0.696162 0.0853132 0.450629
0.696727 0.0862287 0.456214
0.697185 0.0861677 0.455528
0.698589 0.0888685 0.47837
0.025864 0.134569 0.314076
0.0249638 0.130922 0.327398
0.0362097 0.0805371 0.378363
0.429801 0.0678874 0.420615
0.68571 0.0815442 0.40647
0.695689 0.0840925 0.422248
0.698131 0.0868086 0.427161
0.698619 0.0869154 0.426139
0.698558 0.087129 0.441474
0.046479 0.392172 0.374136
0.0464485 0.400732 0.382712
0.0453651 0.394568 0.379858
0.334234 0.402335 0.408637
0.809979 0.37055 0.410697
0.842542 0.306538 0.386313
0.825589 0.27715 0.372396
0.824353 0.275746 0.369589
0.85066 0.318486 0.406546
0.13814 0.725322 0.497429
0.14313 0.734127 0.503456
0.143328 0.734462 0.485069
0.144457 0.719738 0.380118
0.716793 0.781964 0.285588
0.93167 0.833631 0.368475
0.928588 0.821561 0.360739
0.930602 0.82118 0.36112
0.93698 0.845792 0.378302
0.23209 0.846082 0.54049
0.23209 0.846143 0.541848
0.234562 0.845212 0.525628
0.239155 0.839139 0.436332
0.582147 0.860578 0.289448
0.952865 0.937041 0.445808
0.969802 0.940612 0.461921
0.969482 0.940597 0.462867
0.968399 0.940856 0.46334
0.231159 0.84715 0.552483
0.230533 0.847349 0.553094
0.232319 0.845685 0.535348
0.23946 0.841413 0.454093
0.494957 0.851926 0.278279
0.92401 0.931945 0.428824
0.969726 0.940444 0.463813
0.969879 0.940368 0.464103
0.970153 0.940261 0.464271
0.230274 0.848341 0.566857
0.230503 0.848646 0.567697
0.231434 0.846952 0.549081
0.240162 0.843168 0.470344
0.49572 0.852201 0.278355
0.920485 0.93167 0.425528
0.96936 0.940459 0.462867
0.969009 0.940734 0.462913
0.970748 0.940185 0.463416
0.236698 0.85565 0.632319
0.236988 0.855741 0.631846
0.233341 0.85304 0.606546
0.238209 0.846067 0.511452
0.673136 0.874174 0.31191
0.943297 0.936522 0.442298
0.967422 0.941039 0.462196
0.96762 0.94107 0.463218
0.969512 0.940581 0.462837
0.0321202 0.0848554 0.545266
0.0488746 0.0743877 0.549966
0.139849 0.0767224 0.592004
0.394827 0.0828565 0.640696
0.689006 0.126299 0.656001
0.708156 0.135195 0.671473
0.707118 0.13576 0.674754
0.706188 0.136141 0.67718
0.701549 0.138277 0.689265
0.020798 0.0983597 0.546929
0.0331426 0.0841077 0.5514
0.124346 0.0771344 0.593408
0.395529 0.0843061 0.650828
0.694575 0.130999 0.668727
0.703792 0.137026 0.682551
0.702205 0.137743 0.686427
0.701778 0.138048 0.688045
0.700191 0.139345 0.694194
0.0275425 0.15581 0.578042
0.0277104 0.152087 0.582223
0.0351873 0.0831922 0.550683
0.339452 0.0807965 0.641215
0.683528 0.127077 0.6645
0.705623 0.135821 0.676249
0.705333 0.136233 0.678309
0.70457 0.136599 0.680369
0.701732 0.138262 0.68896
0.0407874 0.378103 0.586969
0.0425574 0.383154 0.593606
0.0417334 0.365972 0.599405
0.134951 0.244572 0.684352
0.720684 0.216556 0.719005
0.734844 0.151461 0.646082
0.720623 0.133181 0.628168
0.722789 0.136019 0.63241
0.74519 0.167483 0.668666
0.132235 0.671946 0.652567
0.136263 0.679072 0.659541
0.136141 0.678859 0.660273
0.128435 0.666789 0.652155
0.623529 0.693675 0.707607
0.937026 0.689097 0.720226
0.933867 0.672709 0.709514
0.934539 0.672709 0.709316
0.938674 0.700847 0.735286
0.255482 0.862196 0.709911
0.258396 0.862013 0.715282
0.257053 0.861479 0.709621
0.249485 0.859113 0.679316
0.258366 0.867185 0.59881
0.921492 0.950088 0.662882
0.987213 0.955352 0.607935
0.988098 0.9579 0.63621
0.989593 0.961776 0.669154
0.259022 0.863172 0.720913
0.260533 0.863416 0.725948
0.25832 0.862791 0.718364
0.249546 0.86009 0.683314
0.251438 0.866651 0.593393
0.867704 0.922271 0.454948
0.967239 0.939086 0.473243
0.968292 0.939376 0.472801
0.967391 0.939651 0.472053
0.264363 0.864073 0.737179
0.265522 0.86453 0.741482
0.262562 0.863874 0.732448
0.252613 0.861021 0.694942
0.253651 0.869154 0.608698
0.85333 0.922805 0.473045
0.966278 0.939651 0.466865
0.967086 0.9402 0.467948
0.967849 0.939681 0.470649
0.280797 0.86894 0.796551
0.281819 0.868818 0.797574
0.277668 0.867857 0.783551
0.26331 0.864179 0.735561
0.294316 0.887068 0.671733
0.900832 0.947356 0.670008
0.966033 0.93962 0.468605
0.966522 0.940047 0.469749
0.966796 0.940032 0.469322
0.056672 0.0744335 0.575158
0.0729534 0.0735943 0.583871
0.154788 0.0806439 0.623423
0.380987 0.0882277 0.674159
0.683452 0.136294 0.697093
0.698253 0.13994 0.697856
0.697856 0.139986 0.69839
0.698131 0.13994 0.698131
0.697887 0.139986 0.698405
0.0411688 0.0794537 0.568521
0.0581826 0.0743572 0.576425
0.143938 0.0808118 0.620539
0.389151 0.0889754 0.676051
0.691615 0.138216 0.697505
0.69749 0.140078 0.698665
0.697398 0.140093 0.698817
0.697459 0.140078 0.698772
0.698436 0.13991 0.697566
0.0289006 0.14345 0.597604
0.0268254 0.123415 0.586618
0.0575723 0.0744793 0.575525
0.33286 0.0853132 0.666392
0.677607 0.135073 0.697627
0.696391 0.14023 0.700236
0.697093 0.140108 0.699428
0.697276 0.140078 0.699168
0.697871 0.140017 0.698192
0.0420539 0.28304 0.639963
0.042359 0.287831 0.641154
0.0402075 0.267491 0.636042
0.0816205 0.106859 0.620752
0.58471 0.120638 0.702312
0.697581 0.14052 0.699275
0.698039 0.140291 0.698497
0.698207 0.140307 0.698314
0.697841 0.140917 0.699443
0.130556 0.627619 0.721904
0.134508 0.63357 0.726482
0.134844 0.631739 0.729381
0.127108 0.614404 0.72636
0.501808 0.593576 0.893782
0.923903 0.595804 0.920928
0.923018 0.579507 0.916854
0.924727 0.581476 0.916686
0.928923 0.616815 0.924071
0.275959 0.849119 0.823407
0.282475 0.854124 0.829892
0.279347 0.852064 0.827466
0.261204 0.832364 0.808591
0.252918 0.819684 0.802823
0.876219 0.905486 0.913619
0.96878 0.910414 0.923247
0.968383 0.908629 0.922011
0.970153 0.920211 0.934279
0.297307 0.867918 0.845396
0.296773 0.867521 0.8477
0.295476 0.868666 0.844923
0.291951 0.869978 0.83035
0.288777 0.87602 0.795529
0.694743 0.941833 0.851255
0.985718 0.982315 0.911986
0.992187 0.982696 0.912703
0.991608 0.984039 0.932525
0.296986 0.866072 0.849851
0.295583 0.866453 0.850706
0.293599 0.867353 0.84979
0.294133 0.870024 0.834134
0.291112 0.87631 0.796368
0.673564 0.941787 0.847471
0.978164 0.981201 0.905531
0.99321 0.975738 0.819547
0.991119 0.975509 0.822095
0.294957 0.866423 0.851408
0.29427 0.866438 0.851682
0.295094 0.866224 0.851484
0.296178 0.868605 0.844984
0.31313 0.893324 0.835477
0.798184 0.96141 0.912383
0.982818 0.98497 0.945327
0.991135 0.982376 0.904189
0.99115 0.978698 0.858778
0.0712139 0.0736858 0.583352
0.091722 0.0751659 0.595163
0.168124 0.0807355 0.627787
0.392081 0.089189 0.676005
0.687236 0.136858 0.696864
0.698299 0.139925 0.697871
0.698558 0.139879 0.69752
0.698817 0.139834 0.697307
0.697597 0.140032 0.698817
0.0553597 0.0746777 0.574517
0.0721447 0.0737316 0.584054
0.15668 0.080766 0.624704
0.39913 0.0898451 0.677546
0.69601 0.139681 0.69868
0.697307 0.140093 0.698894
0.697337 0.140093 0.698894
0.6972 0.140108 0.699092
0.698421 0.13991 0.697581
0.0271458 0.12549 0.587915
0.023331 0.108415 0.573175
0.0704662 0.0737774 0.582803
0.341588 0.0859083 0.66807
0.68191 0.136187 0.698009
0.696834 0.140154 0.699718
0.697475 0.140047 0.698985
0.697276 0.140078 0.699184
0.697566 0.140063 0.698589
0.0385443 0.250919 0.632166
0.0389868 0.257572 0.633631
0.0372168 0.238209 0.62858
0.0717784 0.0804608 0.591196
0.580575 0.112963 0.69366
0.697871 0.140154 0.698604
0.69723 0.140185 0.699321
0.697993 0.140124 0.698405
0.697612 0.14052 0.699245
0.128542 0.61738 0.727031
0.131441 0.624414 0.72845
0.130495 0.62211 0.728008
0.121736 0.602472 0.723201
0.495979 0.56875 0.895338
0.920272 0.570596 0.915908
0.917876 0.552529 0.91194
0.921035 0.554208 0.911803
0.927657 0.594156 0.917464
0.263676 0.831418 0.831144
0.271702 0.838117 0.834852
0.267842 0.833173 0.832044
0.241779 0.801907 0.814481
0.228305 0.774014 0.811719
0.811841 0.861708 0.93814
0.961257 0.879255 0.957382
0.962203 0.877287 0.957366
0.964813 0.892866 0.963073
0.296681 0.865919 0.850996
0.29662 0.865965 0.850996
0.296605 0.865766 0.851118
0.294499 0.866377 0.851637
0.302739 0.875807 0.858717
0.401053 0.921172 0.901625
0.976181 0.978103 0.981643
0.993881 0.97998 0.982132
0.991516 0.982055 0.985748
0.297734 0.86566 0.85066
0.299351 0.865263 0.85034
0.296574 0.865812 0.851102
0.295399 0.865965 0.85156
0.306218 0.876143 0.858778
0.339345 0.914305 0.879957
0.962509 0.984314 0.979568
0.992248 0.987778 0.987045
0.991882 0.9879 0.988357
0.295552 0.86627 0.851255
0.296391 0.865858 0.851179
0.29572 0.866102 0.851331
0.295033 0.866392 0.851392
0.322057 0.892897 0.87306
0.405432 0.930983 0.902129
0.973648 0.985779 0.984726
0.992706 0.987732 0.988388
0.99147 0.987976 0.988235
0.076051 0.0737469 0.58613
0.0967575 0.0758068 0.598108
0.172839 0.080766 0.629206
0.395987 0.0894484 0.676509
0.688731 0.137209 0.696803
0.698207 0.13994 0.697993
0.69836 0.13991 0.69778
0.698833 0.139834 0.697292
0.697643 0.140017 0.698787
0.0588998 0.0741131 0.576318
0.0762188 0.0738689 0.586557
0.160662 0.0808576 0.626123
0.403616 0.090074 0.677958
0.697215 0.140002 0.698726
0.697612 0.140047 0.698528
0.697429 0.140078 0.698802
0.6972 0.140108 0.699092
0.698451 0.13991 0.697566
0.0267338 0.121157 0.585092
0.0242008 0.105135 0.572061
0.0742199 0.0737926 0.584894
0.345907 0.0859998 0.668559
0.683726 0.136645 0.698161
0.69659 0.140185 0.700008
0.69749 0.140032 0.698985
0.697276 0.140078 0.699184
0.697826 0.140017 0.698268
0.0379644 0.246311 0.630838
0.0383764 0.252338 0.632136
0.0367285 0.23241 0.627008
0.0720531 0.0785534 0.588876
0.583108 0.113695 0.694057
0.697856 0.140108 0.698589
0.69723 0.1402 0.699336
0.697978 0.140108 0.698421
0.697581 0.140505 0.69929
0.127993 0.616144 0.726711
0.131212 0.623529 0.728466
0.130022 0.62121 0.727703
0.121096 0.601144 0.722698
0.497169 0.565942 0.895781
0.919203 0.56701 0.914839
0.916976 0.550469 0.911192
0.919768 0.551919 0.912062
0.927428 0.592264 0.91722
0.262455 0.829435 0.829877
0.269932 0.83563 0.833494
0.266789 0.831403 0.831052
0.240406 0.798032 0.812757
0.227268 0.771939 0.811002
0.811902 0.857298 0.937804
0.960418 0.875166 0.956619
0.960403 0.873671 0.955688
0.963302 0.889006 0.961685
0.297047 0.865827 0.850843
0.296666 0.86595 0.85098
0.297734 0.865461 0.850813
0.295293 0.866163 0.851469
0.303532 0.875883 0.858778
0.432135 0.920928 0.91574
0.964401 0.970718 0.981201
0.991699 0.975631 0.983978
0.990112 0.978119 0.986496
0.298177 0.865553 0.850553
0.299428 0.865248 0.850324
0.297536 0.86569 0.850721
0.296132 0.865766 0.851362
0.306706 0.876173 0.859007
0.332692 0.908568 0.886946
0.904631 0.980163 0.979706
0.992172 0.987976 0.990509
0.991836 0.988052 0.990829
0.295689 0.866255 0.851225
0.296651 0.865782 0.851072
0.296696 0.865843 0.851026
0.295186 0.866346 0.851362
0.321904 0.892241 0.872587
0.354238 0.919341 0.896986
0.942229 0.984115 0.985168
0.992676 0.987839 0.990021
0.991363 0.988159 0.991241
0.0768292 0.0737774 0.586587
0.09897 0.0760967 0.59939
0.17847 0.0809033 0.631022
0.407355 0.0903182 0.678065
0.694728 0.138827 0.697353
0.698253 0.139925 0.697978
0.69839 0.13991 0.697795
0.698848 0.139818 0.697307
0.697704 0.140002 0.698756
0.0587625 0.0741283 0.576318
0.0772869 0.073991 0.58735
0.165805 0.0808423 0.627832
0.415747 0.0910201 0.679622
0.697383 0.139986 0.698695
0.697688 0.140032 0.698543
0.697475 0.140063 0.698848
0.697276 0.140093 0.699107
0.698573 0.139879 0.69752
0.0271305 0.126192 0.588479
0.0251316 0.107424 0.575219
0.0752575 0.0739147 0.585824
0.356634 0.0865339 0.670436
0.690257 0.137942 0.6981
0.696651 0.140154 0.700099
0.697429 0.140032 0.699229
0.697215 0.140063 0.699443
0.697627 0.140032 0.698695
0.0391241 0.258854 0.633936
0.0397345 0.266377 0.635813
0.0378119 0.246052 0.630777
0.0840162 0.0876173 0.605112
0.590707 0.117052 0.69749
0.697566 0.140276 0.699351
0.69723 0.140307 0.699702
0.697871 0.1402 0.698924
0.69749 0.140719 0.699809
0.131823 0.624231 0.728603
0.135073 0.631479 0.730251
0.133623 0.628702 0.729244
0.124437 0.608667 0.724498
0.513909 0.57908 0.897414
0.91841 0.584344 0.91574
0.916762 0.568826 0.913069
0.919799 0.570779 0.913725
0.926009 0.608515 0.917113
0.273381 0.837324 0.833951
0.280293 0.843565 0.837385
0.275669 0.839063 0.834867
0.252293 0.811093 0.819883
0.232639 0.777432 0.813718
0.822217 0.864179 0.937423
0.958495 0.883207 0.955764
0.958923 0.881559 0.955337
0.961456 0.896208 0.960769
0.295857 0.866331 0.851087
0.300069 0.865217 0.850172
0.301564 0.864454 0.850095
0.29958 0.865064 0.850385
0.31078 0.877012 0.859663
0.468559 0.926818 0.922774
0.96527 0.971725 0.982345
0.991012 0.976623 0.984344
0.989212 0.979004 0.987427
0.301762 0.864897 0.849683
0.302556 0.864652 0.849531
0.300084 0.865156 0.850202
0.294621 0.866423 0.85153
0.3084 0.879026 0.861067
0.343465 0.907851 0.886122
0.920928 0.979614 0.980316
0.991974 0.988006 0.990768
0.990082 0.988479 0.992279
0.299016 0.865766 0.850126
0.303243 0.864347 0.849485
0.301579 0.864759 0.849867
0.300053 0.865354 0.850065
0.329946 0.892317 0.871962
0.363241 0.918196 0.895918
0.940627 0.983673 0.985534
0.991394 0.988159 0.991211
0.989517 0.988632 0.992752
