bundles/resolve-cinematic-luts/Phantom Luts/Komodo Phantom ARRI LUTs G2/Komodo Phantom ARRI LUTs G2/65x/Standard (No WB Offset)/IceBlue_Komodo_G2_33x.cube
TITLE "Generated by Resolve"
LUT_3D_SIZE 5
0.0344244 0.0467231 0.0462654
0.211719 0.0396429 0.0496071
0.652247 0.0702373 0.169818
0.673289 0.0739452 0.212116
0.676585 0.0734264 0.224781
0.0353704 0.227573 0.0689403
0.187472 0.22388 0.0531777
0.640406 0.0689403 0.116075
0.650202 0.0722362 0.130953
0.655741 0.0718395 0.138796
0.223865 0.788266 0.306233
0.280873 0.814496 0.277211
0.857466 0.878279 0.365789
0.953079 0.88983 0.41561
0.959258 0.908507 0.433371
0.246662 0.841474 0.411154
0.24715 0.840269 0.402014
0.742336 0.887968 0.345098
0.971511 0.940902 0.474601
0.972808 0.940414 0.475547
0.246555 0.841703 0.412039
0.247486 0.839902 0.397253
0.878798 0.917067 0.409369
0.970474 0.941207 0.474647
0.970672 0.940993 0.476112
0.0229953 0.0573587 0.209689
0.232578 0.0476081 0.225071
0.694972 0.081529 0.300114
0.711406 0.0920119 0.332265
0.720272 0.101305 0.34638
0.029572 0.193545 0.193637
0.153765 0.193515 0.20679
0.661189 0.068452 0.203723
0.679911 0.0724193 0.24271
0.681529 0.0725567 0.248905
0.189044 0.778408 0.411444
0.208301 0.786557 0.347585
0.847105 0.871626 0.353109
0.947799 0.880766 0.407111
0.953475 0.897856 0.424384
0.248402 0.848356 0.468986
0.247318 0.841825 0.416144
0.707286 0.88307 0.331792
0.970764 0.940993 0.475929
0.972137 0.940383 0.477714
0.252598 0.856352 0.539666
0.24799 0.84567 0.448249
0.841199 0.905913 0.390661
0.969223 0.941634 0.474189
0.970748 0.941024 0.475547
0.0264439 0.0730602 0.549447
0.176837 0.0648356 0.614923
0.694774 0.124575 0.673198
0.708644 0.132235 0.688762
0.705257 0.135302 0.700664
0.0210727 0.188235 0.596323
0.0307469 0.0702983 0.554849
0.690379 0.125536 0.680323
0.707271 0.132753 0.691646
0.705379 0.135241 0.700435
0.154116 0.714549 0.695262
0.157427 0.720882 0.702129
0.680369 0.745693 0.75903
0.939925 0.725399 0.76025
0.941039 0.751598 0.783123
0.263142 0.868681 0.756954
0.262379 0.868269 0.754574
0.259693 0.871122 0.640284
0.967575 0.93933 0.489982
0.96762 0.939864 0.490745
0.280568 0.874784 0.817655
0.279088 0.873487 0.807355
0.312886 0.894331 0.714626
0.966522 0.939742 0.4851
0.96762 0.940322 0.485466
0.0877241 0.0610819 0.597757
0.209583 0.0690929 0.64593
0.695567 0.135637 0.707073
0.703655 0.137392 0.707408
0.702876 0.137499 0.708431
0.019089 0.140169 0.598795
0.0856641 0.0610666 0.596597
0.691188 0.135058 0.70782
0.702754 0.13753 0.708583
0.703075 0.137499 0.707988
0.14725 0.668238 0.755291
0.14905 0.672114 0.755932
0.562768 0.629587 0.923232
0.930999 0.612406 0.927749
0.937865 0.65124 0.92961
0.289754 0.871687 0.855467
0.289403 0.87158 0.855726
0.293706 0.879011 0.86128
0.977462 0.978103 0.98146
0.992828 0.982391 0.98584
0.288411 0.872114 0.855726
0.288334 0.871992 0.855863
0.310246 0.891127 0.871824
0.97705 0.988724 0.985672
0.998886 0.995483 0.991287
0.0948806 0.0611124 0.601267
0.221088 0.0693523 0.64889
0.700969 0.136767 0.707378
0.703487 0.137407 0.707622
0.702937 0.137499 0.708385
0.0191043 0.141039 0.599313
0.0927291 0.0610666 0.600183
0.697536 0.136324 0.708278
0.702663 0.137514 0.708858
0.702861 0.137514 0.7084
0.150942 0.673945 0.756573
0.153094 0.678233 0.757443
0.581018 0.638956 0.922164
0.927871 0.627771 0.92604
0.934478 0.665141 0.927642
0.288731 0.872145 0.855528
0.295369 0.869993 0.854261
0.302358 0.879271 0.861479
0.96788 0.972641 0.98201
0.990372 0.979751 0.988693
0.292439 0.871427 0.854475
0.295674 0.870237 0.854032
0.318593 0.890043 0.870253
0.950561 0.98294 0.985183
0.997635 0.996551 0.998978
