bundles/resolve-cinematic-luts/Phantom Luts/Komodo Phantom ARRI LUTs G2/Komodo Phantom ARRI LUTs G2/65x/Standard (No WB Offset)/Jamaica_Komodo_Legacy_G2_65x.cube
TITLE "Generated by Resolve"
LUT_3D_SIZE 9
0.0417182 0.0497444 0.0416571
0.0681163 0.0493935 0.0417334
0.204623 0.0449073 0.0462959
0.48188 0.0473945 0.0822614
0.645151 0.0772412 0.154284
0.653635 0.0787671 0.174121
0.654337 0.075639 0.183963
0.650462 0.0702678 0.186313
0.651041 0.0704356 0.187137
0.0415961 0.0699321 0.0431373
0.054902 0.0648661 0.0437934
0.180896 0.0555123 0.0423438
0.458686 0.046128 0.0584115
0.621103 0.0714427 0.104997
0.636927 0.0758221 0.13579
0.644907 0.0771496 0.153414
0.646311 0.0775006 0.156725
0.646784 0.0775921 0.157885
0.0366217 0.218708 0.0539254
0.0368048 0.213642 0.0453346
0.17116 0.200015 0.0504005
0.505104 0.174792 0.092195
0.623713 0.0850996 0.0980545
0.630182 0.0850233 0.110643
0.629435 0.0837873 0.111025
0.62945 0.083238 0.110933
0.629053 0.0830091 0.110735
0.0756085 0.563729 0.132464
0.0759442 0.560143 0.108034
0.0967422 0.551568 0.0943618
0.48394 0.523751 0.0959335
0.835492 0.580026 0.220706
0.877607 0.560555 0.254124
0.876478 0.532067 0.253498
0.874891 0.518746 0.252918
0.872679 0.512032 0.250965
0.343404 0.89514 0.404654
0.355337 0.895735 0.391867
0.3953 0.912077 0.389853
0.511681 0.892699 0.300114
0.881926 0.912551 0.398779
0.971008 0.918074 0.451392
0.968566 0.910674 0.446006
0.967071 0.906874 0.443061
0.966155 0.904051 0.441062
0.398581 0.960388 0.528695
0.392187 0.95407 0.519463
0.395529 0.954986 0.515846
0.40473 0.947219 0.471962
0.826398 0.960647 0.416403
1 0.990799 0.512001
1 0.990921 0.514473
1 0.991043 0.514855
1 0.991501 0.51458
0.397192 0.95967 0.52929
0.394873 0.957076 0.524834
0.397436 0.957229 0.519814
0.401129 0.959243 0.519219
0.760113 0.962371 0.400168
0.992233 0.988983 0.503426
1 0.991623 0.513817
1 0.99115 0.514199
1 0.991089 0.514504
0.394629 0.95758 0.52726
0.394766 0.957214 0.525887
0.396475 0.956558 0.519783
0.399344 0.957778 0.517937
0.736599 0.965026 0.397879
0.987015 0.987396 0.499901
1 0.991012 0.514672
1 0.991058 0.514778
1 0.990753 0.514702
0.396307 0.959106 0.529
0.391699 0.954604 0.522591
0.393927 0.95436 0.516884
0.395972 0.954849 0.514305
0.740169 0.962875 0.396063
0.985855 0.988098 0.499687
1 0.991333 0.514382
1 0.991257 0.514641
1 0.991226 0.514961
0.0392615 0.0501411 0.0599527
0.0690013 0.0501717 0.0655528
0.213352 0.0504311 0.0751659
0.495186 0.0513466 0.116152
0.655802 0.0777142 0.183261
0.658167 0.0731518 0.202655
0.661768 0.0745708 0.210651
0.662913 0.0750439 0.213077
0.663279 0.0751202 0.213504
0.0434424 0.063035 0.0564736
0.0460975 0.0598611 0.0471656
0.183749 0.0465858 0.045594
0.468086 0.047303 0.0788128
0.644373 0.0770428 0.151934
0.653254 0.0787366 0.172915
0.655756 0.0776074 0.182986
0.654704 0.0750744 0.186419
0.65037 0.0702831 0.185855
0.0367437 0.209628 0.0776684
0.0360723 0.205951 0.0561227
0.161761 0.193515 0.049485
0.500313 0.155871 0.0871901
0.624247 0.0808576 0.103059
0.628138 0.0813764 0.110323
0.627359 0.0801099 0.109926
0.627359 0.0796521 0.109697
0.627085 0.0794995 0.10956
0.070985 0.553872 0.159213
0.0711986 0.5505 0.131624
0.0790112 0.545159 0.0942702
0.477119 0.51902 0.0942397
0.83595 0.570809 0.220569
0.876799 0.548943 0.253208
0.87393 0.517098 0.251926
0.871809 0.503563 0.251225
0.869474 0.496361 0.249439
0.323522 0.88864 0.414374
0.333425 0.888319 0.39942
0.388983 0.907225 0.384482
0.495857 0.891936 0.301442
0.878752 0.909621 0.3953
0.969482 0.914809 0.448692
0.966628 0.906813 0.442756
0.965164 0.902785 0.439765
0.96437 0.899901 0.437797
0.397742 0.960372 0.530526
0.391257 0.954086 0.521492
0.394781 0.954894 0.517067
0.400031 0.948241 0.482795
0.821683 0.960418 0.41474
1 0.990799 0.511925
1 0.991119 0.514336
1 0.991043 0.514855
1 0.99147 0.514595
0.396719 0.959823 0.530953
0.394461 0.957336 0.526757
0.397024 0.957259 0.520836
0.401007 0.959243 0.519463
0.75494 0.96286 0.399451
0.991272 0.988785 0.50277
1 0.991577 0.513863
1 0.991135 0.514199
1 0.991089 0.514488
0.394156 0.957702 0.528771
0.394202 0.957275 0.527413
0.395712 0.956374 0.520653
0.399268 0.957702 0.517861
0.731319 0.965682 0.397589
0.984939 0.98761 0.498924
1 0.990982 0.514687
1 0.991028 0.514794
1 0.990738 0.514702
0.395773 0.959213 0.530648
0.391135 0.954711 0.524208
0.393393 0.954406 0.518166
0.39585 0.954711 0.514061
0.734646 0.963195 0.395315
0.984726 0.987823 0.498939
1 0.991272 0.514427
1 0.991257 0.514626
1 0.991226 0.514946
0.034699 0.0546426 0.162158
0.0734112 0.0504158 0.169512
0.221958 0.0495918 0.198978
0.515068 0.060029 0.215656
0.689357 0.0882124 0.268421
0.69659 0.0928206 0.28188
0.699504 0.0947433 0.287373
0.700236 0.0950637 0.28954
0.700298 0.0950179 0.289433
0.0265965 0.060914 0.135302
0.0366979 0.0542 0.150454
0.202289 0.0493935 0.179644
0.501122 0.0577249 0.189715
0.67776 0.08159 0.244602
0.684581 0.0854047 0.258686
0.688228 0.0875563 0.265995
0.689235 0.0881361 0.268193
0.689158 0.0881208 0.268025
0.0436866 0.173373 0.154452
0.0433356 0.169406 0.146975
0.144381 0.173083 0.135058
0.490608 0.0967422 0.107546
0.631174 0.0761578 0.121828
0.646983 0.0783246 0.156985
0.650553 0.0783246 0.166415
0.651896 0.0784466 0.16965
0.652232 0.0785687 0.170504
0.0619821 0.520394 0.238743
0.0612955 0.518502 0.218723
0.0621042 0.515724 0.129641
0.457313 0.501366 0.0897688
0.840131 0.539513 0.222293
0.870649 0.499825 0.250492
0.861631 0.462593 0.247181
0.857191 0.447059 0.245792
0.853803 0.439017 0.243549
0.272725 0.870298 0.457847
0.275776 0.868681 0.441199
0.306828 0.869688 0.384344
0.43798 0.882231 0.302281
0.867765 0.899535 0.383169
0.96495 0.903014 0.439719
0.96202 0.893706 0.433082
0.959991 0.888594 0.429191
0.959304 0.886107 0.427497
0.393271 0.961608 0.546578
0.388968 0.954513 0.528511
0.391821 0.954726 0.522774
0.393729 0.951186 0.505272
0.804013 0.960037 0.409201
1 0.990555 0.511589
1 0.991287 0.514275
1 0.991196 0.514733
1 0.991608 0.514443
0.391272 0.962005 0.553948
0.391989 0.958984 0.539132
0.394736 0.957732 0.527657
0.400916 0.959167 0.519387
0.733654 0.964553 0.396719
0.987701 0.988006 0.500359
1 0.991653 0.513771
1 0.991257 0.514046
1 0.991089 0.514427
0.388098 0.959869 0.553704
0.390906 0.958724 0.541207
0.393591 0.956893 0.527367
0.39884 0.957336 0.517464
0.707668 0.968246 0.396719
0.980713 0.987121 0.496391
1 0.991531 0.51429
1 0.990967 0.514809
1 0.990738 0.514687
0.389258 0.961837 0.558968
0.38735 0.956405 0.540566
0.391043 0.954772 0.524681
0.39501 0.953979 0.513085
0.709728 0.965118 0.393301
0.980102 0.987289 0.496193
1 0.991913 0.51397
1 0.991257 0.51458
1 0.991241 0.514885
0.0390173 0.054612 0.356771
0.0726329 0.0480049 0.358999
0.203235 0.0506294 0.390204
0.512337 0.0525826 0.468254
0.692988 0.0806134 0.444068
0.690761 0.0804608 0.456443
0.689158 0.079881 0.460441
0.691875 0.082002 0.462104
0.692119 0.0818952 0.460594
0.0247959 0.0720226 0.335576
0.0381628 0.0547951 0.348318
0.176196 0.0503853 0.377432
0.501701 0.0522469 0.456199
0.68481 0.0729992 0.427924
0.693095 0.080354 0.441505
0.691936 0.0799725 0.445655
0.691264 0.0796216 0.446372
0.690654 0.0790417 0.444678
0.0297246 0.140078 0.294026
0.0292821 0.13022 0.292988
0.0653544 0.0740978 0.350088
0.460121 0.051667 0.40766
0.703059 0.0855421 0.382605
0.702678 0.0854505 0.390738
0.701411 0.0843977 0.394049
0.70132 0.0842908 0.394629
0.701656 0.0846113 0.393744
0.0558175 0.433295 0.391196
0.0553597 0.429099 0.38497
0.0551766 0.418601 0.365698
0.390158 0.422797 0.346075
0.845777 0.371618 0.344366
0.828214 0.284245 0.297246
0.802228 0.252613 0.278737
0.793805 0.241688 0.273777
0.789792 0.237171 0.270344
0.20943 0.823377 0.561837
0.208331 0.822797 0.552651
0.206836 0.821775 0.519326
0.24596 0.824903 0.34995
0.817517 0.852461 0.328099
0.950301 0.863371 0.409888
0.94345 0.849104 0.398108
0.941695 0.843015 0.394003
0.940002 0.840803 0.391669
0.366232 0.955886 0.654231
0.36524 0.95465 0.645472
0.372381 0.959197 0.626154
0.388296 0.952071 0.520073
0.742245 0.962997 0.396506
0.998947 0.990112 0.508034
1 0.99144 0.514305
1 0.99147 0.514565
1 0.991791 0.514351
0.367269 0.956741 0.654154
0.36907 0.958099 0.65037
0.376226 0.962737 0.631266
0.39733 0.960342 0.531533
0.652308 0.97319 0.399039
0.973114 0.98558 0.491249
1 0.991516 0.513756
1 0.99144 0.513817
1 0.991211 0.51426
0.365026 0.954772 0.651072
0.368109 0.95729 0.64892
0.375723 0.962249 0.630838
0.3944 0.957839 0.529
0.616419 0.978576 0.408515
0.962386 0.983993 0.485161
1 0.991577 0.514122
1 0.991608 0.514366
1 0.990875 0.514534
0.365072 0.955001 0.654765
0.365179 0.954803 0.649134
0.373175 0.960281 0.631251
0.390341 0.954406 0.524834
0.616297 0.974884 0.403296
0.961273 0.98439 0.484855
1 0.991913 0.51368
1 0.991852 0.514092
1 0.99118 0.514626
0.0416571 0.055787 0.560693
0.0757305 0.0466316 0.559442
0.192554 0.053193 0.588129
0.45803 0.0677958 0.6533
0.674723 0.129015 0.652369
0.672282 0.131319 0.661097
0.671443 0.131746 0.663157
0.671351 0.131777 0.663218
0.671458 0.13167 0.662364
0.0161593 0.0700847 0.56173
0.0429389 0.0552529 0.557717
0.168551 0.0522316 0.579293
0.444404 0.0663615 0.649454
0.675364 0.128145 0.648966
0.673579 0.130571 0.657008
0.672602 0.13109 0.659251
0.672709 0.131106 0.659495
0.673091 0.130968 0.659342
0.0278935 0.123018 0.563165
0.0278782 0.114611 0.567208
0.0549935 0.0519265 0.550011
0.389593 0.0612192 0.631144
0.672755 0.121828 0.636454
0.67805 0.126619 0.6421
0.677638 0.127169 0.644144
0.677775 0.127138 0.64419
0.677821 0.127047 0.643732
0.0413672 0.376257 0.588052
0.0411994 0.368917 0.588174
0.0400244 0.343618 0.590372
0.264546 0.249851 0.648951
0.771099 0.223087 0.711757
0.728161 0.143679 0.610803
0.697368 0.112795 0.575418
0.689998 0.104524 0.564431
0.687739 0.101549 0.55993
0.161089 0.715969 0.682231
0.159167 0.714641 0.678981
0.154025 0.710124 0.671397
0.140795 0.699382 0.645808
0.691554 0.705272 0.63975
0.954696 0.707637 0.645274
0.953094 0.687449 0.630564
0.952712 0.679545 0.623926
0.952316 0.676448 0.62063
0.356313 0.930709 0.766186
0.355779 0.930953 0.763363
0.355642 0.933471 0.75317
0.354894 0.939956 0.718318
0.526345 0.998932 0.492317
0.993805 0.992798 0.513909
1 0.991608 0.513985
1 0.991348 0.513619
1 0.991287 0.513268
0.357 0.932738 0.761975
0.357076 0.9337 0.759426
0.357092 0.93637 0.748837
0.357412 0.943587 0.713146
0.411231 0.953445 0.483619
0.939483 0.978912 0.470741
1 0.990936 0.513115
1 0.991058 0.513771
1 0.991501 0.513588
0.356237 0.93225 0.760281
0.356893 0.933761 0.757855
0.356741 0.936309 0.747005
0.357107 0.943496 0.710979
0.39942 0.95407 0.505043
0.917113 0.97464 0.45861
1 0.991135 0.512551
1 0.991638 0.51397
1 0.991211 0.513863
0.35668 0.931899 0.763531
0.356237 0.93225 0.760266
0.355978 0.934859 0.748898
0.35555 0.941634 0.711604
0.395071 0.950378 0.49955
0.91487 0.974121 0.457221
1 0.990982 0.512245
1 0.991684 0.513741
1 0.991409 0.513924
0.0753033 0.0480049 0.588174
0.101884 0.0471962 0.596689
0.198596 0.0568093 0.632822
0.426169 0.0746624 0.686198
0.65803 0.137179 0.689082
0.658854 0.13753 0.689021
0.658854 0.137545 0.689021
0.658915 0.137514 0.689021
0.658961 0.137469 0.688975
0.0460517 0.0573434 0.582742
0.0749676 0.0481422 0.588129
0.177172 0.0557412 0.625803
0.411399 0.0729076 0.684337
0.657374 0.13698 0.688853
0.658518 0.137667 0.688594
0.658488 0.137667 0.688579
0.658656 0.137606 0.688609
0.658946 0.137499 0.689113
0.0426032 0.117494 0.610773
0.0409552 0.105837 0.605066
0.0769665 0.0484169 0.589227
0.353109 0.0669413 0.673961
0.649226 0.134203 0.688258
0.658579 0.137591 0.688457
0.658625 0.137621 0.688685
0.658778 0.13756 0.688884
0.658808 0.137575 0.689067
0.0628061 0.276204 0.669337
0.0619669 0.267872 0.667308
0.0585641 0.239109 0.65893
0.164843 0.101045 0.658274
0.589837 0.124041 0.708125
0.659251 0.138033 0.689219
0.659068 0.137896 0.689143
0.65922 0.137774 0.689403
0.659098 0.137789 0.689189
0.152178 0.616938 0.743877
0.150103 0.614206 0.742
0.145052 0.603967 0.7393
0.131533 0.570809 0.732982
0.580591 0.560922 0.851789
0.943069 0.576089 0.916671
0.941299 0.553262 0.908446
0.9402 0.545571 0.904967
0.939147 0.54229 0.902693
0.335393 0.872786 0.844892
0.331807 0.870527 0.84358
0.32398 0.862135 0.833524
0.293095 0.836652 0.802533
0.325216 0.871061 0.825696
0.907683 0.912459 0.876143
0.981598 0.916625 0.881132
0.980591 0.911315 0.875639
0.978576 0.910094 0.871916
0.358724 0.894469 0.859602
0.356512 0.895232 0.860456
0.358602 0.897475 0.853742
0.358022 0.905745 0.836561
0.364034 0.929381 0.796368
0.835355 0.998932 0.790402
1 0.998138 0.575219
1 0.991241 0.512779
1 0.991638 0.512215
0.357366 0.894804 0.860578
0.358312 0.895262 0.858518
0.359319 0.897932 0.851926
0.358557 0.90692 0.833524
0.361044 0.929671 0.785489
0.796643 0.998932 0.767529
1 0.998932 0.62443
1 0.991043 0.513008
1 0.99144 0.512413
0.357748 0.893538 0.862959
0.358495 0.894057 0.861051
0.35845 0.897078 0.854765
0.357763 0.906233 0.835447
0.359289 0.929107 0.78526
0.792523 0.998932 0.76907
1 0.998932 0.640604
1 0.991531 0.512627
1 0.991302 0.51252
0.0973983 0.0469215 0.595026
0.125414 0.0493477 0.605936
0.213016 0.057496 0.637201
0.438499 0.0764782 0.687831
0.659007 0.137484 0.689158
0.658991 0.137469 0.689082
0.659007 0.137469 0.689067
0.659022 0.137453 0.689067
0.659022 0.137438 0.688975
0.069398 0.0489815 0.586709
0.0973831 0.0469673 0.59501
0.191714 0.0565652 0.630701
0.423438 0.0742962 0.685817
0.658412 0.137301 0.688991
0.6589 0.137499 0.68893
0.65861 0.137636 0.688579
0.658701 0.137591 0.688777
0.659022 0.137484 0.689219
0.041474 0.108598 0.606516
0.0365759 0.0850385 0.593378
0.0990921 0.0472877 0.596017
0.364782 0.0680247 0.676387
0.654154 0.13579 0.688579
0.65893 0.137453 0.688792
0.658717 0.137575 0.688777
0.658808 0.13753 0.688823
0.659007 0.137469 0.689113
0.0581216 0.235294 0.65771
0.0564584 0.226352 0.654307
0.0532235 0.200061 0.645167
0.144762 0.0616159 0.623331
0.575204 0.107958 0.690486
0.659022 0.137636 0.688991
0.6589 0.137514 0.688945
0.659022 0.137484 0.689235
0.659022 0.137469 0.689128
0.151125 0.585 0.753979
0.149584 0.582406 0.752789
0.145876 0.572244 0.75111
0.131807 0.537789 0.742397
0.540902 0.495598 0.864759
0.919127 0.513146 0.938857
0.913481 0.487526 0.934768
0.911238 0.477699 0.93315
0.909651 0.473487 0.931838
0.303929 0.815717 0.855344
0.298436 0.812039 0.8542
0.287068 0.796353 0.845319
0.242054 0.734234 0.813352
0.254139 0.740108 0.830961
0.845258 0.839048 0.94583
0.973022 0.856931 0.974212
0.972595 0.850629 0.972671
0.970718 0.849256 0.970611
0.351339 0.871824 0.887373
0.347616 0.872892 0.888182
0.349355 0.872251 0.888289
0.353826 0.871092 0.887236
0.365164 0.890806 0.881376
0.582071 0.98378 0.959686
0.980941 0.981506 0.974105
0.994278 0.982467 0.975128
0.99353 0.981918 0.973587
0.350774 0.872068 0.887236
0.347387 0.873045 0.887968
0.349706 0.872038 0.888579
0.353475 0.871061 0.887816
0.361852 0.89247 0.871717
0.428138 0.950454 0.908949
0.970901 0.991257 0.957015
0.996399 0.990112 0.950484
0.99678 0.990677 0.937774
0.351171 0.871946 0.887221
0.347463 0.872847 0.888472
0.35317 0.87129 0.887175
0.353307 0.871366 0.886976
0.358984 0.893965 0.87155
0.431296 0.954162 0.910048
0.967987 0.991028 0.955474
0.997238 0.989776 0.950957
0.996872 0.990906 0.932906
0.10573 0.0472725 0.597986
0.132723 0.050309 0.608896
0.21796 0.0578164 0.638743
0.442313 0.0769055 0.688075
0.659007 0.137484 0.689158
0.659022 0.137469 0.689097
0.659022 0.137484 0.68925
0.659022 0.137499 0.689265
0.659022 0.137438 0.688991
0.0784314 0.0477455 0.589151
0.105241 0.0472419 0.597772
0.196445 0.0567941 0.632197
0.426917 0.0747692 0.68629
0.658808 0.137438 0.689036
0.659022 0.137453 0.689021
0.658824 0.13753 0.688869
0.658717 0.137575 0.688746
0.659022 0.137484 0.689204
0.040116 0.102571 0.60322
0.0350347 0.078645 0.589395
0.107286 0.0475929 0.598856
0.368658 0.0682994 0.677012
0.655451 0.136202 0.688624
0.659022 0.137423 0.688838
0.658946 0.137484 0.688991
0.658808 0.13753 0.688823
0.659022 0.137469 0.689128
0.0561074 0.221607 0.652903
0.0548409 0.213169 0.64976
0.0514382 0.186282 0.640024
0.138064 0.0530709 0.613153
0.576257 0.107683 0.689433
0.659007 0.137453 0.689036
0.658915 0.137484 0.688899
0.659007 0.137484 0.689143
0.659022 0.137453 0.689067
0.148821 0.57882 0.752941
0.146761 0.575814 0.751156
0.142916 0.565606 0.749203
0.128054 0.528405 0.739803
0.534524 0.480629 0.861402
0.915007 0.496956 0.93579
0.909178 0.469398 0.931319
0.906813 0.459159 0.929564
0.905821 0.45417 0.928878
0.295079 0.807828 0.851453
0.291981 0.803586 0.849821
0.266606 0.770993 0.830594
0.235767 0.723507 0.810178
0.24741 0.728527 0.827085
0.835081 0.821286 0.943603
0.967926 0.838544 0.973541
0.967132 0.830549 0.972961
0.96556 0.82771 0.971786
0.351278 0.871931 0.887175
0.347616 0.872892 0.888167
0.347539 0.872786 0.888609
0.349325 0.872297 0.888151
0.35314 0.879576 0.893019
0.477638 0.926284 0.961349
0.969207 0.968139 0.986007
0.994781 0.971405 0.994263
0.99321 0.971145 0.992676
0.350866 0.872038 0.887221
0.347204 0.873091 0.888014
0.347311 0.872999 0.888197
0.34963 0.87219 0.888182
0.355886 0.874876 0.889067
0.388647 0.913848 0.9187
0.909941 0.991379 0.990707
0.994354 0.990021 0.993988
0.994064 0.990143 0.993759
0.351217 0.871916 0.887221
0.347463 0.872847 0.888487
0.347494 0.872831 0.888518
0.350134 0.87216 0.887709
0.351339 0.875975 0.890471
0.390692 0.915221 0.917021
0.903868 0.991928 0.989319
0.994614 0.989899 0.993255
0.993866 0.990219 0.992966
0.107546 0.0473487 0.598642
0.13489 0.0506752 0.609827
0.219226 0.0578622 0.639094
0.442863 0.0769665 0.688121
0.659022 0.137484 0.689174
0.659022 0.137469 0.689097
0.659022 0.137484 0.689189
0.659022 0.137484 0.68925
0.659022 0.137438 0.688991
0.0807507 0.0475319 0.589837
0.107912 0.047425 0.59881
0.197635 0.0568246 0.632547
0.427436 0.0748913 0.686427
0.658961 0.137438 0.689097
0.659022 0.137453 0.689021
0.659022 0.137453 0.689052
0.659022 0.137453 0.689021
0.659022 0.137484 0.689204
0.0398871 0.100343 0.602136
0.0344396 0.076585 0.588022
0.109926 0.0477913 0.599878
0.369574 0.0683604 0.67715
0.655299 0.136141 0.688609
0.659022 0.137423 0.688823
0.659022 0.137453 0.689036
0.659022 0.137453 0.689006
0.659022 0.137469 0.689128
0.0552834 0.216876 0.651072
0.0541085 0.208392 0.648005
0.0511177 0.18204 0.63856
0.139956 0.0527199 0.61326
0.576684 0.107836 0.689418
0.659022 0.137453 0.689021
0.659022 0.137453 0.689006
0.659022 0.137469 0.689143
0.659022 0.137453 0.689067
0.147616 0.576669 0.752026
0.1458 0.573648 0.750561
0.141787 0.56289 0.748531
0.12697 0.525353 0.739116
0.532662 0.475349 0.860563
0.913527 0.490425 0.934707
0.907362 0.463966 0.929763
0.904814 0.453407 0.92781
0.903395 0.447761 0.926726
0.292699 0.805203 0.849912
0.287465 0.798291 0.846174
0.264561 0.766033 0.82855
0.233677 0.720806 0.808621
0.245151 0.725307 0.825391
0.831998 0.816312 0.942138
0.967498 0.833829 0.97319
0.966293 0.825635 0.972488
0.964218 0.822553 0.97081
0.347204 0.873106 0.887999
0.347143 0.873152 0.887892
0.347417 0.872892 0.888411
0.347402 0.872908 0.888365
0.352956 0.879728 0.892683
0.511421 0.925673 0.961913
0.966567 0.965637 0.984298
0.993439 0.969146 0.993591
0.991409 0.968414 0.991867
0.347097 0.873198 0.8878
0.347021 0.873274 0.887648
0.347173 0.873121 0.887938
0.347448 0.872862 0.888457
0.34992 0.876539 0.890105
0.38529 0.912596 0.919631
0.877394 0.985748 0.991867
0.993561 0.990341 0.993347
0.992782 0.990662 0.992721
0.346868 0.873411 0.887373
0.347021 0.873274 0.887663
0.347021 0.873274 0.887663
0.347036 0.873259 0.887678
0.34992 0.876554 0.890059
0.385351 0.913039 0.91957
0.792508 0.989761 0.994644
0.992096 0.990158 0.993606
0.992432 0.990814 0.992432
