bundles/resolve-cinematic-luts/Phantom Luts/Komodo Phantom ARRI LUTs G2/Komodo Phantom ARRI LUTs G2/65x/Standard (No WB Offset)/Jamaica_Komodo_Legacy_G2_65x.cube
TITLE "Generated by Resolve"
LUT_3D_SIZE 65
0.0417182 0.0497444 0.0416571
0.0417334 0.0497292 0.0416571
0.0417334 0.0497139 0.0416724
0.0417487 0.0496834 0.0416724
0.0422217 0.0496376 0.0416571
0.0455634 0.0497292 0.0417029
0.0522774 0.0498512 0.041886
0.0592508 0.0495918 0.0416571
0.0681163 0.0493935 0.0417334
0.0784161 0.0492256 0.0419776
0.0910353 0.0488136 0.0420996
0.10518 0.0480812 0.042237
0.120485 0.0473945 0.0426795
0.139208 0.0466926 0.0433204
0.159014 0.0458839 0.0440681
0.180652 0.0453651 0.0450904
0.204623 0.0449073 0.0462959
0.229938 0.0446937 0.0480659
0.258457 0.0446937 0.0506142
0.289342 0.0452583 0.052903
0.323323 0.0460365 0.0569467
0.360433 0.0463874 0.061738
0.399496 0.0467689 0.0678264
0.441855 0.0469978 0.0750439
0.48188 0.0473945 0.0822614
0.521035 0.0482185 0.0918441
0.554925 0.0491646 0.100877
0.58352 0.0505837 0.110033
0.605509 0.0526589 0.121096
0.6177 0.0549325 0.129244
0.632441 0.0675669 0.137987
0.642496 0.0758526 0.149493
0.645151 0.0772412 0.154284
0.64651 0.0775464 0.157351
0.647837 0.0778363 0.16022
0.649088 0.0780652 0.163073
0.650095 0.078172 0.165484
0.650874 0.0783093 0.167529
0.65185 0.0784772 0.169909
0.652796 0.0786145 0.172183
0.653635 0.0787671 0.174121
0.654551 0.0789044 0.176226
0.655451 0.0790723 0.178286
0.655802 0.0791791 0.17908
0.656336 0.0792706 0.180362
0.656886 0.0793774 0.18175
0.657252 0.0794995 0.182986
0.661799 0.0843214 0.185397
0.654337 0.075639 0.183963
0.654597 0.0757153 0.184741
0.654856 0.0757916 0.185397
0.649485 0.0699168 0.184192
0.64976 0.0700236 0.184771
0.649943 0.0700847 0.185199
0.650156 0.070161 0.185657
0.650309 0.0702068 0.185977
0.650462 0.0702678 0.186313
0.650584 0.0703136 0.186572
0.65069 0.0703441 0.186786
0.650782 0.0703593 0.186954
0.650874 0.0703899 0.187091
0.65095 0.0704051 0.187182
0.651011 0.0704356 0.187243
0.651041 0.0704356 0.187213
0.651041 0.0704356 0.187137
0.0417639 0.0496376 0.0416876
0.0417639 0.0496681 0.0416724
0.0417487 0.0496834 0.0416724
0.0417639 0.0496681 0.0416724
0.0418708 0.0496529 0.0416724
0.0442969 0.0497292 0.0417182
0.0507668 0.0498512 0.0418708
0.0578927 0.0496986 0.0417182
0.0666514 0.049485 0.0417029
0.0770123 0.0493172 0.0419471
0.0898299 0.0488899 0.0420691
0.10399 0.048127 0.0421912
0.119524 0.0474708 0.0427405
0.138018 0.0467689 0.0433661
0.158282 0.0459297 0.0439307
0.179965 0.0453193 0.0446632
0.20293 0.0447242 0.0452583
0.22855 0.0445106 0.0466316
0.256184 0.0442969 0.0487831
0.287984 0.0445411 0.0512551
0.321904 0.0451972 0.0542153
0.358633 0.0456703 0.0590372
0.398428 0.0460365 0.0652171
0.439963 0.0462501 0.0717937
0.482002 0.0467079 0.0801099
0.518959 0.047425 0.0886702
0.553048 0.0484779 0.0974746
0.581048 0.0497292 0.105684
0.603952 0.0519722 0.118364
0.616403 0.0544442 0.126635
0.631312 0.0676127 0.135088
0.641749 0.0759594 0.147478
0.644343 0.0770581 0.152499
0.64564 0.0773632 0.155322
0.646998 0.0776684 0.158358
0.648219 0.0779278 0.161059
0.64947 0.0781109 0.163989
0.650248 0.0782177 0.165805
0.651072 0.0783551 0.167971
0.651926 0.0784772 0.170077
0.652781 0.0785992 0.172137
0.653605 0.0787671 0.174029
0.654551 0.0789044 0.176181
0.655131 0.0790417 0.177478
0.655497 0.0791028 0.178393
0.655909 0.0791943 0.179355
0.656397 0.0792706 0.180514
0.662989 0.0867018 0.183612
0.662165 0.0853895 0.184222
0.662486 0.0854353 0.185122
0.662776 0.0854658 0.185855
0.654169 0.0756085 0.183719
0.648569 0.0695506 0.182269
0.648783 0.0696269 0.182742
0.648951 0.0697032 0.183108
0.649073 0.0697642 0.183352
0.64921 0.0698253 0.183627
0.649332 0.0698711 0.183886
0.649439 0.0699016 0.184085
0.649531 0.0699168 0.184268
0.649638 0.0699474 0.184436
0.649714 0.0699779 0.184527
0.649775 0.0699779 0.184588
0.64979 0.0699931 0.184573
0.649805 0.0699931 0.184482
0.0417639 0.0496529 0.0416876
0.0417487 0.0496834 0.0416724
0.0417334 0.0497139 0.0416724
0.0417334 0.0497139 0.0416724
0.0417487 0.0496986 0.0416724
0.0431067 0.0497597 0.0416876
0.0483558 0.0499886 0.0418402
0.0556649 0.0499886 0.0417945
0.06421 0.0497444 0.0417945
0.0748455 0.049546 0.0418555
0.0870832 0.0491798 0.0420386
0.101579 0.0484321 0.0420996
0.117052 0.0477302 0.0426337
0.135851 0.0470588 0.0433509
0.156603 0.046128 0.0437476
0.178042 0.0454871 0.0445411
0.201343 0.0447852 0.0450141
0.226535 0.044419 0.0460212
0.254353 0.0440986 0.0475013
0.284825 0.0440528 0.0493782
0.318257 0.0445106 0.0514382
0.35552 0.044831 0.0555734
0.395148 0.0451514 0.060914
0.437476 0.0454414 0.0678721
0.479606 0.0458839 0.0760662
0.51751 0.0464637 0.0851453
0.551629 0.0475471 0.0945907
0.579736 0.0489357 0.103441
0.600641 0.0509041 0.112551
0.613214 0.0533608 0.121279
0.629831 0.0673381 0.13193
0.640299 0.0758679 0.143984
0.643107 0.0769207 0.149523
0.644709 0.0771038 0.153338
0.645869 0.0774395 0.15581
0.647211 0.0777295 0.158801
0.648356 0.0779583 0.161379
0.6495 0.0781262 0.164034
0.650233 0.078233 0.165774
0.65098 0.0783398 0.167712
0.651774 0.0784619 0.169711
0.652537 0.0785687 0.171511
0.653254 0.0786755 0.173129
0.654032 0.0787976 0.174914
0.654734 0.0789349 0.176577
0.655177 0.0790417 0.177615
0.655436 0.0791028 0.178225
0.655741 0.0791485 0.178958
0.65597 0.0792401 0.179675
0.656199 0.0793164 0.180453
0.656413 0.0793774 0.181125
0.656626 0.0794385 0.181735
0.662104 0.0854658 0.183993
0.662303 0.0854963 0.184466
0.662455 0.0855116 0.184833
0.662577 0.0855268 0.185183
0.662699 0.0855573 0.185473
0.662791 0.0855726 0.185733
0.662882 0.0855879 0.185962
0.662974 0.0856031 0.186145
0.663066 0.0856031 0.186358
0.663111 0.0856184 0.186465
0.663127 0.0856336 0.186511
0.663127 0.0856336 0.186496
0.663142 0.0856641 0.186389
0.0417639 0.0496529 0.0416876
0.0417487 0.0496834 0.0416724
0.0417334 0.0497139 0.0416724
0.0417334 0.0497139 0.0416724
0.0417487 0.0496986 0.0416724
0.0422675 0.0497292 0.0416724
0.045594 0.0500801 0.041886
0.0527504 0.0503395 0.0420539
0.0608377 0.0502327 0.0419165
0.071046 0.0500343 0.0419471
0.08336 0.0497444 0.0419623
0.097734 0.0490883 0.0419318
0.113741 0.0483406 0.0423743
0.132723 0.0475776 0.0430762
0.153658 0.0466163 0.0436255
0.175601 0.0458839 0.044419
0.198886 0.0451209 0.0448768
0.224735 0.0446632 0.0458534
0.252018 0.0442359 0.0469368
0.282048 0.0441291 0.0483101
0.315633 0.0442512 0.0502174
0.351446 0.0443122 0.0525673
0.391257 0.0442817 0.0569009
0.433707 0.0443885 0.062974
0.475746 0.0448615 0.0711528
0.515282 0.0453956 0.0801556
0.548592 0.0462806 0.0899062
0.577493 0.0479438 0.099794
0.598566 0.0502174 0.109071
0.622187 0.066743 0.121157
0.628748 0.0682994 0.127642
0.636744 0.0748608 0.13666
0.641291 0.0767834 0.14522
0.643214 0.0769513 0.149737
0.64477 0.0771191 0.153445
0.645914 0.0774548 0.155871
0.64715 0.0777142 0.158694
0.648249 0.0779583 0.161105
0.649393 0.0781109 0.163775
0.649989 0.0782177 0.165148
0.650675 0.0783093 0.166934
0.651377 0.0784009 0.168688
0.652064 0.0784924 0.170336
0.652735 0.078584 0.171847
0.653254 0.0786755 0.173068
0.653758 0.0787671 0.174289
0.654322 0.0788586 0.17557
0.65481 0.0789502 0.176761
0.655161 0.0790112 0.177615
0.65536 0.0790723 0.178164
0.65539 0.0791485 0.178485
0.655451 0.0791943 0.178759
0.655558 0.0792248 0.179095
0.655695 0.0792706 0.179446
0.655818 0.0793011 0.179751
0.65594 0.0793164 0.180041
0.656046 0.0793317 0.180346
0.656138 0.0793469 0.18056
0.656214 0.0793622 0.180758
0.656275 0.0793622 0.180911
0.656352 0.0793622 0.181064
0.656413 0.0793774 0.18117
0.656458 0.0793927 0.181216
0.656489 0.0793927 0.181216
0.656519 0.0793774 0.181186
0.0418097 0.0502785 0.0418097
0.0417639 0.0501259 0.0417182
0.0417487 0.0501106 0.0417029
0.0418402 0.0500496 0.0416724
0.0420081 0.0499275 0.0416571
0.0419776 0.0498512 0.0417029
0.0436103 0.0500343 0.041825
0.0494392 0.05066 0.0422217
0.0570687 0.0506905 0.0421149
0.0671244 0.05066 0.0420233
0.0788434 0.0504311 0.0417639
0.0932784 0.0498817 0.0418708
0.109667 0.0492103 0.0421302
0.128161 0.0484474 0.0428016
0.149371 0.0475166 0.0433356
0.171893 0.0466773 0.0442206
0.195834 0.0458991 0.0446784
0.221851 0.0453498 0.0454566
0.249302 0.0448768 0.0466316
0.280262 0.0445258 0.0480812
0.313115 0.0445716 0.0495155
0.348638 0.044419 0.0513466
0.388037 0.0441138 0.0544289
0.429129 0.0436866 0.0586709
0.471061 0.0437324 0.0652781
0.511452 0.0440833 0.0742199
0.545724 0.0451057 0.0846876
0.573983 0.0465705 0.0942702
0.595453 0.0490425 0.103807
0.615946 0.0610666 0.114809
0.626245 0.0682689 0.121798
0.634745 0.0748913 0.131746
0.637476 0.0758373 0.137179
0.641169 0.0767834 0.1449
0.643061 0.076936 0.149386
0.644602 0.0770733 0.153017
0.64567 0.0773938 0.155291
0.646799 0.0776226 0.15787
0.647868 0.0778973 0.160235
0.648829 0.0780194 0.162478
0.649577 0.078172 0.164141
0.650187 0.078233 0.165652
0.650736 0.0783093 0.167086
0.651347 0.0783703 0.168536
0.651911 0.0784314 0.169848
0.652354 0.0785229 0.170947
0.652811 0.078584 0.171954
0.653193 0.078645 0.172808
0.653498 0.078706 0.173526
0.653742 0.0787518 0.174228
0.654032 0.0787823 0.17496
0.654215 0.0788434 0.175601
0.654353 0.0789349 0.176135
0.654536 0.0789807 0.176654
0.654734 0.0790265 0.177157
0.654871 0.079057 0.177539
0.654994 0.0790723 0.177798
0.6551 0.0790875 0.178088
0.655161 0.079118 0.178225
0.655207 0.0791333 0.178317
0.655253 0.0791333 0.178393
0.655283 0.0791333 0.178454
0.655299 0.0791485 0.178424
0.655314 0.0791333 0.178408
0.655329 0.0791333 0.178363
0.0419013 0.0524453 0.0422217
0.0418708 0.0523537 0.0420386
0.0417792 0.0521096 0.0419471
0.0419013 0.0518349 0.0418402
0.0422827 0.0514076 0.0417487
0.0427558 0.0508736 0.0418097
0.0433967 0.050721 0.0419318
0.0466773 0.051194 0.0423133
0.0534524 0.0517128 0.0425879
0.0626841 0.0517281 0.0426642
0.0741436 0.0516213 0.042359
0.0880903 0.0509041 0.0417029
0.104448 0.050248 0.0419318
0.123033 0.0495308 0.0424353
0.144366 0.0485847 0.0428779
0.167254 0.0478065 0.0438087
0.191745 0.046952 0.0445258
0.217823 0.0463722 0.0451972
0.245899 0.0458534 0.0460517
0.276692 0.045655 0.0475624
0.310369 0.045655 0.0491646
0.346471 0.0452583 0.0510719
0.385016 0.0445106 0.0533455
0.425422 0.0435645 0.0561379
0.466194 0.043183 0.0608377
0.506035 0.0432746 0.0678874
0.539834 0.0437629 0.076524
0.568856 0.0450294 0.0867018
0.590768 0.0473182 0.0969863
0.612222 0.0601511 0.108431
0.623255 0.0679789 0.115358
0.630915 0.0741283 0.123705
0.634668 0.0757305 0.130556
0.63679 0.0758221 0.135546
0.640497 0.0767071 0.143359
0.642344 0.0768902 0.147646
0.643809 0.0770428 0.151034
0.645106 0.0772412 0.154025
0.646082 0.0775006 0.156191
0.647135 0.0777142 0.158556
0.647974 0.0778973 0.16051
0.648798 0.0780041 0.162432
0.649424 0.0781415 0.16379
0.649851 0.0782025 0.164843
0.650339 0.0782483 0.166033
0.650736 0.078294 0.167025
0.651179 0.0783398 0.168063
0.65156 0.0783703 0.168887
0.651896 0.0784009 0.169619
0.652171 0.0784466 0.170275
0.652399 0.0784924 0.170901
0.652552 0.0785382 0.17145
0.652766 0.0785534 0.171939
0.652842 0.0786145 0.172381
0.652934 0.0786603 0.172732
0.653025 0.0786908 0.172976
0.653117 0.0787213 0.173159
0.653178 0.0787518 0.173312
0.653239 0.0787671 0.173465
0.6533 0.0787671 0.173617
0.653361 0.0787671 0.17377
0.653422 0.0787823 0.173861
0.653437 0.0787823 0.173877
0.653483 0.0787823 0.173922
0.653529 0.0787823 0.173877
0.0418555 0.057435 0.0426337
0.0417945 0.0572518 0.0423743
0.0417334 0.0570382 0.0423285
0.041825 0.0568093 0.0423285
0.0426337 0.056199 0.042298
0.0436866 0.0554971 0.0421912
0.0452583 0.0545968 0.042359
0.0487678 0.0542763 0.0429694
0.0535897 0.0548409 0.0437476
0.0609598 0.0548562 0.0442359
0.071107 0.0542458 0.0439765
0.0834821 0.0530556 0.0429541
0.0991073 0.0520027 0.0420691
0.117571 0.0513466 0.0418402
0.139116 0.0502937 0.0424811
0.162402 0.0492714 0.0431525
0.186923 0.0484016 0.0440986
0.214191 0.0477913 0.044892
0.242054 0.0471656 0.0457618
0.273793 0.0469825 0.0472725
0.307759 0.0468757 0.0487984
0.343587 0.0463264 0.0508888
0.382834 0.0455329 0.0531014
0.422644 0.0446174 0.0556497
0.463554 0.0436561 0.0590372
0.502068 0.043061 0.0637675
0.533578 0.04271 0.0682078
0.56202 0.0437018 0.076936
0.589715 0.0538033 0.0894636
0.608652 0.0609903 0.0999161
0.619471 0.0673991 0.107759
0.626352 0.0729992 0.114702
0.630411 0.0750591 0.121477
0.633417 0.0756847 0.127626
0.635966 0.0758679 0.133486
0.637751 0.0758984 0.137713
0.641199 0.0768292 0.144869
0.642756 0.0769207 0.148577
0.643946 0.0770733 0.151339
0.64506 0.0772564 0.153887
0.645899 0.0774548 0.155795
0.646754 0.0776379 0.157717
0.647486 0.0778058 0.159396
0.648081 0.0779278 0.160708
0.648707 0.0779889 0.162219
0.64921 0.0780804 0.163348
0.649561 0.0781415 0.164065
0.649836 0.078172 0.16463
0.650111 0.0781872 0.165209
0.65037 0.0782025 0.165759
0.650568 0.078233 0.166262
0.650736 0.0782483 0.166781
0.650843 0.0782788 0.167239
0.650996 0.078294 0.167681
0.651118 0.0783246 0.168032
0.651164 0.0783703 0.168353
0.651255 0.0784009 0.168612
0.651347 0.0784161 0.168856
0.651423 0.0784161 0.169055
0.651484 0.0784314 0.169177
0.65153 0.0784314 0.169314
0.651576 0.0784466 0.169406
0.651621 0.0784466 0.169451
0.651667 0.0784466 0.169467
0.651713 0.0784466 0.169436
0.0418097 0.0628519 0.0429236
0.0417792 0.0626993 0.042649
0.0417792 0.0624552 0.0426642
0.0417945 0.0620432 0.042649
0.0421759 0.0615854 0.0425727
0.0439307 0.0606851 0.0425727
0.0460365 0.0598764 0.0427405
0.0498054 0.0589761 0.0431067
0.0549935 0.0587015 0.0438392
0.0617838 0.0591287 0.0449683
0.0715038 0.0588388 0.0458228
0.0838026 0.0585031 0.0458381
0.0979171 0.0575113 0.0445411
0.115053 0.0556649 0.0430304
0.134646 0.0536202 0.0423743
0.157229 0.051545 0.0425879
0.181811 0.0505379 0.0433356
0.208591 0.0495308 0.0442206
0.237766 0.0489357 0.0451667
0.26978 0.0487221 0.0465705
0.303517 0.0484016 0.0482338
0.340047 0.0477302 0.0504768
0.379065 0.0467689 0.0525216
0.419989 0.0457923 0.0553292
0.461051 0.0449073 0.0586862
0.500099 0.0440528 0.0631876
0.53341 0.0437018 0.0686198
0.559564 0.0440223 0.0740063
0.5841 0.0531014 0.081178
0.603159 0.0598459 0.0919051
0.615 0.0658274 0.100816
0.621805 0.0710918 0.106981
0.625376 0.0732738 0.1122
0.627558 0.0742657 0.115923
0.630472 0.0751202 0.121553
0.633249 0.0756542 0.127291
0.635645 0.0758221 0.132769
0.637385 0.0759136 0.136782
0.640604 0.0767529 0.143465
0.6421 0.0769055 0.146944
0.643275 0.0769665 0.149798
0.644221 0.0770733 0.152056
0.644999 0.0772259 0.153796
0.645594 0.0773938 0.155093
0.646174 0.0775006 0.156435
0.646738 0.0776226 0.157671
0.647242 0.0777295 0.15874
0.647684 0.077821 0.159625
0.64802 0.0778821 0.160204
0.648341 0.0778973 0.160861
0.648615 0.0779278 0.161486
0.648859 0.0779431 0.162081
0.649042 0.0779889 0.1626
0.649195 0.0780194 0.163104
0.649332 0.0780652 0.163592
0.649424 0.0780804 0.163943
0.649531 0.0780957 0.164187
0.649607 0.0780957 0.164385
0.649668 0.0780957 0.164523
0.649699 0.0781109 0.164645
0.649729 0.0781262 0.164691
0.649775 0.0781415 0.164797
0.64979 0.0781415 0.164767
0.64979 0.0781415 0.164752
0.649775 0.0781567 0.164706
0.0415961 0.0699321 0.0431373
0.0415808 0.0698558 0.0427863
0.0416724 0.0695354 0.0429541
0.0416876 0.069337 0.0429847
0.0417945 0.0688029 0.0430152
0.0432288 0.0680705 0.0430304
0.0460059 0.0670481 0.0431525
0.0492714 0.0657054 0.0432136
0.054902 0.0648661 0.0437934
0.0625467 0.0645762 0.04477
0.0716411 0.0648203 0.0462043
0.0837415 0.0644999 0.0473793
0.0991226 0.0638285 0.0476844
0.115816 0.0622568 0.0466011
0.13521 0.0604562 0.0449989
0.158221 0.0581521 0.0431678
0.180896 0.0555123 0.0423438
0.205402 0.0527199 0.0439155
0.232853 0.0512093 0.044358
0.26511 0.0507973 0.0459144
0.299504 0.0501411 0.0476997
0.335943 0.0492409 0.049897
0.375525 0.0482032 0.0519722
0.41706 0.0471962 0.0547951
0.458686 0.046128 0.0584115
0.498375 0.0453346 0.0627756
0.531945 0.044831 0.0680247
0.559167 0.0449073 0.0734874
0.584466 0.0532692 0.0818494
0.601984 0.0597086 0.0898756
0.611856 0.0650797 0.0953994
0.61828 0.0698405 0.100969
0.621103 0.0714427 0.104997
0.622782 0.0722362 0.107713
0.624811 0.073167 0.111116
0.626581 0.0738384 0.114305
0.62884 0.0747845 0.118288
0.631296 0.075288 0.123262
0.63386 0.0757763 0.128557
0.635691 0.0758526 0.13286
0.636927 0.0758221 0.13579
0.638956 0.0762493 0.140108
0.641001 0.0768292 0.144381
0.642008 0.0768749 0.146777
0.64271 0.076936 0.148455
0.643366 0.0770123 0.149966
0.643885 0.0770581 0.151171
0.644434 0.0770886 0.152438
0.644907 0.0771496 0.153414
0.645197 0.0772106 0.153948
0.645502 0.0772564 0.154498
0.645731 0.0773022 0.154925
0.645899 0.077348 0.155306
0.646052 0.0773785 0.155749
0.646143 0.0774243 0.156069
0.646235 0.0774701 0.15642
0.646311 0.0775006 0.156725
0.646387 0.0775158 0.157015
0.646479 0.0775464 0.157259
0.646555 0.0775616 0.157427
0.646632 0.0775616 0.157626
0.646677 0.0775769 0.157733
0.646723 0.0775921 0.157809
0.646769 0.0775921 0.157885
0.646784 0.0775921 0.157885
0.0417945 0.0790723 0.0438087
0.0416876 0.0787518 0.0429999
0.0417029 0.0784619 0.0433204
0.0417029 0.0779278 0.0432898
0.041474 0.0774701 0.0430915
0.0422217 0.0766918 0.0429847
0.0449683 0.0755169 0.043122
0.0485542 0.0740978 0.0433356
0.052903 0.0726787 0.043473
0.0611582 0.072282 0.0443122
0.0716869 0.0721141 0.0455329
0.0840314 0.0718853 0.0475166
0.100175 0.0715343 0.0493782
0.116884 0.0700847 0.0498207
0.137331 0.0679484 0.0493019
0.15967 0.0658579 0.0478065
0.182177 0.0634165 0.0454566
0.207843 0.0602579 0.0433661
0.233799 0.0573281 0.0429084
0.262577 0.0541695 0.0447242
0.295537 0.0522621 0.0471046
0.332143 0.0511482 0.0492561
0.371633 0.0499275 0.0512093
0.41265 0.0488136 0.0539559
0.455406 0.0476692 0.0575265
0.495674 0.0466926 0.0620432
0.530007 0.0459297 0.0671244
0.558175 0.0457771 0.0728161
0.579828 0.0467842 0.0796216
0.600916 0.0582895 0.0888228
0.612894 0.0654765 0.0967117
0.619196 0.0706188 0.101869
0.619944 0.071519 0.102358
0.618967 0.0709697 0.100938
0.619959 0.0712139 0.102815
0.621714 0.0718395 0.105913
0.62298 0.0723583 0.10808
0.624811 0.0731518 0.111208
0.626276 0.0737011 0.113817
0.627817 0.0744793 0.116365
0.629694 0.0749828 0.119997
0.631479 0.075349 0.123629
0.633326 0.0756847 0.127474
0.634607 0.0758068 0.130312
0.635737 0.0758679 0.132937
0.637095 0.076173 0.13576
0.636942 0.0758679 0.135805
0.637675 0.0759136 0.137438
0.637949 0.0758373 0.138109
0.639429 0.0763256 0.140917
0.640787 0.0767376 0.143526
0.641138 0.0767834 0.144198
0.641474 0.0768139 0.144915
0.641688 0.0768292 0.145434
0.641886 0.0768597 0.145953
0.642008 0.0768902 0.14638
0.6421 0.0769207 0.146761
0.642237 0.076936 0.147173
0.642329 0.0769665 0.147478
0.642451 0.076997 0.147784
0.642542 0.0770123 0.147997
0.642618 0.0770123 0.148196
0.642695 0.0770123 0.148348
0.64271 0.0770123 0.148394
0.642771 0.0770275 0.148516
0.0408026 0.0905165 0.043946
0.0407416 0.0904097 0.04271
0.0407874 0.0899367 0.0430152
0.0407874 0.0894331 0.0430152
0.0408026 0.0889296 0.0429999
0.0409094 0.087953 0.0429236
0.0431983 0.0868849 0.0430762
0.0471504 0.085359 0.0433509
0.0512551 0.0836957 0.0433967
0.0577554 0.082536 0.0435645
0.0692912 0.0820325 0.0447395
0.0827955 0.0814679 0.0463264
0.0988785 0.0813001 0.0488899
0.117662 0.0807965 0.0510262
0.139132 0.078706 0.052491
0.162158 0.0760662 0.0523384
0.185763 0.0728008 0.0509957
0.210773 0.0693523 0.0490272
0.2374 0.0659953 0.0466773
0.26659 0.0614939 0.044358
0.297612 0.0578775 0.0449836
0.329717 0.0543832 0.0481422
0.366522 0.0522164 0.0506447
0.408087 0.0507362 0.0529946
0.450904 0.0492714 0.0562753
0.492729 0.0481422 0.0606546
0.527703 0.047425 0.0658885
0.556863 0.0470893 0.07187
0.579644 0.0479286 0.0786145
0.60032 0.0582437 0.0880751
0.612955 0.0656901 0.0963912
0.620005 0.0713054 0.10277
0.621744 0.0731518 0.104326
0.621408 0.0728618 0.103914
0.620783 0.0723125 0.103243
0.620325 0.0719005 0.102785
0.61973 0.071458 0.102007
0.619547 0.0712139 0.101946
0.620447 0.071458 0.103639
0.621958 0.0720378 0.106233
0.622751 0.0724041 0.107561
0.624018 0.0729381 0.109743
0.625116 0.0733043 0.111696
0.626032 0.0735637 0.11342
0.626871 0.0738994 0.114916
0.627665 0.0742809 0.116258
0.628565 0.0746319 0.117876
0.629419 0.0748913 0.119509
0.630228 0.0750591 0.121065
0.630854 0.0751659 0.122286
0.63154 0.075288 0.123583
0.632013 0.075349 0.124468
0.632334 0.0754101 0.125048
0.632822 0.0755016 0.125994
0.633158 0.0755474 0.126711
0.633387 0.0756237 0.127245
0.633661 0.0757 0.127947
0.633844 0.0757305 0.12842
0.634058 0.075761 0.129015
0.63415 0.0757763 0.12932
0.634302 0.0757763 0.129732
0.63447 0.0757763 0.130114
0.634516 0.0757916 0.13022
0.634607 0.0758221 0.130388
0.634638 0.0758373 0.130434
0.039826 0.106126 0.0445106
0.0397498 0.105684 0.043183
0.0396735 0.105348 0.0424201
0.0396735 0.104784 0.0427405
0.0397192 0.10399 0.0427405
0.0396887 0.103319 0.0427253
0.0406348 0.102052 0.0427405
0.0447395 0.100618 0.0429999
0.0491798 0.0989395 0.0430915
0.0545968 0.0968795 0.0434882
0.0642863 0.0958877 0.0436255
0.0791485 0.0948196 0.0450752
0.0971084 0.0940414 0.0474861
0.116167 0.0940719 0.0502937
0.13933 0.0931258 0.052842
0.164446 0.0902113 0.0547036
0.188968 0.0869459 0.0551156
0.215656 0.0823835 0.0543221
0.243061 0.0773022 0.0526436
0.272541 0.0721447 0.050782
0.303471 0.0670024 0.0484779
0.335409 0.061738 0.0466926
0.369924 0.0576181 0.0493782
0.404959 0.0538491 0.051667
0.446525 0.0515602 0.0548867
0.488212 0.0499428 0.0590677
0.524468 0.0489815 0.0641337
0.555322 0.0485695 0.0702831
0.578576 0.0489509 0.0770123
0.599649 0.0584115 0.0866255
0.61268 0.0657359 0.0956436
0.620371 0.0717784 0.102953
0.623499 0.0748913 0.106233
0.623285 0.0747387 0.105959
0.623041 0.074403 0.105806
0.622553 0.0739452 0.105257
0.622095 0.073518 0.104768
0.621653 0.073106 0.104311
0.621332 0.0727855 0.104021
0.620996 0.0724346 0.1037
0.620569 0.0720989 0.103182
0.619898 0.0716564 0.102235
0.619715 0.0714275 0.102068
0.619944 0.0714275 0.102602
0.620279 0.0715038 0.103227
0.62089 0.0716869 0.104356
0.621607 0.0719615 0.105592
0.622156 0.072221 0.106477
0.622568 0.0723735 0.107179
0.622843 0.0724804 0.107637
0.623209 0.0725872 0.108263
0.623468 0.0726482 0.108675
0.623819 0.072755 0.109255
0.624109 0.0728466 0.109728
0.624308 0.0729076 0.110063
0.624598 0.0729992 0.110613
0.624735 0.0730602 0.110887
0.624964 0.0731365 0.111376
0.625071 0.0731823 0.11165
0.625208 0.073228 0.111955
0.62533 0.0732738 0.112261
0.625406 0.0733043 0.112413
0.625605 0.0733501 0.112795
0.625635 0.0733806 0.112856
0.625757 0.0734112 0.113054
0.0387579 0.123232 0.045182
0.0386664 0.122789 0.0438544
0.0385748 0.122423 0.0426947
0.0386206 0.12166 0.042771
0.0386664 0.121233 0.0427863
0.0387121 0.120378 0.0428016
0.0388952 0.119646 0.0428168
0.0414893 0.118563 0.0429694
0.046479 0.116732 0.0432288
0.0518044 0.114809 0.043183
0.0593729 0.112886 0.0434882
0.0726482 0.112505 0.0437629
0.0920729 0.11078 0.045243
0.11368 0.109895 0.0484474
0.136629 0.11014 0.0514534
0.163394 0.108873 0.0542763
0.191424 0.10634 0.0574502
0.219059 0.102098 0.0583047
0.248295 0.0967575 0.0583505
0.280308 0.0905013 0.0574044
0.31252 0.0836347 0.0558022
0.344762 0.0771344 0.0536202
0.377188 0.0691691 0.0504158
0.412787 0.0621958 0.0484779
0.449989 0.0571298 0.0523232
0.484977 0.052781 0.0568704
0.521279 0.0511025 0.0616922
0.553002 0.0504311 0.0682841
0.577768 0.0506905 0.0753033
0.594247 0.0522774 0.0831311
0.611124 0.0645762 0.0939193
0.620432 0.072221 0.102495
0.625284 0.0766918 0.107973
0.625498 0.0768749 0.108156
0.625071 0.0764324 0.107683
0.62472 0.0760815 0.107378
0.624338 0.0757 0.107073
0.62388 0.0752728 0.106645
0.623545 0.0749828 0.106371
0.623117 0.0745861 0.105913
0.622965 0.0743725 0.105852
0.622721 0.0741283 0.105562
0.6224 0.0738384 0.105196
0.622217 0.0736553 0.105028
0.622065 0.0734722 0.104891
0.621942 0.0733349 0.104784
0.621851 0.0732128 0.104707
0.621775 0.073106 0.104662
0.621714 0.0730297 0.104631
0.621714 0.0729534 0.104646
0.621653 0.0728771 0.10457
0.621637 0.0728008 0.104555
0.621653 0.0727398 0.10454
0.621637 0.072694 0.104524
0.621683 0.0726635 0.104601
0.621653 0.0726177 0.10457
0.621683 0.0726177 0.104646
0.621653 0.0726024 0.104662
0.621622 0.0725872 0.104677
0.621668 0.0726024 0.10486
0.621653 0.0726024 0.104891
0.621714 0.0726177 0.105058
0.621698 0.0726024 0.105089
0.621744 0.0726329 0.105165
0.621805 0.0726482 0.105272
0.0376898 0.14406 0.0464179
