bundles/resolve-cinematic-luts/Phantom Luts/Komodo Phantom ARRI LUTs G2/Komodo Phantom ARRI LUTs G2/65x/Standard (No WB Offset)/Jamaica_Komodo_Legacy_G2_65x.cube
TITLE "Generated by Resolve"
LUT_3D_SIZE 5
0.0417182 0.0497444 0.0416571
0.204623 0.0449073 0.0462959
0.645151 0.0772412 0.154284
0.654337 0.075639 0.183963
0.651041 0.0704356 0.187137
0.0366217 0.218708 0.0539254
0.17116 0.200015 0.0504005
0.623713 0.0850996 0.0980545
0.629435 0.0837873 0.111025
0.629053 0.0830091 0.110735
0.343404 0.89514 0.404654
0.3953 0.912077 0.389853
0.881926 0.912551 0.398779
0.968566 0.910674 0.446006
0.966155 0.904051 0.441062
0.397192 0.95967 0.52929
0.397436 0.957229 0.519814
0.760113 0.962371 0.400168
1 0.991623 0.513817
1 0.991089 0.514504
0.396307 0.959106 0.529
0.393927 0.95436 0.516884
0.740169 0.962875 0.396063
1 0.991333 0.514382
1 0.991226 0.514961
0.034699 0.0546426 0.162158
0.221958 0.0495918 0.198978
0.689357 0.0882124 0.268421
0.699504 0.0947433 0.287373
0.700298 0.0950179 0.289433
0.0436866 0.173373 0.154452
0.144381 0.173083 0.135058
0.631174 0.0761578 0.121828
0.650553 0.0783246 0.166415
0.652232 0.0785687 0.170504
0.272725 0.870298 0.457847
0.306828 0.869688 0.384344
0.867765 0.899535 0.383169
0.96202 0.893706 0.433082
0.959304 0.886107 0.427497
0.391272 0.962005 0.553948
0.394736 0.957732 0.527657
0.733654 0.964553 0.396719
1 0.991653 0.513771
1 0.991089 0.514427
0.389258 0.961837 0.558968
0.391043 0.954772 0.524681
0.709728 0.965118 0.393301
1 0.991913 0.51397
1 0.991241 0.514885
0.0416571 0.055787 0.560693
0.192554 0.053193 0.588129
0.674723 0.129015 0.652369
0.671443 0.131746 0.663157
0.671458 0.13167 0.662364
0.0278935 0.123018 0.563165
0.0549935 0.0519265 0.550011
0.672755 0.121828 0.636454
0.677638 0.127169 0.644144
0.677821 0.127047 0.643732
0.161089 0.715969 0.682231
0.154025 0.710124 0.671397
0.691554 0.705272 0.63975
0.953094 0.687449 0.630564
0.952316 0.676448 0.62063
0.357 0.932738 0.761975
0.357092 0.93637 0.748837
0.411231 0.953445 0.483619
1 0.990936 0.513115
1 0.991501 0.513588
0.35668 0.931899 0.763531
0.355978 0.934859 0.748898
0.395071 0.950378 0.49955
1 0.990982 0.512245
1 0.991409 0.513924
0.0973983 0.0469215 0.595026
0.213016 0.057496 0.637201
0.659007 0.137484 0.689158
0.659007 0.137469 0.689067
0.659022 0.137438 0.688975
0.041474 0.108598 0.606516
0.0990921 0.0472877 0.596017
0.654154 0.13579 0.688579
0.658717 0.137575 0.688777
0.659007 0.137469 0.689113
0.151125 0.585 0.753979
0.145876 0.572244 0.75111
0.540902 0.495598 0.864759
0.913481 0.487526 0.934768
0.909651 0.473487 0.931838
0.351339 0.871824 0.887373
0.349355 0.872251 0.888289
0.365164 0.890806 0.881376
0.980941 0.981506 0.974105
0.99353 0.981918 0.973587
0.351171 0.871946 0.887221
0.35317 0.87129 0.887175
0.358984 0.893965 0.87155
0.967987 0.991028 0.955474
0.996872 0.990906 0.932906
0.107546 0.0473487 0.598642
0.219226 0.0578622 0.639094
0.659022 0.137484 0.689174
0.659022 0.137484 0.689189
0.659022 0.137438 0.688991
0.0398871 0.100343 0.602136
0.109926 0.0477913 0.599878
0.655299 0.136141 0.688609
0.659022 0.137453 0.689036
0.659022 0.137469 0.689128
0.147616 0.576669 0.752026
0.141787 0.56289 0.748531
0.532662 0.475349 0.860563
0.907362 0.463966 0.929763
0.903395 0.447761 0.926726
0.347204 0.873106 0.887999
0.347417 0.872892 0.888411
0.352956 0.879728 0.892683
0.966567 0.965637 0.984298
0.991409 0.968414 0.991867
0.346868 0.873411 0.887373
0.347021 0.873274 0.887663
0.34992 0.876554 0.890059
0.792508 0.989761 0.994644
0.992432 0.990814 0.992432
