bundles/resolve-cinematic-luts/Phantom Luts/Komodo Phantom ARRI LUTs G2/Komodo Phantom ARRI LUTs G2/65x/Standard (No WB Offset)/Utopia_Komodo_Legacy_G2_65x.cube
TITLE "Generated by Resolve"
LUT_3D_SIZE 5
0.0199588 0.0481575 0.0580301
0.175402 0.0368658 0.0570993
0.697322 0.0449226 0.126604
0.712505 0.0445716 0.163577
0.711315 0.0351415 0.167514
0.00932326 0.207202 0.03299
0.160708 0.19115 0.0566415
0.710307 0.0424659 0.0496223
0.710689 0.0454566 0.0695048
0.711254 0.0450141 0.0693217
0.141482 0.902571 0.127275
0.205234 0.924193 0.0787213
0.884489 0.876295 0.246815
0.992218 0.868147 0.277592
0.99173 0.866453 0.275883
0.132509 0.990829 0.238621
0.139055 0.989975 0.223743
0.791318 0.933761 0.277119
0.999969 0.955032 0.371099
0.999969 0.954879 0.37232
0.134066 0.990326 0.24155
0.136614 0.990677 0.222629
0.781491 0.934432 0.272938
0.999969 0.954955 0.371756
0.999969 0.95494 0.371893
0 0.0616159 0.178332
0.182208 0.0471962 0.198535
0.733593 0.0632486 0.273503
0.738811 0.0723583 0.299565
0.738537 0.0740368 0.304051
0.0041352 0.162951 0.166079
0.130739 0.16347 0.169329
0.697169 0.0422827 0.124315
0.713542 0.0360571 0.161608
0.715877 0.0367132 0.167193
0.0795148 0.866056 0.286015
0.124651 0.876127 0.150317
0.869047 0.86099 0.241291
0.986145 0.848203 0.262898
0.985443 0.845762 0.262028
0.116442 0.990616 0.325475
0.132219 0.990829 0.241367
0.757717 0.935225 0.262058
0.999969 0.955047 0.371008
0.999969 0.954879 0.37232
0.115023 0.989517 0.342168
0.132708 0.990677 0.24332
0.744106 0.936004 0.256275
0.999969 0.955123 0.370321
0.999969 0.95494 0.371878
0 0.0931106 0.596078
0.0856641 0.0787671 0.619791
0.740887 0.104051 0.698848
0.745632 0.106966 0.724987
0.744839 0.107362 0.72813
0 0.170062 0.588769
0 0.0798199 0.585977
0.731182 0.100084 0.682246
0.751095 0.104067 0.703075
0.748562 0.10515 0.703136
0 0.71516 0.68011
0 0.709438 0.674449
0.672953 0.686015 0.668666
0.916762 0.654551 0.644388
0.915663 0.648905 0.640101
0.0229648 0.961334 0.690883
0.0243381 0.963882 0.665782
0.172641 0.992386 0.314809
0.999969 0.954711 0.367132
0.999969 0.954925 0.368734
0.0259403 0.959564 0.700298
0.0253147 0.962966 0.67245
0.147311 0.99147 0.328023
0.999969 0.954742 0.361379
0.999969 0.95491 0.369085
0 0.0788281 0.657816
0.108522 0.0826429 0.686458
0.736767 0.111635 0.75816
0.736431 0.111788 0.757763
0.737972 0.111101 0.759762
0 0.157458 0.687068
0 0.0788128 0.659983
0.727138 0.11017 0.758038
0.738277 0.110964 0.760159
0.737438 0.11133 0.759045
0 0.643809 0.798077
0 0.634577 0.794797
0.502541 0.554284 0.889494
0.876387 0.521233 0.885634
0.875669 0.515404 0.884169
0.0392767 0.924025 0.91725
0.0415808 0.923537 0.916518
0.0479896 0.944854 0.913481
0.975402 0.973541 0.969451
0.992203 0.972778 0.968856
0.0399481 0.923888 0.917021
0.0408331 0.92369 0.916747
0.0446174 0.945373 0.892866
0.952773 0.991913 0.94847
0.993896 0.988571 0.954147
0 0.0787976 0.660136
0.119219 0.082536 0.687953
0.736736 0.11165 0.758099
0.736797 0.11162 0.75819
0.737911 0.111116 0.759686
0 0.147341 0.684596
0 0.0793774 0.662638
0.731182 0.110567 0.75848
0.738262 0.110964 0.760143
0.737438 0.11133 0.759045
0 0.638682 0.796353
0 0.628962 0.792691
0.498085 0.539101 0.887877
0.872724 0.504204 0.882704
0.871778 0.497276 0.881086
0.0381781 0.924239 0.917769
0.0403143 0.923812 0.916899
0.0424964 0.935042 0.92639
0.956222 0.958663 0.983551
0.987411 0.959701 0.985107
0.0357824 0.924743 0.918379
0.0370794 0.924468 0.918135
0.042649 0.93727 0.92636
0.786984 0.989288 0.984665
0.989837 0.990082 0.990173
