bundles/resolve-cinematic-luts/Phantom Luts/Komodo Phantom ARRI LUTs G2/Komodo Phantom ARRI LUTs G2/65x/Standard (No WB Offset)/Utopia_Komodo_Legacy_G2_65x.cube
TITLE "Generated by Resolve"
LUT_3D_SIZE 9
0.0199588 0.0481575 0.0580301
0.0457313 0.0467536 0.0608072
0.175402 0.0368658 0.0570993
0.444297 0.0332952 0.0741436
0.697322 0.0449226 0.126604
0.709514 0.0457923 0.150652
0.712505 0.0445716 0.163577
0.709224 0.0354467 0.165774
0.711315 0.0351415 0.167514
0.0209659 0.0666667 0.0600748
0.0338445 0.0624857 0.0618296
0.155627 0.0483253 0.0538338
0.425361 0.0302892 0.0504158
0.666789 0.0408331 0.073106
0.691585 0.0436561 0.106432
0.698909 0.0442512 0.125017
0.699855 0.04477 0.12932
0.700359 0.044831 0.130419
0.00932326 0.207202 0.03299
0.011017 0.203525 0.0261845
0.160708 0.19115 0.0566415
0.480613 0.161242 0.0935836
0.710307 0.0424659 0.0496223
0.71577 0.0453193 0.0680095
0.710689 0.0454566 0.0695048
0.709758 0.0454414 0.0697795
0.711254 0.0450141 0.0693217
0.0326238 0.542672 0.0371557
0.0375677 0.544366 0.01149
0.0743572 0.538384 0.00975052
0.49662 0.506325 0.098497
0.813199 0.557122 0.159182
0.884062 0.538323 0.165591
0.888869 0.514382 0.167803
0.890486 0.506233 0.168978
0.891218 0.504906 0.165942
0.141482 0.902571 0.127275
0.155245 0.908232 0.092195
0.205234 0.924193 0.0787213
0.48191 0.853498 0.117342
0.884489 0.876295 0.246815
0.993439 0.873045 0.281071
0.992218 0.868147 0.277592
0.991852 0.866789 0.27657
0.99173 0.866453 0.275883
0.134127 0.9906 0.236088
0.135088 0.990646 0.231617
0.136812 0.990723 0.219074
0.1823 0.984863 0.107515
0.830091 0.934417 0.292882
0.999969 0.954665 0.363745
0.999969 0.954818 0.372763
0.999969 0.954879 0.37232
0.999969 0.955016 0.371252
0.132509 0.990829 0.238621
0.135042 0.990402 0.23563
0.139055 0.989975 0.223743
0.153475 0.987457 0.156756
0.791318 0.933761 0.277119
0.999969 0.954803 0.354467
0.999969 0.955032 0.371099
0.999969 0.95491 0.372107
0.999969 0.954879 0.37232
0.133181 0.9906 0.240452
0.131395 0.991348 0.234012
0.135515 0.990997 0.221622
0.147707 0.988632 0.169192
0.781201 0.934691 0.272496
0.999939 0.954467 0.351781
0.999969 0.954864 0.372442
0.999969 0.954894 0.372198
0.999969 0.954787 0.372946
0.134066 0.990326 0.24155
0.133181 0.990845 0.235645
0.136614 0.990677 0.222629
0.148104 0.988281 0.171588
0.781491 0.934432 0.272938
0.999786 0.954696 0.349157
0.999969 0.954955 0.371756
0.999969 0.95494 0.371878
0.999969 0.95494 0.371893
0.0117647 0.0505379 0.0749676
0.0417334 0.0492103 0.083238
0.181979 0.0447395 0.0869306
0.454322 0.038468 0.111147
0.711574 0.0356451 0.162905
0.721248 0.0377203 0.188617
0.72285 0.0400549 0.199039
0.723522 0.0407874 0.202594
0.724437 0.0408942 0.203983
0.0196078 0.0604562 0.071107
0.0268864 0.0575265 0.0674296
0.160906 0.0392004 0.0600137
0.437888 0.0352941 0.0782177
0.700954 0.0436561 0.12903
0.713451 0.045243 0.154574
0.713314 0.035111 0.164889
0.714092 0.0361486 0.170138
0.714748 0.0363165 0.171588
0.00500496 0.198901 0.063798
0.00854505 0.195377 0.0393835
0.153399 0.183536 0.0564584
0.475807 0.140215 0.0866712
0.697078 0.039765 0.0593729
0.703273 0.0438544 0.0709392
0.699138 0.0435492 0.0714122
0.697932 0.0434272 0.071519
0.698253 0.0432288 0.0713664
0.023209 0.534691 0.0721294
0.0298314 0.53489 0.0421302
0.0537423 0.531472 0.00761425
0.491371 0.501274 0.097734
0.813977 0.547463 0.160906
0.886824 0.525444 0.165682
0.892638 0.498344 0.166995
0.89424 0.490135 0.167773
0.894728 0.488609 0.165972
0.123674 0.893874 0.166247
0.137392 0.897642 0.132204
0.20177 0.921157 0.0764324
0.458167 0.854002 0.109895
0.881209 0.872953 0.245426
0.992355 0.869398 0.277699
0.990906 0.863615 0.273472
0.99028 0.861906 0.272206
0.990234 0.86183 0.271946
0.132952 0.990646 0.240696
0.133806 0.990646 0.23653
0.135836 0.99086 0.223117
0.165225 0.986526 0.132006
0.824247 0.934142 0.290684
0.999969 0.954696 0.363317
0.999969 0.954894 0.372259
0.999969 0.954879 0.37229
0.999969 0.955016 0.371267
0.13167 0.990951 0.243259
0.132921 0.990692 0.239719
0.138262 0.990127 0.22678
0.146761 0.988571 0.178454
0.784268 0.934295 0.274006
0.999969 0.954742 0.352773
0.999969 0.955016 0.371221
0.999969 0.954894 0.372168
0.999969 0.954879 0.37232
0.132326 0.990707 0.245212
0.130419 0.991363 0.238804
0.135256 0.990951 0.225208
0.143175 0.989425 0.188846
0.773602 0.934615 0.269047
0.99968 0.954513 0.349111
0.999969 0.954864 0.372473
0.999969 0.954894 0.372274
0.999969 0.954772 0.373022
0.133196 0.990448 0.246204
0.132326 0.990814 0.240864
0.136202 0.990707 0.225834
0.144808 0.988876 0.190646
0.773831 0.934508 0.269673
0.999435 0.954604 0.34789
0.999969 0.954955 0.371832
0.999969 0.95494 0.371878
0.999969 0.95494 0.371878
0 0.0616159 0.178332
0.0212406 0.0554513 0.192264
0.182208 0.0471962 0.198535
0.455833 0.0548257 0.212299
0.733593 0.0632486 0.273503
0.738109 0.0693217 0.291493
0.738811 0.0723583 0.299565
0.737987 0.0736858 0.302541
0.738537 0.0740368 0.304051
0 0.0679637 0.150927
0 0.0586404 0.174655
0.167391 0.0472572 0.186221
0.450355 0.054612 0.192569
0.730037 0.053727 0.250172
0.736126 0.0598611 0.268132
0.735805 0.0639963 0.276509
0.735103 0.065507 0.279194
0.735668 0.0658427 0.280247
0.0041352 0.162951 0.166079
0.00450141 0.159442 0.161883
0.130739 0.16347 0.169329
0.468223 0.101747 0.13724
0.697169 0.0422827 0.124315
0.714305 0.0447089 0.150912
0.713542 0.0360571 0.161608
0.714977 0.0367742 0.166323
0.715877 0.0367132 0.167193
0 0.500801 0.186847
0.00161746 0.502327 0.165255
0.0211185 0.501457 0.0586862
0.473426 0.483146 0.0948501
0.821698 0.5131 0.167071
0.895918 0.468284 0.167971
0.895857 0.436301 0.171252
0.895369 0.425452 0.171084
0.89604 0.423728 0.168704
0.0795148 0.866056 0.286015
0.0870222 0.869047 0.25864
0.124651 0.876127 0.150317
0.370779 0.853101 0.085481
0.869047 0.86099 0.241291
0.988647 0.855772 0.267674
0.986145 0.848203 0.262898
0.985367 0.845655 0.261418
0.985443 0.845762 0.262028
0.121614 0.991043 0.296284
0.12845 0.990768 0.262638
0.132647 0.990845 0.238041
0.14258 0.989532 0.196094
0.804257 0.933715 0.283009
0.999969 0.95465 0.362234
0.999969 0.954955 0.371801
0.999969 0.954925 0.371969
0.999969 0.955062 0.370962
0.116442 0.990616 0.325475
0.122774 0.990921 0.293431
0.132219 0.990829 0.241367
0.139284 0.990097 0.217411
0.757717 0.935225 0.262058
0.99942 0.954437 0.348333
0.999969 0.955047 0.371008
0.999969 0.95494 0.371954
0.999969 0.954879 0.37232
0.115099 0.989899 0.337072
0.118105 0.99144 0.304875
0.129717 0.991501 0.240635
0.137423 0.99057 0.218402
0.744549 0.93611 0.256016
0.997131 0.954269 0.344289
0.999969 0.955032 0.371191
0.999969 0.954833 0.37261
0.999969 0.954757 0.37319
0.115023 0.989517 0.342168
0.119875 0.990692 0.310719
0.132708 0.990677 0.24332
0.140063 0.989761 0.220844
0.744106 0.936004 0.256275
0.996338 0.95433 0.342916
0.999969 0.955123 0.370321
0.999969 0.95494 0.371878
0.999969 0.95494 0.371878
0 0.0764782 0.378439
0 0.0671702 0.386755
0.133928 0.0602121 0.41146
0.458534 0.0578317 0.4383
0.711101 0.0576944 0.450767
0.716701 0.0594339 0.469108
0.717189 0.0599222 0.477134
0.716731 0.0602121 0.480278
0.716442 0.0602884 0.481254
0 0.0952621 0.361517
0 0.0743725 0.377172
0.106004 0.0613565 0.407187
0.452018 0.0574807 0.43267
0.710964 0.056611 0.442283
0.715267 0.0561227 0.457267
0.715419 0.0567483 0.46453
0.713924 0.0573129 0.466484
0.713497 0.057435 0.467048
0 0.152071 0.299596
0 0.142672 0.304768
0 0.0843366 0.387243
0.414481 0.0563516 0.397253
0.706889 0.0570993 0.400061
0.718944 0.0558328 0.412177
0.717342 0.0538949 0.41648
0.715648 0.0535744 0.417487
0.714794 0.0534829 0.417792
0 0.418585 0.399374
0 0.416648 0.397833
0 0.405722 0.384894
0.39028 0.415274 0.403876
0.804929 0.368704 0.379629
0.864775 0.289326 0.339254
0.854154 0.256611 0.322789
0.85008 0.246143 0.317708
0.849973 0.243992 0.317266
0.012253 0.807721 0.482429
0.0142061 0.808301 0.473259
0.023331 0.807599 0.435309
0.0903944 0.816587 0.206256
0.795102 0.792584 0.249256
0.972976 0.814343 0.236011
0.966903 0.802029 0.223545
0.964538 0.797681 0.221622
0.964416 0.797284 0.219928
0.0662852 0.976898 0.484367
0.0713207 0.977493 0.47657
0.0914473 0.982727 0.447623
0.133715 0.990372 0.244816
0.725826 0.937484 0.247349
0.999969 0.954803 0.353826
0.999969 0.955047 0.372808
0.999969 0.955062 0.373022
0.999969 0.955154 0.372396
0.0592813 0.975982 0.496574
0.0645457 0.976486 0.487633
0.0852979 0.980545 0.457465
0.130236 0.99115 0.24741
0.652293 0.943008 0.213519
0.98436 0.954223 0.336324
0.999969 0.955016 0.371359
0.999969 0.954986 0.371542
0.999969 0.95491 0.372076
0.0572366 0.975341 0.502388
0.0599527 0.976455 0.492729
0.0809796 0.980255 0.460472
0.128069 0.99147 0.251072
0.628534 0.945647 0.204471
0.973098 0.95378 0.330755
0.999969 0.955016 0.370123
0.999969 0.955032 0.37116
0.999969 0.954803 0.372869
0.0580606 0.974624 0.505714
0.0610666 0.975723 0.495979
0.0818341 0.979309 0.463493
0.130175 0.990738 0.25507
0.624903 0.946059 0.203311
0.970275 0.954116 0.328527
0.999969 0.955077 0.368582
0.999969 0.955093 0.37055
0.999969 0.95491 0.372091
0 0.0931106 0.596078
0 0.0785992 0.593683
0.0856641 0.0787671 0.619791
0.411124 0.0788586 0.656657
0.740887 0.104051 0.698848
0.746685 0.106294 0.718761
0.745632 0.106966 0.724987
0.745464 0.107073 0.727581
0.744839 0.107362 0.72813
0 0.109911 0.600092
0 0.0904097 0.59498
0.0571145 0.07953 0.615015
0.398642 0.078172 0.654856
0.741955 0.103456 0.698299
0.747875 0.105592 0.716045
0.747189 0.106172 0.72285
0.746227 0.106691 0.724056
0.743923 0.107744 0.722332
0 0.170062 0.588769
0 0.161013 0.599008
0 0.0798199 0.585977
0.336919 0.0754253 0.639704
0.731182 0.100084 0.682246
0.752331 0.103487 0.698528
0.751095 0.104067 0.703075
0.750088 0.104479 0.704005
0.748562 0.10515 0.703136
0 0.415183 0.584695
0 0.410803 0.585321
0 0.389487 0.585351
0.19881 0.281971 0.693202
0.740978 0.235294 0.693645
0.765301 0.134707 0.639582
0.746426 0.101228 0.613489
0.741619 0.0943923 0.606119
0.741848 0.0937362 0.606485
0 0.71516 0.68011
0 0.714641 0.679667
0 0.709438 0.674449
0 0.69276 0.655299
0.672953 0.686015 0.668666
0.920806 0.671504 0.655299
0.916762 0.654551 0.644388
0.915892 0.649607 0.640238
0.915663 0.648905 0.640101
0.0264744 0.962127 0.678965
0.0281376 0.96202 0.67538
0.0280156 0.963363 0.658991
0.0315862 0.963333 0.604334
0.430793 0.986893 0.450462
0.977111 0.958556 0.566094
0.999969 0.957855 0.497322
0.999969 0.953887 0.504433
0.999969 0.952773 0.506493
0.0229648 0.961334 0.690883
0.0243076 0.961898 0.685756
0.0243381 0.963882 0.665782
0.0296941 0.969635 0.601816
0.172641 0.992386 0.314809
0.950713 0.952178 0.322255
0.999969 0.954711 0.367132
0.999969 0.954787 0.369879
0.999969 0.954925 0.368734
0.0253147 0.960128 0.696941
0.0243839 0.96112 0.691402
0.0242313 0.96347 0.66981
0.0292973 0.969573 0.603479
0.145907 0.991943 0.322133
0.932509 0.95024 0.315328
0.999969 0.954772 0.362173
0.999969 0.954971 0.368475
0.999969 0.954818 0.369879
0.0259403 0.959564 0.700298
0.0257572 0.960418 0.694545
0.0253147 0.962966 0.67245
0.0309453 0.968994 0.605402
0.147311 0.99147 0.328023
0.927718 0.94931 0.313893
0.999969 0.954742 0.361379
0.999969 0.954986 0.368292
0.999969 0.95491 0.369085
0 0.0820783 0.656168
0 0.0788281 0.659266
0.0881361 0.08336 0.683711
0.389395 0.0841077 0.720867
0.733593 0.111254 0.757733
0.737484 0.111315 0.759091
0.737621 0.111254 0.759289
0.737819 0.111162 0.759564
0.737881 0.111147 0.759625
0 0.0947585 0.660166
0 0.0813916 0.657069
0.0616159 0.083772 0.679423
0.374762 0.0835279 0.719341
0.731914 0.110887 0.758038
0.738018 0.11107 0.759808
0.738079 0.11104 0.759899
0.737926 0.111116 0.759701
0.736477 0.111772 0.757778
0 0.168505 0.686122
0 0.148836 0.685344
0 0.0793774 0.656245
0.30399 0.0816968 0.709987
0.718471 0.109514 0.757366
0.739483 0.110414 0.761761
0.738384 0.110903 0.760311
0.738125 0.111025 0.759976
0.737102 0.111482 0.758602
0 0.337713 0.688151
0 0.330404 0.688197
0 0.298772 0.687449
0.0637217 0.13669 0.718044
0.611368 0.115846 0.761166
0.73846 0.111681 0.760388
0.737591 0.111833 0.759258
0.737011 0.112032 0.75848
0.737514 0.111803 0.759167
0 0.659403 0.780529
0 0.657816 0.780423
0 0.649088 0.776669
0 0.623636 0.777218
0.530922 0.598321 0.880812
0.897749 0.585275 0.873671
0.894377 0.567956 0.864469
0.893339 0.563638 0.86125
0.892821 0.563104 0.861036
0.0200809 0.895171 0.847074
0.0226139 0.892531 0.844129
0.0186465 0.882307 0.834348
0.00675975 0.843687 0.796658
0.148394 0.874205 0.832685
0.888777 0.890852 0.879377
0.972213 0.888212 0.876036
0.971298 0.883101 0.872129
0.970108 0.882353 0.872099
0.0352941 0.936324 0.875868
0.0412451 0.935393 0.871504
0.0394903 0.93753 0.859922
0.0353094 0.94313 0.823819
0.0309453 0.967361 0.758846
0.795361 0.9944 0.775631
0.999786 0.981643 0.798474
0.999969 0.977859 0.752621
0.999908 0.979889 0.776211
0.0384375 0.934798 0.881636
0.0370336 0.935485 0.878691
0.0348516 0.938003 0.865232
0.0304112 0.944335 0.824277
0.0285039 0.967071 0.74583
0.753872 0.996017 0.753231
0.99588 0.979629 0.740856
0.999969 0.954711 0.366186
0.999969 0.954757 0.365835
0.0404669 0.933867 0.884153
0.0404669 0.934401 0.880522
0.0385138 0.936873 0.866758
0.0331731 0.943603 0.824826
0.0302281 0.966827 0.743313
0.742153 0.996384 0.749218
0.990021 0.980728 0.743938
0.999969 0.954864 0.363363
0.999969 0.954772 0.365698
0 0.0788281 0.657816
0 0.0802014 0.664942
0.108522 0.0826429 0.686458
0.406287 0.0848554 0.723278
0.736767 0.111635 0.75816
0.737621 0.111254 0.759274
0.736431 0.111788 0.757763
0.736431 0.111788 0.757763
0.737972 0.111101 0.759762
0 0.0834516 0.656245
0 0.0788281 0.658701
0.0812238 0.0834821 0.682811
0.391333 0.0840772 0.72105
0.735805 0.111116 0.758877
0.738125 0.111025 0.759945
0.738079 0.11104 0.759915
0.737865 0.111147 0.759609
0.736339 0.111818 0.757687
0 0.157458 0.687068
0 0.126253 0.676463
0 0.0788128 0.659983
0.320607 0.0819409 0.711742
0.727138 0.11017 0.758038
0.739315 0.110491 0.761547
0.738277 0.110964 0.760159
0.738216 0.110979 0.760098
0.737438 0.11133 0.759045
0 0.29514 0.687617
0 0.287648 0.687816
0 0.258335 0.686717
0.0387274 0.0971847 0.686458
0.602625 0.0993973 0.747784
0.738018 0.111345 0.759838
0.738186 0.111101 0.760067
0.737118 0.111574 0.758618
0.737606 0.11136 0.759258
0 0.643809 0.798077
0 0.642618 0.79855
0 0.634577 0.794797
0 0.604639 0.780529
0.502541 0.554284 0.889494
0.880613 0.539773 0.889357
0.876387 0.521233 0.885634
0.875715 0.515602 0.884306
0.875669 0.515404 0.884169
0.0142519 0.850462 0.890867
0.0154421 0.849134 0.88983
0.00769055 0.826123 0.879454
0.00531014 0.776791 0.858885
0.0215152 0.79855 0.894621
0.811017 0.837339 0.956939
0.95967 0.839963 0.958999
0.958633 0.835248 0.957107
0.957595 0.83473 0.957519
0.0392767 0.924025 0.91725
0.039826 0.923919 0.917052
0.0415808 0.923537 0.916518
0.0414435 0.923568 0.916564
0.0479896 0.944854 0.913481
0.620142 0.965057 0.945602
0.975402 0.973541 0.969451
0.993835 0.973739 0.968643
0.992203 0.972778 0.968856
0.0392615 0.924025 0.91725
0.0385443 0.924163 0.917586
0.0427558 0.923278 0.916136
0.0427405 0.923278 0.916152
0.0435187 0.945464 0.89749
0.166888 0.985977 0.903334
0.959884 0.99144 0.953231
0.993683 0.988754 0.960403
0.99379 0.988708 0.959274
0.0399481 0.923888 0.917021
0.0408484 0.92369 0.916747
0.0408331 0.92369 0.916747
0.0402533 0.923827 0.916915
0.0446174 0.945373 0.892866
0.16849 0.986725 0.899565
0.952773 0.991913 0.94847
0.994125 0.988556 0.956436
0.993896 0.988571 0.954147
0 0.0788281 0.659739
0 0.0812238 0.667201
0.116548 0.0825666 0.687541
0.412619 0.0851911 0.724285
0.736751 0.11165 0.758129
0.737621 0.111254 0.759289
0.736797 0.111635 0.75819
0.736553 0.111742 0.75787
0.737942 0.111116 0.759701
0 0.0813306 0.656245
0 0.0788281 0.660533
0.0883955 0.0833753 0.68397
0.39707 0.0842603 0.721843
0.736843 0.111254 0.758999
0.738125 0.111025 0.759976
0.738109 0.11104 0.75993
0.737896 0.111131 0.75964
0.736324 0.111833 0.757671
0 0.149737 0.685267
0 0.119799 0.672694
0 0.0792706 0.662226
0.326619 0.082002 0.712413
0.730266 0.110491 0.758404
0.739513 0.110399 0.761807
0.738262 0.110964 0.760143
0.738231 0.110979 0.760098
0.737438 0.11133 0.759045
0 0.281941 0.686885
0 0.274495 0.687144
0 0.244587 0.687343
0.0300603 0.087129 0.6757
0.605051 0.0984817 0.746944
0.738064 0.111116 0.759884
0.738247 0.11104 0.760128
0.737194 0.111513 0.758724
0.737743 0.111284 0.759457
0 0.639673 0.796551
0 0.638376 0.796948
0 0.630289 0.793286
0 0.598062 0.777584
0.498161 0.542367 0.887938
0.877409 0.527703 0.887144
0.873701 0.507652 0.883192
0.872923 0.502113 0.882155
0.872847 0.501198 0.881834
0.0127413 0.844617 0.889082
0.013138 0.841749 0.887098
0.00766003 0.807568 0.871733
0.00352483 0.77232 0.859449
0.0214694 0.789837 0.892622
0.805844 0.825895 0.956298
0.956527 0.828214 0.957214
0.955581 0.822934 0.95613
0.954284 0.821485 0.95668
0.0388952 0.924102 0.917449
0.0397955 0.923919 0.917067
0.0415808 0.923522 0.916503
0.0414588 0.923552 0.916564
0.0460212 0.937957 0.926986
0.54696 0.934447 0.958297
0.958511 0.961059 0.98352
0.990143 0.962997 0.98497
0.988602 0.962066 0.985458
0.0392615 0.924025 0.91725
0.038529 0.924163 0.917617
0.0399023 0.923903 0.917037
0.0415351 0.923537 0.916518
0.0443732 0.93727 0.926131
0.0639963 0.96788 0.947936
0.905058 0.990448 0.985107
0.991592 0.989731 0.989029
0.991638 0.989731 0.988998
0.0399939 0.923873 0.917021
0.0408637 0.92369 0.916732
0.0408331 0.92369 0.916747
0.0402533 0.923827 0.916915
0.0460365 0.936522 0.925399
0.0638132 0.970123 0.945571
0.870436 0.992615 0.981582
0.991608 0.989731 0.989029
0.991318 0.989792 0.989227
0 0.0787976 0.660136
0 0.0812695 0.667521
0.119219 0.082536 0.687953
0.415335 0.0853895 0.724743
0.736736 0.11165 0.758099
0.737621 0.111254 0.759289
0.736797 0.11162 0.75819
0.736568 0.111727 0.757885
0.737911 0.111116 0.759686
0 0.0809033 0.656367
0 0.0790112 0.661265
0.0906844 0.0833143 0.684306
0.399496 0.0844282 0.722271
0.737224 0.111299 0.759045
0.73814 0.111025 0.75996
0.738109 0.11104 0.75993
0.737881 0.111147 0.759625
0.736309 0.111833 0.757656
0 0.147341 0.684596
0 0.118013 0.671504
0 0.0793774 0.662638
0.329046 0.082002 0.712413
0.731182 0.110567 0.75848
0.739528 0.110399 0.761822
0.738262 0.110964 0.760143
0.738231 0.110979 0.760082
0.737438 0.11133 0.759045
0 0.278614 0.686915
0 0.270756 0.687251
0 0.241123 0.687709
0.0347448 0.0873579 0.6766
0.606775 0.0986496 0.747204
0.73817 0.11107 0.760021
0.738079 0.111116 0.759899
0.737072 0.111574 0.758556
0.737728 0.111269 0.759441
0 0.638682 0.796353
0 0.637415 0.796765
0 0.628962 0.792691
0 0.596353 0.776699
0.498085 0.539101 0.887877
0.876295 0.523766 0.886397
0.872724 0.504204 0.882704
0.871855 0.498573 0.881361
0.871778 0.497276 0.881086
0.0118868 0.844327 0.889372
0.00959792 0.836973 0.885573
0.0055848 0.803143 0.870054
0.00260929 0.771206 0.859602
0.0218509 0.787457 0.892195
0.804028 0.822248 0.955917
0.955657 0.824765 0.956481
0.954574 0.819547 0.955581
0.953155 0.818433 0.956069
0.0381781 0.924239 0.917769
0.0382696 0.924224 0.917739
0.0403143 0.923812 0.916899
0.0401007 0.923858 0.916976
0.0424964 0.935042 0.92639
0.561181 0.932326 0.95874
0.956222 0.958663 0.983551
0.989258 0.960662 0.984405
0.987411 0.959701 0.985107
0.0380713 0.924254 0.91783
0.0367895 0.924529 0.918181
0.0387579 0.924117 0.91751
0.0402991 0.923812 0.916915
0.0428016 0.937621 0.926757
0.0620279 0.968215 0.948425
0.891752 0.985718 0.987793
0.990784 0.989899 0.989578
0.99025 0.98999 0.989929
0.0357824 0.924743 0.918379
0.0369421 0.924498 0.918151
0.0370794 0.924468 0.918135
0.0388495 0.924102 0.917449
0.042649 0.93727 0.92636
0.060502 0.967437 0.948135
0.786984 0.989288 0.984665
0.989639 0.989853 0.989288
0.989837 0.990082 0.990173
