bundles/resolve-cinematic-luts/Phantom Luts/Komodo Phantom ARRI LUTs G2/Komodo Phantom ARRI LUTs G2/65x/Standard (No WB Offset)/Utopia_Komodo_Legacy_G2_65x.cube
TITLE "Generated by Resolve"
LUT_3D_SIZE 65
0.0199588 0.0481575 0.0580301
0.0199588 0.0481422 0.0580148
0.0199588 0.048127 0.0579995
0.0199588 0.0481117 0.057969
0.0208743 0.0481117 0.0579232
0.0249332 0.0484474 0.0581521
0.0295872 0.0484474 0.0585031
0.0361334 0.0477455 0.0593423
0.0457313 0.0467536 0.0608072
0.0562905 0.0459449 0.0605936
0.0676585 0.0451972 0.0597696
0.0804608 0.0437781 0.0593576
0.0949874 0.0424201 0.0589914
0.11342 0.0408942 0.0585794
0.132036 0.039292 0.0581521
0.152987 0.0381628 0.0578775
0.175402 0.0368658 0.0570993
0.199985 0.0357671 0.0569009
0.227649 0.0353704 0.057496
0.257237 0.0352483 0.0577859
0.289464 0.0350805 0.0590524
0.323812 0.0347753 0.061326
0.361852 0.0343023 0.0647288
0.403037 0.0337682 0.0690318
0.444297 0.0332952 0.0741436
0.485542 0.0324407 0.0798047
0.523186 0.0324254 0.086183
0.559457 0.032166 0.0928969
0.592859 0.0315862 0.100069
0.62295 0.0301671 0.105653
0.653056 0.0350958 0.111437
0.682445 0.0433661 0.120043
0.697322 0.0449226 0.126604
0.699214 0.0450599 0.130205
0.701167 0.045182 0.133471
0.702815 0.0453193 0.136873
0.704356 0.0453956 0.140002
0.705882 0.0455024 0.142565
0.70721 0.0455787 0.145434
0.708385 0.0456703 0.148241
0.709514 0.0457923 0.150652
0.710353 0.0459449 0.153246
0.711269 0.0460517 0.15555
0.711986 0.0461891 0.157214
0.712474 0.0463264 0.158633
0.71281 0.0464332 0.160327
0.713008 0.0464942 0.161822
0.713222 0.04654 0.163195
0.712505 0.0445716 0.163577
0.70753 0.0347753 0.160952
0.707866 0.0349584 0.161868
0.708202 0.0350958 0.162768
0.708507 0.0352331 0.163561
0.708675 0.0352178 0.164218
0.708888 0.0352941 0.164797
0.709056 0.0353857 0.165331
0.709224 0.0354467 0.165774
0.709361 0.0355077 0.166186
0.709468 0.0355535 0.166476
0.709545 0.035584 0.16672
0.709651 0.035584 0.166934
0.709865 0.0355383 0.167117
0.710246 0.0354467 0.167254
0.710765 0.0352941 0.167391
0.711315 0.0351415 0.167514
0.0199588 0.0480812 0.0579385
0.0199588 0.0480964 0.0579538
0.0199588 0.0481117 0.057969
0.0199588 0.0480964 0.057969
0.0202029 0.0480964 0.0579385
0.0240177 0.0483864 0.0581064
0.028687 0.0485542 0.0585031
0.0350805 0.0478523 0.059144
0.0443732 0.0469062 0.0607156
0.055314 0.0460365 0.0606851
0.0669108 0.0452277 0.0598001
0.0796216 0.0438392 0.0593729
0.0941634 0.0424659 0.0589456
0.112444 0.0409705 0.0583047
0.131243 0.0390936 0.0574197
0.151614 0.0378271 0.0566262
0.174273 0.036408 0.055848
0.19913 0.035462 0.0556954
0.226062 0.0345617 0.0558328
0.256321 0.0341802 0.0559243
0.288243 0.0340734 0.0569009
0.323476 0.033753 0.0590372
0.361639 0.0332494 0.0620127
0.402228 0.0327611 0.0661479
0.444648 0.0322576 0.0716869
0.484947 0.0317235 0.0774243
0.522103 0.0314488 0.0831922
0.558083 0.0310063 0.0893416
0.592203 0.0306096 0.0968032
0.623041 0.02916 0.102815
0.653025 0.0349889 0.108751
0.682658 0.0432898 0.117525
0.69659 0.0446937 0.124407
0.698466 0.0448463 0.128099
0.70042 0.0449683 0.131472
0.702251 0.0450752 0.134646
0.703716 0.0452277 0.137881
0.705196 0.045304 0.140749
0.706538 0.0454261 0.143114
0.707683 0.0455177 0.145922
0.708675 0.0456245 0.148394
0.709606 0.0457618 0.150622
0.710323 0.0458991 0.152895
0.711086 0.0460059 0.155016
0.711788 0.0461585 0.156649
0.712154 0.0462654 0.157931
0.712413 0.0464179 0.159075
0.712581 0.0465095 0.160433
0.712581 0.0461891 0.161578
0.712764 0.0462501 0.1626
0.712917 0.0462806 0.163455
0.71313 0.0463111 0.16408
0.713314 0.0463111 0.164782
0.707591 0.0350652 0.16112
0.707622 0.0347906 0.16144
0.70782 0.0348669 0.161959
0.708003 0.0349279 0.162402
0.708141 0.0349737 0.162737
0.708278 0.0350195 0.163058
0.70837 0.0350652 0.163348
0.708476 0.0350958 0.163561
0.708721 0.0350652 0.16376
0.709117 0.0350042 0.163958
0.709651 0.0348669 0.16408
0.710369 0.0346685 0.164187
0.0199588 0.0480812 0.0579538
0.0199588 0.0481117 0.0579843
0.0199588 0.048127 0.0579995
0.0199588 0.048127 0.0579995
0.0199588 0.048127 0.0579843
0.0224613 0.0483864 0.0580911
0.0274205 0.0486915 0.0584726
0.0335546 0.048127 0.0588693
0.0424353 0.0472419 0.0604868
0.0537575 0.0462196 0.0607767
0.0651408 0.0454108 0.0598917
0.0783856 0.0439612 0.0593576
0.0927443 0.0425727 0.0588998
0.11136 0.0411078 0.0583658
0.130587 0.0391089 0.0573434
0.1505 0.0378576 0.0564889
0.172747 0.0362249 0.0551461
0.196933 0.0352483 0.0544289
0.223682 0.0340429 0.0540475
0.253376 0.0332341 0.0538338
0.286061 0.0327611 0.0543069
0.321508 0.0323796 0.0559854
0.359182 0.0319829 0.0587778
0.40058 0.0314183 0.062623
0.44242 0.0307622 0.0675517
0.48336 0.0303197 0.07364
0.52108 0.030396 0.0800946
0.556634 0.030045 0.0860456
0.590768 0.0292058 0.0925154
0.620478 0.0277714 0.0974899
0.651728 0.0348211 0.104585
0.681483 0.0431067 0.113756
0.695766 0.0446479 0.120912
0.697246 0.0446784 0.125322
0.699123 0.0448005 0.128679
0.701045 0.044892 0.131975
0.702663 0.0450294 0.135073
0.704067 0.0451514 0.138064
0.705409 0.0452583 0.140749
0.706569 0.0453803 0.142947
0.707607 0.0454871 0.145541
0.708461 0.0455787 0.147875
0.7093 0.0457008 0.149767
0.709972 0.0458228 0.15172
0.710536 0.0459297 0.153582
0.711131 0.0460517 0.155245
0.71162 0.0461738 0.156542
0.711788 0.0462959 0.157519
0.711879 0.0464332 0.158267
0.711971 0.0465858 0.159152
0.712032 0.0466621 0.160067
0.712093 0.0466926 0.16083
0.7122 0.0467079 0.161471
0.712352 0.0467079 0.161975
0.712398 0.0461738 0.162493
0.712566 0.0461738 0.162936
0.712688 0.0461738 0.163302
0.71281 0.0461738 0.163546
0.712901 0.0461738 0.163775
0.712978 0.0461738 0.163958
0.713085 0.0461738 0.164126
0.713298 0.0461128 0.164294
0.713634 0.0460365 0.164431
0.714107 0.0458991 0.164523
0.714733 0.0457313 0.164584
0.0199588 0.0480964 0.0579385
0.0199588 0.0481117 0.0579843
0.0199588 0.048127 0.0579995
0.0199588 0.048127 0.0579995
0.0199588 0.048127 0.0579843
0.0211032 0.0482948 0.0579995
0.0256352 0.0488746 0.0583658
0.0309911 0.048661 0.0585336
0.0394293 0.0479591 0.0599069
0.0503243 0.047013 0.0608225
0.0621653 0.046067 0.0600137
0.0753338 0.04477 0.0592508
0.0900282 0.0433204 0.0589609
0.109041 0.0417182 0.0583505
0.128191 0.0396887 0.0572976
0.148867 0.0382391 0.0565042
0.171023 0.0364843 0.0551766
0.19585 0.0353094 0.0543679
0.221576 0.0339361 0.053254
0.250553 0.0327306 0.0524453
0.282582 0.0321813 0.0518196
0.317769 0.0314946 0.0525978
0.356207 0.0306554 0.0545968
0.397406 0.0298924 0.0581216
0.439918 0.02916 0.0629892
0.481498 0.0286107 0.0690318
0.518715 0.0286412 0.0755474
0.55494 0.0284886 0.0819409
0.588647 0.0278019 0.0878614
0.622354 0.0327916 0.0954604
0.652567 0.0400092 0.101442
0.678676 0.0427253 0.107759
0.693538 0.0445716 0.115801
0.696086 0.0446021 0.121233
0.697597 0.0446174 0.125414
0.699458 0.0447242 0.12874
0.701259 0.0448157 0.131853
0.702739 0.0449683 0.134844
0.704005 0.0450904 0.137606
0.70518 0.0451972 0.1402
0.706218 0.0453193 0.142153
0.707149 0.0454261 0.144335
0.707958 0.0455177 0.146471
0.708659 0.0456092 0.148287
0.709331 0.0457008 0.149813
0.709834 0.0457923 0.151293
0.710201 0.0459144 0.152773
0.710491 0.0460212 0.15407
0.710781 0.0461433 0.155184
0.710903 0.0462806 0.156146
0.710964 0.0464332 0.156817
0.710948 0.04654 0.157366
0.710979 0.0466163 0.157839
0.71104 0.0466773 0.15819
0.711147 0.0467231 0.158541
0.711299 0.0467536 0.158877
0.711437 0.0467689 0.159228
0.711528 0.0467689 0.159533
0.71162 0.0467689 0.159823
0.711696 0.0467689 0.160021
0.711772 0.0467536 0.160204
0.711986 0.0467079 0.160357
0.712306 0.0466011 0.16051
0.71281 0.0464637 0.160601
0.713436 0.0462654 0.160693
0.0199588 0.0480812 0.0579385
0.0199588 0.0481117 0.0579843
0.0199588 0.048127 0.0579995
0.0199588 0.048127 0.0579995
0.0199588 0.048127 0.0579843
0.0201267 0.0481727 0.0579843
0.0233158 0.0489967 0.0583505
0.0281834 0.0492103 0.0585031
0.0354467 0.0489052 0.059144
0.0464485 0.0478981 0.0606851
0.0582895 0.046952 0.0602426
0.07187 0.0457008 0.0591745
0.0865949 0.0443732 0.0588388
0.104952 0.0428626 0.0582437
0.124849 0.0408026 0.0572061
0.145892 0.0392157 0.0565499
0.168612 0.0373999 0.0551308
0.193774 0.0361486 0.0543069
0.219883 0.0345617 0.053193
0.249226 0.0331731 0.0523537
0.280507 0.0322271 0.0511788
0.3149 0.0314794 0.0511482
0.352499 0.0300908 0.0514229
0.393698 0.0287785 0.0535134
0.436118 0.027512 0.0572671
0.478035 0.0267643 0.0630198
0.516182 0.0267185 0.0698558
0.551751 0.0265202 0.0763867
0.586206 0.0259556 0.0820478
0.621469 0.0332494 0.090425
0.651072 0.0397803 0.0959029
0.676799 0.0423743 0.101427
0.690532 0.0440986 0.108812
0.69395 0.0444953 0.115267
0.696223 0.0445258 0.120668
0.697673 0.04448 0.12488
0.699382 0.0446021 0.12813
0.70103 0.0447089 0.130953
0.702419 0.0448615 0.133669
0.703593 0.0449989 0.136233
0.70454 0.0451209 0.138705
0.705516 0.0452277 0.140749
0.70634 0.0453346 0.142397
0.707088 0.0454261 0.144152
0.707744 0.0454871 0.145861
0.708278 0.0455634 0.147356
0.708751 0.0456245 0.148501
0.709148 0.0457008 0.149615
0.709438 0.0457923 0.150546
0.709606 0.0458991 0.151492
0.709651 0.0460365 0.152346
0.70959 0.0461585 0.153079
0.709545 0.0462654 0.153719
0.70956 0.0463722 0.154253
0.709636 0.0464332 0.154726
0.709728 0.046479 0.155123
0.709865 0.0464942 0.155505
0.709957 0.0465248 0.155795
0.710033 0.0465248 0.156024
0.710124 0.0465553 0.156237
0.710216 0.0465553 0.156344
0.710384 0.04654 0.156451
0.710689 0.0464485 0.156512
0.711162 0.0463111 0.156542
0.711803 0.046128 0.156542
0.0205539 0.0497444 0.0585489
0.0204776 0.0495918 0.0585184
0.0203861 0.0493629 0.0584421
0.0204013 0.0490578 0.05832
0.0205692 0.0486305 0.0581674
0.0202182 0.0483558 0.0581064
0.0214847 0.0488594 0.0582589
0.0259251 0.0496071 0.0586252
0.0317693 0.0497597 0.0588388
0.0414282 0.0492409 0.0600748
0.0540017 0.0480507 0.0603952
0.0673075 0.046952 0.0591287
0.0826123 0.0456245 0.058732
0.100679 0.0441749 0.0581369
0.120668 0.0422065 0.0569772
0.142184 0.0406043 0.0564889
0.165515 0.0387579 0.0550698
0.190555 0.0374456 0.0541238
0.217426 0.035935 0.0530251
0.247044 0.0346227 0.0523232
0.279271 0.0336614 0.0511635
0.313375 0.0324254 0.0510567
0.350607 0.0305028 0.05066
0.39057 0.028275 0.0505989
0.431052 0.0264897 0.0520943
0.473259 0.0252537 0.0560616
0.511498 0.0249943 0.0625315
0.548074 0.0246128 0.0692454
0.58294 0.0247654 0.0755322
0.618067 0.0321813 0.08365
0.648768 0.0394293 0.0889601
0.673564 0.0418708 0.0933852
0.687205 0.0435035 0.100084
0.690669 0.0439765 0.106935
0.693584 0.0442817 0.113329
0.696178 0.0444495 0.119036
0.697383 0.0443427 0.122957
0.698863 0.0444648 0.126223
0.700298 0.0445869 0.129168
0.701625 0.0446937 0.131746
0.702647 0.0448768 0.134127
0.703624 0.0449989 0.136202
0.704356 0.0450904 0.138201
0.705135 0.045182 0.140017
0.705791 0.0452583 0.141146
0.706371 0.0453346 0.142458
0.706889 0.0453956 0.143648
0.707332 0.0454414 0.144823
0.707668 0.0455024 0.145861
0.707866 0.0455787 0.146715
0.707973 0.045655 0.147478
0.708003 0.0457618 0.148165
0.707942 0.0458839 0.148638
0.707866 0.0460059 0.14905
0.707805 0.0460822 0.149493
0.70782 0.0461585 0.149844
0.707866 0.0462043 0.150118
0.707942 0.0462196 0.150317
0.708034 0.0462348 0.15053
0.70811 0.0462501 0.150698
0.708202 0.0462501 0.150896
0.7084 0.0462043 0.151019
0.708736 0.0461128 0.151125
0.709239 0.0459907 0.151232
0.709773 0.0458076 0.151308
0.0215915 0.0541848 0.06009
0.0215457 0.0540017 0.0600748
0.021561 0.0538643 0.06009
0.0216983 0.0535744 0.0600443
0.0221561 0.0530556 0.0599069
0.0225223 0.05243 0.0596933
0.0238041 0.0518196 0.0595254
0.0268559 0.0526131 0.0600137
0.0311894 0.0531472 0.0603952
0.0386053 0.0526436 0.0601511
0.0495003 0.0509499 0.0610513
0.062211 0.0486305 0.0594034
0.0780652 0.0472877 0.0585794
0.0949569 0.0460365 0.0581826
0.116167 0.0441138 0.0567178
0.138094 0.0425269 0.0560616
0.161715 0.0406348 0.0551003
0.187381 0.0391394 0.0540017
0.214237 0.0376745 0.0529641
0.244724 0.0364996 0.0520638
0.27718 0.0353704 0.0511025
0.311421 0.0337072 0.0508125
0.349386 0.0318914 0.0506752
0.388296 0.0296025 0.0503243
0.428962 0.0270237 0.0505684
0.469017 0.0247196 0.0516518
0.50605 0.0234379 0.0548714
0.54168 0.0225834 0.0599527
0.57969 0.0298009 0.0690929
0.615671 0.0366979 0.0770733
0.644709 0.0393378 0.0811933
0.6692 0.0416571 0.0846265
0.682002 0.0427405 0.0896925
0.686458 0.0432746 0.0963149
0.689403 0.0436255 0.102861
0.692134 0.0439002 0.109117
0.694591 0.0441596 0.114595
0.696941 0.0442664 0.119829
0.697902 0.0442359 0.123308
0.699077 0.0443732 0.126101
0.700221 0.0445258 0.12871
0.701244 0.0446326 0.130816
0.702144 0.04477 0.132708
0.702861 0.044892 0.134524
0.703548 0.0449836 0.135988
0.704051 0.0450446 0.137407
0.704555 0.0451057 0.138674
0.705028 0.0451667 0.139742
0.705394 0.0452125 0.14049
0.705699 0.0452735 0.14107
0.705928 0.0453346 0.141787
0.705989 0.0454108 0.142397
0.706004 0.0455177 0.142916
0.705913 0.0456245 0.143313
0.705791 0.0457313 0.14374
0.705715 0.0458228 0.144106
0.705669 0.0458686 0.144381
0.705699 0.0459297 0.144701
0.70573 0.0459449 0.144884
0.705821 0.0459602 0.145098
0.705898 0.0459602 0.145251
0.706081 0.0458991 0.145342
0.706432 0.0458076 0.145449
0.706905 0.0456855 0.14551
0.707546 0.0455024 0.145556
0.0218204 0.0594797 0.0607919
0.0218509 0.0593881 0.0608835
0.0218967 0.059205 0.0609445
0.0219577 0.0589456 0.0609751
0.0226444 0.0583505 0.0609751
0.023682 0.057557 0.0610819
0.0254215 0.056733 0.0611582
0.0289006 0.0565652 0.061265
0.0328985 0.0569009 0.0617227
0.0396887 0.0569467 0.0620279
0.0492103 0.0562142 0.0621653
0.0619364 0.0549935 0.0618448
0.0762646 0.0529335 0.0593118
0.0920272 0.0501411 0.0571298
0.111513 0.0472267 0.0564584
0.132891 0.044892 0.0556191
0.156924 0.0430152 0.0547799
0.182666 0.0413214 0.0535897
0.210727 0.0400092 0.0528115
0.241596 0.038819 0.0519417
0.273869 0.0373541 0.051194
0.308858 0.0354467 0.0507515
0.346258 0.033402 0.0503853
0.386297 0.0311894 0.0502937
0.426917 0.0287175 0.0505837
0.468162 0.0260777 0.0515145
0.504524 0.0242466 0.0535439
0.537362 0.022446 0.0550393
0.573693 0.0293431 0.0612345
0.607889 0.035874 0.0681315
0.637354 0.038529 0.0731823
0.661112 0.0406806 0.0763409
0.673976 0.0420386 0.0802472
0.678965 0.042298 0.0844129
0.682948 0.04271 0.0895247
0.686656 0.043061 0.0956436
0.68954 0.0433814 0.101671
0.692226 0.0436713 0.107576
0.694514 0.0439155 0.112764
0.696696 0.0441749 0.117784
0.697688 0.0441444 0.121019
0.698436 0.0441596 0.123812
0.699275 0.0442817 0.125765
0.700053 0.0443885 0.12781
0.700801 0.0444953 0.129305
0.701442 0.0445716 0.130709
0.701976 0.0446479 0.132067
0.702373 0.0447395 0.132967
0.702739 0.0448157 0.133898
0.703136 0.0448615 0.134813
0.703349 0.0449226 0.135409
0.703502 0.0449836 0.136065
0.703517 0.0450599 0.136538
0.703456 0.0451514 0.137057
0.703349 0.0452583 0.137499
0.703166 0.0453498 0.137804
0.70309 0.0454414 0.138201
0.702998 0.0455024 0.13843
0.703014 0.0455482 0.138659
0.703014 0.0455787 0.138796
0.703075 0.0455787 0.138888
0.703288 0.0455329 0.139025
0.703624 0.0454566 0.13904
0.704112 0.0453193 0.139101
0.704753 0.0451362 0.139071
0.0209659 0.0666667 0.0600748
0.0209354 0.0664988 0.0601053
0.0209506 0.0662242 0.0601816
0.0209964 0.0659953 0.0602731
0.0213474 0.0654459 0.0603952
0.0230716 0.0646067 0.0608835
0.0253758 0.0634928 0.0613413
0.0280308 0.0625315 0.0615244
0.0338445 0.0624857 0.0618296
0.0403143 0.0625925 0.0625772
0.0501259 0.0621958 0.0636454
0.0623636 0.061326 0.0637675
0.0777752 0.0598459 0.0621805
0.0929885 0.0577401 0.059968
0.112398 0.0552529 0.0572366
0.134234 0.0516823 0.0543374
0.155627 0.0483253 0.0538338
0.178714 0.0444343 0.0532692
0.206867 0.0424353 0.0525063
0.237919 0.0411383 0.0518654
0.271122 0.0395209 0.0510719
0.305745 0.0374151 0.05066
0.343755 0.0350958 0.0501717
0.384024 0.0327306 0.0499123
0.425361 0.0302892 0.0504158
0.467353 0.0278325 0.0516518
0.503594 0.025864 0.0535286
0.537499 0.0238193 0.0552377
0.572488 0.0294652 0.0600595
0.605631 0.0356298 0.065156
0.633844 0.0378271 0.0681621
0.655375 0.0395819 0.0701915
0.666789 0.0408331 0.073106
0.671092 0.0413977 0.0761273
0.674434 0.0418402 0.079118
0.67747 0.0419471 0.0822156
0.68101 0.042359 0.0863661
0.684184 0.0427863 0.0912184
0.687068 0.0431067 0.096437
0.689387 0.0433967 0.101549
0.691585 0.0436561 0.106432
0.693034 0.0438239 0.110246
0.694362 0.0439765 0.11342
0.696391 0.0442206 0.117464
0.696971 0.0442054 0.119295
0.697429 0.0441749 0.121126
0.697749 0.0441596 0.122576
0.698482 0.0441901 0.123964
0.698909 0.0442512 0.125017
0.69926 0.0442969 0.125963
0.699611 0.0443427 0.126802
0.699855 0.0443885 0.127352
0.699992 0.0444343 0.127794
0.700114 0.0444953 0.128267
0.700069 0.0445716 0.128603
0.700008 0.0446632 0.129046
0.699855 0.04477 0.12932
0.699748 0.0448463 0.129625
0.699657 0.0449073 0.129839
0.699596 0.0449531 0.129961
0.699641 0.0449683 0.130175
0.699718 0.0449683 0.130236
0.699886 0.0449378 0.130343
0.700084 0.044892 0.130404
0.700359 0.044831 0.130419
0.019501 0.0755932 0.0580758
0.0195468 0.075349 0.0581216
0.0195773 0.0750896 0.0581979
0.0195926 0.0746319 0.0582589
0.0196841 0.0740826 0.0583658
0.0209354 0.0733501 0.0586862
0.023682 0.0720989 0.0593423
0.0264134 0.0706645 0.0600595
0.0307012 0.0704051 0.0603037
0.0389258 0.0704967 0.0605173
0.0488899 0.0702678 0.061387
0.0629282 0.0693675 0.0628214
0.0788586 0.0679942 0.0649882
0.094377 0.0659648 0.0637217
0.115145 0.0630198 0.061326
0.135714 0.0603189 0.0586099
0.157839 0.0573281 0.0556649
0.182406 0.0524758 0.0519112
0.207507 0.0489357 0.0511482
0.234775 0.0449378 0.0511177
0.266773 0.0422065 0.0508125
0.302571 0.039765 0.0504768
0.340124 0.0374609 0.0499733
0.38027 0.0348974 0.0498207
0.422583 0.0321965 0.0500343
0.464973 0.0296635 0.0511635
0.50222 0.027512 0.0532235
0.536324 0.0253147 0.0551003
0.56907 0.023209 0.0570993
0.604212 0.0315709 0.0632334
0.634073 0.0380102 0.0679637
0.656199 0.0398566 0.0695964
0.664744 0.0407263 0.0699016
0.665049 0.0407568 0.0700999
0.66566 0.0408637 0.0713664
0.668101 0.0411841 0.0736706
0.670832 0.0415503 0.0760815
0.673777 0.0418708 0.0787366
0.676432 0.0419013 0.081239
0.679179 0.0421454 0.0840772
0.682002 0.0424659 0.0875868
0.684306 0.0427558 0.0912184
0.686244 0.0429694 0.0949569
0.687922 0.0431373 0.098085
0.689296 0.0433509 0.101289
0.690318 0.043473 0.103593
0.691051 0.0435645 0.105638
0.692378 0.0437018 0.108141
0.692927 0.0437629 0.109606
0.69337 0.0438087 0.110903
0.693339 0.0438239 0.111421
0.695445 0.0440528 0.114061
0.695705 0.0440986 0.115023
0.695796 0.0441444 0.115526
0.695903 0.0442054 0.116274
0.695872 0.0442664 0.116625
0.695842 0.0443275 0.117205
0.695705 0.0444038 0.117525
0.695537 0.0444495 0.117708
0.69546 0.0445106 0.118013
0.695369 0.0445411 0.118105
0.69543 0.0445411 0.118257
0.695521 0.0445106 0.118288
0.695644 0.0444648 0.118227
0.695903 0.044419 0.118425
0.0178683 0.0863661 0.0558022
0.0178378 0.0862593 0.0552529
0.0178836 0.085771 0.0553292
0.0179141 0.0854353 0.0554208
0.0179751 0.0849012 0.0555581
0.0186007 0.0842451 0.0557717
0.0213779 0.0831922 0.0566262
0.0245518 0.0816358 0.0575265
0.0276799 0.0802014 0.0581064
0.0348516 0.080766 0.0578927
0.0467384 0.080354 0.0576638
0.0603494 0.07953 0.0586404
0.0795758 0.0783856 0.0647746
0.095613 0.0766613 0.0657359
0.117266 0.0737163 0.0655528
0.138811 0.0705425 0.063386
0.161776 0.0664836 0.0602426
0.186099 0.0624094 0.0574655
0.21178 0.0579995 0.0540322
0.240635 0.0522927 0.0505684
0.269429 0.0479591 0.049958
0.299596 0.0435798 0.0502022
0.335958 0.0402838 0.0498665
0.376638 0.0374151 0.0494392
0.418799 0.0343938 0.0495766
0.462516 0.0313268 0.05037
0.500221 0.0295109 0.0526284
0.535393 0.0272831 0.0548409
0.56907 0.0249638 0.0569619
0.603738 0.032105 0.0626688
0.635248 0.0380865 0.0675975
0.659175 0.040116 0.0698863
0.670832 0.0412451 0.0707866
0.671626 0.0413062 0.0706493
0.669688 0.0411383 0.0703593
0.667857 0.0409857 0.0700847
0.666285 0.0408789 0.0700542
0.665843 0.0408942 0.0705882
0.666789 0.0410315 0.0719005
0.668589 0.0412757 0.0736095
0.670695 0.0415198 0.0753033
0.672541 0.0417182 0.0770275
0.674403 0.0419013 0.0787823
0.675929 0.0419165 0.0803845
0.677287 0.0419318 0.0819409
0.67866 0.0420996 0.0834516
0.680156 0.0422522 0.0851301
0.681346 0.0423743 0.0865339
0.682353 0.0425269 0.0881208
0.683177 0.0426184 0.0892653
0.683787 0.04271 0.090547
0.684504 0.0427863 0.0918898
0.684871 0.0428168 0.0925765
0.685344 0.0428779 0.0934462
0.685542 0.0429084 0.0939193
0.685679 0.0429541 0.0944228
0.685954 0.0430304 0.0952163
0.685908 0.0431067 0.0955825
0.685939 0.0432136 0.0960403
0.685786 0.0432898 0.0962539
0.685786 0.0433661 0.0966354
0.68574 0.0433967 0.096788
0.685756 0.0433967 0.0968185
0.686046 0.0433661 0.0970932
0.68629 0.0433204 0.0971084
0.0158694 0.100786 0.0521401
0.0160067 0.100603 0.0509957
0.016083 0.100404 0.0510414
0.0161288 0.100084 0.0511635
0.0162051 0.099382 0.0513924
0.0163729 0.0988174 0.0515908
0.0182956 0.0977646 0.0524605
0.0220798 0.0965133 0.053193
0.0252079 0.0947433 0.0542763
0.0314031 0.0936446 0.0547494
0.0414588 0.0936599 0.0539559
0.057023 0.0923781 0.0545357
0.0773022 0.0910048 0.0594186
0.0961013 0.0903182 0.0652171
0.119158 0.0880446 0.0668956
0.142214 0.0842908 0.0674907
0.16614 0.0803082 0.0658122
0.192508 0.0749828 0.0630808
0.218738 0.0696269 0.0596323
0.247257 0.0632944 0.0562448
0.276555 0.0570077 0.052491
0.307256 0.0505226 0.0493019
0.339864 0.0460517 0.0488746
0.373358 0.0411536 0.049134
0.414694 0.0372778 0.0490578
0.458122 0.033875 0.0495003
0.497017 0.0314336 0.0514687
0.534112 0.0292973 0.0541848
0.567849 0.0267491 0.0560311
0.603189 0.0324559 0.0613413
0.635279 0.0380865 0.0666209
0.661707 0.0403449 0.0697185
0.6766 0.0418555 0.0714275
0.678889 0.041886 0.071397
0.677455 0.0419013 0.0714275
0.675837 0.0418708 0.0713817
0.674189 0.0417334 0.0711681
0.672557 0.0416114 0.0709697
0.670893 0.0414893 0.0707713
0.669581 0.0413519 0.070573
0.668238 0.0411994 0.0703441
0.667414 0.0410925 0.0702525
0.66685 0.0410468 0.0703441
0.666545 0.0410163 0.070634
0.66714 0.0410773 0.0713817
0.667979 0.0411536 0.0721752
0.66862 0.0412757 0.0728161
0.669474 0.0413672 0.0735943
0.670298 0.0414588 0.0742809
0.670954 0.0415351 0.074815
0.671458 0.0416114 0.0751812
0.671885 0.0416571 0.0755016
0.672267 0.0417029 0.0758831
0.672602 0.0417182 0.0761883
0.672892 0.0417639 0.076463
0.673198 0.0417945 0.0767681
0.673365 0.0418402 0.0769818
0.673503 0.041886 0.0772564
0.673472 0.0419471 0.0773785
0.673472 0.0420233 0.0776379
0.673335 0.0420996 0.0777752
0.673198 0.0421454 0.077821
0.673274 0.0421759 0.0779889
0.67332 0.0421607 0.0779736
0.673625 0.0421302 0.0780957
0.0139315 0.115816 0.0481575
0.0140383 0.115648 0.0468299
0.0141299 0.11545 0.0461128
0.0141604 0.114992 0.0461738
0.0142061 0.114702 0.0462959
0.0142824 0.114031 0.0465095
0.0149691 0.113405 0.0468299
0.0186313 0.112261 0.0478828
0.0224155 0.110994 0.0484627
0.0272068 0.109224 0.0496834
0.0366217 0.109087 0.0498817
0.0505226 0.108904 0.0499886
0.0723735 0.106767 0.0525216
0.094667 0.105165 0.060853
0.118181 0.105486 0.0649729
0.143389 0.102708 0.0677043
0.170504 0.0991531 0.0692912
0.197482 0.0942855 0.0687419
0.225956 0.088426 0.0667735
0.256748 0.0812085 0.0631876
0.287083 0.0742809 0.0591745
0.317266 0.0667887 0.0547189
0.348943 0.0573587 0.0509957
0.383154 0.0491951 0.0475624
0.418982 0.0435035 0.0471809
0.455314 0.0376135 0.0484779
0.493858 0.0341344 0.0502174
0.531197 0.0317082 0.0525673
0.566903 0.0292973 0.0552377
0.599176 0.0265354 0.0572518
0.633661 0.0343328 0.0635691
0.663188 0.040528 0.0687724
0.681636 0.0420844 0.0712444
0.686671 0.0425727 0.0719921
0.6851 0.0424506 0.0719005
0.683467 0.042359 0.0718395
0.681956 0.0422675 0.0717479
0.680552 0.0421302 0.0716106
0.67924 0.0420844 0.0715648
0.678126 0.0420996 0.0715801
0.67715 0.0420996 0.0715953
0.676402 0.0420844 0.0716106
0.675547 0.0420233 0.0715038
0.674723 0.0419318 0.0713817
0.674006 0.0418097 0.0712139
0.673365 0.0417487 0.0711376
0.672709 0.0416876 0.071046
0.672221 0.0416419 0.070985
0.671778 0.0415961 0.0709087
0.67129 0.0415503 0.0708324
0.670985 0.0415198 0.0708019
0.670634 0.041474 0.0707256
0.670466 0.0414588 0.0706951
0.670329 0.0414435 0.0706798
0.6701 0.041413 0.070634
0.669978 0.0413977 0.0706035
0.669703 0.0413672 0.070573
0.669612 0.0413825 0.0705577
0.66952 0.0413977 0.0705882
0.66923 0.041413 0.0705882
0.669078 0.041474 0.070634
