bundles/resolve-cinematic-luts/Lens Distortions - Finishing LUTs/LD - Paradigm Teal 3.cube
TITLE "LD - Paradigm Teal 3"
# Copyright (c) Lens Distortions, LLC. All Rights Reserved.
# LensDistortions.com
# ref-PT2
LUT_3D_SIZE 33
0.00549325 0.00549325 0.00819409
0.00926223 0.00549325 0.0173037
0.0244602 0.00549325 0.0189364
0.0387732 0.00549325 0.0190585
0.0529641 0.00549325 0.0196384
0.0672313 0.0059968 0.0203861
0.0852216 0.00923171 0.0211643
0.138689 0.0147707 0.022446
0.19205 0.0208896 0.024506
0.241382 0.0294194 0.0282139
0.28661 0.0427405 0.0365301
0.329686 0.0571298 0.045304
0.370916 0.0720836 0.0543526
0.410498 0.087129 0.0639506
0.443748 0.0996719 0.0720836
0.47602 0.111421 0.0801556
0.508217 0.122789 0.0886091
0.540307 0.133837 0.0966659
0.57171 0.144137 0.10428
0.603449 0.154101 0.111696
0.634379 0.163195 0.118242
0.66482 0.171893 0.124529
0.695216 0.180896 0.131197
0.725368 0.190402 0.13817
0.755627 0.199786 0.144991
0.785122 0.208637 0.151431
0.813413 0.216968 0.157671
0.841062 0.225132 0.163714
0.867491 0.23267 0.169375
0.893187 0.240055 0.175189
0.917998 0.247089 0.180575
0.94049 0.25391 0.186221
0.960204 0.261494 0.192172
0.00549325 0.0139773 0.0253605
0.0100252 0.0116426 0.0164187
0.0245975 0.0112764 0.0171206
0.0382544 0.0129549 0.016556
0.0523537 0.0140078 0.0156558
0.0672007 0.0156558 0.0161135
0.0844434 0.0178073 0.017319
0.135958 0.0257115 0.021561
0.188357 0.0361181 0.027985
0.237644 0.0479744 0.0350347
0.283253 0.0614939 0.0436255
0.326741 0.0761578 0.0526284
0.368582 0.091722 0.0625467
0.407691 0.107347 0.0728771
0.44062 0.120516 0.0823682
0.473106 0.13312 0.0916457
0.505104 0.145434 0.100557
0.536568 0.156741 0.108705
0.567773 0.167636 0.116487
0.598459 0.178195 0.123995
0.629206 0.188083 0.131456
0.659525 0.197314 0.13846
0.690059 0.206424 0.145312
0.720424 0.214832 0.151507
0.750835 0.223133 0.15816
0.780529 0.230915 0.164126
0.809461 0.238529 0.170092
0.837079 0.245594 0.17583
0.864179 0.252552 0.181323
0.889723 0.259052 0.186465
0.914733 0.265278 0.191531
0.937743 0.271809 0.19707
0.957534 0.278508 0.202533
0.00549325 0.0358892 0.0480812
0.00721752 0.0371405 0.0451362
0.0297398 0.0340429 0.0298009
0.0421149 0.034165 0.018204
0.0552071 0.0379492 0.0176242
0.0706798 0.0375219 0.0157473
0.0884108 0.0387427 0.0137942
0.135821 0.0489204 0.0161135
0.185824 0.06215 0.0246891
0.234485 0.0770428 0.0335241
0.280125 0.0924239 0.0433661
0.323568 0.107622 0.0534371
0.365042 0.122164 0.0637675
0.403845 0.135897 0.0734722
0.43682 0.147433 0.0828412
0.469245 0.158511 0.0916762
0.501122 0.169055 0.0998856
0.532525 0.178988 0.107683
0.563973 0.188586 0.115434
0.594934 0.19762 0.122667
0.625528 0.206104 0.129656
0.656092 0.214771 0.136385
0.68661 0.222797 0.142855
0.71725 0.230838 0.149508
0.747524 0.238376 0.155795
0.777523 0.245884 0.161975
0.806424 0.252842 0.167773
0.834546 0.259739 0.17377
0.861372 0.266514 0.179156
0.887129 0.272694 0.184451
0.912108 0.278904 0.189578
0.935332 0.285237 0.194934
0.955367 0.291752 0.200366
0.00923171 0.0652934 0.0741436
0.0178225 0.0660563 0.0704051
0.0350347 0.0653544 0.0598154
0.0530404 0.0643626 0.0427863
0.0603647 0.0644846 0.0273136
0.0720073 0.0708934 0.0210422
0.0900587 0.0726787 0.019852
0.138155 0.0790112 0.0149538
0.187671 0.0888533 0.0137026
0.234806 0.102678 0.0240024
0.279026 0.116945 0.0346838
0.321874 0.130831 0.0454414
0.362722 0.144198 0.055787
0.401709 0.156725 0.0661021
0.434379 0.167376 0.0751812
0.466285 0.177401 0.0841993
0.498222 0.187243 0.0930648
0.529366 0.196338 0.101381
0.560464 0.205188 0.109026
0.59144 0.213993 0.116655
0.622354 0.222156 0.123919
0.653086 0.230457 0.130877
0.683421 0.238178 0.137896
0.714107 0.24593 0.144793
0.744488 0.253178 0.151064
0.774762 0.260334 0.157717
0.803555 0.267094 0.163607
0.83154 0.273915 0.169375
0.858579 0.2804 0.175372
0.884459 0.286412 0.18056
0.909453 0.292515 0.185809
0.932738 0.298619 0.191104
0.953094 0.304891 0.196872
0.0203861 0.0978103 0.103319
0.028336 0.0980392 0.100038
0.037171 0.100237 0.0988785
0.0614023 0.0965286 0.0814527
0.0776989 0.0975967 0.0586404
0.0824445 0.0959182 0.0412451
0.0982223 0.103334 0.0314183
0.142458 0.110475 0.020264
0.188846 0.118837 0.0175937
0.235706 0.129732 0.0189517
0.279011 0.142336 0.0253452
0.320989 0.154757 0.0359655
0.361318 0.167208 0.046952
0.39968 0.178637 0.0573129
0.431571 0.18822 0.0661784
0.463447 0.197772 0.0753643
0.494774 0.206561 0.0844587
0.525841 0.215152 0.0929274
0.557336 0.223682 0.10132
0.588052 0.231754 0.109392
0.618875 0.239933 0.117205
0.649332 0.247562 0.124514
0.680034 0.255253 0.13164
0.710674 0.262348 0.138781
0.741299 0.269551 0.145724
0.771237 0.276371 0.152148
0.800107 0.283162 0.158236
0.828244 0.289677 0.164614
0.855344 0.295689 0.170214
0.881392 0.301793 0.176013
0.906386 0.307759 0.181186
0.929641 0.31339 0.186526
0.950362 0.319753 0.191974
0.0344091 0.131792 0.133944
0.0426642 0.131609 0.130846
0.0526741 0.132708 0.129168
0.0648356 0.134569 0.125566
0.0902876 0.130602 0.099321
0.103182 0.131563 0.0783856
0.115816 0.132143 0.0563973
0.15404 0.139391 0.0234684
0.194873 0.148455 0.0208743
0.237156 0.158526 0.0202487
0.279408 0.168978 0.0226902
0.319829 0.180636 0.0276646
0.359319 0.19176 0.0363317
0.397391 0.201709 0.0461585
0.429053 0.210788 0.0554208
0.460182 0.219196 0.064332
0.491386 0.227359 0.0732586
0.522698 0.235752 0.0829328
0.553582 0.24358 0.091722
0.584695 0.251438 0.100557
0.615274 0.258839 0.108995
0.646311 0.266438 0.117067
0.676524 0.27361 0.124437
0.707134 0.280674 0.13196
0.737499 0.28751 0.138903
0.767605 0.294224 0.145815
0.796872 0.300725 0.15227
0.824643 0.306844 0.158267
0.851804 0.312963 0.164523
0.877943 0.318959 0.170336
0.902907 0.324437 0.175616
0.926467 0.330175 0.180972
0.94754 0.336233 0.186892
0.0539559 0.165728 0.164721
0.0635386 0.165087 0.161837
0.0711681 0.16582 0.160388
0.0782177 0.16733 0.159838
0.0935683 0.167483 0.153521
0.115053 0.16527 0.121645
0.135409 0.16643 0.0975814
0.16527 0.171481 0.0476844
0.209537 0.174105 0.0240635
0.245075 0.184787 0.0216526
0.281163 0.196704 0.0222019
0.320714 0.206241 0.0255436
0.359014 0.216526 0.030869
0.395468 0.226658 0.0363165
0.426505 0.234623 0.0438239
0.457923 0.241672 0.0521401
0.489036 0.249516 0.0613107
0.519814 0.257115 0.0707256
0.55082 0.264851 0.0803388
0.581567 0.272145 0.0899825
0.612451 0.2795 0.0993515
0.642832 0.286488 0.107698
0.673457 0.293553 0.116091
0.703624 0.300206 0.12372
0.734066 0.30695 0.130999
0.764096 0.313466 0.138476
0.792996 0.31957 0.144976
0.821088 0.32578 0.151293
0.848295 0.331685 0.157733
0.874159 0.337209 0.16347
0.899275 0.34284 0.169009
0.92314 0.348455 0.174762
0.944488 0.354055 0.180331
0.0773022 0.198993 0.195148
0.0831464 0.198688 0.193118
0.089189 0.198779 0.191546
0.0956741 0.199725 0.190692
0.102907 0.201816 0.191012
0.121279 0.199756 0.180163
0.154299 0.199039 0.131884
0.179019 0.203998 0.112718
0.217121 0.208453 0.039292
0.259113 0.209979 0.0243534
0.291051 0.220462 0.022797
0.323888 0.232792 0.0241245
0.360418 0.241382 0.0272984
0.395926 0.249866 0.032105
0.426078 0.257664 0.0374609
0.456306 0.265431 0.0425269
0.486885 0.273396 0.0494545
0.517876 0.280095 0.0585641
0.54876 0.286885 0.0674296
0.579507 0.29398 0.077348
0.609964 0.300969 0.0874189
0.64033 0.307988 0.0968643
0.670283 0.314611 0.10547
0.700694 0.321233 0.113787
0.730648 0.327489 0.121584
0.76051 0.333852 0.129152
0.789731 0.339986 0.136461
0.817563 0.345708 0.143099
0.844572 0.351522 0.149554
0.870588 0.357183 0.155642
0.89572 0.362432 0.16141
0.91931 0.367727 0.167163
0.941253 0.373236 0.173037
0.0971084 0.23125 0.225559
0.102281 0.230976 0.223743
0.107927 0.231083 0.222309
0.113588 0.231571 0.221286
0.119722 0.233066 0.221164
0.128359 0.235019 0.220096
0.163058 0.229786 0.20209
0.199542 0.233738 0.144717
0.22121 0.241184 0.128725
0.265827 0.242954 0.0465705
0.305119 0.244343 0.0248569
0.335363 0.2542 0.024094
0.365682 0.265019 0.0250401
0.397986 0.274205 0.0279393
0.427375 0.28101 0.0321355
0.457206 0.288014 0.0374914
0.487129 0.295552 0.0433204
0.517037 0.303212 0.0496376
0.546914 0.310658 0.0554971
0.577432 0.317388 0.0643015
0.607614 0.32343 0.0730144
0.637919 0.330083 0.0825055
0.668132 0.336629 0.0925917
0.697887 0.342947 0.101625
0.727703 0.34931 0.110277
0.757412 0.355123 0.118456
0.786389 0.361135 0.126116
0.814191 0.367041 0.133288
0.841108 0.372412 0.139879
0.867079 0.377859 0.146609
0.892042 0.383246 0.152682
0.916197 0.388342 0.158724
0.937865 0.393515 0.164309
0.116747 0.262806 0.255329
0.121355 0.262501 0.253681
0.126421 0.262394 0.252232
0.13138 0.262547 0.251057
0.136934 0.263493 0.250584
0.142641 0.264805 0.250507
0.162524 0.265599 0.244297
0.216999 0.263264 0.187091
0.240452 0.26891 0.159777
0.266972 0.276585 0.116884
0.311208 0.275746 0.0543526
0.349371 0.276997 0.0254673
0.377768 0.286137 0.024979
0.405158 0.29604 0.0257572
0.430884 0.305196 0.0278935
0.45922 0.311971 0.0317235
0.488716 0.318563 0.0371252
0.51812 0.325597 0.0430915
0.54728 0.33254 0.049134
0.576928 0.339971 0.0556497
0.606241 0.347173 0.0620127
0.635737 0.354147 0.0688334
0.665797 0.360021 0.0782025
0.695384 0.365515 0.086656
0.725185 0.371542 0.0961318
0.754742 0.377554 0.105257
0.783108 0.383246 0.113191
0.811124 0.388891 0.121126
0.838178 0.394491 0.128893
0.863813 0.399802 0.135698
0.888777 0.404837 0.142138
0.912764 0.409873 0.148714
0.934844 0.415122 0.154711
0.135851 0.293248 0.283909
0.139986 0.292912 0.282582
0.144396 0.292546 0.281056
0.148821 0.292683 0.279988
0.153735 0.293217 0.279255
0.158831 0.294102 0.278691
0.175814 0.295109 0.27599
0.219928 0.292088 0.258579
0.259236 0.296086 0.196735
0.278477 0.303593 0.176699
0.309758 0.310674 0.100755
0.354467 0.308034 0.0625925
0.390936 0.308995 0.0269474
0.416464 0.316732 0.025452
0.440467 0.325475 0.026276
0.464927 0.334447 0.0276951
0.491203 0.342992 0.0309148
0.520073 0.349279 0.0357977
0.548913 0.355673 0.0415198
0.578149 0.362417 0.048127
0.607126 0.369268 0.0547036
0.635981 0.375845 0.0611887
0.664698 0.382773 0.0677958
0.693523 0.389288 0.0740673
0.722591 0.395941 0.0810254
0.752087 0.401282 0.0901045
0.781018 0.406302 0.0986801
0.808621 0.411597 0.106783
0.835203 0.417044 0.114824
0.861021 0.422293 0.122469
0.885603 0.427131 0.129427
0.909499 0.432105 0.136355
0.931762 0.437201 0.142931
0.153796 0.323018 0.311803
0.157549 0.322576 0.310231
0.161639 0.322271 0.308797
0.16553 0.322271 0.307759
0.170062 0.322347 0.306783
0.182025 0.322515 0.304341
0.199207 0.323125 0.30103
0.221607 0.323934 0.296162
0.271321 0.324224 0.242542
0.297078 0.330114 0.207553
0.31957 0.337835 0.174838
0.352468 0.342824 0.104768
0.395407 0.339925 0.0716564
0.427634 0.341131 0.034699
0.452216 0.346899 0.0263371
0.475456 0.35494 0.0264591
0.499382 0.36405 0.0277562
0.524498 0.3729 0.0302129
0.551568 0.379889 0.0339818
0.580377 0.385931 0.0398718
0.608865 0.392279 0.046067
0.637156 0.398428 0.0521859
0.665782 0.405005 0.0592508
0.694423 0.41146 0.06598
0.722606 0.417639 0.0723583
0.750942 0.424002 0.0790723
0.778988 0.430228 0.0855116
0.805798 0.436088 0.0915389
0.832578 0.441169 0.100084
0.858442 0.445853 0.107836
0.883391 0.450416 0.114641
0.906859 0.45507 0.121782
0.929137 0.459953 0.129198
0.171344 0.352438 0.339574
0.17496 0.351873 0.337957
0.178317 0.35169 0.336767
0.182177 0.351583 0.335622
0.191348 0.350927 0.33286
0.206332 0.350729 0.329625
0.222736 0.35111 0.325933
0.24213 0.351812 0.32192
0.270741 0.353582 0.307698
0.312032 0.356283 0.251896
0.333547 0.364523 0.221073
0.360082 0.371405 0.166659
0.393668 0.374655 0.11429
0.432181 0.371832 0.0821546
0.461921 0.372335 0.0431525
0.487953 0.376593 0.0269474
0.511147 0.384421 0.0271
0.534676 0.392966 0.0279393
0.558618 0.401648 0.0294804
0.583597 0.410269 0.0322576
0.611353 0.416449 0.0371405
0.639338 0.422187 0.0429236
0.667674 0.428168 0.0495613
0.695766 0.434256 0.0561837
0.723568 0.440116 0.0624094
0.751568 0.446159 0.069398
0.779355 0.452094 0.0760052
0.805783 0.457969 0.0821851
0.831693 0.463676 0.088777
0.856596 0.469352 0.0952621
0.880659 0.474891 0.101015
0.904005 0.480034 0.107057
0.926314 0.484321 0.11397
0.187808 0.381659 0.366674
0.191012 0.381079 0.365255
0.194339 0.38088 0.364187
0.202014 0.380407 0.361975
0.214771 0.379644 0.358389
0.229694 0.379232 0.354864
0.245808 0.379065 0.350408
0.264164 0.379889 0.346654
0.284291 0.380865 0.342657
0.32018 0.385718 0.291554
0.35021 0.389838 0.262562
0.371557 0.398154 0.228489
0.399451 0.404746 0.159045
0.430549 0.406363 0.123888
0.46598 0.403586 0.0934615
0.496437 0.403494 0.0529793
0.523796 0.406577 0.0278325
0.546853 0.414023 0.0275273
0.56997 0.421881 0.0279393
0.593469 0.430564 0.02916
0.617716 0.439078 0.0314641
0.642542 0.447013 0.0342412
0.67039 0.452476 0.0400092
0.698116 0.458122 0.0458381
0.72578 0.463523 0.0519112
0.753552 0.469337 0.0588235
0.780926 0.475044 0.0653697
0.80708 0.480735 0.0718242
0.832471 0.485985 0.0782788
0.856916 0.491539 0.0844587
0.880858 0.496864 0.0906233
0.903975 0.502159 0.0972457
0.925338 0.507271 0.102693
0.204089 0.410895 0.394247
0.207355 0.410544 0.392935
0.214038 0.409995 0.390799
0.225254 0.409201 0.387793
0.237903 0.408408 0.384131
0.252506 0.407691 0.380133
0.268681 0.407538 0.375494
0.286336 0.408164 0.37171
0.305226 0.408865 0.367697
0.325139 0.413535 0.346731
0.363424 0.417243 0.299977
0.385992 0.424018 0.273991
0.410452 0.431617 0.225772
0.434958 0.437201 0.159655
0.464607 0.438331 0.133913
0.499825 0.435386 0.104555
0.531258 0.43505 0.0639811
0.559655 0.43624 0.0286412
0.58265 0.443473 0.0281682
0.605631 0.451194 0.0284276
0.62884 0.459068 0.0291142
0.65211 0.467475 0.0303655
0.676448 0.475639 0.0328069
0.701213 0.482933 0.0361028
0.72874 0.488228 0.0417945
0.756329 0.493538 0.0479133
0.783017 0.498955 0.0539864
0.809064 0.504189 0.0605325
0.83418 0.509255 0.0666819
0.858305 0.51458 0.0728618
0.882048 0.519814 0.0794537
0.904585 0.524941 0.0854353
0.926009 0.530037 0.0914931
0.220264 0.440253 0.421851
0.226322 0.439643 0.419654
0.236652 0.438834 0.416358
0.247593 0.437919 0.413153
0.26009 0.437186 0.409522
0.274632 0.436469 0.405188
0.29131 0.436011 0.400137
0.307881 0.43624 0.396139
0.325765 0.436988 0.392432
0.344808 0.440101 0.378149
0.366583 0.447974 0.338628
0.401633 0.449653 0.310643
0.421286 0.458061 0.285771
0.444999 0.463981 0.229053
0.468589 0.469429 0.165103
0.49836 0.470161 0.143709
0.533532 0.467247 0.115419
0.565515 0.466255 0.0759747
0.594797 0.467506 0.036347
0.618463 0.472953 0.0286717
0.641184 0.480079 0.0285039
0.664179 0.487816 0.0290684
0.687404 0.495888 0.0302586
0.710658 0.504005 0.0315099
0.734661 0.511666 0.0340581
0.759594 0.518608 0.0379339
0.78616 0.523598 0.0431525
0.81181 0.528405 0.0490425
0.836637 0.53344 0.055024
0.860639 0.538445 0.0611734
0.883894 0.543374 0.0672618
0.906203 0.548287 0.0731365
0.927275 0.55314 0.0794537
0.238209 0.469322 0.448386
0.247807 0.468406 0.44535
0.258289 0.467536 0.442039
0.26923 0.46656 0.438727
0.281666 0.465644 0.434791
0.296696 0.464988 0.430198
0.312901 0.464424 0.425086
0.329458 0.464271 0.420752
0.346654 0.464851 0.41706
0.36466 0.467735 0.403006
0.374228 0.476326 0.375509
0.411978 0.477897 0.34435
0.436423 0.483055 0.321782
0.45481 0.490654 0.291737
0.478126 0.495949 0.234607
0.502068 0.501442 0.170352
0.531991 0.501686 0.153079
0.567407 0.499077 0.126253
0.599741 0.497322 0.0882734
0.629084 0.498436 0.0474708
0.654719 0.502312 0.029633
0.677562 0.509209 0.02916
0.700252 0.516579 0.0294499
0.722866 0.52401 0.0298772
0.745983 0.531884 0.0311284
0.768872 0.53991 0.0325017
0.791852 0.547173 0.0350805
0.815076 0.553719 0.0386511
0.839857 0.558404 0.0438239
0.863569 0.563104 0.0493782
0.886488 0.567788 0.0550698
0.908568 0.572457 0.0608988
0.929244 0.577142 0.0667735
0.259022 0.498024 0.474098
0.268711 0.497124 0.470924
0.279088 0.496162 0.46743
0.290043 0.495094 0.463905
0.303044 0.494316 0.459831
0.317815 0.493584 0.455116
0.333394 0.492866 0.45005
0.350057 0.492576 0.445563
0.366796 0.492973 0.441688
0.384482 0.495445 0.428031
0.394629 0.502815 0.401984
0.422187 0.505684 0.379767
0.450019 0.509621 0.355306
0.468803 0.515953 0.333257
0.48893 0.52282 0.290196
0.511757 0.528344 0.239887
0.535393 0.533227 0.177005
0.565759 0.533471 0.162432
0.600824 0.530755 0.136416
0.634546 0.528771 0.10248
0.663417 0.529381 0.0596475
0.691112 0.531716 0.030457
0.713436 0.538109 0.0296025
0.73611 0.545083 0.0295415
0.75903 0.5523 0.0300603
0.781399 0.559731 0.0309148
0.803174 0.567224 0.0320134
0.82446 0.574731 0.0331731
0.845609 0.581933 0.0355535
0.86685 0.588647 0.03888
0.889708 0.592996 0.0437476
0.911269 0.597314 0.0488289
0.931792 0.601923 0.0543679
0.279072 0.526452 0.499352
0.288838 0.525383 0.496162
0.299474 0.524483 0.492668
0.310948 0.523522 0.489128
0.324041 0.522728 0.484764
0.338369 0.521965 0.479973
0.353521 0.52105 0.474678
0.370382 0.520684 0.470069
0.386664 0.520943 0.466148
0.404089 0.522972 0.453574
0.414893 0.52958 0.428595
0.433219 0.533654 0.411933
0.459022 0.538445 0.38645
0.484154 0.54139 0.366094
0.50013 0.548348 0.344289
0.522271 0.555108 0.295613
0.544884 0.56022 0.244373
0.568902 0.564736 0.18555
0.599542 0.565133 0.171557
0.634272 0.56228 0.146365
0.66891 0.559686 0.115663
0.698238 0.560449 0.0731212
0.72694 0.5617 0.0345006
0.750439 0.567224 0.0305943
0.772824 0.573831 0.0303044
0.794415 0.580774 0.0302739
0.815625 0.587579 0.0307012
0.836515 0.594766 0.0316167
0.856779 0.602029 0.0327764
0.876829 0.609262 0.0339666
0.896208 0.615915 0.0358892
0.915251 0.622553 0.0387274
0.934905 0.627497 0.0432288
0.298222 0.554803 0.524559
0.308476 0.553826 0.521263
0.319432 0.552728 0.517494
0.331121 0.551873 0.513954
0.344305 0.551019 0.509316
0.357931 0.54995 0.504463
0.373114 0.549249 0.499535
0.389899 0.54873 0.494804
0.406149 0.548501 0.490318
0.423163 0.55053 0.478584
0.434745 0.556344 0.455222
0.448539 0.56199 0.434791
0.473747 0.563745 0.420615
0.495705 0.569024 0.397635
0.515221 0.573495 0.377172
0.531746 0.581125 0.35494
0.555138 0.587091 0.300038
0.577966 0.59205 0.248188
0.602777 0.596628 0.194232
0.633051 0.596551 0.180224
0.668132 0.594141 0.156405
0.702876 0.590814 0.127886
0.732982 0.591363 0.0877089
0.761624 0.592355 0.0478676
0.786267 0.595956 0.0313115
0.807706 0.602274 0.0306554
0.828733 0.608789 0.0306401
0.849241 0.615457 0.0308995
0.869032 0.622339 0.0313573
0.888472 0.629206 0.0323186
0.907012 0.635889 0.0331121
0.92488 0.642924 0.0344549
0.941497 0.65005 0.0363775
0.31754 0.582971 0.549615
0.328191 0.581933 0.546212
0.339178 0.580865 0.542428
0.350958 0.580011 0.538399
0.363577 0.578973 0.533578
0.377325 0.577966 0.528786
0.39234 0.577325 0.523919
0.40853 0.576822 0.519295
0.425238 0.576211 0.514321
0.441932 0.577996 0.50338
0.45417 0.5832 0.480888
0.46389 0.590417 0.457191
0.487922 0.591257 0.447715
0.50663 0.596948 0.428031
0.529488 0.599573 0.408347
0.546822 0.606165 0.387869
0.56408 0.613611 0.360555
0.588113 0.619013 0.304311
0.611399 0.624277 0.252308
0.635981 0.628183 0.202365
0.666392 0.628107 0.188556
0.70132 0.625727 0.16585
0.736584 0.622568 0.139284
0.767239 0.622187 0.102556
0.795666 0.623087 0.0619211
0.821683 0.625025 0.0326238
0.842359 0.630991 0.0317998
0.862318 0.637263 0.0312657
0.881697 0.643458 0.0311131
0.900618 0.649851 0.0315099
0.918868 0.656474 0.0322118
0.935851 0.663386 0.0332341
0.947662 0.669352 0.0343175
0.3364 0.611124 0.57438
0.347143 0.610117 0.570825
0.358053 0.609033 0.567086
0.370047 0.608026 0.562844
0.382589 0.606973 0.558083
0.39646 0.60592 0.553246
0.411307 0.605219 0.548348
0.427024 0.604486 0.543542
0.443626 0.603967 0.538705
0.460472 0.605341 0.528542
0.472877 0.610147 0.506569
0.478965 0.618738 0.479835
0.502785 0.619242 0.470909
0.521828 0.6215 0.460075
0.539315 0.628 0.438682
0.561913 0.631464 0.41886
0.577981 0.63856 0.397482
0.59826 0.645777 0.356878
0.62121 0.651057 0.308019
0.644419 0.656214 0.256138
0.669139 0.65977 0.210239
0.700099 0.659922 0.197009
0.734752 0.657252 0.175326
0.770092 0.654398 0.150362
0.800839 0.653147 0.117708
0.828214 0.653986 0.0774243
0.854276 0.654978 0.0404364
0.875425 0.659434 0.0325475
0.894621 0.66537 0.0320134
0.913176 0.671473 0.031754
0.930541 0.677928 0.0319524
0.946563 0.684718 0.0330205
0.954208 0.689311 0.0334936
0.354742 0.638987 0.59913
0.365423 0.637995 0.59556
0.376471 0.636866 0.591638
0.388144 0.635691 0.587076
0.400916 0.634836 0.582208
0.414557 0.633783 0.577432
0.429419 0.63299 0.572381
0.444831 0.632074 0.567407
0.461219 0.631586 0.562707
0.478264 0.632456 0.553658
0.491463 0.636728 0.53225
0.498207 0.644495 0.506828
0.516136 0.647196 0.494072
0.535317 0.648829 0.48481
0.552193 0.654337 0.468696
0.573693 0.658381 0.448859
0.59266 0.663478 0.428382
0.608972 0.670954 0.406134
0.631739 0.677653 0.356451
0.654276 0.683055 0.311604
0.677195 0.687968 0.260075
0.702831 0.691432 0.217853
0.733288 0.691432 0.20502
0.768231 0.688762 0.184375
0.802289 0.685863 0.160769
0.833417 0.683833 0.131685
0.859953 0.684627 0.0934157
0.884916 0.685527 0.0558175
0.907881 0.688167 0.0338293
0.925566 0.693965 0.0331273
0.942077 0.70016 0.0330816
0.954971 0.706065 0.0337224
0.960876 0.710079 0.0339666
0.372183 0.666621 0.623438
0.382727 0.665461 0.619745
0.393835 0.664195 0.615396
0.405921 0.663218 0.611048
0.418738 0.662287 0.606256
0.432135 0.661265 0.601465
0.447013 0.660426 0.596292
0.462058 0.659556 0.591211
0.47808 0.658976 0.586603
0.495216 0.659373 0.57882
0.509163 0.663157 0.557656
0.517067 0.670146 0.533669
0.52784 0.675349 0.516564
0.548074 0.676204 0.508751
0.566964 0.679103 0.498177
0.582757 0.686687 0.477089
0.607172 0.688655 0.45745
0.623316 0.695521 0.437018
0.639994 0.70341 0.414572
0.664729 0.709514 0.359396
0.68719 0.714794 0.314366
0.71017 0.719676 0.263554
0.736294 0.722805 0.224994
0.766567 0.722622 0.212741
0.800748 0.72015 0.193271
0.833326 0.717342 0.170764
0.864775 0.714549 0.14548
0.890349 0.715145 0.110155
0.914702 0.716106 0.072282
0.936721 0.717571 0.038468
0.952895 0.722957 0.035172
0.961608 0.727459 0.035172
0.967483 0.731472 0.0357977
0.38909 0.693874 0.647669
0.399588 0.69276 0.643824
0.410681 0.691508 0.639216
0.422858 0.690486 0.634791
0.435615 0.689555 0.629938
0.449042 0.688502 0.62504
0.463569 0.687556 0.619989
0.478813 0.686656 0.614862
0.494575 0.686015 0.610269
0.511284 0.685985 0.6047
0.526131 0.689326 0.583398
0.534981 0.695384 0.562448
0.538674 0.703517 0.538598
0.560204 0.703639 0.531685
0.579767 0.705898 0.522332
0.596414 0.711116 0.506813
0.616876 0.715953 0.48629
0.637705 0.720241 0.466026
0.654261 0.727886 0.445014
0.673243 0.735561 0.413123
0.69752 0.741161 0.361517
0.720058 0.746303 0.316091
0.743358 0.751339 0.266316
0.769543 0.753841 0.231861
0.7991 0.753765 0.220401
0.832044 0.751247 0.201694
0.863294 0.748577 0.180499
0.894072 0.745571 0.157015
0.919295 0.74548 0.126238
0.941573 0.74699 0.0903792
0.960739 0.749004 0.0564889
0.968338 0.749752 0.0385748
0.97409 0.753506 0.0386664
0.404944 0.720958 0.671595
0.415808 0.719829 0.667765
0.426902 0.718502 0.663066
0.4392 0.717449 0.658473
0.451728 0.716579 0.653437
0.465126 0.71548 0.648417
0.479606 0.714519 0.643473
0.494591 0.713512 0.638163
0.510246 0.712856 0.633463
0.526604 0.712612 0.628855
0.542016 0.71519 0.609476
0.551766 0.720378 0.590677
0.556878 0.727718 0.568048
0.571252 0.731228 0.554101
0.592111 0.732647 0.545968
0.610712 0.735317 0.53463
0.625238 0.74403 0.512764
0.650782 0.745846 0.49424
0.668376 0.752239 0.473915
0.684871 0.759945 0.452079
0.707332 0.767117 0.406058
0.730083 0.77229 0.362905
0.753124 0.777493 0.317723
0.776043 0.782193 0.268788
0.801953 0.784268 0.238697
0.830625 0.784283 0.227665
0.862196 0.781811 0.209781
0.892485 0.779278 0.189944
0.921645 0.776577 0.16817
0.945525 0.776211 0.141741
0.964843 0.778103 0.109346
0.973404 0.777539 0.0767987
0.98088 0.776303 0.0467079
0.420096 0.747768 0.695369
0.431128 0.746654 0.691539
0.442252 0.745296 0.686656
0.454551 0.744198 0.681941
0.467231 0.743236 0.677089
0.480842 0.742061 0.671855
0.494881 0.741222 0.666926
0.509651 0.740215 0.661357
0.525109 0.739467 0.656535
0.541253 0.739147 0.652003
0.556161 0.740612 0.637064
0.567559 0.74519 0.618418
0.574258 0.751827 0.596628
0.581949 0.75903 0.575936
0.603342 0.759487 0.568551
0.622629 0.761563 0.558419
0.639765 0.767071 0.542535
0.660014 0.772686 0.521614
0.682429 0.776181 0.50132
