bundles/resolve-cinematic-luts/Lens Distortions - Finishing LUTs/LD - Pure 1.cube
TITLE "LD - Pure 1"
# Copyright (c) Lens Distortions, LLC. All Rights Reserved.
# LensDistortions.com
# ref-PR9
LUT_3D_SIZE 33
0.0258793 0.0258793 0.0258793
0.038407 0.0261082 0.0258488
0.0594797 0.0266423 0.0258335
0.0884871 0.0271611 0.0259251
0.11957 0.0278019 0.0261082
0.150988 0.0286564 0.0262455
0.182971 0.0295567 0.026276
0.215274 0.0306096 0.0263828
0.247395 0.0318608 0.0263676
0.28014 0.0334325 0.0263828
0.313176 0.0352026 0.0264744
0.34612 0.0373999 0.0264897
0.379385 0.039826 0.0265354
0.412497 0.0428931 0.026566
0.44564 0.0463417 0.0266728
0.478309 0.0503243 0.0267033
0.511254 0.0551614 0.0268864
0.543984 0.0608225 0.0271153
0.576349 0.0669718 0.0272679
0.609064 0.0744793 0.0274968
0.641733 0.0823377 0.0276341
0.674861 0.0903029 0.027985
0.707668 0.0979324 0.028275
0.740475 0.105882 0.0287327
0.772503 0.113985 0.0292363
0.80415 0.122011 0.0298924
0.835233 0.130343 0.0307317
0.865553 0.138781 0.0317388
0.89514 0.147707 0.0332189
0.923171 0.156481 0.0347906
0.950317 0.165972 0.0370184
0.975143 0.175601 0.0394598
0.99884 0.185885 0.0427405
0.0274815 0.038117 0.0266575
0.0395056 0.0398413 0.0280003
0.0661479 0.0397803 0.0260777
0.0947433 0.0407721 0.0260929
0.12401 0.0423133 0.0261845
0.155169 0.0436713 0.0262303
0.186831 0.0449989 0.0261997
0.218906 0.0466468 0.0261082
0.251087 0.0486305 0.0260471
0.283696 0.0508736 0.0260319
0.31632 0.0537118 0.0259861
0.349432 0.0569009 0.0260014
0.382361 0.0606851 0.0260166
0.415122 0.0647898 0.0260471
0.447639 0.0697185 0.0260624
0.480339 0.0755322 0.0262303
0.512505 0.0819409 0.0263218
0.544808 0.0883192 0.0265354
0.57731 0.0950027 0.0268559
0.609445 0.101457 0.0270237
0.642145 0.108248 0.0273136
0.674907 0.114977 0.0276341
0.707485 0.121721 0.027985
0.739788 0.128725 0.0284733
0.771908 0.136049 0.0292058
0.803113 0.143267 0.029984
0.833692 0.150988 0.0308995
0.863462 0.158755 0.0320439
0.892241 0.166964 0.0335699
0.920455 0.175418 0.0355383
0.94757 0.183841 0.0376135
0.97293 0.19321 0.0404822
0.996719 0.202502 0.0434424
0.0298619 0.0588235 0.0276646
0.0428321 0.058381 0.0308232
0.0628977 0.0638132 0.0305943
0.101259 0.0625925 0.0266423
0.131716 0.0633249 0.0260319
0.161181 0.0653239 0.0260471
0.191379 0.0681468 0.0260014
0.221714 0.0717479 0.0260166
0.254932 0.0742809 0.0259556
0.28716 0.0770428 0.0258183
0.319402 0.0806592 0.025803
0.351781 0.0844282 0.0258335
0.384253 0.0886702 0.0258488
0.417029 0.0930953 0.0259098
0.449348 0.0979171 0.0259556
0.481727 0.102876 0.0260777
0.513481 0.108003 0.0261082
0.545769 0.113573 0.0264134
0.578042 0.119295 0.0267491
0.610071 0.125139 0.0269627
0.642481 0.130877 0.0272068
0.674815 0.13695 0.0274968
0.707362 0.143191 0.0279545
0.739239 0.149416 0.0285039
0.770611 0.156024 0.0292058
0.801709 0.162966 0.0301976
0.831846 0.169757 0.0311742
0.861204 0.177325 0.0325933
0.890059 0.18497 0.034287
0.917937 0.192615 0.0362097
0.945571 0.200855 0.0384833
0.970993 0.20914 0.0411383
0.995529 0.218326 0.044358
0.0320897 0.0872053 0.0286107
0.0470436 0.0856489 0.0323644
0.0642557 0.0898756 0.0346685
0.0939651 0.0953078 0.0334325
0.133822 0.0939498 0.0278935
0.167376 0.093431 0.0258488
0.197162 0.0952926 0.0258183
0.22742 0.0979934 0.0258183
0.257862 0.10164 0.0258335
0.28893 0.10605 0.0258183
0.321889 0.108537 0.025864
0.354223 0.11165 0.025864
0.386313 0.115145 0.0258488
0.418677 0.118791 0.0259403
0.450843 0.122728 0.0259251
0.482994 0.126757 0.0260166
0.514626 0.131167 0.0260014
0.546715 0.136019 0.026276
0.5785 0.141192 0.0265354
0.61062 0.146258 0.0268864
0.642802 0.15172 0.0272374
0.674815 0.157046 0.0274968
0.706752 0.162661 0.0279545
0.738567 0.168627 0.0287327
0.769482 0.174807 0.0295262
0.799969 0.180957 0.0304723
0.83006 0.187747 0.0317693
0.859083 0.19469 0.0332952
0.887709 0.201663 0.0350042
0.916106 0.209155 0.0370794
0.943771 0.216617 0.0393225
0.969619 0.224704 0.0418708
0.994308 0.233204 0.0449378
0.0349126 0.11809 0.0296635
0.051194 0.116793 0.0334173
0.0734722 0.116793 0.0378119
0.0932784 0.122255 0.0393683
0.12604 0.127199 0.0367285
0.166537 0.125704 0.0293736
0.202823 0.124758 0.0258793
0.233051 0.126299 0.025803
0.263142 0.128786 0.0257572
0.293446 0.131991 0.025742
0.324208 0.135683 0.025864
0.355169 0.139834 0.0259098
0.387747 0.142382 0.0258488
0.420142 0.145312 0.0259098
0.45182 0.148531 0.025864
0.484047 0.152041 0.0259709
0.515587 0.155749 0.0259861
0.547265 0.160037 0.026154
0.578988 0.164523 0.0264744
0.610605 0.169055 0.0267948
0.642557 0.173907 0.0272374
0.674311 0.178866 0.0275273
0.705852 0.183886 0.0281529
0.736889 0.189364 0.0289006
0.767773 0.195117 0.0299992
0.798108 0.20119 0.0310369
0.827359 0.207065 0.0323186
0.856825 0.213581 0.0339971
0.885649 0.220325 0.0357671
0.913909 0.226871 0.0376745
0.941985 0.234043 0.040116
0.968444 0.241581 0.0426337
0.99321 0.2495 0.0455482
0.0385901 0.149371 0.0306096
0.0565042 0.148013 0.0343938
0.081529 0.146777 0.0395514
0.103136 0.149203 0.0433051
0.123613 0.154528 0.0460822
0.158587 0.159396 0.0414282
0.199054 0.157946 0.0314488
0.237659 0.155886 0.0256962
0.267674 0.157244 0.0255894
0.298054 0.159335 0.0256199
0.328313 0.162127 0.0256046
0.35845 0.165499 0.0256352
0.389334 0.169253 0.0257877
0.420035 0.173419 0.0258793
0.452506 0.176089 0.0258946
0.48481 0.178927 0.0259709
0.516274 0.182254 0.0260166
0.547555 0.185824 0.0261692
0.578851 0.189624 0.0264744
0.610254 0.193774 0.0268864
0.641779 0.198154 0.0272221
0.673274 0.202686 0.0277867
0.70399 0.207263 0.0284276
0.734752 0.212116 0.0293736
0.765255 0.217441 0.0303197
0.795285 0.222995 0.0316625
0.824918 0.22855 0.033051
0.8542 0.234302 0.0346532
0.883268 0.240528 0.0364691
0.911894 0.246906 0.0383764
0.940398 0.253361 0.0406806
0.967178 0.260258 0.0431678
0.992447 0.267765 0.046128
0.0433814 0.180453 0.0319219
0.0632029 0.179248 0.0359045
0.0893263 0.178332 0.0412757
0.1131 0.177005 0.0477913
0.132433 0.181186 0.0506752
0.153323 0.186603 0.0552224
0.189944 0.191379 0.0474403
0.230838 0.189853 0.0344854
0.272023 0.187488 0.0257725
0.302556 0.188632 0.0255741
0.332387 0.190555 0.0255131
0.362692 0.192966 0.0255131
0.392874 0.195972 0.0256046
0.423102 0.199496 0.0256809
0.45333 0.20322 0.0258488
0.483772 0.207507 0.0260471
0.515755 0.210239 0.0261997
0.54725 0.213321 0.0264286
0.578241 0.216663 0.0267033
0.609201 0.220279 0.0270237
0.640314 0.224094 0.027512
0.671061 0.227985 0.0281834
0.701381 0.232151 0.0289006
0.732189 0.236561 0.0298619
0.762432 0.241398 0.0309453
0.792477 0.246433 0.0323491
0.822187 0.251484 0.0336919
0.851698 0.256779 0.0351873
0.880919 0.262394 0.0368963
0.910018 0.268238 0.0388952
0.938628 0.274174 0.0408026
0.965667 0.280568 0.0431678
0.99144 0.287633 0.0462043
0.0495003 0.211688 0.0335699
0.0713512 0.210712 0.0376593
0.097261 0.209781 0.0433051
0.119615 0.20856 0.0497749
0.143313 0.208713 0.058381
0.162051 0.213565 0.0615702
0.183597 0.219043 0.0678569
0.221576 0.223575 0.0559701
0.262669 0.222095 0.0391089
0.304082 0.219623 0.0266575
0.336492 0.219852 0.025452
0.366552 0.221622 0.0254673
0.396475 0.223819 0.0254368
0.426291 0.226551 0.0255131
0.45623 0.229694 0.0256504
0.485863 0.233341 0.0258183
0.515663 0.23743 0.0260929
0.545113 0.242145 0.0269169
0.576196 0.244938 0.0272526
0.60734 0.247913 0.0276493
0.638102 0.251087 0.028275
0.668528 0.254627 0.0288853
0.699062 0.258442 0.0296788
0.729442 0.262501 0.0306554
0.75964 0.266773 0.0317998
0.789944 0.271214 0.0330968
0.81973 0.275807 0.0343023
0.849485 0.280751 0.0357519
0.878965 0.285573 0.0372931
0.908385 0.290929 0.0390478
0.937301 0.296345 0.0408331
0.964843 0.302403 0.0432898
0.990433 0.308827 0.0459144
0.0570687 0.243076 0.0352789
0.0815747 0.242313 0.039765
0.105333 0.241413 0.0452277
0.12726 0.240101 0.0527352
0.150698 0.239002 0.0625772
0.172381 0.24062 0.0711986
0.191623 0.245579 0.0760815
0.213581 0.251102 0.0844739
0.253162 0.255497 0.0673991
0.293706 0.254292 0.045716
0.335256 0.252186 0.0295262
0.370199 0.251087 0.025452
0.399969 0.252674 0.0254215
0.429404 0.254673 0.0254215
0.459113 0.257053 0.0255283
0.488304 0.259968 0.0256809
0.517479 0.263264 0.0258488
0.54641 0.26714 0.0264134
0.575006 0.271916 0.0274662
0.604303 0.276768 0.0289006
0.635233 0.279683 0.0294957
0.66627 0.282765 0.0302586
0.696925 0.286 0.0310216
0.727214 0.289525 0.0318761
0.757671 0.293217 0.0328679
0.787884 0.297017 0.0338293
0.818006 0.301213 0.0350042
0.847761 0.305394 0.0361639
0.877852 0.309926 0.0376593
0.907271 0.314794 0.0393378
0.936385 0.319692 0.0409552
0.964004 0.325383 0.0431373
0.990066 0.331548 0.0458076
0.067155 0.274235 0.0377813
0.0921492 0.273579 0.0426032
0.114199 0.272801 0.0482032
0.134936 0.271946 0.0556039
0.157961 0.270451 0.0666361
0.181765 0.269108 0.0807813
0.201999 0.272648 0.087541
0.221668 0.277714 0.0930037
0.244053 0.283223 0.102052
0.28426 0.287465 0.0824598
0.324804 0.286473 0.0556039
0.365927 0.284306 0.0341802
0.403738 0.282521 0.0256809
0.43299 0.283711 0.0256199
0.461936 0.285496 0.0256352
0.490883 0.287709 0.0257115
0.519509 0.290394 0.0258946
0.548348 0.29366 0.0263981
0.576577 0.297719 0.0273136
0.605554 0.301961 0.0285954
0.63415 0.306737 0.0301671
0.663294 0.311437 0.0319829
0.694347 0.314305 0.032578
0.725536 0.317311 0.0333562
0.756344 0.320516 0.0340581
0.786709 0.323674 0.0349432
0.816846 0.327352 0.0358892
0.847135 0.331212 0.0370031
0.877241 0.335302 0.0382544
0.906691 0.339559 0.0395514
0.936065 0.344167 0.0411841
0.963714 0.349386 0.043183
0.989624 0.35494 0.0455329
0.0799268 0.305394 0.0407416
0.103319 0.304753 0.0460822
0.123888 0.304082 0.0518654
0.143175 0.30341 0.0594339
0.165209 0.302052 0.0707408
0.189029 0.300511 0.0860304
0.21323 0.299779 0.100343
0.231449 0.304387 0.104219
0.251774 0.309392 0.110536
0.273976 0.315068 0.120134
0.315724 0.319402 0.0993515
0.355642 0.318227 0.0695964
0.396521 0.316732 0.0420691
0.435523 0.313832 0.0261692
0.464851 0.314687 0.025864
0.493904 0.316564 0.0260624
0.522393 0.31873 0.0263066
0.550546 0.321477 0.0267796
0.578882 0.324544 0.0275273
0.607492 0.32813 0.0285191
0.636164 0.332006 0.0297551
0.665248 0.336294 0.0313268
0.693996 0.340719 0.0329747
0.723583 0.345586 0.0350195
0.754849 0.348379 0.0356909
0.785946 0.351385 0.0364233
0.816709 0.354574 0.0372778
0.847074 0.357778 0.038056
0.877104 0.361486 0.038941
0.906737 0.365423 0.0401465
0.93611 0.369589 0.0416571
0.963577 0.374197 0.0433356
0.98967 0.379538 0.0455482
0.0936141 0.336355 0.0450904
0.115602 0.335576 0.0509651
0.134524 0.335027 0.0572366
0.152758 0.334462 0.0649271
0.173587 0.333501 0.0767071
0.196216 0.331991 0.0910048
0.220249 0.330068 0.106432
0.243122 0.331594 0.117937
0.261875 0.336202 0.122728
0.282368 0.341344 0.129961
0.304631 0.346944 0.139956
0.34696 0.350866 0.117189
0.386526 0.350347 0.0884871
0.426047 0.34873 0.0534981
0.466163 0.34609 0.030396
0.496712 0.346197 0.0272831
0.525093 0.347646 0.0272984
0.55317 0.349691 0.0275578
0.581735 0.352071 0.0280308
0.609964 0.355016 0.0286717
0.638712 0.358236 0.0296025
0.667781 0.361837 0.0307622
0.696895 0.365835 0.0322118
0.725872 0.370199 0.0337072
0.755337 0.37464 0.0357824
0.784802 0.379614 0.0378729
0.816037 0.382361 0.0385748
0.846983 0.385382 0.0393225
0.87747 0.388556 0.0403143
0.906966 0.391913 0.0411841
0.936355 0.395651 0.0423743
0.963958 0.400061 0.0439612
0.990005 0.404868 0.0458534
0.108248 0.367041 0.0510262
0.128313 0.366201 0.0575265
0.146365 0.365911 0.0644999
0.163317 0.365179 0.0725567
0.18291 0.364584 0.0837415
0.204288 0.363165 0.0970321
0.228458 0.361395 0.112932
0.252811 0.359747 0.128496
0.272969 0.362783 0.136385
0.29189 0.367498 0.142046
0.312596 0.372732 0.149599
0.334874 0.378561 0.159899
0.378134 0.382879 0.135546
0.416876 0.381994 0.107027
0.456092 0.380758 0.0692607
0.495521 0.378347 0.0380407
0.528664 0.377554 0.0290532
0.556909 0.378897 0.0288701
0.585 0.380789 0.0289921
0.613642 0.382986 0.0292821
0.642115 0.385595 0.0298009
0.671168 0.388434 0.0305638
0.699977 0.391821 0.0315862
0.729305 0.395529 0.0327001
0.758648 0.399512 0.0343328
0.787839 0.403891 0.0362097
0.816876 0.408347 0.0382849
0.845945 0.413245 0.0409552
0.876661 0.416052 0.0416571
0.90692 0.419226 0.0424964
0.93695 0.422629 0.0436408
0.964843 0.426596 0.0448615
0.990799 0.431174 0.0466926
0.123476 0.397223 0.0588083
0.142535 0.396338 0.0663462
0.159335 0.396155 0.0740063
0.175189 0.395468 0.0822766
0.193515 0.395026 0.0925917
0.213733 0.393835 0.104585
0.236637 0.392538 0.119142
0.260761 0.390509 0.135607
0.284871 0.389624 0.15079
0.303319 0.39408 0.155825
0.322408 0.399008 0.161303
0.342824 0.404349 0.169253
0.365255 0.410025 0.180026
0.409003 0.414328 0.153475
0.447456 0.413733 0.125139
0.486168 0.412711 0.0883192
0.52546 0.410437 0.0484169
0.560708 0.408759 0.0307774
0.58912 0.409949 0.0304112
0.617456 0.411566 0.0303197
0.64622 0.413504 0.0304112
0.67512 0.415915 0.0307164
0.704234 0.41883 0.0313573
0.733166 0.421775 0.0322881
0.762173 0.425071 0.0332494
0.791333 0.42887 0.034699
0.820417 0.432792 0.0364996
0.849256 0.437308 0.0385138
0.878218 0.442115 0.0412146
0.906737 0.447333 0.0440833
0.936843 0.450263 0.0448463
0.965179 0.453696 0.0459754
0.991608 0.458045 0.0477455
0.139223 0.426978 0.0690166
0.157092 0.426291 0.0777752
0.172717 0.426123 0.085359
0.187503 0.425635 0.0928206
0.204761 0.425315 0.10219
0.223896 0.424277 0.112993
0.245609 0.423316 0.126299
0.268727 0.421469 0.142046
0.292943 0.419776 0.158511
0.315633 0.420706 0.17055
0.333074 0.425467 0.174914
0.352514 0.430426 0.18088
0.373266 0.435859 0.189029
0.396353 0.441825 0.198108
0.44033 0.445991 0.17113
0.478065 0.445411 0.142855
0.516716 0.444389 0.106844
0.55552 0.442603 0.0617075
0.593027 0.439857 0.0331579
0.622019 0.44097 0.0317845
0.650645 0.442359 0.0314794
0.679362 0.444129 0.031342
0.708385 0.446204 0.031632
0.737499 0.448661 0.0320439
0.766293 0.451575 0.0326696
0.795346 0.45478 0.0336156
0.824292 0.458381 0.03505
0.853193 0.462303 0.0367437
0.882063 0.46656 0.0386358
0.910353 0.470954 0.041001
0.938415 0.475868 0.0437018
0.965255 0.481468 0.0474098
0.991913 0.485481 0.0488899
0.155184 0.456687 0.0813001
0.17203 0.456107 0.090013
0.186679 0.455909 0.0967422
0.200671 0.455589 0.103548
0.216831 0.45539 0.112123
0.23476 0.454658 0.122118
0.255146 0.453681 0.134066
0.277012 0.452354 0.148119
0.30071 0.450721 0.164477
0.324697 0.449195 0.18024
0.345235 0.45185 0.188998
0.363134 0.456626 0.193454
0.382452 0.461723 0.199741
0.40322 0.467292 0.208133
0.427832 0.473548 0.214939
0.471046 0.47747 0.188022
0.508843 0.477089 0.159945
0.547219 0.476265 0.125032
0.585901 0.474434 0.0791485
0.625055 0.471366 0.0382544
0.655421 0.471534 0.0331731
0.684138 0.472938 0.0326238
0.713069 0.474495 0.0322423
0.741894 0.476585 0.0323033
0.770947 0.478874 0.032578
0.8 0.481697 0.0332036
0.828946 0.484535 0.0339208
0.857404 0.487877 0.0350347
0.886137 0.491615 0.0365911
0.914275 0.495659 0.0382391
0.942519 0.500145 0.0406958
0.96875 0.505577 0.0437629
0.993835 0.511391 0.0480201
0.170993 0.486534 0.0933852
0.186938 0.485985 0.101518
0.200458 0.485878 0.107897
0.21355 0.485664 0.114153
0.228748 0.485557 0.121904
0.245701 0.484947 0.130938
0.264881 0.48426 0.142107
0.285908 0.483207 0.154788
0.308553 0.481743 0.169696
0.332937 0.479744 0.186877
0.35697 0.479118 0.202319
0.374823 0.483268 0.207126
0.392966 0.48809 0.2121
0.412543 0.493278 0.218479
0.433387 0.498924 0.227008
0.459312 0.50515 0.23151
0.501991 0.508904 0.204898
0.539742 0.508751 0.177111
0.577539 0.50782 0.142412
0.616602 0.505989 0.0986801
0.656306 0.502998 0.0483253
0.689265 0.502358 0.0344549
0.718151 0.503487 0.0336919
0.747021 0.504906 0.0331426
0.775891 0.506706 0.0328527
0.804852 0.508873 0.0328832
0.833509 0.511437 0.0331884
0.862287 0.51429 0.0339208
0.890684 0.517617 0.0350195
0.919005 0.521355 0.0364538
0.946731 0.525536 0.0383612
0.972366 0.530266 0.041062
0.997024 0.535958 0.0447242
0.186511 0.516503 0.104921
0.201495 0.516014 0.11281
0.214282 0.515938 0.118624
0.226505 0.515755 0.124636
0.240894 0.515648 0.131777
0.257237 0.515328 0.140322
0.275227 0.514656 0.150408
0.295384 0.513726 0.161944
0.317067 0.512505 0.175921
0.340383 0.510842 0.191699
0.364538 0.509102 0.20856
0.387198 0.509758 0.221378
0.404257 0.514397 0.224918
0.42266 0.519326 0.230121
0.442176 0.52459 0.236805
0.463081 0.530266 0.245762
0.490806 0.536904 0.248066
0.533013 0.540612 0.221576
0.570291 0.540154 0.193515
0.608499 0.539254 0.159243
0.648112 0.53756 0.117144
0.687739 0.534722 0.061738
0.723125 0.532799 0.0355077
0.752132 0.533761 0.0343328
0.781048 0.535134 0.0335546
0.809995 0.53695 0.0332341
0.838697 0.539071 0.0331273
0.86717 0.541573 0.0334478
0.895567 0.544427 0.0340887
0.923506 0.547738 0.0352789
0.950866 0.551614 0.0370336
0.976318 0.556146 0.0393072
0.998993 0.56141 0.0425574
0.201572 0.546288 0.116274
0.215961 0.545937 0.12398
0.228092 0.545998 0.129335
0.239826 0.545846 0.135058
0.253223 0.545693 0.141543
0.268803 0.545586 0.149615
0.28603 0.5449 0.158846
0.30544 0.544289 0.169802
0.325963 0.543114 0.182376
0.34818 0.541817 0.196704
0.371939 0.540139 0.213367
0.39559 0.538415 0.22945
0.416449 0.540948 0.23888
0.433799 0.545632 0.242847
0.452308 0.550637 0.24831
0.471946 0.55613 0.25536
0.492973 0.561746 0.264134
0.521691 0.568429 0.264012
0.563668 0.571939 0.23769
0.60116 0.57145 0.209384
0.639918 0.570565 0.175418
0.679561 0.568872 0.134508
0.719463 0.566445 0.0790417
0.757259 0.563531 0.0372473
0.786313 0.564355 0.0351873
0.815198 0.565942 0.0344244
0.843839 0.56762 0.0339055
0.872435 0.569665 0.0338903
0.900435 0.572274 0.034226
0.928222 0.575219 0.0350958
0.95523 0.578683 0.0365148
0.980072 0.582849 0.0383459
0.998993 0.587808 0.0414282
0.216526 0.576288 0.127245
0.23032 0.575906 0.134798
0.24181 0.576089 0.13994
0.252857 0.575967 0.145144
0.265858 0.575799 0.151278
0.280644 0.575753 0.158816
0.296895 0.575113 0.167224
0.315328 0.574731 0.177401
0.334859 0.573754 0.18883
0.356298 0.572641 0.202457
0.379294 0.571176 0.217823
0.403342 0.569207 0.235035
0.427375 0.56846 0.250645
0.445411 0.57232 0.256321
0.462989 0.577066 0.260471
0.481758 0.582162 0.265949
0.501457 0.587655 0.27303
0.522652 0.593408 0.282155
0.552422 0.600168 0.279454
0.594385 0.603449 0.253315
0.632456 0.603067 0.225177
0.671534 0.602304 0.191699
0.71104 0.600473 0.151827
0.750988 0.598291 0.0995193
0.790051 0.594873 0.043473
0.820478 0.595376 0.0365759
0.848783 0.596796 0.0356756
0.877043 0.598535 0.0352178
0.90515 0.60087 0.0353552
0.932845 0.60351 0.0358282
0.959182 0.606806 0.0368505
0.984131 0.610697 0.0385748
0.998993 0.615167 0.0409857
0.230915 0.606577 0.137469
0.243946 0.606241 0.144884
0.254994 0.606394 0.149767
0.265583 0.606271 0.154589
0.277592 0.606256 0.160296
0.291752 0.606058 0.167315
0.307454 0.6056 0.175296
0.325246 0.605249 0.184878
0.34403 0.604318 0.195758
0.364797 0.603464 0.208331
0.38674 0.602121 0.222614
0.410224 0.600443 0.238788
0.434379 0.598657 0.255909
0.457343 0.599008 0.269474
0.474083 0.60351 0.272953
0.49192 0.608362 0.277256
0.510567 0.613703 0.282948
0.530617 0.619242 0.29041
0.551781 0.625177 0.299657
0.583276 0.632303 0.295186
0.625589 0.635416 0.269566
0.663859 0.634913 0.24152
0.702907 0.634211 0.208652
0.742535 0.63267 0.170077
0.78233 0.630503 0.120485
0.821485 0.627161 0.0558022
0.853788 0.626886 0.0385901
0.881758 0.628443 0.0376745
0.909667 0.630259 0.037171
0.937163 0.632456 0.0373693
0.963195 0.635462 0.0380255
0.987518 0.6392 0.0394598
0.998993 0.643015 0.0415961
0.244709 0.63679 0.147539
0.257542 0.636561 0.154726
0.26807 0.636713 0.159228
0.277897 0.636652 0.163867
0.289586 0.636606 0.169192
0.302876 0.636454 0.175555
0.318151 0.636072 0.183078
0.335088 0.635691 0.192004
0.353368 0.634943 0.202213
0.373205 0.634272 0.214282
0.394537 0.633051 0.227268
0.416968 0.631693 0.242206
0.440864 0.629969 0.259174
0.464485 0.628244 0.275395
0.485725 0.630365 0.286122
0.502556 0.635218 0.289677
0.520714 0.640223 0.294484
0.539956 0.645624 0.300572
0.55993 0.651331 0.30837
0.581506 0.657206 0.318013
0.614603 0.664637 0.311208
0.65716 0.667506 0.286534
0.695445 0.667033 0.258747
0.734356 0.666438 0.226352
0.773831 0.665034 0.188815
0.813336 0.663111 0.141833
0.852171 0.660044 0.0767224
0.886595 0.658686 0.0416114
0.914076 0.660288 0.0406958
0.941192 0.662272 0.0402533
0.966873 0.664881 0.0406806
0.990997 0.668254 0.0418402
0.998993 0.671748 0.0436103
0.258335 0.667277 0.156893
0.270451 0.667124 0.163821
0.280476 0.667048 0.168093
0.289921 0.667033 0.172564
0.301305 0.667155 0.177646
0.313924 0.666987 0.183597
0.328649 0.666697 0.190677
0.344854 0.666285 0.1991
0.362554 0.665766 0.208774
0.381674 0.665034 0.219989
0.402365 0.664164 0.232319
0.424063 0.662943 0.246693
0.447318 0.661509 0.262715
0.47126 0.659525 0.279988
0.495262 0.658595 0.296025
0.514412 0.662196 0.302998
0.531685 0.667018 0.307073
0.549706 0.672282 0.312154
0.569177 0.677791 0.318853
0.589868 0.683589 0.327276
0.611704 0.689723 0.337224
0.646433 0.697108 0.328069
0.688914 0.699825 0.303944
0.727123 0.699397 0.276646
0.76611 0.699046 0.245212
0.804776 0.697765 0.208209
0.843839 0.695903 0.163638
0.882521 0.693278 0.102708
0.918334 0.690959 0.0470741
0.945251 0.692576 0.0450904
0.970642 0.695125 0.0454108
0.99411 0.698238 0.0464485
0.998993 0.701228 0.0479744
0.271672 0.697993 0.165972
0.283177 0.697719 0.172595
0.293065 0.697734 0.177035
0.302312 0.697734 0.181277
0.312932 0.697948 0.186252
0.325307 0.697719 0.191821
0.339239 0.697536 0.198886
0.354864 0.697124 0.206775
0.371954 0.696727 0.216022
0.390692 0.696101 0.226429
0.410849 0.695338 0.238605
0.432059 0.694362 0.251972
0.45449 0.693049 0.266987
0.47805 0.691325 0.283818
0.502205 0.689601 0.301091
0.525811 0.689769 0.31606
0.543053 0.694255 0.320653
0.560784 0.69929 0.325277
0.579217 0.70457 0.330556
0.598901 0.710155 0.33785
0.620172 0.715984 0.346517
0.642191 0.72221 0.356802
0.678538 0.729717 0.34583
0.720562 0.732326 0.322377
0.758694 0.732128 0.296178
0.796963 0.731472 0.265049
0.835401 0.73051 0.23003
0.87364 0.728939 0.187579
0.911879 0.726818 0.131594
0.947784 0.724239 0.0625772
0.973709 0.725643 0.0533303
0.996765 0.728466 0.0542
0.998993 0.731075 0.055787
0.285359 0.728801 0.175372
0.296284 0.728466 0.18172
0.305791 0.728481 0.186435
0.314824 0.728664 0.19057
0.325109 0.728573 0.195193
0.337163 0.728573 0.200763
0.35082 0.728466 0.20763
0.365835 0.728115 0.215244
0.382528 0.727718 0.224125
0.400626 0.727184 0.233997
0.419989 0.726482 0.245548
0.440742 0.725719 0.258503
0.462455 0.724483 0.272618
0.485618 0.723156 0.288518
0.509544 0.721477 0.305928
0.533379 0.719768 0.322759
0.555657 0.721584 0.335073
0.572488 0.726467 0.338796
0.590356 0.731701 0.343893
0.609323 0.736919 0.349996
0.62945 0.742641 0.357504
0.650797 0.74844 0.366751
0.673106 0.754681 0.377508
0.71104 0.762463 0.36524
0.752407 0.764965 0.342931
0.790021 0.764599 0.317494
0.827451 0.764111 0.287846
0.865217 0.763485 0.25481
0.902495 0.761929 0.214878
0.939498 0.76022 0.163531
0.973419 0.758053 0.0899062
0.998672 0.759045 0.0674144
0.998993 0.761257 0.0695201
0.299413 0.759457 0.185748
0.310338 0.759319 0.192081
0.319677 0.759274 0.196796
0.328206 0.759258 0.20058
0.338323 0.759457 0.20528
0.349767 0.759441 0.210712
0.36289 0.759182 0.217182
0.377676 0.759136 0.224735
0.393637 0.758572 0.232959
0.411292 0.758343 0.242649
0.429923 0.757565 0.253422
0.450233 0.757076 0.265919
0.471138 0.756054 0.279332
0.493385 0.754726 0.294087
0.517082 0.753521 0.311025
0.541207 0.751583 0.328862
0.565164 0.7505 0.34519
0.585153 0.754025 0.354086
0.602625 0.758862 0.358587
0.620768 0.76408 0.363699
0.640192 0.769406 0.370672
0.6607 0.77499 0.379034
0.682185 0.780896 0.388785
0.704509 0.786816 0.400366
0.743404 0.794781 0.387274
0.784253 0.796979 0.367163
0.820981 0.796735 0.343084
0.857176 0.79646 0.315267
0.893614 0.79585 0.284092
0.929488 0.794781 0.247959
0.9635 0.793561 0.201404
0.994995 0.79205 0.134646
0.998993 0.791821 0.0919661
0.314519 0.790372 0.197162
0.324804 0.790112 0.202976
0.33402 0.789929 0.207858
0.342443 0.790173 0.211704
0.352148 0.790387 0.216373
0.363043 0.790112 0.22118
0.37586 0.790158 0.227558
0.390097 0.790082 0.234821
0.405631 0.789639 0.242802
0.422751 0.789502 0.252186
0.44062 0.788861 0.262409
0.460029 0.788159 0.274052
