bundles/resolve-cinematic-luts/Lens Distortions - Finishing LUTs/LD - Dark Pearl 3.cube
TITLE "LD - Dark Pearl 3"
# Copyright (c) Lens Distortions, LLC. All Rights Reserved.
# LensDistortions.com
# ref-DP3
LUT_3D_SIZE 5
0 0.0210117 0.042237
0.0923629 0.0526741 0.0688182
0.414343 0.113924 0.0819104
0.709712 0.178607 0.0971237
0.892317 0.24062 0.123842
0.0648508 0.150271 0.152636
0.14815 0.178027 0.175814
0.4551 0.212284 0.126558
0.735317 0.280339 0.146075
0.907256 0.346303 0.179538
0.177493 0.343511 0.303227
0.259632 0.358694 0.325322
0.47306 0.42182 0.282887
0.779904 0.465751 0.261021
0.944991 0.520867 0.287282
0.316609 0.559625 0.476066
0.415641 0.560662 0.498848
0.521141 0.62417 0.537881
0.780667 0.685893 0.449683
0.976593 0.72932 0.430365
0.445518 0.747051 0.63566
0.541192 0.74435 0.65359
0.646021 0.787533 0.689143
0.754482 0.844434 0.704585
0.940627 0.88394 0.636118
0.00140383 0.0505684 0.130388
0.142184 0.0854047 0.204196
0.428412 0.140047 0.209979
0.721584 0.197345 0.220523
0.899641 0.255619 0.234791
0.0625925 0.193103 0.228336
0.170275 0.215335 0.247227
0.42884 0.243748 0.242695
0.711864 0.3037 0.254887
0.900404 0.358373 0.263722
0.179278 0.382101 0.355962
0.312459 0.408865 0.395895
0.498695 0.457465 0.376211
0.793332 0.486915 0.349065
0.954665 0.535409 0.361807
0.32015 0.583917 0.516899
0.460044 0.602487 0.558953
0.566522 0.657053 0.603372
0.814618 0.708247 0.519753
1 0.738354 0.491753
0.448676 0.762936 0.668849
0.571832 0.771878 0.698634
0.69482 0.814282 0.747021
0.782818 0.862715 0.777508
0.95436 0.894942 0.718944
0.0359655 0.112184 0.299504
0.117494 0.141024 0.350881
0.432197 0.194537 0.377081
0.715434 0.265995 0.40676
0.874037 0.32256 0.429145
0.0755627 0.236408 0.370474
0.159579 0.248508 0.368994
0.448371 0.302586 0.410117
0.721767 0.367651 0.424063
0.891386 0.415061 0.447776
0.174456 0.428641 0.446418
0.284672 0.444633 0.502388
0.518181 0.512306 0.52105
0.762707 0.543099 0.502541
0.938155 0.575448 0.507958
0.333715 0.637217 0.594141
0.455436 0.644083 0.625437
0.635355 0.707988 0.679728
0.827466 0.749279 0.640162
0.992645 0.766186 0.61738
0.477989 0.811978 0.73994
0.598978 0.814054 0.757519
0.736095 0.847639 0.799619
0.829953 0.890486 0.838056
0.957595 0.92282 0.812406
0.0706798 0.1776 0.479561
0.140703 0.204608 0.478141
0.407996 0.2421 0.602106
0.710246 0.339025 0.590875
0.861677 0.415229 0.625254
0.105837 0.289235 0.538582
0.176852 0.300786 0.502281
0.378317 0.350195 0.625086
0.715953 0.439506 0.615854
0.883131 0.509468 0.643046
0.194293 0.490074 0.606409
0.27808 0.481941 0.627359
0.471351 0.53463 0.643732
0.760891 0.60734 0.684642
0.944137 0.640436 0.689815
0.328634 0.683024 0.692409
0.405203 0.676905 0.707958
0.611795 0.727443 0.758434
0.821042 0.791135 0.785443
0.983917 0.797513 0.761639
0.484474 0.849317 0.810559
0.568368 0.845777 0.818998
0.728267 0.868482 0.854429
0.871168 0.916213 0.89192
0.972442 0.951385 0.884901
0.0961929 0.228672 0.626245
0.170199 0.258167 0.60206
0.362036 0.295888 0.766018
0.700832 0.379599 0.740047
0.868009 0.459449 0.763546
0.132769 0.339071 0.684779
0.206821 0.354681 0.645212
0.348028 0.409323 0.729885
0.716411 0.475044 0.777111
0.888899 0.556634 0.79765
0.222339 0.531289 0.752148
0.295125 0.529564 0.735012
0.448631 0.56492 0.74551
0.747509 0.619898 0.848585
0.931365 0.68748 0.85626
0.345953 0.735714 0.821546
0.414679 0.72604 0.835019
0.572427 0.740215 0.856504
0.757061 0.798672 0.891188
0.95314 0.839796 0.909972
0.477241 0.883192 0.891188
0.549538 0.875578 0.893629
0.748653 0.876295 0.908034
0.863401 0.920058 0.936187
0.974731 0.970153 0.968673
