bundles/resolve-cinematic-luts/Lens Distortions - Finishing LUTs/LD - Dark Pearl 3.cube
TITLE "LD - Dark Pearl 3"
# Copyright (c) Lens Distortions, LLC. All Rights Reserved.
# LensDistortions.com
# ref-DP3
LUT_3D_SIZE 33
0 0.0210117 0.042237
0 0.0226596 0.0441749
0 0.0241093 0.0459144
0.00451667 0.0271305 0.0492256
0.0137026 0.030518 0.0529793
0.0281071 0.0343633 0.0588235
0.0473793 0.0389868 0.0625772
0.0695354 0.0450752 0.0644846
0.0923629 0.0526741 0.0688182
0.124529 0.060029 0.0734417
0.160861 0.0676127 0.077348
0.201648 0.0758679 0.079408
0.244572 0.0837873 0.0807202
0.289067 0.0917067 0.0811627
0.332357 0.0992599 0.0812238
0.373922 0.106416 0.0810101
0.414343 0.113924 0.0819104
0.454139 0.121523 0.0826123
0.492348 0.128817 0.0836652
0.531106 0.136446 0.0847334
0.569055 0.144488 0.0864424
0.606195 0.15259 0.0882887
0.642527 0.160983 0.0907912
0.677302 0.169879 0.093904
0.709712 0.178607 0.0971237
0.736934 0.186175 0.0999313
0.761913 0.193286 0.102647
0.78703 0.201144 0.106065
0.809903 0.208835 0.1093
0.831357 0.216403 0.112749
0.85214 0.223896 0.116091
0.872526 0.232074 0.119905
0.892317 0.24062 0.123842
0 0.0308385 0.0494392
0 0.0323339 0.0511177
0.00315862 0.0348821 0.0533608
0.00939956 0.0374151 0.0556497
0.0189364 0.0406653 0.0593423
0.033753 0.0451514 0.0648508
0.0529946 0.0498207 0.0695506
0.0763867 0.0559396 0.0702678
0.102113 0.0623178 0.0742199
0.133974 0.0692912 0.078294
0.170336 0.0766003 0.0809339
0.210056 0.0845502 0.082414
0.251942 0.0919661 0.0828107
0.294942 0.0996109 0.0831311
0.337148 0.107027 0.0826886
0.377935 0.114214 0.0827955
0.417548 0.121401 0.0834363
0.456336 0.128771 0.0844587
0.494484 0.136049 0.0851606
0.532525 0.143908 0.0868696
0.570413 0.151659 0.0883803
0.607248 0.159716 0.0901198
0.643229 0.168368 0.0930343
0.678416 0.177401 0.0962234
0.71133 0.186465 0.099855
0.739178 0.194339 0.102708
0.764263 0.201785 0.105821
0.789166 0.209476 0.108949
0.812696 0.217426 0.112566
0.83418 0.225132 0.115969
0.854917 0.232807 0.119188
0.875166 0.240986 0.122835
0.894469 0.249241 0.126558
0.000106813 0.041886 0.0580606
0.00358587 0.0435035 0.0601053
0.00953689 0.0465705 0.0625162
0.0167391 0.049836 0.0656901
0.0285344 0.0529641 0.0688029
0.0431067 0.0568399 0.0726482
0.0630045 0.0613413 0.0768139
0.0850385 0.0671397 0.0764782
0.112169 0.0729839 0.0804303
0.144045 0.0798505 0.08336
0.179355 0.0872206 0.0852827
0.218753 0.0947433 0.0859541
0.259739 0.101946 0.0861677
0.30193 0.109056 0.0857404
0.343191 0.116121 0.0852674
0.382391 0.122667 0.0851911
0.421088 0.129885 0.0861524
0.458839 0.136828 0.0864729
0.496239 0.144183 0.0876173
0.533974 0.152102 0.0895552
0.571664 0.160098 0.090898
0.608957 0.168551 0.0935073
0.645335 0.177584 0.0967117
0.681178 0.186831 0.100374
0.713985 0.196109 0.103899
0.742535 0.204379 0.107103
0.768063 0.211887 0.109834
0.792508 0.219532 0.112993
0.816114 0.227588 0.116167
0.837415 0.235248 0.119295
0.858198 0.243076 0.12285
0.878508 0.251133 0.126421
0.897505 0.259251 0.12987
0.00636301 0.0542153 0.0684977
0.00981155 0.055314 0.0696269
0.0161898 0.0585489 0.0726482
0.0233158 0.0625772 0.076524
0.0386511 0.0670024 0.0805371
0.0538643 0.0713512 0.0840772
0.0728466 0.0761273 0.0852369
0.0963149 0.0811627 0.085481
0.123903 0.0868544 0.087953
0.155566 0.0931563 0.0890669
0.18996 0.0996719 0.090074
0.227436 0.106264 0.0901503
0.267811 0.112871 0.0898451
0.308934 0.119219 0.0886244
0.348226 0.125872 0.0884413
0.386587 0.132479 0.0890211
0.424155 0.139467 0.0897231
0.461082 0.146502 0.090547
0.498527 0.15407 0.0919051
0.536461 0.161898 0.0935378
0.574273 0.169924 0.0955367
0.612131 0.178546 0.0979324
0.648768 0.187839 0.101411
0.683482 0.197314 0.105196
0.717327 0.207233 0.108812
0.746502 0.216022 0.112444
0.771954 0.223621 0.115343
0.796506 0.231159 0.118379
0.820142 0.239612 0.122042
0.841367 0.247364 0.124987
0.862058 0.255192 0.128267
0.881498 0.263035 0.131807
0.900603 0.271336 0.135515
0.0135042 0.0689403 0.0825513
0.0175937 0.0702525 0.0841535
0.0237736 0.0736095 0.0861372
0.0326085 0.0783703 0.0894026
0.0453346 0.0824903 0.0937209
0.0646525 0.0873121 0.0974441
0.0832074 0.0930495 0.0982681
0.108461 0.0972915 0.0954147
0.136278 0.102022 0.0958114
0.167102 0.107668 0.0961624
0.200763 0.113802 0.0962844
0.23653 0.119631 0.0955367
0.275181 0.125566 0.095079
0.314488 0.131151 0.0934615
0.352667 0.137407 0.09308
0.389731 0.143725 0.0938582
0.427222 0.150286 0.0946365
0.464546 0.157351 0.0953841
0.502358 0.164981 0.096788
0.540017 0.172961 0.0986496
0.578042 0.181369 0.101122
0.615442 0.190311 0.104128
0.651881 0.19971 0.107546
0.686748 0.209415 0.111162
0.720836 0.219333 0.115129
0.750881 0.228595 0.118914
0.775692 0.235874 0.121538
0.800076 0.243824 0.124483
0.824201 0.252201 0.127977
0.845243 0.260075 0.131289
0.865324 0.267643 0.134157
0.885084 0.275792 0.137621
0.903868 0.283986 0.141299
0.0229953 0.0861677 0.0987411
0.0279545 0.0878614 0.0999619
0.0346227 0.0903944 0.101289
0.0442359 0.0953536 0.104524
0.0553292 0.10045 0.108888
0.0706188 0.105348 0.112963
0.0921645 0.110124 0.117418
0.121035 0.116472 0.107103
0.147814 0.120592 0.105837
0.178164 0.124468 0.104509
0.211582 0.129168 0.103365
0.247379 0.134142 0.102266
0.284428 0.139055 0.100511
0.321614 0.144533 0.0998398
0.358434 0.150362 0.099382
0.39498 0.156741 0.10013
0.431815 0.163287 0.100816
0.469291 0.170382 0.101488
0.506905 0.177813 0.10338
0.544457 0.18555 0.105104
0.581872 0.193988 0.107713
0.618875 0.203082 0.110643
0.654841 0.212512 0.114
0.690318 0.2224 0.117937
0.72401 0.232639 0.121965
0.754894 0.242374 0.125795
0.780118 0.250126 0.128801
0.804303 0.257755 0.131838
0.827756 0.266072 0.135042
0.848814 0.27364 0.138079
0.869078 0.281468 0.141558
0.888228 0.289372 0.144915
0.90634 0.297765 0.148928
0.0376287 0.10573 0.115129
0.0428168 0.107378 0.116426
0.0488746 0.109606 0.118181
0.0570077 0.11371 0.120623
0.066743 0.118837 0.12462
0.0798962 0.124193 0.12903
0.0971542 0.129458 0.134279
0.119402 0.136065 0.132799
0.159243 0.140002 0.118379
0.188556 0.143694 0.115373
0.221637 0.146502 0.112718
0.257877 0.150484 0.110658
0.294331 0.154543 0.108431
0.330724 0.159396 0.107576
0.366476 0.164889 0.106706
0.402335 0.171176 0.107103
0.438453 0.17792 0.107866
0.474891 0.185 0.108919
0.512322 0.19266 0.110796
0.549325 0.200259 0.112459
0.586419 0.208881 0.115267
0.62327 0.217914 0.118379
0.659083 0.227207 0.12166
0.693935 0.236728 0.125078
0.727275 0.247044 0.129091
0.759152 0.257435 0.133272
0.784848 0.265248 0.136553
0.808392 0.272892 0.139315
0.831449 0.280781 0.142565
0.852689 0.288792 0.146227
0.87245 0.296376 0.149554
0.890944 0.304402 0.153109
0.907759 0.312795 0.157458
0.0513466 0.127962 0.134051
0.0575723 0.129168 0.135439
0.0643473 0.130343 0.136614
0.0721599 0.133761 0.138705
0.080827 0.138613 0.14226
0.0914778 0.143648 0.146395
0.104326 0.148714 0.150973
0.122545 0.153368 0.155276
0.153552 0.160327 0.140063
0.202274 0.162325 0.127169
0.235462 0.165255 0.123201
0.269764 0.16846 0.120333
0.304952 0.17229 0.118395
0.340475 0.176837 0.116793
0.375051 0.181964 0.116121
0.411109 0.187732 0.115969
0.446448 0.193759 0.116365
0.482597 0.200885 0.117296
0.518624 0.208392 0.118761
0.554589 0.216434 0.120577
0.591455 0.225086 0.123568
0.627649 0.234058 0.126238
0.663066 0.243229 0.129702
0.697917 0.25301 0.133211
0.73077 0.262867 0.137194
0.763149 0.273411 0.141283
0.789197 0.281559 0.144747
0.812802 0.288869 0.147753
0.835477 0.296925 0.151324
0.856382 0.304616 0.154849
0.875166 0.312398 0.15845
0.892241 0.320211 0.162448
0.907881 0.328603 0.167666
0.0648508 0.150271 0.152636
0.0721599 0.151186 0.154437
0.0802319 0.151904 0.156283
0.0870069 0.153658 0.157122
0.0954147 0.158083 0.159854
0.104967 0.162646 0.16318
0.115633 0.167758 0.167575
0.127382 0.173037 0.17261
0.14815 0.178027 0.175814
0.200488 0.182986 0.144671
0.249485 0.184863 0.135546
0.284092 0.188403 0.13228
0.31603 0.192096 0.129244
0.350134 0.196262 0.127398
0.384771 0.200961 0.126787
0.419898 0.206561 0.126482
0.4551 0.212284 0.126558
0.490929 0.219226 0.127459
0.526528 0.226444 0.128634
0.562005 0.234394 0.130465
0.59733 0.242588 0.132753
0.632441 0.251545 0.135485
0.668055 0.260975 0.138705
0.702052 0.270405 0.142077
0.735317 0.280339 0.146075
0.767468 0.291051 0.150378
0.793957 0.299336 0.153735
0.817075 0.306706 0.156786
0.839307 0.314458 0.160601
0.859281 0.322423 0.165057
0.876707 0.330068 0.169146
0.892699 0.33814 0.174228
0.907256 0.346303 0.179538
0.0793164 0.172778 0.171496
0.0874189 0.172976 0.173358
0.0952621 0.173129 0.17464
0.10161 0.173754 0.174914
0.109987 0.177432 0.177142
0.118212 0.18201 0.179965
0.128298 0.186877 0.183566
0.13959 0.192401 0.18883
0.15317 0.198047 0.193729
0.175067 0.204929 0.192905
0.248005 0.206668 0.15375
0.295598 0.209262 0.145159
0.327871 0.214252 0.142153
0.359243 0.218158 0.140673
0.393271 0.222644 0.139254
0.428092 0.227436 0.138567
0.46331 0.232929 0.138659
0.499123 0.239628 0.138811
0.53402 0.246418 0.13994
0.569467 0.254185 0.141619
0.604654 0.262058 0.14342
0.639933 0.270695 0.1458
0.674632 0.279789 0.148531
0.707805 0.28896 0.151583
0.740353 0.299031 0.155505
0.771557 0.309346 0.159716
0.798764 0.318288 0.163653
0.821134 0.325673 0.167193
0.841886 0.333135 0.171298
0.860853 0.341665 0.177005
0.876982 0.34934 0.18172
0.892454 0.357107 0.18674
0.907744 0.36524 0.191928
0.0925307 0.194842 0.189731
0.101274 0.194476 0.191501
0.109361 0.194354 0.19266
0.116213 0.194278 0.192889
0.124269 0.19707 0.194522
0.132235 0.201968 0.197299
0.141756 0.206989 0.200717
0.152621 0.212665 0.205478
0.164523 0.218463 0.210697
0.181445 0.224887 0.215763
0.208209 0.233738 0.204669
0.291676 0.232853 0.165606
0.339925 0.236072 0.157519
0.372564 0.24184 0.155108
0.403082 0.246403 0.153475
0.437125 0.250568 0.152148
0.471656 0.255863 0.151614
0.506477 0.26186 0.151507
0.541863 0.268391 0.152041
0.577417 0.275502 0.153353
0.612329 0.283024 0.154726
0.647929 0.291417 0.156786
0.682017 0.299962 0.159136
0.715511 0.308888 0.162188
0.746807 0.318654 0.165789
0.777081 0.328435 0.17026
0.803037 0.337942 0.174838
0.824582 0.345892 0.179431
0.843519 0.353582 0.184344
0.861616 0.36199 0.19028
0.877928 0.369818 0.195209
0.893965 0.377234 0.199786
0.909926 0.384741 0.20441
0.105455 0.217472 0.207385
0.113924 0.217075 0.208896
0.122393 0.216907 0.210269
0.13138 0.216022 0.2112
0.139269 0.217838 0.212818
0.146868 0.222324 0.215213
0.156161 0.227756 0.218753
0.166796 0.233631 0.223102
0.178256 0.240177 0.228199
0.191333 0.246647 0.234104
0.210788 0.253971 0.238148
0.248402 0.263355 0.212512
0.338109 0.260761 0.178851
0.388571 0.263813 0.168978
0.419562 0.27071 0.168002
0.448753 0.276478 0.167163
0.479591 0.281239 0.165515
0.514977 0.286366 0.165026
0.550759 0.292226 0.165591
0.585595 0.298528 0.16585
0.621439 0.305745 0.167056
0.656199 0.313405 0.168811
0.690379 0.321431 0.171084
0.723415 0.330098 0.173632
0.754025 0.339361 0.177768
0.782437 0.349538 0.182513
0.807095 0.359503 0.188617
0.827222 0.367758 0.19382
0.845548 0.375494 0.198611
0.864073 0.383764 0.204517
0.880964 0.391196 0.208865
0.89749 0.398215 0.212757
0.913634 0.405341 0.216892
0.119081 0.241001 0.225223
0.126955 0.240574 0.226764
0.136904 0.240146 0.228641
0.147967 0.238575 0.230121
0.154818 0.240146 0.231174
0.163272 0.244053 0.233585
0.171237 0.249744 0.236866
0.181704 0.255711 0.241184
0.193301 0.262455 0.24622
0.205814 0.269551 0.251835
0.221073 0.276921 0.258076
0.241428 0.285664 0.257389
0.295247 0.294194 0.219944
0.381994 0.291096 0.192798
0.432197 0.294362 0.183337
0.460838 0.302495 0.1832
0.491325 0.308507 0.181949
0.523674 0.31313 0.180224
0.559609 0.317815 0.179385
0.595102 0.323613 0.180041
0.63035 0.330144 0.180499
0.664683 0.336782 0.181674
0.698711 0.344411 0.183597
0.730358 0.352544 0.186618
0.759365 0.36202 0.191302
0.785779 0.371984 0.197406
0.810086 0.382239 0.204089
0.831052 0.390387 0.208972
0.850294 0.397803 0.213275
0.869307 0.405829 0.218433
0.886503 0.412894 0.222583
0.902373 0.419776 0.226398
0.918105 0.42681 0.230579
0.133135 0.265583 0.243778
0.141085 0.26537 0.245533
0.151781 0.264195 0.247318
0.162692 0.262592 0.248554
0.170535 0.263066 0.249668
0.179324 0.267002 0.252476
0.187228 0.272831 0.255787
0.19736 0.279179 0.259907
0.20914 0.285893 0.264683
0.221927 0.292973 0.269993
0.236103 0.300496 0.276081
0.251835 0.308736 0.282399
0.275349 0.319387 0.27454
0.341726 0.325139 0.232547
0.425086 0.322728 0.207584
0.470405 0.327443 0.200015
0.503227 0.334569 0.198856
0.536065 0.340902 0.197986
0.568215 0.345632 0.196323
0.603494 0.350393 0.19501
0.638956 0.355688 0.195422
0.672816 0.362158 0.196765
0.70518 0.369421 0.199313
0.735058 0.377188 0.202899
0.762951 0.386358 0.208423
0.788983 0.39585 0.213764
0.814511 0.405676 0.219577
0.837034 0.414069 0.224079
0.856825 0.420905 0.227863
0.875486 0.428672 0.232883
0.892515 0.435691 0.237186
0.908705 0.442451 0.241169
0.923934 0.448951 0.244434
0.147662 0.291066 0.26305
0.15584 0.290486 0.2645
0.166796 0.289387 0.266529
0.177722 0.288304 0.268482
0.188235 0.287785 0.270497
0.196735 0.290684 0.27277
0.204807 0.296178 0.275959
0.213947 0.302831 0.279835
0.225711 0.309773 0.284779
0.238209 0.31696 0.289662
0.252186 0.324392 0.295445
0.266941 0.332586 0.302174
0.283665 0.341436 0.307713
0.311116 0.352697 0.294057
0.385489 0.35697 0.248539
0.470756 0.354299 0.222141
0.51722 0.358816 0.215305
0.549249 0.36614 0.213916
0.581415 0.373342 0.21355
0.612451 0.3785 0.212909
0.645365 0.383566 0.212696
0.678904 0.38909 0.21384
0.709972 0.395621 0.216892
0.738964 0.403555 0.221118
0.767361 0.412055 0.225788
0.794217 0.420935 0.230411
0.820584 0.430167 0.234989
0.844419 0.438819 0.239918
0.863661 0.445396 0.243397
0.882139 0.452415 0.247745
0.899275 0.459495 0.251942
0.915175 0.46595 0.25536
0.930526 0.472175 0.258488
0.162234 0.317205 0.282689
0.170886 0.316594 0.284581
0.181857 0.315282 0.286702
0.194125 0.314321 0.289372
0.206729 0.312871 0.291676
0.213931 0.315282 0.293217
0.223209 0.320424 0.29688
0.231724 0.327337 0.300603
0.242771 0.334279 0.305303
0.255055 0.341283 0.310353
0.269047 0.348867 0.315801
0.283848 0.356817 0.321996
0.29926 0.365484 0.327626
0.31751 0.37554 0.328527
0.35079 0.386313 0.310597
0.431357 0.388754 0.264302
0.522896 0.384604 0.236622
0.564675 0.390295 0.230259
0.59234 0.398962 0.230823
0.622171 0.406561 0.232105
0.651698 0.412467 0.233066
0.682628 0.417807 0.234531
0.714763 0.423743 0.236423
0.744762 0.43061 0.239216
0.773114 0.438148 0.242786
0.801114 0.446769 0.247272
0.827237 0.45568 0.251682
0.851087 0.464012 0.255802
0.870375 0.470237 0.259052
0.888991 0.477104 0.262638
0.906508 0.484123 0.266682
0.922652 0.490303 0.269718
0.937835 0.496178 0.272282
0.177493 0.343511 0.303227
0.186282 0.342733 0.304921
0.197406 0.341436 0.307088
0.210681 0.340352 0.310033
0.222446 0.339467 0.312444
0.230884 0.340352 0.31371
0.24097 0.345266 0.317586
0.249653 0.351736 0.321248
0.259632 0.358694 0.325322
0.272358 0.36585 0.33022
0.286305 0.373266 0.33579
0.301289 0.381216 0.341207
0.316594 0.390005 0.346944
0.332021 0.399435 0.352148
0.351553 0.410407 0.348989
0.391669 0.420356 0.324681
0.47306 0.42182 0.282887
0.557977 0.418982 0.258762
0.59823 0.424857 0.253391
0.627665 0.433249 0.254292
0.658976 0.441154 0.255268
0.690105 0.447395 0.255741
0.720531 0.452827 0.256184
0.75079 0.45864 0.257969
0.779904 0.465751 0.261021
0.807202 0.473274 0.26453
0.833173 0.481651 0.268589
0.857969 0.490135 0.272496
0.877867 0.496315 0.275242
0.896117 0.502571 0.278172
0.913893 0.509438 0.282261
0.929412 0.514931 0.284535
0.944991 0.520867 0.287282
0.193317 0.370108 0.323873
0.202075 0.36939 0.325673
0.213687 0.368032 0.327932
0.227008 0.366842 0.330877
0.2392 0.366384 0.333776
0.25095 0.366522 0.336522
0.259434 0.370413 0.339055
0.268482 0.376547 0.34258
0.277638 0.383566 0.346288
0.290318 0.390539 0.351293
0.304067 0.397986 0.356497
0.318837 0.405753 0.361868
0.333837 0.41445 0.36733
0.348852 0.42359 0.37293
0.364431 0.433387 0.377401
0.386999 0.444648 0.370062
0.433295 0.45359 0.341482
0.513985 0.454627 0.303471
0.591989 0.453483 0.283192
0.637598 0.458564 0.276371
0.667079 0.467124 0.276448
0.696727 0.475502 0.277485
0.727504 0.482795 0.278019
0.756924 0.488365 0.277531
0.785565 0.494179 0.280064
0.813397 0.500938 0.282795
0.839704 0.508537 0.286107
0.864591 0.516686 0.289387
0.884855 0.52282 0.291646
0.903075 0.528527 0.294163
0.920546 0.535271 0.297826
0.93608 0.540581 0.300069
0.951202 0.545892 0.302174
0.2094 0.396918 0.345281
0.218173 0.396048 0.346746
0.230472 0.395163 0.349432
0.243519 0.3935 0.352209
0.257069 0.393179 0.355947
0.27068 0.392981 0.35906
0.278187 0.395697 0.360678
0.288563 0.401541 0.364904
0.297612 0.408042 0.368612
0.308492 0.415091 0.372625
0.322011 0.422873 0.37789
0.336706 0.430625 0.383062
0.351583 0.439033 0.388647
0.36643 0.44799 0.394644
0.381735 0.457435 0.39942
0.397803 0.467201 0.40296
0.423896 0.478553 0.39205
0.474815 0.486915 0.359915
0.557794 0.487526 0.323888
0.634943 0.486595 0.303624
0.678447 0.492424 0.297139
0.704753 0.501534 0.298009
0.732097 0.510552 0.299733
0.762722 0.518715 0.300313
0.791333 0.5243 0.299458
0.819028 0.530236 0.300923
0.845853 0.536492 0.303334
0.870802 0.543542 0.306416
0.891249 0.549371 0.308339
0.909468 0.555077 0.31043
0.927077 0.56199 0.314794
0.942565 0.566934 0.316732
0.957275 0.571588 0.318349
0.225528 0.423972 0.3664
0.234165 0.423041 0.367803
0.246983 0.422019 0.370977
0.260304 0.420783 0.374014
0.275303 0.420157 0.377951
0.288121 0.420066 0.38085
0.297063 0.421805 0.382391
0.307454 0.426871 0.386389
0.317098 0.433341 0.390341
0.326604 0.440314 0.393957
0.33991 0.447654 0.398764
0.354757 0.455344 0.404334
0.369863 0.463462 0.409857
0.385061 0.47219 0.415229
0.400565 0.481682 0.420508
0.415595 0.491798 0.424125
0.432044 0.502388 0.426093
0.461295 0.512871 0.413016
0.517723 0.520836 0.378271
0.604669 0.519905 0.343175
0.67689 0.520058 0.324269
0.71519 0.527001 0.318715
0.739498 0.536797 0.319722
0.766171 0.545983 0.320836
0.795636 0.553887 0.321294
0.823682 0.560098 0.320836
0.849775 0.565682 0.32163
0.874891 0.571588 0.32369
0.897002 0.57702 0.325902
0.915145 0.581689 0.327398
0.932784 0.588556 0.332189
0.948119 0.593454 0.334005
0.962844 0.597726 0.335286
0.242283 0.45127 0.388403
0.251118 0.450507 0.390051
0.26389 0.449195 0.39266
0.277592 0.448188 0.396033
0.292699 0.447471 0.399725
0.30573 0.44744 0.402609
0.316823 0.448203 0.405035
0.326177 0.452476 0.408026
0.336553 0.458473 0.411643
0.345922 0.46537 0.415274
0.359197 0.47274 0.420142
0.373877 0.48014 0.425437
0.389288 0.488212 0.43125
0.404257 0.497185 0.436728
0.419104 0.506416 0.441794
0.433387 0.516213 0.44596
0.448676 0.526558 0.449134
0.466377 0.537163 0.448981
0.498817 0.547204 0.435737
0.558907 0.554543 0.398016
0.643992 0.553674 0.364294
0.709712 0.555413 0.346349
0.746136 0.562554 0.341375
0.772931 0.571405 0.341176
0.798474 0.580606 0.342611
0.826673 0.588907 0.343542
0.853162 0.595575 0.343725
0.877592 0.600824 0.343771
0.900328 0.606088 0.344656
0.919493 0.609674 0.345373
0.937819 0.615915 0.350469
0.953079 0.619974 0.352148
0.967407 0.623896 0.353094
0.259739 0.47866 0.410132
0.268818 0.477745 0.41181
0.281361 0.475807 0.413993
0.295689 0.475151 0.417487
0.311254 0.474449 0.421546
0.326009 0.474006 0.425162
0.338415 0.474083 0.427451
0.346853 0.477775 0.429755
0.358679 0.483238 0.434211
0.367788 0.490135 0.437598
0.379126 0.497292 0.441871
0.39292 0.504891 0.447013
0.407645 0.5131 0.452399
0.422263 0.521935 0.458228
0.437293 0.53135 0.463478
0.451499 0.540887 0.46833
0.46656 0.550958 0.471687
0.482322 0.561486 0.473518
0.502419 0.571969 0.470207
0.537743 0.58143 0.455283
0.598138 0.588037 0.417746
0.677928 0.58851 0.387076
0.745235 0.58941 0.366888
0.780713 0.596613 0.361913
0.804562 0.605905 0.3626
0.827955 0.614725 0.364004
0.8542 0.622873 0.365042
0.880446 0.630167 0.36614
0.902876 0.634943 0.365652
0.922316 0.638651 0.365377
0.941009 0.643229 0.368429
0.956909 0.647227 0.370413
0.971695 0.650355 0.371405
0.278691 0.505272 0.43183
0.288121 0.504143 0.433478
0.300481 0.502464 0.435386
0.315007 0.501823 0.439292
0.330617 0.501045 0.443381
0.347112 0.500694 0.447486
0.358984 0.500694 0.44976
0.367193 0.503578 0.451774
0.37879 0.508766 0.456016
0.388846 0.515206 0.459983
0.398306 0.522744 0.463432
0.411292 0.530465 0.468574
0.425895 0.538506 0.474113
0.440635 0.547204 0.479774
0.455406 0.556115 0.485298
0.469917 0.56553 0.490059
0.484657 0.575448 0.493599
0.499352 0.585687 0.49575
0.515709 0.596124 0.496345
0.538949 0.6065 0.491142
0.576867 0.615335 0.473243
0.639597 0.621256 0.43537
0.714855 0.621759 0.407782
0.782574 0.622385 0.387259
0.814557 0.629602 0.381857
0.832242 0.639368 0.384207
0.854673 0.64799 0.385763
0.879805 0.655665 0.386435
0.904585 0.663035 0.387228
0.924956 0.667094 0.38674
0.943084 0.670985 0.387594
0.959091 0.674144 0.38883
0.974212 0.677119 0.389624
0.29781 0.532204 0.453574
0.307393 0.530999 0.455177
0.319371 0.529473 0.457206
0.334127 0.529107 0.461601
0.349615 0.528405 0.465446
0.365606 0.528069 0.469642
0.376959 0.528344 0.471595
0.386221 0.530068 0.47335
0.397009 0.534798 0.477363
0.407797 0.54107 0.481453
0.417304 0.548241 0.485435
0.429526 0.556054 0.490089
0.443824 0.563912 0.49575
0.458549 0.572396 0.501427
0.473564 0.581292 0.50695
0.488502 0.5906 0.511971
0.503105 0.599908 0.515908
0.517296 0.61004 0.518151
0.532525 0.620127 0.5196
0.549722 0.630213 0.519768
0.575128 0.640009 0.512642
0.615824 0.648524 0.491798
0.679545 0.653284 0.454475
0.75227 0.653849 0.428504
0.813336 0.655039 0.40914
0.843397 0.662226 0.402869
0.857893 0.671992 0.406195
0.878767 0.679835 0.407248
0.9019 0.686839 0.407706
0.924575 0.693324 0.408286
0.944533 0.698238 0.409171
0.9608 0.701259 0.409186
0.975616 0.703563 0.408652
0.316609 0.559625 0.476066
0.32549 0.558129 0.47715
0.337591 0.556802 0.479255
0.352193 0.556374 0.483268
0.367773 0.55584 0.487449
0.383871 0.555322 0.491402
0.396292 0.555856 0.494209
0.406088 0.556588 0.495811
0.415641 0.560662 0.498848
0.42739 0.566598 0.503517
0.436606 0.5738 0.507561
0.447883 0.58143 0.512001
0.462089 0.589288 0.517327
0.476478 0.597681 0.52311
0.491539 0.606363 0.528496
0.506142 0.615152 0.533455
0.521141 0.62417 0.537881
0.534966 0.633692 0.540612
0.550103 0.643748 0.542229
0.565896 0.653742 0.543297
0.583795 0.663325 0.542718
0.61091 0.672175 0.535241
0.652995 0.680125 0.510765
0.714916 0.684779 0.475257
0.780667 0.685893 0.449683
0.835416 0.688197 0.432898
0.866682 0.694179 0.426215
0.883314 0.70251 0.427619
0.901366 0.709834 0.428733
0.922225 0.716503 0.429465
0.942733 0.721965 0.43061
0.961166 0.726436 0.431144
0.976593 0.72932 0.430365
0.334951 0.586603 0.498268
0.343542 0.585367 0.499138
0.355505 0.583932 0.501259
0.369894 0.58352 0.505272
0.385763 0.582971 0.50927
0.401877 0.582467 0.513619
0.415473 0.582727 0.516732
0.425254 0.583398 0.518151
0.433539 0.586557 0.520226
0.445502 0.592172 0.525216
0.456626 0.598856 0.529671
0.466026 0.606424 0.533455
0.479515 0.61416 0.538521
0.49398 0.622415 0.544381
0.508827 0.630671 0.549706
0.523812 0.639277 0.554864
0.538689 0.647868 0.559533
0.552956 0.656992 0.562966
0.567514 0.666575 0.564965
0.582376 0.676341 0.565667
0.598627 0.685817 0.565835
0.617182 0.694575 0.564492
0.64509 0.702739 0.557107
0.687678 0.710582 0.530266
0.745647 0.715129 0.497276
0.808682 0.716243 0.47155
0.857435 0.718685 0.455833
0.888258 0.723842 0.448569
0.90663 0.731228 0.448447
0.923354 0.738384 0.450126
0.941039 0.744183 0.451255
0.958434 0.748653 0.45214
0.974624 0.752178 0.451743
0.353338 0.613077 0.520287
0.360891 0.612131 0.521111
0.373037 0.611246 0.523583
0.386923 0.610422 0.526741
0.40293 0.609781 0.531044
0.419181 0.609598 0.535607
0.434287 0.609491 0.539101
0.443442 0.610193 0.540475
0.450996 0.612345 0.541756
0.462577 0.617456 0.545983
0.474098 0.623789 0.55082
0.484413 0.631006 0.554864
0.496803 0.638636 0.559701
0.51133 0.646433 0.565072
0.526009 0.654551 0.570794
0.540963 0.662898 0.575692
0.555703 0.671153 0.580438
0.570489 0.679759 0.584482
0.584649 0.688655 0.586999
0.598871 0.69781 0.588037
0.614267 0.707088 0.587915
0.630793 0.716045 0.58732
0.649927 0.724498 0.58616
0.677119 0.732036 0.57937
0.721325 0.739193 0.548653
0.775723 0.743481 0.518822
0.83537 0.744732 0.493278
0.880369 0.746838 0.477302
