bundles/resolve-cinematic-luts/Lens Distortions - Finishing LUTs/LD - Velvet B&W 2.cube
TITLE "LD - Velvet 2"
# Copyright (c) Lens Distortions, LLC. All Rights Reserved.
# LensDistortions.com
# ref-VBW2
LUT_3D_SIZE 33
0.0314641 0.0314641 0.0314641
0.0336461 0.0336461 0.0336461
0.035996 0.035996 0.035996
0.0384222 0.0384222 0.0384222
0.0411078 0.0411078 0.0411078
0.0438849 0.0438849 0.0438849
0.0469368 0.0469368 0.0469368
0.0500801 0.0500801 0.0500801
0.0535286 0.0535286 0.0535286
0.0570382 0.0570382 0.0570382
0.0607614 0.0607614 0.0607614
0.0644694 0.0644694 0.0644694
0.0682841 0.0682841 0.0682841
0.072282 0.072282 0.072282
0.0762798 0.0762798 0.0762798
0.0804913 0.0804913 0.0804913
0.0846876 0.0846876 0.0846876
0.0889601 0.0889601 0.0889601
0.0934768 0.0934768 0.0934768
0.0979477 0.0979477 0.0979477
0.102586 0.102586 0.102586
0.107347 0.107347 0.107347
0.112123 0.112123 0.112123
0.117006 0.117006 0.117006
0.122118 0.122118 0.122118
0.127214 0.127214 0.127214
0.132403 0.132403 0.132403
0.137835 0.137835 0.137835
0.143221 0.143221 0.143221
0.14873 0.14873 0.14873
0.15433 0.15433 0.15433
0.15996 0.15996 0.15996
0.16556 0.16556 0.16556
0.0389105 0.0389105 0.0389105
0.0413214 0.0413214 0.0413214
0.0438087 0.0438087 0.0438087
0.04654 0.04654 0.04654
0.049424 0.049424 0.049424
0.0524605 0.0524605 0.0524605
0.0556802 0.0556802 0.0556802
0.059144 0.059144 0.059144
0.0627604 0.0627604 0.0627604
0.0666361 0.0666361 0.0666361
0.0704967 0.0704967 0.0704967
0.0745708 0.0745708 0.0745708
0.0786145 0.0786145 0.0786145
0.0827649 0.0827649 0.0827649
0.087129 0.087129 0.087129
0.0914778 0.0914778 0.0914778
0.0959335 0.0959335 0.0959335
0.100587 0.100587 0.100587
0.105226 0.105226 0.105226
0.109972 0.109972 0.109972
0.114931 0.114931 0.114931
0.119875 0.119875 0.119875
0.124926 0.124926 0.124926
0.130205 0.130205 0.130205
0.135454 0.135454 0.135454
0.14081 0.14081 0.14081
0.14638 0.14638 0.14638
0.151934 0.151934 0.151934
0.157488 0.157488 0.157488
0.163088 0.163088 0.163088
0.168826 0.168826 0.168826
0.174456 0.174456 0.174456
0.180102 0.180102 0.180102
0.0474403 0.0474403 0.0474403
0.049958 0.049958 0.049958
0.0527504 0.0527504 0.0527504
0.0556344 0.0556344 0.0556344
0.0587625 0.0587625 0.0587625
0.0619974 0.0619974 0.0619974
0.0655375 0.0655375 0.0655375
0.0691997 0.0691997 0.0691997
0.073167 0.073167 0.073167
0.0771954 0.0771954 0.0771954
0.0813764 0.0813764 0.0813764
0.0856489 0.0856489 0.0856489
0.0899672 0.0899672 0.0899672
0.0944839 0.0944839 0.0944839
0.0990158 0.0990158 0.0990158
0.103624 0.103624 0.103624
0.108461 0.108461 0.108461
0.113268 0.113268 0.113268
0.118181 0.118181 0.118181
0.123293 0.123293 0.123293
0.12845 0.12845 0.12845
0.133669 0.133669 0.133669
0.139055 0.139055 0.139055
0.144549 0.144549 0.144549
0.150057 0.150057 0.150057
0.155612 0.155612 0.155612
0.161334 0.161334 0.161334
0.166934 0.166934 0.166934
0.172549 0.172549 0.172549
0.178195 0.178195 0.178195
0.184009 0.184009 0.184009
0.1897 0.1897 0.1897
0.195422 0.195422 0.195422
0.0569467 0.0569467 0.0569467
0.0597848 0.0597848 0.0597848
0.0626993 0.0626993 0.0626993
0.0659037 0.0659037 0.0659037
0.0691844 0.0691844 0.0691844
0.0727703 0.0727703 0.0727703
0.076463 0.076463 0.076463
0.0804761 0.0804761 0.0804761
0.084596 0.084596 0.084596
0.0888991 0.0888991 0.0888991
0.0934157 0.0934157 0.0934157
0.0979171 0.0979171 0.0979171
0.102541 0.102541 0.102541
0.107317 0.107317 0.107317
0.112108 0.112108 0.112108
0.117006 0.117006 0.117006
0.122118 0.122118 0.122118
0.127214 0.127214 0.127214
0.132418 0.132418 0.132418
0.13785 0.13785 0.13785
0.143267 0.143267 0.143267
0.14876 0.14876 0.14876
0.15436 0.15436 0.15436
0.160021 0.160021 0.160021
0.165621 0.165621 0.165621
0.171252 0.171252 0.171252
0.17702 0.17702 0.17702
0.182681 0.182681 0.182681
0.188373 0.188373 0.188373
0.194095 0.194095 0.194095
0.199985 0.199985 0.199985
0.205737 0.205737 0.205737
0.211536 0.211536 0.211536
0.067689 0.067689 0.067689
0.0707103 0.0707103 0.0707103
0.0739452 0.0739452 0.0739452
0.0772717 0.0772717 0.0772717
0.0809033 0.0809033 0.0809033
0.0846418 0.0846418 0.0846418
0.0885786 0.0885786 0.0885786
0.0928817 0.0928817 0.0928817
0.0972915 0.0972915 0.0972915
0.101976 0.101976 0.101976
0.106676 0.106676 0.106676
0.111452 0.111452 0.111452
0.116381 0.116381 0.116381
0.121447 0.121447 0.121447
0.126543 0.126543 0.126543
0.131762 0.131762 0.131762
0.137163 0.137163 0.137163
0.14255 0.14255 0.14255
0.148043 0.148043 0.148043
0.153735 0.153735 0.153735
0.159304 0.159304 0.159304
0.164904 0.164904 0.164904
0.170535 0.170535 0.170535
0.176303 0.176303 0.176303
0.181964 0.181964 0.181964
0.187655 0.187655 0.187655
0.193469 0.193469 0.193469
0.199252 0.199252 0.199252
0.20502 0.20502 0.20502
0.210803 0.210803 0.210803
0.216617 0.216617 0.216617
0.222599 0.222599 0.222599
0.228489 0.228489 0.228489
0.0796979 0.0796979 0.0796979
0.0828717 0.0828717 0.0828717
0.0863355 0.0863355 0.0863355
0.0899062 0.0899062 0.0899062
0.0938125 0.0938125 0.0938125
0.0977951 0.0977951 0.0977951
0.102083 0.102083 0.102083
0.1066 0.1066 0.1066
0.111299 0.111299 0.111299
0.116228 0.116228 0.116228
0.121294 0.121294 0.121294
0.12639 0.12639 0.12639
0.131624 0.131624 0.131624
0.137011 0.137011 0.137011
0.142397 0.142397 0.142397
0.147906 0.147906 0.147906
0.153597 0.153597 0.153597
0.159167 0.159167 0.159167
0.164767 0.164767 0.164767
0.170413 0.170413 0.170413
0.176181 0.176181 0.176181
0.181842 0.181842 0.181842
0.187533 0.187533 0.187533
0.193347 0.193347 0.193347
0.19913 0.19913 0.19913
0.204913 0.204913 0.204913
0.210697 0.210697 0.210697
0.216495 0.216495 0.216495
0.222492 0.222492 0.222492
0.228367 0.228367 0.228367
0.234272 0.234272 0.234272
0.240208 0.240208 0.240208
0.246281 0.246281 0.246281
0.0929885 0.0929885 0.0929885
0.0963912 0.0963912 0.0963912
0.100114 0.100114 0.100114
0.103929 0.103929 0.103929
0.108095 0.108095 0.108095
0.112367 0.112367 0.112367
0.116869 0.116869 0.116869
0.121752 0.121752 0.121752
0.126757 0.126757 0.126757
0.13196 0.13196 0.13196
0.137407 0.137407 0.137407
0.142809 0.142809 0.142809
0.148333 0.148333 0.148333
0.153964 0.153964 0.153964
0.159609 0.159609 0.159609
0.165225 0.165225 0.165225
0.17084 0.17084 0.17084
0.176638 0.176638 0.176638
0.182315 0.182315 0.182315
0.188006 0.188006 0.188006
0.193744 0.193744 0.193744
0.199619 0.199619 0.199619
0.205386 0.205386 0.205386
0.211185 0.211185 0.211185
0.216999 0.216999 0.216999
0.222995 0.222995 0.222995
0.22887 0.22887 0.22887
0.234791 0.234791 0.234791
0.240711 0.240711 0.240711
0.246693 0.246693 0.246693
0.252811 0.252811 0.252811
0.258824 0.258824 0.258824
0.264897 0.264897 0.264897
0.107713 0.107713 0.107713
0.11136 0.11136 0.11136
0.115358 0.115358 0.115358
0.119432 0.119432 0.119432
0.123751 0.123751 0.123751
0.12845 0.12845 0.12845
0.133257 0.133257 0.133257
0.13843 0.13843 0.13843
0.143801 0.143801 0.143801
0.149325 0.149325 0.149325
0.154894 0.154894 0.154894
0.160632 0.160632 0.160632
0.166247 0.166247 0.166247
0.171893 0.171893 0.171893
0.177584 0.177584 0.177584
0.183368 0.183368 0.183368
0.189075 0.189075 0.189075
0.194812 0.194812 0.194812
0.200671 0.200671 0.200671
0.206485 0.206485 0.206485
0.212284 0.212284 0.212284
0.218112 0.218112 0.218112
0.224048 0.224048 0.224048
0.229999 0.229999 0.229999
0.23592 0.23592 0.23592
0.241856 0.241856 0.241856
0.247807 0.247807 0.247807
0.253956 0.253956 0.253956
0.259998 0.259998 0.259998
0.266072 0.266072 0.266072
0.272145 0.272145 0.272145
0.278279 0.278279 0.278279
0.284581 0.284581 0.284581
0.123903 0.123903 0.123903
0.127932 0.127932 0.127932
0.132052 0.132052 0.132052
0.136568 0.136568 0.136568
0.141176 0.141176 0.141176
0.14609 0.14609 0.14609
0.151278 0.151278 0.151278
0.156588 0.156588 0.156588
0.162158 0.162158 0.162158
0.167865 0.167865 0.167865
0.17351 0.17351 0.17351
0.179187 0.179187 0.179187
0.184924 0.184924 0.184924
0.190738 0.190738 0.190738
0.196475 0.196475 0.196475
0.202258 0.202258 0.202258
0.208118 0.208118 0.208118
0.213993 0.213993 0.213993
0.219837 0.219837 0.219837
0.225711 0.225711 0.225711
0.231647 0.231647 0.231647
0.237675 0.237675 0.237675
0.243626 0.243626 0.243626
0.249592 0.249592 0.249592
0.255604 0.255604 0.255604
0.261799 0.261799 0.261799
0.267887 0.267887 0.267887
0.273976 0.273976 0.273976
0.28011 0.28011 0.28011
0.28629 0.28629 0.28629
0.292638 0.292638 0.292638
0.298909 0.298909 0.298909
0.30518 0.30518 0.30518
0.141634 0.141634 0.141634
0.145861 0.145861 0.145861
0.150347 0.150347 0.150347
0.154925 0.154925 0.154925
0.159854 0.159854 0.159854
0.164843 0.164843 0.164843
0.170031 0.170031 0.170031
0.17554 0.17554 0.17554
0.18114 0.18114 0.18114
0.186847 0.186847 0.186847
0.192706 0.192706 0.192706
0.198474 0.198474 0.198474
0.204257 0.204257 0.204257
0.210071 0.210071 0.210071
0.2159 0.2159 0.2159
0.221881 0.221881 0.221881
0.227771 0.227771 0.227771
0.233692 0.233692 0.233692
0.239628 0.239628 0.239628
0.245731 0.245731 0.245731
0.251728 0.251728 0.251728
0.257755 0.257755 0.257755
0.263813 0.263813 0.263813
0.269902 0.269902 0.269902
0.276158 0.276158 0.276158
0.282307 0.282307 0.282307
0.288502 0.288502 0.288502
0.294728 0.294728 0.294728
0.300984 0.300984 0.300984
0.307424 0.307424 0.307424
0.313756 0.313756 0.313756
0.32015 0.32015 0.32015
0.326589 0.326589 0.326589
0.160342 0.160342 0.160342
0.164599 0.164599 0.164599
0.169177 0.169177 0.169177
0.173861 0.173861 0.173861
0.178729 0.178729 0.178729
0.183917 0.183917 0.183917
0.189181 0.189181 0.189181
0.194644 0.194644 0.194644
0.200381 0.200381 0.200381
0.206241 0.206241 0.206241
0.21207 0.21207 0.21207
0.217914 0.217914 0.217914
0.223835 0.223835 0.223835
0.229831 0.229831 0.229831
0.235752 0.235752 0.235752
0.241703 0.241703 0.241703
0.247684 0.247684 0.247684
0.253834 0.253834 0.253834
0.259876 0.259876 0.259876
0.265965 0.265965 0.265965
0.272053 0.272053 0.272053
0.278187 0.278187 0.278187
0.284504 0.284504 0.284504
0.290715 0.290715 0.290715
0.296956 0.296956 0.296956
0.303227 0.303227 0.303227
0.309529 0.309529 0.309529
0.315999 0.315999 0.315999
0.322438 0.322438 0.322438
0.328893 0.328893 0.328893
0.335363 0.335363 0.335363
0.341863 0.341863 0.341863
0.348424 0.348424 0.348424
0.179202 0.179202 0.179202
0.183673 0.183673 0.183673
0.18819 0.18819 0.18819
0.19295 0.19295 0.19295
0.198001 0.198001 0.198001
0.203128 0.203128 0.203128
0.208469 0.208469 0.208469
0.21416 0.21416 0.21416
0.219913 0.219913 0.219913
0.225788 0.225788 0.225788
0.231724 0.231724 0.231724
0.237797 0.237797 0.237797
0.243763 0.243763 0.243763
0.24976 0.24976 0.24976
0.255787 0.255787 0.255787
0.261906 0.261906 0.261906
0.268086 0.268086 0.268086
0.274189 0.274189 0.274189
0.280339 0.280339 0.280339
0.286519 0.286519 0.286519
0.292805 0.292805 0.292805
0.299168 0.299168 0.299168
0.305455 0.305455 0.305455
0.311772 0.311772 0.311772
0.318151 0.318151 0.318151
0.324575 0.324575 0.324575
0.331136 0.331136 0.331136
0.337667 0.337667 0.337667
0.344198 0.344198 0.344198
0.350774 0.350774 0.350774
0.357412 0.357412 0.357412
0.364065 0.364065 0.364065
0.370794 0.370794 0.370794
0.198489 0.198489 0.198489
0.202884 0.202884 0.202884
0.207523 0.207523 0.207523
0.212421 0.212421 0.212421
0.217411 0.217411 0.217411
0.222766 0.222766 0.222766
0.228199 0.228199 0.228199
0.233845 0.233845 0.233845
0.239673 0.239673 0.239673
0.245731 0.245731 0.245731
0.251804 0.251804 0.251804
0.257862 0.257862 0.257862
0.263935 0.263935 0.263935
0.270039 0.270039 0.270039
0.27628 0.27628 0.27628
0.282475 0.282475 0.282475
0.288701 0.288701 0.288701
0.294942 0.294942 0.294942
0.301198 0.301198 0.301198
0.307561 0.307561 0.307561
0.314 0.314 0.314
0.320409 0.320409 0.320409
0.326848 0.326848 0.326848
0.333303 0.333303 0.333303
0.339803 0.339803 0.339803
0.346517 0.346517 0.346517
0.353124 0.353124 0.353124
0.359777 0.359777 0.359777
0.36643 0.36643 0.36643
0.373129 0.373129 0.373129
0.379843 0.379843 0.379843
0.386694 0.386694 0.386694
0.393515 0.393515 0.393515
0.217899 0.217899 0.217899
0.222507 0.222507 0.222507
0.227176 0.227176 0.227176
0.232059 0.232059 0.232059
0.237293 0.237293 0.237293
0.242573 0.242573 0.242573
0.248081 0.248081 0.248081
0.253895 0.253895 0.253895
0.259922 0.259922 0.259922
0.266011 0.266011 0.266011
0.272129 0.272129 0.272129
0.278279 0.278279 0.278279
0.284581 0.284581 0.284581
0.290837 0.290837 0.290837
0.297093 0.297093 0.297093
0.30338 0.30338 0.30338
0.309697 0.309697 0.309697
0.316091 0.316091 0.316091
0.322652 0.322652 0.322652
0.329107 0.329107 0.329107
0.335576 0.335576 0.335576
0.342092 0.342092 0.342092
0.348669 0.348669 0.348669
0.355306 0.355306 0.355306
0.362112 0.362112 0.362112
0.36878 0.36878 0.36878
0.375494 0.375494 0.375494
0.382223 0.382223 0.382223
0.388968 0.388968 0.388968
0.395743 0.395743 0.395743
0.402533 0.402533 0.402533
0.409522 0.409522 0.409522
0.416358 0.416358 0.416358
0.237705 0.237705 0.237705
0.242283 0.242283 0.242283
0.247028 0.247028 0.247028
0.25214 0.25214 0.25214
0.257313 0.257313 0.257313
0.262715 0.262715 0.262715
0.268437 0.268437 0.268437
0.274296 0.274296 0.274296
0.280339 0.280339 0.280339
0.286549 0.286549 0.286549
0.292805 0.292805 0.292805
0.299229 0.299229 0.299229
0.305531 0.305531 0.305531
0.311879 0.311879 0.311879
0.318273 0.318273 0.318273
0.324697 0.324697 0.324697
0.331182 0.331182 0.331182
0.337819 0.337819 0.337819
0.344366 0.344366 0.344366
0.350973 0.350973 0.350973
0.35761 0.35761 0.35761
0.364279 0.364279 0.364279
0.370962 0.370962 0.370962
0.377829 0.377829 0.377829
0.384573 0.384573 0.384573
0.391333 0.391333 0.391333
0.398123 0.398123 0.398123
0.404929 0.404929 0.404929
0.411749 0.411749 0.411749
0.418631 0.418631 0.418631
0.425635 0.425635 0.425635
0.432517 0.432517 0.432517
0.439429 0.439429 0.439429
0.257786 0.257786 0.257786
0.262409 0.262409 0.262409
0.267399 0.267399 0.267399
0.272435 0.272435 0.272435
0.277699 0.277699 0.277699
0.28333 0.28333 0.28333
0.289052 0.289052 0.289052
0.295018 0.295018 0.295018
0.301183 0.301183 0.301183
0.3075 0.3075 0.3075
0.314031 0.314031 0.314031
0.320455 0.320455 0.320455
0.326909 0.326909 0.326909
0.333379 0.333379 0.333379
0.339895 0.339895 0.339895
0.346609 0.346609 0.346609
0.353246 0.353246 0.353246
0.359899 0.359899 0.359899
0.366583 0.366583 0.366583
0.373281 0.373281 0.373281
0.379995 0.379995 0.379995
0.38677 0.38677 0.38677
0.393698 0.393698 0.393698
0.400473 0.400473 0.400473
0.407294 0.407294 0.407294
0.41413 0.41413 0.41413
0.420996 0.420996 0.420996
0.427878 0.427878 0.427878
0.43476 0.43476 0.43476
0.441855 0.441855 0.441855
0.448798 0.448798 0.448798
0.455756 0.455756 0.455756
0.46273 0.46273 0.46273
0.278172 0.278172 0.278172
0.283024 0.283024 0.283024
0.287968 0.287968 0.287968
0.293111 0.293111 0.293111
0.298634 0.298634 0.298634
0.304219 0.304219 0.304219
0.310048 0.310048 0.310048
0.316121 0.316121 0.316121
0.322576 0.322576 0.322576
0.329076 0.329076 0.329076
0.335576 0.335576 0.335576
0.342107 0.342107 0.342107
0.348714 0.348714 0.348714
0.355352 0.355352 0.355352
0.362097 0.362097 0.362097
0.368872 0.368872 0.368872
0.375586 0.375586 0.375586
0.38233 0.38233 0.38233
0.38909 0.38909 0.38909
0.395865 0.395865 0.395865
0.40267 0.40267 0.40267
0.409659 0.409659 0.409659
0.41651 0.41651 0.41651
0.423377 0.423377 0.423377
0.430274 0.430274 0.430274
0.437171 0.437171 0.437171
0.444099 0.444099 0.444099
0.451057 0.451057 0.451057
0.45803 0.45803 0.45803
0.465126 0.465126 0.465126
0.47219 0.47219 0.47219
0.47921 0.47921 0.47921
0.486259 0.486259 0.486259
0.299001 0.299001 0.299001
0.303899 0.303899 0.303899
0.308919 0.308919 0.308919
0.314321 0.314321 0.314321
0.319829 0.319829 0.319829
0.325567 0.325567 0.325567
0.331518 0.331518 0.331518
0.337789 0.337789 0.337789
0.34432 0.34432 0.34432
0.350927 0.350927 0.350927
0.357595 0.357595 0.357595
0.364279 0.364279 0.364279
0.370977 0.370977 0.370977
0.377874 0.377874 0.377874
0.384619 0.384619 0.384619
0.391394 0.391394 0.391394
0.398184 0.398184 0.398184
0.405005 0.405005 0.405005
0.411841 0.411841 0.411841
0.418708 0.418708 0.418708
0.42565 0.42565 0.42565
0.432639 0.432639 0.432639
0.439567 0.439567 0.439567
0.44651 0.44651 0.44651
0.453468 0.453468 0.453468
0.460441 0.460441 0.460441
0.46743 0.46743 0.46743
0.474464 0.474464 0.474464
0.481559 0.481559 0.481559
0.488716 0.488716 0.488716
0.495796 0.495796 0.495796
0.502876 0.502876 0.502876
0.510002 0.510002 0.510002
0.320333 0.320333 0.320333
0.325246 0.325246 0.325246
0.330373 0.330373 0.330373
0.335882 0.335882 0.335882
0.341482 0.341482 0.341482
0.347326 0.347326 0.347326
0.353567 0.353567 0.353567
0.359945 0.359945 0.359945
0.366506 0.366506 0.366506
0.373236 0.373236 0.373236
0.37998 0.37998 0.37998
0.38674 0.38674 0.38674
0.393591 0.393591 0.393591
0.400504 0.400504 0.400504
0.40734 0.40734 0.40734
0.414191 0.414191 0.414191
0.421057 0.421057 0.421057
0.427939 0.427939 0.427939
0.434852 0.434852 0.434852
0.44184 0.44184 0.44184
0.44889 0.44889 0.44889
0.455863 0.455863 0.455863
0.462852 0.462852 0.462852
0.469856 0.469856 0.469856
0.47689 0.47689 0.47689
0.48394 0.48394 0.48394
0.491005 0.491005 0.491005
0.498085 0.498085 0.498085
0.505287 0.505287 0.505287
0.512474 0.512474 0.512474
0.519615 0.519615 0.519615
0.526772 0.526772 0.526772
0.533944 0.533944 0.533944
0.342 0.342 0.342
0.347005 0.347005 0.347005
0.352422 0.352422 0.352422
0.357916 0.357916 0.357916
0.363622 0.363622 0.363622
0.369574 0.369574 0.369574
0.375921 0.375921 0.375921
0.382345 0.382345 0.382345
0.389013 0.389013 0.389013
0.395819 0.395819 0.395819
0.402625 0.402625 0.402625
0.409567 0.409567 0.409567
0.41651 0.41651 0.41651
0.423392 0.423392 0.423392
0.430289 0.430289 0.430289
0.437201 0.437201 0.437201
0.444144 0.444144 0.444144
0.451118 0.451118 0.451118
0.458091 0.458091 0.458091
0.465095 0.465095 0.465095
0.472267 0.472267 0.472267
0.479301 0.479301 0.479301
0.486366 0.486366 0.486366
0.493446 0.493446 0.493446
0.500526 0.500526 0.500526
0.507637 0.507637 0.507637
0.514778 0.514778 0.514778
0.52192 0.52192 0.52192
0.529076 0.529076 0.529076
0.536446 0.536446 0.536446
0.543648 0.543648 0.543648
0.550866 0.550866 0.550866
0.558099 0.558099 0.558099
0.364141 0.364141 0.364141
0.369238 0.369238 0.369238
0.374731 0.374731 0.374731
0.380285 0.380285 0.380285
0.386084 0.386084 0.386084
0.392264 0.392264 0.392264
0.39852 0.39852 0.39852
0.40502 0.40502 0.40502
0.411749 0.411749 0.411749
0.418631 0.418631 0.418631
0.425528 0.425528 0.425528
0.432532 0.432532 0.432532
0.439536 0.439536 0.439536
0.446494 0.446494 0.446494
0.453468 0.453468 0.453468
0.460456 0.460456 0.460456
0.467475 0.467475 0.467475
0.474495 0.474495 0.474495
0.481544 0.481544 0.481544
0.48867 0.48867 0.48867
0.495857 0.495857 0.495857
0.502953 0.502953 0.502953
0.510079 0.510079 0.510079
0.517235 0.517235 0.517235
0.524376 0.524376 0.524376
0.531548 0.531548 0.531548
0.53875 0.53875 0.53875
0.545968 0.545968 0.545968
0.553185 0.553185 0.553185
0.560433 0.560433 0.560433
0.567864 0.567864 0.567864
0.575143 0.575143 0.575143
0.582437 0.582437 0.582437
0.386603 0.386603 0.386603
0.391928 0.391928 0.391928
0.397314 0.397314 0.397314
0.40293 0.40293 0.40293
0.408911 0.408911 0.408911
0.415045 0.415045 0.415045
0.421378 0.421378 0.421378
0.427939 0.427939 0.427939
0.434745 0.434745 0.434745
0.441688 0.441688 0.441688
0.448737 0.448737 0.448737
0.455817 0.455817 0.455817
0.462821 0.462821 0.462821
0.469841 0.469841 0.469841
0.476875 0.476875 0.476875
0.48394 0.48394 0.48394
0.49102 0.49102 0.49102
0.498116 0.498116 0.498116
0.505226 0.505226 0.505226
0.512444 0.512444 0.512444
0.519661 0.519661 0.519661
0.526833 0.526833 0.526833
0.53402 0.53402 0.53402
0.541222 0.541222 0.541222
0.54844 0.54844 0.54844
0.555673 0.555673 0.555673
0.562936 0.562936 0.562936
0.570199 0.570199 0.570199
0.577493 0.577493 0.577493
0.584787 0.584787 0.584787
0.592111 0.592111 0.592111
0.599603 0.599603 0.599603
0.606973 0.606973 0.606973
0.409323 0.409323 0.409323
0.41471 0.41471 0.41471
0.420157 0.420157 0.420157
0.425849 0.425849 0.425849
0.431861 0.431861 0.431861
0.438071 0.438071 0.438071
0.444465 0.444465 0.444465
0.451102 0.451102 0.451102
0.457969 0.457969 0.457969
0.464988 0.464988 0.464988
0.47219 0.47219 0.47219
0.47924 0.47924 0.47924
0.48632 0.48632 0.48632
0.493416 0.493416 0.493416
0.500511 0.500511 0.500511
0.507637 0.507637 0.507637
0.514778 0.514778 0.514778
0.52195 0.52195 0.52195
0.529107 0.529107 0.529107
0.5364 0.5364 0.5364
0.543694 0.543694 0.543694
0.550912 0.550912 0.550912
0.55816 0.55816 0.55816
0.565423 0.565423 0.565423
0.572702 0.572702 0.572702
0.579995 0.579995 0.579995
0.587304 0.587304 0.587304
0.594629 0.594629 0.594629
0.601968 0.601968 0.601968
0.609339 0.609339 0.609339
0.616709 0.616709 0.616709
0.624094 0.624094 0.624094
0.631632 0.631632 0.631632
0.432288 0.432288 0.432288
0.43772 0.43772 0.43772
0.443229 0.443229 0.443229
0.448966 0.448966 0.448966
0.455116 0.455116 0.455116
0.461326 0.461326 0.461326
0.467781 0.467781 0.467781
0.474479 0.474479 0.474479
0.481422 0.481422 0.481422
0.488502 0.488502 0.488502
0.495659 0.495659 0.495659
0.502876 0.502876 0.502876
0.510033 0.510033 0.510033
0.517189 0.517189 0.517189
0.524346 0.524346 0.524346
0.531533 0.531533 0.531533
0.53875 0.53875 0.53875
0.545968 0.545968 0.545968
0.553201 0.553201 0.553201
0.560464 0.560464 0.560464
0.567849 0.567849 0.567849
0.575189 0.575189 0.575189
0.582498 0.582498 0.582498
0.589807 0.589807 0.589807
0.597147 0.597147 0.597147
0.604486 0.604486 0.604486
0.611856 0.611856 0.611856
0.619242 0.619242 0.619242
0.626642 0.626642 0.626642
0.634043 0.634043 0.634043
0.641474 0.641474 0.641474
0.648905 0.648905 0.648905
0.656367 0.656367 0.656367
0.455558 0.455558 0.455558
0.460975 0.460975 0.460975
0.466529 0.466529 0.466529
0.472343 0.472343 0.472343
0.478538 0.478538 0.478538
0.48481 0.48481 0.48481
0.491325 0.491325 0.491325
0.498085 0.498085 0.498085
0.505089 0.505089 0.505089
0.512245 0.512245 0.512245
0.519478 0.519478 0.519478
0.526757 0.526757 0.526757
0.533959 0.533959 0.533959
0.541176 0.541176 0.541176
0.548409 0.548409 0.548409
0.555657 0.555657 0.555657
0.562921 0.562921 0.562921
0.570199 0.570199 0.570199
0.577508 0.577508 0.577508
0.584817 0.584817 0.584817
0.592126 0.592126 0.592126
0.599573 0.599573 0.599573
0.607004 0.607004 0.607004
0.614389 0.614389 0.614389
0.621775 0.621775 0.621775
0.629175 0.629175 0.629175
0.636591 0.636591 0.636591
0.644022 0.644022 0.644022
0.651469 0.651469 0.651469
0.65893 0.65893 0.65893
0.666407 0.666407 0.666407
0.673899 0.673899 0.673899
0.681407 0.681407 0.681407
0.479057 0.479057 0.479057
0.484443 0.484443 0.484443
0.490059 0.490059 0.490059
0.495918 0.495918 0.495918
0.502174 0.502174 0.502174
0.508507 0.508507 0.508507
0.515084 0.515084 0.515084
0.521904 0.521904 0.521904
0.528969 0.528969 0.528969
0.536187 0.536187 0.536187
0.543465 0.543465 0.543465
0.55079 0.55079 0.55079
0.558083 0.558083 0.558083
0.565362 0.565362 0.565362
0.572656 0.572656 0.572656
0.579965 0.579965 0.579965
0.587289 0.587289 0.587289
0.594614 0.594614 0.594614
0.601968 0.601968 0.601968
0.609339 0.609339 0.609339
0.616724 0.616724 0.616724
0.624125 0.624125 0.624125
0.63154 0.63154 0.63154
0.639017 0.639017 0.639017
0.64651 0.64651 0.64651
0.654002 0.654002 0.654002
0.661479 0.661479 0.661479
0.668971 0.668971 0.668971
0.676463 0.676463 0.676463
0.68397 0.68397 0.68397
0.691493 0.691493 0.691493
0.699031 0.699031 0.699031
0.706584 0.706584 0.706584
0.502708 0.502708 0.502708
0.508125 0.508125 0.508125
0.513802 0.513802 0.513802
0.519707 0.519707 0.519707
0.526024 0.526024 0.526024
0.532403 0.532403 0.532403
0.53904 0.53904 0.53904
0.545922 0.545922 0.545922
0.553048 0.553048 0.553048
0.560327 0.560327 0.560327
0.56762 0.56762 0.56762
0.57499 0.57499 0.57499
0.582376 0.582376 0.582376
0.589731 0.589731 0.589731
0.597086 0.597086 0.597086
0.604456 0.604456 0.604456
0.611826 0.611826 0.611826
0.619211 0.619211 0.619211
0.626627 0.626627 0.626627
0.634043 0.634043 0.634043
0.641474 0.641474 0.641474
0.648936 0.648936 0.648936
0.656382 0.656382 0.656382
0.663859 0.663859 0.663859
0.671351 0.671351 0.671351
0.678859 0.678859 0.678859
0.686366 0.686366 0.686366
0.694072 0.694072 0.694072
0.70161 0.70161 0.70161
0.709163 0.709163 0.709163
