bundles/resolve-cinematic-luts/Lens Distortions - Finishing LUTs/LD - Canyon Red 3.cube
TITLE "LD - Canyon Red 3"
# Copyright (c) Lens Distortions, LLC. All Rights Reserved.
# LensDistortions.com
# ref-CR2
LUT_3D_SIZE 5
0.0233463 0.0236515 0.024033
0.210986 0.0575723 0.0325475
0.49987 0.138781 0.045243
0.837949 0.217868 0.0589914
0.939986 0.239658 0.0625467
0.13019 0.19408 0.184146
0.250675 0.186038 0.0441444
0.496971 0.220356 0.0319677
0.813855 0.28217 0.0346685
0.93846 0.307851 0.0395514
0.282185 0.427359 0.409842
0.398276 0.406928 0.246784
0.551202 0.40708 0.065156
0.787427 0.452232 0.0641337
0.954604 0.473381 0.0610513
0.406516 0.632136 0.612589
0.543496 0.607828 0.460563
0.657053 0.627298 0.34902
0.856825 0.630732 0.257038
0.989334 0.678599 0.335973
0.513817 0.775113 0.760586
0.644007 0.771588 0.63566
0.784466 0.786557 0.554437
0.902647 0.840375 0.591073
0.992981 0.885054 0.70692
0.0363775 0.0359655 0.0832074
0.228168 0.0511025 0.134051
0.497841 0.106203 0.0994736
0.828534 0.193423 0.103212
0.940383 0.224704 0.105837
0.134478 0.20734 0.244099
0.225574 0.210605 0.197559
0.462181 0.238102 0.165743
0.77026 0.300145 0.163424
0.932418 0.323247 0.156939
0.277974 0.433021 0.446708
0.333318 0.419272 0.415366
0.535073 0.410727 0.233494
0.769268 0.450309 0.215167
0.946471 0.479271 0.242802
0.409018 0.634791 0.643122
0.459266 0.623774 0.615396
0.641276 0.637247 0.462257
0.820035 0.650294 0.405707
0.956176 0.69366 0.437446
0.522393 0.778332 0.788449
0.587106 0.782132 0.770077
0.77789 0.796719 0.644938
0.8907 0.859663 0.691783
0.976883 0.894759 0.762951
0.121935 0.122225 0.292775
0.248295 0.182254 0.359686
0.522377 0.142672 0.371023
0.84715 0.12076 0.280339
0.957321 0.164706 0.26305
0.171374 0.248859 0.442985
0.240681 0.254231 0.373907
0.501167 0.258991 0.382971
0.808347 0.293828 0.326146
0.944167 0.320943 0.3187
0.295598 0.450919 0.544472
0.350408 0.443809 0.517037
0.485664 0.464302 0.456886
0.732631 0.4813 0.432349
0.920714 0.515267 0.445182
0.421088 0.642725 0.71165
0.469276 0.631617 0.676234
0.583474 0.657679 0.647349
0.78265 0.682567 0.560388
0.911574 0.7028 0.557992
0.538613 0.784543 0.851911
0.603708 0.790494 0.822263
0.708324 0.823621 0.819776
0.884199 0.876722 0.783673
0.961517 0.906859 0.823957
0.211887 0.213642 0.501122
0.312123 0.257801 0.545434
0.50985 0.291478 0.604562
0.871641 0.191867 0.518044
0.985931 0.163241 0.46772
0.239582 0.299443 0.611444
0.300069 0.313024 0.548806
0.472908 0.351736 0.579248
0.834302 0.309712 0.531838
0.974289 0.305623 0.488472
0.279179 0.477287 0.727611
0.3514 0.488334 0.696742
0.495415 0.497459 0.620279
0.774578 0.502693 0.589075
0.950408 0.53695 0.580026
0.434806 0.662409 0.8094
0.491447 0.659785 0.770901
0.60592 0.678538 0.724117
0.765164 0.72668 0.712779
0.916274 0.757717 0.729137
0.553826 0.79794 0.898177
0.619043 0.801862 0.870298
0.724865 0.831479 0.861753
0.874693 0.891783 0.868696
0.961059 0.938415 0.904845
0.260914 0.263722 0.63122
0.349493 0.299519 0.664851
0.513176 0.350469 0.693431
0.861082 0.2795 0.714534
0.995483 0.244678 0.644572
0.282353 0.336797 0.734081
0.352865 0.352651 0.706813
0.494957 0.387243 0.684276
0.809201 0.371984 0.725475
0.978393 0.35433 0.641123
0.300359 0.495628 0.85359
0.384924 0.506203 0.832456
0.520806 0.51281 0.736187
0.748867 0.523171 0.748623
0.959838 0.548135 0.685039
0.436088 0.681636 0.918593
0.506722 0.693797 0.89015
0.626108 0.721111 0.851316
0.77435 0.752758 0.814481
0.936324 0.782483 0.815351
0.571023 0.815106 0.96144
0.654643 0.826261 0.928176
0.760906 0.854917 0.909957
0.881712 0.908858 0.92372
0.96611 0.966094 0.966278
