bundles/resolve-cinematic-luts/Lens Distortions - Finishing LUTs/LD - Velvet B&W 2.cube
TITLE "LD - Velvet 2"
# Copyright (c) Lens Distortions, LLC. All Rights Reserved.
# LensDistortions.com
# ref-VBW2
LUT_3D_SIZE 5
0.0314641 0.0314641 0.0314641
0.0535286 0.0535286 0.0535286
0.0846876 0.0846876 0.0846876
0.122118 0.122118 0.122118
0.16556 0.16556 0.16556
0.123903 0.123903 0.123903
0.162158 0.162158 0.162158
0.208118 0.208118 0.208118
0.255604 0.255604 0.255604
0.30518 0.30518 0.30518
0.278172 0.278172 0.278172
0.322576 0.322576 0.322576
0.375586 0.375586 0.375586
0.430274 0.430274 0.430274
0.486259 0.486259 0.486259
0.455558 0.455558 0.455558
0.505089 0.505089 0.505089
0.562921 0.562921 0.562921
0.621775 0.621775 0.621775
0.681407 0.681407 0.681407
0.648615 0.648615 0.648615
0.701244 0.701244 0.701244
0.762264 0.762264 0.762264
0.821134 0.821134 0.821134
0.876661 0.876661 0.876661
0.0404974 0.0404974 0.0404974
0.0644999 0.0644999 0.0644999
0.0979019 0.0979019 0.0979019
0.137652 0.137652 0.137652
0.18233 0.18233 0.18233
0.139666 0.139666 0.139666
0.178958 0.178958 0.178958
0.225391 0.225391 0.225391
0.273396 0.273396 0.273396
0.323659 0.323659 0.323659
0.2963 0.2963 0.2963
0.341283 0.341283 0.341283
0.394995 0.394995 0.394995
0.450095 0.450095 0.450095
0.506462 0.506462 0.506462
0.475532 0.475532 0.475532
0.525429 0.525429 0.525429
0.583597 0.583597 0.583597
0.642649 0.642649 0.642649
0.702663 0.702663 0.702663
0.669749 0.669749 0.669749
0.722591 0.722591 0.722591
0.783169 0.783169 0.783169
0.841016 0.841016 0.841016
0.895338 0.895338 0.895338
0.052369 0.052369 0.052369
0.0787366 0.0787366 0.0787366
0.114809 0.114809 0.114809
0.157076 0.157076 0.157076
0.202411 0.202411 0.202411
0.159197 0.159197 0.159197
0.199023 0.199023 0.199023
0.246036 0.246036 0.246036
0.294713 0.294713 0.294713
0.345815 0.345815 0.345815
0.317983 0.317983 0.317983
0.363714 0.363714 0.363714
0.418036 0.418036 0.418036
0.473503 0.473503 0.473503
0.530312 0.530312 0.530312
0.49929 0.49929 0.49929
0.549584 0.549584 0.549584
0.607965 0.607965 0.607965
0.667475 0.667475 0.667475
0.727672 0.727672 0.727672
0.694606 0.694606 0.694606
0.747784 0.747784 0.747784
0.807492 0.807492 0.807492
0.863798 0.863798 0.863798
0.916625 0.916625 0.916625
0.0657359 0.0657359 0.0657359
0.0945144 0.0945144 0.0945144
0.133379 0.133379 0.133379
0.177462 0.177462 0.177462
0.223331 0.223331 0.223331
0.179599 0.179599 0.179599
0.219913 0.219913 0.219913
0.267475 0.267475 0.267475
0.316945 0.316945 0.316945
0.368826 0.368826 0.368826
0.340673 0.340673 0.340673
0.387121 0.387121 0.387121
0.441855 0.441855 0.441855
0.497871 0.497871 0.497871
0.555093 0.555093 0.555093
0.523873 0.523873 0.523873
0.57435 0.57435 0.57435
0.633265 0.633265 0.633265
0.692927 0.692927 0.692927
0.753567 0.753567 0.753567
0.720378 0.720378 0.720378
0.773404 0.773404 0.773404
0.831662 0.831662 0.831662
0.886503 0.886503 0.886503
0.937789 0.937789 0.937789
0.080705 0.080705 0.080705
0.111788 0.111788 0.111788
0.153475 0.153475 0.153475
0.198352 0.198352 0.198352
0.244785 0.244785 0.244785
0.200519 0.200519 0.200519
0.241306 0.241306 0.241306
0.289433 0.289433 0.289433
0.339788 0.339788 0.339788
0.392508 0.392508 0.392508
0.363943 0.363943 0.363943
0.411048 0.411048 0.411048
0.46627 0.46627 0.46627
0.522713 0.522713 0.522713
0.580179 0.580179 0.580179
0.548745 0.548745 0.548745
0.599741 0.599741 0.599741
0.658839 0.658839 0.658839
0.718975 0.718975 0.718975
0.779293 0.779293 0.779293
0.746395 0.746395 0.746395
0.798688 0.798688 0.798688
0.855497 0.855497 0.855497
0.908843 0.908843 0.908843
0.958526 0.958526 0.958526
