bundles/resolve-cinematic-luts/Lens Distortions - Finishing LUTs/LD - Canyon Red 3.cube
TITLE "LD - Canyon Red 3"
# Copyright (c) Lens Distortions, LLC. All Rights Reserved.
# LensDistortions.com
# ref-CR2
LUT_3D_SIZE 33
0.0233463 0.0236515 0.024033
0.035996 0.0248875 0.0237583
0.0509804 0.0269169 0.0243229
0.0691081 0.029633 0.0252842
0.0913252 0.0330968 0.0265202
0.117159 0.0375372 0.027863
0.146197 0.0431373 0.0293889
0.177768 0.0498512 0.0309758
0.210986 0.0575723 0.0325475
0.246235 0.0664683 0.0341344
0.286168 0.0773938 0.0359503
0.32639 0.0893568 0.0377813
0.36527 0.10074 0.0394751
0.402564 0.111543 0.0411231
0.436027 0.121111 0.0425879
0.467765 0.129976 0.0439155
0.49987 0.138781 0.045243
0.530404 0.146914 0.0464485
0.565682 0.156054 0.0478981
0.609735 0.167025 0.0497597
0.656901 0.178286 0.0517433
0.703838 0.188952 0.0536965
0.750683 0.199084 0.0556039
0.795758 0.20856 0.0574655
0.837949 0.217868 0.0589914
0.877485 0.226688 0.0604105
0.914733 0.235096 0.0617685
0.920745 0.236774 0.0615702
0.925139 0.237415 0.0617685
0.929458 0.238056 0.0619974
0.933669 0.238666 0.062211
0.937331 0.239216 0.0624247
0.939986 0.239658 0.0625467
0.0253605 0.0269017 0.0268254
0.0401312 0.0282292 0.0251316
0.0536507 0.0295872 0.0251316
0.0721904 0.0321813 0.0258183
0.0944991 0.0354772 0.0267338
0.121355 0.0401007 0.027985
0.150408 0.0456855 0.0293431
0.182254 0.0524605 0.0307622
0.214817 0.060029 0.0321202
0.250263 0.068986 0.0335699
0.289662 0.0797894 0.0352331
0.328161 0.0911879 0.0368811
0.366827 0.102403 0.038529
0.403189 0.112886 0.0401312
0.436591 0.122332 0.0415656
0.468132 0.131136 0.0428473
0.499962 0.140063 0.0440833
0.530419 0.148928 0.0449836
0.565591 0.158755 0.0460975
0.609293 0.170138 0.047715
0.65658 0.181949 0.0494545
0.703166 0.193011 0.051133
0.749752 0.203586 0.052781
0.794385 0.213428 0.0543221
0.836606 0.222751 0.0558175
0.875929 0.231495 0.0572366
0.912657 0.239658 0.0586252
0.920394 0.241871 0.0584421
0.924758 0.242435 0.0586862
0.929046 0.24303 0.0589456
0.933242 0.243595 0.0591897
0.936965 0.244175 0.0593881
0.939605 0.244526 0.059556
0.0307927 0.0307927 0.0272679
0.0444495 0.0321965 0.0266728
0.0588998 0.033341 0.0265812
0.0751354 0.0350347 0.0264134
0.0990311 0.0383764 0.0270848
0.125399 0.0427863 0.0280613
0.15433 0.0483253 0.0292058
0.185458 0.0549477 0.0304265
0.217502 0.0624247 0.031632
0.252827 0.0716411 0.0329137
0.290806 0.0832227 0.0341039
0.329137 0.0955367 0.0353399
0.366781 0.107225 0.0366064
0.403082 0.118318 0.0377966
0.436698 0.128557 0.0388495
0.467887 0.137881 0.0398108
0.499748 0.147127 0.0408179
0.530221 0.155718 0.0417945
0.565118 0.16527 0.0429084
0.608743 0.17644 0.0444953
0.655421 0.187823 0.0462196
0.701686 0.198672 0.0478828
0.747982 0.208972 0.0495613
0.792813 0.218738 0.0511177
0.834623 0.227817 0.0526741
0.873915 0.236362 0.054139
0.909972 0.244282 0.0555276
0.919951 0.247105 0.055375
0.924376 0.247715 0.0556191
0.928649 0.248264 0.0559091
0.932815 0.248844 0.0561532
0.936584 0.249363 0.0563821
0.939208 0.249729 0.0565499
0.0382849 0.0387884 0.0311284
0.0504768 0.041062 0.0300145
0.0654002 0.043534 0.0291142
0.0816815 0.0449989 0.0284123
0.103624 0.0467536 0.0279393
0.130159 0.0513771 0.0280766
0.159319 0.0579843 0.0286107
0.189853 0.0658732 0.029221
0.220203 0.0739147 0.0299077
0.254231 0.0838483 0.0307317
0.291218 0.0946517 0.0317082
0.32903 0.105806 0.0328069
0.365499 0.116442 0.0339513
0.401617 0.126833 0.0350652
0.436118 0.136767 0.0361334
0.467109 0.145632 0.0370184
0.499397 0.154513 0.037995
0.5299 0.162829 0.03888
0.564279 0.171878 0.0399329
0.607172 0.182681 0.0413977
0.653651 0.19382 0.043122
0.699825 0.204471 0.04477
0.745892 0.214694 0.0463874
0.790372 0.224292 0.0479591
0.832074 0.233402 0.0493782
0.870985 0.241886 0.0507515
0.907607 0.250004 0.0520943
0.919448 0.253162 0.0521096
0.924041 0.253925 0.0522927
0.928298 0.254505 0.0525521
0.932418 0.254963 0.052842
0.936248 0.255421 0.0531319
0.938842 0.255787 0.0532998
0.0528878 0.0650187 0.0525063
0.0662242 0.0657664 0.0411994
0.0806287 0.0679637 0.0370031
0.0967575 0.0695201 0.0349584
0.112505 0.0724346 0.0320287
0.135653 0.075349 0.0308537
0.164065 0.0788891 0.0299992
0.193591 0.0835431 0.0296635
0.22295 0.0899977 0.0295109
0.255482 0.0978866 0.0297246
0.290517 0.106691 0.0302739
0.327062 0.116411 0.0310674
0.364614 0.126558 0.0320439
0.400626 0.136278 0.0330053
0.435035 0.145708 0.0339361
0.46656 0.15436 0.0347753
0.498192 0.162905 0.0355993
0.528771 0.171145 0.0363775
0.562646 0.179828 0.0373236
0.605005 0.190249 0.0385748
0.651316 0.201144 0.0399786
0.697353 0.211551 0.0414588
0.74316 0.221592 0.0429236
0.78732 0.231067 0.0443885
0.82919 0.240085 0.0457771
0.86836 0.2486 0.0471046
0.904524 0.256596 0.0483711
0.91899 0.260349 0.0485084
0.923812 0.261341 0.0486152
0.928008 0.261814 0.0489052
0.932097 0.262287 0.0491951
0.935927 0.262699 0.049485
0.938491 0.263035 0.0496681
0.0709392 0.0952621 0.0832837
0.0902419 0.0939345 0.0580606
0.098497 0.0968795 0.0533913
0.110796 0.0995041 0.0459449
0.129946 0.0997177 0.0400549
0.148058 0.100694 0.0355383
0.168734 0.10605 0.033875
0.195636 0.108751 0.0324407
0.225025 0.112383 0.0313268
0.256458 0.116228 0.0306249
0.291325 0.122484 0.0303044
0.326909 0.130449 0.0304265
0.363439 0.139223 0.0308843
0.399435 0.148135 0.0315251
0.434012 0.157031 0.0321965
0.465492 0.16527 0.0328527
0.497169 0.173419 0.0335851
0.527428 0.181308 0.034165
0.560723 0.189609 0.0349126
0.602304 0.199527 0.0360418
0.648325 0.210132 0.0372931
0.69369 0.220157 0.0385443
0.739666 0.23006 0.0397955
0.7841 0.239322 0.0410163
0.826032 0.24828 0.0421149
0.865095 0.256596 0.0432593
0.901549 0.264576 0.0444038
0.918715 0.26894 0.0446326
0.923705 0.270115 0.0446937
0.927871 0.270573 0.0449989
0.931914 0.270985 0.0453193
0.935744 0.271321 0.0456397
0.938262 0.271626 0.0458381
0.0911421 0.129229 0.118532
0.108858 0.127749 0.097322
0.123781 0.126802 0.0736706
0.130404 0.128588 0.0681468
0.142824 0.130541 0.0567636
0.162554 0.130343 0.0455634
0.18262 0.128878 0.0386358
0.202762 0.132631 0.0356603
0.225559 0.139025 0.0358587
0.256809 0.141451 0.0337377
0.291783 0.144976 0.0322881
0.32781 0.149355 0.0314336
0.363928 0.155657 0.0309758
0.399588 0.163394 0.0309453
0.433783 0.171176 0.0311894
0.464591 0.178622 0.0314946
0.496162 0.186282 0.0319829
0.526345 0.193713 0.0323949
0.558663 0.201373 0.032929
0.599207 0.210712 0.0337835
0.644526 0.220798 0.0348211
0.69012 0.230564 0.0359503
0.735454 0.240085 0.0370336
0.780072 0.249241 0.0380865
0.82211 0.258045 0.0390936
0.861158 0.266239 0.0400244
0.897612 0.274067 0.04094
0.918578 0.278996 0.0411841
0.923812 0.280537 0.0409705
0.927901 0.280873 0.0412299
0.931899 0.281254 0.0415198
0.935714 0.281559 0.041825
0.938201 0.281849 0.0420081
0.110399 0.162005 0.152026
0.12665 0.161028 0.131502
0.147463 0.157427 0.104662
0.154711 0.157305 0.0904097
0.162203 0.158785 0.0820478
0.175357 0.16083 0.0671702
0.195102 0.160037 0.0519875
0.216556 0.157214 0.0411383
0.236789 0.159899 0.0384222
0.259648 0.166598 0.0374762
0.291707 0.171893 0.0366979
0.327794 0.174838 0.0344091
0.364309 0.178653 0.0329442
0.40032 0.182971 0.0320134
0.434424 0.188571 0.0314794
0.46537 0.195178 0.03122
0.495918 0.201694 0.03122
0.525383 0.208209 0.0313268
0.556832 0.21532 0.0315404
0.596368 0.223941 0.0320287
0.641154 0.23331 0.0327764
0.686442 0.242786 0.0336156
0.731579 0.251926 0.0345006
0.775937 0.260746 0.0354467
0.818006 0.269215 0.0363012
0.857069 0.277241 0.0372168
0.893324 0.284947 0.0380865
0.918685 0.290654 0.0385138
0.924117 0.292607 0.0382544
0.92813 0.29279 0.0384985
0.932052 0.293172 0.0387274
0.935851 0.293446 0.0389868
0.938277 0.293721 0.0391699
0.13019 0.19408 0.184146
0.148302 0.191882 0.166552
0.164645 0.189609 0.145037
0.179843 0.186297 0.114611
0.185489 0.186892 0.105592
0.194263 0.188464 0.0955673
0.208072 0.191379 0.0787823
0.228 0.190433 0.0600595
0.250675 0.186038 0.0441444
0.271641 0.188067 0.0422065
0.297475 0.194415 0.03888
0.327291 0.202792 0.0402075
0.363851 0.205509 0.0371405
0.400137 0.208713 0.0349889
0.434516 0.212512 0.0336156
0.465888 0.216297 0.0326696
0.496971 0.220356 0.0319677
0.526299 0.22591 0.0315404
0.556832 0.232059 0.0312657
0.594568 0.23946 0.0311894
0.638346 0.247929 0.0314336
0.683253 0.256886 0.0319066
0.727703 0.265293 0.0325322
0.772168 0.273838 0.0331884
0.813855 0.28217 0.0346685
0.852857 0.290272 0.0361486
0.889006 0.298054 0.0375677
0.919005 0.30457 0.0387884
0.92459 0.307027 0.0390936
0.928512 0.307149 0.0392157
0.932357 0.307469 0.039353
0.93611 0.307729 0.0394751
0.93846 0.307851 0.0395514
0.149554 0.225711 0.215656
0.168673 0.22359 0.200137
0.179309 0.222995 0.176761
0.200244 0.2177 0.154147
0.210422 0.215869 0.130175
0.21677 0.216587 0.120119
0.227283 0.219272 0.109697
0.241505 0.222644 0.0920882
0.260868 0.221027 0.0695659
0.285267 0.21529 0.0477302
0.309957 0.217304 0.0455329
0.336492 0.223011 0.04065
0.364431 0.23241 0.0426032
0.399664 0.236805 0.040589
0.434531 0.239414 0.0378119
0.466331 0.242435 0.035935
0.497078 0.245701 0.0345159
0.527016 0.24918 0.0334783
0.557183 0.252674 0.0326696
0.594461 0.257435 0.0319524
0.63769 0.265034 0.0314641
0.681498 0.272786 0.0313268
0.725322 0.280827 0.0324712
0.768612 0.289052 0.0339666
0.809873 0.296986 0.0354314
0.848615 0.304707 0.0368658
0.884627 0.312093 0.0382544
0.917937 0.319188 0.0396124
0.925505 0.322286 0.0400092
0.929335 0.322438 0.0401312
0.933074 0.322652 0.040238
0.936736 0.323049 0.0403754
0.939055 0.323232 0.0404517
0.168826 0.256275 0.245808
0.187793 0.254154 0.231525
0.200031 0.252735 0.212161
0.217136 0.248905 0.191424
0.235279 0.244343 0.153857
0.240726 0.24448 0.143877
0.248463 0.246647 0.135424
0.2598 0.249729 0.123949
0.274189 0.252705 0.104997
0.294224 0.250874 0.0789044
0.323018 0.244205 0.0504005
0.348409 0.245777 0.0474403
0.375525 0.251179 0.0427558
0.403052 0.259571 0.0432898
0.433921 0.267185 0.0446632
0.46627 0.269352 0.0414282
0.4972 0.271855 0.0389868
0.52726 0.274495 0.0370947
0.557244 0.277607 0.0356146
0.593286 0.281361 0.0343175
0.636759 0.285679 0.0331273
0.680797 0.290364 0.0322881
0.724239 0.298024 0.0334325
0.76701 0.305531 0.0348669
0.807553 0.313008 0.036286
0.845685 0.320363 0.0376898
0.880491 0.327214 0.0390173
0.912779 0.333944 0.0402991
0.926711 0.337911 0.04094
0.930678 0.338415 0.0410773
0.93431 0.33872 0.0412146
0.937865 0.33904 0.0413367
0.940154 0.339376 0.0414282
0.187991 0.285939 0.274784
0.206256 0.283909 0.261555
0.219821 0.28191 0.245197
0.231968 0.280171 0.221897
0.253117 0.274372 0.194888
0.264775 0.272175 0.167102
0.271168 0.273121 0.157366
0.27953 0.276188 0.150866
0.291997 0.2795 0.137224
0.306859 0.282017 0.116106
0.331121 0.279057 0.083711
0.361196 0.272251 0.0525826
0.387045 0.273793 0.0494392
0.414343 0.278889 0.0450904
0.440955 0.286275 0.0442054
0.466987 0.295476 0.0477607
0.496986 0.29897 0.0458076
0.527764 0.301091 0.0427863
0.557488 0.303487 0.0404517
0.592264 0.306218 0.0382696
0.635081 0.309911 0.0363165
0.67895 0.313954 0.0348211
0.722377 0.318486 0.0345617
0.765682 0.323735 0.0358892
0.806119 0.330144 0.0372473
0.843427 0.336904 0.0385901
0.878004 0.343618 0.0398871
0.909804 0.350027 0.0411536
0.928801 0.354589 0.0419623
0.932815 0.355413 0.0421302
0.936294 0.355795 0.0422522
0.939635 0.356054 0.0423743
0.941863 0.356451 0.0424506
0.206989 0.315038 0.303029
0.224369 0.312886 0.290455
0.238621 0.310918 0.275593
0.247684 0.310307 0.251545
0.269825 0.304234 0.230945
0.288533 0.299367 0.189517
0.294118 0.299626 0.179599
0.301701 0.301976 0.171191
0.310903 0.305501 0.164858
0.324254 0.308888 0.149508
0.34197 0.310948 0.121981
0.36936 0.306554 0.0864729
0.400031 0.299962 0.054551
0.426154 0.301503 0.051545
0.452491 0.305974 0.0477607
0.477485 0.312184 0.0454719
0.501183 0.319646 0.0473793
0.527504 0.328283 0.0509194
0.557183 0.330068 0.0474861
0.591028 0.332219 0.0442664
0.633402 0.335149 0.0412299
0.677043 0.33843 0.0389258
0.720317 0.342336 0.0372931
0.763043 0.346716 0.0371557
0.80322 0.351461 0.038407
0.840803 0.356466 0.0396429
0.875288 0.361578 0.0408637
0.906661 0.366873 0.0420386
0.931701 0.372412 0.0430762
0.935866 0.373617 0.0432593
0.939193 0.373907 0.0433814
0.942458 0.374273 0.0435035
0.944564 0.374517 0.0435798
0.226352 0.343923 0.330678
0.242802 0.341665 0.318807
0.256916 0.339467 0.304875
0.268009 0.337957 0.284566
0.284993 0.334081 0.261967
0.306615 0.327947 0.226642
0.317479 0.32639 0.201526
0.324193 0.328008 0.19292
0.332174 0.330892 0.185306
0.342779 0.334524 0.177111
0.358709 0.337972 0.157336
0.378668 0.3393 0.126085
0.408637 0.333333 0.0872358
0.438697 0.327062 0.0564889
0.464546 0.328618 0.0536049
0.489387 0.332631 0.0512398
0.512993 0.337835 0.0473793
0.536767 0.344503 0.0478218
0.560479 0.352544 0.0510414
0.589731 0.359045 0.0526741
0.631373 0.361349 0.0483558
0.674922 0.364096 0.0449226
0.717617 0.367269 0.0425269
0.760098 0.37084 0.0408026
0.800168 0.374868 0.0397192
0.836988 0.379507 0.0408789
0.870954 0.38407 0.0420386
0.90219 0.388937 0.043183
0.930678 0.393973 0.0442969
0.938445 0.395743 0.0446174
0.941756 0.39585 0.0447242
0.944976 0.396017 0.044831
0.947127 0.396353 0.0449226
0.244877 0.37171 0.357214
0.260578 0.369787 0.346166
0.274723 0.367468 0.332692
0.286778 0.36556 0.314778
0.298711 0.363684 0.288853
0.323003 0.356497 0.262669
0.34049 0.352667 0.222721
0.346517 0.353689 0.213931
0.353841 0.355978 0.205997
0.362707 0.359457 0.199359
0.376516 0.363272 0.18558
0.394217 0.36643 0.161883
0.41677 0.365927 0.128939
0.448325 0.359167 0.0863813
0.477607 0.353933 0.0585336
0.501839 0.355276 0.0557107
0.524941 0.358724 0.0557565
0.548867 0.363272 0.0501869
0.57116 0.368826 0.0491188
0.595834 0.376226 0.0512856
0.629099 0.387747 0.057557
0.672267 0.390188 0.0531777
0.714702 0.39292 0.0497292
0.756634 0.396124 0.0472877
0.796185 0.399619 0.045655
0.8327 0.403326 0.0446326
0.866392 0.407553 0.0441444
0.897276 0.412085 0.0443732
0.925338 0.416571 0.0454414
0.940963 0.419501 0.046067
0.944228 0.419776 0.0461738
0.947417 0.420157 0.0462959
0.949493 0.420462 0.0465248
0.263508 0.399573 0.383658
0.278538 0.397726 0.373007
0.292409 0.39527 0.36025
0.304799 0.393042 0.343984
0.313207 0.392813 0.315648
0.338704 0.385107 0.29453
0.360494 0.37966 0.251698
0.369055 0.379446 0.234516
0.375845 0.381292 0.22649
0.384298 0.384329 0.218387
0.395331 0.388296 0.21062
0.411368 0.391913 0.191897
0.430182 0.394385 0.16463
0.455726 0.392416 0.130877
0.488029 0.385061 0.0858625
0.514687 0.380377 0.0614023
0.53753 0.381415 0.0580148
0.560967 0.38468 0.0609751
0.583352 0.388373 0.0542
0.607126 0.393744 0.0516365
0.636912 0.401907 0.0530556
0.672145 0.413306 0.0589151
0.71136 0.419562 0.0594339
0.752483 0.422126 0.0560159
0.791867 0.425376 0.0536812
0.828031 0.429023 0.0522621
0.861402 0.432868 0.0513771
0.89189 0.437003 0.0509957
0.919875 0.441398 0.0510719
0.943633 0.445106 0.0512856
0.946792 0.445502 0.0517891
0.949798 0.445869 0.0525216
0.951873 0.44651 0.0530861
0.282185 0.427359 0.409842
0.296437 0.425528 0.399558
0.309865 0.423117 0.387503
0.322362 0.420935 0.372503
0.333196 0.419593 0.346761
0.35407 0.413886 0.323049
0.377279 0.407568 0.287694
0.392081 0.4056 0.254917
0.398276 0.406928 0.246784
0.406149 0.409293 0.238178
0.416129 0.413031 0.230198
0.42974 0.416892 0.217746
0.447425 0.420569 0.196384
0.467247 0.422538 0.166186
0.494896 0.418814 0.13283
0.525734 0.411246 0.088426
0.551202 0.40708 0.065156
0.574624 0.407965 0.0609445
0.596521 0.410681 0.0633249
0.619638 0.414298 0.0596628
0.648447 0.420188 0.0551919
0.681224 0.428565 0.0558785
0.71397 0.438407 0.0606546
0.748196 0.449317 0.0673686
0.787427 0.452232 0.0641337
0.823423 0.455528 0.0619821
0.856321 0.459113 0.0606394
0.886824 0.463142 0.0598611
0.914504 0.467292 0.0595712
0.939391 0.471412 0.0596475
0.949569 0.472221 0.0597086
0.95256 0.472816 0.0604715
0.954604 0.473381 0.0610513
0.301106 0.455268 0.435889
0.314443 0.453407 0.425956
0.327825 0.45124 0.414252
0.340124 0.448692 0.400427
0.352682 0.446693 0.376257
0.369085 0.442969 0.349187
0.394232 0.435889 0.320317
0.415 0.431617 0.274861
0.420798 0.432563 0.266606
0.428336 0.434592 0.257847
0.437873 0.437812 0.248539
0.449668 0.442206 0.241047
0.465827 0.445975 0.223285
0.484474 0.449348 0.199756
0.505394 0.450004 0.168933
0.533104 0.445533 0.136751
0.562463 0.438239 0.0942092
0.588342 0.433631 0.0694896
0.610391 0.434379 0.064744
0.632959 0.43682 0.0660716
0.660456 0.441016 0.0654002
0.693034 0.447379 0.0598001
0.724666 0.455085 0.0597086
0.755856 0.463767 0.0632181
0.78764 0.47396 0.0690929
0.818769 0.482994 0.0740978
0.85185 0.486549 0.0720684
0.881926 0.490196 0.0708171
0.909987 0.494316 0.0700847
0.935561 0.498573 0.0697948
0.952651 0.499855 0.0692454
0.955612 0.500603 0.0700236
0.957671 0.501411 0.0715801
0.320363 0.483207 0.461616
0.332967 0.481331 0.451926
0.345876 0.478981 0.440284
0.358709 0.47657 0.426322
0.371496 0.474281 0.403983
0.383978 0.472282 0.373785
0.411383 0.463874 0.349584
0.432975 0.459174 0.308476
0.443656 0.458427 0.286061
0.451209 0.460304 0.277028
0.460472 0.463233 0.267597
0.471199 0.46717 0.259586
0.485344 0.471015 0.246769
0.502571 0.474678 0.227192
0.521691 0.477501 0.201968
0.543664 0.476982 0.173495
0.57023 0.472404 0.142687
0.600092 0.464958 0.0999008
0.624353 0.460365 0.0754711
0.646723 0.46099 0.0697185
0.673335 0.463569 0.0703746
0.705379 0.468513 0.0715038
0.736797 0.474372 0.065568
0.767742 0.481636 0.0646372
0.797177 0.489632 0.0668498
0.825315 0.498314 0.0711376
0.852949 0.507912 0.0767224
0.878523 0.517266 0.0827802
0.905898 0.521981 0.0828107
0.931395 0.526284 0.0893416
0.949828 0.528435 0.0937057
0.95848 0.529625 0.0996109
0.960433 0.530526 0.104509
0.339529 0.51046 0.48632
0.351705 0.508766 0.476921
0.364355 0.506279 0.465156
0.377157 0.503853 0.451209
0.390158 0.501335 0.429908
0.398611 0.501305 0.396201
0.428122 0.491753 0.376211
0.450904 0.486351 0.339025
0.466697 0.484321 0.305516
0.473884 0.485863 0.296864
0.482765 0.488319 0.287236
0.493095 0.491753 0.277333
0.505562 0.495781 0.26804
0.521874 0.499474 0.25069
0.539834 0.502998 0.229923
0.55819 0.505058 0.204593
0.580713 0.503548 0.179202
0.607919 0.49865 0.148058
0.635767 0.492027 0.109499
0.660929 0.487083 0.082475
0.687037 0.487846 0.0753643
0.718837 0.491112 0.076173
0.749645 0.495888 0.0792096
0.77998 0.501427 0.0727398
0.809018 0.508064 0.0707561
0.836286 0.515373 0.0717021
0.861372 0.523705 0.0806134
0.885801 0.533104 0.0929122
0.908736 0.542687 0.106584
0.929961 0.552071 0.120394
0.946426 0.557458 0.130449
0.961181 0.558923 0.135866
0.963088 0.560128 0.142092
0.353857 0.537118 0.51342
0.365362 0.535561 0.504952
0.378592 0.532998 0.493233
0.392065 0.53048 0.479469
0.406165 0.527749 0.460304
0.416983 0.526619 0.429557
0.440681 0.519905 0.405554
0.465339 0.513787 0.375647
0.48603 0.510216 0.334051
0.495674 0.510735 0.318715
0.504204 0.512886 0.309529
0.514351 0.516106 0.300008
0.525719 0.520287 0.292409
0.540887 0.524025 0.277546
0.558114 0.527428 0.256947
0.576165 0.530465 0.233173
0.593652 0.531899 0.208072
0.618296 0.529213 0.183871
0.643824 0.524666 0.155612
0.671595 0.518227 0.118914
0.700725 0.513161 0.0887007
0.732433 0.514702 0.0819409
0.762692 0.518608 0.0884718
0.791745 0.524147 0.0997635
0.819867 0.529946 0.0986038
0.846372 0.536828 0.102266
0.871229 0.544289 0.109209
0.894072 0.552071 0.118608
0.915541 0.560449 0.131212
0.936172 0.569604 0.146059
0.951751 0.576699 0.158267
0.963836 0.582254 0.169009
0.969085 0.585367 0.176562
0.364172 0.562554 0.541955
0.375692 0.561135 0.533806
0.390097 0.558663 0.521874
0.40473 0.555886 0.507958
0.419959 0.552972 0.489921
0.43415 0.550881 0.462043
0.451682 0.547616 0.431861
0.478782 0.540063 0.407843
0.501274 0.536034 0.369482
0.51693 0.534813 0.339544
0.525521 0.53698 0.330785
0.535424 0.53994 0.321645
0.546349 0.543755 0.31313
0.55938 0.547723 0.304326
0.575494 0.551125 0.28719
0.592142 0.554467 0.268406
0.609659 0.557305 0.24683
0.628916 0.557839 0.22237
0.652216 0.555093 0.201419
0.677989 0.550988 0.17702
0.710063 0.544533 0.144305
0.743847 0.541238 0.12195
0.773846 0.543633 0.121477
0.802518 0.547829 0.129213
0.829847 0.553491 0.141573
0.856168 0.559457 0.14226
0.880354 0.566232 0.147692
0.902693 0.573495 0.156374
0.923201 0.58117 0.167071
0.941939 0.588968 0.179034
0.957168 0.595895 0.190539
0.968688 0.601328 0.201053
0.976577 0.605722 0.210071
0.377127 0.586801 0.567376
0.385702 0.585397 0.560861
0.401053 0.582834 0.548669
0.416678 0.579858 0.534386
0.432395 0.577035 0.517662
0.44918 0.574365 0.491157
0.46099 0.573892 0.455009
0.490944 0.565011 0.436118
0.515831 0.560296 0.401038
0.537285 0.557717 0.359792
0.545754 0.559747 0.351446
0.555459 0.562554 0.342824
0.566293 0.566262 0.334585
0.577813 0.570535 0.329152
0.593011 0.574151 0.315496
0.608652 0.57763 0.299779
0.625238 0.580926 0.28191
0.642664 0.583368 0.261555
0.661738 0.583566 0.242329
0.685756 0.581186 0.224384
0.715969 0.577005 0.201419
0.755474 0.569802 0.169879
0.784863 0.569635 0.162173
0.812894 0.572778 0.164752
0.839734 0.577539 0.173114
0.864805 0.583444 0.185443
0.888624 0.589822 0.190982
0.91046 0.59675 0.198322
0.930251 0.604105 0.208453
0.948272 0.611826 0.22034
0.963165 0.618799 0.231907
0.973648 0.623652 0.240848
0.980575 0.627405 0.248631
0.391928 0.609949 0.590372
0.394537 0.609049 0.588617
0.410971 0.606256 0.575708
0.427741 0.603387 0.561593
0.444266 0.600366 0.545083
0.462928 0.597269 0.520592
0.47538 0.596841 0.485023
0.501839 0.590066 0.462974
0.530327 0.584192 0.431296
0.556359 0.580545 0.382773
0.565744 0.582177 0.372305
0.575479 0.585061 0.364462
0.586374 0.588891 0.356985
0.597543 0.593072 0.351156
0.610544 0.597009 0.343297
0.62533 0.600565 0.330388
0.641016 0.604181 0.315877
0.657923 0.607706 0.299474
0.674205 0.609918 0.281987
0.694957 0.609964 0.265888
0.723583 0.607569 0.248722
0.760494 0.603067 0.226978
0.796338 0.598001 0.207904
0.822782 0.599374 0.2065
0.848783 0.603296 0.212253
0.873274 0.608728 0.222507
0.895735 0.615091 0.235523
0.916747 0.621805 0.245106
0.936004 0.628992 0.254414
0.953552 0.636622 0.265415
0.968734 0.643992 0.276738
0.978744 0.648569 0.284459
0.985336 0.652155 0.291279
0.406516 0.632136 0.612589
0.409354 0.631388 0.610986
0.419135 0.629145 0.602914
0.437247 0.626261 0.588342
0.455055 0.623316 0.572213
0.474922 0.619821 0.549462
0.490822 0.618158 0.518013
0.511696 0.615061 0.488182
0.543496 0.607828 0.460563
0.571099 0.604013 0.416083
0.585733 0.604578 0.393851
0.595544 0.607599 0.386725
0.606088 0.6112 0.379889
0.617014 0.615366 0.373693
0.62826 0.619913 0.371054
0.6421 0.623468 0.360815
0.657053 0.627298 0.34902
0.672816 0.631159 0.335927
0.689189 0.63476 0.322057
0.706325 0.63711 0.305867
0.732464 0.636622 0.291707
0.766644 0.63418 0.276707
0.801022 0.630594 0.26273
0.83238 0.628336 0.254551
0.856825 0.630732 0.257038
0.880354 0.635401 0.265446
0.902205 0.641367 0.2766
0.92221 0.648066 0.289433
0.940734 0.655238 0.301167
0.957794 0.662593 0.31078
0.973159 0.670298 0.322072
0.982803 0.674739 0.329061
0.989334 0.678599 0.335973
0.420844 0.653361 0.634119
0.423804 0.652705 0.632563
0.427604 0.651148 0.629694
0.445151 0.648447 0.61619
0.464134 0.645594 0.600458
0.484688 0.64213 0.579126
0.50428 0.63975 0.551003
0.520088 0.640131 0.512093
0.555764 0.631464 0.489464
0.585061 0.62739 0.449149
0.605478 0.626749 0.416037
0.615167 0.62974 0.409522
0.625727 0.633494 0.403433
0.636423 0.637705 0.398306
0.64715 0.64213 0.395102
0.658961 0.646448 0.390906
0.673396 0.650507 0.381796
0.688029 0.65449 0.371893
0.703517 0.658503 0.361013
0.720714 0.662028 0.348165
0.742718 0.664637 0.333318
0.773861 0.663935 0.323003
0.805859 0.662318 0.314031
0.837736 0.659785 0.306645
0.864744 0.659983 0.305318
0.886915 0.663203 0.30988
0.908064 0.668666 0.319203
0.927382 0.674983 0.330739
0.945052 0.681926 0.343297
0.961135 0.689494 0.357
0.975967 0.696925 0.367041
0.985763 0.701839 0.374365
0.992218 0.705821 0.381415
0.435157 0.674022 0.655344
0.438178 0.673243 0.653605
0.442237 0.671992 0.651087
0.450278 0.670268 0.645136
0.470588 0.667475 0.629267
0.4916 0.664286 0.610483
0.515511 0.661036 0.582834
0.532921 0.661982 0.541924
0.567773 0.654932 0.517082
0.598505 0.650538 0.481651
0.624872 0.648478 0.438102
0.634653 0.651621 0.432029
0.64506 0.655406 0.426673
0.65565 0.659648 0.422248
