bundles/resolve-cinematic-luts/Lens Distortions - Finishing LUTs/LD - Paradigm Teal 1.cube
TITLE "LD - Paradigm Teal 1"
# Copyright (c) Lens Distortions, LLC. All Rights Reserved.
# LensDistortions.com
# ref-PT9
LUT_3D_SIZE 5
0.0099794 0.0165866 0.0199741
0.182574 0.0402533 0.0344091
0.458579 0.139605 0.103197
0.694804 0.213977 0.161242
0.911604 0.270207 0.205295
0.153826 0.203159 0.193469
0.211551 0.225986 0.144076
0.453681 0.276356 0.0593271
0.682094 0.332021 0.122621
0.89575 0.378073 0.174716
0.330648 0.421469 0.400732
0.37705 0.425177 0.330938
0.490166 0.482689 0.166857
0.707912 0.502251 0.048249
0.894545 0.548028 0.0864881
0.490105 0.633402 0.598718
0.527626 0.632151 0.549798
0.610315 0.670863 0.442786
0.746166 0.738201 0.251698
0.98587 0.714977 0.0574044
0.622995 0.824765 0.775525
0.657832 0.822019 0.742199
0.755642 0.849485 0.577707
0.831327 0.90866 0.555413
0.970962 0.960769 0.316762
0.00549325 0.122271 0.170672
0.180987 0.0939956 0.227924
0.464759 0.140505 0.231861
0.702968 0.189731 0.227115
0.921401 0.227878 0.243458
0.0386206 0.236866 0.276738
0.198901 0.236637 0.243137
0.465492 0.265232 0.231403
0.692027 0.317342 0.268208
0.903609 0.363012 0.301335
0.296025 0.436652 0.433463
0.3149 0.396368 0.385077
0.491035 0.482521 0.301839
0.704814 0.509331 0.252338
0.905547 0.539742 0.249928
0.461357 0.643427 0.624201
0.475807 0.607569 0.581445
0.593805 0.641413 0.48072
0.746624 0.737758 0.365743
0.97351 0.729305 0.271397
0.591577 0.830961 0.797269
0.60911 0.798352 0.757107
0.728435 0.813504 0.610559
0.821317 0.887526 0.594537
0.970962 0.959762 0.420752
0.00549325 0.260533 0.347601
0.12015 0.265751 0.344869
0.473442 0.172915 0.462943
0.712886 0.189014 0.474601
0.924758 0.259586 0.466194
0.00549325 0.310094 0.390188
0.136538 0.312566 0.374228
0.468452 0.286992 0.456214
0.705837 0.313146 0.462562
0.916899 0.36022 0.438163
0.15378 0.482765 0.554223
0.259251 0.479149 0.524697
0.495735 0.485466 0.481712
0.73225 0.496925 0.434485
0.921416 0.53106 0.454826
0.404166 0.678721 0.696345
0.438254 0.653193 0.656321
0.56199 0.629953 0.612802
0.748501 0.737621 0.542138
0.962341 0.741817 0.502464
0.536568 0.864378 0.862028
0.562524 0.8336 0.822385
0.656474 0.775845 0.743618
0.804196 0.848569 0.665599
0.971832 0.958633 0.591272
0.0056611 0.373739 0.498939
0.108202 0.374746 0.494377
0.439002 0.308385 0.664607
0.717723 0.249668 0.685649
0.932372 0.249805 0.709804
0.00549325 0.40322 0.519326
0.124636 0.402304 0.505013
0.398245 0.398917 0.630671
0.707988 0.34609 0.674998
0.924208 0.355413 0.697597
0.00549325 0.534936 0.676463
0.0797589 0.536233 0.657145
0.449516 0.542336 0.586252
0.715785 0.519814 0.679957
0.92636 0.535775 0.681605
0.246113 0.731746 0.846342
0.330098 0.727489 0.817502
0.534676 0.727443 0.752239
0.753079 0.740597 0.726848
0.965469 0.755291 0.64773
0.447105 0.909056 0.96643
0.497765 0.89366 0.933852
0.64033 0.85893 0.85362
0.812268 0.864652 0.836973
0.973983 0.959518 0.777447
0.0135348 0.462409 0.624125
0.10544 0.462287 0.618936
0.346822 0.474968 0.705348
0.702251 0.355657 0.859617
0.936614 0.308309 0.887144
0.00549325 0.484459 0.638086
0.122042 0.482383 0.622095
0.367315 0.504326 0.651408
0.685145 0.427161 0.838956
0.925185 0.395926 0.874846
0.00549325 0.590173 0.758831
0.00549325 0.592508 0.750774
0.413718 0.599542 0.692744
0.678981 0.573266 0.83859
0.922438 0.557855 0.870146
0.00549325 0.776318 0.98616
0.0700084 0.776211 0.963272
0.426017 0.781979 0.88127
0.72697 0.781994 0.813535
0.945708 0.769451 0.89192
0.301946 0.947951 1
0.377584 0.943481 1
0.578576 0.939635 0.99501
0.796094 0.944869 0.957412
0.977325 0.962417 0.940673
