bundles/resolve-cinematic-luts/Lens Distortions - Finishing LUTs/LD - Pure 3.cube
TITLE "LD - Pure 3"
# Copyright (c) Lens Distortions, LLC. All Rights Reserved.
# LensDistortions.com
# ref-PR6
LUT_3D_SIZE 9
0.0120089 0.0120089 0.0120089
0.0937819 0.0122683 0.0120089
0.220264 0.0135958 0.0120089
0.351904 0.0180514 0.0120089
0.488472 0.0295567 0.0120241
0.631006 0.0522316 0.0120089
0.777493 0.0791028 0.0120089
0.909148 0.110048 0.0123293
0.998993 0.152132 0.017319
0.0151675 0.0899672 0.0127413
0.100282 0.101396 0.0165408
0.236683 0.103227 0.0120089
0.361532 0.116304 0.0119936
0.493492 0.128511 0.0119936
0.63154 0.14316 0.0119936
0.772015 0.160128 0.0120546
0.899931 0.182773 0.013077
0.995789 0.216144 0.0193637
0.0318151 0.213779 0.0154879
0.122927 0.210056 0.0367132
0.226734 0.229267 0.0423133
0.373922 0.226322 0.0119936
0.495735 0.235554 0.0119936
0.623957 0.248981 0.0122988
0.761929 0.258732 0.0127108
0.893309 0.273533 0.0140536
0.995026 0.299428 0.0201724
0.0800183 0.336263 0.0263828
0.153292 0.33254 0.0558633
0.244724 0.334203 0.109377
0.352056 0.356695 0.109743
0.507515 0.349996 0.0124361
0.632517 0.355871 0.0124056
0.764294 0.367147 0.0134432
0.894469 0.382879 0.0166476
0.998718 0.403616 0.0224765
0.140566 0.456352 0.0638285
0.197253 0.454734 0.0920577
0.276829 0.451789 0.140093
0.365209 0.463493 0.184268
0.479744 0.487144 0.178012
0.649302 0.478172 0.0231937
0.785138 0.479774 0.0130922
0.911803 0.491325 0.013962
0.998993 0.518517 0.0233616
0.195743 0.581857 0.103731
0.242344 0.581613 0.126848
0.308507 0.579217 0.162081
0.402686 0.577859 0.224063
0.486946 0.601007 0.253956
0.615259 0.626535 0.241016
0.79411 0.618784 0.0906844
0.933867 0.619089 0.0157321
0.998993 0.642054 0.0224918
0.245121 0.717281 0.137041
0.285649 0.717891 0.157702
0.344076 0.717342 0.187335
0.427893 0.71667 0.237446
0.531945 0.720836 0.303868
0.620508 0.751522 0.329656
0.762982 0.777249 0.31516
0.929046 0.773968 0.18761
0.998993 0.780377 0.0505531
0.310002 0.858686 0.187106
0.346212 0.859449 0.206638
0.398505 0.859739 0.233127
0.47277 0.858122 0.275319
0.571939 0.858167 0.339895
0.676966 0.868986 0.397604
0.772625 0.895491 0.441321
0.905119 0.918578 0.450019
0.998993 0.926085 0.370291
0.415991 0.984283 0.285634
0.449531 0.983505 0.306249
0.496422 0.982193 0.332891
0.563241 0.978821 0.37348
0.652369 0.975891 0.431907
0.757565 0.972839 0.507561
0.851591 0.988098 0.570016
0.934905 0.998993 0.650706
0.998993 0.998993 0.723262
0.0120089 0.0156863 0.0742199
0.0869459 0.0123445 0.103273
0.21416 0.0172274 0.0879377
0.354849 0.0151522 0.082536
0.496788 0.0149233 0.0753643
0.644251 0.0180667 0.061326
0.790249 0.0384375 0.0609903
0.917235 0.0858473 0.074876
0.998993 0.141207 0.103227
0.0173037 0.0946059 0.120272
0.101686 0.0991073 0.105867
0.213504 0.111864 0.109148
0.343008 0.132387 0.119326
0.488716 0.13193 0.107897
0.629694 0.14284 0.100587
0.770336 0.15877 0.0987411
0.898116 0.18201 0.104768
0.995071 0.215366 0.120165
0.01561 0.22649 0.0699931
0.112139 0.215717 0.0979629
0.222004 0.224811 0.130282
0.368719 0.233616 0.107408
0.489738 0.243671 0.113497
0.622034 0.250889 0.111803
0.760464 0.259022 0.107713
0.892699 0.273777 0.110964
0.995026 0.299596 0.1243
0.0842145 0.336522 0.107103
0.148196 0.336782 0.115129
0.244984 0.332082 0.163455
0.356054 0.360296 0.178088
0.504555 0.356374 0.111589
0.62945 0.362554 0.1149
0.761639 0.374075 0.121355
0.8963 0.38436 0.12256
0.998993 0.404761 0.131563
0.142229 0.456809 0.131868
0.196368 0.456977 0.146212
0.273213 0.452781 0.181643
0.36965 0.462196 0.23003
0.483436 0.490288 0.230747
0.651453 0.481834 0.119585
0.784085 0.485527 0.115724
0.911269 0.497658 0.121538
0.998993 0.524834 0.143526
0.198795 0.582422 0.161532
0.243549 0.58265 0.176211
0.309926 0.580362 0.206104
0.399237 0.579339 0.253635
0.491096 0.600839 0.291356
0.618616 0.629419 0.283955
0.798383 0.621378 0.170764
0.933913 0.624903 0.124926
0.998993 0.648539 0.143069
0.250248 0.717235 0.189197
0.289372 0.718273 0.203983
0.348791 0.71751 0.231418
0.42974 0.715862 0.273701
0.532174 0.719982 0.332311
0.624628 0.752209 0.361105
0.766064 0.779614 0.351629
0.932296 0.775769 0.252293
0.998993 0.785931 0.17467
0.317952 0.858412 0.23624
0.352667 0.859419 0.250858
0.40589 0.859083 0.276341
0.479088 0.856748 0.314977
0.572839 0.857572 0.36791
0.680018 0.867994 0.424475
0.776501 0.896056 0.467796
0.907408 0.92015 0.480385
0.998993 0.927352 0.420172
0.426947 0.982666 0.331792
0.458427 0.982269 0.347967
0.506172 0.980438 0.373892
0.572549 0.976394 0.412406
0.657755 0.973312 0.463554
0.757565 0.973007 0.526833
0.853849 0.987427 0.591333
0.937057 0.998993 0.672358
0.998993 0.998993 0.74757
0.0119936 0.03888 0.188403
0.0562905 0.0316777 0.215244
0.210605 0.0137026 0.234943
0.344793 0.0357214 0.210239
0.483436 0.0443885 0.207691
0.635233 0.0346075 0.198199
0.791989 0.0275731 0.186648
0.931426 0.0376745 0.176287
0.998993 0.0698711 0.175097
0.0119936 0.109743 0.235966
0.0960555 0.127565 0.230961
0.222049 0.105043 0.238682
0.344579 0.131975 0.218494
0.476982 0.142519 0.221683
0.633219 0.129351 0.212329
0.785687 0.126772 0.196155
0.922026 0.130571 0.178714
0.998993 0.176211 0.197147
0.0479438 0.219883 0.258701
0.139513 0.23154 0.253223
0.228946 0.225315 0.233783
0.338247 0.232044 0.231098
0.458427 0.260288 0.250507
0.589914 0.276387 0.256565
0.744381 0.274159 0.24506
0.887556 0.278645 0.236469
0.994171 0.300725 0.24126
0.0483864 0.351385 0.187839
0.139651 0.343832 0.205554
0.236393 0.340291 0.224094
0.340703 0.347143 0.257557
0.49752 0.366278 0.245884
0.62295 0.372793 0.249165
0.757565 0.381659 0.25098
0.893736 0.38793 0.246036
0.998901 0.407401 0.251896
0.103014 0.469474 0.196475
0.199603 0.45771 0.232044
0.263386 0.460746 0.23331
0.371481 0.458244 0.288304
0.479438 0.486122 0.299413
0.648707 0.490333 0.242069
0.780865 0.49424 0.244602
0.908812 0.506905 0.251102
0.998993 0.531655 0.268147
0.205539 0.583261 0.242008
0.243839 0.584375 0.245808
0.302068 0.586633 0.253956
0.391928 0.582025 0.29482
0.495689 0.597436 0.344747
0.623682 0.633646 0.347356
0.803403 0.627146 0.256901
0.932723 0.633768 0.25182
0.998993 0.657267 0.27126
0.250889 0.719371 0.254032
0.287404 0.721279 0.262654
0.342733 0.722728 0.276173
0.423529 0.719997 0.312444
0.527733 0.721462 0.368444
0.631251 0.752148 0.409247
0.770779 0.783932 0.407065
0.935805 0.780713 0.324392
0.998993 0.793683 0.29778
0.316594 0.860639 0.290486
0.350057 0.862165 0.301259
0.401389 0.863172 0.317906
0.475303 0.861143 0.351827
0.568658 0.859525 0.401801
0.68481 0.865675 0.465934
0.782818 0.897032 0.509407
0.910826 0.923171 0.526955
0.998993 0.931151 0.479484
0.427466 0.983673 0.378271
0.458442 0.98352 0.391699
0.505257 0.982391 0.412009
0.571969 0.978943 0.446769
0.655711 0.973678 0.493675
0.756207 0.973602 0.555306
0.857252 0.986175 0.625757
0.941161 0.998993 0.70634
0.998993 0.998993 0.784421
0.0119936 0.0969863 0.305364
0.0693828 0.102647 0.314717
0.167544 0.0840467 0.342992
0.339467 0.01738 0.37142
0.480034 0.0686656 0.331945
0.606424 0.110628 0.327474
0.767437 0.0953231 0.316808
0.912077 0.0864271 0.307347
0.998993 0.0919661 0.309361
0.0119936 0.147784 0.34023
0.088426 0.15938 0.337682
0.191257 0.156374 0.357092
0.346151 0.114778 0.37203
0.477531 0.153399 0.337514
0.604776 0.177081 0.334051
0.760266 0.167056 0.325002
0.903166 0.160189 0.31577
0.998993 0.163973 0.31635
0.0119936 0.227451 0.381384
0.0591287 0.233967 0.389013
0.228641 0.255543 0.366583
0.350134 0.22829 0.366354
0.468757 0.251743 0.341497
0.579461 0.279728 0.351751
0.728267 0.284413 0.352758
0.8851 0.275364 0.344427
0.998993 0.273899 0.335897
0.114458 0.343587 0.392462
0.185824 0.352911 0.388922
0.268788 0.357198 0.37821
0.355779 0.352773 0.360296
0.459373 0.35552 0.354345
0.580728 0.378683 0.369833
0.71841 0.407599 0.389075
0.860029 0.420569 0.391867
0.98761 0.428611 0.390692
0.134264 0.470573 0.314153
0.191821 0.470008 0.316274
0.262165 0.466484 0.328359
0.363149 0.469474 0.351476
0.461875 0.470527 0.391257
0.631876 0.495048 0.378958
0.77435 0.506813 0.381094
0.901976 0.521706 0.38996
0.998993 0.542596 0.400809
0.110307 0.609186 0.288014
0.194629 0.603632 0.309514
0.305043 0.587594 0.349096
0.380652 0.591211 0.350637
0.500862 0.59353 0.41265
0.606851 0.618479 0.421744
0.803479 0.638056 0.372976
0.929137 0.645869 0.383108
0.998993 0.669352 0.403876
0.215885 0.732799 0.318425
0.283513 0.72668 0.345953
0.347433 0.723476 0.362219
0.413489 0.729747 0.365438
0.51632 0.725124 0.414145
0.634195 0.745739 0.470207
0.767575 0.779675 0.475563
0.940307 0.788663 0.414221
0.998993 0.804013 0.424521
0.328618 0.861967 0.378653
0.357427 0.863722 0.383108
0.40296 0.865095 0.390585
0.469368 0.86836 0.404044
0.561746 0.863157 0.447196
0.680079 0.864103 0.511467
0.787076 0.893767 0.563195
0.915038 0.926497 0.592004
0.998993 0.93666 0.554269
0.435416 0.983719 0.450782
0.464057 0.983825 0.460044
0.50837 0.983581 0.474556
0.571267 0.982361 0.49572
0.654566 0.976471 0.536538
0.753063 0.974029 0.595056
0.862776 0.984131 0.673609
0.944884 0.998993 0.749966
0.998993 0.998993 0.833417
0.0119936 0.157153 0.425147
0.08336 0.167681 0.420829
0.163561 0.146639 0.460472
0.282414 0.141299 0.466331
0.470237 0.0267948 0.510155
0.618418 0.10341 0.452064
0.735561 0.160418 0.442313
0.876539 0.167559 0.435737
0.991745 0.164691 0.435111
0.0119936 0.194736 0.45156
0.0801556 0.202838 0.448554
0.200092 0.210559 0.459007
0.295033 0.20557 0.467018
0.472663 0.126497 0.507958
0.612192 0.177295 0.455253
0.730053 0.221653 0.447333
0.876463 0.220401 0.443168
0.992111 0.2206 0.443595
0.0119936 0.257725 0.490532
0.0624247 0.260456 0.490364
0.215228 0.280415 0.477012
0.317052 0.276173 0.493797
0.471519 0.236545 0.497597
0.603052 0.269078 0.460319
0.725795 0.298711 0.456107
0.868986 0.304555 0.457191
0.990631 0.302937 0.458625
0.014313 0.346609 0.521675
0.0931258 0.353674 0.522728
0.209094 0.366049 0.523873
0.359075 0.381949 0.49427
0.478553 0.354543 0.492653
0.595575 0.374655 0.465843
0.717739 0.397864 0.474052
0.839384 0.428092 0.490623
0.975952 0.440726 0.501945
0.18706 0.468467 0.527047
0.242252 0.476265 0.525124
0.314595 0.487297 0.521538
0.402701 0.486259 0.510048
0.486198 0.48336 0.489876
0.587121 0.482185 0.480354
0.723171 0.502815 0.493355
0.860822 0.533776 0.515267
0.978805 0.572244 0.542489
0.215717 0.594873 0.443534
0.256596 0.59617 0.440726
0.313329 0.597009 0.440192
0.383566 0.59997 0.452079
0.494453 0.604898 0.485939
0.595911 0.605524 0.528557
0.765942 0.627008 0.510018
0.925338 0.658244 0.524605
0.998993 0.685542 0.546029
0.1691 0.750835 0.399222
0.228611 0.749737 0.412039
0.30779 0.74522 0.432639
0.418448 0.730678 0.469078
0.510323 0.739223 0.47953
0.643076 0.742824 0.546197
0.747906 0.763455 0.556497
0.935988 0.800076 0.543267
0.998993 0.8168 0.557366
0.226123 0.889509 0.413748
0.299519 0.884794 0.439658
0.391012 0.87425 0.475502
0.482185 0.865614 0.504326
0.552407 0.874357 0.504112
0.670817 0.87097 0.56318
0.790661 0.887785 0.628641
0.90135 0.913863 0.652491
0.998993 0.944442 0.645731
0.414252 0.993393 0.519081
0.463203 0.988479 0.541024
0.524849 0.981582 0.566644
0.578744 0.981216 0.575708
0.651423 0.982483 0.592294
0.74905 0.978241 0.644495
0.863111 0.982849 0.725322
0.945617 0.996368 0.794141
0.998993 0.998993 0.867903
0.0119936 0.215885 0.547524
0.078233 0.222797 0.542977
0.176516 0.220935 0.559426
0.261601 0.181186 0.611154
0.404486 0.183673 0.600031
0.603662 0.0484169 0.653986
0.754162 0.139239 0.571939
0.865614 0.199374 0.560235
0.972717 0.242985 0.564477
0.0119936 0.245716 0.569421
0.0749676 0.250996 0.565911
0.210483 0.266239 0.557565
0.288701 0.243275 0.603052
0.409705 0.245472 0.587671
0.600732 0.14284 0.646174
0.749584 0.203555 0.573846
0.865385 0.252644 0.567147
0.976928 0.284382 0.572702
0.0119936 0.294896 0.60209
0.0610056 0.296971 0.59968
0.21181 0.313146 0.586694
0.324575 0.323598 0.602609
0.415106 0.315343 0.599115
0.595987 0.24744 0.633127
0.744793 0.286229 0.58027
0.864256 0.325643 0.574578
0.978759 0.348943 0.582712
0.0119936 0.370123 0.644236
0.0254368 0.367712 0.647074
0.19205 0.382803 0.63563
0.350301 0.409888 0.619394
0.443519 0.400519 0.635126
0.602716 0.361227 0.629175
0.743114 0.387747 0.591501
0.864973 0.418601 0.587427
0.975967 0.447639 0.603708
0.0677806 0.469017 0.661448
0.146685 0.475944 0.663722
0.236011 0.486183 0.668849
0.36231 0.506661 0.667613
0.495735 0.509331 0.63592
0.618357 0.482643 0.631189
0.738903 0.500465 0.598978
0.862013 0.524926 0.608331
0.970703 0.561288 0.632425
0.253132 0.599466 0.673533
0.298283 0.606851 0.672679
0.362249 0.618021 0.670039
0.439109 0.624964 0.658167
0.538903 0.624292 0.653178
0.625788 0.623667 0.62916
0.729 0.619058 0.616007
0.868513 0.642206 0.631373
0.980301 0.67837 0.658259
0.290944 0.734417 0.577478
0.325231 0.735531 0.57348
0.375296 0.735134 0.568353
0.434867 0.739025 0.570199
0.515724 0.749722 0.588724
0.640986 0.752483 0.636515
0.744259 0.754681 0.683467
0.891722 0.772045 0.661555
0.998993 0.815061 0.690761
0.256306 0.89543 0.53344
0.304906 0.894652 0.544091
0.373648 0.891264 0.560525
0.458274 0.884749 0.584436
0.56466 0.877501 0.620005
0.67013 0.884855 0.6392
0.800824 0.886015 0.710781
0.886564 0.901518 0.728862
0.998993 0.939757 0.754055
0.326314 0.998993 0.575219
0.379278 0.998993 0.590524
0.466896 0.998993 0.621149
0.572976 0.98854 0.664607
0.678126 0.982605 0.702541
0.756237 0.989487 0.714702
0.863279 0.987686 0.781308
0.948089 0.992889 0.8448
0.998322 0.998993 0.890043
0.0119936 0.273106 0.677302
0.0743572 0.278187 0.671031
0.197299 0.289342 0.66334
0.270558 0.265156 0.715694
0.373098 0.243244 0.73817
0.526253 0.225025 0.73727
0.738384 0.0773327 0.794079
0.875731 0.179355 0.708568
0.976684 0.24271 0.696651
0.0119936 0.297368 0.695796
0.0717632 0.301442 0.689723
0.208972 0.317357 0.675212
0.297841 0.310079 0.709606
0.390082 0.289128 0.735897
0.531044 0.279515 0.729244
0.730907 0.162097 0.782208
0.877867 0.23447 0.711284
0.979141 0.290654 0.705119
0.0119936 0.337469 0.721401
0.0599069 0.33901 0.71603
0.205341 0.353948 0.702892
0.333776 0.370794 0.702968
0.41146 0.34873 0.743755
0.535058 0.345586 0.728283
0.728328 0.259464 0.773327
0.881224 0.308003 0.714366
0.980774 0.358236 0.713832
0.0119936 0.399527 0.756451
0.0328679 0.398276 0.755535
0.192798 0.41178 0.746456
0.339559 0.435996 0.73521
0.453254 0.444862 0.757366
0.543297 0.429541 0.748104
0.735439 0.36936 0.771786
0.884565 0.403296 0.725673
0.984497 0.448692 0.726787
0.0119936 0.481346 0.791699
0.0248722 0.482963 0.797604
0.155108 0.492363 0.802777
0.319402 0.51397 0.796277
0.486656 0.544121 0.773968
0.576455 0.529046 0.79176
0.750957 0.48893 0.775708
0.887892 0.516274 0.742229
0.989853 0.557702 0.743145
0.143877 0.598733 0.810498
0.201816 0.605829 0.812985
0.278752 0.616663 0.817258
0.381857 0.634363 0.821286
0.509789 0.657694 0.816312
0.643626 0.647257 0.789395
0.771206 0.621851 0.781003
0.882399 0.642588 0.747982
0.983429 0.673823 0.760998
0.320775 0.743389 0.82652
0.360021 0.750713 0.826734
0.418692 0.761212 0.825299
0.494759 0.775006 0.823407
0.579583 0.775219 0.806958
0.689891 0.772488 0.802518
0.775296 0.774227 0.778073
0.870161 0.771511 0.768017
0.979629 0.794781 0.784146
0.385534 0.877058 0.731517
0.416556 0.878248 0.728557
0.462119 0.877531 0.722087
0.516716 0.875441 0.720455
0.589471 0.883833 0.729244
0.686397 0.890837 0.756878
0.804807 0.892302 0.805142
0.888838 0.897139 0.848615
0.983581 0.914183 0.836255
0.416159 0.998993 0.715511
0.456199 0.998993 0.724773
0.512627 0.998993 0.737697
0.58558 0.995941 0.755596
0.665354 0.994034 0.778363
0.77554 0.992874 0.821073
0.871138 0.994766 0.849897
0.956237 0.990417 0.909728
0.990707 0.996643 0.931075
0.0119936 0.328969 0.804166
0.07364 0.333745 0.795468
0.204501 0.347646 0.782101
0.286519 0.339117 0.811093
0.366018 0.302785 0.859876
0.485039 0.308492 0.85745
0.656046 0.263371 0.870283
0.861387 0.112047 0.915373
0.979187 0.222339 0.854337
0.0119936 0.349645 0.817807
0.0721294 0.353704 0.810224
0.206027 0.367834 0.798123
0.311849 0.373648 0.809979
0.389013 0.346777 0.857084
0.499382 0.347494 0.858656
0.662776 0.311879 0.868254
0.859007 0.18555 0.910231
0.982589 0.272221 0.859251
0.0119936 0.383047 0.836423
0.0608835 0.385351 0.831357
0.202152 0.399298 0.821515
0.343145 0.420325 0.812955
0.423316 0.409155 0.854749
0.519188 0.40209 0.861753
0.66833 0.377005 0.865309
0.860777 0.275807 0.907515
0.986923 0.341329 0.863722
0.0119936 0.435798 0.864424
0.0354314 0.435615 0.863813
0.190967 0.449104 0.857374
0.337224 0.469764 0.850721
0.460121 0.489448 0.857908
0.541146 0.467964 0.889891
0.674632 0.455024 0.874113
0.868727 0.381949 0.908598
0.99472 0.432837 0.871824
0.0119936 0.510033 0.902251
0.012192 0.506203 0.907271
0.16376 0.519478 0.904952
0.319631 0.539971 0.899962
0.472633 0.57026 0.891798
0.589151 0.57528 0.909056
0.686595 0.554177 0.897444
0.883665 0.501488 0.914504
0.998993 0.543435 0.885786
0.0119936 0.602853 0.931151
0.0658732 0.609934 0.935149
0.17966 0.619852 0.94081
0.288975 0.633509 0.949874
0.465187 0.665995 0.944442
0.631952 0.69041 0.91783
0.723568 0.672847 0.939055
0.899672 0.634974 0.91928
0.998993 0.670146 0.896315
0.218555 0.743526 0.946838
0.266499 0.751354 0.949599
0.334173 0.761975 0.952789
0.424475 0.777798 0.957427
0.541299 0.800534 0.96022
0.667491 0.810452 0.943572
0.798505 0.791959 0.926986
0.911406 0.775113 0.917525
0.986557 0.799466 0.890211
0.410803 0.89073 0.964935
0.446296 0.896498 0.965469
0.500496 0.904143 0.964569
0.573053 0.91458 0.962814
0.653925 0.91519 0.9505
0.750072 0.912291 0.938582
0.846571 0.910796 0.933669
0.916991 0.916884 0.918059
0.978576 0.919738 0.916686
0.542229 0.992355 0.894743
0.569772 0.992248 0.890974
0.610178 0.990585 0.885771
0.663783 0.990753 0.887266
0.730419 0.991974 0.894774
0.807935 0.995758 0.907851
0.892851 0.99472 0.935546
0.962722 0.993698 0.964446
0.996429 0.998993 0.986389
0.0119936 0.384634 0.916121
0.0756847 0.390372 0.90985
0.20412 0.40293 0.901488
0.30901 0.409857 0.908644
0.382422 0.387228 0.952132
0.470466 0.345602 0.978378
0.60528 0.372107 0.965301
0.794858 0.301503 0.977752
0.969894 0.155245 0.998993
0.0119936 0.402838 0.927123
0.0734112 0.408133 0.922057
0.205524 0.421195 0.915175
0.332479 0.438788 0.910994
0.403571 0.420829 0.9523
0.487312 0.382086 0.98024
0.617685 0.409293 0.966644
0.802243 0.345968 0.979034
0.972549 0.219867 0.998993
0.0119936 0.432395 0.941283
0.0621805 0.435767 0.93904
0.200855 0.448722 0.933501
0.336843 0.46894 0.927413
0.434592 0.470085 0.950454
0.515969 0.443229 0.978042
0.635477 0.459678 0.967498
0.809277 0.409766 0.97818
0.976303 0.303731 0.998993
0.0119936 0.478813 0.960006
0.0374762 0.479927 0.960967
0.190219 0.492882 0.958068
0.332128 0.512505 0.95462
0.472648 0.53901 0.951598
0.553857 0.524193 0.982437
0.656886 0.519127 0.983276
0.817075 0.487419 0.98439
0.984497 0.407614 0.998993
0.0119936 0.545846 0.981826
0.0138552 0.542992 0.984405
0.168505 0.556207 0.984451
0.319905 0.575753 0.983719
0.468162 0.604807 0.981476
0.602808 0.627451 0.989776
0.690578 0.60325 0.998993
0.826795 0.583673 0.992935
0.996872 0.528252 0.998993
0.0119936 0.633341 0.998993
0.0119936 0.630793 0.998993
0.110933 0.639902 0.998993
0.290684 0.661372 0.998993
0.452888 0.690669 0.998993
0.626688 0.727535 0.998993
0.74107 0.722911 0.998993
0.836225 0.698711 0.998993
0.998993 0.66154 0.998993
0.0445258 0.745937 0.998993
0.131441 0.754269 0.998993
0.227344 0.765133 0.998993
0.33164 0.779339 0.998993
0.448646 0.798123 0.998993
0.636835 0.833051 0.998993
0.790082 0.840299 0.998993
0.871656 0.823133 0.998993
0.998993 0.800534 0.998993
0.320439 0.89546 0.998993
0.361547 0.901839 0.998993
0.42298 0.910353 0.998993
0.505333 0.922072 0.998993
0.614496 0.937438 0.998993
0.73257 0.94757 0.998993
0.841184 0.944167 0.998993
0.939101 0.927932 0.998993
0.998993 0.92929 0.998993
0.571191 0.998993 0.998993
0.604959 0.998993 0.998993
0.655604 0.998993 0.998993
0.719036 0.998993 0.998993
0.786511 0.998993 0.998993
0.857969 0.998993 0.998993
0.932036 0.998993 0.998993
0.981674 0.998993 0.998993
0.998993 0.998993 0.998993
