bundles/resolve-cinematic-luts/Lens Distortions - Finishing LUTs/LD - Metallic Rose 1.cube
TITLE "LD - Metallic Rose 1"
# Copyright (c) Lens Distortions, LLC. All Rights Reserved.
# LensDistortions.com
# ref-MR5
LUT_3D_SIZE 5
0.00909438 0.00918593 0.00962844
0.196918 0.0224918 0.0675364
0.520348 0.0502327 0.199573
0.809522 0.0891127 0.299336
1 0.115923 0.367864
0.140932 0.216541 0.182101
0.187167 0.241962 0.159976
0.473396 0.271931 0.214923
0.77496 0.269749 0.281498
1 0.284245 0.352071
0.296925 0.439048 0.371878
0.308354 0.454444 0.34992
0.506493 0.474784 0.252583
0.717128 0.516793 0.348058
0.939467 0.542062 0.406928
0.43505 0.653452 0.545815
0.444312 0.667811 0.52784
0.488365 0.716945 0.467857
0.784665 0.716014 0.38085
0.946212 0.754559 0.459388
0.550134 0.847639 0.696773
0.55938 0.861875 0.679896
0.582116 0.905058 0.613077
0.730144 0.948425 0.637446
0.99649 0.927504 0.565179
0.0653849 0.0721294 0.198871
0.212741 0.00872816 0.255772
0.536507 0.00549325 0.292515
0.824048 0.00840772 0.36878
1 0.0360266 0.428122
0.148562 0.221637 0.264515
0.217929 0.236347 0.248539
0.516365 0.264469 0.323659
0.803067 0.27837 0.400381
1 0.290654 0.457877
0.291508 0.441413 0.424765
0.315877 0.413184 0.381781
0.498604 0.478447 0.350332
0.729229 0.510689 0.4121
0.958099 0.532219 0.458045
0.433448 0.655909 0.593545
0.451011 0.626871 0.552972
0.507134 0.695796 0.514534
0.777111 0.718425 0.46215
0.947646 0.750912 0.522072
0.549554 0.850202 0.744961
0.563867 0.819791 0.702419
0.612711 0.874022 0.664118
0.737728 0.935668 0.672618
0.987961 0.930465 0.64448
0.161578 0.172671 0.420127
0.225467 0.148775 0.462791
0.547051 0.00549325 0.546593
0.849165 0.00549325 0.535775
1 0.00549325 0.565774
0.192966 0.259632 0.418006
0.228702 0.274113 0.417838
0.56524 0.262837 0.564065
0.864683 0.247105 0.553185
1 0.235111 0.583963
0.311101 0.44828 0.534005
0.336522 0.443229 0.514519
0.491218 0.491142 0.491447
0.810178 0.526909 0.584787
1 0.533181 0.633783
0.42916 0.659785 0.68072
0.450263 0.642725 0.648386
0.536889 0.615534 0.575921
0.76817 0.724453 0.59913
0.954635 0.747448 0.638972
0.535714 0.852537 0.83328
0.562219 0.832654 0.797391
0.63006 0.784344 0.705409
0.746899 0.907286 0.731136
0.977325 0.93727 0.771649
0.245914 0.260456 0.635798
0.287984 0.236042 0.670542
0.54612 0.105882 0.779065
0.854337 0.00549325 0.842664
1 0.00549325 0.828595
0.26009 0.324773 0.609827
0.290471 0.333486 0.608164
0.520104 0.305364 0.755825
0.874052 0.248249 0.860838
1 0.240818 0.839246
0.342443 0.472023 0.684306
0.357458 0.470893 0.675029
0.481804 0.517479 0.681483
0.893614 0.547646 0.87921
1 0.542031 0.870954
0.45594 0.669001 0.826581
0.473594 0.662882 0.807187
0.578119 0.674388 0.748852
0.763836 0.742046 0.755199
1 0.780133 0.836988
0.569986 0.860761 0.937041
0.591409 0.846799 0.90547
0.655726 0.824613 0.83827
0.785122 0.849454 0.814847
0.970413 0.950713 0.896147
0.307485 0.324895 0.826276
0.339834 0.299458 0.858778
0.548379 0.229831 0.943984
0.837736 0.00549325 1
1 0.00549325 1
0.316655 0.379248 0.79263
0.343435 0.386969 0.785245
0.485466 0.367681 0.922423
0.839017 0.252674 1
1 0.238895 1
0.376059 0.50576 0.837903
0.392538 0.51017 0.825986
0.490883 0.550027 0.835309
0.838331 0.530922 1
1 0.539467 1
0.479255 0.688914 0.950896
0.493217 0.684642 0.939178
0.558175 0.694697 0.923018
0.735119 0.76463 0.946334
1 0.824155 1
0.579065 0.868467 1
0.594903 0.862043 1
0.681941 0.862089 0.996887
0.832258 0.906386 0.964508
0.975998 0.967697 0.972946
