bundles/resolve-cinematic-luts/Lens Distortions - Finishing LUTs/LD - Amber X 3.cube
TITLE "LD - Amber X 3"
# Copyright (c) Lens Distortions, LLC. All Rights Reserved.
# LensDistortions.com
# ref-AM6
LUT_3D_SIZE 33
0.0166629 0.0152743 0.0183261
0.0194705 0.015198 0.0178073
0.0354467 0.0152132 0.0179751
0.059144 0.0152895 0.0181888
0.0904097 0.0154726 0.017731
0.128557 0.0157473 0.0167391
0.167071 0.0160983 0.0160983
0.20499 0.0165103 0.0165103
0.242405 0.0169375 0.0169375
0.278569 0.01738 0.01738
0.314275 0.0178378 0.0178378
0.349477 0.0183261 0.0183261
0.383307 0.0187991 0.0187991
0.416571 0.0192874 0.0192874
0.44921 0.0197757 0.0197757
0.481147 0.020264 0.020264
0.513191 0.0207675 0.0207675
0.545037 0.0212711 0.0212711
0.577005 0.0217899 0.0217899
0.608972 0.0223239 0.0223239
0.641245 0.0228733 0.0228733
0.673838 0.0234379 0.0234379
0.706111 0.0240024 0.0240024
0.738781 0.0245823 0.0245823
0.772 0.0251774 0.0251774
0.804639 0.0257572 0.0257725
0.837797 0.0263676 0.0263676
0.870726 0.026978 0.0269932
0.903853 0.0276036 0.0276036
0.937316 0.0282444 0.0282444
0.939361 0.028275 0.0282902
0.939361 0.028275 0.0282902
0.939361 0.028275 0.0282902
0.0194858 0.0273136 0.0219425
0.0212711 0.0242161 0.0197604
0.0357366 0.0256199 0.0162356
0.0588998 0.0252232 0.0162661
0.0894942 0.0246128 0.0158694
0.125338 0.0231174 0.0160372
0.163653 0.0213169 0.0162966
0.201129 0.0196231 0.0166018
0.237751 0.0184634 0.0169528
0.274311 0.0175479 0.0173342
0.310597 0.017792 0.017792
0.346288 0.0182803 0.0182803
0.380911 0.0187686 0.0187686
0.414466 0.0192416 0.0192569
0.447105 0.0197299 0.0197452
0.479789 0.0202335 0.0202335
0.512337 0.0207523 0.0207523
0.544839 0.0212711 0.0212711
0.576776 0.0217899 0.0217899
0.608896 0.0223239 0.0223239
0.640909 0.0228733 0.0228733
0.67332 0.0234226 0.0234226
0.705684 0.0239872 0.0239872
0.738277 0.0247349 0.0245823
0.770916 0.0258183 0.0251774
0.803632 0.0267491 0.0257877
0.837186 0.0281071 0.0264286
0.870069 0.0290074 0.0270542
0.90312 0.0299229 0.0276951
0.936477 0.0308232 0.028336
0.939529 0.0302281 0.0283665
0.939513 0.0301671 0.0283665
0.939513 0.0301366 0.0283665
0.0240787 0.0431678 0.0273747
0.0241245 0.0431983 0.0233921
0.0437171 0.0384375 0.0212558
0.0577096 0.0415045 0.0163882
0.0879072 0.0409705 0.0165255
0.124636 0.0385138 0.0166781
0.162524 0.0363928 0.0169223
0.200183 0.0343175 0.0172122
0.238148 0.0328832 0.0175631
0.275273 0.0318303 0.0179446
0.312169 0.0309606 0.0183719
0.348241 0.0304417 0.0188144
0.383368 0.0303502 0.0192874
0.41738 0.0307774 0.0197757
0.451011 0.031342 0.0202792
0.483925 0.0321202 0.020798
0.516594 0.0334173 0.0213474
0.548867 0.034287 0.0218814
0.58114 0.0352331 0.0224308
0.613245 0.0361486 0.0229801
0.645167 0.0370642 0.0235447
0.677485 0.0380102 0.0241093
0.710018 0.0390478 0.0247044
0.742626 0.0403449 0.0252995
0.77554 0.0414588 0.0259251
0.80824 0.0428321 0.0265507
0.841077 0.0441291 0.0271763
0.874205 0.045182 0.0278172
0.907118 0.0462043 0.0284428
0.940398 0.0470741 0.029099
0.940414 0.0471809 0.029099
0.940383 0.0467231 0.0290837
0.940383 0.0466011 0.0290684
0.0301061 0.0644083 0.0334173
0.029984 0.0640879 0.0292668
0.0353704 0.0623941 0.0300755
0.0741131 0.0585794 0.0236515
0.0871138 0.0636454 0.0174716
0.123339 0.0629282 0.0177005
0.161395 0.0610666 0.0179599
0.20058 0.0591135 0.018265
0.238941 0.0574044 0.0186007
0.277455 0.0561227 0.0189975
0.314961 0.0555428 0.01944
0.3523 0.0552834 0.019913
0.387869 0.0551003 0.0203861
0.422324 0.0554055 0.0208896
0.45597 0.0560159 0.0213931
0.488884 0.0567483 0.021912
0.521935 0.0581521 0.0224765
0.554192 0.0593118 0.0230259
0.586389 0.0604562 0.0235752
0.618967 0.0617838 0.024155
0.651133 0.0629129 0.0247196
0.683375 0.0640116 0.0252995
0.715892 0.0651408 0.0258946
0.748592 0.0662699 0.0265049
0.781125 0.0673991 0.0271
0.813886 0.0685283 0.0277256
0.847074 0.0703441 0.0283818
0.88043 0.0716106 0.0290379
0.913314 0.0725719 0.0296635
0.941817 0.073991 0.0303807
0.941863 0.0748455 0.0309148
0.941863 0.0747692 0.0309911
0.941848 0.0744335 0.0309148
0.0373236 0.0900282 0.0396582
0.0369421 0.0889448 0.0359503
0.0371252 0.0895705 0.0361334
0.057557 0.0900893 0.0379339
0.10724 0.0856641 0.0275731
0.121935 0.0911727 0.0188907
0.160525 0.0907454 0.0191958
0.198734 0.0919966 0.0196384
0.238575 0.0901961 0.0199893
0.278004 0.0896468 0.0204318
0.316426 0.0886397 0.0208591
0.35375 0.0883497 0.0213321
0.390066 0.0886397 0.0218357
0.425101 0.0892805 0.0223545
0.459022 0.0902876 0.0228885
0.492409 0.0899519 0.0233616
0.525536 0.0914168 0.0239261
0.558343 0.093019 0.024506
0.590845 0.0945449 0.0250858
0.62324 0.0959182 0.0256504
0.65568 0.0972763 0.0262455
0.688365 0.0988327 0.0268559
0.72079 0.100374 0.0274662
0.753582 0.101854 0.0280766
0.786664 0.103319 0.0289616
0.819593 0.104005 0.0302281
0.852888 0.105898 0.0316014
0.886168 0.107591 0.0329595
0.919219 0.109041 0.034287
0.943725 0.110109 0.0353857
0.943771 0.110842 0.0360266
0.943771 0.110918 0.0362707
0.943755 0.110613 0.0362249
0.0458076 0.120256 0.047425
0.045304 0.11873 0.0443122
0.0453346 0.118837 0.0443427
0.05037 0.12163 0.0452888
0.0867628 0.126497 0.0431067
0.140658 0.12105 0.0314794
0.158648 0.126009 0.020676
0.198489 0.125612 0.0210422
0.236423 0.126421 0.0214847
0.27538 0.126589 0.0219577
0.314122 0.126467 0.0224308
0.352361 0.12636 0.0229191
0.389151 0.12668 0.0234226
0.424765 0.12726 0.0239567
0.459236 0.128206 0.0244907
0.492912 0.128298 0.0249943
0.526146 0.129732 0.0255589
0.559197 0.131304 0.0261234
0.592157 0.132891 0.0267185
0.62472 0.134539 0.0273136
0.657588 0.135973 0.0279088
0.690181 0.137346 0.0285496
0.723049 0.138643 0.0297551
0.755978 0.140459 0.0310826
0.788937 0.141802 0.0323796
0.822385 0.142565 0.0337224
0.855222 0.143603 0.03505
0.888655 0.144869 0.0364385
0.92166 0.145968 0.0378271
0.945663 0.146822 0.0390021
0.945708 0.147631 0.0396429
0.945708 0.147631 0.0399939
0.945678 0.147066 0.0399481
0.0549783 0.152911 0.0564126
0.0544137 0.151171 0.0534218
0.0542763 0.150698 0.0532845
0.0563821 0.153033 0.0540169
0.0719921 0.15761 0.0551308
0.120531 0.16463 0.044419
0.179446 0.15671 0.0374914
0.196307 0.161959 0.0225681
0.236286 0.161181 0.0229648
0.273915 0.162097 0.0234379
0.31136 0.163851 0.0239719
0.349828 0.164157 0.0244755
0.386938 0.164279 0.024979
0.422904 0.165011 0.0255131
0.457847 0.165972 0.0260471
0.491936 0.166003 0.026566
0.52575 0.167559 0.0271305
0.559182 0.169284 0.0277256
0.591959 0.170672 0.0283055
0.624826 0.172045 0.0288853
0.657786 0.173434 0.0298466
0.690593 0.174624 0.0310521
0.723354 0.175937 0.0323186
0.756619 0.177249 0.0336156
0.789715 0.178531 0.0349584
0.823087 0.179263 0.0364233
0.856138 0.180209 0.0377203
0.889265 0.181384 0.0390936
0.922438 0.182315 0.0404517
0.94757 0.183093 0.0416876
0.947585 0.18323 0.0422675
0.94757 0.183108 0.0426795
0.94754 0.182467 0.0426337
0.0642252 0.18587 0.0657359
0.0635233 0.183658 0.0625315
0.0634012 0.183185 0.0623941
0.0638132 0.184695 0.0628214
0.0738537 0.188525 0.0642405
0.100374 0.195605 0.0627146
0.157397 0.202319 0.0465095
0.217868 0.192935 0.0436561
0.234379 0.198505 0.024506
0.274189 0.196948 0.0249027
0.311177 0.197742 0.025391
0.347982 0.200092 0.0259556
0.384466 0.201389 0.0265049
0.420905 0.202533 0.0270695
0.45594 0.203204 0.0275883
0.490318 0.204227 0.0281376
0.524361 0.205203 0.0287022
0.557809 0.206485 0.0292668
0.590936 0.207813 0.0298466
0.624094 0.209049 0.0307774
0.656977 0.210498 0.0319982
0.689784 0.211505 0.0332036
0.722881 0.212558 0.0344549
0.756268 0.214313 0.0359045
0.789563 0.215351 0.0372625
0.822812 0.215473 0.0385595
0.855863 0.216403 0.0399023
0.889021 0.217304 0.0411841
0.922164 0.218067 0.0425422
0.949447 0.218814 0.0437476
0.949462 0.219181 0.0444495
0.949432 0.218692 0.0447395
0.949401 0.218051 0.0447089
0.0735485 0.219089 0.0752422
0.0728466 0.216831 0.0718395
0.0726482 0.216159 0.0716564
0.0728008 0.216693 0.071809
0.0800488 0.219974 0.0730297
0.0975204 0.22562 0.0743725
0.132342 0.23505 0.0654612
0.211276 0.235264 0.0589914
0.255268 0.229572 0.0501259
0.271687 0.234928 0.0274205
0.311559 0.232868 0.0268711
0.348241 0.234195 0.0274052
0.383902 0.236088 0.0279545
0.418585 0.238651 0.0285496
0.453605 0.240055 0.0291142
0.488457 0.241581 0.0296788
0.522576 0.242939 0.0302586
0.556054 0.243381 0.0307927
0.589227 0.244617 0.0315251
0.622309 0.245777 0.0326696
0.655467 0.246952 0.0338445
0.688502 0.248051 0.0350805
0.721889 0.249454 0.0364385
0.755215 0.250431 0.0377203
0.78822 0.25124 0.0390326
0.821653 0.251179 0.0402838
0.854566 0.251942 0.0415198
0.887648 0.252903 0.0428016
0.921187 0.253574 0.0441444
0.951308 0.254429 0.0454871
0.951278 0.253971 0.0459297
0.951247 0.253239 0.0461738
0.951217 0.252613 0.0461585
0.0828717 0.252293 0.0849165
0.0821241 0.249897 0.081117
0.0818494 0.24892 0.0808423
0.0819104 0.249149 0.0809033
0.0869917 0.252018 0.0819562
0.101625 0.256992 0.0836042
0.127489 0.264057 0.0825971
0.165621 0.274434 0.0655833
0.249989 0.271656 0.0677501
0.291005 0.266804 0.0556191
0.309209 0.271122 0.0312963
0.348821 0.269505 0.0289006
0.384771 0.270527 0.0294194
0.419577 0.272541 0.029984
0.453178 0.275059 0.0305791
0.486244 0.278035 0.0311894
0.520073 0.279072 0.0317388
0.553506 0.2804 0.0323033
0.586923 0.280949 0.0332036
0.620249 0.281987 0.0343328
0.653452 0.283085 0.0355535
0.686915 0.284291 0.0368048
0.720073 0.285191 0.037995
0.753033 0.285969 0.0392004
0.78645 0.28658 0.0404364
0.819471 0.286641 0.0416724
0.852735 0.287526 0.0429084
0.886046 0.288212 0.0441749
0.919112 0.288624 0.0453651
0.952224 0.288899 0.04654
0.953079 0.288426 0.0469368
0.953033 0.287373 0.047303
0.952987 0.286732 0.0472877
0.0921798 0.285405 0.0948043
0.0914473 0.283131 0.0907149
0.0910964 0.28188 0.0900893
0.0910658 0.281773 0.090074
0.0943923 0.283955 0.090837
0.10721 0.28806 0.0924086
0.127687 0.29456 0.0934768
0.161578 0.303487 0.0859541
0.200275 0.313207 0.0650187
0.281514 0.309392 0.0696727
0.326543 0.303746 0.0613413
0.346273 0.307286 0.0359655
0.38468 0.305623 0.0308995
0.42034 0.306508 0.0314336
0.453941 0.308156 0.0319829
0.486702 0.310597 0.0325628
0.51873 0.313527 0.0331579
0.551049 0.315892 0.033753
0.584619 0.317143 0.0349126
0.617945 0.317876 0.0359808
0.651301 0.318761 0.0370794
0.68426 0.31957 0.0382086
0.717449 0.320287 0.0393378
0.750835 0.32076 0.0404669
0.783719 0.321233 0.0416114
0.817243 0.321401 0.0428473
0.850065 0.322087 0.043946
0.883375 0.322255 0.0450599
0.916381 0.322499 0.0461585
0.949248 0.322652 0.0471962
0.954833 0.322118 0.0475776
0.954757 0.320516 0.0478828
0.954726 0.320058 0.0478523
0.101503 0.318563 0.104997
0.100603 0.315663 0.100618
0.100114 0.314015 0.0991073
0.10013 0.314092 0.0991379
0.101717 0.315587 0.0996262
0.113664 0.319615 0.101244
0.132921 0.325322 0.102693
0.159213 0.33257 0.100969
0.195499 0.342992 0.0854658
0.236728 0.351125 0.0654612
0.317159 0.345647 0.0758068
0.361105 0.340124 0.066804
0.382589 0.343053 0.0411383
0.419837 0.341222 0.0328832
0.45507 0.341863 0.0334173
0.487709 0.343603 0.0339666
0.519738 0.345785 0.0345312
0.551476 0.348318 0.0353704
0.582849 0.351156 0.036408
0.615473 0.352941 0.0374456
0.648508 0.353628 0.038468
0.68162 0.35407 0.0394903
0.714611 0.354452 0.0405127
0.74789 0.355123 0.0416724
0.781109 0.355535 0.042771
0.814313 0.355688 0.0437629
0.847166 0.355703 0.0447242
0.880079 0.35581 0.0457465
0.913146 0.355825 0.0467384
0.946075 0.356039 0.047837
0.956558 0.355367 0.0482185
0.956451 0.353384 0.048249
0.95642 0.352804 0.0482185
0.110628 0.350988 0.115267
0.109728 0.348104 0.110719
0.109163 0.346273 0.108171
0.109071 0.345953 0.10808
0.109804 0.347158 0.108446
0.120333 0.350744 0.109926
0.138369 0.355718 0.111528
0.161883 0.362295 0.111635
0.191485 0.370459 0.105806
0.229786 0.381186 0.0844892
0.275212 0.387854 0.0679026
0.348638 0.382071 0.078233
0.394949 0.375921 0.0722057
0.418036 0.377905 0.0462043
0.454368 0.376608 0.0349889
0.488869 0.376638 0.0353704
0.520958 0.378393 0.0359808
0.552651 0.38024 0.0369116
0.583947 0.382254 0.0378424
0.615076 0.384634 0.0388037
0.646433 0.386847 0.0397803
0.679011 0.388174 0.0408637
0.711986 0.388281 0.0417945
0.74522 0.388617 0.0427405
0.778149 0.388983 0.0437171
0.810895 0.389166 0.0445716
0.843763 0.388724 0.0455024
0.877073 0.388678 0.0464637
0.909865 0.388708 0.0474403
0.942748 0.388663 0.0483253
0.958251 0.388067 0.0487831
0.958144 0.385794 0.0487526
0.958114 0.385245 0.0487984
0.119631 0.382971 0.12578
0.118715 0.37998 0.121035
0.118166 0.378347 0.117174
0.117998 0.377737 0.116991
0.118624 0.378607 0.117266
0.127367 0.381445 0.118486
0.144442 0.386557 0.120302
0.168185 0.392782 0.12163
0.192828 0.399145 0.11928
0.225971 0.40882 0.106249
0.265049 0.418647 0.0838941
0.313726 0.423087 0.0709544
0.383383 0.41648 0.0832837
0.427527 0.410574 0.0771191
0.452613 0.412512 0.0519112
0.487327 0.410727 0.0392615
0.521889 0.410727 0.037644
0.553796 0.411978 0.0385138
0.585107 0.413321 0.0393683
0.616053 0.415091 0.0402228
0.647425 0.416785 0.0411231
0.67866 0.418662 0.0420691
0.70959 0.420768 0.0429694
0.742367 0.42121 0.0438392
0.775036 0.421286 0.0446326
0.80763 0.421347 0.0454871
0.840894 0.421515 0.0464637
0.873838 0.421042 0.0473335
0.906813 0.420859 0.048188
0.939452 0.420691 0.0490425
0.959915 0.419898 0.0495155
0.959792 0.417578 0.0496223
0.959762 0.416922 0.0495918
0.128466 0.414343 0.136446
0.127642 0.411673 0.131624
0.12694 0.409537 0.126421
0.126696 0.408728 0.125689
0.127245 0.409491 0.125933
0.134859 0.411734 0.126955
0.150546 0.416312 0.12903
0.1738 0.422156 0.131075
0.198108 0.428428 0.130266
0.225254 0.43566 0.123674
0.260105 0.446326 0.10309
0.300587 0.454429 0.0845045
0.35462 0.456672 0.0782483
0.415229 0.450156 0.0866255
0.460395 0.444617 0.0829175
0.48603 0.445624 0.0576791
0.520317 0.444205 0.044419
0.553872 0.443641 0.040116
0.586206 0.444129 0.0408942
0.617487 0.445472 0.0417029
0.64863 0.446677 0.0424964
0.679728 0.448112 0.0433356
0.710781 0.449653 0.0442054
0.741833 0.451301 0.0450599
0.773144 0.452567 0.0459144
0.805264 0.453071 0.0467231
0.837919 0.452873 0.0475624
0.871138 0.452903 0.0483864
0.903975 0.452293 0.0492103
0.93669 0.452064 0.0500343
0.961563 0.451743 0.0506447
0.96141 0.448798 0.0506142
0.961379 0.448218 0.0505989
0.137148 0.445167 0.146853
0.136278 0.442313 0.142016
0.135622 0.440345 0.136599
0.135225 0.439139 0.134234
0.135637 0.439628 0.134386
0.143114 0.441794 0.135515
0.156985 0.445975 0.138048
0.179522 0.451453 0.140459
0.203983 0.457221 0.140429
0.227726 0.46363 0.137041
0.256916 0.472282 0.125368
0.294652 0.482551 0.100999
0.335927 0.488777 0.0859998
0.392782 0.488914 0.0864118
0.448463 0.482811 0.0920119
0.491981 0.476951 0.0884871
0.518776 0.477791 0.06392
0.552621 0.476326 0.0495613
0.585916 0.475349 0.0425727
0.619089 0.47538 0.0433051
0.650156 0.476265 0.0440528
0.681208 0.477256 0.0448157
0.712154 0.478355 0.0456092
0.743175 0.479576 0.0464027
0.774456 0.480949 0.0472267
0.805798 0.481926 0.0480354
0.836713 0.48336 0.0488746
0.868589 0.483833 0.0496681
0.901671 0.48368 0.0505684
0.934295 0.483253 0.0512856
0.963165 0.482658 0.0519112
0.963058 0.480461 0.0518959
0.963027 0.479835 0.0518654
0.145724 0.475608 0.157488
0.144823 0.472602 0.152605
0.144121 0.470481 0.146715
0.14374 0.469444 0.143114
0.143999 0.469444 0.143084
0.151431 0.471565 0.144625
0.163287 0.474937 0.146746
0.185107 0.480323 0.149462
0.209873 0.486061 0.150225
0.233783 0.491783 0.147814
0.258625 0.498619 0.140673
0.290303 0.508278 0.122225
0.328817 0.517052 0.0999008
0.371984 0.521874 0.0886244
0.428794 0.520211 0.0919509
0.47985 0.514443 0.0962234
0.523156 0.50869 0.0932479
0.550958 0.509102 0.0700542
0.584497 0.507576 0.0549477
0.617914 0.506065 0.0447547
0.65124 0.505806 0.0454719
0.682567 0.506325 0.0462043
0.713664 0.507256 0.0469825
0.745342 0.508446 0.0478828
0.776242 0.509331 0.048661
0.807523 0.510307 0.0494392
0.83859 0.511208 0.050248
0.869535 0.5122 0.0510414
0.900938 0.513252 0.0518349
0.93228 0.514092 0.0525978
0.964782 0.513649 0.0533608
0.96466 0.511482 0.0533303
0.964645 0.510948 0.0533455
0.154086 0.505272 0.167758
0.153201 0.502327 0.162951
0.152575 0.50045 0.156893
0.152087 0.499107 0.152422
0.152605 0.499214 0.152178
0.159136 0.500603 0.153307
0.169879 0.50367 0.155322
0.190417 0.508598 0.158099
0.215091 0.514244 0.159548
0.239353 0.519524 0.157855
0.262013 0.525475 0.153109
0.289128 0.53344 0.141421
0.323308 0.543435 0.11696
0.362615 0.550057 0.100084
0.408484 0.553613 0.0919814
0.464668 0.550668 0.10161
0.510979 0.54548 0.100755
0.553841 0.53962 0.0981613
0.582925 0.539834 0.0758068
0.616159 0.538216 0.0602731
0.650019 0.536675 0.0484474
0.683253 0.5364 0.0478065
0.715434 0.536355 0.0485542
0.746761 0.536934 0.0493019
0.778195 0.537575 0.0500649
0.809522 0.538369 0.0508431
0.840696 0.539345 0.0516365
0.871855 0.539986 0.0523995
0.903181 0.540856 0.0531624
0.93431 0.541939 0.0540475
0.965545 0.542733 0.0548104
0.966247 0.541924 0.0547799
0.966232 0.54168 0.0547799
0.16231 0.534493 0.178012
0.161517 0.531853 0.173388
0.1608 0.529656 0.166781
0.160281 0.528176 0.161486
0.161196 0.528161 0.160937
0.167025 0.529534 0.162051
0.177478 0.532219 0.163882
0.194965 0.536416 0.166354
0.219608 0.541695 0.168154
0.244465 0.546944 0.167361
0.267445 0.552438 0.163745
0.290776 0.558999 0.156085
0.319326 0.567758 0.139651
0.356313 0.576928 0.114443
0.396445 0.582666 0.101289
0.443778 0.584817 0.0968032
0.494209 0.581582 0.101671
0.54165 0.576089 0.105501
0.58439 0.570443 0.102876
0.614206 0.570077 0.081117
0.647868 0.568536 0.0657359
0.681743 0.566766 0.0531472
0.715251 0.566217 0.0500191
0.748333 0.565637 0.0506905
0.779843 0.566323 0.0514534
0.811399 0.567025 0.0522927
0.84268 0.567712 0.0530709
0.874098 0.568292 0.0538186
0.905547 0.568948 0.0545815
0.936843 0.56965 0.0553445
0.967727 0.570413 0.0560769
0.967681 0.569635 0.0560159
0.967712 0.570321 0.0560464
0.170901 0.563287 0.187945
0.169955 0.560586 0.182986
0.1691 0.558419 0.176501
0.168368 0.556741 0.170626
0.169451 0.556481 0.169421
0.174304 0.557687 0.170352
0.184207 0.559945 0.172015
0.200092 0.563958 0.174502
0.22417 0.56907 0.176577
0.248844 0.573953 0.176333
0.272175 0.579232 0.173632
0.294545 0.585168 0.168032
0.319921 0.592386 0.15639
0.35172 0.602319 0.134478
0.389258 0.609766 0.114092
0.429404 0.614679 0.104326
0.477897 0.615915 0.102892
0.527092 0.611902 0.109392
0.572274 0.606683 0.109972
0.614755 0.600732 0.107469
0.646143 0.600397 0.0873121
0.679881 0.598733 0.0713207
0.713802 0.597009 0.0580758
0.747585 0.595819 0.0522621
0.781308 0.595483 0.0530098
0.81323 0.595605 0.0537575
0.844816 0.596017 0.0545052
0.876249 0.596521 0.0552377
0.907759 0.59733 0.0560006
0.939162 0.597879 0.0567483
0.969177 0.598367 0.057435
0.969131 0.597681 0.0574502
0.969162 0.598245 0.0574807
0.1794 0.591684 0.197543
0.178408 0.588846 0.19237
0.177615 0.58677 0.186023
0.177081 0.585504 0.180117
0.177707 0.584833 0.17789
0.181277 0.585412 0.178424
0.190753 0.587716 0.180117
0.20499 0.591028 0.182269
0.228061 0.596063 0.184695
0.253178 0.601007 0.185168
0.277134 0.606088 0.1832
0.299519 0.611688 0.178729
0.321904 0.617975 0.170809
0.349218 0.62652 0.155398
0.383597 0.635904 0.129335
0.421942 0.642512 0.115236
0.461707 0.646448 0.10808
0.510689 0.646723 0.109117
0.557153 0.642496 0.112184
0.602991 0.636927 0.115053
0.646143 0.631342 0.112825
0.677852 0.630426 0.0929427
0.711696 0.628977 0.0764782
0.745861 0.627207 0.0632029
0.780194 0.625345 0.0544747
0.813199 0.62533 0.0552071
0.846723 0.624918 0.0559854
0.878798 0.625422 0.0567941
0.910262 0.625971 0.0575265
0.941817 0.626444 0.0582284
0.970642 0.626825 0.0588235
0.970596 0.626017 0.0587625
0.970626 0.626581 0.058793
0.187671 0.619623 0.206683
0.186755 0.6168 0.201511
0.186084 0.614939 0.195422
0.185382 0.613382 0.189075
0.185916 0.612741 0.186114
0.188937 0.613199 0.186618
0.197589 0.615106 0.188037
0.210636 0.618265 0.190143
0.231418 0.622858 0.192599
0.257099 0.627787 0.193606
0.281514 0.632639 0.192309
0.304006 0.637888 0.188815
0.325475 0.643778 0.182742
0.350271 0.650889 0.171221
0.379797 0.660639 0.151751
0.415579 0.668849 0.128786
0.453925 0.674846 0.117464
0.495598 0.677913 0.11313
0.542794 0.677043 0.115282
0.588922 0.672786 0.119036
0.633921 0.667521 0.11986
0.67689 0.661494 0.11751
0.709636 0.660685 0.098436
0.743832 0.659266 0.0820172
0.77789 0.657435 0.0684215
0.812711 0.655619 0.0580148
0.846052 0.655497 0.0575418
0.880232 0.654658 0.0582132
0.912306 0.654795 0.0589456
0.944198 0.655329 0.0596628
0.972137 0.655634 0.0602579
0.972107 0.654978 0.0602884
0.972122 0.655421 0.0603037
0.19588 0.647257 0.215641
0.195087 0.644648 0.210712
0.194324 0.64268 0.204669
0.193576 0.640986 0.197726
0.193668 0.640223 0.19411
0.196658 0.640726 0.194598
0.203937 0.64242 0.195911
0.216159 0.645289 0.197864
0.234455 0.649378 0.200275
0.260578 0.654566 0.201968
0.285679 0.659297 0.201282
0.308721 0.664485 0.198611
0.33051 0.670207 0.193652
0.352102 0.676524 0.185657
0.37879 0.68481 0.170809
0.411292 0.694621 0.146456
0.447333 0.70164 0.129824
0.485237 0.707073 0.121187
0.529 0.709789 0.119753
0.575067 0.70782 0.121859
0.620142 0.703471 0.123995
0.664607 0.697902 0.124071
0.708278 0.69192 0.122591
0.741726 0.691234 0.103944
0.775906 0.689723 0.0873274
0.810361 0.687907 0.0738842
0.844862 0.686061 0.0627146
0.879057 0.685145 0.0597086
0.912764 0.684901 0.060441
0.946532 0.684306 0.0611429
0.973617 0.684459 0.061738
0.973587 0.683833 0.0617227
0.973617 0.684215 0.061738
0.204257 0.675273 0.224735
0.203296 0.672343 0.219348
0.202487 0.670298 0.213718
0.201831 0.668757 0.206775
0.201434 0.667872 0.202228
0.204257 0.668055 0.202579
0.210346 0.669398 0.203632
0.221836 0.672129 0.205509
0.238651 0.676112 0.207889
0.263783 0.681147 0.209903
0.289113 0.685802 0.209934
0.31281 0.690822 0.20795
0.33489 0.696391 0.203983
0.356039 0.702464 0.197635
0.380377 0.709529 0.18616
0.408377 0.719249 0.168566
0.442741 0.728237 0.14406
0.479133 0.734951 0.132342
0.515938 0.739574 0.125872
0.561685 0.741482 0.126146
0.606928 0.738521 0.12842
0.651713 0.733791 0.130068
0.696361 0.728344 0.129213
0.740139 0.722438 0.127733
0.773983 0.721645 0.109499
0.808026 0.72018 0.0929732
0.842802 0.718532 0.0792096
0.877836 0.716762 0.067628
0.912367 0.71516 0.0619516
0.945846 0.715373 0.0627756
0.975158 0.714122 0.0633097
0.975128 0.713466 0.0632639
0.975128 0.713726 0.0632486
0.212345 0.702602 0.232761
0.211368 0.699794 0.227665
0.210788 0.698116 0.222843
0.210086 0.696483 0.21593
0.209476 0.695171 0.21062
0.211841 0.695415 0.21062
0.216724 0.696498 0.211414
0.22771 0.699138 0.213275
0.243626 0.702861 0.215579
0.267033 0.707835 0.217899
0.292973 0.712749 0.218463
0.317327 0.717617 0.217105
0.340017 0.723018 0.213825
0.361181 0.728969 0.208606
0.382635 0.735668 0.20058
0.408728 0.743618 0.186145
0.439719 0.753826 0.163943
0.474266 0.761685 0.145357
0.510124 0.768093 0.13611
0.547799 0.772244 0.131716
0.594354 0.773083 0.132708
0.639139 0.769406 0.134874
0.683558 0.764614 0.135668
0.728206 0.759121 0.134432
0.77229 0.753063 0.132769
0.806302 0.752102 0.114717
0.840894 0.750973 0.0986801
0.875257 0.749401 0.0842298
0.91014 0.747509 0.0725567
0.945602 0.745815 0.064332
0.976761 0.745129 0.0648661
0.976715 0.744259 0.0648661
0.976654 0.743221 0.0648051
0.220417 0.729992 0.241077
0.219486 0.727245 0.236057
0.218921 0.725567 0.23212
0.218189 0.723918 0.224826
0.217594 0.722667 0.219211
0.219135 0.722469 0.218433
0.223056 0.723491 0.219135
0.233448 0.725856 0.220844
0.248463 0.729473 0.223133
0.270237 0.734234 0.225574
0.296162 0.739223 0.226658
0.321141 0.744137 0.225818
0.344335 0.749554 0.223362
0.366094 0.755398 0.218952
0.386786 0.761761 0.212528
0.410788 0.768856 0.201251
0.437476 0.77847 0.18497
0.470954 0.788388 0.160082
0.505364 0.795407 0.148104
0.540688 0.801312 0.140658
0.580957 0.804654 0.138338
0.626505 0.804257 0.139025
0.671336 0.800198 0.14136
0.715892 0.79559 0.141787
0.760143 0.789975 0.139254
0.804211 0.783703 0.137713
0.838849 0.783139 0.12047
0.873243 0.781781 0.104067
0.907912 0.780148 0.0893721
0.943252 0.778607 0.0778058
0.978393 0.776623 0.0690929
0.978286 0.775006 0.0664225
0.978271 0.774655 0.0664073
0.228443 0.757488 0.24947
0.227604 0.754742 0.244572
0.226993 0.753002 0.240772
0.226246 0.751247 0.233783
0.225742 0.750118 0.227771
0.226734 0.749935 0.226383
