bundles/resolve-cinematic-luts/Lens Distortions - Finishing LUTs/LD - Paradigm Teal 3.cube
TITLE "LD - Paradigm Teal 3"
# Copyright (c) Lens Distortions, LLC. All Rights Reserved.
# LensDistortions.com
# ref-PT2
LUT_3D_SIZE 5
0.00549325 0.00549325 0.00819409
0.19205 0.0208896 0.024506
0.508217 0.122789 0.0886091
0.755627 0.199786 0.144991
0.960204 0.261494 0.192172
0.0971084 0.23125 0.225559
0.22121 0.241184 0.128725
0.487129 0.295552 0.0433204
0.727703 0.34931 0.110277
0.937865 0.393515 0.164309
0.238209 0.469322 0.448386
0.346654 0.464851 0.41706
0.531991 0.501686 0.153079
0.745983 0.531884 0.0311284
0.929244 0.577142 0.0667735
0.38909 0.693874 0.647669
0.494575 0.686015 0.610269
0.616876 0.715953 0.48629
0.7991 0.753765 0.220401
0.97409 0.753506 0.0386664
0.499687 0.890303 0.828153
0.59913 0.882933 0.790112
0.7028 0.905364 0.679225
0.857908 0.942306 0.531502
0.993454 0.96611 0.280354
0.00549325 0.113313 0.180545
0.2 0.0611734 0.269108
0.51725 0.137713 0.262791
0.763912 0.192126 0.254276
0.968811 0.22771 0.265858
0.00549325 0.257527 0.306615
0.197925 0.253407 0.263798
0.494606 0.28748 0.26041
0.735698 0.337591 0.2934
0.943725 0.381964 0.323598
0.188052 0.483131 0.496666
0.341741 0.468223 0.446433
0.525261 0.5028 0.314504
0.740612 0.534798 0.259388
0.937774 0.565957 0.255085
0.334768 0.70811 0.700298
0.478035 0.691157 0.646448
0.599542 0.713039 0.586511
0.792401 0.754757 0.364584
0.968765 0.763516 0.276967
0.447791 0.903441 0.878935
0.578332 0.887602 0.828046
0.701289 0.893355 0.796124
0.857298 0.935012 0.631006
0.990585 0.96582 0.416678
0.00549325 0.264576 0.368078
0.0994736 0.274815 0.392966
0.536294 0.155627 0.52755
0.783093 0.195331 0.520073
0.973648 0.26305 0.508003
0.00549325 0.329931 0.423865
0.120592 0.328908 0.405341
0.51107 0.295018 0.500023
0.760403 0.325811 0.496803
0.957824 0.377356 0.475776
0.0298466 0.519677 0.6112
0.24715 0.506752 0.558465
0.520165 0.510033 0.506325
0.757977 0.527932 0.468025
0.943114 0.558938 0.486519
0.241321 0.733501 0.790951
0.405951 0.719676 0.731289
0.607874 0.713207 0.673686
0.783169 0.758816 0.560891
0.974563 0.773266 0.519692
0.36907 0.923949 0.948653
0.511711 0.91078 0.900603
0.69781 0.899992 0.839414
0.850065 0.929656 0.785901
0.986038 0.96611 0.60943
0.00549325 0.384436 0.531472
0.100221 0.386481 0.52372
0.496239 0.281209 0.759579
0.794629 0.237201 0.767529
0.986999 0.258732 0.780179
0.00549325 0.425391 0.559335
0.102281 0.422141 0.545037
0.435431 0.403372 0.691768
0.769879 0.351629 0.740795
0.972549 0.367468 0.756832
0.00549325 0.57351 0.725353
0.0352941 0.570901 0.706767
0.462852 0.569528 0.631785
0.759289 0.53933 0.726177
0.960128 0.556558 0.726894
0.0763409 0.773342 0.913222
0.298528 0.75967 0.856413
0.544335 0.758251 0.778515
0.778561 0.767086 0.751278
0.96875 0.774945 0.66714
0.264607 0.952209 1
0.436728 0.940658 0.981399
0.632349 0.933303 0.927855
0.858122 0.932876 0.889982
0.981216 0.96817 0.802853
0.00549325 0.473381 0.660319
0.100389 0.472114 0.648295
0.380209 0.447288 0.854124
0.774533 0.334096 0.950317
0.996826 0.299977 0.964523
0.00549325 0.508598 0.682094
0.101488 0.502342 0.664958
0.385779 0.51838 0.707973
0.740444 0.426108 0.920089
0.976013 0.401846 0.943771
0.00549325 0.629923 0.81651
0.00549325 0.631022 0.812512
0.423545 0.628199 0.745113
0.717739 0.588235 0.906233
0.962097 0.575082 0.924666
0.00549325 0.82092 1
0.0404517 0.814878 0.982055
0.438758 0.810666 0.913741
0.746593 0.809689 0.851102
0.965896 0.794171 0.926909
0.124346 0.979507 1
0.344274 0.970001 1
0.581491 0.965377 1
0.808972 0.967651 0.970565
0.980743 0.970214 0.948913
