bundles/resolve-cinematic-luts/Lens Distortions - Finishing LUTs/LD - Metallic Rose 1.cube
TITLE "LD - Metallic Rose 1"
# Copyright (c) Lens Distortions, LLC. All Rights Reserved.
# LensDistortions.com
# ref-MR5
LUT_3D_SIZE 9
0.00909438 0.00918593 0.00962844
0.066804 0.0184939 0.0293126
0.196918 0.0224918 0.0675364
0.380056 0.0335851 0.142351
0.520348 0.0502327 0.199573
0.663142 0.0700847 0.252049
0.809522 0.0891127 0.299336
0.937713 0.104921 0.339467
1 0.115923 0.367864
0.0639658 0.106172 0.0870222
0.0837873 0.120836 0.0741131
0.189441 0.131899 0.08365
0.363088 0.13872 0.134722
0.504082 0.14786 0.189822
0.647395 0.160235 0.243076
0.794736 0.172229 0.291066
0.924697 0.182895 0.33167
1 0.190616 0.360433
0.140932 0.216541 0.182101
0.148226 0.224857 0.170886
0.187167 0.241962 0.159976
0.340688 0.254826 0.168917
0.473396 0.271931 0.214923
0.617365 0.280629 0.255085
0.77496 0.269749 0.281498
0.906554 0.278111 0.322637
1 0.284245 0.352071
0.219699 0.327092 0.277287
0.225132 0.333669 0.269184
0.232273 0.346716 0.245945
0.368185 0.354986 0.193729
0.468223 0.374075 0.241443
0.590448 0.393652 0.282795
0.731746 0.407385 0.32253
0.865476 0.418173 0.35697
0.965194 0.42359 0.380468
0.296925 0.439048 0.371878
0.30161 0.445106 0.365469
0.308354 0.454444 0.34992
0.348226 0.480095 0.322637
0.506493 0.474784 0.252583
0.599573 0.496849 0.311543
0.717128 0.516793 0.348058
0.840681 0.53228 0.381323
0.939467 0.542062 0.406928
0.369085 0.548272 0.461845
0.373373 0.554131 0.456275
0.379034 0.562615 0.442512
0.389532 0.587106 0.400534
0.463249 0.609201 0.40705
0.643214 0.595834 0.318639
0.736339 0.619562 0.377386
0.844892 0.636988 0.407568
0.930724 0.651987 0.431632
0.43505 0.653452 0.545815
0.439048 0.659327 0.540581
0.444312 0.667811 0.52784
0.454627 0.68925 0.492348
0.488365 0.716945 0.467857
0.604501 0.729885 0.479973
0.784665 0.716014 0.38085
0.870176 0.738476 0.431052
0.946212 0.754559 0.459388
0.495216 0.755154 0.624125
0.499138 0.761257 0.61912
0.50425 0.770016 0.606851
0.51487 0.789609 0.575235
0.525124 0.819226 0.533745
0.601663 0.841917 0.543893
0.760983 0.840284 0.523903
0.912566 0.831144 0.440436
0.973968 0.848051 0.48542
0.550134 0.847639 0.696773
0.554101 0.853422 0.691844
0.55938 0.861875 0.679896
0.571069 0.879255 0.651194
0.582116 0.905058 0.613077
0.632029 0.930861 0.602869
0.730144 0.948425 0.637446
0.899428 0.932784 0.595743
0.99649 0.927504 0.565179
0.0301061 0.0328832 0.0818341
0.0847334 0.0175326 0.113634
0.204685 0.0107271 0.12903
0.38204 0.00549325 0.183108
0.526772 0.0164034 0.233463
0.669612 0.0340887 0.281147
0.815457 0.0535134 0.325292
0.942412 0.0723278 0.36321
1 0.0851759 0.390295
0.0670176 0.109926 0.136721
0.103075 0.117922 0.129137
0.21854 0.132769 0.15462
0.379858 0.140932 0.204395
0.516197 0.151659 0.250401
0.659541 0.163592 0.29659
0.806241 0.175402 0.339757
0.934783 0.185855 0.377188
1 0.193103 0.402899
0.136995 0.218143 0.213458
0.153368 0.203372 0.189715
0.199405 0.238621 0.194369
0.348531 0.252491 0.207324
0.487511 0.263981 0.240406
0.639048 0.258595 0.274983
0.785061 0.268849 0.321843
0.915496 0.277531 0.361395
1 0.283635 0.388998
0.218601 0.328405 0.302113
0.228748 0.315251 0.28249
0.253269 0.333959 0.277592
0.365087 0.356344 0.23949
0.46952 0.372641 0.275257
0.598749 0.389731 0.309789
0.741939 0.402686 0.344823
0.880018 0.406912 0.372351
0.985794 0.396658 0.383993
0.296559 0.440436 0.393378
0.304173 0.428046 0.375937
0.321965 0.441062 0.368902
0.353475 0.474205 0.342596
0.503227 0.476097 0.294102
0.600504 0.495598 0.341344
0.718334 0.515389 0.375341
0.847562 0.52842 0.404654
0.945754 0.53782 0.428092
0.369024 0.549661 0.481605
0.375402 0.537682 0.465431
0.390265 0.548592 0.457832
0.406287 0.576364 0.427008
0.468391 0.603983 0.425986
0.640192 0.597025 0.355093
0.737102 0.618296 0.404776
0.845762 0.635584 0.433051
0.931319 0.650477 0.456367
0.435096 0.65481 0.564736
0.440681 0.642618 0.54902
0.454032 0.652766 0.541176
0.468528 0.676783 0.513939
0.49279 0.710582 0.484031
0.598978 0.72845 0.501503
0.781628 0.716976 0.413855
0.868849 0.738293 0.459617
0.946639 0.753094 0.48397
0.495399 0.756603 0.642908
0.500389 0.743816 0.627131
0.512978 0.753857 0.619089
0.526802 0.776165 0.593759
0.540215 0.80853 0.558053
0.605829 0.836133 0.559991
0.756436 0.839017 0.548714
0.909682 0.832013 0.471489
0.971756 0.848173 0.513726
0.550454 0.849027 0.715724
0.554772 0.836652 0.699535
0.567117 0.845945 0.691325
0.580423 0.866194 0.665919
0.595163 0.894026 0.634394
0.635035 0.924987 0.616617
0.733242 0.943633 0.651331
0.895552 0.932067 0.620539
0.992935 0.928634 0.597055
0.0653849 0.0721294 0.198871
0.0988632 0.0613107 0.22327
0.212741 0.00872816 0.255772
0.395392 0.00549325 0.265095
0.536507 0.00549325 0.292515
0.679026 0.00549325 0.33022
0.824048 0.00840772 0.36878
0.949767 0.023621 0.40322
1 0.0360266 0.428122
0.0865644 0.127565 0.210193
0.105821 0.136233 0.209888
0.243549 0.138918 0.278004
0.405753 0.126757 0.27538
0.534737 0.121218 0.303868
0.675074 0.129686 0.341619
0.81912 0.140826 0.37969
0.945098 0.151598 0.414008
1 0.159213 0.437812
0.148562 0.221637 0.264515
0.16379 0.219348 0.254871
0.217929 0.236347 0.248539
0.384039 0.261112 0.289174
0.516365 0.264469 0.323659
0.657832 0.270771 0.362173
0.803067 0.27837 0.400381
0.931289 0.285725 0.434806
1 0.290654 0.457877
0.215656 0.329809 0.337148
0.227314 0.322484 0.323095
0.244831 0.304875 0.294575
0.361059 0.359228 0.298741
0.477592 0.371511 0.32137
0.618753 0.386282 0.34435
0.777813 0.380438 0.369589
0.912261 0.381582 0.402548
1 0.387579 0.430228
0.291508 0.441413 0.424765
0.303792 0.432761 0.410361
0.315877 0.413184 0.381781
0.367849 0.458595 0.375906
0.498604 0.478447 0.350332
0.60264 0.49395 0.385107
0.729229 0.510689 0.4121
0.862211 0.523583 0.437583
0.958099 0.532219 0.458045
0.366659 0.550576 0.511147
0.375509 0.54136 0.496818
0.386282 0.52253 0.470039
0.425772 0.554589 0.459327
0.475349 0.595041 0.45275
0.635691 0.59881 0.406668
0.738705 0.616403 0.445655
0.847303 0.633555 0.472175
0.936889 0.645747 0.492134
0.433448 0.655909 0.593545
0.44094 0.646021 0.579156
0.451011 0.626871 0.552972
0.484077 0.65388 0.538979
0.507134 0.695796 0.514534
0.589487 0.72607 0.531502
0.777111 0.718425 0.46215
0.867811 0.737423 0.502266
0.947646 0.750912 0.522072
0.494179 0.757839 0.671702
0.500679 0.746975 0.656886
0.510094 0.726848 0.630488
0.539834 0.751949 0.614542
0.560525 0.788952 0.591546
0.611658 0.826444 0.58378
0.74905 0.836622 0.585992
0.905226 0.833219 0.517876
0.968994 0.848157 0.557031
0.549554 0.850202 0.744961
0.55523 0.83949 0.72958
0.563867 0.819791 0.702419
0.59205 0.842206 0.685176
0.612711 0.874022 0.664118
0.638666 0.914916 0.636744
0.737728 0.935668 0.672618
0.889601 0.930861 0.658305
0.987961 0.930465 0.64448
0.113603 0.122957 0.311986
0.136767 0.109041 0.330327
0.226215 0.0779278 0.364263
0.399161 0.00549325 0.403708
0.54345 0.00549325 0.399115
0.694881 0.00549325 0.408072
0.837171 0.00549325 0.436179
0.960769 0.00549325 0.464286
1 0.00549325 0.485374
0.123583 0.163027 0.301549
0.140246 0.167636 0.302022
0.184329 0.170306 0.359609
0.411688 0.128939 0.412207
0.550942 0.124483 0.402136
0.696147 0.113573 0.416434
0.837156 0.109361 0.44419
0.959991 0.112535 0.472236
1 0.118334 0.492439
0.166217 0.234119 0.33312
0.175051 0.234623 0.330465
0.211475 0.251637 0.330831
0.419333 0.272053 0.419257
0.559564 0.261601 0.412451
0.693782 0.249439 0.431937
0.832334 0.250095 0.460288
0.95436 0.254475 0.489082
1 0.258045 0.508614
0.230518 0.333959 0.395514
0.239811 0.331456 0.388479
0.269657 0.331289 0.371542
0.362997 0.364096 0.36495
0.511315 0.385229 0.411872
0.665522 0.394858 0.452674
0.807538 0.397696 0.484642
0.933532 0.401877 0.515068
1 0.404639 0.534661
0.29926 0.444526 0.465736
0.309041 0.438315 0.453513
0.323445 0.427283 0.432853
0.381048 0.426612 0.408301
0.49369 0.482933 0.41886
0.609903 0.494057 0.442298
0.759594 0.511711 0.457359
0.899001 0.51577 0.47747
0.998032 0.509148 0.492866
0.356924 0.551644 0.55082
0.369192 0.545312 0.538491
0.388281 0.532738 0.515831
0.423972 0.509133 0.471794
0.482734 0.578103 0.484169
0.630823 0.601892 0.472068
0.741985 0.61503 0.500847
0.854475 0.629572 0.521035
0.954452 0.641794 0.536034
0.426291 0.657023 0.63267
0.436591 0.649363 0.619669
0.453269 0.634989 0.59649
0.485847 0.611139 0.552819
0.529091 0.663615 0.554467
0.597559 0.713603 0.565316
0.772076 0.720821 0.524834
0.870344 0.735332 0.55555
0.950088 0.748669 0.574166
0.489006 0.758862 0.711284
0.498085 0.750149 0.697688
0.512123 0.734188 0.673289
0.543084 0.708721 0.628885
0.579675 0.754604 0.626245
0.61799 0.811093 0.613428
0.738125 0.833326 0.633555
0.900099 0.835203 0.579034
0.967269 0.847883 0.614435
0.54612 0.851133 0.785061
0.553521 0.842313 0.770947
0.565881 0.826246 0.745495
0.595682 0.800565 0.699718
0.628519 0.840604 0.69366
0.660853 0.889158 0.678279
0.742992 0.923995 0.700328
0.881651 0.928939 0.706828
0.982391 0.933288 0.704021
0.161578 0.172671 0.420127
0.177432 0.158404 0.436667
0.225467 0.148775 0.462791
0.39646 0.0376898 0.521553
0.547051 0.00549325 0.546593
0.694652 0.00549325 0.538628
0.849165 0.00549325 0.535775
0.977707 0.00549325 0.55053
1 0.00549325 0.565774
0.166949 0.203265 0.405829
0.180896 0.207431 0.404593
0.208652 0.199252 0.44979
0.395483 0.1523 0.513741
0.553887 0.123186 0.553246
0.702815 0.119295 0.542123
0.85713 0.118273 0.537499
0.979431 0.10428 0.557382
1 0.0988479 0.571359
0.192966 0.259632 0.418006
0.201999 0.262821 0.413245
0.228702 0.274113 0.417838
0.37583 0.277653 0.502632
0.56524 0.262837 0.564065
0.71632 0.255512 0.548623
0.864683 0.247105 0.553185
0.980819 0.238087 0.571054
1 0.235111 0.583963
0.24683 0.345296 0.464378
0.253346 0.343801 0.459922
0.267124 0.344976 0.458152
0.354528 0.376699 0.46006
0.549905 0.39968 0.548684
0.73611 0.405631 0.566018
0.862516 0.386679 0.574899
0.977081 0.381048 0.593805
1 0.379599 0.606424
0.311101 0.44828 0.534005
0.318669 0.445838 0.527138
0.336522 0.443229 0.514519
0.40589 0.457038 0.49044
0.491218 0.491142 0.491447
0.646036 0.512886 0.54052
0.810178 0.526909 0.584787
0.9449 0.533242 0.618219
1 0.533181 0.633783
0.380697 0.55639 0.598383
0.389838 0.551354 0.586816
0.404913 0.542763 0.567117
0.438987 0.53254 0.536171
0.509544 0.549508 0.529503
0.625788 0.607721 0.54725
0.747356 0.616281 0.566125
0.889784 0.638453 0.583734
0.981826 0.648768 0.593774
0.42916 0.659785 0.68072
0.436866 0.653147 0.668605
0.450263 0.642725 0.648386
0.494194 0.628611 0.610834
0.536889 0.615534 0.575921
0.60734 0.698482 0.603403
0.76817 0.724453 0.59913
0.874434 0.7346 0.621942
0.954635 0.747448 0.638972
0.478431 0.760174 0.761181
0.488716 0.753689 0.748486
0.507225 0.741695 0.725475
0.550347 0.723354 0.68481
0.57908 0.694789 0.636042
0.635065 0.769421 0.654108
0.724056 0.827741 0.682506
0.89575 0.837995 0.652613
0.969116 0.847227 0.682246
0.535714 0.852537 0.83328
0.545266 0.845426 0.820447
0.562219 0.832654 0.797391
0.601862 0.813107 0.755276
0.63006 0.784344 0.705409
0.678355 0.846311 0.717098
0.746899 0.907286 0.731136
0.871763 0.926009 0.762127
0.977325 0.93727 0.771649
0.206104 0.218952 0.528786
0.217075 0.204196 0.545876
0.256397 0.194827 0.565423
0.401572 0.13373 0.621225
0.53872 0.012253 0.678584
0.700465 0.00549325 0.694865
0.84773 0.00549325 0.685328
0.978027 0.00549325 0.681163
1 0.00549325 0.67924
0.20943 0.244404 0.512947
0.221668 0.248325 0.510719
0.241932 0.235279 0.550317
0.38294 0.214099 0.610162
0.538506 0.136782 0.675074
0.708217 0.118517 0.701946
0.855375 0.114961 0.689586
0.985367 0.113146 0.683772
1 0.112673 0.681102
0.225681 0.293217 0.509789
0.235599 0.294423 0.508431
0.259129 0.302754 0.511513
0.322774 0.306569 0.612375
0.53698 0.2654 0.665919
0.721111 0.254749 0.713558
0.86804 0.248631 0.697459
0.997574 0.246189 0.689647
1 0.24445 0.686854
0.26717 0.362692 0.545937
0.273442 0.363165 0.542763
0.288258 0.3691 0.53846
0.357427 0.394842 0.547539
0.5252 0.401053 0.64921
0.741527 0.405982 0.732448
0.888228 0.395438 0.712291
1 0.390433 0.70573
1 0.378729 0.708019
0.326482 0.45951 0.602548
0.332311 0.457816 0.597452
0.343694 0.456245 0.591119
0.39057 0.464851 0.581018
0.482017 0.50277 0.592599
0.689387 0.52961 0.682567
0.890105 0.549081 0.716945
1 0.535973 0.731106
1 0.524788 0.734127
0.386618 0.560265 0.678477
0.39324 0.55787 0.671305
0.406073 0.554665 0.660197
0.461036 0.55726 0.626154
0.53077 0.582132 0.617945
0.624964 0.616739 0.621637
0.785275 0.638712 0.67248
0.931716 0.652995 0.715358
1 0.663188 0.74403
0.452674 0.664958 0.7393
0.462669 0.660319 0.726635
0.481849 0.652308 0.703822
0.517922 0.644724 0.670893
0.557015 0.644388 0.649104
0.636622 0.672282 0.653483
0.762203 0.732448 0.679728
0.874434 0.741222 0.693401
0.978592 0.76321 0.712459
0.50045 0.765698 0.814206
0.508125 0.759716 0.80206
0.521569 0.749371 0.78088
0.55404 0.736446 0.746075
0.593683 0.721355 0.706081
0.657313 0.733394 0.694148
0.742199 0.819516 0.731502
0.891005 0.843458 0.73344
0.969207 0.850706 0.75671
0.542779 0.85568 0.88481
0.549538 0.848997 0.872908
0.561593 0.837781 0.852201
0.600198 0.825299 0.815991
0.642344 0.80621 0.772869
0.682643 0.792676 0.736263
0.753246 0.873884 0.764263
0.861219 0.923369 0.815656
0.973205 0.942931 0.837644
0.245914 0.260456 0.635798
0.2533 0.244953 0.654505
0.287984 0.236042 0.670542
0.400916 0.203204 0.722179
0.54612 0.105882 0.779065
0.688365 0.00549325 0.833097
0.854337 0.00549325 0.842664
0.978927 0.00549325 0.832898
1 0.00549325 0.828595
0.248249 0.282887 0.618936
0.259327 0.286595 0.615854
0.274525 0.270771 0.654108
0.37377 0.261341 0.711406
0.542565 0.193637 0.768521
0.689769 0.115862 0.836179
0.861799 0.114199 0.84947
0.986007 0.11075 0.837507
1 0.109178 0.832059
0.26009 0.324773 0.609827
0.269368 0.326299 0.607721
0.290471 0.333486 0.608164
0.335836 0.326955 0.705699
0.520104 0.305364 0.755825
0.692164 0.249668 0.836454
0.874052 0.248249 0.860838
0.997696 0.243046 0.846159
1 0.240818 0.839246
0.291157 0.387045 0.63299
0.297612 0.388693 0.628183
0.31249 0.395651 0.620829
0.366125 0.417609 0.634241
0.452003 0.425788 0.766796
0.694972 0.391684 0.829206
0.893431 0.395102 0.879362
1 0.386954 0.86128
1 0.383429 0.852415
0.342443 0.472023 0.684306
0.34728 0.470665 0.679698
0.357458 0.470893 0.675029
0.393774 0.489693 0.669383
0.481804 0.517479 0.681483
0.678706 0.528466 0.793912
0.893614 0.547646 0.87921
1 0.547616 0.881529
1 0.542031 0.870954
0.400992 0.571679 0.747356
0.40676 0.570153 0.740063
0.417288 0.567803 0.731517
0.453788 0.57142 0.720409
0.512932 0.585901 0.706371
0.609384 0.628519 0.735622
0.826749 0.657694 0.814511
0.992325 0.681682 0.849134
1 0.685802 0.870192
0.45594 0.669001 0.826581
0.461967 0.666514 0.819242
0.473594 0.662882 0.807187
0.519158 0.663615 0.776287
0.578119 0.674388 0.748852
0.655436 0.708064 0.749691
0.763836 0.742046 0.755199
0.909667 0.764004 0.804135
1 0.780133 0.836988
0.515648 0.770657 0.881392
0.524163 0.766354 0.870253
0.540871 0.759075 0.85037
0.585275 0.7514 0.811231
0.626368 0.744152 0.773754
0.682765 0.763989 0.771038
0.768872 0.796704 0.780392
0.885222 0.852522 0.814221
0.961929 0.862638 0.826917
0.569986 0.860761 0.937041
0.577447 0.855619 0.925475
0.591409 0.846799 0.90547
0.624826 0.836408 0.871809
0.655726 0.824613 0.83827
0.700023 0.819715 0.809522
0.785122 0.849454 0.814847
0.875151 0.924208 0.865568
0.970413 0.950713 0.896147
0.279957 0.296056 0.737652
0.284733 0.279805 0.758953
0.316426 0.271336 0.772732
0.403021 0.251774 0.819883
0.549676 0.179828 0.871473
0.690135 0.0660258 0.928496
0.842405 0.00549325 0.961257
0.985321 0.00549325 0.970016
1 0.00549325 0.961776
0.281773 0.316625 0.719722
0.292073 0.32018 0.715877
0.303731 0.302525 0.755337
0.377005 0.295827 0.809613
0.53431 0.250935 0.860853
0.689128 0.167956 0.923888
0.844984 0.11191 0.965133
0.992142 0.110079 0.976394
1 0.107256 0.966812
0.29102 0.354269 0.706432
0.299855 0.355993 0.703609
0.319402 0.362524 0.702052
0.358846 0.349416 0.795941
0.497185 0.343328 0.849683
0.686061 0.282704 0.913375
0.849287 0.242267 0.971252
1 0.242634 0.987503
1 0.238666 0.976043
0.315129 0.412726 0.717464
0.32166 0.415167 0.711147
0.337697 0.418662 0.709239
0.383856 0.439429 0.718791
0.427222 0.446693 0.852232
0.681559 0.408484 0.895827
0.856046 0.381125 0.979431
1 0.38703 1
1 0.380804 0.990982
0.359518 0.488319 0.76463
0.364645 0.488396 0.761059
0.375586 0.491035 0.755077
0.408576 0.510964 0.745846
0.485496 0.534112 0.765148
0.613703 0.552117 0.898405
0.860563 0.531777 0.977859
1 0.548012 1
1 0.538033 1
0.413672 0.581552 0.825986
0.418433 0.579965 0.82092
0.427405 0.578027 0.81355
0.451331 0.582925 0.811841
0.512734 0.606348 0.793118
0.606836 0.641123 0.821591
0.819806 0.654856 0.919173
0.994873 0.680171 0.983978
1 0.702739 0.998428
0.468193 0.679576 0.890486
0.473686 0.677806 0.883452
0.484291 0.67541 0.871565
0.51928 0.677455 0.852766
0.567773 0.683619 0.835142
0.63798 0.710674 0.832593
0.739879 0.753719 0.877531
0.94284 0.785565 0.927916
1 0.821424 0.953918
0.51899 0.774487 0.960266
0.524666 0.771832 0.953185
0.535668 0.767834 0.941207
0.573388 0.767208 0.916335
0.62855 0.77055 0.87982
0.699641 0.795697 0.869245
0.789731 0.830945 0.867536
0.888655 0.861189 0.877775
0.977935 0.887831 0.914763
0.575204 0.865278 1
0.582467 0.861509 0.995941
0.597025 0.855131 0.978668
0.636881 0.848829 0.945861
0.685893 0.843122 0.904921
0.74107 0.844022 0.87245
0.815808 0.876844 0.882902
0.892699 0.907973 0.898253
0.969985 0.959487 0.943206
0.307485 0.324895 0.826276
0.310155 0.307744 0.847837
0.339834 0.299458 0.858778
0.409339 0.284733 0.900038
0.548379 0.229831 0.943984
0.696345 0.128954 0.99527
0.837736 0.00549325 1
0.974868 0.00549325 1
1 0.00549325 1
0.308888 0.344137 0.80798
0.318441 0.347372 0.803067
0.327779 0.328557 0.839658
0.39588 0.319081 0.884932
0.529168 0.288319 0.931243
0.693477 0.20766 0.985031
0.838178 0.124147 1
0.978393 0.108095 1
1 0.107103 1
0.316655 0.379248 0.79263
0.325048 0.380941 0.7888
0.343435 0.386969 0.785245
0.37792 0.369039 0.870329
0.485466 0.367681 0.922423
0.686656 0.3084 0.966842
0.839017 0.252674 1
0.984192 0.23801 1
1 0.238895 1
0.336477 0.436194 0.79379
0.343832 0.436637 0.791135
0.359594 0.439536 0.789349
0.402655 0.458396 0.794247
0.440452 0.454917 0.918776
0.643931 0.436912 0.958831
0.840543 0.388785 1
0.993851 0.376776 1
1 0.381613 1
0.376059 0.50576 0.837903
0.381338 0.506493 0.833524
0.392538 0.51017 0.825986
0.42649 0.527062 0.820798
0.490883 0.550027 0.835309
0.563577 0.560952 0.986557
0.838331 0.530922 1
0.997971 0.526665 1
1 0.539467 1
0.426184 0.59263 0.892943
0.43061 0.591333 0.888777
0.439139 0.590265 0.883345
0.465476 0.601221 0.879133
0.516777 0.626612 0.864454
0.607065 0.653361 0.891035
0.790829 0.669902 0.984771
0.989075 0.672129 1
1 0.701305 1
0.479255 0.688914 0.950896
0.484031 0.687099 0.946105
0.493217 0.684642 0.939178
0.517632 0.686671 0.933623
0.558175 0.694697 0.923018
0.63357 0.7252 0.90518
0.735119 0.76463 0.946334
0.938598 0.780667 1
1 0.824155 1
0.529061 0.78381 1
0.534432 0.781796 1
0.544945 0.778927 0.997131
0.575174 0.780072 0.978271
0.627268 0.78436 0.949554
0.684245 0.797787 0.93875
0.76846 0.833951 0.941375
0.870222 0.872023 0.967681
0.987991 0.914351 0.982528
0.579065 0.868467 1
0.584329 0.865873 1
0.594903 0.862043 1
0.62591 0.86041 1
0.681941 0.862089 0.996887
0.747356 0.8748 0.97116
0.832258 0.906386 0.964508
0.919768 0.937179 0.953674
0.975998 0.967697 0.972946
