bundles/resolve-cinematic-luts/Lens Distortions - Finishing LUTs/LD - Amber X 3.cube
TITLE "LD - Amber X 3"
# Copyright (c) Lens Distortions, LLC. All Rights Reserved.
# LensDistortions.com
# ref-AM6
LUT_3D_SIZE 5
0.0166629 0.0152743 0.0183261
0.242405 0.0169375 0.0169375
0.513191 0.0207675 0.0207675
0.772 0.0251774 0.0251774
0.939361 0.028275 0.0282902
0.0735485 0.219089 0.0752422
0.255268 0.229572 0.0501259
0.522576 0.242939 0.0302586
0.78822 0.25124 0.0390326
0.951217 0.252613 0.0461585
0.145724 0.475608 0.157488
0.209873 0.486061 0.150225
0.523156 0.50869 0.0932479
0.776242 0.509331 0.048661
0.964645 0.510948 0.0533455
0.212345 0.702602 0.232761
0.243626 0.702861 0.215579
0.439719 0.753826 0.163943
0.77229 0.753063 0.132769
0.976654 0.743221 0.0648051
0.268849 0.89662 0.290639
0.282216 0.896941 0.269947
0.45507 0.923705 0.260166
0.67747 0.975387 0.167956
0.990097 0.99263 0.178607
0.0181277 0.0180209 0.248997
0.229404 0.0182193 0.254429
0.498054 0.0218662 0.250462
0.752789 0.0261845 0.259968
0.938491 0.0296178 0.263508
0.0315404 0.244083 0.269688
0.231296 0.244282 0.265187
0.486213 0.264286 0.238483
0.744778 0.289342 0.251514
0.952117 0.246326 0.262013
0.120851 0.489754 0.293721
0.332326 0.472496 0.404608
0.557717 0.490181 0.326467
0.779446 0.503792 0.243336
0.965286 0.502846 0.229419
0.199573 0.710811 0.362905
0.370687 0.700404 0.431205
0.47306 0.730694 0.368017
0.771618 0.746868 0.340566
0.977737 0.744915 0.223636
0.263111 0.905928 0.416846
0.383505 0.910903 0.429191
0.49012 0.917739 0.387518
0.690074 0.965591 0.381949
0.991379 0.993927 0.371679
0.0198672 0.0232547 0.507347
0.226474 0.0195926 0.480369
0.49836 0.0234989 0.5149
0.751141 0.0277256 0.522271
0.933471 0.0310826 0.526787
0.0306401 0.236042 0.592233
0.18468 0.301183 0.463478
0.510185 0.245197 0.525872
0.760113 0.259007 0.520043
0.953964 0.252827 0.535637
0.0518654 0.529641 0.558511
0.290822 0.538125 0.619593
0.51043 0.513664 0.53344
0.757244 0.511513 0.511345
0.966964 0.502846 0.51783
0.132601 0.74136 0.525689
0.341482 0.720333 0.563897
0.547921 0.711589 0.572091
0.761715 0.749401 0.554574
0.979751 0.750759 0.502861
0.21091 0.931426 0.569009
0.380575 0.925322 0.587396
0.586236 0.907912 0.610819
0.706203 0.928267 0.600717
0.992691 0.993759 0.583062
0.0301213 0.0361334 0.746059
0.247181 0.0378424 0.686931
0.498573 0.024918 0.743175
0.753079 0.0292821 0.768963
0.937484 0.0326696 0.773709
0.0325475 0.249805 0.833234
0.191623 0.349081 0.623285
0.502358 0.263371 0.733181
0.763973 0.25388 0.780438
0.955337 0.254826 0.781369
0.0470436 0.518593 0.935256
0.233768 0.538628 0.843748
0.508522 0.550912 0.775341
0.755077 0.50985 0.77026
0.968536 0.50721 0.7682
0.0691386 0.78143 0.824216
0.282551 0.779751 0.833661
0.529503 0.782513 0.818173
0.759594 0.759136 0.780011
0.981414 0.752483 0.769711
0.154681 0.961364 0.741924
0.352789 0.959075 0.7467
0.574456 0.928206 0.755444
0.785718 0.947646 0.803494
0.994049 0.995102 0.799847
0.0439002 0.0500343 0.925231
0.266377 0.0543526 0.860456
0.503471 0.0364233 0.895125
0.752148 0.0302739 0.931502
0.941253 0.0337835 0.943633
0.0336919 0.260212 0.950805
0.282475 0.288945 0.955352
0.510491 0.281453 0.908415
0.758907 0.259815 0.954482
0.956298 0.255543 0.958679
0.046952 0.515602 0.961379
0.240558 0.525795 0.964263
0.548226 0.550088 0.97116
0.746563 0.516228 0.952285
0.969589 0.507195 0.97203
0.062089 0.760098 0.971603
0.194751 0.771466 0.973556
0.525917 0.803021 0.980926
0.783383 0.783322 0.985794
0.982666 0.754635 0.985168
0.0872358 0.979873 0.979858
0.293889 0.98291 0.98291
0.541863 0.988174 0.988174
0.773922 0.993194 0.993194
0.99411 0.996551 0.996582
