bundles/resolve-cinematic-luts/Lens Distortions - Finishing LUTs/LD - Pure 3.cube
TITLE "LD - Pure 3"
# Copyright (c) Lens Distortions, LLC. All Rights Reserved.
# LensDistortions.com
# ref-PR6
LUT_3D_SIZE 33
0.0120089 0.0120089 0.0120089
0.0176852 0.0120241 0.0120089
0.03505 0.0120699 0.0120089
0.0631113 0.0121462 0.0120089
0.0937819 0.0122683 0.0120089
0.124865 0.0124514 0.0120089
0.15642 0.0127108 0.0120089
0.188281 0.013077 0.0120089
0.220264 0.0135958 0.0120089
0.252567 0.0143282 0.0120089
0.285451 0.0152743 0.0120089
0.318486 0.0165408 0.0120089
0.351904 0.0180514 0.0120089
0.385718 0.0201419 0.0120089
0.419837 0.0227359 0.0120089
0.453971 0.0257725 0.0120241
0.488472 0.0295567 0.0120241
0.523171 0.0341344 0.0120241
0.558358 0.0392767 0.0120241
0.594507 0.0454108 0.0120241
0.631006 0.0522316 0.0120089
0.668009 0.0588998 0.0120089
0.705013 0.0654459 0.0120089
0.741543 0.0721141 0.0120089
0.777493 0.0791028 0.0120089
0.812268 0.0861677 0.0120089
0.846082 0.093843 0.0120394
0.878401 0.101564 0.0121157
0.909148 0.110048 0.0123293
0.937362 0.118929 0.0126802
0.96083 0.129335 0.0135653
0.980591 0.140536 0.0150149
0.998993 0.152132 0.017319
0.0122072 0.0172732 0.0120546
0.0184329 0.018677 0.012314
0.0411383 0.0186465 0.0120089
0.0690166 0.0193484 0.0120089
0.098085 0.0203555 0.0120089
0.129046 0.0212406 0.0120089
0.160327 0.0221866 0.0120089
0.191989 0.0234531 0.0120089
0.223987 0.0249485 0.0120089
0.256275 0.0267491 0.0119936
0.289006 0.0291142 0.0119936
0.322225 0.0319371 0.0120089
0.35552 0.0353552 0.0120089
0.389136 0.0393072 0.0120089
0.422583 0.0437171 0.0120089
0.456397 0.0491188 0.0120089
0.490425 0.0550851 0.0120089
0.524666 0.0608072 0.0120089
0.559716 0.0666361 0.0120089
0.595071 0.0722057 0.0120089
0.631495 0.0779126 0.0120089
0.667933 0.0833753 0.0119936
0.704784 0.089128 0.0119936
0.740826 0.0948348 0.0119936
0.776425 0.101076 0.0120089
0.810971 0.107546 0.0120241
0.844251 0.114321 0.0120546
0.876326 0.121691 0.012192
0.906371 0.129381 0.0124056
0.934951 0.137667 0.0128786
0.958694 0.147219 0.0138705
0.979095 0.157946 0.0155032
0.997833 0.168887 0.0178378
0.0128939 0.0333867 0.0122377
0.0206912 0.0335088 0.0133211
0.0380407 0.038941 0.0132601
0.0757458 0.037705 0.0120699
0.105821 0.0381933 0.0120089
0.134966 0.0399329 0.0120089
0.16492 0.0425574 0.0120089
0.195483 0.0462043 0.0120089
0.228168 0.0486458 0.0120089
0.260471 0.0515755 0.0119936
0.292943 0.0551919 0.0119936
0.325353 0.0588998 0.0119936
0.358312 0.0629282 0.0119936
0.391363 0.0671855 0.0119936
0.424659 0.0716259 0.0119936
0.45803 0.0761578 0.0119936
0.491569 0.0809796 0.0119936
0.525689 0.0859236 0.0119936
0.560418 0.090837 0.0119936
0.59556 0.0955978 0.0119936
0.631724 0.100496 0.0119936
0.667903 0.105257 0.0119936
0.704311 0.110307 0.0119936
0.740154 0.115679 0.0119936
0.775097 0.121065 0.0120089
0.809293 0.127077 0.0120241
0.842283 0.133242 0.0121004
0.873884 0.140093 0.0122683
0.904265 0.147234 0.0125734
0.932784 0.155001 0.013138
0.957214 0.164126 0.0141909
0.977691 0.174029 0.0159152
0.997024 0.18471 0.0184024
0.0138247 0.0598001 0.0124666
0.0234531 0.0582437 0.0138857
0.0391394 0.0641337 0.0152743
0.0682994 0.0695964 0.0146029
0.108049 0.0680705 0.0122835
0.141451 0.0676127 0.0119936
0.171206 0.0695354 0.0119936
0.201083 0.0723583 0.0119936
0.231495 0.0760052 0.0119936
0.262531 0.0803693 0.0120089
0.295323 0.0829175 0.0119936
0.327916 0.0859541 0.0120089
0.360372 0.0893263 0.0119936
0.393194 0.0927901 0.0119936
0.426001 0.0963912 0.0119936
0.459159 0.0999313 0.0119936
0.492607 0.104067 0.0119936
0.526543 0.108324 0.0119936
0.560952 0.112657 0.0119936
0.596033 0.11667 0.0119936
0.631876 0.121004 0.0119936
0.667857 0.12546 0.0119936
0.703777 0.129747 0.0119936
0.739315 0.1346 0.0120089
0.773907 0.139864 0.0120241
0.807645 0.145144 0.0120546
0.840375 0.151125 0.0121767
0.871641 0.157351 0.0124056
0.902159 0.164141 0.0128023
0.93109 0.171496 0.013489
0.955779 0.179797 0.0145418
0.976852 0.189517 0.0164034
0.996155 0.199512 0.0187991
0.0151675 0.0899672 0.0127413
0.026627 0.0883497 0.014374
0.0472572 0.0898604 0.0170748
0.067689 0.0965286 0.0183871
0.100282 0.101396 0.0165408
0.140597 0.100023 0.012726
0.176638 0.0989853 0.0119936
0.206729 0.100649 0.0120089
0.236683 0.103227 0.0120089
0.266911 0.106432 0.0120089
0.297627 0.110018 0.0120089
0.32874 0.113924 0.0120089
0.361532 0.116304 0.0119936
0.394461 0.119066 0.0119936
0.427131 0.122103 0.0119936
0.460273 0.1252 0.0119936
0.493492 0.128511 0.0119936
0.527214 0.132143 0.0119936
0.561379 0.135882 0.0119936
0.59617 0.13933 0.0119936
0.63154 0.14316 0.0119936
0.667384 0.147051 0.0119936
0.7028 0.151064 0.0119936
0.737652 0.155367 0.0120089
0.772015 0.160128 0.0120546
0.805722 0.165225 0.0121309
0.837766 0.170581 0.0122835
0.869505 0.176501 0.0125734
0.899931 0.182773 0.013077
0.929335 0.189364 0.0137484
0.954665 0.197406 0.0149844
0.976043 0.206317 0.0168154
0.995789 0.216144 0.0193637
0.0173342 0.120699 0.0130922
0.0310369 0.119234 0.0149996
0.0543526 0.118822 0.0182193
0.0766003 0.122423 0.0210269
0.0977493 0.12871 0.0233616
0.132601 0.133532 0.0197604
0.173022 0.132067 0.013611
0.21146 0.13019 0.0119936
0.241199 0.131701 0.0119936
0.271504 0.133806 0.0119936
0.301686 0.136599 0.0119936
0.332143 0.139864 0.0119936
0.363134 0.143404 0.0119936
0.394568 0.147127 0.0119936
0.427955 0.149477 0.0119936
0.461173 0.151995 0.0119936
0.494133 0.154833 0.0119936
0.527428 0.157717 0.0119936
0.56112 0.160769 0.0119936
0.595773 0.163943 0.0119936
0.630701 0.167285 0.0119936
0.666148 0.170687 0.0119936
0.701015 0.174441 0.0120089
0.735378 0.17818 0.0120394
0.769635 0.182437 0.0121004
0.802777 0.187182 0.0122377
0.835218 0.191943 0.0124666
0.866987 0.197375 0.0128176
0.897719 0.20325 0.0133516
0.92755 0.209339 0.0140383
0.953353 0.216709 0.0152895
0.97557 0.225315 0.0172732
0.995407 0.234424 0.019791
0.020737 0.151659 0.0136721
0.0370336 0.150454 0.0159152
0.0614176 0.149554 0.0192416
0.0856641 0.14934 0.0242618
0.106142 0.154604 0.027039
0.127626 0.1608 0.0309758
0.164065 0.165454 0.0244907
0.204746 0.163958 0.0152285
0.245472 0.161471 0.0119936
0.275807 0.162905 0.0120089
0.30573 0.164843 0.0119936
0.336278 0.167178 0.0119936
0.366735 0.170062 0.0119936
0.397452 0.173297 0.0119936
0.428473 0.176471 0.0119936
0.459937 0.180301 0.0119936
0.493584 0.182513 0.0119936
0.527062 0.185 0.0119936
0.560464 0.187625 0.0119936
0.594629 0.190295 0.0120089
0.629297 0.193133 0.0120089
0.663981 0.19617 0.0120241
0.698131 0.199237 0.0120394
0.732677 0.202701 0.0121004
0.766537 0.206577 0.0122072
0.799756 0.210819 0.0124056
0.832486 0.21503 0.0126345
0.864485 0.219959 0.0130465
0.895827 0.225254 0.0135958
0.926085 0.230991 0.0143282
0.952331 0.237644 0.0155337
0.974823 0.245853 0.0173953
0.995163 0.254749 0.0200504
0.025452 0.182681 0.0145113
0.0446326 0.181704 0.0170138
0.0691691 0.18024 0.020737
0.0922255 0.17995 0.0258335
0.116457 0.180941 0.0333104
0.135821 0.186999 0.0365911
0.157763 0.19292 0.0428626
0.195377 0.19733 0.0314946
0.236072 0.195926 0.0181582
0.277623 0.193469 0.0120699
0.309865 0.193835 0.0119936
0.339788 0.195514 0.0119936
0.370169 0.197589 0.0119936
0.400702 0.200076 0.0119936
0.431281 0.202945 0.0119936
0.462226 0.206043 0.0119936
0.493507 0.209522 0.0119936
0.524788 0.213794 0.0120241
0.558618 0.215946 0.0120241
0.593027 0.218082 0.0120394
0.627039 0.220264 0.0120546
0.661143 0.222904 0.0121004
0.695705 0.22562 0.0121614
0.729747 0.228779 0.0122377
0.763745 0.232105 0.0124056
0.79736 0.235782 0.0126192
0.830167 0.239551 0.0128634
0.862364 0.244022 0.0132601
0.894194 0.248737 0.0138247
0.924849 0.254002 0.0145571
0.951568 0.260166 0.0156558
0.974456 0.267842 0.0175326
0.995026 0.276341 0.0201419
0.0318151 0.213779 0.0154879
0.0542153 0.212833 0.0183566
0.0772259 0.211414 0.0222477
0.0996109 0.210529 0.028275
0.122927 0.210056 0.0367132
0.145312 0.212879 0.045182
0.165591 0.218997 0.0508583
0.187747 0.224903 0.0592355
0.226734 0.229267 0.0423133
0.267369 0.228 0.023209
0.308705 0.22562 0.0127718
0.343771 0.224704 0.0119936
0.373922 0.226322 0.0119936
0.404135 0.228153 0.0119936
0.43447 0.230335 0.0119936
0.464881 0.232746 0.0119936
0.495735 0.235554 0.0119936
0.526314 0.238773 0.0119936
0.557443 0.242847 0.0120546
0.589441 0.246983 0.0122377
0.623957 0.248981 0.0122988
0.6589 0.251072 0.0123751
0.693446 0.253361 0.0124361
0.727565 0.255985 0.0125429
0.761929 0.258732 0.0127108
0.795361 0.261753 0.0128634
0.828672 0.265263 0.0131685
0.861387 0.269184 0.01355
0.893309 0.273533 0.0140536
0.924224 0.278294 0.0148013
0.951308 0.284001 0.0158541
0.974487 0.291264 0.0177005
0.995026 0.299428 0.0201724
0.0408637 0.244648 0.0170138
0.0649119 0.243763 0.0203708
0.0861524 0.242557 0.024506
0.106798 0.241398 0.0305486
0.129732 0.240467 0.0404364
0.153857 0.240085 0.0539559
0.174624 0.244724 0.0610208
0.195468 0.251026 0.0673381
0.217655 0.256748 0.0763714
0.25803 0.261158 0.0573739
0.298344 0.259892 0.0312352
0.339483 0.257694 0.0149386
0.377722 0.255726 0.0119936
0.407507 0.25684 0.0119936
0.437537 0.25835 0.0119936
0.467597 0.260273 0.0119936
0.497856 0.262455 0.0119936
0.528435 0.265263 0.0119936
0.559167 0.26865 0.0120394
0.590951 0.272206 0.0121767
0.622934 0.276158 0.0124666
0.655634 0.279927 0.0128634
0.6907 0.281834 0.0129244
0.725963 0.283894 0.013077
0.760739 0.286244 0.0131533
0.794766 0.288914 0.0133669
0.828122 0.292058 0.013611
0.861219 0.295445 0.0139925
0.893172 0.299413 0.0144198
0.924056 0.303532 0.0150607
0.951568 0.309087 0.016144
0.974853 0.315969 0.0179294
0.995468 0.323796 0.0204318
0.0530404 0.275395 0.0191043
0.0760815 0.27451 0.0230259
0.0959182 0.273472 0.0275425
0.114961 0.272435 0.0337377
0.13637 0.27129 0.0439155
0.160174 0.270359 0.0587167
0.18529 0.271138 0.0734722
0.204501 0.276783 0.0780194
0.225391 0.282902 0.0848249
0.24773 0.288533 0.0945144
0.289174 0.292882 0.0737469
0.329244 0.291722 0.0443122
0.370474 0.289891 0.0200961
0.410513 0.286748 0.0120089
0.44062 0.287358 0.0119936
0.47097 0.288884 0.0119936
0.500801 0.290761 0.0119936
0.530953 0.293034 0.0120089
0.561791 0.295476 0.0120546
0.593347 0.298405 0.0121767
0.625223 0.301488 0.0123598
0.657984 0.304982 0.012665
0.690929 0.308812 0.0131838
0.724239 0.312932 0.0137789
0.759594 0.31487 0.0138857
0.794415 0.317174 0.0140536
0.828473 0.319829 0.0142977
0.861448 0.322591 0.0144656
0.893507 0.326146 0.0148775
0.924681 0.330114 0.0155337
0.952239 0.335332 0.0166018
0.97557 0.341894 0.0183719
0.996216 0.349371 0.0208438
0.066331 0.305898 0.0221103
0.0876783 0.305135 0.0267338
0.10634 0.304189 0.0317235
0.124331 0.303319 0.0384985
0.144121 0.301885 0.0491035
0.167254 0.301137 0.0635538
0.19173 0.300298 0.0791028
0.214954 0.302632 0.0910353
0.234348 0.308537 0.0962387
0.255787 0.314824 0.104005
0.277928 0.320409 0.114031
0.320516 0.324559 0.0915541
0.360494 0.323812 0.0626078
0.400931 0.321965 0.0293736
0.441886 0.318914 0.0129854
0.473884 0.318776 0.0121004
0.503914 0.319921 0.0120851
0.534081 0.321538 0.0121004
0.564996 0.323445 0.0121309
0.596338 0.325719 0.0122225
0.628748 0.328176 0.0123598
0.661189 0.331136 0.0125582
0.694362 0.334279 0.0129091
0.72723 0.337865 0.0133211
0.760433 0.341604 0.0139773
0.793393 0.346014 0.014847
0.827955 0.348302 0.0149996
0.861875 0.350988 0.015259
0.894804 0.354116 0.0157931
0.925826 0.357824 0.0163272
0.953368 0.362676 0.0173342
0.976608 0.368948 0.019089
0.997101 0.37583 0.0214084
0.0800183 0.336263 0.0263828
0.100267 0.335439 0.0320592
0.117662 0.33463 0.0378576
0.134554 0.333913 0.0453803
0.153292 0.33254 0.0558633
0.174945 0.331701 0.0690013
0.19881 0.330571 0.0848707
0.22356 0.329961 0.100786
0.244724 0.334203 0.109377
0.264454 0.340322 0.115541
0.286015 0.346517 0.123735
0.308324 0.352422 0.13402
0.352056 0.356695 0.109743
0.39144 0.35581 0.0810712
0.431662 0.354177 0.0435798
0.472724 0.351431 0.0170443
0.507515 0.349996 0.0124361
0.53782 0.350988 0.0123598
0.568719 0.352361 0.0123445
0.600504 0.353964 0.0123598
0.632517 0.355871 0.0124056
0.665324 0.358007 0.0124971
0.698085 0.360678 0.0126955
0.731228 0.363699 0.0130007
0.764294 0.367147 0.0134432
0.797192 0.371023 0.0140993
0.829633 0.375448 0.0150454
0.861616 0.380072 0.0163577
0.894469 0.382879 0.0166476
0.926406 0.386267 0.0171817
0.954604 0.39086 0.0183413
0.977768 0.396841 0.0200351
0.998718 0.403616 0.0224765
0.0948501 0.366232 0.0327916
0.113893 0.365362 0.0396735
0.130236 0.364706 0.0464485
0.146059 0.364141 0.0544442
0.163668 0.362997 0.0642405
0.183597 0.361975 0.0760967
0.206287 0.361044 0.0906386
0.230686 0.359945 0.1075
0.255741 0.360616 0.123247
0.274723 0.366003 0.128557
0.294942 0.372259 0.134874
0.316121 0.3785 0.14313
0.338674 0.384497 0.153903
0.38352 0.388785 0.127535
0.422812 0.388006 0.0991531
0.463066 0.386694 0.0619364
0.504494 0.383917 0.024506
0.542382 0.381521 0.0129702
0.57348 0.3823 0.0127718
0.60499 0.383368 0.0126345
0.637552 0.384619 0.0125887
0.670069 0.386343 0.0125887
0.703029 0.388373 0.0126497
0.736019 0.390829 0.0128481
0.769009 0.393759 0.013138
0.801663 0.397177 0.0135958
0.833783 0.400839 0.0142367
0.865507 0.405249 0.0152132
0.896651 0.410254 0.0166018
0.92694 0.415808 0.0184939
0.955215 0.420172 0.0194553
0.979171 0.42591 0.0213779
0.998993 0.432563 0.0239109
0.110231 0.396033 0.0416266
0.127947 0.395193 0.0501106
0.14316 0.394797 0.057145
0.157885 0.394415 0.0645609
0.174395 0.393484 0.0733349
0.193317 0.392416 0.0840925
0.214527 0.391485 0.0973068
0.238178 0.390661 0.113115
0.262943 0.389883 0.129961
0.286305 0.392233 0.142702
0.304997 0.398199 0.147692
0.32546 0.404807 0.154391
0.346639 0.410925 0.162692
0.370291 0.416922 0.17174
0.415244 0.421164 0.144793
0.454566 0.420462 0.116411
0.495308 0.419303 0.0801556
0.536812 0.416617 0.0356451
0.577981 0.413077 0.0139162
0.610254 0.413397 0.0131685
0.642435 0.414237 0.0129244
0.675181 0.415381 0.0127718
0.708095 0.416892 0.0127565
0.741085 0.41883 0.0128023
0.773693 0.421286 0.0129549
0.806516 0.42414 0.0132143
0.838514 0.427649 0.0136873
0.870329 0.431556 0.0144198
0.901122 0.436194 0.0153811
0.931426 0.441321 0.016907
0.95729 0.447745 0.0191043
0.979919 0.45565 0.022797
0.998993 0.462226 0.0252079
0.125444 0.426078 0.0525063
0.14197 0.425254 0.0608682
0.156466 0.424994 0.0675517
0.170336 0.424704 0.0747234
0.18584 0.423957 0.082826
0.203708 0.423163 0.0926528
0.223331 0.422019 0.104524
0.245823 0.421439 0.118761
0.269963 0.420569 0.135378
0.29453 0.420218 0.151461
0.315923 0.42443 0.160952
0.335103 0.43064 0.166033
0.355688 0.437537 0.173129
0.37731 0.443519 0.181628
0.402579 0.449973 0.188418
0.447105 0.453971 0.16141
0.48716 0.453483 0.133272
0.527855 0.452079 0.0979019
0.570382 0.449577 0.051957
0.613687 0.445228 0.0164492
0.648096 0.444709 0.013611
0.680858 0.44564 0.0132906
0.713817 0.446693 0.0130465
0.746563 0.448218 0.0129397
0.779583 0.45008 0.0129702
0.811856 0.452567 0.0130922
0.844114 0.455497 0.0133516
0.875502 0.459098 0.0138399
0.906371 0.463233 0.0145266
0.935866 0.467826 0.0155489
0.961517 0.474296 0.0175021
0.983612 0.482185 0.020676
0.998993 0.490837 0.0252842
0.140566 0.456352 0.0638285
0.156146 0.455604 0.07187
0.169619 0.455482 0.0781262
0.182635 0.455329 0.0846113
0.197253 0.454734 0.0920577
0.214176 0.454124 0.101289
0.232578 0.452949 0.111818
0.253925 0.452522 0.124788
0.276829 0.451789 0.140093
0.301656 0.450797 0.15729
0.32665 0.45153 0.173281
0.345678 0.457053 0.178866
0.365209 0.463493 0.184268
0.386282 0.470451 0.191287
0.407874 0.476524 0.200015
0.435035 0.483345 0.204822
0.479744 0.487144 0.178012
0.519829 0.486595 0.149889
0.561242 0.485115 0.115053
0.604837 0.482582 0.0707408
0.649302 0.478172 0.0231937
0.686763 0.47657 0.0140383
0.719585 0.477211 0.01355
0.75256 0.478218 0.0132601
0.785138 0.479774 0.0130922
0.817746 0.481758 0.0130617
0.849622 0.484337 0.0131533
0.881056 0.487495 0.0134127
0.911803 0.491325 0.013962
0.941146 0.496056 0.014847
0.966033 0.502373 0.0164797
0.98761 0.510002 0.0193027
0.998993 0.518517 0.0233616
0.155261 0.487068 0.0744793
0.169833 0.486442 0.0822003
0.182406 0.486412 0.0882582
0.194659 0.486122 0.0940108
0.208652 0.485832 0.101122
0.224704 0.485405 0.109667
0.242451 0.484367 0.119509
0.262379 0.48368 0.131456
0.284398 0.483146 0.145251
0.30811 0.482368 0.161257
0.333394 0.48188 0.178805
0.357427 0.484169 0.192355
0.375875 0.490318 0.196796
0.395697 0.497078 0.202564
0.4168 0.503792 0.209567
0.438621 0.509926 0.218448
0.467613 0.517052 0.220874
0.512642 0.520821 0.194339
0.553277 0.520058 0.166003
0.595865 0.518593 0.131411
0.640406 0.515785 0.0884565
0.685557 0.511864 0.0339513
0.725658 0.50869 0.014374
0.758587 0.509346 0.0137789
0.791547 0.510521 0.0134127
0.823987 0.512459 0.0132448
0.855985 0.514763 0.0132143
0.887297 0.517647 0.0133974
0.917815 0.521187 0.0137636
0.946227 0.525765 0.0145113
0.970794 0.531884 0.0160983
0.99147 0.539178 0.0184634
0.998993 0.547234 0.0221561
0.169284 0.518196 0.0848402
0.183322 0.517632 0.0924697
0.195361 0.517662 0.0979324
0.206729 0.517418 0.103517
0.220203 0.51725 0.110124
0.235554 0.516915 0.11809
0.252522 0.516045 0.127245
0.271336 0.515175 0.138277
0.292393 0.514702 0.150896
0.315236 0.514275 0.165728
0.339712 0.513695 0.18262
0.364721 0.51339 0.199207
0.386969 0.517494 0.209628
0.405875 0.523888 0.214237
0.426184 0.530877 0.220218
0.447654 0.53782 0.227741
0.469978 0.544106 0.236637
0.500282 0.551369 0.236255
0.545785 0.554955 0.209781
0.587533 0.55404 0.181308
0.631479 0.55259 0.147127
0.676417 0.549783 0.105394
0.721935 0.546151 0.0495918
0.764767 0.542184 0.0152743
0.797833 0.542916 0.0141451
0.830137 0.544335 0.0137636
0.861997 0.546304 0.0135958
0.89308 0.548989 0.0136263
0.923247 0.552361 0.013901
0.951171 0.55671 0.0146181
0.974685 0.562707 0.0159915
0.995499 0.569909 0.018265
0.998993 0.577813 0.0216678
0.182788 0.549645 0.0946975
0.196399 0.549294 0.102312
0.207874 0.549386 0.107439
0.218799 0.549142 0.112642
0.231525 0.549126 0.118914
0.246143 0.548913 0.126406
0.262394 0.54818 0.134951
0.280476 0.547509 0.145006
0.30042 0.546685 0.156512
0.322454 0.546593 0.170611
0.346029 0.546014 0.186236
0.371237 0.545205 0.203861
0.396674 0.54583 0.219989
0.416663 0.5514 0.226383
0.435935 0.558099 0.231022
0.456474 0.565408 0.237354
0.478325 0.572305 0.244862
0.500847 0.578912 0.253864
0.533318 0.586725 0.25127
0.579843 0.590097 0.224979
0.623011 0.589364 0.196765
0.667475 0.587716 0.162737
0.712764 0.585107 0.122438
0.758236 0.581811 0.0695964
0.802304 0.577371 0.0190127
0.836149 0.577646 0.0148318
0.867613 0.579477 0.014435
0.89868 0.581781 0.0143435
0.928893 0.585122 0.0145724
0.955718 0.589517 0.0152285
0.978744 0.595285 0.0165255
0.998993 0.602045 0.0186618
0.998993 0.609506 0.0217136
0.195743 0.581857 0.103731
0.208957 0.581567 0.111238
0.219623 0.581781 0.116106
0.23006 0.581613 0.12076
0.242344 0.581613 0.126848
0.256367 0.581506 0.133898
0.271946 0.580911 0.141894
0.28954 0.580331 0.151537
0.308507 0.579217 0.162081
0.329686 0.579217 0.175189
0.352346 0.578851 0.189639
0.376745 0.578225 0.206104
0.402686 0.577859 0.224063
0.42768 0.580087 0.238514
0.446281 0.58648 0.242817
0.465919 0.593591 0.247593
0.486946 0.601007 0.253956
0.509194 0.608026 0.261769
0.532311 0.614923 0.27126
0.567529 0.623301 0.266865
0.615259 0.626535 0.241016
0.659175 0.625589 0.212833
0.703761 0.624063 0.179477
0.749264 0.621942 0.140795
0.79411 0.618784 0.0906844
0.838148 0.614527 0.0283665
0.873518 0.614084 0.0160983
0.904128 0.616312 0.0157626
0.933867 0.619089 0.0157321
0.959976 0.623194 0.0163577
0.982269 0.628779 0.0175937
0.998993 0.635325 0.0196231
0.998993 0.642054 0.0224918
0.208087 0.614771 0.11223
0.220905 0.614481 0.119448
0.231189 0.614511 0.124178
0.241062 0.614603 0.12874
0.252827 0.614664 0.134478
0.266255 0.614649 0.141085
0.281392 0.614115 0.148547
0.29836 0.613703 0.15761
0.316472 0.612818 0.167819
0.336873 0.612421 0.179644
0.35874 0.612207 0.193286
0.382513 0.611734 0.208652
0.407935 0.611444 0.226154
0.433845 0.611292 0.243412
0.457404 0.615518 0.25481
0.476371 0.6224 0.259159
0.496468 0.629938 0.26453
0.51873 0.637964 0.271687
0.541192 0.644938 0.279866
0.56527 0.651835 0.289586
0.602945 0.660563 0.282795
0.651453 0.66363 0.257755
0.695689 0.662715 0.229831
0.740291 0.661357 0.197131
0.785382 0.659525 0.159762
0.829816 0.65687 0.112322
0.872633 0.653101 0.0475471
0.909422 0.651484 0.018265
0.938659 0.654047 0.0179446
0.963897 0.658045 0.0183871
0.985519 0.663371 0.0196384
0.998993 0.669474 0.0218051
0.998993 0.675746 0.0245212
0.22031 0.648219 0.120287
0.232334 0.648066 0.127214
0.242222 0.647959 0.131823
0.251987 0.648188 0.136202
0.263294 0.648325 0.141421
0.275929 0.648127 0.147692
0.290593 0.648005 0.155077
0.307027 0.647745 0.163699
0.324773 0.646998 0.173342
0.344213 0.646372 0.184222
0.365484 0.646372 0.197269
0.388632 0.646174 0.211749
0.413489 0.646021 0.228397
0.439673 0.645472 0.246601
0.466117 0.646281 0.263508
0.487526 0.652216 0.271595
0.507088 0.65951 0.276387
0.528313 0.667262 0.28246
0.551171 0.675456 0.290135
0.574746 0.682521 0.298756
0.599496 0.68983 0.308904
0.639567 0.698375 0.299687
0.688457 0.701213 0.275227
0.732525 0.70045 0.247761
0.777005 0.699641 0.216052
0.821088 0.697871 0.179263
0.8645 0.695781 0.135103
0.90602 0.692592 0.0741131
0.942992 0.690028 0.0226139
0.967575 0.693706 0.0221256
0.988846 0.699016 0.023621
0.998993 0.704799 0.025864
0.998993 0.710445 0.0286412
0.23238 0.682368 0.128405
0.24416 0.682292 0.135058
0.253697 0.682277 0.139574
0.263127 0.682567 0.14406
0.274037 0.682811 0.149096
0.286198 0.682689 0.155032
0.300557 0.682673 0.162066
0.316487 0.682536 0.170321
0.333745 0.681941 0.179568
0.35288 0.681422 0.190234
0.373312 0.68101 0.202441
0.396155 0.681315 0.21651
0.420111 0.681178 0.232319
0.445701 0.680812 0.249699
0.472435 0.680507 0.267887
0.499245 0.683177 0.28423
0.519265 0.689982 0.289738
0.539193 0.697429 0.294667
0.561379 0.705257 0.301427
0.585016 0.713436 0.309483
0.609308 0.720424 0.318334
0.634699 0.727825 0.328679
0.676921 0.736461 0.317708
0.725643 0.739132 0.293843
0.769589 0.738781 0.267613
0.813062 0.737896 0.236332
0.855665 0.736538 0.201312
0.897627 0.73492 0.159548
0.937896 0.732616 0.104143
0.970001 0.731075 0.0373693
0.991592 0.734844 0.0306401
0.998993 0.740246 0.0332494
0.998993 0.745342 0.0363317
0.245121 0.717281 0.137041
0.256504 0.717235 0.143725
0.266102 0.717189 0.148318
0.275227 0.717525 0.152712
0.285649 0.717891 0.157702
0.297704 0.7178 0.163333
0.311559 0.717891 0.170443
0.327276 0.717815 0.178408
0.344076 0.717342 0.187335
0.362524 0.717021 0.197787
0.382315 0.716152 0.209018
0.404547 0.716594 0.22266
0.427893 0.71667 0.237446
0.452766 0.716548 0.253925
0.479484 0.716503 0.27245
0.506401 0.716625 0.29041
0.531945 0.720836 0.303868
0.551751 0.72813 0.308522
0.57322 0.735775 0.31429
0.596231 0.743832 0.321447
0.620508 0.751522 0.329656
0.645014 0.758373 0.339086
0.670924 0.765698 0.350256
0.715175 0.774716 0.337728
0.762982 0.777249 0.31516
0.80589 0.776699 0.289387
0.847868 0.77612 0.25977
0.889143 0.775387 0.226871
0.929046 0.773968 0.18761
0.964004 0.77322 0.137972
0.991791 0.772717 0.0665599
0.998993 0.775937 0.0463722
0.998993 0.780377 0.0505531
0.259373 0.75256 0.147494
0.270085 0.752316 0.15349
0.279805 0.752514 0.158724
0.288655 0.752911 0.162768
0.298924 0.753231 0.167788
0.310384 0.753262 0.173251
0.324041 0.753384 0.179904
0.339132 0.753445 0.187793
0.355459 0.753094 0.19646
0.373617 0.752895 0.206287
0.392874 0.752178 0.217197
0.41387 0.7523 0.229923
0.436667 0.752468 0.243809
0.460838 0.752529 0.259419
0.486885 0.752667 0.277043
0.514092 0.752361 0.295903
0.541741 0.753231 0.313603
0.565362 0.758877 0.323507
0.585962 0.766247 0.328466
0.608392 0.773831 0.335149
0.632349 0.781842 0.343053
0.657053 0.789349 0.352102
0.68188 0.796277 0.361975
0.708095 0.803037 0.373953
0.753399 0.812039 0.360723
0.799863 0.81442 0.339895
0.84126 0.814054 0.315755
0.881315 0.813809 0.287846
0.920592 0.813489 0.257374
0.956161 0.813016 0.222004
0.985199 0.813855 0.178027
0.998993 0.814237 0.113603
0.998993 0.815671 0.0727398
0.275105 0.788083 0.159365
0.285252 0.787915 0.165225
0.29485 0.788128 0.170382
0.30341 0.788525 0.174487
0.313222 0.788785 0.179049
0.324575 0.788891 0.184527
0.337591 0.78912 0.190997
0.352331 0.789212 0.198428
0.36817 0.788968 0.2065
