bundles/resolve-cinematic-luts/Lens Distortions - Finishing LUTs/LD - Velvet B&W 1.cube
TITLE "LD - Velvet 1"
# Copyright (c) Lens Distortions, LLC. All Rights Reserved.
# LensDistortions.com
# ref-VBW1
LUT_3D_SIZE 5
0.0374151 0.0374151 0.0374151
0.067628 0.067628 0.067628
0.107836 0.107836 0.107836
0.15436 0.15436 0.15436
0.203052 0.203052 0.203052
0.143908 0.143908 0.143908
0.200946 0.200946 0.200946
0.251667 0.251667 0.251667
0.302525 0.302525 0.302525
0.35317 0.35317 0.35317
0.298054 0.298054 0.298054
0.347677 0.347677 0.347677
0.428122 0.428122 0.428122
0.487388 0.487388 0.487388
0.536248 0.536248 0.536248
0.45742 0.45742 0.45742
0.507668 0.507668 0.507668
0.572778 0.572778 0.572778
0.66772 0.66772 0.66772
0.72488 0.72488 0.72488
0.613199 0.613199 0.613199
0.6645 0.6645 0.6645
0.730632 0.730632 0.730632
0.806119 0.806119 0.806119
0.886671 0.886671 0.886671
0.0486152 0.0486152 0.0486152
0.0803082 0.0803082 0.0803082
0.124178 0.124178 0.124178
0.172168 0.172168 0.172168
0.221347 0.221347 0.221347
0.159289 0.159289 0.159289
0.21706 0.21706 0.21706
0.270375 0.270375 0.270375
0.321553 0.321553 0.321553
0.372808 0.372808 0.372808
0.313161 0.313161 0.313161
0.357855 0.357855 0.357855
0.459525 0.459525 0.459525
0.517678 0.517678 0.517678
0.560082 0.560082 0.560082
0.471458 0.471458 0.471458
0.518853 0.518853 0.518853
0.58764 0.58764 0.58764
0.699611 0.699611 0.699611
0.759121 0.759121 0.759121
0.625391 0.625391 0.625391
0.675395 0.675395 0.675395
0.743954 0.743954 0.743954
0.81883 0.81883 0.81883
0.903975 0.903975 0.903975
0.0625467 0.0625467 0.0625467
0.0947585 0.0947585 0.0947585
0.140978 0.140978 0.140978
0.192615 0.192615 0.192615
0.242924 0.242924 0.242924
0.178882 0.178882 0.178882
0.217868 0.217868 0.217868
0.280812 0.280812 0.280812
0.34107 0.34107 0.34107
0.394064 0.394064 0.394064
0.333837 0.333837 0.333837
0.375738 0.375738 0.375738
0.46569 0.46569 0.46569
0.525597 0.525597 0.525597
0.579446 0.579446 0.579446
0.492622 0.492622 0.492622
0.535622 0.535622 0.535622
0.60473 0.60473 0.60473
0.727596 0.727596 0.727596
0.801892 0.801892 0.801892
0.646769 0.646769 0.646769
0.690318 0.690318 0.690318
0.748058 0.748058 0.748058
0.826703 0.826703 0.826703
0.924147 0.924147 0.924147
0.0772717 0.0772717 0.0772717
0.111009 0.111009 0.111009
0.157839 0.157839 0.157839
0.208621 0.208621 0.208621
0.260578 0.260578 0.260578
0.198077 0.198077 0.198077
0.23711 0.23711 0.23711
0.29221 0.29221 0.29221
0.352392 0.352392 0.352392
0.41207 0.41207 0.41207
0.35407 0.35407 0.35407
0.396139 0.396139 0.396139
0.457084 0.457084 0.457084
0.530709 0.530709 0.530709
0.596582 0.596582 0.596582
0.513283 0.513283 0.513283
0.55639 0.55639 0.55639
0.622461 0.622461 0.622461
0.725399 0.725399 0.725399
0.784634 0.784634 0.784634
0.667659 0.667659 0.667659
0.711238 0.711238 0.711238
0.761868 0.761868 0.761868
0.857008 0.857008 0.857008
0.942535 0.942535 0.942535
0.092195 0.092195 0.092195
0.127718 0.127718 0.127718
0.175433 0.175433 0.175433
0.224948 0.224948 0.224948
0.276143 0.276143 0.276143
0.216464 0.216464 0.216464
0.25568 0.25568 0.25568
0.308904 0.308904 0.308904
0.365728 0.365728 0.365728
0.424308 0.424308 0.424308
0.373617 0.373617 0.373617
0.415686 0.415686 0.415686
0.465156 0.465156 0.465156
0.531762 0.531762 0.531762
0.600031 0.600031 0.600031
0.53312 0.53312 0.53312
0.576242 0.576242 0.576242
0.626596 0.626596 0.626596
0.713008 0.713008 0.713008
0.789319 0.789319 0.789319
0.687602 0.687602 0.687602
0.731212 0.731212 0.731212
0.78143 0.78143 0.78143
0.87245 0.87245 0.87245
0.958846 0.958846 0.958846
