bundles/resolve-cinematic-luts/Lens Distortions - Finishing LUTs/LD - Velvet B&W 3.cube
TITLE "LD - Velvet 3"
# Copyright (c) Lens Distortions, LLC. All Rights Reserved.
# LensDistortions.com
# ref-VBW1
LUT_3D_SIZE 5
0.0328222 0.0328222 0.0328222
0.0569162 0.0569162 0.0569162
0.0902724 0.0902724 0.0902724
0.1299 0.1299 0.1299
0.174502 0.174502 0.174502
0.121035 0.121035 0.121035
0.1729 0.1729 0.1729
0.220676 0.220676 0.220676
0.268925 0.268925 0.268925
0.318578 0.318578 0.318578
0.26482 0.26482 0.26482
0.313222 0.313222 0.313222
0.397314 0.397314 0.397314
0.465278 0.465278 0.465278
0.523903 0.523903 0.523903
0.430198 0.430198 0.430198
0.489265 0.489265 0.489265
0.567941 0.567941 0.567941
0.678096 0.678096 0.678096
0.739086 0.739086 0.739086
0.616205 0.616205 0.616205
0.674968 0.674968 0.674968
0.745205 0.745205 0.745205
0.819333 0.819333 0.819333
0.895994 0.895994 0.895994
0.0417182 0.0417182 0.0417182
0.0673686 0.0673686 0.0673686
0.104128 0.104128 0.104128
0.145693 0.145693 0.145693
0.191455 0.191455 0.191455
0.13431 0.13431 0.13431
0.187854 0.187854 0.187854
0.238224 0.238224 0.238224
0.287144 0.287144 0.287144
0.337881 0.337881 0.337881
0.279026 0.279026 0.279026
0.323003 0.323003 0.323003
0.431846 0.431846 0.431846
0.500404 0.500404 0.500404
0.551568 0.551568 0.551568
0.44535 0.44535 0.44535
0.50164 0.50164 0.50164
0.584527 0.584527 0.584527
0.712169 0.712169 0.712169
0.773236 0.773236 0.773236
0.629496 0.629496 0.629496
0.68629 0.68629 0.68629
0.758328 0.758328 0.758328
0.831144 0.831144 0.831144
0.912322 0.912322 0.912322
0.0532692 0.0532692 0.0532692
0.0797436 0.0797436 0.0797436
0.11873 0.11873 0.11873
0.165026 0.165026 0.165026
0.212024 0.212024 0.212024
0.152483 0.152483 0.152483
0.188739 0.188739 0.188739
0.24831 0.24831 0.24831
0.306325 0.306325 0.306325
0.359701 0.359701 0.359701
0.299123 0.299123 0.299123
0.340902 0.340902 0.340902
0.438468 0.438468 0.438468
0.508919 0.508919 0.508919
0.574014 0.574014 0.574014
0.469383 0.469383 0.469383
0.520912 0.520912 0.520912
0.604273 0.604273 0.604273
0.741283 0.741283 0.741283
0.815213 0.815213 0.815213
0.653483 0.653483 0.653483
0.701915 0.701915 0.701915
0.762325 0.762325 0.762325
0.838911 0.838911 0.838911
0.931807 0.931807 0.931807
0.0662242 0.0662242 0.0662242
0.0942855 0.0942855 0.0942855
0.134295 0.134295 0.134295
0.180941 0.180941 0.180941
0.229679 0.229679 0.229679
0.171298 0.171298 0.171298
0.207767 0.207767 0.207767
0.260029 0.260029 0.260029
0.318227 0.318227 0.318227
0.378897 0.378897 0.378897
0.319814 0.319814 0.319814
0.362554 0.362554 0.362554
0.428687 0.428687 0.428687
0.5149 0.5149 0.5149
0.594491 0.594491 0.594491
0.493843 0.493843 0.493843
0.54583 0.54583 0.54583
0.62504 0.62504 0.62504
0.739681 0.739681 0.739681
0.799176 0.799176 0.799176
0.677302 0.677302 0.677302
0.724712 0.724712 0.724712
0.776577 0.776577 0.776577
0.868528 0.868528 0.868528
0.950347 0.950347 0.950347
0.0789502 0.0789502 0.0789502
0.108888 0.108888 0.108888
0.15053 0.15053 0.15053
0.196384 0.196384 0.196384
0.244663 0.244663 0.244663
0.188724 0.188724 0.188724
0.225544 0.225544 0.225544
0.276341 0.276341 0.276341
0.331456 0.331456 0.331456
0.391623 0.391623 0.391623
0.3393 0.3393 0.3393
0.382925 0.382925 0.382925
0.437537 0.437537 0.437537
0.515435 0.515435 0.515435
0.597726 0.597726 0.597726
0.516915 0.516915 0.516915
0.569131 0.569131 0.569131
0.629282 0.629282 0.629282
0.726314 0.726314 0.726314
0.803723 0.803723 0.803723
0.699107 0.699107 0.699107
0.745602 0.745602 0.745602
0.796002 0.796002 0.796002
0.88333 0.88333 0.88333
0.96611 0.96611 0.96611
