bundles/resolve-cinematic-luts/Lens Distortions - Finishing LUTs/LD - Paradigm Teal 3.cube
TITLE "LD - Paradigm Teal 3"
# Copyright (c) Lens Distortions, LLC. All Rights Reserved.
# LensDistortions.com
# ref-PT2
LUT_3D_SIZE 9
0.00549325 0.00549325 0.00819409
0.0529641 0.00549325 0.0196384
0.19205 0.0208896 0.024506
0.370916 0.0720836 0.0543526
0.508217 0.122789 0.0886091
0.634379 0.163195 0.118242
0.755627 0.199786 0.144991
0.867491 0.23267 0.169375
0.960204 0.261494 0.192172
0.0203861 0.0978103 0.103319
0.0776989 0.0975967 0.0586404
0.188846 0.118837 0.0175937
0.361318 0.167208 0.046952
0.494774 0.206561 0.0844587
0.618875 0.239933 0.117205
0.741299 0.269551 0.145724
0.855344 0.295689 0.170214
0.950362 0.319753 0.191974
0.0971084 0.23125 0.225559
0.119722 0.233066 0.221164
0.22121 0.241184 0.128725
0.365682 0.265019 0.0250401
0.487129 0.295552 0.0433204
0.607614 0.32343 0.0730144
0.727703 0.34931 0.110277
0.841108 0.372412 0.139879
0.937865 0.393515 0.164309
0.171344 0.352438 0.339574
0.191348 0.350927 0.33286
0.270741 0.353582 0.307698
0.393668 0.374655 0.11429
0.511147 0.384421 0.0271
0.611353 0.416449 0.0371405
0.723568 0.440116 0.0624094
0.831693 0.463676 0.088777
0.926314 0.484321 0.11397
0.238209 0.469322 0.448386
0.281666 0.465644 0.434791
0.346654 0.464851 0.41706
0.436423 0.483055 0.321782
0.531991 0.501686 0.153079
0.654719 0.502312 0.029633
0.745983 0.531884 0.0311284
0.839857 0.558404 0.0438239
0.929244 0.577142 0.0667735
0.31754 0.582971 0.549615
0.363577 0.578973 0.533578
0.425238 0.576211 0.514321
0.487922 0.591257 0.447715
0.56408 0.613611 0.360555
0.666392 0.628107 0.188556
0.795666 0.623087 0.0619211
0.881697 0.643458 0.0311131
0.947662 0.669352 0.0343175
0.38909 0.693874 0.647669
0.435615 0.689555 0.629938
0.494575 0.686015 0.610269
0.538674 0.703517 0.538598
0.616876 0.715953 0.48629
0.69752 0.741161 0.361517
0.7991 0.753765 0.220401
0.919295 0.74548 0.126238
0.97409 0.753506 0.0386664
0.448859 0.799054 0.742046
0.496056 0.794705 0.72311
0.553231 0.79086 0.702205
0.606241 0.798581 0.653635
0.66453 0.814603 0.594293
0.742626 0.835599 0.513741
0.825269 0.85948 0.364172
0.917632 0.868971 0.247837
0.990158 0.862364 0.183261
0.499687 0.890303 0.828153
0.547143 0.886229 0.809506
0.59913 0.882933 0.790112
0.658671 0.884153 0.759915
0.7028 0.905364 0.679225
0.785855 0.919707 0.613016
0.857908 0.942306 0.531502
0.940169 0.959152 0.365408
0.993454 0.96611 0.280354
0.00549325 0.0411383 0.0801862
0.0366827 0.0302892 0.140261
0.200488 0.0240787 0.143008
0.374746 0.0836805 0.134112
0.513329 0.114046 0.144274
0.641382 0.140734 0.153582
0.764721 0.166049 0.163607
0.875456 0.198978 0.183307
0.965789 0.230976 0.204547
0.00549325 0.114519 0.154192
0.0411688 0.115862 0.138903
0.197101 0.116487 0.126329
0.368688 0.156176 0.144183
0.500572 0.19501 0.168948
0.623957 0.228824 0.191897
0.745815 0.259083 0.213581
0.859373 0.285985 0.232914
0.953155 0.310475 0.251133
0.0644236 0.239811 0.25481
0.102647 0.234867 0.240925
0.223194 0.2392 0.192584
0.368048 0.261799 0.132769
0.49247 0.287419 0.138933
0.611978 0.315526 0.170031
0.731807 0.341741 0.196155
0.84448 0.365362 0.217639
0.940734 0.386755 0.236545
0.148226 0.358816 0.36051
0.1879 0.35108 0.344991
0.26096 0.354345 0.331182
0.389685 0.374624 0.201221
0.505882 0.388327 0.143191
0.613642 0.412909 0.142641
0.727657 0.434806 0.152102
0.836713 0.456352 0.16994
0.93135 0.475731 0.194934
0.220203 0.474495 0.467353
0.277317 0.46595 0.446662
0.34197 0.466117 0.430335
0.433555 0.480491 0.364858
0.529122 0.501778 0.231388
0.649241 0.50573 0.147433
0.741085 0.534905 0.146471
0.841169 0.555673 0.153643
0.931502 0.573449 0.165118
0.294774 0.588556 0.570733
0.357 0.579629 0.547021
0.417151 0.57821 0.529183
0.478294 0.592325 0.479271
0.562722 0.610895 0.405951
0.663706 0.628412 0.26038
0.792035 0.62443 0.167926
0.87715 0.646235 0.143984
0.9458 0.67277 0.14902
0.364675 0.700175 0.670863
0.426566 0.691051 0.64625
0.484245 0.68867 0.627314
0.546792 0.69337 0.598184
0.611566 0.714717 0.526772
0.69485 0.739773 0.411734
0.796384 0.75407 0.286656
0.915969 0.746944 0.214069
0.971664 0.756649 0.154528
0.424369 0.805493 0.766979
0.486351 0.79646 0.741268
0.540398 0.793912 0.721538
0.59968 0.794446 0.704845
0.650706 0.816037 0.634989
0.742412 0.832044 0.555047
0.823224 0.858503 0.416419
0.915297 0.86923 0.310765
0.988998 0.862898 0.258778
0.475135 0.896208 0.851621
0.537163 0.888212 0.827039
0.58645 0.88571 0.809293
0.646006 0.885237 0.791363
0.702205 0.899702 0.735637
0.778881 0.919264 0.656535
0.857359 0.939345 0.57174
0.937942 0.958099 0.419562
0.99237 0.966018 0.341421
0.00549325 0.113313 0.180545
0.0123598 0.119448 0.198978
0.2 0.0611734 0.269108
0.386679 0.0780957 0.273701
0.51725 0.137713 0.262791
0.639872 0.173892 0.251286
0.763912 0.192126 0.254276
0.877379 0.209339 0.258839
0.968811 0.22771 0.265858
0.00549325 0.153735 0.214542
0.0105745 0.157641 0.210086
0.188113 0.140383 0.256428
0.378302 0.156832 0.258137
0.508293 0.193072 0.240726
0.634607 0.212696 0.244663
0.758526 0.231449 0.249409
0.872389 0.248798 0.254307
0.963928 0.270726 0.266087
0.00549325 0.257527 0.306615
0.0511788 0.255039 0.292546
0.197925 0.253407 0.263798
0.370306 0.264637 0.246983
0.494606 0.28748 0.26041
0.615595 0.312505 0.276722
0.735698 0.337591 0.2934
0.848585 0.360662 0.308858
0.943725 0.381964 0.323598
0.111589 0.368582 0.394141
0.14435 0.363775 0.382452
0.267857 0.357198 0.348516
0.385275 0.376257 0.289998
0.509178 0.384558 0.259892
0.62388 0.402548 0.238956
0.735729 0.425666 0.25275
0.843107 0.4477 0.272801
0.936477 0.467796 0.289845
0.188052 0.483131 0.496666
0.240864 0.476219 0.477714
0.341741 0.468223 0.446433
0.41973 0.481514 0.422858
0.525261 0.5028 0.314504
0.642863 0.51046 0.267597
0.740612 0.534798 0.259388
0.847288 0.549615 0.253483
0.937774 0.565957 0.255085
0.25922 0.597253 0.600824
0.327611 0.58854 0.576776
0.41352 0.580484 0.54699
0.483284 0.585901 0.533089
0.56318 0.606729 0.463355
0.6598 0.629252 0.339925
0.78584 0.628428 0.27541
0.869291 0.652171 0.267704
0.942748 0.67686 0.269184
0.334768 0.70811 0.700298
0.396506 0.700175 0.677043
0.478035 0.691157 0.646448
0.538811 0.693874 0.631556
0.599542 0.713039 0.586511
0.689509 0.737331 0.487037
0.792401 0.754757 0.364584
0.911742 0.749584 0.303258
0.968765 0.763516 0.276967
0.396841 0.812802 0.795499
0.456489 0.805295 0.772244
0.532265 0.796246 0.741726
0.5897 0.797543 0.725185
0.653681 0.809094 0.694194
0.7393 0.828901 0.614359
0.81976 0.857176 0.484688
0.91165 0.869764 0.38764
0.987945 0.864576 0.341222
0.447791 0.903441 0.878935
0.507347 0.896178 0.856123
0.578332 0.887602 0.828046
0.635416 0.887938 0.810971
0.701289 0.893355 0.796124
0.765423 0.915496 0.730541
0.857298 0.935012 0.631006
0.935134 0.957046 0.48954
0.990585 0.96582 0.416678
0.00549325 0.190402 0.274693
0.00549325 0.195895 0.276982
0.123934 0.190219 0.3393
0.393439 0.105226 0.396155
0.530053 0.129839 0.398581
0.652216 0.165499 0.38587
0.767483 0.211582 0.37615
0.875792 0.246494 0.368277
0.967636 0.263233 0.364294
0.00549325 0.212787 0.289418
0.00549325 0.216007 0.288029
0.128222 0.226062 0.297734
0.382391 0.174975 0.382956
0.52015 0.190143 0.386465
0.64004 0.226001 0.373693
0.757641 0.262455 0.362539
0.87216 0.278889 0.353491
0.964828 0.293278 0.356649
0.00549325 0.287434 0.363668
0.00549325 0.289067 0.357229
0.153353 0.28658 0.332906
0.374685 0.266758 0.373266
0.50721 0.282475 0.368246
0.63035 0.303761 0.346868
0.756313 0.313893 0.340673
0.869963 0.327459 0.344182
0.962509 0.342138 0.349966
0.0125429 0.389136 0.454627
0.0722667 0.385046 0.44126
0.223331 0.378408 0.405203
0.384009 0.380026 0.378347
0.510674 0.390082 0.350469
0.624567 0.406271 0.360922
0.738079 0.426749 0.372885
0.846937 0.446769 0.384863
0.939895 0.465431 0.396826
0.139376 0.49688 0.541299
0.191699 0.491142 0.525154
0.305303 0.48423 0.490394
0.431571 0.482628 0.46305
0.521172 0.505241 0.409033
0.640848 0.512032 0.381735
0.758938 0.520516 0.364523
0.861387 0.537301 0.354986
0.946654 0.55671 0.35845
0.215686 0.608423 0.642817
0.28397 0.60177 0.619318
0.375402 0.594995 0.588464
0.482231 0.5906 0.556054
0.554788 0.606668 0.54139
0.655344 0.631083 0.433265
0.782162 0.631418 0.390463
0.869368 0.652522 0.384985
0.95198 0.668879 0.370428
0.290333 0.719524 0.741787
0.355276 0.712596 0.716838
0.444663 0.703822 0.684871
0.535637 0.697932 0.653635
0.603342 0.708492 0.645838
0.689601 0.73283 0.57261
0.787793 0.756222 0.458198
0.909819 0.751476 0.401205
0.9673 0.771634 0.391669
0.353765 0.823987 0.833661
0.42005 0.816403 0.808728
0.500862 0.80795 0.778576
0.585931 0.800839 0.74728
0.652216 0.808469 0.735378
0.722637 0.828779 0.694499
0.815824 0.855421 0.574609
0.907088 0.870954 0.481437
0.986557 0.867185 0.43537
0.407752 0.913558 0.912947
0.476677 0.905409 0.888289
0.546502 0.898238 0.862104
0.631418 0.890669 0.831724
0.697383 0.89604 0.818097
0.762341 0.91371 0.780804
0.858167 0.930098 0.705257
0.931243 0.955657 0.580789
0.988281 0.965774 0.510155
0.00549325 0.264576 0.368078
0.00549325 0.26804 0.369574
0.0994736 0.274815 0.392966
0.37203 0.190616 0.519371
0.536294 0.155627 0.52755
0.660945 0.170581 0.533318
0.783093 0.195331 0.520073
0.890227 0.225208 0.510719
0.973648 0.26305 0.508003
0.00549325 0.278553 0.374746
0.00549325 0.279805 0.373159
0.108049 0.287175 0.372473
0.353857 0.236194 0.501152
0.522454 0.215702 0.512764
0.652293 0.222705 0.523018
0.77583 0.241917 0.51223
0.882048 0.276036 0.503578
0.967315 0.309667 0.499062
0.00549325 0.329931 0.423865
0.00549325 0.33109 0.420829
0.120592 0.328908 0.405341
0.32163 0.326268 0.459617
0.51107 0.295018 0.500023
0.63917 0.304662 0.506477
0.760403 0.325811 0.496803
0.867689 0.353445 0.483986
0.957824 0.377356 0.475776
0.00549325 0.4177 0.519387
0.00549325 0.4177 0.512703
0.113603 0.414115 0.490028
0.347082 0.411978 0.447288
0.510109 0.395239 0.497002
0.633463 0.405051 0.493538
0.755444 0.42034 0.464668
0.874327 0.422583 0.445121
0.960555 0.433906 0.448646
0.0298466 0.519677 0.6112
0.0821851 0.515496 0.598779
0.24715 0.506752 0.558465
0.393698 0.506615 0.520745
0.520165 0.510033 0.506325
0.646647 0.51664 0.460426
0.757977 0.527932 0.468025
0.86099 0.542672 0.477287
0.943114 0.558938 0.486519
0.15555 0.625711 0.697017
0.223011 0.619333 0.676341
0.334966 0.612375 0.640452
0.450599 0.609751 0.604578
0.562356 0.609506 0.587137
0.650675 0.634256 0.540017
0.7635 0.64564 0.507546
0.882582 0.644175 0.492317
0.971099 0.650904 0.485588
0.241321 0.733501 0.790951
0.317876 0.726223 0.764309
0.405951 0.719676 0.731289
0.503212 0.715053 0.699519
0.607874 0.713207 0.673686
0.685634 0.731456 0.661418
0.783169 0.758816 0.560891
0.901732 0.757733 0.521492
0.974563 0.773266 0.519692
0.316091 0.835126 0.875074
0.381018 0.829068 0.851011
0.461021 0.822873 0.821698
0.55404 0.815915 0.790021
0.653803 0.81326 0.758465
0.726406 0.827695 0.749798
0.812634 0.851926 0.682933
0.90248 0.873167 0.58323
0.985489 0.870329 0.540673
0.36907 0.923949 0.948653
0.432288 0.917952 0.928069
0.511711 0.91078 0.900603
0.597436 0.904295 0.87129
0.69781 0.899992 0.839414
0.769985 0.90988 0.834852
0.850065 0.929656 0.785901
0.927413 0.954345 0.68043
0.986038 0.96611 0.60943
0.00549325 0.330068 0.456062
0.00549325 0.331456 0.456001
0.0950942 0.335897 0.457862
0.283238 0.291981 0.627955
0.518654 0.232319 0.641016
0.666835 0.198596 0.650843
0.789532 0.206027 0.660883
0.89807 0.229267 0.65153
0.983185 0.248905 0.644968
0.00549325 0.341558 0.460441
0.00549325 0.341344 0.458457
0.0988479 0.344244 0.45333
0.279942 0.34432 0.529137
0.503243 0.275959 0.623621
0.654185 0.252094 0.637461
0.782055 0.252018 0.653925
0.892363 0.271504 0.644907
0.979095 0.288579 0.639673
0.00549325 0.377813 0.490425
0.00549325 0.379324 0.49337
0.106233 0.376471 0.477531
0.296178 0.384894 0.481941
0.489052 0.338689 0.609689
0.641703 0.324117 0.623972
0.769055 0.327733 0.638025
0.880583 0.34406 0.629877
0.968338 0.362371 0.625788
0.00549325 0.450629 0.571527
0.00549325 0.451759 0.570825
0.0454414 0.450645 0.556497
0.315145 0.44773 0.516945
0.477012 0.433829 0.589776
0.635554 0.415488 0.615869
0.759518 0.422705 0.622614
0.870253 0.436408 0.615793
0.956924 0.458076 0.602457
0.00549325 0.547204 0.679255
0.00549325 0.546654 0.672251
0.10518 0.541009 0.64654
0.324285 0.538415 0.602533
0.505241 0.534218 0.561471
0.638239 0.523583 0.616724
0.758099 0.531075 0.615
0.874067 0.539666 0.580896
0.961212 0.53875 0.557565
0.0547189 0.647349 0.767407
0.120699 0.642283 0.751095
0.273091 0.634119 0.709926
0.414206 0.631922 0.666911
0.53315 0.633082 0.641749
0.650095 0.639124 0.632166
0.785306 0.641703 0.570611
0.884062 0.651865 0.572244
0.954406 0.661906 0.580133
0.168414 0.752499 0.849195
0.251499 0.745586 0.824735
0.359365 0.738872 0.788785
0.469963 0.735042 0.751125
0.578714 0.733837 0.72137
0.693553 0.735592 0.707668
0.778241 0.762432 0.66392
0.876448 0.777554 0.627588
0.969802 0.780972 0.61503
0.254444 0.851057 0.926268
0.331655 0.844724 0.902052
0.427802 0.837659 0.868269
0.519036 0.83357 0.836164
0.623484 0.830961 0.806134
0.735759 0.830716 0.786847
0.813275 0.850126 0.77319
0.897978 0.875837 0.682902
0.98146 0.879698 0.645609
0.326772 0.936599 0.985687
0.397055 0.930663 0.964752
0.480064 0.924132 0.939727
0.561425 0.919936 0.914199
0.665583 0.915785 0.883864
0.776089 0.914611 0.859602
0.843534 0.933181 0.844694
0.922576 0.951675 0.792935
0.983764 0.96701 0.706249
0.00549325 0.384436 0.531472
0.00549325 0.384833 0.530755
0.100221 0.386481 0.52372
0.254475 0.388785 0.593194
0.496239 0.281209 0.759579
0.654002 0.264469 0.758434
0.794629 0.237201 0.767529
0.904265 0.239826 0.777798
0.986999 0.258732 0.780179
0.00549325 0.395682 0.535973
0.00549325 0.394598 0.533684
0.0966506 0.395071 0.52549
0.25977 0.40206 0.561212
0.470451 0.330678 0.733547
0.640452 0.305791 0.742107
0.783505 0.284382 0.755825
0.897093 0.283894 0.770825
0.982834 0.298116 0.773877
0.00549325 0.425391 0.559335
0.00549325 0.426337 0.562737
0.102281 0.422141 0.545037
0.284718 0.429587 0.53814
0.435431 0.403372 0.691768
0.626368 0.365988 0.725292
0.769879 0.351629 0.740795
0.885054 0.351873 0.758328
0.972549 0.367468 0.756832
0.00549325 0.486656 0.625544
0.00549325 0.487846 0.627024
0.0286412 0.485908 0.61416
0.295613 0.48365 0.579904
0.446036 0.490654 0.590036
0.616312 0.447028 0.716564
0.760372 0.437598 0.729702
0.875395 0.439887 0.744335
0.964355 0.455009 0.739406
0.00549325 0.57351 0.725353
0.00549325 0.57438 0.725048
0.0352941 0.570901 0.706767
0.271 0.568856 0.668711
0.462852 0.569528 0.631785
0.614343 0.548531 0.713603
0.759289 0.53933 0.726177
0.871321 0.544228 0.732067
0.960128 0.556558 0.726894
0.00549325 0.675059 0.838437
0.00549325 0.672923 0.828733
0.115633 0.666346 0.801648
0.325704 0.662669 0.753613
0.480232 0.664302 0.713924
0.650309 0.656306 0.675776
0.763317 0.653376 0.730037
0.872648 0.658717 0.727687
0.961639 0.661418 0.691035
0.0763409 0.773342 0.913222
0.156619 0.767391 0.894255
0.298528 0.75967 0.856413
0.433768 0.755917 0.813321
0.544335 0.758251 0.778515
0.665904 0.75935 0.760311
0.778561 0.767086 0.751278
0.907698 0.767193 0.68336
0.96875 0.774945 0.66714
0.181506 0.869261 0.973266
0.268528 0.86276 0.953735
0.37586 0.856306 0.923964
0.484123 0.852033 0.888304
0.58912 0.851759 0.855192
0.707729 0.850492 0.83389
0.820706 0.854841 0.819806
0.893751 0.879301 0.782513
0.970199 0.894286 0.752377
0.264607 0.952209 1
0.341344 0.946853 1
0.436728 0.940658 0.981399
0.533104 0.935256 0.954162
0.632349 0.933303 0.927855
0.747341 0.931945 0.904295
0.858122 0.932876 0.889982
0.924193 0.949218 0.879149
0.981216 0.96817 0.802853
0.00549325 0.431815 0.599222
0.00549325 0.431876 0.598581
0.0999771 0.431907 0.589014
0.239399 0.435843 0.64152
0.423224 0.367147 0.851835
0.637049 0.312886 0.862577
0.785931 0.291295 0.867887
0.909026 0.269245 0.874983
0.992737 0.27248 0.887373
0.00549325 0.442725 0.603677
0.00549325 0.441321 0.601358
0.0966812 0.440558 0.590967
0.249805 0.447288 0.611811
0.399588 0.408972 0.803296
0.621195 0.350027 0.844495
0.772976 0.331624 0.853574
0.899092 0.312871 0.864485
0.985885 0.315602 0.87985
0.00549325 0.469001 0.622934
0.00549325 0.469413 0.626368
0.101579 0.464164 0.607309
0.27953 0.470848 0.594339
0.400687 0.475013 0.678874
0.604166 0.403067 0.827268
0.757702 0.389944 0.836347
0.885756 0.376654 0.849744
0.975311 0.379507 0.866911
0.00549325 0.522255 0.678676
0.00549325 0.523705 0.681376
0.019791 0.520806 0.670665
0.283757 0.518608 0.6383
0.428229 0.527443 0.641154
0.578439 0.49044 0.802686
0.747372 0.466529 0.824582
0.875059 0.459007 0.837476
0.966735 0.462119 0.855344
0.00549325 0.601678 0.772137
0.00549325 0.603174 0.774639
0.00549325 0.601785 0.763058
0.238407 0.597757 0.725017
0.440909 0.599191 0.690608
0.588495 0.596674 0.711147
0.744396 0.561166 0.822461
0.870924 0.556329 0.831083
0.963043 0.560525 0.845685
0.00549325 0.697902 0.879362
0.00549325 0.69865 0.878264
0.0305028 0.693645 0.858503
0.275349 0.688624 0.814893
0.43331 0.693538 0.783337
0.600275 0.692256 0.747417
0.748348 0.668666 0.829999
0.873808 0.665476 0.832456
0.963302 0.670771 0.838422
0.00549325 0.79939 0.968795
0.00549325 0.796536 0.961257
0.147875 0.789151 0.937194
0.335164 0.785657 0.89659
0.482765 0.786465 0.856123
0.619532 0.788754 0.826154
0.785779 0.77998 0.788586
0.877821 0.782574 0.8365
0.964446 0.788159 0.837736
0.0899672 0.888106 1
0.18407 0.881834 1
0.318502 0.87512 0.974289
0.448264 0.870237 0.941909
0.561059 0.869963 0.908309
0.673732 0.87303 0.88394
0.800641 0.873381 0.867475
0.894865 0.883253 0.860685
0.978546 0.885298 0.811124
0.196048 0.966873 1
0.284108 0.9617 1
0.390753 0.956313 1
0.497429 0.952224 0.998047
0.602823 0.950866 0.96936
0.717906 0.950881 0.945006
0.836774 0.949065 0.932586
0.935195 0.949722 0.922621
0.979187 0.969421 0.889448
0.00549325 0.473381 0.660319
0.00549325 0.473121 0.659693
0.100389 0.472114 0.648295
0.228321 0.476967 0.688197
0.380209 0.447288 0.854124
0.618784 0.3467 0.952468
0.774533 0.334096 0.950317
0.904082 0.312871 0.95697
0.996826 0.299977 0.964523
0.00549325 0.484565 0.66508
0.00549325 0.482795 0.662669
0.0978714 0.480781 0.650172
0.252735 0.485649 0.659052
0.377752 0.48484 0.766217
0.596414 0.388586 0.93402
0.758572 0.372183 0.936904
0.891844 0.352255 0.946242
0.988006 0.340978 0.956039
0.00549325 0.508598 0.682094
0.00549325 0.508492 0.685481
0.101488 0.502342 0.664958
0.271305 0.50808 0.652674
0.385779 0.51838 0.707973
0.555978 0.460731 0.899992
0.740444 0.426108 0.920089
0.877684 0.409689 0.932433
0.976013 0.401846 0.943771
0.00549325 0.556283 0.7299
0.00549325 0.557733 0.735103
0.016434 0.554147 0.724056
0.275334 0.551522 0.692668
0.416037 0.561257 0.689662
0.535729 0.545922 0.830976
0.725521 0.49836 0.908385
0.8663 0.484993 0.920119
0.966522 0.481056 0.931716
0.00549325 0.629923 0.81651
0.00549325 0.631174 0.818769
0.00549325 0.631022 0.812512
0.226963 0.625254 0.775433
0.423545 0.628199 0.745113
0.572473 0.632059 0.736996
0.717739 0.588235 0.906233
0.862898 0.575418 0.914946
0.962097 0.575082 0.924666
0.00549325 0.721202 0.916106
0.00549325 0.722637 0.917937
0.00549325 0.719066 0.903624
0.230426 0.714275 0.866957
0.400153 0.720088 0.83772
0.574365 0.719799 0.803647
0.73196 0.707668 0.826139
0.866239 0.679255 0.917861
0.962554 0.680995 0.923003
0.00549325 0.82092 1
0.00549325 0.820447 1
0.0404517 0.814878 0.982055
0.2748 0.808881 0.947097
0.438758 0.810666 0.913741
0.578164 0.815442 0.885069
0.746593 0.809689 0.851102
0.871214 0.791897 0.924269
0.965896 0.794171 0.926909
0.00549325 0.908812 1
0.0107576 0.906783 1
0.183444 0.899458 1
0.353902 0.89604 1
0.491981 0.895994 0.970565
0.625483 0.897673 0.940749
0.755032 0.899702 0.925353
0.901411 0.893156 0.895171
0.969421 0.900069 0.930678
0.124346 0.979507 1
0.222904 0.97438 1
0.344274 0.970001 1
0.464805 0.966934 1
0.581491 0.965377 1
0.69012 0.968277 0.985565
0.808972 0.967651 0.970565
0.91812 0.964157 0.956329
0.980743 0.970214 0.948913
