bundles/resolve-cinematic-luts/Lens Distortions - Finishing LUTs/LD - Metallic Rose 1.cube
TITLE "LD - Metallic Rose 1"
# Copyright (c) Lens Distortions, LLC. All Rights Reserved.
# LensDistortions.com
# ref-MR5
LUT_3D_SIZE 33
0.00909438 0.00918593 0.00962844
0.018265 0.012314 0.0140688
0.0311742 0.0152285 0.0191958
0.047425 0.0172885 0.0243229
0.066804 0.0184939 0.0293126
0.089662 0.0189059 0.0346532
0.114458 0.0188907 0.0404974
0.148608 0.0203403 0.050782
0.196918 0.0224918 0.0675364
0.245136 0.0247044 0.0869154
0.292103 0.0272068 0.106188
0.337331 0.0301366 0.124758
0.380056 0.0335851 0.142351
0.419486 0.037583 0.158679
0.452766 0.0416114 0.172473
0.486076 0.0457771 0.186007
0.520348 0.0502327 0.199573
0.554986 0.0548714 0.212924
0.590112 0.0596628 0.226047
0.626001 0.0646372 0.239048
0.663142 0.0700847 0.252049
0.700236 0.0751659 0.264576
0.73727 0.0800183 0.2766
0.774075 0.0846723 0.288212
0.809522 0.0891127 0.299336
0.843626 0.09337 0.310018
0.876371 0.0974136 0.320256
0.907668 0.101259 0.330037
0.937713 0.104921 0.339467
0.966247 0.1084 0.348409
0.993545 0.111742 0.357
1 0.11397 0.362799
1 0.115923 0.367864
0.0233005 0.0286259 0.0266728
0.0290684 0.0336919 0.0273594
0.0438697 0.0356756 0.0273899
0.0603952 0.038468 0.0301976
0.0788281 0.0404212 0.033402
0.0990311 0.0415961 0.0369726
0.12079 0.039704 0.0393835
0.152651 0.0414893 0.0489204
0.199695 0.0442664 0.0653086
0.246601 0.046952 0.0843061
0.292058 0.0499123 0.10338
0.335668 0.0533455 0.121859
0.376562 0.057496 0.139361
0.41503 0.0618906 0.155764
0.448493 0.0659495 0.169741
0.481819 0.0701152 0.183307
0.516106 0.0747997 0.196918
0.55082 0.0792859 0.210346
0.586038 0.0837568 0.223575
0.622065 0.0882429 0.236698
0.659236 0.0927596 0.249775
0.696406 0.0971237 0.262379
0.733486 0.101366 0.274495
0.770382 0.10544 0.286137
0.806058 0.109377 0.297337
0.840314 0.113207 0.308095
0.873167 0.116823 0.318379
0.904585 0.120272 0.328206
0.934676 0.123568 0.337621
0.963317 0.126726 0.346609
0.990738 0.129717 0.35523
1 0.131731 0.361013
1 0.133501 0.366094
0.0361334 0.0534524 0.0458076
0.0397955 0.057847 0.0430457
0.0474556 0.0626535 0.0426337
0.0687266 0.0619821 0.0359808
0.0829023 0.0648966 0.0404517
0.0999619 0.0681773 0.0443885
0.119356 0.0708629 0.0486
0.150256 0.0741741 0.0561227
0.197818 0.0757 0.0675364
0.24567 0.0729839 0.0803845
0.289647 0.0768292 0.0999008
0.331579 0.0812848 0.118578
0.371939 0.0854963 0.136233
0.410559 0.0897078 0.152819
0.444068 0.09337 0.166827
0.477485 0.0970474 0.180514
0.51191 0.100847 0.194232
0.546715 0.104662 0.207752
0.581979 0.108507 0.221042
0.618021 0.112383 0.234195
0.655222 0.11632 0.247333
0.692454 0.120165 0.260014
0.729686 0.123934 0.272251
0.766598 0.127535 0.283955
0.802396 0.131029 0.295186
0.836713 0.134401 0.305928
0.869703 0.137652 0.316258
0.901244 0.14078 0.326131
0.931441 0.143755 0.335576
0.96022 0.146624 0.34461
0.987747 0.149355 0.353262
1 0.151171 0.359014
1 0.152789 0.364126
0.0492409 0.0788128 0.0649271
0.0526894 0.0827649 0.0615702
0.054963 0.0880598 0.0563821
0.0654917 0.0917067 0.0575723
0.0898146 0.0905013 0.0484016
0.106523 0.0916762 0.0488289
0.122026 0.0951858 0.05449
0.148425 0.100633 0.0625925
0.192844 0.105806 0.0759594
0.237385 0.110658 0.0920119
0.284352 0.106889 0.101549
0.328008 0.106523 0.116182
0.368383 0.110369 0.134066
0.406775 0.114031 0.150576
0.440314 0.117266 0.164645
0.473777 0.1205 0.178363
0.508202 0.123842 0.192096
0.543038 0.127214 0.205646
0.578332 0.130648 0.218952
0.61445 0.134142 0.232197
0.651637 0.137652 0.24535
0.688853 0.141085 0.258015
0.726009 0.144442 0.270237
0.762997 0.147707 0.281987
0.798901 0.150881 0.293248
0.833341 0.153964 0.304036
0.866438 0.156924 0.314382
0.898131 0.159777 0.324285
0.928389 0.162524 0.333761
0.957305 0.165148 0.342824
0.984771 0.167681 0.351492
1 0.169329 0.357244
1 0.170825 0.362371
0.0639658 0.106172 0.0870222
0.067216 0.109438 0.0829328
0.0693523 0.113176 0.0778821
0.0714885 0.118105 0.0717021
0.0837873 0.120836 0.0741131
0.10692 0.12076 0.0713817
0.130709 0.119036 0.0569314
0.151492 0.124071 0.0687419
0.189441 0.131899 0.08365
0.232486 0.137194 0.0988174
0.27541 0.142031 0.114214
0.318105 0.145113 0.12813
0.363088 0.13872 0.134722
0.402731 0.138811 0.148013
0.436194 0.141802 0.162203
0.469612 0.144762 0.175967
0.504082 0.14786 0.189822
0.538903 0.150912 0.203403
0.574151 0.153964 0.216693
0.610178 0.157061 0.229908
0.647395 0.160235 0.243076
0.68455 0.163348 0.255818
0.721691 0.166384 0.268009
0.758679 0.16936 0.279744
0.794736 0.172229 0.291066
0.829358 0.175036 0.3019
0.862516 0.177752 0.312245
0.894347 0.180377 0.322179
0.924697 0.182895 0.33167
0.953765 0.185351 0.340795
0.981353 0.187686 0.349493
0.999756 0.189227 0.355306
1 0.190616 0.360433
0.0811475 0.133822 0.11043
0.0843824 0.13669 0.106996
0.086656 0.139559 0.102953
0.0885328 0.143206 0.097322
0.0908217 0.147448 0.0910658
0.104036 0.150088 0.0937819
0.122621 0.1514 0.0953841
0.160906 0.148104 0.070573
0.191867 0.155398 0.090547
0.229053 0.163134 0.105974
0.270146 0.16849 0.120699
0.311482 0.173175 0.135378
0.351812 0.177462 0.149584
0.391989 0.178347 0.160571
0.429328 0.173297 0.165789
0.465385 0.169894 0.173281
0.499611 0.172778 0.187198
0.534295 0.175631 0.200824
0.569482 0.17847 0.214206
0.605432 0.181323 0.227451
0.642618 0.184207 0.24065
0.679698 0.18706 0.253361
0.716793 0.189837 0.265614
0.753826 0.192569 0.277409
0.78996 0.195209 0.288685
0.82472 0.197772 0.29955
0.858091 0.200351 0.310018
0.890028 0.202747 0.319936
0.920516 0.205081 0.329442
0.949676 0.207324 0.338552
0.977386 0.209476 0.347265
0.99617 0.210925 0.353185
1 0.212207 0.358343
0.101045 0.161379 0.134264
0.10399 0.163943 0.131258
0.10602 0.166461 0.127749
0.107927 0.169177 0.123613
0.109636 0.172641 0.118471
0.111559 0.176699 0.112047
0.124437 0.1794 0.114488
0.15285 0.180941 0.115709
0.200229 0.179416 0.0934615
0.231525 0.186618 0.112825
0.26714 0.193881 0.127489
0.306523 0.199481 0.141848
0.346105 0.204059 0.155764
0.384482 0.20824 0.1691
0.41796 0.211658 0.180499
0.45211 0.213596 0.1906
0.490303 0.209003 0.195773
0.528649 0.203296 0.200488
0.564797 0.203632 0.211551
0.60058 0.206363 0.224842
0.637644 0.20911 0.238102
0.674662 0.21181 0.250889
0.711711 0.21442 0.263218
0.74873 0.216983 0.275013
0.784955 0.21944 0.286366
0.819837 0.221836 0.29723
0.853239 0.224155 0.307607
0.885328 0.226383 0.317632
0.915984 0.22855 0.327184
0.94522 0.23064 0.336263
0.973114 0.232639 0.344991
0.99234 0.234012 0.351034
1 0.235218 0.356207
0.12105 0.189014 0.158236
0.12369 0.191318 0.15555
0.125444 0.193576 0.152407
0.127291 0.195834 0.149142
0.128832 0.198489 0.144991
0.130526 0.201999 0.139727
0.132372 0.206027 0.133135
0.151171 0.209781 0.136446
0.201968 0.208743 0.120058
0.238804 0.210712 0.117052
0.269978 0.217578 0.134508
0.304402 0.224475 0.148531
0.341634 0.230304 0.16231
0.379187 0.234745 0.175341
0.412161 0.238376 0.186603
0.445228 0.241794 0.197696
0.479332 0.245136 0.208881
0.513954 0.248371 0.219989
0.552728 0.244816 0.225559
0.592355 0.239765 0.230289
0.633021 0.23447 0.235431
0.669871 0.23711 0.248371
0.706722 0.239628 0.260746
0.743572 0.242054 0.272572
0.779843 0.244419 0.284001
0.814817 0.246662 0.29485
0.848371 0.248859 0.305348
0.880491 0.25098 0.315297
0.911269 0.25301 0.324865
0.940597 0.254994 0.334051
0.968612 0.25687 0.342748
0.988342 0.258198 0.348913
1 0.259327 0.35407
0.140932 0.216541 0.182101
0.143343 0.218692 0.179675
0.144976 0.220798 0.176913
0.146548 0.222782 0.173922
0.148226 0.224857 0.170886
0.149538 0.227634 0.166125
0.151202 0.231205 0.160647
0.157549 0.236286 0.153948
0.187167 0.241962 0.159976
0.249012 0.235569 0.11957
0.2766 0.241886 0.139925
0.307637 0.248371 0.155703
0.340688 0.254826 0.168917
0.374945 0.260685 0.181781
0.407187 0.264652 0.192859
0.439704 0.26833 0.203784
0.473396 0.271931 0.214923
0.507698 0.275364 0.225971
0.542489 0.27863 0.236896
0.577981 0.281819 0.247715
0.617365 0.280629 0.255085
0.658335 0.276051 0.25977
0.698924 0.270924 0.263996
0.738689 0.267414 0.269947
0.77496 0.269749 0.281498
0.809903 0.271962 0.292424
0.843519 0.274098 0.302953
0.8757 0.276143 0.312963
0.906554 0.278111 0.322637
0.935988 0.279988 0.331746
0.964172 0.281865 0.340566
0.984314 0.283162 0.346914
1 0.284245 0.352071
0.160769 0.244114 0.205982
0.162997 0.246128 0.203754
0.164462 0.248066 0.201205
0.165911 0.249943 0.198505
0.167376 0.251804 0.195727
0.168872 0.253971 0.192172
0.170291 0.256992 0.187289
0.172534 0.262074 0.178653
0.193347 0.268223 0.177722
0.23801 0.269963 0.176562
0.287572 0.265904 0.139757
0.313664 0.272938 0.161807
0.344106 0.278996 0.176181
0.375479 0.285023 0.188495
0.403693 0.290806 0.199573
0.435203 0.294743 0.210208
0.468116 0.298589 0.221118
0.501869 0.302235 0.232044
0.536248 0.305699 0.242878
0.571374 0.309056 0.253681
0.607843 0.312322 0.264546
0.644465 0.315435 0.275105
0.681727 0.31722 0.284276
0.722393 0.313359 0.288792
0.762783 0.309056 0.292882
0.801648 0.304463 0.296605
0.838972 0.29987 0.300374
0.871183 0.301946 0.310521
0.902068 0.303883 0.320211
0.931609 0.305745 0.329458
0.959747 0.30753 0.338323
0.980331 0.308797 0.344717
0.996872 0.30985 0.349905
0.180545 0.271794 0.229847
0.182605 0.273671 0.227787
0.183993 0.275502 0.225452
0.185321 0.277256 0.222965
0.186648 0.278996 0.220417
0.188174 0.280934 0.217487
0.189563 0.28333 0.213458
0.191531 0.28777 0.205905
0.199939 0.295201 0.195331
0.228565 0.300511 0.20119
0.283391 0.29836 0.183505
0.32459 0.296742 0.161456
0.350027 0.303838 0.182712
0.379263 0.309545 0.195941
0.406226 0.31458 0.206317
0.433799 0.319997 0.216831
0.46392 0.32488 0.227527
0.49691 0.328847 0.238285
0.530648 0.332586 0.248997
0.565332 0.336156 0.259724
0.601373 0.339681 0.270558
0.637644 0.342992 0.281117
0.673823 0.34609 0.291279
0.710033 0.34902 0.301106
0.746197 0.351812 0.310582
0.783734 0.351492 0.31722
0.821698 0.347936 0.321187
0.857893 0.344121 0.324773
0.892287 0.340124 0.328069
0.925093 0.335912 0.331121
0.955581 0.333501 0.335744
0.976577 0.334798 0.342382
0.993133 0.335882 0.347677
0.200153 0.299382 0.253559
0.202075 0.301152 0.251637
0.203387 0.302922 0.249485
0.2047 0.304646 0.247272
0.205951 0.306294 0.244938
0.207279 0.308049 0.242161
0.20882 0.310048 0.239002
0.210468 0.31368 0.232227
0.213611 0.321187 0.218875
0.234806 0.327138 0.218723
0.267964 0.331579 0.223713
0.326589 0.326787 0.185702
0.361013 0.327535 0.182376
0.38529 0.334401 0.202335
0.410315 0.339315 0.213825
0.43682 0.344121 0.223819
0.464698 0.349432 0.234195
0.49369 0.3552 0.244938
0.526131 0.359182 0.255344
0.560128 0.363058 0.265919
0.595483 0.366781 0.276616
0.631281 0.370291 0.287098
0.66714 0.373571 0.297261
0.702892 0.376684 0.307088
0.738735 0.379599 0.316548
0.774212 0.382361 0.325673
0.808392 0.384985 0.334432
0.84126 0.387457 0.34284
0.874495 0.387198 0.348714
0.908003 0.384115 0.352239
0.939788 0.380911 0.355428
0.963775 0.37821 0.357778
0.982284 0.376043 0.359579
0.219699 0.327092 0.277287
0.22153 0.328801 0.275486
0.222751 0.330465 0.273472
0.223941 0.332082 0.271351
0.225132 0.333669 0.269184
0.226383 0.335332 0.266606
0.227771 0.337179 0.263645
0.229603 0.340185 0.258137
0.232273 0.346716 0.245945
0.241596 0.354376 0.236255
0.269093 0.359503 0.241978
0.314611 0.360174 0.240238
0.368185 0.354986 0.193729
0.396262 0.358129 0.201877
0.417319 0.364034 0.218921
0.441306 0.369253 0.231464
0.468223 0.374075 0.241443
0.496208 0.379232 0.251591
0.525063 0.384726 0.261936
0.555901 0.389685 0.272297
0.590448 0.393652 0.282795
0.625635 0.397452 0.293202
0.66096 0.400977 0.303304
0.6963 0.404288 0.313069
0.731746 0.407385 0.32253
0.76701 0.410315 0.331655
0.801099 0.413077 0.340414
0.833967 0.415702 0.348867
0.865476 0.418173 0.35697
0.895689 0.420523 0.364736
0.924605 0.422751 0.372152
0.946777 0.424414 0.377859
0.965194 0.42359 0.380468
0.239109 0.354833 0.300908
0.240848 0.356497 0.299229
0.242039 0.358144 0.297353
0.243183 0.359716 0.295384
0.244312 0.361242 0.29337
0.245502 0.36286 0.290959
0.246876 0.364675 0.288273
0.248859 0.367285 0.283726
0.251164 0.372915 0.272465
0.254383 0.380819 0.258885
0.275593 0.386648 0.259449
0.302647 0.392203 0.264927
0.356909 0.389395 0.252186
0.408011 0.383352 0.202319
0.428641 0.388144 0.218647
0.449577 0.393957 0.235279
0.473121 0.399603 0.249226
0.50013 0.404288 0.259037
0.52813 0.409308 0.26891
0.557214 0.414664 0.279011
0.587716 0.420401 0.289464
0.62089 0.424491 0.299474
0.655573 0.428336 0.309468
0.690364 0.431907 0.319173
0.725368 0.435309 0.328634
0.760311 0.438437 0.337728
0.794263 0.441382 0.346487
0.827008 0.444144 0.35494
0.858503 0.446738 0.363043
0.888655 0.449195 0.370794
0.917586 0.451514 0.378241
0.940139 0.453285 0.384054
0.957153 0.454643 0.388449
0.258579 0.382925 0.324712
0.260243 0.384543 0.323125
0.261402 0.386175 0.321386
0.262592 0.387808 0.319631
0.263691 0.389334 0.317754
0.264836 0.390921 0.315511
0.266072 0.392599 0.312886
0.267872 0.394995 0.308583
0.270359 0.399924 0.298802
0.27306 0.406836 0.286168
0.282429 0.414511 0.276967
0.309102 0.419562 0.282628
0.340658 0.424018 0.287419
0.396307 0.419486 0.263584
0.440726 0.413901 0.219272
0.461219 0.418585 0.235126
0.482506 0.424323 0.251682
0.505425 0.430426 0.266987
0.532509 0.435004 0.2766
0.560784 0.439963 0.286305
0.59057 0.445319 0.29633
0.620874 0.450874 0.306371
0.651881 0.456138 0.316228
0.685466 0.459648 0.325567
0.719753 0.463279 0.334859
0.754208 0.466651 0.343893
0.787976 0.469795 0.352605
0.820478 0.47277 0.361013
0.85185 0.475547 0.3691
0.88191 0.478172 0.376852
0.910765 0.480629 0.384344
0.933745 0.482551 0.390265
0.950744 0.484001 0.39469
0.277913 0.411093 0.34847
0.279545 0.41268 0.346975
0.280659 0.414267 0.345312
0.281743 0.415778 0.343572
0.282795 0.417288 0.341802
0.283894 0.418845 0.339681
0.285084 0.420493 0.337209
0.286763 0.422766 0.33312
0.289433 0.427131 0.324651
0.29189 0.433433 0.312749
0.295079 0.441474 0.29926
0.315847 0.447349 0.300053
0.341741 0.452659 0.305486
0.382757 0.453758 0.306538
0.428946 0.45008 0.279789
0.473075 0.444404 0.236316
0.494301 0.449058 0.251682
0.515892 0.45478 0.268055
0.538262 0.461357 0.284535
0.565591 0.465934 0.294118
0.594537 0.470863 0.303746
0.624109 0.476005 0.313359
0.654063 0.481285 0.322896
0.684276 0.486641 0.332357
0.715694 0.491142 0.341436
0.74902 0.494469 0.350134
0.782452 0.497887 0.358785
0.814694 0.501091 0.367132
0.845853 0.504067 0.375189
0.875837 0.506874 0.38294
0.904555 0.509499 0.390356
0.927871 0.511666 0.396414
0.944839 0.513207 0.400854
0.296925 0.439048 0.371878
0.298466 0.440589 0.370413
0.299535 0.44213 0.368826
0.300572 0.44361 0.367163
0.30161 0.445106 0.365469
0.302678 0.446632 0.36347
0.303853 0.44828 0.361151
0.30547 0.450523 0.35729
0.308354 0.454444 0.34992
0.310506 0.460166 0.338613
0.313222 0.467338 0.325887
0.322591 0.475105 0.317098
0.348226 0.480095 0.322637
0.373114 0.485573 0.327718
0.416403 0.484184 0.325093
0.461372 0.480629 0.29572
0.506493 0.474784 0.252583
0.527871 0.479606 0.268269
0.549691 0.485298 0.284367
0.572305 0.491753 0.300618
0.599573 0.496849 0.311543
0.628412 0.501671 0.320851
0.65771 0.506615 0.330037
0.687327 0.511666 0.339101
0.717128 0.516793 0.348058
0.747158 0.521981 0.356909
0.778454 0.525917 0.365301
0.809857 0.529046 0.373358
0.840681 0.53228 0.381323
0.870451 0.535286 0.389013
0.899001 0.538125 0.396414
0.922591 0.540398 0.402518
0.939467 0.542062 0.406928
0.315511 0.466697 0.394888
0.317006 0.468208 0.393484
0.318044 0.469734 0.391959
0.319097 0.471244 0.390402
0.320134 0.472724 0.388815
0.321172 0.47425 0.386892
0.322286 0.475853 0.384649
0.323781 0.477989 0.380896
0.326467 0.481697 0.373754
0.328878 0.486885 0.363729
0.331334 0.493538 0.351659
0.334493 0.501747 0.338323
0.354788 0.507622 0.339391
0.379522 0.51281 0.344732
0.401282 0.517891 0.349111
0.449592 0.51458 0.342763
0.494881 0.510887 0.309926
0.539971 0.505104 0.2692
0.561639 0.509957 0.284657
0.583886 0.515679 0.300572
0.607202 0.522225 0.316854
0.633707 0.527672 0.328618
0.662379 0.532357 0.33756
0.691432 0.537179 0.346365
0.720714 0.542062 0.355001
0.750225 0.54696 0.363485
0.779431 0.551888 0.371847
0.807797 0.556786 0.380041
0.836896 0.560296 0.387717
0.865766 0.56318 0.395087
0.894163 0.566217 0.402426
0.918013 0.568719 0.408621
0.934798 0.57052 0.412985
0.333761 0.494148 0.417594
0.335225 0.495659 0.416251
0.336248 0.497169 0.414771
0.33724 0.498619 0.41323
0.338216 0.500084 0.411673
0.339239 0.501595 0.409842
0.340322 0.503182 0.407675
0.341756 0.505257 0.404059
0.344274 0.508797 0.397116
0.346975 0.513603 0.38822
0.34931 0.519905 0.37673
0.352102 0.527459 0.364019
0.361547 0.535195 0.355886
0.385992 0.540108 0.361242
0.407553 0.544915 0.365835
0.432074 0.549187 0.369833
0.483543 0.544686 0.358953
0.529107 0.540871 0.322667
0.573754 0.535332 0.285679
0.595911 0.540322 0.301015
0.618967 0.546227 0.316976
0.642405 0.552712 0.332799
0.668009 0.55848 0.345342
0.696422 0.562997 0.353902
0.725124 0.56762 0.362264
0.754147 0.572305 0.370474
0.782803 0.577005 0.378531
0.810712 0.581704 0.386419
0.837736 0.586389 0.394156
0.863966 0.591028 0.401709
0.890761 0.594369 0.408789
0.91426 0.596796 0.414801
0.930831 0.598672 0.419104
0.351614 0.52134 0.439902
0.353017 0.522789 0.438575
0.354025 0.5243 0.43714
0.354986 0.525734 0.435645
0.355947 0.527184 0.434134
0.356954 0.52871 0.432364
0.358038 0.530327 0.43032
0.359472 0.532433 0.426871
0.361868 0.535866 0.420096
0.364782 0.540276 0.412146
0.366934 0.546197 0.401083
0.369512 0.553323 0.388922
0.372641 0.561669 0.37583
0.392538 0.567422 0.377386
0.413962 0.572061 0.382101
0.435203 0.576974 0.386557
0.468345 0.578973 0.389395
0.518395 0.57467 0.373648
0.564019 0.570748 0.334371
0.608118 0.565667 0.302113
0.631052 0.570809 0.317494
0.654215 0.576669 0.332967
0.677562 0.583001 0.348226
0.702174 0.58912 0.361563
0.730327 0.59353 0.369787
0.758831 0.597986 0.377752
0.786923 0.602502 0.385565
0.814313 0.607019 0.393194
0.840986 0.611597 0.400702
0.86685 0.616098 0.408011
0.891829 0.620523 0.415137
0.913252 0.624369 0.421302
0.928145 0.626993 0.425574
0.369085 0.548272 0.461845
0.370443 0.549706 0.460517
0.371405 0.551171 0.459113
0.372412 0.552666 0.457725
0.373373 0.554131 0.456275
0.37435 0.555642 0.454551
0.375402 0.557244 0.452537
0.376761 0.559274 0.449149
0.379034 0.562615 0.442512
0.381949 0.566812 0.435065
0.384222 0.572396 0.424796
0.386633 0.579171 0.413077
0.389532 0.587106 0.400534
0.399222 0.594766 0.393256
0.420493 0.599268 0.398016
0.441611 0.604013 0.402625
0.463249 0.609201 0.40705
0.504936 0.608484 0.407218
0.553658 0.604273 0.386664
0.599832 0.600198 0.343999
0.643214 0.595834 0.318639
0.666316 0.601053 0.333608
0.689494 0.606836 0.348547
0.71281 0.613062 0.363226
0.736339 0.619562 0.377386
0.764355 0.623926 0.385306
0.791867 0.628275 0.39292
0.818753 0.632624 0.400336
0.844892 0.636988 0.407568
0.870329 0.641321 0.414633
0.894957 0.645609 0.421515
0.916106 0.649348 0.427466
0.930724 0.651987 0.431632
0.38613 0.574884 0.48336
0.387457 0.576318 0.482078
0.388418 0.577798 0.480705
0.389349 0.579232 0.479271
0.39028 0.580667 0.477852
0.391241 0.582177 0.476173
0.392294 0.583795 0.47422
0.393606 0.585824 0.470924
0.395804 0.589105 0.464408
0.398627 0.59324 0.457115
0.401221 0.598535 0.447852
0.40351 0.605066 0.436515
0.406195 0.612604 0.42443
0.409277 0.621103 0.411765
0.426932 0.626352 0.413489
0.447944 0.630961 0.418173
0.469444 0.635981 0.422782
0.491417 0.641443 0.427176
0.541482 0.637797 0.423209
0.589746 0.633677 0.397818
0.637339 0.629099 0.354772
0.678508 0.625956 0.334829
0.701778 0.631266 0.349371
0.724971 0.636988 0.363745
0.748211 0.643091 0.377844
0.771405 0.64947 0.391577
0.797375 0.654185 0.400397
0.823728 0.658381 0.407645
0.849409 0.662608 0.414679
0.874403 0.666804 0.42153
0.89865 0.67097 0.428214
0.919509 0.674617 0.433982
0.934005 0.677195 0.438025
0.402777 0.601251 0.504494
0.404089 0.60267 0.503227
0.40502 0.604166 0.501884
0.405936 0.605585 0.500481
0.406867 0.60705 0.499092
0.407828 0.608591 0.497459
0.408927 0.6103 0.495644
0.410224 0.612314 0.492393
0.412345 0.615564 0.485969
0.41503 0.619562 0.478767
0.417853 0.624521 0.470375
0.42005 0.630838 0.459358
0.422583 0.638117 0.447654
0.425483 0.646281 0.435431
0.433463 0.653452 0.428687
0.454322 0.658045 0.433433
0.475731 0.662974 0.438178
0.497612 0.668284 0.442802
0.525048 0.672297 0.446723
0.578653 0.667124 0.437385
0.627451 0.662959 0.406851
0.675563 0.657877 0.364889
0.714046 0.656092 0.350652
0.737255 0.661295 0.364614
0.760388 0.666957 0.378424
0.783139 0.672953 0.391974
0.805432 0.679194 0.405158
0.829282 0.684382 0.415106
0.854459 0.688487 0.421988
0.879042 0.692576 0.428672
0.902922 0.696651 0.435172
0.923461 0.700236 0.440787
0.937758 0.702785 0.444709
0.419074 0.62742 0.525307
0.420356 0.62887 0.524056
0.421317 0.630365 0.522759
0.422248 0.63183 0.521416
0.423163 0.63331 0.520058
0.424125 0.634852 0.518456
0.425147 0.636515 0.516594
0.426429 0.63856 0.513451
0.428489 0.641779 0.507118
0.431067 0.645716 0.500008
0.43415 0.650431 0.492409
0.436286 0.65658 0.481636
0.438788 0.663752 0.470283
0.44152 0.671656 0.458457
0.444358 0.679606 0.44741
0.460792 0.685145 0.448402
0.482048 0.689967 0.453178
0.503792 0.695125 0.457923
0.525795 0.700664 0.462455
0.56434 0.701198 0.4645
0.616861 0.696239 0.449256
0.665339 0.692073 0.414694
0.71397 0.686397 0.374166
0.749599 0.686061 0.365988
0.77258 0.691264 0.3794
0.795026 0.696849 0.392691
0.816938 0.702739 0.405676
0.838392 0.708858 0.418326
0.860105 0.714641 0.42945
0.884245 0.718639 0.436011
0.907683 0.722606 0.442374
0.927825 0.72607 0.447898
0.941772 0.728542 0.451789
0.43505 0.653452 0.545815
0.436332 0.654902 0.544594
0.437247 0.656382 0.543282
0.438132 0.657832 0.541924
0.439048 0.659327 0.540581
0.439994 0.660853 0.53901
0.441016 0.662531 0.537194
0.442298 0.664591 0.534096
0.444312 0.667811 0.52784
0.446876 0.671809 0.520851
0.449882 0.676432 0.513436
0.452277 0.682353 0.503487
0.454627 0.68925 0.492348
0.457237 0.696941 0.480797
0.459937 0.704677 0.470069
0.467247 0.712169 0.46305
0.488365 0.716945 0.467857
0.510002 0.722042 0.472679
0.531929 0.727459 0.477363
0.554269 0.733288 0.481849
0.604501 0.729885 0.479973
0.655314 0.725261 0.459297
0.703441 0.721111 0.421744
0.752789 0.714748 0.3832
0.784665 0.716014 0.38085
0.806943 0.721233 0.393805
0.82858 0.726757 0.406531
0.849668 0.732525 0.418967
0.870176 0.738476 0.431052
0.890135 0.744533 0.442908
0.912657 0.748699 0.449943
0.932433 0.752117 0.455497
0.946212 0.754559 0.459388
0.450629 0.67921 0.565927
0.451881 0.680644 0.564691
0.452796 0.682139 0.563394
0.453681 0.683604 0.562066
0.454612 0.685145 0.560784
0.455589 0.686763 0.559274
0.456611 0.688457 0.557488
0.457862 0.690532 0.554421
0.459846 0.693751 0.548211
0.462272 0.697627 0.541238
0.465202 0.70222 0.533883
0.467872 0.707897 0.524742
0.470161 0.714687 0.513817
0.472679 0.722225 0.502541
0.475257 0.729793 0.492088
0.478187 0.73814 0.481361
0.494789 0.744015 0.482292
0.51632 0.749065 0.48716
0.53814 0.754391 0.491981
0.560403 0.760067 0.496635
0.58851 0.764477 0.500755
0.644388 0.758633 0.493233
0.693675 0.754299 0.468055
0.741634 0.74995 0.428153
0.79086 0.742992 0.391623
0.818631 0.745861 0.395315
0.840085 0.751019 0.407752
0.860883 0.756451 0.420066
0.881041 0.762066 0.432166
0.900633 0.767803 0.443976
0.919631 0.773587 0.455451
0.937362 0.77789 0.463432
0.950805 0.780285 0.467399
0.465873 0.704799 0.585718
0.46714 0.706264 0.584512
0.46804 0.707774 0.58323
0.46891 0.709239 0.581903
0.46981 0.71075 0.580591
0.470756 0.712352 0.579065
0.471778 0.714076 0.57731
0.47303 0.716197 0.574319
0.474968 0.719417 0.568154
0.477348 0.723308 0.561242
0.480186 0.72784 0.553918
0.483131 0.733318 0.54551
0.485435 0.740124 0.534798
0.487892 0.747555 0.523751
0.490364 0.754971 0.513527
0.493111 0.762982 0.503014
0.501106 0.770748 0.496361
0.522515 0.775662 0.501274
0.544274 0.780804 0.506142
0.566476 0.786252 0.510948
0.589349 0.792111 0.515618
0.630747 0.791913 0.517494
0.683452 0.786725 0.504509
0.731945 0.78262 0.4757
0.779263 0.778317 0.434531
0.827848 0.770703 0.399893
0.851316 0.77525 0.409751
0.871916 0.780224 0.421912
0.891814 0.785443 0.43386
0.911177 0.790875 0.445655
0.929808 0.796338 0.457237
0.945769 0.80119 0.467369
0.956817 0.804685 0.474586
0.48072 0.730083 0.605112
