bundles/resolve-cinematic-luts/Lens Distortions - Finishing LUTs/LD - Pure 1.cube
TITLE "LD - Pure 1"
# Copyright (c) Lens Distortions, LLC. All Rights Reserved.
# LensDistortions.com
# ref-PR9
LUT_3D_SIZE 5
0.0258793 0.0258793 0.0258793
0.247395 0.0318608 0.0263676
0.511254 0.0551614 0.0268864
0.772503 0.113985 0.0292363
0.99884 0.185885 0.0427405
0.0570687 0.243076 0.0352789
0.253162 0.255497 0.0673991
0.517479 0.263264 0.0258488
0.757671 0.293217 0.0328679
0.990066 0.331548 0.0458076
0.170993 0.486534 0.0933852
0.308553 0.481743 0.169696
0.501991 0.508904 0.204898
0.775891 0.506706 0.0328527
0.997024 0.535958 0.0447242
0.285359 0.728801 0.175372
0.382528 0.727718 0.224125
0.555657 0.721584 0.335073
0.752407 0.764965 0.342931
0.998993 0.761257 0.0695201
0.438087 0.963073 0.307942
0.515846 0.961135 0.355566
0.658808 0.954879 0.454994
0.824063 0.960204 0.577951
0.988113 0.995529 0.712352
0.0256504 0.0610971 0.208179
0.237949 0.0322118 0.262577
0.506035 0.070985 0.23534
0.786053 0.0593423 0.222568
0.998993 0.101991 0.207553
0.0666514 0.23125 0.268666
0.25481 0.251194 0.259678
0.481773 0.287495 0.277668
0.741451 0.30753 0.278248
0.987518 0.331945 0.272389
0.134401 0.500572 0.229145
0.298909 0.495674 0.267979
0.500938 0.507424 0.326024
0.770047 0.518425 0.274601
0.994568 0.545434 0.290089
0.291341 0.732799 0.294972
0.381918 0.734356 0.314992
0.554665 0.726406 0.401663
0.758297 0.769863 0.43241
0.998993 0.770932 0.316213
0.450553 0.964477 0.402182
0.52546 0.963027 0.435523
0.665965 0.957336 0.517784
0.831388 0.96022 0.628977
0.991974 0.998627 0.766583
0.0249485 0.17644 0.438758
0.177569 0.161273 0.459388
0.494301 0.0519722 0.531792
0.735042 0.194339 0.47364
0.988388 0.198459 0.466773
0.0227817 0.273106 0.498985
0.220676 0.282094 0.462318
0.494789 0.264424 0.51928
0.724361 0.330938 0.484581
0.982589 0.334081 0.486015
0.201068 0.466575 0.518639
0.314092 0.470726 0.500648
0.50692 0.504189 0.510277
0.718074 0.524224 0.515435
0.952941 0.582345 0.555642
0.208927 0.758923 0.439933
0.346868 0.754925 0.47126
0.543694 0.74931 0.514733
0.737911 0.751324 0.571725
0.998993 0.790814 0.565179
0.435584 0.974838 0.536873
0.546838 0.966262 0.586023
0.664912 0.970764 0.612009
0.841321 0.961227 0.719722
0.993988 0.998993 0.842329
0.0244602 0.292073 0.663203
0.21236 0.300679 0.635248
0.389242 0.263386 0.711315
0.740566 0.114229 0.788998
0.969024 0.277684 0.702632
0.0230259 0.354314 0.70045
0.22002 0.362219 0.667018
0.416037 0.357107 0.700664
0.729274 0.294667 0.768383
0.968307 0.388373 0.712978
0.0227512 0.493706 0.76202
0.174838 0.494591 0.7561
0.46273 0.51191 0.694606
0.743282 0.512383 0.764721
0.96669 0.568536 0.729778
0.332601 0.701427 0.771405
0.416052 0.704662 0.758053
0.561715 0.722499 0.748974
0.761242 0.760296 0.763714
0.95346 0.775494 0.766094
0.434073 0.988815 0.709712
0.530724 0.985763 0.733104
0.675563 0.982589 0.775067
0.852522 0.981308 0.833204
0.973831 0.982086 0.902327
0.0247959 0.403388 0.873091
0.222995 0.413581 0.84564
0.385977 0.390341 0.879652
0.606546 0.393133 0.929122
0.962768 0.192065 0.998993
0.0237125 0.448173 0.898299
0.219883 0.456519 0.876204
0.42916 0.461189 0.869886
0.625025 0.470192 0.922408
0.963882 0.335607 0.998993
0.0210727 0.550347 0.951904
0.189075 0.554055 0.941497
0.454582 0.571267 0.901518
0.648341 0.576959 0.945815
0.972702 0.539467 0.998993
0.0754101 0.725124 0.998993
0.245274 0.727504 0.998993
0.436866 0.729152 0.988693
0.719722 0.761959 0.939269
0.977493 0.777234 0.989746
0.531426 0.924041 0.985855
0.595407 0.925017 0.976761
0.716548 0.939849 0.971725
0.879271 0.96556 0.981109
0.998993 0.998993 0.998993
