bundles/resolve-cinematic-luts/Lens Distortions - Finishing LUTs/LD - Velvet B&W 1.cube
TITLE "LD - Velvet 1"
# Copyright (c) Lens Distortions, LLC. All Rights Reserved.
# LensDistortions.com
# ref-VBW1
LUT_3D_SIZE 33
0.0374151 0.0374151 0.0374151
0.0405432 0.0405432 0.0405432
0.0437629 0.0437629 0.0437629
0.0471809 0.0471809 0.0471809
0.0508888 0.0508888 0.0508888
0.0547189 0.0547189 0.0547189
0.0587625 0.0587625 0.0587625
0.063035 0.063035 0.063035
0.067628 0.067628 0.067628
0.0723125 0.0723125 0.0723125
0.0770733 0.0770733 0.0770733
0.0819409 0.0819409 0.0819409
0.0869001 0.0869001 0.0869001
0.0919661 0.0919661 0.0919661
0.0972305 0.0972305 0.0972305
0.10248 0.10248 0.10248
0.107836 0.107836 0.107836
0.113283 0.113283 0.113283
0.118837 0.118837 0.118837
0.124514 0.124514 0.124514
0.130373 0.130373 0.130373
0.136233 0.136233 0.136233
0.142199 0.142199 0.142199
0.148257 0.148257 0.148257
0.15436 0.15436 0.15436
0.16051 0.16051 0.16051
0.166735 0.166735 0.166735
0.172869 0.172869 0.172869
0.179004 0.179004 0.179004
0.185153 0.185153 0.185153
0.191318 0.191318 0.191318
0.197635 0.197635 0.197635
0.203052 0.203052 0.203052
0.0466621 0.0466621 0.0466621
0.0513313 0.0513313 0.0513313
0.0549783 0.0549783 0.0549783
0.0585336 0.0585336 0.0585336
0.0624094 0.0624094 0.0624094
0.0664073 0.0664073 0.0664073
0.070634 0.070634 0.070634
0.0751049 0.0751049 0.0751049
0.0798352 0.0798352 0.0798352
0.0848554 0.0848554 0.0848554
0.0898604 0.0898604 0.0898604
0.0949569 0.0949569 0.0949569
0.10016 0.10016 0.10016
0.10547 0.10547 0.10547
0.110948 0.110948 0.110948
0.116487 0.116487 0.116487
0.122103 0.122103 0.122103
0.12781 0.12781 0.12781
0.133608 0.133608 0.133608
0.139528 0.139528 0.139528
0.145632 0.145632 0.145632
0.151766 0.151766 0.151766
0.157885 0.157885 0.157885
0.163989 0.163989 0.163989
0.170108 0.170108 0.170108
0.176242 0.176242 0.176242
0.182483 0.182483 0.182483
0.188678 0.188678 0.188678
0.194827 0.194827 0.194827
0.201007 0.201007 0.201007
0.207218 0.207218 0.207218
0.213428 0.213428 0.213428
0.218906 0.218906 0.218906
0.0567483 0.0567483 0.0567483
0.060914 0.060914 0.060914
0.0669566 0.0669566 0.0669566
0.0713054 0.0713054 0.0713054
0.0751965 0.0751965 0.0751965
0.0793317 0.0793317 0.0793317
0.0839094 0.0839094 0.0839094
0.0885786 0.0885786 0.0885786
0.093492 0.093492 0.093492
0.0986038 0.0986038 0.0986038
0.103883 0.103883 0.103883
0.1093 0.1093 0.1093
0.114748 0.114748 0.114748
0.120302 0.120302 0.120302
0.125948 0.125948 0.125948
0.131716 0.131716 0.131716
0.137713 0.137713 0.137713
0.143694 0.143694 0.143694
0.149767 0.149767 0.149767
0.155856 0.155856 0.155856
0.161944 0.161944 0.161944
0.168139 0.168139 0.168139
0.174319 0.174319 0.174319
0.180453 0.180453 0.180453
0.186587 0.186587 0.186587
0.192752 0.192752 0.192752
0.198917 0.198917 0.198917
0.205173 0.205173 0.205173
0.211429 0.211429 0.211429
0.217639 0.217639 0.217639
0.22388 0.22388 0.22388
0.230121 0.230121 0.230121
0.235462 0.235462 0.235462
0.0678264 0.0678264 0.0678264
0.0721752 0.0721752 0.0721752
0.0771191 0.0771191 0.0771191
0.0843671 0.0843671 0.0843671
0.089189 0.089189 0.089189
0.0938277 0.0938277 0.0938277
0.0982986 0.0982986 0.0982986
0.103304 0.103304 0.103304
0.108537 0.108537 0.108537
0.113924 0.113924 0.113924
0.119356 0.119356 0.119356
0.124926 0.124926 0.124926
0.130678 0.130678 0.130678
0.136538 0.136538 0.136538
0.142458 0.142458 0.142458
0.148486 0.148486 0.148486
0.154559 0.154559 0.154559
0.160632 0.160632 0.160632
0.166857 0.166857 0.166857
0.172976 0.172976 0.172976
0.17908 0.17908 0.17908
0.185214 0.185214 0.185214
0.191348 0.191348 0.191348
0.197604 0.197604 0.197604
0.203815 0.203815 0.203815
0.21001 0.21001 0.21001
0.21619 0.21619 0.21619
0.2224 0.2224 0.2224
0.228641 0.228641 0.228641
0.235019 0.235019 0.235019
0.241337 0.241337 0.241337
0.247623 0.247623 0.247623
0.252842 0.252842 0.252842
0.0805982 0.0805982 0.0805982
0.0850538 0.0850538 0.0850538
0.0897688 0.0897688 0.0897688
0.095491 0.095491 0.095491
0.103609 0.103609 0.103609
0.109041 0.109041 0.109041
0.114565 0.114565 0.114565
0.119417 0.119417 0.119417
0.124773 0.124773 0.124773
0.13048 0.13048 0.13048
0.136339 0.136339 0.136339
0.142229 0.142229 0.142229
0.148135 0.148135 0.148135
0.154116 0.154116 0.154116
0.160143 0.160143 0.160143
0.166308 0.166308 0.166308
0.172381 0.172381 0.172381
0.17847 0.17847 0.17847
0.184573 0.184573 0.184573
0.190677 0.190677 0.190677
0.196948 0.196948 0.196948
0.203113 0.203113 0.203113
0.209277 0.209277 0.209277
0.215442 0.215442 0.215442
0.221653 0.221653 0.221653
0.227909 0.227909 0.227909
0.234272 0.234272 0.234272
0.240528 0.240528 0.240528
0.246799 0.246799 0.246799
0.253101 0.253101 0.253101
0.259449 0.259449 0.259449
0.265843 0.265843 0.265843
0.271122 0.271122 0.271122
0.0945144 0.0945144 0.0945144
0.0989853 0.0989853 0.0989853
0.103777 0.103777 0.103777
0.109071 0.109071 0.109071
0.115938 0.115938 0.115938
0.125093 0.125093 0.125093
0.130999 0.130999 0.130999
0.137652 0.137652 0.137652
0.142962 0.142962 0.142962
0.148714 0.148714 0.148714
0.15462 0.15462 0.15462
0.160616 0.160616 0.160616
0.166812 0.166812 0.166812
0.172885 0.172885 0.172885
0.178851 0.178851 0.178851
0.184848 0.184848 0.184848
0.190906 0.190906 0.190906
0.197116 0.197116 0.197116
0.203235 0.203235 0.203235
0.209369 0.209369 0.209369
0.215503 0.215503 0.215503
0.221683 0.221683 0.221683
0.227893 0.227893 0.227893
0.234257 0.234257 0.234257
0.240497 0.240497 0.240497
0.246754 0.246754 0.246754
0.25304 0.25304 0.25304
0.259358 0.259358 0.259358
0.265736 0.265736 0.265736
0.272236 0.272236 0.272236
0.27863 0.27863 0.27863
0.285039 0.285039 0.285039
0.29012 0.29012 0.29012
0.109667 0.109667 0.109667
0.114305 0.114305 0.114305
0.119203 0.119203 0.119203
0.124483 0.124483 0.124483
0.13048 0.13048 0.13048
0.138552 0.138552 0.138552
0.149004 0.149004 0.149004
0.155459 0.155459 0.155459
0.162417 0.162417 0.162417
0.168353 0.168353 0.168353
0.174151 0.174151 0.174151
0.180026 0.180026 0.180026
0.186007 0.186007 0.186007
0.192065 0.192065 0.192065
0.198154 0.198154 0.198154
0.20441 0.20441 0.20441
0.210483 0.210483 0.210483
0.216541 0.216541 0.216541
0.222644 0.222644 0.222644
0.228779 0.228779 0.228779
0.235004 0.235004 0.235004
0.241321 0.241321 0.241321
0.247547 0.247547 0.247547
0.253803 0.253803 0.253803
0.26009 0.26009 0.26009
0.266423 0.266423 0.266423
0.272831 0.272831 0.272831
0.279286 0.279286 0.279286
0.285695 0.285695 0.285695
0.292165 0.292165 0.292165
0.29865 0.29865 0.29865
0.30515 0.30515 0.30515
0.310246 0.310246 0.310246
0.126024 0.126024 0.126024
0.130816 0.130816 0.130816
0.136034 0.136034 0.136034
0.141451 0.141451 0.141451
0.147585 0.147585 0.147585
0.154269 0.154269 0.154269
0.163424 0.163424 0.163424
0.174487 0.174487 0.174487
0.181231 0.181231 0.181231
0.188281 0.188281 0.188281
0.194781 0.194781 0.194781
0.200336 0.200336 0.200336
0.20618 0.20618 0.20618
0.212146 0.212146 0.212146
0.218357 0.218357 0.218357
0.224475 0.224475 0.224475
0.230655 0.230655 0.230655
0.236866 0.236866 0.236866
0.243061 0.243061 0.243061
0.249287 0.249287 0.249287
0.255528 0.255528 0.255528
0.261769 0.261769 0.261769
0.26804 0.26804 0.26804
0.274342 0.274342 0.274342
0.28069 0.28069 0.28069
0.287221 0.287221 0.287221
0.293645 0.293645 0.293645
0.300114 0.300114 0.300114
0.306584 0.306584 0.306584
0.3131 0.3131 0.3131
0.319799 0.319799 0.319799
0.326421 0.326421 0.326421
0.331258 0.331258 0.331258
0.143908 0.143908 0.143908
0.148882 0.148882 0.148882
0.154101 0.154101 0.154101
0.159564 0.159564 0.159564
0.165789 0.165789 0.165789
0.17229 0.17229 0.17229
0.179736 0.179736 0.179736
0.189227 0.189227 0.189227
0.200946 0.200946 0.200946
0.207797 0.207797 0.207797
0.214862 0.214862 0.214862
0.222034 0.222034 0.222034
0.227512 0.227512 0.227512
0.233448 0.233448 0.233448
0.239414 0.239414 0.239414
0.245502 0.245502 0.245502
0.251667 0.251667 0.251667
0.257908 0.257908 0.257908
0.264347 0.264347 0.264347
0.270665 0.270665 0.270665
0.276997 0.276997 0.276997
0.283299 0.283299 0.283299
0.289601 0.289601 0.289601
0.296056 0.296056 0.296056
0.302525 0.302525 0.302525
0.308965 0.308965 0.308965
0.315435 0.315435 0.315435
0.321965 0.321965 0.321965
0.328557 0.328557 0.328557
0.335271 0.335271 0.335271
0.341924 0.341924 0.341924
0.348562 0.348562 0.348562
0.35317 0.35317 0.35317
0.162783 0.162783 0.162783
0.167742 0.167742 0.167742
0.173053 0.173053 0.173053
0.178454 0.178454 0.178454
0.184466 0.184466 0.184466
0.190875 0.190875 0.190875
0.197696 0.197696 0.197696
0.205982 0.205982 0.205982
0.215991 0.215991 0.215991
0.228 0.228 0.228
0.234913 0.234913 0.234913
0.242023 0.242023 0.242023
0.249409 0.249409 0.249409
0.255528 0.255528 0.255528
0.26128 0.26128 0.26128
0.267262 0.267262 0.267262
0.273381 0.273381 0.273381
0.279698 0.279698 0.279698
0.286046 0.286046 0.286046
0.292439 0.292439 0.292439
0.298863 0.298863 0.298863
0.305318 0.305318 0.305318
0.311818 0.311818 0.311818
0.318517 0.318517 0.318517
0.325002 0.325002 0.325002
0.331518 0.331518 0.331518
0.338048 0.338048 0.338048
0.34461 0.34461 0.34461
0.351354 0.351354 0.351354
0.357992 0.357992 0.357992
0.36463 0.36463 0.36463
0.371283 0.371283 0.371283
0.375647 0.375647 0.375647
0.181842 0.181842 0.181842
0.186892 0.186892 0.186892
0.19202 0.19202 0.19202
0.197375 0.197375 0.197375
0.203479 0.203479 0.203479
0.209812 0.209812 0.209812
0.216541 0.216541 0.216541
0.223682 0.223682 0.223682
0.232822 0.232822 0.232822
0.243046 0.243046 0.243046
0.255497 0.255497 0.255497
0.262501 0.262501 0.262501
0.269688 0.269688 0.269688
0.277119 0.277119 0.277119
0.283894 0.283894 0.283894
0.289631 0.289631 0.289631
0.29572 0.29572 0.29572
0.301961 0.301961 0.301961
0.308248 0.308248 0.308248
0.314626 0.314626 0.314626
0.321096 0.321096 0.321096
0.327642 0.327642 0.327642
0.334356 0.334356 0.334356
0.340948 0.340948 0.340948
0.347585 0.347585 0.347585
0.354238 0.354238 0.354238
0.360922 0.360922 0.360922
0.367575 0.367575 0.367575
0.374289 0.374289 0.374289
0.380896 0.380896 0.380896
0.387549 0.387549 0.387549
0.394217 0.394217 0.394217
0.398383 0.398383 0.398383
0.201053 0.201053 0.201053
0.205966 0.205966 0.205966
0.211139 0.211139 0.211139
0.21651 0.21651 0.21651
0.222446 0.222446 0.222446
0.228733 0.228733 0.228733
0.235416 0.235416 0.235416
0.242496 0.242496 0.242496
0.250004 0.250004 0.250004
0.260014 0.260014 0.260014
0.270604 0.270604 0.270604
0.283253 0.283253 0.283253
0.290364 0.290364 0.290364
0.297642 0.297642 0.297642
0.305165 0.305165 0.305165
0.312718 0.312718 0.312718
0.31873 0.31873 0.31873
0.324742 0.324742 0.324742
0.330968 0.330968 0.330968
0.337316 0.337316 0.337316
0.343755 0.343755 0.343755
0.350423 0.350423 0.350423
0.356985 0.356985 0.356985
0.363592 0.363592 0.363592
0.37023 0.37023 0.37023
0.376883 0.376883 0.376883
0.383688 0.383688 0.383688
0.390463 0.390463 0.390463
0.397192 0.397192 0.397192
0.403952 0.403952 0.403952
0.410712 0.410712 0.410712
0.41738 0.41738 0.41738
0.421149 0.421149 0.421149
0.220188 0.220188 0.220188
0.225223 0.225223 0.225223
0.23032 0.23032 0.23032
0.23563 0.23563 0.23563
0.241566 0.241566 0.241566
0.247959 0.247959 0.247959
0.254612 0.254612 0.254612
0.261662 0.261662 0.261662
0.269123 0.269123 0.269123
0.277363 0.277363 0.277363
0.287694 0.287694 0.287694
0.298436 0.298436 0.298436
0.311513 0.311513 0.311513
0.318883 0.318883 0.318883
0.326284 0.326284 0.326284
0.333898 0.333898 0.333898
0.34168 0.34168 0.34168
0.348287 0.348287 0.348287
0.354238 0.354238 0.354238
0.360433 0.360433 0.360433
0.366857 0.366857 0.366857
0.373342 0.373342 0.373342
0.379843 0.379843 0.379843
0.386435 0.386435 0.386435
0.393042 0.393042 0.393042
0.399725 0.399725 0.399725
0.406561 0.406561 0.406561
0.413275 0.413275 0.413275
0.42002 0.42002 0.42002
0.426795 0.426795 0.426795
0.43357 0.43357 0.43357
0.440391 0.440391 0.440391
0.443976 0.443976 0.443976
0.239551 0.239551 0.239551
0.24445 0.24445 0.24445
0.249531 0.249531 0.249531
0.255009 0.255009 0.255009
0.260945 0.260945 0.260945
0.267231 0.267231 0.267231
0.273854 0.273854 0.273854
0.280873 0.280873 0.280873
0.288319 0.288319 0.288319
0.296132 0.296132 0.296132
0.305196 0.305196 0.305196
0.315831 0.315831 0.315831
0.326863 0.326863 0.326863
0.340429 0.340429 0.340429
0.347738 0.347738 0.347738
0.355169 0.355169 0.355169
0.362799 0.362799 0.362799
0.370581 0.370581 0.370581
0.378149 0.378149 0.378149
0.384039 0.384039 0.384039
0.390311 0.390311 0.390311
0.396612 0.396612 0.396612
0.403006 0.403006 0.403006
0.409522 0.409522 0.409522
0.416129 0.416129 0.416129
0.422889 0.422889 0.422889
0.429557 0.429557 0.429557
0.436255 0.436255 0.436255
0.443 0.443 0.443
0.449775 0.449775 0.449775
0.456626 0.456626 0.456626
0.463554 0.463554 0.463554
0.466804 0.466804 0.466804
0.258854 0.258854 0.258854
0.26389 0.26389 0.26389
0.269062 0.269062 0.269062
0.274388 0.274388 0.274388
0.280324 0.280324 0.280324
0.286778 0.286778 0.286778
0.293462 0.293462 0.293462
0.300511 0.300511 0.300511
0.307927 0.307927 0.307927
0.31574 0.31574 0.31574
0.323766 0.323766 0.323766
0.3337 0.3337 0.3337
0.344411 0.344411 0.344411
0.355673 0.355673 0.355673
0.369436 0.369436 0.369436
0.376791 0.376791 0.376791
0.384253 0.384253 0.384253
0.391867 0.391867 0.391867
0.399664 0.399664 0.399664
0.407599 0.407599 0.407599
0.414267 0.414267 0.414267
0.42031 0.42031 0.42031
0.426551 0.426551 0.426551
0.432929 0.432929 0.432929
0.439475 0.439475 0.439475
0.446143 0.446143 0.446143
0.452766 0.452766 0.452766
0.459449 0.459449 0.459449
0.466163 0.466163 0.466163
0.472923 0.472923 0.472923
0.479881 0.479881 0.479881
0.486702 0.486702 0.486702
0.489754 0.489754 0.489754
0.278431 0.278431 0.278431
0.283391 0.283391 0.283391
0.288548 0.288548 0.288548
0.294102 0.294102 0.294102
0.300099 0.300099 0.300099
0.306416 0.306416 0.306416
0.313115 0.313115 0.313115
0.32018 0.32018 0.32018
0.327657 0.327657 0.327657
0.33547 0.33547 0.33547
0.343465 0.343465 0.343465
0.351736 0.351736 0.351736
0.362356 0.362356 0.362356
0.373358 0.373358 0.373358
0.384573 0.384573 0.384573
0.398718 0.398718 0.398718
0.40618 0.40618 0.40618
0.413657 0.413657 0.413657
0.421286 0.421286 0.421286
0.429068 0.429068 0.429068
0.436988 0.436988 0.436988
0.444572 0.444572 0.444572
0.450584 0.450584 0.450584
0.456764 0.456764 0.456764
0.463264 0.463264 0.463264
0.469718 0.469718 0.469718
0.476265 0.476265 0.476265
0.482887 0.482887 0.482887
0.48957 0.48957 0.48957
0.496452 0.496452 0.496452
0.503227 0.503227 0.503227
0.510033 0.510033 0.510033
0.513008 0.513008 0.513008
0.298054 0.298054 0.298054
0.303059 0.303059 0.303059
0.3084 0.3084 0.3084
0.313802 0.313802 0.313802
0.319844 0.319844 0.319844
0.326329 0.326329 0.326329
0.33315 0.33315 0.33315
0.34023 0.34023 0.34023
0.347677 0.347677 0.347677
0.355474 0.355474 0.355474
0.363439 0.363439 0.363439
0.371542 0.371542 0.371542
0.380484 0.380484 0.380484
0.391196 0.391196 0.391196
0.402319 0.402319 0.402319
0.413779 0.413779 0.413779
0.428122 0.428122 0.428122
0.435538 0.435538 0.435538
0.443046 0.443046 0.443046
0.450675 0.450675 0.450675
0.458442 0.458442 0.458442
0.466361 0.466361 0.466361
0.474388 0.474388 0.474388
0.481117 0.481117 0.481117
0.487388 0.487388 0.487388
0.493675 0.493675 0.493675
0.500099 0.500099 0.500099
0.506615 0.506615 0.506615
0.513344 0.513344 0.513344
0.520073 0.520073 0.520073
0.526802 0.526802 0.526802
0.533562 0.533562 0.533562
0.536248 0.536248 0.536248
0.317952 0.317952 0.317952
0.323003 0.323003 0.323003
0.328267 0.328267 0.328267
0.333837 0.333837 0.333837
0.339956 0.339956 0.339956
0.346349 0.346349 0.346349
0.353094 0.353094 0.353094
0.360189 0.360189 0.360189
0.367605 0.367605 0.367605
0.375372 0.375372 0.375372
0.383307 0.383307 0.383307
0.391379 0.391379 0.391379
0.399588 0.399588 0.399588
0.409339 0.409339 0.409339
0.420325 0.420325 0.420325
0.431403 0.431403 0.431403
0.442969 0.442969 0.442969
0.457588 0.457588 0.457588
0.465049 0.465049 0.465049
0.472572 0.472572 0.472572
0.480323 0.480323 0.480323
0.488121 0.488121 0.488121
0.496025 0.496025 0.496025
0.504036 0.504036 0.504036
0.511833 0.511833 0.511833
0.51812 0.51812 0.51812
0.524361 0.524361 0.524361
0.530739 0.530739 0.530739
0.537316 0.537316 0.537316
0.543969 0.543969 0.543969
0.550637 0.550637 0.550637
0.557351 0.557351 0.557351
0.55967 0.55967 0.55967
0.337881 0.337881 0.337881
0.342947 0.342947 0.342947
0.348379 0.348379 0.348379
0.353841 0.353841 0.353841
0.35993 0.35993 0.35993
0.366339 0.366339 0.366339
0.373236 0.373236 0.373236
0.380301 0.380301 0.380301
0.387732 0.387732 0.387732
0.395468 0.395468 0.395468
0.403372 0.403372 0.403372
0.411414 0.411414 0.411414
0.419577 0.419577 0.419577
0.427878 0.427878 0.427878
0.438468 0.438468 0.438468
0.449439 0.449439 0.449439
0.460792 0.460792 0.460792
0.472282 0.472282 0.472282
0.487358 0.487358 0.487358
0.49485 0.49485 0.49485
0.502388 0.502388 0.502388
0.510048 0.510048 0.510048
0.517815 0.517815 0.517815
0.525689 0.525689 0.525689
0.533684 0.533684 0.533684
0.541772 0.541772 0.541772
0.549142 0.549142 0.549142
0.555306 0.555306 0.555306
0.561791 0.561791 0.561791
0.568246 0.568246 0.568246
0.574792 0.574792 0.574792
0.581445 0.581445 0.581445
0.583307 0.583307 0.583307
0.3579 0.3579 0.3579
0.363058 0.363058 0.363058
0.368338 0.368338 0.368338
0.373846 0.373846 0.373846
0.380056 0.380056 0.380056
0.386465 0.386465 0.386465
0.393194 0.393194 0.393194
0.400275 0.400275 0.400275
0.407691 0.407691 0.407691
0.415412 0.415412 0.415412
0.423301 0.423301 0.423301
0.431327 0.431327 0.431327
0.43946 0.43946 0.43946
0.447761 0.447761 0.447761
0.456611 0.456611 0.456611
0.467628 0.467628 0.467628
0.478843 0.478843 0.478843
0.490135 0.490135 0.490135
0.501884 0.501884 0.501884
0.517098 0.517098 0.517098
0.52462 0.52462 0.52462
0.532174 0.532174 0.532174
0.539834 0.539834 0.539834
0.547601 0.547601 0.547601
0.555489 0.555489 0.555489
0.563455 0.563455 0.563455
0.571527 0.571527 0.571527
0.579675 0.579675 0.579675
0.586679 0.586679 0.586679
0.59295 0.59295 0.59295
0.599359 0.599359 0.599359
0.605875 0.605875 0.605875
0.607172 0.607172 0.607172
0.377874 0.377874 0.377874
0.382971 0.382971 0.382971
0.388418 0.388418 0.388418
0.393927 0.393927 0.393927
0.400015 0.400015 0.400015
0.406409 0.406409 0.406409
0.413306 0.413306 0.413306
0.420386 0.420386 0.420386
0.427802 0.427802 0.427802
0.435523 0.435523 0.435523
0.443397 0.443397 0.443397
0.451408 0.451408 0.451408
0.459541 0.459541 0.459541
0.467765 0.467765 0.467765
0.476112 0.476112 0.476112
0.485924 0.485924 0.485924
0.496895 0.496895 0.496895
0.508202 0.508202 0.508202
0.519753 0.519753 0.519753
0.531426 0.531426 0.531426
0.546944 0.546944 0.546944
0.554498 0.554498 0.554498
0.562097 0.562097 0.562097
0.569833 0.569833 0.569833
0.577676 0.577676 0.577676
0.58555 0.58555 0.58555
0.593515 0.593515 0.593515
0.601556 0.601556 0.601556
0.609705 0.609705 0.609705
0.61767 0.61767 0.61767
0.624384 0.624384 0.624384
0.630732 0.630732 0.630732
0.631342 0.631342 0.631342
0.397833 0.397833 0.397833
0.403021 0.403021 0.403021
0.408316 0.408316 0.408316
0.413977 0.413977 0.413977
0.420096 0.420096 0.420096
0.426505 0.426505 0.426505
0.433249 0.433249 0.433249
0.44033 0.44033 0.44033
0.447745 0.447745 0.447745
0.455467 0.455467 0.455467
0.463355 0.463355 0.463355
0.471336 0.471336 0.471336
0.479591 0.479591 0.479591
0.48777 0.48777 0.48777
0.496025 0.496025 0.496025
0.504417 0.504417 0.504417
0.51519 0.51519 0.51519
0.526436 0.526436 0.526436
0.537682 0.537682 0.537682
0.549325 0.549325 0.549325
0.561242 0.561242 0.561242
0.577081 0.577081 0.577081
0.584649 0.584649 0.584649
0.592264 0.592264 0.592264
0.599939 0.599939 0.599939
0.607691 0.607691 0.607691
0.615564 0.615564 0.615564
0.623514 0.623514 0.623514
0.63154 0.63154 0.63154
0.639658 0.639658 0.639658
0.647852 0.647852 0.647852
0.65568 0.65568 0.65568
0.655848 0.655848 0.655848
0.417746 0.417746 0.417746
0.422873 0.422873 0.422873
0.428336 0.428336 0.428336
0.43386 0.43386 0.43386
0.439963 0.439963 0.439963
0.446555 0.446555 0.446555
0.4533 0.4533 0.4533
0.460395 0.460395 0.460395
0.467811 0.467811 0.467811
0.475532 0.475532 0.475532
0.483406 0.483406 0.483406
0.491402 0.491402 0.491402
0.499504 0.499504 0.499504
0.507729 0.507729 0.507729
0.51603 0.51603 0.51603
0.524437 0.524437 0.524437
0.533532 0.533532 0.533532
0.544732 0.544732 0.544732
0.555917 0.555917 0.555917
0.567422 0.567422 0.567422
0.578988 0.578988 0.578988
0.590967 0.590967 0.590967
0.607141 0.607141 0.607141
0.61474 0.61474 0.61474
0.62237 0.62237 0.62237
0.63006 0.63006 0.63006
0.637812 0.637812 0.637812
0.64567 0.64567 0.64567
0.653605 0.653605 0.653605
0.661631 0.661631 0.661631
0.669718 0.669718 0.669718
0.678004 0.678004 0.678004
0.679561 0.679561 0.679561
0.437659 0.437659 0.437659
0.442832 0.442832 0.442832
0.448142 0.448142 0.448142
0.453834 0.453834 0.453834
0.459968 0.459968 0.459968
0.466392 0.466392 0.466392
0.473167 0.473167 0.473167
0.480262 0.480262 0.480262
0.487724 0.487724 0.487724
0.495491 0.495491 0.495491
0.503395 0.503395 0.503395
0.511452 0.511452 0.511452
0.51957 0.51957 0.51957
0.527764 0.527764 0.527764
0.536049 0.536049 0.536049
0.544472 0.544472 0.544472
0.552941 0.552941 0.552941
0.562921 0.562921 0.562921
0.574228 0.574228 0.574228
0.585672 0.585672 0.585672
0.597101 0.597101 0.597101
0.608911 0.608911 0.608911
0.620798 0.620798 0.620798
0.637308 0.637308 0.637308
0.644953 0.644953 0.644953
0.652674 0.652674 0.652674
0.660426 0.660426 0.660426
0.668193 0.668193 0.668193
0.676036 0.676036 0.676036
0.68397 0.68397 0.68397
0.691966 0.691966 0.691966
0.700053 0.700053 0.700053
0.702174 0.702174 0.702174
0.45742 0.45742 0.45742
0.462623 0.462623 0.462623
0.468071 0.468071 0.468071
0.473594 0.473594 0.473594
0.479744 0.479744 0.479744
0.486351 0.486351 0.486351
0.493126 0.493126 0.493126
0.500237 0.500237 0.500237
0.507668 0.507668 0.507668
0.515419 0.515419 0.515419
0.523308 0.523308 0.523308
0.531304 0.531304 0.531304
0.539406 0.539406 0.539406
0.547616 0.547616 0.547616
0.555932 0.555932 0.555932
0.564309 0.564309 0.564309
0.572778 0.572778 0.572778
0.581506 0.581506 0.581506
0.592569 0.592569 0.592569
0.6038 0.6038 0.6038
0.615335 0.615335 0.615335
0.627024 0.627024 0.627024
0.638743 0.638743 0.638743
0.650843 0.650843 0.650843
0.66772 0.66772 0.66772
0.675349 0.675349 0.675349
0.683009 0.683009 0.683009
0.690715 0.690715 0.690715
0.698482 0.698482 0.698482
0.706325 0.706325 0.706325
0.714229 0.714229 0.714229
0.72221 0.72221 0.72221
0.72488 0.72488 0.72488
0.477241 0.477241 0.477241
0.482414 0.482414 0.482414
0.487755 0.487755 0.487755
0.493477 0.493477 0.493477
0.499626 0.499626 0.499626
0.506081 0.506081 0.506081
0.512871 0.512871 0.512871
0.520073 0.520073 0.520073
0.527611 0.527611 0.527611
0.535363 0.535363 0.535363
0.543267 0.543267 0.543267
0.551278 0.551278 0.551278
0.559396 0.559396 0.559396
0.567605 0.567605 0.567605
0.575921 0.575921 0.575921
0.584314 0.584314 0.584314
0.592782 0.592782 0.592782
0.601297 0.601297 0.601297
0.61091 0.61091 0.61091
0.622141 0.622141 0.622141
0.633646 0.633646 0.633646
0.64509 0.64509 0.64509
0.656855 0.656855 0.656855
0.668696 0.668696 0.668696
0.680827 0.680827 0.680827
0.698024 0.698024 0.698024
0.705699 0.705699 0.705699
0.713375 0.713375 0.713375
0.721065 0.721065 0.721065
0.728847 0.728847 0.728847
0.736675 0.736675 0.736675
0.74461 0.74461 0.74461
0.747616 0.747616 0.747616
0.496834 0.496834 0.496834
0.502174 0.502174 0.502174
0.50753 0.50753 0.50753
0.5131 0.5131 0.5131
0.519432 0.519432 0.519432
0.525917 0.525917 0.525917
0.532723 0.532723 0.532723
0.539849 0.539849 0.539849
0.547326 0.547326 0.547326
0.555093 0.555093 0.555093
0.563012 0.563012 0.563012
0.571023 0.571023 0.571023
0.579156 0.579156 0.579156
0.587381 0.587381 0.587381
0.595697 0.595697 0.595697
0.604089 0.604089 0.604089
0.612558 0.612558 0.612558
0.621088 0.621088 0.621088
0.629679 0.629679 0.629679
0.640482 0.640482 0.640482
0.651972 0.651972 0.651972
0.663386 0.663386 0.663386
0.675074 0.675074 0.675074
0.686763 0.686763 0.686763
0.698756 0.698756 0.698756
0.711101 0.711101 0.711101
0.72842 0.72842 0.72842
0.736095 0.736095 0.736095
0.743908 0.743908 0.743908
0.751659 0.751659 0.751659
0.75938 0.75938 0.75938
0.767117 0.767117 0.767117
0.770214 0.770214 0.770214
