bundles/resolve-cinematic-luts/Lens Distortions - Finishing LUTs/LD - Paradigm Teal 1.cube
TITLE "LD - Paradigm Teal 1"
# Copyright (c) Lens Distortions, LLC. All Rights Reserved.
# LensDistortions.com
# ref-PT9
LUT_3D_SIZE 9
0.0099794 0.0165866 0.0199741
0.0707866 0.0191501 0.0226139
0.182574 0.0402533 0.0344091
0.333791 0.0932631 0.0684672
0.458579 0.139605 0.103197
0.577295 0.179248 0.134066
0.694804 0.213977 0.161242
0.809689 0.244144 0.184909
0.911604 0.270207 0.205295
0.0621958 0.0937362 0.0896315
0.0949874 0.103151 0.0688029
0.183932 0.122026 0.0330968
0.330953 0.162097 0.0592508
0.45481 0.198688 0.095079
0.573205 0.232166 0.127825
0.690074 0.262715 0.156085
0.804349 0.289967 0.180407
0.905943 0.313817 0.201175
0.153826 0.203159 0.193469
0.177462 0.205081 0.168765
0.211551 0.225986 0.144076
0.338903 0.2477 0.0408789
0.453681 0.276356 0.0593271
0.567605 0.305287 0.087068
0.682094 0.332021 0.122621
0.794781 0.35639 0.151247
0.89575 0.378073 0.174716
0.243946 0.312779 0.297795
0.258793 0.311513 0.286595
0.292439 0.321523 0.233951
0.358663 0.356832 0.127184
0.480476 0.358801 0.0412299
0.574731 0.391577 0.0567025
0.682963 0.415152 0.0792859
0.790585 0.438453 0.102129
0.888228 0.459693 0.124453
0.330648 0.421469 0.400732
0.343908 0.42063 0.391348
0.37705 0.425177 0.330938
0.414832 0.44947 0.300542
0.490166 0.482689 0.166857
0.624216 0.469902 0.0467994
0.707912 0.502251 0.048249
0.801541 0.529473 0.066743
0.894545 0.548028 0.0864881
0.413077 0.52871 0.501442
0.425345 0.528069 0.492897
0.451087 0.529168 0.437827
0.496559 0.547158 0.383352
0.534844 0.578241 0.372747
0.618021 0.609857 0.210407
0.765972 0.589471 0.0898451
0.8533 0.607919 0.0485847
0.924514 0.6365 0.051957
0.490105 0.633402 0.598718
0.501884 0.632837 0.590478
0.527626 0.632151 0.549798
0.575982 0.646052 0.46482
0.610315 0.670863 0.442786
0.658091 0.706722 0.422049
0.746166 0.738201 0.251698
0.889555 0.717281 0.17023
0.98587 0.714977 0.0574044
0.560067 0.733227 0.690288
0.571694 0.732662 0.682002
0.59646 0.730388 0.653529
0.649073 0.741787 0.53875
0.685542 0.764736 0.513008
0.722301 0.794903 0.501045
0.78471 0.830854 0.445258
0.867155 0.859541 0.288136
0.992233 0.842084 0.229755
0.622995 0.824765 0.775525
0.634699 0.82417 0.767147
0.657832 0.822019 0.742199
0.71606 0.828412 0.610605
0.755642 0.849485 0.577707
0.790616 0.875319 0.558724
0.831327 0.90866 0.555413
0.899229 0.938598 0.459098
0.970962 0.960769 0.316762
0.00549325 0.0564431 0.0835737
0.0513771 0.0557107 0.117357
0.186557 0.0413977 0.131746
0.337362 0.0872511 0.116823
0.462867 0.117128 0.12842
0.582101 0.14963 0.145174
0.699748 0.187594 0.170825
0.814603 0.219898 0.193484
0.916335 0.247364 0.213169
0.00549325 0.116304 0.146731
0.067628 0.117693 0.12903
0.194766 0.115404 0.110491
0.337774 0.149508 0.131456
0.46009 0.185367 0.156863
0.577844 0.218982 0.18146
0.69456 0.249775 0.204318
0.808621 0.277211 0.224872
0.90988 0.301213 0.242924
0.133196 0.212909 0.213794
0.143664 0.193805 0.190295
0.215976 0.224338 0.184817
0.343252 0.245762 0.132082
0.459159 0.270436 0.137255
0.572183 0.299229 0.166293
0.686 0.32636 0.191592
0.798199 0.351019 0.213672
0.898634 0.372946 0.232776
0.228428 0.31841 0.311467
0.233722 0.301885 0.291814
0.277729 0.307469 0.265568
0.359319 0.356939 0.193561
0.475639 0.365637 0.144106
0.578302 0.389868 0.145846
0.687663 0.411399 0.1552
0.79585 0.433265 0.170779
0.893339 0.45362 0.194263
0.316335 0.424155 0.410117
0.321355 0.411536 0.395026
0.349416 0.408713 0.37705
0.409781 0.4392 0.319646
0.490501 0.482673 0.226764
0.619577 0.476051 0.150576
0.703258 0.508644 0.152438
0.804532 0.528588 0.159579
0.898039 0.545998 0.169879
0.399603 0.530678 0.509514
0.404334 0.51902 0.49575
0.431144 0.515999 0.478416
0.488792 0.534279 0.399374
0.531411 0.570275 0.39089
0.618418 0.609903 0.263767
0.765957 0.591119 0.173907
0.848981 0.613672 0.150973
0.919997 0.642725 0.157382
0.477317 0.635431 0.606577
0.481743 0.623743 0.593027
0.507774 0.620615 0.57583
0.565118 0.631724 0.478569
0.605371 0.660487 0.458045
0.653239 0.700664 0.450874
0.746487 0.738186 0.300084
0.888838 0.718776 0.233188
0.981582 0.720729 0.160433
0.547509 0.735409 0.698299
0.551858 0.723339 0.684535
0.577691 0.719997 0.666926
0.636439 0.724727 0.557504
0.678477 0.75227 0.527581
0.717617 0.785321 0.516258
0.780575 0.826078 0.475761
0.867338 0.859388 0.33315
0.99266 0.842268 0.283436
0.610285 0.826795 0.783413
0.614694 0.815076 0.769589
0.640986 0.81178 0.751522
0.705028 0.814359 0.634745
0.746914 0.836439 0.591257
0.785672 0.86537 0.573053
0.827939 0.901106 0.571191
0.896529 0.93579 0.49192
0.971038 0.960357 0.359686
0.00549325 0.122271 0.170672
0.0375219 0.125826 0.170718
0.180987 0.0939956 0.227924
0.341985 0.0845045 0.240146
0.464759 0.140505 0.231861
0.584253 0.167956 0.218555
0.702968 0.189731 0.227115
0.818799 0.209903 0.235554
0.921401 0.227878 0.243458
0.00549325 0.152377 0.198077
0.0371557 0.154803 0.190646
0.177096 0.147921 0.223423
0.341787 0.153323 0.234745
0.466239 0.181598 0.213901
0.585901 0.200031 0.217319
0.704219 0.220325 0.225925
0.818631 0.243824 0.239155
0.919097 0.269093 0.255985
0.0386206 0.236866 0.276738
0.0965133 0.235889 0.265049
0.198901 0.236637 0.243137
0.352255 0.242069 0.216983
0.465492 0.265232 0.231403
0.578439 0.291402 0.2495
0.692027 0.317342 0.268208
0.803845 0.341451 0.285664
0.903609 0.363012 0.301335
0.202365 0.332448 0.340291
0.216724 0.321004 0.323278
0.247868 0.310262 0.305547
0.360189 0.357107 0.27306
0.479866 0.36376 0.247547
0.588495 0.381231 0.229999
0.695705 0.403998 0.240574
0.80238 0.426566 0.260807
0.898878 0.446876 0.278264
0.296025 0.436652 0.433463
0.302739 0.423026 0.417136
0.3149 0.396368 0.385077
0.396338 0.418418 0.345388
0.491035 0.482521 0.301839
0.612879 0.483345 0.257511
0.704814 0.509331 0.252338
0.811292 0.524025 0.247883
0.905547 0.539742 0.249928
0.382605 0.541085 0.530037
0.386816 0.52575 0.512352
0.398184 0.503395 0.484779
0.467582 0.508904 0.422644
0.523262 0.554467 0.415305
0.618723 0.609613 0.333639
0.761288 0.596002 0.269673
0.840787 0.622309 0.262181
0.915251 0.648844 0.265583
0.461357 0.643427 0.624201
0.462898 0.627329 0.606165
0.475807 0.607569 0.581445
0.539025 0.608499 0.517037
0.593805 0.641413 0.48072
0.647013 0.688655 0.48188
0.746624 0.737758 0.365743
0.887755 0.720348 0.309651
0.97351 0.729305 0.271397
0.530221 0.741543 0.714046
0.532586 0.726329 0.697063
0.546059 0.706432 0.672404
0.60325 0.708415 0.612177
0.664042 0.72961 0.547738
0.709712 0.769223 0.53875
0.772961 0.817288 0.521141
0.867262 0.858824 0.395834
0.993103 0.8421 0.353536
0.591577 0.830961 0.797269
0.595209 0.818021 0.782132
0.60911 0.798352 0.757107
0.669123 0.796902 0.706844
0.728435 0.813504 0.610559
0.775402 0.847852 0.595117
0.821317 0.887526 0.594537
0.890684 0.929137 0.538643
0.970962 0.959762 0.420752
0.00549325 0.19089 0.257755
0.0319524 0.191852 0.256321
0.129671 0.197314 0.280797
0.344076 0.12491 0.343511
0.470634 0.128588 0.35462
0.589487 0.164004 0.348486
0.704555 0.212314 0.342412
0.81828 0.244266 0.333913
0.922255 0.252857 0.324514
0.00549325 0.206912 0.269673
0.0321355 0.207431 0.263752
0.149615 0.215045 0.260365
0.342947 0.175631 0.340246
0.469673 0.184573 0.351217
0.586984 0.219074 0.342947
0.70251 0.253986 0.331914
0.820356 0.263752 0.319203
0.922194 0.278004 0.324269
0.00549325 0.265736 0.332799
0.00549325 0.267384 0.327245
0.150607 0.270878 0.307118
0.34667 0.255055 0.342321
0.469383 0.268406 0.341894
0.589929 0.283787 0.314809
0.709316 0.293263 0.307958
0.822934 0.307912 0.313649
0.922728 0.323766 0.321599
0.107759 0.358038 0.409339
0.148272 0.356939 0.399893
0.227481 0.355245 0.378439
0.364004 0.358907 0.356832
0.489937 0.362768 0.318807
0.594385 0.380468 0.330709
0.700923 0.402396 0.34432
0.807568 0.423438 0.358114
0.903838 0.442893 0.371435
0.25835 0.455375 0.475395
0.274907 0.44802 0.462425
0.305806 0.429099 0.431556
0.38822 0.430671 0.423026
0.492042 0.482963 0.389517
0.609491 0.487892 0.366308
0.722896 0.496147 0.351293
0.825833 0.512612 0.342657
0.916243 0.531106 0.344518
0.357061 0.555703 0.558755
0.364141 0.546624 0.546792
0.381476 0.524239 0.518227
0.439872 0.509468 0.494163
0.521035 0.54313 0.453696
0.619547 0.609552 0.417624
0.757778 0.599893 0.378531
0.838987 0.625528 0.374289
0.926863 0.641001 0.361013
0.435462 0.658961 0.653468
0.4421 0.64744 0.639445
0.456153 0.622034 0.608652
0.495735 0.590677 0.568048
0.571298 0.609674 0.504936
0.638605 0.671229 0.517647
0.74728 0.737362 0.446677
0.891737 0.718807 0.398352
0.964385 0.738705 0.381003
0.506889 0.757641 0.744045
0.512367 0.744442 0.728603
0.525322 0.716579 0.695445
0.562509 0.684581 0.653666
0.633219 0.691432 0.571893
0.694408 0.742596 0.565423
0.761776 0.802213 0.573663
0.867674 0.858274 0.474372
0.992493 0.843137 0.435752
0.570092 0.846342 0.826551
0.575143 0.832639 0.810391
0.585824 0.805142 0.777234
0.625467 0.775692 0.736278
0.700374 0.78085 0.649516
0.755276 0.818433 0.621256
0.809262 0.865446 0.623194
0.881605 0.91809 0.599298
0.971145 0.959075 0.497856
0.00549325 0.260533 0.347601
0.0313878 0.260471 0.345556
0.12015 0.265751 0.344869
0.327047 0.208225 0.452598
0.473442 0.172915 0.462943
0.593332 0.167544 0.479835
0.712886 0.189014 0.474601
0.826551 0.221195 0.469978
0.924758 0.259586 0.466194
0.00549325 0.270268 0.353048
0.0317998 0.270115 0.34786
0.132464 0.274754 0.34522
0.318761 0.244785 0.443778
0.470985 0.217258 0.45977
0.59202 0.217472 0.476967
0.711635 0.234714 0.472557
0.823255 0.269032 0.466697
0.921431 0.299992 0.460716
0.00549325 0.310094 0.390188
0.00549325 0.311833 0.389456
0.136538 0.312566 0.374228
0.307057 0.317174 0.407706
0.468452 0.286992 0.456214
0.589014 0.293065 0.469703
0.705837 0.313146 0.462562
0.816953 0.339879 0.449638
0.916899 0.36022 0.438163
0.00549325 0.387167 0.481453
0.00549325 0.388357 0.477913
0.134813 0.388891 0.454673
0.333806 0.391196 0.415625
0.47631 0.378546 0.462562
0.594064 0.386572 0.463966
0.716213 0.396201 0.429343
0.836683 0.395697 0.406256
0.934585 0.405966 0.409247
0.15378 0.482765 0.554223
0.187381 0.481956 0.545968
0.259251 0.479149 0.524697
0.377401 0.480629 0.495079
0.495735 0.485466 0.481712
0.627207 0.485817 0.425589
0.73225 0.496925 0.434485
0.831907 0.513573 0.444419
0.921416 0.53106 0.454826
0.299886 0.581201 0.620737
0.317388 0.576288 0.61001
0.355673 0.563745 0.583932
0.433158 0.551156 0.549554
0.522652 0.55407 0.543694
0.620859 0.610346 0.516045
0.733394 0.619242 0.488701
0.851484 0.619257 0.475822
0.949859 0.623133 0.467887
0.404166 0.678721 0.696345
0.415671 0.670344 0.682979
0.438254 0.653193 0.656321
0.484077 0.624155 0.613336
0.56199 0.629953 0.612802
0.647135 0.668788 0.572396
0.748501 0.737621 0.542138
0.886458 0.724529 0.507195
0.962341 0.741817 0.502464
0.476875 0.775616 0.780713
0.483696 0.766812 0.769009
0.50248 0.74725 0.742596
0.544625 0.710384 0.692424
0.609918 0.704311 0.679362
0.692073 0.729702 0.614694
0.76347 0.795544 0.632181
0.868589 0.858106 0.56849
0.996445 0.841779 0.533043
0.536568 0.864378 0.862028
0.543984 0.854429 0.849485
0.562524 0.8336 0.822385
0.60383 0.795056 0.770474
0.656474 0.775845 0.743618
0.736812 0.79176 0.6598
0.804196 0.848569 0.665599
0.874342 0.908507 0.677043
0.971832 0.958633 0.591272
0.00549325 0.32137 0.42797
0.033463 0.320943 0.425681
0.111894 0.323751 0.424063
0.261402 0.32015 0.507561
0.462547 0.249897 0.5626
0.596277 0.214603 0.577203
0.7149 0.203235 0.597848
0.829923 0.222812 0.595407
0.931762 0.237064 0.590707
0.00549325 0.328634 0.431266
0.0342412 0.327993 0.42594
0.125734 0.330571 0.42237
0.265827 0.342077 0.467033
0.45742 0.280888 0.555962
0.593606 0.253986 0.574075
0.713268 0.246006 0.596658
0.827924 0.264958 0.592996
0.9299 0.277333 0.588922
0.00549325 0.358297 0.453819
0.00549325 0.358724 0.454475
0.128313 0.358373 0.441581
0.290196 0.370092 0.440665
0.449943 0.333974 0.549126
0.588556 0.3178 0.568139
0.708354 0.317922 0.588006
0.822858 0.332677 0.584787
0.923095 0.349294 0.580148
0.00549325 0.419928 0.527031
0.00549325 0.421408 0.528756
0.0858167 0.423087 0.511299
0.308904 0.425711 0.479103
0.44477 0.420172 0.53904
0.591211 0.401465 0.569375
0.709072 0.406806 0.581857
0.821805 0.420172 0.575906
0.919844 0.439338 0.55877
0.00549325 0.50988 0.638025
0.00549325 0.510735 0.633921
0.12343 0.510002 0.609354
0.315755 0.512459 0.566003
0.480095 0.510491 0.529961
0.603418 0.502358 0.580301
0.720699 0.508568 0.576471
0.847257 0.508888 0.531319
0.955535 0.504982 0.501884
0.201007 0.607645 0.701488
0.229648 0.606928 0.693477
0.294087 0.603632 0.671641
0.405188 0.602609 0.636301
0.514717 0.605127 0.6159
0.624018 0.612757 0.605646
0.755032 0.616388 0.544533
0.862181 0.621622 0.537758
0.952178 0.630518 0.54374
0.335775 0.70695 0.769863
0.353887 0.703456 0.75993
0.394888 0.694026 0.735653
0.471885 0.678737 0.692256
0.553399 0.676631 0.675547
0.653529 0.679347 0.664164
0.750042 0.738598 0.638437
0.854704 0.74995 0.605325
0.952712 0.754269 0.593591
0.429419 0.801266 0.840314
0.442969 0.794919 0.828885
0.474845 0.780453 0.802136
0.535622 0.754742 0.753201
0.597757 0.743969 0.732891
0.683558 0.751583 0.730571
0.773968 0.793744 0.69131
0.869902 0.858625 0.66276
0.992889 0.847105 0.625345
0.507729 0.883711 0.904082
0.517968 0.876005 0.89218
0.541405 0.859922 0.866773
0.588785 0.834638 0.826688
0.640513 0.809201 0.791257
0.722866 0.818479 0.791745
0.812268 0.846311 0.727962
0.880796 0.90721 0.744228
0.972793 0.958785 0.685283
0.0056611 0.373739 0.498939
0.0369116 0.373129 0.496544
0.108202 0.374746 0.494377
0.242023 0.383688 0.531197
0.439002 0.308385 0.664607
0.58819 0.281468 0.670222
0.717723 0.249668 0.685649
0.832074 0.23978 0.705486
0.932372 0.249805 0.709804
0.00549325 0.379797 0.501274
0.0378882 0.378897 0.495888
0.122911 0.380346 0.491569
0.253697 0.393103 0.513039
0.424002 0.343252 0.651606
0.584146 0.311086 0.663706
0.714717 0.285924 0.682399
0.829816 0.278157 0.704097
0.930007 0.289647 0.707088
0.00549325 0.40322 0.519326
0.00549325 0.403128 0.516884
0.124636 0.402304 0.505013
0.273823 0.413718 0.50193
0.398245 0.398917 0.630671
0.576867 0.361868 0.653727
0.707988 0.34609 0.674998
0.824002 0.341299 0.698833
0.924208 0.355413 0.697597
0.00549325 0.45507 0.575204
0.00549325 0.456413 0.577096
0.0583658 0.458228 0.563363
0.291493 0.460212 0.537484
0.427253 0.469093 0.543847
0.57528 0.434638 0.652934
0.707073 0.424903 0.672984
0.822156 0.426215 0.691875
0.921736 0.438407 0.688975
0.00549325 0.534936 0.676463
0.00549325 0.536294 0.67834
0.0797589 0.536233 0.657145
0.268956 0.542321 0.624537
0.449516 0.542336 0.586252
0.582864 0.527947 0.66157
0.715785 0.519814 0.679957
0.828336 0.525078 0.688609
0.92636 0.535775 0.681605
0.00549325 0.633036 0.79382
0.0246281 0.632853 0.78584
0.142748 0.631876 0.764263
0.318425 0.633036 0.719158
0.464591 0.635859 0.676646
0.630304 0.627619 0.636927
0.730739 0.628489 0.694438
0.850492 0.631449 0.672236
0.970642 0.624018 0.616464
0.246113 0.731746 0.846342
0.271382 0.730907 0.838666
0.330098 0.727489 0.817502
0.4365 0.724544 0.77995
0.534676 0.727443 0.752239
0.650828 0.729 0.734462
0.753079 0.740597 0.726848
0.862272 0.751049 0.687648
0.965469 0.755291 0.64773
0.364065 0.827375 0.908248
0.382483 0.824948 0.899794
0.426078 0.817716 0.877836
0.508614 0.805905 0.8374
0.588586 0.799924 0.807401
0.67628 0.799084 0.796567
0.786511 0.801755 0.779004
0.871443 0.859556 0.756161
0.965301 0.867811 0.723812
0.447105 0.909056 0.96643
0.461982 0.90454 0.956985
0.497765 0.89366 0.933852
0.569543 0.875151 0.89015
0.64033 0.85893 0.85362
0.711208 0.857633 0.847028
0.812268 0.864652 0.836973
0.889845 0.906188 0.805249
0.973983 0.959518 0.777447
0.00956741 0.420676 0.56434
0.0399939 0.42002 0.561868
0.106386 0.420966 0.559411
0.232898 0.431678 0.57615
0.370474 0.396063 0.742489
0.574273 0.334112 0.764858
0.711406 0.307897 0.777081
0.834546 0.280842 0.791791
0.934508 0.272435 0.809796
0.00549325 0.426078 0.566171
0.0411688 0.42501 0.560693
0.121569 0.425788 0.555856
0.248768 0.43859 0.560113
0.371923 0.426978 0.683497
0.568811 0.359014 0.756283
0.707286 0.337041 0.771038
0.831266 0.314763 0.788281
0.931731 0.307881 0.807874
0.00549325 0.44567 0.581659
0.00549325 0.445228 0.577218
0.122835 0.444053 0.565652
0.261433 0.454093 0.563684
0.377401 0.465263 0.612711
0.558297 0.40267 0.744793
0.698878 0.387243 0.759899
0.823636 0.372152 0.779828
0.925368 0.367605 0.801526
0.00549325 0.490883 0.624598
0.00549325 0.492088 0.626291
0.0584268 0.492226 0.615564
0.280247 0.494408 0.592737
0.416159 0.504936 0.586542
0.540627 0.4813 0.727779
0.696162 0.456306 0.755138
0.820188 0.447944 0.775235
0.922103 0.445579 0.798505
0.00549325 0.562356 0.717388
0.00549325 0.563592 0.719417
0.0357977 0.564416 0.705379
0.238407 0.571389 0.67509
0.430381 0.571176 0.641093
0.564813 0.57438 0.651377
0.704082 0.542443 0.761715
0.825376 0.538964 0.77911
0.925261 0.541222 0.79501
0.00549325 0.654704 0.83743
0.00549325 0.656001 0.839002
0.0653697 0.655177 0.816938
0.272587 0.658244 0.774655
0.417853 0.664836 0.740032
0.586709 0.661723 0.699489
0.716899 0.645899 0.778546
0.838071 0.642954 0.791043
0.935851 0.647959 0.795041
0.0690929 0.755413 0.928389
0.111086 0.755428 0.921324
0.198245 0.754086 0.901778
0.342763 0.753994 0.863294
0.473747 0.756466 0.824399
0.603189 0.759808 0.794247
0.750439 0.756954 0.767315
0.854429 0.756359 0.805402
0.977691 0.74992 0.750042
0.28043 0.849134 0.975265
0.303853 0.848402 0.968307
0.35938 0.84509 0.94876
0.463416 0.841154 0.912566
0.559915 0.842664 0.882689
0.664195 0.845823 0.864866
0.785992 0.847425 0.847532
0.874372 0.861357 0.840299
0.956634 0.87509 0.822904
0.380346 0.930159 1
0.398657 0.928191 1
0.444175 0.923476 1
0.534356 0.916197 0.96434
0.617136 0.910292 0.931945
0.705547 0.908431 0.915022
0.808026 0.906615 0.900282
0.906676 0.91165 0.88101
0.97499 0.96051 0.866316
0.0135348 0.462409 0.624125
0.04271 0.461738 0.621592
0.10544 0.462287 0.618936
0.232074 0.473106 0.621103
0.346822 0.474968 0.705348
0.554635 0.376577 0.858381
0.702251 0.355657 0.859617
0.830457 0.329061 0.874357
0.936614 0.308309 0.887144
0.00549325 0.467399 0.62562
0.044007 0.466224 0.620035
0.120943 0.466575 0.614816
0.24213 0.47747 0.617395
0.353079 0.484642 0.684047
0.540749 0.409049 0.843763
0.696727 0.381613 0.851804
0.826398 0.357687 0.869001
0.933165 0.340536 0.883589
0.00549325 0.484459 0.638086
0.00549325 0.483894 0.634012
0.122042 0.482383 0.622095
0.25359 0.491218 0.620279
0.367315 0.504326 0.651408
0.510842 0.462638 0.823301
0.685145 0.427161 0.838956
0.81767 0.407553 0.858091
0.925185 0.395926 0.874846
0.00549325 0.525277 0.67274
0.00549325 0.526085 0.675547
0.0631876 0.524865 0.665843
0.272801 0.527031 0.644739
0.395926 0.539605 0.642908
0.505669 0.539467 0.740001
0.677546 0.491234 0.832502
0.813031 0.475639 0.851728
0.920073 0.469581 0.868818
0.00549325 0.590173 0.758831
0.00549325 0.591287 0.760739
0.00549325 0.592508 0.750774
0.228534 0.597971 0.721401
0.413718 0.599542 0.692744
0.555764 0.604685 0.68217
0.678981 0.573266 0.83859
0.818112 0.559487 0.854398
0.922438 0.557855 0.870146
0.00549325 0.677028 0.870542
0.00549325 0.678203 0.872404
0.0289616 0.678141 0.856596
0.23714 0.682811 0.8215
0.383719 0.691569 0.791913
0.563241 0.689113 0.749706
0.70454 0.682246 0.774899
0.832227 0.657389 0.866529
0.93225 0.658946 0.878477
0.00549325 0.776318 0.98616
0.00549325 0.777279 0.985138
0.0700084 0.776211 0.963272
0.272267 0.778424 0.921736
0.426017 0.781979 0.88127
0.563561 0.787457 0.846387
0.72697 0.781994 0.813535
0.847181 0.768261 0.882399
0.945708 0.769451 0.89192
0.143847 0.8692 1
0.176104 0.869154 1
0.248524 0.86743 1
0.377661 0.865934 0.983795
0.496559 0.867521 0.949783
0.618265 0.871458 0.915694
0.741665 0.874403 0.900023
0.868345 0.875792 0.882353
0.96173 0.875929 0.903487
0.301946 0.947951 1
0.323735 0.946624 1
0.377584 0.943481 1
0.481315 0.939391 1
0.578576 0.939635 0.99501
0.679011 0.943252 0.972366
0.796094 0.944869 0.957412
0.909163 0.9467 0.943038
0.977325 0.962417 0.940673
