bundles/resolve-cinematic-luts/Lens Distortions - Finishing LUTs/LD - Amber X 1.cube
TITLE "LD - Amber X 1"
# Copyright (c) Lens Distortions, LLC. All Rights Reserved.
# LensDistortions.com
# ref-AM6
LUT_3D_SIZE 33
0.0166629 0.0152132 0.0189822
0.0211185 0.0152132 0.0193332
0.0437018 0.0152438 0.0194858
0.071458 0.0153658 0.0197604
0.104875 0.0155795 0.0196078
0.143328 0.0158999 0.0192569
0.181521 0.0162661 0.0185855
0.218723 0.0166629 0.018265
0.255085 0.0170901 0.0180209
0.290257 0.0175326 0.0178988
0.325017 0.0179904 0.0179904
0.359487 0.0184634 0.0184634
0.39292 0.0189364 0.0189364
0.425956 0.0194247 0.0194247
0.458488 0.019913 0.019913
0.490532 0.0204013 0.0204013
0.522606 0.0209049 0.0209201
0.554437 0.0214237 0.0214237
0.586358 0.0219577 0.0219577
0.618387 0.0224918 0.0224918
0.650706 0.0230411 0.0230411
0.683223 0.0235904 0.0236057
0.715618 0.0241703 0.0241703
0.748333 0.0247501 0.0247501
0.781445 0.0253452 0.0260624
0.814176 0.0259403 0.0265812
0.847318 0.0265507 0.0271611
0.880262 0.0271611 0.0277256
0.913298 0.0277867 0.0282444
0.946548 0.0284276 0.028809
0.95021 0.0284886 0.0284886
0.95021 0.0284886 0.0284886
0.95021 0.0284886 0.0284886
0.0208438 0.0330358 0.0251621
0.0240024 0.0287785 0.0223392
0.0441901 0.03093 0.0165408
0.0715648 0.0304875 0.0166781
0.104387 0.0303349 0.0166323
0.140536 0.0295109 0.016434
0.1785 0.0282444 0.0167239
0.215274 0.026978 0.0170596
0.250965 0.0264286 0.0174411
0.286412 0.0260624 0.0178378
0.321431 0.0259556 0.0182803
0.356039 0.0259861 0.0187381
0.389853 0.0261692 0.0191958
0.422965 0.0267338 0.0196841
0.455421 0.0273136 0.0201724
0.487861 0.0277867 0.020676
0.52018 0.028397 0.0211948
0.552483 0.0294804 0.0217288
0.584405 0.0300908 0.0222629
0.616464 0.0307012 0.022797
0.648432 0.0312657 0.0233463
0.680781 0.0319066 0.0239109
0.713191 0.0324712 0.0244755
0.7458 0.0330358 0.0250553
0.778454 0.033875 0.0256504
0.811124 0.0344701 0.0262455
0.844541 0.0356603 0.0268864
0.87744 0.0361944 0.0274968
0.910369 0.0367437 0.0281071
0.943465 0.0372473 0.0287327
0.95053 0.0359808 0.028809
0.95053 0.0359045 0.028809
0.95053 0.035874 0.028809
0.0267491 0.053254 0.0324865
0.0269017 0.0531167 0.0261692
0.0542 0.0480049 0.024445
0.0703136 0.051667 0.0168765
0.102739 0.0515755 0.0170748
0.139849 0.049836 0.0172885
0.17734 0.0486152 0.0175784
0.214115 0.0472419 0.0178988
0.250706 0.0464332 0.0182803
0.286458 0.0458991 0.018677
0.32192 0.0455024 0.0191043
0.356725 0.0453498 0.0195621
0.39086 0.0454261 0.0200198
0.424109 0.0458839 0.0205081
0.457252 0.0463417 0.0210117
0.489738 0.046952 0.0215152
0.522118 0.0481727 0.0220493
0.554147 0.0488594 0.0225834
0.586236 0.0495766 0.0231174
0.618219 0.0502327 0.0236515
0.650126 0.0508431 0.0242008
0.682368 0.0514534 0.0247501
0.714855 0.0521248 0.02533
0.747387 0.0529793 0.0259251
0.78024 0.0536812 0.0265202
0.812879 0.0546426 0.0271305
0.845701 0.0554971 0.0277409
0.878721 0.0560922 0.0283513
0.911589 0.0566567 0.0289769
0.94461 0.0570993 0.0295872
0.951431 0.0567941 0.0297093
0.9514 0.05626 0.0296788
0.9514 0.0561074 0.0296788
0.0336919 0.0774548 0.0398871
0.0336004 0.0769055 0.0332952
0.0423743 0.0753643 0.0347906
0.0882734 0.0714275 0.0278477
0.101991 0.0772106 0.018143
0.138338 0.0770428 0.0184329
0.175555 0.0757763 0.0187076
0.213519 0.0744793 0.0190433
0.250431 0.0733806 0.0194095
0.28719 0.0726024 0.0198215
0.322972 0.0722972 0.0202487
0.358663 0.0722057 0.0207218
0.392981 0.0721599 0.0211795
0.426642 0.0724498 0.0216678
0.459724 0.0729076 0.0221714
0.49218 0.0734264 0.0226596
0.524834 0.0745708 0.023209
0.556863 0.0754406 0.023743
0.588815 0.0762341 0.0242771
0.621118 0.0770886 0.0248264
0.653162 0.077821 0.025391
0.685374 0.0784924 0.0259403
0.717784 0.0791791 0.0265202
0.750393 0.0798505 0.0271
0.782925 0.0804761 0.0276951
0.815579 0.0810864 0.0282902
0.848615 0.0823682 0.0289158
0.881834 0.0830091 0.0295415
0.91458 0.0834669 0.0301518
0.944762 0.0844282 0.0307469
0.952651 0.084947 0.0309148
0.952636 0.0847181 0.0308995
0.952621 0.0843824 0.0308843
0.0415503 0.105119 0.0476387
0.0411688 0.103838 0.0415503
0.0412604 0.104326 0.0402686
0.0696269 0.105241 0.0433967
0.122255 0.100313 0.0333562
0.136934 0.106279 0.0196536
0.174517 0.106172 0.0199893
0.211185 0.107668 0.0204318
0.249165 0.106203 0.0207828
0.286671 0.105943 0.02121
0.323095 0.105119 0.0216373
0.358785 0.104982 0.0220951
0.393668 0.105318 0.0225834
0.427695 0.105867 0.0230869
0.461021 0.106661 0.0236057
0.493904 0.106111 0.0240635
0.526558 0.10724 0.0246128
0.558953 0.108461 0.0251621
0.591058 0.109514 0.0257115
0.62324 0.11046 0.026276
0.655451 0.111376 0.0268406
0.687922 0.112444 0.0274205
0.720272 0.113466 0.0280003
0.752911 0.114443 0.0285954
0.785824 0.115373 0.0292058
0.818616 0.115465 0.0297856
0.851682 0.116777 0.0304265
0.884779 0.117906 0.0310674
0.917647 0.118837 0.031693
0.94551 0.119493 0.0322271
0.954162 0.119905 0.0324102
0.954147 0.119783 0.0323949
0.954147 0.119493 0.0323796
0.0502174 0.135851 0.0563668
0.0497139 0.134264 0.0505074
0.0496376 0.134127 0.0486305
0.0595865 0.136934 0.0496071
0.100969 0.141299 0.0488594
0.154925 0.135546 0.0381781
0.172702 0.140703 0.0214237
0.210803 0.140475 0.0218051
0.246937 0.141421 0.0222477
0.283833 0.141772 0.0226902
0.320562 0.141772 0.0231479
0.356939 0.141772 0.023621
0.392172 0.142061 0.0241093
0.426688 0.142489 0.0246128
0.46038 0.143175 0.0251316
0.493462 0.143008 0.0256199
0.526238 0.14406 0.026154
0.558816 0.145205 0.0267033
0.591287 0.146273 0.0272679
0.623514 0.147463 0.0278325
0.656153 0.148394 0.028397
0.688502 0.149279 0.0289769
0.721141 0.150072 0.0295567
0.753887 0.151324 0.0301671
0.786679 0.152132 0.0307622
0.819913 0.152331 0.0313573
0.852628 0.152789 0.0319524
0.885847 0.153536 0.032578
0.918669 0.154116 0.0331884
0.946273 0.154559 0.0337072
0.955673 0.155123 0.0339055
0.955673 0.154894 0.0339055
0.955642 0.15436 0.033875
0.059205 0.167788 0.0656748
0.0586709 0.166079 0.0602579
0.0584115 0.165438 0.0574197
0.0644541 0.167514 0.0582437
0.0841077 0.171954 0.0580911
0.135012 0.177874 0.0510719
0.192248 0.170031 0.0456245
0.208774 0.175494 0.02327
0.246677 0.174853 0.0236515
0.282353 0.17583 0.0241093
0.317693 0.17763 0.0246281
0.354192 0.177951 0.0251164
0.389761 0.178012 0.0255894
0.424475 0.178561 0.0261082
0.458549 0.179217 0.026627
0.491997 0.178943 0.0271
0.525231 0.180102 0.0276493
0.558053 0.181277 0.0282139
0.590463 0.182193 0.0287633
0.622965 0.183093 0.0293126
0.655604 0.183993 0.0298924
0.688136 0.18471 0.030457
0.720729 0.185489 0.0310369
0.753765 0.186267 0.031632
0.786709 0.18703 0.0322271
0.819791 0.187167 0.0328069
0.852705 0.18761 0.0334173
0.88574 0.188251 0.0340276
0.9187 0.188708 0.034638
0.946929 0.18909 0.035172
0.957137 0.189059 0.0353552
0.957137 0.188693 0.0355383
0.957107 0.188083 0.0354925
0.0681315 0.199557 0.0751202
0.0674754 0.197436 0.0694591
0.0672313 0.196841 0.0662394
0.0706035 0.198032 0.0667277
0.0848859 0.201648 0.0678416
0.113054 0.208545 0.0627604
0.171008 0.213718 0.0542916
0.228779 0.204685 0.0529793
0.2448 0.210361 0.0251316
0.282536 0.209094 0.0255131
0.317556 0.209873 0.0259861
0.352346 0.212116 0.0265202
0.387121 0.213291 0.027039
0.422263 0.214191 0.0275731
0.456352 0.214572 0.0280766
0.490028 0.215198 0.0285954
0.523461 0.215686 0.0291295
0.556329 0.21651 0.0296635
0.589014 0.21738 0.0302129
0.62179 0.218158 0.0307774
0.654414 0.219089 0.031342
0.686931 0.219623 0.0319066
0.719783 0.220188 0.0324712
0.752926 0.221317 0.0330816
0.786007 0.221851 0.0336767
0.81912 0.22153 0.0342412
0.852049 0.221973 0.0348516
0.885084 0.2224 0.0354467
0.918105 0.222721 0.0360571
0.947646 0.223117 0.0366217
0.958618 0.223255 0.0372473
0.958602 0.222629 0.0374151
0.958572 0.222019 0.0373846
0.0770733 0.231342 0.0846571
0.0763867 0.229145 0.0786603
0.0760967 0.228458 0.0751049
0.0767376 0.228565 0.0751659
0.0902266 0.231693 0.076463
0.110216 0.236973 0.0764477
0.144472 0.246174 0.0632334
0.222385 0.244617 0.0704356
0.264073 0.239384 0.0603799
0.280064 0.244907 0.0281071
0.317876 0.243153 0.0273899
0.352621 0.244388 0.0278935
0.386603 0.246082 0.0284123
0.419852 0.248356 0.0289769
0.453849 0.249424 0.0295109
0.487892 0.250431 0.030045
0.521385 0.251347 0.0305943
0.55436 0.251392 0.0310979
0.587137 0.252171 0.0316472
0.619837 0.252872 0.0321965
0.652674 0.25359 0.0327611
0.685496 0.254215 0.0333257
0.718563 0.255039 0.0339208
0.751659 0.255528 0.0345006
0.784573 0.255894 0.0350805
0.817853 0.255451 0.0356451
0.850721 0.255772 0.0362402
0.883726 0.256291 0.0368505
0.917082 0.25655 0.0374609
0.948272 0.256962 0.0382544
0.960052 0.256504 0.0387579
0.960021 0.255665 0.0389105
0.959991 0.25507 0.03888
0.0859388 0.262882 0.094255
0.0852064 0.260563 0.0878462
0.0848402 0.259586 0.0838331
0.0848096 0.259464 0.0838026
0.0960098 0.262089 0.085008
0.113756 0.266636 0.0859083
0.13962 0.27335 0.0821851
0.177081 0.283223 0.0633249
0.25893 0.278889 0.0800183
0.297719 0.274449 0.0662394
0.31545 0.279042 0.0329442
0.353048 0.277607 0.0292973
0.387289 0.278492 0.0297856
0.420706 0.280232 0.0303349
0.45333 0.282353 0.0308843
0.485588 0.284871 0.0314641
0.518822 0.285496 0.0319829
0.551812 0.286381 0.0325322
0.584787 0.286549 0.033051
0.617716 0.28716 0.0336004
0.650629 0.28777 0.034165
0.683772 0.288472 0.0347448
0.716762 0.28896 0.0353094
0.749615 0.289296 0.0358892
0.782895 0.289525 0.0364691
0.815869 0.289204 0.0370184
0.849027 0.289631 0.0376287
0.882307 0.289906 0.0382391
0.915297 0.289998 0.0388342
0.948302 0.289998 0.0395056
0.961471 0.289555 0.0400092
0.961425 0.288334 0.0402075
0.961395 0.287724 0.0401923
0.0947585 0.29424 0.10399
0.0940566 0.292027 0.097612
0.0936141 0.290806 0.0930343
0.0934768 0.290394 0.0924849
0.102205 0.292378 0.0934615
0.118563 0.296056 0.0945754
0.139849 0.302022 0.0941024
0.172244 0.31078 0.0827344
0.210758 0.319463 0.0642405
0.288548 0.314427 0.0814984
0.331167 0.309239 0.0723278
0.350317 0.312993 0.0387121
0.387106 0.311635 0.0311894
0.421408 0.312306 0.031693
0.454032 0.313634 0.0322118
0.486091 0.315648 0.0327611
0.51754 0.318105 0.033341
0.549371 0.320012 0.0339055
0.582406 0.320775 0.0344549
0.615427 0.321126 0.0349889
0.648508 0.32163 0.0355535
0.681331 0.322026 0.0361028
0.714336 0.322362 0.0366674
0.747631 0.322499 0.0372473
0.780514 0.322621 0.0378119
0.813886 0.322393 0.0383764
0.846815 0.322713 0.0389715
0.880095 0.322606 0.0395666
0.913161 0.322591 0.0401617
0.946014 0.322545 0.0407568
0.962722 0.322087 0.0410468
0.962798 0.320378 0.0411841
0.962783 0.319936 0.0411536
0.103548 0.325505 0.113863
0.102724 0.32282 0.107347
0.102159 0.321248 0.101915
0.102098 0.321065 0.101091
0.108003 0.322347 0.101762
0.123857 0.325841 0.103105
0.144549 0.330953 0.103426
0.170001 0.337896 0.0993515
0.204578 0.34815 0.0798352
0.245655 0.354879 0.0668956
0.322057 0.348653 0.0878462
0.363745 0.343511 0.0779126
0.384726 0.346685 0.0450752
0.420783 0.345159 0.0330663
0.454963 0.345449 0.0335699
0.486915 0.346853 0.0340887
0.51841 0.348653 0.034638
0.549722 0.350774 0.0352026
0.580728 0.353155 0.0357824
0.613046 0.354559 0.0363622
0.645945 0.354925 0.0369116
0.678904 0.355062 0.0374456
0.711803 0.355138 0.0380102
0.745022 0.355413 0.0385748
0.77818 0.35552 0.0391546
0.811536 0.355398 0.0397192
0.844465 0.355184 0.0402991
0.877501 0.355077 0.0408789
0.910613 0.35491 0.041474
0.943557 0.354849 0.0420691
0.963302 0.354299 0.0424048
0.964172 0.352331 0.0423285
0.964157 0.351751 0.0423133
0.112184 0.356207 0.123735
0.11136 0.353536 0.117189
0.110735 0.351812 0.110582
0.110582 0.351354 0.10959
0.11458 0.352209 0.110048
0.12929 0.355337 0.111452
0.149294 0.359762 0.1122
0.172396 0.365911 0.110567
0.200259 0.373938 0.101411
0.237568 0.384024 0.0800641
0.282094 0.389349 0.0717479
0.35169 0.3832 0.0898756
0.39588 0.377386 0.0832532
0.41857 0.379675 0.0508736
0.454078 0.378515 0.0349432
0.487999 0.378332 0.0354314
0.51957 0.379767 0.0359655
0.550881 0.381292 0.0364996
0.581888 0.382986 0.0370642
0.612802 0.385031 0.0376287
0.644022 0.386892 0.0382086
0.676463 0.387808 0.0387884
0.709438 0.387701 0.0393378
0.742702 0.387823 0.0399023
0.775769 0.387961 0.0404669
0.808682 0.38793 0.0410468
0.841733 0.387304 0.0415961
0.875105 0.387076 0.0421759
0.908034 0.386908 0.0427558
0.941009 0.386755 0.0433509
0.963699 0.386252 0.0437476
0.965545 0.384009 0.0436866
0.965515 0.383444 0.0436561
0.120729 0.386603 0.133745
0.11989 0.38381 0.127199
0.119295 0.382193 0.119829
0.119066 0.381537 0.118059
0.122301 0.382086 0.118395
0.134813 0.384543 0.119615
0.154314 0.388952 0.120806
0.177951 0.39469 0.120104
0.201373 0.401007 0.115679
0.232685 0.410529 0.0997787
0.271199 0.419287 0.0816052
0.318364 0.422827 0.0766613
0.384451 0.416052 0.0947585
0.427131 0.410422 0.0880903
0.451835 0.412558 0.0572976
0.486275 0.410956 0.0375525
0.520409 0.410758 0.0372778
0.551949 0.411749 0.0377966
0.583017 0.412863 0.0383307
0.61384 0.414389 0.03888
0.645136 0.415869 0.0394446
0.67631 0.417517 0.0400244
0.707362 0.419379 0.0406195
0.740261 0.419654 0.0411841
0.773129 0.419562 0.0417487
0.805966 0.419471 0.0423133
0.839292 0.419394 0.0428931
0.87245 0.418784 0.0434577
0.905592 0.418494 0.0440375
0.938415 0.418219 0.0446174
0.964065 0.417487 0.0450599
0.966873 0.415137 0.0450141
0.966857 0.414496 0.0449836
0.129152 0.416526 0.143832
0.128374 0.413931 0.13727
0.127657 0.411948 0.129244
0.127367 0.411139 0.126375
0.129396 0.41149 0.126589
0.140627 0.413443 0.127657
0.159167 0.417411 0.129015
0.182803 0.42269 0.129366
0.206119 0.428779 0.126787
0.231647 0.435981 0.118044
0.265141 0.446403 0.0958114
0.304952 0.453407 0.0847639
0.356771 0.455116 0.0862287
0.414801 0.448615 0.0977493
0.458762 0.443153 0.0937057
0.484428 0.444419 0.0638132
0.518486 0.443107 0.0441291
0.551965 0.442588 0.0390936
0.584115 0.442924 0.0396124
0.61529 0.444083 0.0401617
0.646433 0.445136 0.0406958
0.677562 0.446387 0.0412604
0.708766 0.44773 0.0418402
0.739956 0.44918 0.0424201
0.77145 0.450294 0.0430152
0.803754 0.45066 0.0435798
0.836683 0.45034 0.0441444
0.870085 0.450248 0.0447395
0.903166 0.449546 0.045304
0.936019 0.449195 0.0458839
0.964294 0.448798 0.0463722
0.9682 0.445975 0.0463264
0.968185 0.445396 0.0463111
0.137438 0.445975 0.153414
0.136629 0.443259 0.147143
0.135988 0.441444 0.139116
0.135561 0.44033 0.134554
0.136324 0.440391 0.13463
0.147478 0.442283 0.135729
0.164141 0.445853 0.137316
0.187579 0.450721 0.13843
0.211383 0.456336 0.136873
0.233768 0.462669 0.131853
0.261494 0.471366 0.118456
0.298177 0.481086 0.0957809
0.338521 0.486595 0.0887007
0.392874 0.486473 0.0954147
0.446708 0.480476 0.103029
0.489662 0.474723 0.0991989
0.516457 0.475715 0.0706645
0.550332 0.474495 0.0506142
0.583658 0.473548 0.0408942
0.616785 0.473487 0.041413
0.647883 0.474266 0.0419471
0.679026 0.475135 0.0424964
0.71017 0.476097 0.0430457
0.74136 0.47718 0.0436255
0.772839 0.478416 0.0442206
0.80441 0.479271 0.0448005
0.835615 0.480583 0.0453956
0.86772 0.480949 0.0459754
0.900923 0.480598 0.0465553
0.933852 0.480064 0.0471351
0.964492 0.479484 0.0476692
0.969558 0.477394 0.0476692
0.969528 0.476783 0.0476539
0.145663 0.475242 0.16347
0.144839 0.472404 0.157305
0.144152 0.470436 0.148974
0.143725 0.469429 0.142977
0.143648 0.469139 0.142641
0.154376 0.470878 0.143862
0.169085 0.473823 0.145556
0.192248 0.478584 0.147127
0.216648 0.484077 0.146502
0.239384 0.48983 0.142687
0.262867 0.496742 0.134112
0.293294 0.506447 0.114687
0.331075 0.514595 0.0977188
0.372808 0.51902 0.093492
0.427512 0.517357 0.101701
0.477455 0.511696 0.107195
0.520348 0.505928 0.103944
0.548318 0.506584 0.0775006
0.581888 0.505211 0.0572213
0.615641 0.503868 0.0426795
0.648997 0.503517 0.0431983
0.680446 0.50396 0.0437324
0.711757 0.504768 0.0442817
0.743511 0.505745 0.0448615
0.774639 0.506523 0.0454261
0.806149 0.507393 0.0460059
0.837537 0.508171 0.0465858
0.868727 0.509071 0.0471809
0.900359 0.510048 0.047776
0.931914 0.510811 0.0483864
0.964828 0.510307 0.0489662
0.970871 0.508263 0.0489967
0.970855 0.507698 0.0489662
0.15375 0.503975 0.173175
0.152941 0.501183 0.167315
0.1523 0.499336 0.158877
0.151797 0.49807 0.151873
0.15172 0.497902 0.151019
0.160906 0.499016 0.152026
0.174411 0.501671 0.153658
0.196628 0.506004 0.155459
0.221332 0.511345 0.155627
0.244648 0.516793 0.152789
0.266163 0.522911 0.146899
0.292012 0.530983 0.134234
0.325078 0.540932 0.109789
0.363668 0.547097 0.10103
0.407828 0.550454 0.0988785
0.462394 0.547509 0.112383
0.508171 0.542367 0.111696
0.55082 0.536583 0.108919
0.57998 0.536934 0.08365
0.613489 0.535515 0.0637217
0.647608 0.534066 0.0449989
0.680995 0.533761 0.0449836
0.713405 0.533623 0.0455177
0.74493 0.534112 0.046067
0.776608 0.534676 0.0466316
0.808179 0.535378 0.0472114
0.839673 0.536248 0.0478065
0.871107 0.536812 0.0483864
0.902663 0.537606 0.0489815
0.933974 0.538521 0.0495766
0.965438 0.539269 0.0501869
0.972183 0.538628 0.0502937
0.972168 0.538369 0.0502785
0.161761 0.532479 0.183017
0.161013 0.529839 0.17734
0.160311 0.527749 0.168627
0.159747 0.52636 0.160647
0.15964 0.526055 0.159274
0.167575 0.527138 0.16022
0.181048 0.529534 0.161791
0.20032 0.533288 0.163531
0.225498 0.538231 0.164202
0.249516 0.543572 0.162325
0.271427 0.549294 0.157687
0.293645 0.556085 0.149111
0.321065 0.565087 0.13228
0.357183 0.573999 0.110506
0.396292 0.579431 0.104906
0.442039 0.581537 0.105074
0.491463 0.578286 0.112108
0.538552 0.572824 0.116518
0.581125 0.567132 0.113619
0.611215 0.566949 0.0894484
0.645151 0.565606 0.0702373
0.679362 0.563928 0.0513771
0.71313 0.563424 0.0467689
0.746563 0.562753 0.047303
0.778317 0.563348 0.0478676
0.810071 0.563897 0.0484474
0.841657 0.564477 0.0490272
0.873335 0.565011 0.0496071
0.905058 0.565606 0.0502022
0.93666 0.566247 0.0507973
0.967819 0.566964 0.0513924
0.973373 0.566354 0.0514687
0.973404 0.567041 0.0514992
0.169696 0.560662 0.192569
0.168933 0.558038 0.186679
0.168261 0.555978 0.178271
0.167651 0.554391 0.169757
0.167452 0.553872 0.167361
0.173831 0.554833 0.168154
0.186877 0.556863 0.169619
0.204654 0.560388 0.171466
0.229679 0.565209 0.172564
0.253864 0.57023 0.171389
0.276204 0.575738 0.167803
0.297475 0.581949 0.16141
0.321767 0.589349 0.149279
0.352377 0.599374 0.127565
0.389197 0.606561 0.113649
0.428122 0.611261 0.110002
0.475395 0.612558 0.112154
0.523934 0.608515 0.120165
0.568872 0.603265 0.120882
0.611429 0.597345 0.118288
0.643076 0.597101 0.0958877
0.677104 0.595605 0.0766461
0.711559 0.594034 0.057908
0.745678 0.592828 0.0485542
0.779675 0.592432 0.0491188
0.811933 0.592477 0.0496681
0.843809 0.592844 0.050248
0.875517 0.593301 0.0508278
0.907378 0.594049 0.0514229
0.939025 0.594568 0.052018
0.969879 0.595026 0.0526131
0.974563 0.59443 0.0526741
0.974594 0.59498 0.0526894
0.177584 0.588693 0.201923
0.176791 0.585931 0.19588
0.17615 0.583963 0.187762
0.175616 0.582666 0.179263
0.175296 0.581827 0.175479
0.179828 0.582284 0.175937
0.192523 0.584314 0.177462
0.208988 0.587289 0.179156
0.233234 0.591959 0.180682
0.258091 0.596948 0.18024
0.281071 0.602274 0.177478
0.302434 0.608118 0.17229
0.323735 0.614664 0.163821
0.349966 0.623453 0.148318
0.383337 0.632883 0.123796
0.42089 0.639124 0.117708
0.459602 0.64303 0.115328
0.507683 0.643259 0.118975
0.553689 0.639078 0.122881
0.599466 0.633539 0.125948
0.642725 0.627863 0.123552
0.674815 0.62707 0.101823
0.709087 0.625788 0.0825971
0.743694 0.624094 0.0643168
0.778546 0.62237 0.0503548
0.811826 0.622309 0.0509194
0.845716 0.621836 0.0514992
0.878004 0.622217 0.052079
0.909819 0.622705 0.0526741
0.941665 0.623148 0.0532692
0.971786 0.62356 0.0538338
0.975784 0.622889 0.0538796
0.975814 0.623453 0.0539101
0.185367 0.616403 0.21088
0.184588 0.613642 0.204868
0.183993 0.611795 0.197116
0.183413 0.6103 0.188342
0.183078 0.609522 0.183459
0.186801 0.609796 0.183841
0.198672 0.611582 0.185199
0.214084 0.614389 0.186892
0.236225 0.618601 0.188586
0.261967 0.623545 0.188739
0.285481 0.628641 0.186709
0.306996 0.634165 0.182574
0.327474 0.640314 0.176013
0.351171 0.647654 0.16434
0.379568 0.657557 0.145235
0.414603 0.66569 0.126909
0.452049 0.671427 0.122301
0.492882 0.674556 0.121675
0.539483 0.673655 0.125643
0.585367 0.669444 0.129992
0.63035 0.664103 0.13077
0.673564 0.658091 0.128252
0.706783 0.657374 0.107668
0.741314 0.656031 0.0886244
0.775906 0.654353 0.0707561
0.811215 0.652613 0.0540932
0.844968 0.652445 0.0527657
0.879484 0.651576 0.0533455
0.911925 0.651667 0.0539254
0.944076 0.652186 0.054551
0.973846 0.652567 0.0551919
0.977035 0.651942 0.0552834
0.97705 0.652384 0.0552987
0.193103 0.6439 0.219608
0.192355 0.641276 0.21384
0.191745 0.639368 0.206378
0.191135 0.637766 0.196994
0.190768 0.636896 0.191287
0.194141 0.637201 0.191638
0.204211 0.638712 0.192859
0.218997 0.641306 0.194507
0.238743 0.645045 0.196277
0.265293 0.650126 0.197101
0.289601 0.65507 0.195727
0.311696 0.660533 0.192477
0.332494 0.666545 0.18706
0.353109 0.673121 0.17882
0.378759 0.681727 0.164141
0.410193 0.691646 0.140841
0.445701 0.698482 0.131273
0.482765 0.703777 0.127764
0.52578 0.706447 0.129137
0.571466 0.704524 0.132555
0.616449 0.700175 0.134936
0.661143 0.694621 0.134981
0.70518 0.688624 0.133455
0.738949 0.687922 0.11339
0.773602 0.68658 0.0944686
0.808591 0.684901 0.0773175
0.843656 0.683116 0.0605936
0.878309 0.682261 0.054612
0.912383 0.681987 0.0553445
0.946426 0.681392 0.0560464
0.975753 0.68159 0.0566873
0.978286 0.681041 0.056733
0.978302 0.681407 0.0567483
0.200931 0.671717 0.228397
0.200122 0.668879 0.222293
0.199496 0.666896 0.215457
0.198917 0.665354 0.206165
0.198489 0.664439 0.199222
0.201251 0.664454 0.19942
0.209873 0.66569 0.200443
0.224079 0.668193 0.20209
0.242481 0.671809 0.203906
0.268421 0.676661 0.205142
0.293156 0.681514 0.204486
0.315923 0.686824 0.201953
0.337026 0.692683 0.197543
0.357229 0.699031 0.190951
0.380484 0.706371 0.179568
0.407416 0.716274 0.162539
0.441001 0.725338 0.140963
0.476844 0.731777 0.136324
0.513146 0.7364 0.133776
0.558206 0.738308 0.136309
0.603204 0.735409 0.139361
0.648066 0.730739 0.14107
0.693034 0.725277 0.140215
0.737133 0.719249 0.138521
0.771435 0.718517 0.119219
0.806012 0.717174 0.100511
0.841276 0.715618 0.0834516
0.876905 0.714 0.0670481
0.911879 0.712474 0.0568551
0.945632 0.712612 0.0576333
0.977386 0.711452 0.0582437
0.979553 0.710872 0.0582589
0.979568 0.711147 0.0582589
0.208621 0.699046 0.236179
0.207828 0.6963 0.230442
0.207294 0.694575 0.224552
0.206714 0.693004 0.215442
0.20618 0.691737 0.207721
0.208331 0.691737 0.207294
0.215457 0.692775 0.208072
0.229282 0.695171 0.20972
0.246967 0.698573 0.211566
0.271412 0.703304 0.213138
0.297017 0.708339 0.213046
0.320439 0.713512 0.21117
0.342168 0.719219 0.207492
0.362402 0.72546 0.202045
0.382925 0.732418 0.194003
0.408011 0.740734 0.17998
0.437995 0.751095 0.158755
0.472099 0.758862 0.145907
0.5075 0.765087 0.142138
0.544732 0.769299 0.140719
0.590753 0.770153 0.143465
0.635431 0.766552 0.145998
0.680034 0.761807 0.146777
0.724971 0.756191 0.145342
0.769543 0.750118 0.143648
0.803998 0.749203 0.124651
0.839063 0.748104 0.106538
0.874083 0.74667 0.0893416
0.909514 0.744961 0.0732738
0.945388 0.743328 0.0594186
0.97789 0.742733 0.0598001
0.980896 0.741909 0.0598459
0.98085 0.740856 0.0598001
0.216327 0.726467 0.244327
0.215534 0.72372 0.238666
0.215015 0.722026 0.233921
0.214435 0.720455 0.224552
0.213916 0.719234 0.216464
0.215137 0.718868 0.214984
0.22092 0.719799 0.215656
0.234394 0.722011 0.217227
0.251408 0.725292 0.219104
0.274449 0.729778 0.22089
0.300282 0.734859 0.221347
0.324422 0.740063 0.22002
0.346639 0.745815 0.217182
0.367453 0.751965 0.212543
0.387243 0.758587 0.206073
0.410239 0.765957 0.195056
0.436072 0.775891 0.179492
0.468635 0.785916 0.156146
0.502922 0.792737 0.151492
0.537865 0.79852 0.148257
0.577661 0.801953 0.148348
0.622919 0.801617 0.150225
0.66772 0.797635 0.15256
0.712459 0.792981 0.152819
0.757168 0.78735 0.150164
0.801831 0.781018 0.148592
0.836759 0.780423 0.13048
0.871687 0.779187 0.112352
0.906981 0.777691 0.0952316
0.942779 0.776226 0.0796979
0.978393 0.774411 0.0661784
0.982223 0.772961 0.0614176
0.982208 0.77261 0.0614023
0.224063 0.753994 0.252628
0.22327 0.751232 0.247028
0.222751 0.749523 0.242527
0.222156 0.747845 0.233677
0.221653 0.7467 0.225177
0.222293 0.746395 0.222797
0.227283 0.747036 0.223316
0.239796 0.749203 0.224872
