bundles/resolve-cinematic-luts/Lens Distortions - Finishing LUTs/LD - Evoke B&W 2.cube
TITLE "LD - Evoke 2"
# Copyright (c) Lens Distortions, LLC. All Rights Reserved.
# LensDistortions.com
# ref-EBW1
LUT_3D_SIZE 9
0 0 0
0.00341802 0.00341802 0.00341802
0.0191348 0.0191348 0.0191348
0.0378119 0.0378119 0.0378119
0.0596628 0.0596628 0.0596628
0.0844129 0.0844129 0.0844129
0.110216 0.110216 0.110216
0.134752 0.134752 0.134752
0.15964 0.15964 0.15964
0.0404669 0.0404669 0.0404669
0.0677806 0.0677806 0.0677806
0.0929427 0.0929427 0.0929427
0.118349 0.118349 0.118349
0.143023 0.143023 0.143023
0.167803 0.167803 0.167803
0.192996 0.192996 0.192996
0.219318 0.219318 0.219318
0.246662 0.246662 0.246662
0.118853 0.118853 0.118853
0.151446 0.151446 0.151446
0.176059 0.176059 0.176059
0.200793 0.200793 0.200793
0.228 0.228 0.228
0.255863 0.255863 0.255863
0.284153 0.284153 0.284153
0.313085 0.313085 0.313085
0.342687 0.342687 0.342687
0.198871 0.198871 0.198871
0.236255 0.236255 0.236255
0.265431 0.265431 0.265431
0.293858 0.293858 0.293858
0.321096 0.321096 0.321096
0.351461 0.351461 0.351461
0.382406 0.382406 0.382406
0.413153 0.413153 0.413153
0.443153 0.443153 0.443153
0.28658 0.28658 0.28658
0.324956 0.324956 0.324956
0.363058 0.363058 0.363058
0.393378 0.393378 0.393378
0.423743 0.423743 0.423743
0.451179 0.451179 0.451179
0.480003 0.480003 0.480003
0.509361 0.509361 0.509361
0.537545 0.537545 0.537545
0.380331 0.380331 0.380331
0.418906 0.418906 0.418906
0.463325 0.463325 0.463325
0.492332 0.492332 0.492332
0.5205 0.5205 0.5205
0.548012 0.548012 0.548012
0.573495 0.573495 0.573495
0.598047 0.598047 0.598047
0.624109 0.624109 0.624109
0.473838 0.473838 0.473838
0.509926 0.509926 0.509926
0.551156 0.551156 0.551156
0.583963 0.583963 0.583963
0.609873 0.609873 0.609873
0.63505 0.63505 0.63505
0.659525 0.659525 0.659525
0.6813 0.6813 0.6813
0.702724 0.702724 0.702724
0.560525 0.560525 0.560525
0.593942 0.593942 0.593942
0.631708 0.631708 0.631708
0.667338 0.667338 0.667338
0.690608 0.690608 0.690608
0.713176 0.713176 0.713176
0.73518 0.73518 0.73518
0.756481 0.756481 0.756481
0.775738 0.775738 0.775738
0.639185 0.639185 0.639185
0.669779 0.669779 0.669779
0.704143 0.704143 0.704143
0.742061 0.742061 0.742061
0.763455 0.763455 0.763455
0.784009 0.784009 0.784009
0.803693 0.803693 0.803693
0.822553 0.822553 0.822553
0.841001 0.841001 0.841001
0 0 0
0.00874342 0.00874342 0.00874342
0.0262303 0.0262303 0.0262303
0.0462654 0.0462654 0.0462654
0.0693217 0.0693217 0.0693217
0.0951247 0.0951247 0.0951247
0.120333 0.120333 0.120333
0.14519 0.14519 0.14519
0.170123 0.170123 0.170123
0.0448615 0.0448615 0.0448615
0.0776684 0.0776684 0.0776684
0.103777 0.103777 0.103777
0.128435 0.128435 0.128435
0.153475 0.153475 0.153475
0.178256 0.178256 0.178256
0.203861 0.203861 0.203861
0.230396 0.230396 0.230396
0.257893 0.257893 0.257893
0.123995 0.123995 0.123995
0.155673 0.155673 0.155673
0.186633 0.186633 0.186633
0.211276 0.211276 0.211276
0.239796 0.239796 0.239796
0.267399 0.267399 0.267399
0.295796 0.295796 0.295796
0.325109 0.325109 0.325109
0.35462 0.35462 0.35462
0.202701 0.202701 0.202701
0.2374 0.2374 0.2374
0.276921 0.276921 0.276921
0.305745 0.305745 0.305745
0.331518 0.331518 0.331518
0.363378 0.363378 0.363378
0.394888 0.394888 0.394888
0.425681 0.425681 0.425681
0.455177 0.455177 0.455177
0.288762 0.288762 0.288762
0.327932 0.327932 0.327932
0.374884 0.374884 0.374884
0.405722 0.405722 0.405722
0.435645 0.435645 0.435645
0.461097 0.461097 0.461097
0.490974 0.490974 0.490974
0.520607 0.520607 0.520607
0.548775 0.548775 0.548775
0.382101 0.382101 0.382101
0.422705 0.422705 0.422705
0.467643 0.467643 0.467643
0.504005 0.504005 0.504005
0.531868 0.531868 0.531868
0.559274 0.559274 0.559274
0.583139 0.583139 0.583139
0.607233 0.607233 0.607233
0.633936 0.633936 0.633936
0.475761 0.475761 0.475761
0.513954 0.513954 0.513954
0.555138 0.555138 0.555138
0.594888 0.594888 0.594888
0.620478 0.620478 0.620478
0.645579 0.645579 0.645579
0.669596 0.669596 0.669596
0.689998 0.689998 0.689998
0.710857 0.710857 0.710857
0.562524 0.562524 0.562524
0.597803 0.597803 0.597803
0.635416 0.635416 0.635416
0.676646 0.676646 0.676646
0.700359 0.700359 0.700359
0.722698 0.722698 0.722698
0.744503 0.744503 0.744503
0.765606 0.765606 0.765606
0.783795 0.783795 0.783795
0.64097 0.64097 0.64097
0.673243 0.673243 0.673243
0.707408 0.707408 0.707408
0.745327 0.745327 0.745327
0.772534 0.772534 0.772534
0.792691 0.792691 0.792691
0.812009 0.812009 0.812009
0.830701 0.830701 0.830701
0.848936 0.848936 0.848936
0 0 0
0.0140536 0.0140536 0.0140536
0.0323033 0.0323033 0.0323033
0.0550546 0.0550546 0.0550546
0.0793317 0.0793317 0.0793317
0.105669 0.105669 0.105669
0.130556 0.130556 0.130556
0.155657 0.155657 0.155657
0.180728 0.180728 0.180728
0.0532692 0.0532692 0.0532692
0.0742199 0.0742199 0.0742199
0.109545 0.109545 0.109545
0.138949 0.138949 0.138949
0.163882 0.163882 0.163882
0.188739 0.188739 0.188739
0.214862 0.214862 0.214862
0.241764 0.241764 0.241764
0.269352 0.269352 0.269352
0.131701 0.131701 0.131701
0.153735 0.153735 0.153735
0.197314 0.197314 0.197314
0.223835 0.223835 0.223835
0.251087 0.251087 0.251087
0.279057 0.279057 0.279057
0.307683 0.307683 0.307683
0.337118 0.337118 0.337118
0.366873 0.366873 0.366873
0.212833 0.212833 0.212833
0.242603 0.242603 0.242603
0.281285 0.281285 0.281285
0.317754 0.317754 0.317754
0.343496 0.343496 0.343496
0.376761 0.376761 0.376761
0.407736 0.407736 0.407736
0.437659 0.437659 0.437659
0.467155 0.467155 0.467155
0.299275 0.299275 0.299275
0.330602 0.330602 0.330602
0.373342 0.373342 0.373342
0.418189 0.418189 0.418189
0.447807 0.447807 0.447807
0.469764 0.469764 0.469764
0.502297 0.502297 0.502297
0.532067 0.532067 0.532067
0.560571 0.560571 0.560571
0.391089 0.391089 0.391089
0.422797 0.422797 0.422797
0.467384 0.467384 0.467384
0.515404 0.515404 0.515404
0.543267 0.543267 0.543267
0.570489 0.570489 0.570489
0.591516 0.591516 0.591516
0.616754 0.616754 0.616754
0.643839 0.643839 0.643839
0.4813 0.4813 0.4813
0.51191 0.51191 0.51191
0.555566 0.555566 0.555566
0.601114 0.601114 0.601114
0.631052 0.631052 0.631052
0.655772 0.655772 0.655772
0.679713 0.679713 0.679713
0.698222 0.698222 0.698222
0.71812 0.71812 0.71812
0.565454 0.565454 0.565454
0.595697 0.595697 0.595697
0.636057 0.636057 0.636057
0.677073 0.677073 0.677073
0.710063 0.710063 0.710063
0.732204 0.732204 0.732204
0.753597 0.753597 0.753597
0.774639 0.774639 0.774639
0.791287 0.791287 0.791287
0.641138 0.641138 0.641138
0.671397 0.671397 0.671397
0.708003 0.708003 0.708003
0.745663 0.745663 0.745663
0.781399 0.781399 0.781399
0.801266 0.801266 0.801266
0.820233 0.820233 0.820233
0.838773 0.838773 0.838773
0.856779 0.856779 0.856779
0.0052491 0.0052491 0.0052491
0.0200198 0.0200198 0.0200198
0.0385443 0.0385443 0.0385443
0.0620279 0.0620279 0.0620279
0.0888991 0.0888991 0.0888991
0.116121 0.116121 0.116121
0.14107 0.14107 0.14107
0.166094 0.166094 0.166094
0.191089 0.191089 0.191089
0.0618296 0.0618296 0.0618296
0.0835889 0.0835889 0.0835889
0.113268 0.113268 0.113268
0.14406 0.14406 0.14406
0.173114 0.173114 0.173114
0.19942 0.19942 0.19942
0.225834 0.225834 0.225834
0.253223 0.253223 0.253223
0.281071 0.281071 0.281071
0.141512 0.141512 0.141512
0.163424 0.163424 0.163424
0.191821 0.191821 0.191821
0.228565 0.228565 0.228565
0.262394 0.262394 0.262394
0.290608 0.290608 0.290608
0.319692 0.319692 0.319692
0.349187 0.349187 0.349187
0.379263 0.379263 0.379263
0.220111 0.220111 0.220111
0.244388 0.244388 0.244388
0.27686 0.27686 0.27686
0.329763 0.329763 0.329763
0.35935 0.35935 0.35935
0.389563 0.389563 0.389563
0.420111 0.420111 0.420111
0.449714 0.449714 0.449714
0.479088 0.479088 0.479088
0.30869 0.30869 0.30869
0.339849 0.339849 0.339849
0.378088 0.378088 0.378088
0.421836 0.421836 0.421836
0.459876 0.459876 0.459876
0.482963 0.482963 0.482963
0.515953 0.515953 0.515953
0.545251 0.545251 0.545251
0.572473 0.572473 0.572473
0.402991 0.402991 0.402991
0.434028 0.434028 0.434028
0.468681 0.468681 0.468681
0.512459 0.512459 0.512459
0.554574 0.554574 0.554574
0.581552 0.581552 0.581552
0.59736 0.59736 0.59736
0.627039 0.627039 0.627039
0.654536 0.654536 0.654536
0.492134 0.492134 0.492134
0.521706 0.521706 0.521706
0.554009 0.554009 0.554009
0.596918 0.596918 0.596918
0.641566 0.641566 0.641566
0.665904 0.665904 0.665904
0.689357 0.689357 0.689357
0.704997 0.704997 0.704997
0.7252 0.7252 0.7252
0.57525 0.57525 0.57525
0.602655 0.602655 0.602655
0.632013 0.632013 0.632013
0.673594 0.673594 0.673594
0.717464 0.717464 0.717464
0.741634 0.741634 0.741634
0.762798 0.762798 0.762798
0.78349 0.78349 0.78349
0.798016 0.798016 0.798016
0.650141 0.650141 0.650141
0.675151 0.675151 0.675151
0.70219 0.70219 0.70219
0.74255 0.74255 0.74255
0.78294 0.78294 0.78294
0.809735 0.809735 0.809735
0.828458 0.828458 0.828458
0.846784 0.846784 0.846784
0.864561 0.864561 0.864561
0.0110323 0.0110323 0.0110323
0.0264897 0.0264897 0.0264897
0.0459144 0.0459144 0.0459144
0.069276 0.069276 0.069276
0.0967575 0.0967575 0.0967575
0.124483 0.124483 0.124483
0.151095 0.151095 0.151095
0.176516 0.176516 0.176516
0.20174 0.20174 0.20174
0.0707256 0.0707256 0.0707256
0.0937819 0.0937819 0.0937819
0.121202 0.121202 0.121202
0.149142 0.149142 0.149142
0.178164 0.178164 0.178164
0.207553 0.207553 0.207553
0.236667 0.236667 0.236667
0.264393 0.264393 0.264393
0.292729 0.292729 0.292729
0.15111 0.15111 0.15111
0.173251 0.173251 0.173251
0.196963 0.196963 0.196963
0.228901 0.228901 0.228901
0.264729 0.264729 0.264729
0.300099 0.300099 0.300099
0.331716 0.331716 0.331716
0.361242 0.361242 0.361242
0.391577 0.391577 0.391577
0.230182 0.230182 0.230182
0.254932 0.254932 0.254932
0.281361 0.281361 0.281361
0.321218 0.321218 0.321218
0.36434 0.36434 0.36434
0.401938 0.401938 0.401938
0.432303 0.432303 0.432303
0.461799 0.461799 0.461799
0.490974 0.490974 0.490974
0.317281 0.317281 0.317281
0.343664 0.343664 0.343664
0.371771 0.371771 0.371771
0.41619 0.41619 0.41619
0.471839 0.471839 0.471839
0.500862 0.500862 0.500862
0.529076 0.529076 0.529076
0.556558 0.556558 0.556558
0.583597 0.583597 0.583597
0.410681 0.410681 0.410681
0.440513 0.440513 0.440513
0.474601 0.474601 0.474601
0.516365 0.516365 0.516365
0.558068 0.558068 0.558068
0.592523 0.592523 0.592523
0.612116 0.612116 0.612116
0.64123 0.64123 0.64123
0.668132 0.668132 0.668132
0.502907 0.502907 0.502907
0.53286 0.53286 0.53286
0.56463 0.56463 0.56463
0.597574 0.597574 0.597574
0.638361 0.638361 0.638361
0.675959 0.675959 0.675959
0.699184 0.699184 0.699184
0.710109 0.710109 0.710109
0.734844 0.734844 0.734844
0.586053 0.586053 0.586053
0.612909 0.612909 0.612909
0.641489 0.641489 0.641489
0.671473 0.671473 0.671473
0.710979 0.710979 0.710979
0.750851 0.750851 0.750851
0.771878 0.771878 0.771878
0.792248 0.792248 0.792248
0.802884 0.802884 0.802884
0.659663 0.659663 0.659663
0.684199 0.684199 0.684199
0.710262 0.710262 0.710262
0.738003 0.738003 0.738003
0.776898 0.776898 0.776898
0.817655 0.817655 0.817655
0.836576 0.836576 0.836576
0.854673 0.854673 0.854673
0.872145 0.872145 0.872145
0.0171054 0.0171054 0.0171054
0.0332952 0.0332952 0.0332952
0.0538033 0.0538033 0.0538033
0.07776 0.07776 0.07776
0.10518 0.10518 0.10518
0.132235 0.132235 0.132235
0.159182 0.159182 0.159182
0.185412 0.185412 0.185412
0.211963 0.211963 0.211963
0.0800488 0.0800488 0.0800488
0.103853 0.103853 0.103853
0.129915 0.129915 0.129915
0.156649 0.156649 0.156649
0.184298 0.184298 0.184298
0.213291 0.213291 0.213291
0.243351 0.243351 0.243351
0.273564 0.273564 0.273564
0.304067 0.304067 0.304067
0.160662 0.160662 0.160662
0.183001 0.183001 0.183001
0.206714 0.206714 0.206714
0.236027 0.236027 0.236027
0.268589 0.268589 0.268589
0.303624 0.303624 0.303624
0.338643 0.338643 0.338643
0.371847 0.371847 0.371847
0.403952 0.403952 0.403952
0.240452 0.240452 0.240452
0.265324 0.265324 0.265324
0.292012 0.292012 0.292012
0.32134 0.32134 0.32134
0.359854 0.359854 0.359854
0.401785 0.401785 0.401785
0.439811 0.439811 0.439811
0.473777 0.473777 0.473777
0.5028 0.5028 0.5028
0.328298 0.328298 0.328298
0.354742 0.354742 0.354742
0.382895 0.382895 0.382895
0.413809 0.413809 0.413809
0.46247 0.46247 0.46247
0.505302 0.505302 0.505302
0.540429 0.540429 0.540429
0.567834 0.567834 0.567834
0.594583 0.594583 0.594583
0.419547 0.419547 0.419547
0.446326 0.446326 0.446326
0.473915 0.473915 0.473915
0.504082 0.504082 0.504082
0.553079 0.553079 0.553079
0.603464 0.603464 0.603464
0.629038 0.629038 0.629038
0.6542 0.6542 0.6542
0.678218 0.678218 0.678218
0.5093 0.5093 0.5093
0.53608 0.53608 0.53608
0.565148 0.565148 0.565148
0.598505 0.598505 0.598505
0.642054 0.642054 0.642054
0.678981 0.678981 0.678981
0.708965 0.708965 0.708965
0.725261 0.725261 0.725261
0.750347 0.750347 0.750347
0.592935 0.592935 0.592935
0.619532 0.619532 0.619532
0.648859 0.648859 0.648859
0.681392 0.681392 0.681392
0.711147 0.711147 0.711147
0.7476 0.7476 0.7476
0.780911 0.780911 0.780911
0.800885 0.800885 0.800885
0.809888 0.809888 0.809888
0.668681 0.668681 0.668681
0.693767 0.693767 0.693767
0.719921 0.719921 0.719921
0.746624 0.746624 0.746624
0.774395 0.774395 0.774395
0.809705 0.809705 0.809705
0.844602 0.844602 0.844602
0.86247 0.86247 0.86247
0.879713 0.879713 0.879713
0.023331 0.023331 0.023331
0.0403296 0.0403296 0.0403296
0.0618448 0.0618448 0.0618448
0.0867628 0.0867628 0.0867628
0.113985 0.113985 0.113985
0.140139 0.140139 0.140139
0.166583 0.166583 0.166583
0.193149 0.193149 0.193149
0.220066 0.220066 0.220066
0.0894636 0.0894636 0.0894636
0.113664 0.113664 0.113664
0.139055 0.139055 0.139055
0.164965 0.164965 0.164965
0.191699 0.191699 0.191699
0.219806 0.219806 0.219806
0.249851 0.249851 0.249851
0.280613 0.280613 0.280613
0.311849 0.311849 0.311849
0.170016 0.170016 0.170016
0.192523 0.192523 0.192523
0.216449 0.216449 0.216449
0.24477 0.24477 0.24477
0.275959 0.275959 0.275959
0.308904 0.308904 0.308904
0.343191 0.343191 0.343191
0.378073 0.378073 0.378073
0.411627 0.411627 0.411627
0.250675 0.250675 0.250675
0.275807 0.275807 0.275807
0.302342 0.302342 0.302342
0.329641 0.329641 0.329641
0.365087 0.365087 0.365087
0.40293 0.40293 0.40293
0.441474 0.441474 0.441474
0.47834 0.47834 0.47834
0.511223 0.511223 0.511223
0.339193 0.339193 0.339193
0.365698 0.365698 0.365698
0.393698 0.393698 0.393698
0.422034 0.422034 0.422034
0.460761 0.460761 0.460761
0.499458 0.499458 0.499458
0.539269 0.539269 0.539269
0.573968 0.573968 0.573968
0.605402 0.605402 0.605402
0.430518 0.430518 0.430518
0.457267 0.457267 0.457267
0.484535 0.484535 0.484535
0.51133 0.51133 0.51133
0.548989 0.548989 0.548989
0.594537 0.594537 0.594537
0.632776 0.632776 0.632776
0.664347 0.664347 0.664347
0.688289 0.688289 0.688289
0.517784 0.517784 0.517784
0.54316 0.54316 0.54316
0.568475 0.568475 0.568475
0.593515 0.593515 0.593515
0.630106 0.630106 0.630106
0.674342 0.674342 0.674342
0.718654 0.718654 0.718654
0.740795 0.740795 0.740795
0.762142 0.762142 0.762142
0.599451 0.599451 0.599451
0.623178 0.623178 0.623178
0.648707 0.648707 0.648707
0.675715 0.675715 0.675715
0.707927 0.707927 0.707927
0.750698 0.750698 0.750698
0.78352 0.78352 0.78352
0.809384 0.809384 0.809384
0.822766 0.822766 0.822766
0.673976 0.673976 0.673976
0.696925 0.696925 0.696925
0.722057 0.722057 0.722057
0.74992 0.74992 0.74992
0.783001 0.783001 0.783001
0.809796 0.809796 0.809796
0.84181 0.84181 0.84181
0.870176 0.870176 0.870176
0.887205 0.887205 0.887205
0.0298161 0.0298161 0.0298161
0.0478218 0.0478218 0.0478218
0.0704814 0.0704814 0.0704814
0.0958572 0.0958572 0.0958572
0.122774 0.122774 0.122774
0.148638 0.148638 0.148638
0.174289 0.174289 0.174289
0.200534 0.200534 0.200534
0.228061 0.228061 0.228061
0.0992447 0.0992447 0.0992447
0.123003 0.123003 0.123003
0.148302 0.148302 0.148302
0.173602 0.173602 0.173602
0.199771 0.199771 0.199771
0.227649 0.227649 0.227649
0.256535 0.256535 0.256535
0.287495 0.287495 0.287495
0.318837 0.318837 0.318837
0.179278 0.179278 0.179278
0.201862 0.201862 0.201862
0.226047 0.226047 0.226047
0.254078 0.254078 0.254078
0.284398 0.284398 0.284398
0.316304 0.316304 0.316304
0.349279 0.349279 0.349279
0.383673 0.383673 0.383673
0.418112 0.418112 0.418112
0.260914 0.260914 0.260914
0.286137 0.286137 0.286137
0.312642 0.312642 0.312642
0.340139 0.340139 0.340139
0.373907 0.373907 0.373907
0.409369 0.409369 0.409369
0.445289 0.445289 0.445289
0.481605 0.481605 0.481605
0.515846 0.515846 0.515846
0.349798 0.349798 0.349798
0.376394 0.376394 0.376394
0.404639 0.404639 0.404639
0.4327 0.4327 0.4327
0.463249 0.463249 0.463249
0.499962 0.499962 0.499962
0.537026 0.537026 0.537026
0.573877 0.573877 0.573877
0.607065 0.607065 0.607065
0.441169 0.441169 0.441169
0.467872 0.467872 0.467872
0.494957 0.494957 0.494957
0.521492 0.521492 0.521492
0.550164 0.550164 0.550164
0.592142 0.592142 0.592142
0.627573 0.627573 0.627573
0.663035 0.663035 0.663035
0.692576 0.692576 0.692576
0.528359 0.528359 0.528359
0.552926 0.552926 0.552926
0.578286 0.578286 0.578286
0.603296 0.603296 0.603296
0.629709 0.629709 0.629709
0.670085 0.670085 0.670085
0.71075 0.71075 0.71075
0.74406 0.74406 0.74406
0.771069 0.771069 0.771069
0.607736 0.607736 0.607736
0.630457 0.630457 0.630457
0.654002 0.654002 0.654002
0.676387 0.676387 0.676387
0.700404 0.700404 0.700404
0.7402 0.7402 0.7402
0.779751 0.779751 0.779751
0.817777 0.817777 0.817777
0.836316 0.836316 0.836316
0.679698 0.679698 0.679698
0.700755 0.700755 0.700755
0.723186 0.723186 0.723186
0.74612 0.74612 0.74612
0.77084 0.77084 0.77084
0.805829 0.805829 0.805829
0.843946 0.843946 0.843946
0.872328 0.872328 0.872328
0.894652 0.894652 0.894652
0.0364843 0.0364843 0.0364843
0.055848 0.055848 0.055848
0.0790875 0.0790875 0.0790875
0.105425 0.105425 0.105425
0.131548 0.131548 0.131548
0.157244 0.157244 0.157244
0.182544 0.182544 0.182544
0.208377 0.208377 0.208377
0.235813 0.235813 0.235813
0.108995 0.108995 0.108995
0.132097 0.132097 0.132097
0.157122 0.157122 0.157122
0.182345 0.182345 0.182345
0.208301 0.208301 0.208301
0.236011 0.236011 0.236011
0.264591 0.264591 0.264591
0.29482 0.29482 0.29482
0.326162 0.326162 0.326162
0.188602 0.188602 0.188602
0.211154 0.211154 0.211154
0.235447 0.235447 0.235447
0.263661 0.263661 0.263661
0.293568 0.293568 0.293568
0.324636 0.324636 0.324636
0.356756 0.356756 0.356756
0.390204 0.390204 0.390204
0.424323 0.424323 0.424323
0.270848 0.270848 0.270848
0.2963 0.2963 0.2963
0.32314 0.32314 0.32314
0.350439 0.350439 0.350439
0.383474 0.383474 0.383474
0.417411 0.417411 0.417411
0.451881 0.451881 0.451881
0.486122 0.486122 0.486122
0.520226 0.520226 0.520226
0.360296 0.360296 0.360296
0.386954 0.386954 0.386954
0.415259 0.415259 0.415259
0.443153 0.443153 0.443153
0.470985 0.470985 0.470985
0.505562 0.505562 0.505562
0.54078 0.54078 0.54078
0.575097 0.575097 0.575097
0.608576 0.608576 0.608576
0.451789 0.451789 0.451789
0.478019 0.478019 0.478019
0.505104 0.505104 0.505104
0.531411 0.531411 0.531411
0.557366 0.557366 0.557366
0.59324 0.59324 0.59324
0.627008 0.627008 0.627008
0.660334 0.660334 0.660334
0.692607 0.692607 0.692607
0.538415 0.538415 0.538415
0.562615 0.562615 0.562615
0.588052 0.588052 0.588052
0.612619 0.612619 0.612619
0.635904 0.635904 0.635904
0.670207 0.670207 0.670207
0.707958 0.707958 0.707958
0.739025 0.739025 0.739025
0.769848 0.769848 0.769848
0.616953 0.616953 0.616953
0.63978 0.63978 0.63978
0.662806 0.662806 0.662806
0.685039 0.685039 0.685039
0.706279 0.706279 0.706279
0.738933 0.738933 0.738933
0.775326 0.775326 0.775326
0.810742 0.810742 0.810742
0.839246 0.839246 0.839246
0.687694 0.687694 0.687694
0.708232 0.708232 0.708232
0.729213 0.729213 0.729213
0.749752 0.749752 0.749752
0.76936 0.76936 0.76936
0.800214 0.800214 0.800214
0.835096 0.835096 0.835096
0.869093 0.869093 0.869093
0.902358 0.902358 0.902358
