bundles/resolve-cinematic-luts/Lens Distortions - Finishing LUTs/LD - Amber X 1.cube
TITLE "LD - Amber X 1"
# Copyright (c) Lens Distortions, LLC. All Rights Reserved.
# LensDistortions.com
# ref-AM6
LUT_3D_SIZE 9
0.0166629 0.0152132 0.0189822
0.104875 0.0155795 0.0196078
0.255085 0.0170901 0.0180209
0.39292 0.0189364 0.0189364
0.522606 0.0209049 0.0209201
0.650706 0.0230411 0.0230411
0.781445 0.0253452 0.0260624
0.913298 0.0277867 0.0282444
0.95021 0.0284886 0.0284886
0.0415503 0.105119 0.0476387
0.122255 0.100313 0.0333562
0.249165 0.106203 0.0207828
0.393668 0.105318 0.0225834
0.526558 0.10724 0.0246128
0.655451 0.111376 0.0268406
0.785824 0.115373 0.0292058
0.917647 0.118837 0.031693
0.954147 0.119493 0.0323796
0.0770733 0.231342 0.0846571
0.0902266 0.231693 0.076463
0.264073 0.239384 0.0603799
0.386603 0.246082 0.0284123
0.521385 0.251347 0.0305943
0.652674 0.25359 0.0327611
0.784573 0.255894 0.0350805
0.917082 0.25655 0.0374609
0.959991 0.25507 0.03888
0.112184 0.356207 0.123735
0.11458 0.352209 0.110048
0.200259 0.373938 0.101411
0.39588 0.377386 0.0832532
0.51957 0.379767 0.0359655
0.644022 0.386892 0.0382086
0.775769 0.387961 0.0404669
0.908034 0.386908 0.0427558
0.965515 0.383444 0.0436561
0.145663 0.475242 0.16347
0.143648 0.469139 0.142641
0.216648 0.484077 0.146502
0.331075 0.514595 0.0977188
0.520348 0.505928 0.103944
0.648997 0.503517 0.0431983
0.774639 0.506523 0.0454261
0.900359 0.510048 0.047776
0.970855 0.507698 0.0489662
0.177584 0.588693 0.201923
0.175296 0.581827 0.175479
0.233234 0.591959 0.180682
0.323735 0.614664 0.163821
0.459602 0.64303 0.115328
0.642725 0.627863 0.123552
0.778546 0.62237 0.0503548
0.909819 0.622705 0.0526741
0.975814 0.623453 0.0539101
0.208621 0.699046 0.236179
0.20618 0.691737 0.207721
0.246967 0.698573 0.211566
0.342168 0.719219 0.207492
0.437995 0.751095 0.158755
0.590753 0.770153 0.143465
0.769543 0.750118 0.143648
0.909514 0.744961 0.0732738
0.98085 0.740856 0.0598001
0.239628 0.809323 0.269169
0.237186 0.801953 0.242023
0.266789 0.806928 0.242023
0.360616 0.826795 0.244526
0.444511 0.853559 0.224186
0.56144 0.889632 0.174472
0.721126 0.896666 0.170336
0.900481 0.874708 0.163439
0.986587 0.870176 0.102312
0.263767 0.894987 0.293935
0.263111 0.893965 0.272251
0.28304 0.895338 0.266407
0.371466 0.90631 0.269718
0.454994 0.92192 0.254582
0.545159 0.947173 0.202075
0.67509 0.975265 0.179232
0.852796 0.989609 0.198093
0.990967 0.993591 0.189639
0.0174258 0.0226444 0.091722
0.104051 0.0162509 0.130297
0.246403 0.0176242 0.125322
0.381857 0.019379 0.123232
0.510933 0.0213321 0.126131
0.638636 0.0234531 0.129793
0.769146 0.025742 0.133455
0.900801 0.0281682 0.135439
0.950774 0.0291142 0.13489
0.0221866 0.107622 0.149065
0.0884413 0.102678 0.118029
0.223087 0.121187 0.111574
0.3561 0.137423 0.114031
0.495537 0.144869 0.120089
0.640101 0.130236 0.123812
0.776074 0.113848 0.12639
0.907042 0.115785 0.128054
0.954437 0.114992 0.127367
0.0672618 0.23682 0.141894
0.140047 0.225299 0.220981
0.292943 0.225711 0.166751
0.404288 0.23595 0.126879
0.520424 0.246784 0.126009
0.648585 0.250568 0.120211
0.78291 0.247807 0.117784
0.913649 0.247959 0.119905
0.960052 0.246326 0.119814
0.107698 0.360189 0.182101
0.20737 0.348486 0.316213
0.280964 0.355245 0.268009
0.45536 0.352255 0.20351
0.532448 0.372534 0.121187
0.647501 0.38085 0.108431
0.777874 0.380011 0.106798
0.909819 0.377752 0.107622
0.965515 0.375189 0.109087
0.142382 0.478035 0.222782
0.250782 0.472267 0.330861
0.248981 0.478706 0.272297
0.396658 0.498878 0.259449
0.563272 0.487755 0.226017
0.649287 0.501534 0.110613
0.773678 0.503288 0.100679
0.902312 0.503532 0.0995193
0.97081 0.500175 0.101213
0.174868 0.590524 0.260716
0.214206 0.585382 0.253956
0.248524 0.590387 0.226017
0.332662 0.609766 0.213321
0.492241 0.632761 0.256764
0.658213 0.618906 0.235691
0.777188 0.621622 0.127993
0.909194 0.619364 0.0991836
0.975906 0.62002 0.097261
0.206622 0.700389 0.294163
0.238926 0.694835 0.282383
0.260853 0.697551 0.247822
0.345251 0.715297 0.242115
0.446265 0.742763 0.233707
0.595789 0.764996 0.253162
0.769863 0.74641 0.241611
0.90753 0.744396 0.157733
0.981033 0.7393 0.105364
0.238239 0.810285 0.32546
0.264317 0.804852 0.311208
0.282811 0.80647 0.277089
0.358938 0.823255 0.269963
0.443595 0.849317 0.251774
0.569772 0.881163 0.267887
0.719127 0.893645 0.266392
0.896376 0.872267 0.254932
0.987015 0.86923 0.189731
0.263371 0.898207 0.350561
0.286458 0.898131 0.336538
0.300145 0.897231 0.299229
0.365332 0.904768 0.28838
0.450324 0.91986 0.270695
0.552987 0.941817 0.268757
0.680201 0.972335 0.277882
0.848524 0.989685 0.286183
0.991501 0.993973 0.27686
0.0182193 0.0209049 0.242817
0.0991836 0.0187686 0.242023
0.244388 0.0184634 0.267536
0.380087 0.0202029 0.265003
0.507118 0.0221103 0.266804
0.632059 0.024155 0.269978
0.760952 0.0264134 0.273854
0.890776 0.0287938 0.275883
0.946288 0.0298466 0.275685
0.0222934 0.101549 0.278813
0.0583963 0.113451 0.188586
0.239704 0.108782 0.262196
0.377218 0.113741 0.25182
0.509667 0.123537 0.218128
0.636515 0.120974 0.245777
0.764141 0.117067 0.26952
0.894774 0.119539 0.271031
0.95494 0.118532 0.270115
0.0319677 0.248341 0.271489
0.112322 0.219974 0.288457
0.229679 0.240177 0.25861
0.365118 0.256107 0.244556
0.484199 0.270619 0.246265
0.609812 0.282643 0.249836
0.740032 0.291539 0.255756
0.883391 0.28278 0.259907
0.960861 0.248188 0.262989
0.0726482 0.374166 0.263035
0.158618 0.35378 0.372183
0.274052 0.360311 0.3299
0.410285 0.368032 0.299306
0.530755 0.373037 0.263416
0.646097 0.379492 0.261402
0.765942 0.385611 0.261494
0.896147 0.385687 0.256184
0.966232 0.374731 0.24889
0.117723 0.489723 0.298817
0.224933 0.48127 0.395697
0.336263 0.469947 0.404135
0.411475 0.484947 0.365927
0.5552 0.487999 0.329885
0.667292 0.493294 0.260426
0.77734 0.500511 0.250736
0.902586 0.501427 0.244282
0.971496 0.499046 0.237232
0.158022 0.599939 0.333974
0.218509 0.592645 0.340963
0.37203 0.580575 0.437201
0.391806 0.593133 0.393805
0.516472 0.622782 0.36257
0.661646 0.615518 0.339452
0.785611 0.617502 0.251164
0.907225 0.620569 0.236576
0.976761 0.623087 0.229923
0.195239 0.707774 0.364828
0.237552 0.700404 0.360357
0.373922 0.696101 0.430655
0.388998 0.70724 0.387579
0.472236 0.72723 0.373037
0.602228 0.757839 0.364309
0.769589 0.744533 0.343618
0.907591 0.743389 0.267231
0.981842 0.742092 0.232715
0.230396 0.816342 0.394247
0.263905 0.809415 0.388373
0.371908 0.809644 0.415198
0.404868 0.819776 0.384817
0.482444 0.840345 0.379889
0.582391 0.867796 0.384405
0.718593 0.891661 0.371679
0.893034 0.871321 0.354559
0.987579 0.869001 0.293126
0.257496 0.904295 0.418738
0.286641 0.903609 0.413245
0.387854 0.907301 0.431052
0.417456 0.907546 0.397238
0.490578 0.915328 0.393332
0.566918 0.929335 0.38085
0.68838 0.964614 0.389807
0.845197 0.989639 0.382925
0.992081 0.994339 0.373983
0.0191348 0.0254215 0.364431
0.105989 0.0257267 0.349905
0.238346 0.0191196 0.384054
0.379355 0.0210269 0.398367
0.507271 0.0229191 0.400214
0.631937 0.0249485 0.40296
0.75848 0.0271458 0.405386
0.886732 0.0294957 0.407813
0.941222 0.030518 0.407706
0.0231479 0.106004 0.398367
0.0577554 0.141649 0.258366
0.229236 0.113436 0.365713
0.378424 0.109331 0.397955
0.5075 0.111894 0.39939
0.631144 0.120119 0.397208
0.757931 0.119661 0.402975
0.88661 0.122164 0.404883
0.951751 0.121813 0.404623
0.0300603 0.236545 0.439567
0.0848859 0.232517 0.372503
0.191135 0.235935 0.3346
0.376425 0.2495 0.392966
0.508095 0.250019 0.39559
0.632074 0.263264 0.353155
0.764691 0.2645 0.337942
0.893202 0.261326 0.364797
0.960739 0.251698 0.401572
0.0415656 0.38323 0.407767
0.143847 0.352758 0.452003
0.24004 0.349813 0.40238
0.368719 0.374762 0.393439
0.503548 0.385336 0.385931
0.619135 0.394247 0.379507
0.741558 0.400626 0.381338
0.875914 0.399084 0.381933
0.967025 0.375967 0.391257
0.0768292 0.505241 0.388815
0.194675 0.486519 0.481666
0.282353 0.479942 0.462654
0.403235 0.486381 0.434791
0.517388 0.50132 0.418631
0.645869 0.502373 0.389776
0.767468 0.503761 0.387228
0.894423 0.504112 0.384848
0.972213 0.498146 0.379705
0.119097 0.614099 0.412909
0.230671 0.604395 0.452369
0.342626 0.591043 0.488319
0.441016 0.587686 0.480171
0.503182 0.607111 0.459907
0.649134 0.618891 0.44062
0.780041 0.619425 0.384634
0.901671 0.622812 0.376135
0.977508 0.622751 0.371511
0.165118 0.720699 0.439643
0.232151 0.712184 0.441764
0.36524 0.703029 0.49192
0.46096 0.695323 0.498177
0.505455 0.712947 0.477317
0.605737 0.74461 0.468727
0.76582 0.74493 0.449271
0.906767 0.743709 0.382605
0.982712 0.745083 0.36907
0.207523 0.828153 0.469902
0.261311 0.820447 0.468925
0.371069 0.815366 0.489601
0.473716 0.810208 0.507988
0.517296 0.827924 0.49041
0.592065 0.849638 0.486931
0.716518 0.88571 0.481605
0.889616 0.871305 0.460182
0.98822 0.869902 0.40441
0.239796 0.915297 0.493523
0.28542 0.913725 0.493431
0.388937 0.912306 0.508751
0.490196 0.90808 0.522988
0.529702 0.909117 0.502174
0.597025 0.917769 0.497841
0.698161 0.950545 0.503487
0.84239 0.989151 0.487861
0.992691 0.994217 0.478202
0.024094 0.0318761 0.477821
0.115358 0.0327306 0.456382
0.238392 0.027039 0.480034
0.375967 0.0216983 0.513451
0.507469 0.0236973 0.524071
0.632807 0.0257267 0.526925
0.759258 0.0279088 0.528862
0.886732 0.0302434 0.531121
0.940612 0.0312505 0.530678
0.0241093 0.11284 0.511513
0.084535 0.16405 0.37293
0.209506 0.140398 0.450309
0.371649 0.115221 0.50695
0.507393 0.113527 0.524453
0.632227 0.117388 0.526543
0.75761 0.121462 0.52781
0.884337 0.124193 0.529213
0.950607 0.123995 0.528756
0.0303655 0.234272 0.551125
0.0903029 0.246082 0.447791
0.165637 0.256733 0.387488
0.362158 0.245823 0.487633
0.50721 0.251942 0.522744
0.633753 0.251972 0.527352
0.754955 0.262333 0.513664
0.883314 0.264775 0.507683
0.957992 0.254566 0.526787
0.0379797 0.370642 0.588556
0.0805676 0.361196 0.554482
0.212009 0.348409 0.49102
0.351843 0.364843 0.485817
0.505608 0.384039 0.518593
0.632776 0.382483 0.524208
0.753353 0.389975 0.498833
0.88484 0.388678 0.487861
0.966094 0.379171 0.520684
0.0506294 0.511406 0.538949
0.165652 0.484352 0.576516
0.262379 0.469459 0.537316
0.368414 0.481849 0.516518
0.498894 0.501335 0.519768
0.633341 0.506569 0.516442
0.755627 0.508919 0.508736
0.887877 0.50631 0.50631
0.972992 0.499931 0.514809
0.0973678 0.628885 0.507515
0.221271 0.613825 0.555962
0.305547 0.603891 0.555123
0.406363 0.599405 0.542473
0.521538 0.607813 0.540963
0.630991 0.626535 0.534249
0.766384 0.625742 0.510857
0.896193 0.624735 0.509667
0.97821 0.622202 0.507973
0.132403 0.736233 0.521096
0.225589 0.726101 0.528954
0.346227 0.71368 0.558343
0.449439 0.703182 0.559396
0.545754 0.709361 0.569604
0.608545 0.731929 0.564263
0.760113 0.747692 0.551934
0.899886 0.747478 0.509896
0.983597 0.749035 0.500679
0.174929 0.842878 0.544518
0.256611 0.834028 0.549584
0.367422 0.82446 0.564538
0.471412 0.81648 0.577569
0.563104 0.811612 0.586633
0.619608 0.834821 0.584619
0.720729 0.871595 0.588159
0.886519 0.872877 0.567651
0.988891 0.871778 0.513954
0.208789 0.929412 0.56556
0.283467 0.926879 0.572106
0.387717 0.921706 0.584024
0.491356 0.913787 0.597192
0.584451 0.907271 0.608652
0.629404 0.909346 0.598367
0.704326 0.928145 0.599283
0.842039 0.987793 0.594614
0.993301 0.994492 0.580453
0.0326848 0.0395972 0.586267
0.126772 0.0412757 0.562234
0.243687 0.0379644 0.573388
0.375219 0.0289311 0.612955
0.505074 0.0243839 0.641886
0.633265 0.0264897 0.649058
0.75967 0.0286717 0.651377
0.887663 0.0309911 0.653346
0.942077 0.0320134 0.653086
0.0251316 0.121141 0.621149
0.107958 0.177401 0.508659
0.215015 0.152697 0.554543
0.365515 0.132082 0.594675
0.50312 0.117174 0.638209
0.632425 0.119844 0.64889
0.758251 0.122988 0.650477
0.885069 0.125582 0.651301
0.951064 0.125185 0.650675
0.0311284 0.239384 0.659403
0.105745 0.253727 0.580926
0.163973 0.284459 0.451331
0.275898 0.273594 0.5738
0.499535 0.252049 0.630137
0.632563 0.255207 0.648508
0.75877 0.255238 0.650202
0.883879 0.257832 0.648829
0.957519 0.255604 0.648432
0.0379339 0.365774 0.701381
0.085832 0.36231 0.64715
0.203128 0.365713 0.555474
0.302266 0.372763 0.52398
0.489265 0.376745 0.609293
0.629694 0.385214 0.644266
0.756237 0.383124 0.647181
0.878798 0.38616 0.638987
0.96405 0.381201 0.642847
0.0455634 0.496681 0.743648
0.0643015 0.488396 0.71548
0.225391 0.470802 0.659617
0.33817 0.459709 0.601953
0.488334 0.489815 0.612879
0.629709 0.507378 0.644358
0.755962 0.505714 0.644953
0.880781 0.507027 0.63444
0.971298 0.503166 0.641138
0.0590219 0.632593 0.665675
0.166796 0.614618 0.672328
0.273793 0.596414 0.656229
0.376104 0.587213 0.630549
0.489418 0.605447 0.630518
0.623362 0.624033 0.64332
0.761074 0.6271 0.64213
0.890547 0.626276 0.638132
0.978988 0.624063 0.640162
0.111269 0.749554 0.630961
0.214206 0.738293 0.631678
0.321706 0.726223 0.634653
0.419272 0.71632 0.629297
0.529854 0.719158 0.638376
0.641581 0.732067 0.657221
0.755306 0.751675 0.655756
0.893004 0.751583 0.632288
0.984344 0.749935 0.631952
0.151934 0.859632 0.627909
0.239048 0.849409 0.629099
0.350393 0.837308 0.638987
0.458808 0.824781 0.646342
0.55993 0.818433 0.655619
0.663081 0.835111 0.681849
0.730266 0.859266 0.684047
0.884764 0.875624 0.67216
0.989685 0.875395 0.630533
0.182284 0.944381 0.644022
0.27097 0.941283 0.6495
0.379583 0.932769 0.658534
0.487007 0.922744 0.668421
0.584604 0.913527 0.680095
0.680201 0.922103 0.700648
0.736019 0.93019 0.697536
0.844617 0.977386 0.702571
0.993896 0.995056 0.688228
0.0409247 0.0477607 0.696925
0.137118 0.0496834 0.669963
0.252003 0.0495308 0.671214
0.374945 0.0395056 0.707942
0.503227 0.0294499 0.747707
0.632074 0.0272374 0.772015
0.759991 0.0294499 0.776257
0.88809 0.0317693 0.778653
0.943572 0.0328069 0.778332
0.0270695 0.129732 0.732341
0.127947 0.182452 0.643885
0.228092 0.160372 0.66125
0.365179 0.147387 0.683528
0.498192 0.130968 0.735836
0.629648 0.121523 0.769726
0.758083 0.124178 0.774731
0.885313 0.126757 0.776272
0.951751 0.125795 0.775341
0.0320287 0.246021 0.769757
0.117861 0.254139 0.71783
0.180621 0.308629 0.539788
0.257465 0.301289 0.650401
0.489296 0.262806 0.71426
0.627176 0.255467 0.765774
0.757778 0.256641 0.77438
0.884062 0.257069 0.774731
0.958175 0.256001 0.773159
0.0382696 0.364202 0.813886
0.0929885 0.362432 0.775677
0.210544 0.380972 0.634882
0.286 0.389288 0.58291
0.435203 0.386542 0.675456
0.619226 0.382452 0.752071
0.753964 0.384985 0.769406
0.880537 0.382696 0.770413
0.96434 0.381476 0.767285
0.0453193 0.490608 0.866392
0.0688487 0.483299 0.829816
0.222339 0.47895 0.731334
0.327443 0.464714 0.673381
0.454261 0.488914 0.674678
0.610819 0.500206 0.733486
0.753323 0.507134 0.768627
0.880079 0.505043 0.768917
0.970382 0.504158 0.766094
0.0531777 0.621469 0.876326
0.0749981 0.609049 0.856306
0.221378 0.588418 0.823667
0.345937 0.57026 0.758282
0.465675 0.57583 0.726299
0.611475 0.611292 0.736858
0.756252 0.628107 0.77319
0.883803 0.627298 0.77145
0.976822 0.627008 0.768963
0.0671397 0.751675 0.792142
0.161822 0.738827 0.781079
0.275792 0.721798 0.76936
0.381353 0.7066 0.745403
0.491096 0.711543 0.741817
0.609567 0.73019 0.753079
0.750683 0.74995 0.770031
0.889235 0.752102 0.769421
0.985107 0.750912 0.768399
0.122255 0.871336 0.757351
0.214786 0.860822 0.747723
0.324712 0.849241 0.740383
0.43331 0.838224 0.728328
0.537972 0.832044 0.730556
0.652461 0.844099 0.754925
0.767697 0.859144 0.782864
0.883452 0.878721 0.781598
0.990555 0.879194 0.758709
0.162005 0.958206 0.734081
0.252491 0.955871 0.73434
0.356786 0.947448 0.737011
0.466453 0.936126 0.742351
0.571283 0.924132 0.751247
0.677913 0.930816 0.773785
0.784482 0.947982 0.802396
0.853559 0.963149 0.804913
0.994598 0.995865 0.798505
0.0487221 0.0548104 0.808316
0.147463 0.0582742 0.779538
0.260075 0.0593881 0.772793
0.377584 0.0509194 0.802838
0.501701 0.0406043 0.847166
0.628016 0.029984 0.883818
0.75938 0.0302129 0.901717
0.888136 0.0325628 0.90518
0.945068 0.0336156 0.904814
0.0347143 0.137133 0.843107
0.142535 0.170214 0.781552
0.245411 0.163912 0.766476
0.373129 0.154803 0.778927
0.494682 0.144839 0.827085
0.623987 0.130983 0.874632
0.756313 0.126207 0.898878
0.884978 0.127855 0.902525
0.952438 0.126528 0.901503
0.0328374 0.25034 0.88217
0.127016 0.252506 0.843153
0.215869 0.320439 0.668559
0.293675 0.293355 0.771237
0.472908 0.282765 0.78822
0.618357 0.263172 0.86009
0.754803 0.258396 0.897276
0.883024 0.257908 0.900587
0.958846 0.256397 0.899214
0.0389105 0.366796 0.927245
0.105165 0.366613 0.885863
0.230518 0.39089 0.750973
0.288243 0.412146 0.658488
0.381888 0.403891 0.769787
0.607324 0.386679 0.83415
0.748577 0.384588 0.890242
0.878386 0.383993 0.895384
0.964996 0.381506 0.893736
0.0453651 0.486763 0.960174
0.0797131 0.479942 0.935424
0.228382 0.479637 0.834669
0.326055 0.481971 0.755642
0.428885 0.492546 0.737575
0.581842 0.502113 0.801221
0.740337 0.503777 0.876097
0.878401 0.505425 0.894835
0.971038 0.504097 0.893263
0.0522469 0.607889 0.965225
0.0533761 0.599481 0.964874
0.211856 0.586389 0.937835
0.327077 0.576928 0.86392
0.444327 0.567239 0.809537
0.585779 0.603342 0.823148
0.736599 0.621668 0.862501
0.882322 0.627695 0.89926
0.977142 0.627298 0.897322
0.0607614 0.741207 0.97081
0.0894331 0.729198 0.97052
0.220905 0.711742 0.951156
0.345068 0.689906 0.913283
0.46128 0.673396 0.857877
0.587915 0.696742 0.852735
0.735882 0.736385 0.863844
0.884962 0.75288 0.902876
0.983322 0.752667 0.900053
0.0754253 0.872312 0.920882
0.166217 0.860243 0.90544
0.277852 0.845014 0.888609
0.387427 0.829313 0.866651
0.496773 0.819165 0.85037
0.611658 0.836973 0.864027
0.734707 0.856626 0.88072
0.87953 0.878157 0.89839
0.990402 0.879499 0.899016
0.122728 0.972107 0.886015
0.21709 0.969879 0.874281
0.325109 0.961288 0.86183
0.436896 0.94995 0.848753
0.544488 0.938033 0.836881
0.655482 0.946807 0.852415
0.772763 0.960067 0.878767
0.892134 0.974258 0.908141
0.99527 0.99675 0.910948
0.054551 0.0605173 0.856703
0.155138 0.063798 0.834318
0.266285 0.064744 0.829816
0.381842 0.0581979 0.853956
0.502937 0.0466621 0.891844
0.629099 0.0348821 0.921569
0.75787 0.0304265 0.939147
0.887709 0.0328069 0.946532
0.946136 0.0339055 0.948653
0.0425269 0.144411 0.900481
0.151644 0.158221 0.86775
0.265568 0.161715 0.843168
0.378454 0.1626 0.850172
0.494667 0.15346 0.886885
0.622644 0.140566 0.929458
0.754147 0.12842 0.949126
0.883909 0.127703 0.953857
0.952728 0.127672 0.955215
0.033341 0.254536 0.936355
0.134554 0.257298 0.911742
0.262913 0.267491 0.867628
0.3794 0.273579 0.849348
0.490684 0.275257 0.870283
0.614893 0.269947 0.918807
0.750011 0.261128 0.95317
0.881392 0.257939 0.960067
0.959121 0.256413 0.961639
0.0391546 0.369207 0.955306
0.114382 0.37026 0.936965
0.248631 0.369253 0.904158
0.372961 0.375402 0.860746
0.487739 0.385809 0.855238
0.603967 0.389883 0.893446
0.740322 0.386587 0.947387
0.876356 0.3832 0.965866
0.965316 0.38117 0.967849
0.0452888 0.485267 0.960113
0.0840925 0.479026 0.948577
0.231266 0.474113 0.917235
0.361212 0.471901 0.884535
0.480079 0.480156 0.857969
0.596841 0.496071 0.869108
0.728893 0.503441 0.927825
0.875517 0.506081 0.971527
0.971405 0.504051 0.973953
0.0521096 0.605753 0.965133
0.0552377 0.597681 0.964813
0.213581 0.58558 0.938582
0.346227 0.567864 0.88893
0.465095 0.566751 0.866133
0.601968 0.601144 0.891661
0.727962 0.619318 0.91545
0.878111 0.628885 0.975982
0.977523 0.62739 0.980087
0.0594339 0.722057 0.970016
0.0589914 0.715312 0.969726
0.196948 0.704875 0.96112
0.338003 0.688563 0.92491
0.455924 0.669078 0.881437
0.584665 0.689738 0.897475
0.731868 0.730571 0.927977
0.872557 0.749447 0.967437
0.983734 0.752972 0.986313
0.0710613 0.862181 0.975555
0.119646 0.85124 0.975631
0.23798 0.836225 0.961501
0.355871 0.817426 0.939742
0.464485 0.794751 0.911269
0.586084 0.811017 0.927489
0.7178 0.832441 0.943114
0.869291 0.867903 0.965087
0.990051 0.879866 0.992615
0.0988937 0.977066 0.976944
0.187472 0.973373 0.97293
0.295613 0.962295 0.96202
0.40621 0.947997 0.948043
0.511208 0.932769 0.932677
0.625437 0.946593 0.946548
0.747372 0.964294 0.964401
0.874311 0.982269 0.982223
0.994751 0.997223 0.997253
