bundles/resolve-cinematic-luts/Lens Distortions - Finishing LUTs/LD - Metallic Rose 2.cube
TITLE "LD - Metallic Rose 2"
# Copyright (c) Lens Distortions, LLC. All Rights Reserved.
# LensDistortions.com
# ref-MR1
LUT_3D_SIZE 33
0.00801099 0.00810254 0.00851453
0.0163272 0.0108034 0.0124208
0.0279698 0.0136568 0.0173495
0.0425269 0.0155337 0.0218357
0.0601358 0.0166018 0.026215
0.0810559 0.0172122 0.0314031
0.103838 0.0171206 0.0366064
0.133104 0.0182193 0.0453498
0.177111 0.0201114 0.0602884
0.221775 0.0222934 0.0780346
0.265003 0.0244297 0.095552
0.307012 0.0271611 0.113069
0.3467 0.0301671 0.12929
0.383536 0.0336156 0.144518
0.414878 0.0374151 0.157473
0.445502 0.0412604 0.170001
0.476204 0.0451972 0.18233
0.508019 0.0494545 0.194675
0.539818 0.0537728 0.20647
0.572457 0.0582284 0.218555
0.605951 0.0630655 0.230365
0.639719 0.0678416 0.241962
0.673548 0.0724346 0.253178
0.707103 0.0766461 0.263737
0.740703 0.0808423 0.274067
0.773816 0.0846418 0.283726
0.805997 0.0884718 0.293431
0.836789 0.0919051 0.302266
0.866667 0.0953231 0.310979
0.895216 0.0986801 0.319188
0.922896 0.101442 0.326925
0.94818 0.104311 0.334142
0.964233 0.106035 0.338781
0.0221408 0.0277409 0.0255283
0.0265049 0.0309453 0.0249943
0.0399023 0.0323949 0.0247959
0.0552377 0.0350195 0.0274815
0.0720226 0.0367285 0.030396
0.0906233 0.0376287 0.0334173
0.110643 0.0359503 0.0357519
0.138125 0.0376135 0.0440223
0.180972 0.0399939 0.0585641
0.22443 0.0425422 0.0761883
0.266133 0.0451514 0.0935378
0.306737 0.0483406 0.11075
0.344717 0.051957 0.126925
0.380346 0.0558633 0.142214
0.411566 0.0596628 0.1552
0.442145 0.0634775 0.16788
0.473136 0.0675822 0.180087
0.505013 0.0717479 0.192493
0.536828 0.0759747 0.204761
0.569512 0.0799725 0.216632
0.603311 0.0842451 0.228534
0.636942 0.0881361 0.240223
0.670802 0.0921645 0.25127
0.704341 0.0957656 0.262074
0.737987 0.0995041 0.272419
0.771328 0.102983 0.282277
0.803449 0.106249 0.291646
0.834546 0.109499 0.300969
0.864302 0.112535 0.30956
0.892882 0.115373 0.317891
0.920821 0.118166 0.325628
0.945754 0.120699 0.332906
0.961807 0.122255 0.337331
0.0347753 0.0525673 0.0446479
0.0367895 0.0539712 0.0399481
0.0437934 0.0579385 0.0393988
0.0632029 0.0568093 0.0329595
0.0761273 0.0593881 0.0369726
0.091783 0.0623789 0.0404974
0.109621 0.0647135 0.0444343
0.13666 0.0675517 0.050782
0.180224 0.0693065 0.0614481
0.224491 0.0664378 0.0724956
0.26508 0.0698558 0.0906691
0.303838 0.0738231 0.107942
0.341268 0.0778821 0.124392
0.376928 0.0815442 0.139605
0.408133 0.085008 0.152895
0.43856 0.0882582 0.165347
0.469795 0.0917983 0.177783
0.501747 0.0953384 0.190509
0.5337 0.0987869 0.202411
0.566415 0.102403 0.214542
0.600198 0.106081 0.226658
0.634028 0.109438 0.238163
0.667781 0.112978 0.249531
0.701534 0.116197 0.260212
0.734997 0.119463 0.270558
0.76846 0.122652 0.280552
0.800671 0.125505 0.289891
0.831876 0.128466 0.299016
0.861814 0.131304 0.307973
0.890623 0.134005 0.316304
0.918273 0.136278 0.323949
0.943008 0.138476 0.331136
0.959121 0.139895 0.335576
0.0480201 0.0780804 0.0638895
0.0495613 0.0784161 0.0581369
0.0509194 0.082063 0.0523079
0.0606394 0.0850843 0.053254
0.0828565 0.0834363 0.0443122
0.0980697 0.0843061 0.0447395
0.112322 0.0872816 0.0498512
0.13547 0.092134 0.0567941
0.176165 0.0968643 0.0690776
0.217456 0.101167 0.0837873
0.26067 0.0979934 0.0928054
0.301122 0.0973068 0.105974
0.338506 0.100923 0.122713
0.373999 0.104204 0.137896
0.405081 0.107256 0.151003
0.435889 0.110216 0.163699
0.467094 0.113191 0.176013
0.498924 0.11632 0.188785
0.531044 0.119524 0.20087
0.563561 0.122499 0.212833
0.59736 0.125765 0.224979
0.631266 0.128954 0.236454
0.664973 0.131945 0.247852
0.698817 0.135027 0.258549
0.732265 0.137926 0.268986
0.76582 0.140719 0.278996
0.798138 0.143587 0.288457
0.829557 0.146212 0.297734
0.859327 0.148577 0.306249
0.88806 0.151095 0.314656
0.916075 0.153368 0.322621
0.940459 0.155367 0.329641
0.956603 0.15668 0.334112
0.0626841 0.104463 0.0855268
0.0637064 0.104311 0.079118
0.0646982 0.106157 0.072755
0.0664683 0.110063 0.0666972
0.0775616 0.112062 0.0685435
0.0989853 0.111681 0.0657359
0.120699 0.109697 0.0523232
0.138338 0.113848 0.062623
0.173617 0.121126 0.076051
0.213352 0.126009 0.0902571
0.252613 0.130358 0.10425
0.292287 0.133471 0.117418
0.33373 0.127443 0.123445
0.370764 0.127291 0.135683
0.401633 0.13019 0.148882
0.432258 0.132692 0.16144
0.463584 0.135485 0.174182
0.495583 0.138277 0.186725
0.527764 0.141131 0.19884
0.560098 0.143832 0.210864
0.594095 0.146715 0.222965
0.627894 0.149706 0.234882
0.661631 0.152377 0.245762
0.695445 0.155154 0.256916
0.729168 0.157885 0.26717
0.76228 0.160327 0.277028
0.794995 0.162799 0.286763
0.826215 0.165331 0.295796
0.856245 0.167681 0.304494
0.885191 0.16968 0.312856
0.912825 0.171923 0.320912
0.937423 0.173678 0.327733
0.953628 0.174853 0.332448
0.0799573 0.131167 0.108385
0.080766 0.130739 0.102327
0.0818952 0.131838 0.0972915
0.0828412 0.134066 0.0911269
0.084596 0.13753 0.0848554
0.0965286 0.139391 0.0869001
0.113603 0.140154 0.0880598
0.148257 0.136767 0.0645609
0.175906 0.142901 0.0826581
0.210452 0.150057 0.0969558
0.248432 0.154986 0.110552
0.286549 0.159258 0.123934
0.323964 0.163226 0.137407
0.361364 0.164233 0.147646
0.395666 0.15935 0.152422
0.428763 0.156008 0.159197
0.460014 0.158679 0.171862
0.491798 0.161334 0.184543
0.523903 0.163958 0.196918
0.556466 0.166415 0.208743
0.59028 0.169116 0.221027
0.624247 0.171786 0.232776
0.657725 0.174212 0.243778
0.691691 0.176684 0.254871
0.725216 0.179217 0.265324
0.758618 0.181521 0.27509
0.791135 0.183719 0.284779
0.822614 0.185977 0.293996
0.852827 0.188159 0.30277
0.881666 0.190265 0.31104
0.909514 0.192035 0.318959
0.934203 0.193744 0.325872
0.950591 0.19501 0.330755
0.0995193 0.1579 0.131441
0.100114 0.157321 0.126009
0.100755 0.158114 0.121416
0.10161 0.159472 0.116411
0.102449 0.161425 0.110796
0.103761 0.164675 0.10425
0.115465 0.166842 0.106325
0.141039 0.167803 0.107271
0.184833 0.165881 0.0856794
0.213199 0.172 0.10341
0.245869 0.178576 0.11693
0.282292 0.18378 0.130419
0.318975 0.188159 0.143328
0.354574 0.19176 0.155505
0.38558 0.19498 0.166186
0.416892 0.196811 0.175418
0.451911 0.192355 0.180148
0.487068 0.187167 0.184405
0.520104 0.187213 0.19443
0.55256 0.189792 0.206561
0.586435 0.192264 0.218967
0.620218 0.194812 0.230701
0.653773 0.197009 0.241886
0.687541 0.199359 0.252796
0.721202 0.201648 0.26334
0.75436 0.203708 0.273198
0.787228 0.205798 0.282765
0.818769 0.207889 0.292012
0.848997 0.210025 0.300908
0.878096 0.211963 0.309285
0.905821 0.213642 0.317266
0.930724 0.215091 0.324178
0.947234 0.216342 0.328923
0.118715 0.184466 0.15462
0.119371 0.184054 0.149874
0.119738 0.184405 0.145342
0.12047 0.185183 0.141085
0.120836 0.186236 0.136049
0.121813 0.188708 0.130419
0.123369 0.19205 0.123949
0.140352 0.195041 0.126665
0.186908 0.193652 0.111589
0.22089 0.195041 0.107851
0.249378 0.200977 0.123766
0.280659 0.206928 0.136645
0.314687 0.212268 0.149096
0.34963 0.21648 0.161318
0.380377 0.219928 0.171893
0.410773 0.222827 0.182132
0.442084 0.226017 0.192294
0.474052 0.228962 0.202747
0.509285 0.225605 0.20763
0.545327 0.220768 0.211963
0.582559 0.215869 0.216602
0.616327 0.21825 0.228382
0.649699 0.220478 0.23975
0.683528 0.222675 0.250828
0.716945 0.224918 0.261326
0.75024 0.226871 0.271183
0.78323 0.22884 0.280934
0.814694 0.230854 0.290089
0.845121 0.232746 0.298909
0.874128 0.234623 0.307424
0.902113 0.236072 0.315373
0.927123 0.237491 0.322286
0.943679 0.238682 0.327031
0.137896 0.211185 0.177661
0.138186 0.210575 0.173129
0.138354 0.210727 0.16875
0.138918 0.211337 0.164981
0.139696 0.212131 0.161074
0.139956 0.213352 0.155596
0.141176 0.216022 0.150088
0.146715 0.220279 0.143313
0.173999 0.22504 0.148562
0.230823 0.218784 0.11104
0.256229 0.224063 0.129244
0.284581 0.229786 0.143832
0.314412 0.235294 0.155535
0.345892 0.24062 0.167529
0.376013 0.24416 0.177707
0.405982 0.247623 0.187869
0.436896 0.250904 0.198093
0.468238 0.253849 0.208057
0.500023 0.256916 0.218189
0.532753 0.2598 0.228229
0.568551 0.258747 0.235172
0.605966 0.254444 0.239231
0.643214 0.249912 0.243351
0.679591 0.246403 0.248631
0.713039 0.248539 0.259113
0.746059 0.250416 0.269047
0.779004 0.252354 0.278996
0.810697 0.254246 0.288167
0.841016 0.256138 0.297017
0.870268 0.257877 0.305425
0.898314 0.259251 0.313436
0.923461 0.260639 0.320516
0.940063 0.261738 0.325368
0.157336 0.238132 0.201083
0.157565 0.23743 0.196765
0.157626 0.237385 0.192599
0.158007 0.237766 0.189014
0.158572 0.238376 0.185351
0.15906 0.239109 0.181033
0.159457 0.240726 0.175357
0.160952 0.244785 0.166598
0.180117 0.250004 0.165408
0.221332 0.251148 0.164126
0.266972 0.246983 0.12958
0.290791 0.25301 0.149691
0.318547 0.258396 0.162844
0.347143 0.263508 0.173968
0.372839 0.268513 0.183963
0.40177 0.272145 0.19379
0.432044 0.275578 0.203952
0.462989 0.278874 0.213779
0.494728 0.282048 0.223941
0.527062 0.285237 0.233982
0.560082 0.288075 0.243717
0.593912 0.290944 0.253544
0.627878 0.292714 0.262119
0.665095 0.289036 0.266194
0.701885 0.284947 0.269871
0.73875 0.280766 0.273426
0.775143 0.27628 0.276661
0.806638 0.278218 0.286107
0.837156 0.280003 0.295064
0.866392 0.281437 0.303456
0.894408 0.283146 0.311513
0.919829 0.284474 0.318547
0.936355 0.285481 0.32343
0.176394 0.265126 0.224247
0.176562 0.264424 0.220188
0.176532 0.264271 0.216236
0.176822 0.264546 0.212879
0.177172 0.264897 0.209308
0.177737 0.265415 0.205493
0.178103 0.266194 0.200595
0.179126 0.269383 0.192203
0.18706 0.275822 0.182574
0.213077 0.280156 0.187304
0.263661 0.277577 0.170428
0.301656 0.275669 0.149767
0.324804 0.281804 0.1691
0.351308 0.28687 0.181292
0.376135 0.291203 0.190799
0.401007 0.295689 0.200092
0.428275 0.299931 0.209781
0.458747 0.30367 0.219852
0.489845 0.307149 0.229648
0.521309 0.310307 0.239368
0.554437 0.313481 0.249516
0.587869 0.316564 0.259098
0.620844 0.319203 0.268482
0.654108 0.321935 0.277577
0.687083 0.324575 0.286366
0.722042 0.324254 0.29247
0.758587 0.320882 0.29601
0.793851 0.317266 0.299245
0.828031 0.31368 0.302617
0.860319 0.309804 0.305165
0.890913 0.307362 0.309468
0.916365 0.308721 0.316686
0.932845 0.309606 0.321324
0.195453 0.291829 0.247211
0.19556 0.291112 0.243351
0.195514 0.290929 0.239658
0.195682 0.291035 0.236179
0.195865 0.291203 0.232944
0.196231 0.291585 0.22916
0.19678 0.29218 0.225238
0.197345 0.294301 0.217288
0.199771 0.300725 0.204486
0.219669 0.305577 0.204349
0.250187 0.309041 0.208225
0.304067 0.304204 0.172793
0.335454 0.304372 0.169146
0.357305 0.310277 0.187274
0.380331 0.314549 0.197955
0.404623 0.318669 0.207019
0.429953 0.323323 0.216388
0.456092 0.328206 0.226184
0.485405 0.331594 0.235355
0.516716 0.33518 0.245212
0.549172 0.338659 0.2551
0.581933 0.341711 0.264836
0.614908 0.344808 0.274022
0.647791 0.347707 0.283116
0.680446 0.350195 0.291859
0.713298 0.352789 0.300298
0.745937 0.355261 0.308431
0.778134 0.357549 0.316335
0.81091 0.357305 0.321721
0.843809 0.354406 0.324895
0.87538 0.351354 0.327703
0.904051 0.348409 0.330419
0.922606 0.346227 0.331838
0.214511 0.318944 0.270481
0.214496 0.318273 0.266529
0.214359 0.318059 0.263157
0.21442 0.318044 0.25977
0.214496 0.318059 0.256657
0.214771 0.318273 0.25301
0.21532 0.318746 0.249424
0.216144 0.320409 0.242649
0.217609 0.32517 0.229999
0.226093 0.331456 0.220813
0.251408 0.335821 0.226017
0.2934 0.335714 0.223682
0.342687 0.330465 0.180117
0.368261 0.33286 0.187289
0.387488 0.338048 0.203082
0.409506 0.342641 0.214603
0.433677 0.346517 0.223316
0.459266 0.350927 0.232624
0.485344 0.355688 0.242069
0.513268 0.35996 0.251225
0.544396 0.363455 0.260716
0.57702 0.366995 0.270527
0.609552 0.370321 0.279896
0.641825 0.37322 0.288716
0.674372 0.376104 0.297444
0.707012 0.378775 0.30605
0.739239 0.381399 0.314168
0.771069 0.383597 0.321706
0.802197 0.385824 0.329274
0.83209 0.387961 0.336431
0.860563 0.390082 0.343267
0.886687 0.391867 0.349416
0.905318 0.390341 0.351247
0.233433 0.346227 0.293507
0.233722 0.345724 0.290043
0.233524 0.345388 0.286763
0.233494 0.345281 0.283482
0.233478 0.34519 0.280415
0.233661 0.345342 0.276921
0.233936 0.345617 0.273274
0.23505 0.34696 0.267338
0.235767 0.350484 0.255528
0.2383 0.356924 0.242313
0.257893 0.361624 0.242573
0.282643 0.366323 0.247364
0.333013 0.363165 0.234943
0.379797 0.356802 0.188144
0.398489 0.3608 0.202991
0.417487 0.365805 0.218326
0.438849 0.370809 0.230976
0.463615 0.374807 0.239963
0.489204 0.379095 0.249027
0.515221 0.383627 0.257908
0.542916 0.388556 0.267277
0.5729 0.392065 0.276341
0.604578 0.395422 0.285573
0.636561 0.398795 0.294575
0.668849 0.401862 0.303441
0.700954 0.404761 0.311589
0.732631 0.407385 0.319524
0.764645 0.409903 0.327489
0.79559 0.412329 0.334936
0.825437 0.414633 0.342077
0.85391 0.416648 0.348959
0.880217 0.41854 0.355352
0.897231 0.419867 0.35935
0.252491 0.373892 0.316976
0.252567 0.373251 0.313497
0.252338 0.372854 0.310323
0.252277 0.372702 0.307134
0.252216 0.372549 0.303975
0.252277 0.372549 0.30074
0.252461 0.372717 0.296971
0.253391 0.373861 0.291432
0.254765 0.377249 0.28101
0.256306 0.38204 0.268147
0.264775 0.38822 0.259236
0.288899 0.39237 0.264164
0.318273 0.395865 0.268193
0.36968 0.391211 0.245457
0.410376 0.385489 0.204044
0.428992 0.389242 0.218494
0.448173 0.394095 0.2336
0.46891 0.399466 0.247517
0.493828 0.403433 0.256413
0.519509 0.407706 0.265126
0.546426 0.412314 0.274113
0.573907 0.416831 0.283085
0.601816 0.421454 0.291966
0.632364 0.424384 0.300572
0.663645 0.427573 0.308949
0.695125 0.430777 0.317372
0.727031 0.433783 0.325551
0.758556 0.436561 0.333379
0.789303 0.438849 0.340734
0.818967 0.441306 0.347906
0.84744 0.443641 0.354818
0.873976 0.44567 0.361166
0.890913 0.446845 0.365057
0.27155 0.401572 0.340322
0.271443 0.400916 0.336751
0.271168 0.400519 0.333577
0.271061 0.400305 0.330541
0.271015 0.400153 0.327489
0.270939 0.4 0.324285
0.271031 0.400046 0.320592
0.27187 0.400992 0.315251
0.273564 0.403906 0.306111
0.274357 0.408026 0.293721
0.276509 0.41413 0.280308
0.295613 0.418723 0.280781
0.319371 0.423239 0.285405
0.357412 0.423713 0.28603
0.400015 0.419669 0.260624
0.440497 0.413855 0.219883
0.459831 0.417594 0.233921
0.479377 0.422675 0.248936
0.499489 0.428199 0.26389
0.524529 0.43209 0.272694
0.550851 0.436377 0.281178
0.577844 0.440848 0.290059
0.6047 0.445335 0.298528
0.632181 0.449943 0.307134
0.660517 0.453819 0.315373
0.690761 0.456641 0.323339
0.721736 0.459648 0.331121
0.753002 0.462562 0.338964
0.783536 0.46537 0.346395
0.81294 0.46804 0.353567
0.841611 0.47042 0.360571
0.868315 0.472663 0.366918
0.8851 0.47396 0.370886
0.289677 0.42887 0.362936
0.289769 0.428275 0.359686
0.289647 0.427985 0.356603
0.289525 0.427741 0.353826
0.289418 0.427512 0.35082
0.289296 0.427283 0.347662
0.289311 0.427253 0.344045
0.290028 0.428153 0.338781
0.291707 0.430488 0.330465
0.292775 0.434272 0.318654
0.294331 0.439277 0.30576
0.302541 0.445411 0.296956
0.325872 0.449332 0.301869
0.348623 0.453895 0.306111
0.388586 0.452033 0.303365
0.430182 0.44802 0.27541
0.471641 0.442084 0.235019
0.491066 0.445991 0.249363
0.510796 0.45095 0.264042
0.531426 0.456657 0.279057
0.556069 0.460945 0.28864
0.582361 0.46508 0.2972
0.609247 0.469383 0.305669
0.635981 0.473854 0.313878
0.662974 0.47805 0.321859
0.68986 0.482551 0.329778
0.718425 0.485832 0.337438
0.748104 0.488502 0.344686
0.778439 0.491493 0.352132
0.807691 0.494148 0.359136
0.83595 0.496727 0.365866
0.863066 0.499107 0.372473
0.879667 0.500633 0.376608
0.308003 0.456092 0.385489
0.307973 0.455375 0.3823
0.307729 0.454963 0.379171
0.307637 0.454749 0.376501
0.307439 0.454414 0.37348
0.307225 0.454124 0.370336
0.30724 0.454093 0.366842
0.307805 0.454765 0.361608
0.309453 0.456916 0.353674
0.310689 0.460517 0.342962
0.312016 0.465309 0.330831
0.313787 0.471092 0.317174
0.332525 0.475578 0.31783
0.355062 0.479683 0.32224
0.374731 0.483864 0.325811
0.419547 0.480308 0.319631
0.461601 0.476448 0.288823
0.502922 0.470314 0.250568
0.52224 0.474296 0.2645
0.542657 0.479194 0.279118
0.563928 0.484962 0.294148
0.58822 0.489891 0.304814
0.614038 0.493706 0.312825
0.640452 0.497856 0.320699
0.667094 0.502083 0.328649
0.694026 0.506264 0.336431
0.720653 0.510582 0.343954
0.747189 0.514595 0.351232
0.775341 0.517617 0.358099
0.803174 0.520027 0.364675
0.831403 0.52282 0.371588
0.858564 0.525475 0.378241
0.874998 0.527077 0.382132
0.325689 0.483238 0.407736
0.325658 0.482536 0.404547
0.325505 0.48217 0.401541
0.325353 0.481834 0.398825
0.32517 0.481453 0.39585
0.324971 0.481102 0.392767
0.324941 0.48101 0.389319
0.325307 0.481559 0.384115
0.32665 0.483543 0.376349
0.328374 0.486702 0.366873
0.329351 0.490944 0.354849
0.330938 0.496284 0.34168
0.339208 0.501945 0.333562
0.361547 0.505806 0.338109
0.380987 0.509621 0.341833
0.40354 0.513054 0.34522
0.451575 0.508431 0.334783
0.493355 0.504372 0.300572
0.534539 0.49865 0.265797
0.554498 0.5028 0.279988
0.575189 0.507637 0.294423
0.596414 0.51342 0.308858
0.619837 0.518486 0.320363
0.64593 0.522362 0.328252
0.671977 0.526436 0.335805
0.698299 0.53019 0.343099
0.724605 0.534325 0.350347
0.751369 0.538445 0.35761
0.777295 0.54255 0.364569
0.802747 0.54641 0.371374
0.828473 0.549081 0.377722
0.854322 0.551263 0.383795
0.871275 0.553048 0.387884
0.343084 0.509957 0.429572
0.343252 0.509483 0.426657
0.343008 0.509071 0.42385
0.342824 0.508736 0.421012
0.34258 0.508339 0.418082
0.342397 0.508019 0.415122
0.34226 0.507774 0.411612
0.342596 0.508202 0.406424
0.343893 0.509972 0.398718
0.345647 0.512779 0.38996
0.346716 0.516762 0.378393
0.348196 0.521828 0.365988
0.349584 0.527749 0.352377
0.367971 0.532036 0.353582
0.387304 0.535668 0.357427
0.406882 0.539574 0.361303
0.437446 0.54078 0.363485
0.483955 0.536309 0.348516
0.525917 0.532113 0.31133
0.566323 0.526909 0.281102
0.587243 0.53109 0.295262
0.60827 0.536141 0.309499
0.629236 0.541543 0.323217
0.651743 0.54696 0.3355
0.677516 0.55079 0.342901
0.703578 0.554726 0.350317
0.729763 0.558633 0.357366
0.755673 0.562325 0.364096
0.781598 0.566171 0.371023
0.8065 0.570077 0.377676
0.830823 0.573892 0.384024
0.854276 0.577646 0.390341
0.86894 0.579583 0.393942
0.360235 0.536522 0.451102
0.360174 0.535897 0.44802
0.359808 0.53547 0.445167
0.359716 0.535256 0.44242
0.359564 0.53492 0.439628
0.35935 0.534585 0.436683
0.359167 0.534264 0.433204
0.359442 0.534615 0.428046
0.360815 0.536263 0.4206
0.362432 0.538521 0.412222
0.363516 0.542443 0.401221
0.364843 0.547387 0.389364
0.366308 0.552804 0.37641
0.374609 0.558373 0.368841
0.393896 0.561654 0.372686
0.413046 0.565362 0.376562
0.433021 0.569711 0.380377
0.471733 0.568444 0.380163
0.516701 0.563973 0.360555
0.559472 0.559731 0.320546
0.599084 0.554955 0.296422
0.619974 0.559243 0.310353
0.641077 0.564233 0.323857
0.662409 0.569741 0.337423
0.683742 0.575326 0.350301
0.709117 0.579095 0.357397
0.735073 0.582803 0.36437
0.760952 0.586572 0.371084
0.786328 0.590326 0.37789
0.811063 0.594095 0.384161
0.835035 0.597757 0.390448
0.857725 0.601205 0.396124
0.872114 0.60354 0.400046
0.376989 0.563149 0.472297
0.376944 0.562448 0.469245
0.376654 0.561959 0.466514
0.376455 0.561593 0.463691
0.376226 0.561212 0.461021
0.376028 0.56083 0.457969
0.375937 0.560601 0.454643
0.376211 0.560937 0.449531
0.377081 0.562249 0.441764
0.378531 0.564553 0.433646
0.380041 0.568048 0.423819
0.381292 0.572854 0.412055
0.38265 0.578027 0.399558
0.384436 0.583963 0.386343
0.400336 0.587732 0.387472
0.419425 0.591196 0.391562
0.439002 0.595254 0.39527
0.459327 0.59971 0.399161
0.50576 0.595743 0.394903
0.550469 0.591272 0.370886
0.5944 0.586603 0.330465
0.632242 0.583108 0.311666
0.652918 0.587366 0.324834
0.674006 0.592279 0.338033
0.695247 0.59762 0.351019
0.716442 0.603326 0.363638
0.740993 0.607294 0.371542
0.766354 0.610819 0.378042
0.791333 0.61445 0.384604
0.815763 0.618158 0.390738
0.839643 0.621729 0.396857
0.861708 0.625193 0.402441
0.875898 0.627176 0.406195
0.393545 0.589548 0.493309
0.393423 0.58883 0.490455
0.393057 0.588388 0.487449
0.392859 0.588083 0.484688
0.392554 0.58761 0.482017
0.392248 0.587091 0.478798
0.391989 0.586648 0.475486
0.392203 0.586938 0.470253
0.393179 0.588281 0.462699
0.394644 0.590448 0.45481
0.396338 0.593759 0.445686
0.397604 0.598199 0.434318
0.398703 0.60325 0.422019
0.400427 0.609064 0.409323
0.406912 0.61384 0.402197
0.425635 0.617151 0.406043
0.44538 0.620859 0.409949
0.465232 0.625177 0.413855
0.490822 0.62829 0.417151
0.540444 0.623026 0.408133
0.585794 0.618769 0.379263
0.629999 0.613336 0.339956
0.665171 0.611276 0.326345
0.686198 0.615534 0.339254
0.707149 0.620111 0.351675
0.728161 0.625422 0.363958
0.749462 0.630915 0.376272
0.772671 0.635462 0.385489
0.797284 0.639078 0.391714
0.821256 0.642618 0.397879
0.844419 0.64596 0.403464
0.866285 0.649134 0.408881
0.880201 0.651408 0.412634
0.4094 0.61593 0.514031
0.409339 0.615198 0.511131
0.409064 0.614725 0.508232
0.408865 0.614374 0.505669
0.408606 0.61384 0.502815
0.408331 0.613291 0.499596
0.408148 0.612848 0.496406
0.408225 0.613001 0.491157
0.408927 0.614282 0.483696
0.41033 0.616312 0.475608
0.412421 0.619272 0.467323
0.413214 0.623362 0.45565
0.414649 0.628397 0.444053
0.416083 0.634241 0.431769
0.417273 0.639292 0.420157
0.432059 0.643137 0.420462
0.451499 0.646723 0.42417
0.471458 0.650858 0.428428
0.491508 0.655482 0.432105
0.52755 0.655268 0.433631
0.576471 0.650278 0.419242
0.621042 0.645838 0.386404
0.665843 0.640116 0.348516
0.698344 0.639109 0.340734
0.719341 0.643381 0.353002
0.740322 0.64828 0.365011
0.761379 0.653208 0.376928
0.782193 0.658503 0.388449
0.803174 0.66363 0.398672
0.826749 0.667063 0.404715
0.849744 0.670497 0.410346
0.871122 0.673609 0.415793
0.884794 0.675578 0.41915
0.425284 0.642084 0.534539
0.425101 0.641398 0.531426
0.424796 0.64097 0.528649
0.424552 0.640558 0.525979
0.424231 0.640009 0.52311
0.423941 0.639384 0.520088
0.423743 0.638926 0.51667
0.423789 0.639017 0.511513
0.42443 0.640192 0.50396
0.425956 0.642145 0.496147
0.427802 0.644862 0.487816
0.428824 0.648676 0.476814
0.430182 0.653696 0.4654
0.431464 0.659129 0.45362
0.4327 0.66424 0.442237
0.438651 0.669535 0.434684
0.458076 0.672953 0.438666
0.477653 0.67689 0.442634
0.497932 0.681193 0.44654
0.51838 0.686076 0.450462
0.565255 0.682216 0.448249
0.611978 0.677378 0.428565
0.656367 0.67277 0.393179
0.701946 0.666392 0.356878
0.731579 0.666957 0.354574
0.752651 0.671275 0.366217
0.773465 0.67599 0.378012
0.793927 0.680995 0.38941
0.81387 0.686229 0.400641
0.833082 0.691402 0.411124
0.855344 0.694957 0.417594
0.87599 0.6981 0.423011
0.889647 0.700282 0.426474
0.440528 0.668055 0.554345
0.440604 0.66746 0.551598
0.440314 0.666972 0.548882
0.440085 0.666545 0.546105
0.439734 0.665949 0.54345
0.439429 0.665415 0.540291
0.439094 0.664851 0.536797
0.439109 0.664866 0.531609
0.439857 0.666026 0.524071
0.441047 0.667857 0.51603
0.442756 0.670451 0.507683
0.444129 0.673915 0.497734
0.445411 0.678813 0.486259
0.446571 0.684199 0.474708
0.447837 0.689174 0.463645
0.449439 0.69482 0.452445
0.464225 0.698985 0.452506
0.48397 0.702678 0.456458
0.503853 0.706874 0.460517
0.5243 0.711543 0.464469
0.55053 0.715084 0.467994
0.602274 0.708995 0.460655
0.647929 0.704326 0.436652
0.692241 0.699886 0.399145
0.738399 0.69279 0.364675
0.764981 0.694804 0.368109
0.785382 0.699077 0.379217
0.805447 0.703609 0.390585
0.825162 0.708537 0.401465
0.844327 0.713664 0.412451
0.863066 0.718914 0.423178
0.881361 0.722927 0.430625
0.894713 0.724758 0.434043
0.455482 0.693904 0.573983
0.455604 0.693401 0.571344
0.455344 0.692912 0.56849
0.455085 0.692454 0.56585
0.454795 0.69192 0.563119
0.454414 0.691264 0.559884
0.454093 0.690639 0.556573
0.454093 0.690608 0.551278
0.454704 0.691707 0.543801
0.455817 0.693446 0.535698
0.457588 0.695857 0.527565
0.459098 0.699229 0.517922
0.460349 0.703883 0.50663
0.461585 0.709194 0.495369
0.462623 0.714168 0.484413
0.464164 0.719707 0.473472
0.470588 0.725002 0.466117
0.490105 0.728603 0.469856
0.510002 0.732677 0.474159
0.530221 0.737285 0.478065
0.551369 0.742321 0.482246
0.589761 0.741482 0.483696
0.638712 0.735805 0.470893
0.683665 0.731441 0.443854
0.727642 0.726635 0.405158
0.774929 0.718822 0.372519
0.797421 0.722606 0.38146
0.817258 0.726787 0.392706
0.836545 0.731456 0.403464
0.855222 0.736065 0.414145
