bundles/resolve-cinematic-luts/Lens Distortions - Finishing LUTs/LD - Metallic Rose 2.cube
TITLE "LD - Metallic Rose 2"
# Copyright (c) Lens Distortions, LLC. All Rights Reserved.
# LensDistortions.com
# ref-MR1
LUT_3D_SIZE 9
0.00801099 0.00810254 0.00851453
0.0601358 0.0166018 0.026215
0.177111 0.0201114 0.0602884
0.3467 0.0301671 0.12929
0.476204 0.0451972 0.18233
0.605951 0.0630655 0.230365
0.740703 0.0808423 0.274067
0.866667 0.0953231 0.310979
0.964233 0.106035 0.338781
0.0626841 0.104463 0.0855268
0.0775616 0.112062 0.0685435
0.173617 0.121126 0.076051
0.33373 0.127443 0.123445
0.463584 0.135485 0.174182
0.594095 0.146715 0.222965
0.729168 0.157885 0.26717
0.856245 0.167681 0.304494
0.953628 0.174853 0.332448
0.137896 0.211185 0.177661
0.139696 0.212131 0.161074
0.173999 0.22504 0.148562
0.314412 0.235294 0.155535
0.436896 0.250904 0.198093
0.568551 0.258747 0.235172
0.713039 0.248539 0.259113
0.841016 0.256138 0.297017
0.940063 0.261738 0.325368
0.214511 0.318944 0.270481
0.214496 0.318059 0.256657
0.217609 0.32517 0.229999
0.342687 0.330465 0.180117
0.433677 0.346517 0.223316
0.544396 0.363455 0.260716
0.674372 0.376104 0.297444
0.802197 0.385824 0.329274
0.905318 0.390341 0.351247
0.289677 0.42887 0.362936
0.289418 0.427512 0.35082
0.291707 0.430488 0.330465
0.325872 0.449332 0.301869
0.471641 0.442084 0.235019
0.556069 0.460945 0.28864
0.662974 0.47805 0.321859
0.778439 0.491493 0.352132
0.879667 0.500633 0.376608
0.360235 0.536522 0.451102
0.359564 0.53492 0.439628
0.360815 0.536263 0.4206
0.366308 0.552804 0.37641
0.433021 0.569711 0.380377
0.599084 0.554955 0.296422
0.683742 0.575326 0.350301
0.786328 0.590326 0.37789
0.872114 0.60354 0.400046
0.425284 0.642084 0.534539
0.424231 0.640009 0.52311
0.42443 0.640192 0.50396
0.430182 0.653696 0.4654
0.458076 0.672953 0.438666
0.565255 0.682216 0.448249
0.731579 0.666957 0.354574
0.81387 0.686229 0.400641
0.889647 0.700282 0.426474
0.484718 0.745464 0.612589
0.484031 0.743191 0.601663
0.483787 0.742626 0.581933
0.489067 0.753857 0.545998
0.494133 0.77499 0.502159
0.563714 0.792599 0.5093
0.711086 0.788586 0.489189
0.858534 0.777218 0.409995
0.919509 0.792325 0.450782
0.538689 0.836561 0.68307
0.538048 0.835172 0.672328
0.53843 0.836027 0.653849
0.545525 0.846418 0.621439
0.551888 0.864866 0.581094
0.594949 0.883406 0.567346
0.684855 0.898192 0.598611
0.847288 0.880766 0.558419
0.944015 0.873381 0.52639
0.0280613 0.0308385 0.0787976
0.0725109 0.0158389 0.0971695
0.179644 0.00991836 0.115175
0.346044 0.00549325 0.165728
0.480964 0.0144198 0.213062
0.610391 0.0302586 0.256596
0.745022 0.0478828 0.297307
0.870207 0.0652628 0.332647
0.967346 0.0778973 0.359182
0.0662242 0.108614 0.134768
0.0957046 0.109499 0.120058
0.186023 0.115389 0.133623
0.338888 0.125307 0.182345
0.466163 0.136339 0.226108
0.595789 0.147494 0.268559
0.730327 0.158785 0.30869
0.857114 0.168627 0.343481
0.953719 0.176028 0.369726
0.134463 0.213275 0.208591
0.16582 0.219104 0.205005
0.185458 0.221988 0.180865
0.316213 0.229786 0.188388
0.444419 0.240726 0.219043
0.581888 0.236042 0.250919
0.714946 0.245411 0.293889
0.842359 0.253727 0.330526
0.940459 0.259556 0.357656
0.212451 0.318578 0.293126
0.237079 0.326513 0.292912
0.243931 0.321584 0.265919
0.339864 0.331701 0.222644
0.432029 0.342992 0.253223
0.548409 0.357717 0.284138
0.678676 0.369528 0.316228
0.810987 0.37351 0.341634
0.922957 0.363241 0.352819
0.287984 0.428016 0.381918
0.308705 0.435325 0.381903
0.314366 0.431098 0.358633
0.3337 0.447013 0.322896
0.46865 0.443427 0.273732
0.554635 0.458137 0.315404
0.660288 0.474617 0.345617
0.78146 0.485954 0.372183
0.883528 0.495003 0.394903
0.358511 0.535546 0.468391
0.376883 0.542412 0.468254
0.381811 0.538186 0.446632
0.386984 0.550347 0.406149
0.43946 0.566964 0.39971
0.596277 0.556161 0.330602
0.68246 0.572839 0.374884
0.784024 0.587106 0.400198
0.870298 0.600076 0.421881
0.423789 0.640955 0.551156
0.440482 0.647623 0.55079
0.444968 0.642939 0.529534
0.449775 0.652247 0.492607
0.464363 0.670604 0.455894
0.561486 0.682506 0.469322
0.72871 0.667933 0.385382
0.8112 0.684962 0.426383
0.888594 0.697322 0.448539
0.483513 0.74406 0.629267
0.499611 0.751202 0.629023
0.503594 0.74612 0.607767
0.507988 0.753414 0.572351
0.512749 0.771481 0.52932
0.569436 0.789731 0.52604
0.708186 0.788602 0.513146
0.855604 0.778164 0.438972
0.916564 0.791562 0.476265
0.537102 0.834821 0.69958
0.551385 0.838254 0.696712
0.556558 0.836103 0.67747
0.562264 0.8448 0.643854
0.570367 0.86215 0.607431
0.600885 0.880796 0.583215
0.690166 0.895201 0.61413
0.844327 0.880766 0.582712
0.940322 0.87451 0.556054
0.0623484 0.0687877 0.189883
0.0902113 0.0555734 0.204517
0.181857 0.0104982 0.224445
0.350347 0.00549325 0.237034
0.484886 0.00549325 0.264622
0.615457 0.00549325 0.300038
0.750805 0.00708019 0.336446
0.875257 0.0207523 0.368383
0.972183 0.0329137 0.393271
0.0847181 0.123903 0.203418
0.105165 0.134966 0.206577
0.172869 0.111208 0.212772
0.344579 0.107744 0.236255
0.474586 0.106401 0.270359
0.603372 0.115297 0.306935
0.737392 0.126329 0.343267
0.862898 0.13669 0.375601
0.959121 0.144457 0.400259
0.146166 0.217304 0.258869
0.175509 0.234531 0.272099
0.202625 0.219867 0.231113
0.332937 0.228412 0.252476
0.456321 0.234272 0.286931
0.583764 0.241901 0.323491
0.716365 0.250034 0.359625
0.843351 0.257725 0.392294
0.940307 0.263371 0.416922
0.212421 0.324437 0.331487
0.239582 0.33994 0.340414
0.272755 0.328923 0.314305
0.336172 0.334417 0.278126
0.431876 0.336538 0.291127
0.557855 0.349752 0.311574
0.70132 0.345205 0.335119
0.831952 0.346685 0.365621
0.930205 0.352987 0.393896
0.284367 0.430945 0.414389
0.308827 0.440787 0.417472
0.346105 0.445411 0.407813
0.3552 0.443626 0.361822
0.464271 0.445533 0.325948
0.551614 0.453071 0.353216
0.663249 0.466072 0.376242
0.788357 0.477729 0.399573
0.890913 0.486442 0.419928
0.356115 0.536156 0.497307
0.376364 0.545037 0.499168
0.41117 0.552956 0.493233
0.421286 0.551141 0.452934
0.449439 0.563012 0.427817
0.591989 0.557717 0.378424
0.680598 0.568658 0.411307
0.780041 0.581628 0.433845
0.871977 0.591638 0.452155
0.421134 0.640391 0.578149
0.439628 0.649042 0.579995
0.471992 0.657176 0.574289
0.48191 0.655375 0.535637
0.484413 0.66688 0.491249
0.555032 0.683574 0.49958
0.724422 0.669398 0.430518
0.807462 0.682078 0.464851
0.886702 0.692439 0.482231
0.481041 0.743069 0.656168
0.498558 0.751934 0.657572
0.529412 0.76051 0.652171
0.538827 0.758206 0.613108
0.542351 0.768658 0.572198
0.578851 0.785351 0.551781
0.703563 0.788739 0.54963
0.85124 0.779431 0.482444
0.912123 0.790127 0.515221
0.534707 0.833097 0.726253
0.549828 0.837461 0.724437
0.578805 0.842161 0.716731
0.590539 0.844724 0.681437
0.598474 0.857679 0.647456
0.610666 0.877653 0.608179
0.698665 0.890608 0.638346
0.840101 0.881254 0.620768
0.935256 0.876463 0.60029
0.1084 0.117266 0.296925
0.127062 0.101122 0.307439
0.201724 0.071809 0.330175
0.349401 0.00549325 0.357519
0.487465 0.00549325 0.358938
0.618814 0.00549325 0.365743
0.755291 0.00549325 0.394186
0.88043 0.00549325 0.421561
0.977981 0.00549325 0.443565
0.118593 0.156146 0.288365
0.137774 0.164416 0.295293
0.156985 0.151324 0.320775
0.336477 0.105043 0.345235
0.475837 0.106126 0.349447
0.608454 0.0989395 0.367498
0.744579 0.0965438 0.397345
0.869902 0.100069 0.424994
0.966552 0.106584 0.447532
0.162753 0.228519 0.3252
0.180941 0.241382 0.339666
0.209262 0.245274 0.321935
0.314931 0.211078 0.32578
0.461219 0.217563 0.34287
0.593729 0.216388 0.37435
0.727367 0.220584 0.406104
0.853162 0.226673 0.435645
0.950652 0.231739 0.459052
0.226368 0.327321 0.387839
0.250721 0.34609 0.406119
0.288716 0.347814 0.38645
0.337942 0.338994 0.339818
0.452873 0.342138 0.365682
0.576745 0.346227 0.396063
0.706233 0.351766 0.428061
0.831601 0.357717 0.457938
0.928008 0.362341 0.48101
0.292226 0.434531 0.45536
0.317632 0.451926 0.467979
0.363272 0.473701 0.477058
0.401572 0.446006 0.424796
0.459754 0.449638 0.389914
0.546105 0.444434 0.398215
0.677302 0.459602 0.410986
0.809812 0.463951 0.429801
0.922988 0.457252 0.445716
0.351843 0.545663 0.544854
0.374395 0.55642 0.549432
0.417868 0.569558 0.54844
0.466789 0.557473 0.512505
0.466682 0.559899 0.467689
0.587808 0.560693 0.439628
0.676387 0.562051 0.458091
0.77612 0.57145 0.473564
0.883101 0.582544 0.487999
0.41677 0.646052 0.621454
0.437446 0.656062 0.625162
0.476143 0.668345 0.623774
0.531075 0.669932 0.59971
0.52987 0.669078 0.555138
0.568063 0.678782 0.536583
0.719554 0.67155 0.488869
0.804944 0.676341 0.511528
0.884215 0.685267 0.526833
0.477287 0.746502 0.698283
0.496742 0.756512 0.701442
0.532296 0.768795 0.69955
0.591638 0.779477 0.682872
0.588739 0.774441 0.636591
0.59263 0.780682 0.587396
0.697627 0.789929 0.597314
0.846006 0.781323 0.539223
0.908553 0.786877 0.565988
0.531044 0.8336 0.766903
0.547433 0.838849 0.766339
0.579492 0.845335 0.76051
0.638239 0.852369 0.74287
0.641993 0.857618 0.705867
0.651438 0.874342 0.666621
0.711254 0.885328 0.671778
0.835477 0.882521 0.671199
0.929473 0.879255 0.655741
0.153979 0.164569 0.400504
0.166079 0.148165 0.409064
0.205631 0.136873 0.425574
0.358099 0.0348058 0.472374
0.483604 0.00549325 0.483589
0.620249 0.00549325 0.483589
0.75877 0.00549325 0.479896
0.884108 0.00549325 0.492973
0.982971 0.00549325 0.51194
0.159731 0.194186 0.387854
0.175677 0.201404 0.392935
0.191943 0.183795 0.415381
0.34728 0.135348 0.45304
0.469703 0.102831 0.469856
0.608057 0.102785 0.473701
0.746822 0.102419 0.471641
0.874022 0.0911116 0.493645
0.973098 0.0863355 0.513375
0.186343 0.250462 0.403601
0.200214 0.259907 0.409476
0.229191 0.27248 0.414878
0.3196 0.244282 0.436957
0.449012 0.211276 0.449165
0.590677 0.21529 0.459968
0.730602 0.212192 0.472496
0.859831 0.208316 0.498222
0.960159 0.207416 0.518898
0.239994 0.335393 0.452262
0.257923 0.349432 0.469612
0.288991 0.370336 0.493996
0.342885 0.363165 0.44387
0.439567 0.323171 0.439612
0.574685 0.327337 0.451362
0.715755 0.327703 0.483543
0.843839 0.330053 0.511193
0.943572 0.333257 0.533608
0.305104 0.440101 0.525933
0.32578 0.456977 0.543374
0.368902 0.479255 0.556466
0.41735 0.468437 0.50251
0.457465 0.457389 0.457679
0.575387 0.459693 0.48365
0.702617 0.462425 0.511696
0.825772 0.466377 0.538613
0.921096 0.469825 0.560494
0.370748 0.543236 0.58529
0.39382 0.559411 0.597406
0.438483 0.58584 0.612192
0.48838 0.591592 0.594781
0.520165 0.561242 0.540459
0.582971 0.566155 0.509789
0.670054 0.555337 0.510414
0.792905 0.568658 0.520378
0.900435 0.577646 0.531212
0.422065 0.652766 0.674525
0.443809 0.670176 0.687434
0.482902 0.692729 0.697871
0.551095 0.704967 0.68217
0.580301 0.669413 0.62388
0.586358 0.674311 0.581521
0.715862 0.674876 0.558145
0.799451 0.668345 0.566308
0.881193 0.6748 0.577432
0.473579 0.76025 0.761715
0.493538 0.771801 0.767147
0.533806 0.786892 0.767742
0.606577 0.804501 0.757702
0.640787 0.77821 0.70721
0.641871 0.783078 0.659937
0.69192 0.793484 0.651438
0.841581 0.784039 0.607904
0.90692 0.781155 0.623484
0.524407 0.840421 0.822919
0.542504 0.846448 0.823697
0.579751 0.854353 0.819608
0.650523 0.864179 0.806043
0.697322 0.858671 0.77644
0.706691 0.870451 0.74168
0.728603 0.880247 0.714015
0.831632 0.884901 0.730358
0.924285 0.883253 0.718929
0.196628 0.208713 0.505058
0.204196 0.191989 0.514138
0.237156 0.180362 0.524025
0.364385 0.12192 0.564752
0.487068 0.0103914 0.612131
0.615 0.00549325 0.611627
0.758846 0.00549325 0.612329
0.886885 0.00549325 0.609506
0.987259 0.00549325 0.60531
0.199969 0.233341 0.490898
0.214069 0.239841 0.494652
0.226627 0.220157 0.515572
0.344686 0.194186 0.550958
0.476539 0.120089 0.595346
0.601114 0.10045 0.598108
0.746044 0.0998703 0.601953
0.875776 0.0988785 0.600076
0.977096 0.098085 0.596979
0.216678 0.281178 0.490654
0.229938 0.287236 0.498238
0.257465 0.298909 0.50631
0.291005 0.279316 0.556802
0.462242 0.229572 0.569986
0.579843 0.210437 0.57731
0.726925 0.212116 0.586206
0.859388 0.212284 0.58706
0.964157 0.20882 0.593774
0.261265 0.354574 0.536294
0.27306 0.362524 0.54583
0.297047 0.378637 0.554986
0.352453 0.387503 0.539544
0.444984 0.342046 0.546639
0.553964 0.315923 0.552041
0.706584 0.324102 0.570367
0.841749 0.325002 0.579492
0.950957 0.321828 0.602152
0.317037 0.446418 0.588495
0.333135 0.459815 0.605295
0.364523 0.482826 0.634241
0.417411 0.495735 0.624811
0.461555 0.481605 0.569223
0.560906 0.439689 0.558572
0.697383 0.441901 0.566384
0.830137 0.441627 0.594965
0.937346 0.443534 0.61915
0.379232 0.551522 0.672358
0.397818 0.567575 0.690425
0.433616 0.593774 0.716564
0.493721 0.597971 0.678004
0.53344 0.586313 0.62533
0.582101 0.574441 0.579141
0.704753 0.576379 0.60528
0.826764 0.578042 0.63035
0.921248 0.580301 0.65127
0.440879 0.65124 0.72752
0.463233 0.667384 0.739879
0.508705 0.692607 0.752407
0.579065 0.72578 0.759441
0.608408 0.707942 0.7149
0.641611 0.677775 0.658
0.710185 0.682429 0.633402
0.795361 0.671092 0.627787
0.896101 0.678416 0.633173
0.490562 0.75642 0.807797
0.511833 0.773861 0.820417
0.553185 0.8009 0.835889
0.629252 0.837995 0.850767
0.666712 0.818082 0.801907
0.699336 0.7832 0.738781
0.713222 0.789197 0.702327
0.83682 0.789502 0.683177
0.9037 0.776974 0.685252
0.534874 0.844617 0.878218
0.555154 0.854917 0.885115
0.597147 0.86978 0.88957
0.67039 0.884504 0.881544
0.731792 0.883833 0.856947
0.760998 0.865965 0.811597
0.774044 0.88191 0.783444
0.829999 0.889387 0.790936
0.920104 0.888991 0.783688
0.234272 0.248051 0.607843
0.238636 0.230808 0.618555
0.267948 0.219608 0.624949
0.367651 0.186709 0.662669
0.49543 0.095201 0.704707
0.618143 0.00549325 0.750744
0.752605 0.00549325 0.742763
0.885496 0.00549325 0.744259
0.988617 0.00549325 0.741634
0.236835 0.269917 0.592828
0.249699 0.275822 0.595789
0.258564 0.254582 0.61706
0.341558 0.239826 0.651118
0.485756 0.173205 0.684886
0.606821 0.101701 0.737972
0.73846 0.0975052 0.728954
0.873701 0.0965286 0.732723
0.978332 0.0951705 0.73135
0.248997 0.31078 0.58616
0.261036 0.316182 0.592447
0.28574 0.32665 0.59884
0.312123 0.304006 0.65626
0.460838 0.271778 0.665629
0.591104 0.2177 0.714305
0.716457 0.208392 0.707759
0.855634 0.209094 0.715953
0.965133 0.208515 0.716686
0.28127 0.37406 0.61561
0.29218 0.38172 0.622187
0.314199 0.395987 0.627482
0.364385 0.413779 0.633341
0.404654 0.382239 0.68307
0.574166 0.331655 0.683711
0.689632 0.316426 0.681697
0.834241 0.321126 0.696971
0.95021 0.322499 0.701137
0.334203 0.461418 0.674449
0.348104 0.472999 0.692088
0.37232 0.490349 0.714931
0.415427 0.515557 0.714626
0.468437 0.503426 0.667185
0.568078 0.449912 0.662379
0.672389 0.426886 0.664805
0.813779 0.433845 0.679545
0.9355 0.438666 0.688151
0.389273 0.55671 0.733074
0.404852 0.570321 0.749416
0.433936 0.592355 0.777203
0.492515 0.624002 0.804837
0.537713 0.617075 0.754314
0.581506 0.599344 0.704509
0.689632 0.556786 0.681147
0.820737 0.55874 0.687022
0.929717 0.555917 0.709545
0.447807 0.66157 0.826001
0.465187 0.677928 0.844068
0.49839 0.704173 0.869352
0.565744 0.731075 0.865125
0.60885 0.715877 0.802548
0.652766 0.705867 0.749767
0.711635 0.691295 0.703487
0.830716 0.692332 0.728771
0.9243 0.693263 0.749096
0.5037 0.758907 0.875456
0.524376 0.77557 0.888289
0.566201 0.800961 0.902541
0.65005 0.836652 0.907042
0.704555 0.836271 0.870176
0.737362 0.821897 0.829267
0.767071 0.794629 0.778027
0.831266 0.798535 0.760784
0.897993 0.7888 0.752194
0.55816 0.842405 0.925353
0.57882 0.852094 0.930999
0.62269 0.866545 0.933394
0.71104 0.891371 0.930968
0.779614 0.903731 0.919921
0.802487 0.894209 0.888426
0.827268 0.879744 0.85127
0.8448 0.88957 0.836683
0.917296 0.896971 0.841947
0.266545 0.281849 0.70663
0.268528 0.264027 0.719234
0.295567 0.253193 0.723354
0.37142 0.232425 0.758068
0.500298 0.163516 0.796338
0.623194 0.0601053 0.847303
0.756436 0.00549325 0.873106
0.879606 0.00549325 0.865629
0.987488 0.00549325 0.866972
0.268559 0.301854 0.690181
0.280476 0.307408 0.692546
0.287221 0.285344 0.715816
0.348241 0.273472 0.749096
0.48394 0.227649 0.78143
0.613397 0.151095 0.830335
0.744427 0.0981765 0.861067
0.866575 0.0944991 0.852552
0.976776 0.0930343 0.855741
0.278019 0.33843 0.679072
0.289174 0.34342 0.684642
0.312078 0.353323 0.689662
0.336828 0.327657 0.749767
0.449134 0.311086 0.76849
0.598703 0.250721 0.803113
0.726635 0.210544 0.843091
0.846128 0.205783 0.832456
0.962875 0.205524 0.839414
0.303181 0.397116 0.69543
0.313191 0.404593 0.700023
0.334997 0.414313 0.710124
0.381979 0.436805 0.722759
0.393698 0.411765 0.787396
0.581857 0.357595 0.772473
0.706752 0.322316 0.821363
0.820264 0.315587 0.807065
0.94464 0.318135 0.819303
0.351415 0.478248 0.757992
0.361654 0.485588 0.768475
0.381201 0.498665 0.779995
0.421408 0.527703 0.784436
0.476493 0.524758 0.760327
0.534264 0.486824 0.790585
0.688701 0.437354 0.792905
0.791089 0.422782 0.778485
0.923186 0.430747 0.799512
0.402182 0.5673 0.815915
0.415625 0.579187 0.833127
0.441093 0.599207 0.860945
0.487266 0.635065 0.900816
0.535317 0.63592 0.845029
0.587213 0.620127 0.803281
0.696269 0.563378 0.787396
0.797772 0.543084 0.784527
0.912337 0.544594 0.790555
0.455406 0.664729 0.882734
0.470527 0.679026 0.898436
0.499306 0.702724 0.920821
0.563394 0.741573 0.938155
0.612848 0.744656 0.916442
0.66215 0.73933 0.871916
0.703761 0.716579 0.841657
0.815793 0.673198 0.802472
0.925765 0.674556 0.807218
0.511406 0.770077 0.968582
0.528618 0.786709 0.985107
0.562463 0.812558 1
0.639673 0.846983 1
0.690715 0.842023 0.958129
0.734493 0.831205 0.906844
0.782437 0.821698 0.857313
0.834501 0.807126 0.823728
0.916396 0.812497 0.843168
0.563287 0.846983 0.999847
0.581796 0.856336 1
0.622812 0.870695 1
0.716472 0.895247 0.994232
0.804318 0.909819 0.96289
0.841108 0.906706 0.932998
0.871092 0.905516 0.910674
0.885252 0.896193 0.889342
0.916838 0.90573 0.889311
0.290303 0.306798 0.786892
0.291463 0.289021 0.803632
0.317739 0.279454 0.808347
0.379263 0.26421 0.842115
0.502388 0.213321 0.878584
0.630335 0.122789 0.922118
0.757717 0.0101778 0.972885
0.883253 0.00549325 0.978058
0.98381 0.00549325 0.970779
0.291859 0.325429 0.768963
0.302312 0.329946 0.768032
0.3084 0.308293 0.796551
0.367926 0.296544 0.829297
0.483131 0.266102 0.863813
0.621592 0.19295 0.904082
0.747127 0.11873 0.958404
0.872099 0.0947433 0.966934
0.972503 0.0914931 0.958602
0.299886 0.359716 0.754955
0.309606 0.363531 0.756237
0.330602 0.371969 0.757366
0.35555 0.346716 0.825086
0.442649 0.338155 0.85507
0.603174 0.28423 0.879667
0.732036 0.22974 0.936034
0.854795 0.207034 0.950042
0.956756 0.203037 0.940352
0.320256 0.416052 0.760281
0.329686 0.420279 0.76376
0.349783 0.427909 0.770184
0.394171 0.44892 0.778988
0.410956 0.424521 0.86656
0.563241 0.395392 0.872404
0.715312 0.342336 0.906325
0.834821 0.319554 0.92929
0.933303 0.314 0.916823
0.362203 0.488792 0.814313
0.370977 0.49485 0.819257
0.38883 0.506477 0.823667
0.428077 0.531365 0.827863
0.483726 0.540413 0.823682
0.504128 0.511513 0.905455
0.701122 0.456504 0.876432
0.813977 0.431952 0.907164
0.906004 0.423239 0.890135
0.413687 0.578683 0.877821
0.425406 0.588907 0.890105
0.447349 0.605509 0.909163
0.48394 0.630091 0.92549
0.535943 0.648081 0.893492
0.592782 0.636103 0.872694
0.671839 0.591302 0.889662
0.803784 0.545846 0.893843
0.89279 0.532982 0.87715
0.464164 0.671946 0.934493
0.476997 0.684199 0.946181
0.501961 0.70428 0.964691
0.553063 0.740017 0.994568
0.61088 0.759197 0.989792
0.662562 0.754391 0.932143
0.708797 0.735637 0.916884
0.821378 0.67718 0.899886
0.90988 0.658503 0.89366
0.514809 0.769802 1
0.529961 0.784222 1
0.55967 0.806989 1
0.629145 0.843626 1
0.708583 0.861173 1
0.754559 0.856611 0.970672
0.796735 0.852399 0.938476
0.831342 0.831479 0.919692
0.912291 0.794232 0.901518
0.572686 0.853834 1
0.590127 0.862821 1
0.629419 0.877348 1
0.72958 0.90277 1
0.803601 0.912749 1
0.838605 0.911757 0.968856
0.871366 0.914046 0.945754
0.906142 0.914641 0.922011
0.923064 0.91458 0.919936
