bundles/resolve-cinematic-luts/Lens Distortions - Finishing LUTs/LD - Velvet B&W 3.cube
TITLE "LD - Velvet 3"
# Copyright (c) Lens Distortions, LLC. All Rights Reserved.
# LensDistortions.com
# ref-VBW1
LUT_3D_SIZE 33
0.0328222 0.0328222 0.0328222
0.0351873 0.0351873 0.0351873
0.0377508 0.0377508 0.0377508
0.0404974 0.0404974 0.0404974
0.0433661 0.0433661 0.0433661
0.0465095 0.0465095 0.0465095
0.0497292 0.0497292 0.0497292
0.0531624 0.0531624 0.0531624
0.0569162 0.0569162 0.0569162
0.0607309 0.0607309 0.0607309
0.0646372 0.0646372 0.0646372
0.0687572 0.0687572 0.0687572
0.0728466 0.0728466 0.0728466
0.0770886 0.0770886 0.0770886
0.0814069 0.0814069 0.0814069
0.0857862 0.0857862 0.0857862
0.0902724 0.0902724 0.0902724
0.0949416 0.0949416 0.0949416
0.0995956 0.0995956 0.0995956
0.104356 0.104356 0.104356
0.109331 0.109331 0.109331
0.114275 0.114275 0.114275
0.119341 0.119341 0.119341
0.12459 0.12459 0.12459
0.1299 0.1299 0.1299
0.135286 0.135286 0.135286
0.140764 0.140764 0.140764
0.14641 0.14641 0.14641
0.152178 0.152178 0.152178
0.15787 0.15787 0.15787
0.163592 0.163592 0.163592
0.16939 0.16939 0.16939
0.174502 0.174502 0.174502
0.0401007 0.0401007 0.0401007
0.0437476 0.0437476 0.0437476
0.0467079 0.0467079 0.0467079
0.0495613 0.0495613 0.0495613
0.0526436 0.0526436 0.0526436
0.0559396 0.0559396 0.0559396
0.0593881 0.0593881 0.0593881
0.0631571 0.0631571 0.0631571
0.0670329 0.0670329 0.0670329
0.071107 0.071107 0.071107
0.0753185 0.0753185 0.0753185
0.0795605 0.0795605 0.0795605
0.0838941 0.0838941 0.0838941
0.0884413 0.0884413 0.0884413
0.0929732 0.0929732 0.0929732
0.0975967 0.0975967 0.0975967
0.102419 0.102419 0.102419
0.10724 0.10724 0.10724
0.112139 0.112139 0.112139
0.117159 0.117159 0.117159
0.122393 0.122393 0.122393
0.127596 0.127596 0.127596
0.132921 0.132921 0.132921
0.138476 0.138476 0.138476
0.144015 0.144015 0.144015
0.14966 0.14966 0.14966
0.155337 0.155337 0.155337
0.161181 0.161181 0.161181
0.166903 0.166903 0.166903
0.172656 0.172656 0.172656
0.178424 0.178424 0.178424
0.18436 0.18436 0.18436
0.18938 0.18938 0.18938
0.048127 0.048127 0.048127
0.0514992 0.0514992 0.0514992
0.0563973 0.0563973 0.0563973
0.0599374 0.0599374 0.0599374
0.0632334 0.0632334 0.0632334
0.0666361 0.0666361 0.0666361
0.0704051 0.0704051 0.0704051
0.0742809 0.0742809 0.0742809
0.0783551 0.0783551 0.0783551
0.0827344 0.0827344 0.0827344
0.0871138 0.0871138 0.0871138
0.0915847 0.0915847 0.0915847
0.0962844 0.0962844 0.0962844
0.100954 0.100954 0.100954
0.10573 0.10573 0.10573
0.110597 0.110597 0.110597
0.115709 0.115709 0.115709
0.120775 0.120775 0.120775
0.125948 0.125948 0.125948
0.13135 0.13135 0.13135
0.136736 0.136736 0.136736
0.142214 0.142214 0.142214
0.147814 0.147814 0.147814
0.153613 0.153613 0.153613
0.159289 0.159289 0.159289
0.164996 0.164996 0.164996
0.170733 0.170733 0.170733
0.176562 0.176562 0.176562
0.182406 0.182406 0.182406
0.188235 0.188235 0.188235
0.19408 0.19408 0.19408
0.199954 0.199954 0.199954
0.205051 0.205051 0.205051
0.0571603 0.0571603 0.0571603
0.0606546 0.0606546 0.0606546
0.0647135 0.0647135 0.0647135
0.0707561 0.0707561 0.0707561
0.0747997 0.0747997 0.0747997
0.078645 0.078645 0.078645
0.0824903 0.0824903 0.0824903
0.0865797 0.0865797 0.0865797
0.090959 0.090959 0.090959
0.0955978 0.0955978 0.0955978
0.100175 0.100175 0.100175
0.104891 0.104891 0.104891
0.109789 0.109789 0.109789
0.114748 0.114748 0.114748
0.119783 0.119783 0.119783
0.124941 0.124941 0.124941
0.130297 0.130297 0.130297
0.135637 0.135637 0.135637
0.141085 0.141085 0.141085
0.146639 0.146639 0.146639
0.152407 0.152407 0.152407
0.158068 0.158068 0.158068
0.16376 0.16376 0.16376
0.169482 0.169482 0.169482
0.175341 0.175341 0.175341
0.181109 0.181109 0.181109
0.186908 0.186908 0.186908
0.192737 0.192737 0.192737
0.198734 0.198734 0.198734
0.204608 0.204608 0.204608
0.210529 0.210529 0.210529
0.21648 0.21648 0.21648
0.221576 0.221576 0.221576
0.0676738 0.0676738 0.0676738
0.0712749 0.0712749 0.0712749
0.0752728 0.0752728 0.0752728
0.0800336 0.0800336 0.0800336
0.0869154 0.0869154 0.0869154
0.0913863 0.0913863 0.0913863
0.0961471 0.0961471 0.0961471
0.100252 0.100252 0.100252
0.104768 0.104768 0.104768
0.109651 0.109651 0.109651
0.114611 0.114611 0.114611
0.119615 0.119615 0.119615
0.124697 0.124697 0.124697
0.129976 0.129976 0.129976
0.135256 0.135256 0.135256
0.140673 0.140673 0.140673
0.146227 0.146227 0.146227
0.151919 0.151919 0.151919
0.157549 0.157549 0.157549
0.16321 0.16321 0.16321
0.168978 0.168978 0.168978
0.174731 0.174731 0.174731
0.180468 0.180468 0.180468
0.186252 0.186252 0.186252
0.192126 0.192126 0.192126
0.198032 0.198032 0.198032
0.203891 0.203891 0.203891
0.209796 0.209796 0.209796
0.215732 0.215732 0.215732
0.221851 0.221851 0.221851
0.227863 0.227863 0.227863
0.23389 0.23389 0.23389
0.238788 0.238788 0.238788
0.0792096 0.0792096 0.0792096
0.0829938 0.0829938 0.0829938
0.087068 0.087068 0.087068
0.0914015 0.0914015 0.0914015
0.0972 0.0972 0.0972
0.105058 0.105058 0.105058
0.110063 0.110063 0.110063
0.115724 0.115724 0.115724
0.120256 0.120256 0.120256
0.12517 0.12517 0.12517
0.130419 0.130419 0.130419
0.135729 0.135729 0.135729
0.141146 0.141146 0.141146
0.146685 0.146685 0.146685
0.152331 0.152331 0.152331
0.157885 0.157885 0.157885
0.163485 0.163485 0.163485
0.169162 0.169162 0.169162
0.174929 0.174929 0.174929
0.180621 0.180621 0.180621
0.186374 0.186374 0.186374
0.192172 0.192172 0.192172
0.198077 0.198077 0.198077
0.203922 0.203922 0.203922
0.209796 0.209796 0.209796
0.215717 0.215717 0.215717
0.221805 0.221805 0.221805
0.227802 0.227802 0.227802
0.233829 0.233829 0.233829
0.239872 0.239872 0.239872
0.245991 0.245991 0.245991
0.252293 0.252293 0.252293
0.257145 0.257145 0.257145
0.0919051 0.0919051 0.0919051
0.0959182 0.0959182 0.0959182
0.100069 0.100069 0.100069
0.10454 0.10454 0.10454
0.109651 0.109651 0.109651
0.116533 0.116533 0.116533
0.125429 0.125429 0.125429
0.131121 0.131121 0.131121
0.137346 0.137346 0.137346
0.142687 0.142687 0.142687
0.147875 0.147875 0.147875
0.153445 0.153445 0.153445
0.158999 0.158999 0.158999
0.164614 0.164614 0.164614
0.170275 0.170275 0.170275
0.176074 0.176074 0.176074
0.18175 0.18175 0.18175
0.187411 0.187411 0.187411
0.193118 0.193118 0.193118
0.198978 0.198978 0.198978
0.204791 0.204791 0.204791
0.21062 0.21062 0.21062
0.216495 0.216495 0.216495
0.222446 0.222446 0.222446
0.228519 0.228519 0.228519
0.234501 0.234501 0.234501
0.240543 0.240543 0.240543
0.246632 0.246632 0.246632
0.252857 0.252857 0.252857
0.259113 0.259113 0.259113
0.265309 0.265309 0.265309
0.271565 0.271565 0.271565
0.276417 0.276417 0.276417
0.105821 0.105821 0.105821
0.109895 0.109895 0.109895
0.114336 0.114336 0.114336
0.118959 0.118959 0.118959
0.124254 0.124254 0.124254
0.130114 0.130114 0.130114
0.138201 0.138201 0.138201
0.148241 0.148241 0.148241
0.154437 0.154437 0.154437
0.161105 0.161105 0.161105
0.167163 0.167163 0.167163
0.172335 0.172335 0.172335
0.177768 0.177768 0.177768
0.18349 0.18349 0.18349
0.189166 0.189166 0.189166
0.194903 0.194903 0.194903
0.200702 0.200702 0.200702
0.206577 0.206577 0.206577
0.212467 0.212467 0.212467
0.218265 0.218265 0.218265
0.224109 0.224109 0.224109
0.230015 0.230015 0.230015
0.236088 0.236088 0.236088
0.242084 0.242084 0.242084
0.248142 0.248142 0.248142
0.254261 0.254261 0.254261
0.260426 0.260426 0.260426
0.266728 0.266728 0.266728
0.272969 0.272969 0.272969
0.279286 0.279286 0.279286
0.285649 0.285649 0.285649
0.292058 0.292058 0.292058
0.296895 0.296895 0.296895
0.121035 0.121035 0.121035
0.125307 0.125307 0.125307
0.129961 0.129961 0.129961
0.134768 0.134768 0.134768
0.14023 0.14023 0.14023
0.146166 0.146166 0.146166
0.153185 0.153185 0.153185
0.16199 0.16199 0.16199
0.1729 0.1729 0.1729
0.179278 0.179278 0.179278
0.185916 0.185916 0.185916
0.192645 0.192645 0.192645
0.197925 0.197925 0.197925
0.203342 0.203342 0.203342
0.208972 0.208972 0.208972
0.214771 0.214771 0.214771
0.220676 0.220676 0.220676
0.226581 0.226581 0.226581
0.232517 0.232517 0.232517
0.238483 0.238483 0.238483
0.244678 0.244678 0.244678
0.25069 0.25069 0.25069
0.256718 0.256718 0.256718
0.262791 0.262791 0.262791
0.268925 0.268925 0.268925
0.275288 0.275288 0.275288
0.281575 0.281575 0.281575
0.287907 0.287907 0.287907
0.294286 0.294286 0.294286
0.30071 0.30071 0.30071
0.307332 0.307332 0.307332
0.313985 0.313985 0.313985
0.318578 0.318578 0.318578
0.137636 0.137636 0.137636
0.142123 0.142123 0.142123
0.146853 0.146853 0.146853
0.15198 0.15198 0.15198
0.157565 0.157565 0.157565
0.163516 0.163516 0.163516
0.169863 0.169863 0.169863
0.177584 0.177584 0.177584
0.186984 0.186984 0.186984
0.198383 0.198383 0.198383
0.204868 0.204868 0.204868
0.211582 0.211582 0.211582
0.21857 0.21857 0.21857
0.224247 0.224247 0.224247
0.229694 0.229694 0.229694
0.235492 0.235492 0.235492
0.241306 0.241306 0.241306
0.247242 0.247242 0.247242
0.253269 0.253269 0.253269
0.259495 0.259495 0.259495
0.265629 0.265629 0.265629
0.271824 0.271824 0.271824
0.278096 0.278096 0.278096
0.284443 0.284443 0.284443
0.290837 0.290837 0.290837
0.297169 0.297169 0.297169
0.303563 0.303563 0.303563
0.310063 0.310063 0.310063
0.316625 0.316625 0.316625
0.323262 0.323262 0.323262
0.330068 0.330068 0.330068
0.336828 0.336828 0.336828
0.341283 0.341283 0.341283
0.155108 0.155108 0.155108
0.159808 0.159808 0.159808
0.164569 0.164569 0.164569
0.169558 0.169558 0.169558
0.17525 0.17525 0.17525
0.18117 0.18117 0.18117
0.187472 0.187472 0.187472
0.194186 0.194186 0.194186
0.202777 0.202777 0.202777
0.212543 0.212543 0.212543
0.224231 0.224231 0.224231
0.230854 0.230854 0.230854
0.237675 0.237675 0.237675
0.244846 0.244846 0.244846
0.251408 0.251408 0.251408
0.256886 0.256886 0.256886
0.262608 0.262608 0.262608
0.268498 0.268498 0.268498
0.274708 0.274708 0.274708
0.280873 0.280873 0.280873
0.287129 0.287129 0.287129
0.293446 0.293446 0.293446
0.299825 0.299825 0.299825
0.306462 0.306462 0.306462
0.313039 0.313039 0.313039
0.319677 0.319677 0.319677
0.32636 0.32636 0.32636
0.333028 0.333028 0.333028
0.339788 0.339788 0.339788
0.346777 0.346777 0.346777
0.353689 0.353689 0.353689
0.360662 0.360662 0.360662
0.364874 0.364874 0.364874
0.172976 0.172976 0.172976
0.177539 0.177539 0.177539
0.182452 0.182452 0.182452
0.187457 0.187457 0.187457
0.193011 0.193011 0.193011
0.198932 0.198932 0.198932
0.205341 0.205341 0.205341
0.212024 0.212024 0.212024
0.21915 0.21915 0.21915
0.228641 0.228641 0.228641
0.238544 0.238544 0.238544
0.250813 0.250813 0.250813
0.257603 0.257603 0.257603
0.264561 0.264561 0.264561
0.271794 0.271794 0.271794
0.279103 0.279103 0.279103
0.284779 0.284779 0.284779
0.290684 0.290684 0.290684
0.296757 0.296757 0.296757
0.302937 0.302937 0.302937
0.309285 0.309285 0.309285
0.315755 0.315755 0.315755
0.322408 0.322408 0.322408
0.329061 0.329061 0.329061
0.33579 0.33579 0.33579
0.342641 0.342641 0.342641
0.349584 0.349584 0.349584
0.356573 0.356573 0.356573
0.363699 0.363699 0.363699
0.370993 0.370993 0.370993
0.378317 0.378317 0.378317
0.385595 0.385595 0.385595
0.389624 0.389624 0.389624
0.190967 0.190967 0.190967
0.195605 0.195605 0.195605
0.200397 0.200397 0.200397
0.205509 0.205509 0.205509
0.211124 0.211124 0.211124
0.21706 0.21706 0.21706
0.223362 0.223362 0.223362
0.230045 0.230045 0.230045
0.237125 0.237125 0.237125
0.245014 0.245014 0.245014
0.254963 0.254963 0.254963
0.265324 0.265324 0.265324
0.277943 0.277943 0.277943
0.284947 0.284947 0.284947
0.292119 0.292119 0.292119
0.299504 0.299504 0.299504
0.307195 0.307195 0.307195
0.313863 0.313863 0.313863
0.319783 0.319783 0.319783
0.325948 0.325948 0.325948
0.332296 0.332296 0.332296
0.338979 0.338979 0.338979
0.345739 0.345739 0.345739
0.352575 0.352575 0.352575
0.359472 0.359472 0.359472
0.366491 0.366491 0.366491
0.373648 0.373648 0.373648
0.381048 0.381048 0.381048
0.388495 0.388495 0.388495
0.395911 0.395911 0.395911
0.403449 0.403449 0.403449
0.411109 0.411109 0.411109
0.415183 0.415183 0.415183
0.209064 0.209064 0.209064
0.213794 0.213794 0.213794
0.218677 0.218677 0.218677
0.223728 0.223728 0.223728
0.229343 0.229343 0.229343
0.235447 0.235447 0.235447
0.241779 0.241779 0.241779
0.248508 0.248508 0.248508
0.255634 0.255634 0.255634
0.263111 0.263111 0.263111
0.271839 0.271839 0.271839
0.282139 0.282139 0.282139
0.292744 0.292744 0.292744
0.306096 0.306096 0.306096
0.313344 0.313344 0.313344
0.320745 0.320745 0.320745
0.328374 0.328374 0.328374
0.336263 0.336263 0.336263
0.344045 0.344045 0.344045
0.350134 0.350134 0.350134
0.356497 0.356497 0.356497
0.363165 0.363165 0.363165
0.370047 0.370047 0.370047
0.377066 0.377066 0.377066
0.384222 0.384222 0.384222
0.391455 0.391455 0.391455
0.398795 0.398795 0.398795
0.40647 0.40647 0.40647
0.414084 0.414084 0.414084
0.421805 0.421805 0.421805
0.429557 0.429557 0.429557
0.4374 0.4374 0.4374
0.441367 0.441367 0.441367
0.227481 0.227481 0.227481
0.232151 0.232151 0.232151
0.237018 0.237018 0.237018
0.242267 0.242267 0.242267
0.247959 0.247959 0.247959
0.254002 0.254002 0.254002
0.26038 0.26038 0.26038
0.26714 0.26714 0.26714
0.274464 0.274464 0.274464
0.282032 0.282032 0.282032
0.289815 0.289815 0.289815
0.299321 0.299321 0.299321
0.310033 0.310033 0.310033
0.321248 0.321248 0.321248
0.335119 0.335119 0.335119
0.342672 0.342672 0.342672
0.350408 0.350408 0.350408
0.358328 0.358328 0.358328
0.366522 0.366522 0.366522
0.375021 0.375021 0.375021
0.382071 0.382071 0.382071
0.388815 0.388815 0.388815
0.395697 0.395697 0.395697
0.402747 0.402747 0.402747
0.410025 0.410025 0.410025
0.417472 0.417472 0.417472
0.425025 0.425025 0.425025
0.432853 0.432853 0.432853
0.44062 0.44062 0.44062
0.448508 0.448508 0.448508
0.456489 0.456489 0.456489
0.46453 0.46453 0.46453
0.46833 0.46833 0.46833
0.24596 0.24596 0.24596
0.250858 0.250858 0.250858
0.255802 0.255802 0.255802
0.260945 0.260945 0.260945
0.266728 0.266728 0.266728
0.272953 0.272953 0.272953
0.279454 0.279454 0.279454
0.286305 0.286305 0.286305
0.293553 0.293553 0.293553
0.301167 0.301167 0.301167
0.309071 0.309071 0.309071
0.317311 0.317311 0.317311
0.327932 0.327932 0.327932
0.338994 0.338994 0.338994
0.350729 0.350729 0.350729
0.365438 0.365438 0.365438
0.373342 0.373342 0.373342
0.381445 0.381445 0.381445
0.389746 0.389746 0.389746
0.398291 0.398291 0.398291
0.407156 0.407156 0.407156
0.415747 0.415747 0.415747
0.422705 0.422705 0.422705
0.429755 0.429755 0.429755
0.437034 0.437034 0.437034
0.444541 0.444541 0.444541
0.452247 0.452247 0.452247
0.460197 0.460197 0.460197
0.468086 0.468086 0.468086
0.476051 0.476051 0.476051
0.484138 0.484138 0.484138
0.492317 0.492317 0.492317
0.495903 0.495903 0.495903
0.26482 0.26482 0.26482
0.269642 0.269642 0.269642
0.274739 0.274739 0.274739
0.280064 0.280064 0.280064
0.285924 0.285924 0.285924
0.292119 0.292119 0.292119
0.29868 0.29868 0.29868
0.305821 0.305821 0.305821
0.313222 0.313222 0.313222
0.320989 0.320989 0.320989
0.328984 0.328984 0.328984
0.337224 0.337224 0.337224
0.346426 0.346426 0.346426
0.35761 0.35761 0.35761
0.369345 0.369345 0.369345
0.381582 0.381582 0.381582
0.397314 0.397314 0.397314
0.405692 0.405692 0.405692
0.41416 0.41416 0.41416
0.422827 0.422827 0.422827
0.431693 0.431693 0.431693
0.440818 0.440818 0.440818
0.450187 0.450187 0.450187
0.458076 0.458076 0.458076
0.465278 0.465278 0.465278
0.472724 0.472724 0.472724
0.480369 0.480369 0.480369
0.48838 0.48838 0.48838
0.49633 0.49633 0.49633
0.504356 0.504356 0.504356
0.512474 0.512474 0.512474
0.520668 0.520668 0.520668
0.523903 0.523903 0.523903
0.283848 0.283848 0.283848
0.288914 0.288914 0.288914
0.294011 0.294011 0.294011
0.299336 0.299336 0.299336
0.305486 0.305486 0.305486
0.311833 0.311833 0.311833
0.318547 0.318547 0.318547
0.325643 0.325643 0.325643
0.33315 0.33315 0.33315
0.341115 0.341115 0.341115
0.349355 0.349355 0.349355
0.357748 0.357748 0.357748
0.3664 0.3664 0.3664
0.376898 0.376898 0.376898
0.388754 0.388754 0.388754
0.401068 0.401068 0.401068
0.414084 0.414084 0.414084
0.430716 0.430716 0.430716
0.439292 0.439292 0.439292
0.448051 0.448051 0.448051
0.457008 0.457008 0.457008
0.466148 0.466148 0.466148
0.475486 0.475486 0.475486
0.485054 0.485054 0.485054
0.494408 0.494408 0.494408
0.501961 0.501961 0.501961
0.509468 0.509468 0.509468
0.51722 0.51722 0.51722
0.525246 0.525246 0.525246
0.533227 0.533227 0.533227
0.541299 0.541299 0.541299
0.549432 0.549432 0.549432
0.552239 0.552239 0.552239
0.303319 0.303319 0.303319
0.308354 0.308354 0.308354
0.313664 0.313664 0.313664
0.319234 0.319234 0.319234
0.325307 0.325307 0.325307
0.331762 0.331762 0.331762
0.338659 0.338659 0.338659
0.34609 0.34609 0.34609
0.353872 0.353872 0.353872
0.361975 0.361975 0.361975
0.370398 0.370398 0.370398
0.37911 0.37911 0.37911
0.388006 0.388006 0.388006
0.396994 0.396994 0.396994
0.40882 0.40882 0.40882
0.421408 0.421408 0.421408
0.434165 0.434165 0.434165
0.447715 0.447715 0.447715
0.465217 0.465217 0.465217
0.474067 0.474067 0.474067
0.483055 0.483055 0.483055
0.49221 0.49221 0.49221
0.501534 0.501534 0.501534
0.511025 0.511025 0.511025
0.520699 0.520699 0.520699
0.530495 0.530495 0.530495
0.539406 0.539406 0.539406
0.546883 0.546883 0.546883
0.554559 0.554559 0.554559
0.562539 0.562539 0.562539
0.570474 0.570474 0.570474
0.578485 0.578485 0.578485
0.580713 0.580713 0.580713
0.323079 0.323079 0.323079
0.328359 0.328359 0.328359
0.333715 0.333715 0.333715
0.339345 0.339345 0.339345
0.345754 0.345754 0.345754
0.352483 0.352483 0.352483
0.359518 0.359518 0.359518
0.36701 0.36701 0.36701
0.37499 0.37499 0.37499
0.383398 0.383398 0.383398
0.392035 0.392035 0.392035
0.4009 0.4009 0.4009
0.41004 0.41004 0.41004
0.419425 0.419425 0.419425
0.429557 0.429557 0.429557
0.442176 0.442176 0.442176
0.455207 0.455207 0.455207
0.468635 0.468635 0.468635
0.482444 0.482444 0.482444
0.500664 0.500664 0.500664
0.509712 0.509712 0.509712
0.518837 0.518837 0.518837
0.528099 0.528099 0.528099
0.537514 0.537514 0.537514
0.547036 0.547036 0.547036
0.556695 0.556695 0.556695
0.566445 0.566445 0.566445
0.576288 0.576288 0.576288
0.584497 0.584497 0.584497
0.592004 0.592004 0.592004
0.599756 0.599756 0.599756
0.607584 0.607584 0.607584
0.608972 0.608972 0.608972
0.34345 0.34345 0.34345
0.34876 0.34876 0.34876
0.354253 0.354253 0.354253
0.360189 0.360189 0.360189
0.366644 0.366644 0.366644
0.373526 0.373526 0.373526
0.38085 0.38085 0.38085
0.388586 0.388586 0.388586
0.39675 0.39675 0.39675
0.405539 0.405539 0.405539
0.414389 0.414389 0.414389
0.423438 0.423438 0.423438
0.43267 0.43267 0.43267
0.442237 0.442237 0.442237
0.451957 0.451957 0.451957
0.463493 0.463493 0.463493
0.476677 0.476677 0.476677
0.490013 0.490013 0.490013
0.503868 0.503868 0.503868
0.517922 0.517922 0.517922
0.536706 0.536706 0.536706
0.54583 0.54583 0.54583
0.554986 0.554986 0.554986
0.564248 0.564248 0.564248
0.573617 0.573617 0.573617
0.583093 0.583093 0.583093
0.592615 0.592615 0.592615
0.602182 0.602182 0.602182
0.611856 0.611856 0.611856
0.621256 0.621256 0.621256
0.629084 0.629084 0.629084
0.636454 0.636454 0.636454
0.637156 0.637156 0.637156
0.364141 0.364141 0.364141
0.369787 0.369787 0.369787
0.375509 0.375509 0.375509
0.381506 0.381506 0.381506
0.388174 0.388174 0.388174
0.395407 0.395407 0.395407
0.402899 0.402899 0.402899
0.410895 0.410895 0.410895
0.419318 0.419318 0.419318
0.428122 0.428122 0.428122
0.437186 0.437186 0.437186
0.44651 0.44651 0.44651
0.456031 0.456031 0.456031
0.465721 0.465721 0.465721
0.475578 0.475578 0.475578
0.485649 0.485649 0.485649
0.498375 0.498375 0.498375
0.51191 0.51191 0.51191
0.525505 0.525505 0.525505
0.539574 0.539574 0.539574
0.553796 0.553796 0.553796
0.572885 0.572885 0.572885
0.581994 0.581994 0.581994
0.591073 0.591073 0.591073
0.600198 0.600198 0.600198
0.60943 0.60943 0.60943
0.618723 0.618723 0.618723
0.628031 0.628031 0.628031
0.637339 0.637339 0.637339
0.646708 0.646708 0.646708
0.656092 0.656092 0.656092
0.664927 0.664927 0.664927
0.665125 0.665125 0.665125
0.385718 0.385718 0.385718
0.391333 0.391333 0.391333
0.397177 0.397177 0.397177
0.40351 0.40351 0.40351
0.410407 0.410407 0.410407
0.417716 0.417716 0.417716
0.425406 0.425406 0.425406
0.433539 0.433539 0.433539
0.442145 0.442145 0.442145
0.451194 0.451194 0.451194
0.460456 0.460456 0.460456
0.469902 0.469902 0.469902
0.479545 0.479545 0.479545
0.489387 0.489387 0.489387
0.499382 0.499382 0.499382
0.509483 0.509483 0.509483
0.52047 0.52047 0.52047
0.533959 0.533959 0.533959
0.547555 0.547555 0.547555
0.561456 0.561456 0.561456
0.575387 0.575387 0.575387
0.589746 0.589746 0.589746
0.608759 0.608759 0.608759
0.617746 0.617746 0.617746
0.626703 0.626703 0.626703
0.635569 0.635569 0.635569
0.644556 0.644556 0.644556
0.653574 0.653574 0.653574
0.662562 0.662562 0.662562
0.671519 0.671519 0.671519
0.680537 0.680537 0.680537
0.68954 0.68954 0.68954
0.691356 0.691356 0.691356
0.407568 0.407568 0.407568
0.41355 0.41355 0.41355
0.419654 0.419654 0.419654
0.425956 0.425956 0.425956
0.43299 0.43299 0.43299
0.440635 0.440635 0.440635
0.448554 0.448554 0.448554
0.456901 0.456901 0.456901
0.465644 0.465644 0.465644
0.47483 0.47483 0.47483
0.484245 0.484245 0.484245
0.493843 0.493843 0.493843
0.503594 0.503594 0.503594
0.513497 0.513497 0.513497
0.523552 0.523552 0.523552
0.533654 0.533654 0.533654
0.54377 0.54377 0.54377
0.556023 0.556023 0.556023
0.569665 0.569665 0.569665
0.58323 0.58323 0.58323
0.597055 0.597055 0.597055
0.610864 0.610864 0.610864
0.625025 0.625025 0.625025
0.643946 0.643946 0.643946
0.652705 0.652705 0.652705
0.661418 0.661418 0.661418
0.669978 0.669978 0.669978
0.67863 0.67863 0.67863
0.687312 0.687312 0.687312
0.695933 0.695933 0.695933
0.704509 0.704509 0.704509
0.71313 0.71313 0.71313
0.71548 0.71548 0.71548
0.430198 0.430198 0.430198
0.436133 0.436133 0.436133
0.442344 0.442344 0.442344
0.449027 0.449027 0.449027
0.456245 0.456245 0.456245
0.463844 0.463844 0.463844
0.47187 0.47187 0.47187
0.480354 0.480354 0.480354
0.489265 0.489265 0.489265
0.498589 0.498589 0.498589
0.508095 0.508095 0.508095
0.517754 0.517754 0.517754
0.527581 0.527581 0.527581
0.537545 0.537545 0.537545
0.547601 0.547601 0.547601
0.557733 0.557733 0.557733
0.567941 0.567941 0.567941
0.578454 0.578454 0.578454
0.591485 0.591485 0.591485
0.605035 0.605035 0.605035
0.618479 0.618479 0.618479
0.63209 0.63209 0.63209
0.645609 0.645609 0.645609
0.659434 0.659434 0.659434
0.678096 0.678096 0.678096
0.686549 0.686549 0.686549
0.694911 0.694911 0.694911
0.703151 0.703151 0.703151
0.711452 0.711452 0.711452
0.719768 0.719768 0.719768
0.728069 0.728069 0.728069
0.736339 0.736339 0.736339
0.739086 0.739086 0.739086
0.453086 0.453086 0.453086
0.459159 0.459159 0.459159
0.465675 0.465675 0.465675
0.472251 0.472251 0.472251
0.479591 0.479591 0.479591
0.487343 0.487343 0.487343
0.495659 0.495659 0.495659
0.50428 0.50428 0.50428
0.513283 0.513283 0.513283
0.522667 0.522667 0.522667
0.53225 0.53225 0.53225
0.54197 0.54197 0.54197
0.551797 0.551797 0.551797
0.561654 0.561654 0.561654
0.571557 0.571557 0.571557
0.581643 0.581643 0.581643
0.591775 0.591775 0.591775
0.601907 0.601907 0.601907
0.613306 0.613306 0.613306
0.626474 0.626474 0.626474
0.639765 0.639765 0.639765
0.652934 0.652934 0.652934
0.666194 0.666194 0.666194
0.679316 0.679316 0.679316
0.692699 0.692699 0.692699
0.710964 0.710964 0.710964
0.719112 0.719112 0.719112
0.727153 0.727153 0.727153
0.735149 0.735149 0.735149
0.743175 0.743175 0.743175
0.751232 0.751232 0.751232
0.759228 0.759228 0.759228
0.762234 0.762234 0.762234
0.476432 0.476432 0.476432
0.482643 0.482643 0.482643
0.489067 0.489067 0.489067
0.495842 0.495842 0.495842
0.50341 0.50341 0.50341
0.511223 0.511223 0.511223
0.519463 0.519463 0.519463
0.528099 0.528099 0.528099
0.537163 0.537163 0.537163
0.546578 0.546578 0.546578
0.556161 0.556161 0.556161
0.56585 0.56585 0.56585
0.575677 0.575677 0.575677
0.585565 0.585565 0.585565
0.595468 0.595468 0.595468
0.605447 0.605447 0.605447
0.615488 0.615488 0.615488
0.625483 0.625483 0.625483
0.635248 0.635248 0.635248
0.647684 0.647684 0.647684
0.6607 0.6607 0.6607
0.673503 0.673503 0.673503
0.68629 0.68629 0.68629
0.699107 0.699107 0.699107
0.711757 0.711757 0.711757
0.724926 0.724926 0.724926
0.742733 0.742733 0.742733
0.750622 0.750622 0.750622
0.758419 0.758419 0.758419
