bundles/resolve-cinematic-luts/Lens Distortions - Finishing LUTs/LD - Evoke B&W 2.cube
TITLE "LD - Evoke 2"
# Copyright (c) Lens Distortions, LLC. All Rights Reserved.
# LensDistortions.com
# ref-EBW1
LUT_3D_SIZE 5
0 0 0
0.0191348 0.0191348 0.0191348
0.0596628 0.0596628 0.0596628
0.110216 0.110216 0.110216
0.15964 0.15964 0.15964
0.118853 0.118853 0.118853
0.176059 0.176059 0.176059
0.228 0.228 0.228
0.284153 0.284153 0.284153
0.342687 0.342687 0.342687
0.28658 0.28658 0.28658
0.363058 0.363058 0.363058
0.423743 0.423743 0.423743
0.480003 0.480003 0.480003
0.537545 0.537545 0.537545
0.473838 0.473838 0.473838
0.551156 0.551156 0.551156
0.609873 0.609873 0.609873
0.659525 0.659525 0.659525
0.702724 0.702724 0.702724
0.639185 0.639185 0.639185
0.704143 0.704143 0.704143
0.763455 0.763455 0.763455
0.803693 0.803693 0.803693
0.841001 0.841001 0.841001
0 0 0
0.0323033 0.0323033 0.0323033
0.0793317 0.0793317 0.0793317
0.130556 0.130556 0.130556
0.180728 0.180728 0.180728
0.131701 0.131701 0.131701
0.197314 0.197314 0.197314
0.251087 0.251087 0.251087
0.307683 0.307683 0.307683
0.366873 0.366873 0.366873
0.299275 0.299275 0.299275
0.373342 0.373342 0.373342
0.447807 0.447807 0.447807
0.502297 0.502297 0.502297
0.560571 0.560571 0.560571
0.4813 0.4813 0.4813
0.555566 0.555566 0.555566
0.631052 0.631052 0.631052
0.679713 0.679713 0.679713
0.71812 0.71812 0.71812
0.641138 0.641138 0.641138
0.708003 0.708003 0.708003
0.781399 0.781399 0.781399
0.820233 0.820233 0.820233
0.856779 0.856779 0.856779
0.0110323 0.0110323 0.0110323
0.0459144 0.0459144 0.0459144
0.0967575 0.0967575 0.0967575
0.151095 0.151095 0.151095
0.20174 0.20174 0.20174
0.15111 0.15111 0.15111
0.196963 0.196963 0.196963
0.264729 0.264729 0.264729
0.331716 0.331716 0.331716
0.391577 0.391577 0.391577
0.317281 0.317281 0.317281
0.371771 0.371771 0.371771
0.471839 0.471839 0.471839
0.529076 0.529076 0.529076
0.583597 0.583597 0.583597
0.502907 0.502907 0.502907
0.56463 0.56463 0.56463
0.638361 0.638361 0.638361
0.699184 0.699184 0.699184
0.734844 0.734844 0.734844
0.659663 0.659663 0.659663
0.710262 0.710262 0.710262
0.776898 0.776898 0.776898
0.836576 0.836576 0.836576
0.872145 0.872145 0.872145
0.023331 0.023331 0.023331
0.0618448 0.0618448 0.0618448
0.113985 0.113985 0.113985
0.166583 0.166583 0.166583
0.220066 0.220066 0.220066
0.170016 0.170016 0.170016
0.216449 0.216449 0.216449
0.275959 0.275959 0.275959
0.343191 0.343191 0.343191
0.411627 0.411627 0.411627
0.339193 0.339193 0.339193
0.393698 0.393698 0.393698
0.460761 0.460761 0.460761
0.539269 0.539269 0.539269
0.605402 0.605402 0.605402
0.517784 0.517784 0.517784
0.568475 0.568475 0.568475
0.630106 0.630106 0.630106
0.718654 0.718654 0.718654
0.762142 0.762142 0.762142
0.673976 0.673976 0.673976
0.722057 0.722057 0.722057
0.783001 0.783001 0.783001
0.84181 0.84181 0.84181
0.887205 0.887205 0.887205
0.0364843 0.0364843 0.0364843
0.0790875 0.0790875 0.0790875
0.131548 0.131548 0.131548
0.182544 0.182544 0.182544
0.235813 0.235813 0.235813
0.188602 0.188602 0.188602
0.235447 0.235447 0.235447
0.293568 0.293568 0.293568
0.356756 0.356756 0.356756
0.424323 0.424323 0.424323
0.360296 0.360296 0.360296
0.415259 0.415259 0.415259
0.470985 0.470985 0.470985
0.54078 0.54078 0.54078
0.608576 0.608576 0.608576
0.538415 0.538415 0.538415
0.588052 0.588052 0.588052
0.635904 0.635904 0.635904
0.707958 0.707958 0.707958
0.769848 0.769848 0.769848
0.687694 0.687694 0.687694
0.729213 0.729213 0.729213
0.76936 0.76936 0.76936
0.835096 0.835096 0.835096
0.902358 0.902358 0.902358
