bundles/resolve-cinematic-luts/Lens Distortions - Finishing LUTs/LD - Evoke B&W 2.cube
TITLE "LD - Evoke 2"
# Copyright (c) Lens Distortions, LLC. All Rights Reserved.
# LensDistortions.com
# ref-EBW1
LUT_3D_SIZE 33
0 0 0
0 0 0
0 0 0
0 0 0
0.00341802 0.00341802 0.00341802
0.00714122 0.00714122 0.00714122
0.0110323 0.0110323 0.0110323
0.0149996 0.0149996 0.0149996
0.0191348 0.0191348 0.0191348
0.0236362 0.0236362 0.0236362
0.027985 0.027985 0.027985
0.0326238 0.0326238 0.0326238
0.0378119 0.0378119 0.0378119
0.0430152 0.0430152 0.0430152
0.0484016 0.0484016 0.0484016
0.0538186 0.0538186 0.0538186
0.0596628 0.0596628 0.0596628
0.0654917 0.0654917 0.0654917
0.0715343 0.0715343 0.0715343
0.0779889 0.0779889 0.0779889
0.0844129 0.0844129 0.0844129
0.0909895 0.0909895 0.0909895
0.0975814 0.0975814 0.0975814
0.104112 0.104112 0.104112
0.110216 0.110216 0.110216
0.116258 0.116258 0.116258
0.122515 0.122515 0.122515
0.128618 0.128618 0.128618
0.134752 0.134752 0.134752
0.141039 0.141039 0.141039
0.147295 0.147295 0.147295
0.153506 0.153506 0.153506
0.15964 0.15964 0.15964
0.000198367 0.000198367 0.000198367
0.00451667 0.00451667 0.00451667
0.00825513 0.00825513 0.00825513
0.0122988 0.0122988 0.0122988
0.0163577 0.0163577 0.0163577
0.0205386 0.0205386 0.0205386
0.0248875 0.0248875 0.0248875
0.0294957 0.0294957 0.0294957
0.0343328 0.0343328 0.0343328
0.0392615 0.0392615 0.0392615
0.0446937 0.0446937 0.0446937
0.0500801 0.0500801 0.0500801
0.0556344 0.0556344 0.0556344
0.0615244 0.0615244 0.0615244
0.0675822 0.0675822 0.0675822
0.0735485 0.0735485 0.0735485
0.0797894 0.0797894 0.0797894
0.0865034 0.0865034 0.0865034
0.0931411 0.0931411 0.0931411
0.099794 0.099794 0.099794
0.106233 0.106233 0.106233
0.112261 0.112261 0.112261
0.118227 0.118227 0.118227
0.124269 0.124269 0.124269
0.130632 0.130632 0.130632
0.136843 0.136843 0.136843
0.142931 0.142931 0.142931
0.149172 0.149172 0.149172
0.15523 0.15523 0.15523
0.161395 0.161395 0.161395
0.167788 0.167788 0.167788
0.174197 0.174197 0.174197
0.180392 0.180392 0.180392
0.0119326 0.0119326 0.0119326
0.0178683 0.0178683 0.0178683
0.0220951 0.0220951 0.0220951
0.026154 0.026154 0.026154
0.0306706 0.0306706 0.0306706
0.0357824 0.0357824 0.0357824
0.0411841 0.0411841 0.0411841
0.04654 0.04654 0.04654
0.0521401 0.0521401 0.0521401
0.0576486 0.0576486 0.0576486
0.0633097 0.0633097 0.0633097
0.0694896 0.0694896 0.0694896
0.0758526 0.0758526 0.0758526
0.0822156 0.0822156 0.0822156
0.0887465 0.0887465 0.0887465
0.0954604 0.0954604 0.0954604
0.101778 0.101778 0.101778
0.107958 0.107958 0.107958
0.11429 0.11429 0.11429
0.120256 0.120256 0.120256
0.126375 0.126375 0.126375
0.13257 0.13257 0.13257
0.138918 0.138918 0.138918
0.145205 0.145205 0.145205
0.151247 0.151247 0.151247
0.157473 0.157473 0.157473
0.163531 0.163531 0.163531
0.169696 0.169696 0.169696
0.176303 0.176303 0.176303
0.18265 0.18265 0.18265
0.1888 0.1888 0.1888
0.195041 0.195041 0.195041
0.201648 0.201648 0.201648
0.024979 0.024979 0.024979
0.0326543 0.0326543 0.0326543
0.0378271 0.0378271 0.0378271
0.0429847 0.0429847 0.0429847
0.0479744 0.0479744 0.0479744
0.0533761 0.0533761 0.0533761
0.0593729 0.0593729 0.0593729
0.0653239 0.0653239 0.0653239
0.071458 0.071458 0.071458
0.0779889 0.0779889 0.0779889
0.0844892 0.0844892 0.0844892
0.0910506 0.0910506 0.0910506
0.0975814 0.0975814 0.0975814
0.104097 0.104097 0.104097
0.110155 0.110155 0.110155
0.116121 0.116121 0.116121
0.122515 0.122515 0.122515
0.128588 0.128588 0.128588
0.134676 0.134676 0.134676
0.140917 0.140917 0.140917
0.147097 0.147097 0.147097
0.153323 0.153323 0.153323
0.159548 0.159548 0.159548
0.165835 0.165835 0.165835
0.172 0.172 0.172
0.178164 0.178164 0.178164
0.184466 0.184466 0.184466
0.190906 0.190906 0.190906
0.197421 0.197421 0.197421
0.20383 0.20383 0.20383
0.210452 0.210452 0.210452
0.216876 0.216876 0.216876
0.223423 0.223423 0.223423
0.0404669 0.0404669 0.0404669
0.0501869 0.0501869 0.0501869
0.0557717 0.0557717 0.0557717
0.0616159 0.0616159 0.0616159
0.0677806 0.0677806 0.0677806
0.0732586 0.0732586 0.0732586
0.0791791 0.0791791 0.0791791
0.086183 0.086183 0.086183
0.0929427 0.0929427 0.0929427
0.099733 0.099733 0.099733
0.106249 0.106249 0.106249
0.112383 0.112383 0.112383
0.118349 0.118349 0.118349
0.124392 0.124392 0.124392
0.130678 0.130678 0.130678
0.136965 0.136965 0.136965
0.143023 0.143023 0.143023
0.149248 0.149248 0.149248
0.155322 0.155322 0.155322
0.161395 0.161395 0.161395
0.167803 0.167803 0.167803
0.174304 0.174304 0.174304
0.180468 0.180468 0.180468
0.186618 0.186618 0.186618
0.192996 0.192996 0.192996
0.199481 0.199481 0.199481
0.206256 0.206256 0.206256
0.212741 0.212741 0.212741
0.219318 0.219318 0.219318
0.225818 0.225818 0.225818
0.232486 0.232486 0.232486
0.239719 0.239719 0.239719
0.246662 0.246662 0.246662
0.0581826 0.0581826 0.0581826
0.0681773 0.0681773 0.0681773
0.0759899 0.0759899 0.0759899
0.0824445 0.0824445 0.0824445
0.0889754 0.0889754 0.0889754
0.0955673 0.0955673 0.0955673
0.101457 0.101457 0.101457
0.107149 0.107149 0.107149
0.113756 0.113756 0.113756
0.119905 0.119905 0.119905
0.126101 0.126101 0.126101
0.132372 0.132372 0.132372
0.138918 0.138918 0.138918
0.145235 0.145235 0.145235
0.151354 0.151354 0.151354
0.157534 0.157534 0.157534
0.163668 0.163668 0.163668
0.169818 0.169818 0.169818
0.176135 0.176135 0.176135
0.182757 0.182757 0.182757
0.188922 0.188922 0.188922
0.195193 0.195193 0.195193
0.201755 0.201755 0.201755
0.208209 0.208209 0.208209
0.214817 0.214817 0.214817
0.221592 0.221592 0.221592
0.228275 0.228275 0.228275
0.234974 0.234974 0.234974
0.241749 0.241749 0.241749
0.248829 0.248829 0.248829
0.255818 0.255818 0.255818
0.262776 0.262776 0.262776
0.26981 0.26981 0.26981
0.0779278 0.0779278 0.0779278
0.0883955 0.0883955 0.0883955
0.0977798 0.0977798 0.0977798
0.104265 0.104265 0.104265
0.110292 0.110292 0.110292
0.116228 0.116228 0.116228
0.122499 0.122499 0.122499
0.128237 0.128237 0.128237
0.133883 0.133883 0.133883
0.140169 0.140169 0.140169
0.146548 0.146548 0.146548
0.152911 0.152911 0.152911
0.159258 0.159258 0.159258
0.165713 0.165713 0.165713
0.171969 0.171969 0.171969
0.178241 0.178241 0.178241
0.184497 0.184497 0.184497
0.190814 0.190814 0.190814
0.197543 0.197543 0.197543
0.203967 0.203967 0.203967
0.21062 0.21062 0.21062
0.217044 0.217044 0.217044
0.223499 0.223499 0.223499
0.230457 0.230457 0.230457
0.237491 0.237491 0.237491
0.244266 0.244266 0.244266
0.251026 0.251026 0.251026
0.258 0.258 0.258
0.265141 0.265141 0.265141
0.272312 0.272312 0.272312
0.279393 0.279393 0.279393
0.286488 0.286488 0.286488
0.293568 0.293568 0.293568
0.0990616 0.0990616 0.0990616
0.108553 0.108553 0.108553
0.118242 0.118242 0.118242
0.124483 0.124483 0.124483
0.130739 0.130739 0.130739
0.13695 0.13695 0.13695
0.14313 0.14313 0.14313
0.149233 0.149233 0.149233
0.154925 0.154925 0.154925
0.160571 0.160571 0.160571
0.166705 0.166705 0.166705
0.173587 0.173587 0.173587
0.179934 0.179934 0.179934
0.186236 0.186236 0.186236
0.192691 0.192691 0.192691
0.199222 0.199222 0.199222
0.206149 0.206149 0.206149
0.212757 0.212757 0.212757
0.219425 0.219425 0.219425
0.22594 0.22594 0.22594
0.232593 0.232593 0.232593
0.239689 0.239689 0.239689
0.246799 0.246799 0.246799
0.253559 0.253559 0.253559
0.260349 0.260349 0.260349
0.267445 0.267445 0.267445
0.274708 0.274708 0.274708
0.281712 0.281712 0.281712
0.289128 0.289128 0.289128
0.296132 0.296132 0.296132
0.303334 0.303334 0.303334
0.310674 0.310674 0.310674
0.31809 0.31809 0.31809
0.118853 0.118853 0.118853
0.127825 0.127825 0.127825
0.137362 0.137362 0.137362
0.145205 0.145205 0.145205
0.151446 0.151446 0.151446
0.157519 0.157519 0.157519
0.163745 0.163745 0.163745
0.169894 0.169894 0.169894
0.176059 0.176059 0.176059
0.182239 0.182239 0.182239
0.188113 0.188113 0.188113
0.193927 0.193927 0.193927
0.200793 0.200793 0.200793
0.207477 0.207477 0.207477
0.214252 0.214252 0.214252
0.221103 0.221103 0.221103
0.228 0.228 0.228
0.234806 0.234806 0.234806
0.241672 0.241672 0.241672
0.248722 0.248722 0.248722
0.255863 0.255863 0.255863
0.262898 0.262898 0.262898
0.269871 0.269871 0.269871
0.277043 0.277043 0.277043
0.284153 0.284153 0.284153
0.29131 0.29131 0.29131
0.298558 0.298558 0.298558
0.305913 0.305913 0.305913
0.313085 0.313085 0.313085
0.320562 0.320562 0.320562
0.327947 0.327947 0.327947
0.335164 0.335164 0.335164
0.342687 0.342687 0.342687
0.13872 0.13872 0.13872
0.147387 0.147387 0.147387
0.156573 0.156573 0.156573
0.165927 0.165927 0.165927
0.172213 0.172213 0.172213
0.178363 0.178363 0.178363
0.184497 0.184497 0.184497
0.190875 0.190875 0.190875
0.197513 0.197513 0.197513
0.204105 0.204105 0.204105
0.210208 0.210208 0.210208
0.216175 0.216175 0.216175
0.222248 0.222248 0.222248
0.229297 0.229297 0.229297
0.236576 0.236576 0.236576
0.243549 0.243549 0.243549
0.250462 0.250462 0.250462
0.257557 0.257557 0.257557
0.264805 0.264805 0.264805
0.272038 0.272038 0.272038
0.279255 0.279255 0.279255
0.286503 0.286503 0.286503
0.293599 0.293599 0.293599
0.301015 0.301015 0.301015
0.308354 0.308354 0.308354
0.315755 0.315755 0.315755
0.322972 0.322972 0.322972
0.33048 0.33048 0.33048
0.337896 0.337896 0.337896
0.34519 0.34519 0.34519
0.352514 0.352514 0.352514
0.360327 0.360327 0.360327
0.367971 0.367971 0.367971
0.158297 0.158297 0.158297
0.167285 0.167285 0.167285
0.17612 0.17612 0.17612
0.185336 0.185336 0.185336
0.193042 0.193042 0.193042
0.199588 0.199588 0.199588
0.20618 0.20618 0.20618
0.212955 0.212955 0.212955
0.219562 0.219562 0.219562
0.226078 0.226078 0.226078
0.232731 0.232731 0.232731
0.239231 0.239231 0.239231
0.245792 0.245792 0.245792
0.252232 0.252232 0.252232
0.258961 0.258961 0.258961
0.266316 0.266316 0.266316
0.273747 0.273747 0.273747
0.280934 0.280934 0.280934
0.288396 0.288396 0.288396
0.295674 0.295674 0.295674
0.302953 0.302953 0.302953
0.310414 0.310414 0.310414
0.317906 0.317906 0.317906
0.3252 0.3252 0.3252
0.332692 0.332692 0.332692
0.340536 0.340536 0.340536
0.347951 0.347951 0.347951
0.355291 0.355291 0.355291
0.362615 0.362615 0.362615
0.370169 0.370169 0.370169
0.378119 0.378119 0.378119
0.385504 0.385504 0.385504
0.393133 0.393133 0.393133
0.178546 0.178546 0.178546
0.187152 0.187152 0.187152
0.19617 0.19617 0.19617
0.205554 0.205554 0.205554
0.214862 0.214862 0.214862
0.22153 0.22153 0.22153
0.22858 0.22858 0.22858
0.235279 0.235279 0.235279
0.242039 0.242039 0.242039
0.248966 0.248966 0.248966
0.255955 0.255955 0.255955
0.262913 0.262913 0.262913
0.269474 0.269474 0.269474
0.276188 0.276188 0.276188
0.282963 0.282963 0.282963
0.28957 0.28957 0.28957
0.297047 0.297047 0.297047
0.304707 0.304707 0.304707
0.312108 0.312108 0.312108
0.319783 0.319783 0.319783
0.327276 0.327276 0.327276
0.334615 0.334615 0.334615
0.342138 0.342138 0.342138
0.350042 0.350042 0.350042
0.357641 0.357641 0.357641
0.365072 0.365072 0.365072
0.372656 0.372656 0.372656
0.380194 0.380194 0.380194
0.38819 0.38819 0.38819
0.395743 0.395743 0.395743
0.403342 0.403342 0.403342
0.410681 0.410681 0.410681
0.418341 0.418341 0.418341
0.198871 0.198871 0.198871
0.207691 0.207691 0.207691
0.216739 0.216739 0.216739
0.226047 0.226047 0.226047
0.236255 0.236255 0.236255
0.244602 0.244602 0.244602
0.251347 0.251347 0.251347
0.258305 0.258305 0.258305
0.265431 0.265431 0.265431
0.272419 0.272419 0.272419
0.279683 0.279683 0.279683
0.28687 0.28687 0.28687
0.293858 0.293858 0.293858
0.300633 0.300633 0.300633
0.307469 0.307469 0.307469
0.314214 0.314214 0.314214
0.321096 0.321096 0.321096
0.328847 0.328847 0.328847
0.3364 0.3364 0.3364
0.343923 0.343923 0.343923
0.351461 0.351461 0.351461
0.359396 0.359396 0.359396
0.367224 0.367224 0.367224
0.374701 0.374701 0.374701
0.382406 0.382406 0.382406
0.389929 0.389929 0.389929
0.397757 0.397757 0.397757
0.405402 0.405402 0.405402
0.413153 0.413153 0.413153
0.420554 0.420554 0.420554
0.428244 0.428244 0.428244
0.435737 0.435737 0.435737
0.443153 0.443153 0.443153
0.219974 0.219974 0.219974
0.22887 0.22887 0.22887
0.238209 0.238209 0.238209
0.2477 0.2477 0.2477
0.257588 0.257588 0.257588
0.267811 0.267811 0.267811
0.2748 0.2748 0.2748
0.282063 0.282063 0.282063
0.289143 0.289143 0.289143
0.296529 0.296529 0.296529
0.303624 0.303624 0.303624
0.311025 0.311025 0.311025
0.318456 0.318456 0.318456
0.325628 0.325628 0.325628
0.332265 0.332265 0.332265
0.339757 0.339757 0.339757
0.346563 0.346563 0.346563
0.353353 0.353353 0.353353
0.360555 0.360555 0.360555
0.368505 0.368505 0.368505
0.376562 0.376562 0.376562
0.384192 0.384192 0.384192
0.391989 0.391989 0.391989
0.399558 0.399558 0.399558
0.407385 0.407385 0.407385
0.415076 0.415076 0.415076
0.422721 0.422721 0.422721
0.430106 0.430106 0.430106
0.437797 0.437797 0.437797
0.445335 0.445335 0.445335
0.452628 0.452628 0.452628
0.460014 0.460014 0.460014
0.467674 0.467674 0.467674
0.241489 0.241489 0.241489
0.250492 0.250492 0.250492
0.259968 0.259968 0.259968
0.269535 0.269535 0.269535
0.279637 0.279637 0.279637
0.290303 0.290303 0.290303
0.298833 0.298833 0.298833
0.306279 0.306279 0.306279
0.313497 0.313497 0.313497
0.320699 0.320699 0.320699
0.328359 0.328359 0.328359
0.335576 0.335576 0.335576
0.342855 0.342855 0.342855
0.350545 0.350545 0.350545
0.358282 0.358282 0.358282
0.365011 0.365011 0.365011
0.372 0.372 0.372
0.37908 0.37908 0.37908
0.386114 0.386114 0.386114
0.393332 0.393332 0.393332
0.401129 0.401129 0.401129
0.40882 0.40882 0.40882
0.416709 0.416709 0.416709
0.424414 0.424414 0.424414
0.431937 0.431937 0.431937
0.439551 0.439551 0.439551
0.447242 0.447242 0.447242
0.454734 0.454734 0.454734
0.461982 0.461982 0.461982
0.469169 0.469169 0.469169
0.476921 0.476921 0.476921
0.484276 0.484276 0.484276
0.491386 0.491386 0.491386
0.26392 0.26392 0.26392
0.273182 0.273182 0.273182
0.282551 0.282551 0.282551
0.29192 0.29192 0.29192
0.302007 0.302007 0.302007
0.312673 0.312673 0.312673
0.323339 0.323339 0.323339
0.330587 0.330587 0.330587
0.338338 0.338338 0.338338
0.345617 0.345617 0.345617
0.352956 0.352956 0.352956
0.360403 0.360403 0.360403
0.368246 0.368246 0.368246
0.375769 0.375769 0.375769
0.383154 0.383154 0.383154
0.390768 0.390768 0.390768
0.397818 0.397818 0.397818
0.40473 0.40473 0.40473
0.41207 0.41207 0.41207
0.418936 0.418936 0.418936
0.425925 0.425925 0.425925
0.43328 0.43328 0.43328
0.440909 0.440909 0.440909
0.448692 0.448692 0.448692
0.45658 0.45658 0.45658
0.463905 0.463905 0.463905
0.471138 0.471138 0.471138
0.478355 0.478355 0.478355
0.486107 0.486107 0.486107
0.493431 0.493431 0.493431
0.500465 0.500465 0.500465
0.507607 0.507607 0.507607
0.5149 0.5149 0.5149
0.28658 0.28658 0.28658
0.295735 0.295735 0.295735
0.30518 0.30518 0.30518
0.314839 0.314839 0.314839
0.324956 0.324956 0.324956
0.335973 0.335973 0.335973
0.347326 0.347326 0.347326
0.355734 0.355734 0.355734
0.363058 0.363058 0.363058
0.370611 0.370611 0.370611
0.378454 0.378454 0.378454
0.385977 0.385977 0.385977
0.393378 0.393378 0.393378
0.400992 0.400992 0.400992
0.408362 0.408362 0.408362
0.415991 0.415991 0.415991
0.423743 0.423743 0.423743
0.430426 0.430426 0.430426
0.437461 0.437461 0.437461
0.44445 0.44445 0.44445
0.451179 0.451179 0.451179
0.458061 0.458061 0.458061
0.465263 0.465263 0.465263
0.472618 0.472618 0.472618
0.480003 0.480003 0.480003
0.487358 0.487358 0.487358
0.494972 0.494972 0.494972
0.502113 0.502113 0.502113
0.509361 0.509361 0.509361
0.516686 0.516686 0.516686
0.523796 0.523796 0.523796
0.530694 0.530694 0.530694
0.537545 0.537545 0.537545
0.309529 0.309529 0.309529
0.318868 0.318868 0.318868
0.328496 0.328496 0.328496
0.338247 0.338247 0.338247
0.348577 0.348577 0.348577
0.359091 0.359091 0.359091
0.370398 0.370398 0.370398
0.380789 0.380789 0.380789
0.388312 0.388312 0.388312
0.396109 0.396109 0.396109
0.403586 0.403586 0.403586
0.411139 0.411139 0.411139
0.418524 0.418524 0.418524
0.426047 0.426047 0.426047
0.433524 0.433524 0.433524
0.441032 0.441032 0.441032
0.44831 0.44831 0.44831
0.455985 0.455985 0.455985
0.462486 0.462486 0.462486
0.469078 0.469078 0.469078
0.476173 0.476173 0.476173
0.48307 0.48307 0.48307
0.489586 0.489586 0.489586
0.496544 0.496544 0.496544
0.503365 0.503365 0.503365
0.510567 0.510567 0.510567
0.517968 0.517968 0.517968
0.525505 0.525505 0.525505
0.532464 0.532464 0.532464
0.53933 0.53933 0.53933
0.546212 0.546212 0.546212
0.553368 0.553368 0.553368
0.560311 0.560311 0.560311
0.332692 0.332692 0.332692
0.342031 0.342031 0.342031
0.35169 0.35169 0.35169
0.361547 0.361547 0.361547
0.371801 0.371801 0.371801
0.382513 0.382513 0.382513
0.39382 0.39382 0.39382
0.405615 0.405615 0.405615
0.413916 0.413916 0.413916
0.421225 0.421225 0.421225
0.428504 0.428504 0.428504
0.436088 0.436088 0.436088
0.443549 0.443549 0.443549
0.450919 0.450919 0.450919
0.458259 0.458259 0.458259
0.465812 0.465812 0.465812
0.472877 0.472877 0.472877
0.479957 0.479957 0.479957
0.487068 0.487068 0.487068
0.494118 0.494118 0.494118
0.500587 0.500587 0.500587
0.507164 0.507164 0.507164
0.513909 0.513909 0.513909
0.520302 0.520302 0.520302
0.526635 0.526635 0.526635
0.53373 0.53373 0.53373
0.540642 0.540642 0.540642
0.54757 0.54757 0.54757
0.554757 0.554757 0.554757
0.561715 0.561715 0.561715
0.568444 0.568444 0.568444
0.575326 0.575326 0.575326
0.5823 0.5823 0.5823
0.356497 0.356497 0.356497
0.36611 0.36611 0.36611
0.375662 0.375662 0.375662
0.385367 0.385367 0.385367
0.395529 0.395529 0.395529
0.406241 0.406241 0.406241
0.417441 0.417441 0.417441
0.42887 0.42887 0.42887
0.438529 0.438529 0.438529
0.446082 0.446082 0.446082
0.453483 0.453483 0.453483
0.460609 0.460609 0.460609
0.467857 0.467857 0.467857
0.475578 0.475578 0.475578
0.482643 0.482643 0.482643
0.489662 0.489662 0.489662
0.497017 0.497017 0.497017
0.504036 0.504036 0.504036
0.511116 0.511116 0.511116
0.518044 0.518044 0.518044
0.524773 0.524773 0.524773
0.53106 0.53106 0.53106
0.537316 0.537316 0.537316
0.544015 0.544015 0.544015
0.550469 0.550469 0.550469
0.556634 0.556634 0.556634
0.56321 0.56321 0.56321
0.569574 0.569574 0.569574
0.576349 0.576349 0.576349
0.583398 0.583398 0.583398
0.590311 0.590311 0.590311
0.596841 0.596841 0.596841
0.603311 0.603311 0.603311
0.380331 0.380331 0.380331
0.389746 0.389746 0.389746
0.399313 0.399313 0.399313
0.408927 0.408927 0.408927
0.418906 0.418906 0.418906
0.42945 0.42945 0.42945
0.44062 0.44062 0.44062
0.451972 0.451972 0.451972
0.463325 0.463325 0.463325
0.47042 0.47042 0.47042
0.477485 0.477485 0.477485
0.485328 0.485328 0.485328
0.492332 0.492332 0.492332
0.49926 0.49926 0.49926
0.506477 0.506477 0.506477
0.513512 0.513512 0.513512
0.5205 0.5205 0.5205
0.527459 0.527459 0.527459
0.534691 0.534691 0.534691
0.541375 0.541375 0.541375
0.548012 0.548012 0.548012
0.554391 0.554391 0.554391
0.560845 0.560845 0.560845
0.567041 0.567041 0.567041
0.573495 0.573495 0.573495
0.579568 0.579568 0.579568
0.585534 0.585534 0.585534
0.591669 0.591669 0.591669
0.598047 0.598047 0.598047
0.604471 0.604471 0.604471
0.611093 0.611093 0.611093
0.617777 0.617777 0.617777
0.624109 0.624109 0.624109
0.404105 0.404105 0.404105
0.413596 0.413596 0.413596
0.423011 0.423011 0.423011
0.432456 0.432456 0.432456
0.442557 0.442557 0.442557
0.452888 0.452888 0.452888
0.463584 0.463584 0.463584
0.474678 0.474678 0.474678
0.485985 0.485985 0.485985
0.494743 0.494743 0.494743
0.501884 0.501884 0.501884
0.508751 0.508751 0.508751
0.515908 0.515908 0.515908
0.522972 0.522972 0.522972
0.529763 0.529763 0.529763
0.536614 0.536614 0.536614
0.543893 0.543893 0.543893
0.550515 0.550515 0.550515
0.557153 0.557153 0.557153
0.563867 0.563867 0.563867
0.570733 0.570733 0.570733
0.57734 0.57734 0.57734
0.583368 0.583368 0.583368
0.589639 0.589639 0.589639
0.595575 0.595575 0.595575
0.601541 0.601541 0.601541
0.607782 0.607782 0.607782
0.613794 0.613794 0.613794
0.619638 0.619638 0.619638
0.625635 0.625635 0.625635
0.631464 0.631464 0.631464
0.637705 0.637705 0.637705
0.644373 0.644373 0.644373
0.427512 0.427512 0.427512
0.43682 0.43682 0.43682
0.446189 0.446189 0.446189
0.455863 0.455863 0.455863
0.465522 0.465522 0.465522
0.475624 0.475624 0.475624
0.485969 0.485969 0.485969
0.496834 0.496834 0.496834
0.507836 0.507836 0.507836
0.518227 0.518227 0.518227
0.525277 0.525277 0.525277
0.532311 0.532311 0.532311
0.53901 0.53901 0.53901
0.545693 0.545693 0.545693
0.553033 0.553033 0.553033
0.559655 0.559655 0.559655
0.566217 0.566217 0.566217
0.573098 0.573098 0.573098
0.579599 0.579599 0.579599
0.586084 0.586084 0.586084
0.592645 0.592645 0.592645
0.59942 0.59942 0.59942
0.605707 0.605707 0.605707
0.611383 0.611383 0.611383
0.617502 0.617502 0.617502
0.623362 0.623362 0.623362
0.629175 0.629175 0.629175
0.635081 0.635081 0.635081
0.640909 0.640909 0.640909
0.646479 0.646479 0.646479
0.652155 0.652155 0.652155
0.657908 0.657908 0.657908
0.66363 0.66363 0.66363
0.450797 0.450797 0.450797
0.460014 0.460014 0.460014
0.469123 0.469123 0.469123
0.478248 0.478248 0.478248
0.487755 0.487755 0.487755
0.497673 0.497673 0.497673
0.507927 0.507927 0.507927
0.518853 0.518853 0.518853
0.52987 0.52987 0.52987
0.5411 0.5411 0.5411
0.548165 0.548165 0.548165
0.554833 0.554833 0.554833
0.561898 0.561898 0.561898
0.568673 0.568673 0.568673
0.575143 0.575143 0.575143
0.581918 0.581918 0.581918
0.588403 0.588403 0.588403
0.594781 0.594781 0.594781
0.601221 0.601221 0.601221
0.608057 0.608057 0.608057
0.614237 0.614237 0.614237
0.620371 0.620371 0.620371
0.626673 0.626673 0.626673
0.633051 0.633051 0.633051
0.638666 0.638666 0.638666
0.644434 0.644434 0.644434
0.650172 0.650172 0.650172
0.655634 0.655634 0.655634
0.661265 0.661265 0.661265
0.666957 0.666957 0.666957
0.672541 0.672541 0.672541
0.677974 0.677974 0.677974
0.683436 0.683436 0.683436
0.473838 0.473838 0.473838
0.482795 0.482795 0.482795
0.491753 0.491753 0.491753
0.500679 0.500679 0.500679
0.509926 0.509926 0.509926
0.519677 0.519677 0.519677
0.530037 0.530037 0.530037
0.540429 0.540429 0.540429
0.551156 0.551156 0.551156
0.562219 0.562219 0.562219
0.570871 0.570871 0.570871
0.577325 0.577325 0.577325
0.583963 0.583963 0.583963
0.590677 0.590677 0.590677
0.597162 0.597162 0.597162
0.603464 0.603464 0.603464
0.609873 0.609873 0.609873
0.616556 0.616556 0.616556
0.622675 0.622675 0.622675
0.628809 0.628809 0.628809
0.63505 0.63505 0.63505
0.641306 0.641306 0.641306
0.647288 0.647288 0.647288
0.653483 0.653483 0.653483
0.659525 0.659525 0.659525
0.664881 0.664881 0.664881
0.670314 0.670314 0.670314
0.675929 0.675929 0.675929
0.6813 0.6813 0.6813
0.686809 0.686809 0.686809
0.692058 0.692058 0.692058
0.697459 0.697459 0.697459
0.702724 0.702724 0.702724
0.496254 0.496254 0.496254
0.505074 0.505074 0.505074
0.513848 0.513848 0.513848
0.522652 0.522652 0.522652
0.531929 0.531929 0.531929
0.541497 0.541497 0.541497
0.551324 0.551324 0.551324
0.561578 0.561578 0.561578
0.572091 0.572091 0.572091
0.582498 0.582498 0.582498
0.592737 0.592737 0.592737
0.59939 0.59939 0.59939
0.605829 0.605829 0.605829
0.612024 0.612024 0.612024
0.618341 0.618341 0.618341
0.62475 0.62475 0.62475
0.631113 0.631113 0.631113
0.637156 0.637156 0.637156
0.643442 0.643442 0.643442
0.649424 0.649424 0.649424
0.655283 0.655283 0.655283
0.661326 0.661326 0.661326
0.66746 0.66746 0.66746
0.673304 0.673304 0.673304
0.679088 0.679088 0.679088
0.684718 0.684718 0.684718
0.690059 0.690059 0.690059
0.695308 0.695308 0.695308
0.700725 0.700725 0.700725
0.706081 0.706081 0.706081
0.711254 0.711254 0.711254
0.71635 0.71635 0.71635
0.721614 0.721614 0.721614
0.517876 0.517876 0.517876
0.526467 0.526467 0.526467
0.535317 0.535317 0.535317
0.544167 0.544167 0.544167
0.553216 0.553216 0.553216
0.562493 0.562493 0.562493
0.572259 0.572259 0.572259
0.581933 0.581933 0.581933
0.592035 0.592035 0.592035
0.602823 0.602823 0.602823
0.613596 0.613596 0.613596
0.620478 0.620478 0.620478
0.62678 0.62678 0.62678
0.633143 0.633143 0.633143
0.63917 0.63917 0.63917
0.645441 0.645441 0.645441
0.651484 0.651484 0.651484
0.657465 0.657465 0.657465
0.663294 0.663294 0.663294
0.669245 0.669245 0.669245
0.675441 0.675441 0.675441
0.681071 0.681071 0.681071
0.686778 0.686778 0.686778
0.692393 0.692393 0.692393
0.698192 0.698192 0.698192
0.703731 0.703731 0.703731
0.709514 0.709514 0.709514
0.714626 0.714626 0.714626
0.719615 0.719615 0.719615
0.724758 0.724758 0.724758
