bundles/resolve-cinematic-luts/Lens Distortions - Finishing LUTs/LD - Canyon Red 3.cube
TITLE "LD - Canyon Red 3"
# Copyright (c) Lens Distortions, LLC. All Rights Reserved.
# LensDistortions.com
# ref-CR2
LUT_3D_SIZE 9
0.0233463 0.0236515 0.024033
0.0913252 0.0330968 0.0265202
0.210986 0.0575723 0.0325475
0.36527 0.10074 0.0394751
0.49987 0.138781 0.045243
0.656901 0.178286 0.0517433
0.837949 0.217868 0.0589914
0.925139 0.237415 0.0617685
0.939986 0.239658 0.0625467
0.0528878 0.0650187 0.0525063
0.112505 0.0724346 0.0320287
0.22295 0.0899977 0.0295109
0.364614 0.126558 0.0320439
0.498192 0.162905 0.0355993
0.651316 0.201144 0.0399786
0.82919 0.240085 0.0457771
0.923812 0.261341 0.0486152
0.938491 0.263035 0.0496681
0.13019 0.19408 0.184146
0.185489 0.186892 0.105592
0.250675 0.186038 0.0441444
0.363851 0.205509 0.0371405
0.496971 0.220356 0.0319677
0.638346 0.247929 0.0314336
0.813855 0.28217 0.0346685
0.92459 0.307027 0.0390936
0.93846 0.307851 0.0395514
0.206989 0.315038 0.303029
0.269825 0.304234 0.230945
0.310903 0.305501 0.164858
0.400031 0.299962 0.054551
0.501183 0.319646 0.0473793
0.633402 0.335149 0.0412299
0.80322 0.351461 0.038407
0.931701 0.372412 0.0430762
0.944564 0.374517 0.0435798
0.282185 0.427359 0.409842
0.333196 0.419593 0.346761
0.398276 0.406928 0.246784
0.447425 0.420569 0.196384
0.551202 0.40708 0.065156
0.648447 0.420188 0.0551919
0.787427 0.452232 0.0641337
0.914504 0.467292 0.0595712
0.954604 0.473381 0.0610513
0.353857 0.537118 0.51342
0.406165 0.527749 0.460304
0.48603 0.510216 0.334051
0.525719 0.520287 0.292409
0.593652 0.531899 0.208072
0.700725 0.513161 0.0887007
0.819867 0.529946 0.0986038
0.915541 0.560449 0.131212
0.969085 0.585367 0.176562
0.406516 0.632136 0.612589
0.455055 0.623316 0.572213
0.543496 0.607828 0.460563
0.606088 0.6112 0.379889
0.657053 0.627298 0.34902
0.732464 0.636622 0.291707
0.856825 0.630732 0.257038
0.940734 0.655238 0.301167
0.989334 0.678599 0.335973
0.463233 0.713146 0.696101
0.481437 0.709941 0.687358
0.59057 0.700542 0.565682
0.682948 0.69781 0.472419
0.722286 0.715908 0.468177
0.787091 0.737408 0.449912
0.877638 0.749752 0.44303
0.955413 0.762951 0.467933
0.996887 0.788022 0.514
0.513817 0.775113 0.760586
0.539162 0.774182 0.752255
0.644007 0.771588 0.63566
0.746044 0.766857 0.5505
0.784466 0.786557 0.554437
0.841108 0.813046 0.566384
0.902647 0.840375 0.591073
0.958465 0.863066 0.655299
0.992981 0.885054 0.70692
0.0252384 0.0252079 0.0342412
0.097673 0.0317082 0.0310216
0.21294 0.054902 0.0375677
0.362295 0.0981155 0.0470436
0.496056 0.137942 0.0558785
0.650614 0.178546 0.0654612
0.831937 0.219089 0.0760357
0.923995 0.240467 0.0804913
0.938918 0.242573 0.0804913
0.0474708 0.0708934 0.0735943
0.112612 0.0791943 0.0488136
0.208865 0.0918441 0.0458076
0.34078 0.127977 0.049134
0.485298 0.165606 0.0538491
0.642863 0.20267 0.0592966
0.822477 0.241535 0.0643015
0.922621 0.263554 0.0658122
0.937407 0.265064 0.0661479
0.12137 0.197848 0.195865
0.180758 0.184848 0.135454
0.253697 0.175448 0.0571298
0.362905 0.198352 0.0523537
0.488136 0.218357 0.0488441
0.631251 0.247822 0.0479286
0.807904 0.282155 0.050309
0.92343 0.307103 0.0518196
0.937285 0.308278 0.0523232
0.201801 0.317464 0.312551
0.232242 0.303593 0.293278
0.320485 0.302373 0.16379
0.410147 0.291752 0.0705577
0.496666 0.31812 0.0650339
0.625315 0.331701 0.0558633
0.795575 0.348119 0.0502022
0.929091 0.369787 0.049958
0.943252 0.372885 0.0511025
0.274525 0.42916 0.421836
0.29424 0.416876 0.405661
0.39353 0.406455 0.2804
0.451331 0.420127 0.213291
0.54728 0.405539 0.0986343
0.639353 0.418326 0.076173
0.780072 0.450065 0.0929885
0.907561 0.466804 0.108934
0.951995 0.474739 0.128923
0.343496 0.538415 0.529351
0.356573 0.532189 0.518273
0.446403 0.519112 0.419837
0.520104 0.520851 0.330144
0.586084 0.535729 0.265858
0.687053 0.520134 0.1879
0.804883 0.537026 0.190921
0.901061 0.569863 0.221347
0.961685 0.592111 0.25536
0.404135 0.632502 0.624582
0.418616 0.627237 0.614282
0.49868 0.615869 0.543435
0.600122 0.613031 0.423056
0.648081 0.631418 0.40209
0.719493 0.644388 0.355016
0.840253 0.64036 0.33077
0.925704 0.663813 0.358373
0.975113 0.68658 0.385992
0.462425 0.714107 0.708797
0.480064 0.711192 0.700191
0.554604 0.704173 0.650919
0.678401 0.700236 0.510658
0.718502 0.719402 0.50454
0.780941 0.743343 0.494362
0.867689 0.757809 0.487129
0.943252 0.770581 0.511055
0.984085 0.795407 0.555917
0.514519 0.776379 0.772824
0.539712 0.776059 0.764614
0.619181 0.772625 0.715816
0.729488 0.772595 0.610208
0.781704 0.790539 0.590936
0.835309 0.819883 0.612177
0.895201 0.84947 0.638346
0.950988 0.869734 0.687694
0.98587 0.889815 0.732845
0.0363775 0.0359655 0.0832074
0.0978866 0.0492561 0.11165
0.228168 0.0511025 0.134051
0.370672 0.066041 0.116091
0.497841 0.106203 0.0994736
0.647608 0.14847 0.0994736
0.828534 0.193423 0.103212
0.925612 0.221653 0.109758
0.940383 0.224704 0.105837
0.064622 0.0936751 0.170535
0.109041 0.105409 0.148104
0.229709 0.102296 0.154314
0.360601 0.128939 0.12871
0.490196 0.169177 0.130953
0.636164 0.205707 0.144778
0.813504 0.249683 0.158312
0.91931 0.278981 0.168795
0.933989 0.280583 0.165866
0.134478 0.20734 0.244099
0.167605 0.204669 0.235859
0.225574 0.210605 0.197559
0.340032 0.213993 0.169711
0.462181 0.238102 0.165743
0.590585 0.266026 0.164569
0.77026 0.300145 0.163424
0.917601 0.325338 0.158709
0.932418 0.323247 0.156939
0.208637 0.321508 0.344045
0.231022 0.308705 0.331121
0.268742 0.313893 0.310033
0.38558 0.307622 0.207752
0.486305 0.318654 0.180484
0.607919 0.332906 0.173663
0.772168 0.356664 0.171267
0.91162 0.382803 0.172595
0.936919 0.387335 0.175692
0.277974 0.433021 0.446708
0.294972 0.421469 0.430381
0.333318 0.419272 0.415366
0.451164 0.424903 0.286336
0.535073 0.410727 0.233494
0.623621 0.429572 0.210575
0.769268 0.450309 0.215167
0.894514 0.469932 0.230259
0.946471 0.479271 0.242802
0.347234 0.541558 0.550164
0.356451 0.535958 0.538552
0.398749 0.526467 0.520211
0.517678 0.525063 0.398215
0.585107 0.540169 0.343221
0.670176 0.528679 0.301213
0.78114 0.547189 0.291661
0.880018 0.580896 0.313664
0.951095 0.594049 0.332067
0.409018 0.634791 0.643122
0.419699 0.629999 0.632471
0.459266 0.623774 0.615396
0.575738 0.620996 0.515053
0.641276 0.637247 0.462257
0.712612 0.653056 0.425376
0.820035 0.650294 0.405707
0.905547 0.672038 0.418326
0.956176 0.69366 0.437446
0.468559 0.716091 0.726238
0.482887 0.71397 0.717281
0.522271 0.712566 0.7019
0.6336 0.714702 0.611337
0.71429 0.723812 0.550286
0.774014 0.751171 0.549752
0.854643 0.768978 0.546044
0.925948 0.77998 0.567163
0.967025 0.803067 0.605554
0.522393 0.778332 0.788449
0.543404 0.779156 0.780926
0.587106 0.782132 0.770077
0.681331 0.787503 0.713588
0.77789 0.796719 0.644938
0.830777 0.828214 0.665934
0.8907 0.859663 0.691783
0.942489 0.877485 0.725582
0.976883 0.894759 0.762951
0.0751659 0.074876 0.191424
0.128725 0.0996872 0.214969
0.226322 0.138628 0.276051
0.383368 0.100999 0.267903
0.510811 0.0705425 0.218875
0.656626 0.11368 0.198001
0.833722 0.170581 0.181979
0.93257 0.18941 0.173754
0.947005 0.191974 0.169284
0.107683 0.129351 0.270481
0.139101 0.139391 0.246128
0.218738 0.163149 0.276234
0.374884 0.14435 0.272526
0.507225 0.135027 0.231952
0.64622 0.179995 0.2177
0.820676 0.219623 0.207828
0.928054 0.248264 0.211536
0.94226 0.249744 0.207553
0.128923 0.226749 0.348013
0.175463 0.231037 0.334096
0.228504 0.231739 0.299153
0.362509 0.230167 0.289845
0.493736 0.241718 0.266056
0.618479 0.273487 0.251179
0.789502 0.31191 0.259236
0.915709 0.339406 0.274601
0.930755 0.337041 0.274815
0.218921 0.333272 0.399344
0.241489 0.329198 0.399527
0.283482 0.328161 0.365682
0.354482 0.340291 0.336522
0.47097 0.343725 0.31545
0.578225 0.356298 0.305653
0.739406 0.383902 0.306737
0.884504 0.411612 0.311971
0.923812 0.417151 0.319051
0.287404 0.438453 0.484977
0.302602 0.427482 0.469001
0.336263 0.424125 0.452293
0.400824 0.435264 0.422599
0.50634 0.437766 0.354009
0.594263 0.438849 0.325612
0.743236 0.453346 0.326482
0.870619 0.476951 0.337255
0.935866 0.490547 0.345327
0.353643 0.545159 0.587503
0.363684 0.540063 0.573816
0.400641 0.530755 0.549966
0.457603 0.538888 0.529519
0.567224 0.550698 0.430274
0.646693 0.54313 0.396658
0.746883 0.55491 0.375265
0.86569 0.58027 0.391669
0.936675 0.594644 0.404593
0.413779 0.637736 0.67425
0.425757 0.63328 0.660945
0.462135 0.62739 0.636591
0.519951 0.636118 0.625116
0.636332 0.642298 0.516197
0.702968 0.665797 0.493874
0.798367 0.658534 0.47068
0.88159 0.677256 0.47277
0.93196 0.699397 0.490929
0.473411 0.718944 0.755108
0.489372 0.716976 0.743297
0.52665 0.716442 0.721706
0.584497 0.727657 0.716655
0.690806 0.733837 0.642374
0.766064 0.761486 0.617105
0.840482 0.783917 0.616449
0.906706 0.789136 0.624277
0.949523 0.808148 0.647257
0.529061 0.780941 0.817594
0.552575 0.781842 0.806958
0.593866 0.786923 0.792065
0.644999 0.799481 0.792905
0.729732 0.812345 0.76701
0.830091 0.835035 0.711803
0.8869 0.868421 0.739498
0.935119 0.886137 0.764492
0.967971 0.898726 0.790524
0.121935 0.122225 0.292775
0.168917 0.143877 0.315297
0.248295 0.182254 0.359686
0.375463 0.187121 0.413001
0.522377 0.142672 0.371023
0.671427 0.101259 0.311925
0.84715 0.12076 0.280339
0.943389 0.159411 0.269688
0.957321 0.164706 0.26305
0.151659 0.170916 0.368582
0.183444 0.182406 0.355459
0.244358 0.200671 0.366506
0.362295 0.21323 0.405875
0.514015 0.183612 0.373678
0.662318 0.161486 0.322042
0.835843 0.194232 0.29749
0.939467 0.229786 0.287465
0.953017 0.232837 0.28098
0.171374 0.248859 0.442985
0.206027 0.252903 0.422797
0.240681 0.254231 0.373907
0.343832 0.269871 0.397086
0.501167 0.258991 0.382971
0.649134 0.252125 0.346136
0.808347 0.293828 0.326146
0.930129 0.321721 0.319265
0.944167 0.320943 0.3187
0.208682 0.349477 0.498146
0.233524 0.35378 0.49659
0.285756 0.353658 0.46566
0.359106 0.356771 0.426001
0.490837 0.355413 0.407279
0.624842 0.365774 0.38912
0.768673 0.390799 0.375082
0.895705 0.420829 0.383246
0.928038 0.424247 0.390417
0.295598 0.450919 0.544472
0.311192 0.448264 0.537758
0.350408 0.443809 0.517037
0.40824 0.449378 0.480095
0.485664 0.464302 0.456886
0.595682 0.46688 0.440253
0.732631 0.4813 0.432349
0.851774 0.500999 0.434852
0.920714 0.515267 0.445182
0.361913 0.551965 0.62295
0.372396 0.546792 0.610162
0.407355 0.537118 0.586984
0.456672 0.543679 0.568338
0.54345 0.558785 0.521553
0.626368 0.568307 0.489174
0.736782 0.572244 0.465202
0.84889 0.582895 0.469154
0.917861 0.594171 0.478294
0.421088 0.642725 0.71165
0.433509 0.63827 0.699443
0.469276 0.631617 0.676234
0.522606 0.641474 0.655711
0.583474 0.657679 0.647349
0.687877 0.677256 0.578927
0.78265 0.682567 0.560388
0.854414 0.688869 0.543542
0.911574 0.7028 0.557992
0.48159 0.723247 0.79353
0.498741 0.720836 0.782696
0.535134 0.720256 0.75903
0.590997 0.733211 0.744289
0.642939 0.750759 0.746059
0.762814 0.769055 0.673243
0.833402 0.801617 0.683131
0.894942 0.804913 0.684337
0.93167 0.8103 0.681941
0.538613 0.784543 0.851911
0.562631 0.785275 0.840986
0.603708 0.790494 0.822263
0.654002 0.804166 0.814115
0.708324 0.823621 0.819776
0.823758 0.842557 0.767819
0.884199 0.876722 0.783673
0.931243 0.898695 0.807492
0.961517 0.906859 0.823957
0.165408 0.166339 0.390066
0.211795 0.189975 0.421759
0.283894 0.226154 0.461738
0.3785 0.25919 0.493706
0.51281 0.229419 0.534737
0.682048 0.180407 0.47013
0.862715 0.134524 0.402518
0.959228 0.128649 0.377478
0.973083 0.124392 0.368566
0.199481 0.217426 0.480797
0.233646 0.229953 0.482399
0.283574 0.243 0.476555
0.367453 0.268971 0.488121
0.499855 0.254582 0.534035
0.668208 0.222736 0.475502
0.850889 0.194202 0.412787
0.957229 0.194675 0.386496
0.970535 0.196597 0.378973
0.209705 0.274861 0.533669
0.240406 0.279545 0.522469
0.266606 0.283421 0.461265
0.336843 0.302434 0.487999
0.483223 0.308461 0.526528
0.647761 0.293324 0.485267
0.832151 0.278798 0.432731
0.95021 0.301366 0.414008
0.962188 0.304234 0.407813
0.221118 0.365713 0.593805
0.254231 0.370825 0.590341
0.30576 0.373541 0.552132
0.36437 0.377493 0.511299
0.470787 0.38616 0.523919
0.626871 0.381949 0.502281
0.806043 0.381491 0.466819
0.922637 0.414542 0.45565
0.946853 0.420783 0.454017
0.29012 0.467338 0.643061
0.306615 0.468727 0.637385
0.348272 0.468544 0.617411
0.414481 0.477501 0.58819
0.491585 0.480674 0.553872
0.613031 0.481529 0.532982
0.768963 0.497368 0.518471
0.876982 0.518059 0.512139
0.932845 0.527871 0.516564
0.366979 0.565072 0.692821
0.382315 0.562768 0.680079
0.421729 0.558297 0.656992
0.477607 0.561868 0.623896
0.539178 0.575372 0.60087
0.610162 0.594079 0.589975
0.742031 0.604257 0.583352
0.850065 0.620706 0.585245
0.912749 0.634592 0.594141
0.430213 0.650263 0.751904
0.443305 0.646342 0.73846
0.477012 0.63975 0.711391
0.529412 0.646891 0.692851
0.586725 0.663249 0.684321
0.668864 0.686885 0.659754
0.769024 0.707073 0.642191
0.853452 0.712398 0.63473
0.912642 0.722606 0.644846
0.488823 0.730831 0.823697
0.50547 0.728801 0.812634
0.54139 0.726833 0.79115
0.599435 0.737087 0.776425
0.650217 0.755093 0.770184
0.729473 0.781369 0.766659
0.827024 0.811887 0.735897
0.88957 0.824369 0.743999
0.924865 0.829923 0.739574
0.544015 0.791455 0.875502
0.568261 0.791806 0.864607
0.611414 0.795193 0.84828
0.663844 0.807919 0.839048
0.71664 0.827756 0.838575
0.787976 0.856336 0.850462
0.883665 0.88397 0.820066
0.931472 0.914092 0.850446
0.960464 0.922683 0.866163
0.211887 0.213642 0.501122
0.251347 0.231876 0.524224
0.312123 0.257801 0.545434
0.394095 0.284703 0.561318
0.50985 0.291478 0.604562
0.671672 0.252384 0.610208
0.871641 0.191867 0.518044
0.972091 0.169375 0.477287
0.985931 0.163241 0.46772
0.234684 0.252186 0.569833
0.266102 0.262425 0.570962
0.312001 0.273381 0.559136
0.387289 0.296376 0.560433
0.495842 0.311391 0.595315
0.654139 0.28127 0.610849
0.85658 0.238209 0.522316
0.968048 0.223468 0.482612
0.981781 0.218189 0.472526
0.239582 0.299443 0.611444
0.267964 0.304311 0.601099
0.300069 0.313024 0.548806
0.365698 0.327947 0.564202
0.472908 0.351736 0.579248
0.630838 0.330877 0.611994
0.834302 0.309712 0.531838
0.96112 0.306401 0.49749
0.974289 0.305623 0.488472
0.251225 0.381613 0.6748
0.279576 0.382452 0.664134
0.326299 0.387976 0.620706
0.375387 0.396414 0.579538
0.456245 0.410376 0.588586
0.61033 0.401465 0.620401
0.804211 0.40032 0.551644
0.939269 0.407019 0.528481
0.964355 0.413565 0.522835
0.279179 0.477287 0.727611
0.299138 0.480629 0.722255
0.3514 0.488334 0.696742
0.428595 0.493431 0.661494
0.495415 0.497459 0.620279
0.59379 0.496971 0.6271
0.774578 0.502693 0.589075
0.901946 0.521355 0.579767
0.950408 0.53695 0.580026
0.365255 0.578408 0.772946
0.383246 0.579324 0.762402
0.427329 0.580392 0.736309
0.485359 0.587121 0.707149
0.549889 0.603769 0.688426
0.618708 0.608606 0.660166
0.762417 0.614588 0.644633
0.874037 0.641657 0.646723
0.933776 0.653605 0.649729
0.434806 0.662409 0.8094
0.451377 0.660975 0.796948
0.491447 0.659785 0.770901
0.549371 0.665309 0.741634
0.60592 0.678538 0.724117
0.666728 0.700114 0.717357
0.765164 0.72668 0.712779
0.861143 0.742489 0.718654
0.916274 0.757717 0.729137
0.493599 0.737255 0.857343
0.511513 0.735393 0.844495
0.548959 0.733745 0.819577
0.60705 0.74345 0.801114
0.658305 0.759991 0.796902
0.724346 0.786801 0.799969
0.821591 0.820478 0.782071
0.886198 0.842771 0.797192
0.925002 0.849042 0.798062
0.553826 0.79794 0.898177
0.577325 0.798428 0.886732
0.619043 0.801862 0.870298
0.671962 0.813825 0.861524
0.724865 0.831479 0.861753
0.792844 0.86041 0.86833
0.874693 0.891783 0.868696
0.930632 0.924224 0.886839
0.961059 0.938415 0.904845
0.242191 0.244541 0.57937
0.279225 0.261326 0.601663
0.334997 0.283268 0.616632
0.411582 0.308064 0.624659
0.5093 0.331731 0.656565
0.659464 0.295628 0.707073
0.869215 0.24213 0.636103
0.979095 0.219577 0.582284
0.994629 0.211658 0.569131
0.262654 0.279973 0.64651
0.292088 0.289418 0.647456
0.335561 0.299229 0.633967
0.406607 0.320958 0.628092
0.495659 0.347875 0.648951
0.640223 0.322576 0.702571
0.851255 0.282475 0.641917
0.974166 0.263523 0.582742
0.989715 0.255772 0.567941
0.265827 0.322255 0.684825
0.292531 0.327352 0.67538
0.331136 0.341543 0.638422
0.391089 0.35198 0.639399
0.480659 0.37409 0.639643
0.615015 0.371679 0.6878
0.823438 0.346593 0.649836
0.966018 0.333898 0.585779
0.979934 0.331609 0.574517
0.275334 0.393606 0.742367
0.301915 0.394736 0.732158
0.348531 0.405234 0.702159
0.393408 0.416251 0.647639
0.460273 0.429374 0.653559
0.58613 0.439963 0.673304
0.78819 0.428367 0.660273
0.937179 0.426093 0.606683
0.968231 0.428916 0.597314
0.285283 0.488746 0.805188
0.313634 0.492287 0.80174
0.37406 0.503182 0.781262
0.440146 0.504952 0.72784
0.503044 0.512657 0.686549
0.577401 0.519799 0.680583
0.757061 0.521523 0.679225
0.902541 0.529702 0.645609
0.96054 0.538033 0.640024
0.359182 0.586206 0.845518
0.377096 0.58793 0.837247
0.42475 0.597406 0.821836
0.489342 0.606943 0.787839
0.563775 0.618402 0.761822
0.623514 0.621469 0.72932
0.748409 0.62594 0.718868
0.882628 0.642588 0.70193
0.948974 0.660563 0.704158
0.434546 0.674052 0.87689
0.454185 0.674968 0.865568
0.500587 0.681529 0.845273
0.562936 0.689952 0.81442
0.621469 0.705425 0.796811
0.690776 0.73135 0.791394
0.771679 0.741375 0.778714
0.873243 0.75697 0.772015
0.930114 0.781155 0.784405
0.501991 0.750088 0.90515
0.523613 0.750484 0.892546
0.570291 0.754604 0.869474
0.629953 0.763745 0.846143
0.680293 0.777371 0.835431
0.745022 0.800977 0.831662
0.815717 0.83331 0.839887
0.88574 0.859571 0.849622
0.932448 0.875822 0.863905
0.558267 0.805325 0.931685
0.584955 0.806104 0.917311
0.629236 0.809354 0.89659
0.682368 0.819959 0.882933
0.73518 0.83714 0.879973
0.799649 0.863706 0.886687
0.866072 0.898222 0.904295
0.930022 0.931014 0.916152
0.9626 0.953841 0.940215
0.260914 0.263722 0.63122
0.296117 0.279347 0.652354
0.349493 0.299519 0.664851
0.423606 0.323461 0.668193
0.513176 0.350469 0.693431
0.655344 0.328374 0.747219
0.861082 0.2795 0.714534
0.979446 0.250721 0.656153
0.995483 0.244678 0.644572
0.280507 0.297627 0.698161
0.30811 0.306035 0.698726
0.350423 0.315358 0.683986
0.419211 0.3364 0.673365
0.503227 0.36022 0.688136
0.636835 0.353719 0.737636
0.840131 0.316457 0.720806
0.973236 0.291142 0.656107
0.989197 0.2851 0.642924
0.282353 0.336797 0.734081
0.308049 0.341939 0.724804
0.352865 0.352651 0.706813
0.417212 0.366629 0.6851
0.494957 0.387243 0.684276
0.61033 0.396582 0.720531
0.809201 0.371984 0.725475
0.9626 0.356664 0.656291
0.978393 0.35433 0.641123
0.290654 0.402228 0.78732
0.314931 0.404028 0.777218
0.362524 0.413169 0.757977
0.424063 0.420783 0.71371
0.498711 0.438209 0.696773
0.58645 0.456153 0.707256
0.773983 0.442145 0.731273
0.930175 0.443214 0.668208
0.967895 0.443503 0.648188
0.300359 0.495628 0.85359
0.328634 0.49984 0.85124
0.384924 0.506203 0.832456
0.453437 0.505074 0.780209
0.520806 0.51281 0.736187
0.594095 0.527642 0.720638
0.748867 0.523171 0.748623
0.895338 0.541955 0.697597
0.959838 0.548135 0.685039
0.353536 0.591043 0.893034
0.372396 0.593622 0.885801
0.423682 0.60763 0.875959
0.498604 0.616495 0.84242
0.571344 0.620554 0.806119
0.635218 0.626108 0.768353
0.739178 0.632715 0.769802
0.876692 0.65153 0.744823
0.950561 0.66511 0.742702
0.436088 0.681636 0.918593
0.456764 0.683543 0.907942
0.506722 0.693797 0.89015
0.567849 0.704875 0.866163
0.626108 0.721111 0.851316
0.70573 0.746014 0.841199
0.77435 0.752758 0.814481
0.871351 0.76231 0.806043
0.936324 0.782483 0.815351
0.505745 0.758358 0.945571
0.52958 0.760601 0.933715
0.583276 0.769329 0.911879
0.645838 0.7823 0.890303
0.6972 0.797131 0.87924
0.76614 0.822721 0.874617
0.836683 0.856611 0.883604
0.891356 0.87068 0.882612
0.93991 0.887297 0.894453
0.571023 0.815106 0.96144
0.602884 0.818112 0.946532
0.654643 0.826261 0.928176
0.707561 0.838727 0.916213
0.760906 0.854917 0.909957
0.82092 0.878294 0.911192
0.881712 0.908858 0.92372
0.930434 0.9393 0.943984
0.96611 0.966094 0.966278
