bundles/resolve-cinematic-luts/Lens Distortions - Finishing LUTs/LD - Velvet B&W 2.cube
TITLE "LD - Velvet 2"
# Copyright (c) Lens Distortions, LLC. All Rights Reserved.
# LensDistortions.com
# ref-VBW2
LUT_3D_SIZE 9
0.0314641 0.0314641 0.0314641
0.0411078 0.0411078 0.0411078
0.0535286 0.0535286 0.0535286
0.0682841 0.0682841 0.0682841
0.0846876 0.0846876 0.0846876
0.102586 0.102586 0.102586
0.122118 0.122118 0.122118
0.143221 0.143221 0.143221
0.16556 0.16556 0.16556
0.067689 0.067689 0.067689
0.0809033 0.0809033 0.0809033
0.0972915 0.0972915 0.0972915
0.116381 0.116381 0.116381
0.137163 0.137163 0.137163
0.159304 0.159304 0.159304
0.181964 0.181964 0.181964
0.20502 0.20502 0.20502
0.228489 0.228489 0.228489
0.123903 0.123903 0.123903
0.141176 0.141176 0.141176
0.162158 0.162158 0.162158
0.184924 0.184924 0.184924
0.208118 0.208118 0.208118
0.231647 0.231647 0.231647
0.255604 0.255604 0.255604
0.28011 0.28011 0.28011
0.30518 0.30518 0.30518
0.198489 0.198489 0.198489
0.217411 0.217411 0.217411
0.239673 0.239673 0.239673
0.263935 0.263935 0.263935
0.288701 0.288701 0.288701
0.314 0.314 0.314
0.339803 0.339803 0.339803
0.36643 0.36643 0.36643
0.393515 0.393515 0.393515
0.278172 0.278172 0.278172
0.298634 0.298634 0.298634
0.322576 0.322576 0.322576
0.348714 0.348714 0.348714
0.375586 0.375586 0.375586
0.40267 0.40267 0.40267
0.430274 0.430274 0.430274
0.45803 0.45803 0.45803
0.486259 0.486259 0.486259
0.364141 0.364141 0.364141
0.386084 0.386084 0.386084
0.411749 0.411749 0.411749
0.439536 0.439536 0.439536
0.467475 0.467475 0.467475
0.495857 0.495857 0.495857
0.524376 0.524376 0.524376
0.553185 0.553185 0.553185
0.582437 0.582437 0.582437
0.455558 0.455558 0.455558
0.478538 0.478538 0.478538
0.505089 0.505089 0.505089
0.533959 0.533959 0.533959
0.562921 0.562921 0.562921
0.592126 0.592126 0.592126
0.621775 0.621775 0.621775
0.651469 0.651469 0.651469
0.681407 0.681407 0.681407
0.550469 0.550469 0.550469
0.574258 0.574258 0.574258
0.601801 0.601801 0.601801
0.631418 0.631418 0.631418
0.661433 0.661433 0.661433
0.691493 0.691493 0.691493
0.721721 0.721721 0.721721
0.752148 0.752148 0.752148
0.782208 0.782208 0.782208
0.648615 0.648615 0.648615
0.672999 0.672999 0.672999
0.701244 0.701244 0.701244
0.731792 0.731792 0.731792
0.762264 0.762264 0.762264
0.792111 0.792111 0.792111
0.821134 0.821134 0.821134
0.849332 0.849332 0.849332
0.876661 0.876661 0.876661
0.0355383 0.0355383 0.0355383
0.0455482 0.0455482 0.0455482
0.0584573 0.0584573 0.0584573
0.0738231 0.0738231 0.0738231
0.0906386 0.0906386 0.0906386
0.109148 0.109148 0.109148
0.129137 0.129137 0.129137
0.150774 0.150774 0.150774
0.173236 0.173236 0.173236
0.0731823 0.0731823 0.0731823
0.0867475 0.0867475 0.0867475
0.103655 0.103655 0.103655
0.123339 0.123339 0.123339
0.144564 0.144564 0.144564
0.166949 0.166949 0.166949
0.189715 0.189715 0.189715
0.212894 0.212894 0.212894
0.236484 0.236484 0.236484
0.131106 0.131106 0.131106
0.148684 0.148684 0.148684
0.169894 0.169894 0.169894
0.192782 0.192782 0.192782
0.216068 0.216068 0.216068
0.239765 0.239765 0.239765
0.263813 0.263813 0.263813
0.288411 0.288411 0.288411
0.313634 0.313634 0.313634
0.206317 0.206317 0.206317
0.225345 0.225345 0.225345
0.24773 0.24773 0.24773
0.272129 0.272129 0.272129
0.297047 0.297047 0.297047
0.322545 0.322545 0.322545
0.348638 0.348638 0.348638
0.375296 0.375296 0.375296
0.402472 0.402472 0.402472
0.286473 0.286473 0.286473
0.307042 0.307042 0.307042
0.331197 0.331197 0.331197
0.357504 0.357504 0.357504
0.384482 0.384482 0.384482
0.411765 0.411765 0.411765
0.439353 0.439353 0.439353
0.467216 0.467216 0.467216
0.495537 0.495537 0.495537
0.372992 0.372992 0.372992
0.395026 0.395026 0.395026
0.420798 0.420798 0.420798
0.448676 0.448676 0.448676
0.476692 0.476692 0.476692
0.505165 0.505165 0.505165
0.533776 0.533776 0.533776
0.562661 0.562661 0.562661
0.591989 0.591989 0.591989
0.464744 0.464744 0.464744
0.4878 0.4878 0.4878
0.514443 0.514443 0.514443
0.543389 0.543389 0.543389
0.572412 0.572412 0.572412
0.601709 0.601709 0.601709
0.631403 0.631403 0.631403
0.661173 0.661173 0.661173
0.691173 0.691173 0.691173
0.55993 0.55993 0.55993
0.583734 0.583734 0.583734
0.611414 0.611414 0.611414
0.641108 0.641108 0.641108
0.671153 0.671153 0.671153
0.701289 0.701289 0.701289
0.731579 0.731579 0.731579
0.76199 0.76199 0.76199
0.791791 0.791791 0.791791
0.65832 0.65832 0.65832
0.682765 0.682765 0.682765
0.711055 0.711055 0.711055
0.741573 0.741573 0.741573
0.772 0.772 0.772
0.801587 0.801587 0.801587
0.83035 0.83035 0.83035
0.858259 0.858259 0.858259
0.885313 0.885313 0.885313
0.0404974 0.0404974 0.0404974
0.0511025 0.0511025 0.0511025
0.0644999 0.0644999 0.0644999
0.0804761 0.0804761 0.0804761
0.0979019 0.0979019 0.0979019
0.117021 0.117021 0.117021
0.137652 0.137652 0.137652
0.159731 0.159731 0.159731
0.18233 0.18233 0.18233
0.0798047 0.0798047 0.0798047
0.0938735 0.0938735 0.0938735
0.111437 0.111437 0.111437
0.131655 0.131655 0.131655
0.153475 0.153475 0.153475
0.175998 0.175998 0.175998
0.198901 0.198901 0.198901
0.222187 0.222187 0.222187
0.24593 0.24593 0.24593
0.139666 0.139666 0.139666
0.157641 0.157641 0.157641
0.178958 0.178958 0.178958
0.201999 0.201999 0.201999
0.225391 0.225391 0.225391
0.249226 0.249226 0.249226
0.273396 0.273396 0.273396
0.298238 0.298238 0.298238
0.323659 0.323659 0.323659
0.215595 0.215595 0.215595
0.23476 0.23476 0.23476
0.257343 0.257343 0.257343
0.281819 0.281819 0.281819
0.30692 0.30692 0.30692
0.332647 0.332647 0.332647
0.358831 0.358831 0.358831
0.385748 0.385748 0.385748
0.413046 0.413046 0.413046
0.2963 0.2963 0.2963
0.317006 0.317006 0.317006
0.341283 0.341283 0.341283
0.36788 0.36788 0.36788
0.394995 0.394995 0.394995
0.422293 0.422293 0.422293
0.450095 0.450095 0.450095
0.478035 0.478035 0.478035
0.506462 0.506462 0.506462
0.383459 0.383459 0.383459
0.405585 0.405585 0.405585
0.431449 0.431449 0.431449
0.459449 0.459449 0.459449
0.487556 0.487556 0.487556
0.51606 0.51606 0.51606
0.544839 0.544839 0.544839
0.573816 0.573816 0.573816
0.60322 0.60322 0.60322
0.475532 0.475532 0.475532
0.498604 0.498604 0.498604
0.525429 0.525429 0.525429
0.554437 0.554437 0.554437
0.583597 0.583597 0.583597
0.61297 0.61297 0.61297
0.642649 0.642649 0.642649
0.672602 0.672602 0.672602
0.702663 0.702663 0.702663
0.571084 0.571084 0.571084
0.594919 0.594919 0.594919
0.62269 0.62269 0.62269
0.652476 0.652476 0.652476
0.682445 0.682445 0.682445
0.712718 0.712718 0.712718
0.74316 0.74316 0.74316
0.773419 0.773419 0.773419
0.802899 0.802899 0.802899
0.669749 0.669749 0.669749
0.694255 0.694255 0.694255
0.722591 0.722591 0.722591
0.753079 0.753079 0.753079
0.783169 0.783169 0.783169
0.812482 0.812482 0.812482
0.841016 0.841016 0.841016
0.86862 0.86862 0.86862
0.895338 0.895338 0.895338
0.0462348 0.0462348 0.0462348
0.0573281 0.0573281 0.0573281
0.0714427 0.0714427 0.0714427
0.087953 0.087953 0.087953
0.106172 0.106172 0.106172
0.125841 0.125841 0.125841
0.147173 0.147173 0.147173
0.169512 0.169512 0.169512
0.192233 0.192233 0.192233
0.0872663 0.0872663 0.0872663
0.101884 0.101884 0.101884
0.120073 0.120073 0.120073
0.140993 0.140993 0.140993
0.163226 0.163226 0.163226
0.18587 0.18587 0.18587
0.208927 0.208927 0.208927
0.232349 0.232349 0.232349
0.256245 0.256245 0.256245
0.149264 0.149264 0.149264
0.167498 0.167498 0.167498
0.188861 0.188861 0.188861
0.212024 0.212024 0.212024
0.235584 0.235584 0.235584
0.259571 0.259571 0.259571
0.283909 0.283909 0.283909
0.308934 0.308934 0.308934
0.3346 0.3346 0.3346
0.225727 0.225727 0.225727
0.244999 0.244999 0.244999
0.267674 0.267674 0.267674
0.292409 0.292409 0.292409
0.317708 0.317708 0.317708
0.343648 0.343648 0.343648
0.370077 0.370077 0.370077
0.397131 0.397131 0.397131
0.42443 0.42443 0.42443
0.306996 0.306996 0.306996
0.327901 0.327901 0.327901
0.352331 0.352331 0.352331
0.379171 0.379171 0.379171
0.406424 0.406424 0.406424
0.433845 0.433845 0.433845
0.461753 0.461753 0.461753
0.489815 0.489815 0.489815
0.518349 0.518349 0.518349
0.394842 0.394842 0.394842
0.41706 0.41706 0.41706
0.44303 0.44303 0.44303
0.47097 0.47097 0.47097
0.499367 0.499367 0.499367
0.527886 0.527886 0.527886
0.556848 0.556848 0.556848
0.585916 0.585916 0.585916
0.615259 0.615259 0.615259
0.487266 0.487266 0.487266
0.510399 0.510399 0.510399
0.537377 0.537377 0.537377
0.566354 0.566354 0.566354
0.595743 0.595743 0.595743
0.625208 0.625208 0.625208
0.654917 0.654917 0.654917
0.684825 0.684825 0.684825
0.715129 0.715129 0.715129
0.5832 0.5832 0.5832
0.607095 0.607095 0.607095
0.634958 0.634958 0.634958
0.66482 0.66482 0.66482
0.694881 0.694881 0.694881
0.725109 0.725109 0.725109
0.755535 0.755535 0.755535
0.785519 0.785519 0.785519
0.814817 0.814817 0.814817
0.682017 0.682017 0.682017
0.706538 0.706538 0.706538
0.735103 0.735103 0.735103
0.765545 0.765545 0.765545
0.7953 0.7953 0.7953
0.824231 0.824231 0.824231
0.852323 0.852323 0.852323
0.879561 0.879561 0.879561
0.905898 0.905898 0.905898
0.052369 0.052369 0.052369
0.0639811 0.0639811 0.0639811
0.0787366 0.0787366 0.0787366
0.0959182 0.0959182 0.0959182
0.114809 0.114809 0.114809
0.13518 0.13518 0.13518
0.157076 0.157076 0.157076
0.179553 0.179553 0.179553
0.202411 0.202411 0.202411
0.095201 0.095201 0.095201
0.110353 0.110353 0.110353
0.129213 0.129213 0.129213
0.15082 0.15082 0.15082
0.173236 0.173236 0.173236
0.196017 0.196017 0.196017
0.219196 0.219196 0.219196
0.242786 0.242786 0.242786
0.266835 0.266835 0.266835
0.159197 0.159197 0.159197
0.177508 0.177508 0.177508
0.199023 0.199023 0.199023
0.222309 0.222309 0.222309
0.246036 0.246036 0.246036
0.270115 0.270115 0.270115
0.294713 0.294713 0.294713
0.319936 0.319936 0.319936
0.345815 0.345815 0.345815
0.236118 0.236118 0.236118
0.255512 0.255512 0.255512
0.278355 0.278355 0.278355
0.303304 0.303304 0.303304
0.328817 0.328817 0.328817
0.35494 0.35494 0.35494
0.381582 0.381582 0.381582
0.408774 0.408774 0.408774
0.436164 0.436164 0.436164
0.317983 0.317983 0.317983
0.338949 0.338949 0.338949
0.363714 0.363714 0.363714
0.390723 0.390723 0.390723
0.418036 0.418036 0.418036
0.44564 0.44564 0.44564
0.473503 0.473503 0.473503
0.501839 0.501839 0.501839
0.530312 0.530312 0.530312
0.406485 0.406485 0.406485
0.428809 0.428809 0.428809
0.454887 0.454887 0.454887
0.482933 0.482933 0.482933
0.511437 0.511437 0.511437
0.540047 0.540047 0.540047
0.568948 0.568948 0.568948
0.598276 0.598276 0.598276
0.62771 0.62771 0.62771
0.49929 0.49929 0.49929
0.522515 0.522515 0.522515
0.549584 0.549584 0.549584
0.578668 0.578668 0.578668
0.607965 0.607965 0.607965
0.63769 0.63769 0.63769
0.667475 0.667475 0.667475
0.697459 0.697459 0.697459
0.727672 0.727672 0.727672
0.595544 0.595544 0.595544
0.619532 0.619532 0.619532
0.647303 0.647303 0.647303
0.677394 0.677394 0.677394
0.707546 0.707546 0.707546
0.73785 0.73785 0.73785
0.76817 0.76817 0.76817
0.797787 0.797787 0.797787
0.826612 0.826612 0.826612
0.694606 0.694606 0.694606
0.719234 0.719234 0.719234
0.747784 0.747784 0.747784
0.778088 0.778088 0.778088
0.807492 0.807492 0.807492
0.836072 0.836072 0.836072
0.863798 0.863798 0.863798
0.890654 0.890654 0.890654
0.916625 0.916625 0.916625
0.0588693 0.0588693 0.0588693
0.071046 0.071046 0.071046
0.0864271 0.0864271 0.0864271
0.104295 0.104295 0.104295
0.123888 0.123888 0.123888
0.144976 0.144976 0.144976
0.167193 0.167193 0.167193
0.189792 0.189792 0.189792
0.212802 0.212802 0.212802
0.103578 0.103578 0.103578
0.11928 0.11928 0.11928
0.138796 0.138796 0.138796
0.160891 0.160891 0.160891
0.183444 0.183444 0.183444
0.206363 0.206363 0.206363
0.229679 0.229679 0.229679
0.253422 0.253422 0.253422
0.277653 0.277653 0.277653
0.169314 0.169314 0.169314
0.187716 0.187716 0.187716
0.209384 0.209384 0.209384
0.232822 0.232822 0.232822
0.256626 0.256626 0.256626
0.280888 0.280888 0.280888
0.305745 0.305745 0.305745
0.331182 0.331182 0.331182
0.357275 0.357275 0.357275
0.246723 0.246723 0.246723
0.266239 0.266239 0.266239
0.28925 0.28925 0.28925
0.314382 0.314382 0.314382
0.340139 0.340139 0.340139
0.366369 0.366369 0.366369
0.393301 0.393301 0.393301
0.420615 0.420615 0.420615
0.448112 0.448112 0.448112
0.329229 0.329229 0.329229
0.350347 0.350347 0.350347
0.375341 0.375341 0.375341
0.402502 0.402502 0.402502
0.429831 0.429831 0.429831
0.457649 0.457649 0.457649
0.485618 0.485618 0.485618
0.514046 0.514046 0.514046
0.542626 0.542626 0.542626
0.418311 0.418311 0.418311
0.440726 0.440726 0.440726
0.466865 0.466865 0.466865
0.495079 0.495079 0.495079
0.523522 0.523522 0.523522
0.552407 0.552407 0.552407
0.581399 0.581399 0.581399
0.610758 0.610758 0.610758
0.64033 0.64033 0.64033
0.511513 0.511513 0.511513
0.534798 0.534798 0.534798
0.561852 0.561852 0.561852
0.59115 0.59115 0.59115
0.620554 0.620554 0.620554
0.650187 0.650187 0.650187
0.680217 0.680217 0.680217
0.710277 0.710277 0.710277
0.740551 0.740551 0.740551
0.608087 0.608087 0.608087
0.632029 0.632029 0.632029
0.659998 0.659998 0.659998
0.690013 0.690013 0.690013
0.720211 0.720211 0.720211
0.750759 0.750759 0.750759
0.780819 0.780819 0.780819
0.810086 0.810086 0.810086
0.83856 0.83856 0.83856
0.707424 0.707424 0.707424
0.732097 0.732097 0.732097
0.760571 0.760571 0.760571
0.790448 0.790448 0.790448
0.819532 0.819532 0.819532
0.847791 0.847791 0.847791
0.875196 0.875196 0.875196
0.901686 0.901686 0.901686
0.92726 0.92726 0.92726
0.0657359 0.0657359 0.0657359
0.0784772 0.0784772 0.0784772
0.0945144 0.0945144 0.0945144
0.113207 0.113207 0.113207
0.133379 0.133379 0.133379
0.155108 0.155108 0.155108
0.177462 0.177462 0.177462
0.200198 0.200198 0.200198
0.223331 0.223331 0.223331
0.112444 0.112444 0.112444
0.128603 0.128603 0.128603
0.148791 0.148791 0.148791
0.171115 0.171115 0.171115
0.193805 0.193805 0.193805
0.216861 0.216861 0.216861
0.240314 0.240314 0.240314
0.264225 0.264225 0.264225
0.288624 0.288624 0.288624
0.179599 0.179599 0.179599
0.198062 0.198062 0.198062
0.219913 0.219913 0.219913
0.243503 0.243503 0.243503
0.267475 0.267475 0.267475
0.291875 0.291875 0.291875
0.316945 0.316945 0.316945
0.342611 0.342611 0.342611
0.368826 0.368826 0.368826
0.257481 0.257481 0.257481
0.277165 0.277165 0.277165
0.300328 0.300328 0.300328
0.325658 0.325658 0.325658
0.351583 0.351583 0.351583
0.378103 0.378103 0.378103
0.405173 0.405173 0.405173
0.432456 0.432456 0.432456
0.460212 0.460212 0.460212
0.340673 0.340673 0.340673
0.361959 0.361959 0.361959
0.387121 0.387121 0.387121
0.414359 0.414359 0.414359
0.441855 0.441855 0.441855
0.469795 0.469795 0.469795
0.497871 0.497871 0.497871
0.52636 0.52636 0.52636
0.555093 0.555093 0.555093
0.430167 0.430167 0.430167
0.452811 0.452811 0.452811
0.47895 0.47895 0.47895
0.507378 0.507378 0.507378
0.535927 0.535927 0.535927
0.564904 0.564904 0.564904
0.594003 0.594003 0.594003
0.623346 0.623346 0.623346
0.653025 0.653025 0.653025
0.523873 0.523873 0.523873
0.54725 0.54725 0.54725
0.57435 0.57435 0.57435
0.603708 0.603708 0.603708
0.633265 0.633265 0.633265
0.662989 0.662989 0.662989
0.692927 0.692927 0.692927
0.723201 0.723201 0.723201
0.753567 0.753567 0.753567
0.620615 0.620615 0.620615
0.644724 0.644724 0.644724
0.672831 0.672831 0.672831
0.702922 0.702922 0.702922
0.733181 0.733181 0.733181
0.763546 0.763546 0.763546
0.793271 0.793271 0.793271
0.822248 0.822248 0.822248
0.850446 0.850446 0.850446
0.720378 0.720378 0.720378
0.745052 0.745052 0.745052
0.773404 0.773404 0.773404
0.802945 0.802945 0.802945
0.831662 0.831662 0.831662
0.85951 0.85951 0.85951
0.886503 0.886503 0.886503
0.912596 0.912596 0.912596
0.937789 0.937789 0.937789
0.073106 0.073106 0.073106
0.0864118 0.0864118 0.0864118
0.102968 0.102968 0.102968
0.122377 0.122377 0.122377
0.143267 0.143267 0.143267
0.165362 0.165362 0.165362
0.187854 0.187854 0.187854
0.210727 0.210727 0.210727
0.233997 0.233997 0.233997
0.121584 0.121584 0.121584
0.138369 0.138369 0.138369
0.15903 0.15903 0.15903
0.181476 0.181476 0.181476
0.204288 0.204288 0.204288
0.227481 0.227481 0.227481
0.251118 0.251118 0.251118
0.275181 0.275181 0.275181
0.299748 0.299748 0.299748
0.190005 0.190005 0.190005
0.208667 0.208667 0.208667
0.230549 0.230549 0.230549
0.254276 0.254276 0.254276
0.278355 0.278355 0.278355
0.303044 0.303044 0.303044
0.328283 0.328283 0.328283
0.354192 0.354192 0.354192
0.380606 0.380606 0.380606
0.268391 0.268391 0.268391
0.288197 0.288197 0.288197
0.311574 0.311574 0.311574
0.337118 0.337118 0.337118
0.363195 0.363195 0.363195
0.38996 0.38996 0.38996
0.417166 0.417166 0.417166
0.444556 0.444556 0.444556
0.47245 0.47245 0.47245
0.352224 0.352224 0.352224
0.373754 0.373754 0.373754
0.399039 0.399039 0.399039
0.426291 0.426291 0.426291
0.454017 0.454017 0.454017
0.481895 0.481895 0.481895
0.510246 0.510246 0.510246
0.538735 0.538735 0.538735
0.567681 0.567681 0.567681
0.442252 0.442252 0.442252
0.464866 0.464866 0.464866
0.491264 0.491264 0.491264
0.519783 0.519783 0.519783
0.54844 0.54844 0.54844
0.577356 0.577356 0.577356
0.606714 0.606714 0.606714
0.636149 0.636149 0.636149
0.665827 0.665827 0.665827
0.536187 0.536187 0.536187
0.55964 0.55964 0.55964
0.586999 0.586999 0.586999
0.616342 0.616342 0.616342
0.646097 0.646097 0.646097
0.675898 0.675898 0.675898
0.705913 0.705913 0.705913
0.736126 0.736126 0.736126
0.7664 0.7664 0.7664
0.633402 0.633402 0.633402
0.657603 0.657603 0.657603
0.685664 0.685664 0.685664
0.715923 0.715923 0.715923
0.746273 0.746273 0.746273
0.776425 0.776425 0.776425
0.805798 0.805798 0.805798
0.834363 0.834363 0.834363
0.862089 0.862089 0.862089
0.733257 0.733257 0.733257
0.758007 0.758007 0.758007
0.786175 0.786175 0.786175
0.815366 0.815366 0.815366
0.843717 0.843717 0.843717
0.871199 0.871199 0.871199
0.897795 0.897795 0.897795
0.923506 0.923506 0.923506
0.948287 0.948287 0.948287
0.080705 0.080705 0.080705
0.0945754 0.0945754 0.0945754
0.111788 0.111788 0.111788
0.131899 0.131899 0.131899
0.153475 0.153475 0.153475
0.175723 0.175723 0.175723
0.198352 0.198352 0.198352
0.221363 0.221363 0.221363
0.244785 0.244785 0.244785
0.13109 0.13109 0.13109
0.148577 0.148577 0.148577
0.169345 0.169345 0.169345
0.191943 0.191943 0.191943
0.214878 0.214878 0.214878
0.238224 0.238224 0.238224
0.261997 0.261997 0.261997
0.286244 0.286244 0.286244
0.310994 0.310994 0.310994
0.200519 0.200519 0.200519
0.219242 0.219242 0.219242
0.241306 0.241306 0.241306
0.26508 0.26508 0.26508
0.289433 0.289433 0.289433
0.314321 0.314321 0.314321
0.339788 0.339788 0.339788
0.365911 0.365911 0.365911
0.392508 0.392508 0.392508
0.279408 0.279408 0.279408
0.299351 0.299351 0.299351
0.322911 0.322911 0.322911
0.348699 0.348699 0.348699
0.374975 0.374975 0.374975
0.401923 0.401923 0.401923
0.429221 0.429221 0.429221
0.456764 0.456764 0.456764
0.484627 0.484627 0.484627
0.363943 0.363943 0.363943
0.385626 0.385626 0.385626
0.411048 0.411048 0.411048
0.438422 0.438422 0.438422
0.46627 0.46627 0.46627
0.494255 0.494255 0.494255
0.522713 0.522713 0.522713
0.551308 0.551308 0.551308
0.580179 0.580179 0.580179
0.454459 0.454459 0.454459
0.47715 0.47715 0.47715
0.503655 0.503655 0.503655
0.532143 0.532143 0.532143
0.561044 0.561044 0.561044
0.590066 0.590066 0.590066
0.619348 0.619348 0.619348
0.649027 0.649027 0.649027
0.678782 0.678782 0.678782
0.548745 0.548745 0.548745
0.57229 0.57229 0.57229
0.599741 0.599741 0.599741
0.629175 0.629175 0.629175
0.658839 0.658839 0.658839
0.688884 0.688884 0.688884
0.718975 0.718975 0.718975
0.749264 0.749264 0.749264
0.779293 0.779293 0.779293
0.646281 0.646281 0.646281
0.670542 0.670542 0.670542
0.698619 0.698619 0.698619
0.728862 0.728862 0.728862
0.759335 0.759335 0.759335
0.789197 0.789197 0.789197
0.818219 0.818219 0.818219
0.846418 0.846418 0.846418
0.873777 0.873777 0.873777
0.746395 0.746395 0.746395
0.771008 0.771008 0.771008
0.798688 0.798688 0.798688
0.827512 0.827512 0.827512
0.855497 0.855497 0.855497
0.882612 0.882612 0.882612
0.908843 0.908843 0.908843
0.934142 0.934142 0.934142
0.958526 0.958526 0.958526
