bundles/resolve-cinematic-luts/Lens Distortions - Finishing LUTs/LD - Velvet B&W 3.cube
TITLE "LD - Velvet 3"
# Copyright (c) Lens Distortions, LLC. All Rights Reserved.
# LensDistortions.com
# ref-VBW1
LUT_3D_SIZE 9
0.0328222 0.0328222 0.0328222
0.0433661 0.0433661 0.0433661
0.0569162 0.0569162 0.0569162
0.0728466 0.0728466 0.0728466
0.0902724 0.0902724 0.0902724
0.109331 0.109331 0.109331
0.1299 0.1299 0.1299
0.152178 0.152178 0.152178
0.174502 0.174502 0.174502
0.0676738 0.0676738 0.0676738
0.0869154 0.0869154 0.0869154
0.104768 0.104768 0.104768
0.124697 0.124697 0.124697
0.146227 0.146227 0.146227
0.168978 0.168978 0.168978
0.192126 0.192126 0.192126
0.215732 0.215732 0.215732
0.238788 0.238788 0.238788
0.121035 0.121035 0.121035
0.14023 0.14023 0.14023
0.1729 0.1729 0.1729
0.197925 0.197925 0.197925
0.220676 0.220676 0.220676
0.244678 0.244678 0.244678
0.268925 0.268925 0.268925
0.294286 0.294286 0.294286
0.318578 0.318578 0.318578
0.190967 0.190967 0.190967
0.211124 0.211124 0.211124
0.237125 0.237125 0.237125
0.277943 0.277943 0.277943
0.307195 0.307195 0.307195
0.332296 0.332296 0.332296
0.359472 0.359472 0.359472
0.388495 0.388495 0.388495
0.415183 0.415183 0.415183
0.26482 0.26482 0.26482
0.285924 0.285924 0.285924
0.313222 0.313222 0.313222
0.346426 0.346426 0.346426
0.397314 0.397314 0.397314
0.431693 0.431693 0.431693
0.465278 0.465278 0.465278
0.49633 0.49633 0.49633
0.523903 0.523903 0.523903
0.34345 0.34345 0.34345
0.366644 0.366644 0.366644
0.39675 0.39675 0.39675
0.43267 0.43267 0.43267
0.476677 0.476677 0.476677
0.536706 0.536706 0.536706
0.573617 0.573617 0.573617
0.611856 0.611856 0.611856
0.637156 0.637156 0.637156
0.430198 0.430198 0.430198
0.456245 0.456245 0.456245
0.489265 0.489265 0.489265
0.527581 0.527581 0.527581
0.567941 0.567941 0.567941
0.618479 0.618479 0.618479
0.678096 0.678096 0.678096
0.711452 0.711452 0.711452
0.739086 0.739086 0.739086
0.523522 0.523522 0.523522
0.550942 0.550942 0.550942
0.584756 0.584756 0.584756
0.622705 0.622705 0.622705
0.661082 0.661082 0.661082
0.700954 0.700954 0.700954
0.749432 0.749432 0.749432
0.802518 0.802518 0.802518
0.826978 0.826978 0.826978
0.616205 0.616205 0.616205
0.642741 0.642741 0.642741
0.674968 0.674968 0.674968
0.709926 0.709926 0.709926
0.745205 0.745205 0.745205
0.779675 0.779675 0.779675
0.819333 0.819333 0.819333
0.860929 0.860929 0.860929
0.895994 0.895994 0.895994
0.0366979 0.0366979 0.0366979
0.0476539 0.0476539 0.0476539
0.06215 0.06215 0.06215
0.0785229 0.0785229 0.0785229
0.0964828 0.0964828 0.0964828
0.115923 0.115923 0.115923
0.137011 0.137011 0.137011
0.159625 0.159625 0.159625
0.182376 0.182376 0.182376
0.072282 0.072282 0.072282
0.0922255 0.0922255 0.0922255
0.111528 0.111528 0.111528
0.131975 0.131975 0.131975
0.154055 0.154055 0.154055
0.176867 0.176867 0.176867
0.200137 0.200137 0.200137
0.223896 0.223896 0.223896
0.247105 0.247105 0.247105
0.126421 0.126421 0.126421
0.143435 0.143435 0.143435
0.186236 0.186236 0.186236
0.209964 0.209964 0.209964
0.230884 0.230884 0.230884
0.253788 0.253788 0.253788
0.277958 0.277958 0.277958
0.30338 0.30338 0.30338
0.327596 0.327596 0.327596
0.19646 0.19646 0.19646
0.215396 0.215396 0.215396
0.242985 0.242985 0.242985
0.291295 0.291295 0.291295
0.322591 0.322591 0.322591
0.345022 0.345022 0.345022
0.371542 0.371542 0.371542
0.400244 0.400244 0.400244
0.425925 0.425925 0.425925
0.269978 0.269978 0.269978
0.290974 0.290974 0.290974
0.319005 0.319005 0.319005
0.353033 0.353033 0.353033
0.412161 0.412161 0.412161
0.450004 0.450004 0.450004
0.481147 0.481147 0.481147
0.511177 0.511177 0.511177
0.536675 0.536675 0.536675
0.348974 0.348974 0.348974
0.37232 0.37232 0.37232
0.403189 0.403189 0.403189
0.440238 0.440238 0.440238
0.484611 0.484611 0.484611
0.552758 0.552758 0.552758
0.592111 0.592111 0.592111
0.631098 0.631098 0.631098
0.650996 0.650996 0.650996
0.43624 0.43624 0.43624
0.462348 0.462348 0.462348
0.496101 0.496101 0.496101
0.535073 0.535073 0.535073
0.576181 0.576181 0.576181
0.627604 0.627604 0.627604
0.693111 0.693111 0.693111
0.727916 0.727916 0.727916
0.753689 0.753689 0.753689
0.529839 0.529839 0.529839
0.557153 0.557153 0.557153
0.591272 0.591272 0.591272
0.629602 0.629602 0.629602
0.668605 0.668605 0.668605
0.707317 0.707317 0.707317
0.758297 0.758297 0.758297
0.815518 0.815518 0.815518
0.839506 0.839506 0.839506
0.622385 0.622385 0.622385
0.648829 0.648829 0.648829
0.68098 0.68098 0.68098
0.71632 0.71632 0.71632
0.751766 0.751766 0.751766
0.786572 0.786572 0.786572
0.825544 0.825544 0.825544
0.868833 0.868833 0.868833
0.903532 0.903532 0.903532
0.0417182 0.0417182 0.0417182
0.05243 0.05243 0.05243
0.0673686 0.0673686 0.0673686
0.0855116 0.0855116 0.0855116
0.104128 0.104128 0.104128
0.124102 0.124102 0.124102
0.145693 0.145693 0.145693
0.168399 0.168399 0.168399
0.191455 0.191455 0.191455
0.0786603 0.0786603 0.0786603
0.0914778 0.0914778 0.0914778
0.114763 0.114763 0.114763
0.139467 0.139467 0.139467
0.16199 0.16199 0.16199
0.184878 0.184878 0.184878
0.208179 0.208179 0.208179
0.232166 0.232166 0.232166
0.256458 0.256458 0.256458
0.13431 0.13431 0.13431
0.150439 0.150439 0.150439
0.187854 0.187854 0.187854
0.213809 0.213809 0.213809
0.238224 0.238224 0.238224
0.262287 0.262287 0.262287
0.287144 0.287144 0.287144
0.312932 0.312932 0.312932
0.337881 0.337881 0.337881
0.205035 0.205035 0.205035
0.222217 0.222217 0.222217
0.249638 0.249638 0.249638
0.303365 0.303365 0.303365
0.338766 0.338766 0.338766
0.358999 0.358999 0.358999
0.384543 0.384543 0.384543
0.412634 0.412634 0.412634
0.437888 0.437888 0.437888
0.279026 0.279026 0.279026
0.29752 0.29752 0.29752
0.323003 0.323003 0.323003
0.359854 0.359854 0.359854
0.431846 0.431846 0.431846
0.47744 0.47744 0.47744
0.500404 0.500404 0.500404
0.529122 0.529122 0.529122
0.551568 0.551568 0.551568
0.358144 0.358144 0.358144
0.37882 0.37882 0.37882
0.408316 0.408316 0.408316
0.447059 0.447059 0.447059
0.49073 0.49073 0.49073
0.57351 0.57351 0.57351
0.61796 0.61796 0.61796
0.653178 0.653178 0.653178
0.667475 0.667475 0.667475
0.44535 0.44535 0.44535
0.468452 0.468452 0.468452
0.50164 0.50164 0.50164
0.541955 0.541955 0.541955
0.584527 0.584527 0.584527
0.636393 0.636393 0.636393
0.712169 0.712169 0.712169
0.750149 0.750149 0.750149
0.773236 0.773236 0.773236
0.538231 0.538231 0.538231
0.563073 0.563073 0.563073
0.596994 0.596994 0.596994
0.636164 0.636164 0.636164
0.675914 0.675914 0.675914
0.715175 0.715175 0.715175
0.767544 0.767544 0.767544
0.832212 0.832212 0.832212
0.855772 0.855772 0.855772
0.629496 0.629496 0.629496
0.654215 0.654215 0.654215
0.68629 0.68629 0.68629
0.722011 0.722011 0.722011
0.758328 0.758328 0.758328
0.79353 0.79353 0.79353
0.831144 0.831144 0.831144
0.877653 0.877653 0.877653
0.912322 0.912322 0.912322
0.0473182 0.0473182 0.0473182
0.0582895 0.0582895 0.0582895
0.0731823 0.0731823 0.0731823
0.0915541 0.0915541 0.0915541
0.111894 0.111894 0.111894
0.133364 0.133364 0.133364
0.15555 0.15555 0.15555
0.178363 0.178363 0.178363
0.201556 0.201556 0.201556
0.0857557 0.0857557 0.0857557
0.0989548 0.0989548 0.0989548
0.119066 0.119066 0.119066
0.144549 0.144549 0.144549
0.170947 0.170947 0.170947
0.194949 0.194949 0.194949
0.218372 0.218372 0.218372
0.242298 0.242298 0.242298
0.266651 0.266651 0.266651
0.143221 0.143221 0.143221
0.159533 0.159533 0.159533
0.183383 0.183383 0.183383
0.216114 0.216114 0.216114
0.245441 0.245441 0.245441
0.269947 0.269947 0.269947
0.295109 0.295109 0.295109
0.320989 0.320989 0.320989
0.347784 0.347784 0.347784
0.21442 0.21442 0.21442
0.231724 0.231724 0.231724
0.257786 0.257786 0.257786
0.303868 0.303868 0.303868
0.333288 0.333288 0.333288
0.362631 0.362631 0.362631
0.391714 0.391714 0.391714
0.421515 0.421515 0.421515
0.449363 0.449363 0.449363
0.288991 0.288991 0.288991
0.307637 0.307637 0.307637
0.330373 0.330373 0.330373
0.372961 0.372961 0.372961
0.438773 0.438773 0.438773
0.493477 0.493477 0.493477
0.517601 0.517601 0.517601
0.544945 0.544945 0.544945
0.565789 0.565789 0.565789
0.368948 0.368948 0.368948
0.389975 0.389975 0.389975
0.415625 0.415625 0.415625
0.452491 0.452491 0.452491
0.49958 0.49958 0.49958
0.593118 0.593118 0.593118
0.654307 0.654307 0.654307
0.675486 0.675486 0.675486
0.684657 0.684657 0.684657
0.457282 0.457282 0.457282
0.480537 0.480537 0.480537
0.508537 0.508537 0.508537
0.544762 0.544762 0.544762
0.590387 0.590387 0.590387
0.64036 0.64036 0.64036
0.734997 0.734997 0.734997
0.779477 0.779477 0.779477
0.797574 0.797574 0.797574
0.550607 0.550607 0.550607
0.574578 0.574578 0.574578
0.602747 0.602747 0.602747
0.639261 0.639261 0.639261
0.681025 0.681025 0.681025
0.722347 0.722347 0.722347
0.774914 0.774914 0.774914
0.85211 0.85211 0.85211
0.876387 0.876387 0.876387
0.641443 0.641443 0.641443
0.664302 0.664302 0.664302
0.690425 0.690425 0.690425
0.725032 0.725032 0.725032
0.762539 0.762539 0.762539
0.7991 0.7991 0.7991
0.834119 0.834119 0.834119
0.885771 0.885771 0.885771
0.921904 0.921904 0.921904
0.0532692 0.0532692 0.0532692
0.0646067 0.0646067 0.0646067
0.0797436 0.0797436 0.0797436
0.0980545 0.0980545 0.0980545
0.11873 0.11873 0.11873
0.141344 0.141344 0.141344
0.165026 0.165026 0.165026
0.188708 0.188708 0.188708
0.212024 0.212024 0.212024
0.0932021 0.0932021 0.0932021
0.106828 0.106828 0.106828
0.126345 0.126345 0.126345
0.150362 0.150362 0.150362
0.176623 0.176623 0.176623
0.202777 0.202777 0.202777
0.228428 0.228428 0.228428
0.253056 0.253056 0.253056
0.277577 0.277577 0.277577
0.152483 0.152483 0.152483
0.168856 0.168856 0.168856
0.188739 0.188739 0.188739
0.217105 0.217105 0.217105
0.24831 0.24831 0.24831
0.278492 0.278492 0.278492
0.306325 0.306325 0.306325
0.332433 0.332433 0.332433
0.359701 0.359701 0.359701
0.224002 0.224002 0.224002
0.241398 0.241398 0.241398
0.262425 0.262425 0.262425
0.297475 0.297475 0.297475
0.335058 0.335058 0.335058
0.369284 0.369284 0.369284
0.397986 0.397986 0.397986
0.428046 0.428046 0.428046
0.459205 0.459205 0.459205
0.299123 0.299123 0.299123
0.317968 0.317968 0.317968
0.340902 0.340902 0.340902
0.382437 0.382437 0.382437
0.438468 0.438468 0.438468
0.473854 0.473854 0.473854
0.508919 0.508919 0.508919
0.544106 0.544106 0.544106
0.574014 0.574014 0.574014
0.380041 0.380041 0.380041
0.401312 0.401312 0.401312
0.427344 0.427344 0.427344
0.461036 0.461036 0.461036
0.519203 0.519203 0.519203
0.593362 0.593362 0.593362
0.652659 0.652659 0.652659
0.682963 0.682963 0.682963
0.698131 0.698131 0.698131
0.469383 0.469383 0.469383
0.492805 0.492805 0.492805
0.520912 0.520912 0.520912
0.551324 0.551324 0.551324
0.604273 0.604273 0.604273
0.652613 0.652613 0.652613
0.741283 0.741283 0.741283
0.806088 0.806088 0.806088
0.815213 0.815213 0.815213
0.563058 0.563058 0.563058
0.586847 0.586847 0.586847
0.614847 0.614847 0.614847
0.644572 0.644572 0.644572
0.685802 0.685802 0.685802
0.730022 0.730022 0.730022
0.778103 0.778103 0.778103
0.866438 0.866438 0.866438
0.901656 0.901656 0.901656
0.653483 0.653483 0.653483
0.675898 0.675898 0.675898
0.701915 0.701915 0.701915
0.729076 0.729076 0.729076
0.762325 0.762325 0.762325
0.801373 0.801373 0.801373
0.838911 0.838911 0.838911
0.890623 0.890623 0.890623
0.931807 0.931807 0.931807
0.0596323 0.0596323 0.0596323
0.071458 0.071458 0.071458
0.0869001 0.0869001 0.0869001
0.105562 0.105562 0.105562
0.126253 0.126253 0.126253
0.149187 0.149187 0.149187
0.173129 0.173129 0.173129
0.197284 0.197284 0.197284
0.221744 0.221744 0.221744
0.101045 0.101045 0.101045
0.115129 0.115129 0.115129
0.134707 0.134707 0.134707
0.158206 0.158206 0.158206
0.183154 0.183154 0.183154
0.209262 0.209262 0.209262
0.235508 0.235508 0.235508
0.261707 0.261707 0.261707
0.288045 0.288045 0.288045
0.161929 0.161929 0.161929
0.178424 0.178424 0.178424
0.198291 0.198291 0.198291
0.224613 0.224613 0.224613
0.252827 0.252827 0.252827
0.282872 0.282872 0.282872
0.312871 0.312871 0.312871
0.342229 0.342229 0.342229
0.37203 0.37203 0.37203
0.233814 0.233814 0.233814
0.251301 0.251301 0.251301
0.272419 0.272419 0.272419
0.29868 0.29868 0.29868
0.332403 0.332403 0.332403
0.369848 0.369848 0.369848
0.406256 0.406256 0.406256
0.441352 0.441352 0.441352
0.472724 0.472724 0.472724
0.309499 0.309499 0.309499
0.328557 0.328557 0.328557
0.351751 0.351751 0.351751
0.381003 0.381003 0.381003
0.429465 0.429465 0.429465
0.475166 0.475166 0.475166
0.515938 0.515938 0.515938
0.548699 0.548699 0.548699
0.58172 0.58172 0.58172
0.391424 0.391424 0.391424
0.412924 0.412924 0.412924
0.439246 0.439246 0.439246
0.472633 0.472633 0.472633
0.530053 0.530053 0.530053
0.592371 0.592371 0.592371
0.629084 0.629084 0.629084
0.663935 0.663935 0.663935
0.693904 0.693904 0.693904
0.481636 0.481636 0.481636
0.505241 0.505241 0.505241
0.533471 0.533471 0.533471
0.563882 0.563882 0.563882
0.613397 0.613397 0.613397
0.672435 0.672435 0.672435
0.740642 0.740642 0.740642
0.794186 0.794186 0.794186
0.808804 0.808804 0.808804
0.575616 0.575616 0.575616
0.599359 0.599359 0.599359
0.627222 0.627222 0.627222
0.656733 0.656733 0.656733
0.691493 0.691493 0.691493
0.747845 0.747845 0.747845
0.790127 0.790127 0.790127
0.865293 0.865293 0.865293
0.906889 0.906889 0.906889
0.665553 0.665553 0.665553
0.687694 0.687694 0.687694
0.713405 0.713405 0.713405
0.740322 0.740322 0.740322
0.76611 0.76611 0.76611
0.815641 0.815641 0.815641
0.853193 0.853193 0.853193
0.894606 0.894606 0.894606
0.941329 0.941329 0.941329
0.0662242 0.0662242 0.0662242
0.0784161 0.0784161 0.0784161
0.0942855 0.0942855 0.0942855
0.113375 0.113375 0.113375
0.134295 0.134295 0.134295
0.157092 0.157092 0.157092
0.180941 0.180941 0.180941
0.20531 0.20531 0.20531
0.229679 0.229679 0.229679
0.109041 0.109041 0.109041
0.123583 0.123583 0.123583
0.143542 0.143542 0.143542
0.166812 0.166812 0.166812
0.190967 0.190967 0.190967
0.216114 0.216114 0.216114
0.242283 0.242283 0.242283
0.268772 0.268772 0.268772
0.295506 0.295506 0.295506
0.171298 0.171298 0.171298
0.187915 0.187915 0.187915
0.207767 0.207767 0.207767
0.233219 0.233219 0.233219
0.260029 0.260029 0.260029
0.288426 0.288426 0.288426
0.318227 0.318227 0.318227
0.348516 0.348516 0.348516
0.378897 0.378897 0.378897
0.243549 0.243549 0.243549
0.261173 0.261173 0.261173
0.282383 0.282383 0.282383
0.305913 0.305913 0.305913
0.337469 0.337469 0.337469
0.371618 0.371618 0.371618
0.408576 0.408576 0.408576
0.445701 0.445701 0.445701
0.481636 0.481636 0.481636
0.319814 0.319814 0.319814
0.339055 0.339055 0.339055
0.362554 0.362554 0.362554
0.388815 0.388815 0.388815
0.428687 0.428687 0.428687
0.470161 0.470161 0.470161
0.5149 0.5149 0.5149
0.555596 0.555596 0.555596
0.594491 0.594491 0.594491
0.402777 0.402777 0.402777
0.424552 0.424552 0.424552
0.451041 0.451041 0.451041
0.480507 0.480507 0.480507
0.525963 0.525963 0.525963
0.581842 0.581842 0.581842
0.629999 0.629999 0.629999
0.669718 0.669718 0.669718
0.700679 0.700679 0.700679
0.493843 0.493843 0.493843
0.517479 0.517479 0.517479
0.54583 0.54583 0.54583
0.576272 0.576272 0.576272
0.62504 0.62504 0.62504
0.682795 0.682795 0.682795
0.739681 0.739681 0.739681
0.77145 0.77145 0.77145
0.799176 0.799176 0.799176
0.587961 0.587961 0.587961
0.611536 0.611536 0.611536
0.639338 0.639338 0.639338
0.66865 0.66865 0.66865
0.703105 0.703105 0.703105
0.755962 0.755962 0.755962
0.807233 0.807233 0.807233
0.863951 0.863951 0.863951
0.901289 0.901289 0.901289
0.677302 0.677302 0.677302
0.699306 0.699306 0.699306
0.724712 0.724712 0.724712
0.751354 0.751354 0.751354
0.776577 0.776577 0.776577
0.820417 0.820417 0.820417
0.868528 0.868528 0.868528
0.904036 0.904036 0.904036
0.950347 0.950347 0.950347
0.0726329 0.0726329 0.0726329
0.0852522 0.0852522 0.0852522
0.101686 0.101686 0.101686
0.121111 0.121111 0.121111
0.142382 0.142382 0.142382
0.165133 0.165133 0.165133
0.18851 0.18851 0.18851
0.21268 0.21268 0.21268
0.237339 0.237339 0.237339
0.116854 0.116854 0.116854
0.131853 0.131853 0.131853
0.152209 0.152209 0.152209
0.175265 0.175265 0.175265
0.199161 0.199161 0.199161
0.223682 0.223682 0.223682
0.249134 0.249134 0.249134
0.275547 0.275547 0.275547
0.302403 0.302403 0.302403
0.180209 0.180209 0.180209
0.196933 0.196933 0.196933
0.216846 0.216846 0.216846
0.241856 0.241856 0.241856
0.268009 0.268009 0.268009
0.295491 0.295491 0.295491
0.324117 0.324117 0.324117
0.354391 0.354391 0.354391
0.385351 0.385351 0.385351
0.252827 0.252827 0.252827
0.270619 0.270619 0.270619
0.291966 0.291966 0.291966
0.315618 0.315618 0.315618
0.345769 0.345769 0.345769
0.378241 0.378241 0.378241
0.412833 0.412833 0.412833
0.449485 0.449485 0.449485
0.486503 0.486503 0.486503
0.329747 0.329747 0.329747
0.349157 0.349157 0.349157
0.3729 0.3729 0.3729
0.399542 0.399542 0.399542
0.431708 0.431708 0.431708
0.471061 0.471061 0.471061
0.512749 0.512749 0.512749
0.55584 0.55584 0.55584
0.595972 0.595972 0.595972
0.413642 0.413642 0.413642
0.435737 0.435737 0.435737
0.462486 0.462486 0.462486
0.492103 0.492103 0.492103
0.527779 0.527779 0.527779
0.579004 0.579004 0.579004
0.623545 0.623545 0.623545
0.668238 0.668238 0.668238
0.705791 0.705791 0.705791
0.505608 0.505608 0.505608
0.529397 0.529397 0.529397
0.55761 0.55761 0.55761
0.588098 0.588098 0.588098
0.624521 0.624521 0.624521
0.677195 0.677195 0.677195
0.729641 0.729641 0.729641
0.771908 0.771908 0.771908
0.805097 0.805097 0.805097
0.599786 0.599786 0.599786
0.623255 0.623255 0.623255
0.650843 0.650843 0.650843
0.679896 0.679896 0.679896
0.71426 0.71426 0.71426
0.766155 0.766155 0.766155
0.815747 0.815747 0.815747
0.862669 0.862669 0.862669
0.888167 0.888167 0.888167
0.688441 0.688441 0.688441
0.710201 0.710201 0.710201
0.735439 0.735439 0.735439
0.761807 0.761807 0.761807
0.786557 0.786557 0.786557
0.829953 0.829953 0.829953
0.874922 0.874922 0.874922
0.918456 0.918456 0.918456
0.95874 0.95874 0.95874
0.0789502 0.0789502 0.0789502
0.0919661 0.0919661 0.0919661
0.108888 0.108888 0.108888
0.128801 0.128801 0.128801
0.15053 0.15053 0.15053
0.173175 0.173175 0.173175
0.196384 0.196384 0.196384
0.220142 0.220142 0.220142
0.244663 0.244663 0.244663
0.124651 0.124651 0.124651
0.140063 0.140063 0.140063
0.16054 0.16054 0.16054
0.18352 0.18352 0.18352
0.207248 0.207248 0.207248
0.231678 0.231678 0.231678
0.256641 0.256641 0.256641
0.282536 0.282536 0.282536
0.309331 0.309331 0.309331
0.188724 0.188724 0.188724
0.205554 0.205554 0.205554
0.225544 0.225544 0.225544
0.250355 0.250355 0.250355
0.276341 0.276341 0.276341
0.303258 0.303258 0.303258
0.331456 0.331456 0.331456
0.360769 0.360769 0.360769
0.391623 0.391623 0.391623
0.261753 0.261753 0.261753
0.279667 0.279667 0.279667
0.301183 0.301183 0.301183
0.324987 0.324987 0.324987
0.354665 0.354665 0.354665
0.386099 0.386099 0.386099
0.419532 0.419532 0.419532
0.454765 0.454765 0.454765
0.491463 0.491463 0.491463
0.3393 0.3393 0.3393
0.358953 0.358953 0.358953
0.382925 0.382925 0.382925
0.409842 0.409842 0.409842
0.437537 0.437537 0.437537
0.475654 0.475654 0.475654
0.515435 0.515435 0.515435
0.556374 0.556374 0.556374
0.597726 0.597726 0.597726
0.424201 0.424201 0.424201
0.446494 0.446494 0.446494
0.473518 0.473518 0.473518
0.503304 0.503304 0.503304
0.533181 0.533181 0.533181
0.58053 0.58053 0.58053
0.623209 0.623209 0.623209
0.66508 0.66508 0.66508
0.70576 0.70576 0.70576
0.516915 0.516915 0.516915
0.540764 0.540764 0.540764
0.569131 0.569131 0.569131
0.599451 0.599451 0.599451
0.629282 0.629282 0.629282
0.677714 0.677714 0.677714
0.726314 0.726314 0.726314
0.765866 0.765866 0.765866
0.803723 0.803723 0.803723
0.611078 0.611078 0.611078
0.634485 0.634485 0.634485
0.661845 0.661845 0.661845
0.690562 0.690562 0.690562
0.71812 0.71812 0.71812
0.764553 0.764553 0.764553
0.810269 0.810269 0.810269
0.854337 0.854337 0.854337
0.88893 0.88893 0.88893
0.699107 0.699107 0.699107
0.720592 0.720592 0.720592
0.745602 0.745602 0.745602
0.771618 0.771618 0.771618
0.796002 0.796002 0.796002
0.8392 0.8392 0.8392
0.88333 0.88333 0.88333
0.925628 0.925628 0.925628
0.96611 0.96611 0.96611
