bundles/resolve-cinematic-luts/Lens Distortions - Finishing LUTs/LD - Dark Pearl 3.cube
TITLE "LD - Dark Pearl 3"
# Copyright (c) Lens Distortions, LLC. All Rights Reserved.
# LensDistortions.com
# ref-DP3
LUT_3D_SIZE 9
0 0.0210117 0.042237
0.0137026 0.030518 0.0529793
0.0923629 0.0526741 0.0688182
0.244572 0.0837873 0.0807202
0.414343 0.113924 0.0819104
0.569055 0.144488 0.0864424
0.709712 0.178607 0.0971237
0.809903 0.208835 0.1093
0.892317 0.24062 0.123842
0.0135042 0.0689403 0.0825513
0.0453346 0.0824903 0.0937209
0.136278 0.102022 0.0958114
0.275181 0.125566 0.095079
0.427222 0.150286 0.0946365
0.578042 0.181369 0.101122
0.720836 0.219333 0.115129
0.824201 0.252201 0.127977
0.903868 0.283986 0.141299
0.0648508 0.150271 0.152636
0.0954147 0.158083 0.159854
0.14815 0.178027 0.175814
0.31603 0.192096 0.129244
0.4551 0.212284 0.126558
0.59733 0.242588 0.132753
0.735317 0.280339 0.146075
0.839307 0.314458 0.160601
0.907256 0.346303 0.179538
0.119081 0.241001 0.225223
0.154818 0.240146 0.231174
0.193301 0.262455 0.24622
0.295247 0.294194 0.219944
0.491325 0.308507 0.181949
0.63035 0.330144 0.180499
0.759365 0.36202 0.191302
0.850294 0.397803 0.213275
0.918105 0.42681 0.230579
0.177493 0.343511 0.303227
0.222446 0.339467 0.312444
0.259632 0.358694 0.325322
0.316594 0.390005 0.346944
0.47306 0.42182 0.282887
0.658976 0.441154 0.255268
0.779904 0.465751 0.261021
0.877867 0.496315 0.275242
0.944991 0.520867 0.287282
0.242283 0.45127 0.388403
0.292699 0.447471 0.399725
0.336553 0.458473 0.411643
0.389288 0.488212 0.43125
0.448676 0.526558 0.449134
0.643992 0.553674 0.364294
0.798474 0.580606 0.342611
0.900328 0.606088 0.344656
0.967407 0.623896 0.353094
0.316609 0.559625 0.476066
0.367773 0.55584 0.487449
0.415641 0.560662 0.498848
0.462089 0.589288 0.517327
0.521141 0.62417 0.537881
0.583795 0.663325 0.542718
0.780667 0.685893 0.449683
0.901366 0.709834 0.428733
0.976593 0.72932 0.430365
0.387976 0.665415 0.564248
0.435309 0.662333 0.573724
0.484779 0.663066 0.583825
0.530175 0.685405 0.600595
0.58819 0.715084 0.620569
0.645472 0.747387 0.631968
0.71252 0.779278 0.627771
0.875731 0.798123 0.54078
0.975311 0.811414 0.51487
0.445518 0.747051 0.63566
0.485176 0.744366 0.641337
0.541192 0.74435 0.65359
0.584756 0.758068 0.666178
0.646021 0.787533 0.689143
0.701823 0.815106 0.704189
0.754482 0.844434 0.704585
0.822461 0.869169 0.69691
0.940627 0.88394 0.636118
0 0.0304723 0.0771496
0.0239109 0.0411078 0.0972915
0.125689 0.0618143 0.11487
0.260899 0.093904 0.129641
0.426062 0.119219 0.13196
0.588022 0.146288 0.12842
0.725994 0.179248 0.133639
0.824323 0.209293 0.142077
0.902617 0.240772 0.153857
0.0145113 0.0862593 0.124285
0.0511482 0.100252 0.133837
0.136034 0.114519 0.143038
0.259907 0.135622 0.145174
0.409461 0.157763 0.145586
0.56582 0.186648 0.146822
0.715251 0.222766 0.154208
0.821408 0.254963 0.164126
0.902754 0.286122 0.175418
0.062974 0.171572 0.183856
0.102968 0.180301 0.198199
0.164279 0.193439 0.202533
0.311788 0.202121 0.174701
0.450629 0.220325 0.171771
0.595728 0.247913 0.173114
0.737438 0.284062 0.180804
0.841718 0.317571 0.192645
0.909194 0.349599 0.209689
0.115724 0.255863 0.245945
0.162371 0.262654 0.261021
0.212451 0.280827 0.272755
0.305394 0.308309 0.257099
0.500298 0.31667 0.219409
0.63769 0.336141 0.216617
0.762844 0.367803 0.225681
0.854139 0.402762 0.244144
0.922988 0.431174 0.259388
0.173907 0.353414 0.320134
0.226429 0.357061 0.335271
0.281056 0.376974 0.353857
0.335744 0.404623 0.374395
0.486961 0.433127 0.319005
0.683268 0.447211 0.288869
0.790112 0.471504 0.293858
0.883238 0.501961 0.306386
0.949935 0.525902 0.316915
0.237919 0.45977 0.404303
0.291386 0.459571 0.416648
0.357961 0.476295 0.4392
0.409598 0.503716 0.459815
0.467063 0.537896 0.484382
0.657969 0.565026 0.39939
0.835309 0.584451 0.366934
0.913176 0.6103 0.375204
0.973922 0.629236 0.383963
0.314275 0.566842 0.490837
0.365393 0.564446 0.501152
0.441001 0.577951 0.527565
0.485878 0.604654 0.547372
0.539788 0.636316 0.571694
0.597223 0.672618 0.585458
0.801953 0.692622 0.477272
0.940826 0.709926 0.443488
0.997314 0.731197 0.45391
0.386892 0.672068 0.578653
0.43389 0.669535 0.586816
0.512154 0.676692 0.610956
0.560998 0.699062 0.631266
0.609506 0.726848 0.651576
0.661753 0.756664 0.667567
0.717952 0.78674 0.667033
0.900694 0.80029 0.560311
0.999573 0.809476 0.545098
0.446525 0.753307 0.649897
0.48539 0.750957 0.654521
0.560769 0.751263 0.672938
0.613138 0.769879 0.693172
0.668055 0.799161 0.717128
0.719341 0.825299 0.734173
0.765606 0.851667 0.740078
0.824048 0.875929 0.735271
0.955657 0.886397 0.671687
0.00140383 0.0505684 0.130388
0.0265354 0.0633555 0.15761
0.142184 0.0854047 0.204196
0.282719 0.118608 0.202564
0.428412 0.140047 0.209979
0.579812 0.165377 0.214389
0.721584 0.197345 0.220523
0.820218 0.226383 0.226673
0.899641 0.255619 0.234791
0.0220035 0.109758 0.180652
0.0525826 0.118578 0.188083
0.144228 0.13402 0.221012
0.277699 0.156847 0.20618
0.4224 0.17734 0.214481
0.576303 0.203464 0.219852
0.724666 0.235767 0.223224
0.834272 0.261677 0.223651
0.912718 0.2907 0.231342
0.0625925 0.193103 0.228336
0.100099 0.198001 0.249989
0.170275 0.215335 0.247227
0.281041 0.229053 0.240909
0.42884 0.243748 0.242695
0.566064 0.271138 0.248096
0.711864 0.3037 0.254887
0.827329 0.334585 0.260365
0.900404 0.358373 0.263722
0.118227 0.283589 0.283375
0.158099 0.289906 0.303456
0.23621 0.309361 0.314382
0.321447 0.332006 0.313619
0.492088 0.338949 0.282261
0.627283 0.357275 0.282506
0.751705 0.385245 0.290852
0.852995 0.415396 0.299916
0.923339 0.44033 0.306554
0.179278 0.382101 0.355962
0.227375 0.38761 0.372412
0.312459 0.408865 0.395895
0.371359 0.432532 0.414328
0.498695 0.457465 0.376211
0.684474 0.464179 0.343023
0.793332 0.486915 0.349065
0.889876 0.511742 0.352941
0.954665 0.535409 0.361807
0.24387 0.482826 0.434958
0.297749 0.485618 0.447868
0.384955 0.504494 0.475883
0.443534 0.531746 0.49781
0.497566 0.560678 0.519661
0.677668 0.584207 0.44596
0.840497 0.600412 0.416022
0.921447 0.62005 0.415381
0.981659 0.637598 0.423667
0.32015 0.583917 0.516899
0.371542 0.588235 0.529992
0.460044 0.602487 0.558953
0.51426 0.628992 0.581048
0.566522 0.657053 0.603372
0.620752 0.688563 0.620661
0.814618 0.708247 0.519753
0.95111 0.722622 0.483589
1 0.738354 0.491753
0.389212 0.684886 0.600656
0.438941 0.688441 0.612329
0.524681 0.699184 0.63856
0.585321 0.718853 0.660838
0.634501 0.744305 0.682368
0.683848 0.770977 0.702113
0.734127 0.800626 0.707942
0.907713 0.812268 0.599451
0.99913 0.819883 0.606683
0.448676 0.762936 0.668849
0.489265 0.763821 0.675181
0.571832 0.771878 0.698634
0.645106 0.787411 0.723873
0.69482 0.814282 0.747021
0.740001 0.838422 0.766125
0.782818 0.862715 0.777508
0.831144 0.885451 0.774777
0.95436 0.894942 0.718944
0.0170291 0.0783703 0.209476
0.0403143 0.0923629 0.217136
0.124269 0.111147 0.282933
0.287877 0.138064 0.28394
0.431373 0.171649 0.289326
0.579309 0.196262 0.299351
0.718486 0.226581 0.310307
0.814832 0.254643 0.320134
0.889281 0.283772 0.330388
0.0350958 0.133745 0.250462
0.0608682 0.141283 0.244816
0.119341 0.15729 0.281941
0.288777 0.176867 0.295506
0.429923 0.211475 0.294057
0.580011 0.236896 0.30428
0.723323 0.26746 0.317189
0.828534 0.291676 0.323827
0.89929 0.319982 0.332418
0.0669261 0.216464 0.296544
0.100267 0.217945 0.31162
0.163592 0.231098 0.309972
0.303624 0.25185 0.324788
0.44686 0.274586 0.311254
0.587396 0.297948 0.322423
0.722789 0.329122 0.33373
0.825971 0.359274 0.343389
0.899641 0.379919 0.347082
0.115312 0.30547 0.331014
0.149737 0.309712 0.353277
0.226825 0.329763 0.375097
0.336065 0.358419 0.379034
0.461143 0.372839 0.36556
0.6094 0.386206 0.364431
0.728725 0.413916 0.375113
0.832227 0.445258 0.38732
0.907149 0.461707 0.38761
0.177584 0.405035 0.395636
0.213321 0.409888 0.411261
0.303304 0.43061 0.4439
0.404639 0.460136 0.454734
0.506523 0.485359 0.441413
0.665721 0.493462 0.418906
0.784314 0.512322 0.422858
0.881498 0.537881 0.430716
0.95053 0.552346 0.428534
0.252659 0.509911 0.47332
0.294957 0.511543 0.483467
0.395483 0.529107 0.513588
0.477562 0.561273 0.538979
0.535729 0.588769 0.561807
0.683528 0.610681 0.508614
0.838437 0.620157 0.477073
0.921187 0.638605 0.479286
0.985504 0.65066 0.473945
0.330892 0.614069 0.556039
0.376349 0.614725 0.564874
0.475608 0.625849 0.590799
0.551873 0.659266 0.622049
0.606668 0.686381 0.645289
0.654521 0.71194 0.662501
0.826703 0.728527 0.578058
0.957168 0.740108 0.544717
1 0.751141 0.543374
0.402213 0.711192 0.636881
0.450111 0.712322 0.645274
0.53724 0.721447 0.667918
0.619135 0.745327 0.697475
0.6701 0.769924 0.718822
0.716274 0.792905 0.737118
0.75874 0.817807 0.745708
0.922515 0.831632 0.650568
0.992325 0.835615 0.666926
0.462043 0.786023 0.70193
0.503502 0.786984 0.707744
0.584131 0.79379 0.727077
0.66537 0.806668 0.751247
0.716152 0.831739 0.773266
0.761685 0.854307 0.792798
0.804318 0.877089 0.807919
0.847135 0.899077 0.807706
0.953902 0.906249 0.765606
0.0359655 0.112184 0.299504
0.0606088 0.124773 0.287587
0.117494 0.141024 0.350881
0.278599 0.157305 0.387655
0.432197 0.194537 0.377081
0.582498 0.237232 0.392645
0.715434 0.265995 0.40676
0.809339 0.293324 0.418433
0.874037 0.32256 0.429145
0.0509041 0.160861 0.333547
0.0758373 0.167605 0.316564
0.121645 0.184161 0.336248
0.272557 0.197803 0.407431
0.436744 0.234592 0.3888
0.582055 0.278767 0.396277
0.719799 0.309224 0.409949
0.815412 0.333425 0.422858
0.880339 0.357992 0.434012
0.0755627 0.236408 0.370474
0.104021 0.237781 0.370092
0.159579 0.248508 0.368994
0.268742 0.270161 0.423072
0.448371 0.302586 0.410117
0.593942 0.338094 0.407355
0.721767 0.367651 0.424063
0.820142 0.396536 0.439338
0.891386 0.415061 0.447776
0.119203 0.332494 0.401892
0.151476 0.332784 0.42153
0.222461 0.346166 0.444358
0.323323 0.373632 0.445289
0.47631 0.401282 0.452216
0.617105 0.421759 0.439658
0.744793 0.444617 0.454734
0.843427 0.473777 0.466911
0.911284 0.489113 0.472068
0.174456 0.428641 0.446418
0.20647 0.428916 0.458213
0.284672 0.444633 0.502388
0.396155 0.47953 0.500557
0.518181 0.512306 0.52105
0.639597 0.526513 0.502815
0.762707 0.543099 0.502541
0.874998 0.563256 0.509316
0.938155 0.575448 0.507958
0.252049 0.531029 0.514931
0.280934 0.529015 0.521126
0.354452 0.542794 0.557015
0.474113 0.579156 0.579278
0.571496 0.614969 0.602182
0.682673 0.638102 0.578164
0.815793 0.647944 0.555306
0.912566 0.661662 0.555962
0.977462 0.669825 0.548806
0.333715 0.637217 0.594141
0.368566 0.635798 0.599069
0.455436 0.644083 0.625437
0.566629 0.676951 0.65275
0.635355 0.707988 0.679728
0.688426 0.733577 0.699809
0.827466 0.749279 0.640162
0.942458 0.759533 0.617121
0.992645 0.766186 0.61738
0.413306 0.737453 0.6766
0.453025 0.73666 0.68127
0.53962 0.742397 0.700191
0.633722 0.761395 0.723934
0.702007 0.791211 0.752178
0.74963 0.814054 0.772122
0.787503 0.835966 0.782559
0.918029 0.848081 0.71986
0.988525 0.851942 0.721981
0.477989 0.811978 0.73994
0.517784 0.810193 0.742672
0.598978 0.814054 0.757519
0.681804 0.824872 0.777951
0.736095 0.847639 0.799619
0.786816 0.869612 0.820371
0.829953 0.890486 0.838056
0.870039 0.913283 0.84596
0.957595 0.92282 0.812406
0.0546273 0.145785 0.392615
0.080293 0.156695 0.371283
0.124407 0.172732 0.415167
0.242863 0.187854 0.495781
0.426123 0.217609 0.470329
0.578256 0.26273 0.479942
0.716533 0.313375 0.50425
0.800565 0.338384 0.513726
0.861738 0.366873 0.527459
0.0668803 0.190616 0.420417
0.0925765 0.195834 0.3991
0.1355 0.21297 0.39971
0.236912 0.229969 0.48954
0.432883 0.257527 0.485176
0.581323 0.304662 0.489815
0.713878 0.357092 0.506264
0.803449 0.383719 0.516838
0.869551 0.401221 0.530251
0.0896925 0.260746 0.452766
0.114885 0.261738 0.437568
0.163668 0.271031 0.430137
0.236393 0.297551 0.468635
0.432685 0.318975 0.52253
0.587808 0.365209 0.507179
0.718135 0.414481 0.518029
0.815579 0.442679 0.534234
0.884153 0.458915 0.543847
0.128054 0.359808 0.484367
0.156008 0.355566 0.490379
0.215076 0.361761 0.499596
0.305653 0.387167 0.503182
0.451621 0.413275 0.562783
0.609384 0.454063 0.540215
0.745129 0.488212 0.541192
0.845304 0.512581 0.557885
0.907866 0.527962 0.571038
0.181308 0.459648 0.519493
0.211109 0.45481 0.529107
0.280385 0.461723 0.567178
0.383841 0.49247 0.571542
0.495079 0.527169 0.587106
0.645792 0.557305 0.596536
0.770352 0.576547 0.57995
0.877791 0.594446 0.590005
0.943923 0.604837 0.596567
0.251194 0.555154 0.567575
0.276387 0.551141 0.570535
0.343297 0.556848 0.603479
0.452811 0.58996 0.637079
0.565927 0.630762 0.639994
0.688502 0.663203 0.661646
0.796918 0.6757 0.64303
0.889433 0.688121 0.635294
0.978546 0.68835 0.628702
0.331365 0.6589 0.638697
0.357763 0.655238 0.641947
0.410468 0.658808 0.661814
0.513146 0.683162 0.700389
0.634226 0.720562 0.713008
0.7205 0.753582 0.736843
0.823697 0.770962 0.708629
0.921538 0.779706 0.68719
0.990372 0.780514 0.684535
0.413245 0.755993 0.712947
0.44358 0.753338 0.714748
0.509682 0.755611 0.72929
0.607614 0.76994 0.754986
0.711147 0.801495 0.776196
0.773251 0.829206 0.800366
0.815412 0.851179 0.814496
0.909209 0.86331 0.781659
0.991394 0.865476 0.767849
0.485206 0.83183 0.774639
0.516426 0.829602 0.775311
0.591455 0.831464 0.787778
0.684276 0.840421 0.806821
0.750469 0.861173 0.824353
0.811978 0.883009 0.848341
0.854597 0.903929 0.867491
0.890349 0.925139 0.878187
0.966155 0.939971 0.850355
0.0706798 0.1776 0.479561
0.0991531 0.185809 0.465126
0.140703 0.204608 0.478141
0.231006 0.220798 0.561761
0.407996 0.2421 0.602106
0.573526 0.287343 0.572274
0.710246 0.339025 0.590875
0.795453 0.384512 0.609461
0.861677 0.415229 0.625254
0.0832837 0.222034 0.505043
0.111009 0.22594 0.489799
0.154223 0.244862 0.469322
0.221637 0.266255 0.547311
0.404685 0.28452 0.618997
0.581552 0.32845 0.586633
0.709102 0.382879 0.598642
0.798428 0.431205 0.615747
0.868833 0.456703 0.628107
0.105837 0.289235 0.538582
0.132647 0.290227 0.522652
0.176852 0.300786 0.502281
0.239307 0.326696 0.522103
0.378317 0.350195 0.625086
0.584207 0.385168 0.606928
0.715953 0.439506 0.615854
0.814725 0.490944 0.635996
0.883131 0.509468 0.643046
0.141176 0.384833 0.570382
0.167208 0.381918 0.565026
0.218418 0.384451 0.559731
0.296101 0.404715 0.560906
0.394003 0.435477 0.618845
0.600244 0.465904 0.642817
0.733288 0.515587 0.644541
0.841215 0.560128 0.653666
0.90544 0.573495 0.663813
0.194293 0.490074 0.606409
0.221927 0.484215 0.613611
0.27808 0.481941 0.627359
0.368048 0.501167 0.630442
0.471351 0.53463 0.643732
0.622507 0.565484 0.699321
0.760891 0.60734 0.684642
0.871244 0.636332 0.678111
0.944137 0.640436 0.689815
0.261204 0.58645 0.638758
0.286213 0.581445 0.643
0.345342 0.579019 0.669474
0.441489 0.600855 0.699062
0.545083 0.641535 0.704479
0.660014 0.67512 0.729915
0.789349 0.702373 0.737392
0.893889 0.716091 0.713558
0.965118 0.718486 0.727489
0.328634 0.683024 0.692409
0.353597 0.678355 0.693324
0.405203 0.676905 0.707958
0.501518 0.691203 0.74583
0.611795 0.727443 0.758434
0.715648 0.763836 0.767559
0.821042 0.791135 0.785443
0.910567 0.798001 0.761685
0.983917 0.797513 0.761639
0.410208 0.775845 0.756191
0.434409 0.771771 0.756725
0.479927 0.771725 0.767956
0.549355 0.778744 0.792477
0.65481 0.803235 0.819226
0.770733 0.835233 0.824277
0.839582 0.863432 0.847089
0.912367 0.877012 0.830137
0.992111 0.877668 0.81445
0.484474 0.849317 0.810559
0.509972 0.845823 0.80972
0.568368 0.845777 0.818998
0.641611 0.851575 0.836454
0.728267 0.868482 0.854429
0.822736 0.891783 0.870253
0.871168 0.916213 0.89192
0.907759 0.936385 0.907088
0.972442 0.951385 0.884901
0.0836347 0.20383 0.554345
0.114046 0.208728 0.550195
0.155474 0.23183 0.537682
0.228031 0.248478 0.620676
0.376593 0.269551 0.700298
0.566949 0.307347 0.671687
0.703456 0.360586 0.663661
0.796704 0.404471 0.682185
0.864637 0.442924 0.702358
0.0968948 0.247944 0.578241
0.125612 0.250217 0.572045
0.169345 0.272587 0.540673
0.226535 0.298528 0.595148
0.363195 0.316396 0.699321
0.572885 0.348043 0.692653
0.708751 0.40351 0.677028
0.803098 0.449821 0.695583
0.867063 0.488777 0.710124
0.120027 0.31548 0.614572
0.147601 0.316091 0.604669
0.194308 0.331975 0.578027
0.253162 0.356451 0.586587
0.353857 0.381277 0.686168
0.570825 0.406012 0.720027
0.7196 0.459556 0.700343
0.821408 0.509194 0.721996
0.88043 0.545235 0.732067
0.155459 0.408438 0.653712
0.182193 0.407187 0.644221
0.230777 0.413336 0.629953
0.29987 0.431128 0.627848
0.374868 0.460563 0.656168
0.541176 0.48539 0.754543
0.728985 0.528939 0.731945
0.838788 0.580041 0.749676
0.900725 0.611353 0.757977
0.209415 0.513359 0.685328
0.235599 0.5093 0.685008
0.286564 0.507454 0.684382
0.360967 0.518303 0.684504
0.450278 0.547616 0.693401
0.562387 0.579629 0.760052
0.752911 0.615045 0.771695
0.857588 0.658564 0.780743
0.93048 0.679698 0.790082
0.272129 0.616815 0.719097
0.2981 0.611765 0.723705
0.351781 0.608011 0.740932
0.428138 0.616251 0.752956
0.522911 0.644923 0.7579
0.627451 0.678599 0.780362
0.766583 0.70724 0.824231
0.878508 0.7393 0.814832
0.94699 0.755566 0.816526
0.337591 0.711971 0.759197
0.359701 0.707393 0.759762
0.410163 0.703609 0.774136
0.491661 0.706203 0.801892
0.595926 0.733471 0.812467
0.693111 0.770123 0.819608
0.790341 0.798428 0.848737
0.894133 0.82005 0.849592
0.965667 0.825559 0.84683
0.407111 0.797055 0.805325
0.429313 0.792172 0.803754
0.478035 0.788891 0.811002
0.547982 0.789349 0.832059
0.657374 0.806348 0.850645
0.755581 0.838666 0.851865
0.835569 0.869459 0.872068
0.90959 0.891478 0.887221
0.98291 0.8916 0.875273
0.479423 0.867018 0.850431
0.50106 0.863569 0.849027
0.547478 0.861616 0.855344
0.599832 0.864515 0.869017
0.691814 0.873137 0.887968
0.795316 0.892622 0.897871
0.869078 0.92079 0.913191
0.923873 0.945953 0.932769
0.976043 0.961089 0.922332
0.0961929 0.228672 0.626245
0.127596 0.230426 0.632975
0.170199 0.258167 0.60206
0.231434 0.275196 0.677684
0.362036 0.295888 0.766018
0.551446 0.326863 0.782132
0.700832 0.379599 0.740047
0.794675 0.423362 0.743343
0.868009 0.459449 0.763546
0.109499 0.272251 0.64918
0.138811 0.272175 0.651835
0.183337 0.298146 0.610376
0.240787 0.325002 0.652842
0.34844 0.343252 0.747768
0.541527 0.370184 0.796506
0.705074 0.42118 0.754055
0.804761 0.467155 0.758892
0.874205 0.502831 0.775784
0.132769 0.339071 0.684779
0.160479 0.337942 0.681575
0.206821 0.354681 0.645212
0.267796 0.382208 0.652201
0.348028 0.409323 0.729885
0.530373 0.431418 0.806607
0.716411 0.475044 0.777111
0.822446 0.523095 0.782971
0.888899 0.556634 0.79765
0.168536 0.428138 0.726543
0.195621 0.426551 0.720302
0.241962 0.434867 0.692805
0.309773 0.452506 0.688212
0.386297 0.486076 0.714427
0.527184 0.508675 0.808484
0.733593 0.541588 0.811002
0.840269 0.59115 0.810101
0.907378 0.620005 0.824521
0.222339 0.531289 0.752148
0.248127 0.52781 0.749187
0.295125 0.529564 0.735012
0.364553 0.540154 0.739895
0.448631 0.56492 0.74551
0.544045 0.597208 0.804746
0.747509 0.619898 0.848585
0.858289 0.665309 0.840345
0.931365 0.68748 0.85626
0.284306 0.639948 0.787076
0.308659 0.635416 0.787289
0.357427 0.631754 0.791058
0.423941 0.636408 0.799359
0.508736 0.653864 0.802991
0.607843 0.684276 0.819638
0.745861 0.709468 0.882124
0.875456 0.741573 0.874144
0.941176 0.764599 0.881102
0.345953 0.735714 0.821546
0.366155 0.731563 0.822599
0.414679 0.72604 0.835019
0.485115 0.72697 0.849699
0.572427 0.740215 0.856504
0.66511 0.768475 0.864836
0.757061 0.798672 0.891188
0.886397 0.820203 0.909255
0.95314 0.839796 0.909972
0.414191 0.819181 0.858503
0.433524 0.815152 0.857267
0.478477 0.809964 0.863676
0.54139 0.80734 0.87953
0.658427 0.812345 0.885023
0.737118 0.837064 0.892241
0.811292 0.868955 0.913741
0.889143 0.894591 0.937865
0.965484 0.909041 0.939971
0.477241 0.883192 0.891188
0.500175 0.87863 0.889113
0.549538 0.875578 0.893629
0.622614 0.873808 0.904082
0.748653 0.876295 0.908034
0.807034 0.892546 0.915801
0.863401 0.920058 0.936187
0.918364 0.948974 0.956878
0.974731 0.970153 0.968673
