bundles/resolve-cinematic-luts/Lens Distortions - Finishing LUTs/LD - Pure 3.cube
TITLE "LD - Pure 3"
# Copyright (c) Lens Distortions, LLC. All Rights Reserved.
# LensDistortions.com
# ref-PR6
LUT_3D_SIZE 5
0.0120089 0.0120089 0.0120089
0.220264 0.0135958 0.0120089
0.488472 0.0295567 0.0120241
0.777493 0.0791028 0.0120089
0.998993 0.152132 0.017319
0.0318151 0.213779 0.0154879
0.226734 0.229267 0.0423133
0.495735 0.235554 0.0119936
0.761929 0.258732 0.0127108
0.995026 0.299428 0.0201724
0.140566 0.456352 0.0638285
0.276829 0.451789 0.140093
0.479744 0.487144 0.178012
0.785138 0.479774 0.0130922
0.998993 0.518517 0.0233616
0.245121 0.717281 0.137041
0.344076 0.717342 0.187335
0.531945 0.720836 0.303868
0.762982 0.777249 0.31516
0.998993 0.780377 0.0505531
0.415991 0.984283 0.285634
0.496422 0.982193 0.332891
0.652369 0.975891 0.431907
0.851591 0.988098 0.570016
0.998993 0.998993 0.723262
0.0119936 0.03888 0.188403
0.210605 0.0137026 0.234943
0.483436 0.0443885 0.207691
0.791989 0.0275731 0.186648
0.998993 0.0698711 0.175097
0.0479438 0.219883 0.258701
0.228946 0.225315 0.233783
0.458427 0.260288 0.250507
0.744381 0.274159 0.24506
0.994171 0.300725 0.24126
0.103014 0.469474 0.196475
0.263386 0.460746 0.23331
0.479438 0.486122 0.299413
0.780865 0.49424 0.244602
0.998993 0.531655 0.268147
0.250889 0.719371 0.254032
0.342733 0.722728 0.276173
0.527733 0.721462 0.368444
0.770779 0.783932 0.407065
0.998993 0.793683 0.29778
0.427466 0.983673 0.378271
0.505257 0.982391 0.412009
0.655711 0.973678 0.493675
0.857252 0.986175 0.625757
0.998993 0.998993 0.784421
0.0119936 0.157153 0.425147
0.163561 0.146639 0.460472
0.470237 0.0267948 0.510155
0.735561 0.160418 0.442313
0.991745 0.164691 0.435111
0.0119936 0.257725 0.490532
0.215228 0.280415 0.477012
0.471519 0.236545 0.497597
0.725795 0.298711 0.456107
0.990631 0.302937 0.458625
0.18706 0.468467 0.527047
0.314595 0.487297 0.521538
0.486198 0.48336 0.489876
0.723171 0.502815 0.493355
0.978805 0.572244 0.542489
0.1691 0.750835 0.399222
0.30779 0.74522 0.432639
0.510323 0.739223 0.47953
0.747906 0.763455 0.556497
0.998993 0.8168 0.557366
0.414252 0.993393 0.519081
0.524849 0.981582 0.566644
0.651423 0.982483 0.592294
0.863111 0.982849 0.725322
0.998993 0.998993 0.867903
0.0119936 0.273106 0.677302
0.197299 0.289342 0.66334
0.373098 0.243244 0.73817
0.738384 0.0773327 0.794079
0.976684 0.24271 0.696651
0.0119936 0.337469 0.721401
0.205341 0.353948 0.702892
0.41146 0.34873 0.743755
0.728328 0.259464 0.773327
0.980774 0.358236 0.713832
0.0119936 0.481346 0.791699
0.155108 0.492363 0.802777
0.486656 0.544121 0.773968
0.750957 0.48893 0.775708
0.989853 0.557702 0.743145
0.320775 0.743389 0.82652
0.418692 0.761212 0.825299
0.579583 0.775219 0.806958
0.775296 0.774227 0.778073
0.979629 0.794781 0.784146
0.416159 0.998993 0.715511
0.512627 0.998993 0.737697
0.665354 0.994034 0.778363
0.871138 0.994766 0.849897
0.990707 0.996643 0.931075
0.0119936 0.384634 0.916121
0.20412 0.40293 0.901488
0.382422 0.387228 0.952132
0.60528 0.372107 0.965301
0.969894 0.155245 0.998993
0.0119936 0.432395 0.941283
0.200855 0.448722 0.933501
0.434592 0.470085 0.950454
0.635477 0.459678 0.967498
0.976303 0.303731 0.998993
0.0119936 0.545846 0.981826
0.168505 0.556207 0.984451
0.468162 0.604807 0.981476
0.690578 0.60325 0.998993
0.996872 0.528252 0.998993
0.0445258 0.745937 0.998993
0.227344 0.765133 0.998993
0.448646 0.798123 0.998993
0.790082 0.840299 0.998993
0.998993 0.800534 0.998993
0.571191 0.998993 0.998993
0.655604 0.998993 0.998993
0.786511 0.998993 0.998993
0.932036 0.998993 0.998993
0.998993 0.998993 0.998993
