bundles/resolve-cinematic-luts/Lens Distortions - Finishing LUTs/LD - Metallic Rose 2.cube
TITLE "LD - Metallic Rose 2"
# Copyright (c) Lens Distortions, LLC. All Rights Reserved.
# LensDistortions.com
# ref-MR1
LUT_3D_SIZE 5
0.00801099 0.00810254 0.00851453
0.177111 0.0201114 0.0602884
0.476204 0.0451972 0.18233
0.740703 0.0808423 0.274067
0.964233 0.106035 0.338781
0.137896 0.211185 0.177661
0.173999 0.22504 0.148562
0.436896 0.250904 0.198093
0.713039 0.248539 0.259113
0.940063 0.261738 0.325368
0.289677 0.42887 0.362936
0.291707 0.430488 0.330465
0.471641 0.442084 0.235019
0.662974 0.47805 0.321859
0.879667 0.500633 0.376608
0.425284 0.642084 0.534539
0.42443 0.640192 0.50396
0.458076 0.672953 0.438666
0.731579 0.666957 0.354574
0.889647 0.700282 0.426474
0.538689 0.836561 0.68307
0.53843 0.836027 0.653849
0.551888 0.864866 0.581094
0.684855 0.898192 0.598611
0.944015 0.873381 0.52639
0.0623484 0.0687877 0.189883
0.181857 0.0104982 0.224445
0.484886 0.00549325 0.264622
0.750805 0.00708019 0.336446
0.972183 0.0329137 0.393271
0.146166 0.217304 0.258869
0.202625 0.219867 0.231113
0.456321 0.234272 0.286931
0.716365 0.250034 0.359625
0.940307 0.263371 0.416922
0.284367 0.430945 0.414389
0.346105 0.445411 0.407813
0.464271 0.445533 0.325948
0.663249 0.466072 0.376242
0.890913 0.486442 0.419928
0.421134 0.640391 0.578149
0.471992 0.657176 0.574289
0.484413 0.66688 0.491249
0.724422 0.669398 0.430518
0.886702 0.692439 0.482231
0.534707 0.833097 0.726253
0.578805 0.842161 0.716731
0.598474 0.857679 0.647456
0.698665 0.890608 0.638346
0.935256 0.876463 0.60029
0.153979 0.164569 0.400504
0.205631 0.136873 0.425574
0.483604 0.00549325 0.483589
0.75877 0.00549325 0.479896
0.982971 0.00549325 0.51194
0.186343 0.250462 0.403601
0.229191 0.27248 0.414878
0.449012 0.211276 0.449165
0.730602 0.212192 0.472496
0.960159 0.207416 0.518898
0.305104 0.440101 0.525933
0.368902 0.479255 0.556466
0.457465 0.457389 0.457679
0.702617 0.462425 0.511696
0.921096 0.469825 0.560494
0.422065 0.652766 0.674525
0.482902 0.692729 0.697871
0.580301 0.669413 0.62388
0.715862 0.674876 0.558145
0.881193 0.6748 0.577432
0.524407 0.840421 0.822919
0.579751 0.854353 0.819608
0.697322 0.858671 0.77644
0.728603 0.880247 0.714015
0.924285 0.883253 0.718929
0.234272 0.248051 0.607843
0.267948 0.219608 0.624949
0.49543 0.095201 0.704707
0.752605 0.00549325 0.742763
0.988617 0.00549325 0.741634
0.248997 0.31078 0.58616
0.28574 0.32665 0.59884
0.460838 0.271778 0.665629
0.716457 0.208392 0.707759
0.965133 0.208515 0.716686
0.334203 0.461418 0.674449
0.37232 0.490349 0.714931
0.468437 0.503426 0.667185
0.672389 0.426886 0.664805
0.9355 0.438666 0.688151
0.447807 0.66157 0.826001
0.49839 0.704173 0.869352
0.60885 0.715877 0.802548
0.711635 0.691295 0.703487
0.9243 0.693263 0.749096
0.55816 0.842405 0.925353
0.62269 0.866545 0.933394
0.779614 0.903731 0.919921
0.827268 0.879744 0.85127
0.917296 0.896971 0.841947
0.290303 0.306798 0.786892
0.317739 0.279454 0.808347
0.502388 0.213321 0.878584
0.757717 0.0101778 0.972885
0.98381 0.00549325 0.970779
0.299886 0.359716 0.754955
0.330602 0.371969 0.757366
0.442649 0.338155 0.85507
0.732036 0.22974 0.936034
0.956756 0.203037 0.940352
0.362203 0.488792 0.814313
0.38883 0.506477 0.823667
0.483726 0.540413 0.823682
0.701122 0.456504 0.876432
0.906004 0.423239 0.890135
0.464164 0.671946 0.934493
0.501961 0.70428 0.964691
0.61088 0.759197 0.989792
0.708797 0.735637 0.916884
0.90988 0.658503 0.89366
0.572686 0.853834 1
0.629419 0.877348 1
0.803601 0.912749 1
0.871366 0.914046 0.945754
0.923064 0.91458 0.919936
