bundles/resolve-cinematic-luts/Lens Distortions - Finishing LUTs/LD - Paradigm Teal 1.cube
TITLE "LD - Paradigm Teal 1"
# Copyright (c) Lens Distortions, LLC. All Rights Reserved.
# LensDistortions.com
# ref-PT9
LUT_3D_SIZE 33
0.0099794 0.0165866 0.0199741
0.0267033 0.0149538 0.0260471
0.0413214 0.0158999 0.0268254
0.0556191 0.0183108 0.0247959
0.0707866 0.0191501 0.0226139
0.0855879 0.0203861 0.0226291
0.102693 0.0222782 0.0233005
0.142428 0.0298161 0.0277104
0.182574 0.0402533 0.0344091
0.222248 0.0521706 0.0421149
0.260426 0.0650645 0.0504005
0.297642 0.0788434 0.0592355
0.333791 0.0932631 0.0684672
0.368444 0.106584 0.0777905
0.39884 0.117998 0.0865187
0.428763 0.128939 0.0949569
0.458579 0.139605 0.103197
0.488319 0.149981 0.111223
0.517983 0.160021 0.119036
0.547662 0.169802 0.12665
0.577295 0.179248 0.134066
0.606744 0.188373 0.141192
0.636149 0.197208 0.148104
0.665507 0.205737 0.154788
0.694804 0.213977 0.161242
0.724224 0.221973 0.167529
0.753414 0.229633 0.173541
0.78201 0.237018 0.179339
0.809689 0.244144 0.184909
0.836454 0.250996 0.19028
0.862364 0.257588 0.195453
0.887373 0.263951 0.200458
0.911604 0.270207 0.205295
0.0138857 0.0271 0.0298772
0.0288701 0.0280003 0.0278172
0.0443427 0.028275 0.0234531
0.0573281 0.0299535 0.0245518
0.0704509 0.0322728 0.025803
0.0840772 0.0347601 0.0271763
0.10042 0.0380713 0.0291142
0.140017 0.0471656 0.03505
0.180346 0.0581064 0.0420386
0.220096 0.0704051 0.0498512
0.258488 0.0839094 0.0582437
0.295872 0.0973983 0.0671397
0.33228 0.110475 0.0763867
0.367239 0.122911 0.0858473
0.39762 0.133577 0.0944076
0.427558 0.143938 0.102495
0.457435 0.154086 0.110445
0.487236 0.163989 0.118242
0.517037 0.173693 0.125917
0.546822 0.183154 0.133379
0.576364 0.192279 0.140581
0.605783 0.201144 0.147555
0.635157 0.209735 0.154314
0.664454 0.218067 0.160861
0.693812 0.226154 0.167285
0.723064 0.233951 0.173404
0.752194 0.241489 0.179309
0.780743 0.248737 0.185
0.808392 0.255741 0.190494
0.835157 0.262501 0.195819
0.861051 0.269017 0.200946
0.885969 0.275273 0.205844
0.910185 0.281346 0.21059
0.027924 0.0446937 0.0442969
0.0380102 0.0453651 0.0437934
0.0478065 0.0497902 0.0392309
0.0619364 0.0508583 0.0313878
0.074342 0.0524147 0.0300755
0.0876326 0.0537881 0.028336
0.103349 0.0563058 0.0264897
0.140688 0.0648814 0.0297551
0.179965 0.0760204 0.0370642
0.219379 0.0887007 0.0451514
0.25774 0.101228 0.053727
0.295186 0.113649 0.0627451
0.33167 0.125841 0.0721294
0.366506 0.137423 0.0815442
0.396811 0.147417 0.0902724
0.426825 0.157229 0.0986648
0.456748 0.166888 0.106874
0.486625 0.176394 0.1149
0.516426 0.185702 0.122713
0.546151 0.194751 0.130282
0.575677 0.20354 0.137591
0.605066 0.212085 0.144671
0.634409 0.220401 0.151537
0.663813 0.228534 0.158236
0.693019 0.236347 0.164645
0.722225 0.243915 0.17084
0.751324 0.25124 0.176806
0.779873 0.258305 0.182559
0.807599 0.265202 0.188159
0.834318 0.271794 0.193484
0.860121 0.278141 0.198627
0.885023 0.28426 0.203555
0.909224 0.290196 0.208331
0.044007 0.0679484 0.0657359
0.0530404 0.0676738 0.0639963
0.0639811 0.0703899 0.0541695
0.0701915 0.0754559 0.0528725
0.077821 0.0794232 0.0449989
0.0933394 0.0793927 0.0367742
0.109804 0.0800031 0.0314336
0.14316 0.0895399 0.0299077
0.181811 0.0982528 0.0310216
0.220096 0.109453 0.0389258
0.25803 0.121065 0.047837
0.29514 0.13254 0.0569924
0.331334 0.143832 0.066392
0.366018 0.154681 0.0758373
0.396033 0.16405 0.0843214
0.426017 0.173327 0.0932174
0.456001 0.182574 0.101808
0.485786 0.191577 0.110048
0.51548 0.200412 0.118044
0.545144 0.209064 0.125811
0.574639 0.217502 0.133288
0.604059 0.225772 0.140551
0.633402 0.233799 0.147585
0.662638 0.241596 0.154345
0.691798 0.249149 0.160861
0.720958 0.256504 0.167147
0.750011 0.2636 0.173205
0.778637 0.270542 0.179095
0.806226 0.27718 0.18471
0.832929 0.283589 0.190112
0.858717 0.289784 0.1953
0.883604 0.295766 0.20029
0.90782 0.301579 0.205142
0.0621958 0.0937362 0.0896315
0.0701915 0.0926375 0.0869917
0.0821546 0.09514 0.0765393
0.0893721 0.0985733 0.0701457
0.0949874 0.103151 0.0688029
0.0995193 0.106508 0.0676432
0.110872 0.110658 0.0475929
0.150698 0.111437 0.0327764
0.183932 0.122026 0.0330968
0.22182 0.130861 0.0353704
0.258778 0.140932 0.040238
0.295216 0.151568 0.0496986
0.330953 0.162097 0.0592508
0.365332 0.172274 0.0687419
0.395102 0.181079 0.0772259
0.42504 0.189975 0.0860151
0.45481 0.198688 0.095079
0.48452 0.207263 0.103716
0.514122 0.215717 0.112032
0.543725 0.224018 0.120073
0.573205 0.232166 0.127825
0.602564 0.240146 0.135317
0.6318 0.247868 0.142504
0.660975 0.25539 0.149416
0.690074 0.262715 0.156085
0.719173 0.269825 0.162524
0.748257 0.276814 0.16875
0.776761 0.283497 0.174701
0.804349 0.289967 0.180407
0.831022 0.296208 0.185885
0.856794 0.302251 0.191165
0.881773 0.308156 0.196277
0.905943 0.313817 0.201175
0.084535 0.120775 0.11516
0.0920577 0.119814 0.112612
0.100908 0.121172 0.10573
0.109819 0.123568 0.0926223
0.115129 0.126879 0.0898299
0.120058 0.130831 0.0882277
0.124819 0.134569 0.0869459
0.154864 0.14023 0.0498512
0.192523 0.142977 0.034287
0.224186 0.154421 0.035874
0.260258 0.162692 0.0387121
0.295872 0.172076 0.0431067
0.330907 0.181857 0.0499886
0.36495 0.191516 0.0597848
0.394385 0.199817 0.0683604
0.423957 0.208133 0.0771191
0.453544 0.216419 0.0860304
0.48307 0.224613 0.0952926
0.512566 0.2327 0.104097
0.542168 0.240757 0.112627
0.571496 0.248539 0.120714
0.600687 0.256168 0.128466
0.629847 0.263615 0.135912
0.65893 0.270893 0.143069
0.688014 0.278035 0.149996
0.717052 0.284962 0.156634
0.745953 0.291661 0.162966
0.774411 0.298161 0.16907
0.801984 0.304448 0.174914
0.828641 0.310552 0.180529
0.854505 0.316518 0.185962
0.879362 0.32221 0.191135
0.903517 0.327733 0.196109
0.107683 0.148074 0.141024
0.114351 0.147265 0.138827
0.120806 0.147372 0.13402
0.130678 0.149752 0.120455
0.135912 0.152071 0.112978
0.140887 0.15523 0.110979
0.146258 0.159442 0.108644
0.160632 0.168246 0.0946517
0.200732 0.16849 0.0496376
0.233463 0.174105 0.0356146
0.262928 0.186236 0.0381018
0.297749 0.194049 0.0413367
0.332128 0.202853 0.0461738
0.36527 0.211826 0.0514076
0.394156 0.219776 0.0575875
0.423362 0.227665 0.0665446
0.452659 0.235523 0.0755627
0.481941 0.243336 0.0846571
0.51133 0.251179 0.0938888
0.540642 0.258808 0.103166
0.569818 0.2663 0.111772
0.598871 0.273655 0.119997
0.627894 0.280842 0.127794
0.656916 0.287922 0.135332
0.685878 0.294835 0.142535
0.714763 0.301518 0.149401
0.743526 0.308019 0.155978
0.771954 0.314336 0.162264
0.799481 0.320455 0.168292
0.826215 0.326482 0.174121
0.851942 0.332235 0.17966
0.876783 0.337789 0.184955
0.900923 0.343191 0.190066
0.130816 0.175586 0.167208
0.136812 0.174884 0.16527
0.142351 0.174441 0.160494
0.148653 0.177157 0.149798
0.157748 0.178332 0.139666
0.161593 0.180377 0.134295
0.166934 0.183719 0.131868
0.17821 0.192462 0.126848
0.199344 0.201495 0.0843671
0.243915 0.197436 0.0474098
0.273472 0.204761 0.0368048
0.300908 0.217884 0.0400397
0.334447 0.225132 0.0433814
0.366888 0.233066 0.048249
0.395178 0.240391 0.0530709
0.423728 0.248005 0.0581826
0.452522 0.255863 0.063508
0.481468 0.26334 0.0726482
0.510445 0.270741 0.0819257
0.539498 0.27808 0.0912184
0.56846 0.285298 0.100679
0.597345 0.292393 0.109529
0.626291 0.299428 0.117968
0.655085 0.306249 0.125948
0.683833 0.312886 0.133501
0.712566 0.319387 0.140734
0.741207 0.325704 0.147616
0.769619 0.331899 0.154208
0.797101 0.337911 0.160494
0.823682 0.343694 0.166491
0.849378 0.349279 0.172198
0.874159 0.354726 0.177676
0.898268 0.360006 0.182956
0.153826 0.203159 0.193469
0.159304 0.202548 0.191745
0.16437 0.202075 0.187304
0.17023 0.202533 0.181186
0.177462 0.205081 0.168765
0.183413 0.206607 0.160342
0.187457 0.208835 0.155642
0.198184 0.215671 0.148013
0.211551 0.225986 0.144076
0.238865 0.233631 0.0793164
0.285664 0.226596 0.0455482
0.312978 0.235111 0.0379492
0.338903 0.2477 0.0408789
0.369574 0.255711 0.0447242
0.397345 0.26215 0.0489662
0.425467 0.269154 0.0539864
0.453681 0.276356 0.0593271
0.481971 0.283696 0.0648356
0.510353 0.291096 0.0703899
0.538949 0.298329 0.0776989
0.567605 0.305287 0.087068
0.596323 0.31223 0.0964218
0.624949 0.318975 0.105821
0.653544 0.325567 0.114458
0.682094 0.332021 0.122621
0.710643 0.338338 0.130358
0.739162 0.344533 0.137682
0.767407 0.350561 0.14464
0.794781 0.35639 0.151247
0.821286 0.36202 0.157504
0.846891 0.367514 0.1635
0.871626 0.372824 0.169207
0.89575 0.378073 0.174716
0.176608 0.23061 0.219608
0.181643 0.23003 0.218021
0.186389 0.229648 0.213962
0.190234 0.229343 0.21001
0.195941 0.232181 0.198062
0.2047 0.233127 0.188602
0.209064 0.234897 0.18117
0.218875 0.240009 0.171405
0.230076 0.248692 0.166217
0.249027 0.259266 0.142641
0.28191 0.262776 0.0839857
0.32607 0.255924 0.0444953
0.351705 0.264942 0.03888
0.376349 0.276539 0.0411688
0.40058 0.285588 0.0452277
0.428138 0.2916 0.0492409
0.455848 0.29807 0.054139
0.48368 0.304814 0.059556
0.511604 0.311742 0.0652018
0.539788 0.318853 0.0710155
0.567849 0.325872 0.0767681
0.595895 0.33286 0.0824445
0.62414 0.339467 0.0907912
0.652476 0.345876 0.100008
0.680797 0.352178 0.109285
0.709224 0.358419 0.117784
0.737484 0.364401 0.125719
0.765499 0.37026 0.133211
0.792752 0.375921 0.140246
0.81912 0.38146 0.146914
0.844694 0.386892 0.153323
0.869368 0.392111 0.159304
0.893324 0.397177 0.165057
0.199252 0.258045 0.245731
0.203922 0.257527 0.244282
0.208453 0.257313 0.240665
0.212268 0.256977 0.236927
0.217792 0.257496 0.229557
0.222599 0.260502 0.218006
0.230991 0.261219 0.208469
0.239826 0.265049 0.195087
0.250309 0.272129 0.187488
0.262348 0.281941 0.185275
0.286122 0.292027 0.137194
0.323507 0.291859 0.0881514
0.365408 0.285527 0.0448157
0.389685 0.294377 0.0398718
0.410788 0.303868 0.0409705
0.432456 0.31458 0.0450904
0.458946 0.321126 0.0490578
0.486351 0.327153 0.0537423
0.513939 0.333577 0.0591287
0.541619 0.340124 0.0648203
0.569268 0.346731 0.0706493
0.596933 0.353368 0.0765087
0.624643 0.359991 0.0823377
0.652384 0.366567 0.0881056
0.680247 0.373159 0.0938125
0.708247 0.379232 0.101991
0.736248 0.385092 0.11107
0.76405 0.390814 0.119356
0.791135 0.396368 0.127077
0.817411 0.401846 0.134356
0.842817 0.407141 0.141207
0.867338 0.412238 0.147631
0.891173 0.417243 0.153826
0.221683 0.285405 0.271763
0.226154 0.285039 0.270542
0.23035 0.284764 0.267033
0.234104 0.284474 0.263539
0.237491 0.283955 0.259144
0.242908 0.286595 0.248325
0.249882 0.288182 0.238361
0.261341 0.291203 0.219089
0.27068 0.296193 0.210468
0.281865 0.304982 0.205554
0.296223 0.31516 0.198856
0.322652 0.32459 0.130663
0.363882 0.321187 0.0927138
0.403174 0.31545 0.0475319
0.42443 0.322286 0.0410315
0.445426 0.331228 0.0409247
0.466835 0.341253 0.043946
0.489921 0.350927 0.0487831
0.517082 0.356542 0.0530556
0.544366 0.362478 0.0581521
0.571618 0.368582 0.0636912
0.598917 0.374807 0.0694743
0.626368 0.381201 0.0754101
0.653773 0.387488 0.0813153
0.681193 0.393713 0.0871443
0.708659 0.399893 0.0928969
0.73608 0.405951 0.0985275
0.763378 0.411917 0.10399
0.790173 0.417655 0.111025
0.81619 0.42298 0.119173
0.841382 0.428138 0.126726
0.865736 0.433173 0.133806
0.889448 0.438056 0.140505
0.243946 0.312779 0.297795
0.248096 0.312337 0.296529
0.252064 0.312093 0.293248
0.255711 0.311833 0.289937
0.258793 0.311513 0.286595
0.264195 0.312032 0.279179
0.267155 0.315877 0.266316
0.28307 0.317464 0.24387
0.292439 0.321523 0.233951
0.30193 0.328206 0.226398
0.313527 0.337865 0.224201
0.332509 0.347814 0.198505
0.358663 0.356832 0.127184
0.401846 0.350988 0.098909
0.435752 0.346136 0.0577859
0.459525 0.350332 0.0425269
0.480476 0.358801 0.0412299
0.501656 0.368185 0.043061
0.523125 0.378363 0.0473335
0.547784 0.386053 0.0520027
0.574731 0.391577 0.0567025
0.601785 0.397406 0.0620127
0.628824 0.403281 0.0676585
0.655879 0.409216 0.0734417
0.682963 0.415152 0.0792859
0.710124 0.421057 0.0851301
0.737255 0.426932 0.090898
0.764324 0.432792 0.0966049
0.790585 0.438453 0.102129
0.816083 0.443992 0.107485
0.840787 0.449424 0.112932
0.864698 0.454688 0.117922
0.888228 0.459693 0.124453
0.265919 0.339986 0.323629
0.269871 0.339574 0.322438
0.273671 0.339406 0.319371
0.277302 0.339254 0.316289
0.280324 0.338857 0.313008
0.283467 0.33814 0.308278
0.289235 0.340871 0.298054
0.304463 0.343374 0.270939
0.313512 0.347448 0.257801
0.322667 0.352834 0.249409
0.332937 0.360784 0.244312
0.345464 0.370871 0.242969
0.368124 0.380301 0.198322
0.394354 0.388388 0.134005
0.433753 0.382177 0.110872
0.468696 0.377035 0.069276
0.495048 0.378515 0.0445258
0.515785 0.386389 0.0418708
0.536782 0.395209 0.0425422
0.558068 0.404761 0.045655
0.579644 0.414969 0.0507362
0.605402 0.421088 0.0552071
0.632151 0.426459 0.0600748
0.658915 0.431968 0.0653697
0.68571 0.437537 0.0709544
0.712688 0.443259 0.0767224
0.739513 0.448844 0.0824598
0.766155 0.454383 0.0881514
0.792111 0.459861 0.0937667
0.817304 0.465248 0.0992599
0.841764 0.470558 0.104646
0.865492 0.475776 0.109895
0.888533 0.480842 0.114977
0.287755 0.367239 0.349462
0.291585 0.366918 0.348394
0.295247 0.366796 0.345495
0.298695 0.366598 0.342473
0.301762 0.366217 0.33933
0.304128 0.365667 0.336034
0.310094 0.366461 0.328389
0.325353 0.369604 0.298222
0.334936 0.373648 0.281331
0.34435 0.378271 0.272679
0.353521 0.384665 0.265278
0.364462 0.39379 0.262791
0.378882 0.403937 0.256031
0.403128 0.412787 0.19971
0.426291 0.419837 0.145098
0.465705 0.413748 0.122866
0.501518 0.408087 0.0821851
0.530831 0.406775 0.0469062
0.551553 0.414206 0.0430152
0.572564 0.422553 0.0424659
0.593606 0.43151 0.0444343
0.614801 0.440955 0.0482795
0.636179 0.450813 0.0535897
0.662669 0.455894 0.0579385
0.689342 0.461143 0.0628824
0.715953 0.466407 0.0681315
0.742519 0.471687 0.0735637
0.768856 0.476967 0.0790875
0.794491 0.4822 0.0846265
0.819394 0.487404 0.090135
0.843626 0.492607 0.0955825
0.867002 0.497612 0.100862
0.889693 0.502525 0.10605
0.309407 0.394507 0.375265
0.313054 0.394141 0.374182
0.316564 0.393988 0.371344
0.319905 0.393805 0.368444
0.322942 0.393484 0.365423
0.325475 0.393042 0.362371
0.329137 0.392432 0.357122
0.342977 0.396353 0.327825
0.356176 0.399619 0.304448
0.36553 0.403784 0.295766
0.374395 0.409552 0.287984
0.383886 0.41677 0.282643
0.395773 0.426612 0.281331
0.413535 0.436286 0.259846
0.434913 0.44416 0.209125
0.458167 0.451087 0.155886
0.497581 0.445136 0.134646
0.534356 0.439094 0.0961013
0.566964 0.435126 0.0500954
0.587732 0.442039 0.0446632
0.608499 0.44979 0.0428626
0.629404 0.458183 0.0436255
0.650462 0.467079 0.0463874
0.671778 0.476448 0.0507515
0.693446 0.485618 0.0560006
0.719875 0.49044 0.0603189
0.746242 0.495354 0.0650797
0.772305 0.500313 0.070161
0.797757 0.505409 0.0754559
0.822354 0.510353 0.0807355
0.846204 0.515251 0.0860151
0.869307 0.520088 0.091249
0.891737 0.524849 0.0964218
0.330648 0.421469 0.400732
0.334173 0.421118 0.39968
0.337575 0.420981 0.396948
0.340932 0.420935 0.394263
0.343908 0.42063 0.391348
0.346441 0.420096 0.388281
0.348638 0.419379 0.384741
0.359548 0.423377 0.355077
0.37705 0.425177 0.330938
0.386282 0.429496 0.318685
0.395514 0.434607 0.310506
0.404898 0.441215 0.303456
0.414832 0.44947 0.300542
0.427192 0.459525 0.299657
0.445502 0.467933 0.269841
0.466835 0.475776 0.218875
0.490166 0.482689 0.166857
0.529458 0.476921 0.146639
0.567285 0.470375 0.111696
0.600107 0.466392 0.0644999
0.624216 0.469902 0.0467994
0.644968 0.477211 0.0437781
0.665919 0.485191 0.0434424
0.686885 0.493538 0.0450446
0.707912 0.502251 0.048249
0.729061 0.511238 0.0526741
0.75053 0.520088 0.057847
0.776455 0.524804 0.06215
0.801541 0.529473 0.066743
0.825879 0.534142 0.0715343
0.84947 0.538811 0.0764935
0.872328 0.54345 0.0814832
0.894545 0.548028 0.0864881
0.35169 0.448447 0.426154
0.355123 0.448127 0.425162
0.35848 0.448096 0.422614
0.361685 0.447959 0.419898
0.36466 0.447669 0.417044
0.367224 0.447181 0.414084
0.369635 0.446601 0.410773
0.379065 0.449042 0.384421
0.397986 0.450889 0.356573
0.407202 0.45539 0.341329
0.416938 0.459907 0.332891
0.425559 0.466056 0.325582
0.434836 0.473152 0.320394
0.445686 0.48217 0.318593
0.457801 0.491356 0.315404
0.477256 0.49955 0.279896
0.49865 0.507378 0.22858
0.522042 0.51426 0.177768
0.561135 0.508705 0.158541
0.600214 0.501656 0.12726
0.633158 0.497795 0.080415
0.661265 0.497917 0.0496071
0.682017 0.504799 0.0453651
0.702846 0.51223 0.0438087
0.723751 0.520088 0.0442817
0.744747 0.528283 0.0463417
0.765774 0.536828 0.0497749
0.786221 0.545419 0.0541543
0.80621 0.554116 0.0592203
0.829923 0.558862 0.0633402
0.8533 0.563241 0.0676738
0.876036 0.567742 0.0722515
0.897993 0.572122 0.0768749
0.372488 0.475364 0.451469
0.375814 0.475044 0.450492
0.379019 0.474922 0.447929
0.382162 0.474815 0.445258
0.385092 0.47454 0.442481
0.387747 0.474189 0.439719
0.390158 0.473533 0.436393
0.400443 0.473823 0.415137
0.417624 0.476539 0.382849
0.427878 0.481025 0.363333
0.437278 0.485374 0.355245
0.446326 0.490959 0.347494
0.455619 0.497536 0.340658
0.464759 0.505104 0.337423
0.47541 0.514061 0.336751
0.488258 0.52314 0.330983
0.509041 0.531197 0.289418
0.53048 0.539025 0.238254
0.553933 0.545892 0.188617
0.59292 0.540627 0.170199
0.633066 0.533227 0.142718
0.666346 0.529412 0.0977798
0.69865 0.525872 0.052903
0.719478 0.532357 0.0475319
0.740337 0.539345 0.04477
0.761364 0.546868 0.0442359
0.781842 0.554574 0.0452125
0.801877 0.562509 0.0475624
0.821439 0.570596 0.0508736
0.840558 0.57879 0.0550546
0.859236 0.58706 0.0598611
0.880079 0.592813 0.0641489
0.901946 0.596948 0.0681773
0.392889 0.502052 0.476509
0.396139 0.501732 0.475547
0.399268 0.501625 0.473045
0.40238 0.501564 0.470466
0.405341 0.501381 0.467811
0.40795 0.500938 0.464988
0.410483 0.500313 0.461769
0.421027 0.499916 0.444892
0.434821 0.502785 0.4112
0.448341 0.506416 0.387655
0.457603 0.510887 0.377188
0.467292 0.515999 0.369116
0.476081 0.522347 0.362142
0.485222 0.529412 0.357137
0.494224 0.536904 0.355047
0.505119 0.54609 0.354849
0.519997 0.555047 0.341405
0.541039 0.563088 0.298741
0.562554 0.570947 0.247852
0.586053 0.577813 0.199466
0.624537 0.572793 0.181949
0.664546 0.565682 0.156725
0.699443 0.561059 0.116182
0.732464 0.557305 0.0699168
0.757656 0.560143 0.0504311
0.778256 0.566735 0.04654
0.798306 0.573785 0.0457008
0.817914 0.581109 0.0464027
0.837186 0.588525 0.0471046
0.856153 0.596155 0.0484627
0.874434 0.603861 0.0516365
0.892195 0.611612 0.0554818
0.909499 0.619379 0.0598764
0.413077 0.52871 0.501442
0.416266 0.528389 0.500496
0.419379 0.528359 0.4981
0.422446 0.528313 0.495583
0.425345 0.528069 0.492897
0.42797 0.527657 0.490105
0.430488 0.527047 0.486931
0.440482 0.52639 0.473671
0.451087 0.529168 0.437827
0.468574 0.531655 0.412497
0.477913 0.536385 0.398703
0.487816 0.541115 0.39057
0.496559 0.547158 0.383352
0.505837 0.553811 0.376822
0.513985 0.560662 0.373968
0.52369 0.568872 0.372686
0.534844 0.578241 0.372747
0.551827 0.586999 0.351034
0.572976 0.595056 0.308156
0.594553 0.60296 0.257877
0.618021 0.609857 0.210407
0.655924 0.605264 0.193622
0.695964 0.598459 0.170489
0.732738 0.593118 0.135561
0.765972 0.589471 0.0898451
0.795392 0.587976 0.0538796
0.815259 0.594202 0.0489662
0.834516 0.6009 0.0479133
0.8533 0.607919 0.0485847
0.871809 0.615076 0.0492714
0.889815 0.622202 0.049958
0.907393 0.629328 0.0506447
0.924514 0.6365 0.051957
0.43299 0.555291 0.526253
0.436194 0.555108 0.525429
0.4392 0.555016 0.523018
0.442206 0.554925 0.520485
0.445106 0.554681 0.517815
0.4477 0.554314 0.515099
0.450324 0.553826 0.512078
0.458732 0.553033 0.501854
0.467445 0.55668 0.4636
0.488594 0.556832 0.436591
0.49807 0.561822 0.419852
0.507713 0.566461 0.411917
0.517098 0.572015 0.404242
0.525979 0.578485 0.397589
0.534325 0.584985 0.393149
0.542733 0.592035 0.390784
0.553216 0.601007 0.390082
0.56524 0.610407 0.38761
0.583688 0.619028 0.360204
0.604913 0.627115 0.317281
0.626535 0.635004 0.267765
0.649973 0.641947 0.22118
0.687465 0.637888 0.205097
0.72752 0.631373 0.183841
0.765866 0.625071 0.153552
0.798489 0.621485 0.110353
0.829664 0.617899 0.0660258
0.851362 0.621714 0.0521096
0.869993 0.628138 0.0501411
0.887938 0.634806 0.0507973
0.905501 0.641566 0.0514534
0.922637 0.648371 0.0521096
0.939467 0.655207 0.0527657
0.452506 0.581689 0.55082
0.455604 0.581384 0.549905
0.458564 0.581308 0.547509
0.461555 0.581216 0.545007
0.464439 0.581003 0.542367
0.467079 0.580728 0.539773
0.469703 0.580163 0.53669
0.476875 0.579461 0.528359
0.486854 0.582696 0.491905
0.508125 0.581918 0.460288
0.517952 0.586984 0.441306
0.527504 0.591669 0.432761
0.53756 0.59678 0.42472
0.54612 0.603143 0.418021
0.55462 0.609339 0.41236
0.562646 0.616083 0.409308
0.57174 0.623804 0.407446
0.582773 0.633265 0.407218
0.595773 0.642664 0.401999
0.615671 0.651148 0.368719
0.636973 0.659251 0.326009
0.658656 0.667155 0.277333
0.682094 0.674144 0.231708
0.718929 0.670344 0.216129
0.758938 0.664073 0.196551
0.798154 0.656901 0.170367
0.829908 0.653452 0.131701
0.860319 0.650065 0.0877394
0.886488 0.64921 0.0559396
0.904356 0.655161 0.0523537
0.921523 0.66157 0.0529946
0.938277 0.668025 0.0536202
0.954726 0.674571 0.0542763
0.471534 0.607691 0.574945
0.474586 0.607401 0.574029
0.477516 0.607309 0.571649
0.480552 0.607324 0.569268
0.483406 0.607126 0.566659
0.485985 0.60676 0.563958
0.48867 0.60621 0.560906
0.495995 0.605463 0.552605
0.507866 0.607446 0.521431
0.524468 0.607202 0.487236
0.537331 0.611566 0.46482
0.546929 0.616526 0.452934
0.557015 0.6215 0.444999
0.565972 0.627512 0.437919
0.574212 0.633631 0.432151
0.582513 0.64007 0.427634
0.590829 0.647135 0.425071
0.600885 0.655787 0.423941
0.612116 0.665415 0.423941
0.626368 0.6748 0.414633
0.647486 0.683116 0.376669
0.668864 0.691234 0.334264
0.690654 0.699153 0.286412
0.714122 0.706188 0.241856
0.750378 0.70277 0.226764
0.789715 0.696681 0.208591
0.828336 0.689601 0.185428
0.860319 0.685481 0.151781
0.889815 0.682078 0.109972
0.918013 0.678706 0.0683909
0.937713 0.682124 0.0546883
0.954162 0.688289 0.0551919
0.970245 0.694545 0.0558175
0.490105 0.633402 0.598718
0.493126 0.633097 0.597818
0.496101 0.633127 0.595544
0.499062 0.633036 0.593072
0.501884 0.632837 0.590478
0.504509 0.632486 0.587793
0.507225 0.631983 0.584772
0.514778 0.631281 0.576547
0.527626 0.632151 0.549798
0.541131 0.633371 0.513237
0.556313 0.635874 0.487556
0.566049 0.641108 0.472557
0.575982 0.646052 0.46482
0.585641 0.651682 0.457359
0.593668 0.657755 0.451514
0.602106 0.663981 0.446052
0.610315 0.670863 0.442786
0.619165 0.678416 0.44065
0.630014 0.687892 0.440146
0.641505 0.697566 0.439857
0.658091 0.706722 0.422049
0.679301 0.715053 0.384054
0.700801 0.723186 0.342031
0.722683 0.731136 0.295064
0.746166 0.738201 0.251698
0.781491 0.735164 0.237034
0.819623 0.729351 0.22034
0.856794 0.722499 0.19913
0.889555 0.717281 0.17023
0.918181 0.714 0.13286
0.945495 0.710719 0.0915389
0.96997 0.709239 0.0589456
0.98587 0.714977 0.0574044
0.508293 0.658869 0.622187
0.511345 0.658625 0.621347
0.514229 0.658564 0.618982
0.517189 0.658457 0.61651
0.519982 0.658274 0.613916
0.522652 0.657954 0.611261
0.525383 0.657526 0.608331
0.532967 0.656703 0.600031
0.546258 0.656825 0.576913
0.557214 0.659754 0.538094
0.575021 0.660029 0.509529
0.584955 0.665553 0.491737
0.594797 0.670481 0.484138
0.605173 0.675746 0.476326
0.613031 0.681788 0.470466
0.621256 0.687984 0.464942
0.629801 0.694591 0.460273
0.638163 0.701808 0.457679
0.647822 0.710185 0.456153
0.659052 0.719997 0.455955
0.671641 0.729763 0.452705
0.689952 0.738735 0.428748
0.711315 0.747097 0.390738
0.732952 0.755245 0.349142
0.75491 0.763134 0.303181
0.778012 0.770123 0.261234
0.811673 0.767452 0.247089
0.848371 0.761822 0.231495
0.884291 0.755276 0.212161
0.917708 0.74902 0.187411
0.945541 0.745953 0.154482
0.971969 0.742779 0.115297
0.99733 0.73959 0.0764172
0.52604 0.684031 0.645319
0.529015 0.683711 0.644404
0.531884 0.68365 0.642023
0.534859 0.683558 0.639582
0.537682 0.683467 0.637079
0.540368 0.683116 0.634394
0.543053 0.682643 0.631388
0.550759 0.681788 0.623056
0.563958 0.681559 0.603174
0.57261 0.685954 0.561746
0.59324 0.683757 0.530755
0.603326 0.689448 0.511803
0.613184 0.694514 0.502876
0.623468 0.699748 0.495155
0.632044 0.705486 0.488853
0.640116 0.71165 0.483284
0.648783 0.718135 0.477852
0.65713 0.725185 0.47451
0.665873 0.732692 0.472175
0.676539 0.742107 0.471397
0.687953 0.752056 0.471412
