bundles/resolve-cinematic-luts/Lens Distortions - Finishing LUTs/LD - Pure 1.cube
TITLE "LD - Pure 1"
# Copyright (c) Lens Distortions, LLC. All Rights Reserved.
# LensDistortions.com
# ref-PR9
LUT_3D_SIZE 9
0.0258793 0.0258793 0.0258793
0.11957 0.0278019 0.0261082
0.247395 0.0318608 0.0263676
0.379385 0.039826 0.0265354
0.511254 0.0551614 0.0268864
0.641733 0.0823377 0.0276341
0.772503 0.113985 0.0292363
0.89514 0.147707 0.0332189
0.99884 0.185885 0.0427405
0.0349126 0.11809 0.0296635
0.12604 0.127199 0.0367285
0.263142 0.128786 0.0257572
0.387747 0.142382 0.0258488
0.515587 0.155749 0.0259861
0.642557 0.173907 0.0272374
0.767773 0.195117 0.0299992
0.885649 0.220325 0.0357671
0.99321 0.2495 0.0455482
0.0570687 0.243076 0.0352789
0.150698 0.239002 0.0625772
0.253162 0.255497 0.0673991
0.399969 0.252674 0.0254215
0.517479 0.263264 0.0258488
0.635233 0.279683 0.0294957
0.757671 0.293217 0.0328679
0.877852 0.309926 0.0376593
0.990066 0.331548 0.0458076
0.108248 0.367041 0.0510262
0.18291 0.364584 0.0837415
0.272969 0.362783 0.136385
0.378134 0.382879 0.135546
0.528664 0.377554 0.0290532
0.642115 0.385595 0.0298009
0.758648 0.399512 0.0343328
0.876661 0.416052 0.0416571
0.990799 0.431174 0.0466926
0.170993 0.486534 0.0933852
0.228748 0.485557 0.121904
0.308553 0.481743 0.169696
0.392966 0.48809 0.2121
0.501991 0.508904 0.204898
0.656306 0.502998 0.0483253
0.775891 0.506706 0.0328527
0.890684 0.517617 0.0350195
0.997024 0.535958 0.0447242
0.230915 0.606577 0.137469
0.277592 0.606256 0.160296
0.34403 0.604318 0.195758
0.434379 0.598657 0.255909
0.510567 0.613703 0.282948
0.625589 0.635416 0.269566
0.78233 0.630503 0.120485
0.909667 0.630259 0.037171
0.998993 0.643015 0.0415961
0.285359 0.728801 0.175372
0.325109 0.728573 0.195193
0.382528 0.727718 0.224125
0.462455 0.724483 0.272618
0.555657 0.721584 0.335073
0.62945 0.742641 0.357504
0.752407 0.764965 0.342931
0.902495 0.761929 0.214878
0.998993 0.761257 0.0695201
0.34699 0.851469 0.222446
0.382162 0.851408 0.241245
0.432547 0.850797 0.266743
0.503822 0.848905 0.308751
0.592172 0.844297 0.370672
0.680049 0.848386 0.424308
0.758312 0.868284 0.463554
0.876799 0.889403 0.471458
0.994675 0.891676 0.389334
0.438087 0.963073 0.307942
0.470588 0.96228 0.328511
0.515846 0.961135 0.355566
0.579644 0.958724 0.397528
0.658808 0.954879 0.454994
0.748043 0.949218 0.526238
0.824063 0.960204 0.577951
0.898436 0.977264 0.647379
0.988113 0.995529 0.712352
0.0257877 0.0345617 0.0954757
0.113039 0.0282139 0.12932
0.241321 0.0383307 0.114656
0.382452 0.035172 0.109728
0.51957 0.0352789 0.10367
0.654322 0.0426337 0.0929274
0.784329 0.0725109 0.0964218
0.9028 0.1234 0.112413
0.998993 0.174609 0.136675
0.0366217 0.110857 0.135348
0.126879 0.124285 0.131136
0.239582 0.137514 0.134661
0.369162 0.158312 0.145129
0.510887 0.159091 0.134768
0.640726 0.173419 0.13109
0.766049 0.19353 0.133227
0.883619 0.219272 0.141588
0.992142 0.248722 0.152972
0.0355688 0.256016 0.0977035
0.14287 0.24947 0.128389
0.248219 0.251194 0.156069
0.394644 0.260319 0.133288
0.511772 0.271412 0.140505
0.633265 0.281331 0.141451
0.75613 0.293278 0.140963
0.876921 0.309819 0.146166
0.989471 0.331289 0.155123
0.113329 0.3691 0.136248
0.178698 0.370611 0.145068
0.275319 0.363531 0.192508
0.3823 0.386297 0.204211
0.52517 0.383307 0.138186
0.638682 0.391455 0.143771
0.755428 0.405463 0.153048
0.877745 0.416861 0.155566
0.990585 0.43154 0.15903
0.173785 0.488777 0.163195
0.228504 0.488991 0.177447
0.307454 0.48574 0.213901
0.398169 0.48777 0.258549
0.505226 0.51162 0.257649
0.657725 0.505943 0.14815
0.773846 0.511025 0.145876
0.88893 0.522072 0.151522
0.995331 0.540658 0.166171
0.234638 0.608347 0.197024
0.279866 0.608286 0.211078
0.346319 0.60621 0.240803
0.432395 0.601984 0.286931
0.514748 0.613886 0.320455
0.628107 0.637476 0.312261
0.785122 0.632013 0.200046
0.908186 0.634012 0.152651
0.998993 0.64712 0.162356
0.290517 0.729656 0.228565
0.329274 0.7299 0.242679
0.387457 0.728511 0.268986
0.465415 0.725689 0.309972
0.556817 0.722087 0.363912
0.633158 0.743114 0.388388
0.754803 0.766567 0.378683
0.904845 0.762768 0.279179
0.998993 0.765164 0.193408
0.35494 0.851652 0.272129
0.388632 0.85182 0.286305
0.439933 0.850843 0.310964
0.510552 0.848646 0.349142
0.594247 0.84535 0.399176
0.682948 0.848295 0.450813
0.761486 0.868544 0.488472
0.878828 0.89102 0.500252
0.996384 0.89276 0.437873
0.449149 0.962127 0.354742
0.479652 0.961608 0.370748
0.525841 0.95996 0.397208
0.589181 0.957244 0.436851
0.665614 0.95407 0.487129
0.749065 0.950683 0.544915
0.826734 0.960311 0.597787
0.901076 0.977722 0.666484
0.989334 0.996445 0.733944
0.0256504 0.0610971 0.208179
0.0758526 0.0531319 0.230671
0.237949 0.0322118 0.262577
0.371359 0.0608225 0.236973
0.506035 0.070985 0.23534
0.645792 0.0636759 0.229374
0.786053 0.0593423 0.222568
0.916762 0.074052 0.214298
0.998993 0.101991 0.207553
0.0245975 0.128649 0.254704
0.106096 0.135271 0.232136
0.248142 0.130678 0.264836
0.37084 0.157977 0.245075
0.500099 0.169696 0.249348
0.643854 0.159976 0.243351
0.779782 0.161685 0.231479
0.907103 0.168109 0.216434
0.998993 0.208896 0.230137
0.0666514 0.23125 0.268666
0.14757 0.234226 0.254566
0.25481 0.251194 0.259678
0.364538 0.258473 0.257465
0.481773 0.287495 0.277668
0.604028 0.305592 0.285679
0.741451 0.30753 0.278248
0.87155 0.314412 0.271931
0.987518 0.331945 0.272389
0.0762188 0.38291 0.217823
0.170214 0.378393 0.237736
0.270024 0.375402 0.257404
0.366796 0.373404 0.284077
0.518349 0.392584 0.27274
0.632731 0.401068 0.278202
0.751308 0.412192 0.282704
0.874739 0.41976 0.278843
0.988907 0.433143 0.279164
0.134401 0.500572 0.229145
0.232853 0.49189 0.266117
0.298909 0.495674 0.267979
0.402701 0.487083 0.319524
0.500938 0.507424 0.326024
0.654353 0.513024 0.270512
0.770047 0.518425 0.274601
0.88539 0.52961 0.280781
0.994568 0.545434 0.290089
0.241382 0.610208 0.278599
0.280674 0.611948 0.282673
0.339437 0.613718 0.290532
0.42829 0.608896 0.331228
0.519539 0.612161 0.373953
0.631937 0.640635 0.37464
0.788357 0.635996 0.285481
0.905486 0.640436 0.278813
0.998993 0.653712 0.290181
0.291341 0.732799 0.294972
0.327474 0.733761 0.302525
0.381918 0.734356 0.314992
0.461402 0.73167 0.350729
0.554665 0.726406 0.401663
0.638926 0.743175 0.435065
0.758297 0.769863 0.43241
0.90753 0.766369 0.350545
0.998993 0.770932 0.316213
0.354025 0.854994 0.327886
0.386542 0.855589 0.337652
0.436088 0.855558 0.353231
0.507362 0.853483 0.386694
0.592721 0.849836 0.434302
0.688563 0.847654 0.491341
0.766995 0.869429 0.527474
0.882155 0.893721 0.543542
0.998016 0.896132 0.494316
0.450553 0.964477 0.402182
0.480446 0.964202 0.415427
0.52546 0.963027 0.435523
0.589044 0.960632 0.470726
0.665965 0.957336 0.517784
0.750057 0.953811 0.572931
0.831388 0.96022 0.628977
0.905974 0.978622 0.696559
0.991974 0.998627 0.766583
0.0253758 0.117647 0.323751
0.0865339 0.118318 0.322393
0.187121 0.105135 0.358846
0.36672 0.0387121 0.398337
0.502602 0.095613 0.359503
0.619821 0.140352 0.357885
0.763638 0.129915 0.352056
0.897566 0.123919 0.345571
0.998993 0.124712 0.343053
0.0244602 0.166033 0.356893
0.1037 0.171618 0.341665
0.204044 0.17026 0.362844
0.372457 0.140734 0.397925
0.500603 0.180667 0.365209
0.618341 0.207019 0.364248
0.756863 0.201511 0.359884
0.888624 0.197452 0.353582
0.998993 0.196612 0.349447
0.0245518 0.245411 0.396353
0.0767987 0.24564 0.393133
0.228885 0.254215 0.356603
0.376196 0.25481 0.392203
0.491768 0.279133 0.368444
0.594614 0.308629 0.380179
0.72665 0.316899 0.384665
0.869123 0.31075 0.379446
0.99707 0.30515 0.367041
0.13022 0.34992 0.395895
0.194049 0.351339 0.384787
0.275883 0.359472 0.37911
0.381353 0.378256 0.385595
0.482078 0.381643 0.380423
0.594644 0.40557 0.396811
0.715785 0.435813 0.417868
0.842054 0.44979 0.422034
0.972549 0.453437 0.416571
0.165652 0.501991 0.348333
0.225025 0.503151 0.351705
0.298543 0.502678 0.365942
0.396918 0.500648 0.385016
0.48423 0.492378 0.416587
0.638956 0.516609 0.405539
0.763333 0.528862 0.409125
0.877089 0.541695 0.416571
0.98732 0.554513 0.420554
0.146197 0.632425 0.325887
0.231128 0.628473 0.34757
0.343435 0.616739 0.387961
0.420005 0.621103 0.389883
0.526604 0.611063 0.442405
0.616815 0.626932 0.446525
0.787594 0.64445 0.399908
0.900587 0.649744 0.407874
0.998993 0.663264 0.42034
0.25597 0.744289 0.359991
0.323125 0.739254 0.38645
0.387717 0.73753 0.402533
0.45214 0.742229 0.404608
0.549264 0.736385 0.451011
0.64303 0.739361 0.494194
0.755245 0.765698 0.497475
0.91104 0.772671 0.437751
0.998993 0.779477 0.440421
0.365164 0.856489 0.415366
0.393835 0.858045 0.419425
0.438697 0.859586 0.426642
0.502068 0.86128 0.438468
0.589303 0.857603 0.480873
0.688441 0.850782 0.537346
0.771023 0.866636 0.576638
0.886015 0.897002 0.601953
0.998993 0.901381 0.563729
0.459251 0.966217 0.474342
0.487037 0.966445 0.483314
0.529458 0.966018 0.497185
0.58912 0.965774 0.518502
0.666194 0.962722 0.559747
0.751705 0.958923 0.612345
0.8383 0.959884 0.672938
0.910689 0.97821 0.734966
0.995346 0.998993 0.810239
0.0249485 0.17644 0.438758
0.101335 0.183001 0.425086
0.177569 0.161273 0.459388
0.304036 0.163836 0.481285
0.494301 0.0519722 0.531792
0.630732 0.133623 0.479393
0.735042 0.194339 0.47364
0.863478 0.204486 0.47039
0.988388 0.198459 0.466773
0.0243534 0.212848 0.463523
0.0985733 0.217319 0.451408
0.208301 0.218067 0.449516
0.311772 0.22417 0.475471
0.496452 0.154147 0.529458
0.625086 0.207584 0.482353
0.729519 0.255161 0.477607
0.862318 0.256748 0.476356
0.987472 0.253651 0.473884
0.0227817 0.273106 0.498985
0.0818036 0.274052 0.490898
0.220676 0.282094 0.462318
0.322896 0.283833 0.485771
0.494789 0.264424 0.51928
0.615976 0.298833 0.486122
0.724361 0.330938 0.484581
0.853178 0.33904 0.4878
0.982589 0.334081 0.486015
0.0330663 0.362875 0.526253
0.111818 0.363409 0.518929
0.215549 0.362905 0.504662
0.356893 0.378088 0.479408
0.500496 0.38117 0.513878
0.608026 0.401816 0.489769
0.715236 0.426429 0.49926
0.822721 0.456535 0.515816
0.956771 0.465049 0.522896
0.201068 0.466575 0.518639
0.250751 0.468147 0.511254
0.314092 0.470726 0.500648
0.406012 0.48278 0.503975
0.50692 0.504189 0.510277
0.59939 0.503944 0.502144
0.718074 0.524224 0.515435
0.838651 0.552193 0.53518
0.952941 0.582345 0.555642
0.251301 0.619913 0.479042
0.293324 0.622599 0.477485
0.351904 0.625025 0.477897
0.421805 0.62768 0.489372
0.523217 0.624125 0.515129
0.606699 0.615198 0.546639
0.753704 0.634028 0.529564
0.896101 0.659571 0.541451
0.993774 0.677028 0.554696
0.208927 0.758923 0.439933
0.268208 0.758007 0.451484
0.346868 0.754925 0.47126
0.458137 0.745052 0.507576
0.543694 0.74931 0.514733
0.652567 0.73933 0.566674
0.737911 0.751324 0.571725
0.906462 0.782193 0.558602
0.998993 0.790814 0.565179
0.262455 0.880018 0.449973
0.335195 0.875761 0.473976
0.426368 0.867735 0.508888
0.516014 0.861997 0.53695
0.581582 0.869642 0.536141
0.684352 0.862135 0.588586
0.776196 0.86331 0.636027
0.873854 0.885451 0.655009
0.998993 0.909163 0.644388
0.435584 0.974838 0.536873
0.485634 0.971084 0.559625
0.546838 0.966262 0.586023
0.598688 0.968185 0.596201
0.664912 0.970764 0.612009
0.751568 0.966781 0.659617
0.841321 0.961227 0.719722
0.912734 0.975372 0.77438
0.993988 0.998993 0.842329
0.0246586 0.234668 0.551186
0.0982986 0.238773 0.539986
0.190341 0.233066 0.546609
0.278141 0.199634 0.600259
0.427131 0.208972 0.606638
0.619181 0.0796674 0.662882
0.752361 0.17438 0.594537
0.852918 0.236347 0.585458
0.962692 0.27747 0.587076
0.0241398 0.263722 0.570794
0.0952621 0.266697 0.560052
0.220661 0.27396 0.540352
0.299718 0.256062 0.585245
0.430106 0.269398 0.593423
0.616419 0.174212 0.655726
0.747829 0.238361 0.595392
0.851667 0.288975 0.590509
0.966155 0.317311 0.592844
0.0229191 0.311284 0.598733
0.0819562 0.311879 0.589395
0.221912 0.3187 0.564904
0.322408 0.321477 0.566644
0.427604 0.332219 0.593118
0.61088 0.278157 0.643275
0.741863 0.319738 0.599527
0.848707 0.359792 0.59527
0.965576 0.379248 0.599466
0.0214542 0.383963 0.635111
0.0486 0.381582 0.631312
0.204837 0.386007 0.607584
0.3411 0.395102 0.572793
0.441642 0.401953 0.607004
0.615198 0.389883 0.638224
0.73814 0.41767 0.607095
0.846372 0.447791 0.603906
0.956329 0.471473 0.614389
0.0918593 0.478172 0.645472
0.165789 0.479271 0.640589
0.246952 0.479744 0.633402
0.351186 0.478996 0.608927
0.488273 0.50042 0.607309
0.627161 0.504814 0.638239
0.731807 0.522194 0.610971
0.839887 0.544137 0.618585
0.943664 0.573419 0.636027
0.268238 0.583337 0.644343
0.3084 0.584772 0.638453
0.363088 0.58648 0.628397
0.435615 0.595758 0.622492
0.53341 0.605783 0.629664
0.632532 0.630518 0.635233
0.721645 0.626947 0.624338
0.843961 0.646418 0.636988
0.952804 0.674037 0.656733
0.327596 0.739788 0.602365
0.362219 0.743099 0.600458
0.414527 0.747097 0.599268
0.473411 0.751873 0.60174
0.547189 0.756466 0.61413
0.65304 0.750057 0.649317
0.734707 0.743725 0.682414
0.865019 0.758129 0.66302
0.99266 0.790356 0.68278
0.290654 0.884077 0.561868
0.339208 0.883482 0.57145
0.407187 0.88098 0.586389
0.491371 0.877501 0.609537
0.592004 0.87129 0.642145
0.68333 0.874159 0.656306
0.787839 0.864668 0.709407
0.860548 0.874403 0.720958
0.988556 0.906554 0.739406
0.342565 0.993896 0.582925
0.396307 0.99202 0.598016
0.48539 0.985565 0.629023
0.592355 0.975372 0.674754
0.687205 0.969268 0.708583
0.754513 0.976425 0.718029
0.844724 0.970871 0.771786
0.917632 0.973739 0.821347
0.983108 0.990173 0.863005
0.0244602 0.292073 0.663203
0.0963607 0.295232 0.65153
0.21236 0.300679 0.635248
0.281514 0.276051 0.674632
0.389242 0.263386 0.711315
0.544884 0.253452 0.728344
0.740566 0.114229 0.788998
0.864317 0.218082 0.716274
0.969024 0.277684 0.702632
0.024033 0.316014 0.67892
0.0942245 0.318227 0.667338
0.222751 0.326604 0.643702
0.304402 0.315847 0.664195
0.401999 0.305501 0.703944
0.54789 0.306935 0.719417
0.73341 0.198428 0.777981
0.864805 0.272343 0.717403
0.969787 0.324086 0.708171
0.0230259 0.354314 0.70045
0.0831769 0.355062 0.690059
0.22002 0.362219 0.667018
0.334127 0.368643 0.652262
0.416037 0.357107 0.700664
0.54873 0.369757 0.714977
0.729274 0.294667 0.768383
0.865934 0.34374 0.71812
0.968307 0.388373 0.712978
0.0216678 0.413199 0.730327
0.0574044 0.412253 0.723827
0.208621 0.417502 0.704372
0.339223 0.427298 0.677028
0.437995 0.430518 0.687617
0.545983 0.442206 0.719265
0.732921 0.401083 0.764416
0.86569 0.434058 0.724498
0.967147 0.471839 0.720088
0.0227512 0.493706 0.76202
0.0500954 0.493751 0.762631
0.174838 0.494591 0.7561
0.322225 0.499031 0.730037
0.46273 0.51191 0.694606
0.561212 0.520638 0.739239
0.743282 0.512383 0.764721
0.863767 0.536309 0.734386
0.96669 0.568536 0.729778
0.168887 0.594232 0.771801
0.223041 0.595346 0.768093
0.291905 0.596033 0.761349
0.378744 0.596445 0.747631
0.479179 0.598352 0.723674
0.619638 0.622812 0.740566
0.758129 0.629267 0.76669
0.856199 0.646433 0.737163
0.956573 0.669749 0.744732
0.332601 0.701427 0.771405
0.36669 0.702892 0.766644
0.416052 0.704662 0.758053
0.478004 0.70753 0.747723
0.561715 0.722499 0.748974
0.663966 0.732937 0.758251
0.761242 0.760296 0.763714
0.845701 0.758022 0.755093
0.95346 0.775494 0.766094
0.415137 0.859342 0.730282
0.445731 0.862196 0.729091
0.49221 0.865614 0.727306
0.548363 0.870619 0.731685
0.613703 0.876036 0.737392
0.695994 0.877668 0.757412
0.793042 0.872358 0.793378
0.86302 0.870756 0.826413
0.960662 0.884291 0.813031
0.434073 0.988815 0.709712
0.474281 0.987823 0.719326
0.530724 0.985763 0.733104
0.602991 0.983017 0.753613
0.675563 0.982589 0.775067
0.768643 0.978134 0.808652
0.852522 0.981308 0.833204
0.930526 0.974578 0.884138
0.973831 0.982086 0.902327
0.0244907 0.34844 0.772
0.0972763 0.350912 0.758465
0.221317 0.358923 0.737011
0.297261 0.347112 0.754772
0.377157 0.317067 0.805646
0.496925 0.329259 0.818341
0.662943 0.29543 0.849805
0.853101 0.152422 0.903868
0.973968 0.258366 0.842191
0.0241703 0.368338 0.783795
0.0957198 0.37026 0.771328
0.223026 0.378256 0.751095
0.319509 0.377493 0.750393
0.395209 0.35552 0.796704
0.507729 0.365133 0.815412
0.666957 0.342626 0.846265
0.849943 0.225132 0.897536
0.976364 0.306569 0.844694
0.0232853 0.399969 0.800153
0.0853132 0.401282 0.790265
0.21944 0.408255 0.771527
0.346197 0.417884 0.747951
0.419837 0.406836 0.782422
0.520363 0.412909 0.811109
0.669169 0.404273 0.840391
0.848676 0.313161 0.89221
0.977844 0.372198 0.845655
0.0219883 0.449577 0.825544
0.0612955 0.449485 0.820172
0.20943 0.455329 0.80412
0.341787 0.463554 0.78175
0.445319 0.471397 0.773144
0.53077 0.465675 0.823133
0.669383 0.474845 0.842557
0.851926 0.414298 0.889128
0.980865 0.456199 0.847532
0.0209964 0.518044 0.86128
0.0300298 0.516579 0.862226
0.184131 0.520638 0.848798
0.326802 0.527428 0.828138
0.454322 0.53782 0.799298
0.555962 0.544411 0.818921
0.667948 0.555566 0.850278
0.860166 0.522972 0.889006
0.983963 0.55433 0.854688
0.0274357 0.607019 0.892882
0.0957809 0.608331 0.890944
0.202319 0.609171 0.887022
0.301396 0.609827 0.88278
0.44741 0.613794 0.847364
0.587503 0.633799 0.823148
0.68368 0.641901 0.871122
0.871565 0.639231 0.890074
0.97879 0.664683 0.862837
0.240116 0.712383 0.89543
0.283497 0.713466 0.891981
0.34342 0.714549 0.886198
0.419043 0.715343 0.876539
0.508186 0.715251 0.857206
0.614115 0.728618 0.845014
0.754467 0.748928 0.86894
0.883055 0.760464 0.888731
0.962112 0.779126 0.860487
0.409598 0.819974 0.893339
0.439384 0.821057 0.889158
0.484352 0.822126 0.881331
0.541344 0.823728 0.87097
0.615793 0.835279 0.868772
0.707317 0.848173 0.872786
0.802548 0.861021 0.882338
0.889082 0.88896 0.890227
0.95491 0.890227 0.887236
0.549874 0.960891 0.859907
0.576883 0.963485 0.859205
0.616709 0.966491 0.859342
0.667063 0.970703 0.864683
0.727886 0.975784 0.874617
0.796002 0.981659 0.8869
0.871519 0.981628 0.912047
0.940322 0.981613 0.942763
0.982757 0.986603 0.968566
0.0247959 0.403388 0.873091
0.100603 0.406455 0.862135
0.222995 0.413581 0.84564
0.319371 0.414405 0.842252
0.385977 0.390341 0.879652
0.477272 0.359823 0.932158
0.606546 0.393133 0.929122
0.784375 0.334798 0.967269
0.962768 0.192065 0.998993
0.0245975 0.420951 0.883879
0.0986496 0.423545 0.873869
0.224002 0.430503 0.858167
0.340032 0.439033 0.84123
0.403861 0.419837 0.876936
0.490013 0.392401 0.930617
0.614176 0.426429 0.926741
0.789059 0.377157 0.966354
0.963653 0.254917 0.998993
0.0237125 0.448173 0.898299
0.087541 0.449973 0.89073
0.219883 0.456519 0.876204
0.344015 0.466178 0.856382
0.42916 0.461189 0.869886
0.50988 0.444175 0.917647
0.625025 0.470192 0.922408
0.791943 0.436698 0.961303
0.963882 0.335607 0.998993
0.0222782 0.490776 0.920714
0.063798 0.491356 0.916899
0.209705 0.4972 0.903792
0.339742 0.50547 0.88539
0.459068 0.516899 0.863416
0.531823 0.50634 0.906737
0.634241 0.51696 0.932509
0.793606 0.50544 0.962341
0.96698 0.432242 0.998993
0.0210727 0.550347 0.951904
0.0348211 0.549706 0.952743
0.189075 0.554055 0.941497
0.328817 0.560616 0.925383
0.454582 0.571267 0.901518
0.558556 0.578256 0.89688
0.648341 0.576959 0.945815
0.795087 0.586358 0.965057
0.972702 0.539467 0.998993
0.0209964 0.628534 0.985687
0.0225986 0.627604 0.989593
0.136233 0.628595 0.985733
0.301869 0.632853 0.970886
0.440543 0.640391 0.948898
0.572747 0.651804 0.915068
0.679255 0.664637 0.944747
0.794553 0.677104 0.971572
0.978134 0.655116 0.998993
0.0754101 0.725124 0.998993
0.156649 0.726543 0.998993
0.245274 0.727504 0.998993
0.338613 0.728603 0.996078
0.436866 0.729152 0.988693
0.576135 0.731243 0.94873
0.719722 0.761959 0.939269
0.81326 0.770993 0.979614
0.977493 0.777234 0.989746
0.32697 0.831189 0.998993
0.363195 0.832059 0.996994
0.416114 0.832486 0.99115
0.483787 0.832288 0.981903
0.565667 0.831876 0.966506
0.657465 0.838346 0.952621
0.768139 0.860258 0.95053
0.888655 0.877852 0.974212
0.983459 0.897261 0.986206
0.531426 0.924041 0.985855
0.557305 0.924529 0.982696
0.595407 0.925017 0.976761
0.647761 0.928618 0.971374
0.716548 0.939849 0.971725
0.795392 0.954086 0.97322
0.879271 0.96556 0.981109
0.950149 0.979721 0.990143
0.998993 0.998993 0.998993
