bundles/resolve-cinematic-luts/Lens Distortions - Finishing LUTs/LD - Velvet B&W 1.cube
TITLE "LD - Velvet 1"
# Copyright (c) Lens Distortions, LLC. All Rights Reserved.
# LensDistortions.com
# ref-VBW1
LUT_3D_SIZE 9
0.0374151 0.0374151 0.0374151
0.0508888 0.0508888 0.0508888
0.067628 0.067628 0.067628
0.0869001 0.0869001 0.0869001
0.107836 0.107836 0.107836
0.130373 0.130373 0.130373
0.15436 0.15436 0.15436
0.179004 0.179004 0.179004
0.203052 0.203052 0.203052
0.0805982 0.0805982 0.0805982
0.103609 0.103609 0.103609
0.124773 0.124773 0.124773
0.148135 0.148135 0.148135
0.172381 0.172381 0.172381
0.196948 0.196948 0.196948
0.221653 0.221653 0.221653
0.246799 0.246799 0.246799
0.271122 0.271122 0.271122
0.143908 0.143908 0.143908
0.165789 0.165789 0.165789
0.200946 0.200946 0.200946
0.227512 0.227512 0.227512
0.251667 0.251667 0.251667
0.276997 0.276997 0.276997
0.302525 0.302525 0.302525
0.328557 0.328557 0.328557
0.35317 0.35317 0.35317
0.220188 0.220188 0.220188
0.241566 0.241566 0.241566
0.269123 0.269123 0.269123
0.311513 0.311513 0.311513
0.34168 0.34168 0.34168
0.366857 0.366857 0.366857
0.393042 0.393042 0.393042
0.42002 0.42002 0.42002
0.443976 0.443976 0.443976
0.298054 0.298054 0.298054
0.319844 0.319844 0.319844
0.347677 0.347677 0.347677
0.380484 0.380484 0.380484
0.428122 0.428122 0.428122
0.458442 0.458442 0.458442
0.487388 0.487388 0.487388
0.513344 0.513344 0.513344
0.536248 0.536248 0.536248
0.377874 0.377874 0.377874
0.400015 0.400015 0.400015
0.427802 0.427802 0.427802
0.459541 0.459541 0.459541
0.496895 0.496895 0.496895
0.546944 0.546944 0.546944
0.577676 0.577676 0.577676
0.609705 0.609705 0.609705
0.631342 0.631342 0.631342
0.45742 0.45742 0.45742
0.479744 0.479744 0.479744
0.507668 0.507668 0.507668
0.539406 0.539406 0.539406
0.572778 0.572778 0.572778
0.615335 0.615335 0.615335
0.66772 0.66772 0.66772
0.698482 0.698482 0.698482
0.72488 0.72488 0.72488
0.535927 0.535927 0.535927
0.558663 0.558663 0.558663
0.586679 0.586679 0.586679
0.618753 0.618753 0.618753
0.652216 0.652216 0.652216
0.688411 0.688411 0.688411
0.734951 0.734951 0.734951
0.788739 0.788739 0.788739
0.814206 0.814206 0.814206
0.613199 0.613199 0.613199
0.636011 0.636011 0.636011
0.6645 0.6645 0.6645
0.696818 0.696818 0.696818
0.730632 0.730632 0.730632
0.76524 0.76524 0.76524
0.806119 0.806119 0.806119
0.849729 0.849729 0.849729
0.886671 0.886671 0.886671
0.0424811 0.0424811 0.0424811
0.0561379 0.0561379 0.0561379
0.0740215 0.0740215 0.0740215
0.0937667 0.0937667 0.0937667
0.115145 0.115145 0.115145
0.138216 0.138216 0.138216
0.162509 0.162509 0.162509
0.187167 0.187167 0.187167
0.211627 0.211627 0.211627
0.086305 0.086305 0.086305
0.110094 0.110094 0.110094
0.132784 0.132784 0.132784
0.156512 0.156512 0.156512
0.18088 0.18088 0.18088
0.205493 0.205493 0.205493
0.230259 0.230259 0.230259
0.255467 0.255467 0.255467
0.279896 0.279896 0.279896
0.150286 0.150286 0.150286
0.169284 0.169284 0.169284
0.215351 0.215351 0.215351
0.24062 0.24062 0.24062
0.262623 0.262623 0.262623
0.286687 0.286687 0.286687
0.312062 0.312062 0.312062
0.338079 0.338079 0.338079
0.362432 0.362432 0.362432
0.226276 0.226276 0.226276
0.24625 0.24625 0.24625
0.275257 0.275257 0.275257
0.325475 0.325475 0.325475
0.357259 0.357259 0.357259
0.379431 0.379431 0.379431
0.404776 0.404776 0.404776
0.43125 0.43125 0.43125
0.453834 0.453834 0.453834
0.3037 0.3037 0.3037
0.325216 0.325216 0.325216
0.353704 0.353704 0.353704
0.387076 0.387076 0.387076
0.441688 0.441688 0.441688
0.474693 0.474693 0.474693
0.501152 0.501152 0.501152
0.526238 0.526238 0.526238
0.547311 0.547311 0.547311
0.383597 0.383597 0.383597
0.405661 0.405661 0.405661
0.433814 0.433814 0.433814
0.466346 0.466346 0.466346
0.504158 0.504158 0.504158
0.560739 0.560739 0.560739
0.593484 0.593484 0.593484
0.626581 0.626581 0.626581
0.643793 0.643793 0.643793
0.463233 0.463233 0.463233
0.485512 0.485512 0.485512
0.513756 0.513756 0.513756
0.546151 0.546151 0.546151
0.580133 0.580133 0.580133
0.623484 0.623484 0.623484
0.681575 0.681575 0.681575
0.71426 0.71426 0.71426
0.739376 0.739376 0.739376
0.541726 0.541726 0.541726
0.564263 0.564263 0.564263
0.592737 0.592737 0.592737
0.625177 0.625177 0.625177
0.659266 0.659266 0.659266
0.694835 0.694835 0.694835
0.743984 0.743984 0.743984
0.802335 0.802335 0.802335
0.827329 0.827329 0.827329
0.618891 0.618891 0.618891
0.641703 0.641703 0.641703
0.670268 0.670268 0.670268
0.702983 0.702983 0.702983
0.737285 0.737285 0.737285
0.772335 0.772335 0.772335
0.812757 0.812757 0.812757
0.858198 0.858198 0.858198
0.894713 0.894713 0.894713
0.0486152 0.0486152 0.0486152
0.0619669 0.0619669 0.0619669
0.0803082 0.0803082 0.0803082
0.101976 0.101976 0.101976
0.124178 0.124178 0.124178
0.147799 0.147799 0.147799
0.172168 0.172168 0.172168
0.196628 0.196628 0.196628
0.221347 0.221347 0.221347
0.0938277 0.0938277 0.0938277
0.109041 0.109041 0.109041
0.136599 0.136599 0.136599
0.16492 0.16492 0.16492
0.189441 0.189441 0.189441
0.214115 0.214115 0.214115
0.238911 0.238911 0.238911
0.264195 0.264195 0.264195
0.289754 0.289754 0.289754
0.159289 0.159289 0.159289
0.17705 0.17705 0.17705
0.21706 0.21706 0.21706
0.244739 0.244739 0.244739
0.270375 0.270375 0.270375
0.295644 0.295644 0.295644
0.321553 0.321553 0.321553
0.34789 0.34789 0.34789
0.372808 0.372808 0.372808
0.235447 0.235447 0.235447
0.253468 0.253468 0.253468
0.282445 0.282445 0.282445
0.33814 0.33814 0.33814
0.373495 0.373495 0.373495
0.393225 0.393225 0.393225
0.417166 0.417166 0.417166
0.44271 0.44271 0.44271
0.464866 0.464866 0.464866
0.313161 0.313161 0.313161
0.332082 0.332082 0.332082
0.357855 0.357855 0.357855
0.394003 0.394003 0.394003
0.459525 0.459525 0.459525
0.49865 0.49865 0.49865
0.517678 0.517678 0.517678
0.541482 0.541482 0.541482
0.560082 0.560082 0.560082
0.39263 0.39263 0.39263
0.411872 0.411872 0.411872
0.438697 0.438697 0.438697
0.47274 0.47274 0.47274
0.509544 0.509544 0.509544
0.578424 0.578424 0.578424
0.615778 0.615778 0.615778
0.646128 0.646128 0.646128
0.658701 0.658701 0.658701
0.471458 0.471458 0.471458
0.49099 0.49099 0.49099
0.518853 0.518853 0.518853
0.552193 0.552193 0.552193
0.58764 0.58764 0.58764
0.631449 0.631449 0.631449
0.699611 0.699611 0.699611
0.736126 0.736126 0.736126
0.759121 0.759121 0.759121
0.549126 0.549126 0.549126
0.569619 0.569619 0.569619
0.597818 0.597818 0.597818
0.631052 0.631052 0.631052
0.666163 0.666163 0.666163
0.702495 0.702495 0.702495
0.753445 0.753445 0.753445
0.819883 0.819883 0.819883
0.844541 0.844541 0.844541
0.625391 0.625391 0.625391
0.646876 0.646876 0.646876
0.675395 0.675395 0.675395
0.708782 0.708782 0.708782
0.743954 0.743954 0.743954
0.779721 0.779721 0.779721
0.81883 0.81883 0.81883
0.867536 0.867536 0.867536
0.903975 0.903975 0.903975
0.0554513 0.0554513 0.0554513
0.0690471 0.0690471 0.0690471
0.0870985 0.0870985 0.0870985
0.109148 0.109148 0.109148
0.133242 0.133242 0.133242
0.158373 0.158373 0.158373
0.182696 0.182696 0.182696
0.207279 0.207279 0.207279
0.232074 0.232074 0.232074
0.102159 0.102159 0.102159
0.11783 0.11783 0.11783
0.141573 0.141573 0.141573
0.170596 0.170596 0.170596
0.199008 0.199008 0.199008
0.224796 0.224796 0.224796
0.249622 0.249622 0.249622
0.274876 0.274876 0.274876
0.300481 0.300481 0.300481
0.16907 0.16907 0.16907
0.186831 0.186831 0.186831
0.212314 0.212314 0.212314
0.24715 0.24715 0.24715
0.278111 0.278111 0.278111
0.303639 0.303639 0.303639
0.329717 0.329717 0.329717
0.356161 0.356161 0.356161
0.382605 0.382605 0.382605
0.245411 0.245411 0.245411
0.263493 0.263493 0.263493
0.290974 0.290974 0.290974
0.338628 0.338628 0.338628
0.3682 0.3682 0.3682
0.396948 0.396948 0.396948
0.423941 0.423941 0.423941
0.450736 0.450736 0.450736
0.47509 0.47509 0.47509
0.323507 0.323507 0.323507
0.342473 0.342473 0.342473
0.365301 0.365301 0.365301
0.406485 0.406485 0.406485
0.465919 0.465919 0.465919
0.512352 0.512352 0.512352
0.53257 0.53257 0.53257
0.555123 0.555123 0.555123
0.572335 0.572335 0.572335
0.403113 0.403113 0.403113
0.422385 0.422385 0.422385
0.445487 0.445487 0.445487
0.477592 0.477592 0.477592
0.51751 0.51751 0.51751
0.595193 0.595193 0.595193
0.647547 0.647547 0.647547
0.666239 0.666239 0.666239
0.674617 0.674617 0.674617
0.482048 0.482048 0.482048
0.501534 0.501534 0.501534
0.525017 0.525017 0.525017
0.554955 0.554955 0.554955
0.592782 0.592782 0.592782
0.635294 0.635294 0.635294
0.72163 0.72163 0.72163
0.765667 0.765667 0.765667
0.783932 0.783932 0.783932
0.559762 0.559762 0.559762
0.579583 0.579583 0.579583
0.603067 0.603067 0.603067
0.63415 0.63415 0.63415
0.671061 0.671061 0.671061
0.709285 0.709285 0.709285
0.760891 0.760891 0.760891
0.840772 0.840772 0.840772
0.866285 0.866285 0.866285
0.636072 0.636072 0.636072
0.656016 0.656016 0.656016
0.679606 0.679606 0.679606
0.711849 0.711849 0.711849
0.74844 0.74844 0.74844
0.785534 0.785534 0.785534
0.82182 0.82182 0.82182
0.876081 0.876081 0.876081
0.91397 0.91397 0.91397
0.0625467 0.0625467 0.0625467
0.076524 0.076524 0.076524
0.0947585 0.0947585 0.0947585
0.116655 0.116655 0.116655
0.140978 0.140978 0.140978
0.166979 0.166979 0.166979
0.192615 0.192615 0.192615
0.218067 0.218067 0.218067
0.242924 0.242924 0.242924
0.11075 0.11075 0.11075
0.126925 0.126925 0.126925
0.149859 0.149859 0.149859
0.176532 0.176532 0.176532
0.204852 0.204852 0.204852
0.232853 0.232853 0.232853
0.259968 0.259968 0.259968
0.285893 0.285893 0.285893
0.311666 0.311666 0.311666
0.178882 0.178882 0.178882
0.196582 0.196582 0.196582
0.217868 0.217868 0.217868
0.248035 0.248035 0.248035
0.280812 0.280812 0.280812
0.312352 0.312352 0.312352
0.34107 0.34107 0.34107
0.367575 0.367575 0.367575
0.394064 0.394064 0.394064
0.255375 0.255375 0.255375
0.273548 0.273548 0.273548
0.295613 0.295613 0.295613
0.331823 0.331823 0.331823
0.369863 0.369863 0.369863
0.403098 0.403098 0.403098
0.429892 0.429892 0.429892
0.456794 0.456794 0.456794
0.483635 0.483635 0.483635
0.333837 0.333837 0.333837
0.352865 0.352865 0.352865
0.375738 0.375738 0.375738
0.415396 0.415396 0.415396
0.46569 0.46569 0.46569
0.496208 0.496208 0.496208
0.525597 0.525597 0.525597
0.554849 0.554849 0.554849
0.579446 0.579446 0.579446
0.413535 0.413535 0.413535
0.432898 0.432898 0.432898
0.456016 0.456016 0.456016
0.485328 0.485328 0.485328
0.534142 0.534142 0.534142
0.595682 0.595682 0.595682
0.646174 0.646174 0.646174
0.673014 0.673014 0.673014
0.68687 0.68687 0.68687
0.492622 0.492622 0.492622
0.512108 0.512108 0.512108
0.535622 0.535622 0.535622
0.560845 0.560845 0.560845
0.60473 0.60473 0.60473
0.646204 0.646204 0.646204
0.727596 0.727596 0.727596
0.792554 0.792554 0.792554
0.801892 0.801892 0.801892
0.570413 0.570413 0.570413
0.590234 0.590234 0.590234
0.613733 0.613733 0.613733
0.639139 0.639139 0.639139
0.675715 0.675715 0.675715
0.716793 0.716793 0.716793
0.764035 0.764035 0.764035
0.855528 0.855528 0.855528
0.892424 0.892424 0.892424
0.646769 0.646769 0.646769
0.666712 0.666712 0.666712
0.690318 0.690318 0.690318
0.715785 0.715785 0.715785
0.748058 0.748058 0.748058
0.787793 0.787793 0.787793
0.826703 0.826703 0.826703
0.881132 0.881132 0.881132
0.924147 0.924147 0.924147
0.0699016 0.0699016 0.0699016
0.0841993 0.0841993 0.0841993
0.10277 0.10277 0.10277
0.124865 0.124865 0.124865
0.149126 0.149126 0.149126
0.174807 0.174807 0.174807
0.200778 0.200778 0.200778
0.226627 0.226627 0.226627
0.252644 0.252644 0.252644
0.1196 0.1196 0.1196
0.136156 0.136156 0.136156
0.158877 0.158877 0.158877
0.184619 0.184619 0.184619
0.211322 0.211322 0.211322
0.239063 0.239063 0.239063
0.267033 0.267033 0.267033
0.294392 0.294392 0.294392
0.32195 0.32195 0.32195
0.188571 0.188571 0.188571
0.206363 0.206363 0.206363
0.227543 0.227543 0.227543
0.255375 0.255375 0.255375
0.285008 0.285008 0.285008
0.316365 0.316365 0.316365
0.34728 0.34728 0.34728
0.376913 0.376913 0.376913
0.405554 0.405554 0.405554
0.265248 0.265248 0.265248
0.283497 0.283497 0.283497
0.305592 0.305592 0.305592
0.332692 0.332692 0.332692
0.366873 0.366873 0.366873
0.403372 0.403372 0.403372
0.43714 0.43714 0.43714
0.468208 0.468208 0.468208
0.495247 0.495247 0.495247
0.344045 0.344045 0.344045
0.363149 0.363149 0.363149
0.386023 0.386023 0.386023
0.413901 0.413901 0.413901
0.457847 0.457847 0.457847
0.497307 0.497307 0.497307
0.531472 0.531472 0.531472
0.558541 0.558541 0.558541
0.585824 0.585824 0.585824
0.423941 0.423941 0.423941
0.443275 0.443275 0.443275
0.466438 0.466438 0.466438
0.495216 0.495216 0.495216
0.543191 0.543191 0.543191
0.59498 0.59498 0.59498
0.625879 0.625879 0.625879
0.656031 0.656031 0.656031
0.682658 0.682658 0.682658
0.503044 0.503044 0.503044
0.52256 0.52256 0.52256
0.546044 0.546044 0.546044
0.571283 0.571283 0.571283
0.612558 0.612558 0.612558
0.663554 0.663554 0.663554
0.726665 0.726665 0.726665
0.779812 0.779812 0.779812
0.794919 0.794919 0.794919
0.580911 0.580911 0.580911
0.600748 0.600748 0.600748
0.624262 0.624262 0.624262
0.649668 0.649668 0.649668
0.680568 0.680568 0.680568
0.733669 0.733669 0.733669
0.775952 0.775952 0.775952
0.853864 0.853864 0.853864
0.897566 0.897566 0.897566
0.657313 0.657313 0.657313
0.677241 0.677241 0.677241
0.700862 0.700862 0.700862
0.726345 0.726345 0.726345
0.751568 0.751568 0.751568
0.802029 0.802029 0.802029
0.841184 0.841184 0.841184
0.88484 0.88484 0.88484
0.933532 0.933532 0.933532
0.0772717 0.0772717 0.0772717
0.0919966 0.0919966 0.0919966
0.111009 0.111009 0.111009
0.133486 0.133486 0.133486
0.157839 0.157839 0.157839
0.182849 0.182849 0.182849
0.208621 0.208621 0.208621
0.234546 0.234546 0.234546
0.260578 0.260578 0.260578
0.12842 0.12842 0.12842
0.145464 0.145464 0.145464
0.168032 0.168032 0.168032
0.193256 0.193256 0.193256
0.219196 0.219196 0.219196
0.246036 0.246036 0.246036
0.273594 0.273594 0.273594
0.301518 0.301518 0.301518
0.329122 0.329122 0.329122
0.198077 0.198077 0.198077
0.215946 0.215946 0.215946
0.23711 0.23711 0.23711
0.263905 0.263905 0.263905
0.29221 0.29221 0.29221
0.321706 0.321706 0.321706
0.352392 0.352392 0.352392
0.382681 0.382681 0.382681
0.41207 0.41207 0.41207
0.275013 0.275013 0.275013
0.293309 0.293309 0.293309
0.31545 0.31545 0.31545
0.339712 0.339712 0.339712
0.371664 0.371664 0.371664
0.404852 0.404852 0.404852
0.43917 0.43917 0.43917
0.472068 0.472068 0.472068
0.502861 0.502861 0.502861
0.35407 0.35407 0.35407
0.373266 0.373266 0.373266
0.396139 0.396139 0.396139
0.420935 0.420935 0.420935
0.457084 0.457084 0.457084
0.49308 0.49308 0.49308
0.530709 0.530709 0.530709
0.564385 0.564385 0.564385
0.596582 0.596582 0.596582
0.43415 0.43415 0.43415
0.453483 0.453483 0.453483
0.476631 0.476631 0.476631
0.501717 0.501717 0.501717
0.539849 0.539849 0.539849
0.58616 0.58616 0.58616
0.626566 0.626566 0.626566
0.661036 0.661036 0.661036
0.688853 0.688853 0.688853
0.513283 0.513283 0.513283
0.53283 0.53283 0.53283
0.55639 0.55639 0.55639
0.581567 0.581567 0.581567
0.622461 0.622461 0.622461
0.672801 0.672801 0.672801
0.725399 0.725399 0.725399
0.756756 0.756756 0.756756
0.784634 0.784634 0.784634
0.591196 0.591196 0.591196
0.611048 0.611048 0.611048
0.634607 0.634607 0.634607
0.660029 0.660029 0.660029
0.69099 0.69099 0.69099
0.741253 0.741253 0.741253
0.793088 0.793088 0.793088
0.852049 0.852049 0.852049
0.89134 0.89134 0.89134
0.667659 0.667659 0.667659
0.687602 0.687602 0.687602
0.711238 0.711238 0.711238
0.736721 0.736721 0.736721
0.761868 0.761868 0.761868
0.806638 0.806638 0.806638
0.857008 0.857008 0.857008
0.89427 0.89427 0.89427
0.942535 0.942535 0.942535
0.0847181 0.0847181 0.0847181
0.099855 0.099855 0.099855
0.119341 0.119341 0.119341
0.14226 0.14226 0.14226
0.166644 0.166644 0.166644
0.191333 0.191333 0.191333
0.216571 0.216571 0.216571
0.242405 0.242405 0.242405
0.268391 0.268391 0.268391
0.137301 0.137301 0.137301
0.154726 0.154726 0.154726
0.177127 0.177127 0.177127
0.20206 0.20206 0.20206
0.227573 0.227573 0.227573
0.253895 0.253895 0.253895
0.280735 0.280735 0.280735
0.308339 0.308339 0.308339
0.336187 0.336187 0.336187
0.207385 0.207385 0.207385
0.225299 0.225299 0.225299
0.246509 0.246509 0.246509
0.272786 0.272786 0.272786
0.300374 0.300374 0.300374
0.328862 0.328862 0.328862
0.358358 0.358358 0.358358
0.388449 0.388449 0.388449
0.418112 0.418112 0.418112
0.28455 0.28455 0.28455
0.302953 0.302953 0.302953
0.325154 0.325154 0.325154
0.349493 0.349493 0.349493
0.379934 0.379934 0.379934
0.4112 0.4112 0.4112
0.443183 0.443183 0.443183
0.475715 0.475715 0.475715
0.507362 0.507362 0.507362
0.364004 0.364004 0.364004
0.383139 0.383139 0.383139
0.406043 0.406043 0.406043
0.430838 0.430838 0.430838
0.459922 0.459922 0.459922
0.494072 0.494072 0.494072
0.529061 0.529061 0.529061
0.564935 0.564935 0.564935
0.598184 0.598184 0.598184
0.444083 0.444083 0.444083
0.463462 0.463462 0.463462
0.486625 0.486625 0.486625
0.511696 0.511696 0.511696
0.541588 0.541588 0.541588
0.584253 0.584253 0.584253
0.621378 0.621378 0.621378
0.659983 0.659983 0.659983
0.693767 0.693767 0.693767
0.523323 0.523323 0.523323
0.542885 0.542885 0.542885
0.566445 0.566445 0.566445
0.59173 0.59173 0.59173
0.622232 0.622232 0.622232
0.667903 0.667903 0.667903
0.716121 0.716121 0.716121
0.757122 0.757122 0.757122
0.790845 0.790845 0.790845
0.601267 0.601267 0.601267
0.621134 0.621134 0.621134
0.644694 0.644694 0.644694
0.67013 0.67013 0.67013
0.701381 0.701381 0.701381
0.751278 0.751278 0.751278
0.801785 0.801785 0.801785
0.850782 0.850782 0.850782
0.877546 0.877546 0.877546
0.677745 0.677745 0.677745
0.697704 0.697704 0.697704
0.721355 0.721355 0.721355
0.746868 0.746868 0.746868
0.771832 0.771832 0.771832
0.816388 0.816388 0.816388
0.863615 0.863615 0.863615
0.909438 0.909438 0.909438
0.951217 0.951217 0.951217
0.092195 0.092195 0.092195
0.107744 0.107744 0.107744
0.127718 0.127718 0.127718
0.151125 0.151125 0.151125
0.175433 0.175433 0.175433
0.199954 0.199954 0.199954
0.224948 0.224948 0.224948
0.250278 0.250278 0.250278
0.276143 0.276143 0.276143
0.146181 0.146181 0.146181
0.163745 0.163745 0.163745
0.186069 0.186069 0.186069
0.210849 0.210849 0.210849
0.236179 0.236179 0.236179
0.26215 0.26215 0.26215
0.288701 0.288701 0.288701
0.315618 0.315618 0.315618
0.343359 0.343359 0.343359
0.216464 0.216464 0.216464
0.234424 0.234424 0.234424
0.25568 0.25568 0.25568
0.281727 0.281727 0.281727
0.308904 0.308904 0.308904
0.336934 0.336934 0.336934
0.365728 0.365728 0.365728
0.394781 0.394781 0.394781
0.424308 0.424308 0.424308
0.293843 0.293843 0.293843
0.312383 0.312383 0.312383
0.334783 0.334783 0.334783
0.35906 0.35906 0.35906
0.388586 0.388586 0.388586
0.418784 0.418784 0.418784
0.449485 0.449485 0.449485
0.48069 0.48069 0.48069
0.512001 0.512001 0.512001
0.373617 0.373617 0.373617
0.392767 0.392767 0.392767
0.415686 0.415686 0.415686
0.440467 0.440467 0.440467
0.465156 0.465156 0.465156
0.498131 0.498131 0.498131
0.531762 0.531762 0.531762
0.565774 0.565774 0.565774
0.600031 0.600031 0.600031
0.453758 0.453758 0.453758
0.473167 0.473167 0.473167
0.496437 0.496437 0.496437
0.521431 0.521431 0.521431
0.546334 0.546334 0.546334
0.585855 0.585855 0.585855
0.621424 0.621424 0.621424
0.657526 0.657526 0.657526
0.69395 0.69395 0.69395
0.53312 0.53312 0.53312
0.552728 0.552728 0.552728
0.576242 0.576242 0.576242
0.601511 0.601511 0.601511
0.626596 0.626596 0.626596
0.668589 0.668589 0.668589
0.713008 0.713008 0.713008
0.751202 0.751202 0.751202
0.789319 0.789319 0.789319
0.611124 0.611124 0.611124
0.630991 0.630991 0.630991
0.654536 0.654536 0.654536
0.679957 0.679957 0.679957
0.70515 0.70515 0.70515
0.749798 0.749798 0.749798
0.796201 0.796201 0.796201
0.841901 0.841901 0.841901
0.878325 0.878325 0.878325
0.687602 0.687602 0.687602
0.707576 0.707576 0.707576
0.731212 0.731212 0.731212
0.756695 0.756695 0.756695
0.78143 0.78143 0.78143
0.826032 0.826032 0.826032
0.87245 0.87245 0.87245
0.916915 0.916915 0.916915
0.958846 0.958846 0.958846
