bundles/resolve-cinematic-luts/Lens Distortions - Finishing LUTs/LD - Amber X 3.cube
TITLE "LD - Amber X 3"
# Copyright (c) Lens Distortions, LLC. All Rights Reserved.
# LensDistortions.com
# ref-AM6
LUT_3D_SIZE 9
0.0166629 0.0152743 0.0183261
0.0904097 0.0154726 0.017731
0.242405 0.0169375 0.0169375
0.383307 0.0187991 0.0187991
0.513191 0.0207675 0.0207675
0.641245 0.0228733 0.0228733
0.772 0.0251774 0.0251774
0.903853 0.0276036 0.0276036
0.939361 0.028275 0.0282902
0.0373236 0.0900282 0.0396582
0.10724 0.0856641 0.0275731
0.238575 0.0901961 0.0199893
0.390066 0.0886397 0.0218357
0.525536 0.0914168 0.0239261
0.65568 0.0972763 0.0262455
0.786664 0.103319 0.0289616
0.919219 0.109041 0.034287
0.943755 0.110613 0.0362249
0.0735485 0.219089 0.0752422
0.0800488 0.219974 0.0730297
0.255268 0.229572 0.0501259
0.383902 0.236088 0.0279545
0.522576 0.242939 0.0302586
0.655467 0.246952 0.0338445
0.78822 0.25124 0.0390326
0.921187 0.253574 0.0441444
0.951217 0.252613 0.0461585
0.110628 0.350988 0.115267
0.109804 0.347158 0.108446
0.191485 0.370459 0.105806
0.394949 0.375921 0.0722057
0.520958 0.378393 0.0359808
0.646433 0.386847 0.0397803
0.778149 0.388983 0.0437171
0.909865 0.388708 0.0474403
0.958114 0.385245 0.0487984
0.145724 0.475608 0.157488
0.143999 0.469444 0.143084
0.209873 0.486061 0.150225
0.328817 0.517052 0.0999008
0.523156 0.50869 0.0932479
0.65124 0.505806 0.0454719
0.776242 0.509331 0.048661
0.900938 0.513252 0.0518349
0.964645 0.510948 0.0533455
0.1794 0.591684 0.197543
0.177707 0.584833 0.17789
0.228061 0.596063 0.184695
0.321904 0.617975 0.170809
0.461707 0.646448 0.10808
0.646143 0.631342 0.112825
0.780194 0.625345 0.0544747
0.910262 0.625971 0.0575265
0.970626 0.626581 0.058793
0.212345 0.702602 0.232761
0.209476 0.695171 0.21062
0.243626 0.702861 0.215579
0.340017 0.723018 0.213825
0.439719 0.753826 0.163943
0.594354 0.773083 0.132708
0.77229 0.753063 0.132769
0.91014 0.747509 0.0725567
0.976654 0.743221 0.0648051
0.244633 0.812665 0.266255
0.241825 0.805203 0.244434
0.265003 0.810697 0.246113
0.357794 0.83032 0.250385
0.445335 0.855817 0.229877
0.564004 0.891554 0.169024
0.724346 0.89836 0.158679
0.901991 0.876478 0.152544
0.983413 0.871626 0.0963149
0.268849 0.89662 0.290639
0.268132 0.895811 0.273274
0.282216 0.896941 0.269947
0.36733 0.907454 0.274632
0.45507 0.923705 0.260166
0.547784 0.948089 0.205539
0.67747 0.975387 0.167956
0.85452 0.988724 0.186633
0.990097 0.99263 0.178607
0.0172885 0.0205386 0.0847944
0.0890822 0.0160525 0.116243
0.232929 0.0173495 0.106508
0.372152 0.0191196 0.100832
0.502159 0.0210574 0.103014
0.630106 0.0231785 0.107332
0.760693 0.0254673 0.112383
0.892454 0.0278935 0.11574
0.939879 0.0287938 0.115557
0.0215763 0.0976577 0.143664
0.0831922 0.0997787 0.117479
0.212207 0.106676 0.0970169
0.352438 0.122911 0.0991531
0.496284 0.131441 0.106157
0.642222 0.117937 0.111391
0.778042 0.102907 0.115282
0.909529 0.106996 0.118914
0.944045 0.107088 0.119036
0.0677958 0.223667 0.12723
0.134112 0.228428 0.223819
0.286503 0.215747 0.153979
0.403693 0.226719 0.113298
0.52282 0.239246 0.113771
0.65272 0.244862 0.109987
0.787778 0.243748 0.109926
0.918898 0.245579 0.114137
0.951186 0.244404 0.114748
0.1084 0.354665 0.169726
0.201923 0.355444 0.320623
0.274174 0.353048 0.260777
0.45687 0.350301 0.193118
0.535149 0.372061 0.109209
0.65095 0.381521 0.0980697
0.78117 0.381613 0.0979934
0.912642 0.380026 0.100206
0.958022 0.377493 0.101884
0.143801 0.478325 0.214145
0.243076 0.475364 0.328099
0.241993 0.48188 0.26656
0.396521 0.501839 0.251164
0.56614 0.490349 0.216938
0.652323 0.50457 0.100038
0.77586 0.5066 0.0917067
0.903471 0.507286 0.0914473
0.964523 0.503929 0.0932631
0.177615 0.593393 0.254444
0.210101 0.589685 0.247883
0.242756 0.595178 0.221393
0.329641 0.614176 0.209155
0.494652 0.636378 0.247074
0.661326 0.622202 0.22707
0.77966 0.625345 0.117479
0.910063 0.623056 0.0915084
0.970672 0.623621 0.0900435
0.211017 0.703822 0.288945
0.236591 0.699397 0.277119
0.256474 0.702449 0.24477
0.342138 0.719829 0.240208
0.446494 0.746853 0.224384
0.599039 0.76788 0.242878
0.772412 0.749218 0.233249
0.908812 0.747539 0.146838
0.976806 0.742061 0.0977798
0.243839 0.813504 0.320729
0.26334 0.808835 0.306218
0.279744 0.810834 0.27451
0.355398 0.827268 0.269429
0.44329 0.852232 0.250065
0.571481 0.883925 0.254307
0.722011 0.895094 0.256855
0.897597 0.873869 0.246815
0.983902 0.870909 0.17911
0.269032 0.899748 0.345418
0.285786 0.899931 0.331029
0.297353 0.899275 0.296345
0.360616 0.906386 0.288319
0.449546 0.922042 0.271885
0.554086 0.94403 0.25774
0.682338 0.97348 0.264805
0.849958 0.988861 0.277913
0.990692 0.99324 0.269123
0.0181277 0.0180209 0.248997
0.0853285 0.0167849 0.237644
0.229404 0.0182193 0.254429
0.369451 0.0199588 0.248829
0.498054 0.0218662 0.250462
0.62359 0.0239261 0.25452
0.752789 0.0261845 0.259968
0.882673 0.0285801 0.26331
0.938491 0.0296178 0.263508
0.0218509 0.0914321 0.291127
0.0570687 0.124941 0.217578
0.229297 0.0937362 0.253635
0.374182 0.0984207 0.242206
0.510246 0.109483 0.20763
0.638376 0.108415 0.238117
0.76643 0.106279 0.264668
0.897642 0.110842 0.267933
0.945068 0.110719 0.267567
0.0315404 0.244083 0.269688
0.116014 0.248707 0.333165
0.231296 0.244282 0.265187
0.362844 0.248066 0.235813
0.486213 0.264286 0.238483
0.613718 0.278462 0.243732
0.744778 0.289342 0.251514
0.888395 0.281712 0.257542
0.952117 0.246326 0.262013
0.0753796 0.369207 0.253452
0.159274 0.383948 0.404715
0.269718 0.362463 0.329992
0.4103 0.366583 0.294011
0.533425 0.372549 0.256641
0.649638 0.380118 0.25539
0.769223 0.387243 0.256077
0.898741 0.387976 0.251087
0.958831 0.376898 0.243885
0.120851 0.489754 0.293721
0.21709 0.488624 0.399802
0.332326 0.472496 0.404608
0.411612 0.487236 0.363897
0.557717 0.490181 0.326467
0.670146 0.496147 0.253407
0.779446 0.503792 0.243336
0.903777 0.505165 0.236866
0.965286 0.502846 0.229419
0.160906 0.602441 0.331151
0.212528 0.597375 0.33875
0.369207 0.584344 0.438514
0.390539 0.596765 0.39292
0.518761 0.625772 0.359014
0.664225 0.618387 0.336461
0.787701 0.621012 0.243488
0.908141 0.624292 0.228199
0.971633 0.626719 0.221057
0.199573 0.710811 0.362905
0.234333 0.704982 0.358175
0.370687 0.700404 0.431205
0.386816 0.711452 0.385611
0.47306 0.730694 0.368017
0.604944 0.760357 0.359594
0.771618 0.746868 0.340566
0.908522 0.746166 0.260044
0.977737 0.744915 0.223636
0.235874 0.819196 0.392721
0.261875 0.813352 0.386267
0.367971 0.81387 0.413962
0.402304 0.823621 0.381476
0.482643 0.84332 0.374182
0.583917 0.870085 0.376181
0.721004 0.89276 0.367376
0.893843 0.872389 0.351736
0.984543 0.870283 0.286763
0.263111 0.905928 0.416846
0.285176 0.905913 0.410666
0.383505 0.910903 0.429191
0.414343 0.910887 0.393408
0.49012 0.917739 0.387518
0.567941 0.931334 0.371511
0.690074 0.965591 0.381949
0.846174 0.988861 0.379812
0.991379 0.993927 0.371679
0.0189822 0.0196841 0.384695
0.0924392 0.0196994 0.3579
0.224186 0.0189364 0.378576
0.368093 0.020798 0.387839
0.497917 0.0227054 0.389838
0.623255 0.0247501 0.3935
0.750225 0.0269627 0.397513
0.878935 0.0293126 0.401801
0.93373 0.0303502 0.402228
0.0227512 0.0949416 0.423301
0.0515908 0.152087 0.29398
0.225513 0.1028 0.373449
0.375235 0.0938277 0.395697
0.507576 0.097322 0.398001
0.633005 0.1075 0.397498
0.760342 0.108904 0.405097
0.889632 0.113542 0.409003
0.946014 0.114137 0.40943
0.0301518 0.23682 0.466804
0.0773632 0.254505 0.422034
0.214374 0.271763 0.394644
0.374807 0.241154 0.392309
0.510613 0.242786 0.396246
0.636225 0.258213 0.353338
0.769574 0.261204 0.338964
0.898329 0.259312 0.36878
0.953109 0.249729 0.407965
0.0420233 0.391348 0.417731
0.145235 0.394568 0.508568
0.266163 0.400229 0.461921
0.378241 0.385931 0.406592
0.505745 0.385016 0.385641
0.62208 0.394873 0.379431
0.744305 0.402121 0.382025
0.877821 0.401114 0.383154
0.959731 0.377676 0.393713
0.0780041 0.508705 0.389487
0.192477 0.513176 0.508156
0.289128 0.504433 0.485801
0.402731 0.488685 0.435966
0.519493 0.503349 0.419242
0.64828 0.504707 0.389487
0.769177 0.506539 0.387076
0.895094 0.507317 0.384863
0.966094 0.501305 0.379416
0.120668 0.617166 0.413855
0.220661 0.610468 0.45594
0.339376 0.597726 0.493202
0.441352 0.5906 0.482124
0.505165 0.609751 0.460868
0.651484 0.621363 0.441886
0.781521 0.622293 0.383886
0.902037 0.625925 0.375113
0.972488 0.625772 0.370108
0.167239 0.723888 0.441291
0.224613 0.717571 0.443839
0.360311 0.707576 0.494697
0.46128 0.698314 0.500298
0.507271 0.715541 0.478202
0.608133 0.746715 0.468956
0.767437 0.746838 0.450736
0.907149 0.745937 0.381567
0.978729 0.747173 0.367117
0.211078 0.830915 0.472007
0.255589 0.824918 0.470863
0.365789 0.819593 0.491798
0.473442 0.812711 0.509758
0.518669 0.829923 0.490684
0.594125 0.851194 0.48574
0.718532 0.886351 0.481849
0.889998 0.871946 0.461799
0.98529 0.870649 0.403876
0.243778 0.916899 0.495354
0.280476 0.916381 0.494835
0.383291 0.91574 0.51046
0.489296 0.909926 0.524254
0.530541 0.910506 0.501808
0.598795 0.918685 0.495964
0.69984 0.950896 0.501961
0.843091 0.988388 0.488823
0.992035 0.993606 0.479973
0.0198672 0.0232547 0.507347
0.102632 0.0239261 0.472847
0.226474 0.0195926 0.480369
0.366339 0.0215152 0.506096
0.49836 0.0234989 0.5149
0.62443 0.0255283 0.518868
0.751141 0.0277256 0.522271
0.879179 0.0300755 0.526558
0.933471 0.0310826 0.526787
0.0238193 0.102693 0.546929
0.0782635 0.172213 0.420127
0.213916 0.138109 0.479957
0.372457 0.101976 0.51133
0.507912 0.0994278 0.525078
0.634394 0.105089 0.528908
0.760479 0.111192 0.532143
0.887816 0.11606 0.535683
0.946807 0.116777 0.536019
0.0306401 0.236042 0.592233
0.0827039 0.269169 0.506706
0.18468 0.301183 0.463478
0.372 0.246601 0.504265
0.510185 0.245197 0.525872
0.638376 0.246754 0.532219
0.760113 0.259007 0.520043
0.888609 0.262913 0.515679
0.953964 0.252827 0.535637
0.0388342 0.384527 0.623621
0.0657511 0.392828 0.611704
0.236942 0.40734 0.578943
0.387076 0.40351 0.542092
0.508019 0.38381 0.521126
0.636042 0.38291 0.527626
0.756085 0.391135 0.502571
0.8869 0.390402 0.492256
0.960616 0.380835 0.525795
0.0518654 0.529641 0.558511
0.165682 0.53373 0.638819
0.290822 0.538125 0.619593
0.400671 0.530739 0.570504
0.51043 0.513664 0.53344
0.635554 0.508812 0.518685
0.757244 0.511513 0.511345
0.888395 0.5093 0.5093
0.966964 0.502846 0.51783
0.0943618 0.636774 0.513741
0.215259 0.630823 0.571221
0.307408 0.623606 0.573037
0.412589 0.61294 0.554345
0.523629 0.610361 0.543328
0.633341 0.628885 0.536629
0.767773 0.628321 0.513207
0.896361 0.627527 0.512261
0.973281 0.624872 0.510369
0.132601 0.74136 0.525689
0.215183 0.733181 0.534524
0.341482 0.720333 0.563897
0.44889 0.706325 0.562188
0.547921 0.711589 0.572091
0.610956 0.733837 0.566415
0.761715 0.749401 0.554574
0.899992 0.74934 0.512367
0.979751 0.750759 0.502861
0.176822 0.846159 0.54847
0.246662 0.839506 0.553994
0.360647 0.828794 0.568124
0.47039 0.819028 0.580438
0.565164 0.813107 0.589014
0.621897 0.835874 0.586648
0.722545 0.872175 0.589914
0.886809 0.873335 0.570291
0.986084 0.872236 0.516258
0.21091 0.931426 0.569009
0.273976 0.930694 0.575769
0.380575 0.925322 0.587396
0.489815 0.915572 0.599939
0.586236 0.907912 0.610819
0.631479 0.909697 0.600183
0.706203 0.928267 0.600717
0.84268 0.986999 0.596597
0.992691 0.993759 0.583062
0.0235142 0.0288396 0.625238
0.115343 0.0306249 0.586908
0.235401 0.0272221 0.580957
0.368765 0.0221866 0.610025
0.497215 0.0242161 0.633707
0.625422 0.0263066 0.640894
0.752071 0.0284886 0.644816
0.880522 0.0308385 0.648646
0.935424 0.0318608 0.649241
0.0249485 0.111986 0.666697
0.102922 0.183612 0.56524
0.221363 0.152529 0.596506
0.36965 0.121721 0.605432
0.506142 0.104494 0.641642
0.635233 0.108217 0.651591
0.761746 0.113359 0.655161
0.889158 0.118059 0.658015
0.94754 0.118547 0.658274
0.0315251 0.2421 0.711192
0.0973831 0.271061 0.648096
0.177203 0.327611 0.528725
0.310185 0.308522 0.661494
0.50811 0.249027 0.640711
0.637751 0.250584 0.653727
0.764508 0.252018 0.657023
0.889647 0.255985 0.657237
0.954665 0.254139 0.657404
0.0390784 0.383368 0.75523
0.0718395 0.396139 0.721996
0.22118 0.421088 0.648783
0.349691 0.437598 0.622431
0.504936 0.387717 0.629602
0.633097 0.385916 0.647684
0.759304 0.38436 0.651347
0.881025 0.3879 0.643702
0.961379 0.383017 0.64802
0.0470588 0.52166 0.791409
0.0473335 0.525917 0.780438
0.238987 0.53135 0.758328
0.392126 0.541711 0.722377
0.525231 0.528054 0.666255
0.632029 0.509667 0.646571
0.75761 0.508309 0.647639
0.881331 0.509972 0.637461
0.967834 0.506111 0.644266
0.0606546 0.656886 0.691936
0.160693 0.657206 0.720546
0.289479 0.659541 0.728969
0.415381 0.662501 0.714366
0.520455 0.650614 0.678645
0.634119 0.635493 0.655848
0.762478 0.629618 0.644587
0.890654 0.628992 0.640864
0.974136 0.626673 0.64271
0.106416 0.761151 0.641367
0.206546 0.753429 0.645045
0.321279 0.743557 0.649851
0.426154 0.733318 0.644144
0.534646 0.726177 0.644862
0.64387 0.733898 0.65948
0.756924 0.753307 0.658183
0.89305 0.753231 0.634836
0.980591 0.751568 0.634455
0.149264 0.866529 0.634455
0.229328 0.858244 0.637049
0.344991 0.845121 0.645792
0.457603 0.827771 0.649653
0.561639 0.819913 0.658015
0.665202 0.836011 0.683986
0.732067 0.859831 0.686046
0.885054 0.87599 0.674617
0.986984 0.875669 0.633036
0.180148 0.94728 0.648768
0.259785 0.946502 0.654765
0.371817 0.936309 0.662226
0.484932 0.924468 0.671061
0.586038 0.914076 0.682261
0.682094 0.922148 0.702541
0.737758 0.930083 0.699367
0.845335 0.976806 0.70457
0.993317 0.994278 0.690578
0.0301213 0.0361334 0.746059
0.127871 0.0387427 0.704265
0.247181 0.0378424 0.686931
0.371649 0.0286259 0.710399
0.498573 0.024918 0.743175
0.625116 0.0270695 0.763424
0.753079 0.0292821 0.768963
0.881605 0.0316167 0.773281
0.937484 0.0326696 0.773709
0.0261234 0.121996 0.788739
0.124498 0.187472 0.711055
0.235584 0.160876 0.711803
0.373785 0.140536 0.703593
0.504891 0.120775 0.744442
0.633417 0.110552 0.772259
0.762325 0.115251 0.778805
0.890089 0.11989 0.782452
0.948241 0.119829 0.782238
0.0325475 0.249805 0.833234
0.10988 0.268238 0.795972
0.191623 0.349081 0.623285
0.282597 0.336294 0.747051
0.502358 0.263371 0.733181
0.635142 0.252262 0.773205
0.763973 0.25388 0.780438
0.890196 0.255558 0.78233
0.955337 0.254826 0.781369
0.0395361 0.382788 0.884215
0.0784924 0.392279 0.86389
0.226413 0.433783 0.738048
0.331884 0.460365 0.701976
0.482734 0.429603 0.761547
0.629831 0.387793 0.764233
0.757244 0.386328 0.772503
0.883085 0.384482 0.774334
0.962051 0.383429 0.771481
0.0470436 0.518593 0.935256
0.0475471 0.523018 0.918059
0.233768 0.538628 0.843748
0.381323 0.551034 0.822492
0.508522 0.550912 0.775341
0.626917 0.51342 0.752926
0.755077 0.50985 0.77026
0.880674 0.508049 0.77084
0.968536 0.50721 0.7682
0.0551308 0.654475 0.934783
0.0551461 0.65478 0.934554
0.22414 0.652873 0.936645
0.388937 0.663722 0.908995
0.52575 0.662882 0.854795
0.649424 0.650538 0.790234
0.757763 0.630671 0.774472
0.88394 0.629984 0.772976
0.97499 0.629709 0.770443
0.0691386 0.78143 0.824216
0.152117 0.779171 0.825132
0.282551 0.779751 0.833661
0.411521 0.785 0.831205
0.529503 0.782513 0.818173
0.641001 0.774639 0.800046
0.759594 0.759136 0.780011
0.889326 0.75375 0.770916
0.981414 0.752483 0.769711
0.115984 0.886595 0.770993
0.206729 0.878874 0.763561
0.323964 0.869429 0.757748
0.440345 0.858412 0.745464
0.548104 0.848798 0.745068
0.656886 0.848585 0.759579
0.769162 0.859724 0.784207
0.883711 0.879072 0.783062
0.987961 0.879438 0.760403
0.154681 0.961364 0.741924
0.240879 0.961257 0.743435
0.352789 0.959075 0.7467
0.46833 0.945785 0.750332
0.574456 0.928206 0.755444
0.679683 0.930861 0.775174
0.785718 0.947646 0.803494
0.854231 0.962676 0.806119
0.994049 0.995102 0.799847
0.0374762 0.0438087 0.8701
0.140276 0.0480507 0.824765
0.258457 0.0481727 0.797909
0.378241 0.0392615 0.813199
0.500587 0.0310826 0.847639
0.624002 0.0277562 0.878309
0.753567 0.0300755 0.894118
0.882383 0.0324102 0.899046
0.939529 0.0334783 0.899336
0.0272374 0.130694 0.911849
0.14107 0.172839 0.860594
0.254444 0.164431 0.825025
0.384497 0.149859 0.807202
0.504112 0.136995 0.840742
0.631662 0.122255 0.882002
0.761242 0.117983 0.902205
0.890394 0.12166 0.907927
0.948959 0.121187 0.907546
0.033463 0.255528 0.950607
0.120424 0.265049 0.934264
0.229679 0.355871 0.764477
0.322744 0.323415 0.881041
0.492256 0.289708 0.822873
0.630732 0.262974 0.874632
0.761471 0.256123 0.902419
0.889509 0.256748 0.907073
0.956024 0.255512 0.906279
0.0399786 0.385092 0.955962
0.0913252 0.394491 0.956771
0.245136 0.437156 0.865568
0.326909 0.477913 0.78381
0.434745 0.461524 0.912322
0.62388 0.396017 0.857588
0.753552 0.386816 0.894499
0.881102 0.385977 0.897993
0.962707 0.383612 0.896651
0.0470283 0.517021 0.96144
0.0601816 0.521187 0.961685
0.240482 0.538476 0.964767
0.371115 0.560555 0.913069
0.492973 0.572396 0.886183
0.621683 0.536324 0.864988
0.750515 0.511681 0.887739
0.879057 0.508476 0.895338
0.969192 0.507225 0.894011
0.0542458 0.641154 0.966613
0.0543679 0.643183 0.966705
0.212863 0.648676 0.968811
0.361166 0.66302 0.971969
0.516075 0.674006 0.975509
0.644968 0.667231 0.931701
0.751736 0.634928 0.880385
0.882551 0.630381 0.899245
0.975662 0.63006 0.897368
0.0637369 0.782116 0.972519
0.0738994 0.78233 0.97258
0.223163 0.783139 0.974472
0.376257 0.788449 0.977356
0.527199 0.800916 0.980865
0.652689 0.78822 0.983047
0.77409 0.775555 0.916991
0.885084 0.754559 0.902831
0.982208 0.754269 0.899916
0.0776226 0.907637 0.959838
0.154467 0.904997 0.954421
0.279683 0.90454 0.954253
0.40882 0.908644 0.953307
0.53756 0.915511 0.95404
0.651057 0.908034 0.939956
0.766445 0.90132 0.928084
0.885847 0.884581 0.905425
0.988785 0.879789 0.899123
0.109407 0.976608 0.90425
0.203403 0.976577 0.89427
0.320897 0.977035 0.883467
0.445151 0.97763 0.873503
0.560052 0.969573 0.863172
0.667887 0.965972 0.868803
0.777951 0.965545 0.884077
0.892363 0.973739 0.908217
0.994751 0.996033 0.91107
0.0439002 0.0500343 0.925231
0.149416 0.0538949 0.885847
0.266377 0.0543526 0.860456
0.384543 0.0466621 0.868772
0.503471 0.0364233 0.895125
0.626398 0.0288243 0.917739
0.752148 0.0302739 0.931502
0.882368 0.0326696 0.940688
0.941253 0.0337835 0.943633
0.0315862 0.139178 0.945785
0.151247 0.159487 0.947936
0.275578 0.161349 0.904479
0.391608 0.158999 0.886152
0.50573 0.147097 0.904616
0.632212 0.133059 0.939712
0.759884 0.120546 0.947295
0.889464 0.121691 0.95024
0.949264 0.122545 0.951614
0.0336919 0.260212 0.950805
0.128588 0.269902 0.952148
0.282475 0.288945 0.955352
0.40528 0.288258 0.923491
0.510491 0.281453 0.908415
0.629007 0.271229 0.937514
0.758907 0.259815 0.954482
0.888029 0.256809 0.957214
0.956298 0.255543 0.958679
0.0401617 0.388479 0.9561
0.101381 0.39791 0.957031
0.262364 0.404883 0.959731
0.416892 0.421057 0.963241
0.524865 0.41471 0.939773
0.622889 0.401053 0.924346
0.750149 0.391379 0.958877
0.879225 0.385245 0.963684
0.963043 0.383246 0.965454
0.046952 0.515602 0.961379
0.0652934 0.520516 0.961685
0.240558 0.525795 0.964263
0.404639 0.535775 0.967666
0.548226 0.550088 0.97116
0.64065 0.532143 0.948745
0.746563 0.516228 0.952285
0.876326 0.509209 0.970031
0.969589 0.507195 0.97203
0.0541085 0.638956 0.966522
0.0542611 0.64152 0.966628
0.215061 0.648066 0.968811
0.387732 0.658061 0.972274
0.53959 0.67071 0.975875
0.666285 0.667201 0.978454
0.750683 0.639078 0.947188
0.879042 0.632029 0.976455
0.976089 0.630121 0.978561
0.062089 0.760098 0.971603
0.0622568 0.762249 0.971695
0.194751 0.771466 0.973556
0.367834 0.784787 0.97705
0.525917 0.803021 0.980926
0.657984 0.79173 0.983307
0.783383 0.783322 0.985794
0.880735 0.757382 0.976883
0.982666 0.754635 0.985168
0.0752728 0.898314 0.976822
0.111315 0.900465 0.977218
0.24506 0.904692 0.979355
0.388586 0.91632 0.982483
0.534936 0.940703 0.986419
0.655009 0.927199 0.988693
0.775738 0.91281 0.990845
0.89778 0.896971 0.993057
0.989288 0.880156 0.991821
0.0872358 0.979873 0.979858
0.174121 0.98085 0.98085
0.293889 0.98291 0.98291
0.419791 0.985473 0.985458
0.541863 0.988174 0.988174
0.657557 0.990768 0.990768
0.773922 0.993194 0.993194
0.889479 0.995697 0.995697
0.99411 0.996551 0.996582
