bundles/resolve-cinematic-luts/Lens Distortions - Finishing LUTs/LD - Amber X 1.cube
TITLE "LD - Amber X 1"
# Copyright (c) Lens Distortions, LLC. All Rights Reserved.
# LensDistortions.com
# ref-AM6
LUT_3D_SIZE 5
0.0166629 0.0152132 0.0189822
0.255085 0.0170901 0.0180209
0.522606 0.0209049 0.0209201
0.781445 0.0253452 0.0260624
0.95021 0.0284886 0.0284886
0.0770733 0.231342 0.0846571
0.264073 0.239384 0.0603799
0.521385 0.251347 0.0305943
0.784573 0.255894 0.0350805
0.959991 0.25507 0.03888
0.145663 0.475242 0.16347
0.216648 0.484077 0.146502
0.520348 0.505928 0.103944
0.774639 0.506523 0.0454261
0.970855 0.507698 0.0489662
0.208621 0.699046 0.236179
0.246967 0.698573 0.211566
0.437995 0.751095 0.158755
0.769543 0.750118 0.143648
0.98085 0.740856 0.0598001
0.263767 0.894987 0.293935
0.28304 0.895338 0.266407
0.454994 0.92192 0.254582
0.67509 0.975265 0.179232
0.990967 0.993591 0.189639
0.0182193 0.0209049 0.242817
0.244388 0.0184634 0.267536
0.507118 0.0221103 0.266804
0.760952 0.0264134 0.273854
0.946288 0.0298466 0.275685
0.0319677 0.248341 0.271489
0.229679 0.240177 0.25861
0.484199 0.270619 0.246265
0.740032 0.291539 0.255756
0.960861 0.248188 0.262989
0.117723 0.489723 0.298817
0.336263 0.469947 0.404135
0.5552 0.487999 0.329885
0.77734 0.500511 0.250736
0.971496 0.499046 0.237232
0.195239 0.707774 0.364828
0.373922 0.696101 0.430655
0.472236 0.72723 0.373037
0.769589 0.744533 0.343618
0.981842 0.742092 0.232715
0.257496 0.904295 0.418738
0.387854 0.907301 0.431052
0.490578 0.915328 0.393332
0.68838 0.964614 0.389807
0.992081 0.994339 0.373983
0.024094 0.0318761 0.477821
0.238392 0.027039 0.480034
0.507469 0.0236973 0.524071
0.759258 0.0279088 0.528862
0.940612 0.0312505 0.530678
0.0303655 0.234272 0.551125
0.165637 0.256733 0.387488
0.50721 0.251942 0.522744
0.754955 0.262333 0.513664
0.957992 0.254566 0.526787
0.0506294 0.511406 0.538949
0.262379 0.469459 0.537316
0.498894 0.501335 0.519768
0.755627 0.508919 0.508736
0.972992 0.499931 0.514809
0.132403 0.736233 0.521096
0.346227 0.71368 0.558343
0.545754 0.709361 0.569604
0.760113 0.747692 0.551934
0.983597 0.749035 0.500679
0.208789 0.929412 0.56556
0.387717 0.921706 0.584024
0.584451 0.907271 0.608652
0.704326 0.928145 0.599283
0.993301 0.994492 0.580453
0.0409247 0.0477607 0.696925
0.252003 0.0495308 0.671214
0.503227 0.0294499 0.747707
0.759991 0.0294499 0.776257
0.943572 0.0328069 0.778332
0.0320287 0.246021 0.769757
0.180621 0.308629 0.539788
0.489296 0.262806 0.71426
0.757778 0.256641 0.77438
0.958175 0.256001 0.773159
0.0453193 0.490608 0.866392
0.222339 0.47895 0.731334
0.454261 0.488914 0.674678
0.753323 0.507134 0.768627
0.970382 0.504158 0.766094
0.0671397 0.751675 0.792142
0.275792 0.721798 0.76936
0.491096 0.711543 0.741817
0.750683 0.74995 0.770031
0.985107 0.750912 0.768399
0.162005 0.958206 0.734081
0.356786 0.947448 0.737011
0.571283 0.924132 0.751247
0.784482 0.947982 0.802396
0.994598 0.995865 0.798505
0.054551 0.0605173 0.856703
0.266285 0.064744 0.829816
0.502937 0.0466621 0.891844
0.75787 0.0304265 0.939147
0.946136 0.0339055 0.948653
0.033341 0.254536 0.936355
0.262913 0.267491 0.867628
0.490684 0.275257 0.870283
0.750011 0.261128 0.95317
0.959121 0.256413 0.961639
0.0452888 0.485267 0.960113
0.231266 0.474113 0.917235
0.480079 0.480156 0.857969
0.728893 0.503441 0.927825
0.971405 0.504051 0.973953
0.0594339 0.722057 0.970016
0.196948 0.704875 0.96112
0.455924 0.669078 0.881437
0.731868 0.730571 0.927977
0.983734 0.752972 0.986313
0.0988937 0.977066 0.976944
0.295613 0.962295 0.96202
0.511208 0.932769 0.932677
0.747372 0.964294 0.964401
0.994751 0.997223 0.997253
