bundles/resolve-cinematic-luts/Gamut/_Conversion/Sony/Sony FX30 BaseLUTs/BaseLUT - Sony FX30 - S-Log3 to Rec709 (Bold).cube
TITLE "BaseLUT - Sony FX3 - S-Log3 to Rec709 (Bold)"
# Developed for converting S-Log3 / S-Gamut3.Cine to Rec.709. Version 1.0 - 05/01/2025 - Copyright 2025 Gamut, LLC.
LUT_3D_SIZE 5
0.0000000000 0.0000000000 0.0000000000
0.0230837130 0.0000000000 0.0000000000
0.6012002740 0.0090751603 0.0078912262
0.9641154679 0.1059443733 0.0368861147
1.0000000000 0.5020236115 0.3751955035
0.0000000000 0.0757746843 0.0000000000
0.1222735701 0.1388952569 0.0000000000
0.6377543918 0.0159808589 0.0082860377
0.9663099302 0.1147131639 0.0386597130
1.0000000000 0.5036650466 0.3758049871
0.0000000000 0.5663638815 0.0000000000
0.0000000000 0.5815637169 0.0000000000
0.5665240672 0.5805584679 0.0000000000
0.9705617385 0.3235570681 0.0873203557
1.0000000000 0.5170333863 0.3805446944
0.4816851565 0.8904814724 0.1778391905
0.4849011723 0.8915257118 0.1789020910
0.5081866418 0.8992901200 0.1873271341
0.9050847974 0.9141596557 0.2640318290
1.0000000000 0.7320017440 0.3838704197
0.9692230963 0.9974536609 0.7226020126
0.9693625538 0.9975067139 0.7228073957
0.9703435365 0.9975587843 0.7236915450
0.9775315205 0.9982531389 0.7322312247
1.0000000000 1.0000000000 0.7488349986
0.0013808395 0.0019723061 0.0737068540
0.0994691781 0.0000000000 0.1095444471
0.6204181353 0.0082860377 0.0268923254
0.9661557799 0.0954096058 0.0425989811
1.0000000000 0.5000616759 0.3803377094
0.0000000000 0.1524320530 0.1445430110
0.1615310323 0.1615289036 0.1615340889
0.6623643146 0.0122216545 0.0226889015
0.9685258092 0.1036482250 0.0447857038
1.0000000000 0.5017769567 0.3810514336
0.0000000000 0.5851512733 0.0201243781
0.0000000000 0.5991706411 0.0128241182
0.5831506223 0.5926035325 0.0029590847
0.9725933318 0.3177872805 0.0967158521
1.0000000000 0.5150641665 0.3858487475
0.4844499028 0.8913998908 0.1855441114
0.4876789481 0.8924350892 0.1863832541
0.5112589534 0.9003025711 0.1932926846
0.9062182225 0.9150543885 0.2657649578
1.0000000000 0.7323260641 0.3911219319
0.9694253096 0.9975067139 0.7236607375
0.9695366265 0.9975067139 0.7237428907
0.9705091032 0.9975853108 0.7246150176
0.9776350260 0.9982531389 0.7328984694
1.0000000000 1.0000000000 0.7488349986
0.0169673873 0.0504567468 0.5842525663
0.0268038623 0.0470823469 0.5924270112
0.5561471674 0.0110482094 0.5706827371
0.9721780567 0.0675223001 0.3534329962
1.0000000000 0.4851215872 0.4241611614
0.0169673873 0.0614329099 0.6104205225
0.0230834629 0.0603907836 0.6227616150
0.5788163741 0.0138103964 0.5913491944
0.9743418977 0.0709585640 0.3538495198
1.0000000000 0.4863316803 0.4246840154
0.0000000000 0.5890265477 0.5756673949
0.0000000000 0.5950588780 0.5837041507
0.5818298120 0.5818278481 0.5818315129
0.9793931154 0.2052221349 0.3219385831
1.0000000000 0.5004748604 0.4297056024
0.4829304700 0.8889374646 0.3285654642
0.4861109055 0.8899990327 0.3284547820
0.5107521290 0.8984770039 0.3262260778
0.9139303996 0.9211340914 0.2997341558
1.0000000000 0.7349411631 0.4513020394
0.9706054778 0.9975327491 0.7309355578
0.9707156908 0.9975587843 0.7310567839
0.9716374724 0.9976516269 0.7316849557
0.9784733452 0.9983059462 0.7381616378
1.0000000000 1.0000000000 0.7501711436
0.0419418048 0.3339019690 0.9420923547
0.0528009038 0.3312320664 0.9428444739
0.3161288565 0.3125527772 0.9360299172
0.9023860352 0.2343410057 0.9325394610
1.0000000000 0.4636854059 0.7990545924
0.0413683571 0.3369770241 0.9439940542
0.0507805529 0.3349043420 0.9445338891
0.3163180233 0.3154989717 0.9381251962
0.9035924877 0.2360943845 0.9337878834
1.0000000000 0.4646521236 0.7991810738
0.0447409899 0.3777202236 0.9550841172
0.0484939525 0.3765523563 0.9559787960
0.2869187290 0.3527278953 0.9525382444
0.9131284198 0.2524612586 0.9445482109
1.0000000000 0.4727237515 0.8003276385
0.5858853267 0.9056495548 0.8969256384
0.5869735812 0.9060174229 0.8974362976
0.5951945256 0.9092335765 0.9017251348
0.9111779761 0.9111780100 0.9111790068
1.0000000000 0.7062185642 0.8043226533
0.9762759213 0.9972218000 0.8437540878
0.9763523600 0.9972350633 0.8438728437
0.9768104908 0.9972881162 0.8438708393
0.9832124389 0.9981148575 0.8438269949
1.0000000000 1.0000000000 0.7748921788
0.5122429793 0.7316144588 1.0000000000
0.5146411846 0.7319372797 1.0000000000
0.5347511247 0.7338556332 1.0000000000
0.7783772829 0.7586463290 1.0000000000
1.0000000000 0.7380356937 1.0000000000
0.5121473896 0.7319072964 1.0000000000
0.5145774581 0.7321898896 1.0000000000
0.5343130298 0.7340596921 1.0000000000
0.7784985657 0.7589817967 1.0000000000
1.0000000000 0.7382650105 1.0000000000
0.5115738516 0.7339361321 1.0000000000
0.5136108574 0.7340497358 1.0000000000
0.5318427928 0.7359987623 1.0000000000
0.7792217705 0.7609916191 1.0000000000
1.0000000000 0.7393098975 1.0000000000
0.5469571923 0.7716455175 1.0000000000
0.5476633305 0.7716830680 1.0000000000
0.5535239378 0.7720598164 1.0000000000
0.7705683084 0.7904497849 1.0000000000
1.0000000000 0.7569083127 1.0000000000
0.9861135633 1.0000000000 1.0000000000
0.9861135633 1.0000000000 1.0000000000
0.9863582245 1.0000000000 1.0000000000
0.9886240752 1.0000000000 1.0000000000
1.0000000000 1.0000000000 1.0000000000
