bundles/resolve-cinematic-luts/Gamut/_Conversion/Sony/Sony FX30 BaseLUTs/BaseLUT - Sony FX30 - S-Log3 to DWG.cube
TITLE "BaseLUT - Sony FX30 - S-Log3 to DWG"
# Developed for converting S-Log3 / S-Gamut3.Cine to DaVinci Intermediate / DaVinci Wide Gamut. Version 1.0 - 05/01/2025 - Copyright 2025 Gamut, LLC.
LUT_3D_SIZE 5
0.0000000000 0.0000000000 0.0000000000
0.1509420000 0.0000000000 0.0000000000
0.3974980000 0.0000000000 0.0000000000
0.6354620000 0.0000000000 0.1409320000
0.8725720000 0.0000000000 0.3943540000
0.0000000000 0.1703820000 0.0000000000
0.1698790000 0.1718780000 0.0000000000
0.4003810000 0.1506070000 0.0000000000
0.6361030000 0.0000000000 0.1643400000
0.8726330000 0.0000000000 0.3967190000
0.1927370000 0.4145570000 0.2145420000
0.2546730000 0.4147250000 0.2128630000
0.4141150000 0.4158850000 0.1993290000
0.6382240000 0.3966120000 0.2758980000
0.8731670000 0.0000000000 0.4137640000
0.4395360000 0.6522930000 0.4594950000
0.4473950000 0.6523230000 0.4593270000
0.4949870000 0.6524450000 0.4580150000
0.6518500000 0.6536050000 0.4455330000
0.8753190000 0.6345310000 0.5173270000
0.6775310000 0.8893870000 0.6973070000
0.6783860000 0.8893870000 0.6972920000
0.6849470000 0.8894030000 0.6971540000
0.7323260000 0.8895250000 0.6958420000
0.8889300000 0.8906840000 0.6834670000
0.0000000000 0.0000000000 0.1629982582
0.1176320000 0.0000000000 0.1591820000
0.3945370000 0.0000000000 0.1685660000
0.6351570000 0.0000000000 0.2317390000
0.8725410000 0.0000000000 0.4066990000
0.0000000000 0.1823150000 0.1798890000
0.1790203756 0.1790203756 0.1790203756
0.4005650000 0.1646300000 0.1870300000
0.6357820000 0.0000000000 0.2422980001
0.8726020000 0.0000000000 0.4088040000
0.2001680000 0.4156250000 0.2703900000
0.2588690000 0.4154570000 0.2697950000
0.4150450000 0.4166170000 0.2620580000
0.6383310000 0.3985050000 0.3088580000
0.8731370000 0.0000000000 0.4241400000
0.4402840000 0.6523690000 0.4665750125
0.4480960000 0.6523990000 0.4664230000
0.4954300000 0.6525220000 0.4651870000
0.6519570000 0.6536810000 0.4535590000
0.8753190000 0.6347300000 0.5211870000
0.6776070000 0.8893870000 0.6980700000
0.6784620000 0.8893870000 0.6980540000
0.6850230000 0.8894030000 0.6979170000
0.7323720000 0.8895400000 0.6966200000
0.8889450000 0.8907000000 0.6843370000
0.0000000000 0.0625493240 0.4080260037
0.1553980000 0.0413519000 0.4077360595
0.3692530000 0.0000000000 0.4046850000
0.6326850000 0.0000000000 0.4133670000
0.8722670000 0.0000000000 0.4731060000
0.0423896000 0.2179750000 0.4098120000
0.1964900000 0.2155030000 0.4097200000
0.3766840000 0.1629982582 0.4068060000
0.6333260000 0.0000000000 0.4153510000
0.8723430000 0.0000000000 0.4742350000
0.2456700000 0.4252080000 0.4230410000
0.2873121902 0.4248870000 0.4229500000
0.4222480000 0.4222480000 0.4222480000
0.6383610000 0.4087430000 0.4298310000
0.8728770000 0.0000000000 0.4827650000
0.4459910000 0.6532840000 0.5100480000
0.4534070000 0.6532540000 0.5100020000
0.4988480000 0.6531320000 0.5094830000
0.6527350000 0.6543070000 0.5019450000
0.8754100000 0.6363160000 0.5477230000
0.6782330000 0.8894480000 0.7039899873
0.6790880000 0.8894480000 0.7039749931
0.6856030000 0.8894640000 0.7038380000
0.7327540000 0.8896010000 0.7026170000
0.8890360000 0.8907610000 0.6910350000
0.2388950000 0.3309990000 0.6458530000
0.2827340000 0.3301590000 0.6458380000
0.4028230000 0.3166250150 0.6455790144
0.6076910000 0.0000000000 0.6425570000
0.8697950000 0.0000000000 0.6511790000
0.2504770000 0.3558100000 0.6460520000
0.2905320000 0.3551380000 0.6460360000
0.4083010010 0.3454030000 0.6457920018
0.6084990000 0.0000000000 0.6427710000
0.8698710000 0.0000000000 0.6513770000
0.3139850000 0.4592050000 0.6475320000
0.3378040000 0.4589610000 0.6475320000
0.4388040000 0.4569620000 0.6474560000
0.6146790000 0.4072181915 0.6445410105
0.8704200000 0.0000000000 0.6530400000
0.4885020000 0.6628210000 0.6606700000
0.4935070000 0.6627910000 0.6606700000
0.5266039974 0.6625160000 0.6605940000
0.6598918739 0.6598918739 0.6598918739
0.8754410000 0.6464790000 0.6674300000
0.6838940000 0.8903640000 0.7473260000
0.6847030000 0.8903640000 0.7473260000
0.6908830000 0.8903330000 0.7472950000
0.7361710000 0.8902110000 0.7467770000
0.8898150000 0.8913710000 0.7392540000
0.4826730000 0.5708548563 0.8829480000
0.4879530000 0.5707638979 0.8829480000
0.5225150000 0.5700770000 0.8829330000
0.6408790000 0.5569850000 0.8826730006
0.8448460000 0.0000000000 0.8796520000
0.4838940000 0.5737090000 0.8829630000
0.4891130000 0.5736170000 0.8829630000
0.5233540000 0.5729460000 0.8829630000
0.6414740000 0.5603420000 0.8826890005
0.8449380000 0.0000000000 0.8796670000
0.4930500000 0.5939730000 0.8831310000
0.4978560000 0.5938960000 0.8831310000
0.5297470000 0.5933470000 0.8831160000
0.6460360000 0.5837340000 0.8828720000
0.8456090000 0.0000000000 0.8798660000
0.5540860000 0.6966510000 0.8846110000
0.5568020048 0.6966200000 0.8846110000
0.5762260000 0.6964220000 0.8846110000
0.6763560000 0.6944230000 0.8845350000
0.8517890000 0.6449680938 0.8816360000
0.7261010000 0.8969710000 0.8969710000
0.7266500000 0.8969710000 0.8969710000
0.7308460000 0.8969710000 0.8969710000
0.7638510051 0.8969710000 0.8969710000
0.8969271751 0.8969271751 0.8969271751
