bundles/resolve-cinematic-luts/Gamut/_Conversion/Sony/Sony FX30 BaseLUTs/BaseLUT - Sony FX30 - S-Log3 to DWG.cube
TITLE "BaseLUT - Sony FX30 - S-Log3 to DWG"
# Developed for converting S-Log3 / S-Gamut3.Cine to DaVinci Intermediate / DaVinci Wide Gamut. Version 1.0 - 05/01/2025 - Copyright 2025 Gamut, LLC.
LUT_3D_SIZE 65
0.0000000000 0.0000000000 0.0000000000
0.0000000000 0.0000000000 0.0000000000
0.0000000000 0.0000000000 0.0000000000
0.0000000000 0.0000000000 0.0000000000
0.0000000000 0.0000000000 0.0000000000
0.0000000000 0.0000000000 0.0000000000
0.0000000000 0.0000000000 0.0000000000
0.0000000000 0.0000000000 0.0000000000
0.0081330600 0.0000000000 0.0000000000
0.0267643000 0.0000000000 0.0000000000
0.0461891000 0.0000000000 0.0000000000
0.0648661000 0.0000000000 0.0000000000
0.0829328000 0.0000000000 0.0000000000
0.1004960000 0.0000000000 0.0000000000
0.1176320000 0.0000000000 0.0000000000
0.1344320000 0.0000000000 0.0000000000
0.1509420000 0.0000000000 0.0000000000
0.1672080000 0.0000000000 0.0000000000
0.1832610000 0.0000000000 0.0000000000
0.1991450000 0.0000000000 0.0000000000
0.2148780000 0.0000000000 0.0000000000
0.2304880000 0.0000000000 0.0000000000
0.2459910000 0.0000000000 0.0000000000
0.2613870000 0.0000000000 0.0000000000
0.2767220000 0.0000000000 0.0000000000
0.2919810000 0.0000000000 0.0000000000
0.3071790000 0.0000000000 0.0000000000
0.3223160000 0.0000000000 0.0000000000
0.3374230000 0.0000000000 0.0000000000
0.3524830000 0.0000000000 0.0000000000
0.3675140000 0.0000000000 0.0000000000
0.3825130000 0.0000000000 0.0000000000
0.3974980000 0.0000000000 0.0000000000
0.4124510000 0.0000000000 0.0000000000
0.4273750000 0.0000000000 0.0000000000
0.4422980000 0.0000000000 0.0000000000
0.4572060000 0.0000000000 0.0000000000
0.4720990000 0.0000000000 0.0000000000
0.4869760000 0.0000000000 0.0000000000
0.5018540000 0.0000000000 0.0000000000
0.5167160000 0.0000000000 0.0000000000
0.5315790000 0.0000000000 0.0013427900
0.5464410000 0.0000000000 0.0220800787
0.5612880000 0.0000000000 0.0444746361
0.5761200000 0.0000000000 0.0655680000
0.5909670000 0.0000000000 0.0855573000
0.6057980000 0.0000000000 0.1046620000
0.6206300000 0.0000000000 0.1230790000
0.6354620000 0.0000000000 0.1409320000
0.6502940000 0.0000000000 0.1583120000
0.6651100000 0.0000000000 0.1752960000
0.6799420000 0.0000000000 0.1919740000
0.6947590000 0.0000000000 0.2083770000
0.7095750000 0.0000000000 0.2245520000
0.7244070000 0.0000000000 0.2405430109
0.7392230000 0.0000000000 0.2563671953
0.7540400000 0.0000000000 0.2720381962
0.7688560000 0.0000000000 0.2876020608
0.7836730000 0.0000000000 0.3030590000
0.7984890000 0.0000000000 0.3184410000
0.8133060000 0.0000000000 0.3337300000
0.8281220000 0.0000000000 0.3489740000
0.8429390000 0.0000000000 0.3641410000
0.8577550000 0.0000000000 0.3792630000
0.8725720000 0.0000000000 0.3943540000
0.0000000000 0.0000000000 0.0000000000
0.0000000000 0.0000000000 0.0000000000
0.0000000000 0.0000000000 0.0000000000
0.0000000000 0.0000000000 0.0000000000
0.0000000000 0.0000000000 0.0000000000
0.0000000000 0.0000000000 0.0000000000
0.0000000000 0.0000000000 0.0000000000
0.0000000000 0.0000000000 0.0000000000
0.0124208000 0.0000000000 0.0000000000
0.0311131000 0.0000000000 0.0000000000
0.0499733000 0.0000000000 0.0000000000
0.0681926000 0.0000000000 0.0000000000
0.0858778000 0.0000000000 0.0000000000
0.1031360000 0.0000000000 0.0000000000
0.1200120000 0.0000000000 0.0000000000
0.1365990000 0.0000000000 0.0000000000
0.1529410000 0.0000000000 0.0000000000
0.1690550000 0.0000000000 0.0000000000
0.1849850000 0.0000000000 0.0000000000
0.2007630000 0.0000000000 0.0000000000
0.2164030000 0.0000000000 0.0000000000
0.2318150000 0.0000000000 0.0000000000
0.2471350000 0.0000000000 0.0000000000
0.2623790000 0.0000000000 0.0000000000
0.2775770000 0.0000000000 0.0000000000
0.2927140000 0.0000000000 0.0000000000
0.3078200000 0.0000000000 0.0000000000
0.3228810000 0.0000000000 0.0000000000
0.3379110000 0.0000000000 0.0000000000
0.3528950000 0.0000000000 0.0000000000
0.3678800000 0.0000000000 0.0000000000
0.3828340000 0.0000000000 0.0000000000
0.3977720000 0.0000000000 0.0000000000
0.4126800000 0.0000000000 0.0000000000
0.4275880000 0.0000000000 0.0000000000
0.4424810000 0.0000000000 0.0000000000
0.4573590000 0.0000000000 0.0000000000
0.4722360000 0.0000000000 0.0000000000
0.4870980000 0.0000000000 0.0000000000
0.5019610000 0.0000000000 0.0000000000
0.5168080000 0.0000000000 0.0000000000
0.5316550000 0.0000000000 0.0048371100
0.5465020000 0.0000000000 0.0255589000
0.5613340000 0.0000000000 0.0473945000
0.5761810000 0.0000000000 0.0679637000
0.5910120000 0.0000000000 0.0875410000
0.6058290000 0.0000000000 0.1063250000
0.6206610000 0.0000000000 0.1244830000
0.6354930000 0.0000000000 0.1421070000
0.6503090000 0.0000000000 0.1593040000
0.6651410000 0.0000000000 0.1761500000
0.6799570000 0.0000000000 0.1927060000
0.6947740000 0.0000000000 0.2090030000
0.7095900000 0.0000000000 0.2251010000
0.7244220000 0.0000000000 0.2410011985
0.7392390000 0.0000000000 0.2567644539
0.7540550000 0.0000000000 0.2723890093
0.7688720000 0.0000000000 0.2879070000
0.7836880000 0.0000000000 0.3033190000
0.7984890000 0.0000000000 0.3186690000
0.8133060000 0.0000000000 0.3339280000
0.8281220000 0.0000000000 0.3491420000
0.8429390000 0.0000000000 0.3642940000
0.8577550000 0.0000000000 0.3794000000
0.8725720000 0.0000000000 0.3944610000
0.0000000000 0.0000000000 0.0000000000
0.0000000000 0.0000000000 0.0000000000
0.0000000000 0.0000000000 0.0000000000
0.0000000000 0.0000000000 0.0000000000
0.0000000000 0.0000000000 0.0000000000
0.0000000000 0.0000000000 0.0000000000
0.0000000000 0.0000000000 0.0000000000
0.0000000000 0.0000000000 0.0000000000
0.0158083000 0.0000000000 0.0000000000
0.0342565000 0.0000000000 0.0000000000
0.0525521000 0.0000000000 0.0000000000
0.0703288000 0.0000000000 0.0000000000
0.0876631000 0.0000000000 0.0000000000
0.1046160000 0.0000000000 0.0000000000
0.1212790000 0.0000000000 0.0000000000
0.1376670000 0.0000000000 0.0000000000
0.1538410000 0.0000000000 0.0000000000
0.1698180000 0.0000000000 0.0000000000
0.1856410000 0.0000000000 0.0000000000
0.2013280000 0.0000000000 0.0000000000
0.2168920000 0.0000000000 0.0000000000
0.2323490000 0.0000000000 0.0000000000
0.2477300000 0.0000000000 0.0000000000
0.2630350000 0.0000000000 0.0000000000
0.2782640000 0.0000000000 0.0000000000
0.2934460000 0.0000000000 0.0000000000
0.3084610000 0.0000000000 0.0000000000
0.3234300000 0.0000000000 0.0000000000
0.3383840000 0.0000000000 0.0000000000
0.3533230000 0.0000000000 0.0000000000
0.3682460000 0.0000000000 0.0000000000
0.3831390000 0.0000000000 0.0000000000
0.3980320000 0.0000000000 0.0000000000
0.4129240000 0.0000000000 0.0000000000
0.4278020000 0.0000000000 0.0000000000
0.4426640000 0.0000000000 0.0000000000
0.4575110000 0.0000000000 0.0000000000
0.4723740000 0.0000000000 0.0000000000
0.4872210000 0.0000000000 0.0000000000
0.5020680000 0.0000000000 0.0000000000
0.5168990000 0.0000000000 0.0000000000
0.5317310000 0.0000000000 0.0083161700
0.5465630000 0.0000000000 0.0290379000
0.5613950000 0.0000000000 0.0502327000
0.5762260000 0.0000000000 0.0703136000
0.5910580000 0.0000000000 0.0894942000
0.6058750000 0.0000000000 0.1079730000
0.6206910000 0.0000000000 0.1258560000
0.6355230000 0.0000000000 0.1432820000
0.6503390000 0.0000000000 0.1603110000
0.6651560000 0.0000000000 0.1770050000
0.6799730000 0.0000000000 0.1934390000
0.6947890000 0.0000000000 0.2096280213
0.7096060000 0.0000000000 0.2256352771
0.7244220000 0.0000000000 0.2414743052
0.7392390000 0.0000000000 0.2571600220
0.7540550000 0.0000000000 0.2727250000
0.7688720000 0.0000000000 0.2881970000
0.7836880000 0.0000000000 0.3035780000
0.7985050000 0.0000000000 0.3188830000
0.8133210000 0.0000000000 0.3341120000
0.8281380000 0.0000000000 0.3492940000
0.8429390000 0.0000000000 0.3644310000
0.8577550000 0.0000000000 0.3795220000
0.8725720000 0.0000000000 0.3945680000
0.0000000000 0.0000000000 0.0000000000
0.0000000000 0.0000000000 0.0000000000
0.0000000000 0.0000000000 0.0000000000
0.0000000000 0.0000000000 0.0000000000
0.0000000000 0.0000000000 0.0000000000
0.0000000000 0.0000000000 0.0000000000
0.0000000000 0.0000000000 0.0000000000
0.0010833900 0.0000000000 0.0000000000
0.0195010000 0.0000000000 0.0000000000
0.0377203000 0.0000000000 0.0000000000
0.0553750000 0.0000000000 0.0000000000
0.0726329000 0.0000000000 0.0000000000
0.0895705000 0.0000000000 0.0000000000
0.1062030000 0.0000000000 0.0000000000
0.1225910000 0.0000000000 0.0000000000
0.1387810000 0.0000000000 0.0000000000
0.1547720000 0.0000000000 0.0000000000
0.1706110000 0.0000000000 0.0000000000
0.1863130000 0.0000000000 0.0000000000
0.2018920000 0.0000000000 0.0000000000
0.2173800000 0.0000000000 0.0000000000
0.2327760000 0.0000000000 0.0000000000
0.2480810000 0.0000000000 0.0000000000
0.2633400000 0.0000000000 0.0000000000
0.2785380000 0.0000000000 0.0000000000
0.2936750000 0.0000000000 0.0000000000
0.3087660000 0.0000000000 0.0000000000
0.3238270000 0.0000000000 0.0000000000
0.3388570000 0.0000000000 0.0000000000
0.3537350000 0.0000000000 0.0000000000
0.3685970000 0.0000000000 0.0000000000
0.3834590000 0.0000000000 0.0000000000
0.3983060000 0.0000000000 0.0000000000
0.4131530000 0.0000000000 0.0000000000
0.4280000000 0.0000000000 0.0000000000
0.4428320000 0.0000000000 0.0000000000
0.4576790000 0.0000000000 0.0000000000
0.4725110000 0.0000000000 0.0000000000
0.4873430000 0.0000000000 0.0000000000
0.5021590000 0.0000000000 0.0000000000
0.5169910000 0.0000000000 0.0000000000
0.5318070000 0.0000000000 0.0117952000
0.5466390000 0.0000000000 0.0324102000
0.5614560000 0.0000000000 0.0530098000
0.5762720000 0.0000000000 0.0726177000
0.5910890000 0.0000000000 0.0914168000
0.6059200000 0.0000000000 0.1095900000
0.6207370000 0.0000000000 0.1272300000
0.6355540000 0.0000000000 0.1444420000
0.6503700000 0.0000000000 0.1612880000
0.6651870000 0.0000000000 0.1778590000
0.6799880000 0.0000000000 0.1941561095
0.6948040000 0.0000000000 0.2102546702
0.7096210000 0.0000000000 0.2261690544
0.7244370000 0.0000000000 0.2419320053
0.7392540000 0.0000000000 0.2575570000
0.7540700000 0.0000000000 0.2730750000
0.7688870000 0.0000000000 0.2884870000
0.7836880000 0.0000000000 0.3038380000
0.7985050000 0.0000000000 0.3191120000
0.8133210000 0.0000000000 0.3343100000
0.8281380000 0.0000000000 0.3494620000
0.8429540000 0.0000000000 0.3645690000
0.8577550000 0.0000000000 0.3796440000
0.8725720000 0.0000000000 0.3946750000
0.0000000000 0.0000000000 0.0000000000
0.0000000000 0.0000000000 0.0000000000
0.0000000000 0.0000000000 0.0000000000
0.0000000000 0.0000000000 0.0000000000
0.0000000000 0.0000000000 0.0000000000
0.0000000000 0.0000000000 0.0000000000
0.0000000000 0.0000000000 0.0000000000
0.0038452700 0.0000000000 0.0000000000
0.0224012184 0.0000000000 0.0000000000
0.0405432000 0.0000000000 0.0000000000
0.0580758000 0.0000000000 0.0000000000
0.0751202000 0.0000000000 0.0000000000
0.0915999000 0.0000000000 0.0000000000
0.1078810000 0.0000000000 0.0000000000
0.1239950000 0.0000000000 0.0000000000
0.1399400000 0.0000000000 0.0000000000
0.1557490000 0.0000000000 0.0000000000
0.1714350000 0.0000000000 0.0000000000
0.1870150000 0.0000000000 0.0000000000
0.2024870000 0.0000000000 0.0000000000
0.2178840000 0.0000000000 0.0000000000
0.2332040000 0.0000000000 0.0000000000
0.2484630000 0.0000000000 0.0000000000
0.2636610000 0.0000000000 0.0000000000
0.2787980000 0.0000000000 0.0000000000
0.2939040000 0.0000000000 0.0000000000
0.3089650000 0.0000000000 0.0000000000
0.3240100000 0.0000000000 0.0000000000
0.3390100000 0.0000000000 0.0000000000
0.3539940000 0.0000000000 0.0000000000
0.3689480000 0.0000000000 0.0000000000
0.3837800000 0.0000000000 0.0000000000
0.3985810000 0.0000000000 0.0000000000
0.4133970000 0.0000000000 0.0000000000
0.4281990000 0.0000000000 0.0000000000
0.4430150000 0.0000000000 0.0000000000
0.4578320000 0.0000000000 0.0000000000
0.4726480000 0.0000000000 0.0000000000
0.4874490000 0.0000000000 0.0000000000
0.5022660000 0.0000000000 0.0000000000
0.5170820000 0.0000000000 0.0000000000
0.5318840000 0.0000000000 0.0152895000
0.5467000000 0.0000000000 0.0356756000
0.5615170000 0.0000000000 0.0557107000
0.5763330000 0.0000000000 0.0748608000
0.5911340000 0.0000000000 0.0933089000
0.6059510000 0.0000000000 0.1111770000
0.6207680000 0.0000000000 0.1285730000
0.6355690000 0.0000000000 0.1455860000
0.6503850000 0.0000000000 0.1622640280
0.6652020000 0.0000000000 0.1786832974
0.6800180000 0.0000000000 0.1948736347
0.6948200000 0.0000000000 0.2108641365
0.7096360000 0.0000000000 0.2267030000
0.7244530000 0.0000000000 0.2423900000
0.7392690000 0.0000000000 0.2579540000
0.7540700000 0.0000000000 0.2734110000
0.7688870000 0.0000000000 0.2887920000
0.7837030000 0.0000000000 0.3040970000
0.7985200000 0.0000000000 0.3193260000
0.8133210000 0.0000000000 0.3344930000
0.8281380000 0.0000000000 0.3496300000
0.8429540000 0.0000000000 0.3647210000
0.8577710000 0.0000000000 0.3797670000
0.8725720000 0.0000000000 0.3947810000
0.0000000000 0.0000000000 0.0000000000
0.0000000000 0.0000000000 0.0000000000
0.0000000000 0.0000000000 0.0000000000
0.0000000000 0.0000000000 0.0000000000
0.0000000000 0.0000000000 0.0000000000
0.0000000000 0.0000000000 0.0000000000
0.0000000000 0.0000000000 0.0000000000
0.0062714600 0.0000000000 0.0000000000
0.0250095000 0.0000000000 0.0000000000
0.0429541000 0.0000000000 0.0000000000
0.0602121000 0.0000000000 0.0000000000
0.0770428000 0.0000000000 0.0000000000
0.0935378000 0.0000000000 0.0000000000
0.1096820000 0.0000000000 0.0000000000
0.1254750000 0.0000000000 0.0000000000
0.1411610000 0.0000000000 0.0000000000
0.1567710000 0.0000000000 0.0000000000
0.1722900000 0.0000000000 0.0000000000
0.1877320000 0.0000000000 0.0000000000
0.2030980000 0.0000000000 0.0000000000
0.2184020000 0.0000000000 0.0000000000
0.2336460000 0.0000000000 0.0000000000
0.2488290000 0.0000000000 0.0000000000
0.2639660000 0.0000000000 0.0000000000
0.2790720000 0.0000000000 0.0000000000
0.2941480000 0.0000000000 0.0000000000
0.3091780000 0.0000000000 0.0000000000
0.3241780000 0.0000000000 0.0000000000
0.3391620000 0.0000000000 0.0000000000
0.3541160000 0.0000000000 0.0000000000
0.3690550000 0.0000000000 0.0000000000
0.3839780000 0.0000000000 0.0000000000
0.3988560000 0.0000000000 0.0000000000
0.4136260000 0.0000000000 0.0000000000
0.4284120000 0.0000000000 0.0000000000
0.4431980000 0.0000000000 0.0000000000
0.4579840000 0.0000000000 0.0000000000
0.4727700000 0.0000000000 0.0000000000
0.4875720000 0.0000000000 0.0000000000
0.5023730000 0.0000000000 0.0000000000
0.5171590000 0.0000000000 0.0007476920
0.5319600000 0.0000000000 0.0187686000
0.5467610000 0.0000000000 0.0388647000
0.5615780000 0.0000000000 0.0583505000
0.5763790000 0.0000000000 0.0770581000
0.5911800000 0.0000000000 0.0951553000
0.6059970000 0.0000000000 0.1127340000
0.6207980000 0.0000000000 0.1299000000
0.6355990000 0.0000000000 0.1467156340
0.6504160000 0.0000000000 0.1632420779
0.6652170000 0.0000000000 0.1795220000
0.6800340000 0.0000000000 0.1955900000
0.6948500000 0.0000000000 0.2114750000
0.7096510000 0.0000000000 0.2272220000
0.7244680000 0.0000000000 0.2428320000
0.7392690000 0.0000000000 0.2583500000
0.7540860000 0.0000000000 0.2737470000
0.7689020000 0.0000000000 0.2890820000
0.7837030000 0.0000000000 0.3043410000
0.7985200000 0.0000000000 0.3195390000
0.8133360000 0.0000000000 0.3346910000
0.8281530000 0.0000000000 0.3497980000
0.8429540000 0.0000000000 0.3648580000
0.8577710000 0.0000000000 0.3798890000
0.8725870000 0.0000000000 0.3949030000
0.0000000000 0.0000000000 0.0000000000
0.0000000000 0.0000000000 0.0000000000
0.0000000000 0.0000000000 0.0000000000
0.0000000000 0.0000000000 0.0000000000
0.0000000000 0.0000000000 0.0000000000
0.0000000000 0.0000000000 0.0000000000
0.0000000000 0.0000000000 0.0000000000
0.0084687600 0.0000000000 0.0000000000
0.0273594000 0.0000000000 0.0000000000
0.0451057000 0.0000000000 0.0000000000
0.0621507051 0.0000000000 0.0000000000
0.0787976000 0.0000000000 0.0000000000
0.0951095000 0.0000000000 0.0000000000
0.1111620000 0.0000000000 0.0000000000
0.1269860000 0.0000000000 0.0000000000
0.1424430000 0.0000000000 0.0000000000
0.1578390000 0.0000000000 0.0000000000
0.1731750000 0.0000000000 0.0000000000
0.1884790000 0.0000000000 0.0000000000
0.2037230000 0.0000000000 0.0000000000
0.2189210000 0.0000000000 0.0000000000
0.2340890000 0.0000000000 0.0000000000
0.2492100000 0.0000000000 0.0000000000
0.2643020000 0.0000000000 0.0000000000
0.2793470000 0.0000000000 0.0000000000
0.2943770000 0.0000000000 0.0000000000
0.3093770000 0.0000000000 0.0000000000
0.3243610000 0.0000000000 0.0000000000
0.3393150000 0.0000000000 0.0000000000
0.3542530000 0.0000000000 0.0000000000
0.3691770000 0.0000000000 0.0000000000
0.3840850000 0.0000000000 0.0000000000
0.3989780000 0.0000000000 0.0000000000
0.4138700000 0.0000000000 0.0000000000
0.4286110000 0.0000000000 0.0000000000
0.4433810000 0.0000000000 0.0000000000
0.4581370000 0.0000000000 0.0000000000
0.4729080000 0.0000000000 0.0000000000
0.4876940000 0.0000000000 0.0000000000
0.5024640000 0.0000000000 0.0000000000
0.5172500000 0.0000000000 0.0042267500
0.5320360000 0.0000000000 0.0222636014
0.5468380000 0.0000000000 0.0419318000
0.5616240000 0.0000000000 0.0609140000
0.5764250000 0.0000000000 0.0792248000
0.5912260000 0.0000000000 0.0969715898
0.6060270000 0.0000000000 0.1142910497
0.6208290000 0.0000000000 0.1312122923
0.6356300000 0.0000000000 0.1478450000
0.6504460000 0.0000000000 0.1642020000
0.6652480000 0.0000000000 0.1803460000
0.6800490000 0.0000000000 0.1962920000
0.6948650000 0.0000000000 0.2120850000
0.7096670000 0.0000000000 0.2277410000
0.7244830000 0.0000000000 0.2432900000
0.7392840000 0.0000000000 0.2587320000
0.7541010000 0.0000000000 0.2740980000
0.7689020000 0.0000000000 0.2893720000
0.7837190000 0.0000000000 0.3046010000
0.7985350000 0.0000000000 0.3197680000
0.8133360000 0.0000000000 0.3348740000
0.8281530000 0.0000000000 0.3499660000
0.8429540000 0.0000000000 0.3650110000
0.8577710000 0.0000000000 0.3800110000
0.8725870000 0.0000000000 0.3950100000
0.0000000000 0.0118715000 0.0000000000
0.0000000000 0.0121614000 0.0000000000
0.0000000000 0.0124361000 0.0000000000
0.0000000000 0.0127260000 0.0000000000
0.0000000000 0.0130007000 0.0000000000
0.0000000000 0.0132906000 0.0000000000
0.0000000000 0.0135653000 0.0000000000
0.0112459000 0.0137179000 0.0000000000
0.0295109000 0.0134432000 0.0000000000
0.0470283000 0.0122988000 0.0000000000
0.0639048000 0.0109102000 0.0000000000
0.0803862062 0.0092774900 0.0000000000
0.0965591000 0.0073853700 0.0000000000
0.1124590000 0.0052033300 0.0000000000
0.1281610000 0.0027008500 0.0000000000
0.1437090000 0.0000000000 0.0000000000
0.1589530000 0.0000000000 0.0000000000
0.1741050000 0.0000000000 0.0000000000
0.1892420000 0.0000000000 0.0000000000
0.2043640000 0.0000000000 0.0000000000
0.2194710000 0.0000000000 0.0000000000
0.2345460000 0.0000000000 0.0000000000
0.2496070000 0.0000000000 0.0000000000
0.2646370000 0.0000000000 0.0000000000
0.2796370000 0.0000000000 0.0000000000
0.2946210000 0.0000000000 0.0000000000
0.3095900000 0.0000000000 0.0000000000
0.3245290000 0.0000000000 0.0000000000
0.3394670000 0.0000000000 0.0000000000
0.3543760000 0.0000000000 0.0000000000
0.3692840000 0.0000000000 0.0000000000
0.3841760000 0.0000000000 0.0000000000
0.3990690000 0.0000000000 0.0000000000
0.4139310000 0.0000000000 0.0000000000
0.4288090000 0.0000000000 0.0000000000
0.4435490000 0.0000000000 0.0000000000
0.4582890000 0.0000000000 0.0000000000
0.4730450000 0.0000000000 0.0000000000
0.4878000000 0.0000000000 0.0000000000
0.5025710000 0.0000000000 0.0000000000
0.5173420000 0.0000000000 0.0077210700
0.5321280000 0.0000000000 0.0257420000
0.5468990000 0.0000000000 0.0449379236
0.5616850000 0.0000000000 0.0634318370
0.5764710000 0.0000000000 0.0813306000
0.5912720000 0.0000000000 0.0987716000
0.6060730000 0.0000000000 0.1158010000
0.6208590000 0.0000000000 0.1325090000
0.6356600000 0.0000000000 0.1489430000
0.6504620000 0.0000000000 0.1651480000
0.6652630000 0.0000000000 0.1811550000
0.6800640000 0.0000000000 0.1969940000
0.6948810000 0.0000000000 0.2126960000
0.7096820000 0.0000000000 0.2282750000
0.7244830000 0.0000000000 0.2437480000
0.7393000000 0.0000000000 0.2591290000
0.7541010000 0.0000000000 0.2744340000
0.7689170000 0.0000000000 0.2896770000
0.7837190000 0.0000000000 0.3048450000
0.7985350000 0.0000000000 0.3199820000
0.8133520000 0.0000000000 0.3350730000
0.8281530000 0.0000000000 0.3501340000
0.8429690000 0.0000000000 0.3651480000
0.8577710000 0.0000000000 0.3801480000
0.8725870000 0.0000000000 0.3951170000
0.0000000000 0.0329595000 0.0000000000
0.0000000000 0.0332341000 0.0000000000
0.0000000000 0.0334936000 0.0000000000
0.0000000000 0.0337682000 0.0000000000
0.0000000000 0.0340276000 0.0000000000
0.0000000000 0.0342870000 0.0000000000
0.0000000000 0.0345617000 0.0000000000
0.0141146000 0.0348211000 0.0000000000
0.0322728000 0.0349432000 0.0000000000
0.0488441000 0.0346838000 0.0000000000
0.0654917000 0.0335546000 0.0000000000
0.0818494000 0.0320439000 0.0000000000
0.0978866613 0.0302281000 0.0000000000
0.1136802329 0.0280766000 0.0000000000
0.1292740000 0.0255741000 0.0000000000
0.1447010000 0.0226951729 0.0000000000
0.1600060000 0.0194095000 0.0000000000
0.1750510000 0.0179294000 0.0000000000
0.1900360000 0.0172732000 0.0000000000
0.2050350000 0.0164645000 0.0000000000
0.2200350000 0.0154726000 0.0000000000
0.2350190000 0.0142977000 0.0000000000
0.2500040000 0.0128939000 0.0000000000
0.2649730000 0.0112459000 0.0000000000
0.2799270000 0.0093080000 0.0000000000
0.2948650000 0.0070344100 0.0000000000
0.3097890000 0.0044098600 0.0000000000
0.3247120000 0.0013580500 0.0000000000
0.3396200000 0.0000000000 0.0000000000
0.3545130000 0.0000000000 0.0000000000
0.3694060000 0.0000000000 0.0000000000
0.3842830000 0.0000000000 0.0000000000
0.3991450000 0.0000000000 0.0000000000
0.4140080000 0.0000000000 0.0000000000
0.4288700000 0.0000000000 0.0000000000
0.4437170000 0.0000000000 0.0000000000
0.4584420000 0.0000000000 0.0000000000
0.4731820000 0.0000000000 0.0000000000
0.4879220000 0.0000000000 0.0000000000
0.5026780000 0.0000000000 0.0000000000
0.5174330000 0.0000000000 0.0112001000
0.5322040000 0.0000000000 0.0292058000
0.5469750000 0.0000000000 0.0478523000
0.5617460000 0.0000000000 0.0658732000
0.5765320000 0.0000000000 0.0834058000
0.5913180000 0.0000000000 0.1005260000
0.6061040000 0.0000000000 0.1173110000
0.6208900000 0.0000000000 0.1338060000
0.6356910000 0.0000000000 0.1500420000
0.6504920000 0.0000000000 0.1660940000
0.6652930000 0.0000000000 0.1819790000
0.6800950000 0.0000000000 0.1976960000
0.6948960000 0.0000000000 0.2133060000
0.7096970000 0.0000000000 0.2287940000
0.7244980000 0.0000000000 0.2441900000
0.7393150000 0.0000000000 0.2595100000
0.7541160000 0.0000000000 0.2747690000
0.7689170000 0.0000000000 0.2899670000
0.7837340000 0.0000000000 0.3051040000
0.7985350000 0.0000000000 0.3201950000
0.8133520000 0.0000000000 0.3352560000
0.8281530000 0.0000000000 0.3502860000
0.8429690000 0.0000000000 0.3652860000
0.8577860000 0.0000000000 0.3802700000
0.8725870000 0.0000000000 0.3952240000
0.0000000000 0.0518654000 0.0000000000
0.0000000000 0.0520943000 0.0000000000
0.0000000000 0.0523232000 0.0000000000
0.0000000000 0.0525368000 0.0000000000
0.0000000000 0.0527657000 0.0000000000
0.0000000000 0.0529793000 0.0000000000
0.0000000000 0.0532082000 0.0000000000
0.0170596000 0.0534218000 0.0000000000
0.0350500000 0.0536507000 0.0000000000
0.0512245000 0.0537575000 0.0000000000
0.0670634000 0.0534829000 0.0000000000
0.0832227000 0.0523995000 0.0000000000
0.0991684000 0.0509346000 0.0000000000
0.1148550000 0.0491951000 0.0000000000
0.1303433883 0.0471351000 0.0000000000
0.1456780000 0.0447137238 0.0000000000
0.1608910000 0.0418555000 0.0000000000
0.1760130000 0.0385138000 0.0000000000
0.1908750000 0.0372625000 0.0000000000
0.2057370000 0.0365759000 0.0000000000
0.2206150000 0.0357061000 0.0000000000
0.2355080000 0.0346532000 0.0000000000
0.2504160000 0.0333715000 0.0000000000
0.2653240000 0.0318303000 0.0000000000
0.2802170000 0.0299840000 0.0000000000
