bundles/resolve-cinematic-luts/Gamut/_Conversion/Sony/Sony FX30 BaseLUTs/BaseLUT - Sony FX30 - S-Log3 to Rec709 (Bold).cube
TITLE "BaseLUT - Sony FX3 - S-Log3 to Rec709 (Bold)"
# Developed for converting S-Log3 / S-Gamut3.Cine to Rec.709. Version 1.0 - 05/01/2025 - Copyright 2025 Gamut, LLC.
LUT_3D_SIZE 33
0.0000000000 0.0000000000 0.0000000000
0.0000000000 0.0000000000 0.0000000000
0.0000000000 0.0000000000 0.0000000000
0.0000000000 0.0000000000 0.0000000000
0.0000000000 0.0000000000 0.0000000000
0.0000000000 0.0000000000 0.0000000000
0.0000000000 0.0000000000 0.0000000000
0.0030821193 0.0000000000 0.0000000000
0.0230837130 0.0000000000 0.0000000000
0.0848705768 0.0000000000 0.0000000000
0.1662242145 0.0013314880 0.0013314880
0.2493679376 0.0020957786 0.0020957786
0.3288258052 0.0036493794 0.0036493794
0.3992910719 0.0044139514 0.0044139514
0.4680047744 0.0059679587 0.0055243587
0.5346546292 0.0075215595 0.0067324682
0.6012002740 0.0090751603 0.0078912262
0.6666369994 0.0114183495 0.0090505159
0.7248508043 0.0141060672 0.0102590944
0.7740950458 0.0183236449 0.0110487098
0.8169046380 0.0243658332 0.0121167413
0.8548943964 0.0341019160 0.0136870178
0.8922423216 0.0492684168 0.0167698564
0.9278579544 0.0740345537 0.0244399552
0.9641154679 0.1059443733 0.0368861147
0.9925786427 0.1440420740 0.0536235056
1.0000000000 0.1869838270 0.0782036231
1.0000000000 0.2320126024 0.1119319219
1.0000000000 0.2758615979 0.1549022906
1.0000000000 0.3246273858 0.2036148172
1.0000000000 0.3804148771 0.2560341377
1.0000000000 0.4400694361 0.3130445666
1.0000000000 0.5020236115 0.3751955035
0.0000000000 0.0000000000 0.0000000000
0.0000000000 0.0000000000 0.0000000000
0.0000000000 0.0000000000 0.0000000000
0.0000000000 0.0000000000 0.0000000000
0.0000000000 0.0000000000 0.0000000000
0.0000000000 0.0000000000 0.0000000000
0.0000000000 0.0000000000 0.0000000000
0.0069544245 0.0000000000 0.0000000000
0.0443328931 0.0000000000 0.0000000000
0.1112733141 0.0000000000 0.0000000000
0.1904513277 0.0013314880 0.0013314880
0.2686692817 0.0023668675 0.0023668675
0.3425666096 0.0036493794 0.0036493794
0.4086691119 0.0047100600 0.0044139514
0.4755053509 0.0059679587 0.0059679587
0.5409658952 0.0075215595 0.0067324682
0.6053840689 0.0090751603 0.0078912262
0.6696825384 0.0117812726 0.0090505159
0.7269971964 0.0144515273 0.0102590944
0.7755699044 0.0186444292 0.0110487098
0.8177577577 0.0251546821 0.0121167413
0.8556004899 0.0343687672 0.0136870178
0.8925687874 0.0499349565 0.0167698564
0.9281178350 0.0746454155 0.0244399552
0.9642659761 0.1067513321 0.0370799173
0.9925959721 0.1448498946 0.0536235056
1.0000000000 0.1876054986 0.0782846449
1.0000000000 0.2324965516 0.1119319219
1.0000000000 0.2762639818 0.1549022906
1.0000000000 0.3248572008 0.2037996003
1.0000000000 0.3806875802 0.2560424010
1.0000000000 0.4402993298 0.3132727076
1.0000000000 0.5021511147 0.3751925733
0.0000000000 0.0000000000 0.0000000000
0.0000000000 0.0000000000 0.0000000000
0.0000000000 0.0000000000 0.0000000000
0.0000000000 0.0000000000 0.0000000000
0.0000000000 0.0000000000 0.0000000000
0.0000000000 0.0000000000 0.0000000000
0.0003896474 0.0000000000 0.0000000000
0.0171403675 0.0000000000 0.0000000000
0.0685464777 0.0000000000 0.0000000000
0.1371909662 0.0006027088 0.0006027088
0.2107233992 0.0015782452 0.0015782452
0.2833844292 0.0028850576 0.0028850576
0.3529274570 0.0036493794 0.0036493794
0.4170140120 0.0052035744 0.0047347357
0.4821178841 0.0059679587 0.0059679587
0.5465977026 0.0075215595 0.0067324682
0.6101545215 0.0094699718 0.0078912262
0.6723870817 0.0117812726 0.0090505159
0.7289299879 0.0148956902 0.0102590944
0.7770025886 0.0191132679 0.0110487098
0.8186002022 0.0251546821 0.0121167413
0.8561063872 0.0350962051 0.0136870178
0.8930124167 0.0505961832 0.0167698564
0.9284651586 0.0756223893 0.0249616349
0.9643734641 0.1074711247 0.0370799173
0.9926995150 0.1453972361 0.0541376891
1.0000000000 0.1883485498 0.0786950789
1.0000000000 0.2328415014 0.1123065423
1.0000000000 0.2766576510 0.1551598466
1.0000000000 0.3251564335 0.2039564575
1.0000000000 0.3808732518 0.2561905774
1.0000000000 0.4405212085 0.3132797037
1.0000000000 0.5022827623 0.3751955035
0.0000000000 0.0000000000 0.0000000000
0.0000000000 0.0000000000 0.0000000000
0.0000000000 0.0000000000 0.0000000000
0.0000000000 0.0000000000 0.0000000000
0.0000000000 0.0000000000 0.0000000000
0.0000000000 0.0000000000 0.0000000000
0.0057708657 0.0000000000 0.0000000000
0.0384622337 0.0000000000 0.0000000000
0.0969517655 0.0001284456 0.0001284456
0.1618278541 0.0013561638 0.0013561638
0.2298384964 0.0021204230 0.0021204230
0.2980143355 0.0028850576 0.0028850576
0.3627505294 0.0039451127 0.0038711794
0.4241770473 0.0052035744 0.0047347357
0.4873371133 0.0067571439 0.0059679587
0.5507945123 0.0082367801 0.0067324682
0.6141396657 0.0098642829 0.0082860377
0.6754281978 0.0121168407 0.0090505159
0.7306839656 0.0148956902 0.0102590944
0.7782968956 0.0194336456 0.0110487098
0.8194645591 0.0259307769 0.0121167413
0.8567560408 0.0351447235 0.0136870178
0.8933378402 0.0511873340 0.0167698564
0.9287138881 0.0760994285 0.0250114999
0.9645342137 0.1081872671 0.0370799173
0.9928180974 0.1462590451 0.0542631468
1.0000000000 0.1888064622 0.0786950789
1.0000000000 0.2333208968 0.1125539284
1.0000000000 0.2769326991 0.1554172775
1.0000000000 0.3254818036 0.2039783504
1.0000000000 0.3810517387 0.2561988408
1.0000000000 0.4406778131 0.3134045036
1.0000000000 0.5024184602 0.3752042942
0.0000000000 0.0000000000 0.0000000000
0.0000000000 0.0000000000 0.0000000000
0.0000000000 0.0000000000 0.0000000000
0.0000000000 0.0000000000 0.0000000000
0.0000000000 0.0000000000 0.0000000000
0.0019970444 0.0005202482 0.0000000000
0.0218012011 0.0027125777 0.0000000000
0.0644331686 0.0015289251 0.0000000000
0.1231927901 0.0006189777 0.0001284456
0.1848311937 0.0014795424 0.0013561638
0.2479461801 0.0022682897 0.0021204230
0.3123048252 0.0031564905 0.0030577876
0.3722235381 0.0044386271 0.0039451127
0.4321761079 0.0052035744 0.0052035744
0.4930866030 0.0067571439 0.0059679587
0.5545071300 0.0083107134 0.0070039011
0.6170925715 0.0098642829 0.0082860377
0.6782229424 0.0125771421 0.0090505159
0.7325481221 0.0155861725 0.0102590944
0.7794725401 0.0198033123 0.0110487098
0.8201704095 0.0262218874 0.0121167413
0.8573659738 0.0359163137 0.0136870178
0.8938918362 0.0518128445 0.0170166136
0.9290934148 0.0770617928 0.0252373926
0.9647473844 0.1088984179 0.0375888945
0.9929384128 0.1467929129 0.0542631468
1.0000000000 0.1894208723 0.0786950789
1.0000000000 0.2337644129 0.1125876629
1.0000000000 0.2773185312 0.1553892578
1.0000000000 0.3257186386 0.2041389082
1.0000000000 0.3813190142 0.2563396929
1.0000000000 0.4408188798 0.3134958917
1.0000000000 0.5025989301 0.3752072244
0.0000000000 0.0000000000 0.0000000000
0.0000000000 0.0000000000 0.0000000000
0.0000000000 0.0000000000 0.0000000000
0.0000000000 0.0019970444 0.0000000000
0.0000000000 0.0066828665 0.0000000000
0.0089027117 0.0138104902 0.0000000000
0.0346599084 0.0200256440 0.0000000000
0.0764645942 0.0226147180 0.0042661160
0.1326227741 0.0142293832 0.0022682271
0.1976444883 0.0055241398 0.0014548666
0.2618101761 0.0038218905 0.0021204230
0.3242868293 0.0038218905 0.0031564905
0.3821515819 0.0046113571 0.0044386271
0.4397004932 0.0059926032 0.0052035744
0.4997743156 0.0067571439 0.0059679587
0.5598679527 0.0083107134 0.0071026040
0.6206644977 0.0102590944 0.0082860377
0.6809669799 0.0125771421 0.0090505159
0.7345078610 0.0160297725 0.0102590944
0.7808410268 0.0202226744 0.0110487098
0.8210459412 0.0267070714 0.0121167413
0.8579489682 0.0365631950 0.0136870178
0.8943527053 0.0526280897 0.0175594794
0.9294533202 0.0777742364 0.0252373926
0.9650233731 0.1096852231 0.0376905160
0.9930401300 0.1475938401 0.0546707598
1.0000000000 0.1901722178 0.0794332134
1.0000000000 0.2341079803 0.1129372775
1.0000000000 0.2777130155 0.1556050032
1.0000000000 0.3260370513 0.2041570071
1.0000000000 0.3815230395 0.2564727513
1.0000000000 0.4410444808 0.3135138682
1.0000000000 0.5027366374 0.3753039213
0.0000000000 0.0038469728 0.0000000000
0.0000000000 0.0066828665 0.0000000000
0.0000000000 0.0127249150 0.0000000000
0.0000000000 0.0227880423 0.0000000000
0.0000000000 0.0344658963 0.0000000000
0.0070034945 0.0433469691 0.0000000000
0.0382954953 0.0495062064 0.0000000000
0.0817301291 0.0496133630 0.0000000000
0.1356596420 0.0518288219 0.0100620640
0.1988685645 0.0394565246 0.0082369677
0.2679664903 0.0194829971 0.0039451752
0.3326731401 0.0100123998 0.0031564905
0.3908140922 0.0069545496 0.0044386271
0.4487825022 0.0069545496 0.0052035744
0.5068620154 0.0077433595 0.0059679587
0.5656961064 0.0090998047 0.0071026040
0.6255018833 0.0110482094 0.0082860377
0.6841478831 0.0133667651 0.0090505159
0.7368541507 0.0163258811 0.0102590944
0.7826580539 0.0210118909 0.0110487098
0.8222920498 0.0274829969 0.0121167413
0.8587563429 0.0375565014 0.0136870178
0.8949498087 0.0538964259 0.0175594794
0.9298584893 0.0790779170 0.0256659020
0.9653644835 0.1106735652 0.0378772012
0.9931434254 0.1486589125 0.0550207469
1.0000000000 0.1909807164 0.0794960401
1.0000000000 0.2348116010 0.1131721141
1.0000000000 0.2781238634 0.1556738328
1.0000000000 0.3264756208 0.2043575568
1.0000000000 0.3818616596 0.2567281945
1.0000000000 0.4412717029 0.3138187150
1.0000000000 0.5029316755 0.3753830369
0.0000000000 0.0285009918 0.0000000000
0.0000000000 0.0375588358 0.0000000000
0.0000000000 0.0480971072 0.0000000000
0.0000000000 0.0617116837 0.0000000000
0.0000000000 0.0744047465 0.0000000000
0.0000000000 0.0865336343 0.0000000000
0.0278219494 0.0904017024 0.0000000000
0.0772324337 0.0922589455 0.0000000000
0.1339509501 0.0871689808 0.0000000000
0.1960403790 0.0850583617 0.0119018726
0.2643495265 0.0721932462 0.0150682013
0.3348473757 0.0461669282 0.0091736755
0.3957498766 0.0255677183 0.0054254995
0.4560319872 0.0140818919 0.0052035744
0.5148285988 0.0107032574 0.0059679587
0.5725609455 0.0111221999 0.0071026040
0.6312448723 0.0120384874 0.0082860377
0.6883086663 0.0144021445 0.0090505159
0.7398508442 0.0176085807 0.0102590944
0.7847378915 0.0220972472 0.0110487098
0.8239301172 0.0288651566 0.0121167413
0.8599581868 0.0390541851 0.0136870178
0.8958281381 0.0556281209 0.0178062366
0.9304771552 0.0804921196 0.0260487140
0.9657414232 0.1121407602 0.0383024213
0.9933831277 0.1501764471 0.0553842381
1.0000000000 0.1921910072 0.0799657823
1.0000000000 0.2354954137 0.1132084579
1.0000000000 0.2787426745 0.1560728945
1.0000000000 0.3271121327 0.2045844773
1.0000000000 0.3823790175 0.2568914264
1.0000000000 0.4416319955 0.3139284561
1.0000000000 0.5032571682 0.3756438256
0.0000000000 0.0757746843 0.0000000000
0.0000000000 0.0865802296 0.0000000000
0.0000000000 0.0977897217 0.0000000000
0.0000000000 0.1097220363 0.0000000000
0.0000000000 0.1210946234 0.0000000000
0.0000000000 0.1325396132 0.0000000000
0.0046855094 0.1404407841 0.0000000000
0.0577308131 0.1410669465 0.0000000000
0.1222735701 0.1388952569 0.0000000000
0.1896078504 0.1294182834 0.0000000000
0.2586147160 0.1226315054 0.0109006631
0.3294013016 0.1112946171 0.0224671641
0.3948611459 0.0824926774 0.0174606515
0.4586274004 0.0523457939 0.0113439837
0.5203816054 0.0284526271 0.0070039636
0.5798162369 0.0180280053 0.0071026040
0.6377543918 0.0159808589 0.0082860377
0.6939023254 0.0171398671 0.0090505159
0.7436159496 0.0197787304 0.0102590944
0.7872101826 0.0239716324 0.0110487098
0.8258020094 0.0306832439 0.0121167413
0.8615632790 0.0413403379 0.0139581067
0.8970555360 0.0586706232 0.0183484144
0.9313178554 0.0832147003 0.0264320118
0.9663099302 0.1147131639 0.0386597130
0.9935975476 0.1521842954 0.0556484398
1.0000000000 0.1937621818 0.0803087299
1.0000000000 0.2366908792 0.1136352021
1.0000000000 0.2796490729 0.1563105302
1.0000000000 0.3278505931 0.2047900648
1.0000000000 0.3828414081 0.2570877743
1.0000000000 0.4420080547 0.3140675305
1.0000000000 0.5036650466 0.3758049871
0.0000000000 0.1337174237 0.0000000000
0.0000000000 0.1429564779 0.0000000000
0.0000000000 0.1533237546 0.0000000000
0.0000000000 0.1631080250 0.0000000000
0.0000000000 0.1722111951 0.0000000000
0.0000000000 0.1821991813 0.0000000000
0.0000000000 0.1931686485 0.0000000000
0.0225280246 0.1965217063 0.0000000000
0.0943026736 0.1945740607 0.0000000000
0.1724366941 0.1901533129 0.0000000000
0.2483427256 0.1766714879 0.0000000000
0.3217461141 0.1652234465 0.0091983512
0.3886763372 0.1542231957 0.0267133235
0.4562794247 0.1255689372 0.0266365992
0.5209790719 0.0891889203 0.0192363024
0.5840507812 0.0529688620 0.0123259377
0.6442534929 0.0313597959 0.0088040089
0.6996868004 0.0245142205 0.0090505159
0.7479181039 0.0244895153 0.0100370130
0.7903667328 0.0278707445 0.0110487098
0.8278458754 0.0338113590 0.0121167413
0.8631360069 0.0449525891 0.0142295396
0.8983787198 0.0628843265 0.0193844819
0.9323243983 0.0873789236 0.0272241605
0.9670996390 0.1181931076 0.0394248255
0.9938926730 0.1548447673 0.0564675241
1.0000000000 0.1958217545 0.0809771591
1.0000000000 0.2383521448 0.1143276285
1.0000000000 0.2808901433 0.1566507693
1.0000000000 0.3289817728 0.2054788496
1.0000000000 0.3836640981 0.2574880897
1.0000000000 0.4425141017 0.3143012872
1.0000000000 0.5041805853 0.3760394038
0.0000000000 0.1965229270 0.0000000000
0.0000000000 0.2050083277 0.0000000000
0.0000000000 0.2128335202 0.0000000000
0.0000000000 0.2203626508 0.0000000000
0.0000000000 0.2278999468 0.0000000000
0.0000000000 0.2358286697 0.0000000000
0.0000000000 0.2454306311 0.0000000000
0.0000000000 0.2554594974 0.0000000000
0.0506420702 0.2561361328 0.0000000000
0.1379582866 0.2515223247 0.0000000000
0.2264254001 0.2447990963 0.0000000000
0.3087336178 0.2279622248 0.0000000000
0.3808272318 0.2122317199 0.0057215768
0.4494919141 0.1988969662 0.0255146790
0.5180430192 0.1731351120 0.0352177411
0.5829430262 0.1337947956 0.0290112966
0.6469186535 0.0888385713 0.0199270349
0.7041182960 0.0543826345 0.0133666400
0.7525996721 0.0391034544 0.0109991118
0.7939425601 0.0365752478 0.0113690642
0.8304800106 0.0409355273 0.0124291816
0.8651648925 0.0518683690 0.0155613404
0.8998764690 0.0693705726 0.0204692127
0.9336422611 0.0938645177 0.0288329748
0.9681475931 0.1239539071 0.0407023275
0.9942462849 0.1592190497 0.0571856697
1.0000000000 0.1988023477 0.0815183500
1.0000000000 0.2406162362 0.1150006094
1.0000000000 0.2825614975 0.1574050494
1.0000000000 0.3303229607 0.2059648769
1.0000000000 0.3847986461 0.2580060570
1.0000000000 0.4433418770 0.3147284868
1.0000000000 0.5048305660 0.3762611022
0.0000000000 0.2628640572 0.0000000000
0.0000000000 0.2692313851 0.0000000000
0.0000000000 0.2752023478 0.0000000000
0.0000000000 0.2812779191 0.0000000000
0.0000000000 0.2866670342 0.0000000000
0.0000000000 0.2931224776 0.0000000000
0.0000000000 0.3007030910 0.0000000000
0.0000000000 0.3104559431 0.0000000000
0.0059184822 0.3174334852 0.0000000000
0.0849840187 0.3158059766 0.0000000000
0.1873769630 0.3097589803 0.0000000000
0.2838595304 0.3012481330 0.0000000000
0.3664292208 0.2828287399 0.0000000000
0.4401303124 0.2634316142 0.0032302987
0.5111370081 0.2461814523 0.0218752283
0.5791452982 0.2229123721 0.0404061779
0.6443252844 0.1838690080 0.0398887572
0.7042945509 0.1336865619 0.0299310493
0.7548257741 0.0897440037 0.0208145477
0.7969824130 0.0648737008 0.0163997832
0.8332484607 0.0589140096 0.0157834219
0.8675024050 0.0648454912 0.0178798885
0.9016362228 0.0796575036 0.0225413163
0.9351110960 0.1024549766 0.0306717678
0.9692514547 0.1317472030 0.0421875199
0.9945428027 0.1659573563 0.0587723110
1.0000000000 0.2037754073 0.0827513243
1.0000000000 0.2440149902 0.1161903552
1.0000000000 0.2850962377 0.1583189728
1.0000000000 0.3321999343 0.2065501062
1.0000000000 0.3862416902 0.2585528997
1.0000000000 0.4444327765 0.3151913571
1.0000000000 0.5055992901 0.3766293111
0.0000000000 0.3268977683 0.0000000000
0.0000000000 0.3314378751 0.0000000000
0.0000000000 0.3357605032 0.0000000000
0.0000000000 0.3398234892 0.0000000000
0.0000000000 0.3435283260 0.0000000000
0.0000000000 0.3483455797 0.0000000000
0.0000000000 0.3538060859 0.0000000000
0.0000000000 0.3606859443 0.0000000000
0.0000000000 0.3693840158 0.0000000000
0.0201760752 0.3745176871 0.0000000000
0.1275109344 0.3714603497 0.0000000000
0.2408482442 0.3647264455 0.0000000000
0.3402759307 0.3549828028 0.0000000000
0.4234457219 0.3358117668 0.0000000000
0.5001319678 0.3144007614 0.0022189382
0.5720316157 0.2951216874 0.0177812794
0.6400973872 0.2727828403 0.0403260832
0.7007555679 0.2374217358 0.0480272068
0.7526821697 0.1865312982 0.0413963576
0.7971853005 0.1355830122 0.0312338407
0.8348642866 0.1030315095 0.0248619998
0.8693793315 0.0927031982 0.0234783995
0.9033574621 0.0989221477 0.0267385528
0.9365339842 0.1168101150 0.0338897851
0.9703089722 0.1431732461 0.0448033586
0.9947785440 0.1758291579 0.0611054442
1.0000000000 0.2120240640 0.0848307089
1.0000000000 0.2491788448 0.1173924642
1.0000000000 0.2886756044 0.1595575619
1.0000000000 0.3348549504 0.2076713431
1.0000000000 0.3882310365 0.2594070571
1.0000000000 0.4460304911 0.3160210976
1.0000000000 0.5066021730 0.3771482699
0.0000000000 0.3862327178 0.0000000000
0.0000000000 0.3897433399 0.0000000000
0.0000000000 0.3930332141 0.0000000000
0.0000000000 0.3964610600 0.0000000000
0.0000000000 0.3993922581 0.0000000000
0.0000000000 0.4025570098 0.0000000000
0.0000000000 0.4070843778 0.0000000000
0.0000000000 0.4128027625 0.0000000000
0.0000000000 0.4198371093 0.0000000000
0.0001304345 0.4283515390 0.0000000000
0.0452108165 0.4321011173 0.0000000000
0.1739671367 0.4282925304 0.0000000000
0.2957707051 0.4203400577 0.0000000000
0.3952710378 0.4091990832 0.0000000000
0.4820816147 0.3891626683 0.0000000000
0.5596451332 0.3659915095 0.0014796049
0.6322356429 0.3442318521 0.0148215692
0.6962754793 0.3214521286 0.0370822816
0.7487960741 0.2910002312 0.0522266802
0.7940416824 0.2436489194 0.0522587779
0.8332832158 0.1901145641 0.0439629975
0.8697765830 0.1512657093 0.0364856843
0.9044295517 0.1366795698 0.0351156903
0.9379619017 0.1421436125 0.0393515212
0.9714093782 0.1612073395 0.0490417390
0.9950784349 0.1894541124 0.0643799456
1.0000000000 0.2232218461 0.0872581429
1.0000000000 0.2575920769 0.1192723377
1.0000000000 0.2946734538 0.1611011787
1.0000000000 0.3388691488 0.2089770132
1.0000000000 0.3909554502 0.2604189421
1.0000000000 0.4481234783 0.3168221009
1.0000000000 0.5080122122 0.3776434441
0.0000000000 0.4465922024 0.0000000000
0.0000000000 0.4487539491 0.0000000000
0.0000000000 0.4511881344 0.0000000000
0.0000000000 0.4537280894 0.0000000000
0.0000000000 0.4562044835 0.0000000000
0.0000000000 0.4589707693 0.0000000000
0.0000000000 0.4622902255 0.0000000000
0.0000000000 0.4663487070 0.0000000000
0.0000000000 0.4722331968 0.0000000000
0.0000000000 0.4793262002 0.0000000000
0.0037976213 0.4873341398 0.0000000000
0.0779791113 0.4902559927 0.0000000000
0.2236969378 0.4851557350 0.0000000000
0.3488706119 0.4766442870 0.0000000000
0.4514892448 0.4649751880 0.0000000000
0.5403290430 0.4443924863 0.0000000000
0.6192796912 0.4197264682 0.0005864605
0.6884383306 0.3950151757 0.0114910481
0.7446674342 0.3706546644 0.0309781146
0.7904022067 0.3420025830 0.0509082375
0.8297262534 0.3001302189 0.0600712585
0.8674105061 0.2489067991 0.0569972343
0.9037236619 0.2073217093 0.0509032682
0.9385489328 0.1886522493 0.0501009020
0.9721432208 0.1921078130 0.0560475271
0.9952463751 0.2107259629 0.0695189246
1.0000000000 0.2382642314 0.0913437905
1.0000000000 0.2691138611 0.1223430522
1.0000000000 0.3037125069 0.1634292987
1.0000000000 0.3450607697 0.2107536970
1.0000000000 0.3950944126 0.2617959357
1.0000000000 0.4508904448 0.3179577235
1.0000000000 0.5098484971 0.3782594427
0.0000000000 0.5067126591 0.0000000000
0.0000000000 0.5086311413 0.0000000000
0.0000000000 0.5104095929 0.0000000000
0.0000000000 0.5120552351 0.0000000000
0.0000000000 0.5137681612 0.0000000000
0.0000000000 0.5158697821 0.0000000000
0.0000000000 0.5186910850 0.0000000000
0.0000000000 0.5221377219 0.0000000000
0.0000000000 0.5264985662 0.0000000000
0.0000000000 0.5321741138 0.0000000000
0.0000000000 0.5394993933 0.0000000000
0.0123784274 0.5469251545 0.0000000000
0.1167663400 0.5486403632 0.0000000000
0.2735606341 0.5431386440 0.0000000000
0.4020619574 0.5350082202 0.0000000000
0.5087242403 0.5223581602 0.0000000000
0.5989474589 0.5008350153 0.0000000000
0.6757069621 0.4746997353 0.0000000000
0.7373194762 0.4482816066 0.0069790377
0.7862071664 0.4214977266 0.0235519888
0.8263340636 0.3919091903 0.0456144905
0.8640859926 0.3538628360 0.0633821028
0.9009173594 0.3078241628 0.0697034741
0.9374247601 0.2664463590 0.0677286935
0.9719845792 0.2447561268 0.0686600817
0.9952204739 0.2450986914 0.0784070333
1.0000000000 0.2604890013 0.0975087127
1.0000000000 0.2847797527 0.1269930350
1.0000000000 0.3164159123 0.1667550795
1.0000000000 0.3548818541 0.2130782813
1.0000000000 0.4016311412 0.2635591320
1.0000000000 0.4546224271 0.3191622402
1.0000000000 0.5126913697 0.3791291538
0.0000000000 0.5663638815 0.0000000000
0.0000000000 0.5678925229 0.0000000000
0.0000000000 0.5693089227 0.0000000000
0.0000000000 0.5706683538 0.0000000000
0.0000000000 0.5721480662 0.0000000000
0.0000000000 0.5736879193 0.0000000000
0.0000000000 0.5757060715 0.0000000000
0.0000000000 0.5782035906 0.0000000000
0.0000000000 0.5815637169 0.0000000000
0.0000000000 0.5862294897 0.0000000000
0.0000000000 0.5918054766 0.0000000000
0.0000000000 0.5989361149 0.0000000000
0.0282413353 0.6058098925 0.0000000000
0.1609022773 0.6067209907 0.0000000000
0.3243907777 0.6015823771 0.0000000000
0.4575277168 0.5933557048 0.0000000000
0.5665240672 0.5805584679 0.0000000000
0.6559945202 0.5586587746 0.0006191013
0.7253165462 0.5322083947 0.0000000000
0.7788931091 0.5039332712 0.0037236254
0.8219707292 0.4740087575 0.0167699815
0.8606469719 0.4430666224 0.0388020626
0.8977160962 0.4066078857 0.0631906491
0.9347813044 0.3639313960 0.0807322871
0.9705617385 0.3235570681 0.0873203557
0.9949544990 0.2992362645 0.0928338817
1.0000000000 0.2954107305 0.1073290305
1.0000000000 0.3083937682 0.1342571826
1.0000000000 0.3340639332 0.1722210742
1.0000000000 0.3690759227 0.2167193590
1.0000000000 0.4121748757 0.2660054970
1.0000000000 0.4614150117 0.3210753054
1.0000000000 0.5170333863 0.3805446944
0.0000000000 0.6251303850 0.0000000000
0.0000000000 0.6260597605 0.0000000000
0.0000000000 0.6270091423 0.0000000000
0.0000000000 0.6280546042 0.0000000000
0.0000000000 0.6291663389 0.0000000000
0.0000000000 0.6303651617 0.0000000000
0.0000000000 0.6319236314 0.0000000000
0.0000000000 0.6338797692 0.0000000000
0.0000000000 0.6362948698 0.0000000000
0.0000000000 0.6395447588 0.0000000000
0.0005864605 0.6437277605 0.0000000000
0.0018492716 0.6491738047 0.0000000000
0.0071271546 0.6556561274 0.0000000000
0.0599135859 0.6614049288 0.0000000000
0.2097426694 0.6616897869 0.0000000000
0.3775606933 0.6568560863 0.0000000000
0.5148016209 0.6492906479 0.0042417530
0.6242777711 0.6372072269 0.0088537043
0.7072364399 0.6165063903 0.0081632220
0.7677332110 0.5913247118 0.0046853843
0.8147501290 0.5623762548 0.0052772262
0.8557520904 0.5303612880 0.0145747182
0.8939021929 0.4966245817 0.0352179354
0.9316287096 0.4587889991 0.0631295072
0.9678970990 0.4175941571 0.0910706700
0.9939611240 0.3784110799 0.1091817549
1.0000000000 0.3522015720 0.1233445225
1.0000000000 0.3466479817 0.1464372484
1.0000000000 0.3602227257 0.1806946026
1.0000000000 0.3880730093 0.2225995527
1.0000000000 0.4271351115 0.2699656079
1.0000000000 0.4725752054 0.3238022366
1.0000000000 0.5240462870 0.3825299424
0.0106044919 0.6789516922 0.0000000000
0.0110486473 0.6796643840 0.0000000000
0.0113936443 0.6803293075 0.0000000000
0.0120906124 0.6809716038 0.0000000000
0.0121689989 0.6816592172 0.0000000000
0.0125281972 0.6825053149 0.0000000000
0.0133173824 0.6835401605 0.0000000000
0.0139339314 0.6847888326 0.0000000000
0.0150436820 0.6863719462 0.0000000000
0.0161533700 0.6886468845 0.0000000000
0.0185948588 0.6915240779 0.0000000000
0.0217024670 0.6951439172 0.0000000000
0.0257857752 0.6998051957 0.0000000000
0.0399267767 0.7052174105 0.0000000000
0.1080022413 0.7097086331 0.0000000000
0.2637721352 0.7100935662 0.0022933407
