bundles/resolve-cinematic-luts/Phantom Luts/DJI/DJI Phntm ARRI LUTs - G3/Mavic 3 Pro D-Log-M/IceBlue - M3P D-LogM.cube
TITLE "Generated by Resolve"
LUT_3D_SIZE 9
0.0279393 0.0401465 0.0377203
0.087953 0.0362402 0.0342565
0.180972 0.0361181 0.0325933
0.270085 0.0358129 0.0299687
0.364889 0.0367895 0.0270848
0.449683 0.0384375 0.0300908
0.521248 0.0458228 0.0361791
0.547448 0.0511025 0.040116
0.549279 0.0504463 0.0438239
0.0283055 0.091722 0.0497902
0.080293 0.0913405 0.0460822
0.201602 0.0798505 0.0391852
0.307607 0.0684977 0.0326696
0.411719 0.0454261 0.0340734
0.462882 0.0390478 0.0315709
0.506752 0.043595 0.0348974
0.54818 0.0508431 0.0416419
0.547692 0.0510109 0.0406348
0.0264134 0.194553 0.0560769
0.0260471 0.201541 0.0557107
0.193759 0.197131 0.0429389
0.339803 0.18819 0.0378119
0.480766 0.165087 0.0403906
0.580056 0.147601 0.065919
0.61796 0.0945144 0.0725567
0.588693 0.0603189 0.0539101
0.574807 0.0553597 0.0535744
0.022446 0.325811 0.0539254
0.0226902 0.315557 0.0548867
0.0982528 0.338766 0.0448157
0.345617 0.332631 0.0360113
0.501488 0.348333 0.0516213
0.653056 0.335637 0.107668
0.736446 0.28423 0.153246
0.75053 0.252918 0.161181
0.751278 0.24744 0.166644
0.0292821 0.48426 0.0742046
0.0276493 0.473259 0.0703288
0.0264744 0.464958 0.0682841
0.291569 0.49395 0.0580453
0.515618 0.49807 0.0762493
0.652308 0.509041 0.11812
0.778103 0.509377 0.193561
0.833875 0.485283 0.222553
0.838834 0.501427 0.228473
0.0804303 0.633875 0.150042
0.0755627 0.624796 0.144579
0.0726482 0.617624 0.140154
0.0740215 0.612573 0.135927
0.490532 0.638086 0.117983
0.658167 0.64271 0.156359
0.79086 0.657176 0.211948
0.871931 0.678325 0.261341
0.877562 0.684947 0.266072
0.16759 0.762798 0.239048
0.162936 0.757046 0.235187
0.158389 0.751476 0.23154
0.152468 0.743221 0.225422
0.280034 0.764935 0.195285
0.687709 0.78645 0.231327
0.816403 0.801648 0.279728
0.911711 0.819745 0.33106
0.951308 0.835904 0.358022
0.199435 0.805768 0.269474
0.199634 0.805783 0.269276
0.199588 0.805783 0.269322
0.19942 0.805768 0.269505
0.200427 0.80676 0.270283
0.630762 0.879927 0.284215
0.868284 0.894163 0.349264
0.938903 0.921492 0.398245
0.981521 0.932494 0.426184
0.199329 0.805753 0.269596
0.19968 0.805783 0.269245
0.199725 0.805737 0.269444
0.199741 0.805768 0.269245
0.22797 0.813596 0.264744
0.701686 0.887312 0.301442
0.882933 0.899916 0.357733
0.945663 0.92491 0.403296
0.978408 0.932265 0.424949
0.0205539 0.0385748 0.0990463
0.088304 0.0368505 0.0901503
0.202823 0.0357977 0.0666667
0.303227 0.0353246 0.0659342
0.403067 0.0364233 0.0799725
0.488106 0.0390021 0.0882277
0.54287 0.0469673 0.0626535
0.55111 0.0496986 0.0484932
0.551507 0.049546 0.0494392
0.0239109 0.0839399 0.0955673
0.0701305 0.0858625 0.0982376
0.214542 0.0698558 0.0753185
0.329915 0.04477 0.0519875
0.406668 0.0357519 0.037232
0.468986 0.0382544 0.0395361
0.525521 0.0446937 0.0436103
0.551415 0.0495766 0.0491951
0.551049 0.0497292 0.048188
0.0263523 0.192706 0.0843061
0.0259861 0.198688 0.0685588
0.190616 0.202396 0.0634623
0.333471 0.196429 0.0575723
0.469734 0.163928 0.0549935
0.578622 0.136828 0.0730144
0.60473 0.0714885 0.0709239
0.575296 0.0546273 0.0568399
0.56614 0.0522621 0.0548104
0.0223239 0.326833 0.0538186
0.0225986 0.314412 0.0538033
0.0658122 0.337591 0.0496376
0.337667 0.331273 0.0391852
0.495735 0.345632 0.0583047
0.628473 0.347417 0.101015
0.732174 0.292927 0.153719
0.755276 0.257877 0.167727
0.754742 0.253498 0.169543
0.0289616 0.48127 0.0724041
0.0271763 0.468818 0.0682231
0.0263828 0.46273 0.0667887
0.280659 0.489998 0.0569772
0.511681 0.494057 0.0745403
0.648447 0.505898 0.116503
0.767971 0.511589 0.187869
0.839582 0.504936 0.229648
0.843992 0.519387 0.235096
0.0805066 0.633616 0.149554
0.074876 0.622705 0.143038
0.0724804 0.616815 0.139269
0.072343 0.610742 0.134859
0.485618 0.63563 0.116457
0.654871 0.640467 0.154467
0.786923 0.654154 0.209079
0.869322 0.677012 0.260151
0.881239 0.692973 0.270161
0.167666 0.762829 0.238911
0.162188 0.75581 0.233982
0.15819 0.750881 0.23093
0.153201 0.743877 0.225925
0.279225 0.764065 0.194614
0.685039 0.783856 0.229923
0.814191 0.799069 0.278782
0.910704 0.818586 0.330159
0.951797 0.837842 0.358938
0.199527 0.805722 0.269612
0.20032 0.805524 0.269856
0.199756 0.805692 0.269612
0.19942 0.805768 0.269505
0.201068 0.806897 0.269886
0.632959 0.880491 0.284596
0.868025 0.894118 0.349538
0.938994 0.921813 0.399023
0.981811 0.932494 0.426703
0.199329 0.805753 0.269627
0.199664 0.805783 0.269261
0.199741 0.805737 0.269398
0.19968 0.805768 0.269291
0.238025 0.815351 0.262715
0.705653 0.88719 0.304433
0.882521 0.899763 0.358022
0.945052 0.924758 0.403006
0.978469 0.932372 0.424247
0.0159304 0.0416419 0.199115
0.0701152 0.0387121 0.20238
0.189502 0.0367895 0.172671
0.310643 0.0357214 0.139803
0.416815 0.0366522 0.132692
0.51075 0.0398871 0.149157
0.585306 0.0495918 0.167269
0.583047 0.0508736 0.13785
0.562219 0.0491798 0.0861982
0.0169833 0.0833448 0.18352
0.0473487 0.0707408 0.226917
0.20029 0.049958 0.19913
0.336843 0.036759 0.158877
0.425727 0.0365301 0.14023
0.500771 0.0389868 0.141527
0.576135 0.0483101 0.156573
0.574716 0.050309 0.118776
0.553674 0.0495003 0.0583658
0.0205081 0.185229 0.197848
0.0208133 0.185168 0.191424
0.17731 0.197559 0.207416
0.367849 0.179202 0.17734
0.509117 0.142397 0.163531
0.599268 0.0873732 0.155901
0.598016 0.0543374 0.130068
0.57261 0.0518502 0.0801404
0.554513 0.0496986 0.0514534
0.0229191 0.324956 0.214435
0.0234531 0.315892 0.172351
0.0592203 0.342214 0.171664
0.335348 0.344717 0.158495
0.495705 0.350927 0.163119
0.649256 0.334081 0.168643
0.743526 0.264973 0.192859
0.743832 0.228824 0.165652
0.736553 0.217975 0.156603
0.0300298 0.487892 0.205631
0.0265507 0.475135 0.144366
0.0254673 0.46656 0.124865
0.206714 0.497459 0.128283
0.503944 0.498268 0.126741
0.650797 0.509728 0.151125
0.759441 0.518395 0.193881
0.838651 0.503578 0.228855
0.843626 0.518273 0.234821
0.0822766 0.638819 0.196536
0.0768597 0.62269 0.149706
0.0731212 0.614603 0.141878
0.0700999 0.606607 0.135088
0.478401 0.63032 0.11487
0.649683 0.63389 0.151125
0.782238 0.647257 0.205295
0.861631 0.671946 0.255009
0.882063 0.695674 0.271321
0.164416 0.758038 0.23566
0.159045 0.7514 0.231052
0.154833 0.745434 0.226947
0.149691 0.738811 0.22237
0.273365 0.759548 0.192218
0.6795 0.777584 0.224964
0.808362 0.792737 0.273274
0.905455 0.811246 0.325567
0.94815 0.830655 0.355535
0.19968 0.805661 0.269703
0.200275 0.805539 0.269825
0.200046 0.805692 0.269368
0.199924 0.805585 0.269856
0.200946 0.806592 0.270268
0.632044 0.880125 0.28542
0.864851 0.893538 0.350332
0.935088 0.917693 0.397147
0.980621 0.930724 0.425315
0.199496 0.805661 0.269871
0.200168 0.805478 0.270176
0.200595 0.805417 0.270115
0.199954 0.80557 0.269932
0.229831 0.813748 0.264729
0.698054 0.886656 0.302358
0.878019 0.898985 0.355856
0.941344 0.923445 0.401953
0.977157 0.931991 0.424384
0.0121309 0.0449226 0.302129
0.0459449 0.0420996 0.31371
0.163516 0.0386511 0.292485
0.293431 0.0370642 0.261158
0.429435 0.037171 0.234531
0.531228 0.0408789 0.223865
0.603601 0.0514534 0.219486
0.610636 0.0537118 0.204807
0.606058 0.0532845 0.191684
0.0120394 0.0634775 0.307607
0.0252384 0.047715 0.324041
0.145693 0.0393072 0.306416
0.281163 0.0371252 0.261601
0.419501 0.0368658 0.229801
0.525689 0.0402991 0.218631
0.599802 0.0504768 0.217426
0.609598 0.053666 0.202045
0.605005 0.0533608 0.188128
0.014374 0.188083 0.286534
0.0131991 0.171344 0.292348
0.140383 0.171206 0.374212
0.35903 0.136294 0.343709
0.51873 0.113939 0.31458
0.626505 0.088304 0.300572
0.635904 0.0578012 0.255055
0.607874 0.0533608 0.196246
0.602762 0.0530251 0.182483
0.0187381 0.327337 0.330053
0.0189212 0.312139 0.309346
0.0456092 0.332372 0.325872
0.313817 0.335302 0.335943
0.522698 0.327062 0.31368
0.688731 0.310216 0.308659
0.788983 0.270176 0.304402
0.75314 0.180774 0.25922
0.710643 0.121126 0.215366
0.0369116 0.490181 0.386114
0.0323644 0.4757 0.348775
0.0298772 0.468193 0.317418
0.186526 0.496864 0.314076
0.481315 0.497322 0.296529
0.641886 0.50396 0.305638
0.796551 0.495781 0.310887
0.862882 0.451637 0.306859
0.856275 0.472755 0.280919
0.0859998 0.641978 0.409491
0.077821 0.631189 0.350027
0.0731823 0.623117 0.313313
0.0692149 0.61355 0.290929
0.369787 0.638636 0.26566
0.633402 0.643183 0.269841
0.795605 0.653788 0.305196
0.867369 0.685603 0.30042
0.888045 0.703761 0.291798
0.142794 0.761151 0.413535
0.136233 0.752682 0.356634
0.134249 0.745235 0.31574
0.130358 0.736889 0.295857
0.249348 0.764462 0.270527
0.644236 0.78146 0.267552
0.80029 0.79498 0.296818
0.904311 0.808042 0.339849
0.945617 0.822828 0.359487
0.188067 0.823392 0.431281
0.190661 0.818555 0.369879
0.19408 0.815259 0.335332
0.197681 0.812909 0.313252
0.201358 0.81059 0.290974
0.615534 0.883955 0.30103
0.853788 0.882445 0.340429
0.922042 0.904631 0.384161
0.971542 0.918807 0.415717
0.19176 0.827558 0.471962
0.188632 0.823255 0.433402
0.18912 0.820935 0.40589
0.190753 0.818906 0.374945
0.21532 0.821302 0.346456
0.661463 0.895842 0.339986
0.873594 0.899931 0.359945
0.935515 0.921508 0.402365
0.972625 0.930694 0.426169
0.00972 0.0491493 0.402564
0.024506 0.0473793 0.416602
0.13225 0.0421454 0.422736
0.273579 0.0394446 0.389227
0.414542 0.0389105 0.365072
0.544488 0.0434272 0.346258
0.638041 0.0576791 0.317723
0.644617 0.0594034 0.29723
0.640986 0.0585489 0.289113
0.0099031 0.0484627 0.391363
0.00968948 0.0489357 0.398383
0.0983902 0.0429236 0.423499
0.255085 0.0395972 0.392126
0.403143 0.0388495 0.364904
0.539086 0.0428626 0.346456
0.635828 0.0570382 0.317174
0.644099 0.0591897 0.297368
0.640909 0.058793 0.285298
0.0103761 0.1841 0.417578
0.00987259 0.143938 0.437827
0.0995499 0.120378 0.508034
0.313008 0.0835126 0.479927
0.45922 0.0574502 0.429343
0.553857 0.0447395 0.368124
0.630716 0.0556954 0.314595
0.643366 0.0588998 0.297108
0.64062 0.0585489 0.287266
0.0163577 0.33785 0.42652
0.0154116 0.323415 0.408942
0.0150454 0.315755 0.42295
0.27924 0.313085 0.522988
0.512505 0.282643 0.496025
0.695994 0.272496 0.475196
0.812131 0.260075 0.449958
0.804425 0.215259 0.420264
0.772076 0.168246 0.393957
0.0462654 0.500999 0.498024
0.039292 0.483421 0.473457
0.035523 0.472267 0.458396
0.169146 0.49659 0.484535
0.453559 0.479896 0.478386
0.660151 0.47628 0.460883
0.827131 0.471199 0.44448
0.899062 0.442115 0.430549
0.891707 0.432212 0.413077
0.106767 0.645487 0.561425
0.0970779 0.63241 0.531304
0.0912032 0.624338 0.509514
0.084184 0.615427 0.478859
0.34992 0.632654 0.455192
0.607996 0.638376 0.446983
0.78584 0.644907 0.467323
0.889754 0.671962 0.455329
0.927199 0.692592 0.454749
0.16173 0.760708 0.583032
0.150866 0.753201 0.54284
0.142061 0.746426 0.506737
0.133013 0.737606 0.472541
0.218051 0.759838 0.450736
0.535134 0.780163 0.443397
0.777768 0.795972 0.463737
0.909224 0.807401 0.500923
0.956985 0.829923 0.513802
0.22118 0.845808 0.618814
0.21181 0.840894 0.575952
0.204349 0.835859 0.542931
0.197452 0.830884 0.506584
0.189258 0.821714 0.482795
0.499077 0.879179 0.461448
0.801419 0.897597 0.483909
0.910185 0.913161 0.497047
0.966674 0.925704 0.519997
0.231586 0.852369 0.655619
0.225254 0.848402 0.630991
0.216236 0.843534 0.597131
0.20734 0.838529 0.55816
0.210773 0.838697 0.535592
0.553567 0.901915 0.525902
0.82919 0.93373 0.543191
0.925643 0.95111 0.53254
0.973098 0.958129 0.522896
0.0103609 0.0547494 0.477394
0.0108186 0.0545663 0.477165
0.0935988 0.0493629 0.527016
0.251301 0.0446937 0.531044
0.393408 0.0425422 0.491539
0.523186 0.0469673 0.468742
0.638193 0.0614481 0.438087
0.66714 0.0675975 0.42208
0.66656 0.0674296 0.423026
0.0103151 0.0541695 0.471946
0.0100862 0.054612 0.474281
0.0661326 0.0506447 0.519066
0.231708 0.0450904 0.533501
0.382605 0.0425269 0.492546
0.516457 0.0465553 0.470069
0.635096 0.060914 0.440528
0.666438 0.0676432 0.427512
0.666362 0.0675975 0.427649
0.012665 0.130968 0.521019
0.0117494 0.0852827 0.507988
0.0473945 0.0615702 0.534997
0.222461 0.0469062 0.551644
0.369757 0.0425116 0.497749
0.50779 0.0460059 0.473823
0.630716 0.06009 0.443229
0.66627 0.0675669 0.428504
0.665827 0.0676432 0.431891
0.0211032 0.350286 0.522835
0.0197604 0.32221 0.53286
0.0194858 0.296956 0.544076
0.246662 0.284764 0.684993
0.478035 0.242527 0.666697
0.651987 0.215824 0.628626
0.765988 0.190784 0.572717
0.737743 0.120714 0.494102
0.670909 0.0689555 0.430503
0.0584878 0.511223 0.589487
0.0522316 0.499336 0.567025
0.0468757 0.486213 0.556283
0.0952163 0.501884 0.604364
0.423743 0.468574 0.674006
0.64622 0.439399 0.650553
0.834806 0.427039 0.621103
0.914794 0.416587 0.593851
0.912062 0.409003 0.592187
0.127565 0.654688 0.654963
0.118944 0.641428 0.637232
0.111879 0.630823 0.623545
0.104616 0.619043 0.609583
0.347784 0.635691 0.633417
0.584772 0.619486 0.625391
0.796201 0.61825 0.612863
0.922332 0.630167 0.604944
0.949355 0.642863 0.609339
0.187457 0.762829 0.698344
0.17789 0.754223 0.677409
0.169909 0.745876 0.65919
0.160555 0.736416 0.637659
0.22179 0.757168 0.631174
0.526192 0.769436 0.615167
0.752697 0.787182 0.625025
0.891829 0.797543 0.653529
0.942489 0.821469 0.666484
0.249302 0.846815 0.741695
0.242267 0.844907 0.722057
0.233158 0.839139 0.696849
0.221607 0.830304 0.664179
0.208728 0.819898 0.629404
0.495811 0.866819 0.628565
0.723766 0.892027 0.65182
0.892653 0.905776 0.666072
0.951766 0.916289 0.694682
0.274876 0.874006 0.782132
0.270954 0.871214 0.769802
0.263905 0.866194 0.747387
0.25391 0.861234 0.717296
0.242679 0.854917 0.681773
0.560388 0.909514 0.691508
0.758312 0.935775 0.704463
0.905089 0.949798 0.705455
0.956664 0.957534 0.70547
0.0121462 0.0635233 0.548516
0.0118868 0.0635386 0.547448
0.0628824 0.0619364 0.587259
0.208942 0.0578012 0.622751
0.367773 0.0560311 0.623606
0.48687 0.0554055 0.58378
0.614801 0.068452 0.556848
0.654658 0.0755474 0.546258
0.65304 0.0759747 0.552163
0.0122377 0.0629587 0.545083
0.0117494 0.0635538 0.546975
0.0413977 0.0626688 0.575219
0.193194 0.0583658 0.622049
0.358984 0.0563668 0.625788
0.480461 0.0552224 0.585382
0.608621 0.067628 0.559152
0.653239 0.0758526 0.550439
0.65156 0.0767224 0.559579
0.0149844 0.0929427 0.574121
0.0122835 0.0665751 0.5552
0.0183413 0.0635538 0.558007
0.166644 0.0586862 0.616709
0.348196 0.0569619 0.62974
0.47274 0.0551766 0.589319
0.602899 0.0666972 0.560922
0.652781 0.0760052 0.552743
0.650874 0.076936 0.562173
0.0364385 0.348394 0.632029
0.0346838 0.315648 0.640253
0.0331273 0.286824 0.642161
0.216724 0.274495 0.763272
0.437873 0.228504 0.788968
0.58996 0.182742 0.737881
0.674708 0.128283 0.644846
0.65568 0.0762646 0.549538
0.651362 0.076463 0.55845
0.0725872 0.529198 0.661158
0.0668193 0.509712 0.657893
0.0627451 0.489479 0.658289
0.0944991 0.496406 0.699474
0.40798 0.472892 0.837537
0.615946 0.429129 0.822019
0.798978 0.399283 0.778836
0.889601 0.376867 0.751156
0.880247 0.362417 0.753841
0.14696 0.665858 0.727733
0.141176 0.657099 0.71519
0.135622 0.648585 0.705348
0.128939 0.63505 0.699916
0.29572 0.658915 0.771328
0.564492 0.618631 0.812192
0.777081 0.587655 0.786358
0.921263 0.586587 0.772091
0.946563 0.593912 0.778347
0.205463 0.771084 0.761105
0.198764 0.763027 0.750942
0.191318 0.753826 0.741314
0.183536 0.74345 0.730724
0.248676 0.765148 0.754269
0.534142 0.774533 0.774426
0.732891 0.76965 0.776028
0.891295 0.774746 0.774731
0.948516 0.794415 0.785504
0.265965 0.847761 0.804242
0.264607 0.846036 0.798276
0.253819 0.83975 0.787823
0.24509 0.83061 0.774166
0.235203 0.819654 0.756054
0.513664 0.870192 0.793515
0.714076 0.88217 0.790295
0.872297 0.893767 0.793698
0.937484 0.901045 0.815747
0.295109 0.882551 0.83592
0.293538 0.88159 0.833188
0.285466 0.874662 0.822797
0.275944 0.865095 0.809049
0.271733 0.857206 0.793408
0.577829 0.910704 0.832593
0.749584 0.926192 0.827008
0.877806 0.940276 0.82359
0.938094 0.94287 0.819913
0.01149 0.0694438 0.618341
0.0112154 0.0695659 0.618555
0.0382849 0.0706035 0.624826
0.17966 0.0704814 0.67042
0.342733 0.0721141 0.695033
0.468452 0.0705119 0.670253
0.587243 0.0759747 0.630915
0.638376 0.0840009 0.622354
0.636347 0.0847028 0.62826
0.0117342 0.0691691 0.614649
0.0111543 0.0695964 0.618692
0.0214694 0.070222 0.620829
0.166461 0.0706493 0.668223
0.337621 0.0723278 0.695583
0.464332 0.070634 0.671687
0.580957 0.0749828 0.631037
0.637888 0.0839399 0.622217
0.63566 0.084947 0.630106
0.0191958 0.134325 0.665553
0.0158846 0.114824 0.666804
0.0148775 0.101564 0.65951
0.162997 0.0739605 0.682551
0.32813 0.0720836 0.694728
0.459419 0.0708934 0.674479
0.575372 0.0741283 0.631754
0.637385 0.0840162 0.623377
0.635523 0.0849622 0.630198
0.0541848 0.369833 0.708324
0.0516213 0.351812 0.712016
0.0489662 0.332647 0.711696
0.209812 0.333944 0.813306
0.426291 0.285252 0.862257
0.58439 0.234867 0.838636
0.667475 0.164462 0.735592
0.645151 0.0860151 0.625834
0.636515 0.0844892 0.62678
0.0958114 0.54757 0.732601
0.0920577 0.532372 0.735424
0.0881514 0.516945 0.734783
0.116884 0.52311 0.768048
0.409308 0.508202 0.917418
0.604776 0.45864 0.927108
0.776089 0.414481 0.879835
0.868177 0.382345 0.840421
0.860121 0.370611 0.84155
0.162631 0.683818 0.771649
0.157168 0.675181 0.7691
0.150149 0.6636 0.767697
0.140169 0.646235 0.765377
0.314382 0.674876 0.858976
0.568963 0.642573 0.919524
0.762203 0.599451 0.899779
0.895171 0.582345 0.873442
0.932464 0.58677 0.877485
0.218875 0.781201 0.800824
0.214679 0.776623 0.795453
0.210513 0.769665 0.788952
0.203693 0.760174 0.781338
0.201724 0.751095 0.779141
0.515602 0.798505 0.863569
0.7243 0.776364 0.894362
0.879057 0.757549 0.883192
0.943191 0.771527 0.887953
0.275654 0.852125 0.832135
0.276081 0.851865 0.830243
0.267369 0.845411 0.824033
0.258991 0.836362 0.816281
0.248936 0.825101 0.805997
0.53933 0.88603 0.878248
0.723171 0.886305 0.886625
0.859907 0.880034 0.884794
0.927749 0.88574 0.891386
0.300587 0.885039 0.856779
0.301976 0.884367 0.856016
0.295766 0.876722 0.849119
0.28452 0.86656 0.840772
0.331319 0.884153 0.860105
0.61767 0.923903 0.908415
0.760632 0.928298 0.914412
0.86717 0.927398 0.904219
0.92372 0.92694 0.899382
0.011017 0.0702831 0.631403
0.0108186 0.0704204 0.632441
0.0247807 0.071107 0.635157
0.166308 0.0728161 0.677226
0.334142 0.0760052 0.708888
0.464088 0.0764782 0.694926
0.576837 0.0786297 0.651789
0.631998 0.0865797 0.643137
0.631434 0.086656 0.643915
0.0111391 0.0702068 0.630808
0.0107729 0.0704509 0.6327
0.0124514 0.0707408 0.636805
0.156863 0.0727855 0.675349
0.333639 0.0760815 0.708995
0.462943 0.076585 0.695506
0.572747 0.0782177 0.652659
0.631632 0.0866407 0.643488
0.631189 0.0867018 0.644175
0.029633 0.214847 0.70193
0.0286259 0.212375 0.70222
0.0278477 0.204303 0.699062
0.220523 0.162982 0.766186
0.377371 0.106966 0.759884
0.461967 0.0776379 0.700145
0.567773 0.0776837 0.653971
0.631159 0.0866712 0.64445
0.631022 0.0867018 0.64445
0.0660258 0.408713 0.740566
0.0639353 0.400854 0.740047
0.061799 0.38912 0.738186
0.221363 0.402502 0.840848
0.440925 0.354604 0.90454
0.610529 0.305516 0.892485
0.718013 0.243473 0.803525
0.704524 0.154818 0.717693
0.655741 0.102205 0.670726
0.110246 0.56846 0.764477
0.107912 0.559564 0.76788
0.104784 0.548775 0.767376
0.138994 0.559457 0.799863
0.421744 0.549844 0.943679
0.6103 0.499352 0.962097
0.780316 0.452689 0.922225
0.872908 0.414084 0.88014
0.866377 0.402853 0.878325
0.171389 0.696132 0.792126
0.168597 0.68925 0.793103
0.164034 0.679652 0.793988
0.156191 0.664515 0.793027
0.346502 0.697246 0.891295
0.584558 0.671824 0.950423
0.766613 0.627955 0.935851
0.888884 0.603525 0.909346
0.926619 0.604654 0.909224
0.231693 0.790539 0.8159
0.229221 0.789548 0.81239
0.22501 0.783612 0.808515
0.21735 0.772717 0.804791
0.217914 0.763729 0.80676
0.545968 0.814359 0.90164
0.738628 0.79295 0.929992
0.874327 0.769528 0.920501
0.93431 0.777874 0.916487
0.284886 0.856733 0.842985
0.286168 0.857298 0.842313
0.277668 0.851713 0.838132
0.270985 0.842527 0.83151
0.262089 0.830884 0.822354
0.551354 0.893065 0.898482
0.726513 0.895048 0.910033
0.858549 0.882872 0.918685
0.919829 0.882277 0.922957
0.310353 0.883696 0.857694
0.311009 0.883116 0.856596
0.30251 0.875837 0.850355
0.290379 0.866346 0.842405
0.346075 0.88809 0.867262
0.633906 0.923064 0.914382
0.771099 0.929641 0.927321
0.869108 0.925856 0.928649
0.916091 0.920485 0.926879
