bundles/resolve-cinematic-luts/Phantom Luts/DJI/DJI Phntm ARRI LUTs - G3/Mavic 3 Pro D-Log-M/IceBlue - M3P D-LogM.cube
TITLE "Generated by Resolve"
LUT_3D_SIZE 65
0.0279393 0.0401465 0.0377203
0.0299535 0.0400244 0.0379492
0.0326696 0.0397498 0.0382696
0.0383154 0.0388952 0.0383001
0.047837 0.0373999 0.0360418
0.0560311 0.0359808 0.0345464
0.0654612 0.0360266 0.0341192
0.0777447 0.0363165 0.0346075
0.087953 0.0362402 0.0342565
0.100771 0.036347 0.0342107
0.113146 0.0361639 0.0336767
0.123812 0.0361944 0.0336614
0.13492 0.0362402 0.0336156
0.147173 0.0362707 0.0335088
0.157885 0.0360418 0.0329137
0.169482 0.0361028 0.0328069
0.180972 0.0361181 0.0325933
0.190494 0.035935 0.0320897
0.200671 0.035935 0.0319066
0.213199 0.0359808 0.0317388
0.222736 0.035996 0.0315862
0.232609 0.0357824 0.0310216
0.246021 0.035874 0.0308385
0.258122 0.035935 0.0305791
0.270085 0.0358129 0.0299687
0.28217 0.0359197 0.029633
0.295705 0.0361028 0.0292973
0.305776 0.0361334 0.0287633
0.317754 0.0361944 0.0281682
0.328206 0.0363928 0.027924
0.344411 0.0365454 0.027512
0.355779 0.0366217 0.0271305
0.364889 0.0367895 0.0270848
0.376501 0.0369116 0.026978
0.392721 0.0371252 0.0270085
0.401312 0.0372473 0.0274205
0.410132 0.0372625 0.0276951
0.425803 0.0376287 0.0282292
0.435492 0.0379644 0.0289006
0.442405 0.0381628 0.0294347
0.449683 0.0384375 0.0300908
0.460517 0.0390173 0.0308995
0.469276 0.0396429 0.0316167
0.47657 0.040238 0.0322118
0.485069 0.041001 0.0328527
0.493263 0.0418555 0.0335241
0.500832 0.042771 0.0341039
0.510826 0.0442664 0.0351873
0.521248 0.0458228 0.0361791
0.526879 0.0469062 0.0368963
0.535164 0.0484474 0.038117
0.539391 0.0492866 0.0387121
0.543053 0.0500649 0.0393683
0.547585 0.0510567 0.0404059
0.547555 0.0510719 0.0403296
0.547509 0.0510872 0.040238
0.547448 0.0511025 0.040116
0.547387 0.051133 0.0399634
0.547326 0.0511635 0.0397803
0.547372 0.0511482 0.0398413
0.547539 0.0510872 0.0401465
0.547829 0.0509804 0.0407111
0.548257 0.0508278 0.0415656
0.548775 0.0506447 0.0426337
0.549279 0.0504463 0.0438239
0.0275578 0.0419928 0.0378271
0.0297551 0.041825 0.0381628
0.0321508 0.0417029 0.0384833
0.0367742 0.0412146 0.0385443
0.0460517 0.0403601 0.0373388
0.0546578 0.0389868 0.0363165
0.0638895 0.0381323 0.0355993
0.0749828 0.0368353 0.0348821
0.0856947 0.0361944 0.0343481
0.0978103 0.036286 0.0343938
0.110201 0.0361944 0.0339666
0.121553 0.0361791 0.033814
0.133471 0.0361944 0.0337224
0.14464 0.0362554 0.0336919
0.155917 0.0360266 0.0331121
0.167315 0.0360418 0.0328985
0.178378 0.0361181 0.0327459
0.189487 0.0359655 0.0322576
0.199298 0.0359045 0.0319219
0.210986 0.0359808 0.0317998
0.221317 0.0360113 0.0316167
0.230838 0.0357977 0.0310826
0.243229 0.0358587 0.0309148
0.254765 0.0359197 0.0307164
0.266789 0.0358129 0.0302129
0.277546 0.035874 0.0299229
0.29012 0.0359808 0.0296025
0.302174 0.0361486 0.0293126
0.313466 0.0360571 0.0285801
0.325124 0.0362402 0.0282292
0.339239 0.0364385 0.027924
0.351034 0.0364843 0.0275273
0.361639 0.0366827 0.0273899
0.373526 0.0368505 0.0272831
0.387457 0.0369421 0.0271458
0.397375 0.0371557 0.0275273
0.407309 0.0372625 0.0278477
0.420676 0.0374456 0.0281529
0.430289 0.037705 0.0287327
0.43946 0.0380713 0.0294194
0.448676 0.0383917 0.0300603
0.458045 0.0388495 0.030808
0.466102 0.0393835 0.0315862
0.476081 0.0401312 0.0323796
0.483543 0.0407416 0.0329137
0.49189 0.0416571 0.0336919
0.499763 0.0425727 0.0344396
0.508049 0.0437171 0.0352789
0.518074 0.045243 0.0363775
0.523949 0.0462501 0.0368353
0.531975 0.0477607 0.0379492
0.538155 0.049012 0.0388647
0.542321 0.049836 0.039353
0.547692 0.0510262 0.0406195
0.547616 0.0510414 0.0404669
0.54757 0.0510567 0.0403754
0.547539 0.0510719 0.0402991
0.547494 0.0510872 0.0401923
0.547448 0.0511177 0.0400549
0.547509 0.0510872 0.0401312
0.547692 0.0510414 0.0404517
0.547982 0.0509346 0.041001
0.548394 0.050782 0.0418097
0.548913 0.0505989 0.0429084
0.549447 0.0503853 0.0441291
0.0267948 0.0441291 0.0377966
0.028809 0.0440375 0.0379797
0.0317235 0.0437934 0.0383612
0.0363622 0.0437018 0.0391394
0.0456092 0.0434272 0.0387732
0.0535134 0.0423743 0.0373846
0.0620584 0.0414435 0.0365759
0.0721904 0.0400549 0.035996
0.0830701 0.0386969 0.0355688
0.095079 0.038056 0.0351415
0.106798 0.0370642 0.0343633
0.118608 0.0363012 0.0339818
0.130297 0.0361791 0.0338903
0.142245 0.0361944 0.033814
0.153384 0.035996 0.033341
0.165072 0.0360266 0.0330968
0.176516 0.0360723 0.0328832
0.187655 0.0360571 0.0325628
0.198322 0.0359045 0.0320287
0.209522 0.0359503 0.0318303
0.219654 0.0360113 0.0316777
0.229908 0.0357977 0.0311131
0.241016 0.0358282 0.0309148
0.252308 0.0359045 0.0307622
0.263966 0.0359045 0.0304875
0.275227 0.0357977 0.0299992
0.286503 0.035935 0.0298314
0.298375 0.0360418 0.029572
0.30985 0.0360571 0.0290837
0.322026 0.0361334 0.0286564
0.334569 0.036347 0.0284123
0.346563 0.0364233 0.0280003
0.358144 0.0365301 0.0277562
0.370291 0.036759 0.0277104
0.381964 0.0368963 0.0276341
0.393103 0.0369726 0.0276799
0.404547 0.037232 0.0280613
0.41532 0.0373236 0.0282597
0.425574 0.0375067 0.0286412
0.435935 0.0378729 0.0292821
0.445579 0.0382086 0.0299382
0.4551 0.0386053 0.0306096
0.464424 0.0392615 0.0315099
0.473472 0.0398566 0.0322118
0.481971 0.0405585 0.0329595
0.490486 0.0414893 0.0338903
0.498741 0.0424048 0.034638
0.506432 0.0433814 0.0354009
0.514031 0.0444648 0.0361944
0.521233 0.0456092 0.0369116
0.528511 0.047013 0.0378729
0.535134 0.0482643 0.0386358
0.541299 0.0495003 0.0395209
0.546761 0.0507362 0.0406195
0.547723 0.0509957 0.0407111
0.547646 0.0510414 0.040528
0.547601 0.0510567 0.0404212
0.54757 0.0510567 0.0403449
0.547539 0.0510719 0.0402686
0.547631 0.0510414 0.0403906
0.547829 0.0509804 0.0407568
0.54815 0.0508736 0.0413214
0.548562 0.050721 0.0421607
0.549065 0.0505379 0.0432593
0.549584 0.0503395 0.0444343
0.0267796 0.0489967 0.0390021
0.0275425 0.0492866 0.0392767
0.0300755 0.0490883 0.0391546
0.0361028 0.0487068 0.0392615
0.0457465 0.0484779 0.0402228
0.0534371 0.048127 0.0391089
0.0616007 0.047776 0.0386206
0.0708324 0.0470741 0.0383764
0.0809644 0.0455482 0.0376593
0.0927749 0.0440375 0.037171
0.105043 0.0423438 0.0364996
0.116564 0.0409094 0.0358434
0.127977 0.0397345 0.035111
0.14049 0.0391089 0.0347601
0.152758 0.0385138 0.0344091
0.164324 0.0378882 0.0339361
0.17612 0.0372778 0.0334478
0.187228 0.0365301 0.032639
0.198566 0.035874 0.0321508
0.209628 0.035935 0.0319371
0.220203 0.035996 0.0317388
0.230686 0.0357824 0.0311131
0.241962 0.0358282 0.0309148
0.25275 0.0359197 0.0307774
0.263798 0.0359045 0.0305028
0.274968 0.0357977 0.0300298
0.286015 0.0359045 0.0299077
0.297581 0.0360113 0.0297093
0.308537 0.0360113 0.0292973
0.319387 0.0360571 0.0289616
0.331624 0.0362097 0.0287327
0.342672 0.0363165 0.0284276
0.353979 0.0363622 0.0280919
0.365682 0.0365759 0.0280461
0.376974 0.0366979 0.027924
0.388251 0.0367742 0.027924
0.399405 0.0370336 0.0281987
0.410376 0.0371252 0.0283055
0.420569 0.0373236 0.0286564
0.431037 0.0376287 0.02916
0.441032 0.0380407 0.0299535
0.450752 0.038407 0.0305333
0.46006 0.0389105 0.0312047
0.469215 0.0395514 0.0320134
0.478447 0.0402228 0.0327611
0.486931 0.0410468 0.0336309
0.495064 0.0419013 0.0343938
0.503105 0.0428626 0.0351415
0.511086 0.0440223 0.0362249
0.518425 0.0451209 0.0370794
0.525704 0.0463417 0.0378882
0.532525 0.0476539 0.0387427
0.538949 0.0489509 0.0395819
0.545129 0.0502632 0.0406043
0.547875 0.0509346 0.0410468
0.547768 0.0509957 0.0407874
0.547677 0.0510262 0.040589
0.547631 0.0510414 0.0404669
0.547616 0.0510567 0.0403906
0.547723 0.0510109 0.0405737
0.547936 0.0509499 0.0409857
0.548272 0.0508278 0.0416114
0.548714 0.0506752 0.0424964
0.549203 0.0504768 0.0436255
0.549813 0.050248 0.0449073
0.0269474 0.0573739 0.0416571
0.0269169 0.0574655 0.0416724
0.0273899 0.0578775 0.0418402
0.0347143 0.0570687 0.0418555
0.0462043 0.056733 0.0420233
0.0540322 0.0559701 0.0413977
0.0628061 0.055787 0.041001
0.0726482 0.0554208 0.0405585
0.0826581 0.0542763 0.0400702
0.0940108 0.0532692 0.0393225
0.10602 0.0518959 0.0386664
0.117845 0.0508125 0.0383917
0.129854 0.0496529 0.0380713
0.142779 0.0479896 0.0374609
0.155535 0.0464027 0.0367285
0.167254 0.0446174 0.035874
0.179736 0.0428321 0.03505
0.192096 0.0407874 0.0341039
0.203571 0.0387884 0.033402
0.214862 0.0376745 0.0324407
0.225666 0.0370489 0.031693
0.237217 0.0366979 0.0313573
0.249042 0.0360418 0.0309148
0.260121 0.035935 0.0306859
0.270619 0.0357824 0.0301518
0.281254 0.0358587 0.029984
0.292363 0.035935 0.0298161
0.303243 0.0360571 0.0296941
0.313069 0.0359503 0.0292058
0.32372 0.0360571 0.0290379
0.334508 0.0362249 0.0289769
0.345098 0.0362707 0.0287022
0.35523 0.0363012 0.0284276
0.365743 0.0364996 0.0283818
0.376104 0.0366064 0.0282902
0.386114 0.0366979 0.0282902
0.396231 0.0368505 0.0284276
0.406165 0.0370947 0.0287022
0.416281 0.0372015 0.0288548
0.425971 0.0373999 0.0292058
0.436149 0.0377508 0.0298314
0.445762 0.0381323 0.0303807
0.455039 0.038529 0.0308995
0.464439 0.0392004 0.0317388
0.473838 0.0398413 0.0324407
0.482567 0.0405585 0.0332036
0.491279 0.0415045 0.0341955
0.499367 0.0424048 0.0349737
0.507439 0.0434424 0.0358587
0.515129 0.0444953 0.0368048
0.522408 0.045655 0.0377356
0.529824 0.0470283 0.0388647
0.536294 0.0482795 0.0396429
0.542657 0.0495918 0.0404822
0.547265 0.0506905 0.0413214
0.547951 0.0509194 0.0411841
0.547814 0.0509804 0.0408942
0.547723 0.0510109 0.0406653
0.547662 0.0510262 0.0405127
0.547753 0.0509957 0.0406806
0.547982 0.0509194 0.0411231
0.548333 0.0507973 0.0418097
0.548775 0.0506294 0.0427405
0.549279 0.0504311 0.0439307
0.549889 0.0502022 0.045243
0.0275273 0.0646067 0.0441444
0.0274815 0.0645914 0.0441138
0.0274968 0.0647898 0.0441596
0.0309606 0.0650339 0.0442664
0.0468605 0.063798 0.0437781
0.0528878 0.0637064 0.0430304
0.0621347 0.0631723 0.0429084
0.0721599 0.0624857 0.0426032
0.0843519 0.0613107 0.0416724
0.0962844 0.0603189 0.0409857
0.109453 0.0590982 0.0403143
0.121431 0.0581826 0.0396887
0.133349 0.0568704 0.0389868
0.145434 0.0555276 0.0377203
0.157931 0.0542306 0.0370489
0.170794 0.0528878 0.0363317
0.183398 0.051667 0.0353704
0.196536 0.0497597 0.0353399
0.209445 0.0477913 0.035111
0.221225 0.0457008 0.0341344
0.233204 0.0437018 0.0334783
0.245411 0.0416876 0.0326848
0.256962 0.0393835 0.0316472
0.269337 0.0380713 0.0310674
0.280934 0.0373541 0.0304723
0.292271 0.0369421 0.0300603
0.302968 0.0363012 0.0297093
0.313664 0.035935 0.029221
0.32491 0.0360571 0.0290684
0.334829 0.0362249 0.0290532
0.345342 0.0362402 0.0288243
0.355322 0.0362554 0.0286259
0.364538 0.036408 0.0286564
0.373724 0.0365606 0.0286717
0.382498 0.0366674 0.028687
0.391684 0.0366979 0.028687
0.4009 0.0368811 0.0288853
0.409201 0.0369879 0.0289769
0.418296 0.037171 0.0291905
0.427054 0.0373846 0.0294804
0.436133 0.037705 0.0300145
0.444816 0.037995 0.030396
0.453285 0.038468 0.0309758
0.461997 0.0389715 0.0315557
0.470512 0.0395666 0.0322118
0.479377 0.0402686 0.0329442
0.487938 0.0411078 0.0338293
0.496269 0.0420081 0.0346532
0.504356 0.0429694 0.0355383
0.512245 0.0440681 0.0366217
0.519753 0.0451514 0.0376135
0.527153 0.0464179 0.0387579
0.534066 0.0476844 0.0397192
0.540383 0.0489662 0.040589
0.546746 0.0503853 0.0417029
0.548196 0.0508278 0.0417182
0.548028 0.0509041 0.0413214
0.547875 0.0509499 0.041001
0.547753 0.0509957 0.0407568
0.547784 0.0509804 0.0408331
0.547982 0.0509194 0.0412299
0.548302 0.0507973 0.0419165
0.548745 0.0506294 0.0428931
0.549279 0.0504158 0.0441444
0.549874 0.0501869 0.0455024
0.0279545 0.0729534 0.0463569
0.0278782 0.0724804 0.0462043
0.0278325 0.0725414 0.0461738
0.0290532 0.0732738 0.0463417
0.0424506 0.0723125 0.0461128
0.0535134 0.0714733 0.0450904
0.060914 0.0717021 0.0445258
0.0712749 0.0712596 0.0445563
0.0831159 0.0701915 0.0434577
0.0961929 0.0687877 0.0428016
0.111055 0.0676432 0.0420844
0.124666 0.0664836 0.0413977
0.137942 0.0647746 0.0400244
0.151431 0.0635538 0.0391852
0.163912 0.0623789 0.038529
0.176791 0.0612345 0.0378576
0.188922 0.0598154 0.0368811
0.201892 0.0587778 0.0362402
0.213886 0.0573281 0.0353246
0.226581 0.0557412 0.0343175
0.239292 0.0540932 0.033463
0.252415 0.0521096 0.0326543
0.265461 0.0497444 0.032578
0.278782 0.0471199 0.0325322
0.290669 0.04477 0.0316014
0.302541 0.0424811 0.0310826
0.313512 0.040116 0.0303655
0.325933 0.0384222 0.0297551
0.337591 0.0376135 0.0292363
0.34876 0.0371862 0.0288396
0.359365 0.0366979 0.0287022
0.370398 0.0365301 0.028687
0.379583 0.0365606 0.0286107
0.387991 0.0366064 0.0285801
0.396109 0.036759 0.028809
0.403388 0.0368811 0.029099
0.410422 0.0369268 0.0292058
0.417853 0.0371099 0.0294652
0.425055 0.0372168 0.0295872
0.432654 0.0375219 0.0299992
0.440467 0.0378882 0.030518
0.448142 0.0381781 0.0308232
0.456092 0.0385443 0.0311742
0.46392 0.0391394 0.0318303
0.471977 0.0396582 0.0323491
0.47953 0.0402838 0.0329747
0.487251 0.0410468 0.0337682
0.494865 0.0418402 0.0345159
0.50277 0.0427253 0.0353552
0.510903 0.0438697 0.0365454
0.518334 0.0449378 0.0376287
0.525811 0.0460975 0.0387884
0.533043 0.0474098 0.0400092
0.539528 0.0486763 0.0410163
0.54583 0.0500191 0.0420233
0.548226 0.0506447 0.042298
0.548302 0.0507973 0.0419165
0.548104 0.0508736 0.0414893
0.547936 0.0509346 0.0411383
0.547921 0.0509346 0.0411078
0.548058 0.0508888 0.0413977
0.548333 0.050782 0.0420081
0.548775 0.0506142 0.0429541
0.549294 0.0504158 0.0442054
0.549905 0.0501717 0.045594
0.0281224 0.0819257 0.0480812
0.0280308 0.0813001 0.0479286
0.0279698 0.0809949 0.0478218
0.0280461 0.0818341 0.0479133
0.0339055 0.0831311 0.0484321
0.0526436 0.0805982 0.0467231
0.061677 0.0807202 0.0460975
0.0698405 0.0811475 0.0453346
0.081239 0.0801556 0.0454108
0.0946212 0.0792859 0.0447395
0.109514 0.0779583 0.0437934
0.124163 0.0764019 0.0424353
0.139681 0.0750134 0.0417029
0.155306 0.0734112 0.0408942
0.170062 0.0719921 0.0400397
0.183581 0.0702983 0.0387732
0.196612 0.068925 0.0377966
0.209033 0.0677348 0.0371862
0.221515 0.0662852 0.0364538
0.233616 0.0651865 0.035523
0.246845 0.063859 0.0347601
0.260121 0.0627756 0.0339818
0.273014 0.0607767 0.033051
0.285725 0.058854 0.0320592
0.299046 0.0563668 0.031342
0.31107 0.0537575 0.0304112
0.324285 0.0510262 0.0310063
0.336919 0.0485389 0.0301671
0.349706 0.0457618 0.0305638
0.361425 0.0431983 0.0299535
0.372381 0.0405432 0.0292515
0.383902 0.0387732 0.0290684
0.395407 0.0380407 0.0289464
0.404669 0.0374762 0.0288701
0.41323 0.0371405 0.0290074
0.420691 0.037171 0.0293278
0.427024 0.0373236 0.0297093
0.432639 0.0375067 0.0300908
0.437903 0.037705 0.030457
0.443168 0.0379034 0.0307774
0.448814 0.0381476 0.0311284
0.455024 0.0384222 0.0313878
0.461509 0.03888 0.0318151
0.468391 0.0394141 0.0323033
0.475288 0.0399481 0.0327916
0.48275 0.0405585 0.0333104
0.490257 0.0413825 0.034165
0.497093 0.0420844 0.0347753
0.504067 0.0429084 0.0355535
0.510948 0.0438697 0.0365911
0.517693 0.0448157 0.0375982
0.524895 0.0458991 0.0387427
0.531853 0.0471351 0.0401007
0.538628 0.0484016 0.0412757
0.544762 0.0496223 0.0422827
0.548394 0.0504921 0.0429847
0.548638 0.0506752 0.042649
0.548409 0.0507515 0.0421454
0.548196 0.0508278 0.0417029
0.548119 0.0508583 0.0415503
0.548211 0.0508278 0.0417334
0.54844 0.0507362 0.042237
0.548821 0.0505989 0.0430762
0.54931 0.0504005 0.0442664
0.54992 0.0501564 0.0456397
0.0283055 0.091722 0.0497902
0.0282292 0.0911269 0.0495918
0.0281529 0.0905013 0.0494087
0.0280919 0.0909285 0.0493935
0.0287022 0.0937057 0.0496986
0.0440833 0.0927749 0.049012
0.0623331 0.0909133 0.0477455
0.070634 0.0911574 0.0465858
0.080293 0.0913405 0.0460822
0.0927901 0.0909438 0.0463264
0.106996 0.0895705 0.0451209
0.122835 0.0882582 0.0441596
0.13872 0.0866407 0.0432898
0.154711 0.0847334 0.0420539
0.170703 0.0831464 0.0409857
0.186557 0.0814069 0.0400244
0.201602 0.0798505 0.0391852
0.215732 0.0780804 0.0383917
0.229191 0.0766918 0.0373693
0.241749 0.0750591 0.0364843
0.254292 0.0735027 0.0356146
0.267185 0.0720684 0.0349126
0.280797 0.071046 0.0341802
0.293767 0.070222 0.033341
0.307607 0.0684977 0.0326696
0.321157 0.0660105 0.0319829
0.333715 0.0633402 0.0310979
0.346899 0.0607919 0.0302892
0.359869 0.0581521 0.0295872
0.37229 0.0552987 0.0289006
0.388846 0.0509041 0.0349889
0.400183 0.0482338 0.0342107
0.411719 0.0454261 0.0340734
0.42211 0.0426795 0.0337072
0.430228 0.039704 0.0327306
0.438392 0.038468 0.0321355
0.444923 0.0379187 0.0316472
0.450935 0.0381476 0.0315862
0.455161 0.038407 0.0314183
0.459037 0.0387579 0.0314794
0.462882 0.0390478 0.0315709
0.466377 0.0393683 0.0317845
0.470283 0.0396429 0.0317693
0.47512 0.0401312 0.0320134
0.480278 0.0405585 0.0322118
0.486549 0.0412299 0.0327764
0.493004 0.0418708 0.0333104
0.499992 0.0426947 0.0340124
0.506752 0.043595 0.0348974
0.513329 0.0444648 0.0357519
0.519753 0.0453956 0.0367132
0.525551 0.0463417 0.037705
0.531609 0.0474403 0.0388495
0.537285 0.0484627 0.0398108
0.543313 0.0496529 0.0408789
0.547906 0.0506905 0.0418708
0.54818 0.0508431 0.0416419
0.547967 0.0509194 0.0412146
0.547753 0.0509957 0.0407416
0.54757 0.0510567 0.0403601
0.547448 0.0511177 0.0401007
0.547387 0.051133 0.0399786
0.547402 0.0511177 0.0400244
0.547494 0.0510872 0.0402075
0.547692 0.0510109 0.0406348
0.0286107 0.102358 0.0517128
0.0284886 0.101411 0.0513619
0.0284581 0.100587 0.0512093
0.0284276 0.100298 0.0511177
0.0285344 0.103548 0.0518044
0.033341 0.105425 0.0514076
0.0554818 0.103593 0.0500496
0.0724956 0.102068 0.0479896
0.0819715 0.102693 0.0470741
0.0918746 0.102358 0.046479
0.105959 0.102083 0.0468605
0.120378 0.101076 0.0460365
0.136522 0.0991836 0.0445869
0.153536 0.0975967 0.0435187
0.169879 0.0958877 0.0423133
0.186358 0.0943923 0.0411688
0.202304 0.0922408 0.0400092
0.218326 0.0903182 0.0390478
0.233234 0.088426 0.0378882
0.248524 0.0865644 0.0370642
0.262501 0.0847334 0.036347
0.275105 0.0830396 0.0354925
0.288243 0.0813764 0.0345769
0.300938 0.0799878 0.0337377
0.314794 0.079408 0.0332494
0.328481 0.0777752 0.0328374
0.34229 0.0758679 0.0322271
0.356329 0.0732891 0.0321202
0.369741 0.0703593 0.0319982
0.383978 0.0673838 0.0320897
0.397513 0.0644846 0.0321813
0.410636 0.0615549 0.0324712
0.422827 0.0587167 0.0323796
0.434623 0.0557107 0.0321813
0.445151 0.0519112 0.0337835
0.453468 0.0488289 0.033463
0.461036 0.0453193 0.0340734
0.466346 0.0417029 0.0335546
0.471534 0.0403601 0.033341
0.475853 0.0399023 0.0332036
0.479362 0.0401923 0.0332189
0.482216 0.0404974 0.0333104
0.484825 0.0408179 0.033402
0.487251 0.0411231 0.033463
0.490272 0.0415351 0.0335851
0.493919 0.0419013 0.0337072
0.498772 0.0425269 0.0342107
0.50425 0.0431983 0.0346838
0.510842 0.0441444 0.035584
0.517388 0.0450904 0.0364691
0.523278 0.0459449 0.0372931
0.529366 0.047013 0.038468
0.534813 0.0479438 0.0394446
0.539971 0.0489204 0.0404669
0.544915 0.0499123 0.041474
0.548959 0.0507973 0.0423896
0.548775 0.0508125 0.0421454
0.548302 0.0508125 0.041825
0.548089 0.0508736 0.0414435
0.547906 0.0509346 0.0410773
0.547768 0.0509957 0.0407721
0.547662 0.0510262 0.0405737
0.547631 0.0510414 0.0404974
0.547662 0.0510262 0.0405737
0.547814 0.0509804 0.0408789
0.0285039 0.113802 0.0529793
0.0284886 0.113069 0.0528572
0.0284733 0.112032 0.0527047
0.0284428 0.111208 0.0525673
0.0283818 0.113848 0.0527504
0.0287022 0.117189 0.0528878
0.0444648 0.118044 0.0519417
0.0681621 0.115633 0.0498512
0.0843061 0.113939 0.0475776
0.0932479 0.1149 0.046952
0.104845 0.114977 0.0468452
0.118563 0.114061 0.0466621
0.134325 0.113054 0.0461585
0.151522 0.111559 0.0450294
0.168719 0.109514 0.0435035
0.185138 0.107805 0.0422217
0.201633 0.106004 0.0412299
0.218311 0.104219 0.0402533
0.234852 0.102037 0.0390478
0.250813 0.0994736 0.0378729
0.266606 0.0972763 0.0370642
0.281712 0.0952316 0.0361639
0.295506 0.0928817 0.0353246
0.309255 0.0911269 0.0347295
0.322698 0.0896468 0.0342107
0.335393 0.0888228 0.0335088
0.349111 0.0878309 0.0329595
0.363714 0.0860609 0.0328374
0.377966 0.0834211 0.0327916
0.391699 0.0809186 0.0327611
0.406119 0.0780652 0.0331426
0.419821 0.0753338 0.0332036
0.433402 0.0723888 0.0335088
0.445884 0.0694591 0.0334478
0.457588 0.0661479 0.033463
0.467247 0.0628672 0.033402
0.475029 0.0592813 0.0333104
0.481498 0.0558022 0.0323186
0.48777 0.0506294 0.0349126
0.492485 0.0462348 0.0357214
0.495506 0.0430457 0.035462
0.498619 0.0421302 0.0354772
0.501137 0.0424201 0.035584
0.503044 0.04271 0.0356146
0.504219 0.0429541 0.035523
0.506233 0.0432746 0.035584
0.508736 0.0437018 0.0357977
0.51194 0.0441901 0.0360418
0.515908 0.0447852 0.0364385
0.520974 0.0455329 0.0370031
0.527413 0.0466468 0.0381323
0.533272 0.0476539 0.0391546
0.538933 0.0487526 0.0403449
0.543999 0.0496986 0.0413825
0.54847 0.0506447 0.0424506
0.552728 0.0515145 0.0433356
0.551476 0.0512703 0.0429236
0.550072 0.0510109 0.0424048
0.54902 0.0509041 0.0420233
0.548333 0.0508431 0.0417639
0.548135 0.0508736 0.0415045
0.548012 0.0509041 0.0413062
0.547951 0.0509194 0.0411688
0.547936 0.0509346 0.0411231
0.548012 0.0509041 0.0413214
0.0283055 0.125505 0.0539406
0.0283513 0.124834 0.0539712
0.0283665 0.124376 0.0539406
0.028275 0.123232 0.0536202
0.028275 0.124071 0.053727
0.027985 0.128176 0.0535744
0.0331884 0.132357 0.0537881
0.0565042 0.131136 0.0517586
0.0827344 0.12726 0.0487526
0.0964828 0.126955 0.0474098
0.105608 0.127443 0.0465858
0.117922 0.127611 0.0464942
0.133196 0.126864 0.0467994
0.149508 0.125185 0.0459449
0.166629 0.123857 0.0445563
0.183902 0.121828 0.0434577
0.201022 0.12018 0.0424811
0.21735 0.118212 0.0410773
0.234028 0.116274 0.0399481
0.251164 0.114031 0.0388647
0.268605 0.111727 0.0381018
0.284993 0.108965 0.0371252
0.300526 0.106447 0.0361028
0.315572 0.103914 0.0352941
0.329931 0.101488 0.0344244
0.343435 0.0994583 0.0340734
0.356985 0.0988632 0.0338903
0.370428 0.098024 0.0336767
0.384771 0.0963912 0.0336767
0.398611 0.0943465 0.0335241
0.41323 0.0918135 0.0339208
0.427405 0.0890211 0.0341039
0.440955 0.0863203 0.0343633
0.454276 0.0835889 0.0345159
0.467063 0.0807965 0.034638
0.478294 0.0775311 0.0347906
0.488029 0.0739757 0.0353094
0.496101 0.0701305 0.0356603
0.50312 0.0659495 0.0359045
0.50811 0.0608988 0.0359503
0.512718 0.055314 0.0378424
0.515938 0.0497139 0.0390936
0.517388 0.0460059 0.0386206
0.519081 0.044831 0.0385748
0.520562 0.0450752 0.038468
0.521294 0.045243 0.0382391
0.52195 0.0454414 0.0381476
0.523217 0.045716 0.0380865
0.525307 0.0461433 0.0382239
0.528359 0.0467536 0.0386358
0.53196 0.0474403 0.0391546
0.537087 0.0483711 0.0400244
0.542535 0.0493782 0.041062
0.547677 0.0504768 0.042298
0.552316 0.0514076 0.0433051
0.556451 0.0523232 0.0443732
0.555734 0.0522011 0.0441901
0.554269 0.0518807 0.0437171
0.55259 0.0515297 0.0431373
0.551156 0.0512703 0.0426642
0.54995 0.0510414 0.0422522
0.549096 0.0509346 0.0420081
0.548791 0.0508888 0.0419013
0.548424 0.0508278 0.0418555
0.548333 0.0507973 0.0419318
0.0280003 0.138827 0.0547189
0.0279545 0.137667 0.0545205
0.0280003 0.136767 0.0545052
0.0280613 0.135607 0.0545052
0.0280461 0.135027 0.0544137
0.027863 0.139147 0.0544289
0.0280156 0.144274 0.0546273
0.0442054 0.146883 0.0534218
0.0696574 0.144717 0.050782
0.0955215 0.14081 0.0480049
0.109224 0.140002 0.0465095
0.119234 0.141009 0.0464179
0.131975 0.140871 0.0461128
0.147997 0.13991 0.0461128
0.16524 0.138705 0.0458228
0.181979 0.136812 0.0442817
0.199542 0.134463 0.0429541
0.21651 0.132998 0.0420386
0.233402 0.131365 0.0410468
0.250202 0.129458 0.0396124
0.267536 0.127077 0.0386816
0.285588 0.124514 0.0378119
0.303441 0.121477 0.0368505
0.319692 0.11873 0.0362402
0.3355 0.116167 0.035462
0.350347 0.113283 0.0348211
0.365454 0.110307 0.0343938
0.378882 0.1093 0.0342107
0.392111 0.108919 0.0343023
0.406455 0.107912 0.0346227
0.420722 0.105852 0.0349584
0.434989 0.103517 0.035523
0.448844 0.100999 0.0356756
0.462257 0.0984207 0.0362249
0.475425 0.0957809 0.0367285
0.488014 0.0926528 0.0376745
0.498482 0.0892805 0.038468
0.508446 0.0858625 0.0396887
0.51693 0.0816358 0.0405127
0.524361 0.0770428 0.0412146
0.529656 0.0717021 0.0413367
0.533135 0.06598 0.0408026
0.53637 0.059556 0.0428016
0.537453 0.0529793 0.043183
0.537499 0.0491646 0.0423743
0.53785 0.0479438 0.0420844
0.538445 0.0481727 0.0419013
0.537972 0.0481575 0.0415045
0.538506 0.0483711 0.0412909
0.539422 0.0486305 0.0411383
0.540505 0.0488746 0.0410468
0.542901 0.0493935 0.0413672
0.546654 0.0502174 0.0421454
