bundles/resolve-cinematic-luts/Phantom Luts/DJI/DJI Phntm ARRI LUTs - G3/Mavic 3 Pro D-Log-M/IceBlue - M3P D-LogM.cube
TITLE "Generated by Resolve"
LUT_3D_SIZE 5
0.0279393 0.0401465 0.0377203
0.180972 0.0361181 0.0325933
0.364889 0.0367895 0.0270848
0.521248 0.0458228 0.0361791
0.549279 0.0504463 0.0438239
0.0264134 0.194553 0.0560769
0.193759 0.197131 0.0429389
0.480766 0.165087 0.0403906
0.61796 0.0945144 0.0725567
0.574807 0.0553597 0.0535744
0.0292821 0.48426 0.0742046
0.0264744 0.464958 0.0682841
0.515618 0.49807 0.0762493
0.778103 0.509377 0.193561
0.838834 0.501427 0.228473
0.16759 0.762798 0.239048
0.158389 0.751476 0.23154
0.280034 0.764935 0.195285
0.816403 0.801648 0.279728
0.951308 0.835904 0.358022
0.199329 0.805753 0.269596
0.199725 0.805737 0.269444
0.22797 0.813596 0.264744
0.882933 0.899916 0.357733
0.978408 0.932265 0.424949
0.0159304 0.0416419 0.199115
0.189502 0.0367895 0.172671
0.416815 0.0366522 0.132692
0.585306 0.0495918 0.167269
0.562219 0.0491798 0.0861982
0.0205081 0.185229 0.197848
0.17731 0.197559 0.207416
0.509117 0.142397 0.163531
0.598016 0.0543374 0.130068
0.554513 0.0496986 0.0514534
0.0300298 0.487892 0.205631
0.0254673 0.46656 0.124865
0.503944 0.498268 0.126741
0.759441 0.518395 0.193881
0.843626 0.518273 0.234821
0.164416 0.758038 0.23566
0.154833 0.745434 0.226947
0.273365 0.759548 0.192218
0.808362 0.792737 0.273274
0.94815 0.830655 0.355535
0.199496 0.805661 0.269871
0.200595 0.805417 0.270115
0.229831 0.813748 0.264729
0.878019 0.898985 0.355856
0.977157 0.931991 0.424384
0.00972 0.0491493 0.402564
0.13225 0.0421454 0.422736
0.414542 0.0389105 0.365072
0.638041 0.0576791 0.317723
0.640986 0.0585489 0.289113
0.0103761 0.1841 0.417578
0.0995499 0.120378 0.508034
0.45922 0.0574502 0.429343
0.630716 0.0556954 0.314595
0.64062 0.0585489 0.287266
0.0462654 0.500999 0.498024
0.035523 0.472267 0.458396
0.453559 0.479896 0.478386
0.827131 0.471199 0.44448
0.891707 0.432212 0.413077
0.16173 0.760708 0.583032
0.142061 0.746426 0.506737
0.218051 0.759838 0.450736
0.777768 0.795972 0.463737
0.956985 0.829923 0.513802
0.231586 0.852369 0.655619
0.216236 0.843534 0.597131
0.210773 0.838697 0.535592
0.82919 0.93373 0.543191
0.973098 0.958129 0.522896
0.0121462 0.0635233 0.548516
0.0628824 0.0619364 0.587259
0.367773 0.0560311 0.623606
0.614801 0.068452 0.556848
0.65304 0.0759747 0.552163
0.0149844 0.0929427 0.574121
0.0183413 0.0635538 0.558007
0.348196 0.0569619 0.62974
0.602899 0.0666972 0.560922
0.650874 0.076936 0.562173
0.0725872 0.529198 0.661158
0.0627451 0.489479 0.658289
0.40798 0.472892 0.837537
0.798978 0.399283 0.778836
0.880247 0.362417 0.753841
0.205463 0.771084 0.761105
0.191318 0.753826 0.741314
0.248676 0.765148 0.754269
0.732891 0.76965 0.776028
0.948516 0.794415 0.785504
0.295109 0.882551 0.83592
0.285466 0.874662 0.822797
0.271733 0.857206 0.793408
0.749584 0.926192 0.827008
0.938094 0.94287 0.819913
0.011017 0.0702831 0.631403
0.0247807 0.071107 0.635157
0.334142 0.0760052 0.708888
0.576837 0.0786297 0.651789
0.631434 0.086656 0.643915
0.029633 0.214847 0.70193
0.0278477 0.204303 0.699062
0.377371 0.106966 0.759884
0.567773 0.0776837 0.653971
0.631022 0.0867018 0.64445
0.110246 0.56846 0.764477
0.104784 0.548775 0.767376
0.421744 0.549844 0.943679
0.780316 0.452689 0.922225
0.866377 0.402853 0.878325
0.231693 0.790539 0.8159
0.22501 0.783612 0.808515
0.217914 0.763729 0.80676
0.738628 0.79295 0.929992
0.93431 0.777874 0.916487
0.310353 0.883696 0.857694
0.30251 0.875837 0.850355
0.346075 0.88809 0.867262
0.771099 0.929641 0.927321
0.916091 0.920485 0.926879
