bundles/resolve-cinematic-luts/Phantom Luts/DJI/DJI Phntm ARRI LUTs - G3/Mavic 3 Pro D-Log-M/Jamaica - M3P D-LogM.cube
TITLE "Generated by Resolve"
LUT_3D_SIZE 65
0.00292973 0.0295415 0.00550851
0.00926223 0.0292821 0.00515755
0.014786 0.0292668 0.00477607
0.0260014 0.0291142 0.00364691
0.0450446 0.027451 0.000518807
0.0614633 0.026154 0
0.0793011 0.0254215 0
0.0959793 0.0249638 0
0.111498 0.0249638 0
0.128069 0.0250248 0
0.14107 0.0249332 0
0.153506 0.0249943 0
0.165393 0.0250248 0
0.176822 0.0249638 0
0.188357 0.0249943 0
0.199573 0.0250248 0
0.210163 0.0250553 0
0.220035 0.0249943 0
0.232181 0.0250401 0
0.240986 0.0250858 0
0.250965 0.0250095 0
0.264408 0.0250706 0
0.275013 0.0251469 0
0.287373 0.0250706 0
0.298283 0.0251316 0
0.310903 0.0252384 0
0.320775 0.0253147 0
0.333333 0.0253147 0
0.343542 0.0254063 0
0.359152 0.0255589 0
0.369558 0.0255589 0
0.378729 0.0257115 0
0.390494 0.0258793 0
0.405509 0.0260319 0
0.413413 0.026215 0
0.422492 0.0264439 0
0.436545 0.0267185 0
0.445182 0.0270237 0
0.453574 0.0273136 0
0.461509 0.0275731 0
0.472801 0.0280613 0
0.480293 0.0284733 0
0.491341 0.029099 0
0.498589 0.0296788 0
0.507393 0.0305333 0
0.51519 0.0313268 0
0.523339 0.0324407 0
0.533074 0.0340887 0.0024567
0.537896 0.0351568 0.00421149
0.544442 0.0369573 0.007187
0.548623 0.0382849 0.00933852
0.551095 0.039292 0.0109407
0.556405 0.040589 0.0175174
0.556405 0.040589 0.0175174
0.556405 0.040589 0.0175326
0.556405 0.040589 0.0175326
0.55639 0.040589 0.0175479
0.55639 0.040589 0.0175631
0.556374 0.040589 0.0175784
0.556374 0.040589 0.0175937
0.556374 0.040589 0.0175937
0.556374 0.040589 0.0175937
0.556344 0.040589 0.0175937
0.556313 0.0406043 0.0175937
0.556268 0.0406043 0.0175937
0.000457771 0.0322423 0.00433356
0.00675975 0.032166 0.00418097
0.0141146 0.0317388 0.00437934
0.0249943 0.031693 0.00370794
0.0426032 0.0310979 0.00161746
0.0590677 0.0297398 0.000228885
0.0747997 0.0281529 0
0.0910048 0.0266117 0
0.107057 0.0261845 0
0.123095 0.026154 0
0.136492 0.0250858 0
0.14934 0.0249638 0
0.161273 0.0250248 0
0.172717 0.0250553 0
0.183932 0.0249943 0
0.195285 0.0250248 0
0.206531 0.0250553 0
0.217121 0.0249943 0
0.228 0.0250248 0
0.238209 0.0250706 0
0.248585 0.0250401 0
0.259037 0.0250553 0
0.270161 0.0251011 0
0.281498 0.0251469 0
0.292699 0.0251164 0
0.302312 0.0251774 0
0.313832 0.0252537 0
0.326452 0.0252842 0
0.336675 0.0253452 0
0.350515 0.0254826 0
0.362005 0.0254978 0
0.371939 0.0256199 0
0.384039 0.0257877 0
0.396765 0.0258946 0
0.407492 0.0260929 0
0.41622 0.0263218 0
0.428153 0.0265202 0
0.436698 0.0267338 0
0.44831 0.0271305 0
0.458228 0.027512 0
0.467597 0.0278019 0
0.47567 0.0281987 0
0.48687 0.0289006 0
0.493996 0.0292973 0
0.503105 0.0300908 0
0.511376 0.03093 0
0.519326 0.0318608 0
0.528176 0.0332799 0.00109865
0.533379 0.034165 0.00256352
0.540429 0.0358129 0.00529488
0.545846 0.0373693 0.00784314
0.549447 0.0386053 0.00982681
0.555383 0.0401465 0.0165713
0.556405 0.040589 0.0175174
0.556405 0.040589 0.0175174
0.556405 0.040589 0.0175174
0.55639 0.040589 0.0175326
0.55639 0.040589 0.0175479
0.55639 0.040589 0.0175631
0.55639 0.040589 0.0175784
0.556374 0.040589 0.0175937
0.556374 0.040589 0.0175937
0.556359 0.040589 0.0175784
0.556329 0.0406043 0.0175631
0.556283 0.0406043 0.0175631
0.000808728 0.0370336 0.00148013
0.00164797 0.0369879 0.00201419
0.00982681 0.0365148 0.00189212
0.0236362 0.0359808 0.00283818
0.0408942 0.0358434 0.00216678
0.0558022 0.0351415 0.000457771
0.0713817 0.0342565 0.000289921
0.0859388 0.0327306 9.15541e-05
0.101549 0.030869 0
0.117632 0.0289769 0
0.132143 0.0269474 0
0.145327 0.0259861 0
0.157809 0.0256809 0
0.169818 0.0258488 0
0.181109 0.0258488 0
0.192447 0.0258946 0
0.203998 0.0259556 0
0.214435 0.0249638 0
0.225635 0.0250248 0
0.235813 0.0250706 0
0.246296 0.0251011 0
0.256947 0.0250401 0
0.267079 0.0251011 0
0.278553 0.0251469 0
0.289433 0.0250706 0
0.299428 0.0251621 0
0.310414 0.0252384 0
0.320974 0.0253147 0
0.332128 0.0253147 0
0.343832 0.0254215 0
0.355093 0.0255589 0
0.365576 0.0255589 0
0.376898 0.0256962 0
0.388479 0.0258946 0
0.399573 0.0259556 0
0.410651 0.0261997 0
0.421317 0.0264286 0
0.431113 0.0265965 0
0.44126 0.0268864 0
0.451102 0.0272221 0
0.46125 0.0275883 0
0.470924 0.0279698 0
0.480659 0.0285039 0
0.489967 0.0290074 0
0.498863 0.0296941 0
0.507576 0.0305486 0
0.515373 0.0313573 0
0.523171 0.0324407 0
0.530175 0.0336156 0.00164797
0.536385 0.0348363 0.00367742
0.542184 0.0363165 0.00611887
0.547021 0.0377508 0.00843824
0.55375 0.0393988 0.0152895
0.556374 0.040589 0.0174716
0.556405 0.040589 0.0175174
0.556405 0.040589 0.0175174
0.556405 0.040589 0.0175326
0.55639 0.040589 0.0175326
0.55639 0.040589 0.0175479
0.556374 0.040589 0.0175631
0.556374 0.040589 0.0175784
0.556374 0.040589 0.0175784
0.556359 0.0406043 0.0175631
0.556344 0.0406043 0.0175479
0.556298 0.0406043 0.0175174
0 0.0484321 0.000244144
0 0.0482643 0.00030518
0 0.0481422 0.000274662
0.0170443 0.0469062 0
0.0391852 0.0459449 0.0012665
0.0551614 0.0450904 0.00187686
0.0713207 0.0442969 0.0012665
0.0873579 0.0431067 0.00141909
0.102403 0.0419471 0.00137331
0.117769 0.0401923 0.000976577
0.131472 0.0388495 0.00047303
0.144427 0.0376287 0.000122072
0.157473 0.0360723 0
0.170245 0.0342107 0
0.182315 0.032105 0
0.19443 0.0303807 0
0.207019 0.0280308 0
0.219409 0.026154 0
0.2309 0.0255283 0
0.241443 0.0256352 0
0.252461 0.0257115 0
0.26302 0.0253605 0
0.273808 0.0251164 0
0.284031 0.0251469 0
0.29398 0.0251164 0
0.304631 0.0251774 0
0.314412 0.0252384 0
0.324468 0.0253147 0
0.333562 0.0253147 0
0.344472 0.0254215 0
0.35491 0.0255589 0
0.36466 0.0255589 0
0.375082 0.0256809 0
0.385489 0.0258488 0
0.395148 0.0259403 0
0.405188 0.0260929 0
0.415045 0.0262913 0
0.424704 0.0265507 0
0.434043 0.0266728 0
0.444038 0.0269932 0
0.454429 0.0273594 0
0.463935 0.0276341 0
0.473884 0.0281224 0
0.484077 0.0287175 0
0.493599 0.0292668 0
0.502449 0.0300298 0
0.511193 0.03093 0
0.51902 0.0318303 0
0.526238 0.0329442 0.000549325
0.532891 0.0340887 0.00244144
0.539086 0.0355077 0.00477607
0.544518 0.0370336 0.00726329
0.549187 0.0385595 0.00970474
0.5552 0.0400549 0.0164187
0.55639 0.040589 0.0175021
0.55639 0.040589 0.0175021
0.55639 0.040589 0.0175174
0.556405 0.040589 0.0175326
0.55639 0.040589 0.0175326
0.55639 0.040589 0.0175479
0.556374 0.040589 0.0175631
0.556359 0.040589 0.0175631
0.556359 0.040589 0.0175479
0.556329 0.0406043 0.0175326
0.556298 0.0406043 0.0175021
0 0.0576791 0.000259403
0 0.0569619 0.000320439
0 0.0568399 0.000320439
0.00924697 0.0563363 0
0.0398718 0.0543832 0.00132753
0.0518807 0.0540017 0.00190738
0.0681163 0.0527504 0.00228885
0.0861677 0.0514076 0.00207523
0.103212 0.0497749 0.00196841
0.119936 0.0480507 0.00163272
0.134188 0.0468299 0.00155642
0.147509 0.0453346 0.00120546
0.160479 0.0439002 0.000976577
0.172992 0.0423438 0.000595102
0.18526 0.0410163 0.000198367
0.197345 0.0396582 0
0.21033 0.0377813 0
0.222675 0.035462 0
0.234623 0.0334325 0
0.246784 0.031281 0
0.258778 0.02916 0
0.271138 0.0269017 0
0.283024 0.0255283 0
0.294621 0.0253758 0
0.305333 0.0255589 0
0.314702 0.0252537 0
0.325154 0.0252842 0
0.334722 0.0252995 0
0.344305 0.025391 0
0.354589 0.0255283 0
0.363607 0.0255283 0
0.372396 0.0256504 0
0.380743 0.0257877 0
0.390158 0.0259403 0
0.399558 0.0259861 0
0.408743 0.0261845 0
0.416648 0.0263676 0
0.424887 0.026566 0
0.43447 0.0267033 0
0.443351 0.0269627 0
0.452674 0.0273136 0
0.461234 0.0275883 0
0.469749 0.0279088 0
0.479057 0.0284123 0
0.488655 0.0289616 0
0.497902 0.0296178 0
0.506935 0.0304875 0
0.514992 0.0313115 0
0.522942 0.0324102 0
0.529702 0.0335699 0.00157168
0.536187 0.0348211 0.00364691
0.542046 0.0363317 0.00608835
0.547051 0.0377966 0.00846876
0.553689 0.0393988 0.015259
0.556344 0.040589 0.0174563
0.55639 0.0406043 0.0174868
0.55639 0.040589 0.0175021
0.55639 0.040589 0.0175174
0.55639 0.040589 0.0175326
0.55639 0.040589 0.0175479
0.55639 0.040589 0.0175631
0.556374 0.040589 0.0175631
0.556359 0.040589 0.0175479
0.556329 0.0406043 0.0175174
0.556298 0.0406043 0.0174868
0 0.0685893 0.000167849
0 0.0670634 0.000183108
0 0.0663462 0.000259403
0.00408942 0.0665599 0.000274662
0.03299 0.0644541 0.000640879
0.0507668 0.0632486 0.0016022
0.0641947 0.0632181 0.00251774
0.0816358 0.0617075 0.00297551
0.100771 0.0597543 0.00265507
0.118654 0.057908 0.0024567
0.135317 0.0562905 0.00221256
0.15079 0.0543984 0.00210575
0.164385 0.0524453 0.0019379
0.177142 0.051194 0.0016022
0.18999 0.049546 0.00122072
0.202075 0.0480354 0.0009308
0.214603 0.0469673 0.00062562
0.226719 0.0459602 0.00015259
0.239246 0.0443275 0
0.252171 0.0422522 0
0.265217 0.040238 0
0.277485 0.0376135 0
0.289952 0.0351415 0
0.302617 0.0324407 0
0.313497 0.0297398 0
0.325414 0.0271611 0
0.337224 0.0257572 0
0.348333 0.0254368 0
0.359213 0.0255436 0
0.368185 0.0255589 0
0.379217 0.025742 0
0.386908 0.0258793 0
0.395285 0.0259403 0
0.40322 0.0260777 0
0.409491 0.026215 0
0.416968 0.0263981 0
0.423789 0.0265507 0
0.431052 0.0266423 0
0.438941 0.0268559 0
0.447013 0.0271153 0
0.455283 0.0274205 0
0.462974 0.0276036 0
0.471458 0.0280156 0
0.48014 0.0284886 0
0.489113 0.0289921 0
0.496712 0.0295262 0
0.504204 0.0301976 0
0.512459 0.0310063 0
0.520211 0.0320134 0
0.527779 0.0332341 0.00102235
0.534264 0.0344091 0.00296025
0.540337 0.035874 0.00535592
0.5458 0.0374456 0.00788891
0.55021 0.0390021 0.0103761
0.555734 0.0403449 0.0168612
0.556359 0.0406043 0.0174716
0.556374 0.0406043 0.0174868
0.55639 0.040589 0.0175021
0.55639 0.040589 0.0175174
0.55639 0.040589 0.0175326
0.55639 0.040589 0.0175479
0.556374 0.040589 0.0175479
0.556359 0.040589 0.0175326
0.556329 0.0406043 0.0175174
0.556298 0.0406043 0.0174868
0 0.0795758 0.000244144
0 0.0781262 0.000244144
0 0.0767529 7.62951e-05
0 0.0774853 0.000198367
0.0167391 0.0776379 0
0.0511635 0.0738231 0.00111391
0.0636606 0.0737926 0.00241093
0.078172 0.0735485 0.00332647
0.095552 0.07187 0.00354009
0.115038 0.0697032 0.00331121
0.133242 0.0679179 0.00311284
0.149798 0.0657359 0.00282292
0.166049 0.0637064 0.00250248
0.181537 0.0615091 0.00225834
0.19585 0.0597238 0.00218204
0.209171 0.0582742 0.002121
0.221485 0.056733 0.00177005
0.23389 0.0550393 0.00141909
0.246036 0.0536507 0.00108339
0.258457 0.0528572 0.000885023
0.271565 0.0514992 0.000457771
0.284306 0.0494392 0
0.29723 0.0469062 0
0.309575 0.0440375 0
0.321614 0.0411536 0
0.333532 0.0383154 0
0.346456 0.0355535 0
0.358724 0.0329595 0
0.369619 0.0302434 0
0.381064 0.0280461 0
0.391745 0.0260929 0
0.403113 0.0260319 0
0.412146 0.0262303 0
0.42005 0.0264286 0
0.427146 0.026566 0
0.432624 0.026688 0
0.438514 0.0268711 0
0.443732 0.0270237 0
0.449073 0.0272068 0
0.455436 0.0274357 0
0.461769 0.0276188 0
0.46923 0.0279088 0
0.475944 0.0282444 0
0.483665 0.0287175 0
0.49189 0.02916 0
0.499733 0.0297856 0
0.506966 0.0304875 0
0.513802 0.0311437 0
0.520867 0.0321202 0
0.526711 0.0330358 0.000717174
0.532845 0.0341192 0.00250248
0.538964 0.0355535 0.00482185
0.544427 0.0370794 0.00727855
0.549142 0.0386053 0.00973526
0.555032 0.0400244 0.0163119
0.556344 0.0406043 0.0174716
0.556359 0.0406043 0.0174716
0.556374 0.0406043 0.0174716
0.556374 0.040589 0.0174868
0.55639 0.040589 0.0175174
0.55639 0.040589 0.0175326
0.556374 0.040589 0.0175326
0.556359 0.040589 0.0175326
0.556329 0.0406043 0.0175021
0.556298 0.0406043 0.0174716
0 0.0923018 0.000457771
0 0.090425 0.000274662
0 0.0887465 0.000259403
0 0.0886549 0.000228885
0.00360113 0.0915847 0.000274662
0.03888 0.0885786 0
0.0656748 0.0857404 0.00209049
0.0771191 0.086305 0.00291447
0.0916304 0.0854047 0.00373846
0.10985 0.0844434 0.00419623
0.128573 0.0816968 0.00393683
0.146731 0.0797131 0.0037232
0.163653 0.0774701 0.00340276
0.180301 0.0750896 0.00315862
0.196582 0.0728161 0.00280766
0.211795 0.0704814 0.00260929
0.226596 0.0684672 0.00248722
0.240223 0.0665599 0.0024567
0.2533 0.0648661 0.00234989
0.266011 0.0631723 0.002121
0.278462 0.0615244 0.00181582
0.291005 0.0603494 0.00141909
0.303929 0.059205 0.00117494
0.317754 0.0571145 0.000762951
0.330632 0.0538033 0
0.343618 0.0510262 0
0.355779 0.0482795 0
0.36791 0.0453651 0
0.380713 0.0425574 0
0.392248 0.0394293 0
0.404089 0.0366674 0
0.4159 0.0339361 0
0.42594 0.0311284 0
0.435004 0.0281987 0
0.443153 0.0270085 0
0.450736 0.0272526 0
0.457664 0.0275425 0
0.462135 0.0276493 0
0.466606 0.0278325 0
0.470878 0.0280461 0
0.474449 0.0282139 0
0.479133 0.0284733 0
0.484611 0.028809 0
0.490059 0.0290532 0
0.495995 0.0294957 0
0.503426 0.0301366 0
0.510658 0.0308843 0
0.51725 0.0316014 0
0.523583 0.032517 0
0.529473 0.0335546 0.00157168
0.534554 0.0345006 0.00311284
0.539055 0.035584 0.00489815
0.543496 0.03682 0.00688182
0.547951 0.0381933 0.00906386
0.554314 0.0397192 0.0158236
0.556313 0.0406043 0.0174716
0.556329 0.0406043 0.0174563
0.556344 0.0406043 0.0174563
0.556359 0.0406043 0.0174716
0.556374 0.040589 0.0174868
0.556374 0.040589 0.0175021
0.556374 0.040589 0.0175174
0.556359 0.040589 0.0175174
0.556329 0.0406043 0.0175021
0.556313 0.0406043 0.0174716
0 0.106142 0.000534066
0 0.104128 0.000534066
0 0.101747 0.000518807
0 0.101259 0.000503548
0 0.105348 0.000411994
0.0168917 0.105989 0
0.0589151 0.10132 0.000289921
0.0789044 0.099443 0.00236515
0.0917678 0.100206 0.00344854
0.106416 0.0989853 0.00401312
0.124376 0.0977951 0.00444038
0.142992 0.0952468 0.00454719
0.160845 0.0926223 0.00424201
0.178088 0.090425 0.00373846
0.195209 0.0878157 0.00357061
0.212009 0.0855421 0.0034638
0.228229 0.0831922 0.00320439
0.244022 0.0802472 0.00292973
0.259037 0.0779583 0.0028687
0.272602 0.075227 0.00260929
0.286 0.0731518 0.00256352
0.298787 0.070573 0.00247196
0.311696 0.0696117 0.0021973
0.324514 0.0693675 0.00195315
0.337606 0.0671702 0.00177005
0.351278 0.0644694 0.00151064
0.36347 0.0618448 0.000961318
0.377249 0.0588388 0.000518807
0.389395 0.0556954 0
0.403098 0.0527199 0
0.414816 0.0499428 0
0.426352 0.0465705 0
0.438987 0.0438697 0
0.448356 0.0400092 0
0.458 0.0365606 0
0.466056 0.0330205 0
0.472908 0.0293584 0
0.478981 0.0284581 0
0.483986 0.0287785 0
0.488716 0.0290074 0
0.491569 0.0291752 0
0.495354 0.0294652 0
0.497642 0.029633 0
0.500191 0.0298619 0
0.50486 0.0302739 0
0.509377 0.0307317 0
0.514549 0.0312505 0
0.520943 0.0321202 0
0.526925 0.0330816 0.000762951
0.532479 0.0340581 0.00239567
0.537087 0.0350958 0.00410468
0.541772 0.0363317 0.00610361
0.545922 0.037583 0.00808728
0.549172 0.0386969 0.00985733
0.554299 0.0397498 0.0158236
0.556268 0.0406195 0.0174716
0.556313 0.0406043 0.0174716
0.556329 0.0406043 0.0174563
0.556344 0.0406043 0.0174563
0.556359 0.0406043 0.0174563
0.556374 0.0406043 0.0174868
0.556374 0.040589 0.0175021
0.556374 0.040589 0.0175174
0.556359 0.040589 0.0175174
0.556344 0.0406043 0.0175174
0 0.119387 0.000488289
0 0.11809 0.000717174
0 0.115862 0.000579843
0 0.114565 0.000488289
0 0.117754 0.000686656
0.00344854 0.121401 0
0.0411994 0.119387 0
0.0781262 0.11458 0.00125124
0.0932784 0.113573 0.00262455
0.105852 0.11371 0.00358587
0.121599 0.113481 0.00436408
0.138567 0.111437 0.00456245
0.157214 0.109255 0.00488289
0.17528 0.106905 0.00466926
0.192905 0.104219 0.00440986
0.209903 0.101656 0.00402838
0.227115 0.099382 0.00375372
0.244205 0.096437 0.00369268
0.260655 0.0931716 0.00363165
0.276463 0.0903639 0.00344854
0.291035 0.0870985 0.00326543
0.305257 0.0843366 0.00311284
0.319142 0.0817884 0.00291447
0.332265 0.0794842 0.00288396
0.34548 0.0791333 0.00292973
0.358221 0.0781872 0.00299077
0.371862 0.0758831 0.00273136
0.384817 0.0733196 0.00248722
0.397864 0.0704662 0.00234989
0.411063 0.0676127 0.00207523
0.423758 0.0644388 0.00181582
0.437064 0.0615854 0.00143435
0.448981 0.058381 0.00120546
0.461479 0.0549325 0.000946059
0.471824 0.0514992 0.00115969
0.479255 0.0467079 0.000228885
0.48806 0.0429847 0
0.493996 0.037705 0
0.500389 0.0336767 0
0.504295 0.0302434 0
0.508507 0.0306706 0
0.511467 0.0309606 0
0.513359 0.0311131 0
0.515328 0.0313573 0
0.517098 0.0315709 0
0.519753 0.0319371 0
0.522896 0.0323949 0
0.526024 0.0329137 0.00047303
0.530068 0.0336309 0.00167849
0.535271 0.0346532 0.0033875
0.54049 0.0359808 0.00553903
0.544732 0.0372473 0.00756847
0.548287 0.0383917 0.0093843
0.551476 0.0396735 0.0114137
0.554726 0.0411841 0.0137636
0.557916 0.0415503 0.0187076
0.555505 0.0415351 0.014313
0.556329 0.0406653 0.0173953
0.556329 0.0406043 0.0174563
0.556344 0.0406043 0.0174563
0.556359 0.0406043 0.0174563
0.556359 0.0406043 0.0174716
0.556359 0.0406043 0.0174868
0.556359 0.0406043 0.0175021
0.556344 0.0406043 0.0175021
0 0.133776 0.000762951
0 0.131609 0.000564584
0 0.129854 0.000686656
0 0.128191 0.00077821
0 0.129763 0.000686656
0 0.1346 0.00062562
0.0193942 0.137041 0
0.0648814 0.132128 0
0.096788 0.126909 0.00224308
0.108202 0.127504 0.00325017
0.120272 0.127626 0.00387579
0.135561 0.126757 0.00456245
0.153338 0.125383 0.00515755
0.171405 0.122866 0.00505074
0.189883 0.120089 0.00512703
0.207721 0.1178 0.0049897
0.225101 0.115785 0.00476081
0.242084 0.113039 0.00445563
0.259495 0.110216 0.00425727
0.276234 0.106691 0.00402838
0.29337 0.103563 0.00404364
0.309468 0.0996414 0.00396735
0.324483 0.0966659 0.00386053
0.339086 0.09337 0.00386053
0.352331 0.0902876 0.00367742
0.365774 0.0895705 0.00363165
0.378851 0.0896162 0.00383001
0.392081 0.0870222 0.00395209
0.405753 0.0848707 0.00407416
0.418036 0.082414 0.00395209
0.431861 0.0794537 0.00402838
0.444251 0.0763867 0.00389105
0.457557 0.0733501 0.00395209
0.470069 0.0704814 0.00411994
0.481865 0.066453 0.00425727
0.492515 0.0627909 0.00421149
0.500984 0.0578622 0.00373846
0.510094 0.0538949 0.00437934
0.51574 0.0480354 0.00360113
0.520562 0.0428931 0.00296025
0.524193 0.0376135 0.00216678
0.52488 0.0327153 9.15541e-05
0.528038 0.0332647 0.000976577
0.529732 0.0335546 0.00146487
0.530739 0.0336919 0.00169375
0.53167 0.0338445 0.00196841
0.532509 0.0340124 0.00227359
0.534524 0.0344396 0.00300603
0.536812 0.0350042 0.00393683
0.539376 0.0356756 0.00502022
0.543008 0.0367132 0.00669871
0.54696 0.0379034 0.00860609
0.550668 0.039353 0.0109102
0.55375 0.0407416 0.013077
0.556512 0.0421302 0.0152285
0.558114 0.0430152 0.0165866
0.55729 0.0425269 0.0158389
0.556527 0.0420844 0.0151675
0.555459 0.0414893 0.0142519
0.556329 0.04065 0.0173648
0.556329 0.0406043 0.0174411
0.556344 0.0406043 0.0174411
0.556344 0.0406043 0.0174563
0.556344 0.0406043 0.0174716
0.556344 0.0406043 0.0174716
0 0.14815 0.000961318
0 0.14609 0.000869764
0 0.143633 0.000839246
0 0.141527 0.00105287
0 0.141451 0.00103761
0 0.146731 0.000839246
0.00323491 0.151476 0.000259403
0.0437781 0.151125 0
0.0861067 0.144976 0.00015259
0.111437 0.140536 0.00267033
0.122499 0.140993 0.00358587
0.134539 0.141222 0.00427253
0.150134 0.140383 0.00489815
0.167834 0.138918 0.00529488
0.18616 0.136309 0.0056611
0.205203 0.133761 0.00576791
0.222065 0.131136 0.00531014
0.239796 0.129412 0.00523384
0.256916 0.126848 0.00514229
0.274998 0.124392 0.00509651
0.292622 0.120729 0.00463874
0.31075 0.116854 0.00463874
0.32723 0.113024 0.00447089
0.343313 0.109422 0.00450141
0.358434 0.106157 0.00442512
0.372839 0.102419 0.00454719
0.386847 0.101152 0.00477607
0.399771 0.101549 0.00492866
0.412253 0.0994736 0.00521859
0.425956 0.0978866 0.00537118
0.438697 0.0951247 0.0056611
0.453101 0.0927138 0.00607309
0.465126 0.0897383 0.0061799
0.478126 0.0864118 0.00660716
0.490852 0.0831617 0.00698863
0.501945 0.0789197 0.00865187
0.513024 0.0750439 0.0104372
0.52285 0.0703441 0.0115358
0.530449 0.0649882 0.0115358
0.537514 0.0598917 0.0112154
0.540368 0.0530709 0.009308
0.542916 0.0472725 0.00833143
0.543404 0.0412909 0.00773632
0.541848 0.0362554 0.00588998
0.543206 0.0366522 0.00653086
0.54345 0.0367285 0.00668345
0.543984 0.0368963 0.00697337
0.544045 0.0369421 0.00704967
0.545266 0.0373388 0.00770581
0.546288 0.0376745 0.00822461
0.547524 0.0380865 0.00888075
0.549737 0.0389563 0.0102846
0.552651 0.0402228 0.0122683
0.555734 0.0417487 0.0146334
0.558022 0.0429847 0.0165255
0.560067 0.0442359 0.0184176
0.559609 0.043946 0.0179751
0.558495 0.0432441 0.0169223
0.55726 0.0424964 0.0157778
0.55642 0.0420081 0.0150607
0.55668 0.0408331 0.0176547
0.556329 0.0406043 0.0174411
0.556329 0.0406043 0.0174258
0.556329 0.0406043 0.0174411
0.556329 0.0406043 0.0174411
0 0.162478 0.00128176
0 0.160708 0.00123598
0 0.158633 0.00120546
0 0.155764 0.000991836
0 0.154513 0.000946059
0 0.158495 0.00117494
0 0.164538 0.000839246
0.0204471 0.168475 0
0.0663157 0.164553 0
0.106111 0.157259 0.0011902
0.125963 0.154513 0.00314336
0.136553 0.154696 0.0037995
0.149035 0.154986 0.00436408
0.16492 0.153979 0.00514229
0.182605 0.15256 0.00569161
0.200641 0.149783 0.00602731
0.220066 0.147692 0.00608835
0.237659 0.145068 0.00605783
0.254948 0.143191 0.00579843
0.272847 0.141131 0.00576791
0.290806 0.138689 0.00555428
0.309468 0.135256 0.00555428
0.328161 0.131228 0.00537118
0.346212 0.12723 0.00527962
0.362646 0.123354 0.00527962
0.378515 0.119799 0.00527962
0.393896 0.116411 0.00553903
0.408179 0.11458 0.00582895
0.420966 0.114321 0.0062562
0.434546 0.112215 0.00642405
0.446693 0.110689 0.0069276
0.459846 0.109316 0.00750744
0.473671 0.10634 0.00798047
0.487083 0.104265 0.00875868
0.499016 0.100481 0.0116121
0.510994 0.0970169 0.0144198
0.523308 0.0932784 0.0171359
0.533425 0.0879988 0.0188754
0.543313 0.0834821 0.0206607
0.551247 0.0775006 0.0216526
0.558206 0.0720684 0.022385
0.561471 0.0658885 0.0209201
0.561898 0.0587625 0.0186465
0.560052 0.0515755 0.016022
0.556542 0.0444953 0.0143587
0.553597 0.0405432 0.0127108
0.553796 0.04065 0.0128939
0.553704 0.0406195 0.0128634
0.553597 0.040589 0.0128176
0.553429 0.0405432 0.0127565
0.553964 0.0408179 0.0131838
0.554681 0.0411841 0.0137484
0.556008 0.0418708 0.0148318
0.55761 0.0427405 0.0161593
0.559884 0.0441138 0.0182498
0.56173 0.0453193 0.0200504
0.561547 0.0451972 0.0198672
0.560678 0.0446174 0.0189975
0.559609 0.0439307 0.0179599
0.558404 0.0431678 0.0168154
0.557137 0.0424048 0.0156558
0.557473 0.0412909 0.0182193
0.556481 0.0407263 0.0174716
0.556329 0.0406043 0.0174105
0.556313 0.0406043 0.0174105
0 0.177661 0.00148013
0 0.175311 0.0015259
0 0.173281 0.00158694
0 0.171008 0.00137331
0 0.168399 0.00131228
0 0.170306 0.00132753
0 0.176898 0.00138857
0.00306706 0.182818 0.00103761
0.0442359 0.183062 0
0.0899214 0.176699 0
0.125307 0.170031 0.00207523
0.140963 0.168399 0.00331121
0.151064 0.168399 0.00404364
0.164096 0.168688 0.00477607
0.180209 0.167468 0.00544747
0.198001 0.166217 0.00611887
0.216632 0.164324 0.00648508
0.235233 0.161303 0.00650034
0.253971 0.159274 0.00660716
0.271229 0.157427 0.00663767
0.289158 0.155566 0.00639353
0.30753 0.153079 0.00624094
0.327153 0.1505 0.00627146
0.346349 0.146151 0.00614939
0.364782 0.142138 0.00628672
0.381994 0.138262 0.00616464
0.398306 0.13434 0.00634775
0.413718 0.1308 0.0065919
0.428687 0.128084 0.00698863
0.443168 0.126955 0.00759899
0.456413 0.125536 0.00828565
0.468254 0.124163 0.00872816
0.480842 0.123033 0.00949111
0.494087 0.120424 0.0121767
0.507408 0.118334 0.0155337
0.520699 0.115877 0.0191806
0.532082 0.111299 0.0222324
0.54342 0.107164 0.0249943
0.553796 0.102663 0.0277714
0.563348 0.0974746 0.0301213
0.571511 0.0912947 0.0318608
0.577081 0.0852064 0.0328374
0.580377 0.0786908 0.032929
0.580468 0.0719158 0.0316777
0.577951 0.0644694 0.0294957
0.571633 0.0558785 0.0255131
0.565148 0.0485695 0.0222171
0.562341 0.0458076 0.020737
0.561776 0.0453956 0.0201419
0.561105 0.0449226 0.01944
0.560464 0.04448 0.0187839
0.560525 0.0445258 0.0188449
0.560647 0.0446021 0.0189822
0.560998 0.044831 0.0193179
0.562158 0.0456245 0.0204929
