bundles/resolve-cinematic-luts/Phantom Luts/DJI/DJI Phntm ARRI LUTs - G3/Mavic 3 Pro D-Log-M/Jamaica - M3P D-LogM.cube
TITLE "Generated by Resolve"
LUT_3D_SIZE 9
0.00292973 0.0295415 0.00550851
0.111498 0.0249638 0
0.210163 0.0250553 0
0.298283 0.0251316 0
0.390494 0.0258793 0
0.472801 0.0280613 0
0.537896 0.0351568 0.00421149
0.55639 0.040589 0.0175479
0.556268 0.0406043 0.0175937
0 0.106142 0.000534066
0.0917678 0.100206 0.00344854
0.228229 0.0831922 0.00320439
0.337606 0.0671702 0.00177005
0.438987 0.0438697 0
0.491569 0.0291752 0
0.526925 0.0330816 0.000762951
0.556313 0.0406043 0.0174716
0.556344 0.0406043 0.0175174
0 0.225559 0.00282292
0 0.227619 0.00268559
0.21091 0.212177 0.00576791
0.362081 0.201526 0.00859083
0.507881 0.172763 0.0207675
0.605966 0.152483 0.0540932
0.621256 0.104005 0.0720378
0.57528 0.0562905 0.0355383
0.56173 0.0453651 0.0200809
0 0.38352 0.0146181
0 0.358495 0.0114748
0.135271 0.379278 0.00236515
0.364767 0.353613 0.012314
0.525307 0.366842 0.0471656
0.687205 0.339071 0.107866
0.748959 0.282551 0.162112
0.74078 0.249653 0.172198
0.702937 0.196735 0.1458
0.0354925 0.564981 0.0644388
0.0259403 0.544305 0.0545052
0.0189212 0.527214 0.0466773
0.359731 0.533639 0.0569924
0.539559 0.524529 0.0770733
0.683116 0.529915 0.11664
0.816526 0.513436 0.200443
0.852232 0.471687 0.233646
0.8439 0.442954 0.229862
0.170748 0.722591 0.201083
0.151019 0.703716 0.181445
0.139971 0.693141 0.169986
0.16733 0.706722 0.168002
0.551202 0.672923 0.126284
0.683406 0.669779 0.156008
0.812497 0.674983 0.221851
0.893492 0.686519 0.289281
0.895933 0.667094 0.285817
0.308705 0.859495 0.339681
0.297383 0.847486 0.327794
0.286458 0.836362 0.31664
0.276509 0.824796 0.306325
0.408103 0.859815 0.279973
0.724865 0.81532 0.252674
0.829908 0.82417 0.309773
0.919493 0.835676 0.375845
0.943404 0.834821 0.392004
0.362478 0.917906 0.394003
0.364401 0.918151 0.396155
0.372122 0.918624 0.403235
0.369314 0.91809 0.400183
0.36939 0.918212 0.400458
0.70547 0.968811 0.394247
0.89424 0.930999 0.418647
0.955825 0.948791 0.461524
0.998093 0.957137 0.490684
0.367025 0.917937 0.397833
0.358679 0.917815 0.390555
0.36492 0.917922 0.396185
0.362493 0.917769 0.393744
0.35404 0.917311 0.385595
0.627741 0.977813 0.40734
0.886656 0.945312 0.424628
0.959915 0.964202 0.473335
1 0.98143 0.509316
0 0.0251774 0.0966506
0.113634 0.0247044 0.0895094
0.23331 0.0247807 0.0465553
0.329625 0.02533 0.0459297
0.428443 0.0259556 0.0658122
0.511604 0.0287022 0.0699168
0.56144 0.0375219 0.0417182
0.556222 0.0406348 0.0173953
0.556161 0.0406348 0.0173953
0.000823987 0.0863508 0.0847944
0.0730602 0.0923934 0.0758221
0.22945 0.0745861 0.0513313
0.348592 0.0459297 0.0229191
0.427893 0.0263066 0
0.484199 0.0284123 0
0.536446 0.0349737 0.00373846
0.556237 0.0406348 0.0173648
0.556252 0.0406195 0.0174105
0 0.218875 0.0504311
0 0.220432 0.0205844
0.205554 0.21384 0.03122
0.35111 0.20618 0.0354314
0.487785 0.171679 0.0361486
0.597864 0.148043 0.0537575
0.604517 0.0847944 0.0589456
0.567636 0.0498817 0.0265202
0.557198 0.0425269 0.0156252
0 0.37998 0.0141299
0 0.353399 0.0111543
0.100542 0.376745 0.00642405
0.355077 0.345846 0.0134737
0.516533 0.356909 0.049836
0.658289 0.351247 0.0985885
0.745861 0.292699 0.153429
0.743343 0.253681 0.173663
0.709392 0.205661 0.150317
0.0323033 0.559182 0.0612955
0.0226749 0.536873 0.0512093
0.0169375 0.522164 0.04477
0.345754 0.526329 0.0527352
0.532692 0.516579 0.0737621
0.677028 0.523491 0.113634
0.804852 0.514199 0.19237
0.859922 0.494591 0.238804
0.852445 0.474723 0.233356
0.168154 0.720165 0.198703
0.14612 0.699062 0.176562
0.136507 0.689769 0.166674
0.158007 0.699916 0.163912
0.544747 0.667582 0.123354
0.677989 0.663859 0.151858
0.808316 0.669001 0.216693
0.890105 0.682765 0.285328
0.896406 0.68545 0.291341
0.307073 0.858122 0.338064
0.29456 0.844999 0.325414
0.285069 0.835035 0.315282
0.275303 0.82385 0.305348
0.401968 0.856748 0.277668
0.719676 0.811536 0.247929
0.825925 0.819821 0.304417
0.917754 0.832883 0.373053
0.94374 0.835554 0.392615
0.362448 0.917876 0.393927
0.364904 0.918196 0.396643
0.371542 0.918395 0.402518
0.369085 0.918059 0.399969
0.369635 0.918318 0.400702
0.702281 0.968139 0.393225
0.890959 0.928145 0.415122
0.954864 0.948165 0.460655
0.99823 0.957168 0.490791
0.366903 0.917937 0.397711
0.358633 0.917815 0.390494
0.362402 0.917769 0.393683
0.3617 0.917739 0.393149
0.35378 0.917296 0.385336
0.640986 0.9794 0.40766
0.888197 0.944976 0.425116
0.959777 0.964157 0.473243
1 0.98146 0.509163
0 0.0255283 0.205585
0.0890211 0.0260777 0.202533
0.219791 0.0243229 0.183368
0.345037 0.0239414 0.130648
0.448783 0.0245975 0.12578
0.541756 0.0278325 0.139132
0.608484 0.0383764 0.155978
0.594873 0.038941 0.115145
0.556161 0.0406348 0.0173953
0.000854505 0.0790875 0.173281
0.05832 0.0674144 0.207691
0.227527 0.0469673 0.204013
0.370916 0.0263066 0.149737
0.459709 0.0247349 0.132158
0.525032 0.0273899 0.123445
0.593194 0.035523 0.135302
0.581613 0.0388037 0.0825818
0.556252 0.0406195 0.0173953
0.000518807 0.191196 0.198672
0.000320439 0.188052 0.18323
0.192721 0.209384 0.186374
0.373602 0.191073 0.158312
0.51284 0.155428 0.135256
0.611139 0.0865492 0.119326
0.590921 0.0450294 0.0818189
0.563775 0.0449073 0.0246281
0.556207 0.0406348 0.0173037
0 0.356939 0.211475
0 0.345525 0.143435
0.0682231 0.375738 0.145052
0.351568 0.353613 0.1346
0.51194 0.359518 0.148241
0.667704 0.339239 0.154788
0.753628 0.270436 0.178302
0.729229 0.233371 0.164263
0.678065 0.16347 0.127428
0.0265202 0.560708 0.216068
0.0158999 0.538811 0.125292
0.0123445 0.523186 0.101549
0.294499 0.54287 0.109773
0.526665 0.516579 0.113252
0.675166 0.525154 0.138125
0.791959 0.519753 0.188617
0.859541 0.493828 0.238483
0.853208 0.476249 0.233982
0.154696 0.730983 0.23888
0.140429 0.696345 0.176577
0.130053 0.68452 0.162646
0.145205 0.689738 0.157046
0.538277 0.660731 0.119936
0.673335 0.656321 0.147433
0.802716 0.660822 0.209827
0.881437 0.680095 0.277363
0.895918 0.6907 0.292607
0.30164 0.852735 0.332601
0.289006 0.839368 0.319738
0.27718 0.828321 0.308019
0.269581 0.818433 0.29958
0.392645 0.851392 0.273075
0.71313 0.80499 0.240757
0.819913 0.813107 0.296391
0.913466 0.825528 0.365896
0.942855 0.833677 0.390997
0.362142 0.917845 0.393591
0.363897 0.918105 0.39556
0.371023 0.918608 0.402533
0.368566 0.918044 0.399619
0.367422 0.916594 0.398566
0.695399 0.962783 0.386679
0.884153 0.923125 0.408408
0.950149 0.942946 0.455039
0.998047 0.956054 0.49012
0.365988 0.917876 0.396841
0.358206 0.917678 0.389929
0.360739 0.917739 0.392309
0.359777 0.917372 0.390723
0.352209 0.917281 0.383719
0.642802 0.979751 0.407889
0.885557 0.945663 0.424414
0.959243 0.963958 0.472908
1 0.981506 0.509255
0 0.0257572 0.314565
0.0660258 0.0261082 0.310506
0.190692 0.0257115 0.297963
0.322957 0.0238346 0.280064
0.464134 0.0234989 0.24416
0.563836 0.027451 0.221653
0.626123 0.0393072 0.212726
0.624063 0.0408789 0.192203
0.613657 0.0402533 0.160525
0 0.0590982 0.293843
0.0332647 0.0380255 0.319692
0.179019 0.0260166 0.311788
0.314397 0.0239261 0.279515
0.447303 0.0235294 0.220615
0.547875 0.0266423 0.202274
0.61796 0.0372625 0.199557
0.621775 0.0407416 0.184436
0.608591 0.039765 0.147417
0.000122072 0.177935 0.292866
0 0.159869 0.277653
0.174212 0.173922 0.340383
0.377554 0.145266 0.342824
0.541176 0.121172 0.297078
0.659144 0.0925307 0.287816
0.655909 0.0550546 0.255741
0.62179 0.0417029 0.178653
0.599329 0.0391546 0.125338
0.000854505 0.328466 0.343603
0.000320439 0.306432 0.307485
0.0693065 0.332647 0.326101
0.333425 0.341085 0.313909
0.525231 0.334936 0.293721
0.691844 0.303288 0.282795
0.790784 0.258228 0.269413
0.710292 0.148455 0.209613
0.607752 0.0695506 0.0828107
0.0338903 0.522072 0.405432
0.0207828 0.505714 0.345571
0.0130617 0.499123 0.300374
0.228489 0.537545 0.296849
0.503288 0.504692 0.275853
0.661784 0.512169 0.289296
0.818463 0.497734 0.295735
0.88249 0.435065 0.291524
0.842023 0.423224 0.232929
0.115404 0.718669 0.445106
0.105211 0.707149 0.359777
0.0994125 0.696254 0.309361
0.109377 0.694041 0.293385
0.466239 0.685206 0.251377
0.662959 0.659648 0.24596
0.818387 0.66305 0.275319
0.885664 0.688334 0.283238
0.895994 0.683497 0.290501
0.252003 0.853971 0.461616
0.254551 0.84062 0.393225
0.255116 0.827588 0.346975
0.250584 0.81677 0.324834
0.363912 0.856229 0.295323
0.70045 0.803983 0.242023
0.81294 0.804318 0.286564
0.906157 0.812726 0.353552
0.939681 0.826413 0.384939
0.350332 0.929305 0.488807
0.363668 0.923659 0.412985
0.374838 0.922469 0.406241
0.362371 0.917403 0.394186
0.359854 0.910567 0.391012
0.683619 0.952895 0.374609
0.87364 0.913359 0.396628
0.940337 0.932754 0.44361
0.99353 0.946151 0.482353
0.360632 0.925551 0.43679
0.358831 0.918593 0.390539
0.35935 0.917922 0.390829
0.357214 0.917586 0.388952
0.350393 0.91722 0.381918
0.639063 0.981384 0.410086
0.881804 0.946197 0.423148
0.956283 0.963165 0.470939
1 0.980957 0.508171
0 0.0262608 0.424262
0.0405432 0.0263981 0.421576
0.170291 0.0265812 0.414572
0.296941 0.0253452 0.396445
0.439246 0.0243229 0.391943
0.577783 0.0276799 0.361883
0.649317 0.0440375 0.313603
0.648554 0.0451514 0.285359
0.63975 0.0428321 0.249104
0 0.0290837 0.411093
0 0.0261845 0.409094
0.134417 0.0265507 0.402014
0.273335 0.0254826 0.384176
0.421469 0.0242008 0.3776
0.566659 0.0267491 0.349035
0.643229 0.0411994 0.299687
0.646006 0.0443885 0.273976
0.636133 0.0421149 0.235431
0 0.171786 0.394049
0 0.132067 0.411643
0.146151 0.122515 0.463249
0.333394 0.0913558 0.468193
0.489525 0.0620127 0.452934
0.609308 0.0383612 0.388266
0.6383 0.0392157 0.290593
0.643854 0.0437934 0.265019
0.635172 0.0420386 0.23125
0.00144961 0.314336 0.440253
0.00030518 0.296254 0.40557
0.0132296 0.295842 0.41944
0.311269 0.304875 0.474632
0.529488 0.284306 0.484474
0.714229 0.276295 0.443091
0.831891 0.260319 0.425147
0.821225 0.218906 0.397436
0.704005 0.0972763 0.304784
0.0395819 0.497169 0.519097
0.0249027 0.471 0.479103
0.0180819 0.454795 0.456855
0.223362 0.487556 0.47924
0.477623 0.479057 0.448875
0.665553 0.480476 0.433036
0.840024 0.462654 0.419455
0.902983 0.404456 0.392218
0.872938 0.358465 0.336522
0.117861 0.679606 0.586435
0.103883 0.664134 0.540932
0.0962692 0.65774 0.507149
0.0930495 0.654032 0.470146
0.388922 0.677165 0.438834
0.634577 0.640101 0.417731
0.802228 0.644709 0.438956
0.914946 0.666224 0.426902
0.939574 0.673808 0.379126
0.218997 0.826154 0.611856
0.207904 0.822477 0.559579
0.201633 0.819196 0.518578
0.193759 0.811612 0.476249
0.296117 0.86038 0.463783
0.614359 0.838758 0.423529
0.800351 0.81146 0.420661
0.931182 0.816052 0.455695
0.970489 0.83801 0.417319
0.330541 0.926299 0.663233
0.330892 0.928176 0.619867
0.332372 0.92726 0.578256
0.322591 0.917342 0.537072
0.317769 0.909483 0.511818
0.587991 0.992218 0.479973
0.851102 0.932784 0.433204
0.940871 0.939254 0.450919
0.99588 0.944945 0.481605
0.334676 0.929732 0.659937
0.334112 0.930632 0.615808
0.335439 0.930282 0.575341
0.339376 0.930297 0.541909
0.335332 0.927581 0.504753
0.547219 0.998932 0.478508
0.868574 0.973663 0.441657
0.95584 0.969162 0.473976
1 0.980652 0.505776
0 0.028275 0.51426
0.00857557 0.0282597 0.514916
0.147494 0.0279088 0.519738
0.283528 0.0275731 0.517403
0.412024 0.0267491 0.498802
0.548486 0.0303044 0.489738
0.646235 0.0485542 0.442527
0.660197 0.0547341 0.418524
0.662409 0.0539101 0.391501
0 0.0276036 0.499962
0 0.0277562 0.50312
0.111559 0.0276799 0.510048
0.260517 0.0274662 0.509636
0.395178 0.0264286 0.487663
0.536522 0.0290379 0.48191
0.642756 0.0457465 0.436194
0.661189 0.0543526 0.407645
0.663035 0.0535439 0.371893
0 0.139818 0.519677
0 0.082002 0.525368
0.103258 0.0607462 0.557122
0.280446 0.0343633 0.556756
0.396475 0.0268711 0.50074
0.525353 0.0282292 0.477821
0.639246 0.043534 0.432471
0.66183 0.0541085 0.398947
0.663005 0.0535134 0.37142
0.00602731 0.320287 0.523476
0.00384527 0.284413 0.515923
0.0059205 0.262806 0.530114
0.285084 0.262791 0.599573
0.486671 0.239322 0.61268
0.670344 0.215351 0.609277
0.802136 0.196735 0.553872
0.759838 0.141833 0.47837
0.661616 0.0521248 0.355169
0.0520027 0.487098 0.605737
0.0365911 0.461906 0.570474
0.0294194 0.448157 0.549767
0.158373 0.46244 0.581369
0.454994 0.445594 0.602411
0.673793 0.430137 0.612375
0.856504 0.422889 0.567346
0.932143 0.407858 0.540932
0.915343 0.368154 0.502449
0.128267 0.654078 0.671
0.111315 0.632441 0.641199
0.101549 0.61767 0.622187
0.0953231 0.605325 0.604669
0.383612 0.626139 0.609918
0.608408 0.61326 0.576181
0.799558 0.616281 0.565393
0.937545 0.619959 0.558282
0.95758 0.598566 0.522393
0.218753 0.789364 0.708339
0.202426 0.783169 0.678721
0.189685 0.778317 0.652781
0.178561 0.775021 0.622721
0.259159 0.81973 0.617197
0.545769 0.821851 0.581964
0.771328 0.789593 0.569894
0.912764 0.794034 0.604074
0.977493 0.822965 0.582956
0.318242 0.893523 0.760784
0.314137 0.898039 0.730663
0.306004 0.897902 0.696422
0.29662 0.894514 0.664942
0.285725 0.888533 0.631006
0.544579 0.972244 0.641047
0.781796 0.952163 0.618982
0.919173 0.928786 0.611444
0.994614 0.936202 0.630014
0.349554 0.920012 0.782864
0.342855 0.923629 0.750805
0.342443 0.926802 0.727764
0.337606 0.928801 0.691737
0.331167 0.928054 0.662348
0.51339 0.998932 0.671565
0.792584 0.998932 0.668879
0.946593 0.998932 0.630274
1 0.998932 0.618097
0.00410468 0.0349432 0.543206
0.00366217 0.0347295 0.542977
0.119341 0.0342565 0.592874
0.260899 0.0341039 0.615457
0.392782 0.0340734 0.607935
0.510201 0.0370184 0.582559
0.61236 0.0559091 0.549294
0.634104 0.0630045 0.535744
0.637385 0.0616617 0.52517
0.00265507 0.0340887 0.542565
0.00248722 0.0340581 0.54258
0.0834821 0.0337682 0.57995
0.239414 0.0332799 0.608484
0.37821 0.0329442 0.602014
0.498833 0.0350347 0.577111
0.607385 0.0521096 0.545388
0.636347 0.0620737 0.528634
0.640223 0.0607309 0.516136
0.0159762 0.095201 0.585657
0.00735485 0.0458991 0.553689
0.0472725 0.035172 0.566384
0.215259 0.0328374 0.603494
0.366476 0.0327916 0.601785
0.488472 0.0338293 0.574441
0.602991 0.0498512 0.544503
0.637613 0.0616312 0.524605
0.640299 0.0607004 0.515908
0.0277409 0.314977 0.627802
0.0281376 0.269184 0.631739
0.0289311 0.237324 0.631647
0.260197 0.226673 0.720363
0.453925 0.19823 0.737331
0.605127 0.16437 0.710124
0.689189 0.128969 0.637827
0.642542 0.0629435 0.519188
0.643732 0.059678 0.504494
0.0709239 0.488899 0.671077
0.0531167 0.458351 0.65153
0.0464332 0.430823 0.647318
0.132769 0.437629 0.701091
0.428916 0.41352 0.734707
0.626245 0.397009 0.751003
0.817746 0.372198 0.746853
0.911711 0.347906 0.713542
0.878248 0.287602 0.678599
0.15314 0.638697 0.734661
0.134157 0.618082 0.715221
0.122667 0.605158 0.701091
0.111254 0.59086 0.685176
0.333196 0.602411 0.720211
0.584863 0.580819 0.731319
0.805508 0.564981 0.737606
0.950271 0.566567 0.701549
0.962127 0.551568 0.668009
0.232532 0.763897 0.76936
0.216999 0.752392 0.75227
0.20293 0.741009 0.738643
0.187808 0.729488 0.723613
0.257053 0.764538 0.747036
0.530755 0.769284 0.733593
0.739528 0.76231 0.70515
0.90161 0.769238 0.707652
0.981399 0.784298 0.700755
0.313863 0.863798 0.820203
0.30721 0.861555 0.804486
0.297932 0.856428 0.786587
0.28751 0.851438 0.765713
0.274479 0.848981 0.73637
0.514092 0.932982 0.764019
0.72108 0.932723 0.741283
0.89189 0.905211 0.725307
0.976959 0.91133 0.74757
0.362112 0.908522 0.852384
0.356146 0.911574 0.84184
0.357321 0.912734 0.827314
0.352605 0.91693 0.804135
0.346578 0.920653 0.777829
0.500023 0.998932 0.803189
0.748028 0.998932 0.795972
0.906462 0.998398 0.764797
0.986954 0.989822 0.760235
0.0134585 0.041062 0.570871
0.0132143 0.04094 0.569177
0.0924697 0.0444343 0.593469
0.232197 0.0475929 0.640726
0.366171 0.0525521 0.660929
0.47509 0.0514992 0.641535
0.576776 0.0663157 0.612696
0.606683 0.0746471 0.606485
0.608011 0.0740673 0.603464
0.0128786 0.040589 0.566979
0.012726 0.0405737 0.565957
0.0587472 0.0428473 0.579767
0.213947 0.0461433 0.635065
0.355276 0.0509194 0.659205
0.465324 0.0494087 0.641154
0.568887 0.06215 0.610269
0.608881 0.073579 0.601205
0.60885 0.0735637 0.60116
0.0367285 0.100038 0.605097
0.0224155 0.0598611 0.585077
0.0291295 0.0432593 0.580713
0.190509 0.0451057 0.627726
0.343511 0.0499123 0.657862
0.458488 0.0486763 0.641947
0.563378 0.0598611 0.609934
0.609979 0.0729686 0.598291
0.609155 0.0733806 0.60032
0.0753643 0.314519 0.687678
0.0732738 0.277043 0.678416
0.0705882 0.248142 0.66949
0.247272 0.239612 0.777203
0.433921 0.207553 0.809033
0.566125 0.165194 0.773983
0.607324 0.102998 0.662074
0.612161 0.0720226 0.593301
0.611704 0.0722057 0.594263
0.11191 0.489998 0.725765
0.101823 0.457694 0.718425
0.0965438 0.431083 0.714595
0.155428 0.436759 0.773999
0.415488 0.408453 0.839139
0.601663 0.38732 0.854826
0.772 0.354025 0.845304
0.861189 0.322026 0.823804
0.799283 0.250797 0.776623
0.182986 0.637873 0.776242
0.168856 0.620829 0.763867
0.15845 0.599939 0.757534
0.14641 0.57258 0.750195
0.319921 0.584192 0.828397
0.565835 0.562753 0.839979
0.761746 0.545281 0.854597
0.915908 0.526757 0.854841
0.940002 0.498558 0.841947
0.24744 0.755627 0.807019
0.235248 0.743664 0.795789
0.224826 0.73077 0.786908
0.212833 0.716884 0.776623
0.225666 0.729351 0.79266
0.492332 0.74641 0.823117
0.721492 0.733074 0.839094
0.905867 0.724941 0.852583
0.985504 0.730358 0.831464
0.313558 0.849607 0.852201
0.307515 0.844831 0.843198
0.298482 0.834653 0.832502
0.288609 0.823102 0.821256
0.277165 0.810529 0.805097
0.507515 0.883894 0.867155
0.702586 0.887007 0.859815
0.865034 0.879072 0.837415
0.964645 0.886809 0.83975
0.365545 0.900694 0.883726
0.358877 0.903975 0.882185
0.357259 0.90248 0.876371
0.349935 0.894438 0.863691
0.339132 0.888319 0.846845
0.4804 0.968551 0.897475
0.721813 0.985016 0.893309
0.862486 0.980102 0.865339
0.963104 0.966934 0.854627
0.0154726 0.0427253 0.588693
0.0154574 0.0427405 0.588479
0.0507973 0.0451514 0.594354
0.206165 0.0528878 0.639689
0.345098 0.0617533 0.671443
0.455924 0.0645609 0.666224
0.553109 0.0708629 0.639155
0.59556 0.0809644 0.634775
0.595605 0.0809339 0.634562
0.0175479 0.0464179 0.593484
0.0156863 0.0429389 0.590921
0.0207828 0.043183 0.591073
0.190707 0.052079 0.634882
0.336751 0.0609598 0.670008
0.447974 0.064622 0.667994
0.542657 0.0687114 0.640757
0.59559 0.0809491 0.634668
0.595605 0.0809339 0.634562
0.0717327 0.198169 0.667689
0.0668193 0.182773 0.660548
0.0632944 0.171237 0.655421
0.251286 0.140551 0.719982
0.380377 0.0965438 0.712306
0.446479 0.0668193 0.671733
0.536339 0.0675975 0.642054
0.595605 0.0809186 0.634516
0.595605 0.0809339 0.634546
0.112795 0.357916 0.726543
0.108186 0.339788 0.720348
0.104082 0.322927 0.71458
0.24744 0.330983 0.820813
0.443153 0.295369 0.87303
0.599786 0.257984 0.870848
0.678981 0.20267 0.784314
0.626688 0.10454 0.662333
0.595956 0.0807965 0.63386
0.150607 0.5084 0.767208
0.145037 0.487831 0.762707
0.139712 0.469764 0.757702
0.184192 0.479744 0.802655
0.419242 0.457252 0.901167
0.597803 0.431662 0.917693
0.763653 0.39469 0.918975
0.855787 0.351568 0.888533
0.805173 0.287022 0.842222
0.201923 0.644938 0.804547
0.194217 0.626719 0.8
0.187655 0.607782 0.796613
0.179294 0.585077 0.790982
0.343999 0.603555 0.893721
0.568429 0.583444 0.910201
0.749798 0.563867 0.925475
0.886549 0.532509 0.925093
0.918639 0.498604 0.921477
0.259358 0.760037 0.83537
0.253269 0.753674 0.82826
0.245075 0.741207 0.822461
0.235386 0.722896 0.817227
0.233997 0.707835 0.82005
0.49749 0.73875 0.899809
0.715145 0.730404 0.914061
0.874861 0.71783 0.929854
0.970825 0.706203 0.935927
0.315038 0.847135 0.870436
0.312261 0.844282 0.866789
0.304799 0.834394 0.859602
0.295796 0.821866 0.851194
0.286473 0.806867 0.838712
0.467964 0.874449 0.912093
0.679103 0.873594 0.914946
0.85275 0.861463 0.92105
0.963378 0.858824 0.93164
0.359731 0.89575 0.896513
0.355886 0.897581 0.897246
0.353063 0.894682 0.89427
0.343404 0.884031 0.884749
0.332677 0.872572 0.873732
0.514229 0.948089 0.94551
0.719173 0.955154 0.949416
0.850477 0.9514 0.94197
0.94699 0.948837 0.929061
