bundles/resolve-cinematic-luts/Phantom Luts/DJI/DJI Phntm ARRI LUTs - G3/Mavic 3 Pro D-Log-M/Jamaica - M3P D-LogM.cube
TITLE "Generated by Resolve"
LUT_3D_SIZE 5
0.00292973 0.0295415 0.00550851
0.210163 0.0250553 0
0.390494 0.0258793 0
0.537896 0.0351568 0.00421149
0.556268 0.0406043 0.0175937
0 0.225559 0.00282292
0.21091 0.212177 0.00576791
0.507881 0.172763 0.0207675
0.621256 0.104005 0.0720378
0.56173 0.0453651 0.0200809
0.0354925 0.564981 0.0644388
0.0189212 0.527214 0.0466773
0.539559 0.524529 0.0770733
0.816526 0.513436 0.200443
0.8439 0.442954 0.229862
0.308705 0.859495 0.339681
0.286458 0.836362 0.31664
0.408103 0.859815 0.279973
0.829908 0.82417 0.309773
0.943404 0.834821 0.392004
0.367025 0.917937 0.397833
0.36492 0.917922 0.396185
0.35404 0.917311 0.385595
0.886656 0.945312 0.424628
1 0.98143 0.509316
0 0.0255283 0.205585
0.219791 0.0243229 0.183368
0.448783 0.0245975 0.12578
0.608484 0.0383764 0.155978
0.556161 0.0406348 0.0173953
0.000518807 0.191196 0.198672
0.192721 0.209384 0.186374
0.51284 0.155428 0.135256
0.590921 0.0450294 0.0818189
0.556207 0.0406348 0.0173037
0.0265202 0.560708 0.216068
0.0123445 0.523186 0.101549
0.526665 0.516579 0.113252
0.791959 0.519753 0.188617
0.853208 0.476249 0.233982
0.30164 0.852735 0.332601
0.27718 0.828321 0.308019
0.392645 0.851392 0.273075
0.819913 0.813107 0.296391
0.942855 0.833677 0.390997
0.365988 0.917876 0.396841
0.360739 0.917739 0.392309
0.352209 0.917281 0.383719
0.885557 0.945663 0.424414
1 0.981506 0.509255
0 0.0262608 0.424262
0.170291 0.0265812 0.414572
0.439246 0.0243229 0.391943
0.649317 0.0440375 0.313603
0.63975 0.0428321 0.249104
0 0.171786 0.394049
0.146151 0.122515 0.463249
0.489525 0.0620127 0.452934
0.6383 0.0392157 0.290593
0.635172 0.0420386 0.23125
0.0395819 0.497169 0.519097
0.0180819 0.454795 0.456855
0.477623 0.479057 0.448875
0.840024 0.462654 0.419455
0.872938 0.358465 0.336522
0.218997 0.826154 0.611856
0.201633 0.819196 0.518578
0.296117 0.86038 0.463783
0.800351 0.81146 0.420661
0.970489 0.83801 0.417319
0.334676 0.929732 0.659937
0.335439 0.930282 0.575341
0.335332 0.927581 0.504753
0.868574 0.973663 0.441657
1 0.980652 0.505776
0.00410468 0.0349432 0.543206
0.119341 0.0342565 0.592874
0.392782 0.0340734 0.607935
0.61236 0.0559091 0.549294
0.637385 0.0616617 0.52517
0.0159762 0.095201 0.585657
0.0472725 0.035172 0.566384
0.366476 0.0327916 0.601785
0.602991 0.0498512 0.544503
0.640299 0.0607004 0.515908
0.0709239 0.488899 0.671077
0.0464332 0.430823 0.647318
0.428916 0.41352 0.734707
0.817746 0.372198 0.746853
0.878248 0.287602 0.678599
0.232532 0.763897 0.76936
0.20293 0.741009 0.738643
0.257053 0.764538 0.747036
0.739528 0.76231 0.70515
0.981399 0.784298 0.700755
0.362112 0.908522 0.852384
0.357321 0.912734 0.827314
0.346578 0.920653 0.777829
0.748028 0.998932 0.795972
0.986954 0.989822 0.760235
0.0154726 0.0427253 0.588693
0.0507973 0.0451514 0.594354
0.345098 0.0617533 0.671443
0.553109 0.0708629 0.639155
0.595605 0.0809339 0.634562
0.0717327 0.198169 0.667689
0.0632944 0.171237 0.655421
0.380377 0.0965438 0.712306
0.536339 0.0675975 0.642054
0.595605 0.0809339 0.634546
0.150607 0.5084 0.767208
0.139712 0.469764 0.757702
0.419242 0.457252 0.901167
0.763653 0.39469 0.918975
0.805173 0.287022 0.842222
0.259358 0.760037 0.83537
0.245075 0.741207 0.822461
0.233997 0.707835 0.82005
0.715145 0.730404 0.914061
0.970825 0.706203 0.935927
0.359731 0.89575 0.896513
0.353063 0.894682 0.89427
0.332677 0.872572 0.873732
0.719173 0.955154 0.949416
0.94699 0.948837 0.929061
