bundles/resolve-cinematic-luts/Phantom Luts/Komodo Phantom ARRI LUTs G2/Komodo Phantom ARRI LUTs G2/65x/WB Offset - Green Boost/IceBlue_Komodo_WBO_G2_65x.cube
TITLE "Generated by Resolve"
LUT_3D_SIZE 5
0.0344244 0.0467231 0.0462654
0.209796 0.0401007 0.0500801
0.652247 0.0702068 0.169879
0.673259 0.0739452 0.21207
0.676555 0.0734264 0.22472
0.0361944 0.227802 0.0700389
0.18497 0.22475 0.0547036
0.639963 0.068864 0.115404
0.65037 0.072282 0.130907
0.655924 0.0719005 0.138705
0.225498 0.7897 0.306981
0.280491 0.815991 0.279332
0.85536 0.878721 0.365515
0.953628 0.891371 0.41706
0.959655 0.909834 0.434699
0.246662 0.841474 0.41117
0.24715 0.840284 0.402075
0.73489 0.886961 0.34226
0.971496 0.940902 0.474601
0.972808 0.940414 0.475547
0.246555 0.841688 0.412024
0.247486 0.839918 0.397314
0.874067 0.915328 0.407019
0.970474 0.941207 0.474647
0.970672 0.940993 0.476112
0.0233768 0.0571145 0.204227
0.2318 0.0479591 0.220645
0.693462 0.0802777 0.297368
0.710414 0.0910353 0.330175
0.718364 0.0993362 0.342611
0.0312657 0.194842 0.190906
0.154131 0.195926 0.199771
0.658167 0.0679789 0.195743
0.677592 0.0720989 0.235294
0.679088 0.0720836 0.24062
0.190616 0.78027 0.409094
0.211337 0.788815 0.345342
0.845335 0.87248 0.353445
0.948669 0.883177 0.409247
0.95433 0.899931 0.426474
0.248295 0.84799 0.465293
0.247333 0.841764 0.415717
0.700435 0.881987 0.32929
0.970748 0.940993 0.47599
0.972137 0.940383 0.477729
0.252293 0.855863 0.534844
0.247761 0.844831 0.441886
0.837064 0.904891 0.388525
0.969223 0.941634 0.47422
0.970748 0.941024 0.475547
0.0271458 0.0724651 0.546853
0.178698 0.0644999 0.611841
0.696757 0.12369 0.66807
0.709957 0.131212 0.683955
0.706722 0.134112 0.696086
0.0204471 0.189044 0.590295
0.0297246 0.0712596 0.551476
0.691554 0.124376 0.67509
0.708644 0.131472 0.686229
0.706798 0.133822 0.695262
0.158221 0.720653 0.692683
0.161074 0.726711 0.69894
0.684199 0.750271 0.747066
0.93933 0.737255 0.746365
0.941085 0.762783 0.770809
0.260731 0.867796 0.749599
0.260151 0.86743 0.746883
0.258656 0.86836 0.6224
0.967819 0.939315 0.489601
0.96788 0.939879 0.490181
0.278828 0.874357 0.811749
0.27715 0.872877 0.801221
0.313542 0.89192 0.695491
0.96669 0.939757 0.484871
0.967773 0.940337 0.485435
0.0868544 0.0610819 0.59733
0.209308 0.0690776 0.645853
0.695537 0.135622 0.707073
0.703609 0.137407 0.707469
0.702861 0.137499 0.708431
0.0193332 0.142718 0.600122
0.0836194 0.0611582 0.595682
0.690211 0.134874 0.707805
0.702739 0.13753 0.708598
0.702922 0.137514 0.708171
0.148455 0.670298 0.756024
0.14995 0.673823 0.75642
0.553338 0.634394 0.919585
0.930694 0.617395 0.92726
0.937499 0.655421 0.929183
0.289723 0.871702 0.855482
0.289265 0.871611 0.855756
0.293233 0.878553 0.860914
0.978027 0.979019 0.981216
0.993194 0.983459 0.985412
0.288411 0.872114 0.855726
0.288273 0.872007 0.855879
0.309728 0.890608 0.871366
0.977218 0.98854 0.984848
0.998886 0.99527 0.989944
0.0947738 0.0611124 0.601236
0.221302 0.0693828 0.648966
0.701274 0.136751 0.707057
0.703471 0.137423 0.707652
0.702937 0.137499 0.708385
0.0192416 0.142794 0.600198
0.0910964 0.0610513 0.59939
0.697246 0.136278 0.708293
0.702647 0.13753 0.708873
0.702831 0.137514 0.708446
0.151934 0.675731 0.757076
0.154253 0.680125 0.758144
0.571588 0.643412 0.918379
0.927535 0.632258 0.925551
0.933394 0.669474 0.926268
0.288777 0.872145 0.855528
0.295384 0.869978 0.854261
0.302388 0.878141 0.861341
0.966873 0.972854 0.981689
0.990585 0.980285 0.988907
0.292546 0.871412 0.854459
0.295689 0.870222 0.854032
0.317952 0.889433 0.869764
0.948089 0.982177 0.98436
0.997635 0.996582 0.998978
