bundles/resolve-cinematic-luts/Phantom Luts/Komodo Phantom ARRI LUTs G2/Komodo Phantom ARRI LUTs G2/65x/WB Offset - Green Boost/IceBlue_Komodo_WBO_G2_65x.cube
TITLE "Generated by Resolve"
LUT_3D_SIZE 9
0.0344244 0.0467231 0.0462654
0.0590982 0.046067 0.0466468
0.209796 0.0401007 0.0500801
0.481331 0.0447852 0.095079
0.652247 0.0702068 0.169879
0.668894 0.0727398 0.20293
0.673259 0.0739452 0.21207
0.674876 0.0743267 0.215839
0.676555 0.0734264 0.22472
0.0382391 0.0651255 0.0529183
0.0471656 0.0604105 0.0515145
0.191989 0.0485695 0.0469825
0.475822 0.0422065 0.0717174
0.639246 0.0656138 0.14342
0.658579 0.070161 0.180026
0.663386 0.071458 0.190387
0.664057 0.0721752 0.190082
0.662623 0.071809 0.18703
0.0361944 0.227802 0.0700389
0.0360266 0.230304 0.063798
0.18497 0.22475 0.0547036
0.528084 0.201038 0.0977951
0.639963 0.068864 0.115404
0.653605 0.0720836 0.135668
0.65037 0.072282 0.130907
0.650278 0.0722515 0.130968
0.655924 0.0719005 0.138705
0.0536202 0.516014 0.13193
0.0575418 0.524666 0.112459
0.0727398 0.524666 0.0932784
0.498482 0.54287 0.0978866
0.820218 0.604593 0.2365
0.870817 0.59588 0.261036
0.87126 0.57406 0.259922
0.871504 0.575769 0.259693
0.865812 0.624216 0.261158
0.225498 0.7897 0.306981
0.239139 0.798276 0.295598
0.280491 0.815991 0.279332
0.445304 0.815351 0.244724
0.85536 0.878721 0.365515
0.954894 0.89398 0.420111
0.953628 0.891371 0.41706
0.954452 0.893675 0.41915
0.959655 0.909834 0.434699
0.247211 0.841047 0.409445
0.246525 0.841001 0.407355
0.246876 0.840345 0.400595
0.247837 0.837415 0.377615
0.775113 0.892638 0.358114
0.969955 0.939467 0.471153
0.973159 0.940185 0.476692
0.971557 0.940322 0.480201
0.97084 0.940749 0.478126
0.246662 0.841474 0.41117
0.247181 0.841077 0.409537
0.24715 0.840284 0.402075
0.248173 0.839261 0.395773
0.73489 0.886961 0.34226
0.960601 0.937957 0.460685
0.971496 0.940902 0.474601
0.972625 0.940505 0.475196
0.972808 0.940414 0.475547
0.246677 0.84152 0.411749
0.247608 0.84126 0.409857
0.247379 0.840528 0.401526
0.247456 0.838956 0.388678
0.751507 0.889799 0.349401
0.960906 0.938399 0.463569
0.972015 0.940581 0.476204
0.971328 0.940719 0.476875
0.972656 0.940475 0.475395
0.246555 0.841688 0.412024
0.246769 0.841367 0.408545
0.247486 0.839918 0.397314
0.372793 0.84683 0.287404
0.874067 0.915328 0.407019
0.968353 0.941192 0.474388
0.970474 0.941207 0.474647
0.970901 0.941115 0.474296
0.970672 0.940993 0.476112
0.0314794 0.0475776 0.0682689
0.0593423 0.0471046 0.0717479
0.221683 0.0461585 0.093492
0.498207 0.0485237 0.14255
0.666362 0.0701305 0.212512
0.681086 0.0727398 0.245853
0.683482 0.0736858 0.251881
0.68423 0.073991 0.25362
0.685405 0.0738537 0.259648
0.0359655 0.0575723 0.0589456
0.0389563 0.0542306 0.0555276
0.204547 0.0411078 0.0574807
0.496025 0.0454108 0.116777
0.662135 0.0692912 0.196582
0.673152 0.0713664 0.222202
0.677287 0.0723583 0.23267
0.678172 0.0728008 0.233997
0.678813 0.0727398 0.2365
0.0360571 0.223239 0.104021
0.0359655 0.226215 0.0790417
0.173373 0.219974 0.0543984
0.529885 0.180346 0.0974441
0.641184 0.0678874 0.127337
0.650385 0.0695659 0.141802
0.648127 0.0692149 0.139971
0.647929 0.0691539 0.139956
0.651392 0.0698863 0.141817
0.0525368 0.514992 0.165545
0.0558022 0.523293 0.14548
0.060029 0.523079 0.0969863
0.492729 0.543893 0.0979934
0.82211 0.603082 0.239338
0.869902 0.59089 0.260716
0.870268 0.568124 0.258595
0.870451 0.569589 0.257984
0.866972 0.619821 0.260075
0.215991 0.788846 0.331121
0.22887 0.796704 0.318425
0.27332 0.812222 0.279255
0.432029 0.816846 0.245487
0.855512 0.87985 0.362173
0.953262 0.894911 0.419272
0.951522 0.892027 0.417319
0.952514 0.894286 0.418662
0.95761 0.909819 0.432883
0.246693 0.841535 0.411643
0.246799 0.841276 0.410208
0.247593 0.840421 0.402335
0.247654 0.83856 0.38584
0.771893 0.892607 0.356985
0.969497 0.939895 0.470237
0.971954 0.940703 0.475181
0.971756 0.940642 0.476463
0.970764 0.94107 0.475181
0.246632 0.841886 0.41384
0.246693 0.841581 0.412055
0.246876 0.840726 0.404334
0.247456 0.839567 0.39556
0.732509 0.886748 0.340978
0.959716 0.937881 0.461982
0.970886 0.940887 0.476509
0.972335 0.940597 0.475181
0.972488 0.94052 0.475364
0.246601 0.841932 0.414939
0.247471 0.841611 0.413062
0.247303 0.840864 0.404211
0.24712 0.839948 0.396597
0.747662 0.889326 0.347402
0.960174 0.93846 0.461372
0.971954 0.940688 0.475395
0.971633 0.940764 0.475593
0.972747 0.940429 0.475563
0.246571 0.842344 0.417136
0.246616 0.842008 0.414084
0.247211 0.840482 0.401312
0.332494 0.840955 0.28954
0.86865 0.913283 0.404425
0.9682 0.941115 0.47393
0.970352 0.941253 0.474601
0.970886 0.941115 0.474403
0.97081 0.941054 0.475151
0.0233768 0.0571145 0.204227
0.0636606 0.0490883 0.212512
0.2318 0.0479591 0.220645
0.516991 0.062974 0.246265
0.693462 0.0802777 0.297368
0.706828 0.0874647 0.322316
0.710414 0.0910353 0.330175
0.711788 0.0929122 0.327047
0.718364 0.0993362 0.342611
0.0167849 0.0678111 0.183261
0.0248417 0.0563668 0.204547
0.22266 0.0477607 0.221347
0.52578 0.063798 0.245274
0.693599 0.0774243 0.299382
0.70338 0.0839246 0.318776
0.707057 0.0879377 0.320394
0.708721 0.0901808 0.318746
0.714794 0.0958267 0.333104
0.0312657 0.194842 0.190906
0.0311437 0.196857 0.192859
0.154131 0.195926 0.199771
0.536385 0.128969 0.184665
0.658167 0.0679789 0.195743
0.674281 0.071107 0.227146
0.677592 0.0720989 0.235294
0.678569 0.0723125 0.237858
0.679088 0.0720836 0.24062
0.0478523 0.500252 0.259113
0.0495918 0.508904 0.251957
0.0501717 0.505165 0.179873
0.464424 0.529229 0.0919966
0.828046 0.576471 0.243076
0.869276 0.545205 0.257099
0.867033 0.518547 0.255024
0.866835 0.518761 0.254658
0.870008 0.571221 0.259068
0.190616 0.78027 0.409094
0.195178 0.786206 0.402731
0.211337 0.788815 0.345342
0.355383 0.806806 0.244327
0.845335 0.87248 0.353445
0.949874 0.887175 0.411612
0.948669 0.883177 0.409247
0.949203 0.8851 0.410605
0.95433 0.899931 0.426474
0.246891 0.845518 0.444251
0.246891 0.844251 0.433402
0.247059 0.841657 0.413489
0.247501 0.83978 0.39733
0.747082 0.888426 0.349004
0.966506 0.939178 0.46862
0.971374 0.940749 0.47657
0.970901 0.940749 0.477897
0.970535 0.941131 0.475242
0.248295 0.84799 0.465293
0.247578 0.846922 0.456107
0.247333 0.841764 0.415717
0.247883 0.839582 0.397635
0.700435 0.881987 0.32929
0.955184 0.936828 0.458137
0.970748 0.940993 0.47599
0.971557 0.940688 0.476524
0.972137 0.940383 0.477729
0.248188 0.849851 0.480705
0.248478 0.848737 0.471626
0.247028 0.84242 0.417044
0.247715 0.839826 0.397223
0.713924 0.884428 0.335409
0.954376 0.937179 0.457954
0.970657 0.940795 0.478096
0.972061 0.940414 0.477714
0.973175 0.940261 0.475883
0.252293 0.855863 0.534844
0.251881 0.854444 0.523888
0.247761 0.844831 0.441886
0.248264 0.837736 0.379873
0.837064 0.904891 0.388525
0.967376 0.940749 0.471183
0.969223 0.941634 0.47422
0.970565 0.941054 0.475837
0.970748 0.941024 0.475547
0.0214542 0.0651713 0.415412
0.0531777 0.0533455 0.4262
0.21004 0.0512856 0.448249
0.513756 0.0602121 0.473457
0.693996 0.0771649 0.453132
0.701244 0.0804913 0.471382
0.701015 0.0807813 0.476204
0.701106 0.0810407 0.478752
0.699901 0.0823682 0.499153
0.00961318 0.0959029 0.415488
0.0221561 0.0653697 0.428428
0.188342 0.0518349 0.464195
0.519738 0.061799 0.491051
0.696849 0.079057 0.470161
0.700298 0.0812695 0.485008
0.699886 0.0814679 0.489387
0.700648 0.0817121 0.488838
0.70013 0.08336 0.508278
0.0110628 0.17406 0.365408
0.0104829 0.169131 0.37882
0.0259403 0.0822919 0.432059
0.48925 0.0592966 0.470878
0.691646 0.0756237 0.441276
0.700328 0.0790112 0.456916
0.700389 0.0792706 0.460426
0.701274 0.0795911 0.459388
0.701335 0.0806287 0.472297
0.0409857 0.465888 0.434607
0.0422217 0.474174 0.44271
0.0411078 0.469688 0.438102
0.403952 0.474617 0.461707
0.860578 0.440009 0.460044
0.890425 0.371176 0.437934
0.873487 0.336996 0.424201
0.872145 0.33489 0.421256
0.898192 0.385016 0.459068
0.165087 0.764828 0.556985
0.168338 0.771237 0.561639
0.169329 0.771679 0.542458
0.174273 0.76054 0.426871
0.77116 0.823682 0.32549
0.939925 0.859113 0.390356
0.937133 0.849683 0.38352
0.939178 0.849226 0.383719
0.943923 0.868376 0.399588
0.243656 0.855161 0.584833
0.243473 0.855146 0.586633
0.247913 0.855375 0.570001
0.248447 0.847456 0.463798
0.633188 0.872511 0.312795
0.95552 0.937011 0.459693
0.970947 0.940887 0.476432
0.970642 0.940871 0.477485
0.96965 0.9411 0.478065
0.242145 0.855344 0.596658
0.241138 0.855604 0.597284
0.244572 0.855085 0.578973
0.249363 0.849943 0.485084
0.545235 0.863737 0.294759
0.93463 0.932952 0.445594
0.970871 0.940688 0.478599
0.970977 0.940612 0.479072
0.971191 0.940444 0.479988
0.239689 0.856229 0.61062
0.239841 0.856413 0.611704
0.242222 0.855497 0.59266
0.25066 0.85185 0.50338
0.547082 0.86389 0.295537
0.931899 0.932723 0.442466
0.970581 0.940719 0.477806
0.970199 0.940932 0.478126
0.971923 0.940429 0.478004
0.241581 0.860609 0.670268
0.241962 0.86041 0.669779
0.240269 0.858579 0.646494
0.253452 0.857191 0.550225
0.717357 0.884581 0.337194
0.947921 0.937057 0.456519
0.968551 0.941405 0.476982
0.968658 0.941299 0.479103
0.970748 0.940749 0.478233
0.0271458 0.0724651 0.546853
0.0541695 0.0581369 0.556405
0.178698 0.0644999 0.611841
0.444053 0.0774701 0.655497
0.696757 0.12369 0.66807
0.710857 0.130816 0.681376
0.709957 0.131212 0.683955
0.709346 0.131579 0.685908
0.706722 0.134112 0.696086
0.014023 0.09514 0.549233
0.0280461 0.0715038 0.551736
0.159915 0.0647288 0.611872
0.443259 0.0790265 0.664057
0.700572 0.127642 0.679026
0.707591 0.132433 0.69041
0.70663 0.133272 0.69369
0.706569 0.133684 0.694881
0.705837 0.135653 0.701076
0.0204471 0.189044 0.590295
0.0203403 0.181292 0.593545
0.0297246 0.0712596 0.551476
0.39086 0.073579 0.655879
0.691554 0.124376 0.67509
0.708583 0.131197 0.685191
0.708644 0.131472 0.686229
0.708171 0.131868 0.688014
0.706798 0.133822 0.695262
0.0456703 0.446754 0.61532
0.0479438 0.452216 0.621759
0.0462348 0.43653 0.62562
0.174731 0.315969 0.735637
0.777462 0.272129 0.767941
0.75462 0.172961 0.680064
0.72253 0.131121 0.644297
0.727687 0.137636 0.650874
0.771969 0.198734 0.707073
0.158221 0.720653 0.692683
0.161715 0.727077 0.698878
0.161074 0.726711 0.69894
0.155108 0.71725 0.690333
0.684199 0.750271 0.747066
0.940612 0.751904 0.755489
0.93933 0.737255 0.746365
0.940002 0.737087 0.746761
0.941085 0.762783 0.770809
0.257664 0.867033 0.740536
0.260288 0.866728 0.745159
0.259159 0.8663 0.73959
0.252491 0.863157 0.711666
0.265812 0.869703 0.622965
0.932143 0.9505 0.670268
0.977752 0.947311 0.555505
0.980179 0.949706 0.589319
0.983459 0.952987 0.622339
0.260731 0.867796 0.749599
0.261952 0.868238 0.753811
0.260151 0.86743 0.746883
0.252094 0.864225 0.715114
0.258656 0.86836 0.6224
0.89633 0.925246 0.465507
0.967819 0.939315 0.489601
0.96875 0.939559 0.491264
0.96788 0.939879 0.490181
0.26566 0.868894 0.763241
0.266484 0.869505 0.766918
0.26389 0.868666 0.75903
0.254994 0.865217 0.72575
0.259815 0.870588 0.637064
0.885466 0.9252 0.482506
0.966766 0.939742 0.483848
0.967926 0.940429 0.48513
0.968688 0.939971 0.486702
0.278828 0.874357 0.811749
0.280537 0.873823 0.812207
0.27715 0.872877 0.801221
0.26453 0.869017 0.761791
0.313542 0.89192 0.695491
0.917769 0.947707 0.690929
0.96669 0.939757 0.484871
0.967224 0.940291 0.487114
0.967773 0.940337 0.485435
0.0632639 0.0613565 0.58471
0.0881971 0.0610513 0.597711
0.192676 0.0686046 0.641123
0.424384 0.082414 0.686748
0.692226 0.135027 0.706889
0.703441 0.137423 0.707637
0.703151 0.137469 0.707988
0.703319 0.137438 0.707835
0.703029 0.137484 0.708186
0.0390784 0.0643931 0.570809
0.0658579 0.0615244 0.586877
0.179385 0.0682536 0.637522
0.43125 0.0831311 0.687953
0.698253 0.136355 0.707561
0.702846 0.13753 0.708278
0.702678 0.13756 0.708461
0.702602 0.137575 0.708568
0.703548 0.137407 0.707424
0.0219272 0.17023 0.612894
0.019089 0.141054 0.599313
0.0630808 0.0613413 0.584451
0.377905 0.0778058 0.679942
0.687297 0.134615 0.708141
0.701701 0.137697 0.709819
0.702525 0.13756 0.708858
0.702724 0.13753 0.708598
0.703197 0.137469 0.70782
0.0424048 0.345342 0.662913
0.0432746 0.351751 0.66453
0.0399786 0.328206 0.659251
0.0988327 0.121538 0.654414
0.614923 0.129381 0.718853
0.703548 0.138781 0.709468
0.703578 0.138384 0.708797
0.703914 0.138415 0.708507
0.705043 0.140871 0.710826
0.150393 0.679728 0.748913
0.154528 0.685008 0.753246
0.153521 0.68278 0.754681
0.14699 0.668452 0.755138
0.557656 0.659586 0.915557
0.934218 0.660533 0.930922
0.935088 0.646708 0.926406
0.936797 0.647852 0.926406
0.937057 0.68069 0.930282
0.278157 0.864424 0.835935
0.28365 0.86746 0.840436
0.280156 0.865492 0.838239
0.265888 0.852079 0.824262
0.259068 0.842405 0.81677
0.902571 0.9234 0.925093
0.970092 0.929839 0.930999
0.970184 0.928573 0.930678
0.971527 0.936858 0.940093
0.293584 0.87451 0.849744
0.293156 0.874418 0.851972
0.29073 0.874876 0.849805
0.287175 0.875319 0.838239
0.285649 0.878584 0.809934
0.760708 0.945449 0.873671
0.985763 0.983413 0.910445
0.996002 0.982254 0.892576
0.996109 0.985458 0.92105
0.292149 0.872755 0.854063
0.289174 0.872709 0.855131
0.289219 0.874754 0.853849
0.289326 0.875471 0.841199
0.288304 0.87863 0.810697
0.74049 0.945129 0.869963
0.979248 0.98143 0.913359
0.994812 0.973037 0.809812
0.991562 0.971176 0.800687
0.287739 0.872267 0.855924
0.287037 0.872297 0.856214
0.287663 0.872145 0.856031
0.291463 0.874861 0.850431
0.307408 0.8925 0.842359
0.845014 0.962707 0.923247
0.98352 0.986786 0.948425
0.99527 0.98471 0.906981
0.993805 0.977752 0.852918
0.0868544 0.0610819 0.59733
0.112215 0.0609751 0.608362
0.209308 0.0690776 0.645853
0.435142 0.0835431 0.688121
0.695537 0.135622 0.707073
0.70341 0.137438 0.707713
0.703609 0.137407 0.707469
0.703914 0.137346 0.707164
0.702861 0.137499 0.708431
0.0622873 0.0613718 0.584161
0.0879835 0.0611276 0.598077
0.195331 0.0688029 0.642466
0.440665 0.084123 0.688884
0.701457 0.137255 0.70837
0.702831 0.13753 0.708278
0.702678 0.13756 0.708461
0.702556 0.137575 0.708629
0.703639 0.137407 0.707362
0.0193332 0.142718 0.600122
0.0166476 0.112963 0.582467
0.0836194 0.0611582 0.595682
0.386786 0.0785077 0.681285
0.690211 0.134874 0.707805
0.702144 0.137621 0.709316
0.702739 0.13753 0.708598
0.702617 0.137545 0.708751
0.702922 0.137514 0.708171
0.036759 0.306279 0.65359
0.0375677 0.31371 0.655238
0.0347143 0.29131 0.649607
0.0821698 0.0700999 0.606394
0.604761 0.114122 0.704692
0.703334 0.137926 0.708476
0.702663 0.137819 0.709026
0.703456 0.137835 0.708202
0.703639 0.138766 0.709331
0.148455 0.670298 0.756024
0.1514 0.67631 0.757046
0.14995 0.673823 0.75642
0.140902 0.656855 0.751705
0.553338 0.634394 0.919585
0.932052 0.633982 0.929976
0.930694 0.617395 0.92726
0.934127 0.618402 0.928115
0.937499 0.655421 0.929183
0.265766 0.848905 0.842573
0.272663 0.853452 0.8448
0.269932 0.850431 0.843458
0.254383 0.830686 0.833127
0.237644 0.803265 0.825772
0.843366 0.887144 0.938598
0.962203 0.903593 0.958206
0.963149 0.902068 0.957656
0.965179 0.913771 0.963317
0.289723 0.871702 0.855482
0.289601 0.871748 0.855482
0.289265 0.871611 0.855756
0.287175 0.872236 0.856199
0.293233 0.878553 0.860914
0.395041 0.922835 0.900252
0.978027 0.979019 0.981216
0.995819 0.981521 0.981735
0.993194 0.983459 0.985412
0.291051 0.871366 0.855161
0.292805 0.870924 0.854749
0.289067 0.871733 0.855756
0.288014 0.87187 0.856123
0.297368 0.878706 0.860121
0.3346 0.911894 0.879454
0.96817 0.985962 0.979767
0.997971 0.994263 0.987762
0.998886 0.995224 0.989944
0.288411 0.872114 0.855726
0.289097 0.871717 0.855756
0.288273 0.872007 0.855879
0.287755 0.872267 0.855909
0.309728 0.890608 0.871366
0.430137 0.938598 0.91165
0.977218 0.98854 0.984848
0.997864 0.994049 0.989502
0.998886 0.99527 0.989944
0.0935531 0.0611276 0.600656
0.119661 0.0608682 0.611154
0.214649 0.0691386 0.647181
0.439246 0.0837873 0.688167
0.697063 0.135836 0.706767
0.703395 0.137438 0.707744
0.703456 0.137423 0.707637
0.703914 0.137346 0.707149
0.702892 0.137499 0.708415
0.068452 0.0613413 0.587823
0.0934615 0.0612192 0.600961
0.200336 0.068864 0.643809
0.44538 0.0846723 0.689464
0.702556 0.137484 0.70837
0.702937 0.137514 0.708141
0.702739 0.137545 0.708385
0.703029 0.137499 0.708049
0.703731 0.137392 0.70724
0.0186923 0.13518 0.596124
0.016083 0.106661 0.578012
0.0896468 0.0610208 0.598398
0.39176 0.0788434 0.68162
0.692042 0.13521 0.707866
0.70193 0.137652 0.70956
0.70277 0.13753 0.708568
0.702617 0.137545 0.708751
0.703014 0.137499 0.708064
0.0357824 0.299184 0.65185
0.0367742 0.307378 0.653712
0.0337987 0.283833 0.647745
0.0820325 0.067628 0.602853
0.606424 0.114229 0.704463
0.703258 0.137789 0.708354
0.703029 0.137789 0.708598
0.703639 0.137774 0.707988
0.703548 0.138689 0.709316
0.147677 0.66894 0.755428
0.150713 0.674998 0.756603
0.149599 0.672969 0.756207
0.140307 0.65539 0.751324
0.554772 0.630625 0.919615
0.931777 0.631174 0.928649
0.929961 0.614679 0.926589
0.932754 0.6159 0.927977
0.936599 0.653849 0.928512
0.265202 0.847379 0.841535
0.271733 0.851728 0.843976
0.269276 0.848478 0.842191
0.250431 0.825254 0.829831
0.236789 0.801266 0.825086
0.84358 0.883452 0.938323
0.961578 0.899886 0.956451
0.961212 0.898421 0.955917
0.964767 0.910033 0.960876
0.290318 0.871534 0.85536
0.289738 0.871717 0.855451
0.291035 0.871138 0.855375
0.288121 0.871962 0.85597
0.294255 0.878416 0.861036
0.428641 0.925658 0.916442
0.965866 0.971649 0.980163
0.992538 0.97731 0.985031
0.991409 0.979538 0.988083
0.291737 0.87097 0.855192
0.292897 0.870893 0.854734
0.29041 0.871504 0.855329
0.288823 0.871641 0.85594
0.29723 0.878325 0.860777
0.317113 0.903059 0.882033
0.924483 0.978622 0.978561
0.997055 0.99266 0.996277
0.998764 0.993988 0.997269
0.28867 0.872053 0.85565
0.289494 0.871611 0.855665
0.289586 0.871641 0.855604
0.288228 0.871931 0.85597
0.309789 0.890013 0.870985
0.341238 0.913664 0.892088
0.951537 0.983337 0.98436
0.997299 0.994247 0.996857
0.998886 0.996078 0.998978
0.0947738 0.0611124 0.601236
0.122545 0.0608988 0.612299
0.221302 0.0693828 0.648966
0.449821 0.0851453 0.689632
0.701274 0.136751 0.707057
0.703426 0.137423 0.707729
0.703471 0.137423 0.707652
0.70396 0.137331 0.707164
0.702937 0.137499 0.708385
0.0683299 0.0613413 0.587823
0.0950484 0.0611887 0.60174
0.206271 0.0691081 0.645701
0.456321 0.0859693 0.690883
0.702693 0.137469 0.70837
0.702998 0.137499 0.708171
0.702785 0.13753 0.708431
0.703105 0.137484 0.708034
0.703838 0.137362 0.707195
0.0192416 0.142794 0.600198
0.0163272 0.110948 0.581094
0.0910964 0.0610513 0.59939
0.401511 0.0799878 0.683696
0.697246 0.136278 0.708293
0.701991 0.137621 0.709651
0.702647 0.13753 0.708873
0.70251 0.137545 0.709056
0.702831 0.137514 0.708446
0.0377356 0.314702 0.655573
0.0388647 0.323735 0.657649
0.0356603 0.300145 0.651911
0.0986038 0.0822461 0.625666
0.614725 0.119295 0.708721
0.703151 0.13814 0.709255
0.70277 0.138125 0.709606
0.703441 0.138064 0.708797
0.7037 0.139193 0.710018
0.151934 0.675731 0.757076
0.155016 0.681773 0.75819
0.154253 0.680125 0.758144
0.144549 0.662455 0.75317
0.571588 0.643412 0.918379
0.928771 0.647089 0.926848
0.927535 0.632258 0.925551
0.93048 0.634089 0.926894
0.933394 0.669474 0.926268
0.275166 0.852079 0.843793
0.280705 0.856748 0.846281
0.276112 0.853239 0.84416
0.260349 0.833906 0.834379
0.243366 0.806043 0.827604
0.852216 0.888884 0.939178
0.960235 0.906157 0.957107
0.960647 0.904463 0.956283
0.964248 0.915511 0.960678
0.288777 0.872145 0.855528
0.293706 0.870817 0.854429
0.295384 0.869978 0.854261
0.293416 0.870512 0.854826
0.302388 0.878141 0.861341
0.469703 0.932906 0.925032
0.966873 0.972854 0.981689
0.992004 0.978119 0.985641
0.990585 0.980285 0.988907
0.295857 0.87039 0.853834
0.296574 0.870161 0.853697
0.29366 0.870787 0.854475
0.287327 0.872297 0.856107
0.298299 0.880537 0.862257
0.328145 0.901854 0.880781
0.9308 0.977584 0.978332
0.996918 0.992279 0.995483
0.998764 0.993713 0.99704
0.292546 0.871412 0.854459
0.297337 0.86981 0.853666
0.295689 0.870222 0.854032
0.293873 0.870893 0.854292
0.317952 0.889433 0.869764
0.351171 0.912581 0.891051
0.948089 0.982177 0.98436
0.99472 0.994522 0.998108
0.997635 0.996582 0.998978
