bundles/resolve-cinematic-luts/Phantom Luts/Komodo Phantom ARRI LUTs G2/Komodo Phantom ARRI LUTs G2/65x/WB Offset - Green Boost/IceBlue_Komodo_WBO_Legacy_G2_65x.cube
TITLE "Generated by Resolve"
LUT_3D_SIZE 5
0.0479744 0.0596017 0.0634623
0.165042 0.0552071 0.0660563
0.638102 0.0817273 0.146227
0.666819 0.0936446 0.18584
0.658442 0.0769207 0.19173
0.0526131 0.182803 0.0833295
0.145708 0.18088 0.0738994
0.630594 0.0793011 0.11107
0.641367 0.0843366 0.121508
0.647913 0.0840925 0.129839
0.203525 0.765103 0.279713
0.258427 0.801907 0.270146
0.821607 0.864012 0.338216
0.949111 0.879545 0.401236
0.957198 0.904051 0.421393
0.240192 0.833082 0.380987
0.241047 0.832197 0.373495
0.686458 0.875883 0.315053
0.970138 0.940475 0.462257
0.971618 0.940124 0.461524
0.240116 0.833249 0.381613
0.241535 0.831922 0.369635
0.844938 0.909972 0.3823
0.969207 0.940902 0.460624
0.969558 0.940688 0.461845
0.0389563 0.0670176 0.169818
0.181689 0.0608835 0.179599
0.680461 0.0896162 0.257038
0.697154 0.0979629 0.286351
0.702586 0.103105 0.296971
0.0472419 0.154238 0.156893
0.120684 0.156985 0.164691
0.642039 0.0753643 0.169802
0.665492 0.0825513 0.204089
0.661738 0.0759136 0.205982
0.168582 0.749187 0.357885
0.191165 0.762432 0.308309
0.809491 0.855421 0.324681
0.943511 0.868299 0.392432
0.950896 0.890944 0.411887
0.239353 0.838315 0.426154
0.240665 0.83328 0.384863
0.650034 0.870329 0.303304
0.96968 0.940673 0.461692
0.970993 0.940108 0.463447
0.240146 0.845685 0.488731
0.240101 0.835889 0.406729
0.800259 0.897795 0.361013
0.968002 0.941329 0.459892
0.969635 0.940719 0.461311
0.0324712 0.0841535 0.541588
0.141238 0.0762798 0.587945
0.691371 0.12549 0.649866
0.70901 0.134768 0.668788
0.703853 0.137331 0.683726
0.0269474 0.156237 0.571328
0.0344244 0.0836652 0.546578
0.684977 0.125734 0.65771
0.707439 0.135073 0.67158
0.704051 0.137102 0.682734
0.134859 0.677775 0.648264
0.139376 0.685222 0.65594
0.626673 0.698802 0.694682
0.936034 0.685222 0.693797
0.941054 0.712657 0.720394
0.256565 0.862364 0.712612
0.255772 0.862104 0.709239
0.249332 0.862943 0.574838
0.96759 0.939086 0.47248
0.967666 0.939651 0.471626
0.278492 0.868513 0.789105
0.275181 0.86743 0.775616
0.293599 0.884138 0.651865
0.966278 0.939635 0.467994
0.96698 0.940047 0.469123
0.0705882 0.07364 0.582956
0.167895 0.0807355 0.62771
0.687205 0.136843 0.696864
0.698466 0.139895 0.697627
0.697581 0.140032 0.698848
0.027451 0.12697 0.589105
0.0689097 0.0737316 0.581842
0.680659 0.135851 0.697887
0.697459 0.140047 0.699001
0.69749 0.140078 0.698695
0.129809 0.619806 0.727901
0.131411 0.624063 0.728634
0.485603 0.573968 0.892058
0.918486 0.557717 0.91249
0.926116 0.59884 0.920974
0.296666 0.865919 0.850996
0.296437 0.865812 0.851179
0.302144 0.875151 0.858213
0.976715 0.978988 0.981079
0.991852 0.983383 0.985321
0.295613 0.866255 0.85124
0.295628 0.866117 0.851347
0.321218 0.891966 0.872267
0.973541 0.985611 0.983581
0.991394 0.9879 0.986481
0.0767376 0.0737621 0.586542
0.178683 0.0809033 0.631098
0.694759 0.138842 0.697368
0.69836 0.13991 0.697826
0.697704 0.140002 0.698756
0.0273289 0.127214 0.589303
0.0740978 0.0738231 0.585092
0.689845 0.13785 0.698116
0.697398 0.140032 0.699245
0.697612 0.140032 0.698711
0.132662 0.626062 0.729
0.134768 0.630823 0.729961
0.504067 0.583825 0.894194
0.917617 0.573388 0.913634
0.926543 0.613108 0.917433
0.295918 0.866316 0.851087
0.301564 0.864439 0.850095
0.310063 0.87631 0.859007
0.963973 0.972015 0.982193
0.989395 0.979568 0.98761
0.299138 0.865751 0.850111
0.301701 0.864744 0.849836
0.329091 0.891447 0.871214
0.936645 0.983185 0.984894
0.989517 0.988632 0.992767
