bundles/resolve-cinematic-luts/Phantom Luts/Komodo Phantom ARRI LUTs G2/Komodo Phantom ARRI LUTs G2/65x/WB Offset - Green Boost/IceBlue_Komodo_WBO_Legacy_G2_65x.cube
TITLE "Generated by Resolve"
LUT_3D_SIZE 65
0.0479744 0.0596017 0.0634623
0.0479744 0.0596017 0.0634623
0.0479744 0.0596017 0.0634775
0.0479744 0.0596017 0.0634775
0.048249 0.0595865 0.0634775
0.0494545 0.0595407 0.0636149
0.0536049 0.0595254 0.0644388
0.0577249 0.0593118 0.0645457
0.0625162 0.0588846 0.0637675
0.0684977 0.0587167 0.0637064
0.075761 0.0585489 0.0637064
0.0846876 0.0582742 0.063859
0.0949721 0.0575113 0.0636912
0.107866 0.0569467 0.0640421
0.124132 0.0564431 0.0643626
0.14342 0.0556191 0.0648814
0.165042 0.0552071 0.0660563
0.18819 0.054612 0.0666209
0.214008 0.0544747 0.0680552
0.241917 0.0543374 0.0694438
0.273335 0.0546883 0.071107
0.307073 0.0553597 0.0735027
0.342428 0.055848 0.0771191
0.380835 0.0565042 0.0813306
0.420584 0.0572366 0.0863203
0.459571 0.057969 0.0914931
0.497307 0.0594034 0.0991989
0.528435 0.0611124 0.106554
0.555657 0.0631113 0.114137
0.579309 0.0653086 0.122255
0.598581 0.0667124 0.129396
0.618296 0.073228 0.136706
0.638102 0.0817273 0.146227
0.64651 0.0839857 0.152956
0.648249 0.0841535 0.156634
0.649897 0.0841993 0.160189
0.651408 0.084184 0.163714
0.652811 0.0843214 0.166735
0.654246 0.0844129 0.16997
0.655467 0.0845197 0.172717
0.656596 0.0846265 0.175341
0.657618 0.0847639 0.177584
0.658518 0.0849775 0.179294
0.659281 0.0852064 0.180606
0.659739 0.0853742 0.181216
0.660273 0.0855726 0.182101
0.660716 0.0857862 0.18262
0.661051 0.0859541 0.182986
0.666819 0.0936446 0.18584
0.660334 0.0844282 0.183215
0.654841 0.0772412 0.180957
0.655161 0.0773938 0.18143
0.65536 0.0773938 0.181857
0.655619 0.0774701 0.182361
0.655863 0.0775464 0.182818
0.656077 0.0776074 0.1832
0.656229 0.0776684 0.183474
0.656382 0.0777295 0.183673
0.656519 0.0777752 0.183841
0.656687 0.07776 0.184298
0.656916 0.0776989 0.185107
0.657206 0.0775769 0.186221
0.657557 0.077409 0.187686
0.657938 0.0772106 0.189441
0.658442 0.0769207 0.19173
0.0481117 0.0594797 0.0630808
0.0480812 0.0595102 0.0632029
0.0480507 0.059556 0.0632944
0.0480201 0.0595712 0.0633555
0.0480507 0.0595865 0.0634012
0.0489052 0.0595712 0.0635386
0.0527962 0.0595407 0.0643168
0.0571145 0.0593729 0.064683
0.0620432 0.0588998 0.0638132
0.0681163 0.0587472 0.0637522
0.0756695 0.0585641 0.0638437
0.0848554 0.0582284 0.0640116
0.0956741 0.0574807 0.0639811
0.10837 0.0568856 0.064332
0.125582 0.0563058 0.0645151
0.145098 0.0553445 0.0648051
0.1664 0.0548257 0.0658579
0.190387 0.0542 0.0666209
0.216312 0.0539559 0.0681315
0.245411 0.0536812 0.0697032
0.27715 0.0540017 0.071458
0.31075 0.0547494 0.07393
0.347707 0.0551156 0.0779278
0.385519 0.0557107 0.0824445
0.426154 0.0563973 0.0879377
0.465812 0.0572213 0.0941329
0.501411 0.0585489 0.101503
0.532235 0.0603037 0.109133
0.558206 0.062211 0.115816
0.582864 0.0646372 0.125475
0.601434 0.0660105 0.132204
0.621775 0.0746166 0.139315
0.641032 0.082063 0.14963
0.646693 0.0834669 0.154833
0.648432 0.0836652 0.158495
0.650019 0.0838178 0.161761
0.651438 0.0838178 0.165042
0.652796 0.0839857 0.167865
0.654032 0.084123 0.170489
0.655222 0.0842756 0.173037
0.656184 0.0844282 0.175189
0.657145 0.0845808 0.177218
0.658045 0.0847791 0.178912
0.658869 0.0850385 0.180285
0.659251 0.0852064 0.180713
0.659693 0.0853742 0.181353
0.660151 0.0855726 0.181949
0.660533 0.0857862 0.1823
0.664775 0.0913558 0.184344
0.663264 0.0891737 0.183627
0.659373 0.0836805 0.182116
0.659648 0.0838178 0.182467
0.654414 0.0770886 0.180209
0.654673 0.0771801 0.180621
0.654902 0.0772412 0.181048
0.6551 0.0773022 0.181415
0.655283 0.0773632 0.181735
0.655421 0.077409 0.181994
0.655558 0.0774395 0.182223
0.655741 0.0774243 0.182727
0.655955 0.0773632 0.183444
0.65626 0.0772564 0.184543
0.656626 0.0770733 0.186053
0.657069 0.0768444 0.187915
0.657557 0.076585 0.190051
0.0481117 0.0594797 0.0630961
0.0480812 0.0595102 0.0632029
0.0480507 0.059556 0.0632944
0.0480201 0.0595712 0.0633707
0.0480049 0.0595865 0.0634012
0.0484627 0.0596017 0.0634775
0.051957 0.0595712 0.0641031
0.0565652 0.0594339 0.0646982
0.0614481 0.0589914 0.0638743
0.067689 0.0588083 0.0637522
0.0753338 0.0586252 0.0638437
0.0847791 0.0582437 0.0639811
0.0958267 0.0574655 0.0639963
0.108751 0.0568704 0.0643931
0.126802 0.0562905 0.0646677
0.146136 0.055314 0.0649424
0.168063 0.0547646 0.0657969
0.191623 0.0540169 0.0661784
0.218006 0.0537575 0.0674754
0.247105 0.0533761 0.0689097
0.279179 0.0534981 0.0705882
0.31371 0.0540169 0.073106
0.350256 0.054551 0.0768444
0.389471 0.0551308 0.0817578
0.430289 0.0556954 0.0872816
0.470192 0.0565652 0.0941176
0.50544 0.0579843 0.101946
0.534707 0.0597086 0.109422
0.560906 0.0617075 0.116442
0.584131 0.0639506 0.124941
0.602228 0.0653849 0.131579
0.624552 0.0761425 0.13991
0.642588 0.0825055 0.149828
0.646265 0.0832837 0.154314
0.647974 0.0834821 0.157946
0.649561 0.083711 0.161044
0.651026 0.0837415 0.164279
0.652338 0.0838483 0.167132
0.653498 0.0840162 0.169512
0.654688 0.0841688 0.172
0.655665 0.0843214 0.174105
0.65658 0.0844587 0.17612
0.65742 0.0846265 0.177783
0.658167 0.0848096 0.179141
0.658839 0.085008 0.18027
0.659342 0.0851911 0.181003
0.659678 0.085359 0.181384
0.659983 0.0855268 0.181628
0.660258 0.0857099 0.181811
0.660502 0.0858625 0.181918
0.66067 0.0859846 0.18204
0.660822 0.0860761 0.182101
0.65716 0.0813916 0.180301
0.657343 0.0814832 0.180499
0.657511 0.0815595 0.180743
0.657679 0.0816052 0.181048
0.657847 0.081651 0.181338
0.657969 0.0816815 0.181567
0.658076 0.0816968 0.18175
0.658244 0.0816663 0.182254
0.658473 0.0815747 0.183062
0.658747 0.0814527 0.184115
0.659098 0.0812543 0.185473
0.65951 0.0810254 0.187243
0.659998 0.0806897 0.189441
0.0481117 0.0594797 0.0630961
0.0480812 0.0595102 0.0632029
0.0480354 0.059556 0.0633097
0.0480201 0.0595712 0.0633707
0.0480049 0.0595865 0.0634012
0.0481575 0.0596017 0.063447
0.0505837 0.0596475 0.0638132
0.055314 0.0596475 0.064683
0.0602884 0.059205 0.0639963
0.0661936 0.0590372 0.0638132
0.07393 0.0588693 0.0638285
0.0831159 0.0585184 0.06392
0.0945907 0.0576944 0.0639048
0.107652 0.0570687 0.0643473
0.12575 0.0564736 0.0647135
0.145769 0.055436 0.0648814
0.167514 0.0548562 0.0657511
0.191546 0.0540017 0.0659648
0.218067 0.0536507 0.0669566
0.246342 0.0531319 0.0679789
0.278218 0.0529793 0.0693065
0.312566 0.0534066 0.0710155
0.349966 0.0537575 0.0743267
0.38967 0.0543221 0.0790723
0.430335 0.0549325 0.0851148
0.470817 0.0556649 0.0919814
0.505394 0.0570687 0.0996719
0.535256 0.0589761 0.10782
0.561257 0.0610513 0.115267
0.583871 0.0630808 0.123217
0.604562 0.0679026 0.130739
0.624765 0.0767071 0.138231
0.642206 0.0825208 0.147677
0.645533 0.0831311 0.152895
0.647105 0.0832685 0.156374
0.648707 0.0834821 0.159625
0.650187 0.0836652 0.16257
0.651469 0.0836957 0.165499
0.652705 0.0838483 0.168017
0.653758 0.0840009 0.170184
0.65481 0.0841535 0.17232
0.655695 0.0843061 0.174228
0.656489 0.0844434 0.175891
0.657252 0.0845808 0.177447
0.657923 0.0847334 0.178744
0.658473 0.0848859 0.17966
0.658885 0.085069 0.180255
0.659205 0.0852064 0.180606
0.65948 0.085359 0.180835
0.659709 0.0855268 0.180926
0.659831 0.0856794 0.180774
0.659953 0.085832 0.180667
0.660075 0.0859541 0.18056
0.660182 0.0860456 0.180545
0.660273 0.0861067 0.180575
0.660349 0.0861372 0.180667
0.660426 0.0861677 0.180835
0.660517 0.0861677 0.181018
0.660578 0.0861677 0.18114
0.660716 0.0861372 0.181552
0.660914 0.0860304 0.1823
0.661173 0.0858625 0.183337
0.661479 0.0856489 0.184695
0.661845 0.0854047 0.186206
0.662318 0.0850843 0.188327
0.0481117 0.0594797 0.0630961
0.0480812 0.0595102 0.0632029
0.0480354 0.059556 0.0633097
0.0480049 0.0595712 0.063386
0.0479896 0.0595865 0.0634165
0.0480049 0.0596017 0.063447
0.0490578 0.0597238 0.0635843
0.0532387 0.0599985 0.0644846
0.0580301 0.0596628 0.0644999
0.0641337 0.0594186 0.06392
0.0715343 0.0593271 0.0638285
0.080415 0.0590219 0.063798
0.0920424 0.0582589 0.0637217
0.105119 0.0576028 0.0641794
0.12311 0.0569924 0.0647746
0.143145 0.0559243 0.064683
0.165835 0.0552224 0.0656291
0.190387 0.0542763 0.0658579
0.216907 0.0538491 0.0668345
0.24538 0.0532082 0.0675517
0.276387 0.0528572 0.0684367
0.310506 0.0530709 0.0695811
0.347585 0.0532082 0.0718853
0.387137 0.0534066 0.0756542
0.428534 0.0539101 0.0812085
0.468757 0.0547189 0.0881819
0.504433 0.0559396 0.0963149
0.534096 0.0578012 0.104875
0.560113 0.0599222 0.1131
0.582879 0.0620279 0.120882
0.60766 0.072221 0.130236
0.624216 0.0772869 0.135439
0.640162 0.0819867 0.144045
0.644114 0.082887 0.150042
0.645975 0.0830243 0.154238
0.647532 0.0831769 0.157702
0.649027 0.0834211 0.160494
0.650401 0.0835889 0.163317
0.651576 0.0836347 0.16585
0.652659 0.083772 0.168124
0.65362 0.0839246 0.170077
0.654566 0.0840772 0.171939
0.65536 0.0842298 0.173556
0.656031 0.0843671 0.174945
0.656687 0.0844892 0.176287
0.657252 0.084596 0.177386
0.657725 0.0847181 0.178256
0.658137 0.0848707 0.178866
0.658442 0.0850233 0.179202
0.658656 0.0851759 0.179248
0.658747 0.0853285 0.17911
0.658778 0.0854658 0.178805
0.658824 0.0856031 0.1785
0.658869 0.0857099 0.178317
0.658946 0.0858015 0.17821
0.659022 0.0858625 0.178195
0.659083 0.0859083 0.178225
0.659159 0.0859388 0.178317
0.65922 0.0859541 0.178408
0.659342 0.085893 0.178805
0.65951 0.0858015 0.1794
0.659724 0.0856489 0.180285
0.660014 0.08542 0.181598
0.660365 0.0851606 0.183169
0.660777 0.0848249 0.185077
0.048188 0.0598459 0.0631723
0.048127 0.0598611 0.0632486
0.0480812 0.0598764 0.0633402
0.0480812 0.0598459 0.0634165
0.048127 0.0597696 0.0634775
0.0480964 0.0597086 0.063508
0.048249 0.0597391 0.0635386
0.0510262 0.0601663 0.0640269
0.0556649 0.0601205 0.0647135
0.0613718 0.0599527 0.064271
0.068574 0.0598917 0.0639658
0.0771954 0.0596933 0.0638285
0.088304 0.0590219 0.0635691
0.101671 0.0583963 0.0639811
0.119295 0.0577554 0.0646067
0.139834 0.0566567 0.0646677
0.162829 0.0559701 0.0653849
0.187472 0.0549935 0.0656748
0.214679 0.0545052 0.0665446
0.242985 0.0538338 0.0672923
0.275196 0.0534218 0.0682231
0.309331 0.0534371 0.0691997
0.34519 0.0532845 0.0708019
0.384543 0.0530861 0.0731212
0.424735 0.0529946 0.0772259
0.465324 0.0534829 0.0832685
0.501717 0.0547189 0.0914321
0.531487 0.0565347 0.100511
0.557855 0.0585489 0.108995
0.580423 0.060853 0.116869
0.606897 0.0723278 0.127123
0.622751 0.0769513 0.132006
0.63772 0.0813458 0.140017
0.641184 0.0821088 0.145373
0.644419 0.0827497 0.151049
0.646143 0.0828565 0.155062
0.647593 0.0830243 0.158236
0.648981 0.0832532 0.16083
0.650248 0.0834821 0.163272
0.651331 0.0835431 0.165545
0.652262 0.08365 0.167483
0.653117 0.0838026 0.169192
0.653941 0.0839551 0.170764
0.654643 0.0840925 0.172076
0.655268 0.0842145 0.173342
0.655772 0.0843214 0.174365
0.656245 0.0844282 0.175296
0.656641 0.084535 0.176013
0.656947 0.0846418 0.176486
0.657206 0.0847639 0.176745
0.657359 0.0849012 0.176791
0.657465 0.0850233 0.176669
0.657511 0.0851759 0.176333
0.657557 0.0853132 0.176043
0.657603 0.08542 0.17583
0.657633 0.0855116 0.175631
0.657664 0.0855726 0.175509
0.657664 0.0856184 0.175387
0.657694 0.0856489 0.175326
0.657786 0.0855879 0.175662
0.657923 0.085481 0.176287
0.658122 0.0852979 0.177234
0.658351 0.0850843 0.178424
0.658595 0.0848096 0.179751
0.658976 0.0844587 0.181659
0.0487221 0.0617227 0.0637827
0.0486915 0.0617838 0.0638285
0.0486458 0.0618296 0.06392
0.0486305 0.0617838 0.0639963
0.0487221 0.0615091 0.0639506
0.049012 0.0611276 0.0639353
0.0489357 0.0607767 0.06392
0.0502174 0.0609445 0.0641337
0.0539864 0.0611124 0.0647898
0.059144 0.0611276 0.0654307
0.0659953 0.0610513 0.0647135
0.0739452 0.0608225 0.0640269
0.0842756 0.0599832 0.063386
0.0979171 0.0593881 0.0636149
0.114397 0.058793 0.0643473
0.135637 0.0577401 0.0643168
0.158968 0.0569619 0.0652476
0.184146 0.0560159 0.0656138
0.211292 0.0554513 0.0661784
0.240299 0.0548409 0.066865
0.273335 0.0545052 0.0679637
0.307485 0.0544594 0.0688334
0.344045 0.0540017 0.0704509
0.38294 0.0535134 0.0724041
0.422583 0.0529793 0.0751049
0.461799 0.0528115 0.0789197
0.496925 0.0536355 0.0854353
0.527321 0.0550088 0.0939498
0.553338 0.0569467 0.102892
0.578882 0.0615396 0.112383
0.60444 0.0720531 0.121996
0.620432 0.076463 0.127291
0.634424 0.0806592 0.134279
0.638209 0.0813611 0.139971
0.640909 0.0818341 0.145296
0.644114 0.0824445 0.151019
0.645945 0.0826734 0.154894
0.647196 0.0827802 0.157748
0.648478 0.0830243 0.160296
0.649668 0.0832532 0.162493
0.650675 0.0834363 0.164385
0.651484 0.0835279 0.165972
0.652232 0.0836194 0.167498
0.652918 0.083772 0.168734
0.653498 0.0838788 0.169879
0.654078 0.0839857 0.171054
0.654566 0.0840772 0.171984
0.654963 0.0841688 0.172641
0.655283 0.0842603 0.173236
0.655497 0.0843671 0.173495
0.65565 0.0844739 0.173587
0.655756 0.084596 0.173571
0.655818 0.0847181 0.173342
0.655818 0.0848554 0.172976
0.655787 0.0849775 0.172549
0.655787 0.085069 0.172305
0.655756 0.0851453 0.172045
0.655726 0.0852064 0.171786
0.655695 0.0852369 0.171557
0.655726 0.0852064 0.171695
0.655848 0.0850996 0.172213
0.656001 0.0849317 0.172915
0.656229 0.0847028 0.174029
0.656504 0.0844129 0.175448
0.65684 0.0840467 0.177203
0.049546 0.0656596 0.0645151
0.0495155 0.0657359 0.0645762
0.0495003 0.0658274 0.0646982
0.0494392 0.0657511 0.0647135
0.0495766 0.065568 0.0646677
0.0500038 0.065095 0.0645457
0.0505684 0.0645151 0.0645304
0.0520333 0.0638743 0.0646525
0.0547799 0.0641642 0.0653697
0.0587472 0.0645762 0.0665293
0.0648814 0.0640421 0.0664683
0.0719768 0.0633555 0.0654917
0.0813916 0.0624552 0.0646982
0.094377 0.0616464 0.064271
0.109285 0.0606088 0.0638743
0.130175 0.0593118 0.0641489
0.153872 0.0584115 0.0647898
0.17966 0.0574502 0.0653849
0.207263 0.0565805 0.0659037
0.23714 0.0560769 0.0667582
0.270024 0.0558022 0.0678416
0.305119 0.0556191 0.0686198
0.341375 0.0550851 0.0702068
0.380743 0.0544747 0.0720531
0.420294 0.0538643 0.0745251
0.459434 0.0533608 0.0779431
0.494057 0.0535286 0.0821546
0.522316 0.0541695 0.0878767
0.547692 0.0556497 0.095201
0.578347 0.0666209 0.106813
0.600015 0.0713664 0.115267
0.616678 0.0758373 0.121187
0.629038 0.0793164 0.126802
0.633967 0.0804761 0.132738
0.636866 0.0808728 0.138094
0.639811 0.0813306 0.143709
0.642145 0.0817273 0.148455
0.645014 0.0823072 0.153521
0.646479 0.082475 0.156741
0.647532 0.0826429 0.158999
0.648585 0.0828717 0.160922
0.649516 0.0831006 0.162493
0.650324 0.0833295 0.163867
0.65098 0.0834363 0.165072
0.651514 0.0835126 0.166033
0.651987 0.0835584 0.167041
0.652491 0.08365 0.168002
0.652857 0.0837568 0.168612
0.653178 0.0838331 0.169162
0.653468 0.0839094 0.16965
0.653666 0.0840009 0.16994
0.653803 0.0840925 0.170031
0.653895 0.084184 0.16997
0.65391 0.0843061 0.16968
0.653895 0.0844282 0.169253
0.653819 0.0845502 0.168734
0.653727 0.0846571 0.168231
0.653666 0.0847334 0.167819
0.653559 0.0847944 0.167407
0.653559 0.0847639 0.167407
0.653605 0.0846723 0.167727
0.653742 0.0845045 0.168414
0.65391 0.0842603 0.169436
0.654154 0.0839551 0.170733
0.654414 0.0835889 0.172213
0.0505226 0.0699168 0.0659648
0.0504921 0.0700694 0.0660105
0.0504463 0.0701305 0.0660716
0.0503853 0.0701305 0.0661173
0.0503548 0.0699321 0.0660716
0.0509499 0.0694591 0.0659953
0.0520638 0.068864 0.0659342
0.0533303 0.0681773 0.0659495
0.0561074 0.0677195 0.0658274
0.0597848 0.0680552 0.0665751
0.0656596 0.0680705 0.0679026
0.0729839 0.0679942 0.0681163
0.08159 0.0674601 0.0673686
0.0940414 0.0665446 0.0663005
0.107958 0.0648814 0.0649119
0.127855 0.062974 0.0645914
0.150042 0.060914 0.0637675
0.175174 0.0597391 0.0645762
0.202411 0.0582589 0.0651865
0.232807 0.0577096 0.0662089
0.266667 0.0574502 0.0673381
0.30164 0.0570077 0.0682536
0.339101 0.05626 0.0699779
0.37882 0.0555886 0.0717937
0.41799 0.0549325 0.0739757
0.458274 0.0543832 0.0774548
0.493431 0.0544442 0.0819409
0.521981 0.0548867 0.0869764
0.54551 0.0555886 0.0918288
0.573602 0.06598 0.100313
0.598703 0.0690166 0.118441
0.615122 0.0731823 0.124956
0.626444 0.0763256 0.129793
0.631052 0.0774701 0.134218
0.63389 0.0780346 0.137911
0.636927 0.0787976 0.142519
0.639536 0.0793469 0.147051
0.641703 0.0799115 0.151186
0.643687 0.0805371 0.154406
0.645716 0.0812848 0.157473
0.646586 0.0817426 0.15874
0.647288 0.0820783 0.159686
0.647898 0.0824292 0.160296
0.648463 0.0827344 0.160937
0.648997 0.0829938 0.161486
0.649485 0.0831769 0.162203
0.649958 0.0833295 0.162982
0.650355 0.0834363 0.163622
0.650706 0.0834974 0.164233
0.65095 0.0835584 0.16466
0.651102 0.0836042 0.164874
0.65124 0.0836805 0.164965
0.651286 0.0837568 0.164843
0.651301 0.0838483 0.164645
0.65124 0.0839399 0.164218
0.651133 0.0840467 0.163638
0.651011 0.084184 0.163027
0.650843 0.0842756 0.162371
0.650706 0.0843366 0.161837
0.650538 0.0843671 0.161379
0.650416 0.0843519 0.161105
0.650278 0.0842908 0.160937
0.650141 0.084184 0.160876
0.650065 0.084062 0.161059
0.649912 0.0838788 0.161135
0.0518959 0.0756237 0.0679942
0.0518807 0.0757 0.0679026
0.0518654 0.0758984 0.0679332
0.0518349 0.0758679 0.0679484
0.0518502 0.075761 0.0679942
0.0520638 0.0755627 0.0679637
0.0534371 0.0747997 0.0679637
0.0551156 0.0739757 0.0679332
0.0570993 0.0730297 0.0677195
0.0609598 0.0729381 0.0677501
0.0664073 0.0730602 0.0681315
0.0733806 0.0732738 0.0690013
0.0828412 0.0734112 0.0696117
0.0951095 0.0724193 0.0689097
0.108843 0.0712444 0.0678264
0.128969 0.0695659 0.0666056
0.151553 0.0671702 0.0646067
0.174517 0.0648051 0.0636759
0.199954 0.0619669 0.0636301
0.228565 0.0603342 0.0640269
0.261936 0.0594797 0.0657359
0.297475 0.0587015 0.0669108
0.335393 0.0578775 0.0684825
0.374762 0.0570382 0.0700084
0.415503 0.0563668 0.0722972
0.456168 0.0557259 0.076051
0.492424 0.0554665 0.0807965
0.521965 0.0558022 0.0870069
0.546319 0.0561685 0.0930953
0.573007 0.0632639 0.102144
0.595087 0.0695354 0.110887
0.610864 0.0732128 0.11751
0.621256 0.0757916 0.122438
0.624811 0.0763409 0.126162
0.6271 0.0767071 0.129442
0.629877 0.0773175 0.132723
0.632059 0.0777447 0.135561
0.634668 0.0785534 0.138659
0.636973 0.0792706 0.14197
0.638743 0.0798199 0.144579
0.640421 0.0803845 0.147204
0.641733 0.0808423 0.149477
0.643259 0.0813611 0.151705
0.644678 0.0818341 0.153872
0.64538 0.082063 0.155108
0.646082 0.0822003 0.156588
0.646571 0.0822309 0.157733
0.647181 0.0823072 0.158907
0.647501 0.0823682 0.159564
0.647807 0.0824292 0.160189
0.64828 0.082536 0.160967
0.648478 0.0825971 0.161242
0.648646 0.0826734 0.161456
0.648722 0.0827497 0.161379
0.648692 0.082826 0.16112
0.648661 0.0829328 0.160769
0.648508 0.0830243 0.160143
0.648356 0.0831311 0.159579
0.648096 0.0831922 0.158785
0.647807 0.083238 0.158068
0.647578 0.083238 0.157504
0.647272 0.0831617 0.156939
0.646998 0.0830549 0.156497
0.646662 0.0829023 0.156085
0.646097 0.0827192 0.155337
0.052781 0.0828717 0.0699931
0.0528572 0.0831311 0.0699931
0.052903 0.0833143 0.0700999
0.0529183 0.0833906 0.0701457
0.0528267 0.083299 0.0700542
0.0526589 0.0830091 0.0698711
0.0535744 0.082414 0.069749
0.0556191 0.0814221 0.0697642
0.0577401 0.0802777 0.069688
0.0607767 0.0797894 0.0697642
0.0664073 0.079942 0.069749
0.0738994 0.0798962 0.0696117
0.0834363 0.0800946 0.0708324
0.0964675 0.0798505 0.0715496
0.110643 0.0787213 0.0713207
0.131044 0.0769665 0.0699931
0.153155 0.0747845 0.0677653
0.176699 0.0724041 0.0654307
0.203418 0.0693675 0.0637827
0.231052 0.0664073 0.0637064
0.261067 0.0631876 0.0640879
0.295277 0.0614939 0.0663157
0.330892 0.0597391 0.0675975
0.370855 0.0587472 0.0694743
0.411582 0.0578622 0.0716106
0.453391 0.057084 0.0751812
0.491066 0.0567025 0.0799878
0.520623 0.0567025 0.086183
0.546441 0.0571908 0.0927443
0.568505 0.0582742 0.100053
0.595209 0.0695964 0.11046
0.612314 0.0736095 0.117968
0.622583 0.0761273 0.122438
0.623896 0.0762341 0.123659
0.623041 0.0757916 0.124025
0.623911 0.0758831 0.125551
0.625345 0.0762798 0.127337
0.626917 0.0768292 0.128817
0.628794 0.0775464 0.13019
0.630228 0.078172 0.131319
0.631952 0.0787976 0.132799
0.633646 0.0794537 0.1346
0.635126 0.079942 0.136736
0.636408 0.0803388 0.138537
0.637476 0.0805524 0.140337
0.638498 0.0807965 0.142077
0.639506 0.0809644 0.143954
0.64036 0.0811017 0.145678
0.640894 0.0812238 0.146746
0.641398 0.0813001 0.147768
0.642878 0.0816358 0.149889
0.643336 0.0816968 0.15079
0.643534 0.0817426 0.151171
0.643656 0.0817884 0.151369
0.643763 0.0818647 0.151492
0.643626 0.0819104 0.15111
0.643519 0.0819867 0.150713
0.643168 0.0820325 0.149783
0.642695 0.0820783 0.148562
0.642222 0.0821241 0.147387
0.641581 0.082063 0.14609
0.640909 0.0819867 0.144762
0.64007 0.0818036 0.143175
0.639185 0.0816052 0.141588
0.637842 0.081239 0.139635
0.0534218 0.0921492 0.072221
0.0533761 0.0924239 0.0717632
0.0532845 0.0928206 0.0715648
0.0532082 0.0929885 0.071519
0.0532235 0.0928054 0.0715343
0.0532387 0.0926833 0.0715496
0.0535592 0.0922103 0.071519
0.0556344 0.0913405 0.0716411
0.0581979 0.0903029 0.0717632
0.0603342 0.0889143 0.0715038
0.0651713 0.0888685 0.0714122
0.0728313 0.0887465 0.0709697
0.0834363 0.0887922 0.0714122
0.0969406 0.0890364 0.0724651
0.112078 0.0888685 0.0737163
0.133623 0.0870069 0.0735332
0.156252 0.0846265 0.0722362
0.180926 0.0818647 0.0703136
0.208103 0.0784314 0.0682231
0.234775 0.0746624 0.0651713
0.26688 0.0704051 0.0639506
0.298772 0.0668345 0.0652628
0.331289 0.0632334 0.0660258
0.368811 0.0615396 0.0685435
0.407202 0.0597696 0.0707408
0.449836 0.0586709 0.0740826
0.488563 0.0580606 0.078996
0.519295 0.0579843 0.0849165
0.545571 0.05832 0.0917525
0.568826 0.0595254 0.0994888
0.595071 0.0696117 0.109743
0.612894 0.0738079 0.117784
0.625101 0.0769207 0.123491
0.628031 0.0775616 0.125444
0.627283 0.0770886 0.125841
0.626276 0.0766766 0.125826
0.625132 0.0764019 0.125231
0.624048 0.0762341 0.124086
0.623468 0.0763256 0.123293
0.623819 0.0767681 0.122988
0.624475 0.0772259 0.123125
0.625086 0.0776226 0.123278
0.62591 0.0780346 0.123781
0.627008 0.0784619 0.12459
0.627878 0.0787671 0.125505
0.628748 0.0789502 0.126543
0.629725 0.0791485 0.127672
0.63061 0.0793469 0.128847
0.631479 0.0795453 0.130007
0.63212 0.0796826 0.131029
0.632807 0.0798047 0.132219
0.633219 0.079881 0.132921
0.633494 0.0799268 0.133379
0.633814 0.0800031 0.133822
0.633875 0.0800336 0.133837
0.633936 0.0800946 0.133867
0.633783 0.0801099 0.133532
0.633417 0.0801404 0.132753
0.633036 0.0801862 0.131899
0.632303 0.0801556 0.130465
0.63154 0.0801099 0.12903
0.630549 0.079942 0.127291
0.629313 0.0796979 0.125322
0.628138 0.0794995 0.123461
0.627146 0.0793011 0.122347
0.0534829 0.104555 0.0743267
0.0534371 0.10486 0.0736095
0.0533913 0.10544 0.0731823
0.0533608 0.105516 0.0731518
0.0533455 0.105501 0.0731365
0.0533303 0.105135 0.0730755
0.053315 0.104814 0.0730297
0.0544594 0.104128 0.0731365
0.0573892 0.102953 0.0732433
0.059968 0.101762 0.0730907
0.0638132 0.100603 0.0732128
0.0707713 0.100969 0.0733043
0.0815137 0.100908 0.0725872
0.096437 0.100328 0.0728313
0.112428 0.101305 0.0746319
0.134707 0.100404 0.075227
0.160082 0.0985275 0.0760967
0.185061 0.0957351 0.0742962
0.213001 0.0915999 0.0725414
0.242298 0.0873884 0.0704051
0.27361 0.0820325 0.0679026
0.305837 0.0771191 0.0656138
0.339269 0.0717479 0.0652628
0.373709 0.0675364 0.0670634
0.40853 0.0634775 0.0685893
0.447257 0.061387 0.0720836
0.485206 0.0597086 0.0773327
0.516976 0.0595407 0.0832532
0.544579 0.0596475 0.090425
0.568124 0.0602884 0.0980087
0.592584 0.0674907 0.107668
0.613245 0.073991 0.117174
0.627115 0.0775616 0.123995
0.632074 0.0787518 0.12694
0.631449 0.0783093 0.12752
0.630869 0.0780346 0.127733
0.63003 0.0778515 0.127428
0.628885 0.0776684 0.126574
0.627695 0.0775464 0.1252
0.626474 0.0775158 0.123552
0.625193 0.0775006 0.121859
0.62414 0.0775006 0.120333
0.623133 0.0774548 0.119142
0.622583 0.0774853 0.118379
0.622507 0.0775921 0.118105
0.62266 0.0776989 0.118166
0.623041 0.0778058 0.118593
0.623484 0.0778821 0.119188
0.623865 0.0779736 0.1196
0.624155 0.0780499 0.119905
0.624353 0.0780804 0.12015
0.62446 0.0781109 0.120302
0.624628 0.0781415 0.120546
0.624735 0.078172 0.120684
0.624857 0.0782025 0.120851
0.624842 0.0782177 0.120775
0.62475 0.078233 0.120531
0.624582 0.0782483 0.120165
0.624231 0.078233 0.119585
0.62385 0.078233 0.118929
0.623285 0.0782025 0.117983
0.622553 0.0781262 0.116838
0.621805 0.0780194 0.115755
0.621302 0.0779278 0.115023
0.622232 0.078172 0.115557
0.0533913 0.11873 0.0765545
0.0533761 0.119509 0.0759136
