bundles/resolve-cinematic-luts/Phantom Luts/Komodo Phantom ARRI LUTs G2/Komodo Phantom ARRI LUTs G2/65x/WB Offset - Green Boost/IceBlue_Komodo_WBO_G2_65x.cube
TITLE "Generated by Resolve"
LUT_3D_SIZE 65
0.0344244 0.0467231 0.0462654
0.0344244 0.0467231 0.0462654
0.0344244 0.0467231 0.0462654
0.0344244 0.0467231 0.0462501
0.0348058 0.0466926 0.0462348
0.0363622 0.04654 0.0463722
0.0420844 0.0464179 0.0474861
0.0501259 0.0462959 0.0471809
0.0590982 0.046067 0.0466468
0.0693828 0.0458228 0.0465858
0.0814527 0.0455787 0.0467842
0.0961318 0.0448157 0.0466621
0.113756 0.0440375 0.0469825
0.134707 0.0430915 0.047364
0.157153 0.0419471 0.0472877
0.182757 0.041062 0.0484932
0.209796 0.0401007 0.0500801
0.23827 0.0394293 0.051957
0.270405 0.0392462 0.0554055
0.303655 0.039292 0.0595865
0.338613 0.0401007 0.0644236
0.374975 0.0412757 0.0700542
0.410834 0.0422675 0.0774395
0.447227 0.0432898 0.085893
0.481331 0.0447852 0.095079
0.510842 0.0466621 0.104189
0.537987 0.0488594 0.115801
0.562371 0.0509804 0.126711
0.583673 0.0532845 0.136156
0.603296 0.0567025 0.145647
0.621897 0.0614633 0.154147
0.63769 0.0659648 0.161135
0.652247 0.0702068 0.169879
0.659617 0.0720989 0.177493
0.661143 0.0720836 0.181842
0.662699 0.0721752 0.186099
0.66421 0.0722972 0.190127
0.665583 0.0724041 0.193805
0.666835 0.0725109 0.197116
0.667948 0.0726024 0.200229
0.668894 0.0727398 0.20293
0.669764 0.0728771 0.205173
0.670573 0.0730602 0.207034
0.671275 0.0732586 0.208667
0.671672 0.0733806 0.209262
0.672114 0.0735027 0.210285
0.67248 0.0736248 0.210895
0.672877 0.0737926 0.21149
0.673259 0.0739452 0.21207
0.673594 0.0740673 0.212634
0.673869 0.0741588 0.213107
0.674113 0.0742351 0.213565
0.674311 0.0742809 0.214099
0.674495 0.0742962 0.214618
0.674647 0.0743114 0.215122
0.674769 0.0743114 0.215534
0.674876 0.0743267 0.215839
0.674952 0.0743267 0.216068
0.675044 0.074342 0.216266
0.675166 0.0742962 0.2168
0.675349 0.0742199 0.2177
0.675547 0.0740978 0.218769
0.675822 0.07393 0.22034
0.676158 0.0736858 0.222354
0.676555 0.0734264 0.22472
0.0345312 0.0466163 0.0459144
0.0345006 0.0466468 0.0460059
0.0344854 0.0466773 0.0460822
0.0344701 0.0466926 0.0461433
0.0345312 0.0466926 0.0461585
0.0356146 0.0466163 0.0462959
0.04094 0.0464179 0.0472572
0.049012 0.0463264 0.0472725
0.0584268 0.0461128 0.0466926
0.0688029 0.0458381 0.0465553
0.0813764 0.0456092 0.0468299
0.096437 0.04477 0.0466926
0.114839 0.0439612 0.0471046
0.13579 0.0429999 0.047425
0.158923 0.0417792 0.0471809
0.184817 0.0407111 0.0480049
0.211139 0.0396429 0.0488289
0.240864 0.0389105 0.0508888
0.272541 0.0386664 0.0544137
0.306844 0.038529 0.058793
0.342596 0.0393225 0.0635386
0.378454 0.0406043 0.0696117
0.415625 0.041474 0.0771649
0.45098 0.0424353 0.0860304
0.485191 0.0439612 0.096025
0.514656 0.0458991 0.106294
0.540536 0.0479591 0.116899
0.564172 0.0500191 0.12752
0.585626 0.0531472 0.137041
0.606714 0.0571603 0.148241
0.624674 0.0619364 0.155962
0.639475 0.0662852 0.161959
0.654307 0.0705882 0.171664
0.659434 0.0718242 0.17789
0.661006 0.0718853 0.182132
0.662455 0.0719463 0.186084
0.663981 0.0720989 0.190127
0.665339 0.0722515 0.193668
0.666484 0.0723735 0.19649
0.667597 0.0724956 0.199451
0.668498 0.0726177 0.201984
0.669337 0.072755 0.204288
0.670146 0.0729076 0.206332
0.670893 0.0730907 0.208072
0.671336 0.0732433 0.208804
0.671717 0.0733654 0.209552
0.672084 0.0734722 0.210315
0.672389 0.0735943 0.210758
0.672679 0.0737163 0.21117
0.672969 0.0738689 0.211398
0.673228 0.073991 0.21181
0.673472 0.0740826 0.212207
0.673671 0.0741436 0.212558
0.673854 0.0742046 0.212894
0.674022 0.0742504 0.213245
0.674174 0.0742657 0.213626
0.674281 0.0742809 0.213962
0.674372 0.0742809 0.214221
0.674464 0.0742962 0.214481
0.674586 0.0742504 0.21503
0.674754 0.0741588 0.21593
0.674968 0.0740368 0.217182
0.675227 0.0738689 0.218631
0.675563 0.07364 0.2206
0.675975 0.0733654 0.223041
0.0345312 0.0466163 0.0459144
0.0345006 0.0466468 0.0460212
0.0344854 0.0466773 0.0460822
0.0344701 0.0466926 0.0461433
0.0344701 0.0466926 0.0461585
0.0350805 0.0466773 0.0462348
0.0396887 0.0465095 0.0470436
0.047776 0.0464027 0.0474098
0.0573587 0.0462501 0.0468757
0.0681468 0.0459144 0.0465248
0.0808576 0.0456703 0.0468452
0.0963912 0.0448005 0.0466773
0.115084 0.0439612 0.0471199
0.136461 0.0429999 0.0474708
0.160433 0.0417487 0.0472877
0.186374 0.0406653 0.0480812
0.213107 0.0395666 0.0486763
0.242496 0.0386358 0.0498665
0.27454 0.0383154 0.0525521
0.308614 0.0380865 0.0566262
0.344228 0.0385748 0.0616617
0.38088 0.0396735 0.0672007
0.417685 0.0407568 0.0749981
0.453956 0.0417487 0.0839704
0.487556 0.0432441 0.0943465
0.516686 0.0451667 0.105211
0.542611 0.0472877 0.116548
0.565576 0.0494698 0.126772
0.58735 0.0529946 0.136797
0.608057 0.0575723 0.14696
0.625757 0.0622416 0.154971
0.640742 0.0666514 0.161028
0.655268 0.0708782 0.170962
0.658961 0.0716869 0.177005
0.660563 0.0718395 0.181064
0.661891 0.07187 0.18471
0.663462 0.0720073 0.1888
0.664851 0.0721599 0.192508
0.665965 0.0722972 0.195193
0.667079 0.0724193 0.198138
0.668009 0.0725261 0.200702
0.668833 0.0726482 0.203021
0.669566 0.0727855 0.204898
0.670268 0.0729076 0.206668
0.670909 0.0730755 0.208118
0.671382 0.073228 0.20911
0.671687 0.0733196 0.209613
0.671946 0.0734264 0.21001
0.67219 0.0735485 0.21033
0.672389 0.0736553 0.210452
0.672572 0.0737621 0.21062
0.67277 0.0738842 0.210758
0.672938 0.0739757 0.210864
0.673075 0.074052 0.211063
0.673228 0.0740978 0.211322
0.673365 0.0741283 0.211612
0.673487 0.0741436 0.211933
0.673579 0.0741588 0.212207
0.673671 0.0741588 0.212406
0.673808 0.0741283 0.212894
0.673976 0.0740673 0.213642
0.674189 0.07393 0.214801
0.674418 0.0737469 0.216327
0.674723 0.073518 0.218219
0.67509 0.0732433 0.220462
0.0345312 0.0466163 0.0459297
0.0345006 0.0466468 0.0460212
0.0344701 0.0466773 0.0460975
0.0344701 0.0466926 0.0461433
0.0344549 0.0466926 0.0461738
0.0346838 0.0467079 0.0462043
0.0377508 0.0466468 0.0466163
0.0453346 0.0465858 0.047715
0.0549325 0.04654 0.0472267
0.0655985 0.0462043 0.0466468
0.0787213 0.0459754 0.0467536
0.0937972 0.045243 0.0466926
0.112947 0.0443122 0.0470588
0.135058 0.0432746 0.0474098
0.159167 0.0420233 0.047364
0.185946 0.0408331 0.0480201
0.212573 0.0396735 0.0485237
0.242405 0.0386358 0.0494698
0.274495 0.0381323 0.0514839
0.307317 0.037705 0.0545968
0.342794 0.0378119 0.0584268
0.379461 0.0388495 0.0632181
0.416953 0.0396887 0.0705882
0.453696 0.0406958 0.0797589
0.486473 0.0420844 0.0901656
0.515877 0.0439155 0.101717
0.541482 0.0460517 0.112871
0.56553 0.0489967 0.124392
0.587655 0.0528725 0.135317
0.60827 0.0576486 0.145205
0.625895 0.0623178 0.153048
0.640452 0.0666667 0.158862
0.654841 0.0709087 0.168399
0.65803 0.0715038 0.17467
0.659724 0.0716869 0.179232
0.661173 0.0717632 0.18294
0.662501 0.0718395 0.186603
0.66392 0.0720073 0.19028
0.665202 0.0721447 0.193637
0.666194 0.072282 0.195941
0.667185 0.0724041 0.198566
0.66804 0.0725261 0.200824
0.668742 0.0726329 0.202731
0.669398 0.072755 0.204471
0.670024 0.0728618 0.206027
0.670542 0.0729992 0.207172
0.67097 0.0731212 0.208133
0.671275 0.0732586 0.208621
0.671504 0.0733654 0.208865
0.671687 0.0734722 0.209018
0.671809 0.0735943 0.208927
0.671916 0.0736858 0.208835
0.672007 0.0737774 0.208759
0.672099 0.0738384 0.208759
0.672175 0.0738994 0.208804
0.672267 0.07393 0.208927
0.672358 0.0739605 0.20911
0.67245 0.0739605 0.209354
0.672526 0.0739757 0.209522
0.672633 0.0739452 0.209964
0.672786 0.0738537 0.210742
0.672984 0.0737163 0.211826
0.673198 0.0735485 0.213092
0.673503 0.0733043 0.214923
0.673854 0.0729992 0.217182
0.0345312 0.0466163 0.0459297
0.0345006 0.0466468 0.0460365
0.0344701 0.0466773 0.0461128
0.0344549 0.0467079 0.0461738
0.0344396 0.0467079 0.0462196
0.0344701 0.0467231 0.0462348
0.0357977 0.0467994 0.0463722
0.0417182 0.0470436 0.0476234
0.0508888 0.047013 0.0475624
0.0619669 0.0467079 0.0470588
0.0747539 0.0466011 0.0471351
0.0893721 0.0460365 0.0467842
0.108659 0.0451514 0.0470436
0.130785 0.0440681 0.047364
0.155886 0.042771 0.0475013
0.182406 0.0415503 0.0478523
0.21059 0.0402075 0.0483558
0.240864 0.0390784 0.0493172
0.273075 0.0384375 0.0512245
0.30634 0.0378271 0.0536965
0.340688 0.0376287 0.0565042
0.377172 0.0383001 0.0601816
0.414221 0.0388495 0.0658579
0.450584 0.0395056 0.0736553
0.483848 0.0406958 0.0840009
0.513008 0.0426947 0.0959793
0.539803 0.0451057 0.108156
0.564462 0.048661 0.120333
0.58674 0.0528115 0.131624
0.607797 0.0576028 0.142428
0.625528 0.0623026 0.150683
0.639445 0.0665599 0.155444
0.65301 0.0705882 0.164187
0.656382 0.0711528 0.170916
0.658564 0.0714122 0.176547
0.660151 0.0715801 0.180743
0.661463 0.0716869 0.18407
0.66273 0.0717632 0.187503
0.664012 0.0719463 0.190768
0.665171 0.0720836 0.193683
0.666072 0.072221 0.195819
0.666941 0.0723278 0.198093
0.667704 0.0724651 0.199939
0.668345 0.0725719 0.201587
0.66891 0.0726635 0.203235
0.669413 0.0727703 0.20441
0.669856 0.0728618 0.205493
0.670222 0.0729839 0.206302
0.670542 0.073106 0.206806
0.670771 0.073228 0.207034
0.670909 0.0733501 0.207034
0.670985 0.0734874 0.20679
0.671016 0.0735943 0.206439
0.671061 0.0736858 0.206226
0.671122 0.0737469 0.206134
0.671183 0.0738079 0.206119
0.671229 0.0738384 0.206134
0.67129 0.0738537 0.20621
0.671336 0.0738537 0.206302
0.671427 0.0738079 0.206729
0.671534 0.0737316 0.207294
0.671702 0.0735943 0.208286
0.671931 0.0734112 0.209628
0.672206 0.073167 0.211322
0.672541 0.0728771 0.213306
0.0345617 0.0469978 0.0459449
0.0345312 0.0470283 0.0460365
0.0345006 0.0470283 0.0461128
0.0345312 0.0469825 0.0462043
0.0346227 0.0469062 0.0462806
0.0346227 0.0468299 0.0463111
0.0348363 0.0468452 0.0463264
0.0383154 0.047364 0.0469215
0.0462501 0.0475013 0.0482032
0.0569924 0.0473945 0.0473182
0.069688 0.0473487 0.0472572
0.0846113 0.0469215 0.047013
0.102892 0.0461891 0.046891
0.125017 0.0451667 0.0470741
0.150744 0.0439155 0.047364
0.177905 0.0425422 0.0476539
0.206928 0.0413062 0.0481422
0.237247 0.0401312 0.0489662
0.27068 0.0393835 0.0506142
0.304067 0.0386664 0.0529641
0.339635 0.0384527 0.0561227
0.37615 0.038819 0.0592966
0.411582 0.0388495 0.0635538
0.447486 0.03888 0.0690166
0.479835 0.0396124 0.0770428
0.509331 0.0417182 0.088304
0.537102 0.0448463 0.101122
0.562051 0.0484474 0.113909
0.584939 0.0526894 0.126085
0.605859 0.0573434 0.137469
0.62446 0.0622263 0.146715
0.637964 0.0663005 0.151339
0.65066 0.0700236 0.159335
0.65388 0.0706645 0.165377
0.656703 0.0710155 0.172061
0.658686 0.0712444 0.177279
0.660197 0.0714275 0.181308
0.661448 0.0715648 0.184436
0.662531 0.0716411 0.187335
0.663706 0.0718242 0.190173
0.664729 0.0719921 0.192721
0.665599 0.0721294 0.194751
0.666362 0.0722515 0.196597
0.667033 0.072343 0.198291
0.667613 0.0724498 0.19971
0.668101 0.0725261 0.200977
0.668528 0.0726177 0.20209
0.668894 0.072694 0.203006
0.669184 0.0727855 0.203586
0.669398 0.0728923 0.203891
0.669581 0.0729992 0.204059
0.669688 0.0731212 0.204028
0.669764 0.0732433 0.203784
0.669825 0.0733501 0.203479
0.669871 0.0734569 0.203235
0.669917 0.0735332 0.203037
0.669947 0.0735943 0.202899
0.669963 0.07364 0.202777
0.669978 0.0736706 0.202716
0.670024 0.0736248 0.203006
0.67013 0.073518 0.203647
0.670283 0.0733806 0.204593
0.670436 0.0731823 0.205783
0.67068 0.0729381 0.207233
0.670954 0.0726177 0.209232
0.0350805 0.0497444 0.0465705
0.0350652 0.0497902 0.0466163
0.03505 0.049836 0.0467384
0.03505 0.0497139 0.0467231
0.0352026 0.0492714 0.0466468
0.035584 0.0486915 0.0466621
0.0354925 0.0481727 0.0465705
0.0371862 0.0484321 0.0469215
0.0429541 0.0491035 0.0485237
0.0524605 0.0490425 0.0483253
0.064744 0.0490272 0.0480964
0.0788434 0.0484474 0.047425
0.0966354 0.0475319 0.0472267
0.118669 0.046479 0.0470588
0.144411 0.0453956 0.047303
0.172229 0.0439918 0.0472725
0.202365 0.0427558 0.0480659
0.233753 0.0415503 0.0486305
0.266743 0.0407416 0.0498817
0.301411 0.0401617 0.0520333
0.337942 0.0400244 0.0555428
0.374517 0.0403449 0.0585031
0.410941 0.0400397 0.0631571
0.446311 0.0395361 0.06804
0.477638 0.0396429 0.0734569
0.505989 0.0415656 0.081651
0.532692 0.0445258 0.0922713
0.558465 0.0482643 0.10547
0.581353 0.052369 0.117845
0.602884 0.057023 0.130037
0.621683 0.0618448 0.139895
0.635386 0.0658732 0.145205
0.647242 0.0692454 0.152514
0.651026 0.0700389 0.159136
0.65359 0.0704051 0.16524
0.656397 0.0707256 0.171969
0.658366 0.0710002 0.176989
0.659846 0.0711986 0.180926
0.661082 0.071397 0.183902
0.662028 0.0714885 0.186481
0.662959 0.0716259 0.188632
0.663905 0.0717937 0.19089
0.664683 0.0719463 0.192752
0.66537 0.0720836 0.194293
0.665934 0.0721752 0.195544
0.666484 0.0722667 0.196948
0.666957 0.0723278 0.198138
0.667338 0.0724193 0.198932
0.667643 0.0724804 0.19968
0.667872 0.0725567 0.200153
0.668055 0.0726329 0.200427
0.668177 0.0727398 0.200488
0.668254 0.0728466 0.200336
0.668284 0.0729534 0.200031
0.668269 0.0730602 0.199588
0.668284 0.073167 0.199237
0.668254 0.073228 0.198871
0.668223 0.0732891 0.198566
0.668208 0.0733349 0.198306
0.668223 0.0733043 0.198398
0.668299 0.0732128 0.198947
0.668391 0.0730602 0.199771
0.668544 0.0728618 0.2009
0.668742 0.0726177 0.202289
0.669001 0.072282 0.20415
0.0365454 0.0561227 0.049134
0.0365301 0.0562295 0.0491798
0.0365301 0.0563821 0.0493172
0.0364691 0.056199 0.0492409
0.0366674 0.0557717 0.049012
0.0372473 0.0548562 0.0485542
0.0379492 0.0539101 0.048249
0.0398413 0.0529488 0.0482185
0.0443427 0.0534066 0.0492866
0.0522011 0.0539406 0.0508278
0.0628061 0.0532845 0.0500343
0.0757458 0.0527657 0.0497444
0.0916457 0.0513466 0.0486915
0.112413 0.0497292 0.0476387
0.13817 0.0480659 0.047425
0.16553 0.0462043 0.0471962
0.196063 0.0448768 0.0476234
0.22855 0.043595 0.0482185
0.262272 0.0424506 0.049073
0.297765 0.0419318 0.0511482
0.334691 0.0418402 0.054551
0.372152 0.0420081 0.0575723
0.408728 0.0415656 0.0626535
0.445411 0.0410315 0.0673228
0.476799 0.0406806 0.0725261
0.503944 0.0415351 0.0793927
0.529885 0.0443427 0.0875257
0.553597 0.0477455 0.0966812
0.57612 0.0518196 0.107637
0.59791 0.0564736 0.119615
0.616678 0.0611276 0.129671
0.631174 0.0652018 0.136034
0.642054 0.0683299 0.142321
0.646647 0.0691081 0.150164
0.649683 0.0695659 0.156924
0.652583 0.0699168 0.163714
0.654871 0.0702068 0.169406
0.657389 0.0704967 0.175555
0.659083 0.0707408 0.179843
0.660304 0.0709392 0.183001
0.661372 0.0711376 0.18558
0.662104 0.0712444 0.187457
0.662776 0.0713817 0.188861
0.663462 0.0715343 0.190387
0.664088 0.0716716 0.191791
0.664591 0.071809 0.19295
0.665034 0.0719158 0.193881
0.665385 0.0720226 0.194491
0.665675 0.0720989 0.195026
0.665949 0.0721752 0.19559
0.666148 0.0722515 0.195911
0.666285 0.0723278 0.196063
0.666392 0.0724346 0.196033
0.666423 0.0725261 0.195773
0.666423 0.0726482 0.195392
0.666377 0.072755 0.194827
0.666331 0.0728313 0.194415
0.66627 0.0729076 0.193988
0.666194 0.0729534 0.19353
0.666178 0.0729381 0.193515
0.666194 0.0728618 0.193805
0.66627 0.0727092 0.194461
0.666407 0.0724956 0.195468
0.666606 0.0721904 0.196948
0.666835 0.0718395 0.198749
0.0382391 0.0651255 0.0529183
0.0382391 0.0653697 0.0529793
0.0381933 0.0654459 0.0530404
0.0381476 0.0654154 0.0530251
0.038056 0.0650034 0.0527657
0.0389258 0.0639506 0.05243
0.0402991 0.0626993 0.0521553
0.042237 0.0609751 0.0516365
0.0471656 0.0604105 0.0515145
0.054551 0.0609903 0.0525521
0.0646067 0.0612955 0.0531777
0.0772564 0.0610819 0.0535592
0.0918898 0.0601053 0.0525521
0.112535 0.0581521 0.051133
0.136553 0.0549325 0.0488136
0.162783 0.0515602 0.0478218
0.191989 0.0485695 0.0469825
0.223438 0.0467536 0.0479133
0.256672 0.0449836 0.048249
0.292836 0.0440528 0.0497749
0.33106 0.0440375 0.0529946
0.368887 0.0438087 0.05626
0.406943 0.0432746 0.0617838
0.443976 0.0425727 0.0664073
0.475822 0.0422065 0.0717174
0.50367 0.042237 0.0785992
0.528908 0.0442512 0.0867628
0.552636 0.0476692 0.0949569
0.573709 0.051606 0.102663
0.593027 0.055787 0.110811
0.614801 0.058793 0.130953
0.629313 0.0626841 0.138567
0.639246 0.0656138 0.14342
0.643397 0.0665141 0.148898
0.646281 0.0671702 0.153765
0.649149 0.0676738 0.159716
0.651728 0.0682689 0.165148
0.653941 0.0688182 0.169924
0.655741 0.0693828 0.173709
0.657526 0.0698253 0.177493
0.658579 0.070161 0.180026
0.659648 0.0705119 0.182254
0.660502 0.0708171 0.183856
0.661158 0.0710307 0.185168
0.661723 0.0711833 0.186419
0.662196 0.0712444 0.187732
0.662623 0.0713207 0.188617
0.662989 0.0713817 0.189456
0.663386 0.071458 0.190387
0.663691 0.0715343 0.191058
0.66392 0.0715953 0.191485
0.664103 0.0716869 0.191806
0.664195 0.0717632 0.191821
0.664271 0.07187 0.19173
0.66424 0.0719615 0.191348
0.664164 0.0720684 0.190753
0.664057 0.0721752 0.190082
0.663905 0.0722667 0.189334
0.663783 0.0723278 0.1888
0.66363 0.0723278 0.188373
0.663478 0.0723125 0.187945
0.663294 0.0722515 0.187579
0.663081 0.0721447 0.187289
0.662913 0.0719921 0.187274
0.662623 0.071809 0.18703
0.0393835 0.0759442 0.0556497
0.0393835 0.0761273 0.0555428
0.0393988 0.0765087 0.0556497
0.0393683 0.0763867 0.0556039
0.0393072 0.0760815 0.0555123
0.0395819 0.0755627 0.0553902
0.0415351 0.0740673 0.0552529
0.0441138 0.0724498 0.0551919
0.0475929 0.0707866 0.0549325
0.0552224 0.0708171 0.0547951
0.0664225 0.0714885 0.0550546
0.0783093 0.0715953 0.0561074
0.0943008 0.0716564 0.0563668
0.114153 0.0696574 0.0547646
0.13872 0.0671855 0.0527657
0.165026 0.06392 0.049958
0.19408 0.0590524 0.0474708
0.223285 0.0548714 0.0467842
0.254032 0.0501717 0.0461738
0.289387 0.0480049 0.0475929
0.326574 0.0467231 0.0502937
0.364797 0.0461128 0.0542611
0.403525 0.0453956 0.0588998
0.440696 0.0446326 0.0635233
0.474449 0.0442512 0.0695964
0.502785 0.0440833 0.076585
0.528069 0.0445563 0.0851148
0.551949 0.0474556 0.0943618
0.573678 0.0512245 0.103548
0.593896 0.0552834 0.113283
0.611414 0.0593271 0.122484
0.625315 0.0628519 0.12961
0.634028 0.0650492 0.134066
0.637415 0.0656596 0.138766
0.639597 0.0660258 0.142275
0.642115 0.0665141 0.146288
0.644404 0.0670024 0.150195
0.646937 0.0677348 0.154192
0.648936 0.0682383 0.158145
0.650843 0.0688182 0.16173
0.652628 0.0693217 0.16527
0.654002 0.069688 0.168276
0.655451 0.0700694 0.171237
0.656687 0.0702678 0.174136
0.657526 0.0704204 0.176333
0.658351 0.0705425 0.178424
0.65893 0.0706188 0.17995
0.659617 0.0707256 0.181552
0.660029 0.0707866 0.182681
0.66038 0.0708324 0.183597
0.660838 0.0709392 0.184466
0.661036 0.0709697 0.184939
0.661234 0.0710307 0.185336
0.661326 0.0710918 0.185382
0.661341 0.0711528 0.185214
0.661326 0.0712291 0.184924
0.661204 0.0713207 0.184298
0.661067 0.0714275 0.183566
0.660838 0.0714885 0.182727
0.660563 0.0715343 0.181872
0.660319 0.0715496 0.181125
0.659998 0.0715038 0.180301
0.659709 0.0714122 0.179767
0.659327 0.0713054 0.179049
0.658625 0.071107 0.17763
0.0401465 0.0890211 0.058854
0.040177 0.0895094 0.0587778
0.040177 0.0898604 0.0588083
0.040177 0.0900282 0.0588388
0.040116 0.0898146 0.0587625
0.0400397 0.0892348 0.0585946
0.0413977 0.0881819 0.0582132
0.0443732 0.0863508 0.0581216
0.0480049 0.0843366 0.057969
0.0543374 0.0834669 0.057847
0.0653849 0.0834821 0.0570077
0.0799115 0.0838178 0.0575113
0.0956588 0.0837873 0.0581979
0.117174 0.0834669 0.0587472
0.141527 0.081117 0.0575875
0.16878 0.0777295 0.0557259
0.197803 0.0739147 0.0525673
0.226581 0.0692302 0.0486763
0.2589 0.0634318 0.0456703
0.292012 0.0578775 0.0456092
0.326467 0.0525673 0.0476387
0.363119 0.0499275 0.052018
0.399847 0.0478676 0.057023
0.43769 0.046891 0.0623941
0.47219 0.0462501 0.0680095
0.501991 0.0460517 0.0754864
0.52752 0.0458228 0.0838331
0.550591 0.0473335 0.09308
0.572839 0.0510872 0.102632
0.593256 0.0552224 0.112383
0.611475 0.0593881 0.121981
0.626413 0.0631571 0.129915
0.635157 0.0654612 0.133928
0.636164 0.0655833 0.134874
0.635386 0.0652018 0.134951
0.636332 0.0653239 0.136995
0.637675 0.0656901 0.139132
0.63917 0.0662394 0.140749
0.640909 0.0668803 0.142809
0.642496 0.0673838 0.144869
0.644251 0.0679942 0.147341
0.646036 0.068452 0.150515
0.64741 0.0687572 0.153048
0.648707 0.0690776 0.155734
0.650034 0.0693675 0.158495
0.651133 0.0695354 0.160937
0.652064 0.069688 0.163043
0.652873 0.0698253 0.164889
0.653468 0.0699016 0.166323
0.654002 0.0699779 0.167605
0.655268 0.0702068 0.170092
0.655619 0.0702373 0.170977
0.655802 0.0702373 0.171481
0.655909 0.0702678 0.171771
0.655985 0.0703136 0.171893
0.655894 0.0703441 0.171542
0.655818 0.0704204 0.171176
0.655558 0.0704662 0.170382
0.655161 0.0705272 0.169177
0.65478 0.0705882 0.167849
0.654215 0.0706188 0.166155
0.65362 0.0705882 0.164675
0.652766 0.0704356 0.162814
0.651896 0.0702831 0.160861
0.650553 0.0699626 0.158328
0.040177 0.104601 0.0612955
0.0400854 0.105058 0.0607309
0.0399939 0.105791 0.0605478
0.0399481 0.106126 0.0605478
0.0399329 0.105745 0.0604868
0.0399329 0.105501 0.0604562
0.0404517 0.104646 0.0603952
0.0435035 0.10309 0.0603952
0.0473182 0.101411 0.0601511
0.0524147 0.0988327 0.0599832
0.0626688 0.0991073 0.0597238
0.0775464 0.0988327 0.0583352
0.0958572 0.0984817 0.0587472
0.118273 0.099382 0.0601358
0.144076 0.0982376 0.0608225
0.172656 0.095491 0.0611734
0.201678 0.0911116 0.0589761
0.232731 0.0861372 0.0557107
0.265995 0.0802319 0.0526436
0.298909 0.0738384 0.0492561
0.333913 0.066041 0.0466773
0.367834 0.0591897 0.0500496
0.401099 0.0533608 0.0535286
0.436255 0.050782 0.0599832
0.469642 0.0487831 0.0661173
0.500557 0.0482032 0.0733501
0.526757 0.0479286 0.0821698
0.549081 0.0477455 0.0910048
0.571206 0.0508125 0.100755
0.592462 0.0551461 0.111009
0.611231 0.0594034 0.120943
0.626764 0.0632944 0.129519
0.637385 0.0661326 0.135088
0.639826 0.0666972 0.136736
0.639094 0.066331 0.136904
0.638224 0.0660105 0.136599
0.637171 0.0658122 0.135729
0.636042 0.0657206 0.134264
0.635538 0.0658427 0.133394
0.636103 0.0662089 0.133776
0.63682 0.0666056 0.134478
0.637476 0.0669413 0.135042
0.638361 0.067277 0.136172
0.639475 0.0675975 0.137789
0.640391 0.0677653 0.139254
0.641413 0.0679332 0.140993
0.642481 0.0681315 0.14287
0.643305 0.0683299 0.14435
0.64419 0.0684825 0.14609
0.644862 0.0686046 0.147387
0.645548 0.0686656 0.148882
0.645884 0.0687114 0.149554
0.646067 0.0687266 0.14995
0.646342 0.0687572 0.15053
0.646387 0.0687724 0.150561
0.646433 0.0688029 0.150637
0.646281 0.0688334 0.150149
0.645945 0.068864 0.149264
0.645624 0.068925 0.148318
0.644999 0.0689403 0.146822
0.644343 0.0689403 0.145281
0.643244 0.0688487 0.142855
0.642054 0.0686198 0.140322
0.640787 0.0684215 0.137804
0.639719 0.0681773 0.136126
0.0397955 0.124788 0.0636912
0.0396887 0.125292 0.0628061
0.0395666 0.126284 0.0622721
0.0395514 0.126421 0.062211
0.0395361 0.126436 0.0621958
0.0395514 0.125902 0.06215
0.0395666 0.125429 0.0621195
0.0413977 0.124254 0.0621042
0.0455482 0.122393 0.0619669
0.0509346 0.120317 0.0619974
0.0591287 0.118395 0.0619516
0.0726482 0.118257 0.0608225
0.0923018 0.118349 0.0592508
0.117021 0.117311 0.0597086
0.14406 0.11809 0.060853
0.173724 0.116777 0.0620127
0.20647 0.11371 0.0639048
0.238392 0.109697 0.0626841
0.272511 0.102602 0.060029
0.308171 0.0955215 0.0577401
0.342977 0.0869306 0.0546273
0.378012 0.0786603 0.0526436
0.410117 0.0693523 0.0503243
0.442771 0.0610361 0.0569772
0.472129 0.054551 0.0619516
0.500038 0.051957 0.0700847
0.525338 0.0503243 0.0793164
0.548119 0.0498512 0.0883955
0.569329 0.0506294 0.0981003
0.590967 0.0549172 0.108629
0.610346 0.0593423 0.119112
0.626932 0.0634012 0.128618
0.639002 0.0666209 0.135622
0.643336 0.0676127 0.138643
0.642878 0.0672313 0.139223
0.642298 0.0670024 0.139452
0.641581 0.0668498 0.138994
0.640589 0.0667735 0.137911
0.639521 0.0667124 0.13637
0.638346 0.0667277 0.134493
0.637293 0.0667124 0.132891
0.636362 0.0667277 0.13138
0.635477 0.0666972 0.130007
0.634989 0.0667277 0.12929
0.634989 0.066804 0.129259
0.635233 0.0668956 0.129641
0.635645 0.0669718 0.130327
0.636072 0.0670481 0.13109
0.636454 0.0671244 0.131777
0.636728 0.0671855 0.13228
0.636942 0.067216 0.132662
0.637064 0.0672465 0.132876
0.637217 0.067277 0.133135
0.637324 0.0672923 0.133288
0.637461 0.0673228 0.133486
0.637446 0.0673381 0.13344
0.637369 0.0673381 0.133242
0.637217 0.0673381 0.132906
0.636881 0.0673381 0.132219
0.636515 0.0673381 0.131426
0.636011 0.0672923 0.130297
0.635294 0.0672313 0.128908
0.634562 0.0671397 0.127626
0.633997 0.0670634 0.126406
0.63476 0.067277 0.126848
0.0386816 0.147692 0.065095
0.0386816 0.148669 0.0643473
0.0386816 0.149355 0.0637522
