bundles/resolve-cinematic-luts/Phantom Luts/Komodo Phantom ARRI LUTs G2/Komodo Phantom ARRI LUTs G2/65x/WB Offset - Green Boost/IceBlue_Komodo_WBO_Legacy_G2_65x.cube
TITLE "Generated by Resolve"
LUT_3D_SIZE 9
0.0479744 0.0596017 0.0634623
0.0625162 0.0588846 0.0637675
0.165042 0.0552071 0.0660563
0.420584 0.0572366 0.0863203
0.638102 0.0817273 0.146227
0.656596 0.0846265 0.175341
0.666819 0.0936446 0.18584
0.656229 0.0776684 0.183474
0.658442 0.0769207 0.19173
0.0505226 0.0699168 0.0659648
0.0561074 0.0677195 0.0658274
0.150042 0.060914 0.0637675
0.41799 0.0549325 0.0739757
0.626444 0.0763256 0.129793
0.646586 0.0817426 0.15874
0.650706 0.0834974 0.164233
0.651011 0.084184 0.163027
0.649912 0.0838788 0.161135
0.0526131 0.182803 0.0833295
0.0524605 0.184833 0.0784772
0.145708 0.18088 0.0738994
0.458305 0.16199 0.0894789
0.630594 0.0793011 0.11107
0.645685 0.0840009 0.127855
0.641367 0.0843366 0.121508
0.64123 0.0842908 0.121508
0.647913 0.0840925 0.129839
0.0553902 0.45742 0.114717
0.0562295 0.46775 0.101122
0.0650797 0.467094 0.0913405
0.429328 0.481956 0.0879835
0.782376 0.545419 0.20206
0.846906 0.538643 0.234745
0.846937 0.515984 0.233555
0.847471 0.517754 0.233433
0.843717 0.568627 0.235584
0.203525 0.765103 0.279713
0.218662 0.777676 0.274418
0.258427 0.801907 0.270146
0.386404 0.790631 0.226368
0.821607 0.864012 0.338216
0.950545 0.883055 0.404669
0.949111 0.879545 0.401236
0.950118 0.882506 0.403601
0.957198 0.904051 0.421393
0.240757 0.83267 0.379828
0.240421 0.832624 0.378012
0.241352 0.83209 0.372549
0.242222 0.829999 0.354238
0.729488 0.882689 0.329595
0.968795 0.939361 0.457984
0.971801 0.939971 0.462516
0.970459 0.940032 0.465751
0.969482 0.94052 0.463767
0.240192 0.833082 0.380987
0.240665 0.832746 0.379782
0.241047 0.832197 0.373495
0.242145 0.831357 0.368627
0.686458 0.875883 0.315053
0.957702 0.937484 0.448981
0.970138 0.940475 0.462257
0.971557 0.940169 0.461295
0.971618 0.940124 0.461524
0.240162 0.833112 0.381521
0.241199 0.832853 0.379858
0.241505 0.832395 0.372778
0.241718 0.831144 0.362509
0.70428 0.87895 0.321233
0.958114 0.938125 0.449989
0.971084 0.940215 0.462165
0.970565 0.940276 0.462974
0.971832 0.940032 0.461845
0.240116 0.833249 0.381613
0.240452 0.832975 0.378576
0.241535 0.831922 0.369635
0.339788 0.836942 0.281727
0.844938 0.909972 0.3823
0.967117 0.940795 0.460472
0.969207 0.940902 0.460624
0.969757 0.940795 0.460151
0.969558 0.940688 0.461845
0.0458076 0.0602731 0.0768902
0.0623026 0.0598001 0.0787671
0.17319 0.0595407 0.0893721
0.434852 0.059617 0.119722
0.651011 0.0785077 0.182437
0.664378 0.0771496 0.210452
0.667933 0.0793011 0.216358
0.669169 0.0801862 0.217762
0.670954 0.0805219 0.223255
0.049012 0.0666209 0.0719158
0.0512245 0.0646067 0.0699626
0.160174 0.0558328 0.0712139
0.436072 0.0568551 0.10367
0.649699 0.0806744 0.172076
0.66157 0.0831769 0.193011
0.658976 0.075761 0.197772
0.660243 0.0767224 0.19855
0.661128 0.0767376 0.201221
0.0519265 0.178256 0.0999466
0.0521401 0.18114 0.0879683
0.136431 0.177356 0.0740826
0.460182 0.144594 0.0902571
0.629511 0.0772106 0.118486
0.640818 0.081178 0.131243
0.638056 0.0808576 0.128862
0.637827 0.0807813 0.128817
0.641733 0.0816663 0.130938
0.0557565 0.455467 0.13901
0.056672 0.464958 0.124483
0.0573281 0.466682 0.092256
0.423514 0.482887 0.0881666
0.785077 0.54345 0.204852
0.846418 0.533303 0.234913
0.847135 0.509911 0.233707
0.847013 0.511345 0.232868
0.844266 0.563607 0.234668
0.195254 0.76286 0.297307
0.209262 0.774289 0.290684
0.251682 0.797177 0.268711
0.375463 0.793118 0.228962
0.821942 0.865324 0.335134
0.949081 0.884001 0.403906
0.946899 0.88011 0.401358
0.948196 0.883238 0.403296
0.955398 0.904158 0.419852
0.240192 0.833127 0.381445
0.240269 0.832883 0.380301
0.241443 0.832319 0.373678
0.24184 0.830823 0.36051
0.726238 0.882582 0.328634
0.968307 0.939727 0.457084
0.970672 0.940444 0.461051
0.970611 0.940337 0.462257
0.969589 0.940764 0.46099
0.240146 0.833432 0.383062
0.240208 0.833143 0.381811
0.240696 0.832532 0.375311
0.241505 0.831617 0.368261
0.684047 0.875471 0.313649
0.956985 0.937514 0.448661
0.969787 0.940581 0.462242
0.971267 0.940261 0.461158
0.971298 0.94023 0.461311
0.240024 0.833478 0.38407
0.241016 0.833173 0.382315
0.241184 0.832639 0.375021
0.24123 0.831968 0.369009
0.700664 0.878859 0.320012
0.957259 0.938155 0.448051
0.970977 0.940322 0.461418
0.970855 0.940337 0.461662
0.971939 0.940002 0.461738
0.239902 0.833814 0.386023
0.240101 0.833509 0.38323
0.24123 0.83238 0.372625
0.308064 0.83267 0.2851
0.838849 0.90811 0.379644
0.967025 0.940734 0.459907
0.969253 0.940917 0.460395
0.969741 0.940795 0.460243
0.969665 0.940719 0.461143
0.0389563 0.0670176 0.169818
0.062974 0.0618906 0.175463
0.181689 0.0608835 0.179599
0.448218 0.0687724 0.20206
0.680461 0.0896162 0.257038
0.69456 0.0956893 0.279469
0.697154 0.0979629 0.286351
0.697734 0.0993668 0.283391
0.702586 0.103105 0.296971
0.0330205 0.0726024 0.152163
0.0402075 0.0665751 0.170016
0.174365 0.060853 0.180575
0.457816 0.068864 0.201526
0.682765 0.0879835 0.259846
0.691905 0.0929732 0.275639
0.694453 0.0960708 0.27718
0.695369 0.0977951 0.275654
0.699565 0.101015 0.287419
0.0472419 0.154238 0.156893
0.0470588 0.155749 0.158526
0.120684 0.156985 0.164691
0.464195 0.106996 0.152529
0.642039 0.0753643 0.169802
0.661387 0.0808728 0.19707
0.665492 0.0825513 0.204089
0.661128 0.0760662 0.203769
0.661738 0.0759136 0.205982
0.0548409 0.437156 0.215595
0.0554818 0.446479 0.2094
0.0552377 0.444358 0.150637
0.394842 0.467658 0.0856184
0.79115 0.51545 0.208484
0.845701 0.486137 0.232166
0.841856 0.458534 0.229557
0.841459 0.458808 0.229084
0.846815 0.513024 0.233936
0.168582 0.749187 0.357885
0.175174 0.757763 0.35436
0.191165 0.762432 0.308309
0.309392 0.783612 0.231647
0.809491 0.855421 0.324681
0.945281 0.873945 0.39559
0.943511 0.868299 0.392432
0.944137 0.870497 0.393805
0.950896 0.890944 0.411887
0.239124 0.836469 0.408835
0.239292 0.835203 0.399573
0.240497 0.833234 0.382849
0.241505 0.8318 0.369726
0.69987 0.877836 0.321187
0.964996 0.939071 0.455436
0.97026 0.940429 0.462333
0.969833 0.940444 0.463478
0.969528 0.940764 0.461067
0.239353 0.838315 0.426154
0.2392 0.837613 0.418875
0.240665 0.83328 0.384863
0.241749 0.831647 0.370138
0.650034 0.870329 0.303304
0.950927 0.9364 0.444343
0.96968 0.940673 0.461692
0.970459 0.940383 0.462318
0.970993 0.940108 0.463447
0.238544 0.839918 0.439841
0.239231 0.838972 0.431693
0.240375 0.833875 0.385794
0.241749 0.831861 0.369558
0.664317 0.872816 0.308736
0.950286 0.936797 0.444205
0.969696 0.940459 0.463767
0.970977 0.940124 0.463416
0.97203 0.939971 0.46186
0.240146 0.845685 0.488731
0.240024 0.844038 0.478202
0.240101 0.835889 0.406729
0.242603 0.830274 0.355886
0.800259 0.897795 0.361013
0.966201 0.94052 0.457527
0.968002 0.941329 0.459892
0.969421 0.940749 0.461555
0.969635 0.940719 0.461311
0.0334325 0.0750134 0.361364
0.0521401 0.0668345 0.366232
0.165423 0.0641031 0.382849
0.459785 0.0678874 0.414588
0.687236 0.0817884 0.408225
0.702617 0.0910353 0.430793
0.702281 0.0907454 0.435904
0.702998 0.0914168 0.438621
0.698116 0.0872663 0.457816
0.0236362 0.0907607 0.36083
0.0328985 0.0753948 0.375937
0.147295 0.0647898 0.398642
0.469276 0.0686961 0.434745
0.69662 0.0885023 0.429175
0.698268 0.0871138 0.442771
0.696147 0.0851453 0.446738
0.696666 0.0850538 0.445457
0.697795 0.0872511 0.467643
0.0263676 0.136858 0.305516
0.0253758 0.1337 0.318212
0.0352941 0.0840314 0.370932
0.429114 0.0677195 0.409323
0.686793 0.0831617 0.398199
0.697704 0.0860304 0.414206
0.696742 0.0850233 0.417014
0.6981 0.0860456 0.415915
0.702037 0.0903029 0.431174
0.0483101 0.396551 0.369772
0.0483406 0.40502 0.377707
0.0477302 0.400107 0.373083
0.336477 0.406744 0.395132
0.811795 0.374487 0.394156
0.845579 0.315038 0.375143
0.828412 0.284794 0.361959
0.827237 0.283558 0.359182
0.853712 0.327459 0.394354
0.139879 0.728389 0.491722
0.144717 0.737057 0.496986
0.145251 0.737011 0.477729
0.147829 0.722988 0.368994
0.722164 0.790448 0.282948
0.933196 0.837369 0.371344
0.929564 0.825269 0.363256
0.931807 0.824979 0.363745
0.937972 0.849424 0.380911
0.232761 0.84564 0.535042
0.232624 0.845731 0.536904
0.235904 0.845335 0.520897
0.239216 0.837812 0.425376
0.581079 0.860426 0.289296
0.951782 0.936828 0.444999
0.969848 0.940597 0.461952
0.969482 0.940597 0.462913
0.968444 0.940841 0.463416
0.231479 0.846632 0.546304
0.230915 0.846799 0.546899
0.233173 0.845304 0.529503
0.239399 0.840223 0.443992
0.494072 0.851835 0.278202
0.923308 0.931807 0.428443
0.969726 0.940429 0.463844
0.969863 0.940368 0.464149
0.970199 0.940246 0.464332
0.230533 0.847974 0.560372
0.23064 0.848142 0.561502
0.231907 0.846387 0.542687
0.23975 0.842008 0.460044
0.49482 0.852094 0.278172
0.920027 0.931548 0.425177
0.969375 0.940459 0.462898
0.969055 0.940719 0.46302
0.97081 0.940154 0.463478
0.235264 0.85481 0.623697
0.235386 0.854658 0.623194
0.232471 0.852049 0.597498
0.240665 0.847242 0.502983
0.668208 0.873289 0.310201
0.942443 0.936446 0.441779
0.967391 0.941085 0.462287
0.967651 0.941085 0.463218
0.96968 0.940551 0.462837
0.0324712 0.0841535 0.541588
0.0495003 0.0739452 0.54638
0.141238 0.0762798 0.587945
0.400351 0.0821851 0.635279
0.691371 0.12549 0.649866
0.709987 0.134188 0.665339
0.70901 0.134768 0.668788
0.708263 0.13518 0.67126
0.703853 0.137331 0.683726
0.0205844 0.0980545 0.542794
0.0330358 0.0837873 0.547601
0.12578 0.0768749 0.589853
0.400122 0.0837568 0.645731
0.696559 0.129976 0.662623
0.705791 0.135958 0.676616
0.704295 0.136675 0.680598
0.703929 0.136995 0.682292
0.701747 0.138567 0.690196
0.0269474 0.156237 0.571328
0.0270695 0.151308 0.576089
0.0344244 0.0836652 0.546578
0.342412 0.0801251 0.63595
0.684977 0.125734 0.65771
0.707607 0.134676 0.669596
0.707439 0.135073 0.67158
0.706828 0.135454 0.673686
0.704051 0.137102 0.682734
0.040589 0.383719 0.58085
0.0424201 0.389212 0.587976
0.0415503 0.373068 0.593668
0.130175 0.261189 0.681514
0.730083 0.226001 0.716381
0.740536 0.156115 0.641367
0.720943 0.131319 0.616327
0.723766 0.134783 0.620966
0.753231 0.175204 0.665537
0.134859 0.677775 0.648264
0.139437 0.68542 0.655558
0.139376 0.685222 0.65594
0.132723 0.674647 0.646464
0.626673 0.698802 0.694682
0.938811 0.701335 0.704341
0.936034 0.685222 0.693797
0.93724 0.684932 0.694087
0.941054 0.712657 0.720394
0.253376 0.861631 0.702052
0.256107 0.861357 0.707439
0.25481 0.86096 0.701228
0.24712 0.858244 0.670054
0.25388 0.863859 0.57525
0.918578 0.947677 0.611734
0.979614 0.947295 0.521324
0.983444 0.950103 0.546136
0.986725 0.952316 0.571084
0.256565 0.862364 0.712612
0.258106 0.862745 0.717586
0.255772 0.862104 0.709239
0.247242 0.859205 0.673793
0.249332 0.862943 0.574838
0.873899 0.921416 0.433936
0.96759 0.939086 0.47248
0.968704 0.939376 0.472007
0.967666 0.939651 0.471626
0.261677 0.863401 0.72874
0.262943 0.863874 0.73283
0.259861 0.863172 0.723674
0.250095 0.860273 0.685389
0.251301 0.865904 0.590127
0.860029 0.921187 0.443336
0.966461 0.939666 0.466499
0.967361 0.940185 0.467674
0.968063 0.939666 0.470451
0.278492 0.868513 0.789105
0.279179 0.868208 0.789731
0.275181 0.86743 0.775616
0.2607 0.863462 0.726848
0.293599 0.884138 0.651865
0.89807 0.943725 0.632349
0.966278 0.939635 0.467994
0.966751 0.940078 0.4692
0.96698 0.940047 0.469123
0.0553597 0.0746471 0.574441
0.07187 0.0736706 0.583368
0.153826 0.0805982 0.623056
0.379965 0.0882277 0.674159
0.682979 0.136141 0.697032
0.698268 0.139925 0.697856
0.697948 0.139986 0.698283
0.698177 0.13994 0.698085
0.69778 0.140002 0.698543
0.0399176 0.0802167 0.56817
0.0569009 0.0745403 0.575769
0.142428 0.080705 0.619867
0.387747 0.0887922 0.675669
0.690883 0.137957 0.697276
0.69752 0.140063 0.698634
0.697398 0.140093 0.698817
0.6972 0.140108 0.699092
0.698283 0.13994 0.697765
0.0291295 0.145647 0.598596
0.0271153 0.126101 0.588342
0.0551614 0.0748608 0.574319
0.329885 0.0850996 0.665797
0.675944 0.1346 0.697475
0.696422 0.140215 0.700191
0.697215 0.140093 0.699275
0.697429 0.140063 0.699001
0.697978 0.140002 0.698054
0.0426642 0.288716 0.641184
0.0432288 0.294408 0.642756
0.0411231 0.273426 0.63801
0.0768444 0.113863 0.623301
0.582071 0.121935 0.704128
0.697643 0.140597 0.699321
0.697871 0.140383 0.698756
0.698222 0.140368 0.698329
0.698451 0.141756 0.70016
0.130755 0.630777 0.718334
0.134905 0.63682 0.723415
0.134691 0.634424 0.72575
0.12845 0.617716 0.726925
0.490974 0.600855 0.889189
0.926131 0.604089 0.92047
0.926055 0.58912 0.912917
0.928069 0.590417 0.912978
0.931487 0.625528 0.921508
0.279927 0.854826 0.822782
0.285801 0.859251 0.828794
0.281727 0.856168 0.825345
0.264958 0.838544 0.807233
0.25626 0.826459 0.798428
0.878965 0.909575 0.910658
0.970733 0.917388 0.91873
0.970352 0.91519 0.91783
0.972198 0.926406 0.93051
0.297566 0.868696 0.841337
0.297383 0.868635 0.844221
0.294926 0.869184 0.840848
0.290227 0.869825 0.824811
0.285786 0.874846 0.786709
0.705943 0.939986 0.840787
0.985428 0.97998 0.883162
0.991669 0.978393 0.85951
0.991135 0.98085 0.894972
0.297642 0.866957 0.848341
0.295567 0.866865 0.849912
0.294621 0.868635 0.84683
0.292851 0.870054 0.829282
0.288579 0.875257 0.788235
0.683345 0.939742 0.836469
0.977325 0.979782 0.887953
0.992203 0.970642 0.761593
0.989517 0.968429 0.75407
0.294942 0.866423 0.851408
0.294194 0.866453 0.851698
0.295018 0.866239 0.851499
0.29572 0.869062 0.841886
0.310338 0.892088 0.829007
0.802426 0.960067 0.904662
0.982193 0.984192 0.934646
0.990875 0.98027 0.877119
0.990021 0.974533 0.810483
0.0705882 0.07364 0.582956
0.0910964 0.0751354 0.594842
0.167895 0.0807355 0.62771
0.392081 0.089189 0.67602
0.687205 0.136843 0.696864
0.698238 0.139925 0.697932
0.698466 0.139895 0.697627
0.698756 0.139834 0.697368
0.697581 0.140032 0.698848
0.0547189 0.0747845 0.574182
0.0714427 0.0737469 0.583688
0.155932 0.0807813 0.624491
0.398337 0.0897993 0.677455
0.695537 0.139559 0.69868
0.697307 0.140093 0.698924
0.697337 0.140093 0.698894
0.6972 0.140108 0.699107
0.698436 0.13991 0.697566
0.027451 0.12697 0.589105
0.0230411 0.109712 0.57377
0.0689097 0.0737316 0.581842
0.339391 0.0857557 0.667689
0.680659 0.135851 0.697887
0.696818 0.140154 0.699718
0.697459 0.140047 0.699001
0.697276 0.140078 0.699199
0.69749 0.140078 0.698695
0.0388495 0.254536 0.632883
0.0394293 0.26128 0.634668
0.0376287 0.241962 0.629572
0.0682078 0.08336 0.592279
0.576852 0.1131 0.694728
0.697459 0.140261 0.699199
0.69723 0.1402 0.699351
0.697993 0.140154 0.698421
0.697658 0.140597 0.699306
0.129809 0.619806 0.727901
0.132494 0.626474 0.729107
0.131411 0.624063 0.728634
0.122805 0.60502 0.723735
0.485603 0.573968 0.892058
0.920943 0.575021 0.91632
0.918486 0.557717 0.91249
0.921355 0.559304 0.913817
0.926116 0.59884 0.920974
0.265721 0.834012 0.832532
0.274083 0.841062 0.836393
0.270359 0.836378 0.83418
0.247807 0.809308 0.81915
0.228656 0.774746 0.811627
0.805112 0.864424 0.937041
0.961868 0.882551 0.958129
0.962997 0.880629 0.958068
0.96495 0.895491 0.963134
0.296666 0.865919 0.850996
0.296635 0.865965 0.850996
0.296437 0.865812 0.851179
0.294484 0.866377 0.851637
0.302144 0.875151 0.858213
0.382071 0.917342 0.892317
0.976715 0.978988 0.981079
0.994263 0.981369 0.981567
0.991852 0.983383 0.985321
0.297704 0.865675 0.85066
0.299321 0.865278 0.85034
0.296452 0.865843 0.851148
0.295369 0.86598 0.85156
0.305623 0.875395 0.857145
0.339605 0.914656 0.877546
0.962722 0.984131 0.977768
0.992279 0.98764 0.984985
0.991913 0.987793 0.986511
0.295613 0.866255 0.85124
0.296315 0.865873 0.851209
0.295628 0.866117 0.851347
0.295018 0.866392 0.851392
0.321218 0.891966 0.872267
0.409323 0.932021 0.901076
0.973541 0.985611 0.983581
0.992721 0.987655 0.986862
0.991394 0.9879 0.986481
0.0759136 0.0737469 0.586053
0.0965896 0.0757916 0.598016
0.173022 0.080766 0.629267
0.396338 0.0894942 0.6766
0.688823 0.13724 0.696818
0.698207 0.13994 0.697993
0.698329 0.139925 0.697826
0.698817 0.139834 0.697307
0.697643 0.140017 0.698787
0.0586099 0.0741588 0.576181
0.0758068 0.0738384 0.586313
0.160388 0.0808576 0.626017
0.40322 0.0900435 0.677897
0.697124 0.139971 0.698726
0.697597 0.140047 0.698543
0.697429 0.140078 0.698802
0.697185 0.140108 0.699123
0.698436 0.13991 0.697566
0.0268254 0.122164 0.585748
0.0240482 0.106065 0.572503
0.0729686 0.0737774 0.584207
0.34406 0.0859998 0.668421
0.682979 0.136522 0.698207
0.696574 0.140185 0.700038
0.697475 0.140047 0.699001
0.697292 0.140078 0.699184
0.69781 0.140017 0.698283
0.0382849 0.248615 0.631571
0.0386969 0.255268 0.632898
0.0369421 0.235538 0.627787
0.0682383 0.0800793 0.588556
0.578927 0.1131 0.69424
0.697856 0.140124 0.698604
0.697215 0.140215 0.699382
0.697978 0.140139 0.698451
0.697597 0.140551 0.699306
0.128878 0.618143 0.727123
0.131716 0.625132 0.728527
0.131106 0.623362 0.728359
0.122438 0.6038 0.723705
0.486992 0.570077 0.892775
0.920134 0.57261 0.915816
0.917586 0.554528 0.911788
0.920394 0.556481 0.912657
0.92752 0.596399 0.917327
0.264912 0.832456 0.831556
0.272358 0.838514 0.835081
0.268803 0.833875 0.832456
0.241672 0.801862 0.814267
0.227405 0.772335 0.810712
0.805234 0.859617 0.936522
0.960845 0.877852 0.957183
0.960906 0.875898 0.956252
0.964202 0.891203 0.962463
0.297093 0.865812 0.850828
0.296727 0.865934 0.85095
0.297749 0.865461 0.850813
0.295323 0.866148 0.851453
0.30309 0.875349 0.858366
0.406592 0.915404 0.907576
0.963119 0.971145 0.981109
0.991836 0.976364 0.984192
0.990417 0.978759 0.986816
0.298161 0.865553 0.850553
0.299413 0.865248 0.850324
0.297536 0.86569 0.850721
0.296147 0.865766 0.851362
0.305943 0.875227 0.858289
0.331884 0.907759 0.886107
0.904418 0.980209 0.979339
0.992187 0.987961 0.990509
0.991821 0.988052 0.990845
0.295796 0.866224 0.851194
0.296635 0.865797 0.851087
0.296696 0.865827 0.851026
0.295186 0.866361 0.851362
0.321065 0.891356 0.871809
0.349737 0.917784 0.895338
0.941299 0.984146 0.984909
0.992676 0.987839 0.990021
0.991363 0.988159 0.991241
0.0767376 0.0737621 0.586542
0.0989548 0.0760967 0.59939
0.178683 0.0809033 0.631098
0.407858 0.0903792 0.678157
0.694759 0.138842 0.697368
0.698253 0.139925 0.697978
0.69836 0.13991 0.697826
0.698848 0.139818 0.697322
0.697704 0.140002 0.698756
0.0585641 0.0741588 0.576226
0.076997 0.0739605 0.587182
0.16556 0.0808423 0.627787
0.415442 0.0909895 0.679591
0.697307 0.139971 0.698726
0.697673 0.140032 0.698558
0.697475 0.140063 0.698848
0.697261 0.140093 0.699138
0.698573 0.139879 0.69752
0.0273289 0.127214 0.589303
0.0251621 0.10837 0.575891
0.0740978 0.0738231 0.585092
0.354742 0.0864424 0.670192
0.689845 0.13785 0.698116
0.696635 0.140169 0.700114
0.697398 0.140032 0.699245
0.697215 0.140063 0.699443
0.697612 0.140032 0.698711
0.0395666 0.262013 0.634989
0.040177 0.269932 0.636744
0.0383001 0.249729 0.632013
0.0791485 0.0893568 0.604395
0.586694 0.116564 0.697688
0.697581 0.140307 0.699382
0.697215 0.140322 0.699733
0.697871 0.14023 0.69894
0.69749 0.140749 0.699809
0.132662 0.626062 0.729
0.13579 0.633158 0.73048
0.134768 0.630823 0.729961
0.125795 0.611399 0.725414
0.504067 0.583825 0.894194
0.918563 0.588861 0.916091
0.917617 0.573388 0.913634
0.920333 0.575113 0.914031
0.926543 0.613108 0.917433
0.275669 0.84004 0.835386
0.28275 0.846098 0.839078
0.277531 0.841169 0.836072
0.254856 0.814298 0.821714
0.232929 0.77792 0.813581
0.816327 0.866117 0.936584
0.959075 0.885573 0.956374
0.959747 0.883787 0.956024
0.96199 0.897978 0.961273
0.295918 0.866316 0.851087
0.300114 0.865202 0.850141
0.301564 0.864439 0.850095
0.299596 0.865049 0.850385
0.310063 0.87631 0.859007
0.440864 0.922881 0.91635
0.963973 0.972015 0.982193
0.991165 0.977264 0.984649
0.989395 0.979568 0.98761
0.301762 0.864897 0.849683
0.302556 0.864652 0.849546
0.300206 0.865125 0.850172
0.294835 0.866377 0.851499
0.307637 0.878096 0.860304
0.342641 0.907042 0.885328
0.912749 0.978683 0.978912
0.991974 0.987991 0.990753
0.990082 0.988479 0.992294
0.299138 0.865751 0.850111
0.303227 0.864347 0.849485
0.301701 0.864744 0.849836
0.300069 0.865339 0.850065
0.329091 0.891447 0.871214
0.358694 0.916655 0.894255
0.936645 0.983185 0.984894
0.991394 0.988174 0.991211
0.989517 0.988632 0.992767
