bundles/resolve-cinematic-luts/Phantom Luts/Komodo Phantom ARRI LUTs G2/Komodo Phantom ARRI LUTs G2/65x/WB Offset - Green Boost/Tungsten_Komodo_WBO_Legacy_G2_65x.cube
TITLE "Generated by Resolve"
LUT_3D_SIZE 9
0.0408637 0.04065 0.04654
0.0556039 0.0405737 0.0465858
0.181918 0.037995 0.0611734
0.468788 0.0489357 0.119783
0.696849 0.0679179 0.18999
0.706783 0.0700542 0.212848
0.70164 0.0589914 0.220295
0.703059 0.0595712 0.223621
0.704005 0.0599985 0.225528
0.0464485 0.0666361 0.0529488
0.0508278 0.0631418 0.0522774
0.162646 0.0546273 0.0544442
0.443183 0.0436408 0.090837
0.670741 0.0635233 0.141131
0.692317 0.0675822 0.178439
0.697414 0.0682231 0.190982
0.698543 0.0683757 0.193439
0.698238 0.0683146 0.192813
0.048127 0.196338 0.0641794
0.0484016 0.193591 0.053727
0.157595 0.193225 0.0538033
0.502068 0.185611 0.108324
0.693217 0.0756085 0.129351
0.693385 0.0732738 0.141604
0.690486 0.0717784 0.140993
0.689799 0.071397 0.140978
0.691798 0.0724041 0.141894
0 0.420386 0.0447242
0 0.420645 0.0246433
0.0151522 0.417609 0.00698863
0.461326 0.450645 0.0411078
0.823819 0.546593 0.161563
0.883162 0.519036 0.193378
0.889235 0.491066 0.199802
0.889982 0.486534 0.200473
0.88658 0.510719 0.19649
0.0651255 0.686549 0.120943
0.0734722 0.689845 0.109514
0.121782 0.70837 0.085771
0.295918 0.688289 0.04065
0.819303 0.792447 0.219287
0.953048 0.816327 0.309468
0.952804 0.812375 0.307454
0.953109 0.815366 0.309102
0.954025 0.826352 0.315221
0.0829633 0.746624 0.226703
0.0831922 0.746395 0.225086
0.0845197 0.745785 0.218143
0.0925307 0.740734 0.178759
0.688991 0.798505 0.183825
0.960204 0.876127 0.352941
0.961181 0.876524 0.355398
0.961135 0.876738 0.355596
0.961105 0.876905 0.355749
0.0825971 0.746944 0.229191
0.0827955 0.746731 0.227665
0.0843214 0.745785 0.21886
0.0872816 0.743877 0.202869
0.636332 0.788602 0.160525
0.956863 0.875257 0.349004
0.961105 0.87689 0.355734
0.961151 0.876692 0.35555
0.961151 0.876661 0.35552
0.082475 0.747021 0.229908
0.0827192 0.747021 0.22884
0.0843824 0.74612 0.219577
0.0875715 0.743832 0.201862
0.643 0.790143 0.163729
0.954757 0.8748 0.347189
0.961151 0.876692 0.35555
0.961135 0.876783 0.355627
0.961166 0.8766 0.355459
0.0824292 0.747143 0.230564
0.0827649 0.746899 0.22829
0.0846418 0.745861 0.217823
0.107805 0.739193 0.151339
0.721447 0.806622 0.200397
0.959869 0.876478 0.352667
0.961074 0.877043 0.355871
0.961089 0.876966 0.355795
0.961089 0.876951 0.355795
0.0349584 0.0434577 0.0703288
0.0572824 0.042237 0.0720531
0.185962 0.0489357 0.0929885
0.476692 0.0552682 0.157244
0.704601 0.0602426 0.22707
0.71284 0.0646982 0.24715
0.71487 0.06598 0.253239
0.715373 0.0664225 0.254856
0.716213 0.0669718 0.257084
0.0449226 0.0593729 0.0653086
0.0431678 0.0564126 0.0628367
0.16556 0.0432136 0.0656443
0.456992 0.0503853 0.122133
0.700084 0.0690471 0.196124
0.706584 0.066804 0.218372
0.704509 0.0602426 0.226566
0.705623 0.0606851 0.229541
0.706096 0.0608988 0.230655
0.0482643 0.18967 0.0929122
0.0480659 0.187884 0.0791485
0.142107 0.187503 0.0551461
0.498756 0.163851 0.106722
0.688136 0.0713817 0.137072
0.686763 0.0698405 0.142138
0.683909 0.068574 0.141375
0.683085 0.0682383 0.141192
0.684428 0.0688182 0.141772
0.000701915 0.416754 0.0833753
0.000167849 0.416419 0.0640879
0.00265507 0.413642 0.00923171
0.457282 0.447486 0.0421149
0.826734 0.539452 0.164706
0.886229 0.509209 0.196841
0.891402 0.479301 0.202457
0.891997 0.474861 0.202655
0.889311 0.500069 0.198611
0.05037 0.682887 0.151049
0.0580911 0.685573 0.136095
0.107683 0.698314 0.0839094
0.276905 0.686366 0.0398718
0.817563 0.790829 0.217777
0.953063 0.815396 0.309133
0.952407 0.811337 0.306752
0.952911 0.814221 0.308492
0.954131 0.825559 0.314916
0.0824903 0.747005 0.229831
0.0826429 0.746822 0.228565
0.0842451 0.74612 0.220172
0.0900893 0.742061 0.189029
0.685588 0.797955 0.182574
0.960159 0.87628 0.353033
0.96112 0.876814 0.355657
0.961135 0.876783 0.355642
0.961105 0.876936 0.355779
0.0822461 0.747356 0.232334
0.0823987 0.747158 0.230808
0.0837873 0.746197 0.222126
0.0862745 0.744595 0.208377
0.630274 0.787533 0.158022
0.955947 0.874998 0.34815
0.961105 0.876905 0.355749
0.961135 0.876722 0.355581
0.961151 0.876722 0.355566
0.0821241 0.747417 0.233249
0.0823224 0.747417 0.232105
0.0837873 0.746441 0.222873
0.0855421 0.745174 0.212497
0.636439 0.788998 0.160983
0.953643 0.874647 0.346334
0.961135 0.876738 0.355596
0.961135 0.876753 0.355612
0.961166 0.876585 0.355444
0.0820325 0.74757 0.234287
0.0822461 0.747387 0.232425
0.0841535 0.746197 0.220737
0.0973068 0.739666 0.166598
0.711482 0.804364 0.195361
0.959777 0.876432 0.352422
0.961089 0.877012 0.355856
0.961089 0.876966 0.355795
0.961105 0.876951 0.355795
0.0212406 0.0559091 0.171725
0.0530556 0.0484016 0.182971
0.187625 0.05037 0.19118
0.467506 0.0735332 0.24271
0.736065 0.0878614 0.318547
0.7393 0.092256 0.330373
0.740154 0.0936904 0.333639
0.740047 0.0936904 0.333303
0.741024 0.0951553 0.337774
0.0138857 0.0633249 0.143343
0.0138552 0.0590219 0.154559
0.16788 0.0493324 0.178515
0.459403 0.0729076 0.223239
0.729564 0.0792248 0.297902
0.733394 0.0838788 0.309529
0.734707 0.0856947 0.313588
0.734707 0.0860151 0.314199
0.735759 0.0874647 0.317556
0.0496376 0.165148 0.163073
0.0498665 0.16321 0.161334
0.129122 0.170459 0.169757
0.48954 0.122316 0.177264
0.69839 0.0680247 0.191196
0.707164 0.0697337 0.214252
0.709209 0.0680705 0.223819
0.703883 0.0600595 0.224964
0.704158 0.0601816 0.225467
0.0112459 0.406516 0.184253
0.00976577 0.406607 0.173617
0.00540169 0.398138 0.0958419
0.440436 0.433158 0.0411994
0.838972 0.511025 0.174365
0.892409 0.460975 0.204669
0.891096 0.425559 0.209018
0.891112 0.420722 0.210178
0.893111 0.45066 0.20763
0.0277867 0.672572 0.237934
0.0293431 0.674739 0.227131
0.0428626 0.674723 0.155489
0.20853 0.677958 0.0369268
0.809979 0.783001 0.210758
0.952193 0.807065 0.304616
0.951736 0.802441 0.302113
0.951736 0.804334 0.302998
0.953063 0.815747 0.309285
0.0796216 0.750149 0.256199
0.0803082 0.74905 0.247837
0.0823987 0.747189 0.23093
0.0855268 0.745129 0.212528
0.659022 0.79266 0.170367
0.960006 0.876158 0.352575
0.96112 0.876844 0.355688
0.961105 0.87689 0.355734
0.961089 0.876966 0.355795
0.0783551 0.753002 0.278767
0.0786908 0.751965 0.270741
0.0821393 0.747402 0.233158
0.0851911 0.745327 0.214221
0.598215 0.782223 0.145495
0.95082 0.873686 0.343542
0.961105 0.876936 0.355779
0.96112 0.876814 0.355673
0.961151 0.876722 0.355566
0.0779583 0.75465 0.292729
0.0782177 0.753658 0.283558
0.082063 0.747707 0.234501
0.0852216 0.74548 0.214572
0.600336 0.78291 0.1467
0.947814 0.872923 0.341009
0.961105 0.876905 0.355749
0.961135 0.876722 0.355581
0.961166 0.8766 0.355459
0.0780041 0.758328 0.321614
0.0777905 0.756313 0.306035
0.0820478 0.747585 0.234287
0.0862593 0.744656 0.20856
0.672831 0.795789 0.176776
0.955795 0.87541 0.348501
0.961059 0.87718 0.356008
0.961089 0.876982 0.35581
0.961105 0.876951 0.355795
0.0111849 0.0722362 0.360586
0.0376287 0.061387 0.365408
0.178241 0.0586404 0.400397
0.48072 0.0676127 0.438361
0.720165 0.0728008 0.469551
0.721492 0.074403 0.477073
0.723018 0.0764172 0.477623
0.723491 0.0771038 0.477317
0.722057 0.0750591 0.483162
0.000213626 0.0957809 0.341741
0 0.0775616 0.350759
0.147646 0.0597543 0.391363
0.46949 0.0671397 0.429648
0.720928 0.07364 0.459861
0.721981 0.0750286 0.467582
0.721508 0.0745403 0.467155
0.721736 0.0749828 0.466499
0.719585 0.0721447 0.472084
0.01355 0.159045 0.293965
0.0122988 0.152956 0.296452
0.016556 0.104173 0.353201
0.42739 0.0680705 0.388357
0.722957 0.0794385 0.421073
0.724559 0.0780041 0.427222
0.724132 0.0773632 0.428244
0.72369 0.0768597 0.428412
0.72192 0.0745556 0.432639
0.0417792 0.395453 0.37116
0.0416724 0.395605 0.370748
0.0417639 0.387396 0.35874
0.392996 0.411948 0.378912
0.87425 0.376577 0.405142
0.895644 0.292638 0.368582
0.874403 0.254978 0.346777
0.870665 0.248524 0.343145
0.886946 0.276493 0.362432
0.0231479 0.66862 0.404074
0.0234073 0.67013 0.400854
0.0213626 0.663645 0.369345
0.0216526 0.639689 0.171984
0.757626 0.736889 0.179675
0.946136 0.777203 0.286854
0.942535 0.769039 0.280369
0.943023 0.770092 0.281102
0.948409 0.782254 0.290944
0.0805524 0.767788 0.404654
0.0805829 0.767895 0.404898
0.0818952 0.766857 0.384741
0.0821698 0.747311 0.232731
0.561181 0.776623 0.132525
0.957366 0.875517 0.349615
0.961105 0.87689 0.355734
0.961105 0.876951 0.355779
0.961074 0.877058 0.355886
0.0800336 0.769162 0.416632
0.0800183 0.7691 0.416403
0.0814374 0.767468 0.395132
0.0819562 0.747692 0.235096
0.47686 0.765286 0.109728
0.931105 0.868406 0.327489
0.96112 0.876875 0.355718
0.96112 0.876875 0.355718
0.961135 0.876799 0.355642
0.0800031 0.77084 0.429358
0.0799725 0.770657 0.427939
0.080766 0.767788 0.40264
0.0818494 0.747967 0.236561
0.470848 0.764828 0.108614
0.924941 0.866926 0.322911
0.961105 0.876936 0.355764
0.961089 0.876982 0.355825
0.961151 0.876707 0.355566
0.0825208 0.775616 0.45948
0.0820172 0.774914 0.455055
0.0799878 0.769909 0.422339
0.0811933 0.748379 0.241001
0.540459 0.773816 0.126055
0.933898 0.869505 0.330053
0.961059 0.877195 0.356008
0.961059 0.87715 0.355978
0.961105 0.876905 0.355749
0 0.0893111 0.572992
0.0264134 0.0756847 0.573266
0.160067 0.0818341 0.619898
0.458534 0.0799268 0.675868
0.73608 0.117311 0.694026
0.733242 0.118608 0.702663
0.732952 0.118715 0.70341
0.73312 0.118715 0.703258
0.731609 0.119463 0.707729
0 0.1122 0.575677
0 0.0956588 0.571389
0.131609 0.082002 0.608698
0.443183 0.0789654 0.672175
0.737057 0.117128 0.691737
0.73431 0.118257 0.699947
0.734005 0.118486 0.701076
0.734005 0.118364 0.70071
0.732433 0.118975 0.704997
0 0.178882 0.588129
0 0.17229 0.592126
0 0.0917525 0.562158
0.383307 0.0764019 0.654643
0.732174 0.112627 0.678676
0.738949 0.116381 0.685542
0.738781 0.116487 0.686305
0.738689 0.116518 0.686534
0.737072 0.117098 0.69163
0.0272984 0.427482 0.604334
0.0272374 0.427176 0.607126
0.0238651 0.408972 0.614496
0.272969 0.30573 0.728466
0.770733 0.223789 0.706828
0.757809 0.123827 0.630808
0.737636 0.0994736 0.60499
0.732784 0.0943313 0.599527
0.74609 0.110811 0.62118
0.073518 0.670008 0.630701
0.0743572 0.672114 0.632883
0.0734417 0.670253 0.629816
0.0663615 0.655619 0.608621
0.679271 0.694286 0.655055
0.95433 0.709697 0.676066
0.953475 0.696132 0.669139
0.953658 0.697292 0.670726
0.954452 0.712886 0.684825
0.119783 0.802838 0.598413
0.120928 0.803433 0.60148
0.117891 0.801724 0.593103
0.100557 0.790951 0.540017
0.196612 0.759915 0.231662
0.947768 0.876951 0.368048
0.961364 0.877241 0.356878
0.961395 0.877241 0.356954
0.961303 0.877165 0.356619
0.124224 0.80531 0.610254
0.125795 0.806134 0.614343
0.121355 0.803693 0.602701
0.101442 0.791592 0.543145
0.101595 0.754147 0.250019
0.889296 0.857572 0.296895
0.960601 0.876463 0.354223
0.9608 0.876509 0.354665
0.960739 0.876677 0.354742
0.130327 0.808591 0.62591
0.131502 0.809216 0.628931
0.12578 0.806119 0.614374
0.10367 0.793042 0.550484
0.0957961 0.755367 0.26717
0.876188 0.853971 0.287922
0.960082 0.876417 0.353063
0.960754 0.876829 0.354955
0.960769 0.876616 0.354757
0.147219 0.817121 0.666529
0.146822 0.816968 0.665522
0.138308 0.81268 0.645609
0.110765 0.797574 0.572412
0.12755 0.761349 0.287282
0.892973 0.858961 0.299855
0.960037 0.876387 0.352911
0.960693 0.876844 0.354879
0.960708 0.876783 0.354849
0.0384985 0.0761578 0.610803
0.0606394 0.0750286 0.619425
0.170474 0.0876783 0.671122
0.440665 0.0869459 0.731746
0.720195 0.12491 0.736889
0.720195 0.124941 0.73695
0.720195 0.124926 0.73695
0.720195 0.124941 0.73695
0.720195 0.124971 0.737041
0.00347906 0.0885939 0.602686
0.0280461 0.0781109 0.607523
0.144366 0.0874495 0.660945
0.423804 0.0865797 0.730037
0.720195 0.124941 0.736965
0.720195 0.125002 0.737102
0.720195 0.125032 0.737179
0.720211 0.125017 0.737179
0.720195 0.12491 0.736904
0 0.172473 0.643153
0 0.159945 0.637583
0.0269474 0.0784161 0.607095
0.359442 0.0859083 0.721065
0.713329 0.123262 0.737591
0.720211 0.125109 0.737408
0.720211 0.125017 0.737163
0.720195 0.125017 0.737148
0.720195 0.124941 0.73695
0.0223239 0.334859 0.702403
0.0218814 0.332296 0.701808
0.0171664 0.30547 0.694209
0.143511 0.134737 0.698985
0.631052 0.112047 0.749157
0.720455 0.125399 0.737438
0.720348 0.125231 0.737285
0.720348 0.125185 0.737179
0.720455 0.125414 0.737438
0.108248 0.6533 0.754726
0.109422 0.654871 0.756222
0.108721 0.651408 0.757259
0.106767 0.633799 0.766018
0.604517 0.637827 0.946731
0.909819 0.583932 0.897261
0.907835 0.569848 0.890196
0.908431 0.572488 0.890593
0.912001 0.592889 0.896819
0.203723 0.834699 0.796002
0.207767 0.838834 0.800366
0.205707 0.836744 0.798154
0.186374 0.817411 0.776867
0.198901 0.824704 0.783139
0.906767 0.913771 0.894545
0.97261 0.919799 0.896147
0.972366 0.917845 0.895964
0.973083 0.924025 0.902831
0.222751 0.852872 0.817548
0.223896 0.853239 0.819669
0.220539 0.851804 0.813519
0.204044 0.844465 0.78265
0.17438 0.83592 0.715145
0.784436 0.92369 0.776944
0.980911 0.937362 0.704753
0.960861 0.876844 0.355184
0.969604 0.885649 0.415702
0.228779 0.855406 0.828595
0.22948 0.855695 0.829908
0.225528 0.854124 0.822568
0.206394 0.845655 0.78703
0.171695 0.834348 0.710048
0.747646 0.912566 0.756863
0.976928 0.943038 0.732464
0.960174 0.876326 0.35314
0.96054 0.876707 0.354391
0.238163 0.858442 0.847852
0.237613 0.858244 0.846769
0.233127 0.856931 0.837125
0.212558 0.848432 0.798566
0.18436 0.842756 0.732036
0.785229 0.927977 0.797345
0.979278 0.952529 0.773449
0.962051 0.878279 0.361089
0.960342 0.876616 0.353857
0.0608072 0.0750439 0.619577
0.0852827 0.0775921 0.631678
0.184405 0.087953 0.676463
0.45066 0.0874037 0.732799
0.720195 0.124895 0.736843
0.720195 0.124926 0.736934
0.720195 0.124971 0.737026
0.720195 0.124956 0.736996
0.720195 0.125002 0.737118
0.0285039 0.0779583 0.607507
0.0513924 0.0748302 0.615427
0.158602 0.0875868 0.666621
0.433967 0.0869306 0.731228
0.720195 0.125002 0.737148
0.720211 0.125017 0.737163
0.720195 0.125032 0.737179
0.720211 0.125002 0.737118
0.720195 0.12488 0.736797
0 0.158022 0.6365
0 0.135943 0.623056
0.0504311 0.0748913 0.615
0.370398 0.0859541 0.722789
0.718318 0.124544 0.737285
0.720195 0.125093 0.737331
0.720211 0.125017 0.737163
0.720211 0.125048 0.737209
0.720195 0.124987 0.737102
0.0146944 0.291539 0.689876
0.014374 0.289311 0.68925
0.0103914 0.265019 0.68101
0.119478 0.0937057 0.658091
0.628611 0.105196 0.740703
0.720272 0.125139 0.737301
0.720195 0.125032 0.737209
0.720195 0.124956 0.737011
0.720287 0.125139 0.737224
0.112871 0.642496 0.773632
0.113893 0.644755 0.774395
0.11252 0.641123 0.773907
0.103609 0.618402 0.769818
0.590326 0.602747 0.954513
0.898558 0.540688 0.906233
0.895506 0.524636 0.90338
0.896223 0.527916 0.903899
0.900755 0.551644 0.907866
0.214725 0.823072 0.839368
0.217838 0.827619 0.841123
0.215961 0.825071 0.839979
0.195071 0.795895 0.826139
0.198749 0.787228 0.840482
0.859831 0.874189 0.965423
0.960815 0.871122 0.962432
0.960647 0.869184 0.962249
0.962219 0.877989 0.963958
0.240406 0.858686 0.854597
0.240406 0.858671 0.854597
0.240345 0.85861 0.85449
0.24036 0.85864 0.854536
0.24831 0.869932 0.857221
0.580819 0.935699 0.916381
0.980438 0.982376 0.979782
0.990723 0.983825 0.978073
0.990524 0.984573 0.97969
0.240421 0.858701 0.854627
0.240452 0.858717 0.854658
0.240299 0.858564 0.854429
0.240238 0.858503 0.854337
0.243488 0.867475 0.847715
0.31577 0.912947 0.866377
0.973449 0.988647 0.971847
0.992691 0.989746 0.974289
0.992676 0.989761 0.974731
0.240421 0.858686 0.854612
0.240345 0.858625 0.854505
0.240375 0.85864 0.854551
0.240421 0.858686 0.854612
0.249653 0.873152 0.854627
0.377157 0.921614 0.879133
0.9738 0.988724 0.973541
0.992782 0.989578 0.973709
0.992798 0.989639 0.97258
0.0686656 0.0756847 0.623545
0.0923018 0.0788128 0.635309
0.187991 0.0880598 0.677821
0.452842 0.0876326 0.733242
0.720195 0.124895 0.736858
0.720195 0.124941 0.736965
0.720195 0.124926 0.736919
0.720195 0.124895 0.736828
0.720195 0.125002 0.737102
0.0368811 0.0764324 0.61033
0.0580606 0.0749981 0.618479
0.162295 0.0875868 0.668055
0.436545 0.0869001 0.731395
0.720165 0.124987 0.737118
0.720195 0.125002 0.737102
0.720195 0.125017 0.737163
0.720211 0.125017 0.737163
0.720195 0.12488 0.736828
0 0.150561 0.632105
0 0.128649 0.617777
0.057084 0.0749371 0.617899
0.373632 0.0860456 0.723415
0.719951 0.124956 0.737163
0.720211 0.125124 0.737408
0.720195 0.125017 0.737163
0.720211 0.125048 0.737224
0.720195 0.124971 0.737026
0.0127413 0.279805 0.686046
0.0123598 0.278355 0.685405
0.00857557 0.25449 0.677394
0.114717 0.0851148 0.648493
0.630854 0.105241 0.740124
0.720195 0.125017 0.737133
0.720195 0.125048 0.737224
0.720195 0.124971 0.737057
0.720272 0.125139 0.737255
0.111635 0.639231 0.773281
0.112734 0.641657 0.773999
0.111345 0.6383 0.773312
0.102342 0.614755 0.769421
0.589319 0.595254 0.954726
0.897093 0.532891 0.904936
0.893828 0.516533 0.902083
0.894484 0.520195 0.902434
0.899397 0.544732 0.906584
0.212177 0.819455 0.837781
0.215183 0.823972 0.839414
0.213443 0.821469 0.838422
0.187884 0.783078 0.820966
0.196948 0.783429 0.839811
0.857694 0.866865 0.966613
0.959457 0.862715 0.960998
0.958877 0.86041 0.96051
0.960494 0.869566 0.962509
0.240452 0.858717 0.854643
0.240406 0.858671 0.854597
0.24033 0.85861 0.85449
0.24036 0.85864 0.854536
0.250019 0.869947 0.862943
0.556832 0.936553 0.945876
0.970871 0.973693 0.985565
0.988373 0.976135 0.987716
0.988312 0.976898 0.988067
0.240421 0.858701 0.854627
0.240452 0.858732 0.854673
0.240421 0.858686 0.854612
0.24033 0.858595 0.854475
0.249363 0.869154 0.862364
0.276249 0.899672 0.887114
0.941863 0.988357 0.985611
0.991257 0.991135 0.990707
0.991272 0.991104 0.990646
0.240436 0.858701 0.854627
0.24036 0.858625 0.85452
0.240375 0.85864 0.854551
0.240421 0.858686 0.854612
0.253559 0.874083 0.866056
0.27866 0.90248 0.889326
0.944076 0.988434 0.985489
0.991272 0.991119 0.990662
0.991226 0.991211 0.990829
0.0700694 0.075761 0.624186
0.0946212 0.0792706 0.636561
0.190539 0.0879225 0.678569
0.45774 0.0878309 0.73373
0.720195 0.124895 0.736858
0.720195 0.124941 0.73695
0.720195 0.124926 0.736919
0.720195 0.124895 0.736828
0.720195 0.124987 0.737102
0.0379339 0.0762951 0.610697
0.0599374 0.0750591 0.619333
0.164614 0.0876783 0.669062
0.440894 0.0869612 0.731823
0.720211 0.125002 0.737118
0.720195 0.125002 0.737102
0.720211 0.125017 0.737179
0.720195 0.125017 0.737163
0.720195 0.12488 0.736812
0 0.150744 0.632334
0 0.128466 0.618021
0.0591592 0.0750286 0.61886
0.377966 0.0858625 0.723857
0.720195 0.125017 0.737163
0.720211 0.125124 0.737408
0.720195 0.125048 0.737224
0.720195 0.125063 0.737285
0.720211 0.125002 0.737118
0.0131685 0.282429 0.686915
0.0127718 0.280446 0.686122
0.00857557 0.2551 0.677455
0.11902 0.0863661 0.651118
0.633936 0.106004 0.740429
0.720195 0.125063 0.737255
0.720195 0.125063 0.737285
0.720211 0.125032 0.737148
0.720287 0.1252 0.737377
0.112612 0.641489 0.773831
0.113359 0.64332 0.774273
0.112322 0.640604 0.773861
0.103197 0.617075 0.769848
0.59585 0.600305 0.955596
0.898344 0.538918 0.906203
0.895094 0.523354 0.903258
0.895994 0.527337 0.903853
0.900496 0.550149 0.907576
0.214191 0.822248 0.839109
0.217304 0.826856 0.84094
0.215213 0.823957 0.839628
0.190005 0.785962 0.822263
0.198184 0.784787 0.841215
0.860121 0.867857 0.96698
0.959579 0.863874 0.961227
0.959365 0.862119 0.961013
0.960922 0.871321 0.962936
0.240528 0.858793 0.85478
0.240497 0.858778 0.854734
0.240375 0.85864 0.854551
0.240406 0.858686 0.854597
0.250843 0.870848 0.863752
0.58735 0.938903 0.949355
0.970504 0.97293 0.985534
0.988327 0.975433 0.987854
0.98822 0.976425 0.988357
0.240589 0.858854 0.854887
0.240589 0.858854 0.854871
0.240513 0.858778 0.854749
0.240452 0.858717 0.854658
0.250141 0.870008 0.863172
0.276753 0.900191 0.887694
0.934844 0.986755 0.986358
0.991241 0.99118 0.990768
0.991165 0.991379 0.991119
0.240635 0.858885 0.854948
0.240528 0.858808 0.85478
0.240528 0.858793 0.854765
0.240589 0.858854 0.854871
0.254139 0.874662 0.866758
0.278996 0.902693 0.889754
0.917479 0.986374 0.984909
0.991196 0.991302 0.990997
0.991135 0.991455 0.991257
