bundles/resolve-cinematic-luts/Phantom Luts/Komodo Phantom ARRI LUTs G2/Komodo Phantom ARRI LUTs G2/65x/WB Offset - Green Boost/Tungsten_Komodo_WBO_Legacy_G2_65x.cube
TITLE "Generated by Resolve"
LUT_3D_SIZE 65
0.0408637 0.04065 0.04654
0.0408789 0.0406043 0.0464485
0.0408942 0.0405432 0.0463264
0.0408942 0.0404669 0.0461585
0.0409094 0.0403754 0.0459449
0.0409705 0.0402533 0.0456855
0.043183 0.0402991 0.0456855
0.049012 0.0406653 0.0461891
0.0556039 0.0405737 0.0465858
0.0639658 0.040589 0.0474556
0.0739757 0.0406653 0.0487068
0.0866865 0.0403754 0.0499428
0.101183 0.0396582 0.0513924
0.116869 0.0391546 0.0533761
0.137667 0.038468 0.0557565
0.158679 0.0380713 0.0585489
0.181918 0.037995 0.0611734
0.207919 0.0385443 0.0652018
0.236439 0.0394293 0.0695201
0.267674 0.04094 0.0750286
0.301915 0.0427405 0.081178
0.338781 0.0442664 0.0888075
0.379431 0.0458686 0.0979782
0.423575 0.0474098 0.108415
0.468788 0.0489357 0.119783
0.511482 0.0496376 0.129931
0.550973 0.049897 0.139605
0.588724 0.0496681 0.150118
0.621057 0.0488441 0.159854
0.646754 0.047837 0.167178
0.676081 0.06215 0.176226
0.695094 0.0675212 0.186374
0.696849 0.0679179 0.18999
0.698375 0.0682689 0.193149
0.699855 0.0685435 0.19649
0.701228 0.068864 0.19939
0.70251 0.0691234 0.20235
0.70367 0.0693523 0.205402
0.704723 0.0696269 0.207889
0.705806 0.0698405 0.21059
0.706783 0.0700542 0.212848
0.707561 0.0702525 0.214466
0.708263 0.0703899 0.21622
0.708843 0.0704814 0.217975
0.709361 0.0705119 0.219455
0.704341 0.063508 0.218753
0.703639 0.062211 0.219379
0.702525 0.0603342 0.219974
0.70164 0.0589914 0.220295
0.701946 0.0591135 0.221012
0.70219 0.0592203 0.221607
0.702419 0.0593271 0.222126
0.702602 0.0594034 0.222583
0.702739 0.0594492 0.222919
0.702876 0.0594949 0.223224
0.702968 0.0595254 0.223438
0.703059 0.0595712 0.223621
0.70312 0.0595865 0.223804
0.703197 0.059617 0.223987
0.703273 0.0596475 0.22417
0.70338 0.0596933 0.224384
0.703487 0.0597391 0.224659
0.703639 0.0598154 0.224903
0.703807 0.0598917 0.225177
0.704005 0.0599985 0.225528
0.04094 0.040238 0.045655
0.0409094 0.0403601 0.0458991
0.0409094 0.0404212 0.0460517
0.0408942 0.0404669 0.046128
0.0409094 0.0404517 0.0461128
0.0409094 0.0404059 0.0460212
0.042359 0.0403906 0.0459144
0.0476692 0.0407263 0.0463264
0.0543374 0.0407263 0.0466468
0.0626993 0.0406653 0.0472725
0.0727092 0.0406195 0.0482643
0.0851911 0.040177 0.0491951
0.0996872 0.0394293 0.0504616
0.114961 0.0388037 0.0522469
0.136172 0.038056 0.0546731
0.157046 0.037583 0.0573434
0.180011 0.0372778 0.0599527
0.206058 0.0375372 0.0632944
0.234104 0.0380865 0.0677195
0.265858 0.0396277 0.072694
0.299916 0.0413367 0.0787671
0.337484 0.0431525 0.0864271
0.37821 0.04477 0.0953384
0.421469 0.046067 0.105089
0.467674 0.0476692 0.11725
0.509804 0.0484321 0.127504
0.54992 0.048661 0.137118
0.587533 0.0483101 0.147448
0.620356 0.0477455 0.157748
0.646357 0.0473487 0.165331
0.675349 0.06215 0.173953
0.694179 0.0674144 0.184573
0.696178 0.0678416 0.188266
0.697688 0.0681926 0.191638
0.699229 0.068513 0.194903
0.700618 0.0687877 0.198077
0.701885 0.0690776 0.200595
0.703029 0.0693065 0.203555
0.704067 0.0695201 0.20618
0.705028 0.069749 0.20853
0.705974 0.0699321 0.210849
0.706798 0.0700999 0.212818
0.707454 0.0702525 0.21416
0.708064 0.0703746 0.215656
0.708553 0.0704662 0.217029
0.708949 0.0704814 0.218296
0.709331 0.0704967 0.219394
0.703304 0.0623636 0.218158
0.703609 0.0624857 0.218723
0.703883 0.0625925 0.219318
0.704128 0.0626688 0.219898
0.701228 0.0588235 0.21944
0.701427 0.0588998 0.219883
0.701579 0.0589609 0.220249
0.701732 0.0590372 0.2206
0.701854 0.0590829 0.220874
0.701961 0.0591287 0.221134
0.702068 0.0591745 0.221347
0.702144 0.059205 0.22153
0.702235 0.0592355 0.221744
0.702358 0.0592966 0.221973
0.70248 0.0593576 0.222217
0.702617 0.0594186 0.222507
0.7028 0.0594949 0.222858
0.703014 0.0596017 0.223239
0.04094 0.040238 0.045655
0.0409094 0.0403601 0.0458991
0.0409094 0.0404212 0.0460517
0.0408942 0.0404669 0.046128
0.0408942 0.0404517 0.046128
0.0409094 0.0404212 0.0460365
0.0415351 0.0403754 0.0458686
0.0457618 0.0406958 0.0461585
0.0526436 0.0408789 0.0466316
0.0608988 0.0408026 0.0471962
0.0709697 0.0407111 0.0480812
0.0830091 0.0403906 0.049073
0.0975814 0.0396429 0.0503548
0.113207 0.038941 0.0519265
0.134264 0.0380407 0.0540017
0.155306 0.037232 0.056199
0.178073 0.0369268 0.058854
0.20354 0.0368353 0.0615854
0.231601 0.0370947 0.0656901
0.262364 0.0380407 0.0700236
0.29688 0.039765 0.0758068
0.335134 0.0415351 0.0831769
0.375387 0.0431067 0.0917983
0.419959 0.0446937 0.101762
0.464942 0.0459144 0.112886
0.507134 0.0468147 0.123842
0.547631 0.0470283 0.133593
0.584283 0.0467079 0.142855
0.618692 0.0463264 0.153964
0.64448 0.0463264 0.161715
0.673716 0.0619364 0.170214
0.693019 0.0673838 0.181704
0.695079 0.0676738 0.185779
0.696651 0.0679942 0.189303
0.698146 0.0683299 0.192569
0.699626 0.0686198 0.195758
0.700923 0.0688945 0.198611
0.702068 0.0691539 0.200977
0.703136 0.0693523 0.203738
0.704051 0.0695354 0.206088
0.70489 0.069749 0.208118
0.705684 0.0698863 0.210163
0.706462 0.0700236 0.212024
0.707027 0.070161 0.213245
0.7075 0.0702678 0.214252
0.707973 0.0703593 0.215457
0.708324 0.0704051 0.216434
0.708629 0.0704509 0.217319
0.708873 0.0704509 0.218128
0.709072 0.0704356 0.218753
0.709224 0.0704204 0.219287
0.707973 0.0685283 0.219303
0.702571 0.0615244 0.217746
0.702724 0.0615854 0.218006
0.702846 0.0616312 0.218296
0.702953 0.061677 0.218524
0.703044 0.0617227 0.218692
0.703136 0.0617685 0.21886
0.703227 0.061799 0.219028
0.703319 0.0618448 0.219226
0.703426 0.0619059 0.219425
0.703563 0.0619821 0.219669
0.703716 0.0620584 0.219944
0.703899 0.06215 0.220249
0.704112 0.0622721 0.220615
0.04094 0.040238 0.045655
0.0409094 0.0403601 0.0458991
0.0409094 0.0404212 0.0460517
0.0408942 0.0404669 0.046128
0.0408942 0.0404517 0.046128
0.0409094 0.0404212 0.0460365
0.0409552 0.0403449 0.0458534
0.0436103 0.0407416 0.0459754
0.0500191 0.0412757 0.0464637
0.057496 0.0413519 0.0469215
0.0676585 0.0413672 0.047837
0.0793317 0.0411536 0.0487526
0.0945449 0.0403601 0.0500496
0.11043 0.0396887 0.0516518
0.131319 0.0386816 0.0536355
0.152956 0.0377356 0.0559854
0.175555 0.037232 0.0585641
0.201068 0.0367132 0.0609293
0.228367 0.0366369 0.0637522
0.258991 0.0368505 0.0679026
0.293385 0.0383459 0.0726635
0.330922 0.0397955 0.0788891
0.372198 0.0413214 0.0872206
0.416236 0.042771 0.0972
0.461631 0.0440528 0.108263
0.50544 0.0449989 0.119509
0.54464 0.0451667 0.129534
0.581949 0.044892 0.139162
0.615641 0.0447547 0.148775
0.644007 0.0479896 0.157458
0.671839 0.0618143 0.165576
0.691035 0.0670787 0.177325
0.693797 0.0675669 0.182406
0.695293 0.0677348 0.186236
0.696834 0.0680552 0.189685
0.698314 0.0683757 0.192889
0.699702 0.0686656 0.195834
0.700877 0.0689097 0.198459
0.70193 0.0691386 0.200656
0.702922 0.0693217 0.203098
0.703746 0.0694743 0.205325
0.704448 0.0696574 0.207004
0.705135 0.0697948 0.208713
0.705745 0.0698863 0.2103
0.706355 0.0700084 0.211734
0.706828 0.0700999 0.212863
0.707149 0.0701762 0.213565
0.707439 0.0702373 0.214099
0.707713 0.0702831 0.214801
0.707927 0.0703136 0.215427
0.70811 0.0703288 0.215946
0.708217 0.0703441 0.216342
0.708324 0.0703441 0.216693
0.7084 0.0703288 0.216983
0.708476 0.0703288 0.217243
0.708553 0.0703136 0.217487
0.708614 0.0703136 0.21767
0.708675 0.0703136 0.217868
0.708721 0.0703288 0.21799
0.708782 0.0703288 0.218143
0.708873 0.0703593 0.218357
0.70898 0.0704051 0.21857
0.709117 0.0704662 0.218814
0.709255 0.0705272 0.219074
0.709422 0.0706188 0.219379
0.0411383 0.0413062 0.0461128
0.0411231 0.0414282 0.0464027
0.0410925 0.0415198 0.0465858
0.0410315 0.0413367 0.0465095
0.0410315 0.0410773 0.0464485
0.0410163 0.0407721 0.0463569
0.0409857 0.0405432 0.0461891
0.041886 0.0407874 0.046067
0.0469215 0.0417945 0.0466621
0.0540475 0.0420386 0.0470436
0.0637064 0.0421149 0.0475319
0.0754253 0.0421149 0.0485389
0.0901045 0.0414588 0.0495155
0.106691 0.0407568 0.0511635
0.126696 0.0399481 0.053193
0.148882 0.0388952 0.0554818
0.172503 0.0382544 0.0582284
0.19823 0.0376287 0.0606546
0.226139 0.0373236 0.0632639
0.256687 0.0372931 0.0671702
0.289937 0.0382239 0.0710918
0.32668 0.0391852 0.0758373
0.36762 0.0398413 0.0827344
0.411704 0.0405432 0.0913863
0.457801 0.0417029 0.101808
0.501717 0.0425422 0.113436
0.54165 0.0429999 0.124529
0.578882 0.0428779 0.13402
0.612757 0.0430152 0.14342
0.64799 0.0568704 0.154284
0.669673 0.0615244 0.160555
0.687373 0.066392 0.16997
0.691615 0.0673381 0.177142
0.693767 0.0675975 0.182254
0.695262 0.0677501 0.186099
0.696757 0.0680552 0.189471
0.698146 0.0683757 0.192447
0.699428 0.0686351 0.195178
0.700542 0.0688334 0.197772
0.701503 0.0690471 0.199786
0.702388 0.0692302 0.201724
0.70312 0.0693675 0.203647
0.703777 0.0694896 0.205371
0.704311 0.0696269 0.206699
0.704814 0.0697337 0.207904
0.705287 0.06981 0.20914
0.705699 0.0698863 0.210178
0.706065 0.0699474 0.211078
0.706386 0.0699931 0.211872
0.706645 0.0700236 0.212543
0.706813 0.0700694 0.212894
0.706905 0.0700847 0.213107
0.706996 0.0700847 0.213306
0.707057 0.0700847 0.213413
0.707118 0.0700999 0.213519
0.707149 0.0700999 0.213611
0.70721 0.0700999 0.213733
0.707256 0.0700999 0.21387
0.707301 0.0701152 0.213977
0.707362 0.0701305 0.214176
0.707439 0.070161 0.214313
0.707546 0.0702068 0.214496
0.707637 0.0702525 0.214679
0.707774 0.0703288 0.214908
0.707942 0.0704051 0.215213
0.0422217 0.0457465 0.0476844
0.0422217 0.0459754 0.0480659
0.0421759 0.0460365 0.0482643
0.0421302 0.0458534 0.0479744
0.0420386 0.0455482 0.0477455
0.0420233 0.0449836 0.0476387
0.0425422 0.0442206 0.0475013
0.0434272 0.0433814 0.0471962
0.0460822 0.0439002 0.047425
0.0519875 0.0443427 0.0482185
0.0603952 0.0444038 0.0485237
0.0712902 0.0437629 0.0484932
0.0847639 0.0428931 0.0488899
0.10219 0.0422217 0.0506752
0.121584 0.0414435 0.0525521
0.144945 0.0404364 0.0546883
0.168948 0.0396582 0.0576028
0.195026 0.0389868 0.0601816
0.223041 0.0387732 0.0626993
0.253666 0.0388952 0.066453
0.287938 0.0396887 0.0704662
0.324407 0.0402838 0.0753643
0.364263 0.040116 0.0806592
0.407218 0.039765 0.0867018
0.450752 0.0395972 0.094728
0.49572 0.0400549 0.105409
0.536477 0.0402991 0.116655
0.573968 0.0402686 0.127092
0.609674 0.0421759 0.13727
0.6448 0.0564279 0.147585
0.667018 0.0611582 0.153948
0.683742 0.0657816 0.162249
0.688014 0.0667124 0.169131
0.691478 0.0673838 0.176364
0.693416 0.067628 0.18117
0.694881 0.0677195 0.185122
0.696345 0.0679789 0.188434
0.697581 0.0682689 0.191302
0.698787 0.068513 0.193835
0.699825 0.0687114 0.196124
0.700725 0.0688792 0.198138
0.701488 0.0690623 0.199725
0.702159 0.0691997 0.20119
0.702785 0.0693065 0.202701
0.703273 0.069398 0.204044
0.7037 0.0694743 0.205188
0.704067 0.0695659 0.206119
0.704372 0.0696269 0.206836
0.704662 0.069688 0.207538
0.70489 0.0697337 0.208133
0.705074 0.069749 0.208652
0.705226 0.0697642 0.209064
0.705333 0.0697642 0.2094
0.705409 0.069749 0.209644
0.70547 0.069749 0.209842
0.705531 0.069749 0.21001
0.705592 0.069749 0.210163
0.705623 0.069749 0.210269
0.705653 0.069749 0.210391
0.705715 0.0697642 0.210513
0.705791 0.0697948 0.210636
0.705867 0.0698405 0.210773
0.705959 0.0698863 0.210925
0.706096 0.0699474 0.211124
0.706233 0.0700389 0.211337
0.0437781 0.0517433 0.0497292
0.0437476 0.0518959 0.0500649
0.0437171 0.0520638 0.0503395
0.0437018 0.0518349 0.049836
0.0436255 0.0515145 0.0495155
0.0434577 0.0511177 0.049424
0.044007 0.05037 0.0491798
0.0450752 0.0493782 0.0490578
0.0487678 0.0484779 0.0489509
0.0531014 0.0495003 0.049836
0.0601511 0.0495613 0.0504768
0.070222 0.0488289 0.0505837
0.0823529 0.048127 0.0504921
0.0993973 0.0467231 0.0507057
0.116899 0.0442054 0.0518349
0.140215 0.0425879 0.0538186
0.164187 0.0416724 0.0565652
0.191073 0.0410925 0.059617
0.219425 0.0406043 0.0621042
0.250935 0.0408637 0.0658122
0.285359 0.0415351 0.0698711
0.322271 0.0418555 0.0748608
0.362341 0.0416419 0.0800336
0.403861 0.0410468 0.0857862
0.447852 0.0400244 0.092195
0.490089 0.0392462 0.0995651
0.529473 0.038407 0.107469
0.566827 0.0379339 0.117556
0.608667 0.0513008 0.129915
0.639918 0.0556954 0.138994
0.662242 0.0603494 0.145327
0.678096 0.0647135 0.151812
0.683391 0.0659648 0.159106
0.686641 0.0665293 0.166033
0.689372 0.0669718 0.172335
0.692714 0.067628 0.179065
0.694179 0.0677043 0.183154
0.695445 0.0678264 0.186404
0.696651 0.0680705 0.18912
0.697673 0.0683146 0.19147
0.698695 0.068513 0.193606
0.699519 0.0686809 0.195377
0.700236 0.0687877 0.197101
0.700847 0.068925 0.198428
0.70135 0.0690318 0.199374
0.701839 0.0691234 0.200412
0.702235 0.0692149 0.201328
0.702602 0.069276 0.202213
0.702876 0.0693217 0.20296
0.703105 0.0693675 0.203586
0.703288 0.0693828 0.204135
0.70341 0.069398 0.204547
0.703532 0.069398 0.204883
0.703609 0.069398 0.205097
0.703655 0.0693828 0.20528
0.703685 0.0693828 0.205386
0.7037 0.0693675 0.205493
0.703731 0.0693523 0.2056
0.703746 0.0693523 0.205646
0.703777 0.0693675 0.205722
0.703838 0.069398 0.205814
0.703899 0.0694285 0.20589
0.70399 0.0694896 0.206012
0.704067 0.0695506 0.206119
0.704189 0.0696422 0.206287
0.0451514 0.0584115 0.0513619
0.0451209 0.0586862 0.0517433
0.0450904 0.0588388 0.0520027
0.0449989 0.0586252 0.0513619
0.0449378 0.0583963 0.0510109
0.0447852 0.0578927 0.0508888
0.0451057 0.0572518 0.050721
0.0466163 0.0561227 0.0506447
0.0492866 0.0549172 0.0503395
0.055375 0.0549172 0.050782
0.0615091 0.0556344 0.0518196
0.0713664 0.055848 0.0531014
0.082536 0.0551308 0.0531319
0.0991836 0.0538643 0.0527657
0.116228 0.051545 0.0524453
0.138247 0.0487221 0.0531777
0.161425 0.0459144 0.0553445
0.186557 0.0439612 0.0584421
0.215122 0.0430457 0.0614786
0.247272 0.0432746 0.0649882
0.281621 0.043595 0.0691234
0.319127 0.0435798 0.0740063
0.359213 0.0432593 0.0792859
0.401251 0.0425727 0.0850538
0.44509 0.0416724 0.0914168
0.488502 0.04065 0.098558
0.526864 0.0390936 0.104952
0.561196 0.0371557 0.110643
0.602136 0.0506905 0.121172
0.632776 0.0547799 0.129915
0.65597 0.0592203 0.137255
0.671168 0.0633555 0.142504
0.676692 0.0645914 0.148211
0.680507 0.0654459 0.153552
0.684062 0.0661173 0.160342
0.687144 0.0666514 0.167025
0.689982 0.0671397 0.173297
0.692531 0.067628 0.17879
0.694072 0.0677501 0.182742
0.695094 0.0678111 0.185534
0.696132 0.0679942 0.187915
0.697002 0.0681773 0.189899
0.697749 0.0683299 0.191562
0.698451 0.0684672 0.193103
0.699107 0.0686046 0.194354
0.699596 0.0686961 0.195499
0.699992 0.0687572 0.19649
0.700343 0.0688182 0.197345
0.700664 0.068864 0.198062
0.700923 0.0689403 0.198581
0.701137 0.0689708 0.199023
0.701289 0.0690013 0.199374
0.701396 0.0690013 0.199603
0.701488 0.0690166 0.199786
0.701549 0.0690166 0.199908
0.701564 0.0690013 0.199939
0.701595 0.0690013 0.2
0.701595 0.068986 0.200015
0.701595 0.068986 0.200015
0.701625 0.068986 0.200061
0.701656 0.0690013 0.200107
0.701717 0.0690471 0.200244
0.701778 0.0690776 0.200351
0.701854 0.0691234 0.200473
0.70193 0.0691844 0.20061
0.0464485 0.0666361 0.0529488
0.0464332 0.0668803 0.053315
0.0464027 0.0669871 0.0535439
0.0462959 0.066804 0.0529335
0.0461433 0.0664225 0.0523995
0.0459907 0.0661631 0.0523232
0.0459297 0.0656291 0.0522621
0.0476539 0.0644846 0.0522927
0.0508278 0.0631418 0.0522774
0.0547494 0.0623789 0.0518959
0.0636454 0.0625315 0.0527199
0.0721294 0.0631571 0.0539712
0.0845045 0.0634318 0.0555734
0.100404 0.0622416 0.0558785
0.117739 0.0603799 0.0556191
0.140215 0.0580606 0.0549783
0.162646 0.0546273 0.0544442
0.186969 0.0511177 0.0558175
0.213443 0.0477455 0.0602731
0.242878 0.0457008 0.0638285
0.278294 0.0460059 0.0683757
0.315526 0.0456245 0.0732433
0.355871 0.0451362 0.0783856
0.398566 0.0445106 0.0844739
0.443183 0.0436408 0.090837
0.486961 0.0422522 0.0977951
0.525719 0.0408026 0.104585
0.561013 0.0386358 0.11043
0.597208 0.0453346 0.117906
0.629252 0.0542916 0.125643
0.652461 0.0589456 0.133272
0.665919 0.0623026 0.137224
0.670741 0.0635233 0.141131
0.673838 0.0642557 0.144488
0.676677 0.0647135 0.148394
0.680079 0.0654612 0.153063
0.68336 0.0660868 0.158984
0.686061 0.0665599 0.164492
0.68838 0.0668956 0.169772
0.689799 0.0670634 0.173617
0.692317 0.0675822 0.178439
0.69369 0.0677195 0.181643
0.694408 0.0677043 0.183963
0.695125 0.0677958 0.185672
0.695735 0.0678721 0.187182
0.6963 0.0679789 0.188388
0.696727 0.0680705 0.189349
0.697063 0.0681468 0.190204
0.697414 0.0682231 0.190982
0.697688 0.0682841 0.191501
0.697963 0.0683452 0.192065
0.698146 0.0683604 0.192493
0.698268 0.0683757 0.192813
0.698405 0.0683909 0.193149
0.698482 0.0683909 0.193317
0.698543 0.0683757 0.193439
0.698543 0.0683757 0.193439
0.698543 0.0683604 0.193423
0.698528 0.0683452 0.193393
0.698497 0.0683299 0.193317
0.698482 0.0683299 0.193301
0.698436 0.0683146 0.193194
0.698405 0.0683146 0.193149
0.698344 0.0683146 0.193042
0.698238 0.0683146 0.192813
0.0478065 0.0758068 0.0535592
0.0477913 0.0758831 0.0537118
0.047776 0.0760357 0.0538491
0.047715 0.0756695 0.0528878
0.0476997 0.0754406 0.0523079
0.0476997 0.0751354 0.0522316
0.047715 0.0746624 0.0523384
0.0487221 0.0737926 0.0523842
0.0521553 0.0722972 0.0522316
0.055375 0.0709544 0.052369
0.062623 0.0710765 0.0519417
0.0744793 0.0708629 0.0532692
0.0855116 0.071931 0.0552377
0.101625 0.0716564 0.0570535
0.119326 0.0702678 0.0582589
0.14226 0.0678416 0.0584878
0.165011 0.064744 0.0578775
0.189853 0.0615396 0.0574655
0.216114 0.0572976 0.0572518
0.244923 0.0533913 0.0604562
0.275807 0.0501259 0.0666361
0.311269 0.0480201 0.0717784
0.351354 0.0473945 0.0770581
0.394018 0.0465705 0.0827649
0.439841 0.0455634 0.0894942
0.483467 0.0442206 0.0965133
0.523461 0.0424201 0.103334
0.559503 0.0403754 0.109712
0.592721 0.0386053 0.116258
0.629404 0.0544137 0.125597
0.652216 0.0588388 0.131975
0.665492 0.0622721 0.135286
0.666758 0.0626841 0.135515
0.667185 0.0627451 0.136568
0.669413 0.0631876 0.139376
0.672038 0.0638285 0.142458
0.674876 0.0644388 0.14583
0.677455 0.0648814 0.149233
0.680232 0.0654765 0.153323
0.682689 0.0659495 0.157671
0.684993 0.0663005 0.162356
0.686748 0.0666209 0.166079
0.688334 0.066865 0.16968
0.689555 0.0670787 0.172519
0.690517 0.067216 0.174823
0.691264 0.0673228 0.17673
0.693065 0.0677501 0.179706
0.693523 0.0677653 0.180957
0.693843 0.0677806 0.181811
0.694163 0.0677806 0.182757
0.694438 0.0677806 0.183536
0.694621 0.0677806 0.184085
0.694759 0.0677806 0.184527
0.69482 0.0677653 0.184787
0.694972 0.0677806 0.185153
0.695018 0.0677806 0.185336
0.695064 0.0677653 0.185473
0.695064 0.0677501 0.185534
0.695018 0.0677195 0.185489
0.694987 0.0677043 0.185443
0.694911 0.0676738 0.185275
0.69482 0.0676585 0.185092
0.694743 0.0676585 0.184939
0.69456 0.067628 0.184604
0.694408 0.067628 0.184192
0.0489815 0.0877699 0.0557565
0.049012 0.0880446 0.0559243
0.0489662 0.0879988 0.0559854
0.0488746 0.0877394 0.0548409
0.0487526 0.0873121 0.0538491
0.0486915 0.0867628 0.0534218
0.0487068 0.0863508 0.0534676
0.0489815 0.0856184 0.0535592
0.0525826 0.0843671 0.0538033
0.0563821 0.0827649 0.0539712
0.0618448 0.0817426 0.0538186
0.0726787 0.0821698 0.0533455
0.0877241 0.0816205 0.0557412
0.102586 0.0830243 0.0575113
0.120485 0.0826886 0.0598917
0.144564 0.0803845 0.0615396
0.168444 0.0771954 0.0621195
0.194095 0.0730449 0.0623636
0.221332 0.0687724 0.0622263
0.249424 0.0637827 0.0622721
0.280934 0.0585184 0.0641031
0.313527 0.0542153 0.0699779
0.349203 0.0514534 0.0758831
0.389425 0.0493019 0.0814679
0.435416 0.0478676 0.0879072
0.480873 0.0463417 0.0951858
0.52076 0.0444648 0.102052
0.558709 0.0423285 0.108888
0.592493 0.0404669 0.11548
0.628687 0.0543374 0.124697
0.653132 0.0590677 0.131899
0.668345 0.0630961 0.136339
0.67129 0.0640879 0.137163
0.669871 0.0636454 0.13669
0.668559 0.0632029 0.136202
0.667597 0.0628977 0.136034
0.66772 0.0628672 0.136721
0.669352 0.0631876 0.138857
0.671229 0.0636149 0.141085
0.673259 0.0640879 0.143313
0.675105 0.0643931 0.145739
0.676814 0.0646677 0.148394
0.678538 0.0650645 0.150652
0.680293 0.0654307 0.153506
0.681743 0.0657359 0.155901
0.682963 0.06598 0.158099
0.684291 0.0661784 0.160815
0.685023 0.0663157 0.162417
0.685725 0.0664836 0.163745
0.686473 0.0665904 0.165331
0.687053 0.0666819 0.166598
0.687617 0.0667735 0.167834
0.687953 0.0668193 0.168582
0.688228 0.0668803 0.169223
0.68835 0.0668803 0.169604
0.688426 0.0668803 0.169802
0.688563 0.0669108 0.170092
0.688533 0.0668803 0.170062
0.688548 0.066865 0.170138
0.688411 0.0668193 0.169894
0.688289 0.0667735 0.169665
0.688106 0.066743 0.169223
0.687861 0.0666972 0.168688
0.687648 0.0666667 0.168276
0.68716 0.0665904 0.167315
0.0499123 0.101946 0.057847
0.049897 0.102007 0.0579538
0.0498665 0.102174 0.0580606
0.0498512 0.1019 0.0566262
0.0498054 0.10132 0.0554665
0.0498054 0.100893 0.0547646
0.0498054 0.100175 0.0546883
0.049897 0.0995956 0.0547341
0.0518959 0.0985885 0.0549477
0.056672 0.0970626 0.0550851
0.0613565 0.0955673 0.0550851
0.0701152 0.0954604 0.0549325
0.0850996 0.0955825 0.0547036
0.105303 0.0949874 0.057908
0.121782 0.09691 0.0601205
0.146639 0.0961013 0.0625467
0.171756 0.0935836 0.065095
0.198428 0.0898451 0.0654917
0.22707 0.0840772 0.0664378
0.257786 0.0783093 0.0673686
0.289082 0.072343 0.0681621
0.320119 0.0654612 0.0691844
0.355215 0.0595407 0.0742199
0.390387 0.0547799 0.07953
0.432975 0.0515908 0.086244
0.476326 0.0490425 0.093431
0.51725 0.0469673 0.100221
0.556451 0.044419 0.107286
0.591134 0.0423285 0.113939
0.626307 0.0515297 0.122728
0.653178 0.0591287 0.131228
0.67068 0.0638743 0.137057
0.675837 0.0654917 0.138705
0.674815 0.0652323 0.138521
0.673655 0.0648814 0.138109
0.672328 0.0644083 0.137545
0.670924 0.0639658 0.136965
0.669627 0.0635233 0.136339
0.66836 0.0631113 0.135744
0.667399 0.0628061 0.135378
0.66717 0.0627146 0.135607
0.667811 0.0628214 0.136568
0.668925 0.0630503 0.138018
0.670344 0.0633555 0.139773
0.671565 0.0636759 0.141253
0.67277 0.0639506 0.142611
0.673609 0.0641184 0.143771
0.674357 0.0642557 0.144976
0.675029 0.064332 0.145907
0.675608 0.0643931 0.146777
0.676249 0.0645151 0.147845
0.676707 0.0646067 0.148516
0.67718 0.0647288 0.149065
0.67747 0.0648051 0.149416
0.677668 0.0648508 0.14966
0.677943 0.0648966 0.150088
0.678004 0.0649119 0.150149
0.678111 0.0649119 0.150317
0.677989 0.0648814 0.150088
0.677836 0.0648508 0.149813
0.677638 0.0648051 0.149432
0.677241 0.0646982 0.148791
0.676951 0.0646372 0.148287
0.676371 0.0645457 0.147189
0.675853 0.0644694 0.146304
0.050309 0.117021 0.0596933
0.0502327 0.11725 0.0597848
0.0501869 0.117418 0.0598611
0.0504005 0.117037 0.05832
0.0504311 0.116716 0.0568093
0.0504311 0.11603 0.0558175
0.0504463 0.115602 0.0556191
0.0504768 0.11487 0.0556039
0.0509346 0.114031 0.0556802
0.0558633 0.112932 0.0559854
0.0607767 0.111269 0.0560769
0.0679789 0.110216 0.0563363
0.0801862 0.110948 0.0557259
0.10132 0.110826 0.0558785
0.124956 0.11014 0.0602579
0.146166 0.112703 0.0613107
0.174151 0.111849 0.0654002
0.202411 0.109163 0.0685435
0.232517 0.105013 0.0699626
0.264973 0.0993362 0.0713817
0.298161 0.0920577 0.0729229
0.331731 0.0848859 0.0741436
0.365072 0.0762188 0.0751354
0.400381 0.0676738 0.0772259
0.438956 0.0599222 0.0836042
0.476188 0.0539712 0.0904402
0.515831 0.0507057 0.0977951
0.553704 0.0473182 0.10515
0.590066 0.0448157 0.112367
0.620401 0.0437171 0.119463
0.652964 0.0591745 0.129747
0.672251 0.0644236 0.137011
0.680461 0.0671397 0.140414
0.67953 0.066804 0.140154
0.678416 0.0664073 0.139818
0.677317 0.0660105 0.139437
0.676204 0.0655985 0.138918
0.675196 0.0653239 0.138537
0.674266 0.0650645 0.13817
0.67332 0.0647288 0.137682
0.672404 0.0644083 0.137224
0.671595 0.0641337 0.136858
0.671 0.0639353 0.136706
0.670619 0.063798 0.13666
0.670359 0.0637064 0.136767
0.670161 0.0636301 0.136858
0.670054 0.0635691 0.137011
0.669978 0.0635233 0.137133
0.669932 0.0634928 0.13727
0.669917 0.0634623 0.137453
0.669902 0.063447 0.13756
0.669947 0.0634318 0.137758
0.669993 0.0634318 0.137865
0.669993 0.0634318 0.137942
0.670069 0.063447 0.138109
0.670024 0.0634318 0.138079
0.670039 0.0634165 0.138155
0.669932 0.063386 0.138018
0.669764 0.0633402 0.137819
0.669642 0.0633097 0.137667
0.669306 0.0632181 0.137255
0.669001 0.0631571 0.136889
0.668528 0.0630503 0.136278
0.668086 0.0629282 0.135653
0.667521 0.0627909 0.135103
0.0506294 0.135271 0.0615854
0.0506142 0.135622 0.0617075
0.0505837 0.135531 0.0617685
0.0506905 0.135332 0.0601053
