bundles/resolve-cinematic-luts/Phantom Luts/Komodo Phantom ARRI LUTs G2/Komodo Phantom ARRI LUTs G2/65x/WB Offset - Green Boost/Tungsten_Komodo_WBO_Legacy_G2_65x.cube
TITLE "Generated by Resolve"
LUT_3D_SIZE 5
0.0408637 0.04065 0.04654
0.181918 0.037995 0.0611734
0.696849 0.0679179 0.18999
0.70164 0.0589914 0.220295
0.704005 0.0599985 0.225528
0.048127 0.196338 0.0641794
0.157595 0.193225 0.0538033
0.693217 0.0756085 0.129351
0.690486 0.0717784 0.140993
0.691798 0.0724041 0.141894
0.0651255 0.686549 0.120943
0.121782 0.70837 0.085771
0.819303 0.792447 0.219287
0.952804 0.812375 0.307454
0.954025 0.826352 0.315221
0.0825971 0.746944 0.229191
0.0843214 0.745785 0.21886
0.636332 0.788602 0.160525
0.961105 0.87689 0.355734
0.961151 0.876661 0.35552
0.0824292 0.747143 0.230564
0.0846418 0.745861 0.217823
0.721447 0.806622 0.200397
0.961074 0.877043 0.355871
0.961089 0.876951 0.355795
0.0212406 0.0559091 0.171725
0.187625 0.05037 0.19118
0.736065 0.0878614 0.318547
0.740154 0.0936904 0.333639
0.741024 0.0951553 0.337774
0.0496376 0.165148 0.163073
0.129122 0.170459 0.169757
0.69839 0.0680247 0.191196
0.709209 0.0680705 0.223819
0.704158 0.0601816 0.225467
0.0277867 0.672572 0.237934
0.0428626 0.674723 0.155489
0.809979 0.783001 0.210758
0.951736 0.802441 0.302113
0.953063 0.815747 0.309285
0.0783551 0.753002 0.278767
0.0821393 0.747402 0.233158
0.598215 0.782223 0.145495
0.961105 0.876936 0.355779
0.961151 0.876722 0.355566
0.0780041 0.758328 0.321614
0.0820478 0.747585 0.234287
0.672831 0.795789 0.176776
0.961059 0.87718 0.356008
0.961105 0.876951 0.355795
0 0.0893111 0.572992
0.160067 0.0818341 0.619898
0.73608 0.117311 0.694026
0.732952 0.118715 0.70341
0.731609 0.119463 0.707729
0 0.178882 0.588129
0 0.0917525 0.562158
0.732174 0.112627 0.678676
0.738781 0.116487 0.686305
0.737072 0.117098 0.69163
0.073518 0.670008 0.630701
0.0734417 0.670253 0.629816
0.679271 0.694286 0.655055
0.953475 0.696132 0.669139
0.954452 0.712886 0.684825
0.124224 0.80531 0.610254
0.121355 0.803693 0.602701
0.101595 0.754147 0.250019
0.960601 0.876463 0.354223
0.960739 0.876677 0.354742
0.147219 0.817121 0.666529
0.138308 0.81268 0.645609
0.12755 0.761349 0.287282
0.960037 0.876387 0.352911
0.960708 0.876783 0.354849
0.0608072 0.0750439 0.619577
0.184405 0.087953 0.676463
0.720195 0.124895 0.736843
0.720195 0.124971 0.737026
0.720195 0.125002 0.737118
0 0.158022 0.6365
0.0504311 0.0748913 0.615
0.718318 0.124544 0.737285
0.720211 0.125017 0.737163
0.720195 0.124987 0.737102
0.112871 0.642496 0.773632
0.11252 0.641123 0.773907
0.590326 0.602747 0.954513
0.895506 0.524636 0.90338
0.900755 0.551644 0.907866
0.240406 0.858686 0.854597
0.240345 0.85861 0.85449
0.24831 0.869932 0.857221
0.980438 0.982376 0.979782
0.990524 0.984573 0.97969
0.240421 0.858686 0.854612
0.240375 0.85864 0.854551
0.249653 0.873152 0.854627
0.9738 0.988724 0.973541
0.992798 0.989639 0.97258
0.0700694 0.075761 0.624186
0.190539 0.0879225 0.678569
0.720195 0.124895 0.736858
0.720195 0.124926 0.736919
0.720195 0.124987 0.737102
0 0.150744 0.632334
0.0591592 0.0750286 0.61886
0.720195 0.125017 0.737163
0.720195 0.125048 0.737224
0.720211 0.125002 0.737118
0.112612 0.641489 0.773831
0.112322 0.640604 0.773861
0.59585 0.600305 0.955596
0.895094 0.523354 0.903258
0.900496 0.550149 0.907576
0.240528 0.858793 0.85478
0.240375 0.85864 0.854551
0.250843 0.870848 0.863752
0.970504 0.97293 0.985534
0.98822 0.976425 0.988357
0.240635 0.858885 0.854948
0.240528 0.858793 0.854765
0.254139 0.874662 0.866758
0.917479 0.986374 0.984909
0.991135 0.991455 0.991257
