bundles/resolve-cinematic-luts/Phantom Luts/Komodo Phantom ARRI LUTs G2/Komodo Phantom ARRI LUTs G2/65x/WB Offset - Green Boost/Utopia_Komodo_WBO_Legacy_G2_65x.cube
TITLE "Generated by Resolve"
LUT_3D_SIZE 9
0.0199588 0.0481575 0.0580301
0.0456703 0.0467536 0.0608072
0.175174 0.0368658 0.0570687
0.443717 0.0332952 0.0740673
0.697307 0.0449073 0.126528
0.709499 0.0457771 0.150546
0.712627 0.0448768 0.163592
0.709194 0.0354314 0.165682
0.711299 0.0351415 0.167437
0.0209659 0.066804 0.0600748
0.0330663 0.0627909 0.061738
0.155062 0.0485695 0.0538033
0.424033 0.0304875 0.0504616
0.66627 0.0407874 0.0728771
0.690898 0.0435798 0.105394
0.698787 0.0442206 0.124712
0.699763 0.0447242 0.129
0.700221 0.0448005 0.130114
0.0093843 0.208118 0.0330053
0.0109255 0.20415 0.0259709
0.158724 0.192248 0.0557412
0.478996 0.163287 0.0940261
0.710552 0.0435187 0.0493629
0.716258 0.0453651 0.0678721
0.711086 0.0454871 0.0693828
0.710185 0.0454566 0.0696422
0.711727 0.0450141 0.0691997
0.0328985 0.545083 0.0379492
0.0380102 0.546502 0.011902
0.0729992 0.540932 0.00973526
0.493111 0.508247 0.0977646
0.811139 0.558892 0.158206
0.883268 0.542016 0.16492
0.887953 0.51838 0.167559
0.889784 0.510613 0.168948
0.890532 0.509133 0.165911
0.142763 0.904784 0.127459
0.155734 0.910689 0.0930343
0.205768 0.927733 0.0797436
0.478157 0.858228 0.117266
0.88246 0.877684 0.246006
0.993912 0.874891 0.282383
0.992706 0.870176 0.278889
0.992279 0.868803 0.277958
0.992233 0.868711 0.277363
0.134127 0.9906 0.236088
0.135058 0.990646 0.231739
0.136751 0.990723 0.219303
0.175525 0.985504 0.116045
0.824048 0.934096 0.290593
0.999969 0.954681 0.363149
0.999969 0.954818 0.372763
0.999969 0.954879 0.37232
0.999969 0.955016 0.371252
0.132509 0.990829 0.238636
0.134997 0.990417 0.235737
0.138979 0.989975 0.224063
0.150927 0.9879 0.164996
0.78407 0.934295 0.273945
0.999969 0.954742 0.352712
0.999969 0.955032 0.371099
0.999969 0.95491 0.372076
0.999969 0.954879 0.37232
0.133165 0.9906 0.240482
0.13138 0.991363 0.234073
0.135393 0.991012 0.222019
0.145464 0.989044 0.177996
0.772961 0.934661 0.268772
0.999741 0.954391 0.350408
0.999969 0.954864 0.372427
0.999969 0.954894 0.372183
0.999969 0.954787 0.37293
0.134051 0.990326 0.241596
0.133104 0.990875 0.235752
0.136477 0.990692 0.223056
0.146151 0.988724 0.181262
0.772412 0.934539 0.269001
0.99939 0.95462 0.347631
0.999969 0.954955 0.37174
0.999969 0.95494 0.371878
0.999969 0.95494 0.371893
0.0120089 0.0504311 0.074342
0.0419013 0.0491951 0.0828107
0.181811 0.0446021 0.0862745
0.453849 0.0385443 0.11014
0.711162 0.0355535 0.161807
0.721004 0.0375525 0.187716
0.722728 0.0399634 0.198291
0.723308 0.0406043 0.201755
0.724254 0.0406958 0.203098
0.0197147 0.0606394 0.071107
0.0272831 0.0575418 0.0669108
0.159426 0.0387274 0.0588693
0.436072 0.0347601 0.0766613
0.700008 0.0435492 0.127703
0.712886 0.0451667 0.15314
0.712856 0.0349889 0.163302
0.713588 0.0358892 0.168582
0.714336 0.0361028 0.170108
0.00505074 0.199985 0.0628824
0.00872816 0.196521 0.0388037
0.151369 0.185107 0.055436
0.474632 0.142931 0.0877546
0.69752 0.0399939 0.0579995
0.704204 0.0439307 0.0708171
0.699886 0.0436713 0.0713359
0.698802 0.0435187 0.0714122
0.699077 0.0433051 0.0712291
0.0238956 0.537392 0.0718547
0.0301823 0.536934 0.0413062
0.0526436 0.533883 0.00733959
0.487648 0.503609 0.0968948
0.811322 0.549584 0.159777
0.885863 0.529397 0.165179
0.891325 0.503044 0.166705
0.893111 0.494652 0.167575
0.894087 0.493309 0.165652
0.124926 0.896498 0.165408
0.138476 0.900587 0.131945
0.20322 0.923858 0.0771649
0.454643 0.858152 0.109773
0.879332 0.874632 0.244526
0.992996 0.871672 0.279225
0.991714 0.866377 0.275456
0.99118 0.864485 0.274159
0.991073 0.864195 0.273625
0.132967 0.990646 0.240589
0.133806 0.990646 0.23653
0.135805 0.990875 0.22327
0.161608 0.986908 0.138369
0.818662 0.9337 0.288426
0.999969 0.954696 0.362753
0.999969 0.954879 0.37229
0.999969 0.954879 0.37229
0.999969 0.955016 0.371267
0.131685 0.990936 0.243137
0.132921 0.990692 0.239673
0.138247 0.990127 0.226886
0.145571 0.988876 0.184939
0.778149 0.934569 0.271443
0.999969 0.954665 0.351247
0.999969 0.955016 0.371221
0.999969 0.95491 0.372152
0.999969 0.954879 0.37232
0.132357 0.990707 0.24506
0.130449 0.991363 0.238743
0.135195 0.990967 0.225315
0.14197 0.989685 0.195056
0.765835 0.935027 0.265568
0.999252 0.954482 0.347814
0.999969 0.954864 0.372457
0.999969 0.954894 0.372244
0.999969 0.954787 0.373007
0.133227 0.990448 0.246098
0.132265 0.990829 0.240787
0.136141 0.990723 0.225956
0.143175 0.989227 0.19823
0.765301 0.93489 0.265827
0.998856 0.954559 0.346532
0.999969 0.954955 0.371832
0.999969 0.95494 0.371878
0.999969 0.95494 0.371878
0 0.0614176 0.175265
0.0221561 0.0551766 0.188724
0.183062 0.0471199 0.194995
0.455848 0.0553292 0.208804
0.732967 0.0615549 0.269627
0.737697 0.0677195 0.287495
0.738674 0.0711986 0.296391
0.737972 0.0726635 0.299107
0.738369 0.072755 0.300252
0 0.0675517 0.147112
0 0.0585184 0.170184
0.167681 0.0471504 0.181521
0.449805 0.0538033 0.188861
0.728954 0.0520485 0.245258
0.735454 0.0579232 0.263279
0.735592 0.0621805 0.271946
0.73489 0.063859 0.274891
0.735317 0.0640726 0.276005
0.00425727 0.165133 0.163317
0.00480659 0.161715 0.158831
0.127855 0.165911 0.161471
0.466438 0.100145 0.128725
0.692897 0.0417487 0.115541
0.711299 0.0443732 0.142
0.715023 0.0453346 0.155978
0.712047 0.0357824 0.157366
0.713115 0.0357214 0.158648
0 0.505348 0.182956
0.00308232 0.506752 0.160693
0.0226902 0.505959 0.0543221
0.46981 0.486702 0.0935836
0.818326 0.517922 0.166232
0.896025 0.476341 0.167407
0.895811 0.445212 0.170932
0.895552 0.433829 0.171588
0.896178 0.43299 0.169757
0.0814984 0.8701 0.281422
0.0891127 0.872908 0.253559
0.127352 0.879881 0.145556
0.368338 0.857389 0.0856336
0.867933 0.863752 0.240391
0.989425 0.858686 0.26981
0.987152 0.851469 0.265003
0.986481 0.849058 0.263462
0.986526 0.849119 0.263996
0.122881 0.991089 0.289326
0.129198 0.990753 0.258732
0.132753 0.990829 0.237552
0.142 0.989639 0.198505
0.799069 0.933562 0.280735
0.999969 0.954665 0.361776
0.999969 0.954955 0.371801
0.999969 0.954925 0.371984
0.999969 0.955062 0.370962
0.117571 0.990784 0.319371
0.123995 0.990921 0.286503
0.132311 0.990814 0.240894
0.139086 0.990112 0.218372
0.751873 0.935744 0.259434
0.998978 0.954391 0.347326
0.999969 0.955047 0.371008
0.999969 0.954925 0.371954
0.999969 0.954879 0.37232
0.116274 0.990188 0.331167
0.11931 0.991531 0.2981
0.129778 0.991485 0.240116
0.137392 0.99057 0.218601
0.73756 0.936599 0.25272
0.996139 0.954208 0.343282
0.999969 0.955016 0.371206
0.999969 0.954833 0.37261
0.999969 0.954757 0.37319
0.116304 0.989792 0.335866
0.120989 0.990845 0.304326
0.132784 0.990662 0.242863
0.140063 0.989761 0.220844
0.736217 0.936461 0.252506
0.995163 0.95433 0.341817
0.999969 0.955123 0.370336
0.999969 0.95494 0.371878
0.999969 0.95494 0.371878
0 0.0760052 0.370336
0 0.0667124 0.379049
0.13579 0.0594797 0.403525
0.459113 0.057145 0.429679
0.710964 0.0563668 0.442893
0.716075 0.0581979 0.459937
0.716487 0.0586557 0.467628
0.715969 0.0588998 0.470634
0.715755 0.0589456 0.471656
0 0.0945296 0.35111
0 0.0739147 0.368154
0.107454 0.0606851 0.398505
0.451911 0.0565499 0.42327
0.71136 0.0572518 0.434104
0.71606 0.0568551 0.449088
0.714595 0.0551919 0.4542
0.712917 0.0557107 0.456046
0.712489 0.0557565 0.456733
0 0.154559 0.29192
0 0.145235 0.296483
0 0.087892 0.381033
0.413443 0.0562905 0.384665
0.708568 0.060853 0.391012
0.721294 0.0590524 0.403571
0.719844 0.0572518 0.407874
0.71841 0.0571298 0.408942
0.717754 0.057145 0.409339
0 0.424918 0.393194
0 0.422889 0.389868
0 0.413413 0.374105
0.385077 0.422766 0.378317
0.80943 0.367315 0.361151
0.868574 0.295567 0.325856
0.858152 0.260044 0.306661
0.854353 0.248707 0.300099
0.854322 0.247059 0.299397
0.014435 0.813367 0.474022
0.0170596 0.813916 0.464042
0.0271458 0.812696 0.425299
0.0964218 0.823453 0.185687
0.800046 0.802869 0.240528
0.975067 0.818235 0.239933
0.968643 0.805753 0.227665
0.966964 0.802487 0.22652
0.966812 0.802136 0.224628
0.0703746 0.977462 0.47776
0.0754711 0.978515 0.470924
0.0948806 0.984451 0.440635
0.134066 0.990356 0.243137
0.723323 0.937652 0.246189
0.999969 0.954726 0.352239
0.999969 0.955032 0.372351
0.999969 0.955047 0.37258
0.999969 0.955139 0.371969
0.0630961 0.97641 0.48986
0.068574 0.976959 0.480964
0.0896468 0.981949 0.451682
0.131044 0.991089 0.243549
0.649516 0.943206 0.212482
0.983474 0.954208 0.335927
0.999969 0.955016 0.371359
0.999969 0.954986 0.371542
0.999969 0.95491 0.372107
0.0608835 0.97586 0.495125
0.0641947 0.976944 0.485359
0.0850843 0.981491 0.455009
0.12958 0.99144 0.244068
0.624582 0.946105 0.202808
0.972259 0.95378 0.330373
0.999969 0.955016 0.370153
0.999969 0.955016 0.371237
0.999969 0.954803 0.3729
0.0617685 0.975158 0.49839
0.0653086 0.976196 0.488502
0.086183 0.980636 0.457496
0.131807 0.990738 0.247364
0.619471 0.946883 0.201099
0.969116 0.954177 0.328069
0.999969 0.955093 0.368597
0.999969 0.955093 0.370611
0.999969 0.95491 0.372091
0 0.092134 0.587915
0 0.0781109 0.585657
0.0879377 0.0779889 0.611994
0.415 0.0781415 0.648569
0.742214 0.103319 0.691096
0.747967 0.105425 0.710643
0.746899 0.106081 0.717342
0.746868 0.106233 0.720088
0.746349 0.106523 0.72047
0 0.109606 0.590692
0 0.0896773 0.586633
0.0589914 0.0791485 0.606989
0.401587 0.0773785 0.646632
0.74287 0.102617 0.689754
0.749432 0.104753 0.70779
0.748699 0.105211 0.714366
0.74757 0.10576 0.715236
0.745235 0.106767 0.713878
0 0.169162 0.574548
0 0.160143 0.584665
0 0.0802014 0.577157
0.338735 0.0744945 0.630716
0.7308 0.0987869 0.672114
0.753079 0.102266 0.688701
0.752682 0.103212 0.693507
0.75169 0.103685 0.694194
0.750179 0.104402 0.693385
0 0.418997 0.579004
0 0.415549 0.579828
0 0.395087 0.5794
0.20119 0.294179 0.684443
0.74313 0.245151 0.683909
0.767971 0.143542 0.629145
0.750042 0.108293 0.604028
0.74313 0.0981155 0.594491
0.742367 0.0965744 0.593576
0 0.723125 0.672999
0 0.722423 0.672297
0 0.717708 0.665949
0 0.7028 0.641672
0.668864 0.693919 0.648814
0.922972 0.681147 0.643595
0.91902 0.664118 0.631922
0.918975 0.659495 0.628412
0.91841 0.658946 0.62797
0.0267948 0.963119 0.66836
0.0285344 0.963134 0.664347
0.0289464 0.964874 0.647761
0.0352636 0.968032 0.58996
0.433539 0.989548 0.400015
0.983597 0.962493 0.520439
0.999969 0.956878 0.424063
0.999969 0.957641 0.437766
0.999969 0.957717 0.441184
0.0231937 0.962753 0.679423
0.0245212 0.962951 0.674571
0.0249027 0.965057 0.654521
0.0315251 0.970413 0.589303
0.201709 0.991852 0.266255
0.948867 0.952132 0.321752
0.999969 0.954711 0.3673
0.999969 0.954787 0.370214
0.999969 0.954925 0.369055
0.025452 0.961791 0.684535
0.024567 0.962432 0.6795
0.0246891 0.96466 0.658564
0.0310369 0.970321 0.591028
0.164309 0.992172 0.269856
0.930083 0.949722 0.314656
0.999969 0.954757 0.36231
0.999969 0.954971 0.368826
0.999969 0.954818 0.370306
0.0260777 0.961349 0.68748
0.0258335 0.961807 0.682429
0.025742 0.964172 0.661021
0.0326238 0.969787 0.592767
0.163241 0.991623 0.27538
0.925536 0.949126 0.313619
0.999969 0.954726 0.361563
0.999969 0.955001 0.368566
0.999969 0.95491 0.369451
0 0.0826734 0.65626
0 0.0787823 0.658824
0.0866407 0.0833906 0.683513
0.388388 0.0841382 0.720821
0.73315 0.111192 0.757733
0.737469 0.11133 0.759075
0.737606 0.111269 0.759274
0.737835 0.111162 0.759579
0.737972 0.111101 0.759731
0 0.0961929 0.660639
0 0.0818799 0.656977
0.0596475 0.0838636 0.679103
0.372396 0.0834058 0.718929
0.731365 0.110811 0.758053
0.738048 0.111055 0.759854
0.738094 0.11104 0.759915
0.738033 0.11107 0.759823
0.736599 0.111711 0.757931
0 0.168582 0.686137
0 0.152163 0.686442
0 0.0800641 0.656291
0.300038 0.0815595 0.709529
0.715923 0.10927 0.757168
0.739452 0.11043 0.761746
0.738384 0.110903 0.760327
0.738155 0.111009 0.760006
0.737118 0.111482 0.758618
0 0.344854 0.687922
0 0.337514 0.68864
0 0.306127 0.687526
0.0568704 0.143343 0.721126
0.614054 0.123842 0.766598
0.738689 0.112154 0.760632
0.737926 0.111803 0.759701
0.737179 0.112078 0.758709
0.737621 0.111864 0.759274
0 0.663996 0.779553
0 0.662623 0.779461
0 0.654002 0.775067
0 0.627146 0.770962
0.531914 0.609003 0.870512
0.901473 0.594766 0.865721
0.897795 0.577417 0.856794
0.896666 0.572519 0.853788
0.896117 0.572351 0.853544
0.0214237 0.903319 0.841428
0.024155 0.900938 0.838575
0.0200809 0.890974 0.827985
0.00924697 0.857923 0.792966
0.130999 0.88191 0.817716
0.886961 0.895537 0.868177
0.9729 0.895735 0.86508
0.972366 0.890471 0.862257
0.971145 0.889754 0.862226
0.0341344 0.937865 0.866957
0.0401312 0.937072 0.86247
0.0384527 0.939178 0.85069
0.0342412 0.944747 0.813092
0.0299382 0.96849 0.742336
0.803494 0.993393 0.754849
0.999969 0.976196 0.721325
0.999969 0.969741 0.599954
0.999969 0.970947 0.616785
0.0372778 0.936294 0.87248
0.035874 0.937041 0.869337
0.0338445 0.93962 0.855756
0.0294652 0.945846 0.813718
0.0275425 0.967987 0.72987
0.763668 0.995239 0.732555
0.997665 0.977066 0.705989
0.999969 0.954726 0.366323
0.999969 0.954757 0.366018
0.0394598 0.935393 0.87483
0.0392157 0.935897 0.871244
0.0373541 0.938491 0.857313
0.0321508 0.945113 0.814404
0.029221 0.967559 0.72752
0.751019 0.995621 0.72755
0.992706 0.978149 0.710948
0.999969 0.954864 0.363592
0.999969 0.954772 0.365881
0 0.0788434 0.657649
0 0.0801099 0.664683
0.107973 0.0826581 0.686351
0.406058 0.0848249 0.723217
0.736782 0.111635 0.758175
0.737636 0.111254 0.759304
0.737255 0.111421 0.758816
0.737057 0.111513 0.758526
0.737987 0.111086 0.759793
0 0.0838483 0.656321
0 0.0788586 0.658488
0.0800488 0.0834974 0.682582
0.390173 0.0841382 0.72105
0.735515 0.111086 0.758877
0.738109 0.111025 0.759945
0.738064 0.111055 0.759869
0.73785 0.111162 0.759594
0.73637 0.111818 0.757717
0 0.159014 0.687266
0 0.128099 0.677409
0 0.0787976 0.659464
0.31751 0.082063 0.711528
0.725216 0.110002 0.757778
0.739361 0.110475 0.761593
0.738277 0.110948 0.760159
0.738231 0.110979 0.760113
0.737453 0.11133 0.75906
0 0.300206 0.687785
0 0.292546 0.687968
0 0.263081 0.68661
0.0333104 0.0999619 0.689052
0.598337 0.100221 0.74873
0.738262 0.111284 0.760143
0.73817 0.111147 0.760021
0.737041 0.11162 0.758511
0.737545 0.111406 0.759182
0 0.645685 0.798795
0 0.645121 0.799558
0 0.63711 0.795895
0 0.608804 0.782666
0.495644 0.560555 0.889113
0.881575 0.546227 0.890623
0.877943 0.527733 0.887007
0.87689 0.521889 0.885588
0.876493 0.521248 0.885481
0.0154116 0.85481 0.892363
0.0166629 0.85304 0.891371
0.0115206 0.837858 0.885344
0.00593576 0.779889 0.859815
0.0146944 0.800229 0.893141
0.80618 0.84152 0.955154
0.961456 0.846281 0.957595
0.961089 0.841703 0.956024
0.960006 0.840986 0.956237
0.0392767 0.924025 0.91725
0.0397192 0.923934 0.917082
0.0416419 0.923522 0.916503
0.0415808 0.923537 0.916518
0.0465705 0.945449 0.905913
0.60676 0.967697 0.93843
0.973617 0.975204 0.967651
0.993423 0.975875 0.964736
0.992111 0.975357 0.965347
0.0392462 0.924025 0.91725
0.0385443 0.924163 0.917617
0.0427558 0.923278 0.916136
0.0427405 0.923278 0.916136
0.0421302 0.945815 0.89044
0.195315 0.985321 0.895171
0.961135 0.991257 0.947616
0.994171 0.988464 0.953353
0.99443 0.988327 0.949401
0.0399176 0.923888 0.917037
0.0408331 0.92369 0.916747
0.0408331 0.92369 0.916747
0.0402533 0.923827 0.91693
0.0431983 0.945647 0.885664
0.190112 0.985977 0.891234
0.954452 0.99173 0.942473
0.994583 0.988281 0.949187
0.994553 0.98822 0.944366
0 0.0788281 0.659693
0 0.0811933 0.667155
0.11667 0.0825666 0.687572
0.413001 0.0852216 0.724346
0.736751 0.11165 0.758144
0.737621 0.111254 0.759289
0.736736 0.11165 0.758114
0.736477 0.111772 0.757794
0.737942 0.111101 0.759716
0 0.0814374 0.656214
0 0.0788128 0.66041
0.0877699 0.0833906 0.683879
0.396338 0.0842298 0.721736
0.73666 0.111238 0.758999
0.738155 0.111009 0.760006
0.738109 0.11104 0.75993
0.737896 0.111131 0.75964
0.736339 0.111818 0.757687
0 0.151156 0.68571
0 0.120912 0.673304
0 0.0792859 0.661952
0.323949 0.0819715 0.712154
0.729152 0.110369 0.758312
0.739544 0.110384 0.761852
0.738277 0.110964 0.760143
0.738231 0.110979 0.760098
0.737438 0.11133 0.75906
0 0.285069 0.687144
0 0.27837 0.687312
0 0.248432 0.686671
0.0228733 0.087602 0.675883
0.600214 0.0983291 0.746807
0.738048 0.111147 0.759869
0.738293 0.111025 0.760159
0.737209 0.111528 0.758724
0.737743 0.111284 0.759457
0 0.641718 0.797436
0 0.640528 0.797772
0 0.632837 0.794324
0 0.601678 0.779461
0.490654 0.547463 0.887358
0.878157 0.532662 0.888014
0.874449 0.513115 0.884077
0.874113 0.507393 0.883024
0.874067 0.506798 0.88278
0.0133516 0.847883 0.889906
0.0145266 0.845914 0.888914
0.00302129 0.814069 0.873838
0.00378424 0.774121 0.859556
0.0136568 0.791196 0.891035
0.800336 0.829129 0.955306
0.957305 0.831495 0.957839
0.95613 0.826078 0.956603
0.955016 0.824903 0.957229
0.0388952 0.924102 0.917449
0.039704 0.923934 0.917098
0.0415808 0.923537 0.916518
0.0414435 0.923552 0.916564
0.0458839 0.937911 0.926711
0.520363 0.934462 0.957732
0.956771 0.961944 0.983063
0.990341 0.963912 0.985046
0.989013 0.963226 0.985794
0.0392462 0.924025 0.91725
0.038529 0.924163 0.917617
0.0397498 0.923934 0.917082
0.0415351 0.923537 0.916518
0.0439307 0.936339 0.925582
0.0642863 0.968582 0.946609
0.901305 0.991302 0.983703
0.991592 0.989731 0.989029
0.991638 0.989731 0.989013
0.0399634 0.923888 0.917021
0.0408331 0.92369 0.916747
0.0408331 0.92369 0.916747
0.040238 0.923827 0.91693
0.0454108 0.935332 0.924727
0.0648051 0.970504 0.942855
0.873075 0.992782 0.980499
0.991623 0.989731 0.989029
0.991318 0.989792 0.989227
0 0.0787976 0.660105
0 0.0812695 0.667521
0.11957 0.0825513 0.688045
0.416052 0.0854353 0.724865
0.736736 0.11165 0.758114
0.737621 0.111254 0.759289
0.736858 0.111604 0.758282
0.736568 0.111727 0.757885
0.737926 0.111116 0.759686
0 0.0809491 0.656367
0 0.0789654 0.661173
0.0903792 0.0833143 0.684291
0.399115 0.0844129 0.722225
0.737133 0.111284 0.75906
0.738155 0.111009 0.760006
0.738109 0.11104 0.75993
0.737881 0.111131 0.75964
0.736324 0.111833 0.757671
0 0.148592 0.684977
0 0.119005 0.672145
0 0.0792554 0.662379
0.326833 0.0820172 0.712444
0.730709 0.110536 0.758465
0.739544 0.110384 0.761852
0.738277 0.110964 0.760159
0.738231 0.110979 0.760082
0.737438 0.11133 0.75906
0 0.281712 0.6869
0 0.274296 0.68716
0 0.244587 0.68751
0.025803 0.0868391 0.675212
0.602045 0.0984512 0.747021
0.73817 0.11107 0.760021
0.738293 0.111025 0.760174
0.737194 0.111528 0.758724
0.737728 0.111284 0.759426
0 0.640726 0.797238
0 0.639445 0.797513
0 0.631525 0.793866
0 0.599603 0.778424
0.491478 0.54377 0.887312
0.877256 0.529015 0.887526
0.873579 0.508934 0.883391
0.873182 0.503685 0.882704
0.872938 0.50222 0.882185
0.0122683 0.846677 0.889906
0.0124056 0.844511 0.88922
0.00257877 0.80914 0.872145
0.00283818 0.772915 0.859892
0.0133669 0.788617 0.890944
0.799054 0.825528 0.955245
0.956405 0.828031 0.957259
0.955428 0.822736 0.956237
0.953979 0.821241 0.956756
0.0381781 0.924239 0.917769
0.0381781 0.924239 0.9178
0.0403143 0.923812 0.916899
0.0401007 0.923858 0.916976
0.0433661 0.93698 0.926741
0.540719 0.932357 0.95819
0.954467 0.95964 0.98323
0.989548 0.961639 0.984726
0.987793 0.960678 0.985351
0.0367285 0.924544 0.918196
0.0367895 0.924529 0.918181
0.0386358 0.924147 0.917571
0.0402838 0.923812 0.916915
0.042237 0.936751 0.925963
0.0614786 0.967453 0.94789
0.882231 0.985809 0.987366
0.990799 0.989899 0.989578
0.99025 0.990005 0.989944
0.0357519 0.924743 0.918379
0.0369421 0.924498 0.918151
0.0369726 0.924483 0.918166
0.0366369 0.924559 0.918212
0.0416571 0.936187 0.92578
0.0601053 0.966888 0.947662
0.774655 0.989059 0.984253
0.989349 0.989868 0.989242
0.989822 0.990082 0.990173
