bundles/resolve-cinematic-luts/Phantom Luts/Komodo Phantom ARRI LUTs G2/Komodo Phantom ARRI LUTs G2/65x/WB Offset - Green Boost/Utopia_Komodo_WBO_Legacy_G2_65x.cube
TITLE "Generated by Resolve"
LUT_3D_SIZE 65
0.0199588 0.0481575 0.0580301
0.0199588 0.0481422 0.0580148
0.0199588 0.048127 0.0579995
0.0199588 0.0481117 0.057969
0.0208743 0.0481117 0.0579232
0.024918 0.0484474 0.0581521
0.029572 0.0484474 0.0585031
0.0361028 0.0477455 0.0593271
0.0456703 0.0467536 0.0608072
0.0562295 0.0459449 0.0606088
0.0675975 0.0451972 0.0597696
0.0803845 0.0437781 0.0593576
0.0948501 0.0424201 0.0589914
0.113283 0.0409094 0.0585794
0.131884 0.039292 0.0581521
0.152819 0.0381628 0.0578775
0.175174 0.0368658 0.0570687
0.199741 0.0357824 0.0568704
0.227329 0.0353552 0.0574807
0.256886 0.0352331 0.0577554
0.289097 0.0350652 0.0589914
0.32343 0.0347753 0.0612802
0.361471 0.034287 0.064622
0.402457 0.0337835 0.0689403
0.443717 0.0332952 0.0740673
0.4851 0.0324407 0.0797131
0.522652 0.0324102 0.0861067
0.558938 0.0321813 0.0927901
0.592447 0.0316472 0.100023
0.622553 0.0301976 0.105562
0.652598 0.0350958 0.111345
0.682094 0.0433204 0.119921
0.697307 0.0449073 0.126528
0.699199 0.0450446 0.130098
0.701137 0.045182 0.133379
0.702815 0.0453193 0.136797
0.704326 0.0453956 0.139895
0.705852 0.0454871 0.142504
0.707179 0.0455787 0.145373
0.70837 0.0456703 0.14818
0.709499 0.0457771 0.150546
0.710323 0.0459297 0.153124
0.711238 0.0460517 0.155459
0.711971 0.0461891 0.157137
0.712444 0.0463264 0.158556
0.712795 0.0464332 0.160266
0.712993 0.0464942 0.161746
0.713207 0.04654 0.163119
0.712627 0.0448768 0.163592
0.71284 0.0448157 0.164614
0.70782 0.0349432 0.161776
0.708171 0.0350805 0.162676
0.708461 0.0352026 0.163455
0.708629 0.0351873 0.164096
0.708843 0.0352789 0.164691
0.709026 0.0353552 0.165209
0.709194 0.0354314 0.165682
0.709331 0.0354925 0.166079
0.709453 0.0355383 0.1664
0.709529 0.0355688 0.166629
0.709621 0.0355688 0.166842
0.70985 0.0355383 0.167025
0.710216 0.0354314 0.167178
0.71075 0.0352941 0.167285
0.711299 0.0351415 0.167437
0.0199588 0.0480812 0.0579385
0.0199588 0.0480964 0.0579538
0.0199588 0.0481117 0.057969
0.0199588 0.0480964 0.057969
0.0202029 0.0480964 0.0579385
0.0239872 0.0483864 0.0581064
0.0286412 0.0485542 0.0585031
0.0350347 0.0478676 0.0591287
0.0442969 0.0469062 0.0607004
0.0552377 0.0460365 0.0606851
0.066804 0.045243 0.0598001
0.0794995 0.0438544 0.0593729
0.0939956 0.0424811 0.0589303
0.112276 0.0409857 0.0583047
0.131121 0.0391089 0.0574197
0.1514 0.0378424 0.056611
0.173983 0.036408 0.0558328
0.198825 0.0354925 0.0557107
0.225711 0.0345617 0.0558175
0.255879 0.0341802 0.0559396
0.287846 0.0340429 0.0568704
0.323018 0.033753 0.0589761
0.361166 0.0332189 0.0618906
0.401526 0.0327611 0.0660258
0.443931 0.0322576 0.0715496
0.484337 0.031754 0.077348
0.521523 0.0314946 0.0831311
0.557504 0.0310521 0.0892958
0.591699 0.0306401 0.0967575
0.622614 0.0292058 0.102831
0.652537 0.0350347 0.108721
0.682139 0.0432288 0.117357
0.696361 0.0446632 0.124224
0.698405 0.044831 0.127977
0.700359 0.0449531 0.131365
0.702205 0.0450599 0.134524
0.70367 0.0452125 0.137774
0.705135 0.0452888 0.140658
0.706477 0.0454108 0.142992
0.707637 0.0455024 0.145785
0.708644 0.0456245 0.148318
0.709575 0.0457465 0.1505
0.710292 0.0458839 0.152804
0.711055 0.0460059 0.154925
0.711742 0.0461433 0.156542
0.712123 0.0462501 0.157824
0.712398 0.0464179 0.158968
0.712566 0.0465095 0.160327
0.712551 0.0461891 0.16144
0.712734 0.0462501 0.162478
0.712886 0.0462806 0.163378
0.713069 0.0463111 0.164004
0.713283 0.0463111 0.164675
0.707546 0.03505 0.161044
0.707576 0.0347753 0.161349
0.707774 0.0348516 0.161837
0.707958 0.0349126 0.162264
0.70811 0.0349737 0.162646
0.708217 0.0350042 0.162936
0.708324 0.03505 0.163226
0.708446 0.0350805 0.163455
0.70869 0.03505 0.163668
0.709072 0.0349737 0.163836
0.709606 0.0348363 0.163928
0.710323 0.0346532 0.164065
0.0199588 0.0480812 0.0579538
0.0199588 0.0481117 0.0579843
0.0199588 0.048127 0.0579995
0.0199588 0.048127 0.0579995
0.0199588 0.048127 0.0579843
0.0224002 0.0483864 0.0580911
0.0273899 0.0486915 0.0584573
0.0334783 0.048127 0.0588693
0.0423438 0.0472572 0.0604715
0.0536355 0.0462348 0.0607919
0.0649729 0.0454261 0.0598917
0.0782177 0.0439765 0.0593576
0.092546 0.0426032 0.0589303
0.111116 0.0411231 0.058381
0.130358 0.0391241 0.0573587
0.150179 0.0378882 0.0565042
0.172427 0.0362554 0.0551614
0.196597 0.0352636 0.0544289
0.223194 0.0340581 0.0540169
0.252842 0.0332341 0.0538033
0.285496 0.0327611 0.0542611
0.320974 0.0323491 0.055848
0.35845 0.0319677 0.0586709
0.399924 0.0313725 0.0624857
0.441627 0.0307317 0.0673533
0.482612 0.0302892 0.0734569
0.520302 0.0303655 0.0798962
0.555932 0.0300145 0.0858473
0.590188 0.0291752 0.0922866
0.619913 0.0277714 0.097322
0.651133 0.0348058 0.104463
0.680888 0.0430457 0.113527
0.695537 0.0446326 0.120729
0.697185 0.0446632 0.1252
0.699046 0.0448005 0.128573
0.700984 0.044892 0.131838
0.702617 0.0450141 0.134936
0.704005 0.0451514 0.137926
0.705348 0.045243 0.140673
0.706523 0.0453651 0.142824
0.707546 0.0454719 0.145418
0.708415 0.0455787 0.147753
0.709255 0.0456855 0.149645
0.709941 0.0458076 0.151583
0.710506 0.0459297 0.15346
0.71107 0.0460365 0.155123
0.711559 0.0461738 0.156435
0.711788 0.0462806 0.157427
0.711864 0.0464179 0.158175
0.71194 0.0465705 0.15903
0.712016 0.0466621 0.159945
0.712062 0.0466926 0.160708
0.712169 0.0467231 0.161349
0.712322 0.0467079 0.161898
0.712352 0.0461585 0.162371
0.71252 0.0461738 0.162799
0.712657 0.0461738 0.163195
0.712749 0.0461738 0.16347
0.712856 0.0461738 0.163684
0.712947 0.0461738 0.163867
0.713054 0.0461738 0.164019
0.713252 0.046128 0.164172
0.713603 0.0460365 0.164279
0.714061 0.0458991 0.164401
0.714702 0.0457313 0.164446
0.0199588 0.0480964 0.0579385
0.0199588 0.0481117 0.0579843
0.0199588 0.048127 0.0579995
0.0199588 0.048127 0.0579995
0.0199588 0.048127 0.0579843
0.0210574 0.0482795 0.0579843
0.0255741 0.0488746 0.0583658
0.0308995 0.0486763 0.0585336
0.0392767 0.0479896 0.0598764
0.0501717 0.0470283 0.0608377
0.0619516 0.0460975 0.060029
0.0751202 0.0448005 0.0592508
0.0898146 0.0433509 0.0589609
0.108721 0.0417639 0.058381
0.127855 0.0397345 0.0573129
0.148486 0.0382696 0.0565194
0.170565 0.0365148 0.0551919
0.195377 0.0353399 0.0543832
0.221149 0.0339513 0.0532387
0.249989 0.0326848 0.0525063
0.281926 0.0321508 0.0518044
0.317052 0.0315557 0.0525826
0.355474 0.0306554 0.0545052
0.396536 0.0298924 0.0579995
0.439048 0.0291142 0.0626688
0.480705 0.0285954 0.0688334
0.518074 0.0285954 0.0753796
0.554101 0.0284581 0.0817731
0.587839 0.0278019 0.0876173
0.621714 0.0327611 0.0952773
0.652003 0.0399329 0.101305
0.67805 0.042649 0.1075
0.693202 0.0445106 0.115511
0.69604 0.0445869 0.121019
0.697536 0.0446021 0.125277
0.699367 0.0447089 0.128573
0.701183 0.0448157 0.131701
0.702678 0.0449683 0.134691
0.703944 0.0450904 0.137453
0.705119 0.0451972 0.140032
0.706157 0.0453193 0.141985
0.707088 0.0454261 0.144198
0.707912 0.0455177 0.146334
0.708598 0.045594 0.14818
0.70927 0.0456855 0.149691
0.709789 0.0457923 0.151156
0.71017 0.0458991 0.152651
0.71046 0.0460212 0.153933
0.710719 0.046128 0.155047
0.710887 0.0462654 0.156054
0.710948 0.0464179 0.15671
0.710918 0.0465248 0.157259
0.710933 0.0466163 0.157733
0.710994 0.0466773 0.158099
0.711101 0.0467231 0.15845
0.711254 0.0467536 0.15877
0.711391 0.0467689 0.159106
0.711498 0.0467842 0.159442
0.711589 0.0467689 0.159686
0.71165 0.0467689 0.159884
0.711742 0.0467536 0.160082
0.71194 0.0467079 0.160235
0.712291 0.0466011 0.160403
0.712764 0.0464637 0.160479
0.71339 0.0462806 0.160555
0.0199588 0.0480812 0.0579385
0.0199588 0.0481117 0.0579843
0.0199588 0.048127 0.0579995
0.0199588 0.048127 0.0579995
0.0199588 0.048127 0.0579843
0.0200961 0.0481575 0.0579843
0.0232242 0.0489815 0.0583352
0.0280919 0.0492103 0.0585031
0.0352789 0.0489357 0.0591287
0.0462043 0.0479133 0.0606699
0.0580606 0.0469673 0.0602731
0.0715343 0.0457465 0.0591745
0.0863203 0.0444038 0.0588388
0.10457 0.0429084 0.0582589
0.124483 0.0408331 0.0572061
0.145464 0.0392615 0.0565652
0.168093 0.0374456 0.0551614
0.193347 0.0361639 0.0542763
0.219333 0.0346075 0.0532082
0.248631 0.0331884 0.052369
0.279789 0.0322728 0.0511788
0.314061 0.0315099 0.0511635
0.351568 0.0301213 0.0513466
0.392767 0.0288396 0.0534218
0.43505 0.0274815 0.0570077
0.476997 0.0266728 0.0627451
0.515251 0.026627 0.0694743
0.550927 0.0263981 0.0760357
0.585351 0.0258793 0.0817578
0.620661 0.0332036 0.0901961
0.650324 0.0396887 0.0957351
0.676081 0.0422827 0.101122
0.690166 0.0440528 0.108461
0.693904 0.04448 0.114977
0.696178 0.0445258 0.120439
0.697581 0.0444648 0.12462
0.699306 0.0445869 0.127932
0.700954 0.0447089 0.13077
0.702358 0.0448463 0.133471
0.703548 0.0449989 0.136049
0.704479 0.0451057 0.138552
0.70544 0.0452125 0.140658
0.706279 0.0453193 0.14226
0.707012 0.0454108 0.143999
0.707683 0.0454871 0.145693
0.708217 0.0455482 0.147173
0.70869 0.0456092 0.148379
0.709102 0.0457008 0.149462
0.709392 0.0457923 0.150378
0.70956 0.0458991 0.151339
0.709606 0.0460059 0.152193
0.709575 0.0461433 0.152926
0.709514 0.0462654 0.153567
0.709499 0.0463569 0.154086
0.709575 0.0464179 0.154589
0.709682 0.0464637 0.154971
0.709804 0.046479 0.155337
0.709911 0.0465095 0.155642
0.709987 0.0465248 0.155886
0.710079 0.04654 0.1561
0.710155 0.0465553 0.156222
0.710323 0.0465248 0.156359
0.710628 0.0464332 0.15642
0.711116 0.0462959 0.156451
0.711742 0.0461128 0.156451
0.0205692 0.0497902 0.0585794
0.0205081 0.0496376 0.0585336
0.0204013 0.0494087 0.0584573
0.0204013 0.0491035 0.0583352
0.0206149 0.048661 0.0581826
0.0202487 0.0483711 0.0581064
0.0214237 0.0488289 0.0582437
0.0258335 0.0496223 0.0586252
0.0316167 0.0497597 0.0588388
0.0412299 0.0492561 0.0600443
0.0537728 0.0480659 0.0604105
0.0669871 0.0469825 0.059144
0.0822919 0.045655 0.0587167
0.100313 0.0442054 0.0581369
0.120287 0.0422675 0.0569924
0.141848 0.0406348 0.0564889
0.165026 0.0387884 0.0550698
0.190066 0.0374762 0.054139
0.216815 0.0359655 0.0530404
0.246448 0.0346075 0.0523079
0.278508 0.0336767 0.0511635
0.312688 0.0324407 0.0510567
0.349752 0.030518 0.0506447
0.3897 0.0283207 0.0505684
0.430137 0.0264286 0.0518502
0.472084 0.0251774 0.0557717
0.510567 0.0249332 0.06215
0.54725 0.0245975 0.068986
0.582071 0.0247654 0.075227
0.61706 0.0320745 0.083238
0.647929 0.0393378 0.0888075
0.672923 0.0418402 0.0932784
0.686824 0.0434424 0.0998093
0.690547 0.043946 0.1066
0.693492 0.0442512 0.113024
0.696132 0.0444495 0.118746
0.697337 0.0443427 0.122713
0.698756 0.0444343 0.126009
0.700191 0.0445716 0.128985
0.701534 0.0446937 0.131548
0.702571 0.0448615 0.133913
0.703548 0.0449836 0.136034
0.70428 0.0450752 0.138033
0.705058 0.0451667 0.139864
0.705715 0.0452583 0.141039
0.70631 0.0453193 0.142306
0.706813 0.0453956 0.143496
0.707271 0.0454414 0.14461
0.707622 0.0454871 0.145663
0.707835 0.0455634 0.146532
0.707942 0.045655 0.147295
0.707942 0.0457465 0.147982
0.707897 0.0458686 0.148501
0.707835 0.0459907 0.148943
0.707759 0.046067 0.14934
0.707759 0.0461433 0.149706
0.707805 0.0461891 0.149981
0.707866 0.0462043 0.150179
0.707958 0.0462348 0.150362
0.708034 0.0462348 0.15053
0.708141 0.0462348 0.150729
0.708339 0.0461891 0.150851
0.708675 0.0461128 0.150942
0.709148 0.0459754 0.151049
0.709728 0.0457923 0.15111
0.0215915 0.0542306 0.0601053
0.021561 0.0540627 0.06009
0.021561 0.0539101 0.06009
0.0216983 0.0536507 0.0600595
0.0221866 0.0531167 0.0599374
0.0225376 0.0525063 0.0597086
0.0238499 0.0518502 0.0595254
0.0268101 0.0526436 0.060029
0.0311284 0.0532235 0.0604257
0.0384222 0.0527199 0.0601663
0.0492103 0.0510567 0.0610361
0.0618753 0.0487678 0.0594949
0.0776379 0.047364 0.0585794
0.0944991 0.0460975 0.0581826
0.115709 0.0441596 0.056733
0.137575 0.0426032 0.0560922
0.161105 0.0407263 0.0551461
0.186755 0.0392462 0.054078
0.213474 0.0377508 0.0529641
0.2439 0.0365759 0.0521248
0.276265 0.035462 0.0511482
0.310445 0.0338445 0.0508736
0.348333 0.0320134 0.050721
0.387182 0.0297093 0.0503395
0.427756 0.0271458 0.0505531
0.467918 0.0247654 0.0515297
0.504753 0.0234684 0.0545968
0.540368 0.0225834 0.0594949
0.578424 0.0297398 0.0686351
0.614496 0.0365759 0.0766918
0.643748 0.0392462 0.0808423
0.668406 0.0415351 0.0841077
0.681437 0.0426642 0.0892042
0.686229 0.0432288 0.0959029
0.689235 0.0435798 0.102403
0.692012 0.0438697 0.108675
0.69453 0.0441444 0.114229
0.69688 0.0442664 0.119509
0.697826 0.0442359 0.123003
0.698985 0.044358 0.125841
0.700114 0.0444953 0.128466
0.701152 0.0446174 0.130602
0.702052 0.0447547 0.132525
0.702754 0.0448768 0.134295
0.703456 0.0449683 0.135775
0.703975 0.0450446 0.137179
0.704463 0.0450904 0.13846
0.704952 0.0451514 0.139574
0.705318 0.0451972 0.140322
0.705608 0.0452583 0.140917
0.705852 0.0453193 0.141573
0.705928 0.0453956 0.142214
0.705943 0.0455024 0.142748
0.705852 0.0456092 0.143145
0.70573 0.045716 0.143572
0.705653 0.0458076 0.143908
0.705608 0.0458686 0.144213
0.705623 0.0459144 0.144503
0.705669 0.0459297 0.144701
0.705715 0.0459449 0.1449
0.705821 0.0459449 0.145037
0.706004 0.0458991 0.145129
0.706371 0.0458076 0.145266
0.706813 0.0456703 0.145296
0.707469 0.0454871 0.145357
0.0217899 0.059556 0.0607767
0.0218357 0.0594644 0.060853
0.0218814 0.059266 0.0609445
0.0219425 0.0590066 0.0609751
0.0226444 0.0584421 0.0609903
0.0236667 0.0576486 0.0610971
0.025391 0.0568093 0.0611582
0.0289158 0.0565957 0.061265
0.0327764 0.0569619 0.0617227
0.0395514 0.057023 0.0620584
0.049012 0.0563058 0.0621653
0.0616312 0.0551003 0.0619516
0.0758526 0.0531014 0.0594186
0.0916762 0.050309 0.0571298
0.111131 0.0473945 0.0564431
0.132326 0.0449683 0.0556344
0.156268 0.0431067 0.0548257
0.181918 0.0414282 0.0536507
0.209918 0.0400702 0.0528115
0.240681 0.0388342 0.0519265
0.272984 0.0374609 0.051133
0.307729 0.035584 0.0507668
0.345449 0.0335241 0.05037
0.385275 0.0312963 0.0502937
0.425589 0.0288396 0.0505074
0.466835 0.0261845 0.0514229
0.50338 0.0243229 0.0534218
0.536248 0.0225376 0.0549783
0.572457 0.0294194 0.0609598
0.606653 0.0357366 0.0677958
0.636362 0.038407 0.0728771
0.660151 0.040589 0.0759899
0.673442 0.0420233 0.0799115
0.678645 0.0422522 0.0840314
0.682612 0.0426642 0.0890516
0.686351 0.0430152 0.0950332
0.689296 0.0433356 0.101061
0.692027 0.0436408 0.106996
0.694362 0.0438849 0.112261
0.696605 0.0441596 0.117479
0.697414 0.0441291 0.120409
0.698329 0.0441291 0.123445
0.699184 0.0442512 0.125429
0.699962 0.044358 0.127565
0.700694 0.0444648 0.12903
0.701335 0.0445411 0.130404
0.7019 0.0446326 0.131792
0.702312 0.0447242 0.132723
0.702647 0.0448005 0.133639
0.703029 0.0448463 0.134554
0.703288 0.044892 0.135195
0.703441 0.0449683 0.135805
0.703471 0.0450294 0.136324
0.703426 0.0451209 0.136812
0.703288 0.0452277 0.13724
0.70312 0.0453193 0.137575
0.703029 0.0454261 0.137957
0.702937 0.0454871 0.13817
0.702937 0.0455329 0.138415
0.702968 0.0455634 0.138598
0.702998 0.0455634 0.138674
0.703227 0.0455177 0.138827
0.703548 0.0454261 0.138842
0.704036 0.045304 0.138903
0.704677 0.0451209 0.138872
0.0209659 0.066804 0.0600748
0.0209506 0.0666361 0.0601205
0.0209354 0.0663462 0.0601663
0.0209812 0.0661021 0.0602579
0.0212863 0.0655985 0.0603647
0.0229801 0.0647593 0.060853
0.0252995 0.0636454 0.061326
0.027924 0.0626383 0.0615091
0.0330663 0.0627909 0.061738
0.0400549 0.0626993 0.062562
0.0499886 0.0622721 0.0636301
0.0619364 0.0615244 0.0638132
0.077348 0.060029 0.0622873
0.0925917 0.057908 0.06009
0.111788 0.0554818 0.0573892
0.133684 0.0519112 0.0544137
0.155062 0.0485695 0.0538033
0.177966 0.0445411 0.0532235
0.205951 0.0424964 0.0525063
0.236912 0.0411841 0.0518959
0.269947 0.0396124 0.0510872
0.304585 0.0374914 0.0505989
0.342412 0.0352331 0.0501717
0.382574 0.032929 0.0499733
0.424033 0.0304875 0.0504616
0.466072 0.027924 0.0515755
0.502297 0.0259709 0.0534524
0.536324 0.0239261 0.0551766
0.571374 0.0295567 0.0600748
0.604532 0.0355077 0.0649577
0.632898 0.0377203 0.0680247
0.654566 0.0395056 0.0700542
0.66627 0.0407874 0.0728771
0.670726 0.0413672 0.0758068
0.674083 0.0418097 0.0788281
0.677089 0.0419013 0.0818799
0.680613 0.0423133 0.0858625
0.683833 0.0427558 0.0905928
0.686763 0.043061 0.0958724
0.689082 0.0433509 0.100816
0.690898 0.0435798 0.105394
0.692851 0.0437934 0.109682
0.69427 0.0439612 0.113024
0.696254 0.0442206 0.117006
0.696864 0.0442054 0.118868
0.697383 0.0441749 0.120714
0.697719 0.0441444 0.122271
0.698344 0.0441596 0.123644
0.698787 0.0442206 0.124712
0.699138 0.0442817 0.125551
0.699504 0.0443122 0.126482
0.699748 0.044358 0.127031
0.699901 0.0444038 0.12752
0.700008 0.0444648 0.127993
0.699977 0.0445411 0.128313
0.699916 0.0446326 0.12871
0.699763 0.0447242 0.129
0.699657 0.0448157 0.12932
0.699565 0.0448768 0.129519
0.699489 0.0449226 0.129656
0.699535 0.0449531 0.12987
0.699611 0.0449378 0.129931
0.699779 0.0449073 0.130053
0.699962 0.0448615 0.130083
0.700221 0.0448005 0.130114
0.0194705 0.0757458 0.0580453
0.0195163 0.0755169 0.0580911
0.0195621 0.075288 0.0581674
0.0195926 0.074815 0.0582437
0.0196231 0.0744182 0.0582895
0.0209201 0.0735485 0.0586557
0.0235599 0.0723278 0.0592966
0.0263371 0.0708934 0.0599985
0.0305333 0.0705577 0.0603037
0.0385748 0.0706798 0.0604562
0.0485847 0.0703899 0.061326
0.0623636 0.0695964 0.0626383
0.0784314 0.0682231 0.0650187
0.0937667 0.0661784 0.063859
0.114488 0.0633097 0.0615091
0.135225 0.0605631 0.0587778
0.157275 0.0575875 0.0558022
0.181613 0.0528725 0.0521401
0.206699 0.0492409 0.0511635
0.233982 0.0452277 0.0510414
0.265675 0.042359 0.0507668
0.301122 0.0399023 0.0505074
0.338781 0.0375219 0.0500038
0.378943 0.0349126 0.0497444
0.421027 0.0323186 0.0499886
0.463493 0.0298466 0.0511482
0.50106 0.0276036 0.0531472
0.535073 0.025452 0.0550698
0.567834 0.0233158 0.0570077
0.603128 0.0316167 0.0631876
0.633051 0.0379187 0.0678569
0.65565 0.0397803 0.0695354
0.664683 0.0407111 0.0699321
0.66508 0.0407568 0.0700084
0.665461 0.0408484 0.0711528
0.667781 0.0411383 0.0733349
0.670481 0.0415045 0.0757153
0.673335 0.041825 0.0783246
0.67602 0.0419165 0.0808423
0.678706 0.0420996 0.0835431
0.681605 0.0423896 0.0869764
0.683894 0.04271 0.0905165
0.685908 0.0429236 0.0943008
0.687526 0.0431067 0.097322
0.689021 0.0433051 0.100587
0.690059 0.0434424 0.102922
0.690898 0.043534 0.105104
0.692119 0.0436713 0.1075
0.692699 0.0437324 0.10901
0.693233 0.0437934 0.11046
0.693507 0.0438239 0.111269
0.695262 0.0440223 0.113527
0.695552 0.0440681 0.114458
0.695659 0.0441138 0.114992
0.695796 0.0441749 0.115724
0.695735 0.0442206 0.116075
0.69572 0.0443122 0.11667
0.695598 0.0443885 0.11696
0.695399 0.0444495 0.117159
0.695323 0.0445106 0.117571
0.695216 0.0445411 0.117662
0.695262 0.0445411 0.117876
0.695354 0.0445258 0.117891
0.695491 0.0444648 0.117845
0.695781 0.044419 0.118044
0.0178683 0.0866255 0.055787
0.0178378 0.0865187 0.0552071
0.0178531 0.0860456 0.0552682
0.0178836 0.0856794 0.0553597
0.0179446 0.0851759 0.0554818
0.0184787 0.0844892 0.0556802
0.02121 0.0834516 0.0565042
0.0244297 0.0819104 0.0574197
0.027451 0.0803998 0.0580301
0.0346227 0.0809339 0.057908
0.0462959 0.0805982 0.0575875
0.0597238 0.0797589 0.0585641
0.0790265 0.0786908 0.0645151
0.0950637 0.0769665 0.0656596
0.116533 0.0740368 0.0657054
0.138125 0.0709544 0.0636149
0.161105 0.0667735 0.0604562
0.185138 0.0628824 0.0569924
0.211032 0.0583047 0.0543221
0.239673 0.0526589 0.050782
0.268437 0.0482643 0.0500038
0.298894 0.0438392 0.0500496
0.33434 0.0405127 0.0498512
0.374929 0.0375677 0.0494545
0.417121 0.0345312 0.0495155
0.460807 0.0315709 0.0503853
0.49897 0.0296025 0.0525521
0.534249 0.0272984 0.054612
0.56788 0.0250248 0.0567788
0.602655 0.0321508 0.062562
0.634043 0.0379797 0.0674296
0.658381 0.0400397 0.0697948
0.670787 0.0412299 0.0708019
0.671931 0.0413367 0.0706798
0.669963 0.0411536 0.0703899
0.668086 0.0410163 0.0701457
0.666468 0.0409094 0.0700236
0.665843 0.0408942 0.0704509
0.666529 0.041001 0.0716106
0.668284 0.0412146 0.0732586
0.670344 0.041474 0.0750134
0.67219 0.0416876 0.0766766
0.673945 0.0418708 0.0783551
0.675547 0.0419165 0.0799725
0.676921 0.0419165 0.0814984
0.678187 0.0420386 0.0828717
0.679683 0.0421912 0.0845808
0.680873 0.0423285 0.0859388
0.681971 0.0424659 0.0874342
0.682719 0.0425574 0.0886854
0.683406 0.042649 0.0896925
0.684047 0.0427253 0.0910964
0.684489 0.0427863 0.0919356
0.684962 0.0428321 0.0927749
0.685206 0.0428779 0.0932937
0.685313 0.0429084 0.0936751
0.685542 0.0429847 0.094377
0.685481 0.0430457 0.0947433
0.685542 0.0431525 0.0953536
0.685374 0.0432288 0.0956283
0.685374 0.0433051 0.0959487
0.685328 0.0433509 0.0960403
0.685344 0.0433356 0.0960708
0.685618 0.0433204 0.0962692
0.685863 0.0432746 0.0962997
0.0158083 0.100999 0.0520638
0.0159457 0.100847 0.0508583
0.0159915 0.100664 0.0508888
0.016083 0.100404 0.0510567
0.0161746 0.0997482 0.0512703
0.0162966 0.0991836 0.0514534
0.0181125 0.0980392 0.0522621
0.0219577 0.0968185 0.0530709
0.0250553 0.0951247 0.0541085
0.0310826 0.0939498 0.0546426
0.0409705 0.0940261 0.0539101
0.0564584 0.0927596 0.0543526
0.0765087 0.0913558 0.0590524
0.0953841 0.0907301 0.0649729
0.118395 0.0885176 0.0668498
0.141665 0.0848096 0.0675822
0.165423 0.0808576 0.066041
0.191745 0.0755779 0.0633555
0.217945 0.0701457 0.059968
0.246265 0.0638895 0.0565805
0.275715 0.057557 0.0527504
0.306172 0.0509041 0.0493324
0.338735 0.0463722 0.0488136
0.372244 0.041474 0.0491035
0.412909 0.0375372 0.0490883
0.456382 0.0341039 0.0494698
0.495506 0.0316777 0.0514076
0.532433 0.0294804 0.0540475
0.566384 0.0268864 0.0558938
0.601923 0.0325475 0.061265
0.633997 0.0379644 0.0664073
0.660853 0.0402686 0.0695659
0.676524 0.0418555 0.071397
0.679164 0.041886 0.071397
0.677729 0.0419013 0.0714275
0.676097 0.041886 0.071397
0.674464 0.0417792 0.0712139
0.672892 0.0416419 0.0710307
0.671244 0.0415198 0.0708171
0.669917 0.0413825 0.0706188
0.668513 0.0412451 0.0704051
0.667643 0.0411231 0.0702525
0.666987 0.0410468 0.0703136
0.66659 0.0410163 0.0704967
0.666987 0.041062 0.0711223
0.667674 0.0411231 0.0718853
0.668376 0.0412299 0.0725567
0.669108 0.0413367 0.0732128
0.669917 0.041413 0.0739147
0.670619 0.0414893 0.0744945
0.671153 0.0415656 0.0749523
0.671565 0.0416266 0.0751965
0.671946 0.0416571 0.0755474
0.672236 0.0416876 0.0758068
0.672526 0.0417182 0.0760662
0.672831 0.0417639 0.0763714
0.672999 0.0417945 0.0765698
0.673152 0.0418555 0.0768444
0.673121 0.0419013 0.076997
0.673121 0.0419776 0.0772412
0.672969 0.0420539 0.077348
0.672862 0.0420996 0.0774243
0.672938 0.0421302 0.0775769
0.672984 0.0421302 0.0775769
0.673274 0.0420996 0.0776837
0.0139162 0.116197 0.0480659
0.0140383 0.11603 0.0467994
0.0141146 0.115816 0.046067
0.0141299 0.115297 0.0460975
0.0141604 0.115038 0.0461891
0.0142367 0.114427 0.0463874
0.0147707 0.113787 0.0466621
0.0184176 0.112703 0.0477455
0.0222934 0.111421 0.0483711
0.0269169 0.109728 0.0495003
0.0360418 0.109453 0.0498054
0.0496376 0.109392 0.0498512
0.0715496 0.107179 0.0521859
0.0938125 0.105531 0.060502
0.117311 0.105821 0.0647898
0.142321 0.103212 0.0674754
0.16939 0.0998703 0.069276
0.196628 0.0949416 0.0689555
0.224948 0.0891432 0.0669261
0.255772 0.0819715 0.063508
0.286168 0.0749371 0.0595712
0.316503 0.067689 0.055314
0.347692 0.0583047 0.0514534
0.381994 0.0496681 0.0475013
0.417762 0.0439918 0.0471046
0.453315 0.0379797 0.0483253
0.492103 0.0343175 0.0500496
0.529564 0.0319829 0.0524758
0.56524 0.0294957 0.0551003
0.597711 0.0267185 0.0571145
0.63238 0.0344244 0.0634928
0.66215 0.0404212 0.0685893
0.681483 0.0420691 0.0712139
0.686961 0.0426032 0.0720226
0.685405 0.0424811 0.0719158
0.683818 0.0423896 0.07187
0.682277 0.0423133 0.0717784
0.680888 0.0421759 0.0716259
0.679515 0.0420996 0.0715496
0.678401 0.0420996 0.0715801
0.67744 0.0420996 0.0715953
0.676646 0.0420996 0.0716106
0.675883 0.0420386 0.0715343
0.675044 0.0419623 0.0714275
0.674311 0.0418555 0.0712902
0.673732 0.0417945 0.0711833
0.67303 0.0417182 0.0710918
0.672557 0.0416724 0.0710307
0.672145 0.0416266 0.0709544
0.671672 0.0415808 0.0709087
0.671366 0.0415503 0.0708476
0.67097 0.0415045 0.0708019
0.670787 0.0414893 0.0707713
0.670649 0.041474 0.0707408
0.670405 0.0414435 0.0706798
0.670344 0.0414282 0.0706798
0.67013 0.041413 0.070634
0.670039 0.041413 0.0706188
0.669932 0.0414282 0.070634
0.669642 0.0414435 0.0706493
0.66949 0.0415045 0.0706798
