bundles/resolve-cinematic-luts/Phantom Luts/Komodo Phantom ARRI LUTs G2/Komodo Phantom ARRI LUTs G2/65x/WB Offset - Green Boost/Utopia_Komodo_WBO_G2_65x.cube
TITLE "Generated by Resolve"
LUT_3D_SIZE 9
0.00749218 0.0330663 0.0417792
0.0511177 0.0299992 0.0417945
0.222324 0.0137942 0.0352636
0.504005 0.0124819 0.0806439
0.724025 0.0244602 0.153429
0.734768 0.0251774 0.183856
0.735668 0.0264591 0.200015
0.736507 0.0270237 0.20679
0.739696 0.0262913 0.208637
0.00518807 0.0665446 0.0388647
0.0274815 0.0589609 0.0421302
0.200351 0.0309911 0.0317845
0.484855 0.00773632 0.0408179
0.700847 0.0196994 0.0803082
0.721508 0.0224918 0.125994
0.727779 0.0231479 0.150912
0.72755 0.0239109 0.156603
0.727672 0.0240482 0.158083
0 0.261509 0.00311284
0 0.256687 0
0.210483 0.23949 0.0413214
0.552254 0.205005 0.107103
0.735897 0.0241093 0.0409705
0.740841 0.024033 0.0711376
0.735348 0.0247654 0.0737316
0.734737 0.0247196 0.0742504
0.73756 0.0239261 0.0734722
0.0347448 0.616037 0.0497749
0.0430304 0.615641 0.00762951
0.100206 0.611246 0.00350958
0.567315 0.569879 0.107073
0.851514 0.616724 0.182589
0.90457 0.601297 0.183871
0.90779 0.579049 0.186954
0.909026 0.571801 0.18822
0.909316 0.570184 0.185122
0.158648 0.933959 0.157488
0.175143 0.937057 0.114
0.236378 0.947433 0.0906691
0.548653 0.883818 0.148531
0.913512 0.892607 0.273915
0.996048 0.890959 0.310094
0.995483 0.887404 0.306447
0.995239 0.886412 0.305394
0.995102 0.886336 0.304311
0.13489 0.995239 0.288396
0.135866 0.995315 0.283238
0.137804 0.995514 0.268513
0.185306 0.991165 0.13463
0.861875 0.934707 0.332509
0.999969 0.953674 0.402823
0.999969 0.953964 0.41326
0.999969 0.954009 0.413031
0.999969 0.954101 0.412451
0.133349 0.995392 0.291691
0.135637 0.995117 0.287892
0.139803 0.995071 0.273198
0.153979 0.993713 0.19852
0.826429 0.935103 0.316182
0.999924 0.953445 0.391043
0.999969 0.954116 0.412375
0.999969 0.95404 0.412818
0.999969 0.954025 0.413001
0.133761 0.995254 0.293462
0.13193 0.995789 0.286946
0.136416 0.995697 0.271778
0.147112 0.994537 0.215854
0.816495 0.935958 0.31136
0.999451 0.95317 0.388083
0.999969 0.954009 0.413046
0.999969 0.95404 0.412909
0.999969 0.953964 0.413291
0.134646 0.995056 0.294606
0.133501 0.995468 0.288197
0.137057 0.99556 0.272435
0.147341 0.994446 0.219013
0.815793 0.935851 0.311192
0.998993 0.953384 0.386206
0.999969 0.954055 0.412711
0.999969 0.954055 0.412787
0.999969 0.95404 0.412802
0 0.0364233 0.0720073
0.0468452 0.0325322 0.0832074
0.231571 0.0254978 0.0897078
0.514794 0.0204776 0.133654
0.740856 0.024918 0.20177
0.747982 0.0259403 0.232578
0.746807 0.0272984 0.244221
0.746761 0.0276188 0.248264
0.747906 0.0273136 0.249714
0.00613413 0.0533608 0.0628519
0.0198672 0.0466926 0.0546731
0.203708 0.0167697 0.037995
0.49839 0.0142519 0.0842451
0.730404 0.0220798 0.155016
0.7402 0.0238651 0.186786
0.743282 0.0246128 0.203937
0.742779 0.0254826 0.210239
0.743206 0.0255131 0.2121
0 0.251835 0.0572213
0 0.24744 0.0121614
0.201511 0.230671 0.0409094
0.548623 0.178378 0.0994583
0.727749 0.0219272 0.057969
0.732952 0.0224613 0.076112
0.729274 0.0222629 0.0770581
0.728313 0.0221561 0.0772869
0.729198 0.0217899 0.0770275
0.0213169 0.609384 0.0996109
0.0315099 0.608927 0.0547494
0.0696269 0.604715 0
0.562615 0.565744 0.105684
0.851575 0.608408 0.186267
0.906188 0.589303 0.184283
0.909987 0.564401 0.186007
0.911254 0.556634 0.186633
0.911711 0.555016 0.184466
0.135653 0.927855 0.206622
0.154009 0.930526 0.163943
0.234379 0.945022 0.0882429
0.52604 0.884504 0.139178
0.910903 0.890379 0.272358
0.995529 0.888533 0.306874
0.994766 0.884413 0.302632
0.994492 0.882979 0.301228
0.994339 0.88278 0.300221
0.133761 0.995254 0.293736
0.134569 0.99527 0.289006
0.136889 0.995575 0.273243
0.166552 0.992706 0.163989
0.85716 0.934539 0.330526
0.999969 0.953674 0.402411
0.999969 0.954009 0.413016
0.999969 0.954025 0.413016
0.999969 0.954101 0.412467
0.132448 0.995377 0.297154
0.133684 0.9953 0.292699
0.138872 0.995071 0.277043
0.147158 0.994446 0.224399
0.821225 0.935668 0.313863
0.999786 0.953384 0.38938
0.999969 0.954101 0.412436
0.999969 0.95404 0.412863
0.999969 0.954009 0.413016
0.132982 0.995239 0.29897
0.13106 0.995743 0.292454
0.136141 0.995605 0.275822
0.143526 0.99501 0.237552
0.809873 0.936202 0.308003
0.998932 0.953231 0.386023
0.999969 0.954009 0.413062
0.999969 0.954025 0.412924
0.999969 0.953948 0.413321
0.1337 0.995071 0.300038
0.132692 0.995438 0.29395
0.136614 0.995499 0.27631
0.144198 0.994797 0.240604
0.809293 0.936156 0.307973
0.998611 0.953246 0.385077
0.999969 0.954055 0.412757
0.999969 0.954055 0.412787
0.999969 0.954055 0.412787
0 0.0499275 0.216129
0.0211032 0.0398108 0.232563
0.231769 0.0290227 0.235065
0.517845 0.0493935 0.258991
0.752941 0.0485695 0.323629
0.760098 0.0586709 0.34461
0.761639 0.0644083 0.354376
0.760998 0.0671855 0.357519
0.76199 0.0676585 0.359014
0 0.0640269 0.179843
0 0.0454719 0.20943
0.213123 0.0289158 0.218112
0.512856 0.0462348 0.234226
0.748287 0.0347295 0.294881
0.755764 0.0430457 0.316167
0.755917 0.049134 0.326299
0.754696 0.0518959 0.329717
0.755611 0.0523079 0.331151
0 0.207034 0.198917
0 0.202777 0.193652
0.168658 0.208743 0.197665
0.539574 0.123171 0.160601
0.724865 0.021561 0.139269
0.740459 0.0226749 0.173129
0.741512 0.0240177 0.190433
0.742412 0.0241245 0.196033
0.743862 0.0238804 0.197711
0 0.577462 0.235035
0 0.57966 0.208316
0.0184634 0.580346 0.0705425
0.546181 0.550011 0.0999771
0.855024 0.578912 0.192554
0.913115 0.538735 0.186923
0.913741 0.508995 0.192309
0.913725 0.497932 0.193759
0.913939 0.496971 0.191653
0.0842908 0.904509 0.347158
0.0927749 0.907866 0.315557
0.141817 0.915129 0.183276
0.438132 0.887266 0.106996
0.902037 0.882185 0.268666
0.993301 0.878416 0.296345
0.992294 0.872984 0.291508
0.99173 0.870924 0.289509
0.99176 0.871 0.289555
0.123827 0.994766 0.35137
0.130098 0.995193 0.315312
0.133562 0.995392 0.290455
0.143252 0.995041 0.241474
0.840284 0.934539 0.323262
0.999969 0.953552 0.400992
0.999969 0.954055 0.412757
0.999969 0.95404 0.412863
0.999969 0.954116 0.412299
0.119005 0.993774 0.384649
0.124987 0.994766 0.347631
0.133089 0.995361 0.294301
0.140047 0.995163 0.266667
0.797223 0.937148 0.301869
0.998734 0.953094 0.385412
0.999969 0.954116 0.412329
0.999969 0.954055 0.412802
0.999969 0.954009 0.413031
0.117769 0.992889 0.396948
0.12047 0.994812 0.361685
0.130419 0.995819 0.294179
0.13846 0.995438 0.267475
0.784115 0.937987 0.294957
0.996704 0.952972 0.381277
0.999969 0.954116 0.41239
0.999969 0.953994 0.413138
0.999969 0.953933 0.413443
0.117861 0.992493 0.401663
0.121843 0.994308 0.367651
0.133425 0.995224 0.29662
0.140871 0.994965 0.26923
0.782986 0.937926 0.294575
0.996002 0.953002 0.380056
0.999969 0.954192 0.411978
0.999969 0.954055 0.412787
0.999969 0.954055 0.412802
0 0.0653849 0.43772
0 0.0510262 0.447837
0.181262 0.0415045 0.46746
0.510979 0.0458686 0.48452
0.728054 0.0440528 0.489967
0.733043 0.0443427 0.506249
0.733288 0.0445563 0.513588
0.732174 0.0452277 0.516167
0.731884 0.0454108 0.517113
0 0.103807 0.415976
0 0.0624857 0.436149
0.146304 0.0428473 0.463111
0.504799 0.0453651 0.479255
0.728573 0.0425116 0.481315
0.733761 0.0434882 0.496696
0.733364 0.0440528 0.502556
0.730434 0.045243 0.503365
0.729747 0.0455177 0.503883
0 0.194385 0.351934
0 0.183474 0.356252
0 0.0886397 0.453696
0.472343 0.0447547 0.445121
0.728054 0.0451057 0.440665
0.739437 0.0445563 0.453727
0.738109 0.0433356 0.457725
0.735805 0.043473 0.458106
0.734524 0.0435798 0.458152
0 0.4981 0.464042
0 0.496284 0.460716
0 0.487175 0.444938
0.4589 0.49218 0.446403
0.852171 0.433249 0.426825
0.898466 0.354147 0.390463
0.889403 0.313939 0.371099
0.886122 0.300862 0.364309
0.885817 0.298955 0.363989
0.00885023 0.852155 0.540505
0.0126345 0.852918 0.531167
0.0264134 0.852979 0.494987
0.106538 0.869474 0.235157
0.844984 0.835782 0.276249
0.984207 0.846372 0.262745
0.97995 0.836393 0.249363
0.978653 0.833326 0.247562
0.978439 0.832944 0.245792
0.0695506 0.9776 0.54284
0.0759136 0.978714 0.536187
0.100069 0.984649 0.506874
0.134463 0.995026 0.296696
0.77142 0.93904 0.288609
0.999878 0.953429 0.39057
0.999969 0.954116 0.41355
0.999969 0.954147 0.413825
0.999969 0.954208 0.413581
0.0603494 0.976181 0.554452
0.067216 0.977035 0.545846
0.0941787 0.982361 0.517479
0.131914 0.995453 0.297765
0.704479 0.945235 0.254948
0.988693 0.952667 0.373388
0.999969 0.954086 0.412512
0.999969 0.95407 0.412619
0.999969 0.95404 0.412924
0.0575418 0.975479 0.559472
0.0620584 0.976867 0.550134
0.0890669 0.981872 0.520592
0.130343 0.995682 0.298817
0.681331 0.948257 0.244907
0.980606 0.95227 0.368032
0.999969 0.954086 0.411353
0.999969 0.954101 0.412467
0.999969 0.953948 0.413352
0.0580911 0.974716 0.562493
0.0627909 0.976028 0.553124
0.089601 0.981018 0.523064
0.132601 0.995224 0.301747
0.67631 0.948974 0.242695
0.977996 0.952331 0.36582
0.999969 0.954147 0.410147
0.999969 0.954162 0.412161
0.999969 0.95404 0.412909
0 0.0789807 0.631693
0 0.0577096 0.630823
0.136141 0.0595712 0.656687
0.470848 0.0678111 0.688136
0.753231 0.0959335 0.7205
0.758175 0.0982071 0.737148
0.757305 0.0988174 0.742458
0.757397 0.0988632 0.744823
0.756481 0.0992752 0.744778
0 0.11249 0.63537
0 0.0757916 0.631357
0.10132 0.0607462 0.652964
0.458183 0.0665141 0.686198
0.754513 0.0949721 0.719936
0.759793 0.0972457 0.735256
0.759457 0.0978714 0.740673
0.757916 0.0986038 0.740688
0.754971 0.0998703 0.73846
0 0.206424 0.616434
0 0.193439 0.626978
0 0.0616312 0.622583
0.399466 0.0614939 0.670802
0.746731 0.0910506 0.706065
0.763302 0.093904 0.720027
0.7626 0.0951095 0.723674
0.761151 0.0957961 0.723751
0.759121 0.0966964 0.722545
0 0.486732 0.643534
0 0.483223 0.643839
0 0.463218 0.641566
0.276326 0.355413 0.747127
0.791211 0.296925 0.740841
0.797543 0.16669 0.684092
0.771939 0.110384 0.652277
0.761837 0.0932174 0.639811
0.761044 0.0905623 0.638697
0 0.772824 0.72459
0 0.772442 0.724117
0 0.76849 0.718654
0 0.755306 0.696727
0.72314 0.74493 0.702449
0.935027 0.732937 0.697536
0.932097 0.716854 0.686702
0.931899 0.71223 0.68336
0.931487 0.711772 0.682933
0.0153048 0.960571 0.721035
0.0168917 0.960571 0.717296
0.0169985 0.962173 0.701991
0.0238956 0.966018 0.648981
0.490806 0.994522 0.46099
0.983688 0.962127 0.573312
0.999969 0.95642 0.469535
0.999969 0.957122 0.483833
0.999969 0.957321 0.487495
0.0116884 0.960479 0.730846
0.0128786 0.960616 0.726314
0.0130465 0.962463 0.707988
0.0200046 0.968002 0.648035
0.223926 0.996643 0.320027
0.963424 0.950301 0.358801
0.999969 0.953765 0.407263
0.999969 0.953887 0.410513
0.999969 0.953994 0.409903
0.0142214 0.959457 0.735836
0.0130922 0.960082 0.731029
0.0128481 0.962112 0.711696
0.0194858 0.96788 0.649638
0.178271 0.996658 0.325078
0.948989 0.948257 0.352728
0.999969 0.953765 0.402365
0.999969 0.954055 0.409903
0.999969 0.953902 0.410712
0.0149538 0.95903 0.738552
0.0145113 0.959472 0.733623
0.0139315 0.961593 0.714107
0.0209201 0.96733 0.65124
0.176501 0.996277 0.330465
0.945235 0.94754 0.351659
0.999969 0.953704 0.401221
0.999969 0.954086 0.409735
0.999969 0.953979 0.410224
0 0.0642557 0.695247
0 0.0606699 0.700114
0.138231 0.0633402 0.722164
0.446357 0.0705272 0.751766
0.747738 0.105806 0.774517
0.751369 0.105547 0.775784
0.751598 0.105455 0.775967
0.751842 0.105333 0.77641
0.751827 0.105333 0.776394
0 0.0809033 0.695644
0 0.0639353 0.697047
0.106065 0.0639811 0.719554
0.431495 0.0692607 0.750439
0.746838 0.105425 0.775326
0.751995 0.105257 0.77673
0.752087 0.105211 0.776867
0.751873 0.105318 0.776471
0.749996 0.106126 0.774243
0 0.199817 0.718761
0 0.174838 0.718944
0 0.0628214 0.696849
0.363073 0.0658274 0.742245
0.735973 0.104234 0.775204
0.753658 0.104509 0.778851
0.752468 0.105043 0.777356
0.752056 0.105226 0.776822
0.750896 0.105745 0.775357
0 0.412375 0.725261
0 0.404303 0.725246
0 0.369879 0.72166
0.114199 0.162539 0.77348
0.664805 0.13611 0.79617
0.75378 0.107622 0.778637
0.75259 0.106722 0.777173
0.751431 0.107073 0.775891
0.752056 0.106813 0.776471
0 0.718883 0.823026
0 0.717815 0.823285
0 0.709697 0.819318
0 0.684779 0.816999
0.598321 0.6645 0.899931
0.91635 0.65008 0.891386
0.913497 0.63389 0.88426
0.912978 0.629297 0.882292
0.912474 0.629114 0.882124
0.0126955 0.916655 0.866972
0.0163729 0.91429 0.864469
0.0116426 0.907042 0.85626
0.000488289 0.883238 0.829023
0.164324 0.908492 0.855253
0.907729 0.913725 0.893004
0.972168 0.914183 0.89073
0.971496 0.910307 0.888411
0.970291 0.909804 0.88864
0.0273289 0.94139 0.886839
0.0325475 0.940627 0.883558
0.0308385 0.942138 0.874754
0.0261997 0.946242 0.846021
0.021149 0.964446 0.7879
0.840543 0.986511 0.80087
0.999832 0.977264 0.768124
0.999969 0.969635 0.648508
0.999969 0.971038 0.664103
0.0301518 0.940169 0.890883
0.0288701 0.940749 0.888655
0.0267796 0.942626 0.878737
0.0217441 0.947234 0.846647
0.0181582 0.964019 0.776699
0.805371 0.988174 0.780026
0.995254 0.977035 0.755993
0.999969 0.953765 0.406424
0.999969 0.953796 0.406332
0.0322423 0.939422 0.8925
0.0319066 0.939818 0.889937
0.0299535 0.941711 0.879805
0.0243534 0.946548 0.847166
0.0197604 0.963546 0.774868
0.794308 0.98909 0.776425
0.98996 0.97792 0.760632
0.999969 0.953887 0.404166
0.999969 0.953826 0.406271
0 0.0612497 0.699153
0.00735485 0.0582437 0.704524
0.16286 0.0628824 0.724056
0.462913 0.0715953 0.753582
0.750332 0.105974 0.774655
0.751629 0.10544 0.776013
0.750912 0.10573 0.775372
0.750713 0.105806 0.775143
0.751842 0.105318 0.77641
0 0.0647135 0.694408
0 0.0610361 0.700404
0.130205 0.0634775 0.721675
0.448081 0.070634 0.752209
0.750027 0.105409 0.775814
0.752026 0.105241 0.776791
0.75201 0.105241 0.776776
0.75172 0.105394 0.776165
0.749767 0.106233 0.773953
0 0.185061 0.71957
0 0.137728 0.710231
0 0.0603342 0.70045
0.379248 0.0665904 0.743923
0.742702 0.104936 0.775464
0.753506 0.104585 0.778668
0.752331 0.105104 0.777173
0.752117 0.105196 0.776913
0.751339 0.105562 0.775753
0 0.3626 0.721401
0 0.353826 0.721675
0 0.318959 0.719371
0.0779583 0.0874189 0.733364
0.64213 0.0964065 0.772793
0.752453 0.105852 0.777264
0.7523 0.105486 0.777081
0.750759 0.10605 0.775158
0.751461 0.105806 0.775906
0 0.701442 0.840101
0 0.701289 0.841703
0 0.693706 0.838666
0 0.666606 0.827893
0.56614 0.619181 0.916152
0.901656 0.603876 0.910231
0.898848 0.586343 0.907607
0.898177 0.580835 0.906477
0.898024 0.580285 0.906386
0.0102235 0.879805 0.905348
0.0122988 0.878325 0.904463
0.0087892 0.867582 0.900923
0.0012665 0.819593 0.881743
0.0172274 0.838422 0.909804
0.844343 0.870329 0.955825
0.962432 0.87512 0.958511
0.962173 0.871489 0.957168
0.961013 0.870909 0.957458
0.032105 0.930083 0.921523
0.0325475 0.929992 0.921477
0.0340276 0.929702 0.921096
0.0339666 0.929702 0.921126
0.0404364 0.946807 0.915663
0.666239 0.967239 0.945556
0.974945 0.975891 0.969772
0.991897 0.976745 0.967422
0.990234 0.976211 0.967926
0.032105 0.930083 0.921538
0.0313115 0.930251 0.921736
0.0349584 0.929503 0.920806
0.0349279 0.929503 0.920836
0.0358892 0.946914 0.90428
0.234897 0.984131 0.915175
0.965301 0.991302 0.953872
0.99855 0.993988 0.960021
0.998627 0.993759 0.956985
0.0327764 0.929946 0.921477
0.0334478 0.929808 0.921294
0.0333715 0.929824 0.921309
0.032929 0.929915 0.921447
0.0365606 0.946777 0.900969
0.229114 0.984939 0.912856
0.960098 0.990723 0.949752
0.99707 0.993667 0.956695
0.998566 0.993469 0.953185
0 0.0603952 0.700862
0.0211795 0.0576791 0.706325
0.172656 0.0628519 0.725078
0.469093 0.0722667 0.753628
0.750149 0.106065 0.774426
0.751598 0.10544 0.775982
0.750393 0.105959 0.774746
0.750088 0.106081 0.77435
0.751812 0.105348 0.776333
0 0.0636759 0.695796
0 0.0601968 0.702205
0.139544 0.0633707 0.722515
0.454108 0.071107 0.753002
0.750835 0.105501 0.775799
0.752117 0.105196 0.776883
0.751995 0.105241 0.776761
0.751019 0.105684 0.775509
0.749722 0.106249 0.773892
0 0.173373 0.718105
0 0.125505 0.706386
0 0.0592966 0.701564
0.385641 0.0670481 0.744228
0.745541 0.105043 0.775769
0.753765 0.104463 0.778973
0.752331 0.105104 0.777157
0.752117 0.105196 0.776898
0.751369 0.105531 0.775799
0 0.34522 0.720363
0 0.337072 0.720348
0 0.301259 0.719158
0.0616464 0.0688334 0.717113
0.642039 0.0923323 0.769711
0.752056 0.105425 0.776761
0.751965 0.105455 0.776608
0.750759 0.106004 0.775158
0.751766 0.105608 0.77615
0 0.69752 0.839033
0 0.696712 0.840131
0 0.689342 0.837201
0 0.659922 0.825467
0.562142 0.607263 0.915373
0.899092 0.591028 0.90808
0.896147 0.57261 0.905455
0.895781 0.567117 0.904387
0.896117 0.56669 0.904341
0.0123293 0.874006 0.902663
0.010956 0.873182 0.902998
0.00282292 0.849393 0.893477
0 0.815076 0.882124
0.016846 0.831266 0.909133
0.839216 0.86009 0.955856
0.959091 0.863203 0.958785
0.958129 0.858885 0.957671
0.957778 0.857679 0.957473
0.031693 0.930175 0.92163
0.0325475 0.929992 0.921477
0.0339818 0.929702 0.921126
0.0340734 0.929686 0.92108
0.0424201 0.938781 0.926955
0.582742 0.943969 0.959457
0.960479 0.964218 0.98143
0.988479 0.96643 0.983246
0.986816 0.965591 0.983902
0.0339055 0.929717 0.921141
0.031281 0.930251 0.921752
0.0325475 0.929992 0.921477
0.0339055 0.929717 0.921141
0.03682 0.938537 0.927352
0.0553292 0.962936 0.942824
0.920882 0.988861 0.98233
0.994003 0.992645 0.992828
0.997467 0.992538 0.990723
0.0328222 0.929931 0.921477
0.033463 0.929808 0.921294
0.0333715 0.929824 0.921309
0.0359045 0.92932 0.92047
0.038117 0.937819 0.926619
0.0588235 0.966964 0.942779
0.899245 0.989868 0.979446
0.993301 0.995254 0.988983
0.997284 0.996017 0.991424
0 0.0601816 0.701335
0.0259251 0.0580606 0.706996
0.175906 0.0628824 0.725444
0.472236 0.0724193 0.754711
0.750286 0.106004 0.774594
0.751598 0.10544 0.775982
0.750561 0.105882 0.774929
0.75021 0.106035 0.774502
0.751797 0.105364 0.776303
0 0.0634318 0.696239
0 0.0598306 0.702663
0.142672 0.0632944 0.722744
0.456703 0.0713512 0.753384
0.751141 0.105516 0.775784
0.752087 0.105211 0.776867
0.752087 0.105211 0.776852
0.751766 0.105379 0.776226
0.749706 0.106249 0.773877
0 0.170047 0.717647
0 0.122057 0.705013
0 0.0590066 0.702358
0.388434 0.0671702 0.744427
0.746487 0.105165 0.775906
0.753765 0.104463 0.778973
0.752331 0.105104 0.777157
0.752102 0.105196 0.776898
0.751369 0.105547 0.775784
0 0.341238 0.720226
0 0.332433 0.720577
0 0.296422 0.719814
0.0647593 0.0679332 0.716243
0.643671 0.0925917 0.769909
0.752209 0.105333 0.776989
0.752117 0.105379 0.776883
0.750774 0.105974 0.775189
0.751751 0.105592 0.776135
0 0.696605 0.838926
0 0.695842 0.840253
0 0.688075 0.836881
0 0.65803 0.82475
0.562524 0.603693 0.915267
0.898039 0.587304 0.90779
0.895232 0.568704 0.904799
0.895171 0.563745 0.904387
0.895232 0.562371 0.904067
0.00746166 0.874113 0.904204
0.00788891 0.872374 0.903563
0 0.84567 0.892424
0 0.814206 0.882536
0.0167544 0.82919 0.909194
0.838468 0.857313 0.956298
0.958251 0.860456 0.95816
0.957229 0.855756 0.957107
0.956008 0.854856 0.957855
0.03093 0.930327 0.921874
0.0309606 0.930327 0.921843
0.0330205 0.929885 0.921416
0.0328679 0.929931 0.921462
0.036286 0.938888 0.928008
0.601511 0.942153 0.959854
0.95787 0.962234 0.981216
0.987732 0.964324 0.982925
0.985901 0.963607 0.983719
0.0308537 0.930343 0.921874
0.0297856 0.930541 0.922225
0.0314031 0.930236 0.921706
0.0329747 0.9299 0.921416
0.0354925 0.938827 0.927611
0.0537575 0.961242 0.943282
0.905943 0.983764 0.985107
0.991455 0.991196 0.993805
0.994079 0.991882 0.994751
0.0290837 0.930648 0.922499
0.0298924 0.930526 0.922179
0.0298924 0.930526 0.922179
0.03122 0.930266 0.921767
0.0352636 0.938384 0.927398
0.0534218 0.96054 0.942885
0.819928 0.985245 0.981414
0.98854 0.995239 0.9944
0.996735 0.996735 0.996735
