bundles/resolve-cinematic-luts/Phantom Luts/Komodo Phantom ARRI LUTs G2/Komodo Phantom ARRI LUTs G2/65x/WB Offset - Green Boost/Utopia_Komodo_WBO_Legacy_G2_65x.cube
TITLE "Generated by Resolve"
LUT_3D_SIZE 5
0.0199588 0.0481575 0.0580301
0.175174 0.0368658 0.0570687
0.697307 0.0449073 0.126528
0.712627 0.0448768 0.163592
0.711299 0.0351415 0.167437
0.0093843 0.208118 0.0330053
0.158724 0.192248 0.0557412
0.710552 0.0435187 0.0493629
0.711086 0.0454871 0.0693828
0.711727 0.0450141 0.0691997
0.142763 0.904784 0.127459
0.205768 0.927733 0.0797436
0.88246 0.877684 0.246006
0.992706 0.870176 0.278889
0.992233 0.868711 0.277363
0.132509 0.990829 0.238636
0.138979 0.989975 0.224063
0.78407 0.934295 0.273945
0.999969 0.955032 0.371099
0.999969 0.954879 0.37232
0.134051 0.990326 0.241596
0.136477 0.990692 0.223056
0.772412 0.934539 0.269001
0.999969 0.954955 0.37174
0.999969 0.95494 0.371893
0 0.0614176 0.175265
0.183062 0.0471199 0.194995
0.732967 0.0615549 0.269627
0.738674 0.0711986 0.296391
0.738369 0.072755 0.300252
0.00425727 0.165133 0.163317
0.127855 0.165911 0.161471
0.692897 0.0417487 0.115541
0.715023 0.0453346 0.155978
0.713115 0.0357214 0.158648
0.0814984 0.8701 0.281422
0.127352 0.879881 0.145556
0.867933 0.863752 0.240391
0.987152 0.851469 0.265003
0.986526 0.849119 0.263996
0.117571 0.990784 0.319371
0.132311 0.990814 0.240894
0.751873 0.935744 0.259434
0.999969 0.955047 0.371008
0.999969 0.954879 0.37232
0.116304 0.989792 0.335866
0.132784 0.990662 0.242863
0.736217 0.936461 0.252506
0.999969 0.955123 0.370336
0.999969 0.95494 0.371878
0 0.092134 0.587915
0.0879377 0.0779889 0.611994
0.742214 0.103319 0.691096
0.746899 0.106081 0.717342
0.746349 0.106523 0.72047
0 0.169162 0.574548
0 0.0802014 0.577157
0.7308 0.0987869 0.672114
0.752682 0.103212 0.693507
0.750179 0.104402 0.693385
0 0.723125 0.672999
0 0.717708 0.665949
0.668864 0.693919 0.648814
0.91902 0.664118 0.631922
0.91841 0.658946 0.62797
0.0231937 0.962753 0.679423
0.0249027 0.965057 0.654521
0.201709 0.991852 0.266255
0.999969 0.954711 0.3673
0.999969 0.954925 0.369055
0.0260777 0.961349 0.68748
0.025742 0.964172 0.661021
0.163241 0.991623 0.27538
0.999969 0.954726 0.361563
0.999969 0.95491 0.369451
0 0.0788434 0.657649
0.107973 0.0826581 0.686351
0.736782 0.111635 0.758175
0.737255 0.111421 0.758816
0.737987 0.111086 0.759793
0 0.159014 0.687266
0 0.0787976 0.659464
0.725216 0.110002 0.757778
0.738277 0.110948 0.760159
0.737453 0.11133 0.75906
0 0.645685 0.798795
0 0.63711 0.795895
0.495644 0.560555 0.889113
0.877943 0.527733 0.887007
0.876493 0.521248 0.885481
0.0392767 0.924025 0.91725
0.0416419 0.923522 0.916503
0.0465705 0.945449 0.905913
0.973617 0.975204 0.967651
0.992111 0.975357 0.965347
0.0399176 0.923888 0.917037
0.0408331 0.92369 0.916747
0.0431983 0.945647 0.885664
0.954452 0.99173 0.942473
0.994553 0.98822 0.944366
0 0.0787976 0.660105
0.11957 0.0825513 0.688045
0.736736 0.11165 0.758114
0.736858 0.111604 0.758282
0.737926 0.111116 0.759686
0 0.148592 0.684977
0 0.0792554 0.662379
0.730709 0.110536 0.758465
0.738277 0.110964 0.760159
0.737438 0.11133 0.75906
0 0.640726 0.797238
0 0.631525 0.793866
0.491478 0.54377 0.887312
0.873579 0.508934 0.883391
0.872938 0.50222 0.882185
0.0381781 0.924239 0.917769
0.0403143 0.923812 0.916899
0.0433661 0.93698 0.926741
0.954467 0.95964 0.98323
0.987793 0.960678 0.985351
0.0357519 0.924743 0.918379
0.0369726 0.924483 0.918166
0.0416571 0.936187 0.92578
0.774655 0.989059 0.984253
0.989822 0.990082 0.990173
