bundles/resolve-cinematic-luts/Phantom Luts/Komodo Phantom ARRI LUTs G2/Komodo Phantom ARRI LUTs G2/65x/WB Offset - Green Boost/Utopia_Komodo_WBO_G2_65x.cube
TITLE "Generated by Resolve"
LUT_3D_SIZE 65
0.00749218 0.0330663 0.0417792
0.00749218 0.0330663 0.0417639
0.00749218 0.033051 0.0417487
0.00747692 0.033051 0.0417334
0.00909438 0.0328985 0.0414893
0.0153048 0.0327459 0.041413
0.0248264 0.0322728 0.042771
0.0377966 0.0309606 0.0429999
0.0511177 0.0299992 0.0417945
0.0664378 0.0287938 0.0408637
0.0840009 0.0268406 0.0392157
0.103426 0.0249485 0.0378576
0.123445 0.0227665 0.0366979
0.145556 0.0203708 0.0357671
0.169284 0.0179294 0.0353704
0.195056 0.0158083 0.0353246
0.222324 0.0137942 0.0352636
0.252094 0.0122988 0.0366064
0.284443 0.0115969 0.0396887
0.318013 0.0116732 0.042771
0.354025 0.0118563 0.0473793
0.390311 0.0119326 0.0537881
0.42855 0.0118563 0.0615854
0.468071 0.0118715 0.0707713
0.504005 0.0124819 0.0806439
0.539086 0.0129854 0.0918135
0.572061 0.012665 0.102495
0.603616 0.012253 0.112047
0.63389 0.0139162 0.121599
0.663172 0.0170291 0.130114
0.688884 0.0200809 0.136446
0.711421 0.0229648 0.144793
0.724025 0.0244602 0.153429
0.725673 0.0245823 0.158053
0.727489 0.0246738 0.162295
0.729259 0.0247196 0.166812
0.730694 0.0248112 0.170382
0.731975 0.0248722 0.173907
0.733104 0.0249638 0.177218
0.734005 0.0250553 0.18056
0.734768 0.0251774 0.183856
0.735363 0.0253452 0.186511
0.735927 0.0254978 0.189303
0.736187 0.0255436 0.191485
0.736278 0.0256504 0.193011
0.736126 0.0257877 0.194965
0.735882 0.0259861 0.196872
0.735744 0.0262455 0.198611
0.735668 0.0264591 0.200015
0.735683 0.0266423 0.201221
0.735744 0.0267491 0.202319
0.735882 0.0268254 0.203342
0.736034 0.0268864 0.204257
0.736187 0.0269169 0.20502
0.736309 0.0269627 0.205661
0.736416 0.0269932 0.206271
0.736507 0.0270237 0.20679
0.736584 0.027039 0.207156
0.73666 0.0270695 0.207446
0.736721 0.0270848 0.207752
0.736812 0.0270848 0.207996
0.737118 0.0270085 0.208255
0.737713 0.0268559 0.208408
0.738582 0.0266117 0.208515
0.739696 0.0262913 0.208637
0.00746166 0.0330205 0.0417182
0.00747692 0.0330358 0.0417334
0.00747692 0.0330358 0.0417334
0.00747692 0.0330358 0.0417334
0.00787366 0.0330358 0.0417029
0.0138705 0.0327459 0.0413214
0.0229953 0.0323949 0.0424506
0.0361639 0.0311894 0.0431983
0.0495308 0.0300908 0.0417792
0.0649577 0.0289464 0.041001
0.0828412 0.0269322 0.0393072
0.102098 0.0250858 0.0379797
0.122606 0.0228885 0.0366369
0.144259 0.0203861 0.0353552
0.16846 0.0178378 0.034165
0.193286 0.0153048 0.0327306
0.220798 0.0130922 0.0326848
0.25098 0.0115511 0.0338903
0.282704 0.0102846 0.0363165
0.316991 0.0103151 0.039292
0.352438 0.0104829 0.043473
0.38967 0.0104067 0.0493477
0.42797 0.0101778 0.0569467
0.466667 0.010132 0.0658579
0.503319 0.0106966 0.0763714
0.537438 0.011017 0.0867933
0.570291 0.010605 0.0968338
0.602258 0.0111543 0.106981
0.633768 0.0137789 0.1178
0.664012 0.016968 0.127138
0.688991 0.0199435 0.132631
0.711696 0.0228428 0.141283
0.723522 0.0242008 0.150195
0.725185 0.0243687 0.155062
0.726955 0.0244297 0.159716
0.728771 0.0244755 0.163806
0.730266 0.024567 0.168124
0.731594 0.0246586 0.171405
0.732677 0.0247501 0.17467
0.733608 0.0248722 0.177707
0.734279 0.0250095 0.180819
0.73489 0.0251316 0.18378
0.735363 0.0253147 0.18613
0.735836 0.025452 0.188663
0.736095 0.0255283 0.190799
0.736141 0.0256199 0.192187
0.736034 0.025742 0.193454
0.735714 0.0259098 0.195056
0.735393 0.0260929 0.196475
0.735256 0.0263066 0.197787
0.735195 0.0264591 0.198856
0.735225 0.0265812 0.199817
0.735286 0.0266575 0.200717
0.735439 0.0267185 0.201297
0.735592 0.0267491 0.201892
0.735698 0.0267796 0.202457
0.735805 0.0268101 0.20296
0.735882 0.0268406 0.203387
0.735943 0.0268559 0.203723
0.736004 0.0268711 0.204044
0.73611 0.0268711 0.204318
0.736431 0.0267948 0.204547
0.737026 0.0266423 0.204776
0.737881 0.0263981 0.204944
0.739025 0.0260624 0.205142
0.00747692 0.0330358 0.0417182
0.00747692 0.033051 0.0417487
0.00749218 0.033051 0.0417487
0.00749218 0.033051 0.0417639
0.00747692 0.033051 0.0417487
0.0117494 0.0328527 0.0413214
0.0202335 0.0327306 0.0420386
0.0328069 0.0317235 0.0435187
0.0469062 0.0304265 0.0419928
0.0628672 0.0291905 0.0411078
0.0801556 0.0273289 0.0395514
0.10013 0.0252995 0.0381018
0.120836 0.0231785 0.0367742
0.143008 0.0205386 0.0353704
0.167315 0.0179294 0.0341344
0.191806 0.0153658 0.0325017
0.218936 0.0128634 0.0313115
0.24799 0.0110018 0.0310521
0.279362 0.00929274 0.0322881
0.313268 0.00849927 0.0345464
0.349584 0.00849927 0.0382849
0.387335 0.00851453 0.0438849
0.425284 0.00854505 0.0514839
0.464469 0.00801099 0.0597696
0.500557 0.00828565 0.0697032
0.535195 0.00856031 0.0806439
0.568658 0.00875868 0.0914321
0.600809 0.0105592 0.102083
0.633036 0.0135805 0.112764
0.662211 0.0166171 0.121233
0.687938 0.0196078 0.127459
0.710872 0.0225681 0.136721
0.722606 0.0239567 0.145617
0.724239 0.0241703 0.151629
0.725933 0.0242618 0.156039
0.727749 0.0242924 0.160388
0.729381 0.0243687 0.164355
0.730724 0.0244602 0.168368
0.731884 0.0245823 0.17145
0.732769 0.0246891 0.174456
0.733547 0.0248417 0.177295
0.734127 0.0249638 0.180056
0.734661 0.0250706 0.18265
0.735149 0.0252232 0.184756
0.735485 0.0253605 0.186938
0.735775 0.0254978 0.188876
0.735851 0.0255894 0.190585
0.735744 0.0256962 0.19176
0.73547 0.0258488 0.192554
0.735195 0.0260014 0.1935
0.734905 0.0261234 0.194491
0.734691 0.0262455 0.195438
0.734569 0.0263371 0.196262
0.734615 0.0263981 0.196948
0.734722 0.0264439 0.197574
0.734829 0.0264744 0.198138
0.73492 0.0265049 0.198611
0.734981 0.0265354 0.198962
0.735058 0.026566 0.199268
0.735103 0.0265965 0.199588
0.735195 0.0265965 0.199863
0.735485 0.0265354 0.200122
0.736065 0.0263676 0.200305
0.736934 0.0261387 0.200488
0.738109 0.025803 0.20058
0.00747692 0.0330358 0.0417182
0.00747692 0.033051 0.0417487
0.00749218 0.033051 0.0417487
0.00749218 0.033051 0.0417639
0.00747692 0.033051 0.0417487
0.00939956 0.0330205 0.0415045
0.0164034 0.0332036 0.0416266
0.0276799 0.0326085 0.0432593
0.042649 0.0311742 0.0425727
0.0577096 0.0303349 0.0414588
0.0753185 0.0285954 0.0398413
0.095552 0.026566 0.038529
0.117281 0.0243229 0.0369573
0.140124 0.0215763 0.0355688
0.164431 0.0188296 0.034165
0.189685 0.016022 0.0327153
0.2168 0.0133059 0.0312963
0.246525 0.0111086 0.0308537
0.27689 0.00914015 0.0307317
0.309941 0.0075227 0.0315862
0.345708 0.00723278 0.032929
0.38265 0.00671397 0.0368353
0.421866 0.00608835 0.0434577
0.461265 0.00579843 0.0522011
0.497871 0.00607309 0.0626993
0.533394 0.00646983 0.0738384
0.566415 0.00773632 0.0846876
0.599802 0.0104219 0.0963607
0.631754 0.0133211 0.107332
0.661799 0.0164187 0.116106
0.687068 0.0192721 0.121675
0.70901 0.0220188 0.128954
0.720851 0.0234836 0.138231
0.723415 0.0238804 0.145968
0.72488 0.0240177 0.151797
0.726558 0.0240787 0.156085
0.728222 0.0241245 0.16022
0.72961 0.0242466 0.16405
0.730816 0.0243534 0.167773
0.731823 0.0244907 0.170626
0.73254 0.0246281 0.173312
0.733196 0.0247501 0.17615
0.733806 0.0248875 0.178347
0.734249 0.024979 0.180606
0.734676 0.0250706 0.182696
0.735042 0.0251926 0.184421
0.735271 0.02533 0.185946
0.735348 0.0254673 0.187457
0.735317 0.0256352 0.188769
0.735149 0.0257877 0.189929
0.734813 0.0259403 0.190845
0.734447 0.0260777 0.191485
0.734188 0.0261997 0.191928
0.734035 0.0262913 0.192309
0.733974 0.0263218 0.192813
0.734005 0.0263371 0.193225
0.734066 0.0263523 0.193561
0.734112 0.0263523 0.193835
0.734157 0.0263523 0.194141
0.734173 0.0263523 0.194385
0.734264 0.0263371 0.194644
0.734569 0.0262608 0.194827
0.735088 0.0261082 0.195087
0.735851 0.0258946 0.195239
0.737011 0.0255436 0.195392
0.00746166 0.0330358 0.0417182
0.00747692 0.033051 0.0417487
0.00749218 0.033051 0.0417639
0.00749218 0.0330663 0.0417639
0.00747692 0.033051 0.0417487
0.00770581 0.0330968 0.0417639
0.0128634 0.0334936 0.0415656
0.0219577 0.0335699 0.042359
0.0364691 0.0323033 0.0433204
0.0521553 0.0314183 0.041825
0.06981 0.029984 0.0403143
0.0901503 0.0280919 0.0386358
0.112337 0.0258793 0.037171
0.135317 0.0233158 0.0356603
0.160143 0.0205539 0.0343328
0.18616 0.0175937 0.0328679
0.213825 0.0148013 0.0313573
0.244144 0.0124971 0.0307012
0.275196 0.0101778 0.0304417
0.308354 0.00846876 0.0312505
0.343175 0.00750744 0.031754
0.379248 0.0062562 0.0336614
0.41706 0.00462348 0.0368658
0.456565 0.00337224 0.0430152
0.493507 0.00392157 0.0528115
0.529686 0.00560006 0.064622
0.564843 0.00790417 0.0769513
0.597436 0.010193 0.0885786
0.630198 0.0131228 0.0999619
0.660731 0.0161746 0.109194
0.685924 0.0189517 0.114794
0.70779 0.0215763 0.121172
0.71931 0.0233463 0.129885
0.721798 0.023331 0.137621
0.723888 0.0236515 0.145251
0.725414 0.0237736 0.150805
0.726894 0.0238651 0.155077
0.728313 0.0239567 0.159014
0.729488 0.024094 0.162509
0.73051 0.0242313 0.166018
0.731395 0.0243839 0.169024
0.732082 0.0245212 0.171435
0.732647 0.0246281 0.173632
0.733166 0.0247349 0.175906
0.733669 0.0248569 0.177584
0.73402 0.0249332 0.179385
0.73431 0.0249943 0.180911
0.734539 0.0250858 0.182391
0.7346 0.0252079 0.183642
0.734539 0.0253605 0.184573
0.734325 0.0255741 0.185382
0.733974 0.0257725 0.186252
0.733623 0.0259709 0.186999
0.733333 0.0261234 0.18761
0.733196 0.0262455 0.188174
0.733135 0.0263218 0.188647
0.73315 0.0263523 0.189059
0.733211 0.0263676 0.18941
0.733257 0.0263676 0.189685
0.733303 0.0263523 0.189944
0.733394 0.0263371 0.190127
0.7337 0.0262455 0.190326
0.734279 0.0260777 0.190417
0.735088 0.0258335 0.190524
0.736141 0.0255131 0.190661
0.00805676 0.0348821 0.042359
0.00799573 0.0347143 0.042298
0.00790417 0.0344549 0.0422065
0.00801099 0.0340734 0.0420539
0.00849927 0.0334936 0.0417945
0.00793469 0.0332799 0.0418555
0.00994888 0.0335699 0.0417182
0.0168307 0.0342565 0.0419776
0.0286259 0.0338445 0.0434577
0.0453803 0.0328679 0.042649
0.0634775 0.0316777 0.0409247
0.0838331 0.0299382 0.0390173
0.106203 0.0278172 0.0373236
0.13019 0.0253452 0.0359045
0.154772 0.0225834 0.0343328
0.182162 0.0196841 0.0328985
0.210498 0.0168612 0.0314336
0.240925 0.0145571 0.0305486
0.272648 0.0124208 0.0302434
0.306493 0.0107424 0.0310521
0.342077 0.00985733 0.0316625
0.378027 0.00788891 0.0334325
0.41561 0.00526436 0.0351873
0.453635 0.00311284 0.0379339
0.488823 0.00355535 0.0439612
0.525261 0.00526436 0.0538796
0.56083 0.00755322 0.0661479
0.594629 0.0101167 0.0786908
0.62742 0.0128176 0.090074
0.658 0.0157626 0.099855
0.683925 0.0185702 0.105806
0.705303 0.0210422 0.111345
0.716899 0.0226902 0.119249
0.720119 0.0231327 0.127489
0.722118 0.0230716 0.134997
0.724422 0.0233158 0.142702
0.725704 0.0234684 0.148165
0.726894 0.0235904 0.152834
0.728008 0.0237278 0.156634
0.72903 0.0238651 0.160021
0.729793 0.0240787 0.163073
0.730556 0.0242161 0.165988
0.731228 0.0243229 0.168521
0.731823 0.0244602 0.170397
0.73228 0.0245518 0.172061
0.732677 0.0246281 0.173724
0.733043 0.0247044 0.175311
0.733364 0.0247807 0.176593
0.733593 0.0248722 0.177554
0.733623 0.0249638 0.178576
0.733516 0.0251011 0.179492
0.733242 0.0252689 0.180285
0.732876 0.025452 0.180987
0.732479 0.0256504 0.181643
0.732128 0.025803 0.182147
0.731914 0.0259251 0.18262
0.731807 0.0260014 0.183001
0.731777 0.0260319 0.183291
0.731838 0.0260624 0.183612
0.731884 0.0260777 0.183825
0.731975 0.0260624 0.184039
0.732296 0.0259861 0.184192
0.732891 0.0258183 0.184298
0.73373 0.0255589 0.18439
0.734951 0.0252079 0.184375
0.00863661 0.0413367 0.0435645
0.00869764 0.0409552 0.0436103
0.00880446 0.0406043 0.0436713
0.00910964 0.0400397 0.0435798
0.0103914 0.0390631 0.043534
0.0115206 0.0381628 0.0434424
0.0137331 0.037171 0.043122
0.0181277 0.0379339 0.0435645
0.0261387 0.0385901 0.0439612
0.041474 0.0370642 0.0448768
0.0573434 0.0354925 0.0426337
0.0761273 0.0326696 0.0399786
0.0990768 0.0302892 0.0376745
0.123522 0.0281376 0.0363317
0.149172 0.0253758 0.0343786
0.17705 0.0226596 0.0332494
0.205997 0.019852 0.031754
0.23714 0.0173037 0.0304875
0.269383 0.0153506 0.0302892
0.304448 0.013901 0.0310369
0.340551 0.0126955 0.0317693
0.376761 0.0104829 0.0335088
0.414694 0.0077821 0.0352789
0.451911 0.004654 0.0373388
0.487022 0.00378424 0.0411383
0.52137 0.00495918 0.0468452
0.555688 0.00714122 0.0551919
0.58909 0.00975052 0.0654002
0.621973 0.0125734 0.0770123
0.653346 0.0153201 0.0865492
0.679774 0.0180514 0.092546
0.701473 0.020798 0.0979782
0.712551 0.021912 0.105531
0.716777 0.022385 0.114549
0.719478 0.0226444 0.122255
0.722026 0.0228275 0.130098
0.723659 0.0227207 0.136782
0.725887 0.0229953 0.143847
0.726864 0.0231785 0.148623
0.727687 0.0233463 0.152621
0.72842 0.0235294 0.155947
0.729076 0.0236973 0.158785
0.72961 0.0238804 0.161395
0.730175 0.024033 0.163546
0.730663 0.0241398 0.165652
0.73109 0.0242313 0.167452
0.731472 0.0243381 0.168917
0.731807 0.0244297 0.170062
0.732052 0.0244907 0.171008
0.732189 0.024567 0.171847
0.73225 0.0246586 0.172808
0.732128 0.0247807 0.173556
0.731899 0.0249332 0.174304
0.731517 0.0251011 0.174823
0.73109 0.0252995 0.175357
0.730724 0.025452 0.175769
0.73048 0.0255894 0.17612
0.730327 0.0256657 0.176471
0.730266 0.0256962 0.176699
0.730297 0.0257267 0.176974
0.730404 0.0257115 0.177127
0.730724 0.0256352 0.177157
0.73135 0.0254673 0.177234
0.732219 0.0252232 0.177218
0.733486 0.0248417 0.177249
0.00724804 0.0524453 0.0421759
0.00726329 0.0521401 0.0422217
0.00730907 0.0515908 0.042298
0.0075227 0.0507973 0.0424659
0.00914015 0.0493629 0.0427253
0.0113375 0.0475471 0.0431983
0.0142519 0.0458534 0.0438087
0.0204471 0.0452125 0.0440833
0.0286564 0.0464485 0.0455024
0.042359 0.0461433 0.0466316
0.0583658 0.0446784 0.0458991
0.0757458 0.0433356 0.0438087
0.0967117 0.039704 0.0403296
0.120699 0.0345159 0.0364385
0.144564 0.0298924 0.0348821
0.170993 0.0261692 0.0332494
0.200732 0.0233921 0.0318608
0.232166 0.0207523 0.0305791
0.265751 0.0186007 0.0299077
0.301244 0.0173037 0.0306859
0.337575 0.0158083 0.0315709
0.374716 0.0134585 0.0335241
0.412451 0.0105898 0.0354009
0.450813 0.00740063 0.0372778
0.485206 0.00480659 0.0404974
0.520012 0.00497444 0.0458076
0.55404 0.00697337 0.0523842
0.585077 0.00935378 0.0582742
0.616175 0.0120241 0.0652018
0.646204 0.0148318 0.0733959
0.673335 0.0175937 0.0809033
0.694179 0.019852 0.0855116
0.70547 0.0210574 0.0910048
0.710353 0.0214542 0.097734
0.714183 0.0217441 0.105135
0.717601 0.0220035 0.113298
0.720378 0.0221866 0.120714
0.722774 0.0224308 0.128054
0.724407 0.022385 0.134218
0.726345 0.0225528 0.140627
0.727062 0.0227207 0.145052
0.727947 0.0229191 0.149218
0.728496 0.0230411 0.152117
0.728969 0.0232242 0.154604
0.729366 0.0233616 0.156756
0.729763 0.0234684 0.158572
0.730129 0.0235752 0.160388
0.730465 0.023682 0.161563
0.730724 0.0237583 0.162707
0.730968 0.0238346 0.163867
0.731121 0.0238956 0.164782
0.731167 0.0239872 0.165682
0.73106 0.0241093 0.166323
0.730831 0.0242466 0.166934
0.730449 0.0244297 0.167437
0.729992 0.0246128 0.167834
0.729671 0.0247654 0.168276
0.729427 0.0248722 0.168521
0.729259 0.0249638 0.168811
0.729168 0.0250095 0.168963
0.729213 0.0250248 0.169055
0.729519 0.0249638 0.169192
0.729976 0.0248264 0.169223
0.730877 0.0245823 0.169268
0.732082 0.0242313 0.169192
0.00518807 0.0665446 0.0388647
0.00526436 0.0663157 0.0390326
0.00541695 0.0658122 0.039292
0.00549325 0.0652171 0.0394751
0.00608835 0.0641947 0.0396887
0.00926223 0.0624399 0.0404822
0.0126345 0.0602884 0.0415045
0.0173953 0.0583352 0.0419623
0.0274815 0.0589609 0.0421302
0.0414435 0.058854 0.0428321
0.0594339 0.057847 0.0479591
0.0765698 0.0564126 0.0478676
0.0991684 0.0533761 0.046067
0.122942 0.0495918 0.0427863
0.146441 0.0443275 0.0381781
0.173892 0.0368048 0.0334173
0.200351 0.0309911 0.0317845
0.228229 0.0254063 0.0306096
0.261433 0.0221408 0.0294957
0.297398 0.0205997 0.0302586
0.334447 0.0187076 0.0313268
0.372229 0.0164187 0.0334173
0.410758 0.013611 0.0353094
0.449485 0.0104524 0.0374914
0.484855 0.00773632 0.0408179
0.519341 0.00582895 0.045594
0.5523 0.0068513 0.0513313
0.584482 0.009308 0.0575723
0.615061 0.0119173 0.0637064
0.644388 0.0145724 0.0691844
0.67155 0.016495 0.0733806
0.690669 0.0184024 0.0763561
0.700847 0.0196994 0.0803082
0.704387 0.0203403 0.0849622
0.706935 0.020676 0.0892195
0.709514 0.0209812 0.0942397
0.712566 0.0213931 0.100465
0.715328 0.0217746 0.107286
0.717815 0.0220645 0.114412
0.719875 0.0222934 0.120394
0.721508 0.0224918 0.125994
0.722911 0.0226291 0.13109
0.723796 0.0225834 0.135256
0.72546 0.0227359 0.140047
0.725994 0.0228122 0.142947
0.726543 0.0229343 0.145541
0.726925 0.0230106 0.147662
0.727459 0.0230869 0.149493
0.727779 0.0231479 0.150912
0.728008 0.0231937 0.152285
0.728283 0.0232547 0.153277
0.72845 0.0233005 0.153964
0.728527 0.0233616 0.154513
0.728496 0.0234684 0.155215
0.728298 0.0235904 0.155688
0.727977 0.023743 0.156252
0.72755 0.0239109 0.156603
0.727153 0.0240787 0.157015
0.726818 0.0242008 0.157275
0.726558 0.0242924 0.157473
0.726497 0.0243534 0.157748
0.726558 0.0243381 0.157824
0.726833 0.0242771 0.157977
0.727184 0.0241703 0.158038
0.727672 0.0240482 0.158083
0.00300603 0.0822003 0.0338598
0.00309758 0.0818036 0.0339361
0.00315862 0.0814374 0.0341039
0.00314336 0.0806592 0.0342565
0.00303655 0.0800336 0.0342412
0.0059205 0.078294 0.0348516
0.00981155 0.0762036 0.0360571
0.0146944 0.0738079 0.0373541
0.0231785 0.0733806 0.0375525
0.0395209 0.0734112 0.0379797
0.0583963 0.0722057 0.0422675
0.0787976 0.0714885 0.0485542
0.101137 0.0692302 0.0493782
0.125383 0.0653086 0.0487373
0.151202 0.0604105 0.0461128
0.177096 0.0549477 0.0417182
0.204685 0.0491951 0.0368048
0.234287 0.0403143 0.0309606
0.264332 0.0327001 0.0294652
0.295613 0.0266728 0.0295872
0.330526 0.0226596 0.0306859
0.368948 0.0196078 0.0326543
0.407523 0.0167391 0.0347143
0.447333 0.0138247 0.0372015
0.483635 0.0111086 0.0405585
0.517403 0.00794995 0.0446937
0.550851 0.007187 0.0503853
0.582528 0.00914015 0.0563973
0.614282 0.011841 0.0626841
0.644633 0.0144961 0.0683299
0.670726 0.0169528 0.0730907
0.690852 0.0188296 0.0755016
0.698878 0.0197299 0.0758373
0.699168 0.019791 0.0759442
0.699413 0.019913 0.0776989
0.70135 0.0202487 0.0811017
0.703593 0.0206149 0.0848707
0.70605 0.0208286 0.0885939
0.708431 0.0208896 0.0924697
0.710918 0.0211795 0.0970626
0.713375 0.0214694 0.102129
0.715389 0.0217288 0.10724
0.717144 0.0219577 0.112276
0.718456 0.0221103 0.115984
0.719783 0.0222477 0.119982
0.720684 0.022385 0.122942
0.721416 0.0224765 0.125597
0.722423 0.0225834 0.12871
0.722789 0.0226291 0.130388
0.723079 0.0226139 0.13196
0.723293 0.0225986 0.133211
0.724483 0.0225681 0.135927
0.724743 0.0225986 0.137148
0.724834 0.0226444 0.137697
0.72488 0.0227207 0.138537
0.724681 0.0228275 0.138964
0.724437 0.0229496 0.139727
0.723995 0.0231022 0.140124
0.723491 0.0232547 0.140368
0.723247 0.0233768 0.140871
0.723018 0.0234379 0.140978
0.723003 0.0234684 0.141283
0.723125 0.0234379 0.141344
0.723354 0.0233616 0.141329
0.723888 0.0232547 0.141726
0.00108339 0.0996109 0.0289921
0.00106813 0.0994583 0.0281376
0.00103761 0.0987411 0.0282444
0.00111391 0.0982376 0.0284428
0.00134279 0.0976425 0.0288396
0.00260929 0.0966354 0.0293736
0.00714122 0.0948653 0.0303044
0.0124056 0.0924697 0.0318151
0.0191958 0.0899519 0.0331273
0.0336004 0.0906691 0.0334325
0.0551766 0.0895399 0.036286
0.0776532 0.087602 0.0441749
0.101564 0.0874037 0.0489052
0.126925 0.0848707 0.0508736
0.153918 0.0797589 0.0522011
0.18204 0.0739757 0.0496223
0.211353 0.0672313 0.0459754
0.240833 0.0602274 0.0413062
0.270985 0.052018 0.0357366
0.303563 0.040589 0.0306401
0.335607 0.0324712 0.0301671
0.367742 0.0255436 0.031754
0.403983 0.0210422 0.0340734
0.443992 0.0173495 0.0362707
0.481025 0.0144198 0.039704
0.516411 0.0113527 0.0438849
0.548791 0.00817884 0.0483864
0.580774 0.00900282 0.0543984
0.613275 0.0117494 0.0610056
0.643839 0.0143893 0.0670176
0.671687 0.0169985 0.0723125
0.693584 0.0189975 0.075761
0.704387 0.0201877 0.0770581
0.705486 0.0202487 0.0768139
0.7037 0.0201114 0.0764935
0.701885 0.0200351 0.0762036
0.700328 0.0199588 0.0760357
0.699657 0.0199741 0.0766461
0.70016 0.0201114 0.0783703
0.701793 0.0203403 0.0809186
0.703517 0.0205997 0.0836957
0.70518 0.0207828 0.0861067
0.706569 0.020798 0.0885786
0.707973 0.020798 0.0911116
0.709255 0.0209812 0.0935683
0.710491 0.0211337 0.0960403
0.711727 0.0212711 0.0986191
0.712779 0.0213931 0.100587
0.71371 0.0215152 0.102708
0.714382 0.0215915 0.104494
0.714961 0.0216526 0.106218
0.715557 0.0217746 0.107988
0.715908 0.0218051 0.109041
0.716289 0.0218662 0.110063
0.716457 0.0218967 0.110643
0.716503 0.0219425 0.111086
0.716579 0.0220493 0.111986
0.716365 0.0221561 0.112428
0.716152 0.0223087 0.113191
0.715801 0.022446 0.113466
0.715572 0.0225681 0.113939
0.715358 0.0226444 0.114092
0.715328 0.0226596 0.114092
0.715663 0.0226139 0.114458
0.715999 0.0225071 0.114504
0 0.121065 0.0234531
0 0.120592 0.0217441
0 0.120195 0.0217594
0 0.119677 0.0219272
0 0.118853 0.0223545
0 0.118288 0.0225834
0.00318914 0.116457 0.0234684
0.00894179 0.114748 0.024979
0.0157778 0.112306 0.0268101
0.0266728 0.110628 0.0281224
0.0464637 0.110796 0.0297704
0.0729992 0.107897 0.0353246
0.100847 0.106218 0.0455329
0.127016 0.106783 0.0494087
0.155444 0.102983 0.052842
0.186664 0.097734 0.0555886
0.216892 0.0915084 0.05449
0.249546 0.0826123 0.0518959
0.280903 0.0735637 0.0474861
0.313375 0.0635691 0.0421302
0.345144 0.0522469 0.0358282
0.377417 0.0389563 0.0313573
0.410101 0.0307622 0.032517
0.442435 0.0231785 0.0354162
0.478386 0.0185245 0.0384222
0.51429 0.0154879 0.04271
0.546807 0.0116274 0.0469062
0.57908 0.00981155 0.0523842
0.611154 0.0115053 0.0585031
0.643015 0.014313 0.0648508
0.67155 0.016968 0.0709087
0.69546 0.0192416 0.075288
0.709117 0.0207675 0.0777447
0.711467 0.0207675 0.0777905
0.71017 0.020798 0.0777752
0.708522 0.0208743 0.0777447
0.707057 0.0208133 0.0775311
0.705577 0.020737 0.077348
0.704097 0.0206455 0.0771038
0.702876 0.0205386 0.0768749
0.701808 0.0203708 0.0765545
0.700984 0.020264 0.0764019
0.70045 0.0202029 0.076524
0.700099 0.0201572 0.0767987
0.70045 0.0201877 0.0777295
0.701091 0.0202792 0.0787213
0.701823 0.0203555 0.0797131
0.702419 0.0204623 0.080827
0.70309 0.0205539 0.0818036
0.703716 0.0206302 0.0826734
0.704234 0.020676 0.0834821
0.704601 0.0207218 0.0840162
0.704921 0.0207523 0.0845655
0.70518 0.0207828 0.0849775
0.705425 0.0208133 0.0853285
0.705699 0.0208438 0.0856947
0.705806 0.0208896 0.0859236
0.705852 0.0209354 0.0863203
0.705669 0.0210117 0.0865187
0.70544 0.0211032 0.0868544
0.705058 0.0212253 0.0870375
0.704723 0.0213321 0.087129
0.704631 0.0213779 0.0873579
0.704662 0.0213626 0.0873579
0.705013 0.0213016 0.0875105
0 0.14435 0.0179751
0 0.14406 0.0162966
0 0.143694 0.0153964
0 0.142916 0.0154574
0 0.142596 0.0155795
0 0.141909 0.0160067
0 0.140993 0.0164645
0.00463874 0.139147 0.0179599
0.0117647 0.137163 0.0195621
0.0205997 0.134691 0.0215915
0.0377813 0.134234 0.023621
0.061387 0.133455 0.0263218
0.0959793 0.1299 0.0361486
0.126619 0.127749 0.0463569
0.155016 0.129168 0.0492714
0.187213 0.125383 0.054902
0.221485 0.120607 0.0588388
0.255589 0.112993 0.0595865
0.290318 0.104494 0.058381
0.325612 0.0938735 0.055375
0.359594 0.0832685 0.0511482
0.391531 0.0714122 0.0454414
0.42153 0.0554055 0.037705
0.454551 0.0386206 0.0329747
0.484627 0.0285954 0.0347906
0.512947 0.020737 0.0402228
0.545434 0.0162661 0.0451972
0.576516 0.0115206 0.049485
0.608972 0.0115511 0.0554818
0.641291 0.0141451 0.0618601
0.67126 0.0169375 0.0683299
0.696559 0.0193942 0.0738842
0.713161 0.0209659 0.0773938
0.717693 0.0215 0.0784772
0.716365 0.0214084 0.0784009
0.714839 0.0213931 0.0783856
0.713481 0.0213321 0.0783398
0.712062 0.0212711 0.078294
0.710903 0.02121 0.0781872
0.709911 0.0211948 0.0781415
0.709102 0.0211795 0.0780804
0.7084 0.0211643 0.0780194
0.707866 0.0211337 0.0779278
0.707225 0.0210727 0.0778058
0.706538 0.0209964 0.0776989
0.706065 0.0209201 0.0775616
0.705501 0.0208438 0.0774395
0.705104 0.020798 0.0773632
0.704768 0.0207675 0.0772869
0.704387 0.0207218 0.0772106
0.704143 0.0206912 0.0771649
0.703807 0.0206455 0.0770886
0.703639 0.0206302 0.0770428
0.703532 0.0206149 0.0770123
0.703319 0.0205844 0.0769665
0.703243 0.0205844 0.0769665
0.703044 0.0205692 0.0769055
0.702983 0.0205692 0.0769055
0.702846 0.0205997 0.0769207
0.70251 0.0206302 0.076936
0.702281 0.0207065 0.0769818
0.701976 0.0207523 0.0769818
