bundles/resolve-cinematic-luts/Phantom Luts/Komodo Phantom ARRI LUTs G2/Komodo Phantom ARRI LUTs G2/65x/WB Offset - Green Boost/Utopia_Komodo_WBO_G2_65x.cube
TITLE "Generated by Resolve"
LUT_3D_SIZE 5
0.00749218 0.0330663 0.0417792
0.222324 0.0137942 0.0352636
0.724025 0.0244602 0.153429
0.735668 0.0264591 0.200015
0.739696 0.0262913 0.208637
0 0.261509 0.00311284
0.210483 0.23949 0.0413214
0.735897 0.0241093 0.0409705
0.735348 0.0247654 0.0737316
0.73756 0.0239261 0.0734722
0.158648 0.933959 0.157488
0.236378 0.947433 0.0906691
0.913512 0.892607 0.273915
0.995483 0.887404 0.306447
0.995102 0.886336 0.304311
0.133349 0.995392 0.291691
0.139803 0.995071 0.273198
0.826429 0.935103 0.316182
0.999969 0.954116 0.412375
0.999969 0.954025 0.413001
0.134646 0.995056 0.294606
0.137057 0.99556 0.272435
0.815793 0.935851 0.311192
0.999969 0.954055 0.412711
0.999969 0.95404 0.412802
0 0.0499275 0.216129
0.231769 0.0290227 0.235065
0.752941 0.0485695 0.323629
0.761639 0.0644083 0.354376
0.76199 0.0676585 0.359014
0 0.207034 0.198917
0.168658 0.208743 0.197665
0.724865 0.021561 0.139269
0.741512 0.0240177 0.190433
0.743862 0.0238804 0.197711
0.0842908 0.904509 0.347158
0.141817 0.915129 0.183276
0.902037 0.882185 0.268666
0.992294 0.872984 0.291508
0.99176 0.871 0.289555
0.119005 0.993774 0.384649
0.133089 0.995361 0.294301
0.797223 0.937148 0.301869
0.999969 0.954116 0.412329
0.999969 0.954009 0.413031
0.117861 0.992493 0.401663
0.133425 0.995224 0.29662
0.782986 0.937926 0.294575
0.999969 0.954192 0.411978
0.999969 0.954055 0.412802
0 0.0789807 0.631693
0.136141 0.0595712 0.656687
0.753231 0.0959335 0.7205
0.757305 0.0988174 0.742458
0.756481 0.0992752 0.744778
0 0.206424 0.616434
0 0.0616312 0.622583
0.746731 0.0910506 0.706065
0.7626 0.0951095 0.723674
0.759121 0.0966964 0.722545
0 0.772824 0.72459
0 0.76849 0.718654
0.72314 0.74493 0.702449
0.932097 0.716854 0.686702
0.931487 0.711772 0.682933
0.0116884 0.960479 0.730846
0.0130465 0.962463 0.707988
0.223926 0.996643 0.320027
0.999969 0.953765 0.407263
0.999969 0.953994 0.409903
0.0149538 0.95903 0.738552
0.0139315 0.961593 0.714107
0.176501 0.996277 0.330465
0.999969 0.953704 0.401221
0.999969 0.953979 0.410224
0 0.0612497 0.699153
0.16286 0.0628824 0.724056
0.750332 0.105974 0.774655
0.750912 0.10573 0.775372
0.751842 0.105318 0.77641
0 0.185061 0.71957
0 0.0603342 0.70045
0.742702 0.104936 0.775464
0.752331 0.105104 0.777173
0.751339 0.105562 0.775753
0 0.701442 0.840101
0 0.693706 0.838666
0.56614 0.619181 0.916152
0.898848 0.586343 0.907607
0.898024 0.580285 0.906386
0.032105 0.930083 0.921523
0.0340276 0.929702 0.921096
0.0404364 0.946807 0.915663
0.974945 0.975891 0.969772
0.990234 0.976211 0.967926
0.0327764 0.929946 0.921477
0.0333715 0.929824 0.921309
0.0365606 0.946777 0.900969
0.960098 0.990723 0.949752
0.998566 0.993469 0.953185
0 0.0601816 0.701335
0.175906 0.0628824 0.725444
0.750286 0.106004 0.774594
0.750561 0.105882 0.774929
0.751797 0.105364 0.776303
0 0.170047 0.717647
0 0.0590066 0.702358
0.746487 0.105165 0.775906
0.752331 0.105104 0.777157
0.751369 0.105547 0.775784
0 0.696605 0.838926
0 0.688075 0.836881
0.562524 0.603693 0.915267
0.895232 0.568704 0.904799
0.895232 0.562371 0.904067
0.03093 0.930327 0.921874
0.0330205 0.929885 0.921416
0.036286 0.938888 0.928008
0.95787 0.962234 0.981216
0.985901 0.963607 0.983719
0.0290837 0.930648 0.922499
0.0298924 0.930526 0.922179
0.0352636 0.938384 0.927398
0.819928 0.985245 0.981414
0.996735 0.996735 0.996735
