bundles/resolve-cinematic-luts/Phantom Luts/P4k & P6K Phntm Film LUTs - V6/P4K/Gen 4 Colour/Standard (No WB Offset)/P4k Bleach Gen4-Legacy.cube
TITLE "Generated by Resolve"
LUT_3D_SIZE 5
0.0252842 0.0381781 0.0269474
0.0764019 0.0466773 0.0375067
0.262409 0.0618448 0.0498665
0.556023 0.0721141 0.0646067
0.771542 0.0996872 0.102831
0.0308385 0.129366 0.0597848
0.108385 0.14876 0.0418402
0.399481 0.155444 0.0585336
0.672892 0.185183 0.0956588
0.869947 0.270191 0.170138
0.0081178 0.372107 0.115419
0.0115511 0.390723 0.0301976
0.41088 0.523201 0.0640574
0.766766 0.61088 0.13402
0.917403 0.660792 0.236225
0.054963 0.69984 0.324437
0.0569009 0.712383 0.222675
0.330587 0.744595 0.12517
0.737179 0.815351 0.200961
0.897414 0.859159 0.323735
0.0878462 0.775433 0.460945
0.0876173 0.774655 0.333303
0.284031 0.782681 0.234531
0.68896 0.823926 0.298482
0.888365 0.882567 0.404623
0.0353246 0.042237 0.0674754
0.0876173 0.0463264 0.0721294
0.308186 0.0563973 0.112566
0.598566 0.0663157 0.147723
0.7935 0.094255 0.216495
0.0324102 0.118837 0.0987716
0.123812 0.135012 0.121035
0.454139 0.127245 0.112764
0.717525 0.141527 0.130587
0.83595 0.191043 0.180453
0.0136873 0.359533 0.197559
0.0080415 0.374975 0.120623
0.408881 0.514916 0.087129
0.809979 0.590906 0.215091
0.925383 0.635493 0.297383
0.0525521 0.67039 0.39057
0.0499428 0.679789 0.310277
0.211154 0.7243 0.138659
0.723278 0.801694 0.201968
0.904204 0.846784 0.33518
0.0974594 0.778058 0.561944
0.0897078 0.775464 0.454856
0.163577 0.776181 0.253178
0.635401 0.808194 0.277638
0.87248 0.879057 0.37499
0.0573587 0.0461585 0.198138
0.142794 0.0470588 0.213931
0.3561 0.059144 0.263828
0.648981 0.0720073 0.383032
0.819486 0.0940414 0.491829
0.0200198 0.0876936 0.226383
0.116411 0.0680095 0.329366
0.461326 0.0705119 0.330449
0.710964 0.0825666 0.402075
0.822217 0.0984054 0.463539
0.015259 0.349126 0.305928
0.0159152 0.356207 0.311849
0.519921 0.506127 0.483391
0.824186 0.547356 0.523812
0.923293 0.576806 0.553918
0.0538186 0.644831 0.49633
0.0517739 0.6374 0.457694
0.241764 0.68954 0.414267
0.715999 0.770504 0.489296
0.932631 0.81297 0.581338
0.114733 0.782071 0.649393
0.107088 0.77409 0.602945
0.159915 0.775158 0.485893
0.568475 0.800198 0.430625
0.867033 0.879423 0.529458
0.0998703 0.0495003 0.376104
0.215671 0.0515297 0.429847
0.443519 0.0583658 0.468421
0.690776 0.0813001 0.561456
0.837659 0.10518 0.658763
0.017731 0.0547646 0.383169
0.162524 0.0525368 0.521874
0.49424 0.0603189 0.541924
0.73608 0.0890669 0.599863
0.838636 0.105852 0.661128
0.0169528 0.323171 0.508614
0.0266423 0.315129 0.549386
0.579385 0.426093 0.743893
0.877562 0.49633 0.767544
0.949004 0.514351 0.789578
0.0581064 0.639017 0.586892
0.0565194 0.629969 0.5785
0.33283 0.692699 0.651225
0.776471 0.75642 0.733318
0.936812 0.773739 0.7561
0.130541 0.780301 0.698634
0.131746 0.771328 0.676005
0.279683 0.774487 0.660761
0.670161 0.845167 0.719509
0.899245 0.899123 0.740398
0.163333 0.054078 0.561456
0.297444 0.0576028 0.605097
0.537087 0.0606699 0.624704
0.744442 0.0933547 0.689006
0.859739 0.115663 0.758236
0.0455024 0.0533303 0.560174
0.247456 0.0604868 0.660761
0.562127 0.0635538 0.676707
0.773358 0.099321 0.71989
0.860059 0.116106 0.758358
0.0217746 0.311223 0.631586
0.0409094 0.300496 0.676555
0.635737 0.374929 0.86891
0.921218 0.461494 0.887465
0.963317 0.480491 0.885252
0.064744 0.643168 0.684596
0.0725719 0.62887 0.692897
0.380865 0.67805 0.780804
0.819837 0.73312 0.864317
0.948882 0.753201 0.871702
0.143206 0.780102 0.732845
0.146914 0.771664 0.72343
0.298344 0.775982 0.728939
0.724285 0.862531 0.819989
0.922133 0.898573 0.861036
