bundles/resolve-cinematic-luts/Phantom Luts/P4k & P6K Phntm Film LUTs - V6/P4K/Gen 4 Colour/Standard (No WB Offset)/P4k Eastman Gen4.cube
TITLE "Generated by Resolve"
LUT_3D_SIZE 9
0.0390021 0.0390021 0.0390021
0.0631571 0.0390021 0.0390021
0.154681 0.0390021 0.0390021
0.280049 0.0495155 0.0390021
0.39202 0.0644236 0.0430762
0.475578 0.0944228 0.0475624
0.555749 0.124147 0.0659342
0.627817 0.151476 0.107027
0.634745 0.160861 0.124971
0.0491493 0.0681468 0.0530861
0.0677195 0.0696422 0.0471504
0.153323 0.0663462 0.0477607
0.276051 0.0715648 0.0390021
0.379522 0.0897993 0.0408942
0.464668 0.114687 0.0436408
0.542687 0.143435 0.0556191
0.619821 0.178836 0.0944686
0.620111 0.194827 0.110277
0.0636759 0.170382 0.0849165
0.0618601 0.170626 0.058854
0.165057 0.197818 0.0704967
0.352895 0.194308 0.074403
0.481407 0.196994 0.0794537
0.5841 0.219059 0.092546
0.674052 0.254017 0.114885
0.741466 0.285786 0.137133
0.739864 0.296696 0.142596
0.102785 0.361151 0.164874
0.0983597 0.367361 0.128054
0.109545 0.372015 0.104448
0.351934 0.409247 0.0877394
0.52372 0.410986 0.0899062
0.654169 0.414328 0.121141
0.736034 0.426429 0.155154
0.79585 0.437476 0.185306
0.800565 0.445869 0.195239
0.138354 0.556832 0.311574
0.131426 0.548135 0.258167
0.131304 0.53991 0.181277
0.244327 0.558373 0.149706
0.496849 0.569848 0.112398
0.626596 0.571145 0.134386
0.733761 0.575662 0.163455
0.799695 0.584772 0.205859
0.809766 0.594827 0.218509
0.192584 0.714549 0.452628
0.185382 0.704402 0.421622
0.175891 0.684092 0.341695
0.19913 0.665019 0.222217
0.440192 0.691051 0.193256
0.606531 0.69427 0.173007
0.70663 0.694759 0.19971
0.791821 0.696468 0.257343
0.820661 0.697917 0.291341
0.252049 0.821668 0.555016
0.244099 0.81059 0.527626
0.22768 0.789029 0.466392
0.2224 0.752529 0.344686
0.432319 0.760128 0.252369
0.588144 0.770565 0.231785
0.697795 0.77525 0.239734
0.77847 0.774914 0.314763
0.813687 0.775113 0.379995
0.282948 0.869581 0.611261
0.276875 0.860349 0.587579
0.265599 0.843717 0.540703
0.253452 0.815717 0.463951
0.342123 0.800046 0.359564
0.547646 0.804623 0.325322
0.671336 0.806073 0.307362
0.767208 0.811734 0.344671
0.82388 0.820615 0.449821
0.289219 0.872709 0.633204
0.283146 0.864942 0.609476
0.270573 0.849317 0.562081
0.261204 0.827527 0.499962
0.314015 0.807019 0.41001
0.501854 0.807614 0.373968
0.64654 0.809964 0.348852
0.757855 0.81445 0.361166
0.820584 0.823514 0.462867
0.0390021 0.0390021 0.046067
0.0664073 0.0390021 0.0528115
0.162051 0.0390021 0.0677806
0.286198 0.0390021 0.0560616
0.385504 0.0390021 0.0472267
0.458732 0.0505379 0.0524758
0.534173 0.0669566 0.0782635
0.599557 0.0852674 0.125719
0.597589 0.0966659 0.151904
0.0431983 0.0556344 0.0565805
0.0633249 0.0548867 0.0623331
0.16527 0.0496834 0.0542153
0.284779 0.0562753 0.0393378
0.381201 0.072694 0.0421759
0.462242 0.101427 0.0467231
0.540337 0.131426 0.06804
0.610666 0.158709 0.109194
0.617746 0.166552 0.126345
0.0615244 0.155871 0.102495
0.0587472 0.159121 0.0844892
0.158145 0.186755 0.0707256
0.359426 0.165743 0.0846876
0.472786 0.171435 0.0796216
0.572534 0.198505 0.0946975
0.657343 0.231662 0.118929
0.721462 0.262135 0.144045
0.712947 0.267842 0.147448
0.102266 0.350774 0.20058
0.0967422 0.352178 0.164645
0.0964828 0.362036 0.105394
0.347616 0.40116 0.0887312
0.540459 0.39295 0.0978866
0.664057 0.39237 0.133272
0.74641 0.400244 0.167391
0.801984 0.41352 0.192859
0.80032 0.421195 0.199329
0.141894 0.55903 0.346197
0.135164 0.549874 0.31194
0.129076 0.53724 0.20766
0.212955 0.551919 0.151003
0.493675 0.563821 0.111131
0.633906 0.560784 0.135927
0.743542 0.564324 0.173663
0.804898 0.573953 0.213855
0.811902 0.581247 0.223682
0.194263 0.714199 0.474113
0.189288 0.705989 0.450645
0.176852 0.688411 0.380575
0.181689 0.662181 0.246082
0.420935 0.685832 0.197253
0.602564 0.688548 0.170443
0.708827 0.686915 0.198459
0.794797 0.687984 0.265827
0.816129 0.691081 0.30016
0.252964 0.821363 0.573526
0.247166 0.812879 0.548592
0.232761 0.795239 0.496193
0.21709 0.757992 0.383154
0.398016 0.756848 0.259419
0.571115 0.767193 0.232837
0.692164 0.770581 0.235645
0.778363 0.769192 0.309865
0.813748 0.769085 0.378256
0.289464 0.874891 0.63856
0.282933 0.868223 0.610071
0.270344 0.852018 0.562615
0.254932 0.822995 0.486458
0.306416 0.798932 0.372168
0.530373 0.803052 0.322972
0.662928 0.804837 0.299809
0.763668 0.810376 0.333455
0.816831 0.821485 0.452949
0.293584 0.87895 0.651621
0.288243 0.873259 0.627558
0.277989 0.859663 0.587884
0.264454 0.835859 0.521935
0.285771 0.810575 0.431434
0.473976 0.808255 0.380728
0.632242 0.810544 0.354376
0.750484 0.814023 0.358175
0.81529 0.823392 0.460868
0.0390021 0.0390021 0.105104
0.0893721 0.0390021 0.108736
0.168185 0.0390021 0.10985
0.288624 0.0390021 0.127749
0.38883 0.0390021 0.135286
0.466087 0.0390021 0.161303
0.53164 0.0482032 0.186816
0.584344 0.0754101 0.226551
0.580789 0.0865949 0.24564
0.0390021 0.0450599 0.0895857
0.046952 0.0390021 0.119448
0.157458 0.0390021 0.108949
0.285313 0.0390021 0.0965896
0.390402 0.0390021 0.0904555
0.462791 0.0390021 0.100923
0.535271 0.0518807 0.139467
0.596933 0.0865644 0.192798
0.596963 0.0973678 0.214633
0.055787 0.151049 0.122911
0.0525673 0.147723 0.122438
0.18349 0.177401 0.176547
0.372503 0.148989 0.162799
0.496345 0.141039 0.134051
0.584176 0.154192 0.135805
0.656306 0.172259 0.156497
0.696544 0.187579 0.180224
0.681895 0.183551 0.179553
0.0992294 0.348928 0.236851
0.0973831 0.345403 0.223835
0.107317 0.361196 0.190829
0.358999 0.403693 0.158328
0.569253 0.370718 0.16669
0.679042 0.356191 0.176669
0.76202 0.362142 0.191714
0.80592 0.37937 0.215015
0.797177 0.38349 0.219471
0.140154 0.558892 0.37911
0.138933 0.554543 0.367437
0.132342 0.540398 0.307332
0.16112 0.543847 0.177417
0.489525 0.55697 0.121141
0.65272 0.545861 0.162814
0.759762 0.544503 0.205463
0.817166 0.551812 0.24567
0.818769 0.554635 0.256199
0.192752 0.710826 0.497841
0.191806 0.705776 0.48571
0.184909 0.694743 0.443091
0.171908 0.666667 0.309407
0.390311 0.679606 0.213718
0.596872 0.680385 0.168414
0.715114 0.674586 0.206165
0.804593 0.67277 0.284398
0.818463 0.676371 0.310689
0.251896 0.818662 0.59321
0.248569 0.812161 0.577981
0.240589 0.801175 0.538537
0.218235 0.769924 0.440269
0.307195 0.756817 0.295979
0.541543 0.763226 0.24007
0.684382 0.763836 0.231037
0.7794 0.760647 0.308171
0.814267 0.76022 0.378744
0.293294 0.88069 0.66125
0.289723 0.874067 0.645289
0.280888 0.8645 0.602533
0.259892 0.836271 0.523491
0.266529 0.801572 0.406561
0.495262 0.801114 0.326528
0.643992 0.803418 0.293233
0.758816 0.808911 0.319219
0.816678 0.817716 0.44506
0.298894 0.886641 0.675456
0.295949 0.881804 0.660777
0.288273 0.873426 0.624933
0.270146 0.848814 0.556298
0.266804 0.819089 0.467903
0.42742 0.809369 0.390829
0.608377 0.811353 0.364538
0.737575 0.813428 0.352697
0.812299 0.821897 0.451591
0.041062 0.0401312 0.212284
0.099733 0.0390021 0.225727
0.193103 0.0390021 0.211032
0.290135 0.0390021 0.20708
0.389914 0.0390021 0.228687
0.474525 0.0401923 0.254734
0.54313 0.062501 0.278355
0.577264 0.0782177 0.310369
0.569406 0.0835279 0.320653
0.0390021 0.0392004 0.177188
0.0456855 0.040528 0.22121
0.170047 0.0390021 0.224826
0.284245 0.0390021 0.204074
0.386114 0.0390021 0.223011
0.472496 0.0402533 0.237919
0.54023 0.0619974 0.262669
0.575311 0.0784161 0.293248
0.568139 0.082948 0.302113
0.0390021 0.13051 0.203677
0.0390021 0.118074 0.216281
0.141756 0.111421 0.299413
0.336996 0.0977951 0.271656
0.450126 0.0806287 0.261433
0.53611 0.0844739 0.26453
0.593378 0.0931106 0.276158
0.629587 0.11017 0.299046
0.616434 0.110323 0.298955
0.0862593 0.346242 0.2795
0.0835584 0.344381 0.280064
0.10837 0.368109 0.306462
0.397742 0.405554 0.395422
0.569772 0.356695 0.370611
0.693477 0.309346 0.338659
0.777859 0.294911 0.321248
0.795132 0.286931 0.313802
0.783413 0.283207 0.311467
0.133425 0.558282 0.413748
0.132876 0.554589 0.412177
0.135698 0.549081 0.3944
0.25156 0.572045 0.404257
0.504036 0.568246 0.347204
0.679591 0.536934 0.355245
0.77348 0.515206 0.338064
0.82826 0.508293 0.326833
0.822995 0.505302 0.324666
0.189746 0.7075 0.524788
0.190127 0.703182 0.519982
0.189395 0.696666 0.500999
0.191531 0.691707 0.448875
0.349767 0.680446 0.349767
0.58996 0.675013 0.288228
0.735317 0.657557 0.315038
0.818067 0.654505 0.338872
0.822965 0.654246 0.346136
0.250736 0.816236 0.616175
0.248905 0.810224 0.607904
0.245701 0.803052 0.586938
0.237339 0.789746 0.531762
0.260853 0.766934 0.412131
0.506706 0.762264 0.324132
0.675883 0.759701 0.275471
0.786435 0.750423 0.328084
0.816953 0.748699 0.390204
0.295918 0.882826 0.685283
0.293065 0.876509 0.673503
0.28896 0.869352 0.651591
0.278019 0.855055 0.597177
0.260792 0.825238 0.492164
0.410163 0.80589 0.370214
0.61149 0.805753 0.314763
0.753964 0.808026 0.30721
0.818189 0.813916 0.444434
0.305058 0.894102 0.704097
0.304433 0.892103 0.69427
0.30071 0.886992 0.675395
0.29015 0.873655 0.627314
0.268727 0.840146 0.532586
0.355184 0.811109 0.423514
0.563088 0.812085 0.385489
0.715587 0.812879 0.352255
0.806592 0.820844 0.441138
0.052491 0.0481422 0.306004
0.126467 0.0390021 0.321309
0.232532 0.0390021 0.310018
0.307179 0.0390021 0.293111
0.39173 0.0390021 0.299016
0.481147 0.0440681 0.320653
0.551369 0.0674449 0.361669
0.583368 0.0803693 0.379904
0.575326 0.0847791 0.388174
0.0390021 0.0479896 0.268513
0.0580148 0.0483711 0.315343
0.202731 0.0390021 0.325567
0.300114 0.0390021 0.298634
0.390219 0.0390021 0.298177
0.479774 0.0439002 0.319387
0.550927 0.0683757 0.354559
0.581491 0.0817121 0.370993
0.574655 0.0856336 0.378592
0.0390021 0.0992599 0.276646
0.0390021 0.0822614 0.283177
0.105913 0.0523232 0.35407
0.298268 0.0390021 0.324086
0.395605 0.0390021 0.305104
0.480247 0.0449073 0.315389
0.553582 0.0682841 0.33872
0.585061 0.0806592 0.351583
0.57937 0.0849622 0.358083
0.0656596 0.323308 0.351904
0.0607156 0.311452 0.35462
0.0737926 0.308568 0.389334
0.369604 0.31986 0.514382
0.556008 0.300664 0.488136
0.670893 0.260395 0.476417
0.751431 0.244266 0.477012
0.765393 0.22887 0.47834
0.754726 0.227695 0.474861
0.124605 0.556085 0.45478
0.123751 0.552804 0.456458
0.12311 0.548592 0.453773
0.285679 0.578561 0.509285
0.549233 0.568597 0.549889
0.684077 0.526818 0.524941
0.775982 0.479377 0.490074
0.82266 0.454398 0.472618
0.81677 0.446967 0.467399
0.184955 0.70489 0.552544
0.184833 0.700038 0.551034
0.184573 0.694286 0.542046
0.225391 0.705684 0.544839
0.450752 0.689296 0.554269
0.621271 0.689632 0.514748
0.761868 0.662913 0.515114
0.830274 0.636698 0.488243
0.837217 0.626886 0.474403
0.247547 0.812284 0.639475
0.24593 0.806058 0.633433
0.243473 0.799466 0.61973
0.242512 0.791867 0.595453
0.373358 0.789853 0.575677
0.517113 0.769512 0.512444
0.683421 0.767742 0.477028
0.809384 0.747005 0.489815
0.834195 0.744595 0.480537
0.295598 0.880385 0.704845
0.292882 0.874617 0.695888
0.289387 0.868132 0.680873
0.284489 0.859419 0.653376
0.30219 0.859693 0.613108
0.428748 0.820676 0.52549
0.601389 0.823758 0.491585
0.753704 0.817914 0.448402
0.826596 0.815427 0.498344
0.312169 0.901167 0.731151
0.311772 0.899504 0.725856
0.310384 0.897581 0.714321
0.307332 0.892439 0.691188
0.300099 0.87837 0.638788
0.372229 0.846174 0.557794
0.514015 0.82919 0.501183
0.702174 0.826795 0.451606
0.805203 0.824948 0.462181
0.0840314 0.0507515 0.378714
0.166201 0.0390173 0.390356
0.263783 0.0390021 0.384848
0.336919 0.0390021 0.367498
0.4047 0.0390021 0.365637
0.48423 0.0545205 0.380835
0.554391 0.076936 0.40528
0.579675 0.0905318 0.440391
0.579141 0.0937057 0.449668
0.0390021 0.0551156 0.348577
0.0922255 0.0496071 0.385946
0.232853 0.0390021 0.396155
0.329503 0.0390021 0.373892
0.402228 0.0390021 0.368002
0.483619 0.0548104 0.381048
0.554879 0.0768292 0.403861
0.580163 0.090074 0.437385
0.578958 0.0933089 0.44477
0.0390021 0.0655375 0.322194
0.0390021 0.0548867 0.32668
0.125307 0.0466468 0.402548
0.307439 0.0390021 0.388739
0.395331 0.0390021 0.372473
0.482414 0.0545815 0.380118
0.55346 0.0750744 0.399176
0.581628 0.0876631 0.427588
0.578927 0.0909438 0.43154
0.0483253 0.279271 0.399039
0.0449683 0.262135 0.398108
0.050721 0.238804 0.42385
0.347997 0.214923 0.564126
0.537041 0.210391 0.55021
0.639261 0.200381 0.53315
0.700389 0.189212 0.529717
0.701411 0.175494 0.521233
0.692454 0.175647 0.514824
0.113542 0.547845 0.516091
0.111971 0.541344 0.518486
0.107012 0.526116 0.523491
0.256474 0.546014 0.599817
0.537972 0.515831 0.664027
0.687236 0.491737 0.626444
0.770764 0.448554 0.603342
0.813092 0.42298 0.594369
0.807538 0.414237 0.589456
0.178241 0.700069 0.584939
0.177462 0.695369 0.584222
0.176318 0.690455 0.580514
0.205097 0.701686 0.594873
0.485237 0.697414 0.640375
0.66099 0.686702 0.662577
0.769497 0.652186 0.640665
0.831601 0.61117 0.608118
0.835981 0.596231 0.599588
0.243717 0.809186 0.660258
0.242344 0.803326 0.655787
0.240208 0.796857 0.646983
0.249577 0.794461 0.63946
0.452979 0.802014 0.670985
0.588357 0.776989 0.666743
0.719524 0.780789 0.637552
0.830457 0.758938 0.634638
0.858976 0.746883 0.619211
0.294362 0.877073 0.721828
0.291859 0.871443 0.715221
0.288716 0.865812 0.704112
0.286931 0.859083 0.686137
0.368902 0.874266 0.69221
0.521523 0.848951 0.677043
0.626902 0.840024 0.642191
0.777111 0.840986 0.611978
0.85922 0.834119 0.637186
0.319677 0.906813 0.753429
0.319265 0.905821 0.749752
0.318624 0.904616 0.743358
0.31667 0.902007 0.730129
0.31986 0.899489 0.708995
0.470359 0.900969 0.706142
0.565332 0.863813 0.663218
0.717952 0.869581 0.645487
0.829374 0.861784 0.607889
0.136049 0.0501106 0.436713
0.20621 0.0424353 0.443595
0.290044 0.0390021 0.439979
0.363348 0.0390021 0.4262
0.42295 0.0443885 0.420722
0.494728 0.0648356 0.43508
0.559991 0.0884565 0.457908
0.582956 0.0989853 0.474205
0.584649 0.100938 0.483864
0.0549783 0.0591592 0.411276
0.143267 0.0498207 0.442267
0.261997 0.0391089 0.448997
0.354498 0.0390021 0.432624
0.420066 0.0442206 0.424033
0.494316 0.0649882 0.43711
0.560601 0.0883803 0.458335
0.583429 0.0988479 0.472892
0.584375 0.10074 0.480735
0.0390021 0.0581064 0.356283
0.0390021 0.0602884 0.381231
0.177691 0.0475776 0.453834
0.330282 0.0390021 0.445731
0.411414 0.043473 0.428565
0.490532 0.0641642 0.438148
0.558129 0.0876173 0.455299
0.582727 0.0978866 0.467109
0.584024 0.0999771 0.47277
0.0390021 0.230274 0.424689
0.0390021 0.207538 0.421439
0.0415961 0.175051 0.449409
0.32256 0.131975 0.560342
0.494194 0.135241 0.552178
0.580789 0.143679 0.542245
0.6336 0.146059 0.528679
0.633646 0.135866 0.51339
0.627695 0.132906 0.511223
0.103838 0.522789 0.563455
0.101457 0.513573 0.563729
0.0965133 0.493462 0.565759
0.2327 0.505638 0.656046
0.534569 0.461479 0.743786
0.694118 0.440284 0.706661
0.775586 0.418173 0.676081
0.814176 0.391974 0.669032
0.807401 0.381491 0.662287
0.167239 0.691783 0.623484
0.165057 0.686122 0.62295
0.164294 0.678355 0.626245
0.205524 0.686793 0.664607
0.466468 0.676493 0.720302
0.656168 0.649287 0.755474
0.771313 0.629664 0.722728
0.830594 0.58674 0.697307
0.833188 0.572763 0.689189
0.239734 0.804334 0.684993
0.236942 0.797894 0.681514
0.234012 0.791653 0.675044
0.237201 0.787655 0.672297
0.442527 0.806867 0.721325
0.618647 0.784314 0.735058
0.750881 0.778531 0.751614
0.838605 0.750637 0.733333
0.864759 0.731807 0.720043
0.292882 0.874403 0.73518
0.291188 0.869154 0.730648
0.289601 0.864607 0.723293
0.294545 0.860914 0.715785
0.409262 0.87895 0.740429
0.589487 0.866438 0.760159
0.687816 0.850385 0.759518
0.804822 0.856168 0.73579
0.882567 0.84828 0.743816
0.330159 0.914046 0.773617
0.328954 0.912108 0.770047
0.328695 0.910399 0.765209
0.329198 0.90753 0.756634
0.358175 0.915236 0.75552
0.534981 0.92781 0.785748
0.645441 0.904753 0.782757
0.743832 0.897917 0.764324
0.857084 0.897704 0.736049
0.19501 0.0522011 0.484001
0.246906 0.0484474 0.487144
0.31725 0.0459449 0.485695
0.38764 0.0500038 0.477424
0.446632 0.0569314 0.470573
0.511604 0.0762646 0.482429
0.568414 0.0977035 0.500313
0.588968 0.107347 0.514717
0.591348 0.109773 0.523308
0.12781 0.0585336 0.471534
0.201022 0.0525673 0.487556
0.293172 0.0475013 0.490837
0.377935 0.0496986 0.482048
0.44361 0.0569772 0.473411
0.509636 0.0759136 0.483619
0.568368 0.0980392 0.501579
0.589105 0.107408 0.51429
0.59115 0.109545 0.521187
0.0390021 0.0646525 0.402945
0.062562 0.0641489 0.446632
0.227985 0.0517128 0.494316
0.353643 0.0489357 0.489403
0.434623 0.0565042 0.477516
0.504204 0.0744182 0.48455
0.565133 0.0966964 0.500557
0.589242 0.107012 0.511696
0.590509 0.108537 0.516106
0.0390021 0.170657 0.438468
0.0390021 0.149508 0.433936
0.039826 0.11751 0.457969
0.290486 0.0651408 0.52079
0.425299 0.0674296 0.504814
0.515267 0.0908217 0.511238
0.580163 0.11136 0.521279
0.595819 0.111269 0.513298
0.593973 0.110048 0.510506
0.0950942 0.494469 0.596536
0.0915084 0.481621 0.594263
0.0872816 0.458778 0.593927
0.25005 0.458793 0.709606
0.553063 0.403189 0.793851
0.706264 0.383001 0.75819
0.776394 0.379477 0.733852
0.808911 0.361639 0.716503
0.803677 0.347845 0.708614
0.162524 0.67686 0.667308
0.15903 0.668589 0.666407
0.15819 0.657298 0.669932
0.2318 0.664576 0.722301
0.446433 0.643336 0.77496
0.660548 0.605493 0.822354
0.780316 0.585687 0.786267
0.834852 0.56083 0.755352
0.838026 0.542916 0.747341
0.230823 0.796201 0.712764
0.227787 0.789227 0.710826
0.224918 0.780804 0.709819
0.239719 0.776806 0.7234
0.438895 0.788907 0.787381
0.602792 0.764141 0.799313
0.753765 0.744198 0.826902
0.838682 0.727657 0.798581
0.862867 0.706127 0.785504
0.290242 0.869841 0.7523
0.287556 0.864424 0.748333
0.28574 0.859953 0.743862
0.288518 0.856153 0.740932
0.39791 0.877195 0.774823
0.588998 0.871107 0.801114
0.716884 0.857114 0.812772
0.827924 0.855833 0.826658
0.892027 0.842802 0.8206
0.357168 0.921767 0.795056
0.355077 0.919371 0.791836
0.356329 0.917235 0.788113
0.361379 0.914763 0.783307
0.410163 0.923232 0.793576
0.577935 0.931411 0.825727
0.697963 0.916716 0.83653
0.79115 0.90753 0.842924
0.876524 0.914244 0.827344
0.2607 0.0558175 0.516732
0.297429 0.0545205 0.517082
0.353933 0.0560616 0.516243
0.416648 0.0617685 0.511681
0.476493 0.0713054 0.507713
0.533028 0.0878462 0.515358
0.579538 0.106355 0.528572
0.593988 0.113588 0.535988
0.59443 0.113863 0.536385
0.215702 0.0586709 0.513832
0.2654 0.0561379 0.518273
0.334417 0.0554818 0.518471
0.406928 0.0611582 0.513634
0.471992 0.0704204 0.508125
0.531441 0.0875868 0.516304
0.578729 0.106432 0.529564
0.594095 0.113664 0.536126
0.594629 0.114061 0.536538
0.0683452 0.0680552 0.467247
0.165118 0.0617838 0.50341
0.284779 0.0563211 0.520882
0.384649 0.0594034 0.517647
0.460975 0.0691081 0.510475
0.525597 0.0860304 0.516197
0.574548 0.10486 0.528237
0.594095 0.113619 0.535805
0.594827 0.114305 0.536782
0.0390021 0.121828 0.450843
0.0390021 0.103822 0.446433
0.0580911 0.0719615 0.465263
0.315496 0.0577554 0.525017
0.432013 0.0665904 0.517388
0.510033 0.0836042 0.517311
0.565515 0.102251 0.527382
0.59469 0.113893 0.535424
0.594781 0.114015 0.535561
0.0962539 0.46775 0.623392
0.0964218 0.454032 0.622721
0.103456 0.431647 0.62739
0.322332 0.408118 0.753231
0.595789 0.346136 0.793072
0.717662 0.333364 0.761135
0.77818 0.336736 0.74493
0.798611 0.328008 0.733364
0.791089 0.31078 0.725261
0.168536 0.66331 0.701274
0.166613 0.65449 0.701228
0.168658 0.643839 0.706081
0.273228 0.639139 0.764233
0.478935 0.606073 0.817929
0.69929 0.558694 0.848722
0.7953 0.538964 0.813306
0.839277 0.526787 0.79295
0.842969 0.511711 0.789776
0.232609 0.786923 0.744869
0.227756 0.778088 0.742748
0.230808 0.770443 0.747616
0.284962 0.76672 0.777203
0.456672 0.761563 0.826398
0.601175 0.731548 0.839002
0.771756 0.703334 0.865827
0.845533 0.688609 0.836118
0.863645 0.677684 0.823087
0.28098 0.866682 0.765225
0.277867 0.860807 0.76257
0.279957 0.856901 0.763851
0.301946 0.855177 0.774594
0.426078 0.869291 0.822507
0.594888 0.858366 0.847135
0.715297 0.844038 0.856291
0.839277 0.832685 0.877623
0.889723 0.826169 0.862669
0.369436 0.922789 0.812177
0.364157 0.918914 0.807828
0.363546 0.916213 0.805478
0.366934 0.913436 0.803098
0.414191 0.922637 0.818006
0.579217 0.932021 0.851835
0.705089 0.919005 0.862699
0.813306 0.910109 0.874388
0.888869 0.911833 0.881498
