bundles/resolve-cinematic-luts/Phantom Luts/P4k & P6K Phntm Film LUTs - V6/P4K/Gen 4 Colour/Standard (No WB Offset)/P4k VisionTeal Gen4-Legacy.cube
TITLE "Generated by Resolve"
LUT_3D_SIZE 33
0.022385 0.0343481 0.0323491
0.022385 0.0343481 0.0323491
0.0224002 0.0342107 0.0325933
0.0296941 0.036347 0.0347906
0.0398718 0.0394598 0.0365301
0.0537423 0.04065 0.0373541
0.0726787 0.0415656 0.0376745
0.0941482 0.0420233 0.0368658
0.117632 0.0432898 0.0352636
0.146395 0.0447852 0.0338903
0.183474 0.0455329 0.0315404
0.217395 0.0460822 0.0297398
0.254765 0.0478676 0.0290074
0.291798 0.0496834 0.0287938
0.327169 0.0522621 0.0289006
0.363958 0.0551461 0.0294194
0.403326 0.0597696 0.0310826
0.444434 0.0668803 0.0337224
0.486351 0.0751507 0.0381476
0.526162 0.0877089 0.0437018
0.577356 0.0986038 0.0538491
0.628504 0.106859 0.0622416
0.680034 0.119677 0.0733654
0.722942 0.131868 0.0836347
0.755169 0.144472 0.0940871
0.773312 0.155032 0.100969
0.775753 0.159823 0.102846
0.776761 0.165179 0.103319
0.777829 0.169497 0.103746
0.778683 0.17293 0.104051
0.78117 0.177203 0.106325
0.781872 0.181399 0.107149
0.783322 0.189151 0.109041
0.022385 0.0343023 0.0323033
0.022385 0.0343481 0.0323339
0.022385 0.0342107 0.0322728
0.0299992 0.0373388 0.0349737
0.0399481 0.0404059 0.0366369
0.0535592 0.0416266 0.0375525
0.0724651 0.0425727 0.0386664
0.093431 0.0430762 0.0377966
0.119295 0.0450752 0.0359655
0.149111 0.0468147 0.0344701
0.184039 0.0471199 0.0319677
0.217029 0.047303 0.0304112
0.253178 0.0490272 0.0295262
0.29044 0.0508888 0.0291752
0.328939 0.0541238 0.0293736
0.364691 0.0564736 0.0299077
0.403586 0.0608682 0.0315862
0.444434 0.068101 0.0340734
0.489479 0.0795148 0.0402991
0.53109 0.0890974 0.0464485
0.57789 0.100633 0.0545815
0.62681 0.111772 0.0631418
0.676753 0.124819 0.0732586
0.722255 0.134173 0.0840467
0.754528 0.146441 0.0940871
0.77261 0.157702 0.10074
0.776272 0.164034 0.102602
0.777615 0.168978 0.103685
0.777508 0.171893 0.103365
0.780041 0.17641 0.105409
0.781338 0.181064 0.106523
0.782589 0.188266 0.108385
0.783398 0.194125 0.109377
0.0224002 0.0403601 0.0338293
0.0222324 0.0383764 0.0316167
0.0222171 0.036759 0.0322576
0.026276 0.040177 0.0340887
0.0361639 0.0419318 0.0362249
0.0520638 0.0438392 0.0380713
0.0709239 0.0456092 0.0388495
0.092958 0.047425 0.038117
0.117021 0.0492256 0.0370642
0.144472 0.0505531 0.0352331
0.179141 0.0499428 0.0326848
0.216342 0.0506905 0.0314336
0.255467 0.0525216 0.0303197
0.293538 0.054612 0.0304265
0.328237 0.056733 0.0304875
0.362844 0.0579232 0.0303197
0.406088 0.0643168 0.0321965
0.447166 0.0726177 0.0354772
0.489143 0.0813764 0.0404212
0.530877 0.0911421 0.0471046
0.581949 0.105791 0.0565805
0.629282 0.117189 0.0641337
0.674113 0.126772 0.0731823
0.718669 0.13991 0.0840314
0.752621 0.149142 0.0938277
0.772931 0.161257 0.10135
0.777584 0.169009 0.103685
0.777035 0.171542 0.103227
0.778622 0.175555 0.104219
0.780194 0.181552 0.105684
0.781857 0.189364 0.107683
0.782803 0.19498 0.10898
0.784833 0.201144 0.111101
0.0213931 0.0542 0.0396124
0.0214389 0.0533455 0.0365606
0.0222934 0.0509804 0.0343175
0.0294652 0.0508583 0.0354009
0.0392309 0.0514687 0.0382239
0.0528115 0.0528267 0.0395972
0.0716411 0.0528878 0.0399023
0.0920272 0.053666 0.0397498
0.11606 0.0555886 0.0386053
0.14522 0.0565805 0.0363775
0.182818 0.0564584 0.0336767
0.219059 0.0574044 0.0322728
0.257191 0.0577401 0.0313878
0.294926 0.0586099 0.0315251
0.331579 0.0607004 0.0313115
0.368475 0.0640726 0.0319524
0.40885 0.0698558 0.033814
0.449744 0.0768902 0.0372473
0.492332 0.0852216 0.0415808
0.537545 0.0983597 0.0496376
0.584665 0.111192 0.057847
0.629892 0.121874 0.0651713
0.673609 0.130205 0.07364
0.719692 0.145006 0.0858167
0.754849 0.161334 0.0962997
0.773968 0.168551 0.102693
0.777752 0.174136 0.103532
0.778225 0.175875 0.103914
0.779324 0.183261 0.105074
0.78172 0.192035 0.10782
0.781918 0.198367 0.108324
0.783566 0.203082 0.110185
0.785855 0.21236 0.1122
0.020798 0.0713512 0.0414893
0.0207065 0.0708629 0.0379339
0.0209964 0.068452 0.0346532
0.0267033 0.0661784 0.0351263
0.0388495 0.0667735 0.0371557
0.0543221 0.0670481 0.0390021
0.0739147 0.0679179 0.0398108
0.0939345 0.0675975 0.041001
0.116976 0.0673075 0.0405585
0.147402 0.0663157 0.0390478
0.185519 0.065095 0.0355535
0.222553 0.0645762 0.033753
0.260929 0.0645151 0.0324407
0.300145 0.0656748 0.0324559
0.336965 0.0680858 0.0324559
0.374273 0.071519 0.0334783
0.414542 0.0768902 0.0357061
0.457298 0.0853742 0.0403449
0.50161 0.0963455 0.0464332
0.545144 0.107607 0.0534218
0.58941 0.118624 0.0603952
0.63444 0.129503 0.0680247
0.682216 0.143404 0.0787366
0.723186 0.156558 0.0879683
0.756024 0.17203 0.0979782
0.774289 0.1841 0.103426
0.779263 0.185092 0.10518
0.780194 0.191501 0.106401
0.780636 0.198505 0.106996
0.781521 0.204196 0.108446
0.783688 0.210544 0.111116
0.785092 0.217655 0.112413
0.787366 0.226474 0.115175
0.0202182 0.0899062 0.0442817
0.0201114 0.0903792 0.0396735
0.0204318 0.0887312 0.0350958
0.0222477 0.0859083 0.0328527
0.0328832 0.085771 0.0361486
0.0532082 0.0859236 0.0379797
0.0704967 0.0863661 0.0373693
0.0907301 0.0844434 0.0363317
0.118532 0.0833448 0.0401312
0.15111 0.0812085 0.0403296
0.188434 0.0775921 0.0384985
0.226612 0.0743572 0.0360266
0.266728 0.0742046 0.0350652
0.305959 0.0757 0.0346227
0.344549 0.0781415 0.0349279
0.383154 0.0822766 0.0360418
0.424338 0.0885481 0.0395056
0.468315 0.0990158 0.0453498
0.511604 0.109499 0.051133
0.554833 0.12079 0.0572976
0.598993 0.132906 0.0645762
0.644114 0.145266 0.0726329
0.689464 0.158511 0.0825513
0.727901 0.171969 0.0920424
0.757809 0.187625 0.100526
0.775448 0.200671 0.106386
0.781552 0.209903 0.109071
0.781476 0.209796 0.108888
0.781765 0.215641 0.109819
0.783566 0.221973 0.112108
0.785565 0.228183 0.114229
0.787503 0.235325 0.116701
0.789441 0.243534 0.119219
0.0201419 0.109194 0.0496986
0.0199893 0.110201 0.0422675
0.0198978 0.108751 0.0369879
0.0195926 0.105409 0.0301213
0.0277256 0.104097 0.0327611
0.0429541 0.104448 0.0371557
0.0720836 0.104021 0.0386206
0.0883345 0.104921 0.0343786
0.114611 0.102541 0.0327916
0.152056 0.0991836 0.0367437
0.197742 0.0930495 0.0366369
0.236606 0.0900435 0.0373846
0.275822 0.0883955 0.0370794
0.316518 0.0878767 0.0363775
0.356268 0.0912947 0.0375982
0.396628 0.0965744 0.0399786
0.440375 0.106081 0.0455634
0.483375 0.116258 0.0508431
0.524742 0.126345 0.0564736
0.566506 0.137179 0.0622568
0.608942 0.149111 0.0691539
0.652964 0.163134 0.0775921
0.695399 0.176638 0.0861677
0.732219 0.192004 0.0947433
0.759594 0.20734 0.10248
0.776745 0.220554 0.109453
0.783246 0.230411 0.112642
0.784039 0.236851 0.114824
0.784115 0.236713 0.114885
0.784817 0.242237 0.116121
0.786404 0.248661 0.118166
0.78793 0.255772 0.12015
0.789487 0.263752 0.123232
0.0196384 0.130678 0.0545968
0.0194247 0.13225 0.046067
0.0194553 0.131899 0.0392157
0.0192721 0.129458 0.0335393
0.0203555 0.124468 0.0300145
0.0325475 0.125841 0.0318608
0.0574502 0.12517 0.0385595
0.0907301 0.12578 0.0371862
0.107439 0.127687 0.0321202
0.14023 0.124468 0.0308843
0.191073 0.120348 0.0356298
0.240772 0.115007 0.0388342
0.286976 0.111482 0.0413519
0.327947 0.112291 0.0425879
0.369909 0.114382 0.0451667
0.412039 0.118212 0.0473793
0.4551 0.127199 0.0522621
0.496605 0.136202 0.056672
0.536477 0.146273 0.0611887
0.57702 0.157839 0.0669261
0.617441 0.170657 0.0730144
0.660151 0.184405 0.0809491
0.701366 0.199115 0.0889754
0.735515 0.214893 0.098085
0.762539 0.230167 0.107347
0.77937 0.243549 0.114183
0.785077 0.253376 0.118364
0.785565 0.25861 0.119371
0.786877 0.26511 0.121523
0.787289 0.265553 0.121874
0.788739 0.272236 0.124651
0.789319 0.278279 0.126101
0.790997 0.285801 0.129473
0.0190433 0.158541 0.0564736
0.019089 0.160266 0.0485847
0.0189517 0.160143 0.0402991
0.0188907 0.157671 0.0347906
0.0188907 0.152544 0.0315557
0.0235447 0.149538 0.028397
0.0349126 0.152834 0.0300755
0.0749065 0.152834 0.0390631
0.108721 0.155169 0.0365301
0.131609 0.158083 0.0304265
0.173251 0.154223 0.0296941
0.233951 0.15404 0.0360723
0.290944 0.152865 0.0437171
0.343435 0.149798 0.0518959
0.387121 0.151614 0.055314
0.426368 0.153155 0.0568704
0.467918 0.15642 0.0595254
0.508995 0.16257 0.0627756
0.547524 0.171649 0.0659342
0.585336 0.182986 0.0711681
0.624704 0.195819 0.0776226
0.665934 0.209537 0.085832
0.707424 0.224247 0.0952316
0.741283 0.239582 0.10425
0.765743 0.254612 0.112871
0.781613 0.269108 0.12079
0.786908 0.27834 0.125124
0.788205 0.284123 0.127031
0.788663 0.289799 0.128832
0.789471 0.295384 0.131472
0.790097 0.296818 0.132555
0.79057 0.302174 0.134173
0.79205 0.309163 0.137804
0.0188602 0.191989 0.0610361
0.0188144 0.194202 0.0531624
0.0186465 0.193957 0.0447395
0.0186313 0.191546 0.0391852
0.0187686 0.187701 0.0359808
0.0183719 0.180987 0.0262608
0.0239719 0.182239 0.0267643
0.0397192 0.18793 0.029984
0.0895094 0.189975 0.0395972
0.133211 0.196399 0.0396582
0.169879 0.200946 0.032105
0.216724 0.1991 0.0318761
0.28249 0.200183 0.0377508
0.338567 0.200732 0.0471809
0.391608 0.197009 0.0552682
0.434043 0.196292 0.0618601
0.473548 0.199023 0.0644236
0.514031 0.200641 0.0681773
0.553521 0.206378 0.0720378
0.592935 0.213291 0.0777295
0.633234 0.224414 0.0856947
0.672648 0.237552 0.0932479
0.712749 0.252293 0.102846
0.745327 0.267445 0.112337
0.769146 0.282521 0.121798
0.783886 0.296315 0.129732
0.7897 0.305196 0.134386
0.789914 0.310033 0.136172
0.790311 0.315328 0.138842
0.790753 0.321309 0.141649
0.791424 0.327581 0.144228
0.79237 0.328832 0.145617
0.792813 0.334249 0.148577
0.018616 0.235401 0.0736553
0.018677 0.236728 0.0657664
0.0185702 0.236301 0.0565194
0.0185092 0.235294 0.0541238
0.0186618 0.231189 0.0469368
0.0183871 0.223743 0.0371862
0.0181277 0.2168 0.0297246
0.0328985 0.225315 0.0328527
0.0556497 0.233494 0.0375372
0.115908 0.237705 0.0486458
0.172549 0.241596 0.0445411
0.212757 0.245457 0.0347601
0.263951 0.244312 0.035935
0.329366 0.247364 0.0402533
0.384268 0.248356 0.0498054
0.436515 0.246662 0.0589914
0.480995 0.246006 0.0683452
0.518929 0.248631 0.0775311
0.556405 0.252628 0.0822461
0.59794 0.255894 0.089662
0.638361 0.263676 0.0964065
0.678828 0.272084 0.103975
0.719005 0.283711 0.113359
0.750088 0.297795 0.123125
0.771954 0.31165 0.132479
0.78613 0.324666 0.141482
0.790829 0.333669 0.146868
0.791089 0.338537 0.149081
0.791241 0.343465 0.151186
0.791623 0.34873 0.15407
0.792203 0.354208 0.157198
0.793164 0.356542 0.15874
0.794125 0.361578 0.162829
0.019089 0.284947 0.0904402
0.0190433 0.285435 0.0831464
0.018967 0.285115 0.0750286
0.0189364 0.284413 0.0719615
0.0199283 0.28188 0.0638895
0.020798 0.276341 0.0543374
0.0208591 0.269734 0.0428779
0.0272221 0.266224 0.0375525
0.0480049 0.274876 0.0402228
0.0764019 0.282246 0.0451209
0.14815 0.284688 0.0590372
0.213596 0.286595 0.0489967
0.257496 0.290669 0.0374762
0.310002 0.289525 0.0411536
0.373297 0.295171 0.0451057
0.427756 0.297658 0.0537118
0.47953 0.297978 0.0640574
0.525597 0.298268 0.0755322
0.563317 0.301656 0.0867018
0.59826 0.307225 0.0979477
0.637858 0.312444 0.110124
0.679103 0.316854 0.118486
0.7196 0.324208 0.127626
0.751125 0.333471 0.137774
0.773861 0.343404 0.14696
0.787747 0.356069 0.15668
0.791699 0.364096 0.162295
0.79205 0.368597 0.165179
0.792004 0.373129 0.167071
0.792432 0.378454 0.170718
0.792721 0.383932 0.174075
0.793561 0.390646 0.17792
0.794675 0.391684 0.179812
0.0191806 0.33463 0.111208
0.0191196 0.334707 0.102571
0.019089 0.334112 0.0965133
0.0246281 0.333639 0.0922255
0.0261387 0.332723 0.0833906
0.0277562 0.328389 0.0741741
0.0280461 0.32285 0.0627146
0.0279698 0.315251 0.0482185
0.0406195 0.315663 0.0453651
0.0674907 0.322011 0.0482185
0.102113 0.328344 0.0560616
0.194476 0.326452 0.0668803
0.257969 0.329519 0.052018
0.302068 0.333837 0.04094
0.353048 0.333501 0.0474556
0.415213 0.341436 0.0520638
0.470756 0.345068 0.0606546
0.520119 0.348074 0.0711376
0.566659 0.350011 0.0861677
0.606226 0.353918 0.099794
0.641138 0.359686 0.112093
0.678126 0.36585 0.127352
0.71725 0.371893 0.144915
0.749691 0.378592 0.156344
0.772686 0.386481 0.1673
0.787564 0.394232 0.17734
0.791592 0.398489 0.181857
0.79237 0.402441 0.184634
0.791806 0.406806 0.186572
0.792584 0.411841 0.18999
0.792569 0.416648 0.192767
0.793698 0.422248 0.195941
0.794095 0.427192 0.198276
0.0208743 0.383551 0.137881
0.0204776 0.383398 0.128176
0.0232395 0.382879 0.120882
0.0320134 0.382498 0.116747
0.0335393 0.381582 0.107301
0.0356909 0.379599 0.0976272
0.0361639 0.374594 0.0866102
0.0371099 0.367926 0.0725719
0.0367742 0.359091 0.0547341
0.0605478 0.362051 0.0539559
0.0910048 0.367819 0.0586557
0.135698 0.372457 0.068574
0.244816 0.367208 0.075349
0.305333 0.372198 0.0547341
0.345892 0.377142 0.0477913
0.39585 0.376547 0.0562753
0.458335 0.386099 0.0631571
0.511788 0.390936 0.070222
0.559335 0.396704 0.0814069
0.606516 0.400366 0.09897
0.64773 0.405509 0.115663
0.685527 0.411505 0.131182
0.719448 0.41883 0.147326
0.74905 0.425681 0.164599
0.770901 0.432456 0.182925
0.78584 0.439567 0.196124
0.792355 0.444434 0.202914
0.793118 0.445869 0.203738
0.793118 0.446204 0.203693
0.793469 0.448753 0.203708
0.794644 0.453452 0.204257
0.795392 0.45771 0.204456
0.796292 0.462699 0.205325
0.0274815 0.432303 0.175677
0.0262455 0.433753 0.165454
0.0272526 0.433051 0.153201
0.037705 0.431907 0.148882
0.0417792 0.431373 0.13962
0.0446479 0.430259 0.126192
0.0458686 0.424887 0.113375
0.047303 0.420447 0.10045
0.0473487 0.412497 0.0831464
0.0478828 0.403952 0.0621805
0.0857252 0.407279 0.06392
0.117098 0.412268 0.0712444
0.185824 0.412558 0.0817121
0.294621 0.408865 0.08336
0.353414 0.414008 0.0597391
0.389349 0.419715 0.0568093
0.439719 0.420447 0.0689708
0.500374 0.430442 0.0776379
0.552117 0.436683 0.0844892
0.599252 0.444068 0.0959487
0.646143 0.449409 0.112764
0.690181 0.455711 0.133333
0.72665 0.462394 0.151446
0.754192 0.47013 0.169009
0.77467 0.477256 0.183948
0.789837 0.484627 0.196857
0.798001 0.490974 0.205737
0.798962 0.4925 0.206836
0.798947 0.492393 0.206806
0.7991 0.491875 0.206912
0.799283 0.490517 0.206821
0.799496 0.493034 0.20708
0.80119 0.497292 0.208911
0.0362402 0.481727 0.21796
0.0346227 0.482551 0.208438
0.0339818 0.482734 0.197574
0.034287 0.481727 0.185321
0.0489052 0.481056 0.182528
0.0540475 0.47953 0.165835
0.0568399 0.476768 0.148791
0.0580911 0.470726 0.13135
0.0597696 0.464714 0.115023
0.0598917 0.455512 0.0936141
0.0701305 0.448463 0.0732586
0.1122 0.451774 0.0782788
0.15761 0.4542 0.0868238
0.240101 0.452171 0.0962234
0.343648 0.450263 0.0904402
0.399634 0.456153 0.0685588
0.433188 0.461891 0.0716259
0.481895 0.463478 0.084062
0.541161 0.473701 0.0920119
0.591989 0.480827 0.100725
0.639719 0.490105 0.111971
0.68716 0.498192 0.129107
0.730465 0.504601 0.151324
0.760098 0.512123 0.173754
0.780529 0.519509 0.190738
0.795605 0.528328 0.203601
0.803632 0.535195 0.212375
0.805951 0.538643 0.215641
0.805875 0.538354 0.215595
0.805753 0.53724 0.215503
0.805325 0.535073 0.214984
0.80499 0.532738 0.214267
0.805386 0.531746 0.214618
0.0479133 0.532021 0.262791
0.04448 0.533288 0.254566
0.0424964 0.533944 0.244511
0.0417792 0.533944 0.233951
0.0427253 0.532921 0.221729
0.0619821 0.530877 0.215213
0.0681621 0.528862 0.198474
0.0712749 0.523522 0.177737
0.0734112 0.517418 0.155215
0.0749676 0.509987 0.132433
0.0762036 0.501259 0.107286
0.103639 0.494926 0.0888838
0.146487 0.495293 0.0936294
0.210712 0.494957 0.10251
0.294209 0.492332 0.11371
0.390433 0.492576 0.100908
0.443809 0.499916 0.0814984
0.475395 0.505516 0.0870069
0.520394 0.507347 0.0988937
0.57792 0.517708 0.106493
0.630716 0.52578 0.117678
0.678843 0.535134 0.130694
0.726986 0.546349 0.148074
0.761975 0.553704 0.172396
0.78497 0.561059 0.195987
0.800229 0.568856 0.211658
0.808804 0.576272 0.221042
0.811704 0.581155 0.224063
0.811765 0.58146 0.22443
0.81181 0.58088 0.224491
0.811841 0.579034 0.224445
0.811032 0.575097 0.223117
0.811551 0.570871 0.223041
0.0638895 0.583337 0.310323
0.0605173 0.584161 0.303243
0.0567636 0.58468 0.29424
0.0535897 0.585336 0.284337
0.0526131 0.585275 0.271977
0.0533608 0.583322 0.255558
0.0766155 0.581842 0.248356
0.0844282 0.577859 0.229816
0.0875868 0.571374 0.209003
0.0906081 0.564157 0.182101
0.0926833 0.555734 0.150729
0.0966201 0.547646 0.120256
0.139055 0.540047 0.106004
0.198947 0.536965 0.111376
0.263081 0.536263 0.12105
0.348775 0.534508 0.133654
0.438102 0.536446 0.111147
0.487068 0.54464 0.0948196
0.517388 0.55108 0.100359
0.557198 0.552132 0.1149
0.613977 0.561944 0.122759
0.667521 0.570886 0.136156
0.717937 0.581964 0.1523
0.758541 0.592798 0.172488
0.786252 0.601099 0.198001
0.803983 0.608438 0.219562
0.813062 0.615045 0.232029
0.815473 0.62002 0.238071
0.815213 0.620951 0.23801
0.815549 0.620081 0.237919
0.815183 0.617899 0.236652
0.815274 0.615152 0.235737
0.814984 0.610147 0.233463
0.0801556 0.634928 0.355947
0.0770733 0.635828 0.34934
0.0733806 0.637003 0.342763
0.0705272 0.637858 0.333989
0.0674296 0.639109 0.323323
0.0651255 0.638773 0.310231
0.0655833 0.636606 0.291386
0.0941634 0.634348 0.281254
0.10045 0.628382 0.261158
0.104906 0.621012 0.237766
0.108782 0.612375 0.208927
0.112245 0.602304 0.17026
0.123842 0.593683 0.132555
0.188647 0.58468 0.1243
0.255848 0.580667 0.132219
0.320256 0.579675 0.14258
0.406882 0.576837 0.157168
0.48452 0.581308 0.123247
0.529274 0.590051 0.109148
0.558358 0.596765 0.114763
0.594034 0.598947 0.133471
0.648798 0.606821 0.141329
0.704784 0.617151 0.160525
0.749508 0.626947 0.18056
0.781186 0.63621 0.205676
0.802731 0.64387 0.228229
0.814878 0.650111 0.24625
0.819547 0.655711 0.255818
0.81915 0.656489 0.256367
0.819516 0.656001 0.25568
0.819028 0.654444 0.25449
0.818586 0.650797 0.251225
0.818814 0.646571 0.248447
0.0978408 0.688655 0.400748
0.0947738 0.689876 0.394461
0.0914778 0.691356 0.388373
0.0881208 0.692836 0.381765
0.0856947 0.693843 0.373236
0.0821698 0.695354 0.361685
0.0804913 0.694575 0.346227
0.079942 0.693019 0.325277
0.111498 0.689754 0.314839
0.119081 0.681743 0.291936
0.124788 0.672953 0.265522
0.129946 0.66215 0.231998
0.137652 0.652033 0.188952
0.164736 0.643 0.149233
0.249256 0.631052 0.147463
0.316335 0.625574 0.157183
0.378164 0.623056 0.169177
0.458366 0.619852 0.174731
0.529488 0.627619 0.140093
0.57319 0.637949 0.12784
0.600595 0.644999 0.133852
0.630838 0.646387 0.158236
0.685832 0.65301 0.168093
0.737179 0.663264 0.191196
0.773175 0.671763 0.217594
0.797131 0.67863 0.241749
0.812802 0.684916 0.263722
0.818906 0.688563 0.279255
0.818708 0.690867 0.282383
0.818677 0.689403 0.279927
0.819425 0.687541 0.278706
0.819562 0.685756 0.275502
0.81915 0.67924 0.271046
0.117693 0.745983 0.446632
0.114565 0.747875 0.441657
0.111681 0.749554 0.43679
0.109392 0.750698 0.430945
0.10605 0.751995 0.423407
0.102892 0.753429 0.413703
0.100389 0.754955 0.400595
0.100282 0.754849 0.383642
0.103288 0.752834 0.362661
0.134096 0.745571 0.349248
0.14284 0.736049 0.322713
0.149767 0.725216 0.290486
0.156191 0.713268 0.250919
0.172122 0.703883 0.208072
0.226474 0.690822 0.173022
0.312551 0.675578 0.176196
0.37586 0.670085 0.187991
0.433066 0.666636 0.198184
0.506798 0.6654 0.197192
0.573724 0.675074 0.163653
0.616449 0.686427 0.152132
0.64448 0.694209 0.160525
0.669749 0.694957 0.190997
0.719158 0.699168 0.203967
0.760754 0.707301 0.229175
0.788296 0.714992 0.255238
0.807004 0.720119 0.279835
0.815854 0.72256 0.29868
0.816983 0.724285 0.307881
0.816922 0.723796 0.30692
0.817304 0.722026 0.30396
0.817563 0.718853 0.299626
0.817868 0.714076 0.294011
0.144183 0.797848 0.494194
0.142596 0.799298 0.489799
0.139361 0.800519 0.48539
0.13576 0.801953 0.479454
0.132937 0.80322 0.472511
0.129458 0.804715 0.463935
0.126894 0.806775 0.454002
0.124895 0.806363 0.438132
0.12369 0.80441 0.416724
0.145006 0.799207 0.4
0.162707 0.790585 0.377997
0.171725 0.779751 0.346929
0.180835 0.767239 0.308568
0.189899 0.755261 0.26305
0.21825 0.743145 0.217365
0.295262 0.725444 0.197726
0.379248 0.710765 0.207004
0.433692 0.706432 0.216007
0.487922 0.703624 0.226474
0.555688 0.705699 0.215824
0.620584 0.717815 0.189334
0.658854 0.728252 0.184039
0.685328 0.735286 0.194537
0.709865 0.734752 0.224948
0.749645 0.73756 0.245167
0.780179 0.742931 0.271458
0.798901 0.748196 0.295308
0.810742 0.752178 0.318242
0.813626 0.753521 0.331121
0.813703 0.753292 0.333608
0.814084 0.751705 0.330297
0.813947 0.749416 0.326116
0.814939 0.744671 0.320073
0.171588 0.83711 0.537514
0.168688 0.83827 0.533623
0.165331 0.839536 0.529076
0.162188 0.840665 0.5243
0.158511 0.841917 0.518349
0.155016 0.843122 0.510582
0.150881 0.84448 0.500023
0.147555 0.845533 0.487388
0.145998 0.844617 0.468711
0.144183 0.840253 0.44419
0.178698 0.831357 0.42768
0.190021 0.821164 0.398779
0.201617 0.80911 0.362509
0.210895 0.796887 0.31931
0.225055 0.786221 0.269657
0.270771 0.769802 0.228794
0.367269 0.747753 0.22385
0.433295 0.737499 0.232166
0.48159 0.7346 0.241443
0.534386 0.732967 0.25066
0.600214 0.739467 0.233173
0.662684 0.75201 0.212879
0.694881 0.76112 0.214038
0.720195 0.766079 0.228565
0.740581 0.763333 0.263584
0.771359 0.76553 0.288411
0.792599 0.769055 0.313924
0.805295 0.772549 0.337041
0.81062 0.77351 0.354223
0.810773 0.773342 0.360998
0.810498 0.771847 0.357626
0.811032 0.770199 0.353445
0.811566 0.766979 0.347692
0.197238 0.8636 0.573175
0.194705 0.864485 0.569665
0.19118 0.865583 0.565164
0.18732 0.866773 0.560647
0.182849 0.867781 0.555062
0.1785 0.868772 0.548211
0.174075 0.869459 0.538598
0.168826 0.870115 0.525795
0.164157 0.870848 0.509636
0.16231 0.868345 0.487953
0.162509 0.862669 0.462943
0.202243 0.851698 0.443061
0.215503 0.840162 0.411048
0.225269 0.827253 0.371511
0.236652 0.814618 0.324544
0.263508 0.801724 0.276707
0.334279 0.781018 0.246616
0.425818 0.761868 0.249973
0.480278 0.755062 0.257191
0.523354 0.753262 0.265064
0.574639 0.753689 0.266392
0.641474 0.763439 0.248112
0.697917 0.774395 0.235584
0.72459 0.781613 0.242191
0.747341 0.785382 0.263569
0.763653 0.781476 0.304967
0.786892 0.783612 0.333059
0.800702 0.786145 0.356329
0.807202 0.787854 0.376791
0.807599 0.787793 0.386328
0.807767 0.786999 0.384009
0.807645 0.785504 0.379889
0.808179 0.782727 0.374563
0.214878 0.87776 0.600259
0.212482 0.878477 0.596887
0.209644 0.87921 0.593011
0.206287 0.879896 0.588022
0.20209 0.880919 0.582437
0.197391 0.881514 0.574868
0.191791 0.882216 0.565744
0.185977 0.883284 0.554742
0.180957 0.883864 0.540932
0.175692 0.884871 0.525093
0.174975 0.879438 0.502037
0.176074 0.873396 0.47599
0.21825 0.8607 0.453223
0.232471 0.848981 0.418753
0.245792 0.836591 0.377172
0.267826 0.823117 0.331334
0.317098 0.804654 0.294713
0.398978 0.781903 0.276677
0.471626 0.768811 0.276722
0.518608 0.76463 0.281682
0.56022 0.763607 0.288212
0.609476 0.766964 0.28098
0.675929 0.777951 0.263539
0.722606 0.788037 0.260807
0.747112 0.793774 0.272297
0.764248 0.795331 0.308827
0.780224 0.792493 0.347585
0.796613 0.795163 0.374548
0.80444 0.797192 0.397299
0.805341 0.798016 0.411124
0.805539 0.79762 0.41062
0.805524 0.796597 0.406638
0.80557 0.794842 0.401038
0.222004 0.881666 0.617075
0.219745 0.881697 0.613092
0.2168 0.882185 0.608652
0.213642 0.882567 0.604761
0.210163 0.882902 0.599023
0.206744 0.883391 0.592493
0.202457 0.884169 0.58471
0.197375 0.884474 0.574228
0.193973 0.88423 0.563806
0.190021 0.884047 0.550881
0.185855 0.884062 0.535271
0.184695 0.881392 0.512932
0.186786 0.874708 0.48368
0.229358 0.862074 0.457191
0.245274 0.850141 0.419898
0.266011 0.83595 0.378592
0.311284 0.81767 0.342519
0.369619 0.797589 0.317159
0.445701 0.778576 0.304662
0.505837 0.769345 0.304524
0.549966 0.766461 0.309636
0.587854 0.766735 0.309621
0.637263 0.772351 0.299413
0.700145 0.783795 0.286931
0.740078 0.792828 0.295033
0.761471 0.797299 0.312474
0.773816 0.794644 0.354482
0.792828 0.798093 0.385534
0.802686 0.801526 0.414237
0.805112 0.803952 0.434302
0.805386 0.80412 0.436744
0.805005 0.803418 0.432639
0.8047 0.802579 0.427268
0.222843 0.882689 0.623102
0.221225 0.88278 0.618692
0.218479 0.883207 0.614786
0.215579 0.883436 0.610712
0.212467 0.883543 0.605341
0.208911 0.883482 0.598138
0.205295 0.883803 0.590188
0.200351 0.884321 0.580163
0.196109 0.884413 0.568917
0.191943 0.884123 0.557015
0.188586 0.88397 0.54229
0.186969 0.883558 0.526696
0.190555 0.878492 0.50486
0.194476 0.872328 0.47744
0.239551 0.859464 0.45388
0.26392 0.846601 0.420401
