bundles/resolve-cinematic-luts/Phantom Luts/P4k & P6K Phntm Film LUTs - V6/P4K/Gen 4 Colour/Standard (No WB Offset)/P4k Eastman Gen4.cube
TITLE "Generated by Resolve"
LUT_3D_SIZE 33
0.0390021 0.0390021 0.0390021
0.0390021 0.0390021 0.0390021
0.0390021 0.0390021 0.0390021
0.0464485 0.0390021 0.0390021
0.0631571 0.0390021 0.0390021
0.0827497 0.0390021 0.0390021
0.103258 0.0390021 0.0390021
0.126757 0.0390021 0.0390021
0.154681 0.0390021 0.0390021
0.186862 0.0390021 0.0390021
0.218341 0.0410163 0.0390021
0.249592 0.0454719 0.0390021
0.280049 0.0495155 0.0390021
0.309987 0.0523384 0.0390021
0.338567 0.0550851 0.0398718
0.365637 0.0585489 0.0413825
0.39202 0.0644236 0.0430762
0.414267 0.0708476 0.0442664
0.432166 0.0780804 0.0454414
0.454307 0.0862593 0.0464332
0.475578 0.0944228 0.0475624
0.496803 0.101259 0.049546
0.515831 0.108186 0.0530556
0.535943 0.116213 0.0586557
0.555749 0.124147 0.0659342
0.575174 0.13167 0.0749371
0.59443 0.138643 0.085008
0.613367 0.145663 0.0966354
0.627817 0.151476 0.107027
0.633768 0.156512 0.114778
0.633692 0.158816 0.1187
0.633341 0.16083 0.12285
0.634745 0.160861 0.124971
0.0390021 0.0390021 0.0390021
0.0390021 0.0390021 0.0390021
0.0390021 0.0390021 0.0390021
0.040589 0.0390021 0.0390021
0.0543679 0.0390021 0.0390021
0.0728008 0.0390021 0.0390021
0.0918135 0.0390021 0.0390021
0.113832 0.0390021 0.0390021
0.141024 0.0390021 0.0390021
0.173266 0.0401312 0.0390021
0.206302 0.0432593 0.0390021
0.238422 0.0489052 0.0390021
0.269703 0.0536812 0.0390021
0.300465 0.057435 0.0390021
0.330938 0.061265 0.0390021
0.358846 0.0654459 0.0402228
0.385351 0.0702373 0.0417029
0.407675 0.0761578 0.0428168
0.426688 0.0822156 0.0438239
0.448585 0.089189 0.0448005
0.469596 0.0964675 0.0457923
0.489815 0.104112 0.0469825
0.508461 0.110002 0.0487678
0.527718 0.116945 0.0528878
0.546212 0.124239 0.0582589
0.564645 0.131685 0.0651865
0.582193 0.138888 0.0734417
0.600443 0.146181 0.0838026
0.615015 0.152239 0.0935378
0.621897 0.157397 0.101579
0.622599 0.160662 0.105745
0.622141 0.163043 0.109178
0.625269 0.164401 0.112596
0.0390021 0.0390021 0.0390021
0.0390021 0.0390021 0.0390021
0.0390021 0.0390021 0.0390021
0.0405585 0.0390021 0.0390021
0.0521248 0.0390021 0.0390021
0.0702678 0.0390021 0.0390021
0.0892195 0.0390021 0.0390021
0.109545 0.0390021 0.0390021
0.134249 0.0401923 0.039353
0.165179 0.0440375 0.0390021
0.19881 0.0473487 0.0390021
0.231693 0.0510262 0.0390021
0.262989 0.0561532 0.0390021
0.293477 0.0607309 0.0390021
0.322194 0.0657664 0.0390021
0.349233 0.0716716 0.0394751
0.376944 0.0766766 0.0409552
0.400717 0.0826276 0.0420081
0.423667 0.0887922 0.0431678
0.44593 0.095201 0.0441901
0.467231 0.102129 0.0451667
0.486702 0.108095 0.0459144
0.505364 0.114107 0.0478981
0.52401 0.120623 0.0509957
0.542275 0.127367 0.0551003
0.558953 0.134127 0.0610208
0.576272 0.141039 0.0682078
0.59324 0.148257 0.0767224
0.607034 0.154345 0.0852522
0.614557 0.159564 0.0923171
0.613703 0.162127 0.0954757
0.609888 0.165743 0.0986648
0.604074 0.168994 0.100969
0.0415503 0.0432136 0.0418555
0.0405737 0.0423743 0.0392462
0.0409705 0.0410315 0.0390021
0.0484321 0.0420539 0.0390021
0.0610056 0.0442664 0.0394293
0.0795148 0.0457923 0.0413825
0.0992142 0.0465553 0.0431373
0.117647 0.0487526 0.0436255
0.140169 0.0508888 0.0432898
0.167849 0.0522774 0.0406348
0.20058 0.054612 0.0390021
0.233448 0.0572366 0.0390021
0.265232 0.060441 0.0390021
0.293751 0.0645457 0.0390021
0.320623 0.0693523 0.0390021
0.3458 0.0741588 0.0394903
0.371466 0.0800641 0.0404822
0.395834 0.0869612 0.0414893
0.419959 0.0945754 0.0426184
0.441001 0.101762 0.0430152
0.463203 0.109209 0.0442969
0.483436 0.115892 0.0458839
0.50309 0.121813 0.048127
0.522515 0.128573 0.0516976
0.542229 0.135424 0.0565194
0.56022 0.142779 0.0627604
0.578164 0.149218 0.0701152
0.596307 0.156909 0.0792401
0.61149 0.16434 0.0884108
0.620279 0.170077 0.096025
0.619562 0.172335 0.0987411
0.614237 0.175113 0.100526
0.609232 0.178744 0.102602
0.0491493 0.0681468 0.0530861
0.048188 0.0680705 0.0487221
0.0475319 0.0666514 0.0462806
0.0521248 0.0667124 0.0467384
0.0677195 0.0696422 0.0471504
0.0849165 0.0699931 0.0463722
0.104982 0.0694438 0.0476081
0.12723 0.068101 0.0486
0.153323 0.0663462 0.0477607
0.180606 0.0670024 0.0449531
0.211978 0.0668498 0.0416266
0.244572 0.0687114 0.0390784
0.276051 0.0715648 0.0390021
0.305318 0.0750896 0.0390021
0.332601 0.0792248 0.0395514
0.356664 0.0842908 0.0402533
0.379522 0.0897993 0.0408942
0.402289 0.0957656 0.0417487
0.423163 0.101579 0.0425116
0.443534 0.107958 0.0429999
0.464668 0.114687 0.0436408
0.4851 0.121477 0.0455634
0.50515 0.129015 0.0480507
0.525719 0.136767 0.0520027
0.542687 0.143435 0.0556191
0.563302 0.15201 0.0646983
0.582483 0.160739 0.073167
0.60174 0.169848 0.0828412
0.619821 0.178836 0.0944686
0.628946 0.185153 0.102281
0.630655 0.188617 0.10663
0.625391 0.191562 0.108583
0.620111 0.194827 0.110277
0.0528267 0.0894026 0.0607004
0.0521248 0.0900893 0.055436
0.0511635 0.0891737 0.0512398
0.052369 0.0885786 0.0508125
0.0631113 0.0906233 0.0523995
0.086305 0.0928969 0.0509499
0.102647 0.0927443 0.0498207
0.127611 0.0914321 0.0506905
0.160906 0.0879377 0.051545
0.195468 0.0842908 0.0512703
0.229374 0.0841993 0.0482948
0.258839 0.0855573 0.0458839
0.288457 0.0875105 0.0436713
0.318914 0.090898 0.0424353
0.347341 0.0946822 0.0417639
0.37406 0.0995499 0.0419928
0.397787 0.105821 0.0431373
0.421118 0.112261 0.0444953
0.442832 0.118059 0.0456092
0.464744 0.124895 0.0474403
0.486442 0.132006 0.049836
0.50692 0.138827 0.0525673
0.526482 0.145541 0.0549477
0.545968 0.152941 0.0597391
0.564935 0.160662 0.0650187
0.582376 0.167987 0.0711528
0.602884 0.177722 0.0796216
0.619913 0.18529 0.0877241
0.633921 0.191897 0.0953994
0.641428 0.197024 0.100832
0.64094 0.1991 0.102541
0.636454 0.20264 0.103944
0.632593 0.207538 0.106676
0.056611 0.111116 0.0694133
0.054551 0.112535 0.0611429
0.0587015 0.110948 0.054902
0.0587167 0.109667 0.0534066
0.0626078 0.110628 0.0537575
0.0826276 0.11429 0.0563211
0.113252 0.11783 0.0558175
0.130098 0.118013 0.0545205
0.16582 0.115679 0.0552529
0.208499 0.111147 0.0559396
0.247883 0.105531 0.0557259
0.284245 0.105638 0.0530556
0.314199 0.107576 0.0519265
0.341619 0.109804 0.05066
0.370199 0.114031 0.0501869
0.39791 0.118441 0.0505226
0.424704 0.124514 0.0519265
0.450309 0.13164 0.0540169
0.474128 0.138903 0.0562448
0.498283 0.146975 0.0593881
0.520775 0.154696 0.062089
0.543084 0.162524 0.0663157
0.56553 0.170687 0.0711376
0.586465 0.178485 0.0766155
0.606836 0.186969 0.0839857
0.625971 0.195193 0.0910811
0.644404 0.203601 0.0991836
0.661311 0.211826 0.106783
0.676448 0.219821 0.113527
0.683192 0.224704 0.11754
0.683848 0.227115 0.118578
0.679103 0.22858 0.118517
0.673014 0.229618 0.118257
0.0611887 0.137469 0.0764019
0.0601663 0.138872 0.0677806
0.0597391 0.138888 0.0605325
0.0601968 0.137835 0.0571908
0.0618448 0.137865 0.0565652
0.0720684 0.141939 0.0587015
0.101381 0.147539 0.0618906
0.135729 0.152575 0.0617533
0.157916 0.154345 0.0601511
0.205585 0.150973 0.0598459
0.253361 0.147311 0.0618906
0.298894 0.140826 0.0644846
0.337835 0.139986 0.063798
0.369329 0.141955 0.062974
0.396475 0.14551 0.0630503
0.423957 0.149081 0.06392
0.45182 0.154253 0.0657054
0.47921 0.160113 0.0677806
0.505867 0.168032 0.0708476
0.530404 0.175631 0.0739605
0.55404 0.184039 0.0779889
0.576364 0.192187 0.0821851
0.599222 0.20087 0.0875257
0.621485 0.209827 0.094316
0.642435 0.218418 0.101122
0.661784 0.227253 0.108003
0.680385 0.235843 0.114412
0.696696 0.24445 0.120531
0.711696 0.252598 0.126421
0.718929 0.258198 0.129747
0.719783 0.260594 0.13109
0.71519 0.261891 0.131304
0.709911 0.263478 0.131289
0.0636759 0.170382 0.0849165
0.0629892 0.172335 0.0764172
0.0625772 0.173434 0.06804
0.0621805 0.172137 0.0613107
0.0618601 0.170626 0.058854
0.066331 0.173983 0.0597696
0.0855573 0.181277 0.0640574
0.122393 0.190036 0.0699168
0.165057 0.197818 0.0704967
0.197482 0.201312 0.0683299
0.252384 0.198688 0.068452
0.305196 0.198276 0.0705577
0.352895 0.194308 0.074403
0.392279 0.189731 0.0775006
0.426398 0.189059 0.0777447
0.454444 0.192813 0.0783398
0.481407 0.196994 0.0794537
0.508278 0.202274 0.0819715
0.535225 0.206561 0.08542
0.560296 0.212222 0.0883192
0.5841 0.219059 0.092546
0.607599 0.22797 0.0971084
0.630365 0.236255 0.102586
0.652903 0.245121 0.10869
0.674052 0.254017 0.114885
0.692912 0.262226 0.120562
0.710674 0.270146 0.126284
0.72726 0.278294 0.132067
0.741466 0.285786 0.137133
0.749294 0.291341 0.141131
0.749523 0.29369 0.142138
0.744961 0.295109 0.142367
0.739864 0.296696 0.142596
0.0694896 0.211215 0.098558
0.0679484 0.213611 0.0911269
0.0662089 0.216556 0.0832074
0.0644999 0.21619 0.0746777
0.0633402 0.214115 0.0687266
0.0637522 0.213718 0.0666514
0.0727245 0.219593 0.0686503
0.104982 0.231495 0.0754559
0.151843 0.242954 0.0832074
0.207767 0.252369 0.0816815
0.247059 0.257282 0.0776684
0.303731 0.254978 0.0779889
0.35552 0.255238 0.0784009
0.403586 0.253834 0.0816663
0.444205 0.250782 0.0843061
0.480919 0.247089 0.0904097
0.510109 0.246937 0.0955215
0.536904 0.251316 0.097322
0.562295 0.257267 0.0999313
0.588556 0.262104 0.102647
0.613458 0.266758 0.106462
0.636179 0.27187 0.110185
0.659129 0.277501 0.115511
0.680461 0.28397 0.121019
0.700175 0.291371 0.126299
0.718013 0.298161 0.132082
0.734737 0.304952 0.138033
0.749538 0.312093 0.143633
0.761959 0.319081 0.149371
0.770336 0.32462 0.154162
0.770642 0.326726 0.155657
0.766644 0.328115 0.156161
0.761959 0.329915 0.156573
0.0808118 0.259663 0.117586
0.0789197 0.261997 0.111025
0.0772869 0.265614 0.104082
0.0761273 0.267033 0.0949416
0.0746929 0.265126 0.0855879
0.0731212 0.261662 0.0796674
0.0762798 0.265461 0.0797742
0.0933089 0.275807 0.0842603
0.132082 0.289631 0.0915541
0.190127 0.301198 0.0967422
0.256168 0.308171 0.0886397
0.296635 0.312978 0.0841993
0.352026 0.309911 0.084184
0.403754 0.311147 0.0838483
0.450462 0.311711 0.0851453
0.491569 0.310491 0.0883955
0.528725 0.30808 0.0948653
0.558679 0.307515 0.101579
0.585687 0.308293 0.108782
0.610224 0.310292 0.115129
0.634058 0.314824 0.119326
0.65774 0.319936 0.123079
0.680674 0.324346 0.127321
0.701549 0.329107 0.132708
0.719982 0.333883 0.138491
0.736187 0.338933 0.14464
0.751415 0.344427 0.151263
0.764813 0.349554 0.157244
0.776989 0.355398 0.163027
0.786664 0.360983 0.1682
0.78674 0.362478 0.169421
0.783139 0.364324 0.169863
0.778958 0.365957 0.170535
0.093492 0.31136 0.140948
0.0910964 0.313039 0.133013
0.0889448 0.315236 0.125338
0.0879988 0.318013 0.117067
0.0866102 0.317464 0.107286
0.0856336 0.315007 0.0965591
0.0852216 0.313909 0.0928969
0.0922866 0.319997 0.0937819
0.116411 0.332921 0.0987411
0.15964 0.345113 0.103975
0.233875 0.355688 0.103182
0.305882 0.361074 0.0907607
0.343008 0.364996 0.086183
0.395575 0.362127 0.0861524
0.445319 0.362737 0.0856794
0.489555 0.363973 0.086305
0.5299 0.363867 0.0894179
0.566735 0.36286 0.0967575
0.597665 0.362982 0.105013
0.624643 0.363607 0.113466
0.647227 0.366262 0.121569
0.669566 0.369162 0.130297
0.690745 0.372793 0.13756
0.711757 0.374868 0.145846
0.730617 0.377966 0.153399
0.747555 0.382055 0.15906
0.762249 0.386465 0.164645
0.776226 0.390921 0.170703
0.788128 0.395178 0.17612
0.798535 0.400381 0.181445
0.79884 0.402121 0.182925
0.795819 0.403601 0.18349
0.792142 0.405112 0.184283
0.102785 0.361151 0.164874
0.100679 0.362188 0.156329
0.0985733 0.364263 0.148699
0.0974899 0.366903 0.139895
0.0983597 0.367361 0.128054
0.0977646 0.365743 0.117037
0.096849 0.363012 0.105409
0.0969253 0.363531 0.102541
0.109545 0.372015 0.104448
0.142596 0.386679 0.109667
0.195407 0.398413 0.113207
0.284153 0.406165 0.102434
0.351934 0.409247 0.0877394
0.385687 0.412268 0.0856489
0.43447 0.409262 0.0870222
0.481956 0.409461 0.0885176
0.52372 0.410986 0.0899062
0.56199 0.41236 0.094316
0.597192 0.412482 0.102312
0.627909 0.412894 0.111452
0.654169 0.414328 0.121141
0.676997 0.416434 0.130159
0.698833 0.418906 0.139254
0.717922 0.422919 0.147143
0.736034 0.426429 0.155154
0.753536 0.429068 0.162783
0.769009 0.431678 0.170443
0.783337 0.43415 0.177844
0.79585 0.437476 0.185306
0.805982 0.440757 0.191836
0.806729 0.443198 0.193515
0.804303 0.44448 0.194369
0.800565 0.445869 0.195239
0.111604 0.412024 0.194583
0.109957 0.411872 0.184207
0.1084 0.412634 0.174472
0.107607 0.414389 0.164019
0.107134 0.41648 0.152377
0.106813 0.415793 0.140932
0.106416 0.413092 0.127642
0.106538 0.410727 0.11516
0.107012 0.41294 0.113207
0.13286 0.424613 0.115862
0.171328 0.437659 0.118975
0.237278 0.447028 0.117937
0.331212 0.450904 0.100084
0.392844 0.45304 0.0874952
0.423926 0.455833 0.0892958
0.469001 0.453773 0.0933852
0.513359 0.453498 0.0965896
0.552941 0.45626 0.0991379
0.588586 0.457206 0.103532
0.621775 0.458 0.109926
0.652308 0.458579 0.118791
0.678462 0.460197 0.128801
0.702068 0.462074 0.138628
0.722301 0.464729 0.148821
0.739895 0.468254 0.157321
0.755642 0.471611 0.164935
0.771023 0.474708 0.171832
0.785382 0.478141 0.179156
0.797864 0.481102 0.186587
0.808042 0.484047 0.193133
0.809873 0.486641 0.195727
0.807843 0.488151 0.196704
0.804746 0.489769 0.197604
0.118975 0.461311 0.229999
0.117372 0.460212 0.218708
0.115755 0.459983 0.206317
0.114687 0.460838 0.19321
0.114199 0.462272 0.1794
0.113909 0.462211 0.165957
0.113603 0.460075 0.152178
0.114214 0.458 0.138048
0.115084 0.456748 0.124498
0.127321 0.462181 0.124269
0.159319 0.474205 0.125566
0.206424 0.484062 0.126986
0.287007 0.489845 0.120989
0.378042 0.492012 0.103212
0.430182 0.494301 0.0930495
0.459556 0.497185 0.0972763
0.500832 0.495384 0.101198
0.542229 0.494728 0.10634
0.57966 0.497215 0.109804
0.613352 0.498741 0.114107
0.644541 0.499916 0.119692
0.673457 0.501427 0.128161
0.699702 0.50222 0.138125
0.723873 0.503227 0.149157
0.741329 0.506142 0.159075
0.757855 0.509316 0.167956
0.772946 0.512322 0.175906
0.786343 0.516381 0.183001
0.798718 0.519966 0.189593
0.808377 0.523003 0.19585
0.811841 0.526314 0.200153
0.809735 0.527565 0.200931
0.807294 0.528542 0.201984
0.127153 0.510292 0.270008
0.125048 0.508843 0.258778
0.122927 0.50695 0.246189
0.121675 0.505928 0.231357
0.120851 0.50573 0.214389
0.120577 0.506127 0.198413
0.120287 0.504585 0.182925
0.120378 0.502052 0.167117
0.12166 0.499779 0.149355
0.125475 0.49929 0.134615
0.154055 0.508141 0.134508
0.196612 0.518196 0.136873
0.254643 0.525399 0.137575
0.339696 0.530587 0.125139
0.421561 0.530709 0.10901
0.464759 0.533303 0.101595
0.49218 0.535958 0.107073
0.530861 0.534722 0.111772
0.569497 0.533883 0.117449
0.604196 0.535348 0.121233
0.635828 0.537255 0.126009
0.664866 0.538308 0.131914
0.69276 0.53933 0.140444
0.71812 0.540764 0.149569
0.740291 0.541878 0.160815
0.757992 0.543908 0.170977
0.773892 0.546227 0.181155
0.787045 0.549905 0.188907
0.798749 0.554055 0.196063
0.807034 0.55845 0.202014
0.811643 0.562005 0.206943
0.810224 0.562585 0.207218
0.808255 0.563226 0.207736
0.138354 0.556832 0.311574
0.136614 0.554498 0.301656
0.134615 0.552529 0.290547
0.133059 0.550469 0.276265
0.131426 0.548135 0.258167
0.130953 0.547066 0.237156
0.130831 0.545357 0.21796
0.130892 0.542748 0.2
0.131304 0.53991 0.181277
0.133013 0.537011 0.159915
0.14229 0.538628 0.148196
0.190997 0.550469 0.148516
0.244327 0.558373 0.149706
0.307424 0.563821 0.146166
0.387366 0.56788 0.131548
0.461189 0.567117 0.117327
0.496849 0.569848 0.112398
0.522469 0.572488 0.117998
0.558373 0.571466 0.123323
0.594278 0.57055 0.129809
0.626596 0.571145 0.134386
0.655833 0.572503 0.139666
0.683925 0.574182 0.146532
0.710399 0.574762 0.154955
0.733761 0.575662 0.163455
0.755047 0.577096 0.174838
0.772732 0.578912 0.186236
0.788174 0.58146 0.197177
0.799695 0.584772 0.205859
0.807996 0.588907 0.212619
0.812314 0.592874 0.217288
0.811215 0.594324 0.218158
0.809766 0.594827 0.218509
0.151202 0.60116 0.351293
0.149462 0.59826 0.342657
0.147555 0.595911 0.333318
0.14551 0.593286 0.320485
0.143526 0.590799 0.304509
0.142657 0.588037 0.283635
0.142138 0.585336 0.259419
0.141985 0.581537 0.2374
0.141741 0.57763 0.215366
0.143191 0.574548 0.194446
0.147799 0.572045 0.172091
0.17467 0.578592 0.162997
0.237125 0.589487 0.163455
0.297276 0.594629 0.160983
0.357183 0.600549 0.154971
0.432242 0.602701 0.140215
0.495811 0.60235 0.127672
0.52694 0.604746 0.125383
0.551064 0.606806 0.132143
0.583673 0.605676 0.13695
0.61677 0.604715 0.143099
0.647532 0.604883 0.14905
0.675669 0.606043 0.155428
0.701854 0.607004 0.162676
0.726513 0.607874 0.170489
0.748714 0.608682 0.180621
0.76968 0.609964 0.193408
0.787335 0.611887 0.206241
0.80032 0.614298 0.217426
0.808667 0.617456 0.22565
0.813153 0.621271 0.23093
0.81207 0.623423 0.232044
0.810758 0.623835 0.232639
0.163592 0.641657 0.387274
0.16231 0.639155 0.379736
0.160815 0.636744 0.37203
0.158755 0.633936 0.36141
0.156634 0.631327 0.347646
0.15465 0.628046 0.328695
0.153597 0.624155 0.30576
0.153185 0.618967 0.28014
0.152621 0.613397 0.253483
0.153643 0.608988 0.229328
0.155108 0.605264 0.205722
0.173495 0.607248 0.185473
0.220905 0.61796 0.179812
0.292134 0.623301 0.175723
0.348638 0.629191 0.172076
0.40856 0.63444 0.162509
0.476219 0.634913 0.149508
0.52755 0.634409 0.139391
0.554742 0.636744 0.139574
0.577005 0.638132 0.146334
0.607202 0.638193 0.151598
0.637629 0.637003 0.157488
0.667124 0.636408 0.16434
0.694438 0.636942 0.171633
0.719142 0.637919 0.179812
0.741741 0.639689 0.190173
0.763272 0.640986 0.202243
0.782803 0.641321 0.216205
0.798642 0.642664 0.230503
0.810025 0.644816 0.242679
0.814054 0.647974 0.249393
0.813703 0.650614 0.252003
0.812436 0.650645 0.251652
0.177386 0.67953 0.420935
0.17586 0.677165 0.414527
0.174411 0.67512 0.407691
0.172427 0.672312 0.398459
0.17055 0.669261 0.386679
0.168322 0.665629 0.370398
0.166415 0.661982 0.349859
0.164752 0.656428 0.325429
0.164004 0.649439 0.29778
0.164294 0.642878 0.267353
0.165347 0.637522 0.239902
0.170306 0.634119 0.213977
0.212528 0.643763 0.199207
0.283909 0.651545 0.193301
0.34609 0.656352 0.188251
0.395041 0.66186 0.183398
0.452491 0.665553 0.173541
0.516747 0.664393 0.160464
0.557992 0.664958 0.153719
0.581872 0.667002 0.156283
0.602121 0.668544 0.163073
0.629908 0.668833 0.167742
0.658625 0.668009 0.173892
0.687373 0.667369 0.18175
0.714153 0.667262 0.190387
0.735759 0.668208 0.200595
0.756741 0.669276 0.212787
0.776715 0.670344 0.227573
0.795392 0.670985 0.244495
0.808499 0.672267 0.259525
0.814969 0.674113 0.269947
0.814694 0.676143 0.274266
0.81355 0.676143 0.273838
0.192584 0.714549 0.452628
0.191165 0.712245 0.446754
0.189532 0.710246 0.440467
0.187457 0.707317 0.431861
0.185382 0.704402 0.421622
0.182528 0.70045 0.407248
0.179889 0.696422 0.389151
0.177859 0.691722 0.367498
0.175891 0.684092 0.341695
0.175219 0.675929 0.310185
0.175753 0.668421 0.276326
0.179889 0.663966 0.247074
0.19913 0.665019 0.222217
0.275929 0.676966 0.210956
0.344228 0.680903 0.205585
0.392111 0.686473 0.201251
0.440192 0.691051 0.193256
0.494728 0.693095 0.183871
0.554788 0.690898 0.172366
0.586496 0.692012 0.169162
0.606531 0.69427 0.173007
0.625986 0.696361 0.181064
0.652079 0.697383 0.185962
0.679911 0.696178 0.191989
0.70663 0.694759 0.19971
0.731777 0.693889 0.209506
0.752194 0.69482 0.224079
0.772793 0.695964 0.240757
0.791821 0.696468 0.257343
0.8103 0.696223 0.274144
0.819547 0.696513 0.284611
0.821485 0.697551 0.290898
0.820661 0.697917 0.291341
0.208194 0.747295 0.477546
0.206683 0.744884 0.472343
0.205219 0.742535 0.466896
0.203021 0.739818 0.458885
0.200916 0.736675 0.449256
0.197955 0.732921 0.436683
0.194583 0.728054 0.419654
0.191348 0.722927 0.39939
0.188785 0.716213 0.376806
0.186816 0.707012 0.347539
0.186648 0.697643 0.312169
0.190967 0.691615 0.27718
0.202289 0.688624 0.245502
0.246189 0.697215 0.228656
0.343252 0.702708 0.217487
0.395071 0.707576 0.213657
0.435538 0.711971 0.208331
0.482963 0.715404 0.19942
0.537926 0.715389 0.189837
0.589563 0.714519 0.18085
0.616785 0.71606 0.181964
0.634455 0.718212 0.187015
0.65243 0.720088 0.194675
0.677897 0.720363 0.199939
0.704723 0.71873 0.20676
0.730343 0.716747 0.215351
0.75346 0.71664 0.232212
0.772992 0.716899 0.25095
0.791211 0.717906 0.270542
0.80647 0.7187 0.288792
0.8168 0.718853 0.304677
0.819165 0.719707 0.312718
0.819028 0.719875 0.313802
0.223468 0.775494 0.505318
0.222187 0.773434 0.500053
0.220279 0.770855 0.49424
0.218555 0.76817 0.487037
0.216052 0.764996 0.477943
0.21323 0.761288 0.466926
0.209415 0.756344 0.451026
0.205325 0.750683 0.431708
0.201877 0.74377 0.410163
0.199023 0.735088 0.384146
0.197543 0.725277 0.351049
0.200061 0.716365 0.312322
0.208255 0.711803 0.277317
0.239689 0.715969 0.251438
0.319661 0.722545 0.23624
0.394278 0.726314 0.22855
0.436408 0.730358 0.22443
0.473182 0.734646 0.218219
0.520424 0.736553 0.210117
0.574975 0.736248 0.201328
0.617746 0.736278 0.195087
0.640589 0.737926 0.198779
0.657023 0.740093 0.205173
0.675746 0.741848 0.213016
0.698909 0.741497 0.219074
0.724239 0.739483 0.227695
0.74815 0.738674 0.243427
0.769665 0.737896 0.264363
0.787991 0.73814 0.285481
0.803326 0.739055 0.303639
0.813153 0.73933 0.319615
0.817594 0.739834 0.33193
0.8177 0.740124 0.335439
0.237873 0.800076 0.530297
0.236667 0.797909 0.52517
0.234699 0.795422 0.51931
0.232593 0.792386 0.512245
0.230488 0.789197 0.50396
0.227039 0.785061 0.492332
0.223224 0.780697 0.477943
0.219196 0.774868 0.460502
0.215061 0.767865 0.43978
0.211398 0.759594 0.415793
0.208576 0.74963 0.38555
0.209155 0.739727 0.349279
0.215564 0.732692 0.308553
0.233448 0.730571 0.274281
0.292531 0.739544 0.255436
0.382422 0.742412 0.243931
0.436072 0.746593 0.239124
0.473152 0.750469 0.233982
0.508095 0.754055 0.229541
0.556573 0.75494 0.221347
0.607858 0.754025 0.213367
0.640848 0.755291 0.210788
0.662226 0.75729 0.215518
0.678141 0.75938 0.222248
0.697246 0.7608 0.230365
0.718975 0.760357 0.239002
0.742428 0.758755 0.254658
0.763928 0.757916 0.276738
0.782818 0.758236 0.301274
0.797269 0.759045 0.322347
0.807767 0.759411 0.339223
0.81326 0.759167 0.352514
0.814557 0.758831 0.359106
0.252049 0.821668 0.555016
0.250233 0.819272 0.548547
0.248539 0.816892 0.542641
0.246586 0.814145 0.535958
0.244099 0.81059 0.527626
0.241291 0.807111 0.517082
0.236942 0.802167 0.503059
0.23238 0.796353 0.486091
0.22768 0.789029 0.466392
0.222965 0.780636 0.443275
0.219959 0.771908 0.416938
0.218357 0.761166 0.383673
0.2224 0.752529 0.344686
0.234348 0.746868 0.30161
0.272312 0.751812 0.275914
0.36437 0.75671 0.259083
0.432319 0.760128 0.252369
0.472679 0.764279 0.248005
0.506737 0.767575 0.243427
0.539528 0.770474 0.239811
0.588144 0.770565 0.231785
0.632609 0.770626 0.225528
0.66212 0.771756 0.225986
0.682277 0.773449 0.231678
0.697795 0.77525 0.239734
0.716869 0.775998 0.24889
0.737346 0.775464 0.262623
0.759319 0.775448 0.290166
0.77847 0.774914 0.314763
0.794736 0.77496 0.336797
0.807492 0.77525 0.35555
0.812955 0.77528 0.37174
0.813687 0.775113 0.379995
0.265034 0.839979 0.578637
0.262882 0.837644 0.572
0.261097 0.835416 0.565301
0.259236 0.832746 0.557931
0.256901 0.829541 0.549416
0.253498 0.825605 0.538979
0.249882 0.82089 0.526329
0.245182 0.815518 0.510582
0.240009 0.808469 0.491691
0.235447 0.799893 0.470146
0.231128 0.790661 0.444785
0.228321 0.780911 0.41474
0.229343 0.771649 0.380697
0.237949 0.764324 0.338979
0.262547 0.763317 0.299168
0.335195 0.769924 0.28069
0.415503 0.772763 0.268956
0.470375 0.776379 0.262531
0.504204 0.77969 0.257679
0.536141 0.782467 0.254368
0.568353 0.784466 0.251484
0.615152 0.78439 0.244739
0.653376 0.785122 0.240238
0.680964 0.785962 0.242878
0.700618 0.787671 0.250202
0.716335 0.789166 0.258381
0.735012 0.789624 0.270619
0.753628 0.790631 0.298741
0.774563 0.790448 0.328313
0.791592 0.790204 0.351751
0.805463 0.789776 0.371115
0.812558 0.789822 0.38854
0.814572 0.790188 0.400061
0.275654 0.855268 0.598062
0.274067 0.852934 0.591974
0.272587 0.851179 0.586236
0.270787 0.848875 0.578759
0.267964 0.845472 0.569726
0.265324 0.841917 0.559487
0.261112 0.837278 0.547097
0.256992 0.832044 0.532418
0.252262 0.825772 0.515663
0.247868 0.817807 0.496788
0.243 0.808423 0.472969
0.239261 0.798856 0.446067
0.238148 0.789059 0.414908
0.243122 0.781292 0.379294
0.258747 0.776699 0.337072
0.310369 0.783337 0.314611
0.390082 0.785641 0.297078
0.452873 0.788266 0.287327
0.500877 0.790433 0.277028
0.532403 0.793469 0.272938
0.562722 0.795666 0.26981
