bundles/resolve-cinematic-luts/Phantom Luts/P4k & P6K Phntm Film LUTs - V6/P4K/Gen 4 Colour/Standard (No WB Offset)/P4k VisionTeal Gen4-Legacy.cube
TITLE "Generated by Resolve"
LUT_3D_SIZE 5
0.022385 0.0343481 0.0323491
0.117632 0.0432898 0.0352636
0.403326 0.0597696 0.0310826
0.755169 0.144472 0.0940871
0.783322 0.189151 0.109041
0.0190433 0.158541 0.0564736
0.108721 0.155169 0.0365301
0.467918 0.15642 0.0595254
0.765743 0.254612 0.112871
0.79205 0.309163 0.137804
0.0479133 0.532021 0.262791
0.0734112 0.517418 0.155215
0.443809 0.499916 0.0814984
0.78497 0.561059 0.195987
0.811551 0.570871 0.223041
0.214878 0.87776 0.600259
0.180957 0.883864 0.540932
0.317098 0.804654 0.294713
0.747112 0.793774 0.272297
0.80557 0.794842 0.401038
0.227543 0.885588 0.645685
0.213642 0.882414 0.599481
0.250355 0.855131 0.450294
0.624063 0.772305 0.350958
0.808682 0.810208 0.474876
0.0204776 0.0485389 0.158648
0.161715 0.0339971 0.1458
0.475685 0.0310063 0.166018
0.76051 0.0908675 0.208301
0.77847 0.114717 0.144976
0.0196994 0.137057 0.107424
0.122484 0.146304 0.136461
0.511879 0.101976 0.0798047
0.785046 0.185809 0.134279
0.792782 0.260212 0.140368
0.0455787 0.50837 0.320745
0.0372778 0.504692 0.243351
0.42829 0.48336 0.082948
0.789532 0.534783 0.222766
0.80853 0.543908 0.2383
0.217655 0.871748 0.632883
0.199207 0.870771 0.58407
0.259327 0.820661 0.334218
0.736233 0.788327 0.257954
0.807691 0.788998 0.395468
0.216129 0.893523 0.680064
0.229572 0.884459 0.642496
0.198779 0.873335 0.493446
0.599954 0.771344 0.359548
0.809094 0.810712 0.478126
0.0567483 0.0873884 0.452979
0.222934 0.0341192 0.427359
0.490639 0.0556344 0.441871
0.740017 0.0864118 0.560601
0.73991 0.0886091 0.497795
0.0193179 0.118334 0.370092
0.0745403 0.0826886 0.446372
0.452766 0.046891 0.405936
0.736294 0.0894942 0.492653
0.738064 0.0938735 0.444175
0.0327611 0.491936 0.417792
0.0281987 0.48098 0.411368
0.506065 0.500237 0.469474
0.823804 0.473136 0.443198
0.810361 0.46363 0.367895
0.168704 0.860777 0.692393
0.161166 0.849119 0.663569
0.195407 0.834257 0.55433
0.69369 0.761318 0.372274
0.818097 0.773358 0.421607
0.19939 0.910246 0.758144
0.194659 0.908934 0.736492
0.235767 0.882765 0.639918
0.498573 0.780865 0.382345
0.810544 0.81236 0.488518
0.223514 0.146075 0.728374
0.323354 0.066331 0.709438
0.572732 0.111315 0.733425
0.759945 0.11989 0.797284
0.761715 0.123323 0.811872
0.0195773 0.159716 0.647257
0.223362 0.133165 0.718029
0.520562 0.0932326 0.710124
0.759686 0.118395 0.779431
0.760296 0.119615 0.791058
0.0202792 0.475151 0.652873
0.0202487 0.454322 0.667048
0.487434 0.354299 0.81326
0.805371 0.333135 0.792126
0.798886 0.275624 0.7682
0.176608 0.846403 0.779965
0.162722 0.831968 0.763439
0.234836 0.807248 0.741238
0.77995 0.784222 0.76112
0.885512 0.748943 0.733425
0.260502 0.915282 0.829252
0.244236 0.918303 0.824079
0.228656 0.915831 0.797864
0.566888 0.878218 0.756344
0.85362 0.863371 0.717189
0.310704 0.0809644 0.776715
0.41529 0.0835431 0.778439
0.649271 0.14226 0.803525
0.762905 0.125002 0.816892
0.763165 0.125719 0.817044
0.148547 0.18732 0.775204
0.313878 0.0810864 0.77673
0.592416 0.116228 0.79263
0.762982 0.125185 0.816953
0.763226 0.125826 0.81709
0.0205386 0.45864 0.800717
0.0201267 0.417914 0.796017
0.505058 0.233204 0.824399
0.788266 0.227817 0.834516
0.782391 0.176196 0.83151
0.170581 0.837308 0.862425
0.149126 0.818296 0.857572
0.305409 0.769192 0.854948
0.806668 0.694987 0.899504
0.879194 0.668803 0.89221
0.337331 0.913497 0.856962
0.344793 0.912902 0.85687
0.367727 0.909773 0.85452
0.628275 0.898238 0.856214
0.899168 0.912459 0.889265
