bundles/resolve-cinematic-luts/Phantom Luts/P4k & P6K Phntm Film LUTs - V6/P4K/Gen 4 Colour/Standard (No WB Offset)/P4k VisionTeal Gen4.cube
TITLE "Generated by Resolve"
LUT_3D_SIZE 9
0.0224155 0.0224155 0.0224155
0.0407111 0.0259556 0.0248112
0.141466 0.0347601 0.0212863
0.307668 0.0431983 0.0188296
0.468879 0.0666361 0.0296635
0.63798 0.116854 0.0621195
0.770275 0.171084 0.102052
0.787274 0.202594 0.10901
0.791775 0.227909 0.114366
0.0207523 0.0742504 0.0350042
0.0407416 0.0685588 0.0285496
0.152041 0.0661326 0.0278325
0.324376 0.06598 0.0243839
0.487663 0.0954757 0.0391546
0.648035 0.144152 0.0683604
0.765942 0.208103 0.102098
0.789364 0.238865 0.114229
0.795178 0.272602 0.12459
0.0187991 0.204349 0.058793
0.0183108 0.192065 0.026276
0.141283 0.204746 0.0345617
0.360586 0.197864 0.0364691
0.530663 0.19733 0.0601663
0.672343 0.242954 0.0885328
0.772763 0.30399 0.125719
0.795041 0.341436 0.147539
0.797696 0.363165 0.159548
0.0232395 0.403418 0.142535
0.0400397 0.397742 0.10013
0.0467079 0.378119 0.0565347
0.31986 0.382712 0.0419776
0.526528 0.401999 0.0587167
0.681971 0.424567 0.119203
0.775891 0.452216 0.179599
0.799283 0.47187 0.200626
0.803632 0.49305 0.203754
0.0628824 0.595697 0.327504
0.0552224 0.597177 0.278767
0.0944076 0.577783 0.194308
0.18497 0.544778 0.101579
0.499336 0.551858 0.0848402
0.672969 0.578393 0.130266
0.792294 0.612757 0.201907
0.818647 0.631861 0.235996
0.817807 0.623407 0.231189
0.132616 0.780499 0.511574
0.120302 0.784878 0.487633
0.104891 0.789929 0.427405
0.163378 0.747356 0.285481
0.430503 0.6869 0.203738
0.654917 0.713298 0.170199
0.766384 0.726925 0.251545
0.819867 0.745403 0.344289
0.820172 0.737652 0.327932
0.221225 0.883787 0.647608
0.218936 0.883772 0.630854
0.200717 0.885512 0.590829
0.183154 0.877775 0.501228
0.340948 0.803189 0.310704
0.606119 0.769772 0.296468
0.75845 0.799481 0.303471
0.814969 0.808011 0.450401
0.818586 0.805844 0.455436
0.215396 0.894881 0.677516
0.222446 0.890745 0.66009
0.22266 0.885161 0.62472
0.215412 0.88246 0.567285
0.309514 0.843366 0.450889
0.559503 0.780011 0.392844
0.717556 0.792615 0.384085
0.808682 0.817853 0.478676
0.826108 0.830106 0.5393
0.208789 0.900511 0.692622
0.214725 0.896162 0.676738
0.227604 0.88896 0.647944
0.217166 0.883635 0.592493
0.227848 0.871321 0.495079
0.48101 0.788479 0.394934
0.666148 0.784787 0.389578
0.786465 0.809888 0.43508
0.826047 0.830549 0.542016
0.021912 0.0307774 0.0717174
0.0596933 0.0225376 0.0723888
0.191241 0.0170596 0.078172
0.353918 0.0128786 0.0562142
0.509819 0.0290684 0.0462348
0.678065 0.0879377 0.0870069
0.787655 0.141527 0.124849
0.798321 0.173449 0.127077
0.794522 0.210636 0.116426
0.021088 0.0591592 0.0499733
0.0348669 0.05626 0.0540475
0.18378 0.0411231 0.0328222
0.335805 0.0469978 0.0284276
0.48394 0.0699016 0.038117
0.64828 0.11545 0.0707561
0.773816 0.171664 0.107088
0.792004 0.217029 0.114778
0.795712 0.261448 0.122225
0.0191348 0.183764 0.0859693
0.0188296 0.183368 0.0563211
0.130175 0.188602 0.0321813
0.376608 0.163256 0.0495308
0.536233 0.172915 0.0627298
0.677317 0.222797 0.0880446
0.776699 0.284627 0.123934
0.795987 0.321767 0.140642
0.798703 0.354513 0.15639
0.0198978 0.387549 0.189532
0.0197757 0.389609 0.136233
0.038819 0.369635 0.055848
0.311467 0.374044 0.041001
0.53814 0.387976 0.0641031
0.685512 0.407309 0.124926
0.778714 0.433066 0.18909
0.798367 0.460334 0.203723
0.802899 0.482551 0.203357
0.0611124 0.586389 0.358953
0.0546731 0.586984 0.321523
0.0850233 0.579065 0.230472
0.15079 0.543511 0.100816
0.493095 0.545724 0.0842603
0.677607 0.570962 0.130999
0.7935 0.604395 0.210193
0.817349 0.622156 0.238315
0.817395 0.612558 0.232547
0.133883 0.773022 0.527642
0.125124 0.775418 0.507866
0.108309 0.779843 0.454704
0.151522 0.750286 0.318959
0.41146 0.682841 0.200381
0.647868 0.706722 0.165652
0.766278 0.721325 0.250813
0.820325 0.740139 0.34667
0.82063 0.731807 0.331609
0.211246 0.885267 0.661921
0.215991 0.882643 0.644282
0.207172 0.880919 0.606561
0.177554 0.881575 0.522622
0.307607 0.811551 0.321965
0.596109 0.766476 0.29398
0.755093 0.796826 0.294163
0.814435 0.805127 0.443961
0.818936 0.803403 0.452049
0.208148 0.900221 0.69427
0.214588 0.89546 0.677317
0.229587 0.886595 0.643763
0.215625 0.882704 0.582681
0.277867 0.85565 0.47158
0.537774 0.781613 0.395605
0.707332 0.790311 0.386755
0.805112 0.816495 0.472114
0.826154 0.830228 0.540124
0.203922 0.903853 0.705837
0.210864 0.899626 0.690623
0.22208 0.892226 0.663844
0.220386 0.884504 0.608331
0.21973 0.877958 0.519173
0.462974 0.79321 0.401221
0.656321 0.783886 0.392432
0.784054 0.810117 0.428519
0.826215 0.830823 0.543206
0.0199588 0.0430915 0.201755
0.0759899 0.0257725 0.18381
0.196292 0.0188602 0.172534
0.359014 0.0125429 0.206806
0.508568 0.024506 0.215473
0.68217 0.0571298 0.247883
0.775158 0.102785 0.274128
0.782986 0.112184 0.251957
0.799161 0.133745 0.18439
0.0209354 0.0581674 0.138796
0.020325 0.0417639 0.189654
0.163043 0.0203555 0.150515
0.34519 0.014023 0.150576
0.507042 0.0223545 0.142184
0.688716 0.0631571 0.179202
0.787076 0.11162 0.19176
0.79733 0.135317 0.169558
0.804257 0.166629 0.151446
0.0191043 0.172824 0.125475
0.0193179 0.166766 0.12372
0.16968 0.194903 0.179095
0.426764 0.145144 0.131365
0.58555 0.129503 0.103868
0.720302 0.161929 0.120302
0.796216 0.227604 0.154086
0.801541 0.265995 0.158816
0.803006 0.313924 0.161746
0.0195926 0.375677 0.229511
0.0195926 0.370092 0.209949
0.0192721 0.372793 0.132403
0.315572 0.37174 0.0805371
0.563806 0.364858 0.117693
0.704921 0.367269 0.160678
0.790875 0.404837 0.204868
0.798978 0.431312 0.219883
0.800717 0.457099 0.225177
0.0418097 0.574441 0.384878
0.0453193 0.572488 0.368582
0.0495918 0.569955 0.30602
0.097261 0.549554 0.131456
0.484611 0.535393 0.0868849
0.691325 0.55935 0.146822
0.79588 0.589593 0.23386
0.816495 0.60235 0.25774
0.817243 0.600122 0.25182
0.116213 0.763409 0.545586
0.117235 0.7635 0.532982
0.117647 0.762188 0.494789
0.101884 0.758114 0.365148
0.37409 0.67982 0.201083
0.639384 0.697337 0.16318
0.768948 0.71339 0.256001
0.821744 0.73254 0.354253
0.822187 0.72285 0.341329
0.1953 0.885344 0.681453
0.197116 0.882185 0.665934
0.211765 0.874189 0.632029
0.179049 0.877241 0.554147
0.264729 0.825299 0.362356
0.578286 0.761746 0.292622
0.750164 0.793332 0.285283
0.814404 0.801236 0.436332
0.819867 0.799893 0.449073
0.1991 0.905989 0.717861
0.202335 0.90399 0.704814
0.21648 0.894667 0.67541
0.220264 0.884504 0.612467
0.22591 0.873274 0.505043
0.506874 0.786419 0.401328
0.692699 0.78851 0.39118
0.80032 0.814511 0.463279
0.826261 0.830503 0.541787
0.196628 0.90866 0.724971
0.199985 0.905791 0.712749
0.21265 0.89897 0.689281
0.231342 0.885374 0.637766
0.218204 0.88159 0.549706
0.433738 0.802396 0.414023
0.642664 0.783017 0.397986
0.780194 0.809415 0.419638
0.82678 0.831342 0.545068
0.0311131 0.0646067 0.366506
0.0956436 0.030457 0.355688
0.223102 0.0253758 0.326802
0.362387 0.0181888 0.325002
0.520745 0.0257725 0.389639
0.680919 0.057435 0.4365
0.740093 0.0800946 0.451804
0.745296 0.0898604 0.436591
0.759991 0.111788 0.418418
0.0195315 0.0682689 0.31313
0.0336004 0.0626383 0.358099
0.181903 0.0252689 0.329152
0.345769 0.0176699 0.309361
0.505333 0.0189822 0.358389
0.674037 0.0589303 0.402975
0.74818 0.0951705 0.420386
0.757244 0.108919 0.414481
0.772961 0.118807 0.380255
0.0192264 0.160891 0.284184
0.0193027 0.149447 0.303288
0.12636 0.113237 0.403922
0.385748 0.0696269 0.348562
0.529641 0.0510719 0.334844
0.679438 0.0682841 0.339529
0.768643 0.111833 0.350805
0.778927 0.120821 0.324849
0.791501 0.130007 0.257298
0.019379 0.367346 0.296391
0.0195315 0.361608 0.293141
0.0194553 0.358892 0.292165
0.390021 0.393072 0.361761
0.615228 0.341482 0.323232
0.753597 0.330098 0.295964
0.800946 0.345998 0.280644
0.800458 0.368154 0.269291
0.802304 0.403296 0.26598
0.0288701 0.566964 0.425711
0.025803 0.563317 0.417487
0.0264134 0.555077 0.391073
0.10425 0.568246 0.348791
0.486442 0.539727 0.250751
0.718563 0.549752 0.295262
0.810849 0.566629 0.316777
0.816938 0.573037 0.326101
0.8177 0.576196 0.311299
0.095613 0.753094 0.573693
0.0925307 0.752163 0.567025
0.0978408 0.745724 0.544152
0.111589 0.739864 0.476738
0.263569 0.70341 0.276158
0.623514 0.68101 0.189548
0.779782 0.700984 0.288594
0.825483 0.719341 0.375402
0.825299 0.707713 0.365957
0.172854 0.882139 0.707301
0.171496 0.880003 0.69691
0.177401 0.871733 0.671611
0.202518 0.858137 0.61387
0.182452 0.854475 0.461952
0.540459 0.755962 0.312337
0.740444 0.785657 0.275273
0.816403 0.795239 0.43209
0.821332 0.793301 0.448066
0.198505 0.911833 0.749813
0.191638 0.913314 0.742321
0.195743 0.908568 0.722484
0.219226 0.89395 0.673457
0.218997 0.881926 0.570932
0.45507 0.799344 0.421088
0.666056 0.785489 0.401022
0.791959 0.811246 0.44831
0.826841 0.831128 0.544564
0.197803 0.913314 0.752255
0.194293 0.913207 0.743755
0.195605 0.910063 0.727749
0.215686 0.89778 0.687266
0.219272 0.883635 0.596017
0.368444 0.828305 0.45153
0.614633 0.782605 0.408103
0.76994 0.806317 0.41059
0.82742 0.832074 0.549401
0.0757 0.091371 0.51017
0.142031 0.0382544 0.501869
0.279347 0.0301976 0.47628
0.388693 0.0334173 0.467903
0.536583 0.0433051 0.504433
0.701854 0.0758221 0.589761
0.752758 0.0875257 0.627695
0.75108 0.0840009 0.61767
0.745388 0.0717479 0.561929
0.0192416 0.100877 0.473426
0.0737926 0.0902876 0.504646
0.231968 0.0314794 0.483207
0.373281 0.0393835 0.466789
0.523445 0.0398108 0.49102
0.691829 0.0695201 0.573999
0.748501 0.0784619 0.606027
0.746303 0.0732738 0.58854
0.745403 0.0731212 0.541039
0.0192569 0.133013 0.429953
0.019379 0.113817 0.442679
0.0991073 0.0846571 0.502449
0.329671 0.03505 0.458793
0.499306 0.0346685 0.466133
0.669337 0.0598764 0.538277
0.740841 0.0717784 0.558022
0.741543 0.0747234 0.539452
0.743755 0.0767834 0.507332
0.0197452 0.351446 0.437232
0.0195926 0.33843 0.445624
0.0191653 0.314855 0.469184
0.363256 0.266499 0.588846
0.602792 0.243809 0.557092
0.742214 0.209033 0.553353
0.78764 0.185733 0.546883
0.785733 0.179797 0.51986
0.787015 0.199527 0.473457
0.0331731 0.561227 0.487922
0.029221 0.557885 0.486351
0.0278477 0.550652 0.479591
0.120989 0.565881 0.50486
0.573144 0.564965 0.536324
0.759655 0.535882 0.517937
0.83978 0.534585 0.510018
0.834989 0.528557 0.484367
0.825238 0.52491 0.427817
0.0909285 0.744656 0.614176
0.0853742 0.74229 0.610224
0.0838636 0.734874 0.596582
0.0864729 0.722164 0.564752
0.364263 0.718807 0.538888
0.634928 0.693629 0.45008
0.81062 0.706218 0.497429
0.842206 0.708293 0.487861
0.836362 0.690349 0.450935
0.173007 0.873259 0.735759
0.164797 0.871275 0.728328
0.160525 0.864836 0.711864
0.156847 0.855177 0.680156
0.214572 0.843153 0.606394
0.500679 0.781613 0.467674
0.723217 0.776272 0.423758
0.826352 0.794614 0.480537
0.829007 0.788769 0.479438
0.213504 0.913725 0.783993
0.203372 0.916869 0.781048
0.199786 0.916182 0.770733
0.199756 0.913146 0.747005
0.227207 0.893126 0.675761
0.358541 0.850767 0.525093
0.628748 0.788846 0.437903
0.785641 0.810239 0.438636
0.82739 0.831708 0.54873
0.206775 0.916533 0.7841
0.202991 0.916533 0.779049
0.200092 0.916045 0.769604
0.199771 0.913252 0.748104
0.2206 0.896895 0.6869
0.233234 0.879271 0.551537
0.543374 0.789075 0.429496
0.743816 0.799649 0.408225
0.82884 0.833921 0.557565
0.175952 0.106966 0.639445
0.225223 0.0458534 0.624781
0.335821 0.0417029 0.613809
0.454124 0.064271 0.620203
0.565576 0.0644541 0.637736
0.710185 0.0858167 0.690059
0.761212 0.112093 0.729046
0.760845 0.107164 0.739925
0.763912 0.111589 0.732998
0.0519265 0.130617 0.622705
0.172595 0.107897 0.636057
0.291341 0.043122 0.616526
0.431083 0.0577859 0.613458
0.551766 0.0644846 0.630152
0.701946 0.0843061 0.679271
0.761105 0.114534 0.723949
0.761715 0.111162 0.733288
0.76492 0.115312 0.727489
0.0193027 0.130098 0.555047
0.0193942 0.129946 0.580301
0.179095 0.0810864 0.626886
0.380331 0.0445258 0.602731
0.527687 0.0654154 0.618326
0.685161 0.0806592 0.659342
0.7617 0.123888 0.70959
0.761349 0.117662 0.720974
0.765362 0.125673 0.70985
0.0193484 0.318563 0.567086
0.0196231 0.303502 0.572824
0.019501 0.265309 0.59118
0.323125 0.134356 0.698909
0.556481 0.148516 0.677638
0.697078 0.113146 0.668666
0.773877 0.135317 0.697414
0.773877 0.131868 0.698817
0.763882 0.102632 0.653025
0.0205844 0.560388 0.596857
0.020676 0.555764 0.599115
0.0207828 0.54464 0.605768
0.0867933 0.540703 0.666362
0.564767 0.480278 0.735882
0.754635 0.469368 0.705928
0.828107 0.456489 0.694057
0.826291 0.433707 0.677302
0.81915 0.383871 0.638636
0.104402 0.738064 0.66566
0.100954 0.735714 0.664088
0.0983902 0.72932 0.657526
0.0966812 0.718303 0.646525
0.396521 0.716106 0.662562
0.710002 0.708965 0.681849
0.840085 0.69485 0.676844
0.875547 0.684077 0.667292
0.868025 0.669352 0.632486
0.177249 0.865354 0.7664
0.166201 0.864775 0.764492
0.158923 0.858228 0.752331
0.157061 0.847761 0.733104
0.269078 0.82948 0.701518
0.586618 0.816175 0.688426
0.762005 0.804852 0.627588
0.86566 0.808545 0.657481
0.865476 0.798901 0.639445
0.235843 0.916564 0.812207
0.224292 0.918807 0.810391
0.216922 0.917693 0.804074
0.213581 0.913039 0.790722
0.211795 0.904936 0.760266
0.473915 0.873243 0.712184
0.652552 0.851774 0.646967
0.811093 0.845258 0.614359
0.84799 0.849775 0.644282
0.231617 0.91809 0.81149
0.223651 0.919921 0.808698
0.217365 0.920073 0.803586
0.215396 0.917922 0.792584
0.21384 0.913298 0.766888
0.260182 0.894591 0.69929
0.550607 0.852918 0.623026
0.747677 0.828565 0.569345
0.839567 0.84683 0.616861
0.248569 0.0606394 0.728191
0.310338 0.0617533 0.725689
0.400351 0.0637827 0.726055
0.508232 0.0789349 0.73196
0.622278 0.108675 0.752575
0.723613 0.0941634 0.776318
0.766079 0.107851 0.802457
0.767407 0.111025 0.812818
0.768826 0.112428 0.81648
0.211643 0.14902 0.737789
0.243458 0.059968 0.724666
0.361929 0.0627298 0.72462
0.485527 0.0722667 0.726726
0.609506 0.109972 0.748775
0.715404 0.0919203 0.771252
0.765515 0.106798 0.79736
0.767193 0.110033 0.806943
0.767895 0.11107 0.810254
0.019379 0.16202 0.673259
0.0872358 0.164614 0.716426
0.256352 0.0592355 0.720623
0.433021 0.0614023 0.717632
0.579095 0.0996109 0.735637
0.698955 0.0912337 0.76054
0.765148 0.105333 0.78761
0.765972 0.107851 0.79617
0.76733 0.108873 0.798215
0.0194247 0.268589 0.657145
0.0195468 0.247166 0.661631
0.0195621 0.204288 0.673701
0.303243 0.0673686 0.729839
0.521599 0.0830396 0.723583
0.668498 0.0927749 0.744167
0.76434 0.103807 0.769879
0.765545 0.105348 0.772793
0.766873 0.105501 0.772229
0.0207523 0.542947 0.697032
0.0205081 0.533745 0.70016
0.0206302 0.518868 0.706676
0.10338 0.51574 0.773495
0.564477 0.409506 0.823255
0.735088 0.40325 0.805753
0.819745 0.381811 0.804776
0.817456 0.355428 0.798795
0.813947 0.316121 0.788083
0.0473793 0.738476 0.740276
0.0417639 0.734447 0.740429
0.0354925 0.726238 0.73962
0.0415808 0.714336 0.749035
0.389151 0.697154 0.793011
0.71371 0.652735 0.826734
0.843854 0.647883 0.813016
0.872755 0.638209 0.802106
0.868009 0.607095 0.775967
0.191959 0.860655 0.799603
0.183764 0.857832 0.796841
0.178485 0.851438 0.789639
0.175418 0.841764 0.780056
0.277592 0.829374 0.772335
0.609995 0.816724 0.778851
0.804746 0.810788 0.789242
0.889403 0.799176 0.783841
0.892271 0.783612 0.767575
0.275364 0.911437 0.828962
0.260258 0.913405 0.828122
0.256031 0.910506 0.823362
0.256382 0.904677 0.81442
0.278813 0.893858 0.798459
0.543145 0.876219 0.789502
0.722133 0.875044 0.790707
0.84094 0.872572 0.762905
0.888838 0.871626 0.773159
0.281285 0.91577 0.829969
0.269886 0.918578 0.829694
0.265263 0.918669 0.826566
0.261219 0.918212 0.820569
0.251911 0.916884 0.808164
0.371069 0.898924 0.784543
0.624628 0.888563 0.779706
0.773419 0.880903 0.758083
0.878752 0.890394 0.769436
0.366567 0.076112 0.780941
0.40351 0.0766918 0.781277
0.468482 0.0771801 0.781552
0.563043 0.0958724 0.790829
0.673915 0.132464 0.811566
0.749538 0.114961 0.821424
0.770108 0.114717 0.826459
0.770459 0.115221 0.826749
0.770352 0.115618 0.826596
0.303395 0.0737316 0.778958
0.360204 0.0760662 0.780545
0.4383 0.0767681 0.78056
0.541299 0.0888685 0.787594
0.662074 0.131975 0.808469
0.743145 0.116854 0.820417
0.770169 0.114824 0.826505
0.77055 0.115389 0.826841
0.770642 0.11577 0.826871
0.137667 0.182132 0.772656
0.260807 0.133272 0.782528
0.364294 0.0754253 0.778378
0.494499 0.0774395 0.779355
0.63154 0.119249 0.800259
0.731334 0.119524 0.817044
0.770077 0.114672 0.826413
0.770703 0.115679 0.826963
0.770962 0.116213 0.827222
0.0194095 0.222873 0.729519
0.0195163 0.200488 0.726482
0.0204776 0.186923 0.741146
0.379355 0.0754559 0.776944
0.563256 0.0950484 0.785016
0.703029 0.124681 0.809445
0.768841 0.113329 0.82359
0.770565 0.115267 0.825956
0.770916 0.115923 0.826566
0.0207523 0.53489 0.772366
0.0205234 0.525368 0.776944
0.0203403 0.507729 0.783749
0.219043 0.469047 0.836149
0.593347 0.340963 0.847593
0.745998 0.340429 0.8439
0.809354 0.318242 0.850172
0.808026 0.289738 0.849989
0.805051 0.256916 0.847242
0.0311894 0.744533 0.804547
0.0296941 0.738033 0.803937
0.0302129 0.727245 0.806302
0.091249 0.706645 0.818265
0.439002 0.673335 0.860807
0.73402 0.607996 0.891203
0.836179 0.604212 0.878477
0.865431 0.591562 0.873503
0.860945 0.563424 0.864866
0.161135 0.862135 0.84184
0.154604 0.858 0.83949
0.148577 0.849561 0.836469
0.15024 0.837888 0.835935
0.31577 0.817929 0.840909
0.608591 0.79939 0.859495
0.810864 0.773373 0.880842
0.891585 0.765927 0.866087
0.894011 0.75111 0.857359
0.298177 0.90782 0.845869
0.285756 0.908385 0.845701
0.28069 0.90486 0.84329
0.28426 0.899596 0.838819
0.303655 0.889906 0.831312
0.555291 0.876814 0.830106
0.743389 0.875746 0.839963
0.869917 0.881804 0.858244
0.908507 0.872297 0.853315
0.348196 0.912642 0.845472
0.344045 0.91342 0.843595
0.344518 0.912825 0.841398
0.350164 0.911528 0.837232
0.360082 0.909453 0.831495
0.460349 0.900832 0.824613
0.670634 0.903349 0.832654
0.809812 0.912993 0.852461
0.907454 0.920592 0.85565
0.394903 0.0770581 0.78175
0.429908 0.0775464 0.782391
0.484779 0.0759289 0.780774
0.574975 0.0987716 0.79234
0.680964 0.129854 0.811948
0.75288 0.113115 0.821591
0.769436 0.113695 0.82591
0.770611 0.115511 0.826886
0.770748 0.115831 0.827008
0.347295 0.0755169 0.780514
0.393408 0.0772259 0.781949
0.458503 0.0771801 0.782101
0.555169 0.0929732 0.789731
0.670649 0.133425 0.810971
0.747387 0.114687 0.820691
0.769528 0.113893 0.826001
0.770687 0.115648 0.826963
0.770901 0.116045 0.827176
0.239155 0.164538 0.782727
0.287938 0.0733501 0.77879
0.398047 0.0768444 0.781552
0.514061 0.0819715 0.784634
0.644892 0.124773 0.805692
0.736171 0.118395 0.818952
0.769711 0.114199 0.826123
0.770825 0.115923 0.827085
0.771084 0.116457 0.827359
0.0194858 0.197787 0.751232
0.0196384 0.191058 0.749889
0.131075 0.184192 0.773571
0.416114 0.0771496 0.781933
0.582681 0.101534 0.794598
0.712947 0.12668 0.816724
0.769436 0.114458 0.826169
0.771115 0.116503 0.82739
0.771374 0.117082 0.827634
0.0439612 0.516609 0.816999
0.0369573 0.502205 0.814801
0.0297398 0.476249 0.812711
0.245212 0.402472 0.837583
0.576745 0.270832 0.838117
0.732235 0.280324 0.839597
0.801068 0.257618 0.848844
0.800702 0.22562 0.848081
0.798337 0.19266 0.848356
0.123262 0.733623 0.845487
0.122057 0.7252 0.844175
0.120455 0.709895 0.841749
0.163867 0.680171 0.841382
0.447623 0.641566 0.866377
0.737026 0.569482 0.884657
0.832227 0.564767 0.878645
0.856489 0.551537 0.877546
0.848997 0.520211 0.872602
0.212406 0.852735 0.866545
0.204761 0.847913 0.865568
0.192782 0.840833 0.865064
0.22533 0.824155 0.861067
0.36997 0.799359 0.860288
0.618585 0.775738 0.883192
0.821317 0.742061 0.904067
0.888319 0.735241 0.897444
0.888151 0.718013 0.897185
0.302785 0.904601 0.864179
0.306752 0.901152 0.864851
0.317327 0.895262 0.864424
0.341909 0.885634 0.86392
0.384207 0.871977 0.863035
0.5664 0.867521 0.869688
0.744335 0.86154 0.883314
0.875959 0.852049 0.900145
0.905669 0.844129 0.89839
0.379705 0.912322 0.856718
0.38294 0.911986 0.856718
0.388815 0.911696 0.856825
0.398856 0.910369 0.856184
0.414328 0.9093 0.854978
0.49276 0.905226 0.855528
0.684581 0.908537 0.86595
0.826551 0.92195 0.891463
0.920485 0.933654 0.912306
