bundles/resolve-cinematic-luts/Phantom Luts/P4k & P6K Phntm Film LUTs - V6/P4K/Gen 4 Colour/Standard (No WB Offset)/P4k Bleach Gen4.cube
TITLE "Generated by Resolve"
LUT_3D_SIZE 5
0.0153353 0.0269474 0.0176242
0.0813611 0.032166 0.0239261
0.314397 0.049073 0.0407263
0.612268 0.0761883 0.0745251
0.794705 0.120165 0.124285
0.0306554 0.15523 0.0614786
0.133715 0.185138 0.0356909
0.509651 0.183154 0.048661
0.735012 0.236027 0.109438
0.90309 0.351583 0.206119
0 0.426474 0.125124
0.00715648 0.449851 0.0236057
0.506127 0.592889 0.071931
0.79855 0.664179 0.141588
0.920043 0.706783 0.247456
0.0571756 0.715114 0.390433
0.0537118 0.722896 0.271489
0.395331 0.753887 0.140276
0.769543 0.827878 0.21944
0.901274 0.864759 0.373648
0.0898909 0.778973 0.530495
0.0900893 0.777981 0.392554
0.326055 0.785931 0.271595
0.740459 0.844038 0.356161
0.892653 0.89102 0.482307
0.0258793 0.0312963 0.07187
0.0979629 0.0331121 0.0768139
0.372702 0.0429847 0.135286
0.645441 0.0560311 0.194537
0.810224 0.0881361 0.285527
0.0251621 0.140291 0.116762
0.158495 0.168215 0.154376
0.555322 0.15053 0.137743
0.762264 0.170291 0.163928
0.871839 0.236683 0.231159
0 0.411673 0.222644
0 0.42945 0.132555
0.502342 0.584939 0.101183
0.836789 0.646036 0.237018
0.930617 0.686458 0.326146
0.0583658 0.696696 0.472938
0.0543526 0.702235 0.376959
0.246052 0.734752 0.161349
0.757671 0.816907 0.221729
0.907286 0.854856 0.38732
0.102586 0.783261 0.609369
0.0924086 0.778851 0.525505
0.182666 0.779156 0.294255
0.693523 0.82739 0.337255
0.877592 0.8869 0.44625
0.0590982 0.0377356 0.244633
0.177005 0.0396735 0.264179
0.435996 0.046128 0.312093
0.690044 0.0625772 0.469429
0.825803 0.0830243 0.561028
0.0151369 0.0942092 0.28333
0.144961 0.0605631 0.410468
0.544091 0.0631418 0.410086
0.740948 0.0751659 0.493034
0.833631 0.0926223 0.54638
0 0.401999 0.345312
0 0.409918 0.351125
0.595376 0.580896 0.559594
0.84892 0.606561 0.58587
0.930724 0.62945 0.610239
0.0641031 0.682353 0.562341
0.0628519 0.676844 0.534371
0.299504 0.721233 0.50312
0.764294 0.802625 0.5608
0.93611 0.837797 0.632074
0.123964 0.785824 0.673884
0.115572 0.777966 0.640711
0.186343 0.777691 0.547936
0.642832 0.825452 0.535576
0.883177 0.894743 0.59736
0.118715 0.0438392 0.455802
0.274434 0.0472572 0.509819
0.522148 0.0498207 0.529244
0.729351 0.0716411 0.608133
0.846143 0.0925765 0.688106
0.00802625 0.0417334 0.429892
0.210605 0.0491035 0.581842
0.562173 0.052018 0.58793
0.763455 0.0779889 0.639765
0.84712 0.0937514 0.689906
0.0068513 0.380835 0.552041
0.0118257 0.372168 0.586954
0.647334 0.516243 0.781781
0.891844 0.560098 0.794842
0.952026 0.572686 0.812573
0.0689097 0.679088 0.631693
0.0683604 0.672694 0.625452
0.404776 0.729381 0.689113
0.819272 0.797574 0.772152
0.940383 0.810849 0.792172
0.142687 0.78172 0.707454
0.146471 0.773846 0.692073
0.343862 0.786801 0.692119
0.746395 0.87451 0.773388
0.915129 0.910658 0.785046
0.212329 0.0509804 0.613184
0.377523 0.0539101 0.64651
0.602625 0.059617 0.660151
0.769802 0.081239 0.708385
0.863233 0.101015 0.759274
0.0457618 0.0478065 0.593042
0.319265 0.0569314 0.691295
0.624369 0.0623789 0.697627
0.790051 0.0860304 0.72961
0.864027 0.102205 0.75993
0.0135195 0.368246 0.654551
0.031342 0.356374 0.690074
0.712535 0.466789 0.883879
0.92459 0.523873 0.883024
0.963272 0.539376 0.88275
0.0695354 0.680537 0.699626
0.0791943 0.669566 0.706493
0.465278 0.715663 0.786664
0.854994 0.774685 0.864118
0.946883 0.78912 0.869825
0.157671 0.781521 0.734813
0.162676 0.77348 0.726558
0.365179 0.787717 0.742031
0.792416 0.886091 0.843885
0.928954 0.905791 0.867384
