bundles/resolve-cinematic-luts/Phantom Luts/P4k & P6K Phntm Film LUTs - V6/P4K/Gen 4 Colour/Standard (No WB Offset)/P4k EastmanRM Gen4-Legacy.cube
TITLE "Generated by Resolve"
LUT_3D_SIZE 9
0.0444038 0.0406958 0.0425116
0.0727855 0.0386664 0.0406043
0.165896 0.0386206 0.0398108
0.282841 0.0382391 0.0419471
0.421851 0.0348211 0.0440681
0.527916 0.0361486 0.0538949
0.598566 0.0492866 0.0761883
0.641596 0.0705119 0.0995804
0.614679 0.0884871 0.144747
0.0475624 0.0752117 0.0512551
0.0546883 0.0766918 0.0473182
0.139956 0.0729381 0.0464942
0.256809 0.0646067 0.0437476
0.398581 0.0484169 0.0424964
0.519753 0.0414435 0.0438544
0.595911 0.0529641 0.0650187
0.639063 0.0717937 0.085832
0.605188 0.0841993 0.123476
0.0542 0.149371 0.0669108
0.0497292 0.152956 0.049897
0.129503 0.16022 0.0512551
0.297841 0.143023 0.0530556
0.443412 0.129839 0.0540475
0.582635 0.130037 0.0605631
0.684718 0.154192 0.0970169
0.737774 0.177386 0.124865
0.709072 0.1794 0.145418
0.0531167 0.269566 0.0833295
0.0462501 0.280385 0.0648661
0.0557107 0.282918 0.0426337
0.261784 0.34902 0.0611734
0.543023 0.347036 0.0709392
0.691035 0.317281 0.0869459
0.793484 0.328542 0.126558
0.832776 0.351308 0.160906
0.816571 0.356741 0.178912
0.0468147 0.440116 0.126101
0.0446937 0.4477 0.109926
0.0451057 0.446021 0.0620737
0.101518 0.466285 0.0411231
0.488014 0.569116 0.0834516
0.712123 0.566308 0.134997
0.826459 0.532845 0.184802
0.862684 0.544823 0.222599
0.855268 0.550927 0.236362
0.0770428 0.604166 0.296544
0.0708171 0.611353 0.295247
0.073518 0.606882 0.236957
0.0916457 0.591638 0.135256
0.332662 0.64773 0.121614
0.658442 0.752377 0.222644
0.840833 0.753475 0.318883
0.898634 0.753323 0.394491
0.904768 0.759579 0.390555
0.211734 0.722805 0.449973
0.205051 0.725261 0.44744
0.199084 0.719326 0.410437
0.197299 0.700771 0.328969
0.30454 0.696574 0.227558
0.5467 0.787243 0.300481
0.811002 0.874098 0.409064
0.895415 0.882033 0.518471
0.894148 0.885939 0.545602
0.25359 0.754162 0.51725
0.248081 0.749187 0.497307
0.238956 0.737423 0.451408
0.235813 0.724407 0.392645
0.292805 0.714687 0.30396
0.517311 0.776883 0.315587
0.775464 0.876127 0.426795
0.892851 0.891981 0.539193
0.889845 0.897581 0.599649
0.249149 0.761868 0.548257
0.244038 0.756741 0.526421
0.238407 0.743297 0.473548
0.235599 0.725978 0.399817
0.293858 0.715175 0.305043
0.528832 0.781888 0.321553
0.779934 0.877546 0.431296
0.891997 0.892775 0.548547
0.887327 0.898589 0.608698
0.0457465 0.0423896 0.0556039
0.0649119 0.043595 0.0552071
0.149828 0.0430762 0.0568551
0.262577 0.0399329 0.0631113
0.398322 0.0349737 0.0684672
0.507439 0.03682 0.0823835
0.583062 0.0521096 0.112856
0.619974 0.071046 0.14168
0.600061 0.079469 0.173678
0.0466163 0.0656291 0.0557107
0.0562753 0.0652018 0.0581216
0.141009 0.0557259 0.0564126
0.260212 0.0463111 0.0535592
0.390341 0.040116 0.0566873
0.504448 0.0401923 0.067689
0.580316 0.054963 0.0962692
0.619669 0.0774395 0.122621
0.605951 0.0915541 0.155383
0.0532692 0.140612 0.0840314
0.0480049 0.145724 0.0742351
0.121431 0.154818 0.0586709
0.299229 0.129107 0.0604715
0.43711 0.109926 0.057023
0.567758 0.108324 0.0663615
0.654231 0.12076 0.0971542
0.691264 0.132647 0.116457
0.663233 0.13341 0.135439
0.0517281 0.259281 0.112596
0.0468452 0.26833 0.0965591
0.0485695 0.276204 0.0479133
0.26154 0.341238 0.0631113
0.555062 0.319982 0.0738079
0.691249 0.297047 0.0915389
0.79884 0.309392 0.135119
0.830915 0.331945 0.162432
0.812863 0.337072 0.18175
0.0491493 0.437827 0.167193
0.0445716 0.444236 0.154299
0.0446326 0.445212 0.0791638
0.0796826 0.458564 0.0407568
0.488579 0.564721 0.0813611
0.7196 0.554009 0.137514
0.832654 0.517586 0.185534
0.863066 0.531624 0.222049
0.855406 0.536522 0.236011
0.0780957 0.6038 0.323079
0.0707561 0.611139 0.325017
0.0707561 0.608484 0.268376
0.0820935 0.593149 0.159823
0.31577 0.640818 0.115129
0.657618 0.748928 0.217136
0.845289 0.747051 0.319783
0.897368 0.745571 0.394003
0.900053 0.751583 0.397879
0.212253 0.724483 0.46659
0.206165 0.727001 0.465232
0.200732 0.722271 0.432334
0.194278 0.705104 0.351537
0.273991 0.692653 0.234501
0.538415 0.783093 0.293812
0.809232 0.873045 0.406302
0.896071 0.880339 0.515068
0.895186 0.884138 0.542123
0.252506 0.760937 0.545037
0.254932 0.753933 0.515862
0.246189 0.74345 0.474495
0.235111 0.727626 0.409842
0.274342 0.713344 0.316426
0.495399 0.768139 0.308476
0.757488 0.871839 0.421973
0.892699 0.891569 0.534905
0.889403 0.897856 0.602258
0.254124 0.76553 0.564004
0.255375 0.760143 0.540322
0.246479 0.749477 0.496925
0.236118 0.729442 0.417197
0.274357 0.714122 0.319219
0.497139 0.768765 0.310338
0.76318 0.873549 0.426017
0.889387 0.892409 0.542153
0.887358 0.898711 0.609995
0.0458534 0.0491798 0.093904
0.0734722 0.046479 0.0979782
0.151858 0.0469978 0.0874647
0.279042 0.0449073 0.0907149
0.412375 0.0388647 0.0920729
0.517632 0.0386664 0.111269
0.588251 0.0527504 0.143175
0.616693 0.0691234 0.172839
0.596338 0.0781872 0.207187
0.0432746 0.0622263 0.0803845
0.0482185 0.0525673 0.10013
0.131609 0.0515297 0.0957809
0.268772 0.0452277 0.0810712
0.406424 0.0372778 0.0866865
0.518227 0.0377813 0.0994125
0.593698 0.0540627 0.132265
0.621958 0.0711528 0.160861
0.601648 0.0807965 0.195102
0.051667 0.136934 0.100618
0.0484779 0.137942 0.110719
0.13283 0.147967 0.128389
0.314626 0.113268 0.10045
0.470787 0.0781262 0.0838026
0.575158 0.0648051 0.0881819
0.639185 0.0842908 0.11899
0.658503 0.0966354 0.13257
0.638834 0.103319 0.157366
0.0525368 0.251011 0.140124
0.0482338 0.253773 0.141497
0.0535897 0.273945 0.113375
0.279194 0.336095 0.110277
0.56376 0.286259 0.108431
0.700099 0.263142 0.114214
0.810575 0.276997 0.158465
0.82887 0.29131 0.174044
0.806424 0.295567 0.197253
0.0535286 0.435874 0.219272
0.0476692 0.441703 0.227207
0.0445563 0.43888 0.156069
0.0538491 0.449683 0.0523995
0.483864 0.557076 0.0877546
0.732158 0.526787 0.153826
0.841215 0.49369 0.196582
0.864302 0.505623 0.229572
0.856199 0.509331 0.243626
0.0797436 0.599451 0.355367
0.0712444 0.607248 0.366888
0.0678416 0.607187 0.32369
0.0710765 0.595331 0.205325
0.268696 0.62388 0.107408
0.656168 0.741558 0.202441
0.851606 0.733669 0.323507
0.895109 0.728161 0.389242
0.895628 0.732708 0.394354
0.211276 0.724422 0.488197
0.20148 0.728542 0.494926
0.200366 0.724758 0.464302
0.19115 0.711482 0.390646
0.234653 0.691417 0.263737
0.520928 0.77467 0.283406
0.804685 0.870146 0.399512
0.898558 0.875929 0.5075
0.897658 0.878889 0.535897
0.260777 0.766827 0.570092
0.255787 0.764019 0.558541
0.257816 0.753323 0.512749
0.238178 0.735561 0.44387
0.248997 0.715419 0.345754
0.447364 0.750668 0.295583
0.731945 0.864729 0.41384
0.889693 0.891188 0.526543
0.889387 0.898039 0.604135
0.262638 0.770397 0.586725
0.258961 0.76846 0.575891
0.259709 0.758816 0.53341
0.242847 0.739208 0.456016
0.246967 0.716258 0.350652
0.444053 0.749477 0.296086
0.724315 0.862242 0.415595
0.883619 0.892073 0.529213
0.887114 0.899062 0.613291
0.0496376 0.0596933 0.158297
0.0837568 0.0503853 0.171145
0.146853 0.0528267 0.172503
0.287373 0.0486152 0.147341
0.420325 0.0484932 0.171252
0.533272 0.0487526 0.182574
0.607507 0.0690929 0.203311
0.623362 0.0804761 0.223789
0.601343 0.0893873 0.262165
0.0404822 0.0649424 0.136934
0.051606 0.0601511 0.166461
0.131731 0.0516976 0.181628
0.275471 0.0506142 0.157473
0.421897 0.048249 0.166247
0.537285 0.0472267 0.165393
0.606653 0.0665904 0.191211
0.62153 0.0775616 0.21059
0.598978 0.085069 0.245792
0.0447242 0.127275 0.143679
0.0426337 0.120943 0.161654
0.0997482 0.11223 0.226078
0.284718 0.0986496 0.202274
0.464347 0.0651102 0.148898
0.562966 0.0509041 0.141253
0.624537 0.0667887 0.167437
0.640146 0.0773175 0.183352
0.619806 0.0847486 0.214435
0.0505684 0.243519 0.178408
0.0466621 0.246067 0.19147
0.0626993 0.26479 0.214862
0.308202 0.317159 0.290715
0.569909 0.265873 0.256352
0.743603 0.205509 0.240406
0.820371 0.202472 0.251331
0.815015 0.19704 0.2495
0.787182 0.200076 0.275929
0.0562753 0.433997 0.273411
0.0495766 0.437598 0.294286
0.0497902 0.43711 0.274174
0.0977035 0.468757 0.248249
0.47776 0.537926 0.237507
0.732616 0.481666 0.243839
0.858763 0.464439 0.243244
0.870634 0.469444 0.255344
0.862867 0.472343 0.270619
0.084535 0.595071 0.392523
0.0734875 0.601923 0.414725
0.0720684 0.603281 0.396826
0.0676738 0.604013 0.325048
0.184405 0.608499 0.165972
0.645106 0.729839 0.23331
0.861723 0.704311 0.344717
0.890455 0.698344 0.381842
0.889479 0.699702 0.388571
0.207767 0.722423 0.515892
0.195651 0.727184 0.52752
0.196139 0.726314 0.509468
0.19321 0.719432 0.458366
0.205676 0.701656 0.337469
0.470649 0.752651 0.275837
0.800916 0.867567 0.387106
0.903792 0.869032 0.504143
0.902693 0.870207 0.53164
0.272755 0.773434 0.60174
0.267338 0.772702 0.597986
0.263996 0.768261 0.57557
0.259953 0.753674 0.512551
0.238941 0.727703 0.405921
0.381567 0.732677 0.294621
0.694804 0.851743 0.398688
0.88542 0.891066 0.516701
0.889357 0.898497 0.608301
0.275685 0.775891 0.61532
0.270878 0.77525 0.609827
0.267002 0.771618 0.590295
0.264897 0.757458 0.52665
0.239536 0.729946 0.41593
0.369985 0.730755 0.298695
0.668391 0.842252 0.401007
0.872496 0.89189 0.510018
0.887861 0.89929 0.615351
0.0560311 0.0700999 0.260914
0.0866712 0.0510719 0.285252
0.170748 0.0531472 0.296254
0.275044 0.0553445 0.288045
0.426383 0.0541543 0.265858
0.542977 0.0690929 0.284489
0.631357 0.0991226 0.305364
0.645106 0.108659 0.322332
0.623636 0.118486 0.361486
0.0412146 0.0726024 0.229847
0.0565042 0.0709697 0.275471
0.142336 0.0528573 0.305653
0.265553 0.0559243 0.301656
0.429923 0.0552682 0.272602
0.548684 0.0706951 0.288502
0.633844 0.0991531 0.300984
0.643336 0.107164 0.316808
0.620127 0.116915 0.35642
0.0415045 0.108553 0.21857
0.0416419 0.0985275 0.24065
0.0711986 0.0751812 0.308675
0.249042 0.060502 0.323232
0.426673 0.0582284 0.278889
0.563531 0.0655985 0.26421
0.647593 0.0897536 0.260685
0.656168 0.0981613 0.2804
0.630579 0.107057 0.318334
0.045304 0.220386 0.258503
0.0429847 0.213794 0.276875
0.0452125 0.208484 0.307866
0.25034 0.221805 0.429511
0.530617 0.234455 0.436667
0.731563 0.1897 0.378775
0.781552 0.175097 0.354543
0.772137 0.169329 0.35082
0.745953 0.174182 0.375433
0.0545968 0.428244 0.331136
0.0487068 0.430274 0.355047
0.0486763 0.430274 0.356786
0.135683 0.470161 0.410163
0.506294 0.514031 0.481758
0.74696 0.461952 0.444633
0.896345 0.415244 0.442496
0.905699 0.403952 0.442039
0.895628 0.401724 0.453178
0.0869154 0.590387 0.435233
0.0732433 0.596063 0.460746
0.0727245 0.596475 0.455512
0.0801556 0.600671 0.439612
0.295827 0.631464 0.437858
0.632258 0.698222 0.444404
0.846586 0.648478 0.445731
0.886534 0.641428 0.429084
0.881346 0.641794 0.438514
0.203128 0.718227 0.545312
0.191165 0.723049 0.559457
0.188952 0.723156 0.552544
0.187533 0.719982 0.526741
0.215534 0.726131 0.467887
0.418799 0.734707 0.373922
0.787457 0.85977 0.481193
0.907423 0.858183 0.557122
0.905348 0.858076 0.57055
0.293111 0.777584 0.630472
0.280003 0.779126 0.637156
0.276204 0.77818 0.628336
0.273991 0.774182 0.600122
0.269017 0.757977 0.522515
0.35874 0.749844 0.402274
0.652338 0.829801 0.452094
0.881514 0.893431 0.535012
0.88893 0.900969 0.63566
0.289448 0.780865 0.649332
0.284779 0.780713 0.647318
0.279942 0.779995 0.63856
0.276967 0.776272 0.611093
0.271855 0.760906 0.534066
0.340993 0.749783 0.411978
0.606104 0.809232 0.441566
0.864118 0.894423 0.529122
0.888533 0.901167 0.637537
0.0708934 0.0820325 0.362982
0.10193 0.0541085 0.391669
0.19826 0.0567178 0.40415
0.307286 0.0567941 0.404425
0.40885 0.0653239 0.398917
0.551904 0.0816358 0.380179
0.651835 0.129015 0.406546
0.671229 0.138506 0.440208
0.646937 0.147677 0.479347
0.0448463 0.0859541 0.344259
0.0719615 0.0840772 0.377096
0.159518 0.0564126 0.411704
0.301106 0.056733 0.414343
0.407492 0.0669871 0.410925
0.554589 0.0860609 0.390845
0.65597 0.131685 0.413138
0.665064 0.140978 0.449653
0.640314 0.149844 0.486641
0.0416571 0.0950027 0.300099
0.041886 0.0871595 0.325811
0.0854353 0.0780957 0.396567
0.265339 0.0581826 0.424994
0.394553 0.0676585 0.420447
0.560678 0.0857862 0.386862
0.671443 0.127047 0.392889
0.679713 0.134798 0.421286
0.653834 0.144457 0.459892
0.0423285 0.184558 0.335683
0.0423133 0.176196 0.354559
0.0423133 0.160143 0.382086
0.179904 0.1243 0.491279
0.460807 0.149737 0.525979
0.637125 0.152529 0.489052
0.707988 0.152255 0.433875
0.702968 0.147127 0.423087
0.67715 0.151583 0.445411
0.045304 0.405951 0.412161
0.0440833 0.404074 0.435157
0.0438392 0.393729 0.445304
0.0876936 0.414115 0.51426
0.460197 0.425925 0.627863
0.740841 0.449165 0.641474
0.911452 0.406149 0.596567
0.917754 0.395148 0.602258
0.895033 0.399298 0.621836
0.0856336 0.58204 0.483421
0.0729076 0.587274 0.508843
0.0726177 0.588022 0.510765
0.0764172 0.590768 0.514199
0.358785 0.63859 0.582422
0.660502 0.674311 0.641016
0.859312 0.629252 0.608484
0.906035 0.615 0.611795
0.901106 0.614771 0.619287
0.205692 0.711147 0.570825
0.187243 0.716075 0.591943
0.185245 0.716228 0.590097
0.18526 0.716213 0.581842
0.283726 0.739803 0.581445
0.514672 0.771801 0.597559
0.781628 0.837995 0.62562
0.899184 0.831342 0.671626
0.89929 0.833432 0.677653
0.307927 0.779355 0.657115
0.289311 0.780697 0.667414
0.286015 0.780148 0.662699
0.281422 0.778729 0.649668
0.291386 0.780926 0.627176
0.458686 0.807095 0.608042
0.650339 0.829938 0.594079
0.881727 0.902846 0.660853
0.891508 0.907866 0.718105
0.304265 0.785153 0.683589
0.300328 0.785321 0.683238
0.296696 0.785077 0.67837
0.293477 0.784421 0.666102
0.295872 0.783993 0.638453
0.44242 0.808087 0.615427
0.618479 0.826581 0.601724
0.844678 0.899397 0.668696
0.884184 0.909499 0.731579
0.100237 0.0902724 0.444572
0.128801 0.0619364 0.471473
0.220569 0.0648356 0.48249
0.328969 0.0690623 0.488731
0.416678 0.0776226 0.490684
0.529564 0.108583 0.501656
0.651774 0.150698 0.521553
0.667033 0.157351 0.539635
0.650828 0.165499 0.568811
0.0647746 0.0972763 0.427482
0.100237 0.0908675 0.455848
0.185458 0.0652476 0.486229
0.316167 0.0709697 0.495033
0.415442 0.079118 0.497337
0.532891 0.113207 0.511818
0.655726 0.153964 0.530617
0.660761 0.160494 0.55082
0.646784 0.167544 0.575631
0.0423285 0.0977035 0.374762
0.0461433 0.0990158 0.415732
0.113298 0.0811017 0.471397
0.27602 0.070634 0.498268
0.405341 0.0792096 0.50251
0.527108 0.114672 0.519707
0.662089 0.152285 0.52517
0.673548 0.15613 0.535149
0.653605 0.164446 0.563546
0.0424201 0.148699 0.39266
0.0423743 0.141207 0.401038
0.0424353 0.12668 0.419623
0.148974 0.0786908 0.506203
0.385412 0.0925002 0.528252
0.519783 0.119631 0.535073
0.663752 0.149981 0.516533
0.685786 0.151263 0.509758
0.659663 0.158587 0.534463
0.043946 0.367788 0.483635
0.0441138 0.364996 0.496056
0.0443427 0.352087 0.501091
0.0755322 0.363378 0.596551
0.420829 0.33312 0.728267
0.735348 0.399069 0.806134
0.891356 0.3935 0.785641
0.896391 0.371008 0.771389
0.873823 0.374853 0.775677
0.0730907 0.566903 0.555352
0.0645457 0.568933 0.573556
0.0646677 0.565957 0.579919
0.0751659 0.56405 0.605829
0.302846 0.589212 0.681117
0.621805 0.604334 0.768811
0.857801 0.631144 0.784909
0.910475 0.621149 0.780163
0.90518 0.621988 0.785245
0.202152 0.702052 0.613489
0.186099 0.707057 0.631159
0.185641 0.707393 0.632425
0.186526 0.707301 0.632151
0.28127 0.734646 0.660868
0.572946 0.787488 0.734325
0.797024 0.81799 0.78265
0.897948 0.801923 0.767788
0.896742 0.803082 0.778683
0.310689 0.778256 0.681682
0.296223 0.780026 0.692012
0.296834 0.780972 0.691615
0.300511 0.782727 0.687877
0.329442 0.795361 0.693446
0.546273 0.842435 0.743923
0.726848 0.875685 0.782376
0.870192 0.906157 0.790875
0.889662 0.909529 0.815061
0.344244 0.794125 0.706981
0.327413 0.795422 0.71603
0.327459 0.796674 0.71545
0.328298 0.79765 0.71075
0.340169 0.803174 0.70631
0.518044 0.843397 0.746654
0.699245 0.879332 0.791516
0.830472 0.900557 0.802869
0.880354 0.915999 0.82919
0.131563 0.0867323 0.499626
0.164721 0.0769665 0.512139
0.238209 0.0805829 0.521706
0.333516 0.0898299 0.533989
0.430198 0.100298 0.545312
0.53782 0.135988 0.574014
0.639323 0.172229 0.608911
0.648997 0.177584 0.621332
0.648524 0.179309 0.626596
0.111772 0.107012 0.480812
0.134966 0.0839857 0.505364
0.21294 0.0802014 0.520958
0.322621 0.0901045 0.535027
0.429129 0.100816 0.548028
0.544808 0.140322 0.581247
0.642878 0.174121 0.613352
0.64921 0.178058 0.622553
0.648386 0.179446 0.626322
0.0502632 0.107393 0.441413
0.0818189 0.108858 0.469917
0.14818 0.0782788 0.513664
0.287922 0.0876478 0.532616
0.417578 0.10042 0.549249
0.540749 0.140246 0.582773
0.642939 0.173816 0.613306
0.651896 0.177615 0.620935
0.647822 0.179736 0.626856
0.0424964 0.121675 0.413458
0.0424353 0.113359 0.41062
0.0440986 0.10901 0.431815
0.178637 0.0807813 0.520943
0.373098 0.0995193 0.548119
0.51812 0.134081 0.5794
0.636728 0.172396 0.611139
0.653117 0.176455 0.615976
0.649027 0.178363 0.620935
0.0448005 0.332784 0.527459
0.0450294 0.32871 0.533471
0.0449226 0.315099 0.537026
0.12607 0.321096 0.640085
0.482094 0.294209 0.765698
0.738384 0.344564 0.824262
0.825055 0.3608 0.812802
0.819974 0.340185 0.795529
0.811688 0.340902 0.794797
0.0677348 0.545953 0.619104
0.0666514 0.546471 0.625055
0.0657511 0.541588 0.628931
0.0903334 0.545937 0.667445
0.299901 0.551415 0.735637
0.636652 0.553384 0.833707
0.869718 0.611872 0.889265
0.917433 0.607233 0.887892
0.905409 0.608759 0.887587
0.191409 0.691569 0.666636
0.18645 0.693614 0.675212
0.186633 0.692134 0.678508
0.19028 0.69218 0.689891
0.29308 0.712718 0.732723
0.556527 0.753872 0.797848
0.793027 0.777188 0.86157
0.893187 0.786236 0.859297
0.894209 0.785428 0.861524
0.314641 0.775326 0.702815
0.300908 0.777874 0.713207
0.304524 0.779522 0.714794
0.308614 0.781064 0.715557
0.339498 0.794263 0.728466
0.549294 0.841749 0.783993
0.755779 0.884871 0.842557
0.869261 0.902617 0.869139
0.886534 0.904799 0.870558
0.360342 0.80209 0.731334
0.348348 0.803204 0.737682
0.350378 0.804608 0.737621
0.35491 0.806836 0.736965
0.375891 0.813336 0.741268
0.55613 0.854032 0.790005
0.742885 0.895003 0.845212
0.852277 0.914229 0.871031
0.891066 0.919112 0.868513
0.198566 0.0834669 0.528176
0.2318 0.0862898 0.533547
0.290715 0.0921798 0.542184
0.370352 0.101976 0.554635
0.462806 0.115541 0.569863
0.571206 0.152209 0.601099
0.644907 0.177218 0.624262
0.65037 0.179629 0.626627
0.650538 0.179843 0.626841
0.161913 0.0819409 0.521965
0.203204 0.0839246 0.529335
0.27126 0.090425 0.539651
0.36112 0.100603 0.553063
0.46009 0.11458 0.568994
0.574578 0.153506 0.602426
0.646525 0.178058 0.625055
0.649622 0.17998 0.627268
0.64831 0.180529 0.628611
0.0987564 0.112139 0.482368
0.131792 0.0971695 0.508858
0.214954 0.0846723 0.531029
0.330007 0.0969863 0.548501
0.446189 0.111177 0.566522
0.568383 0.152621 0.602579
0.646906 0.177707 0.624491
0.651926 0.179583 0.626276
0.64863 0.180667 0.628779
0.0434119 0.113268 0.435721
0.0444953 0.110933 0.440742
0.0696727 0.11194 0.470314
0.236667 0.0867018 0.534386
0.399634 0.105776 0.55964
0.543862 0.145693 0.597574
0.642237 0.176608 0.623728
0.653223 0.179553 0.626001
0.650034 0.180652 0.628473
0.049485 0.31194 0.559487
0.0505684 0.308888 0.564965
0.0532387 0.291707 0.563119
0.162341 0.282719 0.636683
0.498878 0.26482 0.749783
0.718624 0.305486 0.790524
0.796475 0.323384 0.781262
0.788678 0.307301 0.766735
0.784573 0.309453 0.768002
0.0783551 0.539117 0.653986
0.079408 0.54052 0.660212
0.0833143 0.537667 0.666697
0.118257 0.536019 0.696269
0.327718 0.530877 0.74551
0.683299 0.546807 0.855238
0.878401 0.591165 0.89604
0.915114 0.589624 0.896788
0.904799 0.591394 0.896406
0.188708 0.683925 0.697459
0.188724 0.686061 0.702831
0.194232 0.685908 0.70753
0.218509 0.68777 0.722545
0.318914 0.700481 0.747814
0.561181 0.733791 0.808942
0.81973 0.756832 0.879667
0.889845 0.767651 0.884062
0.890211 0.768399 0.884062
0.328725 0.777249 0.725277
0.317159 0.780194 0.735256
0.324178 0.782834 0.739116
0.334615 0.785351 0.744915
0.374777 0.79649 0.757458
0.56791 0.839109 0.809567
0.763149 0.880232 0.862196
0.877058 0.894972 0.885191
0.89424 0.894331 0.88069
0.370748 0.806714 0.743099
0.360189 0.807462 0.748165
0.36434 0.808728 0.750118
0.37116 0.811154 0.752087
0.391699 0.816434 0.757794
0.557183 0.854505 0.801678
0.74551 0.896406 0.854826
0.859007 0.917128 0.883024
0.89575 0.920134 0.878553
