bundles/resolve-cinematic-luts/Phantom Luts/P4k & P6K Phntm Film LUTs - V6/P4K/Gen 4 Colour/Standard (No WB Offset)/P4k Bleach Gen4-Legacy.cube
TITLE "Generated by Resolve"
LUT_3D_SIZE 9
0.0252842 0.0381781 0.0269474
0.0339666 0.0395361 0.0289616
0.0764019 0.0466773 0.0375067
0.149279 0.0534829 0.0438849
0.262409 0.0618448 0.0498665
0.403708 0.0672923 0.0560616
0.556023 0.0721141 0.0646067
0.671565 0.0847028 0.0822919
0.771542 0.0996872 0.102831
0.028687 0.0500191 0.0334325
0.0401923 0.055436 0.0335851
0.090837 0.0651102 0.0401465
0.182254 0.0704662 0.0456397
0.30309 0.0739452 0.0525063
0.453635 0.0758373 0.0538491
0.584024 0.0818189 0.0592508
0.692439 0.0936141 0.0715496
0.77937 0.109697 0.0873121
0.0308385 0.129366 0.0597848
0.031632 0.139544 0.0403143
0.108385 0.14876 0.0418402
0.236912 0.155154 0.0423438
0.399481 0.155444 0.0585336
0.558053 0.161578 0.0722972
0.672892 0.185183 0.0956588
0.781247 0.221729 0.129625
0.869947 0.270191 0.170138
0.0264897 0.242573 0.0851911
0.0268406 0.25835 0.0591592
0.0509194 0.264851 0.0234531
0.22182 0.303746 0.0461433
0.444114 0.333349 0.0403449
0.641367 0.364736 0.0814984
0.764935 0.419547 0.147127
0.864271 0.46743 0.201907
0.914504 0.505348 0.230518
0.0081178 0.372107 0.115419
0.00773632 0.386252 0.0851759
0.0115511 0.390723 0.0301976
0.103899 0.423453 0.0160983
0.41088 0.523201 0.0640574
0.612345 0.577127 0.083238
0.766766 0.61088 0.13402
0.874678 0.636179 0.199222
0.917403 0.660792 0.236225
0.00460822 0.522728 0.179187
0.0056611 0.538125 0.152239
0.0102998 0.54667 0.0867323
0.063035 0.568063 0.0307927
0.32932 0.642374 0.0924544
0.614801 0.692287 0.130373
0.73109 0.727474 0.155062
0.856077 0.755047 0.212818
0.917967 0.77377 0.283619
0.054963 0.69984 0.324437
0.0548562 0.707149 0.293721
0.0569009 0.712383 0.222675
0.0840467 0.712352 0.127275
0.330587 0.744595 0.12517
0.569192 0.767468 0.164996
0.737179 0.815351 0.200961
0.831022 0.842557 0.246876
0.897414 0.859159 0.323735
0.0832685 0.770687 0.417594
0.0808423 0.771466 0.371572
0.0809491 0.771832 0.300313
0.104265 0.768826 0.211658
0.293324 0.783093 0.168963
0.543679 0.794965 0.19324
0.7187 0.836332 0.245777
0.828992 0.869078 0.285039
0.888823 0.882307 0.377035
0.0878462 0.775433 0.460945
0.0846723 0.77525 0.401907
0.0876173 0.774655 0.333303
0.111971 0.774136 0.261036
0.284031 0.782681 0.234531
0.542367 0.791745 0.250767
0.68896 0.823926 0.298482
0.830274 0.869291 0.340459
0.888365 0.882567 0.404623
0.0265812 0.0387274 0.0313573
0.0344091 0.0400854 0.0353399
0.0796521 0.0456245 0.0467536
0.158007 0.0505226 0.0563211
0.278065 0.0576944 0.0667124
0.428443 0.0640421 0.0756085
0.572732 0.0704356 0.0883192
0.688884 0.0859998 0.11313
0.782071 0.103395 0.142977
0.0280613 0.0464485 0.0339666
0.0389258 0.0521553 0.0401312
0.106157 0.0564584 0.0455024
0.210346 0.0606394 0.0497444
0.332692 0.0673381 0.0549172
0.491203 0.0690776 0.0591897
0.607645 0.0791638 0.0736553
0.718776 0.0916457 0.091783
0.787045 0.105989 0.108949
0.0333257 0.122988 0.0766155
0.0311742 0.134096 0.0621042
0.108858 0.146883 0.0495308
0.26006 0.146288 0.0576791
0.421317 0.141085 0.0654154
0.573404 0.145785 0.0814221
0.686091 0.165377 0.105516
0.792752 0.195377 0.134463
0.862211 0.232441 0.165362
0.0251164 0.236774 0.108934
0.0254978 0.252445 0.0876478
0.0332952 0.26392 0.0290379
0.223606 0.303807 0.0493935
0.475975 0.324056 0.0521859
0.657191 0.353704 0.0979934
0.780301 0.404791 0.166522
0.884916 0.443244 0.227924
0.923156 0.483268 0.251926
0.00927749 0.36817 0.145876
0.00663767 0.380682 0.118318
0.00975052 0.390265 0.0470893
0.0902724 0.42005 0.0163119
0.411109 0.522347 0.0650187
0.625803 0.574762 0.0894331
0.782742 0.606256 0.151019
0.882948 0.630152 0.220371
0.920607 0.653544 0.252552
0.00543221 0.516182 0.208347
0.00598154 0.529397 0.184665
0.00727855 0.543587 0.109285
0.0346532 0.559014 0.0384985
0.309178 0.63711 0.0901808
0.612406 0.689464 0.13109
0.737667 0.724651 0.156588
0.865003 0.749645 0.226001
0.92166 0.765988 0.299199
0.054139 0.688655 0.350927
0.0543984 0.696223 0.322316
0.0529335 0.704921 0.251896
0.0736095 0.708507 0.15407
0.29807 0.739803 0.124254
0.547906 0.762997 0.162081
0.73286 0.811521 0.200412
0.831266 0.839384 0.246311
0.899351 0.855406 0.326299
0.0840772 0.76585 0.454551
0.0823987 0.767117 0.408667
0.0785534 0.768887 0.332876
0.0932937 0.76817 0.239063
0.24303 0.778897 0.167163
0.524117 0.792554 0.189059
0.704097 0.83151 0.239673
0.823926 0.867414 0.27747
0.886824 0.881437 0.37055
0.0911269 0.77615 0.510384
0.0882582 0.775433 0.458076
0.0838788 0.775143 0.370581
0.100023 0.77435 0.290517
0.241062 0.779812 0.237491
0.496254 0.788586 0.246021
0.669688 0.817823 0.29163
0.817319 0.865812 0.334859
0.883238 0.881453 0.394247
0.0353246 0.042237 0.0674754
0.0500649 0.0433051 0.0638743
0.0876173 0.0463264 0.0721294
0.178714 0.0500801 0.100069
0.308186 0.0563973 0.112566
0.468635 0.0579843 0.127916
0.598566 0.0663157 0.147723
0.712551 0.0804456 0.178149
0.7935 0.094255 0.216495
0.0273899 0.0479591 0.0627909
0.0395514 0.0448615 0.081529
0.110842 0.0483406 0.0886244
0.229236 0.0533913 0.104234
0.367025 0.0585794 0.111666
0.531502 0.0608225 0.120958
0.639124 0.0747082 0.139803
0.745068 0.0903182 0.166629
0.800549 0.103883 0.193439
0.0324102 0.118837 0.0987716
0.0329747 0.125414 0.103853
0.123812 0.135012 0.121035
0.274479 0.134203 0.122408
0.454139 0.127245 0.112764
0.605676 0.125689 0.113359
0.717525 0.141527 0.130587
0.808988 0.164019 0.15555
0.83595 0.191043 0.180453
0.024918 0.227634 0.147387
0.0253147 0.238132 0.143297
0.0458991 0.261952 0.111437
0.248722 0.305852 0.115572
0.523079 0.30428 0.127642
0.674708 0.327031 0.15996
0.811292 0.362539 0.220188
0.909285 0.408026 0.273518
0.930922 0.446448 0.298039
0.0136873 0.359533 0.197559
0.012253 0.369207 0.186648
0.0080415 0.374975 0.120623
0.0554513 0.409689 0.0402838
0.408881 0.514916 0.087129
0.659876 0.563088 0.139254
0.809979 0.590906 0.215091
0.895033 0.614099 0.261906
0.925383 0.635493 0.297383
0.00669871 0.502586 0.251621
0.00747692 0.5122 0.240223
0.00497444 0.518395 0.179446
0.0145724 0.544366 0.0792554
0.264958 0.618891 0.0949264
0.603189 0.679149 0.138643
0.752209 0.713741 0.183261
0.882948 0.73492 0.25948
0.927703 0.750149 0.333486
0.0525521 0.67039 0.39057
0.0526436 0.674983 0.369253
0.0499428 0.679789 0.310277
0.0577554 0.69839 0.211902
0.211154 0.7243 0.138659
0.494636 0.751614 0.164004
0.723278 0.801694 0.201968
0.832837 0.831235 0.24715
0.904204 0.846784 0.33518
0.085359 0.757183 0.501625
0.0833295 0.757168 0.468086
0.080705 0.759304 0.396094
0.0807507 0.765667 0.292699
0.166567 0.771572 0.192813
0.475334 0.787823 0.194644
0.672312 0.820615 0.228824
0.813794 0.864073 0.263142
0.883757 0.879576 0.358923
0.0974594 0.778058 0.561944
0.0940261 0.776623 0.528756
0.0897078 0.775464 0.454856
0.0876936 0.774868 0.34052
0.163577 0.776181 0.253178
0.397101 0.787732 0.243931
0.635401 0.808194 0.277638
0.787442 0.856947 0.32256
0.87248 0.879057 0.37499
0.0421759 0.0443427 0.119173
0.0669261 0.0447242 0.116548
0.108461 0.0468147 0.121065
0.196323 0.0515602 0.146517
0.33135 0.0569619 0.191546
0.497765 0.0588846 0.222004
0.631617 0.0686198 0.252644
0.748577 0.0836194 0.294575
0.811383 0.0924849 0.346059
0.0224918 0.0463874 0.119265
0.0510719 0.0450752 0.153658
0.129778 0.0471962 0.168139
0.249546 0.0542916 0.185687
0.398062 0.0588693 0.221256
0.559686 0.0624094 0.243076
0.677958 0.0747845 0.265629
0.77612 0.087129 0.302815
0.81239 0.0931411 0.33051
0.0269169 0.107118 0.153414
0.0259403 0.106783 0.171817
0.121218 0.104326 0.228962
0.287816 0.106767 0.228183
0.470253 0.0943618 0.231937
0.612009 0.0942702 0.236561
0.722179 0.105211 0.250141
0.80943 0.119295 0.273198
0.831617 0.135592 0.301396
0.0228428 0.22153 0.191562
0.0229953 0.230854 0.200778
0.0620279 0.252537 0.223865
0.287221 0.291478 0.27631
0.528115 0.283467 0.268269
0.68545 0.304631 0.287663
0.839979 0.348775 0.330617
0.913802 0.381323 0.362554
0.919051 0.393088 0.374594
0.0149996 0.354635 0.248386
0.0145876 0.362463 0.248188
0.0178073 0.363882 0.228626
0.126665 0.432731 0.230137
0.464149 0.524849 0.27039
0.690501 0.55024 0.320394
0.819913 0.5794 0.354177
0.910231 0.597772 0.386175
0.928634 0.612421 0.398672
0.00877394 0.494835 0.300893
0.00962844 0.502144 0.295979
0.00914015 0.500084 0.266072
0.0222934 0.522622 0.202899
0.266072 0.614435 0.219348
0.605966 0.668467 0.269886
0.789136 0.698589 0.322011
0.902892 0.716945 0.395148
0.9337 0.734127 0.417334
0.0532998 0.655558 0.441825
0.0538186 0.656886 0.428244
0.0510872 0.654429 0.384039
0.0521248 0.670817 0.309834
0.162951 0.701411 0.228733
0.460029 0.733593 0.236255
0.710201 0.783902 0.285542
0.848875 0.819211 0.33164
0.917464 0.834226 0.394614
0.0888533 0.748974 0.546624
0.0868696 0.747005 0.526314
0.0838178 0.745281 0.480735
0.0823987 0.752132 0.391287
0.132479 0.764782 0.282979
0.366491 0.779522 0.251911
0.633265 0.80322 0.279057
0.806317 0.85861 0.319554
0.885985 0.87718 0.378973
0.105425 0.780102 0.610605
0.102556 0.778241 0.587625
0.0986801 0.775784 0.545876
0.0944533 0.775219 0.454383
0.114778 0.775723 0.327596
0.311894 0.78291 0.274006
0.590677 0.797543 0.283238
0.752819 0.845106 0.33135
0.86595 0.877791 0.36968
0.0573587 0.0461585 0.198138
0.0848249 0.0463874 0.200061
0.142794 0.0470588 0.213931
0.228824 0.0522621 0.227558
0.3561 0.059144 0.263828
0.524041 0.0621195 0.307057
0.648981 0.0720073 0.383032
0.769543 0.0859541 0.445243
0.819486 0.0940414 0.491829
0.0268101 0.0456245 0.209171
0.0711833 0.0471046 0.254063
0.164691 0.0482795 0.276616
0.277836 0.055024 0.284138
0.430915 0.0607767 0.308141
0.579614 0.0665904 0.352895
0.696757 0.0776684 0.426505
0.794965 0.0898299 0.465751
0.820676 0.0946212 0.492409
0.0200198 0.0876936 0.226383
0.0189822 0.0836347 0.247471
0.116411 0.0680095 0.329366
0.288167 0.0733654 0.335378
0.461326 0.0705119 0.330449
0.594873 0.0728008 0.357015
0.710964 0.0825666 0.402075
0.799771 0.0918441 0.426108
0.822217 0.0984054 0.463539
0.0281987 0.205905 0.277058
0.0276951 0.209522 0.29427
0.0565347 0.211612 0.345602
0.296071 0.235523 0.458961
0.548257 0.236225 0.457496
0.699229 0.245579 0.492638
0.8448 0.274739 0.510796
0.912276 0.295552 0.537835
0.918502 0.304234 0.562188
0.015259 0.349126 0.305928
0.0146029 0.356924 0.31191
0.0159152 0.356207 0.311849
0.168124 0.433524 0.387335
0.519921 0.506127 0.483391
0.691081 0.522271 0.50251
0.824186 0.547356 0.523812
0.910063 0.566781 0.54168
0.923293 0.576806 0.553918
0.00978103 0.491478 0.35404
0.0108797 0.497597 0.356802
0.0119173 0.493812 0.341085
0.0767529 0.531136 0.361913
0.375311 0.635859 0.476509
0.637308 0.666072 0.490684
0.797238 0.679896 0.538079
0.899657 0.698695 0.565209
0.937667 0.71339 0.57998
0.0538186 0.644831 0.49633
0.0542611 0.644648 0.488411
0.0517739 0.6374 0.457694
0.0605325 0.64242 0.418189
0.241764 0.68954 0.414267
0.495903 0.728374 0.41149
0.715999 0.770504 0.489296
0.876509 0.797681 0.542855
0.932631 0.81297 0.581338
0.0922713 0.741436 0.584741
0.090425 0.738018 0.57023
0.0878004 0.732723 0.543923
0.0869612 0.732113 0.500465
0.187961 0.745586 0.429374
0.381765 0.769635 0.396368
0.632319 0.796033 0.435859
0.803418 0.847486 0.504738
0.896345 0.870115 0.545007
0.114733 0.782071 0.649393
0.11078 0.778286 0.631037
0.107088 0.77409 0.602945
0.103273 0.771664 0.557809
0.159915 0.775158 0.485893
0.337621 0.784634 0.42269
0.568475 0.800198 0.430625
0.751217 0.84506 0.506218
0.867033 0.879423 0.529458
0.0763561 0.0476539 0.284703
0.10779 0.0481117 0.294316
0.178302 0.0490883 0.314733
0.270024 0.0534981 0.332082
0.392584 0.0602884 0.352575
0.546578 0.0645609 0.40351
0.672374 0.0765087 0.477134
0.783169 0.0910353 0.557687
0.82855 0.0993362 0.599359
0.049546 0.048127 0.31313
0.0955978 0.0491798 0.357626
0.200412 0.0506752 0.389868
0.317784 0.0556039 0.401785
0.46453 0.0608225 0.418952
0.598154 0.0692607 0.465599
0.718547 0.0829023 0.519692
0.807111 0.0950179 0.581506
0.829755 0.100359 0.606088
0.0170901 0.0646372 0.299748
0.0175021 0.0590066 0.319677
0.125399 0.0500649 0.411353
0.294743 0.0552377 0.439109
0.459144 0.0608225 0.436133
0.601633 0.0701457 0.470665
0.720272 0.0833295 0.513939
0.807614 0.0945602 0.568536
0.827665 0.0991226 0.587381
0.0253758 0.181949 0.366506
0.0248722 0.182956 0.388785
0.0489967 0.171878 0.45597
0.2972 0.175097 0.577722
0.559762 0.181506 0.577295
0.701488 0.19855 0.59762
0.827756 0.208179 0.628351
0.894896 0.223224 0.648096
0.901747 0.23331 0.66363
0.0109102 0.338643 0.401526
0.0119326 0.344182 0.41883
0.0209354 0.335546 0.448142
0.17116 0.391333 0.542
0.546685 0.463249 0.633982
0.716915 0.492134 0.646708
0.851331 0.510842 0.658793
0.926604 0.52784 0.662226
0.937163 0.536645 0.67509
0.010544 0.487358 0.427146
0.0116274 0.493629 0.434256
0.0119631 0.489265 0.429206
0.0678569 0.520836 0.467857
0.429755 0.63241 0.599664
0.66656 0.651011 0.630365
0.79527 0.658915 0.641947
0.898253 0.674479 0.654795
0.93402 0.685893 0.665797
0.055436 0.641382 0.538888
0.0558175 0.640558 0.535317
0.0546883 0.632227 0.519829
0.0789502 0.635218 0.511803
0.338247 0.698466 0.589014
0.591012 0.736568 0.623392
0.750973 0.769879 0.634791
0.884901 0.782895 0.664317
0.93698 0.796735 0.680034
0.0950484 0.737148 0.620203
0.0937209 0.732952 0.610178
0.0941176 0.726421 0.593423
0.104509 0.723369 0.569909
0.266972 0.742718 0.575525
0.485771 0.773693 0.590509
0.65481 0.805905 0.59527
0.821332 0.850446 0.635538
0.918914 0.867384 0.665568
0.121752 0.780468 0.676829
0.118334 0.776654 0.662562
0.115755 0.771496 0.641276
0.116274 0.76701 0.613092
0.229068 0.770214 0.594858
0.415137 0.79382 0.595438
0.597543 0.816327 0.588251
0.760723 0.85742 0.628885
0.881575 0.890288 0.646845
0.0998703 0.0495003 0.376104
0.137865 0.0501106 0.398489
0.215671 0.0515297 0.429847
0.317021 0.0548714 0.453574
0.443519 0.0583658 0.468421
0.571633 0.0671244 0.504768
0.690776 0.0813001 0.561456
0.804715 0.0975204 0.614969
0.837659 0.10518 0.658763
0.078172 0.0501717 0.428367
0.128313 0.0513008 0.477134
0.2383 0.0532845 0.509575
0.363287 0.0562142 0.521309
0.502602 0.0601358 0.52549
0.61828 0.0725109 0.553689
0.734157 0.0882887 0.598337
0.82324 0.101503 0.636072
0.839734 0.106432 0.66865
0.017731 0.0547646 0.383169
0.0302129 0.0504158 0.418784
0.162524 0.0525368 0.521874
0.331899 0.0559396 0.545754
0.49424 0.0603189 0.541924
0.61944 0.0732433 0.563333
0.73608 0.0890669 0.599863
0.822217 0.101198 0.630396
0.838636 0.105852 0.661128
0.0225986 0.157656 0.457786
0.0221561 0.156649 0.47982
0.0495766 0.138247 0.542931
0.300999 0.128725 0.643198
0.559197 0.13283 0.646159
0.691463 0.146197 0.658213
0.815793 0.162646 0.678492
0.877989 0.17789 0.695689
0.882048 0.173861 0.719966
0.0169528 0.323171 0.508614
0.0179141 0.32697 0.524239
0.0266423 0.315129 0.549386
0.169863 0.359487 0.63592
0.579385 0.426093 0.743893
0.75697 0.472267 0.755978
0.877562 0.49633 0.767544
0.940139 0.505867 0.780301
0.949004 0.514351 0.789578
0.0102083 0.487434 0.508751
0.01149 0.492256 0.518196
0.0143435 0.483833 0.527047
0.0793317 0.509148 0.582132
0.430869 0.61004 0.687282
0.683589 0.629572 0.729015
0.811276 0.64268 0.735927
0.909728 0.653758 0.739559
0.941436 0.663188 0.75285
0.0581064 0.639017 0.586892
0.0583963 0.637873 0.586221
0.0565194 0.629969 0.5785
0.075288 0.633768 0.583352
0.33283 0.692699 0.651225
0.628717 0.738674 0.707256
0.776471 0.75642 0.733318
0.885512 0.763699 0.745892
0.936812 0.773739 0.7561
0.0979629 0.736004 0.650828
0.0968032 0.731533 0.643107
0.0977798 0.725109 0.631251
0.116167 0.721004 0.620096
0.303029 0.745403 0.647135
0.576791 0.786892 0.696025
0.724849 0.828031 0.732708
0.850446 0.854337 0.734813
0.927901 0.861036 0.757794
0.130541 0.780301 0.698634
0.128481 0.776547 0.689158
0.131746 0.771328 0.676005
0.145235 0.765988 0.658686
0.279683 0.774487 0.660761
0.517479 0.805264 0.692576
0.670161 0.845167 0.719509
0.789624 0.87657 0.731517
0.899245 0.899123 0.740398
0.128222 0.0513619 0.479179
0.172076 0.0521859 0.50547
0.255909 0.0541085 0.531792
0.363531 0.0565805 0.549081
0.4934 0.0583352 0.55613
0.602136 0.0697948 0.583795
0.71342 0.0866865 0.624048
0.822843 0.104356 0.678309
0.849424 0.110887 0.711147
0.110887 0.0523995 0.530648
0.165682 0.0542611 0.564233
0.277562 0.0567788 0.588769
0.412573 0.0577707 0.59791
0.540063 0.0612802 0.599985
0.642954 0.0756085 0.624033
0.753079 0.0936446 0.658091
0.839033 0.108003 0.698451
0.851408 0.111925 0.718242
0.0243534 0.0509804 0.475868
0.0591287 0.0520943 0.52604
0.205737 0.0563973 0.599145
0.371984 0.0585336 0.616831
0.530465 0.0615091 0.614771
0.639902 0.0758068 0.63299
0.753445 0.0940108 0.662852
0.836561 0.107774 0.695674
0.849699 0.111406 0.711284
0.0206912 0.136095 0.523766
0.020264 0.134188 0.541024
0.0588083 0.112535 0.60264
0.310155 0.0987411 0.687907
0.552178 0.0995499 0.691127
0.679103 0.114321 0.69955
0.797757 0.129519 0.716152
0.869215 0.145159 0.737835
0.877012 0.151995 0.745739
0.0194705 0.314595 0.577752
0.0202487 0.318135 0.591424
0.0319982 0.305455 0.617182
0.192447 0.341482 0.719051
0.606577 0.39736 0.82565
0.791882 0.451118 0.845411
0.901457 0.481132 0.8448
0.950561 0.493645 0.847013
0.957305 0.49865 0.853147
0.0157015 0.485725 0.57792
0.0174411 0.488228 0.587106
0.0238346 0.477455 0.601465
0.11693 0.512184 0.670649
0.426459 0.594751 0.75903
0.704952 0.618189 0.817197
0.844205 0.639735 0.820447
0.925048 0.651835 0.830625
0.951736 0.658457 0.839139
0.060441 0.641398 0.638849
0.0609293 0.639414 0.64007
0.0613107 0.629877 0.639658
0.0949874 0.633021 0.660365
0.350103 0.682994 0.728099
0.628809 0.72343 0.776669
0.795041 0.740536 0.811124
0.892866 0.749996 0.815869
0.941405 0.757214 0.819806
0.101579 0.734981 0.683787
0.100679 0.73048 0.679042
0.101076 0.724514 0.672557
0.117617 0.720928 0.669581
0.298131 0.742351 0.69427
0.575769 0.78407 0.742626
0.754971 0.833036 0.798611
0.869963 0.846159 0.815427
0.928832 0.849729 0.823316
0.136294 0.78056 0.716289
0.134707 0.776791 0.708827
0.139971 0.771481 0.699382
0.154314 0.766705 0.688685
0.2963 0.776196 0.699153
0.551202 0.810803 0.738003
0.722911 0.862638 0.794156
0.839521 0.891707 0.824445
0.914153 0.902464 0.815946
0.163333 0.054078 0.561456
0.212985 0.0558175 0.584024
0.297444 0.0576028 0.605097
0.415991 0.0581521 0.617502
0.537087 0.0606699 0.624704
0.635355 0.0733349 0.65095
0.744442 0.0933547 0.689006
0.838743 0.110079 0.73048
0.859739 0.115663 0.758236
0.149874 0.0561685 0.605707
0.207538 0.0581521 0.631235
0.315969 0.0601968 0.650858
0.457572 0.0593881 0.657511
0.574716 0.0640879 0.663935
0.670375 0.0796063 0.686717
0.777264 0.0994583 0.716701
0.851972 0.113329 0.745129
0.860868 0.116381 0.763394
0.0455024 0.0533303 0.560174
0.0966812 0.0555428 0.603845
0.247456 0.0604868 0.660761
0.415778 0.0607309 0.674693
0.562127 0.0635538 0.676707
0.66511 0.0796063 0.693553
0.773358 0.099321 0.71989
0.848768 0.11281 0.744427
0.860059 0.116106 0.758358
0.0181582 0.118959 0.571557
0.0211643 0.11548 0.588586
0.0736858 0.0925765 0.648142
0.326085 0.0816663 0.718563
0.547982 0.0800488 0.720195
0.677333 0.0982071 0.730846
0.793881 0.12018 0.752041
0.864378 0.12726 0.764721
0.87512 0.139727 0.777691
0.0217746 0.311223 0.631586
0.0226444 0.313237 0.644999
0.0409094 0.300496 0.676555
0.233616 0.331441 0.78381
0.635737 0.374929 0.86891
0.81799 0.428595 0.890776
0.921218 0.461494 0.887465
0.958556 0.476722 0.884825
0.963317 0.480491 0.885252
0.0254215 0.487572 0.634699
0.0272984 0.488945 0.644327
0.0343175 0.47834 0.658915
0.151629 0.519997 0.730678
0.457603 0.584543 0.813642
0.730114 0.610636 0.86807
0.876677 0.635859 0.873686
0.938521 0.650507 0.874952
0.958831 0.656947 0.879332
0.064744 0.643168 0.684596
0.0658427 0.639277 0.686839
0.0725719 0.62887 0.692897
0.139269 0.634333 0.722072
0.380865 0.67805 0.780804
0.62916 0.711818 0.822293
0.819837 0.73312 0.864317
0.912016 0.746777 0.866865
0.948882 0.753201 0.871702
0.105043 0.736065 0.714122
0.103868 0.730556 0.711467
0.106188 0.72369 0.710155
0.134874 0.719814 0.716381
0.315251 0.739269 0.74844
0.588296 0.776974 0.795041
0.758434 0.822339 0.841428
0.880369 0.831785 0.857053
0.929381 0.836896 0.854826
0.143206 0.780102 0.732845
0.143328 0.776822 0.728603
0.146914 0.771664 0.72343
0.159487 0.766842 0.717845
0.298344 0.775982 0.728939
0.546258 0.808484 0.764431
0.724285 0.862531 0.819989
0.860563 0.893828 0.856565
0.922133 0.898573 0.861036
