bundles/resolve-cinematic-luts/Phantom Luts/P4k & P6K Phntm Film LUTs - V6/P4K/Gen 4 Colour/Standard (No WB Offset)/P4k Eastman Gen4-Legacy.cube
TITLE "Generated by Resolve"
LUT_3D_SIZE 5
0.0398871 0.0390021 0.0390021
0.13341 0.0390021 0.0452583
0.346883 0.0623178 0.042359
0.525887 0.112795 0.0531014
0.597665 0.150103 0.0934157
0.0610971 0.133547 0.0784009
0.131106 0.148043 0.0641947
0.408988 0.154986 0.0755474
0.622736 0.212055 0.099733
0.704204 0.258473 0.13135
0.124132 0.489296 0.255283
0.116121 0.481987 0.15906
0.44918 0.520974 0.108186
0.718853 0.526131 0.155276
0.806256 0.543297 0.207706
0.239384 0.801602 0.507408
0.219684 0.773068 0.420493
0.393072 0.755673 0.251865
0.676387 0.770367 0.223407
0.804074 0.766979 0.338018
0.278889 0.855879 0.591989
0.255787 0.828305 0.513771
0.293614 0.796811 0.377569
0.599451 0.801068 0.317586
0.80322 0.802838 0.404059
0.0429236 0.0390021 0.0907912
0.140337 0.0390631 0.0980545
0.35642 0.0390021 0.104021
0.52726 0.0496071 0.131472
0.571389 0.0789197 0.18584
0.055375 0.120058 0.102251
0.141756 0.135119 0.135119
0.422583 0.118273 0.101732
0.620371 0.163317 0.122454
0.645579 0.179614 0.147341
0.133898 0.484703 0.320226
0.11902 0.470542 0.250629
0.441505 0.506813 0.117144
0.748226 0.489143 0.192447
0.812131 0.496498 0.23563
0.242832 0.797665 0.549279
0.226642 0.776455 0.489387
0.285267 0.749615 0.284596
0.660868 0.757778 0.214252
0.806149 0.748974 0.336492
0.291463 0.873549 0.639368
0.277623 0.85626 0.58262
0.254734 0.801663 0.422278
0.561913 0.801907 0.331228
0.797681 0.802884 0.396002
0.0507973 0.0493324 0.262608
0.189593 0.0390021 0.273426
0.356497 0.0390021 0.263111
0.554711 0.0760815 0.327184
0.578698 0.0938582 0.355825
0.0390021 0.0883955 0.231754
0.0797589 0.0586557 0.307362
0.357763 0.0400244 0.268132
0.558282 0.0743114 0.301488
0.581384 0.0911574 0.321416
0.119814 0.4813 0.393118
0.118013 0.47425 0.391669
0.491402 0.506447 0.490562
0.761196 0.413748 0.428763
0.804883 0.389197 0.411643
0.236774 0.787167 0.59884
0.231449 0.769345 0.575631
0.323507 0.759319 0.521233
0.642039 0.742916 0.418448
0.82356 0.715511 0.421469
0.305043 0.893156 0.707576
0.302754 0.887449 0.684947
0.286702 0.860563 0.594446
0.462181 0.815579 0.449027
0.794308 0.804181 0.404028
0.0970779 0.0545357 0.401373
0.239933 0.0390021 0.414923
0.389166 0.0444953 0.397986
0.566949 0.0953384 0.444068
0.591119 0.108354 0.479835
0.0390021 0.0616312 0.340932
0.130694 0.052491 0.423697
0.37644 0.0438087 0.408606
0.563485 0.0936751 0.440101
0.588937 0.105409 0.461402
0.0938125 0.449088 0.506569
0.0855116 0.41857 0.509316
0.465446 0.403189 0.700404
0.755367 0.362417 0.635386
0.788388 0.332815 0.628122
0.225559 0.776394 0.653681
0.218463 0.75903 0.641047
0.391913 0.770367 0.679728
0.712108 0.739727 0.713863
0.849683 0.675578 0.669383
0.319814 0.907256 0.764813
0.318959 0.90396 0.753643
0.33901 0.906157 0.73518
0.590112 0.89633 0.753597
0.837888 0.867216 0.671839
0.198535 0.0629129 0.510781
0.294926 0.05832 0.518456
0.446494 0.0722972 0.515908
0.590768 0.117235 0.537758
0.599451 0.121141 0.541924
0.0484016 0.0730449 0.454734
0.221637 0.0625925 0.517601
0.426032 0.0686046 0.517647
0.584924 0.11548 0.53753
0.599619 0.12137 0.542092
0.0823377 0.395514 0.586007
0.084947 0.358267 0.585626
0.51986 0.300023 0.757855
0.75845 0.295033 0.717968
0.764813 0.273594 0.69929
0.216159 0.751644 0.736568
0.211734 0.72874 0.736767
0.3953 0.715084 0.807431
0.740368 0.649454 0.857847
0.852247 0.618112 0.807294
0.347097 0.915602 0.804135
0.343297 0.910307 0.798383
0.380743 0.91632 0.807645
0.653101 0.920745 0.856168
0.879576 0.902846 0.872709
