bundles/resolve-cinematic-luts/Phantom Luts/P4k & P6K Phntm Film LUTs - V6/P4K/Gen 4 Colour/Standard (No WB Offset)/P4k EastmanRM Gen4-Legacy.cube
TITLE "Generated by Resolve"
LUT_3D_SIZE 5
0.0444038 0.0406958 0.0425116
0.165896 0.0386206 0.0398108
0.421851 0.0348211 0.0440681
0.598566 0.0492866 0.0761883
0.614679 0.0884871 0.144747
0.0542 0.149371 0.0669108
0.129503 0.16022 0.0512551
0.443412 0.129839 0.0540475
0.684718 0.154192 0.0970169
0.709072 0.1794 0.145418
0.0468147 0.440116 0.126101
0.0451057 0.446021 0.0620737
0.488014 0.569116 0.0834516
0.826459 0.532845 0.184802
0.855268 0.550927 0.236362
0.211734 0.722805 0.449973
0.199084 0.719326 0.410437
0.30454 0.696574 0.227558
0.811002 0.874098 0.409064
0.894148 0.885939 0.545602
0.249149 0.761868 0.548257
0.238407 0.743297 0.473548
0.293858 0.715175 0.305043
0.779934 0.877546 0.431296
0.887327 0.898589 0.608698
0.0458534 0.0491798 0.093904
0.151858 0.0469978 0.0874647
0.412375 0.0388647 0.0920729
0.588251 0.0527504 0.143175
0.596338 0.0781872 0.207187
0.051667 0.136934 0.100618
0.13283 0.147967 0.128389
0.470787 0.0781262 0.0838026
0.639185 0.0842908 0.11899
0.638834 0.103319 0.157366
0.0535286 0.435874 0.219272
0.0445563 0.43888 0.156069
0.483864 0.557076 0.0877546
0.841215 0.49369 0.196582
0.856199 0.509331 0.243626
0.211276 0.724422 0.488197
0.200366 0.724758 0.464302
0.234653 0.691417 0.263737
0.804685 0.870146 0.399512
0.897658 0.878889 0.535897
0.262638 0.770397 0.586725
0.259709 0.758816 0.53341
0.246967 0.716258 0.350652
0.724315 0.862242 0.415595
0.887114 0.899062 0.613291
0.0560311 0.0700999 0.260914
0.170748 0.0531472 0.296254
0.426383 0.0541543 0.265858
0.631357 0.0991226 0.305364
0.623636 0.118486 0.361486
0.0415045 0.108553 0.21857
0.0711986 0.0751812 0.308675
0.426673 0.0582284 0.278889
0.647593 0.0897536 0.260685
0.630579 0.107057 0.318334
0.0545968 0.428244 0.331136
0.0486763 0.430274 0.356786
0.506294 0.514031 0.481758
0.896345 0.415244 0.442496
0.895628 0.401724 0.453178
0.203128 0.718227 0.545312
0.188952 0.723156 0.552544
0.215534 0.726131 0.467887
0.787457 0.85977 0.481193
0.905348 0.858076 0.57055
0.289448 0.780865 0.649332
0.279942 0.779995 0.63856
0.271855 0.760906 0.534066
0.606104 0.809232 0.441566
0.888533 0.901167 0.637537
0.100237 0.0902724 0.444572
0.220569 0.0648356 0.48249
0.416678 0.0776226 0.490684
0.651774 0.150698 0.521553
0.650828 0.165499 0.568811
0.0423285 0.0977035 0.374762
0.113298 0.0811017 0.471397
0.405341 0.0792096 0.50251
0.662089 0.152285 0.52517
0.653605 0.164446 0.563546
0.043946 0.367788 0.483635
0.0443427 0.352087 0.501091
0.420829 0.33312 0.728267
0.891356 0.3935 0.785641
0.873823 0.374853 0.775677
0.202152 0.702052 0.613489
0.185641 0.707393 0.632425
0.28127 0.734646 0.660868
0.797024 0.81799 0.78265
0.896742 0.803082 0.778683
0.344244 0.794125 0.706981
0.327459 0.796674 0.71545
0.340169 0.803174 0.70631
0.699245 0.879332 0.791516
0.880354 0.915999 0.82919
0.198566 0.0834669 0.528176
0.290715 0.0921798 0.542184
0.462806 0.115541 0.569863
0.644907 0.177218 0.624262
0.650538 0.179843 0.626841
0.0987564 0.112139 0.482368
0.214954 0.0846723 0.531029
0.446189 0.111177 0.566522
0.646906 0.177707 0.624491
0.64863 0.180667 0.628779
0.049485 0.31194 0.559487
0.0532387 0.291707 0.563119
0.498878 0.26482 0.749783
0.796475 0.323384 0.781262
0.784573 0.309453 0.768002
0.188708 0.683925 0.697459
0.194232 0.685908 0.70753
0.318914 0.700481 0.747814
0.81973 0.756832 0.879667
0.890211 0.768399 0.884062
0.370748 0.806714 0.743099
0.36434 0.808728 0.750118
0.391699 0.816434 0.757794
0.74551 0.896406 0.854826
0.89575 0.920134 0.878553
