bundles/resolve-cinematic-luts/Phantom Luts/P4k & P6K Phntm Film LUTs - V6/P4K/Gen 4 Colour/Standard (No WB Offset)/P4k Eastman Gen4.cube
TITLE "Generated by Resolve"
LUT_3D_SIZE 5
0.0390021 0.0390021 0.0390021
0.154681 0.0390021 0.0390021
0.39202 0.0644236 0.0430762
0.555749 0.124147 0.0659342
0.634745 0.160861 0.124971
0.0636759 0.170382 0.0849165
0.165057 0.197818 0.0704967
0.481407 0.196994 0.0794537
0.674052 0.254017 0.114885
0.739864 0.296696 0.142596
0.138354 0.556832 0.311574
0.131304 0.53991 0.181277
0.496849 0.569848 0.112398
0.733761 0.575662 0.163455
0.809766 0.594827 0.218509
0.252049 0.821668 0.555016
0.22768 0.789029 0.466392
0.432319 0.760128 0.252369
0.697795 0.77525 0.239734
0.813687 0.775113 0.379995
0.289219 0.872709 0.633204
0.270573 0.849317 0.562081
0.314015 0.807019 0.41001
0.64654 0.809964 0.348852
0.820584 0.823514 0.462867
0.0390021 0.0390021 0.105104
0.168185 0.0390021 0.10985
0.38883 0.0390021 0.135286
0.53164 0.0482032 0.186816
0.580789 0.0865949 0.24564
0.055787 0.151049 0.122911
0.18349 0.177401 0.176547
0.496345 0.141039 0.134051
0.656306 0.172259 0.156497
0.681895 0.183551 0.179553
0.140154 0.558892 0.37911
0.132342 0.540398 0.307332
0.489525 0.55697 0.121141
0.759762 0.544503 0.205463
0.818769 0.554635 0.256199
0.251896 0.818662 0.59321
0.240589 0.801175 0.538537
0.307195 0.756817 0.295979
0.684382 0.763836 0.231037
0.814267 0.76022 0.378744
0.298894 0.886641 0.675456
0.288273 0.873426 0.624933
0.266804 0.819089 0.467903
0.608377 0.811353 0.364538
0.812299 0.821897 0.451591
0.052491 0.0481422 0.306004
0.232532 0.0390021 0.310018
0.39173 0.0390021 0.299016
0.551369 0.0674449 0.361669
0.575326 0.0847791 0.388174
0.0390021 0.0992599 0.276646
0.105913 0.0523232 0.35407
0.395605 0.0390021 0.305104
0.553582 0.0682841 0.33872
0.57937 0.0849622 0.358083
0.124605 0.556085 0.45478
0.12311 0.548592 0.453773
0.549233 0.568597 0.549889
0.775982 0.479377 0.490074
0.81677 0.446967 0.467399
0.247547 0.812284 0.639475
0.243473 0.799466 0.61973
0.373358 0.789853 0.575677
0.683421 0.767742 0.477028
0.834195 0.744595 0.480537
0.312169 0.901167 0.731151
0.310384 0.897581 0.714321
0.300099 0.87837 0.638788
0.514015 0.82919 0.501183
0.805203 0.824948 0.462181
0.136049 0.0501106 0.436713
0.290044 0.0390021 0.439979
0.42295 0.0443885 0.420722
0.559991 0.0884565 0.457908
0.584649 0.100938 0.483864
0.0390021 0.0581064 0.356283
0.177691 0.0475776 0.453834
0.411414 0.043473 0.428565
0.558129 0.0876173 0.455299
0.584024 0.0999771 0.47277
0.103838 0.522789 0.563455
0.0965133 0.493462 0.565759
0.534569 0.461479 0.743786
0.775586 0.418173 0.676081
0.807401 0.381491 0.662287
0.239734 0.804334 0.684993
0.234012 0.791653 0.675044
0.442527 0.806867 0.721325
0.750881 0.778531 0.751614
0.864759 0.731807 0.720043
0.330159 0.914046 0.773617
0.328695 0.910399 0.765209
0.358175 0.915236 0.75552
0.645441 0.904753 0.782757
0.857084 0.897704 0.736049
0.2607 0.0558175 0.516732
0.353933 0.0560616 0.516243
0.476493 0.0713054 0.507713
0.579538 0.106355 0.528572
0.59443 0.113863 0.536385
0.0683452 0.0680552 0.467247
0.284779 0.0563211 0.520882
0.460975 0.0691081 0.510475
0.574548 0.10486 0.528237
0.594827 0.114305 0.536782
0.0962539 0.46775 0.623392
0.103456 0.431647 0.62739
0.595789 0.346136 0.793072
0.77818 0.336736 0.74493
0.791089 0.31078 0.725261
0.232609 0.786923 0.744869
0.230808 0.770443 0.747616
0.456672 0.761563 0.826398
0.771756 0.703334 0.865827
0.863645 0.677684 0.823087
0.369436 0.922789 0.812177
0.363546 0.916213 0.805478
0.414191 0.922637 0.818006
0.705089 0.919005 0.862699
0.888869 0.911833 0.881498
