bundles/resolve-cinematic-luts/Phantom Luts/P4k & P6K Phntm Film LUTs - V6/P4K/Gen 4 Colour/Standard (No WB Offset)/P4k VisionTeal Gen4.cube
TITLE "Generated by Resolve"
LUT_3D_SIZE 5
0.0224155 0.0224155 0.0224155
0.141466 0.0347601 0.0212863
0.468879 0.0666361 0.0296635
0.770275 0.171084 0.102052
0.791775 0.227909 0.114366
0.0187991 0.204349 0.058793
0.141283 0.204746 0.0345617
0.530663 0.19733 0.0601663
0.772763 0.30399 0.125719
0.797696 0.363165 0.159548
0.0628824 0.595697 0.327504
0.0944076 0.577783 0.194308
0.499336 0.551858 0.0848402
0.792294 0.612757 0.201907
0.817807 0.623407 0.231189
0.221225 0.883787 0.647608
0.200717 0.885512 0.590829
0.340948 0.803189 0.310704
0.75845 0.799481 0.303471
0.818586 0.805844 0.455436
0.208789 0.900511 0.692622
0.227604 0.88896 0.647944
0.227848 0.871321 0.495079
0.666148 0.784787 0.389578
0.826047 0.830549 0.542016
0.0199588 0.0430915 0.201755
0.196292 0.0188602 0.172534
0.508568 0.024506 0.215473
0.775158 0.102785 0.274128
0.799161 0.133745 0.18439
0.0191043 0.172824 0.125475
0.16968 0.194903 0.179095
0.58555 0.129503 0.103868
0.796216 0.227604 0.154086
0.803006 0.313924 0.161746
0.0418097 0.574441 0.384878
0.0495918 0.569955 0.30602
0.484611 0.535393 0.0868849
0.79588 0.589593 0.23386
0.817243 0.600122 0.25182
0.1953 0.885344 0.681453
0.211765 0.874189 0.632029
0.264729 0.825299 0.362356
0.750164 0.793332 0.285283
0.819867 0.799893 0.449073
0.196628 0.90866 0.724971
0.21265 0.89897 0.689281
0.218204 0.88159 0.549706
0.642664 0.783017 0.397986
0.82678 0.831342 0.545068
0.0757 0.091371 0.51017
0.279347 0.0301976 0.47628
0.536583 0.0433051 0.504433
0.752758 0.0875257 0.627695
0.745388 0.0717479 0.561929
0.0192569 0.133013 0.429953
0.0991073 0.0846571 0.502449
0.499306 0.0346685 0.466133
0.740841 0.0717784 0.558022
0.743755 0.0767834 0.507332
0.0331731 0.561227 0.487922
0.0278477 0.550652 0.479591
0.573144 0.564965 0.536324
0.83978 0.534585 0.510018
0.825238 0.52491 0.427817
0.173007 0.873259 0.735759
0.160525 0.864836 0.711864
0.214572 0.843153 0.606394
0.723217 0.776272 0.423758
0.829007 0.788769 0.479438
0.206775 0.916533 0.7841
0.200092 0.916045 0.769604
0.2206 0.896895 0.6869
0.543374 0.789075 0.429496
0.82884 0.833921 0.557565
0.248569 0.0606394 0.728191
0.400351 0.0637827 0.726055
0.622278 0.108675 0.752575
0.766079 0.107851 0.802457
0.768826 0.112428 0.81648
0.019379 0.16202 0.673259
0.256352 0.0592355 0.720623
0.579095 0.0996109 0.735637
0.765148 0.105333 0.78761
0.76733 0.108873 0.798215
0.0207523 0.542947 0.697032
0.0206302 0.518868 0.706676
0.564477 0.409506 0.823255
0.819745 0.381811 0.804776
0.813947 0.316121 0.788083
0.191959 0.860655 0.799603
0.178485 0.851438 0.789639
0.277592 0.829374 0.772335
0.804746 0.810788 0.789242
0.892271 0.783612 0.767575
0.281285 0.91577 0.829969
0.265263 0.918669 0.826566
0.251911 0.916884 0.808164
0.624628 0.888563 0.779706
0.878752 0.890394 0.769436
0.394903 0.0770581 0.78175
0.484779 0.0759289 0.780774
0.680964 0.129854 0.811948
0.769436 0.113695 0.82591
0.770748 0.115831 0.827008
0.239155 0.164538 0.782727
0.398047 0.0768444 0.781552
0.644892 0.124773 0.805692
0.769711 0.114199 0.826123
0.771084 0.116457 0.827359
0.0439612 0.516609 0.816999
0.0297398 0.476249 0.812711
0.576745 0.270832 0.838117
0.801068 0.257618 0.848844
0.798337 0.19266 0.848356
0.212406 0.852735 0.866545
0.192782 0.840833 0.865064
0.36997 0.799359 0.860288
0.821317 0.742061 0.904067
0.888151 0.718013 0.897185
0.379705 0.912322 0.856718
0.388815 0.911696 0.856825
0.414328 0.9093 0.854978
0.684581 0.908537 0.86595
0.920485 0.933654 0.912306
