bundles/resolve-cinematic-luts/Phantom Luts/P4k & P6K Phntm Film LUTs - V6/P4K/Gen 4 Colour/Standard (No WB Offset)/P4k Eastman Gen4-Legacy.cube
TITLE "Generated by Resolve"
LUT_3D_SIZE 9
0.0398871 0.0390021 0.0390021
0.0653239 0.0390021 0.0398871
0.13341 0.0390021 0.0452583
0.238254 0.048661 0.0390021
0.346883 0.0623178 0.042359
0.43888 0.0852674 0.0458839
0.525887 0.112795 0.0531014
0.594339 0.139315 0.0778668
0.597665 0.150103 0.0934157
0.0521401 0.0645914 0.0561532
0.0648661 0.0653849 0.0508125
0.126253 0.0645304 0.0548714
0.223209 0.0665141 0.0473182
0.327825 0.0793164 0.0413672
0.420584 0.10042 0.0433509
0.508995 0.127092 0.0500954
0.589181 0.157 0.0726329
0.584375 0.170596 0.0832227
0.0610971 0.133547 0.0784009
0.0615702 0.134218 0.0587472
0.131106 0.148043 0.0641947
0.276295 0.144625 0.06981
0.408988 0.154986 0.0755474
0.518624 0.178714 0.0828107
0.622736 0.212055 0.099733
0.708202 0.2477 0.126772
0.704204 0.258473 0.13135
0.0884413 0.287831 0.134844
0.0847028 0.295735 0.110369
0.098558 0.302846 0.0902419
0.291646 0.346288 0.0978561
0.466636 0.353735 0.0940261
0.60827 0.352346 0.118364
0.712596 0.359472 0.149081
0.78349 0.376104 0.172274
0.7841 0.386069 0.179522
0.124132 0.489296 0.255283
0.117632 0.48632 0.212955
0.116121 0.481987 0.15906
0.206912 0.506096 0.139025
0.44918 0.520974 0.108186
0.58471 0.523186 0.12459
0.718853 0.526131 0.155276
0.799634 0.532082 0.19852
0.806256 0.543297 0.207706
0.175387 0.665827 0.395407
0.167391 0.657755 0.364233
0.162936 0.6448 0.291157
0.18471 0.634394 0.205493
0.388647 0.662501 0.190616
0.569665 0.667262 0.158816
0.682689 0.668559 0.183093
0.793851 0.667796 0.232746
0.817823 0.668956 0.260349
0.239384 0.801602 0.507408
0.230991 0.790127 0.478767
0.219684 0.773068 0.420493
0.223301 0.744839 0.317342
0.393072 0.755673 0.251865
0.536324 0.768215 0.234485
0.676387 0.770367 0.223407
0.775097 0.767178 0.282414
0.804074 0.766979 0.338018
0.272175 0.85182 0.567071
0.263874 0.840391 0.541405
0.25069 0.822141 0.490883
0.2439 0.79823 0.418387
0.318456 0.791409 0.333852
0.503883 0.795361 0.298726
0.628962 0.797116 0.280995
0.759457 0.797681 0.303914
0.807309 0.800855 0.392462
0.278889 0.855879 0.591989
0.270512 0.845762 0.565164
0.255787 0.828305 0.513771
0.247822 0.808316 0.450294
0.293614 0.796811 0.377569
0.459785 0.798901 0.338964
0.599451 0.801068 0.317586
0.747173 0.800671 0.319203
0.80322 0.802838 0.404059
0.0411994 0.0390021 0.0508278
0.0664988 0.0390021 0.0554818
0.135744 0.0390021 0.0699474
0.245106 0.0390021 0.0546578
0.34493 0.0399634 0.0461585
0.43154 0.0662852 0.0491493
0.518791 0.0939803 0.063859
0.58471 0.113542 0.0991684
0.579065 0.112688 0.109194
0.0485084 0.0554513 0.0578622
0.0643626 0.054612 0.0611582
0.134997 0.0516976 0.0599527
0.239246 0.0563211 0.0436103
0.33608 0.0689708 0.0417945
0.423529 0.0915847 0.044831
0.510414 0.119493 0.0528573
0.576944 0.146426 0.0795911
0.580163 0.155612 0.0937514
0.0596933 0.123125 0.0898909
0.0572671 0.125643 0.0785534
0.126757 0.140856 0.0689403
0.284886 0.126284 0.0758831
0.401862 0.136812 0.0702983
0.509148 0.163729 0.0796979
0.6112 0.196796 0.101305
0.682429 0.228061 0.129686
0.671199 0.233356 0.131868
0.084596 0.27216 0.15259
0.0813611 0.277928 0.132616
0.0847944 0.292103 0.0927138
0.287205 0.33724 0.0986496
0.481147 0.334829 0.102235
0.616251 0.328725 0.128908
0.720653 0.3393 0.15021
0.784009 0.357137 0.174609
0.77998 0.366079 0.180072
0.129885 0.486717 0.287663
0.120272 0.481132 0.254643
0.116243 0.478431 0.178561
0.183413 0.497963 0.138048
0.445365 0.514015 0.107591
0.593088 0.511864 0.125521
0.730785 0.512032 0.166613
0.803815 0.519234 0.205631
0.808148 0.527764 0.212558
0.179065 0.6636 0.418631
0.171664 0.655924 0.393896
0.160922 0.64416 0.3252
0.170108 0.628977 0.222492
0.370626 0.655634 0.19176
0.564599 0.65922 0.155642
0.684977 0.657664 0.181338
0.796185 0.655573 0.238376
0.812558 0.658915 0.268116
0.242145 0.801328 0.527779
0.234546 0.791455 0.500862
0.22118 0.774792 0.4477
0.216281 0.746075 0.345663
0.361227 0.751888 0.256886
0.519753 0.763897 0.234516
0.669779 0.765896 0.219425
0.774975 0.761044 0.278737
0.804883 0.76022 0.336446
0.279973 0.858915 0.597238
0.271855 0.850263 0.566262
0.256489 0.831495 0.514641
0.243732 0.804685 0.439414
0.289967 0.789746 0.344244
0.488258 0.794095 0.297215
0.615717 0.796674 0.276188
0.754803 0.797452 0.295125
0.800259 0.802655 0.397147
0.284581 0.863584 0.612222
0.277928 0.856306 0.586038
0.264393 0.839582 0.541207
0.249363 0.814755 0.471
0.271885 0.797116 0.392706
0.432853 0.799664 0.345388
0.585306 0.801999 0.323262
0.737881 0.801129 0.316152
0.799496 0.803418 0.403449
0.0429236 0.0390021 0.0907912
0.08336 0.0390021 0.0943313
0.140337 0.0390631 0.0980545
0.250431 0.0390021 0.106767
0.35642 0.0390021 0.104021
0.441688 0.0390021 0.115282
0.52726 0.0496071 0.131472
0.578424 0.070985 0.166583
0.571389 0.0789197 0.18584
0.0399023 0.0495766 0.0807813
0.0515145 0.0410315 0.0999161
0.131853 0.0437629 0.0981155
0.246464 0.0390021 0.0866102
0.353109 0.0390021 0.0659648
0.436805 0.0390021 0.0598459
0.525963 0.0584268 0.0821241
0.58233 0.0768902 0.124208
0.578653 0.0856336 0.145129
0.055375 0.120058 0.102251
0.054078 0.118273 0.102617
0.141756 0.135119 0.135119
0.295537 0.112154 0.120775
0.422583 0.118273 0.101732
0.527291 0.139406 0.102388
0.620371 0.163317 0.122454
0.65597 0.176867 0.144076
0.645579 0.179614 0.147341
0.08159 0.26453 0.174838
0.0792096 0.262394 0.165408
0.0936141 0.285893 0.150362
0.299519 0.336706 0.148363
0.50602 0.310979 0.154681
0.626429 0.30013 0.154269
0.736858 0.312093 0.166796
0.781674 0.332341 0.189212
0.771572 0.336461 0.192279
0.133898 0.484703 0.320226
0.130068 0.480674 0.308492
0.11902 0.470542 0.250629
0.146075 0.487419 0.157748
0.441505 0.506813 0.117144
0.612985 0.494896 0.149645
0.748226 0.489143 0.192447
0.813199 0.493156 0.227741
0.812131 0.496498 0.23563
0.180926 0.65922 0.444556
0.177523 0.653132 0.431022
0.167849 0.641947 0.386267
0.159762 0.625971 0.263706
0.344182 0.646998 0.202304
0.55787 0.648173 0.153658
0.693416 0.640803 0.186648
0.804273 0.635523 0.255634
0.815259 0.639857 0.277424
0.242832 0.797665 0.549279
0.237751 0.789258 0.532662
0.226642 0.776455 0.489387
0.210575 0.751827 0.394827
0.285267 0.749615 0.284596
0.493431 0.758099 0.239002
0.660868 0.757778 0.214252
0.775921 0.750927 0.276402
0.806149 0.748974 0.336492
0.286427 0.867643 0.624384
0.281529 0.859434 0.605722
0.269017 0.84625 0.557931
0.245853 0.815259 0.473487
0.258854 0.788571 0.3691
0.454948 0.79263 0.299046
0.595941 0.795972 0.27187
0.747982 0.796323 0.282704
0.800992 0.80174 0.390417
0.291463 0.873549 0.639368
0.287831 0.867277 0.623026
0.277623 0.85626 0.58262
0.255222 0.82768 0.507073
0.254734 0.801663 0.422278
0.388724 0.80087 0.356405
0.561913 0.801907 0.331228
0.720485 0.800961 0.310994
0.797681 0.802884 0.396002
0.0455482 0.0426032 0.170871
0.0884718 0.0417639 0.180957
0.158389 0.0390021 0.176562
0.251087 0.0390021 0.172747
0.355138 0.0390021 0.192554
0.448432 0.0428931 0.214969
0.545373 0.0663615 0.238376
0.581918 0.082414 0.271275
0.572808 0.0884871 0.282231
0.0390021 0.0461738 0.142275
0.0490425 0.0434577 0.179171
0.138048 0.0390021 0.18703
0.244526 0.0390021 0.169574
0.350454 0.0390021 0.187289
0.446876 0.0426184 0.198001
0.542489 0.0640421 0.220722
0.579248 0.0795911 0.251118
0.570306 0.0851759 0.261021
0.0410925 0.107622 0.158404
0.0390021 0.0998398 0.170321
0.105913 0.0950637 0.234806
0.270329 0.0812543 0.21033
0.393103 0.0652628 0.20116
0.493935 0.0668956 0.202686
0.581765 0.0817578 0.217472
0.61236 0.0958877 0.238331
0.599039 0.0968643 0.239796
0.0699931 0.260822 0.208408
0.0683146 0.259907 0.209339
0.0955825 0.283909 0.236744
0.326696 0.329702 0.322881
0.502556 0.295399 0.310124
0.642237 0.25658 0.281346
0.75404 0.262211 0.273518
0.768551 0.257389 0.267277
0.754894 0.25127 0.26215
0.129931 0.483909 0.353475
0.127962 0.4795 0.350576
0.129915 0.473411 0.333288
0.215534 0.504829 0.345861
0.453468 0.511208 0.301122
0.63772 0.479927 0.309529
0.758923 0.454459 0.296696
0.819074 0.450767 0.289219
0.811872 0.449088 0.286412
0.179202 0.655406 0.472801
0.178271 0.64947 0.46656
0.17702 0.642283 0.44712
0.1729 0.636713 0.391546
0.308141 0.639857 0.306203
0.549599 0.635691 0.247822
0.718166 0.616129 0.273884
0.817395 0.609857 0.302037
0.820478 0.609812 0.308659
0.241581 0.793439 0.573068
0.238575 0.785412 0.563958
0.234028 0.776318 0.541054
0.221347 0.761379 0.480644
0.245487 0.750225 0.371618
0.462577 0.753155 0.29572
0.651041 0.75053 0.242924
0.783612 0.737636 0.292042
0.809384 0.733364 0.344747
0.29015 0.872862 0.652293
0.287327 0.866011 0.638651
0.281559 0.856565 0.613138
0.265599 0.837583 0.550454
0.248157 0.806302 0.442756
0.374395 0.797467 0.338933
0.564019 0.797696 0.289067
0.741634 0.795911 0.273228
0.801801 0.799191 0.390311
0.299016 0.884153 0.673594
0.297063 0.880385 0.66096
0.29276 0.87364 0.639185
0.279133 0.85658 0.583413
0.252598 0.818631 0.481666
0.325353 0.801617 0.388739
0.517403 0.802213 0.349706
0.688869 0.801419 0.312016
0.796048 0.802182 0.387488
0.0507973 0.0493324 0.262608
0.098497 0.0449683 0.275792
0.189593 0.0390021 0.273426
0.2663 0.0390021 0.257923
0.356497 0.0390021 0.263111
0.459297 0.0475013 0.282521
0.554711 0.0760815 0.327184
0.58793 0.089662 0.3467
0.578698 0.0938582 0.355825
0.0390021 0.0488136 0.232563
0.0544747 0.0498207 0.27245
0.16022 0.0390021 0.286198
0.259113 0.0390021 0.262867
0.354726 0.0390021 0.262638
0.456794 0.0476539 0.280888
0.554452 0.076997 0.319738
0.585702 0.0902266 0.336812
0.577203 0.0939193 0.344594
0.0390021 0.0883955 0.231754
0.0390021 0.0770581 0.242191
0.0797589 0.0586557 0.307362
0.254368 0.0404669 0.288273
0.357763 0.0400244 0.268132
0.458686 0.0482795 0.276616
0.558282 0.0743114 0.301488
0.589105 0.0868086 0.314809
0.581384 0.0911574 0.321416
0.0557259 0.241581 0.278202
0.0513161 0.231998 0.282353
0.0606241 0.230381 0.315602
0.294286 0.252216 0.429831
0.48011 0.24448 0.415488
0.614939 0.213794 0.411414
0.727626 0.206149 0.41648
0.731075 0.195743 0.4168
0.719371 0.196429 0.413855
0.119814 0.4813 0.393118
0.118074 0.47866 0.394354
0.118013 0.47425 0.391669
0.242313 0.508843 0.444816
0.491402 0.506447 0.490562
0.638621 0.466117 0.467567
0.761196 0.413748 0.428763
0.812741 0.395056 0.416251
0.804883 0.389197 0.411643
0.173526 0.652445 0.501534
0.172717 0.646891 0.499443
0.17258 0.640269 0.48986
0.206149 0.649104 0.489845
0.39855 0.638941 0.499702
0.571756 0.640879 0.460899
0.737514 0.606851 0.457954
0.823957 0.575433 0.429313
0.828779 0.568673 0.418204
0.236774 0.787167 0.59884
0.234424 0.778729 0.59147
0.231449 0.769345 0.575631
0.229129 0.758785 0.548745
0.323507 0.759319 0.521233
0.4598 0.744335 0.45304
0.642039 0.742916 0.418448
0.802563 0.715251 0.428305
0.82356 0.715511 0.421469
0.290562 0.872969 0.675929
0.288121 0.866316 0.665248
0.284047 0.858595 0.647669
0.277745 0.846769 0.616083
0.283101 0.841047 0.565118
0.383642 0.811124 0.474113
0.549599 0.809216 0.433906
0.737835 0.803388 0.387457
0.806729 0.798993 0.435554
0.305043 0.893156 0.707576
0.304631 0.891051 0.69984
0.302754 0.887449 0.684947
0.298466 0.879728 0.656199
0.286702 0.860563 0.594446
0.331075 0.831617 0.507515
0.462181 0.815579 0.449027
0.660945 0.810742 0.399802
0.794308 0.804181 0.404028
0.0649424 0.0533303 0.338323
0.124422 0.0452735 0.351659
0.217578 0.0390021 0.352026
0.294469 0.0390021 0.335653
0.368765 0.0398108 0.334188
0.462165 0.0540932 0.349981
0.566125 0.0816815 0.381674
0.589441 0.0945602 0.42266
0.585397 0.0992142 0.432395
0.0390021 0.0559091 0.316823
0.069398 0.0533913 0.346365
0.185016 0.0390021 0.361685
0.286671 0.0390021 0.343053
0.366262 0.0396582 0.337255
0.460929 0.0547494 0.350149
0.566751 0.0818799 0.379553
0.589944 0.0935531 0.417899
0.584543 0.0979782 0.425406
0.0390021 0.0678874 0.291203
0.0390021 0.058793 0.29987
0.0913863 0.0513619 0.362783
0.262745 0.0390021 0.358923
0.358846 0.0392157 0.34226
0.458427 0.0547951 0.348699
0.564095 0.0802472 0.373114
0.593713 0.0905776 0.407233
0.586038 0.0946975 0.410285
0.0408331 0.209491 0.33576
0.0390021 0.196002 0.338735
0.042298 0.178912 0.368505
0.266194 0.167742 0.486915
0.46096 0.168566 0.481102
0.578912 0.165545 0.469032
0.677028 0.161913 0.476112
0.678538 0.151812 0.471687
0.665476 0.153262 0.464302
0.103777 0.47393 0.454414
0.101152 0.466682 0.456382
0.100206 0.450675 0.461784
0.211963 0.474357 0.534752
0.475547 0.45391 0.606104
0.637583 0.432975 0.572641
0.754345 0.385061 0.548211
0.804959 0.363272 0.54464
0.795941 0.357015 0.539742
0.164904 0.647791 0.536217
0.164248 0.642573 0.536248
0.162615 0.636301 0.530785
0.18706 0.646342 0.544366
0.430442 0.644327 0.586679
0.61088 0.634485 0.612314
0.740169 0.592767 0.585519
0.823209 0.540154 0.544488
0.824582 0.528359 0.536614
0.231647 0.78291 0.621592
0.229145 0.774548 0.616785
0.226001 0.765301 0.606149
0.233692 0.758968 0.595728
0.40238 0.766598 0.622156
0.53048 0.741573 0.613275
0.6757 0.745953 0.581582
0.820172 0.712261 0.57174
0.846311 0.700969 0.555917
0.288472 0.871077 0.698955
0.286244 0.864271 0.690761
0.282902 0.857008 0.675959
0.279683 0.847303 0.653071
0.337591 0.859464 0.652155
0.457542 0.833036 0.621241
0.562524 0.821057 0.57499
0.749203 0.819806 0.538811
0.833341 0.810788 0.566049
0.311528 0.90074 0.738674
0.311452 0.899092 0.73344
0.310765 0.897353 0.723445
0.308751 0.893004 0.705272
0.309331 0.887633 0.676387
0.418173 0.882795 0.657084
0.501213 0.844739 0.602884
0.663798 0.844541 0.578149
0.808728 0.829236 0.531426
0.0970779 0.0545357 0.401373
0.156191 0.0469673 0.412024
0.239933 0.0390021 0.414923
0.32076 0.0390021 0.402258
0.389166 0.0444953 0.397986
0.473121 0.0655222 0.413901
0.566949 0.0953384 0.444068
0.589471 0.105287 0.465293
0.591119 0.108354 0.479835
0.0456855 0.0608835 0.382635
0.101839 0.0543374 0.408011
0.210239 0.042237 0.422385
0.31104 0.0390021 0.410315
0.385855 0.0444038 0.402579
0.473487 0.0658885 0.416373
0.568139 0.0950942 0.444327
0.590036 0.104753 0.463401
0.590448 0.107897 0.475074
0.0390021 0.0616312 0.340932
0.0390021 0.0612497 0.361486
0.130694 0.052491 0.423697
0.282536 0.0390021 0.423987
0.37644 0.0438087 0.408606
0.468498 0.0654002 0.41883
0.563485 0.0936751 0.440101
0.588952 0.102953 0.454002
0.588937 0.105409 0.461402
0.0390021 0.175784 0.376898
0.0390021 0.160754 0.37908
0.0390021 0.139559 0.408423
0.238911 0.111147 0.509407
0.425971 0.110292 0.50837
0.53196 0.122454 0.502083
0.618296 0.13518 0.495995
0.622263 0.12813 0.487404
0.615381 0.126024 0.486107
0.0938125 0.449088 0.506569
0.0899519 0.439002 0.506203
0.0855116 0.41857 0.509316
0.186053 0.436271 0.599603
0.465446 0.403189 0.700404
0.645274 0.383474 0.669795
0.755367 0.362417 0.635386
0.797086 0.341741 0.635874
0.788388 0.332815 0.628122
0.152621 0.641321 0.585092
0.15024 0.633997 0.58407
0.148501 0.624475 0.586603
0.183246 0.62855 0.623301
0.40734 0.621073 0.678157
0.600992 0.594263 0.71931
0.741878 0.569436 0.680842
0.818601 0.51986 0.651469
0.819013 0.507607 0.644007
0.225559 0.776394 0.653681
0.222538 0.768124 0.649302
0.218463 0.75903 0.641047
0.219883 0.752224 0.636118
0.391913 0.770367 0.679728
0.564553 0.748363 0.695094
0.712108 0.739727 0.713863
0.825818 0.697169 0.684367
0.849683 0.675578 0.669383
0.287266 0.869215 0.71928
0.284871 0.862547 0.712337
0.282185 0.856397 0.701823
0.284367 0.850187 0.689296
0.373098 0.865858 0.707195
0.535058 0.856458 0.725994
0.630442 0.835264 0.717891
0.779858 0.837873 0.682078
0.863828 0.826108 0.689784
0.319814 0.907256 0.764813
0.319417 0.905425 0.760525
0.318959 0.90396 0.753643
0.318669 0.901183 0.740658
0.33901 0.906157 0.73518
0.486381 0.919585 0.760769
0.590112 0.89633 0.753597
0.691371 0.87541 0.717266
0.837888 0.867216 0.671839
0.142031 0.0577096 0.463508
0.190463 0.052903 0.471519
0.262028 0.048188 0.475959
0.342397 0.0470283 0.471031
0.41413 0.056199 0.467353
0.498131 0.0805219 0.484565
0.578042 0.108263 0.506416
0.596048 0.116625 0.523796
0.598383 0.118624 0.533486
0.0866407 0.0634623 0.448707
0.147036 0.0582742 0.46862
0.235477 0.0508583 0.480659
0.330358 0.0479133 0.47718
0.410101 0.0561379 0.470802
0.496056 0.0802014 0.486503
0.577707 0.108324 0.507454
0.596139 0.116594 0.522988
0.597955 0.118349 0.530739
0.0390021 0.0661784 0.392615
0.0466621 0.0672007 0.427726
0.170962 0.0573892 0.479942
0.300755 0.0491035 0.485191
0.398566 0.0556344 0.476799
0.487282 0.0783398 0.487694
0.57322 0.106645 0.506233
0.595804 0.115709 0.518914
0.596841 0.11725 0.524361
0.0390021 0.139635 0.408865
0.0390021 0.126772 0.409796
0.0390021 0.106279 0.436225
0.22388 0.0730602 0.513771
0.383246 0.0713054 0.511696
0.489525 0.0914168 0.511467
0.578775 0.114763 0.520165
0.598871 0.117403 0.515251
0.597543 0.116426 0.513207
0.0805829 0.421683 0.548409
0.0771954 0.408637 0.546792
0.075288 0.386236 0.550134
0.197375 0.394217 0.66389
0.475685 0.352728 0.765454
0.657969 0.3337 0.744457
0.757534 0.333455 0.715709
0.789197 0.319051 0.700298
0.781918 0.306203 0.691081
0.147799 0.622965 0.642618
0.14461 0.613352 0.641154
0.142596 0.599695 0.644694
0.197162 0.603296 0.694926
0.381323 0.587182 0.75465
0.599664 0.550942 0.8112
0.755856 0.525078 0.772274
0.825544 0.499779 0.736629
0.826978 0.48394 0.730022
0.216648 0.766995 0.697353
0.212375 0.75761 0.694072
0.208026 0.745708 0.692302
0.218631 0.736751 0.705196
0.383825 0.746456 0.767712
0.540063 0.72195 0.782269
0.709529 0.697139 0.816068
0.827832 0.672175 0.775891
0.849867 0.649454 0.762432
0.28336 0.864118 0.743313
0.280324 0.857298 0.738064
0.277394 0.851621 0.732052
0.27744 0.844923 0.725887
0.361013 0.864881 0.755764
0.535805 0.8654 0.785412
0.668223 0.848814 0.796872
0.814084 0.841779 0.813169
0.88191 0.825406 0.805631
0.338643 0.914717 0.787427
0.336919 0.912688 0.783551
0.337514 0.911192 0.778805
0.341772 0.908583 0.772885
0.377539 0.916838 0.78024
0.525979 0.930083 0.813504
0.646723 0.917342 0.826291
0.758099 0.897948 0.827771
0.863493 0.899672 0.803586
0.198535 0.0629129 0.510781
0.234516 0.0603799 0.514916
0.294926 0.05832 0.518456
0.36907 0.0607767 0.517449
0.446494 0.0722972 0.515908
0.531258 0.0963149 0.52694
0.590768 0.117235 0.537758
0.599191 0.12105 0.541695
0.599451 0.121141 0.541924
0.156466 0.0657664 0.50219
0.202609 0.0627451 0.512474
0.273182 0.0593881 0.519799
0.357031 0.0601663 0.519081
0.440772 0.0708476 0.51606
0.528557 0.0959793 0.527718
0.589166 0.116838 0.538003
0.599237 0.12108 0.541741
0.599496 0.121263 0.541985
0.0484016 0.0730449 0.454734
0.114153 0.0685435 0.487648
0.221637 0.0625925 0.517601
0.330617 0.0597238 0.521859
0.426032 0.0686046 0.517647
0.519753 0.0939956 0.528161
0.584924 0.11548 0.53753
0.599222 0.121065 0.541726
0.599619 0.12137 0.542092
0.0390021 0.110582 0.436362
0.0390021 0.0979629 0.435355
0.0438544 0.0787213 0.455726
0.25333 0.0629129 0.524437
0.389853 0.0683757 0.526818
0.492973 0.0891585 0.528283
0.572396 0.11165 0.536095
0.599481 0.121172 0.541299
0.599573 0.121263 0.541619
0.0823377 0.395514 0.586007
0.0815442 0.382086 0.584314
0.084947 0.358267 0.585626
0.258167 0.348852 0.697826
0.51986 0.300023 0.757855
0.674907 0.28864 0.735927
0.75845 0.295033 0.717968
0.773129 0.288655 0.707927
0.764813 0.273594 0.69929
0.151339 0.606043 0.684367
0.148562 0.595712 0.683162
0.148699 0.582788 0.686427
0.224369 0.577737 0.73463
0.414939 0.550805 0.796597
0.646479 0.503929 0.838758
0.779477 0.480522 0.797757
0.829496 0.46952 0.776867
0.831785 0.455909 0.774395
0.216159 0.751644 0.736568
0.210788 0.740169 0.73341
0.211734 0.72874 0.736767
0.249592 0.719051 0.759655
0.3953 0.715084 0.807431
0.537316 0.684733 0.82562
0.740368 0.649454 0.857847
0.835691 0.628962 0.818998
0.852247 0.618112 0.807294
0.274128 0.859754 0.761563
0.269963 0.852201 0.758389
0.269093 0.845121 0.75816
0.281788 0.838987 0.766583
0.380621 0.852277 0.810132
0.538918 0.846311 0.839612
0.664744 0.828687 0.848676
0.828107 0.808026 0.870771
0.880125 0.801114 0.853925
0.347097 0.915602 0.804135
0.343343 0.912902 0.800519
0.343297 0.910307 0.798383
0.346349 0.907958 0.796643
0.380743 0.91632 0.807645
0.526589 0.931472 0.843488
0.653101 0.920745 0.856168
0.786587 0.904509 0.865095
0.879576 0.902846 0.872709
