bundles/resolve-cinematic-luts/Phantom Luts/P4k & P6K Phntm Film LUTs - V6/P4K/Gen 4 Colour/Standard (No WB Offset)/P4k Bleach Gen4-Legacy.cube
TITLE "Generated by Resolve"
LUT_3D_SIZE 33
0.0252842 0.0381781 0.0269474
0.0252842 0.0381781 0.0269474
0.0252842 0.0381781 0.0269474
0.0276493 0.0386053 0.0275731
0.0339666 0.0395361 0.0289616
0.0403754 0.0414893 0.03093
0.0516213 0.0428016 0.0330053
0.0632181 0.0447089 0.0350042
0.0764019 0.0466773 0.0375067
0.089662 0.0478065 0.0386816
0.106325 0.0497444 0.0404974
0.125902 0.0515602 0.0419928
0.149279 0.0534829 0.0438849
0.174899 0.0556497 0.0455177
0.203021 0.0577096 0.0471656
0.232456 0.0597696 0.0484016
0.262409 0.0618448 0.0498665
0.293843 0.0634012 0.0511025
0.326177 0.0649729 0.0525521
0.362509 0.0663615 0.05449
0.403708 0.0672923 0.0560616
0.448417 0.0675212 0.0570993
0.490105 0.0682689 0.0585946
0.526421 0.0695964 0.0610819
0.556023 0.0721141 0.0646067
0.581216 0.0757 0.069276
0.611597 0.0787976 0.0733654
0.641596 0.081651 0.0781262
0.671565 0.0847028 0.0822919
0.70074 0.0880751 0.0872969
0.729259 0.0917678 0.0929274
0.752895 0.095613 0.0981155
0.771542 0.0996872 0.102831
0.0252842 0.0381781 0.0269474
0.0252842 0.0381781 0.0269474
0.0252842 0.0381781 0.0269474
0.0274968 0.0385595 0.0274968
0.0343786 0.0399786 0.0294041
0.0424811 0.042237 0.0314794
0.0554513 0.0441138 0.0337987
0.069337 0.0461585 0.0362707
0.083299 0.047715 0.0381933
0.100587 0.0496986 0.0399329
0.120867 0.0515602 0.0415808
0.144793 0.0536049 0.0437324
0.17113 0.0558328 0.0454871
0.19881 0.0577707 0.0470283
0.228626 0.0598764 0.0483558
0.259648 0.0618753 0.0496223
0.291463 0.0635691 0.0511177
0.324254 0.0650492 0.0522316
0.360586 0.0666667 0.0534829
0.402136 0.0671855 0.0552987
0.446525 0.0674296 0.0562753
0.487907 0.0679484 0.0577859
0.524651 0.0690623 0.0594949
0.553811 0.0715953 0.062974
0.578637 0.0749523 0.0672313
0.608667 0.0777752 0.0708934
0.637873 0.0807965 0.0755932
0.666606 0.0836042 0.0795911
0.69543 0.0866712 0.0838178
0.722988 0.0899062 0.0886397
0.745495 0.0931411 0.0931563
0.765667 0.0966354 0.0975814
0.779141 0.100465 0.101015
0.0252842 0.0381781 0.0269474
0.0252842 0.0381781 0.0269474
0.0252842 0.0381781 0.0269474
0.0260929 0.0382849 0.0271
0.0336919 0.040589 0.0295109
0.0433204 0.0437781 0.0320592
0.0575875 0.0465858 0.034287
0.0717937 0.0489357 0.0366979
0.0877699 0.0508125 0.0387579
0.105882 0.0523079 0.0404059
0.128038 0.0542458 0.0425879
0.152819 0.0559396 0.0441749
0.180392 0.0575875 0.0453651
0.209613 0.0595712 0.0469062
0.240314 0.0617838 0.0485542
0.272526 0.0634623 0.0497902
0.305272 0.0650797 0.0510109
0.340337 0.0665751 0.0522011
0.377569 0.0672313 0.0526131
0.419059 0.0672007 0.0524453
0.462791 0.066865 0.0535286
0.502022 0.0673381 0.0542763
0.535805 0.0686809 0.056672
0.561593 0.0714122 0.0602731
0.588998 0.0739757 0.0631876
0.616724 0.0763867 0.0666972
0.645884 0.0795605 0.0707408
0.673899 0.0822919 0.0751049
0.701534 0.0850996 0.0791028
0.725811 0.0882887 0.0827192
0.747616 0.0915236 0.0868849
0.765118 0.094667 0.0907149
0.780362 0.0988022 0.0947127
0.0257572 0.0406653 0.0280613
0.0257267 0.0404669 0.0278782
0.0257115 0.0399176 0.0273442
0.0258793 0.0391241 0.0272374
0.0329747 0.042649 0.0299229
0.0412909 0.0466773 0.0328069
0.0523079 0.0505226 0.0341955
0.0691539 0.0522469 0.0365301
0.0857252 0.0545205 0.0391089
0.103807 0.0563211 0.0403296
0.125765 0.0581521 0.0417639
0.150301 0.0595407 0.0435645
0.177829 0.0602579 0.0450904
0.207446 0.0617685 0.046479
0.238819 0.0634012 0.0483558
0.271 0.0652628 0.0496529
0.303304 0.0670939 0.0506447
0.336843 0.0684672 0.0514076
0.372396 0.0695506 0.0518044
0.413931 0.0695659 0.0514839
0.457313 0.0694285 0.0513771
0.498116 0.0695048 0.0516976
0.530922 0.0712291 0.0534524
0.558526 0.073579 0.0572519
0.587533 0.076051 0.0603952
0.61561 0.0786145 0.0630961
0.644099 0.08159 0.0672618
0.672084 0.0843519 0.0707866
0.699535 0.0870832 0.0742046
0.723201 0.090013 0.0780041
0.747021 0.0930037 0.0822309
0.763714 0.0967117 0.08542
0.779232 0.100771 0.0888075
0.028687 0.0500191 0.0334325
0.029984 0.0527199 0.0354314
0.0305028 0.0538796 0.0355993
0.0327001 0.0542153 0.0329747
0.0401923 0.055436 0.0335851
0.0474556 0.0576486 0.0363012
0.0580758 0.0611429 0.0377203
0.0742962 0.0628977 0.0389258
0.090837 0.0651102 0.0401465
0.109209 0.0670329 0.0412757
0.130694 0.0685893 0.0426032
0.155291 0.0696727 0.0440528
0.182254 0.0704662 0.0456397
0.210666 0.0713817 0.0476387
0.24033 0.0722057 0.0495918
0.27155 0.0730755 0.0512551
0.30309 0.0739452 0.0525063
0.336477 0.0747845 0.0532998
0.371511 0.0758373 0.0539101
0.411307 0.0759747 0.0539864
0.453635 0.0758373 0.0538491
0.49015 0.0754864 0.0529793
0.523857 0.0767834 0.0546273
0.552819 0.0783551 0.0562142
0.584024 0.0818189 0.0592508
0.609995 0.0847791 0.0612192
0.638193 0.0882124 0.0639963
0.665019 0.0908675 0.0671855
0.692439 0.0936141 0.0715496
0.717632 0.0967422 0.0747845
0.74197 0.100145 0.078584
0.761532 0.104768 0.0831617
0.77937 0.109697 0.0873121
0.0326848 0.0670024 0.0422522
0.0328832 0.0704204 0.0428321
0.0332647 0.0725719 0.0419318
0.0352789 0.0728923 0.038468
0.0432898 0.0727398 0.0366369
0.053727 0.0750591 0.0379187
0.0662699 0.0773327 0.0398108
0.0808118 0.0803998 0.0407416
0.0994736 0.0816968 0.0415198
0.121874 0.0831922 0.043183
0.14345 0.0850233 0.0441138
0.168597 0.0860151 0.0453346
0.196445 0.0870375 0.0471962
0.225498 0.0873732 0.0491188
0.25539 0.0876478 0.0512703
0.287449 0.0881208 0.0535134
0.320714 0.0888228 0.0554665
0.354879 0.0891585 0.0569467
0.391714 0.0892195 0.0578012
0.43328 0.0888228 0.0582589
0.472007 0.0886549 0.0587015
0.507378 0.0894179 0.0596933
0.538705 0.0908675 0.0611276
0.568032 0.0931411 0.0630961
0.595728 0.0959945 0.0653544
0.623606 0.0994583 0.068513
0.649149 0.103197 0.0712596
0.675288 0.107607 0.0742657
0.703227 0.112291 0.0788128
0.727031 0.11667 0.0818494
0.750088 0.121004 0.0861524
0.77023 0.126314 0.090013
0.789441 0.132525 0.0948959
0.0332036 0.0872969 0.047425
0.0335699 0.0912947 0.0483101
0.0333104 0.0939498 0.0462501
0.0344244 0.0947585 0.0413214
0.0406806 0.0947738 0.0370642
0.0527199 0.0962387 0.0378271
0.0712444 0.0981765 0.0406348
0.0855421 0.100465 0.0402686
0.102434 0.102602 0.0401312
0.127504 0.102754 0.0405585
0.157671 0.10251 0.0429084
0.184924 0.104005 0.0451972
0.213092 0.105135 0.0472572
0.241703 0.105486 0.0497444
0.272725 0.105669 0.0526894
0.306447 0.10605 0.0550698
0.341772 0.106493 0.0573892
0.379934 0.106371 0.0596323
0.422705 0.105623 0.0606851
0.464607 0.105623 0.06215
0.501945 0.106706 0.0642252
0.535668 0.108629 0.0667124
0.566491 0.11136 0.069337
0.595407 0.114839 0.0723125
0.623575 0.119539 0.0768597
0.650431 0.124361 0.0805676
0.67631 0.12932 0.0849165
0.702327 0.134981 0.0894331
0.727901 0.140658 0.0944686
0.753643 0.147341 0.100175
0.776577 0.154299 0.10547
0.79794 0.16202 0.111315
0.814923 0.170001 0.117464
0.0326085 0.107973 0.0526894
0.0323796 0.111666 0.0531777
0.0315557 0.114977 0.0509804
0.0317845 0.116213 0.0444343
0.0365911 0.115969 0.0383001
0.0489967 0.117342 0.0354314
0.0642405 0.119585 0.0383001
0.0890059 0.121172 0.0413519
0.104753 0.124193 0.0401465
0.126879 0.126436 0.0367285
0.159182 0.126696 0.0379492
0.195575 0.126146 0.0416114
0.230015 0.12607 0.0454871
0.261814 0.12639 0.0491646
0.294179 0.127199 0.0530709
0.328206 0.127291 0.0560311
0.366598 0.127535 0.0586099
0.411002 0.127108 0.0605631
0.455528 0.126894 0.0624094
0.495552 0.128344 0.0647288
0.531716 0.131029 0.0679179
0.564324 0.134264 0.0723583
0.594049 0.138613 0.0766613
0.622354 0.14316 0.0810712
0.649653 0.149126 0.0867628
0.676265 0.154864 0.0920272
0.701946 0.161318 0.0979171
0.728985 0.168399 0.104692
0.755337 0.176684 0.111742
0.781048 0.18529 0.118975
0.803174 0.194583 0.126421
0.824628 0.203983 0.13373
0.840879 0.214511 0.141176
0.0308385 0.129366 0.0597848
0.0305028 0.133959 0.0601205
0.0306859 0.137438 0.056199
0.0306859 0.139666 0.0486763
0.031632 0.139544 0.0403143
0.04094 0.139895 0.0337835
0.0573281 0.143069 0.0343481
0.0801862 0.145525 0.0385443
0.108385 0.14876 0.0418402
0.126894 0.15227 0.0399023
0.155016 0.155444 0.0363317
0.194293 0.156268 0.0361486
0.236912 0.155154 0.0423438
0.278553 0.154925 0.0474098
0.31783 0.155367 0.0518349
0.358419 0.155413 0.0561379
0.399481 0.155444 0.0585336
0.445655 0.155032 0.0608988
0.487877 0.155337 0.0641489
0.524727 0.15816 0.0677043
0.558053 0.161578 0.0722972
0.588846 0.166796 0.0767987
0.6177 0.172274 0.0828717
0.645594 0.178164 0.0883803
0.672892 0.185183 0.0956588
0.699825 0.192981 0.103563
0.726497 0.201419 0.111254
0.755245 0.211795 0.120943
0.781247 0.221729 0.129625
0.806836 0.232517 0.139391
0.829786 0.244236 0.14931
0.85153 0.256672 0.159625
0.869947 0.270191 0.170138
0.0298161 0.153796 0.0660868
0.0303044 0.15935 0.0670176
0.0303197 0.163256 0.0624247
0.0312505 0.166064 0.0534218
0.0317845 0.166293 0.0445716
0.0330968 0.165377 0.0346075
0.0467079 0.168322 0.0309911
0.0672465 0.172396 0.0335241
0.0971389 0.176471 0.0387732
0.130312 0.18143 0.0427405
0.154116 0.186603 0.0416266
0.18999 0.191684 0.0372625
0.233524 0.193896 0.0366369
0.284749 0.193576 0.043183
0.334279 0.193896 0.0485389
0.383017 0.193423 0.0532692
0.4365 0.191363 0.0563363
0.480247 0.191684 0.0598764
0.518105 0.193256 0.0644999
0.551141 0.19675 0.0696727
0.581796 0.20264 0.0750896
0.611704 0.207111 0.0827497
0.639735 0.213565 0.0895552
0.667323 0.220447 0.0976272
0.69514 0.229297 0.106355
0.722957 0.239506 0.115846
0.751705 0.250416 0.126589
0.779843 0.262364 0.138415
0.807416 0.275181 0.150439
0.834073 0.288838 0.163867
0.859098 0.304906 0.17818
0.880812 0.320287 0.191638
0.897093 0.334081 0.202777
0.0298924 0.181018 0.0734264
0.0298772 0.186923 0.0737774
0.030396 0.191287 0.0697948
0.0310369 0.19411 0.059617
0.0316014 0.195209 0.048661
0.0321355 0.194125 0.0393378
0.0357671 0.19498 0.0293736
0.0552224 0.200351 0.0294194
0.0813153 0.20589 0.0335546
0.116655 0.211536 0.0398108
0.157153 0.219226 0.0444648
0.187808 0.226459 0.0437324
0.228504 0.233082 0.0386511
0.278721 0.237415 0.0383764
0.337133 0.236988 0.0437018
0.396567 0.236011 0.047013
0.454154 0.234913 0.0508125
0.503868 0.234409 0.0566415
0.54229 0.237751 0.0628061
0.576532 0.243519 0.0704509
0.605386 0.25037 0.0776226
0.633295 0.257862 0.0860151
0.661601 0.265293 0.0964218
0.689387 0.274876 0.106813
0.718288 0.28397 0.119875
0.747539 0.294545 0.133455
0.777417 0.30811 0.147127
0.808087 0.322286 0.163836
0.837461 0.337881 0.17911
0.862333 0.352651 0.193454
0.885161 0.367712 0.207202
0.901152 0.38085 0.21857
0.914641 0.393866 0.22829
0.0292821 0.210452 0.0797589
0.0285191 0.216922 0.0795758
0.0288853 0.2215 0.0755169
0.0294041 0.22446 0.0654002
0.0299535 0.225864 0.0537575
0.0305943 0.225086 0.0429236
0.032517 0.225147 0.0329137
0.0441138 0.228351 0.0268711
0.064271 0.235996 0.0277562
0.097322 0.243183 0.0335851
0.139925 0.251041 0.0415656
0.188067 0.260502 0.0456245
0.224491 0.269642 0.0440986
0.2692 0.27808 0.0394446
0.323613 0.283116 0.0383307
0.389319 0.283085 0.0407721
0.458244 0.282155 0.0444038
0.513207 0.285115 0.0502022
0.557519 0.289403 0.0596475
0.594812 0.295308 0.0693828
0.626596 0.303593 0.0803082
0.65536 0.314168 0.0911574
0.684337 0.325917 0.104143
0.713893 0.338872 0.118715
0.743358 0.352438 0.134752
0.774289 0.364599 0.151965
0.804807 0.377523 0.169696
0.832929 0.390051 0.186328
0.86041 0.402625 0.202365
0.880507 0.414923 0.214115
0.897993 0.42739 0.223255
0.909667 0.437613 0.231693
0.918868 0.448768 0.237491
0.0264897 0.242573 0.0851911
0.0262608 0.249393 0.0857099
0.025803 0.25388 0.0809796
0.0264591 0.256184 0.0715953
0.0268406 0.25835 0.0591592
0.0274205 0.258335 0.0470741
0.0281834 0.257771 0.0357671
0.0318303 0.258732 0.0256962
0.0509194 0.264851 0.0234531
0.0752728 0.273243 0.0263371
0.11519 0.282063 0.0341802
0.169055 0.291859 0.0426337
0.22182 0.303746 0.0461433
0.261189 0.314199 0.0440833
0.309682 0.323812 0.0406195
0.369985 0.331182 0.0393835
0.444114 0.333349 0.0403449
0.510506 0.336645 0.0452583
0.559945 0.344274 0.0549172
0.602335 0.352392 0.0667124
0.641367 0.364736 0.0814984
0.675135 0.377707 0.0973831
0.707439 0.391775 0.114473
0.736507 0.405325 0.130617
0.764935 0.419547 0.147127
0.791287 0.433661 0.161654
0.816724 0.445197 0.175875
0.841871 0.456779 0.1897
0.864271 0.46743 0.201907
0.88191 0.476936 0.211368
0.896147 0.486107 0.219593
0.906676 0.495583 0.226032
0.914504 0.505348 0.230518
0.0231479 0.275837 0.0915389
0.0226444 0.282322 0.0920272
0.0221561 0.286412 0.0866407
0.0225376 0.288716 0.0767681
0.0231479 0.290471 0.064332
0.0234836 0.2916 0.0520027
0.0245975 0.290883 0.0406195
0.0254368 0.290318 0.0278935
0.0330358 0.292912 0.0198215
0.0604715 0.301732 0.0211337
0.0875868 0.310658 0.0251011
0.13753 0.320775 0.0332799
0.201907 0.333639 0.0434119
0.257557 0.348699 0.0460822
0.299504 0.36202 0.0444038
0.352331 0.374136 0.041825
0.420905 0.383322 0.0405127
0.490913 0.391135 0.0428168
0.550561 0.403098 0.0507973
0.599298 0.416709 0.0632486
0.642817 0.430106 0.0786603
0.681239 0.443412 0.095201
0.713664 0.456886 0.112291
0.745007 0.468162 0.129961
0.771603 0.479988 0.144518
0.798581 0.491188 0.160891
0.821973 0.502129 0.173205
0.843565 0.512734 0.184131
0.863325 0.521385 0.194781
0.88014 0.530159 0.20415
0.892882 0.539071 0.211856
0.904707 0.546838 0.219699
0.912428 0.554757 0.226276
0.0187533 0.307759 0.0982223
0.0178988 0.313771 0.0983291
0.0176699 0.317906 0.0937514
0.0179141 0.320073 0.0834363
0.0183566 0.32195 0.0704509
0.0188754 0.323613 0.0567788
0.0196994 0.322942 0.0451972
0.0207675 0.32224 0.0322576
0.0216068 0.323156 0.0202182
0.0385901 0.328573 0.0159915
0.0722057 0.33846 0.0189822
0.102296 0.348287 0.0231785
0.166094 0.362371 0.033463
0.237095 0.381155 0.0440833
0.296437 0.40119 0.0451514
0.340536 0.416678 0.0442817
0.399619 0.431968 0.0433356
0.472328 0.446845 0.0453956
0.533715 0.461936 0.0515602
0.587366 0.476997 0.0613718
0.633722 0.490043 0.0744488
0.674159 0.501091 0.0896315
0.710552 0.511681 0.105318
0.742779 0.521508 0.122042
0.77435 0.531044 0.139788
0.80293 0.540459 0.156573
0.82739 0.548806 0.171618
0.850065 0.557 0.184634
0.866987 0.56556 0.194095
0.882963 0.573404 0.203342
0.894591 0.580835 0.21088
0.905333 0.588205 0.218418
0.912718 0.595392 0.22501
0.0135958 0.338857 0.106416
0.012726 0.345632 0.106844
0.012253 0.349477 0.102373
0.0127108 0.351293 0.0908064
0.0133516 0.353033 0.0769207
0.0138552 0.354955 0.0629282
0.0147097 0.355795 0.0500038
0.0160372 0.355459 0.0380102
0.017319 0.355856 0.024979
0.0247807 0.358755 0.0145571
0.0518196 0.366964 0.0131533
0.0856947 0.37792 0.0169528
0.121263 0.391058 0.0218967
0.198199 0.411185 0.0343786
0.275257 0.43653 0.045182
0.344305 0.462074 0.0493324
0.397635 0.479561 0.0525673
0.461341 0.494987 0.0548867
0.523033 0.511391 0.0602579
0.575647 0.526207 0.0669871
0.621607 0.538827 0.0756847
0.664866 0.548424 0.0884413
0.7037 0.557488 0.102358
0.738659 0.566262 0.118517
0.771954 0.573983 0.135561
0.803296 0.581384 0.152667
0.8309 0.588693 0.169833
0.85362 0.595865 0.184421
0.872572 0.602625 0.197055
0.886641 0.609491 0.205875
0.897536 0.616648 0.214084
0.907164 0.623346 0.222034
0.914305 0.629953 0.22826
0.0081178 0.372107 0.115419
0.00714122 0.378546 0.11548
0.00668345 0.382605 0.110185
0.00709545 0.384207 0.098558
0.00773632 0.386252 0.0851759
0.00825513 0.389425 0.0686961
0.00901808 0.390661 0.0551919
0.0102235 0.390265 0.0428321
0.0115511 0.390723 0.0301976
0.0142977 0.39263 0.0172427
0.033753 0.398871 0.00961318
0.0670329 0.409995 0.0107271
0.103899 0.423453 0.0160983
0.148119 0.439414 0.0235599
0.241749 0.467185 0.0412299
0.332143 0.499748 0.0585489
0.41088 0.523201 0.0640574
0.465049 0.538048 0.0678416
0.51725 0.551293 0.071931
0.567193 0.564721 0.0768292
0.612345 0.577127 0.083238
0.654505 0.588602 0.0920424
0.694484 0.597101 0.104097
0.731304 0.604181 0.117418
0.766766 0.61088 0.13402
0.799191 0.617792 0.150805
0.828702 0.62385 0.16875
0.855131 0.629984 0.185626
0.874678 0.636179 0.199222
0.88954 0.64213 0.210895
0.901091 0.648203 0.220371
0.910079 0.654597 0.228519
0.917403 0.660792 0.236225
0.00233463 0.407797 0.122805
0.00132753 0.41445 0.122942
0.000900282 0.41883 0.117174
0.00149538 0.420676 0.105943
0.00213626 0.422614 0.0928817
0.00289921 0.425254 0.0771954
0.00375372 0.428199 0.0621653
0.00502022 0.427924 0.0487984
0.00643931 0.427832 0.0361181
0.00872816 0.429511 0.0226902
0.0166629 0.433585 0.0107576
0.0504005 0.443671 0.00769055
0.0893263 0.456672 0.0128939
0.135119 0.472999 0.0214847
0.194232 0.494011 0.0343938
0.307301 0.53106 0.0621195
0.401129 0.558556 0.0777752
0.47744 0.574563 0.0802472
0.520775 0.586328 0.0841077
0.562325 0.597833 0.0890211
0.604929 0.609552 0.0942855
0.645457 0.620569 0.101106
0.684123 0.630747 0.108614
0.721172 0.638163 0.119463
0.757977 0.644617 0.133516
0.792828 0.650202 0.150668
0.824903 0.656352 0.168399
0.850706 0.661875 0.186221
0.874372 0.667109 0.20293
0.890761 0.672419 0.218814
0.903929 0.678248 0.23064
0.912703 0.683635 0.240665
0.920501 0.689342 0.249424
0 0.444694 0.133761
0 0.451469 0.134722
0 0.455528 0.130159
0 0.457221 0.118288
0 0.458991 0.104433
0.000442512 0.462104 0.0893721
0.00184634 0.46511 0.074815
0.00297551 0.466072 0.0605478
0.00453193 0.466239 0.0463722
0.00633249 0.46804 0.0330816
0.0106203 0.470634 0.0181735
0.0295415 0.476951 0.00872816
0.0812695 0.491615 0.0141146
0.129137 0.508812 0.0239414
0.191852 0.531487 0.0390173
0.268299 0.557671 0.0594492
0.380758 0.587564 0.0861524
0.472175 0.604685 0.0944533
0.531914 0.617975 0.0964828
0.567712 0.628382 0.101549
0.602716 0.638804 0.106294
0.639902 0.649104 0.111955
0.676081 0.658686 0.118776
0.712428 0.66775 0.126558
0.748104 0.674998 0.137209
0.784649 0.681117 0.151446
0.817838 0.68658 0.167636
0.846235 0.691829 0.188067
0.870741 0.696696 0.207279
0.88809 0.701717 0.224201
0.904356 0.706523 0.241443
0.913527 0.711894 0.253361
0.921431 0.71696 0.263554
0.000350958 0.481971 0.152087
0.000793469 0.489525 0.154223
0.000671397 0.4934 0.149798
0.000259403 0.495079 0.138109
0.000411994 0.496696 0.124102
0.00105287 0.499748 0.108476
0.00274662 0.503868 0.0932021
0.00427253 0.505821 0.0783093
0.00585946 0.505577 0.0632639
0.00746166 0.505776 0.0484779
0.0114443 0.508446 0.0336156
0.0237888 0.514656 0.0185092
0.065568 0.527489 0.0184787
0.132448 0.54902 0.0318761
0.194202 0.569833 0.0476387
0.262852 0.591806 0.0661784
0.341543 0.612863 0.0867018
0.455253 0.630854 0.104967
0.529152 0.644663 0.111131
0.57734 0.657176 0.113451
0.607248 0.66598 0.118624
0.636988 0.6748 0.123537
0.670939 0.684474 0.129595
0.704173 0.693507 0.136233
0.739513 0.702449 0.144381
0.775448 0.709789 0.156161
0.808713 0.715358 0.171481
0.839536 0.720897 0.190051
0.864408 0.725719 0.209262
0.885069 0.731029 0.228504
0.90045 0.73547 0.246067
0.911955 0.740001 0.262516
0.921126 0.744381 0.277424
0.00460822 0.522728 0.179187
0.00570687 0.530999 0.182559
0.00595102 0.535134 0.178195
0.00588998 0.536431 0.166232
0.0056611 0.538125 0.152239
0.00582895 0.541085 0.136278
0.00688182 0.545052 0.119509
0.00888075 0.547585 0.103075
0.0102998 0.54667 0.0867323
0.012314 0.546426 0.0699321
0.0163577 0.548424 0.0536812
0.0274052 0.554101 0.0379492
0.063035 0.568063 0.0307927
0.126833 0.588052 0.0416876
0.202152 0.608591 0.0594034
0.26305 0.625605 0.0754864
0.32932 0.642374 0.0924544
0.41178 0.656291 0.109102
0.516564 0.667933 0.121538
0.573465 0.680293 0.127169
0.614801 0.692287 0.130373
0.641398 0.700465 0.135622
0.668757 0.709453 0.141451
0.700038 0.718822 0.147738
0.73109 0.727474 0.155062
0.766247 0.735912 0.164172
0.799588 0.743297 0.177447
0.829664 0.749264 0.192844
0.856077 0.755047 0.212818
0.878721 0.760586 0.232593
0.894987 0.765301 0.250187
0.908598 0.769436 0.267231
0.917967 0.77377 0.283619
0.0135195 0.568765 0.215076
0.0152743 0.577173 0.218936
0.0162051 0.581216 0.215305
0.0159457 0.583032 0.204517
0.015671 0.585229 0.1906
0.016022 0.587747 0.17467
0.0166323 0.591608 0.156344
0.018265 0.594812 0.138018
0.0198825 0.593942 0.119188
0.0222324 0.592721 0.100114
0.0271611 0.593866 0.0819257
0.0361944 0.598199 0.063859
0.0617227 0.60763 0.0501106
0.128115 0.627207 0.0541085
0.204501 0.644434 0.0705119
0.268635 0.659068 0.0861982
0.324865 0.671778 0.100374
0.392462 0.682979 0.114336
0.483894 0.691035 0.127016
0.566033 0.70309 0.138918
0.612146 0.715251 0.144991
0.648753 0.72697 0.147768
0.673976 0.735363 0.154009
0.698741 0.743847 0.159716
0.728298 0.752956 0.166567
0.757122 0.761273 0.174197
0.789929 0.769146 0.186435
0.822156 0.776562 0.199969
0.847318 0.782513 0.219379
0.870512 0.787884 0.237842
0.887617 0.792859 0.256184
0.902953 0.797162 0.273686
0.912505 0.801389 0.290364
0.0272068 0.617548 0.255253
0.0295567 0.625299 0.259403
0.0300603 0.628855 0.254719
0.0295109 0.630457 0.243854
0.0290684 0.631891 0.229755
0.0293889 0.634684 0.215015
0.0297398 0.638239 0.197101
0.0306249 0.641672 0.176455
0.0329747 0.640818 0.156664
0.0357519 0.639231 0.13547
0.0407568 0.638865 0.113954
0.0488136 0.641321 0.0945602
0.0636149 0.646891 0.0724804
0.118807 0.660777 0.0703899
0.204059 0.677409 0.0810407
0.27219 0.689754 0.0964218
0.32668 0.699504 0.109148
0.382834 0.708522 0.120729
0.459007 0.714443 0.131029
0.5393 0.722972 0.143832
0.607126 0.736584 0.156832
0.646571 0.748363 0.162203
0.680507 0.75967 0.166201
0.703685 0.767681 0.172457
0.727672 0.776242 0.178653
0.755566 0.785061 0.186343
0.783597 0.79295 0.195727
0.812757 0.80032 0.209537
0.839918 0.806729 0.22826
0.862791 0.812665 0.246418
0.879911 0.817823 0.263615
0.895628 0.822202 0.282261
0.905425 0.825833 0.298314
0.0420233 0.663172 0.29279
0.0438697 0.669657 0.29514
0.0440681 0.672145 0.289189
0.0437171 0.67335 0.27866
0.0433967 0.674235 0.265171
0.043061 0.676066 0.250034
0.0432898 0.679103 0.232868
0.0443122 0.681498 0.213443
0.0459602 0.681086 0.192432
0.049073 0.679622 0.170123
0.0534524 0.678401 0.146365
0.061799 0.679728 0.12369
0.0755016 0.683772 0.102159
0.103853 0.692348 0.0821088
0.18735 0.704738 0.0902724
0.272312 0.715984 0.105364
0.330556 0.725017 0.118212
0.381323 0.732189 0.127825
0.444297 0.737499 0.136492
0.519158 0.743313 0.147173
0.586435 0.753765 0.161563
0.643366 0.767346 0.174487
0.679011 0.77908 0.180102
0.709529 0.789334 0.184192
0.732479 0.797436 0.190524
0.755459 0.805295 0.197284
0.782605 0.813169 0.206226
0.807523 0.819669 0.219806
0.834134 0.826383 0.23772
0.856352 0.831708 0.256367
0.875975 0.836957 0.275944
0.889616 0.841123 0.292912
0.901091 0.844968 0.310338
0.054963 0.69984 0.324437
0.0561227 0.704128 0.324819
0.0560769 0.705501 0.318044
0.0554055 0.70605 0.306416
0.0548562 0.707149 0.293721
0.0543526 0.708553 0.278859
0.0541848 0.710719 0.261738
0.054963 0.712642 0.242634
0.0569009 0.712383 0.222675
0.0598764 0.710826 0.200214
0.0637369 0.709072 0.175051
0.0715801 0.709529 0.151492
0.0840467 0.712352 0.127275
0.107378 0.717586 0.104448
0.167987 0.726696 0.0992447
0.26421 0.736996 0.112444
0.330587 0.744595 0.12517
0.385245 0.750835 0.135561
0.437095 0.75494 0.142306
0.502144 0.759106 0.150195
0.569192 0.767468 0.164996
0.626154 0.780224 0.179751
0.678248 0.794522 0.191318
0.709178 0.80531 0.196643
0.737179 0.815351 0.200961
0.759625 0.822995 0.208255
0.7823 0.83035 0.215793
0.806058 0.836393 0.230854
0.831022 0.842557 0.246876
0.851194 0.847578 0.267369
0.871733 0.852201 0.287221
0.886198 0.856016 0.306477
0.897414 0.859159 0.323735
0.0651102 0.727886 0.351141
0.0657511 0.730495 0.349935
0.0653391 0.731456 0.342092
0.0645609 0.73167 0.330282
0.0637522 0.732311 0.316991
0.0633097 0.733516 0.302037
0.0631418 0.735103 0.285451
0.0636912 0.73637 0.266011
0.0649729 0.736065 0.246143
0.0676738 0.734722 0.225132
0.0721599 0.73312 0.200504
0.0796063 0.733043 0.175128
0.0907759 0.734524 0.14966
0.108766 0.737331 0.123064
0.160342 0.744823 0.111711
0.243626 0.753094 0.117693
0.33286 0.760693 0.132601
0.386557 0.765591 0.141985
0.441169 0.768917 0.148959
0.491783 0.772107 0.154955
0.552728 0.778195 0.166384
0.61297 0.7897 0.183703
0.664958 0.803281 0.197162
0.712474 0.817807 0.206912
0.739361 0.827161 0.211292
0.763165 0.835233 0.217044
0.784695 0.842298 0.225834
0.80557 0.848508 0.237354
0.828061 0.854368 0.254444
0.848417 0.859327 0.277058
0.867872 0.864118 0.299413
0.88159 0.867414 0.318257
0.89485 0.870329 0.338506
0.0728161 0.748684 0.374914
0.0734569 0.750576 0.372915
