bundles/resolve-cinematic-luts/Phantom Luts/P4k & P6K Phntm Film LUTs - V6/P4K/Gen 4 Colour/Standard (No WB Offset)/P4k EastmanRM Gen4-Legacy.cube
TITLE "Generated by Resolve"
LUT_3D_SIZE 33
0.0444038 0.0406958 0.0425116
0.0449989 0.040177 0.0416571
0.0497444 0.0389563 0.04065
0.0590372 0.0386816 0.0404517
0.0727855 0.0386664 0.0406043
0.0915084 0.0394293 0.0416876
0.114946 0.0391241 0.0413062
0.139483 0.0383459 0.0400702
0.165896 0.0386206 0.0398108
0.191867 0.0388952 0.0399481
0.217334 0.039292 0.0407111
0.246738 0.0393072 0.0417639
0.282841 0.0382391 0.0419471
0.320912 0.0369573 0.0418555
0.356832 0.0363012 0.0419013
0.38996 0.0354162 0.0432288
0.421851 0.0348211 0.0440681
0.452644 0.0345464 0.0458228
0.48188 0.0343481 0.0480812
0.507607 0.0345922 0.0504005
0.527916 0.0361486 0.0538949
0.547631 0.0381933 0.0583963
0.566079 0.0407416 0.0632029
0.581857 0.0443122 0.0692302
0.598566 0.0492866 0.0761883
0.614771 0.0543069 0.0825208
0.628107 0.0599069 0.0889906
0.637278 0.0653239 0.093904
0.641596 0.0705119 0.0995804
0.63946 0.074342 0.10663
0.636103 0.0782483 0.115679
0.626474 0.0835431 0.130449
0.614679 0.0884871 0.144747
0.0453193 0.0399176 0.0413062
0.0453651 0.0398871 0.0412604
0.0471809 0.0391394 0.0402838
0.0555123 0.0397955 0.0399176
0.0681926 0.0409705 0.0400854
0.0827192 0.0425269 0.0412909
0.104356 0.0434424 0.0422827
0.12665 0.0429999 0.0418402
0.152651 0.0425116 0.0407568
0.180484 0.0423133 0.0399939
0.208103 0.0419928 0.0398413
0.236072 0.041825 0.0404669
0.270604 0.0409705 0.0412909
0.308812 0.0391852 0.0414435
0.347463 0.0379034 0.0412146
0.384115 0.0363775 0.0418097
0.418402 0.0352026 0.0420539
0.4495 0.0342565 0.0432288
0.479088 0.0337987 0.0449683
0.505318 0.0338293 0.0471656
0.525856 0.0351568 0.0502327
0.544823 0.0370184 0.0543069
0.562966 0.0396735 0.0592813
0.578546 0.0433051 0.0651865
0.59382 0.0476234 0.0718547
0.611276 0.0527047 0.0789349
0.625803 0.0579843 0.0849622
0.632578 0.0623178 0.0889754
0.634592 0.0655222 0.0923629
0.632471 0.0691539 0.0992752
0.62884 0.0734112 0.107912
0.618463 0.0782788 0.121965
0.607111 0.0826123 0.136431
0.0453956 0.0436408 0.0429236
0.0449073 0.042771 0.0424353
0.0453803 0.0414282 0.041886
0.0514687 0.0432746 0.0411688
0.0613565 0.0450752 0.041001
0.0759136 0.0462348 0.0411231
0.094377 0.0470893 0.0424506
0.115984 0.0471962 0.0428168
0.139757 0.0467689 0.0423438
0.168795 0.0463417 0.041413
0.198611 0.0453193 0.040589
0.229816 0.0441444 0.0404212
0.263325 0.0433204 0.0405585
0.299977 0.041886 0.0410315
0.336751 0.0406348 0.0411383
0.373114 0.0390478 0.0408942
0.408911 0.0377508 0.0409705
0.443442 0.0361334 0.0416876
0.475425 0.0350805 0.0428931
0.503548 0.0348516 0.0449683
0.524605 0.0360571 0.0481117
0.544137 0.0374456 0.0518044
0.561776 0.0398566 0.0566415
0.577142 0.0434119 0.0627604
0.59202 0.0474861 0.0690318
0.60856 0.0514992 0.0754559
0.623682 0.0567178 0.0814221
0.63003 0.0608377 0.0841535
0.631662 0.0634775 0.0880903
0.628428 0.0663767 0.0937514
0.623163 0.0692454 0.10135
0.611811 0.0738079 0.11429
0.600458 0.0783856 0.128374
0.0468605 0.0576333 0.047715
0.0457771 0.0577859 0.0474098
0.0464942 0.0572976 0.0458839
0.0497902 0.0579385 0.045304
0.0577859 0.0581064 0.0463111
0.0731518 0.0574655 0.0453651
0.0940108 0.0571756 0.0442817
0.115023 0.0570687 0.0438697
0.13492 0.0571298 0.0442054
0.159457 0.0567025 0.0438087
0.189609 0.0544747 0.0429084
0.222354 0.0518502 0.0420539
0.259098 0.0490272 0.0409705
0.29543 0.0461128 0.0408331
0.330922 0.0449226 0.0411078
0.365393 0.0422522 0.0410925
0.399985 0.0407111 0.0411688
0.434943 0.039765 0.0414435
0.46949 0.0381628 0.0420844
0.500282 0.037232 0.043595
0.523583 0.0383307 0.0461585
0.544686 0.0396735 0.0500191
0.563104 0.0417792 0.0547494
0.578332 0.0449378 0.0605631
0.593423 0.049134 0.0670176
0.609461 0.0535439 0.0735332
0.624643 0.0583963 0.0794842
0.632242 0.0631418 0.0829023
0.632441 0.0650339 0.0857404
0.628397 0.067277 0.0907301
0.623011 0.0698253 0.0978866
0.61091 0.0738384 0.110445
0.598825 0.0778668 0.123644
0.0475624 0.0752117 0.0512551
0.0461585 0.076173 0.0505226
0.0467231 0.0755932 0.0487221
0.0496071 0.0749065 0.0476234
0.0546883 0.0766918 0.0473182
0.0711681 0.0759747 0.0479286
0.0955673 0.0741131 0.0482795
0.118746 0.0729992 0.0475166
0.139956 0.0729381 0.0464942
0.160693 0.0736248 0.0466773
0.186053 0.0728923 0.0463874
0.21828 0.0696727 0.045182
0.256809 0.0646067 0.0437476
0.296895 0.0599832 0.0429694
0.332753 0.0561685 0.0426184
0.366537 0.0525368 0.0433509
0.398581 0.0484169 0.0424964
0.431281 0.0453498 0.0424659
0.463478 0.0428931 0.0422065
0.49424 0.0416724 0.0429541
0.519753 0.0414435 0.0438544
0.543282 0.0424964 0.0464637
0.564065 0.0444495 0.0517128
0.580484 0.048127 0.0580301
0.595911 0.0529641 0.0650187
0.61297 0.0579385 0.0721599
0.628031 0.0632334 0.078294
0.638819 0.0697185 0.0828565
0.639063 0.0717937 0.085832
0.635248 0.0743114 0.0911116
0.630182 0.0769665 0.0982528
0.617411 0.0803998 0.110277
0.605188 0.0841993 0.123476
0.047837 0.0951247 0.0548257
0.0464027 0.0962539 0.0534981
0.0462959 0.0965438 0.0504311
0.0484779 0.0956283 0.0483406
0.0535897 0.096788 0.0492561
0.0632639 0.0982223 0.0496529
0.083299 0.0980087 0.049073
0.109499 0.0955978 0.0514687
0.138628 0.092546 0.0511482
0.166293 0.0906233 0.0506142
0.190539 0.089662 0.0496529
0.217792 0.0880598 0.0495308
0.25362 0.0821088 0.0476234
0.296513 0.0766308 0.0458228
0.339147 0.0705577 0.0445258
0.376608 0.0661479 0.0438849
0.408515 0.0632181 0.0441444
0.43801 0.0607156 0.0449378
0.46717 0.0580911 0.0456245
0.495186 0.0538491 0.045655
0.521599 0.0505684 0.0462806
0.545434 0.0491798 0.0475319
0.565789 0.0500191 0.0503395
0.580987 0.0529793 0.0551614
0.597681 0.0591135 0.0629129
0.614786 0.0654002 0.0700542
0.631815 0.0721752 0.0770123
0.645411 0.0793011 0.08336
0.647868 0.0823987 0.0867628
0.644953 0.0839857 0.091371
0.639658 0.0869306 0.0979477
0.62858 0.0912184 0.110857
0.616144 0.0958419 0.123766
0.0484321 0.113207 0.0591592
0.0469215 0.115053 0.0570687
0.0467536 0.115038 0.053727
0.0496834 0.113497 0.0495155
0.0571145 0.112581 0.0465095
0.068513 0.113573 0.0472419
0.0916152 0.114778 0.047425
0.114397 0.11371 0.0463264
0.14641 0.110185 0.0485237
0.176944 0.106432 0.0489662
0.208896 0.103395 0.0496376
0.240375 0.100664 0.0489662
0.269612 0.0982376 0.0484016
0.304433 0.0932479 0.0481727
0.343816 0.0881819 0.0469062
0.383337 0.0831769 0.0460059
0.419516 0.0796216 0.0452888
0.452079 0.0770733 0.0459602
0.481392 0.0753643 0.0474403
0.508675 0.0749218 0.0492866
0.533928 0.0747387 0.0513313
0.556786 0.0741131 0.0536049
0.577462 0.0726787 0.0555276
0.594491 0.0710155 0.058854
0.609766 0.0751049 0.0649119
0.62594 0.0812543 0.0720989
0.643229 0.0882277 0.0792859
0.655756 0.0938735 0.0847181
0.658335 0.0962081 0.086656
0.658198 0.0987869 0.0903334
0.65594 0.10132 0.093904
0.649592 0.105425 0.101411
0.642374 0.108522 0.110292
0.052903 0.129519 0.0604868
0.0497597 0.132403 0.0583963
0.0480659 0.133761 0.0556039
0.0482185 0.13286 0.0505989
0.0535744 0.131395 0.0466621
0.0659342 0.131838 0.0466468
0.0828412 0.133669 0.0489052
0.110048 0.135531 0.0487984
0.133669 0.135607 0.0480964
0.17113 0.13051 0.0499733
0.207675 0.126329 0.0505989
0.247517 0.120806 0.0514839
0.287938 0.115038 0.0505989
0.320775 0.11252 0.0501869
0.352255 0.108568 0.0497292
0.389181 0.104967 0.0493019
0.427268 0.100999 0.0487678
0.464805 0.098497 0.0489967
0.498802 0.0974594 0.0499123
0.528328 0.0975662 0.0519112
0.555138 0.0985275 0.0549477
0.579889 0.101228 0.0590219
0.60325 0.105791 0.0651408
0.624582 0.112062 0.0735332
0.644373 0.116533 0.0815595
0.661662 0.119905 0.0880446
0.678599 0.123964 0.0945296
0.688212 0.126284 0.0981918
0.690333 0.12639 0.0991836
0.68806 0.126986 0.100755
0.684932 0.128389 0.104646
0.675807 0.129519 0.111177
0.665522 0.130632 0.118166
0.0542 0.149371 0.0669108
0.0510414 0.152316 0.0647746
0.0489967 0.15465 0.0614481
0.0485695 0.154604 0.0567483
0.0497292 0.152956 0.049897
0.0585641 0.152377 0.0466163
0.0745251 0.154116 0.0479591
0.100649 0.157427 0.0511635
0.129503 0.16022 0.0512551
0.155154 0.160906 0.0508583
0.203021 0.155062 0.0517281
0.251225 0.14902 0.0523842
0.297841 0.143023 0.0530556
0.342336 0.137469 0.0541238
0.377813 0.133669 0.0537728
0.408927 0.13257 0.0537118
0.443412 0.129839 0.0540475
0.480156 0.128359 0.0545205
0.516655 0.127596 0.0553902
0.550973 0.128283 0.0572976
0.582635 0.130037 0.0605631
0.611383 0.133654 0.0657054
0.638437 0.138766 0.0738689
0.662013 0.145418 0.084062
0.684718 0.154192 0.0970169
0.705135 0.162463 0.108431
0.722728 0.170428 0.117235
0.734905 0.175952 0.123415
0.737774 0.177386 0.124865
0.734707 0.176638 0.126329
0.729442 0.176608 0.129809
0.71957 0.177783 0.137102
0.709072 0.1794 0.145418
0.0558633 0.171267 0.0731212
0.0524605 0.174701 0.0709392
0.0500649 0.177691 0.0672007
0.0492866 0.178317 0.0615244
0.0487373 0.177417 0.0566415
0.05066 0.176089 0.0498207
0.0609598 0.177371 0.0485084
0.0809796 0.180468 0.0504311
0.11342 0.185489 0.0532235
0.150057 0.190967 0.0536202
0.183169 0.193927 0.0531319
0.246799 0.18819 0.0545663
0.307942 0.182986 0.0564279
0.360723 0.17908 0.0577249
0.406867 0.173678 0.0605478
0.445594 0.168597 0.0613718
0.477668 0.167895 0.062211
0.508309 0.167849 0.0633249
0.541573 0.167712 0.0647288
0.575875 0.167422 0.0666667
0.611063 0.168215 0.0698405
0.644587 0.170855 0.0746624
0.675395 0.175845 0.0825666
0.702312 0.182773 0.0939193
0.725856 0.191348 0.10779
0.745693 0.200061 0.119051
0.7626 0.208453 0.12813
0.773632 0.214817 0.133486
0.776501 0.216953 0.135378
0.773968 0.216678 0.137224
0.768948 0.21706 0.140826
0.759152 0.218814 0.14902
0.748409 0.221057 0.15845
0.0559548 0.196689 0.0772564
0.0520027 0.199954 0.0747845
0.0494392 0.202976 0.070573
0.0484932 0.204685 0.0643015
0.0480507 0.204074 0.057969
0.0479438 0.20238 0.0518349
0.0520638 0.202625 0.0472877
0.0632029 0.207233 0.0473793
0.0881056 0.213596 0.049546
0.126787 0.223056 0.0537423
0.176196 0.235599 0.0564736
0.223758 0.242191 0.0568093
0.300816 0.237659 0.0588846
0.370611 0.234485 0.0627298
0.426719 0.229633 0.0627604
0.472297 0.222995 0.0642863
0.513024 0.214969 0.0686198
0.544503 0.212314 0.0706035
0.573526 0.213413 0.0719158
0.604089 0.214069 0.0742046
0.637003 0.214237 0.0776074
0.67129 0.214939 0.0823224
0.70489 0.218692 0.0899367
0.734905 0.224918 0.100404
0.759487 0.233448 0.113207
0.778897 0.242451 0.124346
0.793759 0.25095 0.133425
0.803342 0.257893 0.139452
0.805997 0.259831 0.140536
0.803342 0.259922 0.142855
0.799084 0.26067 0.146929
0.789014 0.263035 0.155413
0.778286 0.265721 0.165499
0.0537118 0.228244 0.0789349
0.0502785 0.232059 0.0769665
0.0482032 0.235477 0.0735027
0.0470893 0.23711 0.0668193
0.0465553 0.237842 0.0596475
0.0466316 0.236652 0.0529946
0.046479 0.23447 0.0460975
0.0516823 0.238727 0.0449226
0.0647135 0.247974 0.046128
0.0949569 0.259419 0.0499886
0.145556 0.274983 0.0576791
0.213794 0.291905 0.0607004
0.275853 0.299565 0.0597391
0.356451 0.296223 0.0615549
0.430259 0.292103 0.0661173
0.488487 0.287541 0.0662242
0.534157 0.280522 0.0660868
0.574136 0.270481 0.0702068
0.606455 0.264607 0.0744488
0.635752 0.264256 0.0783093
0.664561 0.266239 0.0822003
0.694209 0.267887 0.0874495
0.72578 0.268986 0.0952773
0.755261 0.272099 0.106584
0.780087 0.279454 0.118776
0.798795 0.287739 0.130953
0.812451 0.296162 0.141436
0.821164 0.303426 0.148089
0.822705 0.305379 0.149599
0.820935 0.30573 0.1514
0.81767 0.306554 0.154406
0.809689 0.308629 0.162112
0.800015 0.311238 0.171511
0.0531167 0.269566 0.0833295
0.0497139 0.273045 0.0819562
0.0475929 0.276204 0.0792859
0.0466316 0.278782 0.0731823
0.0462501 0.280385 0.0648661
0.0463722 0.27892 0.0570535
0.0468452 0.276844 0.0495918
0.0470588 0.274968 0.0432898
0.0557107 0.282918 0.0426337
0.0755474 0.295598 0.0444343
0.113039 0.30956 0.0503853
0.175433 0.328771 0.0582589
0.261784 0.34902 0.0611734
0.331044 0.357717 0.0600748
0.411505 0.35523 0.0628977
0.4869 0.35079 0.0688945
0.543023 0.347036 0.0709392
0.588632 0.339727 0.0709392
0.627771 0.329046 0.0722057
0.66154 0.320455 0.0794995
0.691035 0.317281 0.0869459
0.717815 0.318791 0.0941024
0.744549 0.322301 0.102419
0.770825 0.325307 0.11371
0.793484 0.328542 0.126558
0.810437 0.334432 0.139712
0.823499 0.342168 0.151034
0.831708 0.349279 0.159548
0.832776 0.351308 0.160906
0.831922 0.351843 0.161807
0.830304 0.352483 0.163241
0.824598 0.354253 0.169833
0.816571 0.356741 0.178912
0.0524147 0.31371 0.0895247
0.0496529 0.316457 0.0879835
0.0474708 0.319005 0.0850385
0.0464942 0.321736 0.0794385
0.0460212 0.323857 0.0717937
0.0458686 0.324163 0.0630808
0.0459144 0.322164 0.0544137
0.0464027 0.318959 0.0460365
0.0484321 0.319905 0.041001
0.0598459 0.329763 0.0408637
0.0840314 0.343069 0.0435035
0.127764 0.357717 0.0487984
0.215808 0.38352 0.0575265
0.316548 0.406531 0.0609293
0.387335 0.415076 0.0608835
0.464881 0.412482 0.0645457
0.537682 0.409491 0.0742199
0.59115 0.405783 0.07953
0.636713 0.398795 0.0817426
0.673961 0.388769 0.0822614
0.707881 0.377798 0.0890516
0.73695 0.372702 0.100938
0.76231 0.372824 0.111666
0.785306 0.376059 0.123964
0.803952 0.381399 0.136965
0.819516 0.386679 0.149844
0.831479 0.391836 0.16231
0.838651 0.397818 0.171405
0.840497 0.400229 0.173892
0.840223 0.400809 0.174472
0.839643 0.401404 0.175174
0.835767 0.403143 0.179309
0.828794 0.405676 0.187457
0.049836 0.355932 0.0957046
0.0478676 0.358633 0.0955215
0.0462959 0.361425 0.0932631
0.0454566 0.363455 0.087068
0.044831 0.365499 0.0789044
0.0447089 0.366766 0.0695506
0.0449683 0.365591 0.0607462
0.0451667 0.363119 0.0513161
0.0455024 0.360723 0.0427558
0.05037 0.364569 0.0386053
0.0665751 0.375677 0.0390173
0.0960861 0.388769 0.0417487
0.151934 0.406638 0.0475624
0.270604 0.441352 0.0594644
0.376944 0.4636 0.0627298
0.442344 0.471702 0.0640726
0.513985 0.469413 0.0700847
0.583581 0.466896 0.0831617
0.634989 0.463523 0.0931563
0.677378 0.456687 0.0987106
0.713069 0.446677 0.102052
0.74548 0.435233 0.107454
0.774563 0.427863 0.120546
0.798047 0.426902 0.136263
0.815747 0.429984 0.149691
0.829114 0.435111 0.16408
0.839582 0.440833 0.177127
0.84651 0.446128 0.186648
0.848127 0.449485 0.189441
0.848249 0.449897 0.189578
0.848371 0.450416 0.189731
0.845365 0.451987 0.194171
0.839292 0.454185 0.202487
0.0477607 0.398032 0.105898
0.0461891 0.400473 0.106432
0.0450752 0.402853 0.104692
0.0446937 0.404791 0.0981308
0.0445563 0.406729 0.0898299
0.0444343 0.408637 0.0797436
0.0444038 0.408316 0.0698253
0.0445106 0.406409 0.059968
0.0446021 0.40351 0.0499428
0.0453346 0.401694 0.0407721
0.0547494 0.408911 0.0374762
0.078294 0.421347 0.0386816
0.116732 0.435431 0.0422217
0.192126 0.457053 0.0493324
0.333639 0.499657 0.0655985
0.435904 0.518425 0.0695811
0.494484 0.525109 0.0724498
0.55938 0.523507 0.0811475
0.625589 0.520684 0.0972763
0.675105 0.517479 0.111727
0.713664 0.510735 0.121538
0.746532 0.501411 0.127504
0.777401 0.489662 0.134722
0.803891 0.481529 0.147036
0.82388 0.479469 0.164019
0.836789 0.4822 0.179278
0.846204 0.48719 0.19324
0.852628 0.492103 0.203037
0.855207 0.495842 0.207431
0.855268 0.496544 0.207706
0.855268 0.497246 0.207904
0.852384 0.498909 0.212146
0.846754 0.501396 0.220264
0.0468147 0.440116 0.126101
0.0456703 0.442557 0.126818
0.0449683 0.444892 0.125322
0.0448005 0.446265 0.118074
0.0446937 0.4477 0.109926
0.0446937 0.449485 0.097261
0.0447547 0.45008 0.0846571
0.0448157 0.448569 0.073518
0.0451057 0.446021 0.0620737
0.0455329 0.443397 0.0512245
0.047013 0.44155 0.0408789
0.0648661 0.452888 0.0388037
0.101518 0.466285 0.0411231
0.154604 0.481727 0.0462654
0.247623 0.509804 0.057496
0.396155 0.55407 0.0801862
0.488014 0.569116 0.0834516
0.541802 0.574884 0.0880751
0.600946 0.572915 0.0979629
0.663844 0.570031 0.11693
0.712123 0.566308 0.134997
0.748531 0.55967 0.150088
0.779065 0.550805 0.162371
0.805554 0.539467 0.172366
0.826459 0.532845 0.184802
0.842283 0.531807 0.197635
0.853742 0.534401 0.209567
0.859922 0.539742 0.218082
0.862684 0.544823 0.222599
0.862745 0.546014 0.223011
0.862974 0.54699 0.223636
0.860716 0.548531 0.228016
0.855268 0.550927 0.236362
0.0480507 0.482185 0.158572
0.0467536 0.48455 0.160357
0.046067 0.486854 0.160174
0.0457923 0.488396 0.154833
0.0456092 0.489632 0.145037
0.0457313 0.489891 0.129747
0.0459144 0.491005 0.113588
0.0461891 0.489662 0.0976883
0.0467384 0.487617 0.0840162
0.0470893 0.484901 0.0706798
0.0483558 0.481987 0.0574502
0.0544137 0.482399 0.0454566
0.0906996 0.497124 0.044892
0.14229 0.510781 0.0480354
0.208881 0.529137 0.055787
0.31078 0.563378 0.0751965
0.451698 0.603525 0.100694
0.53312 0.616632 0.105852
0.582788 0.622034 0.110918
0.639338 0.620371 0.121675
0.699077 0.61709 0.141268
0.747402 0.613001 0.165393
0.782101 0.606653 0.188769
0.809384 0.598093 0.208713
0.830472 0.589654 0.222278
0.846235 0.585702 0.232639
0.857298 0.586099 0.242206
0.863828 0.590692 0.249989
0.867674 0.596918 0.255665
0.86743 0.599039 0.25684
0.867704 0.600244 0.257862
0.866224 0.601816 0.261845
0.863096 0.604044 0.268544
0.0523384 0.524254 0.201373
0.0509346 0.526726 0.203616
0.049958 0.528969 0.205539
0.0489967 0.529946 0.200214
0.0484016 0.530816 0.190906
0.0483406 0.531075 0.177111
0.0487831 0.531426 0.160021
0.0493935 0.530526 0.14049
0.0502632 0.528603 0.122164
0.0509194 0.5252 0.103334
0.0524147 0.521843 0.0847028
0.057023 0.520333 0.0694133
0.0805524 0.526482 0.0559243
0.136233 0.5402 0.0552834
0.199496 0.5552 0.060441
0.272221 0.578195 0.0738231
0.376242 0.615518 0.101015
0.504189 0.650813 0.127703
0.575448 0.662913 0.135348
0.6224 0.667933 0.140246
0.675135 0.66685 0.151385
0.732311 0.662959 0.174701
0.780407 0.658793 0.208682
0.814008 0.653803 0.239445
0.837507 0.647318 0.262562
0.853941 0.64123 0.277409
0.864546 0.639612 0.287053
0.871504 0.642939 0.29482
0.874922 0.647639 0.30045
0.875898 0.651789 0.302846
0.875822 0.653208 0.304173
0.875151 0.654414 0.307179
0.874388 0.656107 0.311238
0.0613565 0.565682 0.249424
0.0600137 0.567849 0.251316
0.057847 0.57023 0.252857
0.0568704 0.571511 0.249821
0.0559396 0.572213 0.243076
0.0557259 0.572122 0.231449
0.0558633 0.571374 0.215656
0.056611 0.570291 0.195926
0.0574655 0.567727 0.176959
0.058854 0.56466 0.155047
0.0607462 0.560265 0.130739
0.0654917 0.557458 0.106859
0.0773327 0.557275 0.085893
0.133257 0.567102 0.0713512
0.199725 0.581567 0.0728466
0.264347 0.600778 0.0827649
0.338109 0.627909 0.103319
0.442618 0.666712 0.135729
0.553231 0.696025 0.160296
0.616205 0.707347 0.170611
0.660273 0.712993 0.17969
0.709728 0.713634 0.194858
0.764858 0.709453 0.223987
0.812299 0.704952 0.261906
0.843336 0.701946 0.293767
0.862562 0.698482 0.317449
0.87538 0.694682 0.332891
0.882643 0.695552 0.342931
0.886137 0.700267 0.349371
0.887221 0.703807 0.353353
0.887587 0.705379 0.354498
0.887556 0.706935 0.355505
0.887892 0.708705 0.357198
0.0770428 0.604166 0.296544
0.075227 0.605737 0.297047
0.0731365 0.608225 0.300237
0.0718395 0.61001 0.299428
0.0708171 0.611353 0.295247
0.0707408 0.611322 0.286015
0.0713817 0.610819 0.273274
0.0727092 0.609171 0.256138
0.073518 0.606882 0.236957
0.0741436 0.602792 0.215595
0.0762493 0.598474 0.191485
0.0808881 0.593881 0.163684
0.0916457 0.591638 0.135256
0.120272 0.591455 0.105959
0.204105 0.606836 0.0960403
0.270512 0.625299 0.104524
0.332662 0.64773 0.121614
0.403723 0.676585 0.14667
0.50248 0.714519 0.180591
0.599329 0.740322 0.206455
0.658442 0.752377 0.222644
0.698558 0.75877 0.23653
0.744884 0.761334 0.254902
0.79588 0.757046 0.282811
0.840833 0.753475 0.318883
0.868452 0.75288 0.348867
0.88571 0.751705 0.370474
0.895277 0.7505 0.385367
0.898634 0.753323 0.394491
0.90042 0.756039 0.397513
0.901778 0.757626 0.396078
0.903273 0.758511 0.392554
0.904768 0.759579 0.390555
0.109178 0.637659 0.328313
0.108095 0.639567 0.330526
0.105074 0.642466 0.33576
0.102647 0.644633 0.337606
0.101427 0.646097 0.335927
0.101106 0.646174 0.328252
0.102159 0.645808 0.317769
0.103395 0.645212 0.303624
0.10605 0.642893 0.285878
0.10692 0.638773 0.265599
0.109133 0.633524 0.242176
0.112444 0.628534 0.215488
0.12166 0.624384 0.186419
0.141375 0.622065 0.154055
0.192554 0.62707 0.129656
0.285054 0.648478 0.13286
0.349371 0.671107 0.148455
0.406912 0.69514 0.168765
0.475074 0.72491 0.195377
0.567025 0.759823 0.228336
0.653864 0.783276 0.254856
0.706859 0.794339 0.273548
0.743557 0.800931 0.288731
0.785565 0.803128 0.306584
0.830762 0.799771 0.331945
0.868666 0.798047 0.362646
0.892485 0.797284 0.387152
0.904845 0.797879 0.407218
0.908629 0.798993 0.422538
0.908568 0.80174 0.431357
0.908827 0.803143 0.433402
0.909895 0.804135 0.431113
0.910811 0.80502 0.428916
0.147799 0.67126 0.370703
0.14696 0.673121 0.37377
0.143862 0.676051 0.37937
0.141497 0.677745 0.381201
0.139544 0.678874 0.380118
0.139376 0.679042 0.373983
0.140093 0.678431 0.365225
0.141146 0.676966 0.351751
0.14168 0.675181 0.335714
0.143374 0.67187 0.317769
0.144015 0.666072 0.294728
0.145663 0.660685 0.269383
0.150301 0.655253 0.240879
0.1635 0.651682 0.210269
0.19321 0.650629 0.178195
0.263951 0.661433 0.16669
0.35108 0.685817 0.179522
0.408164 0.708309 0.198291
0.459403 0.731517 0.218906
0.528572 0.762432 0.247608
0.62005 0.797406 0.281636
0.699321 0.818952 0.308583
0.745037 0.828885 0.327337
0.78027 0.836027 0.344991
0.818265 0.837766 0.364645
0.855131 0.83595 0.389044
0.884627 0.834379 0.413809
0.902159 0.834607 0.435874
0.908568 0.835508 0.454337
0.90808 0.837308 0.467521
0.907622 0.838499 0.470665
0.907561 0.839338 0.469902
0.908843 0.840009 0.465995
0.18555 0.699077 0.409552
0.184863 0.70016 0.410758
0.181323 0.702571 0.415702
0.178698 0.704372 0.418311
0.17644 0.705348 0.417594
0.175265 0.704997 0.412131
0.174426 0.703899 0.403342
0.173877 0.702129 0.390784
0.173968 0.70016 0.376562
0.173571 0.6972 0.359396
0.173419 0.692912 0.339971
0.174243 0.686748 0.315831
0.177005 0.68072 0.288197
0.184054 0.676112 0.25861
0.200671 0.672221 0.224109
0.246708 0.674617 0.199008
0.331441 0.691936 0.20264
0.407034 0.717601 0.222812
0.456428 0.739071 0.242115
0.504921 0.761624 0.262516
0.577615 0.794461 0.292592
0.67097 0.828504 0.327398
0.743664 0.847272 0.35462
0.780438 0.855833 0.373068
0.812314 0.861463 0.391684
0.845182 0.863554 0.415518
0.873472 0.862898 0.441398
0.893355 0.862501 0.466056
0.902754 0.862516 0.487037
0.90193 0.864302 0.503914
0.901137 0.865385 0.507897
0.900832 0.866346 0.509087
0.901152 0.867109 0.507988
0.211734 0.722805 0.449973
0.212116 0.72285 0.447852
0.210117 0.723735 0.448295
0.207477 0.724681 0.448615
0.205051 0.725261 0.44744
0.203769 0.724804 0.442634
0.202304 0.723552 0.434928
0.201038 0.721736 0.424063
0.199084 0.719326 0.410437
0.197559 0.71603 0.394659
0.196857 0.712551 0.377066
0.196445 0.707286 0.355169
0.197299 0.700771 0.328969
0.201541 0.694514 0.300694
0.212802 0.690318 0.269795
0.240482 0.688121 0.23798
0.30454 0.696574 0.227558
0.386175 0.718303 0.237995
0.450874 0.742977 0.258656
0.496834 0.763867 0.27837
0.5467 0.787243 0.300481
0.626291 0.821942 0.333059
0.715145 0.852155 0.365316
0.779141 0.867369 0.390768
0.811002 0.874098 0.409064
0.839078 0.879759 0.434287
0.865446 0.881605 0.465049
0.885328 0.881331 0.494301
0.895415 0.882033 0.518471
0.895735 0.883818 0.536873
0.894606 0.884703 0.54316
0.894209 0.88542 0.544869
0.894148 0.885939 0.545602
0.230365 0.741451 0.485954
0.23064 0.741131 0.482322
0.230228 0.740719 0.478965
0.228717 0.740398 0.476036
0.227115 0.740001 0.473182
0.224735 0.739254 0.46836
0.222614 0.737911 0.461036
0.220539 0.735973 0.451148
0.217517 0.732906 0.438193
0.215167 0.729732 0.423575
0.213245 0.725689 0.407248
0.21297 0.721462 0.389364
0.212787 0.715862 0.366964
0.214832 0.709422 0.34023
0.222004 0.703822 0.31075
0.239826 0.699916 0.279194
0.289693 0.703914 0.263584
0.352956 0.715801 0.258289
0.423407 0.737484 0.267826
0.484932 0.76202 0.288548
0.53109 0.782986 0.309117
0.585779 0.808026 0.333959
0.668193 0.841779 0.367224
0.751232 0.867048 0.396231
0.807233 0.879316 0.4224
0.835355 0.884474 0.442588
0.860121 0.888518 0.47686
0.880171 0.889815 0.511879
0.890608 0.890608 0.541054
0.891752 0.892897 0.562997
0.891157 0.893874 0.5729
0.890791 0.894163 0.573922
0.890745 0.894377 0.574411
0.241108 0.752102 0.512184
0.240436 0.751568 0.509483
0.239414 0.750851 0.505455
0.238346 0.749798 0.501122
0.236896 0.748501 0.495842
0.234867 0.746914 0.489693
0.231708 0.745083 0.481971
