bundles/resolve-cinematic-luts/Phantom Luts/P4k & P6K Phntm Film LUTs - V6/P4K/Gen 4 Colour/Standard (No WB Offset)/P4k Bleach Gen4.cube
TITLE "Generated by Resolve"
LUT_3D_SIZE 33
0.0153353 0.0269474 0.0176242
0.0153353 0.0269474 0.0176242
0.0153353 0.0269474 0.0176242
0.0170901 0.0268559 0.0176699
0.0226444 0.0277104 0.0189212
0.0342718 0.0293431 0.019913
0.0487526 0.0300298 0.0211185
0.0641489 0.0310216 0.0225376
0.0813611 0.032166 0.0239261
0.10045 0.0330968 0.0254673
0.122683 0.0345617 0.0271
0.14786 0.0364691 0.0284581
0.176928 0.0386511 0.0302586
0.208957 0.0412451 0.0321813
0.243244 0.0439002 0.0345922
0.278645 0.0463264 0.0379492
0.314397 0.049073 0.0407263
0.352575 0.0516213 0.0436408
0.395483 0.0533303 0.0462654
0.444343 0.0549172 0.0485237
0.491203 0.0575113 0.0520638
0.527214 0.0615854 0.0577096
0.552377 0.067155 0.0634928
0.58352 0.0716259 0.0692302
0.612268 0.0761883 0.0745251
0.640406 0.0811475 0.080827
0.667018 0.0859998 0.0866255
0.69218 0.0908522 0.0925917
0.71577 0.0960555 0.0985428
0.73753 0.101518 0.104829
0.758099 0.107118 0.110918
0.777432 0.113329 0.117891
0.794705 0.120165 0.124285
0.0153353 0.0269474 0.0176242
0.0153353 0.0269474 0.0176242
0.0153353 0.0269474 0.0176242
0.0168765 0.0268406 0.0176394
0.0236515 0.0280308 0.0193332
0.0381476 0.0298619 0.020325
0.0539406 0.0306859 0.0217594
0.0716259 0.0318914 0.0234684
0.0914626 0.032929 0.0247349
0.115282 0.0345464 0.0268559
0.141604 0.036347 0.0281376
0.171023 0.038529 0.0299382
0.204166 0.0412757 0.0318914
0.239307 0.0440223 0.0344701
0.274739 0.0466011 0.0373999
0.311223 0.0494392 0.0400854
0.35053 0.0520027 0.0430762
0.393835 0.0537423 0.0455787
0.443381 0.0553292 0.0474861
0.489662 0.057557 0.0505684
0.525124 0.0617075 0.0559548
0.550958 0.0668193 0.0614481
0.58201 0.0710307 0.066865
0.610758 0.075639 0.0720989
0.637675 0.0801862 0.0774395
0.664591 0.0848707 0.0830396
0.688899 0.0893873 0.0887312
0.711818 0.0939498 0.093904
0.732677 0.0988937 0.0993515
0.752911 0.103731 0.105013
0.770397 0.109041 0.110292
0.787594 0.114427 0.115648
0.802518 0.120653 0.12108
0.0153353 0.0269474 0.0176242
0.0153353 0.0269474 0.0176242
0.0153353 0.0269474 0.0176242
0.0155642 0.0268711 0.0175784
0.0234531 0.0283207 0.0193484
0.0385595 0.0305943 0.0203098
0.0562295 0.0320287 0.0218509
0.0761883 0.0335546 0.0240635
0.097612 0.0351263 0.025391
0.122683 0.0367895 0.0270848
0.151385 0.0388495 0.0288701
0.18378 0.0414282 0.0308537
0.219791 0.0439307 0.0330053
0.255268 0.0471656 0.0347906
0.291051 0.0499886 0.0369116
0.32903 0.0525063 0.0390021
0.370031 0.0548257 0.0410925
0.41799 0.056199 0.0436866
0.46569 0.0571908 0.0450752
0.507118 0.0592355 0.0482338
0.534356 0.0633707 0.0525978
0.564446 0.0673075 0.0575723
0.593988 0.0711528 0.062501
0.621088 0.0749828 0.0671092
0.647089 0.0795148 0.0720684
0.671992 0.0834363 0.0773022
0.694728 0.0877394 0.0818952
0.71632 0.0917067 0.0869154
0.735775 0.0957504 0.0914778
0.753262 0.100328 0.0952773
0.770184 0.104814 0.100328
0.785077 0.109804 0.104311
0.800061 0.115694 0.109453
0.0154421 0.0281834 0.0179446
0.0154269 0.0280613 0.0178531
0.0153201 0.0276188 0.0175937
0.0154269 0.0271458 0.0176089
0.020798 0.0292515 0.0187228
0.0329137 0.0326085 0.0204318
0.0515145 0.0344244 0.0219883
0.0721752 0.0376593 0.0236057
0.0961929 0.040528 0.0252995
0.122957 0.0425727 0.027512
0.153979 0.044831 0.0298161
0.186816 0.0469062 0.0319677
0.221241 0.0484627 0.0336614
0.257343 0.0509346 0.0350958
0.294026 0.0537423 0.0371099
0.33254 0.0561227 0.0393988
0.372595 0.0584115 0.0407721
0.418296 0.0596323 0.0416571
0.463249 0.0609751 0.0426337
0.502663 0.0628977 0.0442359
0.533181 0.0665141 0.047837
0.565103 0.0695048 0.0524605
0.593973 0.0733196 0.0570077
0.620844 0.0770886 0.0615396
0.646738 0.0812085 0.0664378
0.670954 0.0852216 0.0709239
0.693782 0.0894636 0.075227
0.7149 0.09337 0.0799115
0.734401 0.0973526 0.083711
0.751385 0.101717 0.0878157
0.768994 0.106371 0.0923629
0.783993 0.112322 0.0968338
0.798749 0.1187 0.101595
0.0185092 0.0396429 0.0224308
0.0198062 0.0440223 0.0237736
0.0203708 0.0466621 0.0235142
0.0211185 0.0469215 0.0221103
0.0315099 0.048127 0.02327
0.0442206 0.0525826 0.0260014
0.0613107 0.0564279 0.024506
0.0844282 0.0579538 0.0263828
0.107607 0.0596475 0.0277409
0.134997 0.0606851 0.0295262
0.165148 0.0614633 0.0316167
0.199619 0.0625925 0.0345159
0.235157 0.0637064 0.0372931
0.269917 0.0650492 0.0392462
0.304372 0.0663157 0.0411841
0.341054 0.0674296 0.0427405
0.379568 0.068101 0.0437781
0.424582 0.0682383 0.0444648
0.467185 0.0695354 0.0454108
0.505409 0.0716716 0.0472267
0.537972 0.074815 0.0498512
0.564431 0.0763714 0.0516518
0.592966 0.0798962 0.0557259
0.617761 0.0829938 0.0582895
0.644343 0.0883192 0.0626535
0.667323 0.0926375 0.0661021
0.691142 0.0978103 0.0705425
0.71252 0.101884 0.0748455
0.731502 0.106355 0.0784314
0.750134 0.112001 0.082948
0.768261 0.117891 0.0875868
0.78529 0.125689 0.0941176
0.801907 0.133211 0.100298
0.0236515 0.0666514 0.0333715
0.0246433 0.0717632 0.035172
0.0252384 0.0751812 0.0318914
0.0260929 0.0755169 0.0266728
0.0333562 0.0751965 0.0264439
0.0555276 0.0789349 0.0291905
0.072343 0.0827039 0.0284428
0.0937057 0.0855573 0.0280156
0.124712 0.0864424 0.0291295
0.15581 0.0872053 0.0314794
0.186725 0.08748 0.0335699
0.220783 0.0862745 0.0365454
0.256504 0.0861524 0.0394141
0.293889 0.0864576 0.0422522
0.330388 0.0870375 0.0447547
0.369085 0.0873579 0.0467842
0.412467 0.0869001 0.0482032
0.455726 0.0868086 0.0494545
0.494011 0.087953 0.0517281
0.52845 0.0904097 0.0545052
0.559014 0.0930648 0.0575875
0.585931 0.0965133 0.0606394
0.611811 0.0998703 0.0641794
0.635935 0.103792 0.0673228
0.659556 0.108217 0.0711528
0.68307 0.113542 0.0753033
0.705577 0.118624 0.0799268
0.726543 0.125353 0.0843214
0.748547 0.132769 0.0906386
0.76672 0.139895 0.0957961
0.784375 0.147112 0.101289
0.801236 0.155276 0.107179
0.81854 0.164828 0.11426
0.0271305 0.0955673 0.0426947
0.0277562 0.100496 0.0432288
0.0284276 0.104372 0.0389563
0.0288701 0.105303 0.0316472
0.0327153 0.105226 0.0283665
0.0500801 0.108003 0.0300298
0.0808118 0.111345 0.0326543
0.0997787 0.115236 0.0304265
0.127077 0.117342 0.0279088
0.168246 0.116335 0.0289006
0.208698 0.115602 0.0328527
0.244526 0.115145 0.0360723
0.281376 0.11429 0.0397345
0.318029 0.112947 0.0431525
0.357351 0.111238 0.0459907
0.400488 0.111131 0.0479744
0.446876 0.110735 0.0499275
0.488869 0.111406 0.0526284
0.525154 0.113375 0.0564889
0.557519 0.116655 0.0610056
0.586282 0.120714 0.0652781
0.614008 0.125216 0.0703288
0.639185 0.130129 0.0745708
0.663081 0.135531 0.0792554
0.686931 0.14197 0.0847028
0.710231 0.14876 0.090013
0.732815 0.156222 0.0962844
0.754482 0.164843 0.102922
0.773922 0.173449 0.109194
0.793988 0.183734 0.117037
0.812665 0.194553 0.125032
0.829892 0.205524 0.132509
0.84651 0.217502 0.140841
0.0294652 0.124086 0.0516518
0.0299077 0.129702 0.0522011
0.0303197 0.134463 0.0467536
0.0309758 0.135897 0.0360571
0.0315557 0.135317 0.0292058
0.0402686 0.137301 0.0300755
0.06804 0.141909 0.0319524
0.106798 0.14583 0.0345159
0.12784 0.149905 0.0317235
0.163287 0.152621 0.0265202
0.213046 0.15172 0.0274968
0.259419 0.151171 0.031693
0.304463 0.148409 0.0365148
0.346166 0.146502 0.0411078
0.389166 0.144945 0.0446784
0.435508 0.141802 0.0474403
0.48014 0.141497 0.0507668
0.518639 0.142092 0.0553597
0.551888 0.145602 0.0598764
0.582727 0.150378 0.0651713
0.610986 0.155764 0.0706645
0.63801 0.161517 0.0770733
0.663417 0.16875 0.0829328
0.687907 0.175738 0.0894484
0.711803 0.184283 0.0964065
0.735576 0.193469 0.104204
0.757733 0.20322 0.112047
0.780194 0.214206 0.121202
0.800793 0.225925 0.130312
0.821134 0.238956 0.14023
0.839918 0.252018 0.150149
0.858381 0.265156 0.160189
0.875959 0.28011 0.171588
0.0306554 0.15523 0.0614786
0.0307927 0.162112 0.061738
0.0312657 0.166751 0.0552987
0.0319677 0.169314 0.0423438
0.0324254 0.168521 0.0319524
0.0352941 0.169635 0.0292668
0.0545052 0.174472 0.0308232
0.0901808 0.179507 0.0332036
0.133715 0.185138 0.0356909
0.161242 0.190356 0.0327611
0.20351 0.194247 0.0270085
0.258595 0.194247 0.0273594
0.31397 0.192172 0.0301823
0.366339 0.188922 0.0352178
0.4206 0.185061 0.0397498
0.470924 0.182467 0.0442512
0.509651 0.183154 0.048661
0.545022 0.185061 0.0546883
0.576547 0.188403 0.0616922
0.605814 0.194507 0.0682536
0.633585 0.199069 0.0768749
0.66038 0.207706 0.0842908
0.685573 0.216236 0.0917983
0.711223 0.226047 0.100801
0.735012 0.236027 0.109438
0.759365 0.247578 0.119844
0.782712 0.259907 0.130816
0.806928 0.274708 0.143099
0.828336 0.288731 0.155047
0.849775 0.304433 0.168429
0.870375 0.320211 0.181704
0.888609 0.336065 0.194797
0.90309 0.351583 0.206119
0.030045 0.189181 0.0697032
0.0301518 0.196399 0.0698405
0.0305791 0.201282 0.0635691
0.0312352 0.20444 0.0496681
0.0319066 0.203708 0.0343786
0.0323491 0.203082 0.027863
0.0415961 0.207538 0.0279088
0.069337 0.213764 0.029984
0.111589 0.219471 0.0333562
0.162966 0.226963 0.0360723
0.19649 0.233494 0.0328069
0.24535 0.239109 0.0274815
0.305226 0.240421 0.0264286
0.369894 0.238148 0.0284886
0.436255 0.233799 0.0320897
0.490272 0.232303 0.0366217
0.5355 0.233204 0.0450141
0.569314 0.237827 0.0525368
0.599771 0.243442 0.0612955
0.628275 0.251438 0.0706188
0.655665 0.259159 0.0801404
0.682002 0.267491 0.0909285
0.708202 0.277699 0.102235
0.733776 0.287221 0.11516
0.75935 0.299214 0.127642
0.786542 0.313039 0.143282
0.811582 0.328573 0.157656
0.835126 0.344076 0.171847
0.856382 0.358373 0.185809
0.876204 0.373114 0.198505
0.892775 0.388006 0.210224
0.906111 0.401999 0.220188
0.916854 0.414603 0.22829
0.028748 0.223926 0.0764935
0.0281987 0.230976 0.0763256
0.0281376 0.236088 0.0700999
0.02916 0.238651 0.0569009
0.0299382 0.23917 0.0411078
0.0305333 0.237217 0.026276
0.0307164 0.239216 0.0249943
0.0493629 0.246036 0.0256046
0.0853285 0.253178 0.027512
0.135653 0.260304 0.0321202
0.19472 0.270817 0.0352483
0.234119 0.27953 0.0328679
0.287602 0.287083 0.0272068
0.352422 0.290959 0.0259861
0.428962 0.288273 0.0262303
0.496132 0.287755 0.0298772
0.545296 0.290913 0.0370947
0.586297 0.295216 0.0488289
0.61944 0.303716 0.0609445
0.650431 0.314473 0.0738384
0.676616 0.325597 0.0846723
0.704082 0.338308 0.0982681
0.732067 0.3514 0.11368
0.759167 0.365332 0.129732
0.786038 0.37908 0.147127
0.811399 0.392264 0.163333
0.834501 0.404501 0.178408
0.854643 0.416922 0.191287
0.872129 0.429175 0.201678
0.886198 0.441459 0.210666
0.89839 0.454734 0.217075
0.907683 0.466072 0.222416
0.916442 0.477302 0.228183
0.0256657 0.258579 0.0818494
0.0250248 0.264973 0.0816815
0.0247654 0.269825 0.0754406
0.02533 0.272541 0.0624094
0.0261845 0.273411 0.046952
0.0265812 0.272175 0.0319219
0.027451 0.271656 0.0211337
0.0306706 0.275502 0.021088
0.059266 0.283894 0.0222019
0.104295 0.292088 0.0252995
0.164614 0.301915 0.0307317
0.22977 0.315923 0.0345006
0.274067 0.327413 0.0318151
0.330602 0.337255 0.0270542
0.403006 0.342473 0.0253605
0.480888 0.34432 0.0263828
0.541085 0.349813 0.0324254
0.589807 0.358816 0.0422522
0.631586 0.370504 0.059556
0.666911 0.383352 0.0758984
0.698268 0.396735 0.0930953
0.72462 0.410742 0.10692
0.749676 0.426246 0.121706
0.773465 0.440162 0.135515
0.795163 0.452796 0.148669
0.816846 0.463951 0.161852
0.836942 0.475456 0.174212
0.853864 0.485405 0.18407
0.869307 0.49572 0.193194
0.882231 0.505852 0.201099
0.894072 0.515602 0.208698
0.903914 0.52488 0.215061
0.912627 0.533501 0.220584
0.0216068 0.291402 0.0872511
0.0208286 0.298177 0.0872511
0.0204318 0.302159 0.081178
0.0208591 0.304326 0.0683757
0.0215 0.306172 0.0523995
0.0225071 0.305791 0.0366827
0.0238041 0.305272 0.0234836
0.025391 0.306279 0.0171817
0.0400854 0.312291 0.0173342
0.0722362 0.321004 0.0183108
0.125963 0.331609 0.0222934
0.199908 0.34641 0.0298772
0.269017 0.36524 0.0327611
0.315541 0.378531 0.0304265
0.376471 0.391165 0.0270237
0.453651 0.400702 0.024979
0.523125 0.412955 0.0298161
0.581415 0.426047 0.0407416
0.627375 0.439689 0.0536507
0.667674 0.45214 0.070985
0.701839 0.46537 0.0873579
0.729931 0.476753 0.103609
0.754604 0.488716 0.117937
0.77734 0.499916 0.132006
0.798321 0.510643 0.144411
0.817411 0.521248 0.155444
0.835554 0.530327 0.165988
0.852216 0.539696 0.176043
0.867475 0.54902 0.18584
0.88098 0.557031 0.195026
0.892607 0.564431 0.203311
0.902602 0.571771 0.210803
0.911513 0.57969 0.217792
0.0167239 0.323751 0.094377
0.0157778 0.329961 0.0946517
0.0157626 0.333959 0.0888533
0.0160983 0.336172 0.0749828
0.016907 0.338155 0.0587778
0.0178836 0.339315 0.0434882
0.0191043 0.338109 0.0288396
0.0202487 0.337881 0.0175174
0.0266117 0.341558 0.012726
0.0533455 0.350195 0.0129397
0.0883955 0.360418 0.0149844
0.154986 0.374838 0.0201877
0.237797 0.396399 0.0288701
0.311009 0.421241 0.03093
0.362188 0.43798 0.0304265
0.432303 0.454795 0.0309758
0.50605 0.470939 0.0355383
0.565393 0.486198 0.0433661
0.615976 0.500664 0.0542916
0.657862 0.511742 0.0659037
0.695994 0.521859 0.0812848
0.728725 0.530892 0.0969711
0.755367 0.539727 0.112642
0.781689 0.548379 0.127687
0.802762 0.556817 0.141283
0.823072 0.565621 0.155856
0.840085 0.574243 0.165942
0.855192 0.582574 0.175006
0.869978 0.590097 0.184695
0.882887 0.597543 0.193744
0.893812 0.604959 0.202533
0.90425 0.611627 0.211246
0.912627 0.618219 0.219226
0.0111543 0.356146 0.103502
0.0102541 0.362676 0.10399
0.00965896 0.367025 0.0974594
0.0104524 0.369207 0.0841077
0.0112154 0.371313 0.0666514
0.0123598 0.373083 0.0498512
0.0136721 0.372671 0.035996
0.0153201 0.372519 0.0209812
0.0162661 0.374762 0.0124819
0.0308537 0.380301 0.00840772
0.0681315 0.39115 0.00918593
0.107774 0.40354 0.0113985
0.19205 0.425498 0.0197147
0.284642 0.456397 0.032929
0.368627 0.485573 0.0390173
0.429267 0.501808 0.0425269
0.494682 0.518471 0.0463264
0.555749 0.533822 0.0527047
0.604578 0.546929 0.0596017
0.648127 0.558938 0.0693065
0.687205 0.568048 0.0803998
0.721614 0.575708 0.0937514
0.753277 0.582574 0.109804
0.781064 0.589456 0.124605
0.806607 0.596597 0.139727
0.827726 0.60383 0.15436
0.84567 0.61091 0.167926
0.861585 0.61796 0.179339
0.874205 0.625177 0.188128
0.88629 0.63209 0.197177
0.896849 0.638804 0.206241
0.906126 0.645319 0.214755
0.914458 0.651713 0.223606
0.00508125 0.390005 0.113436
0.00408942 0.397543 0.113863
0.00350958 0.401694 0.107591
0.00425727 0.403693 0.0937819
0.005066 0.406043 0.0761273
0.00602731 0.408728 0.0580606
0.00730907 0.410254 0.0422522
0.00886549 0.410544 0.0285039
0.0108644 0.411933 0.0135653
0.0155489 0.415671 0.00698863
0.0449836 0.423606 0.00453193
0.0884718 0.435935 0.00689708
0.138354 0.453178 0.0122072
0.24509 0.484047 0.0303655
0.352331 0.521569 0.049897
0.44152 0.544594 0.0549477
0.495491 0.557687 0.059266
0.547524 0.571313 0.0642863
0.596551 0.584833 0.0704356
0.639582 0.596658 0.0777752
0.677699 0.606394 0.0856641
0.713512 0.613764 0.096788
0.746609 0.620081 0.109468
0.778012 0.626535 0.124941
0.804486 0.631983 0.139925
0.828885 0.637583 0.155428
0.848844 0.64361 0.171283
0.86566 0.649607 0.184787
0.879591 0.655848 0.195514
0.890837 0.662394 0.205295
0.900572 0.668925 0.214618
0.909621 0.674861 0.223362
0.917189 0.68072 0.232166
0 0.426474 0.125124
0 0.433692 0.126528
0 0.437613 0.120562
0 0.43949 0.106386
0.000579843 0.442054 0.0897536
0.00164797 0.445899 0.0708476
0.00334173 0.447898 0.0538033
0.00505074 0.448005 0.0386206
0.00715648 0.449851 0.0236057
0.0106203 0.453513 0.00936904
0.0300298 0.459373 0.00386053
0.0732128 0.46978 0.00520333
0.125444 0.486458 0.0123293
0.193088 0.509422 0.0255283
0.319753 0.54905 0.0547951
0.430869 0.576532 0.0694743
0.506127 0.592889 0.071931
0.549432 0.604776 0.0773785
0.590753 0.616281 0.0829938
0.632303 0.627298 0.08925
0.67042 0.63743 0.0961318
0.705043 0.646433 0.103395
0.738201 0.65333 0.113878
0.769879 0.65919 0.126375
0.79855 0.664179 0.141588
0.825483 0.668956 0.157412
0.846937 0.673777 0.174182
0.866636 0.678645 0.191546
0.881498 0.684749 0.205432
0.893553 0.690074 0.218128
0.904112 0.69546 0.229099
0.9122 0.701259 0.238514
0.920043 0.706783 0.247456
0 0.462806 0.143572
0 0.470222 0.146227
0 0.474113 0.14078
0 0.476036 0.126696
0 0.47837 0.109087
0.00109865 0.481315 0.0907149
0.00262455 0.485115 0.0723278
0.0043183 0.485863 0.0555886
0.00643931 0.486549 0.0389868
0.00952163 0.489021 0.0226749
0.0193637 0.493416 0.00872816
0.0603952 0.504616 0.00695811
0.117403 0.521492 0.0160983
0.18822 0.544854 0.0314488
0.268849 0.571771 0.0514382
0.399741 0.603464 0.0797436
0.501472 0.620783 0.0873426
0.558038 0.63444 0.0900435
0.592645 0.644465 0.0958114
0.626947 0.654643 0.101991
0.663493 0.664347 0.107683
0.697932 0.673686 0.11458
0.730632 0.681712 0.121996
0.761013 0.687953 0.131807
0.790845 0.693294 0.144564
0.817487 0.697826 0.159762
0.842023 0.702785 0.176196
0.861982 0.706813 0.194598
0.880125 0.711254 0.213001
0.893828 0.716167 0.230793
0.904967 0.721294 0.243305
0.913985 0.726452 0.256626
0.921813 0.731792 0.267201
0 0.500328 0.170123
0 0.507744 0.174166
0 0.512093 0.169879
0.000167849 0.513649 0.156024
0.00125124 0.515587 0.137819
0.0027924 0.519051 0.11809
0.00474556 0.521935 0.0986801
0.00657664 0.523217 0.0796979
0.00863661 0.523873 0.0614328
0.0112612 0.525597 0.0427558
0.014786 0.528435 0.0230259
0.0373236 0.535332 0.0116579
0.117311 0.558968 0.0239261
0.188754 0.580835 0.0405432
0.266209 0.603906 0.060029
0.350881 0.625254 0.0810254
0.48191 0.644053 0.0989853
0.558083 0.659205 0.105287
0.600626 0.670924 0.107958
0.629908 0.679927 0.114061
0.659739 0.688411 0.120699
0.692073 0.697154 0.126894
0.72343 0.705364 0.133272
0.753658 0.71252 0.140642
0.78291 0.718898 0.1505
0.80975 0.724254 0.164172
0.834287 0.728603 0.179248
0.855909 0.733303 0.198825
0.87509 0.737575 0.218158
0.890059 0.741695 0.2365
0.904494 0.745998 0.256184
0.913695 0.751064 0.271244
0.921767 0.755764 0.284581
0.00158694 0.539345 0.204761
0.00280766 0.547265 0.209873
0.00340276 0.551568 0.205554
0.00425727 0.553063 0.192203
0.00555428 0.554467 0.174426
0.0071107 0.557 0.154299
0.00929274 0.560723 0.132311
0.0118105 0.562615 0.111543
0.0135348 0.562142 0.0904555
0.0159915 0.562264 0.0693828
0.0195315 0.564767 0.0487221
0.0335241 0.570947 0.0278477
0.0953536 0.589929 0.0311131
0.192111 0.614237 0.0514992
0.265797 0.6327 0.0693523
0.340291 0.650416 0.0876173
0.434119 0.664683 0.104738
0.546105 0.679255 0.11667
0.601434 0.69279 0.122454
0.635874 0.703136 0.125444
0.661921 0.711055 0.132372
0.687892 0.718715 0.139116
0.718059 0.727123 0.145281
0.746777 0.734752 0.151965
0.776059 0.741985 0.160159
0.803281 0.747799 0.171557
0.826947 0.753124 0.18674
0.847959 0.757992 0.204211
0.867872 0.762539 0.224018
0.884978 0.7673 0.243656
0.898894 0.771496 0.262608
0.911055 0.775601 0.282124
0.92047 0.779599 0.299779
0.00941482 0.582086 0.245884
0.0117342 0.590082 0.25153
0.0128328 0.593484 0.247196
0.0132143 0.59443 0.234638
0.0135653 0.595758 0.21738
0.014725 0.598444 0.197833
0.0172427 0.601633 0.175647
0.0194858 0.603845 0.151965
0.0214084 0.602914 0.12781
0.0239414 0.60238 0.103456
0.0271 0.603403 0.0797284
0.038529 0.608194 0.0562142
0.0874495 0.622492 0.0452583
0.175677 0.642573 0.059678
0.268177 0.660761 0.0801556
0.33402 0.674357 0.0953384
0.414908 0.686564 0.111162
0.511711 0.696468 0.124208
0.593881 0.711635 0.135012
0.637156 0.723156 0.139727
0.666804 0.732769 0.142916
0.690333 0.740047 0.150439
0.714473 0.747433 0.157702
0.742214 0.755306 0.164324
0.769238 0.762783 0.172091
0.796384 0.769314 0.181338
0.820676 0.775097 0.195514
0.841382 0.78024 0.210971
0.861082 0.785367 0.232181
0.879088 0.790066 0.252323
0.893233 0.79411 0.271687
0.906035 0.798077 0.291356
0.916671 0.801968 0.311467
0.0217899 0.623621 0.288121
0.0238804 0.630381 0.291966
0.024445 0.633265 0.28748
0.0240787 0.634348 0.275273
0.0235142 0.635615 0.259709
0.0242008 0.637476 0.241566
0.0256199 0.640253 0.219196
0.0278935 0.642329 0.195163
0.0296483 0.641749 0.169116
0.0320287 0.640375 0.141253
0.035935 0.640375 0.114702
0.0448463 0.643381 0.0881056
0.0778973 0.651438 0.066453
0.165927 0.668894 0.0685588
0.261601 0.684489 0.0881056
0.334661 0.696971 0.104433
0.400137 0.706447 0.117617
0.488762 0.713512 0.129503
0.567926 0.725246 0.142718
0.634241 0.740322 0.151934
0.669657 0.75082 0.156924
0.694972 0.759548 0.161532
0.717296 0.766949 0.169833
0.739498 0.774014 0.17763
0.765515 0.781765 0.184619
0.790494 0.788983 0.192187
0.813626 0.794842 0.205722
0.836622 0.800183 0.21973
0.855711 0.80499 0.241138
0.873747 0.80972 0.262486
0.888243 0.813779 0.283375
0.901518 0.817853 0.303334
0.91194 0.821698 0.324407
0.0348058 0.661067 0.326711
0.0368505 0.666789 0.329763
0.0370794 0.669139 0.323659
0.0362097 0.669932 0.311299
0.0351263 0.670649 0.295781
0.0342412 0.672206 0.277989
0.0343633 0.67393 0.258106
0.0357671 0.676173 0.235233
0.0376898 0.675044 0.2103
0.0400702 0.673762 0.180484
0.0445563 0.673075 0.149874
0.0536355 0.674266 0.121965
0.0717021 0.677806 0.0891432
0.142046 0.689509 0.0826276
0.251179 0.705577 0.095552
0.333776 0.71667 0.113344
0.397375 0.724483 0.124865
0.46865 0.729992 0.134173
0.546548 0.738125 0.147448
0.611475 0.751904 0.161044
0.669337 0.766827 0.16939
0.69926 0.776593 0.17499
0.720897 0.784421 0.18085
0.741894 0.791211 0.189059
0.763043 0.798169 0.197345
0.787213 0.805219 0.204898
0.80972 0.811521 0.214755
0.831327 0.817075 0.230594
0.851484 0.822065 0.253071
0.868833 0.826673 0.273762
0.883543 0.831128 0.29546
0.897307 0.835111 0.318257
0.9075 0.839063 0.338781
0.0466316 0.690806 0.359335
0.0482948 0.695247 0.360922
0.0485237 0.696712 0.354696
0.0475776 0.697322 0.342245
0.0463569 0.697673 0.326787
0.0450752 0.698589 0.309209
0.0440375 0.700252 0.289265
0.0441901 0.701686 0.266987
0.0454414 0.70135 0.243381
0.0483558 0.699947 0.216388
0.0529641 0.698436 0.183886
0.0620279 0.699184 0.152209
0.0778515 0.701808 0.120241
0.113771 0.7084 0.090898
0.222126 0.721004 0.100786
0.327855 0.733089 0.120256
0.398093 0.740322 0.132738
0.462181 0.744595 0.14023
0.527749 0.75111 0.150622
0.594141 0.762692 0.166827
0.651225 0.777295 0.179934
0.702129 0.791455 0.187518
0.725689 0.799878 0.193866
0.745327 0.807004 0.200504
0.765942 0.813733 0.208606
0.785397 0.820401 0.217411
0.807126 0.826398 0.226169
0.827314 0.831495 0.242329
0.84744 0.836759 0.263722
0.865034 0.84126 0.286397
0.880903 0.84593 0.311223
0.893278 0.849821 0.333394
0.903975 0.853178 0.355871
0.0571756 0.715114 0.390433
0.0579385 0.718288 0.390112
0.0577554 0.719081 0.381704
0.0567788 0.719188 0.368444
0.0559548 0.719738 0.353231
0.0548562 0.720577 0.335714
0.0535439 0.721935 0.316564
0.0527657 0.723201 0.294377
0.0537118 0.722896 0.271489
0.0564889 0.721325 0.245274
0.0606241 0.719936 0.21503
0.068452 0.719966 0.183154
0.082948 0.721706 0.148409
0.112398 0.725963 0.115694
0.19205 0.735622 0.108034
0.312215 0.746593 0.12604
0.395331 0.753887 0.140276
0.46511 0.758083 0.148531
0.520882 0.763043 0.156985
0.578668 0.771939 0.170932
0.635752 0.78555 0.187366
0.685161 0.799969 0.198825
0.729046 0.813016 0.205844
0.750423 0.821027 0.212863
0.769543 0.827878 0.21944
0.787762 0.83415 0.227817
0.805905 0.839918 0.237064
0.825101 0.844739 0.254627
0.844144 0.849729 0.273411
0.861326 0.854124 0.299977
0.877775 0.858213 0.325841
0.890715 0.861753 0.350317
0.901274 0.864759 0.373648
0.0658427 0.734981 0.418448
0.0667124 0.73698 0.416587
0.0664073 0.737591 0.406958
0.0653086 0.737697 0.393332
0.0642405 0.73814 0.376944
0.0631571 0.739147 0.359701
0.0619516 0.740139 0.340276
0.060853 0.741039 0.317723
0.061677 0.740887 0.29482
0.06392 0.73962 0.270665
0.0678264 0.738094 0.241856
0.075227 0.737697 0.210513
0.0882277 0.73875 0.175051
0.109316 0.740887 0.137301
0.177447 0.748531 0.121263
0.282948 0.75819 0.130098
0.39556 0.766323 0.148348
0.465476 0.769528 0.156435
0.522271 0.773953 0.164477
0.569421 0.78114 0.175906
0.622339 0.792523 0.192416
0.674281 0.807309 0.207431
0.718746 0.820981 0.217151
0.754559 0.832334 0.224033
0.773358 0.839216 0.231006
0.791272 0.845548 0.238193
0.808637 0.850935 0.248875
0.824094 0.855253 0.26276
0.841825 0.860014 0.283772
0.85864 0.864302 0.312444
0.874876 0.868376 0.341375
0.886992 0.871458 0.365789
0.898909 0.874052 0.393393
0.0732433 0.750668 0.445869
0.0736095 0.752255 0.443427
0.0729686 0.752499 0.431281
0.0722362 0.752911 0.416052
0.071519 0.753201 0.39939
0.0701762 0.753826 0.381201
0.0690166 0.75491 0.361013
0.067628 0.755825 0.339193
