bundles/resolve-cinematic-luts/Phantom Luts/P4k & P6K Phntm Film LUTs - V6/P4K/Gen 4 Colour/Standard (No WB Offset)/P4k Bleach Gen4.cube
TITLE "Generated by Resolve"
LUT_3D_SIZE 9
0.0153353 0.0269474 0.0176242
0.0226444 0.0277104 0.0189212
0.0813611 0.032166 0.0239261
0.176928 0.0386511 0.0302586
0.314397 0.049073 0.0407263
0.491203 0.0575113 0.0520638
0.612268 0.0761883 0.0745251
0.71577 0.0960555 0.0985428
0.794705 0.120165 0.124285
0.0185092 0.0396429 0.0224308
0.0315099 0.048127 0.02327
0.107607 0.0596475 0.0277409
0.235157 0.0637064 0.0372931
0.379568 0.068101 0.0437781
0.537972 0.074815 0.0498512
0.644343 0.0883192 0.0626535
0.731502 0.106355 0.0784314
0.801907 0.133211 0.100298
0.0306554 0.15523 0.0614786
0.0324254 0.168521 0.0319524
0.133715 0.185138 0.0356909
0.31397 0.192172 0.0301823
0.509651 0.183154 0.048661
0.633585 0.199069 0.0768749
0.735012 0.236027 0.109438
0.828336 0.288731 0.155047
0.90309 0.351583 0.206119
0.0216068 0.291402 0.0872511
0.0215 0.306172 0.0523995
0.0400854 0.312291 0.0173342
0.269017 0.36524 0.0327611
0.523125 0.412955 0.0298161
0.701839 0.46537 0.0873579
0.798321 0.510643 0.144411
0.867475 0.54902 0.18584
0.911513 0.57969 0.217792
0 0.426474 0.125124
0.000579843 0.442054 0.0897536
0.00715648 0.449851 0.0236057
0.125444 0.486458 0.0123293
0.506127 0.592889 0.071931
0.67042 0.63743 0.0961318
0.79855 0.664179 0.141588
0.881498 0.684749 0.205432
0.920043 0.706783 0.247456
0.00941482 0.582086 0.245884
0.0135653 0.595758 0.21738
0.0214084 0.602914 0.12781
0.0874495 0.622492 0.0452583
0.414908 0.686564 0.111162
0.666804 0.732769 0.142916
0.769238 0.762783 0.172091
0.861082 0.785367 0.232181
0.916671 0.801968 0.311467
0.0571756 0.715114 0.390433
0.0559548 0.719738 0.353231
0.0537118 0.722896 0.271489
0.082948 0.721706 0.148409
0.395331 0.753887 0.140276
0.635752 0.78555 0.187366
0.769543 0.827878 0.21944
0.844144 0.849729 0.273411
0.901274 0.864759 0.373648
0.0836957 0.772 0.492851
0.0809644 0.77261 0.440055
0.080354 0.774197 0.354437
0.103029 0.771099 0.250248
0.340475 0.787137 0.19498
0.612299 0.807843 0.228885
0.765408 0.854429 0.278248
0.844327 0.878172 0.325597
0.89337 0.889509 0.44892
0.0898909 0.778973 0.530495
0.085893 0.777752 0.475319
0.0900893 0.777981 0.392554
0.116777 0.777752 0.305928
0.326055 0.785931 0.271595
0.606073 0.803449 0.301228
0.740459 0.844038 0.356161
0.845182 0.878477 0.400534
0.892653 0.89102 0.482307
0.0157626 0.0270848 0.0211032
0.0228275 0.0279698 0.0231479
0.0870375 0.0326238 0.0427863
0.19353 0.0373083 0.0548714
0.334432 0.0440681 0.0691386
0.507744 0.0480201 0.0810864
0.622141 0.0643626 0.105486
0.725078 0.084947 0.139925
0.800702 0.106233 0.176944
0.0176547 0.0355077 0.0238346
0.0285344 0.0416114 0.0301976
0.125414 0.0457771 0.0372015
0.256168 0.0502022 0.0404212
0.407492 0.0569619 0.0495308
0.554894 0.068452 0.0643778
0.66389 0.0866255 0.0866102
0.750576 0.106706 0.109789
0.812177 0.130343 0.134051
0.0279393 0.147097 0.085008
0.0302586 0.16289 0.0641794
0.134981 0.183429 0.0386664
0.34548 0.178698 0.0543526
0.527733 0.165133 0.0641489
0.647623 0.179675 0.0917983
0.746654 0.209537 0.124987
0.832944 0.251789 0.163638
0.902525 0.304402 0.211963
0.0197757 0.285939 0.12137
0.0202792 0.300496 0.0909133
0.024094 0.310277 0.0168307
0.271565 0.365103 0.0337835
0.553887 0.406531 0.0491646
0.719844 0.455009 0.11162
0.813214 0.498436 0.167758
0.883314 0.531136 0.213916
0.920073 0.561364 0.244221
0 0.42179 0.163348
0 0.435676 0.130266
0.00444038 0.447776 0.0436713
0.106188 0.481956 0.01178
0.506325 0.592111 0.0736706
0.681239 0.635615 0.102678
0.812818 0.659525 0.160433
0.88864 0.6795 0.230365
0.923995 0.70106 0.266819
0.00984207 0.576638 0.276997
0.011902 0.588876 0.253666
0.0175631 0.600397 0.161852
0.0479591 0.613275 0.0573434
0.387488 0.68278 0.110597
0.665309 0.730571 0.144854
0.77438 0.760372 0.174472
0.868208 0.781338 0.246342
0.921294 0.796338 0.330526
0.0572519 0.70837 0.423911
0.0571145 0.712749 0.388174
0.0521096 0.718013 0.30602
0.0720684 0.719432 0.18616
0.354589 0.750088 0.140993
0.618021 0.779736 0.186206
0.766064 0.824979 0.219532
0.844511 0.847074 0.273396
0.903059 0.861601 0.376638
0.085359 0.767575 0.525689
0.0829938 0.768231 0.483391
0.0785229 0.770397 0.392569
0.0916762 0.770199 0.281544
0.279271 0.782376 0.191791
0.593362 0.803204 0.221546
0.753048 0.849867 0.271458
0.840375 0.876295 0.315938
0.891325 0.888609 0.439963
0.0948196 0.780484 0.569131
0.0904707 0.778881 0.528572
0.0854047 0.777707 0.438041
0.103746 0.778119 0.341482
0.275349 0.7832 0.275486
0.56495 0.795987 0.291783
0.723842 0.838102 0.350225
0.83537 0.875792 0.392462
0.887343 0.889387 0.470008
0.0258793 0.0312963 0.07187
0.0488441 0.0314641 0.0670024
0.0979629 0.0331121 0.0768139
0.220447 0.0377356 0.116442
0.372702 0.0429847 0.135286
0.540291 0.0451972 0.160891
0.645441 0.0560311 0.194537
0.73901 0.0692302 0.236759
0.810224 0.0881361 0.285527
0.014725 0.0341497 0.0636301
0.0323491 0.032578 0.0922866
0.13106 0.0344396 0.0997177
0.279393 0.0404212 0.123873
0.450156 0.0432441 0.132906
0.581247 0.050782 0.152789
0.685237 0.0662699 0.182513
0.768673 0.0865949 0.217594
0.822766 0.10576 0.251789
0.0251621 0.140291 0.116762
0.0250248 0.149172 0.12488
0.158495 0.168215 0.154376
0.364874 0.163043 0.149294
0.555322 0.15053 0.137743
0.670878 0.15378 0.144778
0.762264 0.170291 0.163928
0.836179 0.201389 0.196872
0.871839 0.236683 0.231159
0.0179446 0.276844 0.175814
0.0170291 0.287205 0.168338
0.0320592 0.310109 0.122835
0.303273 0.372808 0.124239
0.608774 0.39176 0.160678
0.74583 0.429145 0.206058
0.850935 0.456886 0.252659
0.911482 0.490333 0.288914
0.9308 0.524605 0.31078
0 0.411673 0.222644
0 0.422019 0.210101
0 0.42945 0.132555
0.054078 0.466361 0.038056
0.502342 0.584939 0.101183
0.710231 0.624949 0.162356
0.836789 0.646036 0.237018
0.899931 0.666407 0.281437
0.930617 0.686458 0.326146
0.0108797 0.564095 0.32285
0.0125429 0.573709 0.311467
0.0102693 0.577691 0.246006
0.0230564 0.600656 0.116869
0.335286 0.668376 0.122423
0.657877 0.721965 0.157031
0.786328 0.751644 0.209751
0.884886 0.770077 0.283009
0.929168 0.784512 0.374792
0.0583658 0.696696 0.472938
0.0577707 0.699779 0.448707
0.0543526 0.702235 0.376959
0.0572671 0.713146 0.261158
0.246052 0.734752 0.161349
0.57435 0.765347 0.190494
0.757671 0.816907 0.221729
0.845823 0.840726 0.275288
0.907286 0.854856 0.38732
0.0883803 0.760616 0.562676
0.0854505 0.759838 0.537118
0.0813611 0.760616 0.470451
0.0803388 0.767361 0.345861
0.183124 0.773129 0.224521
0.548531 0.793042 0.225864
0.723507 0.838575 0.261295
0.832364 0.873014 0.298146
0.888869 0.884993 0.423514
0.102586 0.783261 0.609369
0.0988632 0.781384 0.58381
0.0924086 0.778851 0.525505
0.0902571 0.77789 0.401541
0.182666 0.779156 0.294255
0.470924 0.789136 0.281773
0.693523 0.82739 0.337255
0.813886 0.869413 0.377401
0.877592 0.8869 0.44625
0.0378424 0.0340124 0.144991
0.0719921 0.0341344 0.142
0.129107 0.034638 0.145449
0.243458 0.039826 0.178317
0.400595 0.0447547 0.233341
0.560891 0.0486763 0.27805
0.675425 0.0594797 0.324315
0.763775 0.0712444 0.381994
0.817929 0.0799268 0.449821
0.0113832 0.0341802 0.140887
0.05066 0.0359808 0.190692
0.158877 0.0375372 0.206683
0.305089 0.0429847 0.226368
0.478187 0.0454719 0.267094
0.612924 0.0532235 0.306523
0.714229 0.0646372 0.342718
0.785534 0.0748302 0.396063
0.82153 0.0819715 0.433524
0.0213169 0.122454 0.195926
0.0200809 0.121324 0.220432
0.158511 0.121019 0.305303
0.386725 0.121416 0.300389
0.567269 0.10634 0.310338
0.677424 0.109102 0.325017
0.767544 0.114717 0.340673
0.833143 0.127245 0.363836
0.861723 0.148318 0.401907
0.0165713 0.269902 0.235706
0.0154879 0.279164 0.24448
0.0551614 0.30367 0.271244
0.366567 0.365545 0.347127
0.619593 0.371466 0.353216
0.764721 0.402564 0.384054
0.877043 0.429938 0.410239
0.924987 0.45095 0.430823
0.929717 0.462669 0.44332
0 0.406683 0.279011
0 0.415061 0.277378
0.000167849 0.416571 0.255711
0.158038 0.508812 0.285542
0.550225 0.595697 0.331502
0.740795 0.614878 0.389334
0.847395 0.634974 0.422827
0.914199 0.651225 0.44976
0.934508 0.664347 0.464042
0.0124819 0.557275 0.378103
0.0148318 0.564599 0.374304
0.013901 0.561807 0.337926
0.0339513 0.583062 0.270588
0.32842 0.665171 0.274128
0.659373 0.712551 0.322255
0.821225 0.740001 0.381048
0.905638 0.755108 0.459403
0.935668 0.771267 0.481956
0.0615244 0.688258 0.520485
0.0615091 0.689052 0.509117
0.0587015 0.686748 0.468498
0.0596017 0.696452 0.37821
0.192813 0.716365 0.273671
0.542138 0.749233 0.283268
0.747723 0.803326 0.332723
0.859449 0.832151 0.38761
0.920256 0.846616 0.465919
0.093492 0.754635 0.597803
0.0915236 0.75259 0.582635
0.0877699 0.750103 0.547387
0.0850538 0.754238 0.464973
0.145876 0.765927 0.330037
0.433494 0.780972 0.293172
0.689509 0.819959 0.339101
0.826337 0.866316 0.371481
0.891447 0.881651 0.449912
0.112902 0.78526 0.646601
0.109499 0.783307 0.628946
0.104128 0.780285 0.596216
0.0980545 0.778393 0.525368
0.124849 0.778927 0.382895
0.361685 0.786664 0.3178
0.653773 0.815213 0.348318
0.792767 0.862013 0.392004
0.872404 0.885481 0.439948
0.0590982 0.0377356 0.244633
0.0958877 0.0378882 0.24802
0.177005 0.0396735 0.264179
0.282048 0.0426184 0.276661
0.435996 0.046128 0.312093
0.584924 0.0524147 0.375326
0.690044 0.0625772 0.469429
0.779034 0.07393 0.523888
0.825803 0.0830243 0.561028
0.0173648 0.0374304 0.251118
0.0771496 0.0401312 0.307836
0.207034 0.0428321 0.337179
0.338903 0.0454261 0.339315
0.510201 0.0479438 0.367239
0.631556 0.0570382 0.435019
0.728069 0.0675517 0.506569
0.800183 0.0775311 0.540276
0.827939 0.0844282 0.562448
0.0151369 0.0942092 0.28333
0.0142824 0.0890516 0.305684
0.144961 0.0605631 0.410468
0.365789 0.0675669 0.414191
0.544091 0.0631418 0.410086
0.648264 0.0653391 0.446677
0.740948 0.0751659 0.493034
0.805554 0.0814679 0.516274
0.833631 0.0926223 0.54638
0.016846 0.249241 0.337697
0.0159152 0.253819 0.357382
0.0531167 0.257206 0.429664
0.389441 0.292622 0.553674
0.642847 0.312734 0.566629
0.784024 0.331762 0.60354
0.894606 0.350164 0.621378
0.941238 0.361563 0.638239
0.947234 0.370245 0.655222
0 0.401999 0.345312
0 0.411002 0.351904
0 0.409918 0.351125
0.214282 0.518547 0.47567
0.595376 0.580896 0.559594
0.740444 0.590982 0.573465
0.84892 0.606561 0.58587
0.914 0.619776 0.600046
0.930724 0.62945 0.610239
0.0138399 0.554788 0.43978
0.016907 0.561395 0.4448
0.0171206 0.556588 0.425772
0.101671 0.590936 0.446464
0.461143 0.681376 0.547631
0.692592 0.715068 0.559976
0.833799 0.727169 0.599451
0.908339 0.742687 0.617487
0.942885 0.756313 0.630442
0.0641031 0.682353 0.562341
0.0645457 0.682109 0.5561
0.0628519 0.676844 0.534371
0.0725261 0.679118 0.500938
0.299504 0.721233 0.50312
0.575738 0.757244 0.505684
0.764294 0.802625 0.5608
0.887953 0.824353 0.6
0.93611 0.837797 0.632074
0.0990463 0.749508 0.627512
0.0971847 0.746777 0.616449
0.0945144 0.742092 0.596231
0.0927443 0.740719 0.56231
0.228733 0.751461 0.508034
0.480873 0.780865 0.492866
0.699168 0.821088 0.541939
0.833783 0.86334 0.576288
0.907973 0.881254 0.608743
0.123964 0.785824 0.673884
0.120119 0.782269 0.661341
0.115572 0.777966 0.640711
0.111086 0.775296 0.6056
0.186343 0.777691 0.547936
0.417899 0.796628 0.513817
0.642832 0.825452 0.535576
0.798733 0.870146 0.583871
0.883177 0.894743 0.59736
0.0842908 0.0411078 0.342473
0.129229 0.0419165 0.357961
0.225452 0.0441901 0.384604
0.335607 0.0495613 0.400946
0.475639 0.0465553 0.421057
0.604776 0.0546578 0.480308
0.711757 0.0671855 0.542
0.792782 0.079057 0.606867
0.836027 0.0878614 0.642649
0.0486 0.0416114 0.370642
0.112352 0.0433509 0.433677
0.253758 0.0459907 0.475486
0.394629 0.0503548 0.479011
0.536004 0.0488441 0.489174
0.649744 0.0599985 0.530968
0.746899 0.0728313 0.575936
0.812467 0.0831159 0.626459
0.837705 0.0890974 0.647898
0.0110018 0.0583963 0.353368
0.00949111 0.0471199 0.366018
0.155352 0.04477 0.492256
0.364416 0.0491951 0.509117
0.531334 0.0489815 0.503166
0.652995 0.0608835 0.534966
0.74757 0.0732738 0.571817
0.81207 0.0831311 0.617304
0.836027 0.0888533 0.634363
0.0153811 0.219516 0.452155
0.0150912 0.221576 0.476173
0.0502632 0.21236 0.539193
0.404425 0.216907 0.650187
0.652827 0.241077 0.66009
0.78323 0.263752 0.682811
0.87863 0.267292 0.708507
0.929656 0.27837 0.724376
0.938323 0.291814 0.739727
0.00184634 0.394797 0.459022
0.00125124 0.401282 0.472801
0.00444038 0.390753 0.497581
0.212024 0.47863 0.597696
0.618067 0.546883 0.685237
0.762051 0.565484 0.693126
0.871107 0.574639 0.702358
0.928359 0.585489 0.706737
0.942336 0.593652 0.717845
0.0161593 0.553506 0.502678
0.0190127 0.56051 0.510307
0.0187533 0.556069 0.50544
0.0924239 0.583963 0.537102
0.517327 0.680842 0.649516
0.721355 0.703319 0.682322
0.833951 0.709529 0.693202
0.908537 0.721035 0.703166
0.940688 0.731899 0.713283
0.0664073 0.680919 0.594705
0.0670939 0.680293 0.591974
0.0667277 0.673945 0.579843
0.098909 0.676097 0.573968
0.413184 0.733822 0.638972
0.656672 0.777737 0.677943
0.797528 0.807782 0.685023
0.897627 0.817624 0.709926
0.939773 0.828992 0.723629
0.102983 0.746685 0.654383
0.102388 0.74342 0.647578
0.103105 0.73843 0.634195
0.118196 0.735958 0.616358
0.3308 0.761929 0.63212
0.585275 0.80087 0.657206
0.726528 0.838376 0.670008
0.855817 0.870497 0.691249
0.928191 0.88191 0.717876
0.132021 0.782895 0.692454
0.128923 0.779171 0.682994
0.126207 0.774762 0.669261
0.127825 0.770932 0.648219
0.278599 0.778988 0.638788
0.532052 0.811917 0.655497
0.680476 0.849607 0.666102
0.816083 0.884398 0.697047
0.901183 0.905425 0.704845
0.118715 0.0438392 0.455802
0.172 0.0448005 0.482109
0.274434 0.0472572 0.509819
0.39527 0.0505379 0.52134
0.522148 0.0498207 0.529244
0.626688 0.0578622 0.562051
0.729351 0.0716411 0.608133
0.811566 0.0850233 0.651514
0.846143 0.0925765 0.688106
0.0888838 0.0445869 0.498909
0.160647 0.0469062 0.54464
0.303624 0.0500496 0.572457
0.456168 0.0511482 0.572183
0.56849 0.0519265 0.575982
0.667277 0.0637064 0.602533
0.762264 0.0773175 0.638376
0.829053 0.0887922 0.669322
0.847959 0.0938888 0.695094
0.00802625 0.0417334 0.429892
0.0230869 0.0432898 0.474784
0.210605 0.0491035 0.581842
0.418555 0.0515755 0.594842
0.562173 0.052018 0.58793
0.668101 0.0643778 0.610239
0.763455 0.0779889 0.639765
0.827878 0.0888991 0.665232
0.84712 0.0937514 0.689906
0.0141146 0.191196 0.53344
0.0142214 0.190677 0.550362
0.0554665 0.168429 0.608179
0.414435 0.148928 0.701915
0.64477 0.163912 0.707485
0.759136 0.178622 0.71873
0.853758 0.19057 0.730922
0.908339 0.209628 0.748638
0.911238 0.199985 0.763897
0.0068513 0.380835 0.552041
0.00682078 0.38613 0.563439
0.0118257 0.372168 0.586954
0.210575 0.443687 0.675578
0.647334 0.516243 0.781781
0.79762 0.547112 0.786725
0.891844 0.560098 0.794842
0.941146 0.565942 0.805524
0.952026 0.572686 0.812573
0.0134279 0.554177 0.564828
0.0165713 0.559655 0.57409
0.0204623 0.55259 0.580941
0.105943 0.577203 0.631281
0.520714 0.662348 0.725032
0.739162 0.683986 0.767361
0.845655 0.693645 0.772473
0.916503 0.701808 0.776776
0.946151 0.710414 0.786831
0.0689097 0.679088 0.631693
0.0694438 0.67866 0.631312
0.0683604 0.672694 0.625452
0.0922408 0.675883 0.628855
0.404776 0.729381 0.689113
0.689738 0.781888 0.750088
0.819272 0.797574 0.772152
0.898939 0.802976 0.782681
0.940383 0.810849 0.792172
0.105638 0.745525 0.675654
0.105486 0.742351 0.670665
0.10753 0.73817 0.662348
0.133715 0.735256 0.654429
0.374289 0.766476 0.687266
0.65449 0.818708 0.744595
0.785855 0.856657 0.781109
0.878492 0.872633 0.776318
0.932982 0.877256 0.794827
0.142687 0.78172 0.707454
0.141527 0.778439 0.701289
0.146471 0.773846 0.692073
0.165972 0.769482 0.679774
0.343862 0.786801 0.692119
0.611292 0.831449 0.736584
0.746395 0.87451 0.773388
0.841337 0.896513 0.783429
0.915129 0.910658 0.785046
0.160464 0.0469825 0.546273
0.22295 0.0487526 0.569802
0.325002 0.0510414 0.589532
0.456992 0.051667 0.594934
0.566537 0.0558938 0.603983
0.653025 0.0608225 0.625681
0.747295 0.0761425 0.661067
0.827756 0.0901656 0.701091
0.855573 0.0970016 0.725429
0.137682 0.0484169 0.584222
0.21561 0.0512093 0.615747
0.35259 0.0534066 0.634546
0.503655 0.0532082 0.634333
0.603723 0.0586709 0.639918
0.68925 0.0667277 0.660471
0.775799 0.0818189 0.687068
0.841993 0.0936446 0.715282
0.857252 0.0979171 0.730663
0.0131991 0.0439307 0.515023
0.0643626 0.0469673 0.570825
0.267216 0.0535744 0.644541
0.469123 0.0531319 0.651743
0.594476 0.0563668 0.649393
0.68632 0.0668956 0.666606
0.776654 0.0823835 0.691478
0.840284 0.0938277 0.713802
0.856641 0.0981765 0.726223
0.0142061 0.163745 0.583978
0.0144198 0.160906 0.597559
0.0695964 0.131121 0.653758
0.420325 0.101854 0.725429
0.632013 0.111788 0.72903
0.740673 0.12961 0.738842
0.827085 0.137652 0.747051
0.888365 0.152911 0.762737
0.898955 0.163684 0.77142
0.0109102 0.372808 0.611261
0.0107576 0.376623 0.620813
0.0196841 0.36231 0.644907
0.239857 0.423651 0.74522
0.678538 0.488884 0.84567
0.829953 0.52575 0.851255
0.909651 0.54345 0.849577
0.949828 0.551766 0.852583
0.958694 0.555398 0.857572
0.0151217 0.552331 0.618997
0.0167391 0.554681 0.627054
0.027512 0.546761 0.63949
0.150118 0.579019 0.699702
0.52018 0.648539 0.779232
0.760494 0.672068 0.833158
0.871489 0.688182 0.834028
0.927947 0.696986 0.842145
0.954162 0.702571 0.848569
0.068864 0.680537 0.669078
0.0695964 0.678965 0.669917
0.0714275 0.672038 0.670359
0.112886 0.674281 0.685328
0.423117 0.720729 0.746975
0.692393 0.769924 0.802625
0.833585 0.78262 0.825223
0.90222 0.789654 0.826886
0.9411 0.796094 0.828794
0.108324 0.744808 0.698024
0.108309 0.741604 0.694789
0.110246 0.737453 0.690929
0.132601 0.735271 0.688899
0.365606 0.763195 0.719188
0.652735 0.816648 0.777111
0.809308 0.858808 0.824018
0.889509 0.865553 0.832135
0.932509 0.868879 0.837934
0.149218 0.781628 0.720989
0.148257 0.778103 0.715496
0.155428 0.773785 0.708843
0.176349 0.769635 0.700969
0.364569 0.788922 0.719692
0.639139 0.838987 0.772992
0.790997 0.885847 0.825284
0.873671 0.902251 0.842908
0.924178 0.909865 0.835264
0.212329 0.0509804 0.613184
0.276066 0.0529488 0.63267
0.377523 0.0539101 0.64651
0.506874 0.0538491 0.651606
0.602625 0.059617 0.660151
0.682033 0.0650645 0.678355
0.769802 0.081239 0.708385
0.839719 0.094728 0.737346
0.863233 0.101015 0.759274
0.1944 0.0529641 0.64741
0.270619 0.0552071 0.669749
0.404715 0.055375 0.681514
0.540871 0.0562142 0.68365
0.63328 0.0620279 0.688228
0.712169 0.0700389 0.70396
0.792554 0.0859693 0.727321
0.85182 0.0977798 0.749172
0.864347 0.102068 0.763378
0.0457618 0.0478065 0.593042
0.117754 0.0514076 0.637964
0.319265 0.0569314 0.691295
0.510826 0.0555581 0.695537
0.624369 0.0623789 0.697627
0.708125 0.0701762 0.708614
0.790051 0.0860304 0.72961
0.849668 0.0978714 0.748882
0.864027 0.102205 0.75993
0.0137789 0.137957 0.619501
0.0146029 0.133043 0.630793
0.0909285 0.0964828 0.68011
0.434302 0.0755169 0.735698
0.618112 0.0754559 0.732998
0.725292 0.0944839 0.743297
0.81677 0.118379 0.764492
0.871519 0.123125 0.7729
0.887617 0.136675 0.785183
0.0135195 0.368246 0.654551
0.0142519 0.369802 0.664424
0.031342 0.356374 0.690074
0.300664 0.415488 0.806348
0.712535 0.466789 0.883879
0.856123 0.503853 0.888289
0.92459 0.523873 0.883024
0.956451 0.535515 0.881819
0.963272 0.539376 0.88275
0.0238346 0.55314 0.661219
0.0262455 0.554086 0.667903
0.0382696 0.545647 0.679789
0.193317 0.584146 0.745922
0.545159 0.639704 0.821469
0.785183 0.664836 0.872526
0.895689 0.682506 0.87396
0.938811 0.694194 0.877012
0.960281 0.700038 0.881041
0.0695354 0.680537 0.699626
0.0709239 0.677653 0.701747
0.0791943 0.669566 0.706493
0.159884 0.673701 0.730877
0.465278 0.715663 0.786664
0.693782 0.76022 0.834913
0.854994 0.774685 0.864118
0.914214 0.783841 0.867124
0.946883 0.78912 0.869825
0.109483 0.745403 0.71928
0.109285 0.741543 0.718059
0.113405 0.736858 0.717205
0.15111 0.734478 0.722026
0.382361 0.760937 0.758312
0.661204 0.811734 0.814755
0.812024 0.852155 0.853086
0.895003 0.855665 0.860655
0.931594 0.860471 0.858106
0.157671 0.781521 0.734813
0.157366 0.777874 0.731243
0.162676 0.77348 0.726558
0.18088 0.769497 0.722576
0.365179 0.787717 0.742031
0.635111 0.836286 0.792828
0.792416 0.886091 0.843885
0.886854 0.902251 0.865156
0.928954 0.905791 0.867384
