bundles/resolve-cinematic-luts/Phantom Luts/P4k & P6K Phntm Film LUTs - V6/P4K/Gen 4 Colour/Standard (No WB Offset)/P4k Eastman Gen4-Legacy.cube
TITLE "Generated by Resolve"
LUT_3D_SIZE 33
0.0398871 0.0390021 0.0390021
0.0399023 0.0390021 0.0390021
0.0449226 0.0390021 0.0390021
0.0533303 0.0390021 0.0390021
0.0653239 0.0390021 0.0398871
0.0796674 0.0390021 0.0427253
0.0951247 0.0390021 0.0436255
0.112978 0.0390021 0.043946
0.13341 0.0390021 0.0452583
0.156817 0.0408179 0.0454414
0.182757 0.0436561 0.0437934
0.210056 0.0462959 0.0409857
0.238254 0.048661 0.0390021
0.266178 0.052369 0.0390021
0.293721 0.0551003 0.0403601
0.321309 0.0580453 0.0418402
0.346883 0.0623178 0.042359
0.37232 0.0675517 0.0433509
0.396506 0.0732433 0.0442512
0.419623 0.0793317 0.0449531
0.43888 0.0852674 0.0458839
0.458244 0.0918593 0.0467994
0.480095 0.0982834 0.0478523
0.503014 0.105257 0.049546
0.525887 0.112795 0.0531014
0.548867 0.120409 0.0579232
0.567956 0.127581 0.0642863
0.583444 0.134096 0.071107
0.594339 0.139315 0.0778668
0.597452 0.143038 0.0836957
0.597009 0.146059 0.0872358
0.595651 0.148516 0.0902266
0.597665 0.150103 0.0934157
0.0393835 0.0390021 0.0390021
0.0397192 0.0390021 0.0390021
0.0413062 0.0390021 0.0390021
0.0506752 0.0390021 0.0390021
0.0602579 0.0390021 0.0395972
0.0732586 0.0390021 0.0428321
0.0876783 0.0390021 0.0448463
0.104387 0.0390021 0.0464637
0.122805 0.0413825 0.0473793
0.144915 0.0443427 0.0476387
0.169818 0.0470588 0.0455329
0.197299 0.0495918 0.0425574
0.225895 0.0516518 0.0392462
0.255589 0.0550393 0.0390021
0.284337 0.0580301 0.0394598
0.312139 0.0615549 0.0405432
0.338994 0.0648203 0.0411688
0.364721 0.0696422 0.0420539
0.389029 0.0747845 0.0429236
0.411795 0.0801404 0.043473
0.431266 0.0858778 0.0445258
0.451148 0.0920424 0.0454414
0.473396 0.0992294 0.0461585
0.495628 0.105745 0.0471504
0.518395 0.112871 0.0495003
0.539925 0.119661 0.0530251
0.560189 0.127291 0.0586099
0.576074 0.133883 0.0649424
0.586496 0.138888 0.0707256
0.589105 0.142962 0.0750134
0.587488 0.145129 0.0770886
0.585458 0.147997 0.0795911
0.587243 0.149813 0.082948
0.0430304 0.0390021 0.0390021
0.0427558 0.0390021 0.0390021
0.0438697 0.0390021 0.0390021
0.0510414 0.0390021 0.0390021
0.0584878 0.0390021 0.0404212
0.0710918 0.0390021 0.0436713
0.0847944 0.0404517 0.046067
0.0996719 0.0420996 0.0474861
0.116732 0.0449073 0.0489509
0.13817 0.0472725 0.0490425
0.16289 0.0491493 0.0474098
0.190707 0.0514076 0.0444648
0.218158 0.0539864 0.0411078
0.246235 0.0576638 0.0390021
0.274205 0.0613565 0.0390021
0.301259 0.0657969 0.0398108
0.329076 0.0705272 0.0406195
0.3561 0.0741436 0.0415808
0.381994 0.0789807 0.0423896
0.407065 0.0847028 0.0432441
0.427497 0.0901656 0.0441138
0.44828 0.0959335 0.0450904
0.469551 0.102037 0.0456855
0.492332 0.108537 0.0465553
0.514656 0.115511 0.0485695
0.535927 0.122042 0.0514992
0.555795 0.128756 0.0553445
0.571862 0.135561 0.0615091
0.581949 0.140673 0.0670176
0.585626 0.144671 0.0712749
0.582635 0.146288 0.0722057
0.577325 0.149554 0.07393
0.571649 0.153155 0.0754406
0.0474403 0.0475776 0.0486
0.0466926 0.0474556 0.0472267
0.0486305 0.0466621 0.0452888
0.0528115 0.0470436 0.0446784
0.0616007 0.0481422 0.0456855
0.0747387 0.049424 0.0477913
0.0897078 0.0502785 0.0497292
0.103563 0.0514382 0.0509499
0.119448 0.0536507 0.0521859
0.138521 0.0549325 0.0519112
0.162173 0.0552529 0.0497139
0.189105 0.0559854 0.0465248
0.216968 0.0579843 0.0433051
0.24477 0.0606241 0.0413519
0.270832 0.0641337 0.0396582
0.296117 0.0678874 0.0396429
0.322789 0.0725261 0.0403601
0.34966 0.0777752 0.0413214
0.375296 0.0840009 0.0421149
0.399649 0.0905318 0.0426032
0.421302 0.095613 0.0437171
0.442481 0.101732 0.0442359
0.465019 0.107591 0.045182
0.488991 0.114137 0.0469215
0.51223 0.120623 0.0490425
0.535073 0.127718 0.0522927
0.556222 0.134813 0.0568704
0.571923 0.140734 0.0619821
0.583703 0.146609 0.0682536
0.589334 0.151476 0.0736706
0.587427 0.153185 0.0748302
0.581445 0.156283 0.0762798
0.574899 0.159167 0.0772869
0.0521401 0.0645914 0.0561532
0.0510719 0.0647135 0.0538796
0.0518654 0.0636912 0.0510262
0.056733 0.06392 0.050782
0.0648661 0.0653849 0.0508125
0.0778668 0.0659037 0.0506142
0.0934768 0.0657359 0.0523842
0.108995 0.0657359 0.0541543
0.126253 0.0645304 0.0548714
0.144244 0.0655528 0.0545663
0.167727 0.0660258 0.053315
0.194369 0.0659953 0.0502937
0.223209 0.0665141 0.0473182
0.252308 0.068513 0.0451362
0.278889 0.0716716 0.043473
0.303792 0.0750286 0.0420996
0.327825 0.0793164 0.0413672
0.35198 0.0837415 0.0416571
0.374884 0.0887007 0.0420539
0.397818 0.0941024 0.042771
0.420584 0.10042 0.0433509
0.442451 0.106783 0.0440833
0.463447 0.113039 0.0453193
0.487068 0.120439 0.047013
0.508995 0.127092 0.0500954
0.533089 0.1355 0.0544747
0.555856 0.143404 0.0599985
0.574639 0.150698 0.0661021
0.589181 0.157 0.0726329
0.596201 0.1617 0.0775006
0.595422 0.163928 0.0797742
0.590234 0.167102 0.0816205
0.584375 0.170596 0.0832227
0.0546426 0.0808576 0.0616465
0.0534218 0.0816205 0.0587625
0.0534371 0.0809033 0.0558633
0.0570993 0.0805676 0.0537423
0.0639963 0.08159 0.0543832
0.0778363 0.082948 0.0539406
0.0909895 0.0829786 0.0526436
0.107485 0.0815747 0.0541238
0.128115 0.0797131 0.0550393
0.151644 0.0769665 0.056672
0.177722 0.0764477 0.0561379
0.203235 0.0770886 0.0543374
0.231067 0.0780041 0.0525826
0.260609 0.0796674 0.0499886
0.289265 0.0820935 0.0480049
0.31606 0.0855879 0.0463111
0.341085 0.0899519 0.0450904
0.365072 0.0948348 0.0446937
0.388708 0.100099 0.0450752
0.411215 0.105684 0.0454414
0.43473 0.111772 0.0465553
0.456718 0.117861 0.0476692
0.478584 0.124804 0.0496986
0.500175 0.131487 0.0515297
0.523095 0.139574 0.0543984
0.545434 0.147448 0.0588693
0.5691 0.156481 0.0653849
0.587777 0.163897 0.0716716
0.601404 0.170108 0.0769055
0.606989 0.17406 0.0804913
0.605692 0.176242 0.0814527
0.600977 0.179507 0.0833906
0.59556 0.183185 0.0852522
0.0550088 0.095201 0.0665599
0.0537881 0.0964065 0.0621653
0.057023 0.09514 0.0579995
0.058854 0.0941176 0.054551
0.065919 0.0947738 0.0540475
0.0768902 0.0964218 0.0556954
0.0968032 0.098024 0.0554055
0.109941 0.0978714 0.0541085
0.132097 0.096849 0.0554818
0.159518 0.0944839 0.0569772
0.189563 0.0898451 0.0589151
0.221317 0.0888838 0.057435
0.2495 0.0907454 0.0567941
0.27628 0.0928511 0.0558328
0.304509 0.09514 0.0534524
0.332738 0.0983291 0.0522774
0.359854 0.102754 0.0514687
0.386343 0.108476 0.0519265
0.411124 0.114473 0.0525063
0.436088 0.121111 0.0535286
0.460533 0.128359 0.0553902
0.484794 0.135058 0.0570993
0.509071 0.142885 0.0600443
0.533242 0.150759 0.0631571
0.558022 0.159442 0.0681468
0.581323 0.168032 0.0739605
0.604013 0.176913 0.0813153
0.623774 0.18471 0.0887617
0.63946 0.192264 0.0964218
0.646021 0.196506 0.100664
0.645792 0.198474 0.101884
0.640421 0.200046 0.101625
0.634546 0.20119 0.101534
0.0591745 0.112032 0.0722515
0.0584421 0.1131 0.0667582
0.0588235 0.113283 0.0623026
0.0588998 0.112215 0.057847
0.0620737 0.112062 0.0553902
0.0735332 0.114275 0.0568551
0.0920729 0.11725 0.0595407
0.113451 0.119432 0.0595102
0.126955 0.119875 0.0583963
0.157549 0.118379 0.0586557
0.192493 0.115862 0.0606851
0.229969 0.110475 0.0627451
0.266438 0.109972 0.0627604
0.297154 0.112322 0.0629282
0.323964 0.115541 0.0628214
0.352621 0.119203 0.0624552
0.381521 0.123171 0.0618601
0.410727 0.129442 0.0628824
0.438315 0.136522 0.0644999
0.463996 0.14342 0.0657969
0.48925 0.15111 0.0682841
0.514336 0.158618 0.0708476
0.53962 0.166674 0.074403
0.565789 0.17496 0.0784314
0.591302 0.183581 0.0843214
0.616754 0.193256 0.091783
0.639414 0.201938 0.0998245
0.6598 0.210788 0.107897
0.675563 0.218585 0.114534
0.682414 0.223911 0.118151
0.682231 0.225834 0.118715
0.677028 0.227176 0.11873
0.671427 0.228595 0.118639
0.0610971 0.133547 0.0784009
0.0603037 0.134874 0.0733501
0.0599985 0.135805 0.0674907
0.060029 0.135271 0.0629129
0.0615702 0.134218 0.0587472
0.0659037 0.135286 0.0568551
0.0820935 0.139208 0.059617
0.106279 0.144228 0.0637827
0.131106 0.148043 0.0641947
0.151705 0.15079 0.0631571
0.191043 0.149294 0.0631723
0.233448 0.147372 0.0656901
0.276295 0.144625 0.06981
0.315847 0.143359 0.0739147
0.350484 0.146059 0.0742504
0.379751 0.150271 0.0747539
0.408988 0.154986 0.0755474
0.43679 0.159854 0.0766766
0.465126 0.16492 0.0780346
0.492683 0.171359 0.080293
0.518624 0.178714 0.0828107
0.543709 0.186511 0.085771
0.569436 0.194705 0.0894026
0.595895 0.202945 0.0940261
0.622736 0.212055 0.099733
0.648875 0.221729 0.106996
0.671824 0.23064 0.114046
0.691752 0.239536 0.120974
0.708202 0.2477 0.126772
0.714504 0.25301 0.130007
0.714641 0.255253 0.131136
0.709819 0.256764 0.13109
0.704204 0.258473 0.13135
0.0624552 0.159823 0.0855116
0.0608682 0.161791 0.0804456
0.0593576 0.164309 0.0747082
0.0581064 0.164248 0.0691234
0.0573434 0.163073 0.0643626
0.0599374 0.162554 0.0606088
0.0684062 0.166232 0.0602884
0.0903334 0.172625 0.0642252
0.122713 0.180499 0.0707561
0.156832 0.187732 0.0719158
0.187335 0.193133 0.0705425
0.233677 0.192508 0.0710765
0.281971 0.194507 0.0747539
0.32845 0.194873 0.0805829
0.368917 0.193759 0.08542
0.40589 0.19173 0.0894331
0.436851 0.195331 0.0897383
0.464836 0.19971 0.0908064
0.491432 0.204562 0.0924544
0.519158 0.208804 0.0939498
0.546166 0.213962 0.0965286
0.571694 0.219654 0.0993362
0.597528 0.227848 0.103136
0.62388 0.235706 0.107485
0.651469 0.244678 0.112718
0.677684 0.253971 0.119158
0.700069 0.262333 0.125505
0.719707 0.270741 0.131792
0.734707 0.277775 0.136751
0.742443 0.283421 0.140688
0.742031 0.28542 0.141329
0.737438 0.287068 0.141436
0.732708 0.288975 0.141863
0.0668956 0.193194 0.0954147
0.0653849 0.195178 0.0907607
0.0634318 0.197803 0.0848554
0.0619059 0.198993 0.0782788
0.061265 0.198703 0.0729839
0.0603647 0.196399 0.0665446
0.0649119 0.198703 0.0650187
0.0780499 0.206546 0.0675059
0.107668 0.217685 0.0743114
0.149615 0.229175 0.0831159
0.197208 0.2392 0.0839094
0.233906 0.245655 0.0812238
0.284642 0.246738 0.0831159
0.333074 0.249149 0.0846571
0.379065 0.250706 0.0878614
0.420523 0.250401 0.0925307
0.458244 0.247547 0.0973068
0.489433 0.246006 0.102541
0.517815 0.248386 0.105119
0.545296 0.253574 0.106935
0.572534 0.258167 0.109346
0.598047 0.263249 0.111559
0.624674 0.267445 0.115572
0.650919 0.273304 0.119158
0.676295 0.279164 0.124041
0.702449 0.287022 0.129641
0.723705 0.294469 0.135775
0.741604 0.30164 0.141894
0.755673 0.308248 0.147311
0.763806 0.313909 0.151659
0.762966 0.315648 0.152438
0.759121 0.317342 0.152911
0.754467 0.319097 0.153246
0.075288 0.236133 0.111238
0.0735943 0.238254 0.106615
0.0723125 0.24123 0.102052
0.0716259 0.244358 0.0962997
0.0703593 0.244251 0.08925
0.0692607 0.242237 0.0817426
0.0687572 0.240772 0.0758068
0.0762646 0.247013 0.0758984
0.0994736 0.261265 0.082414
0.134371 0.274098 0.0911879
0.186786 0.286275 0.0990616
0.243183 0.294102 0.0937972
0.282506 0.300038 0.0893568
0.332265 0.300435 0.0902266
0.37995 0.301747 0.0902724
0.425925 0.30428 0.0917678
0.466896 0.304341 0.0958419
0.505043 0.302617 0.10161
0.537346 0.301762 0.107424
0.56759 0.301183 0.114443
0.594293 0.301991 0.120943
0.620661 0.305592 0.123934
0.64567 0.31043 0.126513
0.673121 0.314687 0.130144
0.698955 0.319615 0.135317
0.722683 0.323293 0.141131
0.741573 0.32871 0.147585
0.758007 0.334081 0.15433
0.770626 0.340078 0.159869
0.7794 0.345693 0.165164
0.778515 0.347677 0.166155
0.774975 0.348989 0.16669
0.770474 0.3505 0.167208
0.0884413 0.287831 0.134844
0.0866712 0.28957 0.129412
0.0848859 0.292241 0.124773
0.0838331 0.294621 0.118441
0.0847028 0.295735 0.110369
0.0839246 0.294682 0.102281
0.0828412 0.292882 0.093431
0.0829023 0.292561 0.0873884
0.098558 0.302846 0.0902419
0.125429 0.316732 0.097261
0.166217 0.329747 0.105745
0.232975 0.34023 0.107576
0.291646 0.346288 0.0978561
0.328466 0.351446 0.0933394
0.375616 0.350851 0.0941634
0.423148 0.35201 0.0939956
0.466636 0.353735 0.0940261
0.507317 0.354772 0.0970779
0.54464 0.353567 0.102861
0.577646 0.352956 0.109514
0.60827 0.352346 0.118364
0.635798 0.352651 0.126452
0.661982 0.353475 0.135424
0.687907 0.355566 0.144121
0.712596 0.359472 0.149081
0.735912 0.363424 0.154314
0.754894 0.367193 0.160067
0.770718 0.371679 0.16672
0.78349 0.376104 0.172274
0.791409 0.380438 0.176928
0.791409 0.383062 0.178454
0.788251 0.384558 0.179019
0.7841 0.386069 0.179522
0.099443 0.338445 0.158602
0.0978866 0.339498 0.153033
0.0962844 0.341405 0.147448
0.0955062 0.343923 0.140352
0.0951858 0.346609 0.132845
0.0946517 0.346548 0.124224
0.0938277 0.344518 0.114321
0.0933852 0.342565 0.103807
0.0973831 0.344976 0.099382
0.119768 0.357198 0.103288
0.15108 0.370916 0.110246
0.200778 0.382803 0.11696
0.278279 0.390982 0.110475
0.337423 0.394797 0.0977035
0.370199 0.398947 0.0940108
0.413626 0.39823 0.095613
0.459724 0.398245 0.0959793
0.501656 0.400381 0.0962997
0.539864 0.401236 0.100206
0.57641 0.40145 0.106737
0.609644 0.401282 0.11519
0.640299 0.401236 0.125399
0.669093 0.401633 0.13608
0.696696 0.40206 0.146288
0.721935 0.403006 0.155718
0.744839 0.404501 0.16463
0.764141 0.406195 0.173114
0.779507 0.410071 0.179706
0.791806 0.413748 0.184878
0.799466 0.417838 0.189258
0.8009 0.42092 0.19176
0.798337 0.422553 0.192157
0.794873 0.424292 0.193118
0.108141 0.388312 0.18584
0.106371 0.388891 0.179202
0.104845 0.390372 0.172335
0.104067 0.39234 0.164431
0.103853 0.395224 0.155581
0.103731 0.395941 0.146349
0.10309 0.393988 0.136126
0.102296 0.391546 0.124514
0.102525 0.390539 0.113252
0.116976 0.397528 0.111269
0.143648 0.410666 0.11606
0.180331 0.422705 0.12134
0.242344 0.431937 0.122576
0.32285 0.436561 0.108995
0.378531 0.439857 0.096376
0.408301 0.443366 0.0955367
0.448432 0.442557 0.099321
0.491325 0.441382 0.102159
0.53138 0.444129 0.104402
0.567956 0.444862 0.10782
0.603555 0.445991 0.114092
0.637125 0.446143 0.123171
0.669139 0.446555 0.134096
0.700038 0.446418 0.145876
0.726436 0.446632 0.157015
0.749874 0.447715 0.167452
0.769177 0.449393 0.176165
0.784604 0.452613 0.183261
0.796689 0.455924 0.189136
0.804623 0.459342 0.194339
0.806653 0.463325 0.197345
0.804013 0.464729 0.197711
0.800656 0.46598 0.198276
0.116197 0.439155 0.218952
0.114458 0.438666 0.210758
0.112795 0.439002 0.202014
0.111528 0.440009 0.19263
0.110796 0.441489 0.182574
0.110246 0.442817 0.171923
0.109514 0.44155 0.160693
0.10901 0.439521 0.148669
0.109346 0.437552 0.135119
0.112444 0.437507 0.122377
0.140352 0.448417 0.123003
0.171283 0.460105 0.126696
0.215518 0.470146 0.130373
0.289708 0.476951 0.125734
0.366186 0.479164 0.111421
0.415412 0.481544 0.100908
0.443412 0.48481 0.102373
0.480537 0.483665 0.106889
0.521141 0.482597 0.111345
0.558968 0.484718 0.113695
0.594507 0.485969 0.117479
0.628885 0.486549 0.123461
0.662135 0.487648 0.13225
0.694652 0.487617 0.143725
0.726146 0.487327 0.155703
0.750408 0.487892 0.167666
0.771023 0.489128 0.178424
0.786618 0.491539 0.187015
0.798138 0.495262 0.192966
0.806088 0.500023 0.197696
0.809155 0.504189 0.20119
0.806973 0.505211 0.201724
0.804181 0.506188 0.202396
0.124132 0.489296 0.255283
0.122057 0.487922 0.245762
0.120333 0.486854 0.236362
0.118761 0.486381 0.225864
0.117632 0.48632 0.212955
0.117113 0.487495 0.199329
0.116838 0.487068 0.186282
0.11632 0.484977 0.173663
0.116121 0.481987 0.15906
0.117372 0.479332 0.14255
0.12639 0.481788 0.131456
0.165927 0.495857 0.134127
0.206912 0.506096 0.139025
0.261128 0.513085 0.140703
0.337102 0.517937 0.130617
0.40557 0.518654 0.117876
0.44918 0.520974 0.108186
0.475166 0.524041 0.110552
0.509834 0.523064 0.115282
0.548119 0.522301 0.120638
0.58471 0.523186 0.12459
0.619425 0.524926 0.12958
0.653559 0.525414 0.135607
0.686687 0.526162 0.144045
0.718853 0.526131 0.155276
0.7476 0.525963 0.168246
0.770397 0.526696 0.180255
0.787869 0.528695 0.190677
0.799634 0.532082 0.19852
0.8065 0.536538 0.203372
0.809644 0.541131 0.206714
0.808377 0.542535 0.207202
0.806256 0.543297 0.207706
0.134218 0.5364 0.291524
0.131807 0.534539 0.283146
0.129534 0.533272 0.274922
0.128237 0.531838 0.263676
0.127214 0.530678 0.249241
0.126833 0.530449 0.23386
0.126818 0.530251 0.217304
0.12607 0.527489 0.202411
0.125521 0.52433 0.186603
0.125978 0.521737 0.170809
0.130953 0.52108 0.152743
0.155795 0.528267 0.146807
0.203418 0.54052 0.150713
0.25182 0.547341 0.1523
0.308766 0.553399 0.150576
0.379126 0.556954 0.13843
0.443015 0.556832 0.125551
0.481086 0.559335 0.117952
0.50576 0.561471 0.121126
0.538048 0.561379 0.126146
0.573526 0.560449 0.132036
0.60943 0.560449 0.137041
0.643381 0.561669 0.142046
0.67776 0.562371 0.14876
0.710735 0.562676 0.157565
0.740322 0.563287 0.169451
0.766674 0.563531 0.183108
0.787305 0.564523 0.196139
0.80058 0.566278 0.205371
0.808209 0.570123 0.211505
0.810803 0.57409 0.21529
0.81001 0.576745 0.216312
0.808423 0.577218 0.216678
0.147662 0.581323 0.328847
0.145296 0.579156 0.321477
0.143008 0.577478 0.313466
0.140887 0.575921 0.302846
0.139055 0.57435 0.28986
0.138354 0.572946 0.27364
0.138094 0.571542 0.254353
0.137881 0.56907 0.236347
0.137804 0.565469 0.218662
0.137362 0.56144 0.200107
0.139208 0.559487 0.182208
0.156359 0.563394 0.167849
0.193362 0.573465 0.164889
0.248997 0.581353 0.165927
0.300542 0.587121 0.164797
0.354025 0.592767 0.160388
0.420066 0.594614 0.147433
0.478279 0.593545 0.135515
0.511208 0.595697 0.129473
0.53463 0.597665 0.132753
0.564294 0.598611 0.138338
0.598077 0.597696 0.144076
0.632975 0.59678 0.150134
0.667338 0.597101 0.15642
0.701946 0.597696 0.164126
0.733043 0.59826 0.174792
0.760388 0.598932 0.1879
0.783475 0.599527 0.201663
0.799313 0.600366 0.213809
0.80882 0.602747 0.223407
0.811688 0.606226 0.228031
0.811109 0.60911 0.230076
0.80972 0.609125 0.23003
0.161059 0.624247 0.362905
0.159121 0.622126 0.356649
0.157183 0.62089 0.350149
0.154864 0.61883 0.340734
0.152667 0.617014 0.328878
0.151003 0.615198 0.313603
0.149981 0.612772 0.294026
0.150042 0.610086 0.274098
0.149248 0.605127 0.252613
0.149767 0.6009 0.232242
0.151171 0.59678 0.212497
0.15639 0.595697 0.193149
0.19147 0.605356 0.183047
0.243595 0.61503 0.182223
0.298909 0.619837 0.179629
0.346059 0.625513 0.177707
0.397864 0.62974 0.16997
0.460182 0.629801 0.157259
0.510887 0.629419 0.147005
0.540352 0.631418 0.142947
0.562356 0.633677 0.146273
0.589364 0.634928 0.151751
0.621592 0.634134 0.157641
0.657832 0.632441 0.164996
0.6925 0.631937 0.173205
0.72517 0.632532 0.183291
0.753292 0.633387 0.195621
0.777905 0.633722 0.209232
0.796185 0.63415 0.223392
0.807385 0.635569 0.235218
0.812284 0.637659 0.243427
0.811841 0.64036 0.246693
0.81059 0.640223 0.246235
0.175387 0.665827 0.395407
0.173449 0.66363 0.389395
0.171466 0.661799 0.382925
0.169604 0.659846 0.37499
0.167391 0.657755 0.364233
0.165316 0.65594 0.350713
0.164004 0.654063 0.334051
0.163531 0.650706 0.313787
0.162936 0.6448 0.291157
0.162875 0.638956 0.267247
0.164492 0.633967 0.244709
0.168963 0.632029 0.223972
0.18471 0.634394 0.205493
0.240558 0.647379 0.200214
0.298222 0.652384 0.19675
0.345617 0.657618 0.194568
0.388647 0.662501 0.190616
0.44007 0.665858 0.181811
0.498192 0.664988 0.169665
0.541573 0.664805 0.161074
0.569665 0.667262 0.158816
0.590494 0.669749 0.162676
0.61532 0.671763 0.16817
0.647211 0.670909 0.174289
0.682689 0.668559 0.183093
0.71809 0.666758 0.193133
0.745708 0.667292 0.205814
0.771664 0.667994 0.219669
0.793851 0.667796 0.232746
0.809644 0.666499 0.244419
0.817395 0.66685 0.253635
0.818875 0.66836 0.259724
0.817823 0.668956 0.260349
0.191485 0.706386 0.422232
0.189929 0.704219 0.416968
0.187945 0.701915 0.411109
0.186191 0.699657 0.40351
0.184222 0.697643 0.39411
0.181888 0.695201 0.381613
0.17998 0.693049 0.366552
0.179248 0.689448 0.347646
0.178515 0.683711 0.326375
0.178134 0.676677 0.300877
0.179171 0.670634 0.274861
0.183536 0.667308 0.252232
0.193103 0.666484 0.229572
0.227817 0.675319 0.217487
0.300877 0.682887 0.211215
0.350866 0.687678 0.208392
0.388998 0.692439 0.205295
0.432746 0.696284 0.198962
0.482994 0.698436 0.189746
0.537652 0.696773 0.179202
0.575952 0.697765 0.173098
0.601953 0.700252 0.172351
0.621866 0.702434 0.176837
0.645869 0.703929 0.183078
0.677943 0.702266 0.189807
0.714 0.698802 0.199176
0.745068 0.697215 0.213916
0.769696 0.697505 0.228626
0.790433 0.697276 0.243305
0.805829 0.697551 0.257527
0.814679 0.697093 0.270054
0.816327 0.697917 0.276722
0.81593 0.698116 0.278645
0.208469 0.744427 0.452857
0.206607 0.741665 0.447028
0.204822 0.739559 0.441245
0.203204 0.737438 0.434226
0.200916 0.734493 0.425223
0.198886 0.732143 0.414389
0.196689 0.72929 0.399893
0.195163 0.726329 0.382483
0.193683 0.719997 0.362417
0.192874 0.712551 0.338247
0.193698 0.705379 0.310735
0.196826 0.699992 0.283742
0.204196 0.698009 0.260624
0.228687 0.702983 0.242237
0.285328 0.711498 0.233555
0.352438 0.714626 0.226123
0.392432 0.718807 0.223438
0.4262 0.72311 0.220401
0.472145 0.726543 0.211215
0.520272 0.727565 0.202655
0.571267 0.726055 0.193851
0.60415 0.727382 0.1897
0.628794 0.729519 0.190555
0.648539 0.731548 0.196033
0.673335 0.732326 0.20322
0.70576 0.72929 0.210834
0.737957 0.726543 0.224842
0.765606 0.724758 0.241077
0.786236 0.724361 0.256519
0.801205 0.724575 0.271504
0.809216 0.724544 0.284794
0.812467 0.724453 0.294926
0.812573 0.724697 0.298207
0.224781 0.776074 0.480842
0.222812 0.773297 0.474861
0.220966 0.771023 0.469291
0.219059 0.768383 0.462348
0.216739 0.765332 0.453681
0.214359 0.761944 0.442298
0.211658 0.758511 0.428504
0.209598 0.755215 0.412589
0.207538 0.749645 0.393805
0.206149 0.742061 0.371542
0.205859 0.73402 0.344579
0.208576 0.727398 0.315892
0.214893 0.723522 0.288396
0.229084 0.723308 0.264805
0.270497 0.732372 0.252461
0.345571 0.73579 0.242405
0.394659 0.739345 0.238575
0.429084 0.743282 0.236149
0.460121 0.747494 0.232624
0.506127 0.749996 0.223514
0.553964 0.750271 0.21503
0.602853 0.749676 0.207584
0.630762 0.751507 0.205417
0.653834 0.753216 0.207736
0.674022 0.754894 0.214969
0.700389 0.754818 0.223011
0.730358 0.752041 0.235187
0.7579 0.749905 0.251942
0.780087 0.748791 0.271092
0.794568 0.749004 0.288762
0.801999 0.749401 0.30399
0.805768 0.749111 0.314763
0.80705 0.748547 0.319646
0.239384 0.801602 0.507408
0.237797 0.799237 0.500618
0.235721 0.796506 0.49424
0.233494 0.79353 0.487221
0.230991 0.790127 0.478767
0.228031 0.786465 0.468116
0.22533 0.782483 0.454963
0.2224 0.778408 0.439155
0.219684 0.773068 0.420493
0.217868 0.76582 0.399878
0.216831 0.757733 0.375204
0.217716 0.749737 0.34638
0.223301 0.744839 0.317342
0.233768 0.741787 0.289158
0.262562 0.747341 0.271504
0.330266 0.752865 0.258595
0.393072 0.755673 0.251865
0.430106 0.758938 0.249241
0.460807 0.762676 0.24625
0.490654 0.766171 0.242039
0.536324 0.768215 0.234485
0.585473 0.767727 0.225879
0.629679 0.767544 0.219425
0.656977 0.768856 0.218952
0.676387 0.770367 0.223407
0.696483 0.771374 0.232975
0.725231 0.770413 0.243671
0.752407 0.768963 0.263432
0.775097 0.767178 0.282414
0.79173 0.766949 0.301747
0.800565 0.76701 0.31722
0.803647 0.767315 0.33135
0.804074 0.766979 0.338018
0.253285 0.822248 0.533043
0.251255 0.819547 0.526085
0.248844 0.816983 0.518532
0.246418 0.813993 0.510643
0.243839 0.810559 0.501518
0.240635 0.806424 0.491142
0.237247 0.802411 0.478386
0.233661 0.796796 0.462638
0.230381 0.791653 0.444907
0.228092 0.785 0.425406
0.226551 0.777295 0.402716
0.226551 0.769268 0.375921
0.229908 0.762722 0.3467
0.238819 0.758801 0.317113
0.257465 0.759319 0.291112
0.307103 0.766629 0.278416
0.37818 0.769085 0.266896
0.429328 0.771786 0.261646
0.460533 0.774731 0.258946
0.489876 0.777996 0.255451
0.517617 0.78088 0.251514
0.563989 0.781811 0.243961
0.612146 0.78146 0.236561
0.652308 0.781384 0.230732
0.677974 0.78265 0.233143
0.697826 0.78378 0.239658
0.721279 0.784329 0.251194
0.745357 0.784146 0.271183
0.76968 0.783093 0.294377
0.788006 0.782147 0.314168
0.79852 0.782223 0.330907
0.80209 0.782025 0.344915
0.802487 0.781994 0.354635
0.264271 0.837858 0.553491
0.262135 0.835233 0.547036
0.260273 0.832944 0.54078
0.257877 0.830076 0.532265
0.254643 0.826474 0.522744
0.251194 0.822232 0.511543
0.247654 0.817533 0.499229
0.243717 0.812177 0.484215
0.239979 0.806531 0.467277
0.237308 0.800519 0.449622
0.235187 0.793256 0.428672
0.234073 0.785061 0.404105
0.235737 0.778164 0.377417
0.242527 0.772763 0.347723
0.255863 0.770611 0.318105
0.291981 0.776913 0.304402
0.356085 0.779675 0.288106
0.413825 0.781674 0.279393
