bundles/resolve-cinematic-luts/Phantom Luts/P4k & P6K Phntm Film LUTs - V6/P4K/Gen 4 Colour/Standard (No WB Offset)/P4k VisionTeal Gen4-Legacy.cube
TITLE "Generated by Resolve"
LUT_3D_SIZE 9
0.022385 0.0343481 0.0323491
0.0398718 0.0394598 0.0365301
0.117632 0.0432898 0.0352636
0.254765 0.0478676 0.0290074
0.403326 0.0597696 0.0310826
0.577356 0.0986038 0.0538491
0.755169 0.144472 0.0940871
0.777829 0.169497 0.103746
0.783322 0.189151 0.109041
0.020798 0.0713512 0.0414893
0.0388495 0.0667735 0.0371557
0.116976 0.0673075 0.0405585
0.260929 0.0645151 0.0324407
0.414542 0.0768902 0.0357061
0.58941 0.118624 0.0603952
0.756024 0.17203 0.0979782
0.780636 0.198505 0.106996
0.787366 0.226474 0.115175
0.0190433 0.158541 0.0564736
0.0188907 0.152544 0.0315557
0.108721 0.155169 0.0365301
0.290944 0.152865 0.0437171
0.467918 0.15642 0.0595254
0.624704 0.195819 0.0776226
0.765743 0.254612 0.112871
0.788663 0.289799 0.128832
0.79205 0.309163 0.137804
0.0191806 0.33463 0.111208
0.0261387 0.332723 0.0833906
0.0406195 0.315663 0.0453651
0.257969 0.329519 0.052018
0.470756 0.345068 0.0606546
0.641138 0.359686 0.112093
0.772686 0.386481 0.1673
0.791806 0.406806 0.186572
0.794095 0.427192 0.198276
0.0479133 0.532021 0.262791
0.0427253 0.532921 0.221729
0.0734112 0.517418 0.155215
0.146487 0.495293 0.0936294
0.443809 0.499916 0.0814984
0.630716 0.52578 0.117678
0.78497 0.561059 0.195987
0.811765 0.58146 0.22443
0.811551 0.570871 0.223041
0.117693 0.745983 0.446632
0.10605 0.751995 0.423407
0.103288 0.752834 0.362661
0.156191 0.713268 0.250919
0.37586 0.670085 0.187991
0.616449 0.686427 0.152132
0.760754 0.707301 0.229175
0.816983 0.724285 0.307881
0.817868 0.714076 0.294011
0.214878 0.87776 0.600259
0.20209 0.880919 0.582437
0.180957 0.883864 0.540932
0.21825 0.8607 0.453223
0.317098 0.804654 0.294713
0.56022 0.763607 0.288212
0.747112 0.793774 0.272297
0.80444 0.797192 0.397299
0.80557 0.794842 0.401038
0.226917 0.882902 0.631296
0.220386 0.881956 0.612619
0.204974 0.881819 0.576013
0.19379 0.879469 0.51606
0.293828 0.835157 0.409964
0.513817 0.772976 0.351019
0.689998 0.78085 0.339864
0.799619 0.802075 0.418906
0.808759 0.809735 0.471992
0.227543 0.885588 0.645685
0.223209 0.884581 0.630137
0.213642 0.882414 0.599481
0.194354 0.881727 0.542382
0.250355 0.855131 0.450294
0.436515 0.788052 0.358144
0.624063 0.772305 0.350958
0.778225 0.796521 0.383978
0.808682 0.810208 0.474876
0.022034 0.0382391 0.0655222
0.0560311 0.0349432 0.0700389
0.153704 0.0322271 0.0772106
0.307256 0.027512 0.0534218
0.462898 0.0396124 0.0438849
0.625498 0.0770733 0.0708019
0.767987 0.121782 0.110674
0.779187 0.143755 0.115816
0.784787 0.175051 0.111025
0.0210727 0.0595865 0.0526589
0.0367742 0.0586709 0.0559701
0.140642 0.0490272 0.0432593
0.277455 0.0491493 0.0349126
0.416571 0.0608377 0.0363928
0.587991 0.0973373 0.0601358
0.757565 0.1449 0.0973068
0.783276 0.180056 0.109529
0.787213 0.215885 0.113466
0.0193332 0.143572 0.078294
0.0192721 0.142947 0.0572519
0.102602 0.145342 0.0447547
0.299382 0.124407 0.0485542
0.468742 0.137667 0.058381
0.629068 0.179339 0.079408
0.76968 0.236912 0.11281
0.788937 0.270909 0.125246
0.792676 0.300832 0.135134
0.019028 0.318532 0.140581
0.0190127 0.320394 0.106798
0.0265965 0.308705 0.0526741
0.250431 0.320577 0.0520333
0.4813 0.329381 0.0645457
0.645487 0.341634 0.117525
0.7776 0.369497 0.164279
0.792554 0.394568 0.183276
0.79443 0.41622 0.194095
0.0517739 0.522332 0.292714
0.041062 0.52256 0.25716
0.0660258 0.51693 0.185336
0.124743 0.490471 0.0915999
0.437766 0.493477 0.081239
0.6365 0.517968 0.119539
0.787366 0.551171 0.204028
0.811231 0.569451 0.228565
0.809812 0.558358 0.223651
0.120699 0.732692 0.462516
0.109804 0.737316 0.441611
0.0970169 0.744503 0.390463
0.14728 0.71194 0.27657
0.356573 0.664439 0.183993
0.608698 0.677806 0.148974
0.760601 0.699016 0.227955
0.817929 0.716182 0.31043
0.819287 0.705547 0.298268
0.217548 0.875822 0.613962
0.207401 0.877485 0.595987
0.188251 0.879789 0.557839
0.179355 0.868482 0.464759
0.290517 0.810788 0.303517
0.549371 0.762158 0.284108
0.742596 0.791684 0.265614
0.804623 0.795056 0.391653
0.806195 0.792493 0.398138
0.227207 0.885145 0.646906
0.225086 0.883558 0.630777
0.21442 0.881117 0.595224
0.192096 0.881285 0.532753
0.274937 0.84416 0.426902
0.492607 0.776669 0.354314
0.675135 0.778607 0.343343
0.797528 0.801343 0.413672
0.808865 0.809949 0.472969
0.223209 0.888899 0.659586
0.228733 0.884855 0.643641
0.22208 0.883009 0.617121
0.199176 0.881605 0.559167
0.232273 0.863096 0.469123
0.418708 0.794034 0.365133
0.614572 0.771908 0.354574
0.77406 0.795636 0.379705
0.808865 0.810422 0.476158
0.0204776 0.0485389 0.158648
0.0686809 0.0360876 0.147555
0.161715 0.0339971 0.1458
0.317479 0.025391 0.169421
0.475685 0.0310063 0.166018
0.660731 0.0580148 0.184527
0.76051 0.0908675 0.208301
0.766674 0.0975204 0.18999
0.77847 0.114717 0.144976
0.0206455 0.0616159 0.113359
0.0238193 0.0479133 0.14699
0.135149 0.0355383 0.130175
0.30222 0.0290074 0.122957
0.472923 0.0302129 0.104982
0.655497 0.0587472 0.124987
0.769451 0.0975052 0.14284
0.774319 0.112688 0.135348
0.782238 0.135332 0.127474
0.0196994 0.137057 0.107424
0.0196536 0.133135 0.106615
0.122484 0.146304 0.136461
0.338201 0.108019 0.0973068
0.511879 0.101976 0.0798047
0.678111 0.135058 0.101381
0.785046 0.185809 0.134279
0.789258 0.218326 0.136767
0.792782 0.260212 0.140368
0.0190738 0.304234 0.173495
0.0191043 0.299458 0.155596
0.0190585 0.303456 0.103792
0.25417 0.316426 0.0800793
0.505882 0.303761 0.103624
0.674693 0.305425 0.132906
0.787823 0.347768 0.16994
0.79234 0.371771 0.185351
0.795102 0.393347 0.197086
0.0455787 0.50837 0.320745
0.0460517 0.506218 0.304845
0.0372778 0.504692 0.243351
0.0788891 0.490089 0.112245
0.42829 0.48336 0.082948
0.649958 0.505577 0.132479
0.789532 0.534783 0.222766
0.80853 0.547341 0.242512
0.80853 0.543908 0.2383
0.120867 0.715358 0.48336
0.115541 0.716716 0.470115
0.102953 0.719234 0.428275
0.127062 0.711711 0.318898
0.319783 0.658213 0.182055
0.598474 0.665034 0.144976
0.763806 0.686549 0.231266
0.819776 0.704326 0.316762
0.81976 0.692256 0.304372
0.217655 0.871748 0.632883
0.211551 0.870909 0.618051
0.199207 0.870771 0.58407
0.167041 0.873396 0.500465
0.259327 0.820661 0.334218
0.531731 0.759945 0.279561
0.736233 0.788327 0.257954
0.805158 0.791836 0.385397
0.807691 0.788998 0.395468
0.219211 0.890867 0.672358
0.2215 0.889387 0.659007
0.225086 0.882994 0.629374
0.199954 0.881361 0.562509
0.245563 0.857649 0.458274
0.461189 0.783764 0.361273
0.653422 0.775128 0.350423
0.793927 0.800275 0.406226
0.809003 0.810224 0.474525
0.216129 0.893523 0.680064
0.219379 0.891218 0.667552
0.229572 0.884459 0.642496
0.213947 0.880842 0.589014
0.198779 0.873335 0.493446
0.391714 0.803342 0.378195
0.599954 0.771344 0.359548
0.770581 0.796719 0.370642
0.809094 0.810712 0.478126
0.0320439 0.0635996 0.309453
0.0771496 0.0374151 0.302068
0.1794 0.0348974 0.28217
0.323888 0.0277562 0.280079
0.474449 0.031632 0.322728
0.673198 0.0789654 0.376486
0.73994 0.0981765 0.391455
0.743328 0.0964675 0.370321
0.752132 0.0988327 0.341634
0.0197757 0.0734417 0.259541
0.0339971 0.0623026 0.300984
0.141833 0.0353552 0.282902
0.306294 0.0282444 0.265202
0.463066 0.0311742 0.296437
0.665431 0.0775921 0.343542
0.745235 0.0927291 0.34728
0.750668 0.0973983 0.33753
0.759838 0.101122 0.30312
0.0193942 0.12987 0.228748
0.0195163 0.123781 0.246372
0.0908827 0.0984817 0.329992
0.314366 0.0598154 0.27718
0.469718 0.0492866 0.260563
0.666453 0.0668193 0.265507
0.757015 0.0959182 0.27361
0.76405 0.102693 0.249866
0.774182 0.111467 0.197299
0.0189059 0.294194 0.23006
0.0190433 0.288716 0.22771
0.019028 0.287541 0.228489
0.313085 0.325612 0.300053
0.551553 0.277546 0.259495
0.731441 0.274022 0.240528
0.791089 0.290929 0.234104
0.791745 0.311192 0.225605
0.794614 0.344228 0.223743
0.0317082 0.498772 0.358144
0.0282139 0.49482 0.35021
0.0311894 0.486015 0.325154
0.0830701 0.502235 0.281926
0.430503 0.484688 0.211322
0.677546 0.490715 0.251225
0.799817 0.50602 0.283513
0.805829 0.512383 0.291371
0.806317 0.516854 0.280125
0.0972305 0.699779 0.509148
0.0950027 0.698604 0.502525
0.100557 0.691783 0.479866
0.097673 0.689815 0.41004
0.230564 0.670039 0.241703
0.580804 0.645289 0.162814
0.776638 0.668223 0.259251
0.821057 0.684306 0.333516
0.8215 0.669856 0.325444
0.192004 0.86688 0.658595
0.191012 0.864332 0.64715
0.198886 0.85745 0.622431
0.185809 0.854322 0.563912
0.223194 0.838071 0.42031
0.496178 0.756893 0.289937
0.724788 0.780591 0.248814
0.807126 0.785595 0.381979
0.810147 0.781353 0.394202
0.207324 0.899809 0.709422
0.206531 0.899962 0.700725
0.215015 0.893767 0.678111
0.225742 0.882628 0.626581
0.19762 0.87895 0.518425
0.410529 0.798291 0.38114
0.624445 0.772625 0.360052
0.785626 0.79765 0.393515
0.809339 0.810636 0.477623
0.203632 0.902174 0.712917
0.206912 0.900359 0.702083
0.213275 0.895567 0.684047
0.232044 0.883345 0.640345
0.19675 0.881285 0.545678
0.339208 0.82417 0.411994
0.572702 0.771969 0.367315
0.75993 0.796094 0.359777
0.809598 0.811139 0.481056
0.0567483 0.0873884 0.452979
0.11223 0.05626 0.448356
0.222934 0.0341192 0.427359
0.337591 0.0416876 0.41474
0.490639 0.0556344 0.441871
0.682658 0.0711376 0.520577
0.740017 0.0864118 0.560601
0.740047 0.0870222 0.549889
0.73991 0.0886091 0.497795
0.0192569 0.0940108 0.418021
0.0557107 0.0867933 0.447837
0.176059 0.0374914 0.433646
0.318532 0.0429084 0.411749
0.477516 0.0528573 0.429984
0.670146 0.0686046 0.503853
0.739757 0.0868544 0.538766
0.739956 0.0876173 0.521447
0.739437 0.0900587 0.478157
0.0193179 0.118334 0.370092
0.0195468 0.1084 0.387045
0.0745403 0.0826886 0.446372
0.274434 0.0379492 0.406317
0.452766 0.046891 0.405936
0.645701 0.0646067 0.468132
0.736294 0.0894942 0.492653
0.736431 0.0914778 0.475196
0.738064 0.0938735 0.444175
0.0191958 0.277668 0.368277
0.0191653 0.266392 0.377203
0.0190585 0.250492 0.402197
0.282277 0.212879 0.51696
0.53576 0.195377 0.483238
0.716976 0.174746 0.484291
0.769314 0.165438 0.479194
0.766766 0.162783 0.45243
0.775723 0.170855 0.40351
0.0327611 0.491936 0.417792
0.0289616 0.488197 0.41735
0.0281987 0.48098 0.411368
0.0947738 0.497108 0.435325
0.506065 0.500237 0.469474
0.715679 0.47071 0.448737
0.823804 0.473136 0.443198
0.819837 0.468254 0.419593
0.810361 0.46363 0.367895
0.0847486 0.688136 0.548669
0.0786908 0.685588 0.544747
0.0771954 0.676829 0.530632
0.0801251 0.663905 0.499046
0.30457 0.670985 0.478813
0.581918 0.644511 0.391897
0.799161 0.656565 0.442252
0.832227 0.661463 0.434318
0.827771 0.641886 0.400092
0.168704 0.860777 0.692393
0.160876 0.858244 0.683162
0.161166 0.849119 0.663569
0.167422 0.834333 0.626368
0.195407 0.834257 0.55433
0.453025 0.769955 0.417014
0.69369 0.761318 0.372274
0.814527 0.780514 0.42211
0.818097 0.773358 0.421607
0.20621 0.907301 0.757244
0.196963 0.91014 0.752529
0.194415 0.909255 0.738643
0.208576 0.900664 0.705776
0.232624 0.88188 0.629511
0.332586 0.841321 0.476356
0.587091 0.775311 0.391775
0.777829 0.796216 0.386511
0.809949 0.810941 0.480598
0.19939 0.910246 0.758144
0.196689 0.909865 0.749905
0.194659 0.908934 0.736492
0.20824 0.901091 0.707561
0.235767 0.882765 0.639918
0.212802 0.870787 0.49485
0.498573 0.780865 0.382345
0.725856 0.788174 0.355673
0.810544 0.81236 0.488518
0.120974 0.115465 0.593271
0.168673 0.0694896 0.583886
0.270085 0.0448157 0.570016
0.386465 0.0529793 0.562585
0.517174 0.0727092 0.585397
0.704784 0.118807 0.646616
0.760784 0.138277 0.695445
0.756771 0.133486 0.708324
0.762142 0.138643 0.698192
0.0352331 0.1234 0.57348
0.118441 0.114473 0.589105
0.224079 0.0466621 0.572396
0.364477 0.0474556 0.557671
0.502297 0.0722362 0.577417
0.694362 0.115541 0.634134
0.764904 0.134218 0.690654
0.758221 0.139895 0.697887
0.768154 0.133913 0.694377
0.0192874 0.125246 0.509941
0.0193027 0.122286 0.533333
0.136309 0.108431 0.582635
0.313603 0.0410925 0.55346
0.475761 0.0730755 0.565347
0.671031 0.106447 0.610315
0.761028 0.130251 0.668956
0.765362 0.137224 0.686946
0.763928 0.127535 0.668238
0.019089 0.259525 0.502098
0.0190433 0.245686 0.508934
0.0193179 0.217426 0.529397
0.238422 0.126711 0.639414
0.482383 0.121584 0.610132
0.666362 0.120378 0.607309
0.754574 0.118822 0.638148
0.754681 0.117449 0.640284
0.744259 0.0892042 0.587716
0.0202029 0.491661 0.534417
0.020325 0.485145 0.538201
0.0204471 0.471107 0.543267
0.0668345 0.46717 0.60737
0.493065 0.415534 0.685191
0.709789 0.405966 0.648005
0.812665 0.396551 0.64094
0.808637 0.375082 0.622614
0.800717 0.328298 0.581918
0.0937972 0.680842 0.60676
0.0887465 0.678157 0.605081
0.0869917 0.670344 0.597726
0.08542 0.65771 0.586343
0.335561 0.663035 0.608499
0.659251 0.654368 0.62594
0.826566 0.637446 0.617945
0.861219 0.62652 0.609689
0.853391 0.611124 0.573266
0.161639 0.852354 0.730526
0.152392 0.849683 0.72491
0.147387 0.839445 0.708629
0.14493 0.82417 0.682994
0.232731 0.810971 0.653788
0.520287 0.795071 0.632883
0.720455 0.779339 0.563165
0.852003 0.785412 0.597971
0.851331 0.773205 0.579904
0.217609 0.914931 0.802716
0.20705 0.917128 0.79852
0.204944 0.914351 0.787945
0.20293 0.908873 0.766506
0.204746 0.899138 0.725582
0.426154 0.865599 0.670985
0.595697 0.831876 0.587549
0.793362 0.822385 0.546517
0.824277 0.828656 0.574639
0.212329 0.916854 0.801312
0.207446 0.917296 0.796399
0.205798 0.916014 0.787625
0.20557 0.912413 0.770962
0.206088 0.906584 0.734127
0.260548 0.882551 0.655085
0.492866 0.837629 0.566674
0.705776 0.806241 0.510491
0.818463 0.823255 0.546075
0.223514 0.146075 0.728374
0.237232 0.0846723 0.715816
0.323354 0.066331 0.709438
0.437446 0.0688945 0.708766
0.572732 0.111315 0.733425
0.718578 0.108339 0.767697
0.759945 0.11989 0.797284
0.760937 0.122499 0.808026
0.761715 0.123323 0.811872
0.131746 0.164065 0.72047
0.220401 0.147066 0.724834
0.279484 0.0648051 0.707378
0.412894 0.0667582 0.70573
0.55433 0.104402 0.725597
0.707332 0.105333 0.760082
0.759793 0.119326 0.791455
0.760739 0.121477 0.80267
0.761349 0.12221 0.805982
0.0195773 0.159716 0.647257
0.047425 0.164508 0.686778
0.223362 0.133165 0.718029
0.362783 0.0653849 0.700053
0.520562 0.0932326 0.710124
0.684947 0.10547 0.745861
0.759686 0.118395 0.779431
0.759686 0.119493 0.789441
0.760296 0.119615 0.791058
0.0194705 0.230396 0.608301
0.0193332 0.215381 0.614755
0.0194553 0.191333 0.638636
0.241108 0.108003 0.72282
0.459815 0.0787823 0.699184
0.64004 0.10898 0.722713
0.757549 0.114504 0.753231
0.758389 0.115724 0.756741
0.759823 0.115267 0.755642
0.0202792 0.475151 0.652873
0.0201724 0.46714 0.657359
0.0202487 0.454322 0.667048
0.0548867 0.456764 0.749081
0.487434 0.354299 0.81326
0.693675 0.352316 0.791745
0.805371 0.333135 0.792126
0.802594 0.308568 0.785183
0.798886 0.275624 0.7682
0.037644 0.68336 0.699382
0.0329442 0.677989 0.699031
0.0278782 0.669123 0.699123
0.032929 0.655955 0.712978
0.324376 0.643488 0.772305
0.65832 0.593088 0.81062
0.827405 0.588937 0.789425
0.857298 0.580987 0.779217
0.85211 0.546715 0.739559
0.176608 0.846403 0.779965
0.168521 0.84155 0.774166
0.162722 0.831968 0.763439
0.156374 0.817273 0.747097
0.234836 0.807248 0.741238
0.54641 0.793408 0.748821
0.77995 0.784222 0.76112
0.884199 0.768887 0.755047
0.885512 0.748943 0.733425
0.253452 0.912825 0.827771
0.241138 0.914458 0.825406
0.235676 0.911238 0.818463
0.232624 0.90605 0.806638
0.246937 0.895552 0.785214
0.486046 0.873365 0.7729
0.67068 0.86833 0.767971
0.824552 0.855589 0.71487
0.865187 0.855467 0.729442
0.260502 0.915282 0.829252
0.249256 0.918257 0.828367
0.244236 0.918303 0.824079
0.238453 0.917403 0.815122
0.228656 0.915831 0.797864
0.326513 0.897032 0.767651
0.566888 0.878218 0.756344
0.732113 0.860624 0.711849
0.85362 0.863371 0.717189
0.27779 0.0797284 0.775372
0.320394 0.081178 0.77644
0.395666 0.0829786 0.777523
0.493492 0.0842756 0.77734
0.635904 0.135348 0.800687
0.747662 0.127764 0.814771
0.763058 0.125368 0.816983
0.763134 0.125566 0.81706
0.762875 0.125765 0.816709
0.261173 0.150088 0.784665
0.276692 0.0873121 0.776776
0.360143 0.0823529 0.776577
0.469993 0.0824903 0.775555
0.615076 0.126116 0.796948
0.741238 0.130388 0.814481
0.763073 0.125414 0.816999
0.763165 0.125612 0.817075
0.763088 0.125734 0.816953
0.074342 0.193973 0.760281
0.191089 0.178439 0.775753
0.276417 0.0807813 0.77377
0.424018 0.0828565 0.775433
0.576288 0.10985 0.788052
0.726131 0.135836 0.812955
0.763043 0.125338 0.816983
0.763195 0.125689 0.817075
0.763195 0.12578 0.817075
0.0196231 0.216449 0.711162
0.0194553 0.201114 0.713878
0.0194858 0.190845 0.730678
0.292683 0.0790723 0.771939
0.496147 0.0859846 0.773144
0.686717 0.147692 0.805753
0.762493 0.124468 0.816205
0.763195 0.125673 0.817075
0.763226 0.125826 0.817075
0.0202945 0.477302 0.758953
0.0202335 0.468406 0.762676
0.0202335 0.452903 0.770581
0.137194 0.423041 0.821927
0.522454 0.292683 0.834119
0.721233 0.300114 0.829938
0.797116 0.27805 0.838102
0.793332 0.253529 0.836774
0.789761 0.227146 0.835233
0.0376898 0.686854 0.791211
0.0383154 0.678325 0.790707
0.0414435 0.665217 0.792554
0.0861982 0.645548 0.807218
0.369085 0.624216 0.849317
0.682261 0.550362 0.879362
0.823331 0.547326 0.867155
0.849851 0.535225 0.864134
0.844709 0.507439 0.85655
0.143206 0.84567 0.835691
0.130694 0.839399 0.832334
0.117525 0.828458 0.82826
0.119539 0.813123 0.82649
0.255863 0.796811 0.837751
0.544182 0.768765 0.855467
0.791867 0.734798 0.884764
0.887541 0.726848 0.868055
0.889906 0.707805 0.860319
0.275807 0.910475 0.847318
0.264759 0.91043 0.846525
0.261051 0.907103 0.843793
0.263218 0.901335 0.838544
0.275578 0.891386 0.829664
0.499062 0.875944 0.826993
0.694392 0.870939 0.833021
0.861585 0.872923 0.850309
0.897261 0.861921 0.844923
0.312856 0.914321 0.8477
0.309667 0.915206 0.845777
0.309667 0.914656 0.843595
0.313436 0.913207 0.839902
0.320256 0.91075 0.832975
0.40795 0.900755 0.824338
0.613626 0.89366 0.827893
0.781323 0.8972 0.841093
0.887221 0.90135 0.839612
0.310704 0.0809644 0.776715
0.349935 0.0821393 0.777462
0.41529 0.0835431 0.778439
0.510323 0.0882277 0.780331
0.649271 0.14226 0.803525
0.75169 0.12578 0.814786
0.762905 0.125002 0.816892
0.76318 0.125643 0.817075
0.763165 0.125719 0.817044
0.275105 0.107164 0.781537
0.309194 0.0809644 0.776761
0.384192 0.0827955 0.777798
0.485054 0.0826886 0.776928
0.629358 0.13283 0.799329
0.745663 0.128099 0.814633
0.762951 0.125078 0.816922
0.763195 0.125673 0.817075
0.763195 0.12575 0.81709
0.148547 0.18732 0.775204
0.254963 0.1626 0.783886
0.313878 0.0810864 0.77673
0.444709 0.0837873 0.778729
0.592416 0.116228 0.79263
0.732586 0.133516 0.813611
0.762982 0.125185 0.816953
0.76321 0.125734 0.81709
0.763226 0.125826 0.81709
0.0198062 0.205936 0.744564
0.0196994 0.197253 0.742428
0.0687724 0.195163 0.761151
0.334966 0.0813306 0.77673
0.518425 0.0908217 0.780789
0.699611 0.145937 0.810346
0.762997 0.1252 0.816953
0.763226 0.125826 0.81709
0.763333 0.125978 0.817182
0.0205386 0.45864 0.800717
0.0202945 0.443336 0.798993
0.0201267 0.417914 0.796017
0.153903 0.368048 0.820218
0.505058 0.233204 0.824399
0.703395 0.252445 0.824292
0.788266 0.227817 0.834516
0.785748 0.20296 0.833219
0.782391 0.176196 0.83151
0.10959 0.674525 0.832166
0.107515 0.665446 0.830488
0.102464 0.651255 0.828489
0.125673 0.626474 0.828214
0.374258 0.591959 0.851072
0.684367 0.509865 0.869047
0.818402 0.507317 0.864042
0.840833 0.495842 0.864866
0.83357 0.465782 0.859464
0.170581 0.837308 0.862425
0.162097 0.829953 0.860807
0.149126 0.818296 0.857572
0.171695 0.798657 0.854826
0.305409 0.769192 0.854948
0.556191 0.737865 0.875196
0.806668 0.694987 0.899504
0.881071 0.688869 0.893233
0.879194 0.668803 0.89221
0.276371 0.907454 0.863584
0.278676 0.903548 0.864179
0.285847 0.897581 0.864286
0.30251 0.887831 0.863386
0.335927 0.87187 0.861631
0.507179 0.864179 0.863844
0.696773 0.856107 0.874754
0.871656 0.83949 0.889006
0.895674 0.829496 0.888151
0.337331 0.913497 0.856962
0.34023 0.913237 0.856901
0.344793 0.912902 0.85687
0.353475 0.911955 0.856352
0.367727 0.909773 0.85452
0.439399 0.903731 0.853773
0.628275 0.898238 0.856214
0.803922 0.903761 0.872374
0.899168 0.912459 0.889265
