bundles/resolve-cinematic-luts/Phantom Luts/P4k & P6K Phntm Film LUTs - V6/P4K/Gen 4 Colour/Standard (No WB Offset)/P4k VisionTeal Gen4.cube
TITLE "Generated by Resolve"
LUT_3D_SIZE 33
0.0224155 0.0224155 0.0224155
0.0224155 0.0224155 0.0224155
0.0224155 0.0224155 0.0224155
0.0235447 0.0247044 0.0244907
0.0407111 0.0259556 0.0248112
0.0592355 0.0270237 0.0238499
0.0827649 0.0290532 0.0228885
0.108553 0.0321202 0.0221408
0.141466 0.0347601 0.0212863
0.183429 0.0364996 0.0194858
0.226093 0.0395972 0.018616
0.266697 0.0407874 0.0182345
0.307668 0.0431983 0.0188296
0.347311 0.0467384 0.0200046
0.386404 0.0516518 0.021912
0.425513 0.0578164 0.0246738
0.468879 0.0666361 0.0296635
0.511391 0.0788739 0.0365759
0.555108 0.0924849 0.0451667
0.592248 0.105364 0.0497444
0.63798 0.116854 0.0621195
0.679301 0.12636 0.0716869
0.716121 0.140078 0.0822461
0.746059 0.154757 0.0931716
0.770275 0.171084 0.102052
0.785946 0.184588 0.108324
0.787305 0.19086 0.109102
0.78706 0.197314 0.108888
0.787274 0.202594 0.10901
0.78793 0.208347 0.109575
0.789181 0.213123 0.110796
0.790829 0.218967 0.112398
0.791775 0.227909 0.114366
0.0224155 0.0224155 0.0224155
0.0224155 0.0224155 0.0224155
0.0224155 0.0224155 0.0224155
0.0240787 0.0250553 0.024445
0.0404059 0.0267643 0.0248264
0.0599527 0.0280766 0.024155
0.0831464 0.0298924 0.0232853
0.109743 0.0330358 0.0232242
0.1449 0.0368048 0.0221866
0.187457 0.0385595 0.0200809
0.22829 0.0412451 0.0192721
0.267353 0.0419623 0.0183108
0.307301 0.0449531 0.0191196
0.346105 0.0485847 0.0204013
0.388815 0.0548257 0.0229343
0.426856 0.0597848 0.0253452
0.469902 0.0686809 0.0301823
0.512688 0.0822003 0.0375219
0.557931 0.0968185 0.0464637
0.597574 0.107103 0.0539559
0.639094 0.120012 0.0631571
0.679454 0.134401 0.0722972
0.713954 0.148241 0.0819867
0.745144 0.158755 0.0925612
0.76875 0.173831 0.101137
0.783948 0.188647 0.10724
0.786862 0.195911 0.10837
0.787015 0.202075 0.108827
0.787045 0.207385 0.109071
0.788922 0.212161 0.110658
0.789685 0.21796 0.111681
0.791257 0.227085 0.113832
0.792294 0.234821 0.115633
0.0224155 0.0224155 0.0224155
0.0224155 0.0224155 0.0224155
0.0224155 0.0224155 0.0224155
0.0222629 0.0267643 0.0222629
0.0345769 0.0285039 0.024918
0.0572519 0.0311131 0.0245365
0.0836347 0.0346838 0.0240787
0.112093 0.0390478 0.0242466
0.145113 0.0417487 0.023621
0.185458 0.0430304 0.0210117
0.224216 0.0440833 0.0192569
0.269551 0.0457465 0.0197299
0.312108 0.0493935 0.0206149
0.351843 0.0536812 0.0220951
0.388998 0.0582895 0.0237125
0.425406 0.0621042 0.0259098
0.47335 0.0744335 0.0322271
0.518196 0.0892653 0.0398871
0.559075 0.100603 0.0476844
0.597864 0.109728 0.054551
0.641672 0.125093 0.0643626
0.680415 0.14049 0.0734875
0.71371 0.151675 0.0831464
0.742931 0.166949 0.0927901
0.767452 0.177401 0.100954
0.783139 0.192844 0.106767
0.786999 0.202182 0.108858
0.78645 0.206592 0.108583
0.788037 0.211368 0.110079
0.788968 0.218112 0.111238
0.790555 0.227741 0.113481
0.791455 0.235508 0.115404
0.792813 0.241962 0.117235
0.0218051 0.0491188 0.028397
0.0216526 0.0475013 0.023209
0.0220493 0.045243 0.0221714
0.0240787 0.0444648 0.0251164
0.0381018 0.0460975 0.0267338
0.0584268 0.0471962 0.0263066
0.0851911 0.0468605 0.0269627
0.113024 0.0480049 0.0262608
0.146792 0.0496529 0.0247196
0.190219 0.050721 0.0228733
0.23209 0.0517739 0.0214084
0.275944 0.0536355 0.0217594
0.316762 0.0562905 0.0222629
0.355642 0.0594797 0.0234379
0.394614 0.0646677 0.0256504
0.43505 0.0717327 0.0287785
0.479118 0.0838483 0.0354009
0.521065 0.0955673 0.0417945
0.561273 0.104433 0.0486
0.60354 0.118364 0.0571145
0.645014 0.133425 0.0662242
0.681163 0.146151 0.0744945
0.712795 0.156542 0.0831617
0.742672 0.174075 0.0931411
0.76643 0.194263 0.101762
0.782895 0.202426 0.107591
0.787335 0.209613 0.109468
0.787625 0.211673 0.109743
0.788754 0.2215 0.111421
0.789532 0.230915 0.113054
0.790906 0.238773 0.115328
0.791897 0.244816 0.116976
0.793729 0.255344 0.119753
0.0207523 0.0742504 0.0350042
0.0205844 0.0729686 0.0264439
0.0207218 0.0703136 0.0225528
0.0208286 0.0671702 0.0251316
0.0407416 0.0685588 0.0285496
0.0602731 0.0702831 0.0279698
0.0859693 0.0700694 0.0277714
0.116182 0.0685588 0.0283665
0.152041 0.0661326 0.0278325
0.197055 0.0625467 0.0249638
0.240009 0.0624247 0.0241093
0.28307 0.063508 0.0236057
0.324376 0.06598 0.0243839
0.364691 0.0700847 0.0261387
0.404242 0.0756542 0.028275
0.444068 0.0836957 0.0323949
0.487663 0.0954757 0.0391546
0.530327 0.107942 0.0468452
0.570962 0.119051 0.0534524
0.610407 0.131624 0.0610666
0.648035 0.144152 0.0683604
0.685145 0.156435 0.0771649
0.717739 0.172351 0.0862593
0.743648 0.18967 0.0944991
0.765942 0.208103 0.102098
0.781842 0.222065 0.108446
0.788342 0.223484 0.111299
0.788434 0.229404 0.112169
0.789364 0.238865 0.114229
0.790097 0.245945 0.115846
0.791318 0.252964 0.118196
0.792905 0.262242 0.12047
0.795178 0.272602 0.12459
0.0200809 0.100801 0.040528
0.0199741 0.101061 0.0321355
0.0197452 0.0974899 0.0243687
0.0196231 0.0948196 0.0236667
0.0286107 0.0952468 0.0282902
0.0648203 0.0955062 0.0310826
0.0826276 0.0972152 0.0278782
0.112703 0.0951553 0.0256352
0.155596 0.0910048 0.0288853
0.202853 0.0836957 0.0280461
0.247227 0.0804303 0.0269169
0.292256 0.0768292 0.026688
0.333776 0.0796674 0.0277256
0.374533 0.0842756 0.0291905
0.415381 0.0916915 0.0325322
0.458656 0.102129 0.038941
0.501534 0.113298 0.0449836
0.541817 0.124559 0.0509957
0.579858 0.135363 0.0570993
0.617731 0.148135 0.0644083
0.655146 0.162158 0.0722057
0.689662 0.177356 0.0803998
0.719417 0.192844 0.0879225
0.745388 0.208804 0.0963912
0.767056 0.225467 0.105058
0.783261 0.24184 0.112581
0.789425 0.252644 0.116976
0.789425 0.252079 0.116854
0.790311 0.259007 0.118486
0.791485 0.266209 0.120562
0.79292 0.27425 0.123705
0.794598 0.282429 0.126406
0.796719 0.292363 0.130236
0.0196078 0.129198 0.0485389
0.0193637 0.129641 0.0367285
0.0193179 0.124941 0.0293736
0.0194247 0.122469 0.0287175
0.019913 0.121416 0.0289769
0.0458381 0.123278 0.0331273
0.0893416 0.123049 0.0319371
0.107622 0.125002 0.0259403
0.150378 0.120653 0.0251926
0.205997 0.114595 0.0274968
0.260136 0.106081 0.028748
0.306355 0.103365 0.03122
0.348531 0.10251 0.0320745
0.390799 0.104707 0.0345922
0.432944 0.113298 0.0393683
0.474113 0.124102 0.0449378
0.514122 0.134447 0.0503395
0.553033 0.145907 0.0560159
0.590005 0.157519 0.0618143
0.625772 0.170855 0.0679789
0.661723 0.185458 0.0751812
0.694057 0.200916 0.0829786
0.722881 0.216373 0.0919814
0.748409 0.232898 0.101778
0.768566 0.249592 0.110506
0.78407 0.26482 0.118273
0.791089 0.276402 0.12285
0.791394 0.283116 0.125353
0.791547 0.283207 0.125338
0.791882 0.289921 0.126635
0.793027 0.297475 0.12932
0.794354 0.305501 0.13315
0.796124 0.314137 0.13637
0.0192874 0.163592 0.0531167
0.0191043 0.164431 0.0416266
0.0187533 0.160403 0.0335393
0.0187533 0.156359 0.0275425
0.0187686 0.152667 0.0275578
0.0244755 0.154818 0.0278477
0.0671397 0.156191 0.0349889
0.111315 0.158511 0.0315709
0.135973 0.161303 0.024567
0.19205 0.156558 0.0249027
0.253666 0.152377 0.0291295
0.31545 0.146685 0.0353704
0.364691 0.143221 0.0404822
0.406973 0.145342 0.0439307
0.447272 0.146044 0.0475929
0.486412 0.149477 0.0511482
0.525185 0.159991 0.0562295
0.561944 0.171679 0.0601968
0.597116 0.184024 0.0647898
0.631632 0.19794 0.0716564
0.666941 0.212879 0.0800793
0.700053 0.227436 0.0890974
0.727687 0.243107 0.0990768
0.750744 0.258885 0.107866
0.770809 0.275227 0.117464
0.785718 0.290867 0.125551
0.79176 0.302251 0.130541
0.793256 0.308293 0.133593
0.793103 0.314504 0.134844
0.793805 0.315496 0.135531
0.794781 0.322377 0.139147
0.796185 0.32932 0.142306
0.797238 0.337621 0.147311
0.0187991 0.204349 0.058793
0.0186313 0.204364 0.0475013
0.0185855 0.202335 0.0404059
0.0183719 0.196841 0.030518
0.0183108 0.192065 0.026276
0.0183719 0.190021 0.0263371
0.0324559 0.196582 0.028687
0.0887312 0.199832 0.0378729
0.141283 0.204746 0.0345617
0.179232 0.207614 0.0256962
0.236149 0.204562 0.0274815
0.302907 0.201877 0.0309148
0.360586 0.197864 0.0364691
0.410971 0.192508 0.0442054
0.452003 0.192813 0.05037
0.489494 0.195621 0.0545205
0.530663 0.19733 0.0601663
0.569238 0.204196 0.065095
0.604532 0.215106 0.0713664
0.638788 0.227878 0.0794842
0.672343 0.242954 0.0885328
0.70399 0.257755 0.0984512
0.7308 0.273045 0.10779
0.754055 0.288258 0.117372
0.772763 0.30399 0.125719
0.788037 0.318746 0.135378
0.794293 0.32903 0.141848
0.794324 0.334936 0.143771
0.795041 0.341436 0.147539
0.795895 0.347677 0.150225
0.796445 0.349569 0.151308
0.797086 0.355734 0.155566
0.797696 0.363165 0.159548
0.018616 0.254749 0.074403
0.0185855 0.254734 0.0633707
0.0187839 0.253635 0.0580606
0.0184329 0.248707 0.0465248
0.0182803 0.242008 0.0342107
0.0182803 0.236194 0.0324865
0.023209 0.239841 0.0335851
0.0497749 0.247913 0.0376898
0.115969 0.249378 0.0456245
0.181811 0.250599 0.037644
0.223239 0.253605 0.0271916
0.280339 0.250797 0.0294957
0.350179 0.250706 0.0336919
0.404837 0.25008 0.038117
0.456062 0.246815 0.0480964
0.496757 0.246662 0.0576333
0.53283 0.251087 0.0688945
0.572045 0.256077 0.0762798
0.608438 0.258213 0.0827955
0.644831 0.265583 0.0915389
0.677607 0.277195 0.0999466
0.708278 0.289982 0.109651
0.734356 0.304829 0.118776
0.757244 0.31957 0.128496
0.774975 0.334478 0.139315
0.789197 0.347982 0.148608
0.795727 0.358053 0.155505
0.795972 0.363577 0.158099
0.796643 0.36994 0.162249
0.796765 0.375799 0.165759
0.796994 0.382437 0.169619
0.797375 0.383383 0.170993
0.798703 0.391379 0.175647
0.0191043 0.305379 0.0916609
0.019028 0.304173 0.0836042
0.021912 0.303273 0.0767834
0.0234989 0.30106 0.0651102
0.0247044 0.295644 0.0535897
0.0243381 0.288136 0.0403754
0.0241093 0.28423 0.0397192
0.0379644 0.291051 0.0415198
0.0696727 0.296986 0.0450599
0.150118 0.296178 0.0530251
0.223346 0.296056 0.0401007
0.268177 0.299489 0.0287633
0.326574 0.298207 0.0328374
0.392905 0.302739 0.0378576
0.446601 0.303395 0.0419928
0.496971 0.303593 0.0526589
0.5402 0.304631 0.0671702
0.575021 0.308858 0.0784772
0.607156 0.314275 0.0895552
0.641672 0.319829 0.104417
0.677104 0.324697 0.113542
0.71014 0.330938 0.123354
0.73611 0.340749 0.13257
0.758007 0.353323 0.143084
0.776135 0.366201 0.154955
0.79057 0.379782 0.166094
0.79675 0.388846 0.173831
0.796643 0.394339 0.175875
0.796735 0.400778 0.179507
0.796735 0.407248 0.182788
0.797299 0.414343 0.186618
0.797726 0.41651 0.188403
0.798688 0.422995 0.19234
0.0192721 0.353704 0.112673
0.0229801 0.352621 0.105959
0.0281987 0.351553 0.0980087
0.030457 0.349996 0.0865797
0.0317235 0.346716 0.0751049
0.0319066 0.340597 0.0610971
0.0313268 0.33315 0.0475471
0.0315709 0.331594 0.0470436
0.0579538 0.337911 0.0493782
0.0929274 0.343023 0.0529335
0.197559 0.337804 0.0592355
0.269673 0.340276 0.0412299
0.314778 0.344106 0.0318456
0.369467 0.343221 0.0370031
0.432914 0.350805 0.0425422
0.486488 0.353719 0.0485847
0.536614 0.357214 0.0616312
0.580194 0.359518 0.0782788
0.614435 0.364523 0.0914778
0.645274 0.371023 0.102876
0.677165 0.377035 0.116884
0.70721 0.382895 0.133394
0.733623 0.389303 0.149783
0.756283 0.395712 0.161044
0.775128 0.403647 0.173312
0.789792 0.416464 0.185275
0.796231 0.425315 0.192309
0.796445 0.430716 0.194858
0.796826 0.436301 0.197879
0.797024 0.441718 0.199527
0.797635 0.447745 0.200381
0.798932 0.454032 0.20119
0.799527 0.455909 0.201846
0.0232395 0.403418 0.142535
0.0265202 0.402808 0.131807
0.0357214 0.40116 0.12578
0.0385595 0.400046 0.113359
0.0400397 0.397742 0.10013
0.0404669 0.391806 0.0873732
0.0409552 0.385245 0.0713664
0.0404212 0.377859 0.0565805
0.0467079 0.378119 0.0565347
0.0830091 0.382437 0.057557
0.127947 0.386053 0.0632486
0.249622 0.378378 0.064622
0.31986 0.382712 0.0419776
0.359808 0.387594 0.0364538
0.4121 0.387228 0.0438544
0.473152 0.397086 0.0516823
0.526528 0.401999 0.0587167
0.574594 0.408133 0.0736248
0.61709 0.412238 0.0905623
0.651682 0.417533 0.105608
0.681971 0.424567 0.119203
0.71043 0.43151 0.133852
0.735241 0.438163 0.147982
0.7579 0.444999 0.163134
0.775891 0.452216 0.179599
0.790967 0.459251 0.1935
0.797574 0.463416 0.19968
0.798932 0.467094 0.200763
0.799283 0.47187 0.200626
0.800671 0.477577 0.201633
0.801129 0.482582 0.201038
0.802823 0.488029 0.202518
0.803632 0.49305 0.203754
0.0300603 0.452033 0.183963
0.0298009 0.451286 0.168765
0.0416419 0.450538 0.162127
0.0467689 0.448875 0.147997
0.0491493 0.446921 0.132418
0.0514687 0.443534 0.117342
0.0521248 0.437766 0.101534
0.05243 0.429847 0.0828107
0.0518654 0.422751 0.0666972
0.0742657 0.423453 0.0665904
0.110643 0.42623 0.0686503
0.176516 0.425361 0.0729381
0.303456 0.419028 0.0688945
0.36791 0.424231 0.0457008
0.402609 0.429221 0.0462348
0.453971 0.430747 0.0565957
0.514656 0.442023 0.0666514
0.566049 0.448524 0.075227
0.611551 0.455451 0.0877699
0.652598 0.461418 0.103441
0.687892 0.467796 0.121187
0.717632 0.475349 0.136584
0.741009 0.48307 0.150652
0.762539 0.490623 0.1664
0.780453 0.497444 0.182147
0.795285 0.504097 0.196506
0.803235 0.509316 0.204257
0.804456 0.51043 0.205707
0.804471 0.510643 0.205676
0.804807 0.512856 0.20618
0.805859 0.51809 0.207355
0.806577 0.522011 0.208026
0.807691 0.527199 0.209232
0.0386358 0.500114 0.230213
0.0369421 0.501396 0.217975
0.0370184 0.499947 0.202823
0.0495003 0.498466 0.194812
0.057435 0.496651 0.179675
0.0623636 0.493904 0.157336
0.0641642 0.488426 0.138384
0.0658427 0.48246 0.119005
0.0656748 0.473091 0.0947433
0.0649729 0.466163 0.0779583
0.103487 0.466255 0.0768902
0.147906 0.466621 0.0798657
0.235065 0.462516 0.0860304
0.354269 0.459541 0.0762798
0.412512 0.466377 0.0555428
0.444831 0.471138 0.0633249
0.496986 0.474235 0.0747387
0.555016 0.484993 0.0833906
0.604334 0.492653 0.0915999
0.646784 0.500648 0.10338
0.68893 0.508721 0.118349
0.722698 0.516182 0.137835
0.747799 0.52282 0.153719
0.767285 0.531289 0.171374
0.784802 0.539223 0.18645
0.798947 0.54638 0.201068
0.807965 0.552407 0.21149
0.809613 0.554101 0.213199
0.809628 0.554055 0.213214
0.809735 0.553414 0.213214
0.809979 0.552071 0.213306
0.810132 0.554971 0.213474
0.811948 0.55906 0.215213
0.0497597 0.547509 0.27834
0.0475624 0.54847 0.266529
0.0454108 0.549035 0.25359
0.0451972 0.547967 0.238911
0.0540017 0.545769 0.224613
0.0707408 0.543206 0.212238
0.0762951 0.539284 0.189746
0.0790875 0.532708 0.163684
0.0810712 0.525917 0.137697
0.0809339 0.515694 0.108461
0.0859236 0.509361 0.0898756
0.13608 0.506935 0.0886549
0.205127 0.50251 0.092546
0.296178 0.500191 0.103441
0.404761 0.500603 0.0863966
0.456672 0.508919 0.0691539
0.48661 0.512261 0.0814984
0.53817 0.517067 0.0916457
0.59292 0.527337 0.0990616
0.640345 0.535546 0.110201
0.683116 0.54432 0.121538
0.721828 0.553094 0.136461
0.750744 0.561578 0.154772
0.771969 0.568246 0.175296
0.78909 0.576837 0.193225
0.803372 0.585611 0.207172
0.812329 0.592523 0.218601
0.814298 0.594812 0.221744
0.814343 0.594659 0.221759
0.814542 0.593988 0.22182
0.814725 0.592569 0.221927
0.814694 0.5906 0.221607
0.814755 0.589822 0.221439
0.0628824 0.595697 0.327504
0.0601816 0.596933 0.318776
0.0573587 0.597635 0.307591
0.0558938 0.597955 0.294697
0.0552224 0.597177 0.278767
0.0563211 0.594598 0.256718
0.0852522 0.591043 0.245838
0.0915084 0.585138 0.222644
0.0944076 0.577783 0.194308
0.0969406 0.569207 0.158892
0.098909 0.559915 0.123873
0.122621 0.551141 0.102083
0.18497 0.544778 0.101579
0.261509 0.541009 0.110597
0.353872 0.539101 0.123461
0.452201 0.543008 0.0961013
0.499336 0.551858 0.0848402
0.528023 0.556527 0.097261
0.573907 0.559899 0.108461
0.626322 0.570092 0.116793
0.672969 0.578393 0.130266
0.713619 0.586969 0.141894
0.748089 0.595636 0.158816
0.773129 0.603876 0.179095
0.792294 0.612757 0.201907
0.805325 0.620233 0.218708
0.814359 0.627527 0.229038
0.818479 0.631632 0.235538
0.818647 0.631861 0.235996
0.818372 0.631357 0.23563
0.817853 0.629999 0.23444
0.817472 0.626978 0.232746
0.817807 0.623407 0.231189
0.0746777 0.643839 0.37583
0.0718853 0.644678 0.367864
0.0702525 0.645426 0.358831
0.0681621 0.646082 0.348714
0.0661936 0.646815 0.336385
0.065095 0.646693 0.318837
0.067155 0.643809 0.294331
0.0978866 0.639109 0.279988
0.104921 0.631235 0.254551
0.110262 0.622873 0.223468
0.112673 0.612619 0.182834
0.116152 0.603632 0.138308
0.166079 0.591196 0.11487
0.244587 0.582528 0.120577
0.319585 0.579568 0.131914
0.411627 0.577585 0.144854
0.500542 0.585748 0.106844
0.541299 0.595422 0.101061
0.568521 0.600519 0.112413
0.607538 0.602579 0.127337
0.657618 0.611566 0.13579
0.70219 0.62031 0.151492
0.739376 0.628122 0.166903
0.767315 0.63563 0.186847
0.790341 0.64361 0.21181
0.806806 0.651209 0.233341
0.816693 0.657954 0.248631
0.820996 0.662898 0.256336
0.821317 0.663813 0.257496
0.821057 0.662928 0.256168
0.820218 0.661357 0.254658
0.82002 0.658763 0.252232
0.821363 0.655589 0.250111
0.0888075 0.69099 0.421759
0.0865339 0.692027 0.414893
0.0836805 0.693141 0.407263
0.0809796 0.693965 0.399145
0.0795453 0.69485 0.38883
0.0778668 0.695659 0.375204
0.0768902 0.696376 0.356909
0.078706 0.692683 0.329397
0.109407 0.685817 0.313024
0.11873 0.676921 0.28365
0.124773 0.666423 0.248066
0.128527 0.6551 0.202258
0.138811 0.645029 0.147951
0.226413 0.628138 0.133867
0.309117 0.619562 0.143938
0.379065 0.617426 0.156832
0.465415 0.616938 0.157855
0.547494 0.628412 0.119356
0.581277 0.637415 0.118349
0.607645 0.643061 0.130922
0.640421 0.644144 0.149767
0.687282 0.651072 0.159457
0.727474 0.658915 0.1785
0.759441 0.666712 0.198947
0.783642 0.673167 0.223011
0.803738 0.680629 0.249287
0.816968 0.687083 0.271534
0.82063 0.691539 0.282383
0.820569 0.692805 0.283528
0.820661 0.692058 0.282139
0.820569 0.690196 0.280385
0.820905 0.687526 0.278538
0.821225 0.684657 0.275364
0.109773 0.737057 0.46685
0.106249 0.737819 0.460594
0.102495 0.739208 0.4542
0.0991531 0.740505 0.446448
0.0955062 0.741421 0.437736
0.093492 0.742535 0.426825
0.0912337 0.743801 0.412467
0.0894636 0.7449 0.392233
0.0902113 0.74023 0.363104
0.122148 0.732235 0.344335
0.133867 0.721386 0.311315
0.141497 0.709682 0.269841
0.149889 0.696666 0.216571
0.187045 0.682841 0.160098
0.297536 0.66302 0.160143
0.372488 0.655207 0.173587
0.436393 0.653605 0.187045
0.517037 0.655985 0.172869
0.590204 0.669123 0.139773
0.619532 0.677211 0.141253
0.645411 0.68368 0.154818
0.673335 0.683864 0.181109
0.715892 0.688426 0.191836
0.748959 0.694621 0.209857
0.776471 0.703075 0.238514
0.795895 0.708492 0.263752
0.813001 0.714412 0.291096
0.820462 0.718624 0.308995
0.820172 0.720165 0.312444
0.820401 0.71931 0.31104
0.82005 0.717662 0.307729
0.820371 0.715846 0.304356
0.820844 0.711833 0.299519
0.132616 0.780499 0.511574
0.1299 0.781537 0.506767
0.126726 0.782818 0.501381
0.123949 0.783612 0.495155
0.120302 0.784878 0.487633
0.117113 0.785748 0.477638
0.112596 0.786999 0.465476
0.108553 0.788891 0.449073
0.104891 0.789929 0.427405
0.105821 0.783215 0.398123
0.138613 0.773205 0.373892
0.151644 0.760403 0.334981
0.163378 0.747356 0.285481
0.184466 0.732982 0.227024
0.25301 0.712047 0.180957
0.363439 0.692012 0.190921
0.430503 0.6869 0.203738
0.489632 0.685084 0.214572
0.564202 0.692699 0.189532
0.629221 0.70518 0.162676
0.654917 0.713298 0.170199
0.677699 0.718532 0.185138
0.702678 0.71783 0.211765
0.737865 0.721355 0.224796
0.766384 0.726925 0.251545
0.788663 0.733577 0.281529
0.806394 0.740261 0.309514
0.817914 0.743679 0.333501
0.819867 0.745403 0.344289
0.819989 0.74519 0.343465
0.819974 0.743938 0.339788
0.819409 0.741131 0.334173
0.820172 0.737652 0.327932
0.161349 0.814359 0.551476
0.159319 0.815244 0.547753
0.15581 0.816358 0.542885
0.151995 0.817533 0.53753
0.147814 0.818479 0.531044
0.143923 0.819715 0.522255
0.140459 0.821363 0.512139
0.135805 0.823148 0.499062
0.130037 0.824506 0.480201
0.125368 0.822538 0.455344
0.125521 0.814542 0.422415
0.163088 0.803189 0.395224
0.179049 0.78822 0.347738
0.194186 0.772335 0.288472
0.22916 0.755154 0.227268
0.333974 0.728511 0.206439
0.428458 0.714092 0.217853
0.485374 0.711666 0.229175
0.539406 0.713222 0.230564
0.609903 0.724239 0.205646
0.665156 0.73611 0.192065
0.687465 0.743099 0.202396
0.70988 0.748409 0.217365
0.73106 0.74583 0.2448
0.759335 0.748928 0.269001
0.78172 0.752789 0.298848
0.799863 0.75848 0.327977
0.813169 0.764035 0.355077
0.818769 0.767102 0.373739
0.818845 0.767071 0.376623
0.818982 0.765759 0.372412
0.819211 0.764141 0.368048
0.81883 0.760189 0.359518
0.189303 0.843275 0.58938
0.186084 0.844434 0.585214
0.182849 0.845411 0.581872
0.179522 0.846632 0.577111
0.175753 0.847837 0.571771
0.171878 0.848386 0.563638
0.166583 0.849317 0.553582
0.160479 0.850263 0.540444
0.154131 0.851408 0.523919
0.147829 0.85272 0.503746
0.144533 0.848096 0.476371
0.145068 0.839277 0.439902
0.190478 0.824277 0.406806
0.209125 0.80766 0.352773
0.228519 0.791135 0.285985
0.288136 0.769375 0.231662
0.411337 0.74226 0.232181
0.481178 0.735027 0.244038
0.531044 0.734188 0.25359
0.58175 0.739391 0.245609
0.653162 0.752285 0.224399
0.69482 0.761898 0.221744
0.717235 0.768109 0.233188
0.735866 0.771725 0.250904
0.751537 0.767712 0.286641
0.775067 0.770733 0.318334
0.794675 0.774838 0.350088
0.809354 0.779995 0.377188
0.817853 0.783352 0.39939
0.81857 0.783978 0.408026
0.818738 0.782666 0.404303
0.818006 0.780697 0.398932
0.81799 0.777768 0.392081
0.213291 0.866056 0.621302
0.210971 0.866636 0.616907
0.207568 0.867277 0.61387
0.204242 0.868238 0.609537
0.200641 0.869215 0.604883
0.196826 0.869703 0.597498
0.191394 0.870069 0.58761
0.185397 0.870634 0.575357
0.177844 0.872236 0.561257
0.170779 0.874281 0.54313
0.165072 0.873137 0.520912
0.1635 0.866896 0.490013
0.176562 0.855665 0.452674
0.218143 0.838148 0.412879
0.236652 0.8206 0.352651
0.273106 0.802304 0.289189
0.366751 0.774227 0.254307
0.470436 0.755581 0.260517
0.527092 0.752117 0.27068
0.570367 0.75314 0.273411
0.622614 0.760769 0.262699
0.68687 0.773434 0.2486
0.720668 0.781033 0.253956
0.740246 0.786526 0.265766
0.756039 0.788113 0.290883
0.769055 0.784482 0.33576
0.788754 0.787732 0.369635
0.805478 0.792676 0.400061
0.815671 0.796475 0.425071
0.818555 0.79762 0.43859
0.818128 0.796704 0.434684
0.818006 0.795209 0.430716
0.817731 0.792996 0.423239
0.221225 0.883787 0.647608
0.222156 0.883391 0.644358
0.222766 0.883146 0.639811
0.221912 0.883131 0.635767
0.218936 0.883772 0.630854
0.214954 0.884138 0.624384
0.210956 0.884306 0.614984
0.205829 0.884489 0.603662
0.200717 0.885512 0.590829
0.194141 0.886915 0.575814
0.189456 0.886595 0.558297
0.184115 0.885161 0.534844
0.183154 0.877775 0.501228
0.213794 0.863462 0.463691
0.242954 0.846189 0.416526
0.276234 0.827756 0.358404
0.340948 0.803189 0.310704
0.440742 0.776898 0.293278
0.517174 0.76704 0.294621
0.566857 0.7664 0.301839
0.606119 0.769772 0.296468
0.656443 0.777646 0.287236
0.712139 0.788357 0.279591
0.741787 0.795544 0.288258
0.75845 0.799481 0.303471
0.770291 0.799924 0.34461
0.783856 0.798276 0.388739
0.802197 0.803326 0.421866
0.814969 0.808011 0.450401
0.81886 0.810025 0.467704
0.819074 0.809567 0.467247
0.818631 0.807996 0.462287
0.818586 0.805844 0.455436
0.218509 0.892012 0.664485
0.220081 0.891234 0.661311
0.221332 0.890791 0.656687
0.22182 0.890272 0.653086
0.222599 0.889296 0.647272
0.223072 0.888319 0.641032
0.218814 0.887602 0.632578
0.214893 0.887617 0.623041
0.213199 0.887205 0.61326
0.211566 0.886503 0.600946
0.20827 0.885496 0.585214
0.204608 0.885435 0.565835
0.200244 0.885298 0.541207
0.199207 0.879606 0.505608
0.23714 0.863783 0.465354
0.272435 0.845594 0.417884
0.333806 0.81944 0.370977
0.406775 0.794461 0.341878
0.490089 0.777691 0.332006
0.550988 0.771923 0.332647
0.594553 0.771832 0.332418
0.63183 0.775921 0.32697
0.68127 0.784024 0.319722
0.726421 0.79353 0.317845
0.753613 0.799954 0.333013
0.768597 0.803983 0.352193
0.780987 0.804959 0.398291
0.798749 0.809979 0.437842
0.813901 0.815961 0.471962
0.820432 0.819883 0.495216
0.820935 0.819974 0.497841
0.820478 0.818891 0.493721
0.819974 0.817243 0.487266
0.215991 0.893767 0.670314
0.217182 0.893217 0.666484
0.218296 0.892454 0.662348
0.219623 0.891737 0.658259
0.221546 0.890852 0.653574
0.223087 0.889387 0.646433
0.221881 0.88835 0.638483
0.216953 0.887572 0.628977
0.214328 0.887465 0.61767
0.213199 0.886702 0.606226
0.211093 0.88574 0.592447
0.210315 0.884825 0.577142
0.209751 0.884596 0.559197
0.208713 0.883879 0.535912
0.212924 0.876478 0.50016
0.264347 0.858457 0.464225
0.329274 0.833005 0.42472
