bundles/resolve-cinematic-luts/Phantom Luts/Komodo Phantom ARRI LUTs G2/Komodo Phantom ARRI LUTs G2/33x/Standard (No WB Offset)/IceBlue_Komodo_G2_33x.cube
TITLE "Generated by Resolve"
LUT_3D_SIZE 9
0.0343023 0.0468605 0.0466621
0.0594644 0.0459754 0.0465095
0.210056 0.0400549 0.0463417
0.480171 0.0456855 0.0885176
0.650324 0.0714275 0.161151
0.666239 0.0747082 0.187808
0.671412 0.0754101 0.20061
0.673594 0.0753185 0.207553
0.677317 0.0728313 0.229984
0.0378119 0.0652934 0.0528572
0.0470893 0.0604257 0.0514382
0.194934 0.0478828 0.0466621
0.474647 0.0431067 0.0646982
0.633402 0.068986 0.122271
0.655329 0.0724651 0.164294
0.661006 0.073167 0.177813
0.662379 0.0734112 0.18114
0.664347 0.0707561 0.195605
0.0351263 0.227848 0.068452
0.0341802 0.231312 0.0601358
0.186496 0.224277 0.0528115
0.532219 0.19707 0.0984512
0.636576 0.0707866 0.104906
0.650355 0.07364 0.125643
0.648829 0.0729686 0.126238
0.648722 0.0729229 0.126314
0.652644 0.0734874 0.128481
0.0534676 0.513771 0.13193
0.0578775 0.523491 0.109285
0.0749523 0.523522 0.0909438
0.50103 0.541924 0.0978561
0.822126 0.603311 0.237903
0.871809 0.592584 0.26096
0.871962 0.570565 0.259388
0.872038 0.572229 0.259068
0.868986 0.621134 0.260227
0.224491 0.788357 0.305821
0.240925 0.796796 0.293523
0.284001 0.814252 0.276478
0.446189 0.814069 0.241337
0.858061 0.878614 0.360678
0.953262 0.893004 0.417823
0.952148 0.890105 0.415473
0.952667 0.892378 0.419013
0.958206 0.908766 0.433539
0.246967 0.841611 0.408743
0.247639 0.841398 0.406744
0.248646 0.840482 0.400153
0.24921 0.837278 0.372534
0.77705 0.895125 0.359915
0.966522 0.941085 0.467979
0.968551 0.941955 0.472999
0.968307 0.941848 0.474861
0.968902 0.941634 0.475181
0.247425 0.841535 0.41117
0.246876 0.84155 0.408957
0.247807 0.84065 0.401389
0.247639 0.839857 0.394232
0.738796 0.889235 0.344076
0.959136 0.939269 0.460304
0.970047 0.941421 0.473823
0.969467 0.941405 0.4757
0.968231 0.941665 0.47689
0.24802 0.841688 0.411795
0.246754 0.841382 0.409644
0.24715 0.84033 0.401679
0.247807 0.838453 0.385855
0.761349 0.891081 0.352529
0.963378 0.938552 0.463386
0.972 0.940719 0.474861
0.971283 0.940887 0.475334
0.966583 0.942168 0.476799
0.24712 0.842145 0.411551
0.246921 0.841489 0.408255
0.247196 0.84007 0.396979
0.387945 0.84892 0.28629
0.879316 0.917006 0.40856
0.971511 0.940459 0.472969
0.972 0.940719 0.474861
0.971405 0.940932 0.474556
0.966751 0.94226 0.475441
0.0309606 0.0478218 0.0706035
0.0597238 0.047013 0.0727092
0.222858 0.046128 0.0913405
0.497414 0.0493782 0.136065
0.665064 0.0715038 0.202762
0.679316 0.0745861 0.230594
0.682307 0.0750439 0.240284
0.683467 0.0749523 0.245548
0.685969 0.0734264 0.26453
0.0356451 0.0575113 0.059205
0.0386511 0.054078 0.056672
0.20798 0.0410468 0.0582895
0.49601 0.0468757 0.111269
0.660716 0.0709087 0.186648
0.671687 0.0729229 0.211307
0.676249 0.073518 0.224018
0.677623 0.0736858 0.228214
0.679728 0.0723125 0.242008
0.0350805 0.222568 0.103777
0.0346075 0.226215 0.0773785
0.175631 0.218799 0.0531014
0.532616 0.175845 0.0947127
0.638651 0.069398 0.118975
0.646906 0.0711528 0.130678
0.645151 0.0705119 0.130632
0.644984 0.0704509 0.130617
0.648875 0.0708934 0.13431
0.0521096 0.51284 0.165667
0.0557259 0.52163 0.144213
0.0595865 0.520974 0.0955215
0.49839 0.541878 0.0976425
0.825605 0.600732 0.240803
0.871855 0.587274 0.260685
0.871855 0.564141 0.25803
0.871427 0.565499 0.257343
0.869596 0.616114 0.260594
0.214496 0.787335 0.330953
0.228809 0.795132 0.31696
0.27541 0.810849 0.276875
0.434211 0.815106 0.242817
0.858473 0.879194 0.361425
0.953323 0.893172 0.41796
0.952056 0.890059 0.415274
0.952712 0.892378 0.418402
0.958022 0.908049 0.432288
0.247318 0.841749 0.411521
0.247318 0.841749 0.409735
0.248112 0.840864 0.401511
0.248661 0.838575 0.381323
0.773999 0.89456 0.358602
0.967117 0.941192 0.468452
0.96849 0.941924 0.473426
0.968124 0.941756 0.476234
0.968353 0.941848 0.474632
0.247364 0.841978 0.413962
0.246845 0.841871 0.411749
0.24744 0.841047 0.403738
0.247593 0.839887 0.394217
0.736599 0.889021 0.343313
0.958785 0.939147 0.459983
0.970092 0.941405 0.473854
0.969467 0.941405 0.4757
0.968048 0.941726 0.476799
0.247547 0.842313 0.41471
0.246693 0.841871 0.41265
0.247089 0.84065 0.404318
0.247379 0.839399 0.394324
0.756893 0.890349 0.35053
0.9626 0.938415 0.46273
0.972 0.940719 0.474861
0.971283 0.940902 0.475319
0.966735 0.942245 0.475593
0.248768 0.842313 0.418692
0.247532 0.841886 0.414618
0.247089 0.840574 0.401053
0.346654 0.843244 0.28838
0.873167 0.914687 0.40557
0.971374 0.940368 0.472526
0.972 0.940719 0.474861
0.971283 0.940887 0.475334
0.966339 0.942061 0.478599
0.0222171 0.0577096 0.212253
0.0629282 0.049134 0.220356
0.232364 0.0476844 0.223896
0.518044 0.0629892 0.242039
0.694484 0.082536 0.289601
0.707912 0.0906233 0.307622
0.711086 0.0936446 0.314031
0.71339 0.0955367 0.320012
0.720333 0.100847 0.351339
0.0159457 0.068513 0.190768
0.0245212 0.0565957 0.212985
0.224338 0.0474098 0.22742
0.527245 0.0641642 0.240803
0.695048 0.0802472 0.290333
0.704814 0.0871901 0.306661
0.708751 0.0907912 0.314122
0.71043 0.0923476 0.317449
0.717098 0.0975204 0.344991
0.0296025 0.193469 0.193652
0.0280919 0.19646 0.195972
0.152956 0.19382 0.207431
0.537835 0.130785 0.189334
0.659236 0.0697948 0.193133
0.674266 0.073228 0.21857
0.678401 0.0738231 0.230671
0.679515 0.073991 0.234241
0.680629 0.073518 0.240238
0.0474556 0.497353 0.262119
0.0487831 0.506767 0.254749
0.049485 0.502937 0.182834
0.469795 0.526848 0.0917983
0.831785 0.572381 0.24332
0.869718 0.538018 0.255238
0.866148 0.510094 0.252354
0.865705 0.510185 0.251331
0.871305 0.563882 0.257877
0.188678 0.778576 0.4112
0.194339 0.78497 0.405509
0.209384 0.786862 0.3467
0.354589 0.804288 0.240238
0.848707 0.871229 0.3523
0.950652 0.885008 0.410452
0.948852 0.880507 0.407095
0.94934 0.882506 0.409842
0.954238 0.89778 0.423056
0.247272 0.846265 0.448173
0.248005 0.844755 0.437232
0.248814 0.841703 0.414054
0.248585 0.840009 0.396857
0.748318 0.890532 0.347921
0.964355 0.940627 0.465599
0.96849 0.941924 0.473426
0.968078 0.941741 0.476555
0.968277 0.941833 0.475074
0.249149 0.848478 0.469551
0.248249 0.847776 0.460594
0.247669 0.842115 0.415869
0.247929 0.84007 0.396765
0.704204 0.884138 0.331182
0.954269 0.93785 0.456168
0.970184 0.941329 0.474342
0.969131 0.941268 0.478157
0.967803 0.941604 0.478691
0.249866 0.850248 0.485954
0.248585 0.849638 0.476188
0.246891 0.842313 0.418875
0.247181 0.839811 0.397269
0.721035 0.885039 0.336355
0.956649 0.937087 0.457511
0.972 0.940719 0.474861
0.971038 0.940795 0.477089
0.966339 0.942046 0.478645
0.254582 0.856306 0.541451
0.25214 0.855802 0.530037
0.24715 0.846052 0.447959
0.248402 0.837369 0.378256
0.841733 0.905745 0.390799
0.970626 0.940032 0.47068
0.972 0.940719 0.474861
0.971283 0.940887 0.475334
0.965835 0.942138 0.479286
0.0206302 0.0658732 0.426993
0.0514839 0.0538491 0.438804
0.207691 0.0516976 0.461692
0.514656 0.0605478 0.474586
0.695781 0.0777142 0.450568
0.704524 0.0813916 0.464912
0.70428 0.0816815 0.470329
0.703731 0.0817426 0.475013
0.698558 0.0829175 0.510185
0.00889601 0.0970626 0.427695
0.0220188 0.0655222 0.437659
0.186801 0.0522011 0.476112
0.52018 0.0619821 0.494026
0.699138 0.0799268 0.469474
0.702525 0.0818799 0.482643
0.702266 0.0821698 0.487449
0.702129 0.0824292 0.491279
0.697795 0.0840467 0.522255
0.0106203 0.170611 0.37586
0.00929274 0.166247 0.392599
0.0263828 0.0766766 0.441901
0.487617 0.0598306 0.483909
0.696254 0.076997 0.429252
0.70573 0.0804456 0.440162
0.705745 0.0806592 0.444327
0.70576 0.0808728 0.44831
0.702373 0.0814832 0.478584
0.0392615 0.461402 0.438849
0.0400397 0.470649 0.449348
0.0383764 0.464637 0.445792
0.397604 0.470863 0.478752
0.86096 0.436744 0.464668
0.886473 0.363638 0.434058
0.869535 0.330297 0.418509
0.868681 0.328038 0.419059
0.89453 0.376394 0.457649
0.163378 0.762356 0.562768
0.168475 0.769284 0.56875
0.168444 0.769482 0.55021
0.171832 0.758495 0.440513
0.767636 0.817166 0.327276
0.941405 0.856001 0.385779
0.93843 0.846311 0.378683
0.938613 0.846403 0.379797
0.944121 0.865568 0.395605
0.243473 0.854826 0.590784
0.24509 0.855009 0.592584
0.249027 0.854871 0.576547
0.249699 0.849195 0.477028
0.631098 0.874067 0.30959
0.956924 0.937255 0.457847
0.971862 0.940673 0.475837
0.971496 0.94052 0.478309
0.971527 0.940536 0.478096
0.241611 0.855833 0.602594
0.241627 0.856031 0.603647
0.244923 0.855207 0.585916
0.250584 0.851133 0.497108
0.545144 0.864149 0.294774
0.934066 0.933822 0.441596
0.970138 0.941283 0.474937
0.9691 0.941238 0.478416
0.967605 0.941512 0.480156
0.240696 0.856626 0.617075
0.240467 0.856886 0.617777
0.242008 0.855879 0.599237
0.251316 0.853056 0.514366
0.547784 0.86424 0.29398
0.933288 0.932677 0.440558
0.971832 0.940627 0.474861
0.97084 0.940597 0.479561
0.965988 0.941878 0.481331
0.245228 0.86125 0.677577
0.244984 0.861387 0.677073
0.241245 0.859449 0.653849
0.251865 0.855894 0.55996
0.722271 0.884779 0.33872
0.952117 0.93637 0.454246
0.971832 0.940627 0.47451
0.970901 0.940688 0.478202
0.965896 0.941802 0.482216
0.0254063 0.0737621 0.550317
0.0517586 0.0593576 0.560464
0.173678 0.0655222 0.616617
0.435935 0.0782635 0.661891
0.697398 0.124239 0.669367
0.712749 0.131136 0.680903
0.711788 0.131853 0.684153
0.710689 0.132372 0.686946
0.703731 0.135531 0.702602
0.0137179 0.0958114 0.553506
0.0272679 0.0721141 0.555734
0.155016 0.0653697 0.615885
0.435416 0.0797894 0.670268
0.702861 0.128313 0.679011
0.710948 0.133104 0.688869
0.71017 0.133913 0.691829
0.709087 0.134432 0.69456
0.702525 0.137026 0.707652
0.0208133 0.18854 0.59646
0.0200809 0.182727 0.599542
0.0295872 0.0710002 0.555856
0.382971 0.0748608 0.662989
0.693462 0.125139 0.675853
0.714076 0.13135 0.68043
0.713268 0.131975 0.683116
0.712718 0.132387 0.685161
0.706447 0.135073 0.699229
0.0457465 0.440925 0.620386
0.0471962 0.447395 0.625864
0.0453498 0.430594 0.629664
0.177905 0.297414 0.738109
0.765286 0.260639 0.769039
0.753475 0.164218 0.669917
0.729778 0.13286 0.642527
0.733806 0.138018 0.648478
0.765332 0.186038 0.699153
0.154772 0.714214 0.695308
0.159258 0.720943 0.700603
0.159731 0.720745 0.701106
0.151949 0.710597 0.694148
0.680278 0.745724 0.75906
0.953079 0.737575 0.75877
0.953841 0.722286 0.749584
0.95137 0.72311 0.750622
0.941634 0.751873 0.778408
0.264363 0.866026 0.747433
0.270924 0.865705 0.751385
0.270665 0.864881 0.746502
0.259449 0.863432 0.719692
0.267948 0.874647 0.644404
0.936477 0.955505 0.695079
0.990875 0.957229 0.632029
0.992081 0.960235 0.666758
0.989609 0.962798 0.730236
0.265751 0.867536 0.757214
0.273457 0.866804 0.760403
0.27219 0.86595 0.753902
0.261204 0.863432 0.723552
0.259007 0.871778 0.63975
0.889097 0.92958 0.4692
0.970855 0.940124 0.472404
0.970916 0.940154 0.478569
0.968017 0.939559 0.4925
0.267536 0.870146 0.770199
0.277073 0.86836 0.773281
0.275273 0.867414 0.765805
0.263111 0.864744 0.733623
0.261448 0.872816 0.654307
0.881117 0.928923 0.508446
0.970169 0.939925 0.471611
0.970291 0.940307 0.478935
0.966415 0.940612 0.486961
0.282399 0.874815 0.816938
0.291203 0.872419 0.816388
0.289769 0.871031 0.805798
0.274342 0.86807 0.768353
0.314214 0.893935 0.714763
0.920592 0.953552 0.708293
0.968841 0.940505 0.470741
0.968338 0.940764 0.478721
0.964843 0.941268 0.484489
0.0637064 0.0618906 0.58674
0.0880446 0.0616007 0.599619
0.190951 0.0693065 0.642954
0.422049 0.0829633 0.688716
0.693904 0.13489 0.705272
0.705882 0.137072 0.704341
0.705806 0.137102 0.704265
0.70573 0.137102 0.704494
0.702251 0.137621 0.708995
0.0402686 0.0636606 0.571908
0.066865 0.0619364 0.588952
0.179019 0.0688029 0.639094
0.429206 0.0838483 0.69015
0.700267 0.136263 0.705867
0.706035 0.137041 0.704265
0.705959 0.137072 0.704158
0.705592 0.137118 0.704692
0.701915 0.137652 0.70959
0.0214237 0.167742 0.61178
0.0178378 0.137591 0.597421
0.0650339 0.0619364 0.587777
0.376059 0.0787366 0.682795
0.689265 0.134585 0.706767
0.708171 0.136721 0.701473
0.708156 0.136736 0.701411
0.707912 0.136767 0.701732
0.704005 0.137346 0.706935
0.0414588 0.338903 0.66157
0.0415351 0.345434 0.662654
0.0380407 0.322347 0.657008
0.103792 0.110323 0.651118
0.61297 0.126894 0.718029
0.70898 0.137789 0.701991
0.709316 0.137377 0.700954
0.709392 0.137438 0.70106
0.706661 0.139086 0.706569
0.150225 0.676829 0.751736
0.154009 0.682414 0.754391
0.154421 0.681285 0.756268
0.145541 0.665766 0.752926
0.564492 0.654215 0.921813
0.94432 0.649714 0.935332
0.947173 0.633356 0.931579
0.947936 0.635599 0.931273
0.939834 0.671992 0.930434
0.27805 0.858671 0.836118
0.288029 0.86215 0.83888
0.287572 0.859861 0.836667
0.271641 0.845441 0.822492
0.257786 0.837629 0.81915
0.898833 0.92076 0.927245
0.977142 0.922988 0.929198
0.976577 0.921691 0.928054
0.974227 0.931334 0.938079
0.29102 0.873793 0.852979
0.299336 0.871946 0.851774
0.301122 0.872404 0.849683
0.299306 0.87303 0.839551
0.294453 0.878172 0.815824
0.738231 0.950484 0.881102
0.989227 0.985901 0.921157
0.998886 0.987427 0.924178
0.998886 0.9888 0.943694
0.286198 0.872786 0.856168
0.2963 0.87068 0.853498
0.298634 0.870604 0.852354
0.298161 0.873625 0.843061
0.294453 0.878569 0.816968
0.728374 0.946929 0.878355
0.979599 0.983368 0.919509
0.998886 0.979263 0.849668
0.994354 0.979294 0.855512
0.286702 0.872786 0.856001
0.296223 0.870405 0.853666
0.298772 0.86981 0.853025
0.299062 0.872801 0.850462
0.314595 0.892241 0.846555
0.842344 0.962737 0.928206
0.985626 0.987366 0.951354
0.998886 0.986709 0.91841
0.995911 0.98294 0.886229
0.0863508 0.0615091 0.598383
0.11078 0.0615549 0.609796
0.206531 0.0697795 0.647501
0.432242 0.0839857 0.689891
0.697017 0.135424 0.70515
0.705928 0.137057 0.704387
0.705852 0.137087 0.704311
0.706691 0.136965 0.703288
0.703243 0.137469 0.707774
0.0625467 0.0616159 0.585122
0.0874037 0.0615854 0.599374
0.193835 0.0693217 0.643778
0.437949 0.0847486 0.691157
0.703868 0.136995 0.705867
0.70605 0.137026 0.704295
0.705974 0.137057 0.704219
0.705608 0.137118 0.704707
0.701961 0.137652 0.709545
0.0186923 0.140612 0.59913
0.0156252 0.111574 0.581689
0.0838331 0.0616312 0.597681
0.384314 0.0793774 0.684001
0.69163 0.134997 0.707134
0.708125 0.136736 0.701564
0.708171 0.136736 0.701442
0.707912 0.136767 0.701778
0.704005 0.137346 0.706935
0.0360113 0.301518 0.652293
0.0363622 0.310445 0.654108
0.033402 0.287816 0.648508
0.0847944 0.0666361 0.605295
0.604715 0.114321 0.706371
0.708263 0.137102 0.701808
0.709361 0.136797 0.70013
0.709178 0.136934 0.700603
0.705989 0.138262 0.706157
0.147311 0.66833 0.755169
0.15053 0.674586 0.755688
0.149508 0.67248 0.754803
0.139513 0.654871 0.749767
0.559487 0.630732 0.923293
0.938186 0.627375 0.929595
0.947295 0.607736 0.925383
0.947127 0.610315 0.924224
0.938659 0.651148 0.928267
0.26743 0.845441 0.840635
0.277684 0.850416 0.841764
0.275578 0.846723 0.839658
0.257328 0.824369 0.826978
0.239628 0.803021 0.824353
0.846372 0.885771 0.942931
0.971542 0.89781 0.958526
0.972045 0.896666 0.957092
0.969162 0.910384 0.958495
0.288228 0.871672 0.856199
0.296345 0.870405 0.853605
0.297475 0.870161 0.8533
0.297322 0.870039 0.853468
0.302785 0.876799 0.859083
0.419211 0.928939 0.910582
0.978729 0.977844 0.979904
0.998886 0.979263 0.978912
0.99704 0.981353 0.982589
0.285451 0.872618 0.856626
0.295918 0.870512 0.853697
0.29752 0.870146 0.853284
0.295155 0.870588 0.854017
0.301686 0.877745 0.860533
0.338033 0.909743 0.879576
0.967224 0.986419 0.981018
0.998886 0.993652 0.98584
0.998886 0.994842 0.988876
0.287327 0.872038 0.856229
0.296208 0.87042 0.853651
0.298711 0.869825 0.85304
0.295827 0.870466 0.853788
0.315114 0.889799 0.870726
0.428458 0.935836 0.910842
0.976059 0.988983 0.986419
0.998108 0.994293 0.989853
0.998886 0.995682 0.991363
0.0924849 0.0615091 0.601358
0.117632 0.0614176 0.612314
0.211215 0.0698405 0.648692
0.435615 0.0842298 0.690089
0.698146 0.135637 0.705165
0.705928 0.137057 0.704387
0.705867 0.137087 0.704326
0.706569 0.136965 0.703471
0.704189 0.137331 0.7066
0.0681621 0.0616159 0.588556
0.0925765 0.0616159 0.601953
0.198184 0.0694438 0.64506
0.442191 0.0852827 0.691768
0.704662 0.137179 0.705928
0.70605 0.137026 0.704311
0.705989 0.137057 0.704234
0.705623 0.137102 0.704723
0.703166 0.137469 0.708019
0.0185092 0.133486 0.59527
0.0151522 0.105989 0.577783
0.0893721 0.0616312 0.600397
0.388159 0.0798047 0.684688
0.69308 0.135241 0.707134
0.70811 0.136736 0.701579
0.708171 0.136736 0.701442
0.707912 0.136767 0.701793
0.704204 0.137301 0.706676
0.035523 0.296605 0.651392
0.0355535 0.304234 0.652613
0.0324254 0.280888 0.646448
0.0856641 0.0677806 0.605844
0.606928 0.114992 0.706584
0.707683 0.137087 0.702419
0.709392 0.136828 0.70013
0.709178 0.136919 0.700603
0.705959 0.138216 0.706142
0.146731 0.667124 0.754788
0.149981 0.673609 0.755474
0.149203 0.67187 0.754681
0.139116 0.654063 0.749615
0.560906 0.62771 0.923949
0.93698 0.624475 0.928389
0.946487 0.605829 0.924834
0.947341 0.607965 0.92285
0.937453 0.649439 0.927169
0.266911 0.844129 0.839765
0.275822 0.849027 0.841291
0.27425 0.845228 0.838682
0.254215 0.820661 0.824826
0.238773 0.801404 0.82388
0.847532 0.882185 0.941054
0.969802 0.895033 0.956603
0.975525 0.892531 0.951782
0.968307 0.907408 0.956527
0.28867 0.87155 0.856092
0.29633 0.870405 0.853605
0.297459 0.870161 0.8533
0.297292 0.870054 0.853468
0.302937 0.877058 0.859297
0.462806 0.932113 0.925109
0.966964 0.971283 0.98024
0.996765 0.975464 0.982315
0.995315 0.97789 0.984436
0.285466 0.872618 0.856626
0.295903 0.870527 0.853712
0.297459 0.870161 0.8533
0.295079 0.870588 0.854032
0.301717 0.877836 0.860746
0.32314 0.902068 0.881163
0.923751 0.978851 0.979095
0.998886 0.991745 0.993317
0.998886 0.992615 0.992523
0.287327 0.872038 0.856229
0.296223 0.87042 0.853651
0.298665 0.869841 0.853056
0.295827 0.870451 0.853803
0.314824 0.889494 0.870542
0.352056 0.914702 0.893629
0.952346 0.983246 0.98497
0.997772 0.994232 0.99675
0.998886 0.995224 0.995895
0.0934768 0.0615244 0.601862
0.120394 0.0614328 0.613367
0.217838 0.0700847 0.650462
0.446387 0.0855573 0.691524
0.702464 0.136568 0.705348
0.705928 0.137057 0.704387
0.705867 0.137087 0.704326
0.706569 0.136965 0.703456
0.703166 0.137484 0.707835
0.0679179 0.0616007 0.588373
0.0938735 0.0616464 0.602609
0.204059 0.0697032 0.64686
0.453193 0.0865492 0.693004
0.704814 0.137163 0.705776
0.70605 0.137026 0.70428
0.705989 0.137057 0.704234
0.705623 0.137102 0.704723
0.702983 0.137499 0.708278
0.0190738 0.141115 0.599283
0.0154421 0.110109 0.580606
0.0908064 0.0616464 0.601114
0.398413 0.0807507 0.686198
0.698146 0.136263 0.70724
0.708125 0.136736 0.701564
0.708186 0.136721 0.701457
0.707958 0.136751 0.701808
0.704051 0.137331 0.706981
0.0373083 0.311009 0.654612
0.0378119 0.320531 0.656672
0.034638 0.297261 0.651041
0.103792 0.0808423 0.627436
0.615824 0.119921 0.710216
0.708003 0.137377 0.702541
0.70959 0.137072 0.700298
0.709361 0.137102 0.700755
0.706325 0.138705 0.706447
0.150942 0.673976 0.756588
0.154833 0.680873 0.757671
0.153674 0.67863 0.75642
0.143496 0.66096 0.751659
0.577798 0.640055 0.923247
0.935882 0.640162 0.927245
0.949096 0.621469 0.925856
0.94699 0.625116 0.923827
0.936446 0.664744 0.926635
0.274067 0.850401 0.843244
0.282048 0.854475 0.843931
0.280751 0.850294 0.841276
0.26511 0.830884 0.830808
0.244343 0.806058 0.826398
0.856367 0.887831 0.941512
0.970703 0.900755 0.957641
0.975433 0.898314 0.952285
0.968582 0.912734 0.957229
0.290654 0.871061 0.855604
0.298192 0.869902 0.853208
0.300954 0.8692 0.852567
0.301671 0.869001 0.852415
0.309316 0.877699 0.859693
0.505577 0.93698 0.931563
0.968139 0.972564 0.981857
0.996445 0.976272 0.983581
0.994507 0.978714 0.985718
0.290608 0.871199 0.855528
0.298528 0.869795 0.853147
0.301778 0.868971 0.852399
0.301946 0.868925 0.852369
0.31136 0.877974 0.859998
0.333196 0.901793 0.880201
0.931807 0.97998 0.982589
0.998886 0.991623 0.993622
0.998886 0.992966 0.99469
0.285115 0.872465 0.856931
0.297475 0.870069 0.853376
0.301762 0.868971 0.852399
0.302159 0.868864 0.852308
0.324315 0.888624 0.868971
0.364111 0.913985 0.892805
0.950179 0.983032 0.986618
0.994232 0.994827 0.998856
0.998886 0.994812 0.994553
