bundles/resolve-cinematic-luts/Phantom Luts/Komodo Phantom ARRI LUTs G2/Komodo Phantom ARRI LUTs G2/33x/Standard (No WB Offset)/IceBlue_Komodo_Legacy_G2_33x.cube
TITLE "Generated by Resolve"
LUT_3D_SIZE 5
0.0478218 0.0597543 0.0639048
0.164355 0.0554208 0.0640421
0.636271 0.0828107 0.13959
0.657862 0.0861524 0.172168
0.659419 0.0762798 0.196582
0.0523232 0.1823 0.082887
0.147158 0.180331 0.0734569
0.627131 0.0808576 0.101427
0.639765 0.0850385 0.117128
0.644465 0.085771 0.120089
0.202533 0.763317 0.278157
0.261173 0.799634 0.26685
0.824689 0.863691 0.333745
0.947768 0.877958 0.399725
0.955276 0.902754 0.419806
0.241062 0.833082 0.380865
0.24184 0.832532 0.372503
0.6916 0.878553 0.317098
0.96907 0.941039 0.459724
0.96701 0.941375 0.462272
0.240909 0.833616 0.380774
0.241306 0.832059 0.369268
0.851377 0.912169 0.384543
0.97084 0.940429 0.460761
0.965743 0.941878 0.460883
0.0381323 0.0674754 0.174365
0.181048 0.0608988 0.181384
0.680781 0.0916457 0.250629
0.696529 0.10042 0.271656
0.704128 0.103563 0.304356
0.0464637 0.152529 0.158389
0.119997 0.155184 0.170367
0.642847 0.0774395 0.166217
0.66096 0.0780346 0.196933
0.663752 0.0781109 0.205447
0.166018 0.746731 0.359167
0.18967 0.760296 0.308705
0.812985 0.853727 0.323507
0.943771 0.865125 0.390311
0.950378 0.888136 0.408087
0.239918 0.838697 0.42974
0.241169 0.833585 0.384588
0.654658 0.872312 0.305165
0.969024 0.941009 0.460121
0.966812 0.941283 0.463706
0.241856 0.846265 0.494682
0.239338 0.836942 0.411597
0.805219 0.898634 0.363149
0.97084 0.940429 0.460761
0.964889 0.941772 0.464363
0.0309148 0.0856336 0.546227
0.136797 0.0774548 0.593927
0.691737 0.125978 0.651713
0.71046 0.135332 0.669642
0.700145 0.138491 0.691096
0.0272374 0.1561 0.578256
0.0339055 0.0839704 0.551629
0.686641 0.126696 0.659724
0.711742 0.135424 0.668879
0.702983 0.138064 0.68751
0.132692 0.671656 0.652567
0.136843 0.679194 0.659541
0.623194 0.693767 0.70779
0.945907 0.670298 0.697826
0.937484 0.701717 0.730022
0.26183 0.861997 0.721172
0.267063 0.860731 0.718227
0.250355 0.867445 0.593118
0.970291 0.939635 0.459052
0.967727 0.939162 0.476036
0.282856 0.868925 0.796139
0.286946 0.86569 0.782223
0.293141 0.887404 0.671611
0.967849 0.940215 0.457404
0.963775 0.940948 0.468879
0.0700999 0.0741131 0.583947
0.165225 0.0814832 0.629221
0.688731 0.136614 0.694865
0.700771 0.13959 0.694286
0.698054 0.139971 0.698009
0.0266575 0.125933 0.588235
0.0689097 0.0743725 0.583917
0.682231 0.136156 0.69749
0.703197 0.139208 0.691218
0.69894 0.139834 0.696925
0.128496 0.617456 0.72697
0.130159 0.622766 0.727382
0.491798 0.569909 0.896406
0.932128 0.548608 0.907164
0.929107 0.593881 0.915953
0.29543 0.865812 0.851652
0.30338 0.864683 0.84918
0.310689 0.873854 0.856779
0.977325 0.977844 0.980224
0.995392 0.981094 0.982742
0.293141 0.867262 0.85153
0.304494 0.864393 0.848798
0.32697 0.891539 0.871992
0.972854 0.985992 0.985367
0.990692 0.98819 0.988724
0.0755474 0.0742504 0.587182
0.175296 0.0817121 0.632456
0.696239 0.138613 0.695232
0.700786 0.139574 0.694301
0.697917 0.140002 0.698177
0.0271 0.126253 0.588449
0.0737163 0.0745098 0.586755
0.690761 0.137911 0.697185
0.703227 0.139193 0.691218
0.698985 0.139818 0.696971
0.131868 0.624216 0.728679
0.133394 0.629267 0.728695
0.510399 0.580087 0.898497
0.935592 0.563424 0.909972
0.928496 0.607996 0.915785
0.297551 0.865324 0.850996
0.306279 0.86389 0.848417
0.317174 0.875593 0.858045
0.965438 0.971664 0.982345
0.993027 0.978058 0.984527
0.292943 0.866484 0.852216
0.307103 0.863661 0.848386
0.335607 0.890913 0.870726
0.940642 0.983642 0.986862
0.990478 0.988403 0.991882
