bundles/resolve-cinematic-luts/Phantom Luts/Komodo Phantom ARRI LUTs G2/Komodo Phantom ARRI LUTs G2/33x/Standard (No WB Offset)/IceBlue_Komodo_Legacy_G2_33x.cube
TITLE "Generated by Resolve"
LUT_3D_SIZE 33
0.0478218 0.0597543 0.0639048
0.047837 0.0597543 0.0638743
0.0480964 0.0597391 0.0638895
0.0535134 0.0596323 0.0648051
0.062501 0.0589303 0.0640116
0.0758068 0.0585336 0.0636301
0.0949111 0.0575265 0.0629587
0.123827 0.0565499 0.062974
0.164355 0.0554208 0.0640421
0.213153 0.0547951 0.0655375
0.272572 0.0551156 0.0681163
0.341756 0.0564431 0.0732128
0.420127 0.0578927 0.0817121
0.496376 0.0602121 0.0939956
0.554238 0.0638895 0.108751
0.597162 0.0675517 0.123583
0.636271 0.0828107 0.13959
0.646021 0.0855268 0.148043
0.648707 0.0858625 0.153201
0.651194 0.0863355 0.157519
0.6533 0.0867475 0.161669
0.655314 0.0870832 0.16556
0.656733 0.0873884 0.167956
0.658045 0.0875868 0.170687
0.657862 0.0861524 0.172168
0.652705 0.0786603 0.170932
0.6533 0.0787671 0.172015
0.65391 0.0788586 0.173404
0.654505 0.0788586 0.175097
0.65536 0.0785687 0.17818
0.656352 0.0781109 0.182193
0.657847 0.0772412 0.189105
0.659419 0.0762798 0.196582
0.0479438 0.0596475 0.0635538
0.0478828 0.0597086 0.0637522
0.0478523 0.0597391 0.063859
0.0518959 0.059678 0.0644846
0.0614633 0.0590524 0.0641794
0.0754406 0.0586252 0.0640116
0.0959029 0.0574655 0.0636606
0.126558 0.0563973 0.0633097
0.167285 0.0550393 0.0633402
0.216632 0.0542458 0.0638132
0.277852 0.0541543 0.0661173
0.349554 0.0553902 0.0712291
0.429511 0.0567025 0.0805524
0.503944 0.0591135 0.0946822
0.559152 0.0627451 0.109453
0.600641 0.0663462 0.124895
0.641016 0.083711 0.142916
0.645991 0.0847486 0.149966
0.64863 0.0851911 0.154788
0.651041 0.0856184 0.159075
0.65304 0.0860304 0.162997
0.654841 0.0863355 0.166522
0.656458 0.0866407 0.169467
0.657511 0.0868391 0.171481
0.658381 0.0870069 0.17322
0.659098 0.087068 0.174823
0.655802 0.0823224 0.173983
0.656291 0.082414 0.17496
0.656641 0.0824903 0.175662
0.657191 0.0823224 0.177523
0.657954 0.0819715 0.180438
0.659434 0.0810712 0.186938
0.66099 0.0800488 0.194324
0.0479438 0.0596475 0.0635691
0.0478676 0.0597086 0.0637675
0.0478523 0.0597391 0.063859
0.0489815 0.0598459 0.06392
0.0580453 0.0596933 0.0647288
0.0716259 0.0593576 0.0640421
0.0922866 0.0582437 0.0636912
0.123278 0.0570077 0.0641642
0.16556 0.0554055 0.0638895
0.215839 0.0542763 0.0636912
0.275166 0.0535592 0.0637369
0.346929 0.0540475 0.0663005
0.427848 0.055024 0.0743725
0.5028 0.0571603 0.0882734
0.558007 0.0612039 0.104723
0.605615 0.0735943 0.122042
0.6383 0.0834058 0.136263
0.643854 0.0843366 0.146181
0.646815 0.0848402 0.151568
0.649134 0.0851606 0.155978
0.651194 0.0855421 0.159686
0.652888 0.0858625 0.163012
0.654246 0.0861067 0.165713
0.65536 0.0863203 0.167819
0.656306 0.0864729 0.169619
0.656886 0.0866102 0.170626
0.657267 0.0866712 0.171359
0.657633 0.0867323 0.172076
0.657877 0.0867781 0.172564
0.658305 0.0866102 0.174105
0.658991 0.0861982 0.176944
0.66038 0.0852369 0.183093
0.66186 0.0841382 0.190005
0.0485389 0.0618753 0.0641947
0.0484627 0.0619669 0.064332
0.0485542 0.0616159 0.0643168
0.0488289 0.060853 0.0642252
0.0539864 0.0611429 0.0649729
0.0661173 0.0610666 0.0647898
0.084596 0.0599374 0.0634012
0.114733 0.0587778 0.0642405
0.159121 0.0570077 0.0646982
0.210864 0.0556954 0.0641489
0.272663 0.0550393 0.0641031
0.343404 0.0548257 0.0651255
0.421637 0.0540322 0.0682841
0.495384 0.0549172 0.0774243
0.551217 0.0582895 0.0942092
0.602121 0.0737163 0.112871
0.631861 0.0823682 0.124727
0.638239 0.0834821 0.135363
0.643275 0.0843061 0.144823
0.64593 0.0846723 0.150027
0.648051 0.0850385 0.153964
0.649714 0.0852522 0.157107
0.651026 0.0855116 0.159396
0.652094 0.0857099 0.161364
0.652857 0.0858625 0.162966
0.653391 0.0859693 0.164004
0.653819 0.0860456 0.164858
0.654124 0.0860914 0.165484
0.654322 0.0861219 0.16585
0.654688 0.0859388 0.167163
0.655314 0.0854963 0.169772
0.656611 0.0845045 0.17557
0.657954 0.0833753 0.181994
0.0502937 0.0700389 0.0662394
0.0502174 0.0702525 0.066331
0.0501717 0.0700236 0.0663005
0.0519112 0.0689097 0.0661326
0.0559854 0.0677806 0.066041
0.0657359 0.0680705 0.068101
0.0818952 0.0673838 0.0675364
0.108293 0.0647593 0.065095
0.150668 0.0608225 0.0638743
0.203235 0.0582284 0.0649424
0.267063 0.0576638 0.0657969
0.339269 0.0567788 0.0663005
0.417975 0.0558175 0.0680705
0.492012 0.0556649 0.0740215
0.543099 0.0568704 0.0830854
0.592676 0.0722515 0.0996567
0.620233 0.0798962 0.10985
0.627558 0.0816052 0.117266
0.633661 0.0826886 0.126986
0.638682 0.0835737 0.136126
0.642664 0.0842603 0.143572
0.644678 0.0844739 0.147585
0.646281 0.0847486 0.150546
0.647395 0.0849775 0.152697
0.648188 0.0850538 0.154192
0.648676 0.0850996 0.155138
0.649042 0.0851301 0.155901
0.649348 0.0851911 0.156435
0.649485 0.0852064 0.156695
0.649775 0.0849928 0.157946
0.650172 0.0845502 0.160052
0.65127 0.0835737 0.165377
0.652354 0.082475 0.171054
0.0524147 0.0831006 0.0701915
0.0524453 0.0836194 0.0702983
0.0523232 0.0836194 0.0702678
0.0532235 0.0826581 0.0699321
0.0574044 0.0804608 0.0699474
0.0664073 0.0800641 0.0700542
0.0837415 0.0800793 0.0710613
0.111299 0.0785229 0.0715801
0.154009 0.0745251 0.0682536
0.204761 0.0689097 0.0645914
0.262486 0.0627909 0.0650645
0.332174 0.0596323 0.0677348
0.412238 0.0582742 0.0694896
0.49041 0.0576486 0.0743114
0.54342 0.0587472 0.0829786
0.590997 0.0720836 0.0966659
0.6168 0.0792096 0.104753
0.616419 0.079118 0.104341
0.618967 0.0796826 0.107485
0.623194 0.080705 0.112062
0.627329 0.0815442 0.117082
0.631205 0.0823224 0.123018
0.633997 0.0827039 0.127962
0.636088 0.0831006 0.131594
0.637491 0.083299 0.134325
0.639521 0.0837415 0.137255
0.640146 0.0838483 0.138537
0.640452 0.0839094 0.139269
0.640482 0.0838941 0.139376
0.640391 0.0836042 0.139803
0.640238 0.0830396 0.140719
0.640421 0.0818341 0.14403
0.639918 0.0803388 0.14638
0.0530098 0.104784 0.0741283
0.0528115 0.10573 0.0729839
0.0524605 0.105913 0.0727245
0.052491 0.105165 0.0726787
0.0568399 0.103258 0.073106
0.0635233 0.100755 0.0731212
0.0815442 0.100938 0.0726787
0.112917 0.101106 0.0747539
0.161013 0.0980087 0.0762341
0.213748 0.0910658 0.0723125
0.274556 0.081651 0.0676585
0.339971 0.0714275 0.0646067
0.409216 0.0634012 0.0680095
0.48539 0.0601968 0.0744793
0.542657 0.0607919 0.0834363
0.588678 0.0696117 0.0952163
0.621561 0.0806134 0.106844
0.624689 0.0816968 0.107485
0.623087 0.0812848 0.10695
0.621317 0.0806897 0.106249
0.619715 0.0801709 0.105638
0.618418 0.0797589 0.105135
0.618463 0.0797131 0.105577
0.619196 0.0798962 0.10663
0.620035 0.0800641 0.107637
0.620447 0.0801709 0.108095
0.620798 0.0802472 0.108507
0.621042 0.080293 0.108797
0.620966 0.0802625 0.108736
0.620859 0.0800336 0.109133
0.620584 0.0795758 0.109819
0.620356 0.0786603 0.111696
0.621973 0.0781415 0.115145
0.0527657 0.137957 0.0784314
0.0525978 0.139757 0.0766918
0.0523537 0.140307 0.0754406
0.0521553 0.13991 0.0751507
0.0530709 0.138705 0.0750744
0.0605478 0.136263 0.075761
0.0738842 0.134112 0.0762493
0.107332 0.133883 0.0737469
0.158831 0.134112 0.0759747
0.221942 0.131395 0.0791791
0.290425 0.122377 0.078294
0.360754 0.108873 0.0746166
0.4327 0.0948043 0.0710613
0.499901 0.0768597 0.0718242
0.545205 0.0662394 0.0809186
0.58555 0.0652781 0.0953231
0.625956 0.0804608 0.111971
0.635172 0.0833143 0.116426
0.633997 0.0829786 0.116197
0.633005 0.0827039 0.115923
0.631815 0.0823529 0.115419
0.630808 0.0820478 0.114977
0.630045 0.0818189 0.114702
0.62948 0.0816052 0.114412
0.628992 0.0814527 0.114244
0.628672 0.0813153 0.114199
0.628595 0.0812543 0.114305
0.628656 0.0812238 0.114519
0.62887 0.0812238 0.114839
0.629313 0.0813001 0.11519
0.63006 0.0815137 0.115648
0.631617 0.0817121 0.117235
0.633921 0.0818189 0.120027
0.0523232 0.1823 0.082887
0.0519265 0.184619 0.0806439
0.0514382 0.18558 0.0777295
0.0513161 0.185977 0.0767529
0.0513161 0.185306 0.0766766
0.0556954 0.184207 0.0771954
0.0664378 0.181582 0.0782177
0.0910048 0.180957 0.0779583
0.147158 0.180331 0.0734569
0.216068 0.181491 0.076936
0.297261 0.181781 0.0834516
0.379278 0.174258 0.0885176
0.459648 0.160433 0.0890364
0.534508 0.141497 0.0899214
0.584634 0.120134 0.0908217
0.60766 0.0898146 0.0917372
0.627131 0.0808576 0.101427
0.644465 0.0869459 0.116106
0.643305 0.0864424 0.116518
0.642527 0.0861677 0.116823
0.641871 0.085893 0.116915
0.641199 0.0856184 0.117052
0.640574 0.0853742 0.117082
0.640085 0.0851759 0.117113
0.639765 0.0850385 0.117128
0.639567 0.0849317 0.117098
0.639506 0.0849012 0.117113
0.639475 0.0849012 0.117098
0.639612 0.0849622 0.117098
0.639963 0.0851301 0.117144
0.640711 0.08542 0.117144
0.642344 0.0856947 0.118318
0.644465 0.085771 0.120089
0.0525063 0.235157 0.0878462
0.0521706 0.238437 0.0855879
0.0516518 0.240467 0.0821698
0.0512398 0.240833 0.078706
0.0513313 0.240436 0.078172
0.0514839 0.239307 0.0784466
0.0595254 0.238956 0.0790875
0.0757916 0.236042 0.0802014
0.118822 0.238529 0.0791943
0.19968 0.239063 0.0744793
0.287648 0.240925 0.0781262
0.379721 0.246357 0.0877241
0.476478 0.241718 0.104143
0.558419 0.235721 0.111772
0.629007 0.219913 0.122148
0.671489 0.198489 0.130495
0.68893 0.167483 0.127382
0.68159 0.120821 0.114748
0.664256 0.0983291 0.109667
0.656382 0.0927596 0.108064
0.653773 0.0913405 0.111849
0.652003 0.0903639 0.113344
0.651438 0.090135 0.113466
0.651011 0.0899519 0.113558
0.650813 0.0898604 0.113619
0.650629 0.0897536 0.113725
0.650568 0.0897231 0.113756
0.650614 0.0897536 0.113756
0.650843 0.0898451 0.11368
0.651408 0.0901045 0.113527
0.652354 0.0905318 0.113268
0.654093 0.0909895 0.113634
0.656626 0.0914778 0.114382
0.0529946 0.300664 0.094316
0.0525673 0.304524 0.0916609
0.0523232 0.306798 0.0884565
0.051957 0.307454 0.0839551
0.0516976 0.307256 0.0808881
0.051667 0.306325 0.0808881
0.0525368 0.305653 0.0811933
0.0663157 0.306554 0.0819867
0.0930495 0.303883 0.0823072
0.162234 0.307515 0.0795148
0.263462 0.309255 0.0741436
0.368811 0.31342 0.0810407
0.468849 0.326955 0.0912795
0.569345 0.328862 0.121782
0.65275 0.328954 0.139971
0.714427 0.32372 0.160067
0.756115 0.307179 0.17641
0.773083 0.278569 0.181155
0.761074 0.250355 0.171099
0.746654 0.225299 0.159945
0.732341 0.201633 0.14905
0.719341 0.180407 0.139528
0.708705 0.163058 0.131762
0.701747 0.151537 0.127184
0.698146 0.147311 0.124147
0.694942 0.142962 0.121935
0.694789 0.139696 0.124773
0.694377 0.138872 0.124743
0.695796 0.140627 0.125597
0.698054 0.145907 0.124483
0.705303 0.156695 0.128985
0.719814 0.1794 0.140826
0.739757 0.210834 0.157336
0.0527199 0.373846 0.102281
0.0529946 0.378119 0.100511
0.0529183 0.38085 0.0964981
0.052781 0.381888 0.0919661
0.0522469 0.382467 0.0860914
0.0521248 0.382818 0.0835584
0.0520485 0.382223 0.0836957
0.0551919 0.381399 0.0838788
0.0772869 0.381888 0.0841382
0.121721 0.378683 0.0837873
0.220005 0.385473 0.080415
0.343084 0.39173 0.0772106
0.457389 0.399054 0.0888991
0.555886 0.41648 0.0984512
0.650706 0.427436 0.13817
0.729366 0.432532 0.174685
0.787198 0.438361 0.199832
0.825437 0.437919 0.216037
0.831617 0.419196 0.219593
0.825635 0.399161 0.214954
0.819486 0.380774 0.210056
0.814069 0.36495 0.206409
0.809796 0.354314 0.20383
0.806226 0.345693 0.201724
0.803922 0.33959 0.200412
0.802533 0.33579 0.199619
0.801785 0.333959 0.199191
0.802991 0.336233 0.200259
0.804685 0.339864 0.201541
0.807706 0.347204 0.203708
0.812329 0.360357 0.206607
0.819928 0.381476 0.212085
0.829908 0.411231 0.219562
0.0557412 0.4551 0.115343
0.0561837 0.45948 0.113527
0.0568093 0.462806 0.110323
0.0570535 0.464469 0.105714
0.0564889 0.466941 0.0988022
0.056733 0.468879 0.0920577
0.057496 0.468925 0.0910353
0.0571908 0.467689 0.0910506
0.0667735 0.466041 0.0897688
0.102296 0.464988 0.0887922
0.175616 0.464012 0.0876173
0.298085 0.472663 0.0859693
0.432227 0.480858 0.0881666
0.542473 0.48954 0.10547
0.637842 0.506554 0.126131
0.71516 0.52958 0.161334
0.785214 0.543526 0.203738
0.831479 0.558633 0.22652
0.846876 0.555444 0.234592
0.847379 0.544274 0.234455
0.847486 0.534936 0.234195
0.847593 0.527535 0.233845
0.847288 0.521187 0.233265
0.847288 0.51603 0.232959
0.847456 0.512383 0.232807
0.847379 0.510201 0.232578
0.847562 0.51075 0.23267
0.847532 0.511376 0.232532
0.847501 0.513985 0.232502
0.847608 0.519188 0.232731
0.847547 0.52871 0.233021
0.847135 0.543633 0.233616
0.846021 0.564721 0.234668
0.0691386 0.537926 0.142245
0.0709087 0.542214 0.140978
0.0724346 0.545495 0.138781
0.0736858 0.547601 0.13431
0.0748913 0.549554 0.128496
0.0764935 0.55172 0.121843
0.0809491 0.554711 0.116274
0.0804608 0.553582 0.115846
0.07953 0.552346 0.115526
0.0995499 0.550301 0.107759
0.157244 0.548775 0.102174
0.256626 0.549432 0.100618
0.390311 0.560052 0.102602
0.522866 0.568597 0.115007
0.624582 0.581521 0.143999
0.718166 0.598917 0.179065
0.784054 0.624796 0.208621
0.828275 0.649912 0.230289
0.846998 0.660471 0.240192
0.845975 0.653315 0.238499
0.845396 0.647745 0.237461
0.844984 0.642908 0.236622
0.844572 0.639063 0.235935
0.844358 0.636133 0.235401
0.84445 0.634272 0.235248
0.844465 0.633799 0.235218
0.84445 0.633524 0.235187
0.844602 0.634424 0.235401
0.8448 0.636454 0.235752
0.845533 0.640543 0.236866
0.846616 0.648127 0.238499
0.848264 0.658793 0.241032
0.852338 0.672618 0.246342
0.100893 0.61677 0.182498
0.103395 0.620539 0.182223
0.106493 0.62446 0.180591
0.109392 0.62681 0.177172
0.1122 0.629023 0.172335
0.114839 0.630701 0.165911
0.122347 0.633799 0.158618
0.128054 0.636469 0.156344
0.126787 0.634928 0.155566
0.127337 0.63299 0.153597
0.171099 0.630259 0.136614
0.242466 0.628122 0.127672
0.363058 0.632624 0.126238
0.495583 0.646632 0.140002
0.616403 0.661021 0.167773
0.709987 0.678782 0.205554
0.799329 0.698161 0.248508
0.855619 0.724773 0.274327
0.889097 0.742687 0.292851
0.886793 0.735134 0.287999
0.884398 0.73106 0.284825
0.882368 0.727504 0.282216
0.880888 0.724743 0.280262
0.880568 0.723934 0.279789
0.880003 0.722957 0.279225
0.87953 0.72224 0.278889
0.879408 0.722164 0.279011
0.87982 0.722988 0.279805
0.880812 0.724941 0.281254
0.883055 0.728817 0.284062
0.886763 0.735256 0.28864
0.892149 0.744564 0.295399
0.898466 0.756863 0.304967
0.148394 0.691737 0.230167
0.152361 0.695857 0.230594
0.15642 0.699351 0.22948
0.159854 0.701366 0.226032
0.163653 0.70341 0.221057
0.167849 0.705516 0.215167
0.178347 0.709819 0.2094
0.192859 0.715892 0.205447
0.194186 0.716121 0.204425
0.192264 0.71429 0.203296
0.207919 0.711818 0.192874
0.263935 0.708278 0.172747
0.35227 0.705608 0.163165
0.491951 0.720043 0.17467
0.615885 0.738949 0.20679
0.71809 0.762219 0.244678
0.803021 0.788724 0.288808
0.873518 0.809506 0.325231
0.91664 0.819516 0.350271
0.927687 0.816098 0.35375
0.925658 0.811948 0.350225
0.924605 0.809476 0.348272
0.923995 0.807767 0.347021
0.923659 0.806775 0.34638
0.923445 0.806043 0.346059
0.92314 0.805615 0.345937
0.923217 0.805814 0.346395
0.923537 0.806546 0.347387
0.92462 0.808881 0.349554
0.926162 0.812146 0.352224
0.929122 0.817548 0.356954
0.932342 0.825666 0.362844
0.935683 0.836759 0.370123
0.202533 0.763317 0.278157
0.207019 0.767651 0.279194
0.211078 0.770901 0.278431
0.214939 0.773297 0.276692
0.220127 0.775906 0.272007
0.226932 0.779477 0.266239
0.237751 0.785565 0.265797
0.253025 0.793774 0.265446
0.261173 0.799634 0.26685
0.260273 0.798306 0.264881
0.259953 0.79736 0.263386
0.311894 0.794705 0.241703
0.387976 0.788571 0.22269
0.505776 0.791379 0.221485
0.633433 0.814771 0.25362
0.748714 0.837217 0.297353
0.824689 0.863691 0.333745
0.882338 0.877104 0.366415
0.925444 0.883864 0.390661
0.949371 0.885496 0.404807
0.948852 0.881559 0.402121
0.948379 0.880461 0.40116
0.948089 0.879316 0.40032
0.947906 0.878477 0.399847
0.947768 0.877958 0.399725
0.947631 0.877791 0.399924
0.947601 0.878233 0.40061
0.947585 0.879088 0.401556
0.947967 0.880705 0.402975
0.949035 0.883543 0.405341
0.950027 0.887633 0.408148
0.952392 0.894011 0.413062
0.955276 0.902754 0.419806
0.244236 0.826612 0.331609
0.244465 0.82771 0.334264
0.24445 0.828214 0.336736
0.244587 0.828489 0.337865
0.24477 0.828687 0.338491
0.244816 0.828748 0.338735
0.244862 0.828702 0.338399
0.244923 0.828595 0.337682
0.245167 0.828458 0.336583
0.245441 0.828382 0.33576
0.246113 0.828046 0.332906
0.260807 0.828504 0.313664
0.361547 0.837385 0.275975
0.480247 0.843839 0.26865
0.618097 0.859602 0.288533
0.736812 0.879789 0.328023
0.829435 0.900664 0.368658
0.886564 0.9178 0.397681
0.932738 0.926482 0.425895
0.962615 0.931014 0.446952
0.965087 0.929625 0.444755
0.964691 0.928664 0.443732
0.964477 0.928115 0.443168
0.964202 0.927749 0.442832
0.964034 0.92755 0.442832
0.964019 0.927611 0.44329
0.964202 0.928008 0.444266
0.964355 0.92842 0.445319
0.964675 0.929305 0.446555
0.965164 0.930358 0.447807
0.965728 0.931853 0.449363
0.966842 0.934493 0.452049
0.968826 0.938125 0.456031
0.240574 0.832731 0.377432
0.240635 0.832807 0.377096
0.240864 0.832914 0.37644
0.241154 0.83299 0.375616
0.241413 0.833005 0.37467
0.241657 0.832975 0.373449
0.242985 0.832425 0.373022
0.242878 0.832395 0.372137
0.242741 0.832197 0.370016
0.242527 0.832151 0.368658
0.242313 0.832197 0.368505
0.24213 0.832135 0.367819
0.24799 0.826749 0.321233
0.363989 0.840131 0.27863
0.524788 0.855177 0.279042
0.67422 0.875563 0.311254
0.787869 0.89604 0.354879
0.86743 0.918959 0.39321
0.920913 0.932158 0.423789
0.958373 0.938338 0.448981
0.970428 0.940429 0.460151
0.970993 0.940566 0.46128
0.970993 0.94052 0.461219
0.970947 0.94049 0.461265
0.970886 0.940475 0.461463
0.97081 0.940444 0.461753
0.970718 0.940398 0.462242
0.970611 0.940337 0.462867
0.97055 0.940322 0.463249
0.970535 0.940322 0.463386
0.970565 0.940337 0.46331
0.970657 0.940368 0.462989
0.970733 0.940444 0.462348
0.240513 0.832792 0.378531
0.240604 0.832883 0.378058
0.240848 0.832975 0.377493
0.241154 0.833005 0.376837
0.241566 0.83299 0.376013
0.241962 0.832853 0.37499
0.242405 0.832685 0.373541
0.242618 0.832517 0.37232
0.242679 0.832303 0.370764
0.242679 0.832105 0.368719
0.242466 0.832181 0.368582
0.242298 0.832227 0.368414
0.244572 0.828397 0.338567
0.329778 0.835721 0.281453
0.462074 0.849744 0.275669
0.626245 0.867887 0.297154
0.750332 0.888685 0.338827
0.844373 0.911833 0.381506
0.903532 0.929427 0.413458
0.947692 0.937697 0.440833
0.966171 0.941039 0.455711
0.967437 0.941573 0.458701
0.967559 0.941558 0.458824
0.967636 0.941527 0.458915
0.967712 0.941497 0.459007
0.967788 0.941466 0.459083
0.967834 0.941451 0.459159
0.967849 0.941436 0.459205
0.967865 0.941436 0.45919
0.967834 0.941451 0.459144
0.967773 0.941466 0.459068
0.967681 0.941512 0.458961
0.967575 0.941558 0.458854
0.240757 0.833188 0.37847
0.240803 0.833173 0.378256
0.240925 0.833158 0.377951
0.241123 0.833127 0.377569
0.241443 0.833051 0.376898
0.241901 0.832929 0.37586
0.242344 0.832746 0.374441
0.242649 0.832532 0.372671
0.24271 0.832364 0.371481
0.242756 0.83209 0.368917
0.242542 0.832151 0.368627
0.242374 0.832227 0.368429
0.243854 0.829969 0.34966
0.303929 0.832044 0.285054
0.441749 0.848203 0.275731
0.601724 0.864271 0.291188
0.732265 0.885252 0.331624
0.83154 0.907805 0.37554
0.89427 0.927382 0.408179
0.940734 0.936629 0.436362
0.965377 0.940887 0.454582
0.967071 0.941482 0.457984
0.96733 0.941634 0.458701
0.96733 0.941634 0.458701
0.96733 0.941634 0.458717
0.9673 0.941619 0.4589
0.967254 0.941604 0.459297
0.967178 0.941558 0.459892
0.967132 0.941512 0.460472
0.967102 0.941466 0.461051
0.967086 0.941451 0.461265
0.967102 0.941466 0.461051
0.9673 0.941466 0.460563
0.240879 0.833097 0.379507
0.24065 0.833082 0.379294
0.24062 0.833051 0.379004
0.240742 0.833021 0.378561
0.241062 0.832959 0.37792
0.241489 0.832822 0.376928
0.241947 0.832639 0.375631
0.242329 0.832425 0.373724
0.242466 0.832258 0.372351
0.242542 0.831907 0.369558
0.242359 0.831952 0.369207
0.24213 0.832044 0.369009
0.242939 0.830808 0.358007
0.28246 0.828901 0.291264
0.424964 0.846387 0.275837
0.582452 0.861295 0.287388
0.718624 0.882277 0.326253
0.821714 0.904204 0.370565
0.888975 0.924926 0.404913
0.936034 0.934737 0.43299
0.964858 0.939864 0.453498
0.968597 0.940764 0.458351
0.969085 0.941039 0.459724
0.969085 0.941039 0.459724
0.969085 0.941039 0.459724
0.969055 0.941024 0.459922
0.969009 0.940993 0.460319
0.968734 0.941024 0.460807
0.968246 0.941115 0.461234
0.967575 0.941268 0.461616
0.967224 0.941375 0.461723
0.967071 0.941421 0.461524
0.967254 0.941421 0.461128
0.240955 0.833097 0.380118
0.240665 0.833082 0.379889
0.240604 0.833066 0.379553
0.240711 0.833051 0.379065
0.241016 0.83299 0.378363
0.241443 0.832868 0.377401
0.241917 0.83267 0.376089
0.242329 0.832441 0.374197
0.242512 0.832258 0.372717
0.242603 0.831922 0.370001
0.242466 0.831907 0.369284
0.242191 0.832013 0.369085
0.242512 0.831357 0.363165
0.267338 0.826581 0.295857
0.413886 0.845563 0.276387
0.564004 0.859205 0.284108
0.706004 0.880232 0.321614
0.812161 0.901778 0.365988
0.882887 0.923033 0.401328
0.931716 0.934035 0.430213
0.961654 0.939391 0.450996
0.968444 0.940658 0.457847
0.969085 0.941039 0.459724
0.969085 0.941039 0.459724
0.969085 0.941039 0.459724
0.969055 0.941024 0.459922
0.969009 0.940993 0.460319
0.968734 0.941024 0.460807
0.968231 0.941115 0.461326
0.967544 0.941268 0.461784
0.967208 0.941344 0.461982
0.967056 0.941405 0.461875
0.967239 0.941375 0.46157
0.241001 0.833082 0.380529
0.240681 0.833082 0.380301
0.240558 0.833112 0.379904
0.240574 0.833127 0.379278
0.240696 0.833127 0.378424
0.240864 0.833082 0.377493
0.241093 0.83299 0.375921
0.241367 0.832837 0.373785
0.241459 0.832654 0.372229
0.241627 0.832319 0.369604
0.241703 0.832197 0.368658
0.241703 0.832197 0.368643
0.241794 0.831983 0.36701
0.262806 0.826535 0.30042
0.405905 0.8448 0.276661
0.554055 0.858427 0.282872
0.696712 0.879179 0.318685
0.805814 0.900481 0.363165
0.878111 0.921981 0.398764
0.927489 0.933608 0.427771
0.959304 0.938979 0.449073
0.968307 0.940581 0.457465
0.969039 0.941009 0.459617
0.969085 0.941039 0.459724
0.969085 0.941039 0.459724
0.969055 0.941024 0.459922
0.969009 0.940993 0.460319
0.968734 0.941024 0.460807
0.968231 0.941115 0.461326
0.967544 0.941268 0.461845
0.967208 0.941329 0.462104
0.967041 0.94139 0.462058
0.967224 0.94136 0.461814
0.241062 0.833082 0.380865
0.240726 0.833097 0.380636
0.240558 0.833112 0.380224
0.240558 0.833127 0.379568
0.240681 0.833143 0.378698
0.240833 0.833112 0.377691
0.241047 0.833005 0.376211
0.241306 0.832853 0.374075
0.24184 0.832532 0.372503
0.241962 0.832212 0.370016
0.241993 0.832105 0.368826
0.241886 0.832135 0.368765
0.241917 0.831907 0.366812
0.261067 0.827131 0.305943
0.400809 0.844114 0.276661
0.548699 0.857939 0.282124
0.6916 0.878553 0.317098
0.802396 0.899748 0.361822
0.874693 0.921721 0.397162
0.9243 0.933425 0.425864
0.956924 0.938842 0.447181
0.967849 0.940673 0.457023
0.968856 0.941024 0.459373
0.969055 0.941039 0.459709
0.96907 0.941039 0.459724
0.969055 0.941024 0.459922
0.969009 0.940993 0.460319
0.968734 0.941024 0.460807
0.968231 0.941115 0.461326
0.967544 0.941253 0.461997
0.967193 0.941314 0.462379
0.96698 0.94136 0.46244
0.96701 0.941375 0.462272
0.241337 0.833066 0.381079
0.240986 0.833112 0.380789
0.240711 0.833127 0.380423
0.240635 0.833143 0.379782
0.240711 0.833143 0.378912
0.240894 0.833112 0.377844
0.241123 0.83299 0.376471
0.241443 0.832807 0.374395
0.241703 0.832578 0.372427
0.241901 0.832258 0.370031
0.241978 0.832105 0.368826
0.241932 0.83212 0.368795
0.242023 0.831815 0.366262
0.260777 0.827558 0.308873
0.398795 0.844007 0.27686
0.546426 0.857603 0.281743
0.690822 0.878401 0.316808
0.800656 0.899092 0.361059
0.873411 0.92166 0.396658
0.922148 0.933288 0.424598
0.955077 0.938979 0.44593
0.966461 0.941131 0.456123
0.967224 0.941543 0.458366
0.967391 0.941619 0.458747
0.967453 0.941604 0.458778
0.967483 0.941588 0.458839
0.967514 0.941558 0.45893
0.967346 0.941604 0.458885
0.96698 0.941741 0.458732
0.966491 0.941894 0.458488
0.966155 0.942016 0.458274
0.965957 0.942092 0.458106
0.965942 0.942107 0.458045
0.240833 0.833524 0.38027
0.240772 0.833463 0.380118
0.240696 0.833387 0.379934
0.240696 0.83331 0.379522
0.240757 0.833234 0.378866
0.240909 0.833127 0.377905
0.241123 0.83299 0.376577
0.241443 0.832807 0.374487
0.241718 0.832578 0.372427
0.241917 0.832242 0.370047
0.242008 0.83209 0.368841
0.241962 0.832105 0.368811
0.242115 0.831647 0.365133
0.263401 0.828199 0.309071
0.401129 0.844205 0.276692
0.549554 0.857862 0.282048
0.69218 0.878599 0.31725
