bundles/resolve-cinematic-luts/Phantom Luts/Komodo Phantom ARRI LUTs G2/Komodo Phantom ARRI LUTs G2/33x/Standard (No WB Offset)/IceBlue_Komodo_Legacy_G2_33x.cube
TITLE "Generated by Resolve"
LUT_3D_SIZE 9
0.0478218 0.0597543 0.0639048
0.062501 0.0589303 0.0640116
0.164355 0.0554208 0.0640421
0.420127 0.0578927 0.0817121
0.636271 0.0828107 0.13959
0.6533 0.0867475 0.161669
0.657862 0.0861524 0.172168
0.654505 0.0788586 0.175097
0.659419 0.0762798 0.196582
0.0502937 0.0700389 0.0662394
0.0559854 0.0677806 0.066041
0.150668 0.0608225 0.0638743
0.417975 0.0558175 0.0680705
0.620233 0.0798962 0.10985
0.642664 0.0842603 0.143572
0.648188 0.0850538 0.154192
0.649485 0.0852064 0.156695
0.652354 0.082475 0.171054
0.0523232 0.1823 0.082887
0.0513161 0.185306 0.0766766
0.147158 0.180331 0.0734569
0.459648 0.160433 0.0890364
0.627131 0.0808576 0.101427
0.641871 0.085893 0.116915
0.639765 0.0850385 0.117128
0.639612 0.0849622 0.117098
0.644465 0.085771 0.120089
0.0557412 0.4551 0.115343
0.0564889 0.466941 0.0988022
0.0667735 0.466041 0.0897688
0.432227 0.480858 0.0881666
0.785214 0.543526 0.203738
0.847486 0.534936 0.234195
0.847456 0.512383 0.232807
0.847501 0.513985 0.232502
0.846021 0.564721 0.234668
0.202533 0.763317 0.278157
0.220127 0.775906 0.272007
0.261173 0.799634 0.26685
0.387976 0.788571 0.22269
0.824689 0.863691 0.333745
0.948852 0.881559 0.402121
0.947768 0.877958 0.399725
0.947967 0.880705 0.402975
0.955276 0.902754 0.419806
0.240757 0.833188 0.37847
0.241443 0.833051 0.376898
0.24271 0.832364 0.371481
0.243854 0.829969 0.34966
0.732265 0.885252 0.331624
0.965377 0.940887 0.454582
0.96733 0.941634 0.458717
0.967132 0.941512 0.460472
0.9673 0.941466 0.460563
0.241062 0.833082 0.380865
0.240681 0.833143 0.378698
0.24184 0.832532 0.372503
0.241917 0.831907 0.366812
0.6916 0.878553 0.317098
0.956924 0.938842 0.447181
0.96907 0.941039 0.459724
0.968231 0.941115 0.461326
0.96701 0.941375 0.462272
0.241932 0.833204 0.381048
0.240513 0.833005 0.379538
0.241108 0.832258 0.373068
0.242023 0.830732 0.36054
0.714656 0.880568 0.324269
0.960906 0.938231 0.449958
0.97084 0.940429 0.460761
0.970138 0.940581 0.461204
0.965576 0.941802 0.462119
0.240909 0.833616 0.380774
0.240742 0.833112 0.378119
0.241306 0.832059 0.369268
0.352163 0.838941 0.28072
0.851377 0.912169 0.384543
0.970275 0.940108 0.459113
0.97084 0.940429 0.460761
0.970245 0.940627 0.46041
0.965743 0.941878 0.460883
0.0455024 0.0604868 0.0781567
0.0622568 0.0598459 0.0793622
0.172793 0.0598001 0.088014
0.434623 0.0603799 0.114626
0.649454 0.079881 0.173953
0.66186 0.0790875 0.196399
0.666224 0.0808423 0.205295
0.668025 0.0814069 0.209796
0.671763 0.0801251 0.227543
0.0487984 0.0666209 0.072221
0.0510109 0.0645609 0.0708476
0.161456 0.0561685 0.0716564
0.436545 0.0581674 0.0988479
0.648005 0.0823835 0.162753
0.658961 0.0837568 0.182864
0.658061 0.0770123 0.190921
0.659785 0.0775311 0.194705
0.662654 0.0762341 0.20763
0.052079 0.177249 0.100435
0.0515755 0.180713 0.0874952
0.138552 0.176211 0.0739147
0.461265 0.142931 0.0871901
0.626871 0.0785992 0.110689
0.636988 0.0828717 0.120378
0.634974 0.0822003 0.120104
0.634714 0.0821088 0.120043
0.6392 0.0826581 0.124071
0.0556191 0.453117 0.139361
0.0567025 0.463554 0.123369
0.0573281 0.464332 0.0913405
0.429526 0.480674 0.088014
0.789319 0.54078 0.206455
0.847791 0.529763 0.234073
0.847578 0.505974 0.231983
0.847425 0.507515 0.231601
0.846448 0.559442 0.234775
0.193881 0.761212 0.296849
0.208881 0.772122 0.288579
0.252918 0.79501 0.265522
0.377432 0.790341 0.22533
0.825269 0.864439 0.334585
0.948943 0.881788 0.402319
0.947723 0.877958 0.399649
0.948165 0.880796 0.402625
0.955245 0.902235 0.418936
0.240879 0.833295 0.381033
0.241047 0.833295 0.379278
0.242191 0.8327 0.372488
0.243091 0.830854 0.35642
0.729427 0.884688 0.330495
0.965881 0.940963 0.454978
0.967285 0.941619 0.459098
0.967041 0.94139 0.462028
0.967117 0.941497 0.460777
0.24094 0.833494 0.382956
0.240558 0.833371 0.381262
0.241566 0.832746 0.374548
0.241901 0.831922 0.366766
0.68925 0.878065 0.316228
0.956497 0.938689 0.446845
0.969085 0.941039 0.459724
0.968231 0.941115 0.461326
0.96701 0.941375 0.462272
0.241215 0.833768 0.383337
0.240223 0.833402 0.382086
0.240879 0.832471 0.375357
0.241489 0.831525 0.367239
0.709651 0.879774 0.322393
0.960021 0.93814 0.449378
0.97084 0.940429 0.460761
0.970138 0.940581 0.461204
0.965698 0.941863 0.461204
0.242237 0.833738 0.386618
0.241093 0.833402 0.38349
0.241093 0.832471 0.372473
0.31902 0.834394 0.283635
0.844083 0.909545 0.380972
0.970138 0.940017 0.458732
0.97084 0.940429 0.460761
0.970138 0.940581 0.461204
0.965301 0.941665 0.464302
0.0381323 0.0674754 0.174365
0.062211 0.06215 0.180011
0.181048 0.0608988 0.181384
0.449424 0.0690929 0.198383
0.680781 0.0916457 0.250629
0.69427 0.0985275 0.266438
0.696529 0.10042 0.271656
0.698161 0.101411 0.2766
0.704128 0.103563 0.304356
0.0321355 0.073106 0.157229
0.0400244 0.0667735 0.174914
0.174487 0.060853 0.184497
0.459953 0.0694896 0.197818
0.683391 0.0906539 0.25185
0.692287 0.0959182 0.266072
0.695155 0.0983291 0.27219
0.696345 0.0993515 0.274952
0.701839 0.101732 0.298894
0.0464637 0.152529 0.158389
0.0451667 0.154696 0.160906
0.119997 0.155184 0.170367
0.465675 0.10869 0.156039
0.642847 0.0774395 0.166217
0.661341 0.0835584 0.189029
0.66096 0.0780346 0.196933
0.662348 0.0784619 0.200015
0.663752 0.0781109 0.205447
0.0549783 0.434119 0.218204
0.0551003 0.4448 0.212055
0.0549172 0.44213 0.153384
0.400504 0.46511 0.0857099
0.795514 0.51133 0.209339
0.84445 0.479103 0.228885
0.83946 0.450797 0.225498
0.839216 0.451377 0.224933
0.847318 0.505486 0.232227
0.166018 0.746731 0.359167
0.17351 0.755398 0.35523
0.18967 0.760296 0.308705
0.307973 0.779858 0.226871
0.812985 0.853727 0.323507
0.945449 0.87068 0.393713
0.943771 0.865125 0.390311
0.944259 0.867536 0.39295
0.950378 0.888136 0.408087
0.239445 0.837064 0.411582
0.240604 0.835752 0.402304
0.242405 0.833234 0.382849
0.24271 0.831998 0.368963
0.701381 0.879759 0.320272
0.962966 0.94049 0.452399
0.967285 0.941619 0.459098
0.967041 0.94139 0.462013
0.967117 0.941497 0.460639
0.239918 0.838697 0.42974
0.239597 0.838087 0.421866
0.241169 0.833585 0.384588
0.242084 0.832059 0.368917
0.654658 0.872312 0.305165
0.950576 0.937514 0.442695
0.969024 0.941009 0.460121
0.967941 0.940978 0.463584
0.966812 0.941283 0.463706
0.240177 0.840467 0.444251
0.239216 0.839719 0.435294
0.240009 0.833844 0.387396
0.241169 0.831861 0.36968
0.672389 0.874144 0.310063
0.952804 0.936889 0.443976
0.97084 0.940429 0.460761
0.96994 0.94049 0.462654
0.965408 0.941711 0.463478
0.241856 0.846265 0.494682
0.240208 0.845518 0.484062
0.239338 0.836942 0.411597
0.242786 0.829984 0.354635
0.805219 0.898634 0.363149
0.969436 0.939788 0.457298
0.97084 0.940429 0.460761
0.970138 0.940581 0.461204
0.964889 0.941772 0.464363
0.0322881 0.0756847 0.374395
0.0504463 0.0675059 0.379141
0.163363 0.0645609 0.3953
0.460975 0.0681468 0.41619
0.690135 0.0837262 0.405203
0.705715 0.0922408 0.422217
0.705257 0.0917678 0.427329
0.705898 0.0926528 0.433326
0.697887 0.0884413 0.471687
0.0220493 0.0919661 0.375357
0.0324254 0.0756847 0.387198
0.145968 0.0652323 0.410452
0.470512 0.0688792 0.438468
0.693431 0.0837262 0.424033
0.698619 0.0857557 0.437995
0.69929 0.086656 0.443671
0.698894 0.0864118 0.447547
0.696818 0.0887007 0.48513
0.0256352 0.134661 0.314824
0.0236667 0.131823 0.330785
0.0349126 0.0811017 0.383154
0.428656 0.0679332 0.422629
0.688533 0.0827039 0.382696
0.699504 0.0854963 0.392905
0.702098 0.0881666 0.398276
0.702052 0.088014 0.402136
0.699886 0.0873426 0.434897
0.0466316 0.391852 0.3738
0.0456092 0.401541 0.383993
0.0445106 0.395438 0.380987
0.332113 0.403006 0.41088
0.810468 0.371298 0.397757
0.84065 0.308598 0.370764
0.823682 0.279454 0.355627
0.822782 0.277607 0.355978
0.849454 0.320104 0.392462
0.137881 0.725353 0.497292
0.14403 0.734462 0.504631
0.144259 0.734752 0.486213
0.145006 0.720195 0.380377
0.718059 0.781811 0.283146
0.934051 0.833158 0.366567
0.930785 0.821149 0.359136
0.931014 0.821225 0.359899
0.937957 0.845716 0.376593
0.231983 0.845899 0.540261
0.233829 0.846128 0.543099
0.236774 0.845151 0.527199
0.239887 0.839673 0.436362
0.579446 0.861662 0.287282
0.953384 0.937041 0.444434
0.970718 0.940383 0.461479
0.970535 0.940307 0.462852
0.970535 0.940307 0.462837
0.231662 0.847303 0.552789
0.231739 0.847578 0.553841
0.233646 0.845869 0.536538
0.240345 0.841413 0.45452
0.494194 0.852049 0.278218
0.923095 0.93257 0.425223
0.968978 0.940978 0.460517
0.968017 0.941024 0.462882
0.966934 0.941329 0.462806
0.231174 0.848676 0.567346
0.231205 0.848936 0.56817
0.231586 0.847242 0.549371
0.239841 0.843015 0.470039
0.495659 0.852323 0.277607
0.921477 0.931517 0.424002
0.970626 0.940322 0.460716
0.969665 0.940383 0.464607
0.965209 0.941619 0.464912
0.237949 0.856016 0.632059
0.237858 0.856138 0.63154
0.233967 0.85333 0.606409
0.238788 0.845685 0.511543
0.67364 0.874052 0.311498
0.946715 0.93576 0.439887
0.970642 0.940307 0.460197
0.969909 0.94049 0.462486
0.965347 0.94168 0.463767
0.0309148 0.0856336 0.546227
0.047303 0.0751354 0.551369
0.136797 0.0774548 0.593927
0.391867 0.083238 0.642756
0.691737 0.125978 0.651713
0.711849 0.134737 0.665797
0.71046 0.135332 0.669642
0.709026 0.135775 0.672999
0.700145 0.138491 0.691096
0.0201877 0.0988632 0.547463
0.0321355 0.0847334 0.552254
0.121386 0.0779126 0.595224
0.391852 0.0848402 0.653132
0.69836 0.13051 0.663249
0.708782 0.136355 0.675456
0.707546 0.136995 0.679011
0.706081 0.137423 0.682292
0.697826 0.139681 0.697398
0.0272374 0.1561 0.578256
0.026566 0.153201 0.582712
0.0339055 0.0839704 0.551629
0.334798 0.0815442 0.643931
0.686641 0.126696 0.659724
0.712932 0.134874 0.665507
0.711742 0.135424 0.668879
0.710918 0.13576 0.671321
0.702983 0.138064 0.68751
0.0408789 0.377874 0.587259
0.0416266 0.384314 0.593423
0.0407263 0.367208 0.599084
0.131502 0.245975 0.684565
0.719234 0.216861 0.719936
0.742184 0.150759 0.633082
0.728252 0.13254 0.613931
0.730541 0.135332 0.618524
0.749783 0.166873 0.661448
0.132692 0.671656 0.652567
0.13698 0.679377 0.658808
0.136843 0.679194 0.659541
0.128389 0.667216 0.65153
0.623194 0.693767 0.70779
0.947662 0.687083 0.708568
0.945907 0.670298 0.697826
0.943633 0.671031 0.699214
0.937484 0.701717 0.730022
0.260166 0.860609 0.710292
0.265629 0.860533 0.715129
0.263813 0.860212 0.709468
0.251713 0.859251 0.67895
0.255634 0.868757 0.597879
0.922423 0.9523 0.638254
0.993393 0.956024 0.582849
0.993194 0.958419 0.615808
0.989548 0.960586 0.680903
0.26183 0.861997 0.721172
0.269078 0.861341 0.725734
0.267063 0.860731 0.718227
0.254353 0.859037 0.68336
0.250355 0.867445 0.593118
0.864637 0.925277 0.435294
0.970291 0.939635 0.459052
0.970275 0.939742 0.463478
0.967727 0.939162 0.476036
0.264607 0.864347 0.736904
0.273014 0.862669 0.741039
0.27068 0.862013 0.73225
0.256718 0.860166 0.695033
0.252461 0.869444 0.60827
0.853101 0.92401 0.461402
0.969238 0.939666 0.458366
0.969253 0.939986 0.463935
0.965469 0.940368 0.470512
0.282856 0.868925 0.796139
0.290166 0.867048 0.796399
0.286946 0.86569 0.782223
0.268971 0.862959 0.735256
0.293141 0.887404 0.671611
0.900359 0.949584 0.649119
0.967849 0.940215 0.457404
0.967453 0.940337 0.464195
0.963775 0.940948 0.468879
0.0552529 0.0750744 0.57586
0.0711681 0.0742199 0.584939
0.151949 0.0813611 0.624903
0.377371 0.0888228 0.676036
0.684855 0.13608 0.695262
0.700816 0.139574 0.694301
0.700725 0.139605 0.694255
0.700511 0.13962 0.694652
0.696742 0.140185 0.699672
0.0404212 0.0798505 0.568933
0.0571908 0.074815 0.57702
0.141817 0.0813764 0.621546
0.385611 0.0895399 0.677882
0.693202 0.137957 0.695689
0.700984 0.139528 0.694224
0.700862 0.139574 0.694148
0.700542 0.139605 0.694636
0.696651 0.140185 0.69987
0.0287022 0.143618 0.597726
0.0258335 0.124346 0.587152
0.0559243 0.0751965 0.576593
0.328176 0.0861219 0.668772
0.67837 0.134966 0.696544
0.703243 0.139193 0.691218
0.703182 0.139223 0.691142
0.702922 0.139254 0.691524
0.69894 0.139834 0.696925
0.0420844 0.283024 0.640055
0.0416571 0.288502 0.641108
0.039292 0.268376 0.636072
0.0795453 0.107759 0.621561
0.581765 0.121218 0.704906
0.703304 0.139681 0.691447
0.703975 0.139437 0.690364
0.704021 0.139467 0.69044
0.70074 0.140475 0.695705
0.1308 0.627375 0.722087
0.134264 0.634043 0.726024
0.134493 0.632563 0.728374
0.126558 0.615183 0.725475
0.497566 0.59472 0.895201
0.932692 0.593057 0.921859
0.934173 0.57612 0.916747
0.934905 0.57847 0.916167
0.932113 0.616236 0.920165
0.278767 0.847761 0.823438
0.288838 0.852964 0.828107
0.287785 0.850324 0.825132
0.268437 0.831052 0.806683
0.254047 0.819959 0.802136
0.874388 0.905974 0.914199
0.977401 0.908248 0.918151
0.976822 0.906538 0.916548
0.973602 0.919493 0.929335
0.296178 0.867933 0.84596
0.303609 0.866209 0.84567
0.304784 0.86688 0.842557
0.301564 0.867933 0.82829
0.294286 0.874662 0.794965
0.683436 0.945434 0.850706
0.98912 0.982528 0.899519
0.996292 0.98262 0.901091
0.993606 0.983886 0.927886
0.2934 0.866743 0.85095
0.302113 0.865125 0.848981
0.303578 0.865049 0.847425
0.300725 0.868391 0.832639
0.294545 0.87512 0.796231
0.673503 0.941787 0.848234
0.978058 0.982055 0.897612
0.994797 0.97644 0.807889
0.990127 0.97644 0.816083
0.293309 0.86714 0.85156
0.3019 0.864988 0.849577
0.304402 0.864424 0.848829
0.302983 0.867231 0.843229
0.317968 0.891981 0.83476
0.802045 0.960204 0.912673
0.984802 0.984787 0.94081
0.995071 0.982147 0.894591
0.991409 0.979263 0.852811
0.0700999 0.0741131 0.583947
0.0897536 0.0757763 0.59617
0.165225 0.0814832 0.629221
0.388693 0.0897078 0.677821
0.688731 0.136614 0.694865
0.700893 0.139544 0.694331
0.700771 0.13959 0.694286
0.701549 0.139452 0.69337
0.698054 0.139971 0.698009
0.0546426 0.0750134 0.574792
0.0707561 0.0742351 0.584726
0.15433 0.0813764 0.625757
0.39527 0.0904707 0.679545
0.698253 0.139315 0.695994
0.701015 0.139513 0.69424
0.700908 0.139559 0.694209
0.700542 0.139605 0.694652
0.696651 0.1402 0.69987
0.0266575 0.125933 0.588235
0.0223239 0.109331 0.573861
0.0689097 0.0743725 0.583917
0.337179 0.086656 0.67039
0.682231 0.136156 0.69749
0.70312 0.139208 0.691402
0.703197 0.139208 0.691218
0.702876 0.139254 0.691615
0.69894 0.139834 0.696925
0.0385748 0.250919 0.632227
0.0382086 0.258289 0.633646
0.0362554 0.239124 0.628717
0.0697642 0.0812543 0.592172
0.577539 0.113542 0.696498
0.702892 0.139422 0.691707
0.704372 0.139147 0.689677
0.704143 0.139223 0.69012
0.700389 0.140108 0.695613
0.128496 0.617456 0.72697
0.131029 0.624857 0.727886
0.130159 0.622766 0.727382
0.121141 0.603296 0.722408
0.491798 0.569909 0.896406
0.925811 0.569024 0.914778
0.932128 0.548608 0.907164
0.932509 0.551095 0.906661
0.929107 0.593881 0.915953
0.26656 0.830304 0.830716
0.277104 0.837324 0.832898
0.273625 0.832227 0.83006
0.246876 0.801633 0.812146
0.22974 0.774548 0.8103
0.809903 0.862074 0.94078
0.972061 0.875731 0.959564
0.972183 0.874159 0.957946
0.968765 0.892027 0.95819
0.29543 0.865812 0.851652
0.302419 0.864866 0.849424
0.30338 0.864683 0.84918
0.303059 0.864622 0.849363
0.310689 0.873854 0.856779
0.401205 0.921386 0.901503
0.977325 0.977844 0.980224
0.998215 0.978943 0.978927
0.995392 0.981094 0.982742
0.293156 0.866682 0.851972
0.301991 0.864988 0.849531
0.303197 0.864744 0.849226
0.301167 0.865095 0.849805
0.310063 0.874922 0.858076
0.344854 0.912779 0.878965
0.962341 0.984375 0.979278
0.996567 0.98674 0.983352
0.994324 0.98732 0.986053
0.293141 0.867262 0.85153
0.3019 0.865003 0.849561
0.304494 0.864393 0.848798
0.302113 0.864897 0.849546
0.32697 0.891539 0.871992
0.409461 0.929793 0.901503
0.972854 0.985992 0.985367
0.992966 0.987716 0.987961
0.990692 0.98819 0.988724
0.074876 0.0741894 0.58674
0.0948501 0.0764324 0.59913
0.169696 0.0815595 0.63064
0.392584 0.0899672 0.678325
0.690211 0.13698 0.69485
0.700893 0.139544 0.694331
0.700801 0.139574 0.694301
0.701335 0.139483 0.69366
0.697917 0.140002 0.698177
0.0582284 0.0744182 0.576547
0.0749676 0.074342 0.587198
0.158251 0.0814832 0.627146
0.399802 0.0906844 0.679973
0.699397 0.139635 0.696132
0.701015 0.139513 0.69424
0.700923 0.139544 0.694209
0.700557 0.139605 0.694682
0.69781 0.140002 0.698421
0.026566 0.121279 0.585199
0.0231937 0.10602 0.572808
0.0725261 0.0744182 0.586023
0.341268 0.0867781 0.670954
0.684062 0.136614 0.697612
0.703105 0.139208 0.691417
0.703212 0.139208 0.691203
0.702892 0.139254 0.69163
0.69894 0.139834 0.696941
0.0380255 0.246281 0.6309
0.0376135 0.253056 0.632151
0.0356603 0.233326 0.627008
0.0701305 0.0793011 0.589929
0.579965 0.11429 0.696971
0.702373 0.139452 0.692363
0.704387 0.139147 0.689677
0.704143 0.139208 0.69012
0.700389 0.140093 0.695628
0.127947 0.61622 0.72665
0.130846 0.624063 0.727962
0.129686 0.621851 0.727092
0.12047 0.601968 0.721904
0.493095 0.567071 0.896895
0.924025 0.565667 0.91313
0.930846 0.546563 0.906661
0.93138 0.548913 0.906035
0.927977 0.592325 0.914946
0.265415 0.828305 0.829267
0.274556 0.834989 0.831754
0.272221 0.830594 0.82916
0.245182 0.79765 0.810422
0.228504 0.772519 0.809628
0.810971 0.857557 0.938537
0.969451 0.872297 0.957626
0.971725 0.870024 0.957305
0.966766 0.888334 0.956527
0.295933 0.86569 0.851514
0.302434 0.864866 0.849424
0.303349 0.864698 0.849195
0.303014 0.864622 0.849378
0.310872 0.874113 0.856977
0.433875 0.920668 0.915343
0.964538 0.970657 0.98114
0.996262 0.974441 0.981659
0.993774 0.977203 0.983688
0.293156 0.866682 0.851957
0.301976 0.864988 0.849531
0.303151 0.864744 0.849241
0.301122 0.865095 0.849805
0.310185 0.875059 0.858381
0.338552 0.906966 0.885618
0.905333 0.979965 0.979431
0.996139 0.987015 0.987121
0.994095 0.987503 0.988724
0.293843 0.866423 0.851881
0.301915 0.865003 0.849546
0.304402 0.864424 0.848829
0.302113 0.864881 0.849561
0.326421 0.890974 0.871534
0.358297 0.91812 0.896223
0.943465 0.983764 0.985092
0.992752 0.987839 0.989899
0.990631 0.988357 0.991791
0.0755474 0.0742504 0.587182
0.0968948 0.0767681 0.600381
0.175296 0.0817121 0.632456
0.404028 0.0908522 0.679774
0.696239 0.138613 0.695232
0.700893 0.139544 0.694331
0.700786 0.139574 0.694301
0.701335 0.139483 0.69366
0.697917 0.140002 0.698177
0.0580606 0.0744488 0.576486
0.0759747 0.0744793 0.587915
0.163317 0.0814527 0.628717
0.411734 0.0916762 0.681666
0.699596 0.139635 0.695949
0.700999 0.139528 0.69424
0.700923 0.139544 0.694209
0.700557 0.139605 0.694682
0.697826 0.140002 0.698436
0.0271 0.126253 0.588449
0.0241855 0.108278 0.575738
0.0737163 0.0745098 0.586755
0.35198 0.0873121 0.672648
0.690761 0.137911 0.697185
0.70312 0.139208 0.691402
0.703227 0.139193 0.691218
0.702953 0.139223 0.691646
0.698985 0.139818 0.696971
0.039292 0.258808 0.633982
0.0390936 0.267079 0.635752
0.0369726 0.246906 0.630716
0.0822461 0.0883497 0.605814
0.588266 0.117556 0.69955
0.702556 0.139574 0.692317
0.704448 0.139254 0.689738
0.704219 0.139284 0.690196
0.700511 0.140276 0.69572
0.131868 0.624216 0.728679
0.134813 0.631891 0.72987
0.133394 0.629267 0.728695
0.123919 0.60943 0.723766
0.510399 0.580087 0.898497
0.925109 0.582467 0.914199
0.935592 0.563424 0.909972
0.934371 0.566873 0.908873
0.928496 0.607996 0.915785
0.274159 0.836789 0.834089
0.283406 0.843153 0.836408
0.280842 0.838178 0.83331
0.257115 0.810758 0.818006
0.233371 0.778042 0.81268
0.821775 0.864271 0.938674
0.970657 0.879316 0.957946
0.971756 0.877409 0.957641
0.966766 0.894896 0.956649
0.297551 0.865324 0.850996
0.303975 0.864454 0.849042
0.306279 0.86389 0.848417
0.306798 0.863752 0.848402
0.317174 0.875593 0.858045
0.469551 0.926711 0.922591
0.965438 0.971664 0.982345
0.99559 0.975387 0.982696
0.993027 0.978058 0.984527
0.297429 0.865507 0.850904
0.304204 0.864393 0.848951
0.306783 0.863752 0.848402
0.306981 0.863691 0.848402
0.319493 0.876188 0.858595
0.347845 0.907134 0.885023
0.916487 0.980896 0.982879
0.995285 0.987243 0.98761
0.994904 0.98732 0.988006
0.292943 0.866484 0.852216
0.303395 0.864591 0.849241
0.307103 0.863661 0.848386
0.307454 0.863569 0.848325
0.335607 0.890913 0.870726
0.368444 0.916884 0.894667
0.940642 0.983642 0.986862
0.990692 0.988342 0.99173
0.990478 0.988403 0.991882
