bundles/resolve-cinematic-luts/Phantom Luts/Komodo Phantom ARRI LUTs G2/Komodo Phantom ARRI LUTs G2/33x/Standard (No WB Offset)/IceBlue_Komodo_G2_33x.cube
TITLE "Generated by Resolve"
LUT_3D_SIZE 33
0.0343023 0.0468605 0.0466621
0.0343175 0.0468605 0.0466316
0.0347295 0.0467994 0.0465553
0.0421912 0.0464179 0.0476539
0.0594644 0.0459754 0.0465095
0.0822309 0.0453803 0.0461891
0.114595 0.0438087 0.0451514
0.157855 0.0417487 0.0443885
0.210056 0.0400549 0.0463417
0.270451 0.0394141 0.050782
0.338674 0.0404517 0.0589761
0.410315 0.0429694 0.0711833
0.480171 0.0456855 0.0885176
0.536324 0.0497139 0.108797
0.582177 0.0541695 0.129229
0.620417 0.0624857 0.146792
0.650324 0.0714275 0.161151
0.658885 0.073518 0.171115
0.661768 0.0740063 0.177539
0.664179 0.074403 0.182864
0.666239 0.0747082 0.187808
0.66804 0.0749828 0.192081
0.669322 0.0751812 0.19527
0.67039 0.0752575 0.198169
0.671412 0.0754101 0.20061
0.67216 0.0755169 0.202441
0.672694 0.0755169 0.204089
0.673167 0.0754406 0.205783
0.673594 0.0753185 0.207553
0.674189 0.0750134 0.21059
0.674891 0.0745861 0.214572
0.676066 0.0737469 0.221912
0.677317 0.0728313 0.229984
0.0344091 0.0467536 0.0463264
0.0343481 0.0468147 0.0465095
0.0343633 0.0468147 0.0464942
0.0397955 0.04654 0.0472572
0.0578012 0.0461585 0.0467994
0.0817578 0.0454566 0.0465248
0.116411 0.0436408 0.0460059
0.161379 0.041474 0.0449531
0.213504 0.0394903 0.0450141
0.274556 0.038529 0.047303
0.344091 0.0390936 0.0552224
0.416983 0.0416419 0.0678721
0.48603 0.0443427 0.0863508
0.540536 0.0483101 0.108202
0.585763 0.0540475 0.129
0.624292 0.0632486 0.147784
0.653941 0.0719463 0.163989
0.658869 0.0729229 0.17293
0.661662 0.0732891 0.179416
0.664027 0.0737011 0.184726
0.666026 0.073991 0.189502
0.667674 0.0742504 0.193561
0.669108 0.0744793 0.197223
0.670039 0.0746166 0.199542
0.670787 0.0746624 0.201587
0.671382 0.0747234 0.203128
0.67187 0.074815 0.204273
0.672267 0.074876 0.205249
0.672526 0.0749065 0.205936
0.672953 0.0747539 0.207752
0.673594 0.0743877 0.211048
0.674678 0.073579 0.217945
0.675883 0.0726329 0.225696
0.0344091 0.0467536 0.0463417
0.0343481 0.0468147 0.0465248
0.0343175 0.0468605 0.0466163
0.0357671 0.046891 0.0466621
0.0512093 0.0469978 0.047776
0.0756237 0.0464485 0.0472419
0.110201 0.0448005 0.0467994
0.157687 0.0423438 0.0462501
0.21146 0.0400244 0.0457313
0.273548 0.0385443 0.0466468
0.340505 0.0382086 0.0500496
0.413443 0.0397498 0.0586099
0.482185 0.0418708 0.0757916
0.537377 0.0462806 0.0989242
0.584726 0.0541085 0.122377
0.623545 0.0635996 0.141558
0.651301 0.0719463 0.155566
0.656672 0.0726635 0.167575
0.659495 0.0729686 0.174395
0.662028 0.0733501 0.180377
0.664042 0.0737011 0.184787
0.665705 0.0739452 0.188739
0.667002 0.0741436 0.191959
0.668025 0.0742962 0.194476
0.668833 0.0744335 0.196475
0.669398 0.0745403 0.197955
0.669718 0.0746014 0.198688
0.670024 0.0746166 0.199512
0.670207 0.0746166 0.200046
0.670588 0.0744488 0.201785
0.671153 0.0740673 0.204761
0.672206 0.0732128 0.211261
0.673365 0.0722515 0.218494
0.0349126 0.0498665 0.046891
0.0348974 0.0499428 0.0470283
0.03505 0.0493629 0.046891
0.0354009 0.0482185 0.0467384
0.0431525 0.0491188 0.0486763
0.0654154 0.0489052 0.0480201
0.098024 0.0472267 0.0470283
0.146609 0.0449226 0.0467079
0.204303 0.0422827 0.0470283
0.268269 0.040528 0.0473335
0.338399 0.0403296 0.05066
0.410468 0.0408637 0.0563058
0.475868 0.0407568 0.0652171
0.530297 0.045716 0.0835279
0.579187 0.0537881 0.108537
0.619532 0.063447 0.129809
0.644831 0.0709239 0.141833
0.651102 0.0719921 0.154391
0.655985 0.0726024 0.165759
0.658747 0.0729229 0.172549
0.660838 0.0731365 0.177493
0.662608 0.0734569 0.181659
0.66389 0.0736706 0.184436
0.664942 0.0738231 0.186999
0.665675 0.0739452 0.188708
0.666209 0.0740215 0.189944
0.66659 0.0740826 0.190936
0.666896 0.0741131 0.191684
0.667063 0.0741436 0.192126
0.667414 0.0739605 0.193729
0.667887 0.0735637 0.196338
0.668833 0.072694 0.202457
0.669902 0.0716564 0.209293
0.0378119 0.0652934 0.0528572
0.0377661 0.0656138 0.0529488
0.0376745 0.0651102 0.0526741
0.0400702 0.0626993 0.0520333
0.0470893 0.0604257 0.0514382
0.0650797 0.0611124 0.052903
0.0932479 0.0596628 0.0520943
0.138552 0.0544137 0.0484016
0.194934 0.0478828 0.0466621
0.259709 0.044419 0.047715
0.332982 0.0439002 0.0510567
0.407507 0.0437018 0.0572213
0.474647 0.0431067 0.0646982
0.526665 0.0455024 0.0778821
0.571359 0.0530556 0.0933242
0.609094 0.0619669 0.110613
0.633402 0.068986 0.122271
0.640589 0.0704509 0.132433
0.646662 0.0713359 0.144564
0.65153 0.0720684 0.155261
0.655329 0.0724651 0.164294
0.657603 0.0727855 0.169802
0.659037 0.0729534 0.17319
0.660105 0.0730297 0.175784
0.661006 0.073167 0.177813
0.661585 0.0732738 0.179217
0.661997 0.0733501 0.180301
0.662257 0.0733959 0.180896
0.662379 0.0734112 0.18114
0.662608 0.0732128 0.182483
0.662913 0.0727855 0.184665
0.663645 0.0718547 0.189868
0.664347 0.0707561 0.195605
0.0393683 0.0894789 0.0582589
0.0392615 0.090425 0.0580606
0.0391089 0.0904097 0.0579538
0.0405127 0.0886702 0.0575418
0.047364 0.0846265 0.0574197
0.0654917 0.0835889 0.0565957
0.0964981 0.0836194 0.0577249
0.144381 0.0802319 0.0572366
0.200916 0.0729992 0.052369
0.262364 0.0622568 0.0458686
0.329564 0.0515908 0.0485695
0.401907 0.0474708 0.0576181
0.472679 0.0465553 0.0662242
0.525902 0.0465858 0.0777447
0.570077 0.0527047 0.0922866
0.607248 0.061738 0.106752
0.629648 0.0683757 0.115206
0.629252 0.0682994 0.114656
0.631937 0.0687877 0.11902
0.636088 0.0696117 0.125139
0.64033 0.0703899 0.132128
0.644022 0.0708782 0.139452
0.646983 0.0713664 0.14548
0.649042 0.0716869 0.149905
0.650416 0.07187 0.153094
0.652277 0.0721447 0.156649
0.652842 0.0721599 0.158129
0.653117 0.0721904 0.158862
0.653132 0.0721752 0.159014
0.653086 0.0719463 0.159533
0.652964 0.0715343 0.160357
0.653056 0.0704662 0.1635
0.65243 0.0691081 0.165499
0.0385443 0.12549 0.0621958
0.0382544 0.127092 0.0606088
0.0378119 0.127474 0.0600748
0.0379034 0.12636 0.0601053
0.0442054 0.123125 0.0601968
0.0584573 0.11873 0.0604715
0.0924697 0.118273 0.0581674
0.14548 0.117662 0.0596017
0.209125 0.112383 0.063035
0.276402 0.100847 0.0590066
0.345678 0.0857862 0.0534524
0.412604 0.0681163 0.0522927
0.472602 0.0542306 0.0617533
0.525139 0.0505989 0.0770581
0.567941 0.0515908 0.092195
0.607248 0.0611734 0.107805
0.63418 0.069276 0.118959
0.636774 0.0702678 0.119158
0.635264 0.0700084 0.118059
0.633677 0.0695811 0.117113
0.632227 0.0691844 0.116213
0.631052 0.0688487 0.115557
0.631174 0.0688182 0.116304
0.631983 0.0689708 0.117586
0.632837 0.0691234 0.118975
0.633295 0.0691997 0.119768
0.633646 0.0692607 0.120317
0.633936 0.0692912 0.120912
0.633982 0.0691844 0.121263
0.633982 0.0689097 0.121996
0.633692 0.0684825 0.122454
0.63328 0.0677043 0.123491
0.634546 0.0672618 0.126497
0.0366979 0.173327 0.0654459
0.036286 0.175311 0.0628061
0.035996 0.176089 0.0610971
0.0359503 0.175662 0.0608682
0.0375982 0.174182 0.0611582
0.0499886 0.170703 0.0611582
0.0759442 0.16762 0.0607462
0.133394 0.166781 0.0558785
0.205097 0.166262 0.0584573
0.283574 0.162631 0.0680858
0.365484 0.148913 0.0722972
0.438392 0.130175 0.0712444
0.501717 0.108919 0.0689403
0.545556 0.078645 0.0725872
0.571115 0.0584268 0.0848707
0.605188 0.0602121 0.105074
0.637308 0.0692607 0.12195
0.645304 0.0715953 0.126772
0.644343 0.0712139 0.126757
0.643549 0.0709392 0.126802
0.642741 0.0707103 0.126711
0.641993 0.0704814 0.126513
0.641413 0.0702678 0.126345
0.640925 0.0700847 0.126162
0.640528 0.0699474 0.12604
0.640253 0.0698558 0.125963
0.640177 0.0698253 0.125963
0.640162 0.0698253 0.125963
0.640269 0.0698558 0.126024
0.640558 0.0699626 0.126116
0.641154 0.0701457 0.12636
0.642466 0.0702831 0.128069
0.644388 0.0702373 0.130724
0.0351263 0.227848 0.068452
0.0347143 0.230472 0.0654765
0.0343328 0.231647 0.0614633
0.0342718 0.23209 0.0603952
0.0341802 0.231312 0.0601358
0.0402228 0.229923 0.0604105
0.0607004 0.226673 0.0607462
0.103319 0.225223 0.0585641
0.186496 0.224277 0.0528115
0.274678 0.224628 0.0580911
0.368704 0.224964 0.0770123
0.455344 0.214725 0.0914168
0.532219 0.19707 0.0984512
0.592935 0.176196 0.103716
0.627726 0.147158 0.105211
0.629038 0.090486 0.0968643
0.636576 0.0707866 0.104906
0.65214 0.0744182 0.123827
0.651514 0.0741131 0.124804
0.65098 0.0738994 0.125414
0.650355 0.07364 0.125643
0.649897 0.0733959 0.125917
0.649439 0.0732128 0.12607
0.649088 0.0730755 0.126162
0.648829 0.0729686 0.126238
0.648661 0.0728923 0.126314
0.648615 0.0728771 0.126329
0.6486 0.0728771 0.126345
0.648722 0.0729229 0.126314
0.649012 0.0730449 0.126238
0.649607 0.0732586 0.126177
0.650874 0.0734417 0.127184
0.652644 0.0734874 0.128481
0.0353094 0.289433 0.075349
0.0350347 0.292805 0.0714275
0.0348363 0.295293 0.0658732
0.0345006 0.295674 0.0616007
0.0345769 0.295064 0.0608225
0.0345006 0.293568 0.0608988
0.0486 0.293416 0.0611429
0.0771496 0.289998 0.0609903
0.145876 0.292134 0.057023
0.249165 0.292256 0.0518807
0.355169 0.294133 0.0623789
0.452644 0.300771 0.0864118
0.54551 0.296025 0.117861
0.62501 0.287098 0.133669
0.683742 0.267964 0.150408
0.714977 0.241321 0.156542
0.718151 0.195972 0.144274
0.690578 0.117678 0.11664
0.666133 0.084535 0.107012
0.658427 0.0785687 0.105699
0.657832 0.0775464 0.113909
0.656992 0.0769665 0.11725
0.656657 0.0767834 0.117723
0.656458 0.0766308 0.118105
0.656367 0.0765698 0.118303
0.65626 0.0764935 0.118532
0.656229 0.0764782 0.118608
0.65626 0.0764935 0.118578
0.656397 0.0765698 0.118379
0.656672 0.0767681 0.117922
0.657252 0.0770733 0.117021
0.658289 0.0772564 0.116121
0.659815 0.0773938 0.115236
0.0374914 0.359854 0.088365
0.0377966 0.364309 0.0846723
0.037705 0.366644 0.0786297
0.0372778 0.367071 0.0700847
0.0370184 0.366827 0.0645914
0.0369116 0.36582 0.0647593
0.0382849 0.364904 0.0649729
0.0622263 0.365728 0.064332
0.10425 0.363088 0.0635843
0.199542 0.367651 0.0593881
0.32462 0.370443 0.0579995
0.440833 0.375326 0.0738689
0.53727 0.390326 0.0966964
0.633616 0.393179 0.14406
0.709987 0.392554 0.172915
0.766049 0.382727 0.196521
0.79765 0.360342 0.209186
0.804074 0.322072 0.206226
0.789166 0.288487 0.192386
0.77258 0.258671 0.177981
0.755367 0.228534 0.163867
0.738369 0.198962 0.150607
0.724529 0.174807 0.139986
0.718029 0.164767 0.134585
0.712337 0.156207 0.129656
0.708812 0.150057 0.12781
0.707973 0.145907 0.129931
0.707713 0.145205 0.130175
0.708125 0.149279 0.127687
0.71342 0.156878 0.131456
0.722087 0.17145 0.137148
0.739544 0.200031 0.152255
0.763699 0.239994 0.17319
0.0421759 0.435096 0.106111
0.0427253 0.439399 0.10312
0.0432441 0.441871 0.0975357
0.0433661 0.442771 0.0894179
0.0428626 0.443214 0.0784924
0.042771 0.443534 0.0738537
0.0423438 0.442756 0.0737621
0.0477913 0.442039 0.0731975
0.0839704 0.443061 0.071931
0.149187 0.440772 0.0710307
0.271656 0.448737 0.0697948
0.412467 0.455695 0.0727703
0.525841 0.463493 0.0933394
0.618296 0.480903 0.115389
0.705379 0.493126 0.169512
0.777249 0.497749 0.21091
0.8271 0.501137 0.234821
0.855573 0.497215 0.244511
0.859739 0.47718 0.246494
0.854368 0.455879 0.241535
0.848493 0.435691 0.236042
0.843549 0.41883 0.232624
0.840055 0.407797 0.230381
0.836439 0.397574 0.228031
0.834226 0.390494 0.226749
0.833005 0.386374 0.226123
0.832547 0.384649 0.226017
0.833692 0.386694 0.227298
0.835386 0.390539 0.228901
0.838376 0.398856 0.231159
0.842939 0.413428 0.234318
0.849638 0.436271 0.239322
0.858015 0.468513 0.245991
0.0534676 0.513771 0.13193
0.0552071 0.517861 0.13022
0.0565652 0.520623 0.125826
0.0574655 0.521874 0.11899
0.0578775 0.523491 0.109285
0.0594492 0.524987 0.0985428
0.0607614 0.525048 0.0963912
0.0599985 0.523766 0.0961318
0.0749523 0.523522 0.0909438
0.128069 0.524086 0.0854047
0.220035 0.523827 0.0853132
0.363348 0.534051 0.088716
0.50103 0.541924 0.0978561
0.605402 0.551049 0.127504
0.693248 0.567361 0.156756
0.762051 0.589807 0.195422
0.822126 0.603311 0.237903
0.857969 0.615915 0.254566
0.8701 0.612177 0.260609
0.871168 0.601541 0.260884
0.871809 0.592584 0.26096
0.872007 0.585534 0.26067
0.871962 0.579141 0.260166
0.872129 0.574258 0.259892
0.871962 0.570565 0.259388
0.871855 0.568521 0.259098
0.872099 0.569131 0.259281
0.872023 0.569772 0.259083
0.872038 0.572229 0.259068
0.87155 0.576974 0.258747
0.871565 0.586404 0.259281
0.870375 0.60061 0.259251
0.868986 0.621134 0.260227
0.0816205 0.591272 0.174151
0.0843366 0.595254 0.172503
0.086244 0.597589 0.169162
0.0884871 0.599451 0.163119
0.090486 0.600778 0.155077
0.0934005 0.602274 0.145205
0.100923 0.604669 0.13547
0.10042 0.603891 0.135317
0.0990005 0.602747 0.135134
0.130175 0.602319 0.121935
0.203204 0.603357 0.113451
0.318166 0.605829 0.111498
0.461082 0.617075 0.121386
0.586877 0.625177 0.143984
0.681865 0.637873 0.1794
0.766674 0.654429 0.21622
0.821866 0.677089 0.241398
0.854643 0.698222 0.254063
0.86775 0.707118 0.258885
0.866789 0.700771 0.257847
0.866224 0.695979 0.257298
0.865721 0.691417 0.256703
0.865461 0.688411 0.256474
0.865202 0.685679 0.256138
0.865034 0.683757 0.255894
0.865034 0.683391 0.255863
0.865034 0.683192 0.255848
0.865202 0.683986 0.256046
0.865538 0.68603 0.256397
0.866163 0.689647 0.257053
0.867185 0.696345 0.258228
0.869032 0.705653 0.260288
0.872694 0.718013 0.264973
0.123949 0.663523 0.220157
0.127138 0.666972 0.219654
0.131426 0.670497 0.217426
0.134936 0.672236 0.21178
0.138903 0.673823 0.204486
0.14287 0.675044 0.19556
0.153903 0.677836 0.184604
0.161685 0.680171 0.180316
0.160159 0.678721 0.17937
0.161166 0.677043 0.176883
0.218265 0.677165 0.156222
0.303151 0.677546 0.148363
0.435035 0.684153 0.152789
0.56228 0.697993 0.175219
0.675334 0.710979 0.207294
0.760235 0.727916 0.246372
0.837156 0.745205 0.285603
0.880491 0.766583 0.302144
0.90454 0.780575 0.31313
0.902342 0.773785 0.307561
0.900481 0.770321 0.304479
0.898756 0.767056 0.301762
0.897322 0.764691 0.299611
0.896895 0.763836 0.29897
0.89659 0.76318 0.298634
0.896193 0.762585 0.298375
0.896132 0.762554 0.298604
0.896452 0.763272 0.299474
0.897154 0.764752 0.300786
0.899306 0.768368 0.303929
0.902296 0.77377 0.308446
0.906722 0.781949 0.315312
0.912505 0.792874 0.325658
0.17612 0.730358 0.266148
0.180453 0.734035 0.265721
0.184314 0.736507 0.263615
0.188067 0.738293 0.259388
0.192279 0.739757 0.252995
0.197055 0.741024 0.243824
0.210376 0.74432 0.233707
0.227863 0.749493 0.226444
0.229511 0.749722 0.224948
0.227512 0.748196 0.223865
0.24828 0.747066 0.212268
0.319722 0.746853 0.192493
0.420127 0.747494 0.189395
0.557351 0.762509 0.20972
0.674769 0.779477 0.246067
0.767681 0.799313 0.283558
0.840848 0.821225 0.324208
0.896284 0.837568 0.35259
0.928008 0.844862 0.371405
0.936248 0.842161 0.37351
0.934691 0.838712 0.37023
0.934066 0.836896 0.368673
0.933227 0.835325 0.367102
0.932876 0.834409 0.366476
0.93257 0.833661 0.366033
0.932372 0.83331 0.366003
0.932448 0.833463 0.366522
0.932754 0.834226 0.367529
0.933776 0.836225 0.36965
0.935012 0.838758 0.372198
0.937209 0.843168 0.376349
0.939712 0.849851 0.381979
0.942367 0.858442 0.38854
0.224491 0.788357 0.305821
0.22858 0.791623 0.305653
0.232425 0.793988 0.303609
0.235874 0.795331 0.300191
0.240925 0.796796 0.293523
0.24799 0.799008 0.284428
0.259739 0.80351 0.280659
0.275883 0.809934 0.277256
0.284001 0.814252 0.276478
0.283513 0.813382 0.274723
0.283558 0.812665 0.273182
0.353902 0.815 0.252934
0.446189 0.814069 0.241337
0.567376 0.819562 0.249393
0.688426 0.839887 0.285786
0.794232 0.858946 0.330755
0.858061 0.878614 0.360678
0.903243 0.889143 0.388693
0.935317 0.894209 0.407996
0.953307 0.895796 0.419791
0.953262 0.893004 0.417823
0.952972 0.892164 0.417044
0.95259 0.891264 0.416159
0.952331 0.890547 0.415625
0.952148 0.890105 0.415473
0.952041 0.889998 0.415686
0.952056 0.890364 0.416403
0.952209 0.891188 0.417594
0.952667 0.892378 0.419013
0.953338 0.894606 0.42092
0.953979 0.897551 0.42327
0.956024 0.902342 0.427649
0.958206 0.908766 0.433539
0.249302 0.833188 0.349523
0.249119 0.834165 0.353048
0.249165 0.834653 0.355688
0.249363 0.835019 0.357092
0.249531 0.835264 0.357946
0.249577 0.83534 0.358358
0.249683 0.835294 0.357763
0.24976 0.835157 0.356771
0.250172 0.835004 0.3552
0.250675 0.834943 0.354101
0.251575 0.834577 0.350607
0.269978 0.835096 0.325673
0.399954 0.848585 0.282994
0.533272 0.858106 0.28542
0.670222 0.873854 0.314092
0.78143 0.891081 0.356954
0.860746 0.907423 0.393957
0.906264 0.921218 0.417243
0.941573 0.92845 0.441642
0.964614 0.932296 0.460639
0.966598 0.930953 0.457404
0.966369 0.930358 0.45658
0.966201 0.930007 0.456107
0.966003 0.929686 0.455833
0.965896 0.929519 0.455848
0.965911 0.929564 0.456352
0.966064 0.929915 0.457389
0.966186 0.93019 0.45832
0.96643 0.930724 0.459388
0.966812 0.931609 0.46067
0.9673 0.932967 0.462257
0.968383 0.935485 0.46511
0.970001 0.938537 0.469062
0.246815 0.841031 0.406928
0.246845 0.841108 0.406577
0.246983 0.841245 0.406104
0.247196 0.841306 0.405325
0.247364 0.841306 0.404334
0.247517 0.841215 0.402884
0.248905 0.840589 0.402167
0.248753 0.840528 0.401175
0.248615 0.840253 0.398276
0.248371 0.840177 0.396567
0.248081 0.840238 0.39646
0.247868 0.840162 0.395636
0.253132 0.832532 0.335348
0.401434 0.850416 0.2851
0.576867 0.867857 0.298085
0.722362 0.886732 0.337667
0.825879 0.903929 0.382712
0.890608 0.922789 0.414755
0.931533 0.933608 0.43975
0.960296 0.93901 0.462211
0.970748 0.94107 0.473747
0.971435 0.941054 0.475135
0.97174 0.940932 0.475212
0.971878 0.940841 0.475303
0.971939 0.940764 0.475547
0.971908 0.940719 0.475929
0.971832 0.940673 0.476448
0.97174 0.940627 0.47715
0.971679 0.940597 0.477577
0.971649 0.940597 0.477699
0.971664 0.940612 0.477607
0.971649 0.940673 0.477211
0.971527 0.940826 0.476448
0.246921 0.841169 0.408255
0.246921 0.841276 0.407843
0.247089 0.841352 0.407309
0.247349 0.841367 0.406592
0.247669 0.841306 0.405814
0.24802 0.841138 0.40444
0.248325 0.840894 0.402777
0.248447 0.840681 0.401328
0.248463 0.840436 0.39913
0.248371 0.840177 0.396582
0.248173 0.840253 0.396445
0.247944 0.840299 0.396368
0.2495 0.835264 0.358694
0.359762 0.845045 0.286641
0.512673 0.861692 0.289372
0.677119 0.880125 0.321904
0.793317 0.897948 0.367178
0.872831 0.916976 0.405768
0.919005 0.931472 0.431769
0.951995 0.938125 0.454688
0.967376 0.941375 0.469337
0.968536 0.941939 0.472908
0.968551 0.941955 0.472999
0.968551 0.941955 0.472999
0.968551 0.941955 0.472999
0.968551 0.941955 0.472999
0.968551 0.941955 0.472999
0.968551 0.941955 0.472999
0.968551 0.941955 0.472999
0.968551 0.941955 0.472999
0.968551 0.941955 0.472999
0.968551 0.941955 0.472999
0.968551 0.941955 0.472999
0.246967 0.841611 0.408743
0.246983 0.841581 0.408515
0.247089 0.84155 0.408194
0.247303 0.841489 0.407645
0.247639 0.841398 0.406744
0.24799 0.84123 0.405646
0.248386 0.840986 0.403861
0.2486 0.840681 0.401709
0.248646 0.840482 0.400153
0.248615 0.840116 0.396872
0.248371 0.840177 0.396567
0.248127 0.840269 0.396414
0.24921 0.837278 0.372534
0.326726 0.839887 0.289174
0.490883 0.859785 0.287602
0.653483 0.87686 0.314824
0.77705 0.895125 0.359915
0.862516 0.913573 0.400931
0.91191 0.929549 0.427192
0.946822 0.937163 0.450843
0.966522 0.941085 0.467979
0.968368 0.941848 0.472129
0.968551 0.941955 0.472999
0.968551 0.941955 0.472999
0.968551 0.941955 0.472999
0.968521 0.941939 0.473213
0.968475 0.941924 0.47364
0.968383 0.941878 0.474266
0.968307 0.941848 0.474861
0.968215 0.941802 0.475517
0.9682 0.941787 0.475731
0.968414 0.941726 0.475624
0.968902 0.941634 0.475181
0.247181 0.841428 0.409735
0.246921 0.841428 0.409537
0.24686 0.841413 0.409216
0.247013 0.841382 0.408637
0.247333 0.841306 0.407889
0.247715 0.841138 0.406622
0.248096 0.840894 0.404929
0.248325 0.840589 0.402655
0.248371 0.840391 0.401068
0.248341 0.839948 0.397314
0.248112 0.840009 0.396872
0.247868 0.840101 0.396735
0.248417 0.83856 0.383246
0.298848 0.835859 0.296574
0.472984 0.858106 0.286549
0.634195 0.873899 0.309941
0.764416 0.892363 0.354147
0.854566 0.910323 0.396582
0.908125 0.927321 0.424506
0.943832 0.935714 0.44828
0.966323 0.940002 0.466682
0.969833 0.941146 0.472343
0.970199 0.94136 0.473915
0.970199 0.94136 0.473915
0.970199 0.94136 0.473915
0.970184 0.941344 0.474128
0.970169 0.941314 0.474571
0.969955 0.941329 0.475044
0.969497 0.941421 0.475502
0.968811 0.941588 0.475868
0.968383 0.941711 0.475883
0.968414 0.941726 0.475685
0.968887 0.941634 0.475257
0.247166 0.841489 0.41033
0.246921 0.841489 0.410025
0.24686 0.841474 0.40972
0.246983 0.841443 0.409201
0.247303 0.841352 0.408408
0.247684 0.841199 0.407279
0.248096 0.840925 0.405692
0.248386 0.84062 0.403342
0.248493 0.840375 0.401633
0.248554 0.839933 0.397955
0.248402 0.839902 0.397055
0.248096 0.840009 0.396872
0.248173 0.839185 0.389654
0.280095 0.832837 0.302007
0.460273 0.856825 0.285863
0.616098 0.872175 0.30602
0.752346 0.891035 0.349386
0.846387 0.908446 0.392477
0.903487 0.925978 0.421759
0.940658 0.935103 0.445991
0.963653 0.939651 0.464393
0.969665 0.941024 0.471763
0.970199 0.94136 0.473915
0.970199 0.94136 0.473915
0.970199 0.94136 0.473915
0.970184 0.941344 0.474128
0.970169 0.941314 0.474571
0.969955 0.941329 0.475044
0.969467 0.941405 0.4757
0.968765 0.941573 0.476265
0.968307 0.94168 0.476493
0.9682 0.941711 0.476448
0.968566 0.941634 0.476173
0.247395 0.841474 0.41088
0.247105 0.841489 0.410529
0.246921 0.841505 0.410071
0.24683 0.84152 0.409567
0.246906 0.841535 0.408621
0.247013 0.841459 0.407416
0.247135 0.841306 0.405676
0.247288 0.841047 0.403067
0.247349 0.840803 0.401053
0.24744 0.84036 0.397696
0.247486 0.840223 0.396506
0.247486 0.840223 0.396506
0.247501 0.839933 0.394491
0.272831 0.832624 0.309071
0.451469 0.855909 0.285389
0.605936 0.871061 0.3037
0.743511 0.889998 0.345983
0.841199 0.907698 0.390265
0.899718 0.925322 0.419715
0.937087 0.934661 0.443595
0.961715 0.939208 0.462364
0.969543 0.940948 0.471305
0.970184 0.941344 0.473808
0.970199 0.94136 0.473915
0.970199 0.94136 0.473915
0.970184 0.941344 0.474128
0.970169 0.941314 0.474571
0.969955 0.941329 0.475044
0.969467 0.941405 0.4757
0.968765 0.941573 0.476265
0.968307 0.94168 0.476493
0.968109 0.941741 0.476402
0.968353 0.941711 0.476066
0.247425 0.841535 0.41117
0.24712 0.841535 0.410849
0.246921 0.84155 0.410391
0.24683 0.84155 0.409812
0.246876 0.84155 0.408957
0.246998 0.841489 0.407752
0.24712 0.841352 0.405982
0.247272 0.841093 0.403433
0.247807 0.84065 0.401389
0.247822 0.840269 0.398138
0.247791 0.840116 0.396689
0.247684 0.840162 0.396628
0.247639 0.839857 0.394232
0.270359 0.83331 0.315969
0.445731 0.855451 0.285389
0.60029 0.870359 0.302388
0.738796 0.889235 0.344076
0.838437 0.907088 0.389197
0.89662 0.924895 0.418036
0.934295 0.934646 0.441794
0.959136 0.939269 0.460304
0.968688 0.941176 0.470558
0.96968 0.941497 0.47332
0.969909 0.941466 0.473747
0.970047 0.941421 0.473823
0.970108 0.941375 0.474083
0.970123 0.941329 0.47454
0.96994 0.941329 0.475044
0.969467 0.941405 0.4757
0.968734 0.941558 0.476493
0.968246 0.941665 0.47689
0.968017 0.941711 0.476997
0.968231 0.941665 0.47689
0.247684 0.841474 0.411627
0.247364 0.841489 0.4112
0.247135 0.841535 0.410697
0.246998 0.841566 0.409979
0.246967 0.841566 0.409186
0.247059 0.841489 0.407965
0.247257 0.841321 0.406226
0.247456 0.841047 0.403769
0.247608 0.840726 0.401282
0.2477 0.840314 0.398199
0.247745 0.840131 0.396658
0.247684 0.840162 0.396628
0.247684 0.839765 0.393561
0.269871 0.833844 0.31957
0.443046 0.855146 0.285359
0.598245 0.870039 0.301823
0.738125 0.889143 0.343816
0.836805 0.906538 0.388525
0.895613 0.924636 0.417456
0.93283 0.934493 0.440833
0.957748 0.939284 0.459327
0.967727 0.941482 0.469917
0.96846 0.941894 0.472541
0.968551 0.941955 0.472999
0.968551 0.941955 0.472999
0.968551 0.941955 0.472999
0.968551 0.941955 0.472999
0.968353 0.942031 0.472892
0.967956 0.942168 0.472694
0.967361 0.942382 0.472374
0.966964 0.942519 0.472175
0.966766 0.942596 0.472068
0.966766 0.942596 0.472068
0.247089 0.842039 0.410895
0.247028 0.841962 0.410712
0.246967 0.841856 0.410452
0.246937 0.841764 0.409995
0.246952 0.841642 0.409247
0.247059 0.84152 0.408072
0.247257 0.841321 0.406317
0.247456 0.841047 0.403876
0.247654 0.840711 0.401282
0.247761 0.840299 0.398215
0.247822 0.840116 0.396704
0.247776 0.840131 0.396674
0.247822 0.839536 0.391974
0.273442 0.834714 0.319509
0.445609 0.85539 0.285405
0.601175 0.87042 0.30251
0.739483 0.889357 0.344366
0.837491 0.906676 0.388891
0.896162 0.924804 0.4177
