bundles/resolve-cinematic-luts/Phantom Luts/Komodo Phantom ARRI LUTs G2/Komodo Phantom ARRI LUTs G2/33x/Standard (No WB Offset)/IceBlue_Komodo_G2_33x.cube
TITLE "Generated by Resolve"
LUT_3D_SIZE 5
0.0343023 0.0468605 0.0466621
0.210056 0.0400549 0.0463417
0.650324 0.0714275 0.161151
0.671412 0.0754101 0.20061
0.677317 0.0728313 0.229984
0.0351263 0.227848 0.068452
0.186496 0.224277 0.0528115
0.636576 0.0707866 0.104906
0.648829 0.0729686 0.126238
0.652644 0.0734874 0.128481
0.224491 0.788357 0.305821
0.284001 0.814252 0.276478
0.858061 0.878614 0.360678
0.952148 0.890105 0.415473
0.958206 0.908766 0.433539
0.247425 0.841535 0.41117
0.247807 0.84065 0.401389
0.738796 0.889235 0.344076
0.970047 0.941421 0.473823
0.968231 0.941665 0.47689
0.24712 0.842145 0.411551
0.247196 0.84007 0.396979
0.879316 0.917006 0.40856
0.972 0.940719 0.474861
0.966751 0.94226 0.475441
0.0222171 0.0577096 0.212253
0.232364 0.0476844 0.223896
0.694484 0.082536 0.289601
0.711086 0.0936446 0.314031
0.720333 0.100847 0.351339
0.0296025 0.193469 0.193652
0.152956 0.19382 0.207431
0.659236 0.0697948 0.193133
0.678401 0.0738231 0.230671
0.680629 0.073518 0.240238
0.188678 0.778576 0.4112
0.209384 0.786862 0.3467
0.848707 0.871229 0.3523
0.948852 0.880507 0.407095
0.954238 0.89778 0.423056
0.249149 0.848478 0.469551
0.247669 0.842115 0.415869
0.704204 0.884138 0.331182
0.970184 0.941329 0.474342
0.967803 0.941604 0.478691
0.254582 0.856306 0.541451
0.24715 0.846052 0.447959
0.841733 0.905745 0.390799
0.972 0.940719 0.474861
0.965835 0.942138 0.479286
0.0254063 0.0737621 0.550317
0.173678 0.0655222 0.616617
0.697398 0.124239 0.669367
0.711788 0.131853 0.684153
0.703731 0.135531 0.702602
0.0208133 0.18854 0.59646
0.0295872 0.0710002 0.555856
0.693462 0.125139 0.675853
0.713268 0.131975 0.683116
0.706447 0.135073 0.699229
0.154772 0.714214 0.695308
0.159731 0.720745 0.701106
0.680278 0.745724 0.75906
0.953841 0.722286 0.749584
0.941634 0.751873 0.778408
0.265751 0.867536 0.757214
0.27219 0.86595 0.753902
0.259007 0.871778 0.63975
0.970855 0.940124 0.472404
0.968017 0.939559 0.4925
0.282399 0.874815 0.816938
0.289769 0.871031 0.805798
0.314214 0.893935 0.714763
0.968841 0.940505 0.470741
0.964843 0.941268 0.484489
0.0863508 0.0615091 0.598383
0.206531 0.0697795 0.647501
0.697017 0.135424 0.70515
0.705852 0.137087 0.704311
0.703243 0.137469 0.707774
0.0186923 0.140612 0.59913
0.0838331 0.0616312 0.597681
0.69163 0.134997 0.707134
0.708171 0.136736 0.701442
0.704005 0.137346 0.706935
0.147311 0.66833 0.755169
0.149508 0.67248 0.754803
0.559487 0.630732 0.923293
0.947295 0.607736 0.925383
0.938659 0.651148 0.928267
0.288228 0.871672 0.856199
0.297475 0.870161 0.8533
0.302785 0.876799 0.859083
0.978729 0.977844 0.979904
0.99704 0.981353 0.982589
0.287327 0.872038 0.856229
0.298711 0.869825 0.85304
0.315114 0.889799 0.870726
0.976059 0.988983 0.986419
0.998886 0.995682 0.991363
0.0934768 0.0615244 0.601862
0.217838 0.0700847 0.650462
0.702464 0.136568 0.705348
0.705867 0.137087 0.704326
0.703166 0.137484 0.707835
0.0190738 0.141115 0.599283
0.0908064 0.0616464 0.601114
0.698146 0.136263 0.70724
0.708186 0.136721 0.701457
0.704051 0.137331 0.706981
0.150942 0.673976 0.756588
0.153674 0.67863 0.75642
0.577798 0.640055 0.923247
0.949096 0.621469 0.925856
0.936446 0.664744 0.926635
0.290654 0.871061 0.855604
0.300954 0.8692 0.852567
0.309316 0.877699 0.859693
0.968139 0.972564 0.981857
0.994507 0.978714 0.985718
0.285115 0.872465 0.856931
0.301762 0.868971 0.852399
0.324315 0.888624 0.868971
0.950179 0.983032 0.986618
0.998886 0.994812 0.994553
