bundles/resolve-cinematic-luts/Phantom Luts/Komodo Phantom ARRI LUTs G2/Komodo Phantom ARRI LUTs G2/33x/Standard (No WB Offset)/Jamaica_Komodo_G2_33x.cube
TITLE "Generated by Resolve"
LUT_3D_SIZE 9
0.0197757 0.0358129 0.0197604
0.0706188 0.0353246 0.0195315
0.25948 0.0282292 0.0280156
0.539452 0.0337682 0.0971237
0.64509 0.0666514 0.181979
0.653696 0.0677501 0.206027
0.658076 0.0684215 0.218524
0.659617 0.0686503 0.223301
0.659602 0.0686961 0.22359
0.0185397 0.0724804 0.0216068
0.0431067 0.0621958 0.0220035
0.229877 0.043534 0.0195773
0.516655 0.0322271 0.0589151
0.619364 0.0622568 0.122087
0.636591 0.0655833 0.160052
0.644785 0.0665751 0.181247
0.64622 0.0668498 0.184848
0.646494 0.0668956 0.185611
0.0110323 0.277501 0.0382544
0.00959792 0.272374 0.0234073
0.213581 0.250141 0.0281987
0.579217 0.213901 0.108766
0.62118 0.0731212 0.100587
0.628595 0.0724956 0.121523
0.628016 0.0716259 0.12256
0.627756 0.0712902 0.122881
0.627466 0.0710765 0.122835
0.0885328 0.626963 0.164599
0.0902419 0.624826 0.131182
0.125063 0.623102 0.109438
0.557122 0.592615 0.111452
0.870314 0.644373 0.260777
0.903822 0.623835 0.284977
0.903929 0.595651 0.282322
0.902861 0.583032 0.280644
0.900938 0.575525 0.278584
0.361913 0.913329 0.431434
0.37116 0.911192 0.411688
0.416114 0.925811 0.401953
0.580774 0.923262 0.336934
0.912825 0.928481 0.425208
0.978805 0.933928 0.464927
0.97673 0.9281 0.460456
0.975448 0.925216 0.458045
0.974334 0.923171 0.456046
0.389654 0.958862 0.547417
0.386038 0.955428 0.540978
0.387549 0.954833 0.533959
0.413062 0.957259 0.493202
0.862104 0.966049 0.439231
1 0.991897 0.519738
1 0.992554 0.523308
1 0.992569 0.523278
1 0.992157 0.522652
0.394934 0.963897 0.555001
0.385473 0.955581 0.543359
0.386923 0.954894 0.535973
0.39205 0.957656 0.535607
0.801236 0.967605 0.420096
0.994583 0.990021 0.510796
1 0.992081 0.523888
1 0.992187 0.523827
1 0.992569 0.522683
0.398672 0.967437 0.560067
0.38706 0.956924 0.54548
0.386709 0.954726 0.535821
0.387915 0.954452 0.531411
0.780453 0.968139 0.414572
0.991791 0.988266 0.508003
1 0.991485 0.524468
1 0.991653 0.52433
1 0.992859 0.523033
0.399573 0.968277 0.561364
0.389105 0.958648 0.547997
0.388571 0.956207 0.537972
0.387991 0.954513 0.531502
0.783123 0.966644 0.413535
0.991989 0.988312 0.508019
1 0.991485 0.524392
1 0.991669 0.524269
1 0.99295 0.523232
0.0157015 0.0362554 0.055314
0.0725414 0.0360876 0.0660563
0.273167 0.0352789 0.0842908
0.55787 0.0387427 0.145953
0.657404 0.0683604 0.217044
0.664698 0.0691997 0.242008
0.667033 0.0694285 0.250935
0.667643 0.0695048 0.253285
0.667536 0.0695201 0.253101
0.0219272 0.0587167 0.0473487
0.0273747 0.0523842 0.0290227
0.233494 0.0304417 0.0260014
0.529213 0.0330816 0.0917372
0.644114 0.0664988 0.179461
0.653071 0.0677348 0.204318
0.657298 0.0683757 0.21677
0.658793 0.0686198 0.221347
0.658991 0.0686656 0.221988
0.010956 0.265064 0.085008
0.00915541 0.262287 0.0428779
0.202976 0.242023 0.0272526
0.573999 0.190738 0.101762
0.6224 0.0702373 0.112764
0.626383 0.0699626 0.123369
0.625544 0.0690013 0.123537
0.625238 0.0686809 0.123491
0.62501 0.0685435 0.123384
0.0812848 0.622324 0.202716
0.0816358 0.619272 0.165576
0.0986801 0.613916 0.109789
0.552392 0.587808 0.109575
0.87216 0.635493 0.261021
0.904234 0.611856 0.28397
0.902647 0.580591 0.280354
0.90074 0.567361 0.278264
0.898756 0.55993 0.276448
0.342535 0.909361 0.449317
0.351827 0.90721 0.42829
0.4094 0.920913 0.396231
0.564401 0.922469 0.336416
0.910338 0.926131 0.422477
0.977661 0.931182 0.462715
0.975418 0.925109 0.458
0.974182 0.921843 0.455421
0.973266 0.920027 0.453742
0.389258 0.959167 0.549981
0.385565 0.955734 0.543893
0.387106 0.955001 0.535973
0.406363 0.95787 0.506416
0.857893 0.965866 0.437598
1 0.991882 0.519585
1 0.992569 0.523293
1 0.992569 0.523262
1 0.992569 0.522347
0.394446 0.964019 0.557061
0.385199 0.955825 0.545419
0.386618 0.955016 0.537392
0.391379 0.957214 0.535393
0.796124 0.967971 0.418921
0.993912 0.989822 0.510216
1 0.99205 0.523919
1 0.992187 0.523842
1 0.992554 0.522713
0.398032 0.967361 0.561822
0.386236 0.956771 0.547097
0.386297 0.954879 0.537652
0.387686 0.954284 0.531197
0.775326 0.968505 0.413504
0.990951 0.988083 0.507362
1 0.991485 0.524453
1 0.991653 0.524315
1 0.992981 0.522942
0.399237 0.96849 0.563378
0.386847 0.957336 0.548165
0.388128 0.956329 0.539681
0.387778 0.954345 0.531273
0.777905 0.966949 0.412345
0.991073 0.988113 0.507347
1 0.991485 0.524422
1 0.991669 0.524285
1 0.99295 0.523232
0.0080415 0.0423896 0.204807
0.0801709 0.0361486 0.215534
0.278691 0.0348821 0.253681
0.580407 0.0544747 0.270741
0.689326 0.080293 0.314977
0.698405 0.0872511 0.331228
0.70193 0.0900282 0.337804
0.703258 0.0911116 0.339925
0.703273 0.0910506 0.33933
0 0.0544289 0.170626
0.0110781 0.0416571 0.189914
0.255116 0.0347753 0.229633
0.568078 0.0497749 0.239307
0.674784 0.0700236 0.286839
0.683391 0.0760052 0.303517
0.687709 0.0791028 0.311711
0.689036 0.0800946 0.314153
0.688853 0.0800031 0.313436
0.0191653 0.21883 0.194141
0.0187076 0.214542 0.184817
0.178714 0.216968 0.167056
0.560983 0.11606 0.13434
0.630304 0.0657359 0.142977
0.646952 0.0674296 0.18558
0.650736 0.0675822 0.196902
0.651942 0.0676432 0.200671
0.652201 0.067689 0.20148
0.0649424 0.592706 0.298116
0.0629587 0.59205 0.273945
0.0656901 0.588357 0.162921
0.533242 0.57145 0.10277
0.877516 0.605493 0.261585
0.90042 0.563226 0.277958
0.894881 0.526513 0.274311
0.891386 0.510124 0.272602
0.888243 0.501579 0.270604
0.295598 0.895415 0.513649
0.298421 0.893965 0.494453
0.330739 0.894286 0.421729
0.502754 0.915434 0.334981
0.90219 0.918334 0.41352
0.974273 0.922026 0.455634
0.971557 0.914961 0.450111
0.970169 0.911299 0.447242
0.968978 0.90959 0.44567
0.386023 0.961196 0.570367
0.384237 0.956786 0.553323
0.385534 0.955856 0.54461
0.397177 0.959945 0.533043
0.842084 0.965591 0.431861
1 0.99176 0.518914
1 0.992569 0.523262
1 0.992569 0.523217
1 0.99263 0.522271
0.389929 0.966613 0.585504
0.383185 0.957519 0.560632
0.385153 0.955932 0.546105
0.390402 0.956451 0.534417
0.776394 0.969924 0.415137
0.99147 0.989075 0.508171
1 0.99202 0.523964
1 0.992187 0.523857
1 0.992599 0.522698
0.392401 0.96939 0.591852
0.383246 0.958175 0.563989
0.384833 0.955749 0.546059
0.387579 0.954192 0.531075
0.751476 0.970855 0.409918
0.987488 0.98735 0.504723
1 0.991485 0.524422
1 0.991669 0.524269
1 0.992981 0.522927
0.392905 0.970748 0.597299
0.383749 0.959274 0.56846
0.385977 0.956741 0.547738
0.387579 0.954192 0.531075
0.754345 0.969329 0.408759
0.98735 0.987335 0.504631
1 0.991485 0.524453
1 0.991653 0.524315
1 0.993072 0.52314
0.0181125 0.0424964 0.422629
0.0807507 0.033753 0.428046
0.251408 0.0366674 0.466392
0.556558 0.0453346 0.52604
0.674327 0.0734569 0.482994
0.672404 0.0743114 0.493721
0.671733 0.0746319 0.497841
0.671702 0.0746166 0.497871
0.671733 0.0742809 0.494789
0 0.0754101 0.402197
0.0178836 0.042649 0.414801
0.218479 0.0362097 0.452903
0.549004 0.0441291 0.516899
0.675578 0.0726787 0.472694
0.674586 0.0735027 0.481041
0.673976 0.0736858 0.484596
0.673915 0.0737011 0.485039
0.674052 0.0734722 0.482719
0 0.174563 0.362341
0 0.162982 0.360052
0.0633555 0.0782025 0.419837
0.517815 0.0419165 0.475898
0.693019 0.0808118 0.4327
0.689693 0.0788281 0.439323
0.687007 0.076997 0.441611
0.686687 0.0767529 0.441825
0.687495 0.0772717 0.440574
0.0471199 0.504952 0.465583
0.044892 0.502068 0.458183
0.0433814 0.492485 0.438041
0.459068 0.496056 0.412039
0.897963 0.438636 0.412695
0.879057 0.332631 0.35285
0.85069 0.29543 0.332753
0.840848 0.282521 0.326772
0.836378 0.277119 0.323491
0.244556 0.850126 0.628351
0.243732 0.851041 0.618555
0.241917 0.853529 0.587777
0.281361 0.862577 0.404547
0.862242 0.882734 0.372717
0.962036 0.890913 0.431357
0.955932 0.879744 0.421714
0.953643 0.875288 0.418051
0.951827 0.873243 0.416724
0.368277 0.955489 0.693004
0.369055 0.956374 0.684703
0.374884 0.961898 0.664469
0.388403 0.958373 0.548791
0.785336 0.969177 0.416785
1 0.990738 0.514595
1 0.992187 0.523644
1 0.992142 0.523842
1 0.992172 0.522957
0.371206 0.958282 0.694118
0.368994 0.956268 0.685389
0.37435 0.961501 0.665019
0.385916 0.956756 0.548012
0.69984 0.981353 0.41294
0.98114 0.986893 0.50071
1 0.99202 0.524071
1 0.992187 0.52398
1 0.992599 0.522774
0.373068 0.959899 0.694636
0.369085 0.956374 0.685023
0.374701 0.961807 0.66569
0.38468 0.95584 0.546883
0.658061 0.983017 0.412192
0.974365 0.984863 0.495766
1 0.991455 0.524132
1 0.991669 0.524224
1 0.992981 0.522866
0.373037 0.959777 0.69778
0.368704 0.955871 0.687678
0.374319 0.96144 0.667948
0.384634 0.955886 0.547311
0.660212 0.981689 0.410498
0.974258 0.984787 0.495659
1 0.991424 0.524117
1 0.991653 0.524346
1 0.99295 0.523293
0.0312047 0.0462348 0.566903
0.0857862 0.0333257 0.576699
0.231296 0.0433356 0.621683
0.490349 0.0674754 0.664515
0.671351 0.126329 0.665934
0.668956 0.128786 0.672099
0.668559 0.129305 0.673976
0.668574 0.12932 0.674052
0.667643 0.129396 0.671077
0.00830091 0.0720684 0.570459
0.0334478 0.0453193 0.566735
0.20351 0.0420539 0.613245
0.479271 0.0649424 0.663035
0.671534 0.125551 0.663478
0.669932 0.128038 0.669551
0.669245 0.128557 0.671061
0.669322 0.128527 0.671153
0.66891 0.128405 0.668681
0.0136721 0.153964 0.595178
0.0135653 0.142519 0.594324
0.0523842 0.0405127 0.568063
0.43357 0.0565499 0.654627
0.66775 0.120714 0.651698
0.672572 0.123644 0.658396
0.672496 0.124422 0.659724
0.672648 0.124483 0.659678
0.672267 0.124331 0.657618
0.0433204 0.441642 0.636988
0.0409094 0.43566 0.634836
0.0380255 0.409751 0.636118
0.320897 0.306783 0.708492
0.816022 0.272404 0.770916
0.737453 0.165789 0.653117
0.689555 0.117464 0.604044
0.677394 0.103578 0.589487
0.673869 0.0991684 0.583917
0.203906 0.751415 0.72755
0.201419 0.7514 0.722438
0.196521 0.748409 0.71664
0.181155 0.740551 0.695796
0.747036 0.759197 0.698039
0.964462 0.758572 0.706111
0.963958 0.740124 0.692439
0.963775 0.733181 0.685664
0.96199 0.730663 0.681819
0.354376 0.921767 0.796231
0.352438 0.923323 0.792264
0.352987 0.925994 0.783368
0.355444 0.934264 0.752819
0.565332 0.998932 0.522438
0.997864 0.992737 0.532006
1 0.99147 0.523827
1 0.991333 0.522988
1 0.991394 0.521828
0.354894 0.92282 0.792828
0.352697 0.924392 0.788785
0.353262 0.927184 0.779278
0.355596 0.935683 0.74696
0.421424 0.965484 0.506142
0.954803 0.981262 0.483528
1 0.991943 0.521553
1 0.992203 0.522744
1 0.992447 0.521737
0.357259 0.924071 0.790463
0.352773 0.924773 0.787488
0.353307 0.92755 0.777722
0.355718 0.936019 0.745586
0.395315 0.956466 0.522911
0.939193 0.976745 0.474235
1 0.991058 0.520912
1 0.991653 0.523613
1 0.992447 0.522683
0.357595 0.92369 0.792264
0.353017 0.924132 0.789792
0.353155 0.926909 0.780011
0.355566 0.935592 0.747143
0.397314 0.957671 0.523415
0.937499 0.976211 0.47335
1 0.991287 0.520729
1 0.991989 0.523629
1 0.99292 0.522881
0.0844587 0.0373846 0.584405
0.120867 0.0377508 0.599298
0.234409 0.048188 0.643107
0.457267 0.0735943 0.681804
0.663096 0.135271 0.695613
0.663722 0.13547 0.695857
0.662531 0.135927 0.694835
0.662669 0.135866 0.694896
0.66157 0.136172 0.693263
0.0370642 0.046891 0.569574
0.0838788 0.0373693 0.584146
0.209781 0.0466011 0.635691
0.44445 0.0711681 0.680949
0.662608 0.135164 0.695583
0.663767 0.135485 0.695994
0.662562 0.135943 0.694972
0.662364 0.136004 0.694713
0.661341 0.136263 0.693034
0.0357671 0.143282 0.614313
0.0319219 0.126116 0.605402
0.086244 0.0375067 0.58529
0.392264 0.0630198 0.675853
0.656138 0.133837 0.69453
0.66392 0.135485 0.696452
0.663569 0.135637 0.696193
0.663447 0.135683 0.695994
0.663066 0.135668 0.694987
0.0703441 0.333181 0.686595
0.0680247 0.3243 0.683574
0.0619974 0.29192 0.673808
0.204532 0.121065 0.690867
0.616434 0.139635 0.716213
0.664775 0.136873 0.697414
0.664485 0.136431 0.697169
0.664439 0.136263 0.697108
0.664195 0.136141 0.696223
0.188586 0.666041 0.770794
0.186145 0.664347 0.76791
0.180667 0.655726 0.764096
0.16614 0.625925 0.756893
0.641962 0.625834 0.881758
0.954589 0.636698 0.939284
0.954192 0.614984 0.934447
0.953841 0.60795 0.932204
0.951873 0.60502 0.929366
0.334539 0.878248 0.863905
0.331533 0.877409 0.859846
0.324453 0.871244 0.85214
0.303746 0.851316 0.827604
0.355444 0.89041 0.857649
0.927367 0.928679 0.903166
0.98294 0.930877 0.908614
0.982177 0.926741 0.904616
0.981186 0.925734 0.902052
0.3561 0.893065 0.874327
0.350484 0.89572 0.87303
0.350652 0.897704 0.868421
0.351308 0.902968 0.855161
0.357717 0.920623 0.821729
0.867018 0.998932 0.826902
1 0.996399 0.615366
1 0.991287 0.521721
1 0.991516 0.520684
0.357015 0.893233 0.873381
0.350515 0.89572 0.872953
0.350652 0.89781 0.868055
0.3514 0.90338 0.853941
0.355413 0.920516 0.813031
0.831708 0.998932 0.803464
1 0.996475 0.670344
1 0.991547 0.521477
1 0.992218 0.520531
0.361898 0.89134 0.873213
0.350454 0.895079 0.874434
0.350668 0.897292 0.869581
0.351324 0.90309 0.854856
0.355367 0.920546 0.812833
0.827298 0.998932 0.803876
1 0.99646 0.688136
1 0.99144 0.521553
1 0.992096 0.521401
0.115663 0.0377813 0.597406
0.147204 0.0383459 0.609003
0.250523 0.0491951 0.647486
0.468009 0.0758221 0.682536
0.663767 0.135439 0.695781
0.663798 0.135454 0.695918
0.66363 0.135515 0.695796
0.663279 0.135698 0.69575
0.661921 0.13608 0.693919
0.0755627 0.0372473 0.580331
0.115343 0.0377966 0.597299
0.226413 0.0476692 0.640772
0.455222 0.0732433 0.681758
0.663355 0.135332 0.695628
0.663798 0.135454 0.695933
0.663676 0.1355 0.695827
0.662623 0.135882 0.694865
0.661524 0.136187 0.693217
0.0331121 0.1299 0.607553
0.0245212 0.0944381 0.588266
0.116472 0.0377966 0.597711
0.402853 0.0645914 0.677241
0.659815 0.134554 0.69482
0.663905 0.135485 0.696391
0.663905 0.135485 0.696391
0.663539 0.135622 0.696056
0.663142 0.135637 0.695033
0.0620279 0.2869 0.672984
0.0592813 0.27689 0.668971
0.0534218 0.245518 0.657755
0.173068 0.0542763 0.633326
0.591409 0.112398 0.688289
0.664118 0.135866 0.696544
0.663966 0.135531 0.69662
0.663935 0.1355 0.696544
0.663767 0.135439 0.69575
0.183795 0.639277 0.777188
0.181552 0.637034 0.774868
0.177203 0.628153 0.77203
0.161959 0.59646 0.762264
0.605509 0.563226 0.893492
0.938293 0.576379 0.957031
0.937804 0.550576 0.958144
0.936355 0.541039 0.957244
0.933257 0.537713 0.95407
0.308141 0.837629 0.870176
0.305074 0.835248 0.867048
0.297246 0.823545 0.860594
0.263172 0.772595 0.832654
0.270512 0.778088 0.846296
0.87921 0.873808 0.952575
0.975555 0.886336 0.975738
0.975753 0.880995 0.975097
0.974807 0.879667 0.973846
0.340551 0.878584 0.894194
0.339529 0.87953 0.892638
0.339452 0.879606 0.892531
0.339681 0.879484 0.892775
0.354223 0.893355 0.890303
0.628763 0.983352 0.966995
0.982651 0.981476 0.976989
0.995819 0.982025 0.979248
0.994888 0.981506 0.977996
0.348837 0.876371 0.892103
0.339529 0.87953 0.892638
0.339452 0.879606 0.892531
0.339803 0.879438 0.892912
0.35285 0.893629 0.883986
0.435309 0.950927 0.923339
0.974594 0.98967 0.964523
1 0.991928 0.963088
1 0.992004 0.953811
0.347784 0.877211 0.89073
0.339544 0.87953 0.892653
0.339452 0.879606 0.892531
0.339712 0.879484 0.89279
0.352987 0.894209 0.882933
0.438834 0.954849 0.925673
0.970764 0.989868 0.96199
1 0.992905 0.961135
1 0.993179 0.948165
0.125505 0.0378729 0.601099
0.156024 0.0386511 0.612131
0.25597 0.0496071 0.648981
0.471565 0.076585 0.682704
0.663767 0.135439 0.695796
0.663798 0.135454 0.695918
0.663798 0.135454 0.695918
0.663706 0.1355 0.695918
0.663676 0.135409 0.695506
0.0885634 0.0373236 0.586084
0.124941 0.0378576 0.600885
0.231983 0.0480507 0.64242
0.457923 0.0736858 0.681804
0.663645 0.135409 0.695689
0.663798 0.135454 0.695933
0.663798 0.135454 0.695933
0.663584 0.135515 0.695705
0.66212 0.136004 0.693996
0.0313725 0.121584 0.603281
0.0214389 0.0833143 0.581506
0.126848 0.0379187 0.601633
0.406668 0.0651102 0.677623
0.660838 0.134768 0.694972
0.663905 0.135485 0.696361
0.663905 0.135485 0.696391
0.66389 0.135485 0.696315
0.663188 0.135622 0.695079
0.058793 0.270665 0.667353
0.0561074 0.261006 0.663294
0.0504311 0.228855 0.651423
0.163058 0.0429999 0.619013
0.591577 0.11136 0.686763
0.66389 0.135485 0.6963
0.663951 0.1355 0.696605
0.663951 0.1355 0.696559
0.663767 0.135439 0.69575
0.18088 0.633494 0.775311
0.178943 0.631373 0.773312
0.174319 0.622003 0.770321
0.157931 0.587564 0.759686
0.599634 0.548363 0.891951
0.935897 0.560891 0.955398
0.934234 0.532891 0.955215
0.933028 0.522911 0.954711
0.930755 0.518883 0.952575
0.303792 0.831098 0.866773
0.300999 0.828916 0.863859
0.284153 0.804013 0.849424
0.257664 0.763729 0.829023
0.264698 0.768566 0.842115
0.870924 0.859571 0.950408
0.971511 0.871824 0.975128
0.973526 0.864164 0.976913
0.969879 0.862608 0.97406
0.340337 0.878782 0.893889
0.339529 0.87953 0.892638
0.339452 0.879606 0.892531
0.33962 0.879438 0.89279
0.344289 0.884352 0.896742
0.526436 0.94432 0.970184
0.972244 0.969909 0.985809
0.994568 0.972839 0.993896
0.994018 0.972015 0.993179
0.340825 0.87834 0.894591
0.339529 0.87953 0.892638
0.339452 0.879606 0.892531
0.339712 0.879362 0.892943
0.342458 0.881529 0.895476
0.376761 0.910445 0.91696
0.929686 0.988495 0.988815
0.998291 0.992462 0.996109
1 0.992157 0.995926
0.348882 0.876371 0.892058
0.339544 0.87953 0.892653
0.339452 0.879606 0.892531
0.339635 0.879438 0.892805
0.342443 0.881498 0.895415
0.382437 0.912291 0.916884
0.92459 0.988952 0.987442
0.99559 0.994202 0.993851
1 0.994202 0.996139
0.127642 0.0379187 0.601907
0.158938 0.03888 0.613275
0.257389 0.0497139 0.649363
0.472053 0.0766766 0.682719
0.663767 0.135439 0.695796
0.663798 0.135454 0.695918
0.663798 0.135454 0.695918
0.663828 0.135454 0.696025
0.663706 0.135424 0.695552
0.0918288 0.0373693 0.587503
0.127916 0.0379339 0.602029
0.233448 0.0481422 0.642847
0.458488 0.0737926 0.681849
0.663706 0.135424 0.695705
0.663798 0.135454 0.695933
0.663798 0.135454 0.695933
0.663783 0.135439 0.695857
0.6636 0.135393 0.695323
0.0304723 0.118242 0.601419
0.0204013 0.0797436 0.579217
0.1299 0.0380102 0.602808
0.407492 0.0652323 0.677745
0.660731 0.134737 0.694957
0.663905 0.135485 0.696361
0.663905 0.135485 0.696391
0.66389 0.135485 0.696315
0.663706 0.135424 0.695552
0.057847 0.265507 0.665553
0.0552529 0.255482 0.661402
0.0496376 0.223896 0.649546
0.165438 0.0432136 0.619944
0.592004 0.111513 0.686793
0.66389 0.135485 0.6963
0.663951 0.1355 0.696605
0.663951 0.1355 0.696559
0.663767 0.135439 0.69575
0.180056 0.631586 0.774823
0.177981 0.629328 0.772671
0.17322 0.61973 0.769635
0.156527 0.584558 0.758755
0.598108 0.543145 0.891264
0.935119 0.554528 0.954971
0.9337 0.527794 0.955062
0.932189 0.517327 0.954177
0.92958 0.512139 0.951782
0.302525 0.829267 0.865766
0.298085 0.824598 0.861357
0.280293 0.798459 0.846082
0.256168 0.761273 0.828077
0.262913 0.765637 0.840833
0.869261 0.855741 0.949874
0.970764 0.86833 0.97464
0.971237 0.860746 0.975097
0.969085 0.858763 0.973571
0.340291 0.878828 0.893828
0.339529 0.87953 0.892638
0.339452 0.879606 0.892531
0.339452 0.879606 0.892531
0.34406 0.88455 0.896422
0.566049 0.942702 0.969284
0.970642 0.967941 0.984665
0.992554 0.971099 0.992493
0.991714 0.970077 0.991791
0.340536 0.878599 0.894179
0.339529 0.87953 0.892638
0.339452 0.879606 0.892531
0.339452 0.879606 0.892531
0.341726 0.882063 0.894453
0.368643 0.909026 0.916213
0.902617 0.984039 0.988617
0.995422 0.990555 0.997589
0.998642 0.991119 0.999146
0.340291 0.878828 0.893828
0.339544 0.87953 0.892653
0.339452 0.879606 0.892531
0.339452 0.879606 0.892531
0.341726 0.882048 0.894408
0.368963 0.9093 0.916426
0.830503 0.986496 0.989517
0.991775 0.994659 0.99675
1 0.994812 1
