bundles/resolve-cinematic-luts/Phantom Luts/Komodo Phantom ARRI LUTs G2/Komodo Phantom ARRI LUTs G2/33x/Standard (No WB Offset)/Jamaica_Komodo_G2_33x.cube
TITLE "Generated by Resolve"
LUT_3D_SIZE 33
0.0197757 0.0358129 0.0197604
0.0197604 0.0357824 0.0197452
0.0203555 0.0357519 0.0197452
0.038056 0.035874 0.0197757
0.0706188 0.0353246 0.0195315
0.108659 0.0341955 0.0195621
0.153185 0.0320592 0.0202945
0.202579 0.0297551 0.0225071
0.25948 0.0282292 0.0280156
0.324666 0.0280308 0.0386664
0.396002 0.0301671 0.0523995
0.470802 0.0317235 0.073579
0.539452 0.0337682 0.0971237
0.590707 0.0371252 0.124483
0.619013 0.0469368 0.14934
0.633997 0.0598764 0.164981
0.64509 0.0666514 0.181979
0.647852 0.0670787 0.189227
0.650034 0.0672618 0.195514
0.651987 0.0675517 0.200977
0.653696 0.0677501 0.206027
0.655314 0.0679637 0.21059
0.656321 0.0681621 0.213306
0.657298 0.0682841 0.216251
0.658076 0.0684215 0.218524
0.658656 0.068513 0.220325
0.659098 0.068574 0.221683
0.659403 0.0686198 0.222614
0.659617 0.0686503 0.223301
0.659724 0.0686656 0.223682
0.659785 0.0686809 0.223865
0.659739 0.0686961 0.223819
0.659602 0.0686961 0.22359
0.0197604 0.0357824 0.0197452
0.0197604 0.0357977 0.0197604
0.0197604 0.0357824 0.0197452
0.0308537 0.0360723 0.0198825
0.0632486 0.0357824 0.0195926
0.102739 0.0348058 0.0196384
0.148669 0.0325933 0.020264
0.199557 0.0301366 0.0220951
0.255665 0.0280461 0.0253147
0.319509 0.0271 0.0319829
0.390402 0.0281224 0.0425422
0.465461 0.0295262 0.0619364
0.536034 0.0314946 0.0882429
0.586618 0.0356603 0.115984
0.615579 0.0467536 0.139986
0.631571 0.059678 0.158389
0.642939 0.0664225 0.17612
0.645808 0.0667887 0.183734
0.648371 0.0671092 0.190784
0.650172 0.0673075 0.19588
0.651881 0.0675364 0.200732
0.653208 0.067689 0.204669
0.654505 0.0678721 0.208423
0.655299 0.0680095 0.210452
0.65594 0.0681163 0.212222
0.656458 0.0681926 0.213825
0.656886 0.0682383 0.215076
0.657221 0.0682994 0.216068
0.657465 0.0683299 0.2168
0.657633 0.0683604 0.217304
0.65771 0.0683757 0.217609
0.657649 0.0683909 0.217533
0.657511 0.0684062 0.217243
0.0197299 0.0364385 0.0198367
0.0197757 0.0361944 0.0198062
0.0201267 0.035996 0.019791
0.0224613 0.0361028 0.0198978
0.0490578 0.0371557 0.0204318
0.0897078 0.0366064 0.0194247
0.137285 0.0347295 0.0196536
0.190341 0.0321202 0.02121
0.248569 0.0296178 0.0242008
0.31371 0.0281682 0.0296788
0.384558 0.0281682 0.0378729
0.458076 0.0282597 0.0503395
0.526772 0.029633 0.0712139
0.580697 0.0356756 0.101686
0.611582 0.0465705 0.129427
0.626917 0.0591897 0.146426
0.637049 0.0656138 0.161288
0.642924 0.0664378 0.176089
0.645609 0.066743 0.183322
0.647898 0.0670939 0.18938
0.64947 0.0671855 0.194034
0.650828 0.0674144 0.197711
0.651896 0.0675364 0.200809
0.65272 0.0676432 0.203204
0.653391 0.0677195 0.205173
0.653849 0.0677806 0.206546
0.654276 0.0678416 0.207782
0.654658 0.0679026 0.208896
0.654902 0.0679179 0.209613
0.655039 0.0679484 0.209979
0.655085 0.0679637 0.210117
0.655024 0.0679789 0.209964
0.654948 0.0679789 0.20972
0.0197604 0.047776 0.0210269
0.0197299 0.0468147 0.020676
0.0209812 0.045182 0.0205692
0.02533 0.0424811 0.0204776
0.0411841 0.0428168 0.0227054
0.0758984 0.0419623 0.0225986
0.120897 0.0388037 0.0195468
0.176852 0.0359197 0.0198367
0.237446 0.0331579 0.0222782
0.305043 0.0315404 0.0271763
0.378882 0.0315099 0.0357977
0.453208 0.0302892 0.0472877
0.520027 0.0296025 0.0610666
0.569589 0.0352636 0.0788434
0.602243 0.0456703 0.107424
0.619364 0.0586099 0.127749
0.630182 0.0650339 0.14406
0.63566 0.0656291 0.157443
0.640864 0.066331 0.170352
0.643839 0.0665293 0.178531
0.645869 0.0667887 0.183993
0.647517 0.0670329 0.188388
0.648707 0.0671092 0.191867
0.649424 0.067155 0.193942
0.649943 0.067277 0.195254
0.650446 0.0673533 0.196689
0.650828 0.0674144 0.197742
0.651133 0.0674449 0.198581
0.651362 0.0674907 0.199191
0.651499 0.0675059 0.199603
0.65156 0.0675059 0.199786
0.651545 0.0675059 0.199756
0.651484 0.0675212 0.199619
0.0185397 0.0724804 0.0216068
0.0186313 0.0714885 0.02121
0.0184329 0.06981 0.0208591
0.0254368 0.066453 0.0212711
0.0431067 0.0621958 0.0220035
0.0765087 0.0623331 0.0267643
0.120974 0.0597391 0.0285801
0.172519 0.0532082 0.0243687
0.229877 0.043534 0.0195773
0.293629 0.0369421 0.0235142
0.369528 0.0358129 0.0325322
0.446372 0.0339513 0.0444495
0.516655 0.0322271 0.0589151
0.56791 0.0349432 0.0776379
0.597238 0.0449073 0.0969558
0.611627 0.0564584 0.112108
0.619364 0.0622568 0.122087
0.623423 0.0635996 0.129686
0.62826 0.0648051 0.139544
0.633356 0.0653391 0.151781
0.636591 0.0655833 0.160052
0.640696 0.0663157 0.169894
0.642649 0.0664378 0.175265
0.643778 0.0665293 0.178393
0.644785 0.0665751 0.181247
0.645319 0.0666514 0.182635
0.64567 0.066743 0.183444
0.645975 0.066804 0.184222
0.64622 0.0668498 0.184848
0.646403 0.066865 0.185367
0.64651 0.0668803 0.185657
0.646525 0.0668956 0.185687
0.646494 0.0668956 0.185611
0.0161898 0.10869 0.0222171
0.0157473 0.107652 0.0204166
0.0157931 0.106081 0.0204471
0.0196689 0.102739 0.0205997
0.0345159 0.0969711 0.0208743
0.0712291 0.0935378 0.0234226
0.119234 0.0920424 0.0299077
0.176547 0.0868696 0.0359197
0.236851 0.0762036 0.0339208
0.29984 0.0636149 0.0278477
0.36733 0.0477913 0.026566
0.437324 0.0394903 0.0401312
0.510811 0.0365759 0.0545968
0.564569 0.0354772 0.0734112
0.595651 0.04448 0.0941634
0.612406 0.057145 0.112993
0.619577 0.0636912 0.12015
0.618677 0.0630198 0.119158
0.617533 0.0622263 0.117723
0.618509 0.0622568 0.120012
0.621149 0.063035 0.125109
0.623743 0.0637369 0.130205
0.62594 0.0641947 0.134829
0.627848 0.0647135 0.138674
0.629892 0.0650187 0.143343
0.631189 0.065095 0.146578
0.631785 0.0651408 0.148058
0.632456 0.0652171 0.149676
0.633082 0.0652934 0.151171
0.633524 0.0653391 0.152255
0.633799 0.0653849 0.152895
0.633951 0.0654154 0.153277
0.634028 0.0654612 0.153368
0.0117647 0.157259 0.0234073
0.0117342 0.156542 0.0194553
0.0117647 0.154879 0.0195163
0.0122072 0.15259 0.0196078
0.0252079 0.148074 0.0199283
0.0522774 0.141726 0.0202487
0.108675 0.137728 0.0236667
0.172366 0.136095 0.0321965
0.242405 0.129992 0.0449683
0.314733 0.114595 0.0486458
0.386709 0.0945144 0.0467079
0.451102 0.0694743 0.0403754
0.511757 0.0483711 0.04654
0.561425 0.0404669 0.0661021
0.592554 0.0439765 0.0882429
0.611032 0.0571603 0.109697
0.62298 0.0664988 0.123033
0.622797 0.0663157 0.122942
0.622126 0.0657511 0.122469
0.621454 0.0651865 0.121904
0.620813 0.0646677 0.121324
0.620233 0.0642405 0.120729
0.619944 0.0639506 0.120546
0.619745 0.0637217 0.12047
0.619638 0.0635691 0.120485
0.619577 0.0634623 0.120516
0.619532 0.0633707 0.120577
0.619547 0.0633097 0.120714
0.619562 0.0632639 0.120836
0.619547 0.0632334 0.120851
0.619608 0.0632334 0.121004
0.619638 0.0632486 0.12105
0.61973 0.0632792 0.121202
0.00956741 0.212818 0.0278477
0.00926223 0.212161 0.0227207
0.00906386 0.210575 0.0196689
0.0091249 0.208362 0.0196536
0.0123751 0.205463 0.0196994
0.0361334 0.201389 0.0197147
0.0792859 0.195621 0.0192416
0.156878 0.189609 0.0246128
0.232532 0.188205 0.0351873
0.318807 0.183032 0.0570535
0.403586 0.166995 0.0684977
0.480888 0.1458 0.0723888
0.545602 0.120958 0.0701305
0.585275 0.0820325 0.062623
0.593668 0.0524605 0.074876
0.607263 0.0569467 0.101167
0.624353 0.0686961 0.121233
0.626123 0.0694743 0.123644
0.625696 0.0690318 0.123644
0.625254 0.068574 0.123674
0.625055 0.0682994 0.123857
0.624735 0.0679789 0.123842
0.624521 0.0677653 0.123827
0.624308 0.0675517 0.123766
0.624079 0.0673686 0.123613
0.623957 0.0672465 0.123552
0.62385 0.067155 0.123491
0.623774 0.0670939 0.123461
0.623758 0.0670634 0.123491
0.623682 0.0670024 0.123445
0.623636 0.0669718 0.123445
0.62356 0.0669413 0.123384
0.623438 0.0669108 0.123278
0.0110323 0.277501 0.0382544
0.0104219 0.276829 0.0311894
0.00947585 0.275883 0.0244755
0.00958267 0.274479 0.0235142
0.00959792 0.272374 0.0234073
0.0227512 0.269688 0.0231022
0.0577096 0.264271 0.0226749
0.12108 0.2589 0.0216526
0.213581 0.250141 0.0281987
0.303853 0.250751 0.0414282
0.406058 0.248051 0.0746471
0.497963 0.235386 0.0961471
0.579217 0.213901 0.108766
0.641474 0.191272 0.114946
0.667918 0.161501 0.114412
0.636881 0.105959 0.101396
0.62118 0.0731212 0.100587
0.629191 0.0736095 0.119615
0.628962 0.0731365 0.120485
0.628824 0.0728618 0.121004
0.628595 0.0724956 0.121523
0.628412 0.0722057 0.121889
0.62826 0.0719768 0.122148
0.628107 0.0717784 0.122362
0.628016 0.0716259 0.12256
0.627955 0.071519 0.122728
0.627878 0.0714122 0.12282
0.627832 0.0713664 0.122866
0.627756 0.0712902 0.122881
0.62768 0.0711986 0.122911
0.627604 0.0711528 0.122911
0.627527 0.071107 0.122896
0.627466 0.0710765 0.122835
0.0177157 0.353429 0.0569314
0.0171511 0.353231 0.0504768
0.0162509 0.352956 0.0403906
0.0155184 0.352026 0.03299
0.0154116 0.349798 0.0325475
0.016144 0.34667 0.0320897
0.044007 0.344747 0.0315557
0.0883955 0.338109 0.0303349
0.174456 0.332906 0.0295872
0.28307 0.323186 0.037995
0.388327 0.325597 0.054551
0.496178 0.328588 0.0942092
0.593988 0.320638 0.129656
0.677165 0.306905 0.148348
0.735271 0.282139 0.170184
0.750256 0.258595 0.177813
0.727031 0.221546 0.168963
0.680995 0.151064 0.132006
0.643915 0.0924544 0.102708
0.632731 0.0807965 0.0918135
0.631998 0.0788281 0.105501
0.631647 0.0775311 0.111711
0.63151 0.0772869 0.112261
0.631357 0.0770886 0.112734
0.631235 0.0769207 0.113146
0.631189 0.0768444 0.113375
0.631113 0.0767529 0.113542
0.631083 0.0766613 0.11371
0.631083 0.076585 0.113817
0.631128 0.0764935 0.113985
0.631128 0.0764172 0.114076
0.631174 0.0764019 0.114061
0.631098 0.0763409 0.114107
0.0298924 0.440574 0.0825208
0.0294804 0.44123 0.0763714
0.0289006 0.440757 0.0679942
0.0277256 0.439612 0.0560311
0.0272068 0.438178 0.0493629
0.0266575 0.435508 0.0487831
0.0319371 0.433433 0.0480354
0.0742809 0.432609 0.0466011
0.135134 0.425986 0.0451972
0.241596 0.418006 0.045182
0.366293 0.407599 0.0536812
0.482048 0.412665 0.0742657
0.587549 0.424826 0.110384
0.688212 0.423499 0.163043
0.767773 0.419165 0.193942
0.818189 0.405951 0.216861
0.834501 0.384817 0.236942
0.820874 0.343954 0.24004
0.800214 0.315602 0.22565
0.781567 0.290517 0.212085
0.762585 0.265049 0.197864
0.744793 0.240665 0.184115
0.730129 0.220401 0.172656
0.718959 0.205173 0.163546
0.711757 0.195438 0.157504
0.705058 0.185885 0.152239
0.699153 0.177539 0.147601
0.695216 0.171679 0.14461
0.691905 0.166644 0.142031
0.689204 0.162356 0.139788
0.688045 0.160525 0.138445
0.686427 0.157809 0.13695
0.684733 0.155337 0.135592
0.0505074 0.534356 0.116808
0.0500954 0.534417 0.110842
0.049546 0.534051 0.102785
0.0490272 0.53312 0.0917525
0.0480354 0.532097 0.0775769
0.0478981 0.53051 0.0738231
0.0472419 0.528969 0.0731975
0.0656443 0.529427 0.0720684
0.119829 0.528328 0.0697642
0.201266 0.520912 0.0673686
0.32784 0.508324 0.0689555
0.461051 0.499931 0.0774701
0.575921 0.50753 0.102968
0.672068 0.524971 0.127382
0.765316 0.528298 0.191653
0.834104 0.530343 0.229664
0.875776 0.532219 0.255238
0.893538 0.529397 0.272419
0.891173 0.508095 0.272663
0.883497 0.485267 0.268177
0.875227 0.464546 0.263493
0.868742 0.447486 0.260456
0.863905 0.433692 0.258839
0.859754 0.422827 0.257252
0.855604 0.413062 0.255665
0.852689 0.406149 0.254597
0.850172 0.400824 0.253468
0.847868 0.395972 0.252476
0.84625 0.392813 0.251682
0.844938 0.390082 0.251225
0.843244 0.38706 0.250416
0.841596 0.384726 0.249348
0.839826 0.382101 0.248188
0.0885328 0.626963 0.164599
0.0883345 0.626657 0.159564
0.0882429 0.626108 0.152697
0.0886854 0.625177 0.143389
0.0902419 0.624826 0.131182
0.0951858 0.625544 0.119829
0.0943618 0.623606 0.118471
0.0925154 0.620966 0.117037
0.125063 0.623102 0.109438
0.190661 0.623713 0.104219
0.296071 0.617594 0.100496
0.434043 0.598688 0.101808
0.557122 0.592615 0.111452
0.662165 0.598444 0.144244
0.747524 0.614679 0.17113
0.816968 0.631952 0.218387
0.870314 0.644373 0.260777
0.895201 0.65716 0.282872
0.901625 0.647898 0.286778
0.903136 0.635325 0.285985
0.903822 0.623835 0.284977
0.904173 0.614786 0.28423
0.904158 0.607889 0.283497
0.90396 0.601221 0.28275
0.903929 0.595651 0.282322
0.903517 0.591058 0.281636
0.903075 0.587335 0.280995
0.902998 0.585107 0.280842
0.902861 0.583032 0.280644
0.902525 0.580682 0.280232
0.902129 0.578897 0.279805
0.901625 0.577295 0.279286
0.900938 0.575525 0.278584
0.144228 0.712551 0.22771
0.145037 0.712123 0.222705
0.145998 0.711177 0.216495
0.148333 0.710719 0.208957
0.152026 0.710353 0.199451
0.15845 0.710048 0.188205
0.165347 0.710842 0.181552
0.163577 0.708843 0.17998
0.165331 0.707485 0.176623
0.211505 0.713375 0.160739
0.285557 0.713802 0.150011
0.411643 0.701198 0.142306
0.540413 0.681743 0.14667
0.647257 0.679393 0.163195
0.741802 0.687587 0.203143
0.817258 0.704265 0.240436
0.863005 0.725078 0.277775
0.884993 0.745937 0.304692
0.890715 0.748165 0.310246
0.890654 0.740795 0.307042
0.890929 0.735286 0.304952
0.890867 0.729351 0.30248
0.891066 0.724895 0.300862
0.891249 0.720882 0.299443
0.891188 0.717433 0.298085
0.891249 0.714839 0.297169
0.891539 0.713436 0.29688
0.891615 0.71165 0.296315
0.891554 0.710124 0.295766
0.891524 0.708843 0.29546
0.891539 0.707698 0.295247
0.89131 0.707042 0.295064
0.891325 0.706371 0.294957
0.21474 0.788739 0.297841
0.216236 0.788342 0.294316
0.219165 0.788464 0.290059
0.222583 0.787991 0.283925
0.227863 0.787457 0.275792
0.235126 0.787259 0.26688
0.248707 0.789792 0.257801
0.250034 0.789212 0.255116
0.247822 0.787289 0.252964
0.26038 0.787884 0.241749
0.319875 0.79556 0.219638
0.406897 0.791821 0.202945
0.531182 0.772107 0.194415
0.645823 0.760922 0.209979
0.737285 0.766354 0.237568
0.819821 0.778515 0.282139
0.881727 0.794247 0.324132
0.911086 0.814069 0.356222
0.924743 0.821881 0.371283
0.920928 0.814511 0.364706
0.91873 0.810193 0.360845
0.916503 0.806088 0.357046
0.914839 0.80267 0.354025
0.913848 0.800717 0.35227
0.912825 0.798657 0.350423
0.912154 0.79736 0.349264
0.911406 0.79585 0.347936
0.910857 0.794797 0.347005
0.910292 0.793713 0.34609
0.909789 0.792859 0.345373
0.909377 0.792248 0.344793
0.909133 0.79205 0.344381
0.908598 0.791241 0.343221
0.290944 0.855604 0.368429
0.292485 0.855238 0.36553
0.294667 0.854795 0.361593
0.29807 0.854368 0.356359
0.302739 0.853651 0.349157
0.311131 0.853956 0.340337
0.326574 0.858 0.333135
0.339788 0.861982 0.329183
0.336904 0.859739 0.326863
0.335027 0.858579 0.325551
0.37377 0.86276 0.301534
0.443061 0.867323 0.278767
0.541711 0.854444 0.258793
0.651926 0.840787 0.264225
0.753033 0.83859 0.294347
0.828153 0.85272 0.333608
0.893294 0.868055 0.377523
0.935347 0.883482 0.410437
0.957458 0.8878 0.42678
0.957244 0.881941 0.423667
0.955337 0.878614 0.420752
0.954208 0.876265 0.418814
0.952865 0.873747 0.416678
0.951827 0.872099 0.415167
0.950988 0.870436 0.413794
0.950225 0.868955 0.412543
0.94963 0.86775 0.411536
0.949203 0.86685 0.410834
0.94876 0.866026 0.410208
0.948531 0.865919 0.410147
0.947967 0.865309 0.409674
0.947341 0.864729 0.409323
0.94667 0.863981 0.408835
0.361913 0.913329 0.431434
0.362051 0.911986 0.427375
0.363058 0.911177 0.423529
0.365942 0.911223 0.419242
0.37116 0.911192 0.411688
0.379858 0.913039 0.405325
0.39443 0.917723 0.402289
0.411505 0.92459 0.402762
0.416114 0.925811 0.401953
0.415869 0.92488 0.400656
0.435004 0.92842 0.393973
0.499718 0.933486 0.366644
0.580774 0.923262 0.336934
0.68098 0.90544 0.327031
0.777081 0.9028 0.351858
0.859907 0.914107 0.391485
0.912825 0.928481 0.425208
0.949233 0.935012 0.4486
0.971298 0.938247 0.462867
0.980148 0.937453 0.467735
0.978805 0.933928 0.464927
0.977951 0.932036 0.463355
0.977462 0.930587 0.462272
0.977172 0.929351 0.461418
0.97673 0.9281 0.460456
0.976364 0.927138 0.459693
0.975921 0.926284 0.458961
0.975586 0.92549 0.458305
0.975448 0.925216 0.458045
0.975235 0.924681 0.457542
0.974945 0.924193 0.457038
0.974655 0.923766 0.456565
0.974334 0.923171 0.456046
0.398657 0.952193 0.49836
0.395224 0.949828 0.494118
0.3935 0.948531 0.490654
0.393805 0.948333 0.488655
0.393927 0.948241 0.487541
0.394202 0.947906 0.485191
0.394659 0.947509 0.482261
0.395758 0.947311 0.479362
0.397848 0.947265 0.475715
0.401465 0.947997 0.473808
0.409873 0.950225 0.471733
0.498283 0.972473 0.444022
0.600229 0.983627 0.418723
0.697597 0.96582 0.394797
0.788357 0.953445 0.402075
0.871962 0.952422 0.429587
0.923796 0.961639 0.454276
0.958328 0.968658 0.474754
0.983703 0.973388 0.492607
0.997269 0.974411 0.500252
0.996567 0.972351 0.49836
0.996231 0.97171 0.497749
0.995758 0.970794 0.49691
0.995331 0.96997 0.496132
0.994934 0.969314 0.495476
0.994598 0.968795 0.494957
0.994446 0.968505 0.494682
0.994247 0.968093 0.49427
0.994049 0.967697 0.493843
0.993881 0.967346 0.493339
0.993729 0.96701 0.492866
0.993606 0.96672 0.492271
0.993561 0.966567 0.491829
0.390463 0.958999 0.54548
0.387488 0.956481 0.542138
0.385977 0.955215 0.540139
0.386175 0.95523 0.53962
0.386435 0.955184 0.538674
0.386755 0.955093 0.537362
0.386999 0.955016 0.536278
0.387442 0.955016 0.535119
0.388479 0.955184 0.533257
0.389761 0.956039 0.534112
0.392035 0.957794 0.536309
0.400534 0.958938 0.521614
0.481407 0.971557 0.454414
0.634516 0.994232 0.428382
0.751705 0.974136 0.413611
0.841428 0.965484 0.431495
0.914534 0.971603 0.462226
0.956634 0.981903 0.484764
0.985016 0.987854 0.503182
1 0.991333 0.518837
1 0.99173 0.522469
1 0.991241 0.52079
1 0.991043 0.520699
1 0.99086 0.520546
1 0.990692 0.520348
1 0.990616 0.520241
1 0.990555 0.520119
1 0.990402 0.51989
1 0.990295 0.519646
1 0.990188 0.51928
1 0.990097 0.518883
1 0.990097 0.518456
1 0.990005 0.517845
0.389776 0.95874 0.546227
0.387121 0.956466 0.543069
0.385779 0.955337 0.541314
0.385992 0.955352 0.54078
0.386206 0.955306 0.53994
0.386496 0.955184 0.538521
0.386877 0.955047 0.536797
0.387091 0.954955 0.53576
0.388006 0.954955 0.533349
0.389303 0.955703 0.533669
0.391745 0.957565 0.536049
0.396841 0.959579 0.532341
0.428595 0.958907 0.476585
0.559457 0.990066 0.441291
0.685069 0.9879 0.419486
0.794858 0.968429 0.419043
0.879744 0.966796 0.446387
0.939422 0.977707 0.474968
0.974609 0.986221 0.496422
0.996674 0.990677 0.512261
1 0.992187 0.521111
1 0.992584 0.523384
1 0.992599 0.523445
1 0.992599 0.523476
1 0.992599 0.523491
1 0.992599 0.523507
1 0.992615 0.523522
1 0.992615 0.523507
1 0.992615 0.52343
1 0.99263 0.523262
1 0.992645 0.523079
1 0.99266 0.522759
1 0.992691 0.522408
0.389654 0.958862 0.547417
0.387076 0.95668 0.54432
0.385687 0.95555 0.542596
0.38584 0.955489 0.541909
0.386038 0.955428 0.540978
0.386282 0.955291 0.539635
0.386694 0.955123 0.537667
0.386999 0.955001 0.536187
0.387549 0.954833 0.533959
0.388571 0.955169 0.532937
0.390616 0.956664 0.534844
0.394614 0.959609 0.537804
0.413062 0.957259 0.493202
0.53051 0.984298 0.44567
0.655222 0.992477 0.424552
0.772976 0.971191 0.415641
0.862104 0.966049 0.439231
0.929168 0.975052 0.469841
0.967391 0.984634 0.491875
0.991882 0.989609 0.508721
1 0.991897 0.519738
1 0.992477 0.52285
1 0.992554 0.523323
1 0.992554 0.523308
1 0.992554 0.523308
1 0.992569 0.523293
1 0.992569 0.523293
1 0.992569 0.523278
1 0.992569 0.523278
1 0.992508 0.523232
1 0.992401 0.523171
1 0.992264 0.522942
1 0.992157 0.522652
0.390906 0.960021 0.549035
0.387762 0.957397 0.545724
0.385885 0.95581 0.543297
0.385733 0.95555 0.542535
0.385779 0.955383 0.541558
0.386038 0.955261 0.540185
0.386419 0.955093 0.538308
0.386847 0.954925 0.536309
0.387228 0.954757 0.534478
0.387854 0.954528 0.531807
0.388342 0.95491 0.532403
0.390875 0.956817 0.534874
0.402487 0.956527 0.508629
0.498924 0.975296 0.448875
0.631586 0.993683 0.427955
0.7514 0.973739 0.413153
0.846662 0.965164 0.433066
0.918334 0.971786 0.463981
0.961944 0.98262 0.488121
0.988098 0.988144 0.505608
1 0.991028 0.518517
1 0.991806 0.522591
1 0.99202 0.523857
1 0.99202 0.523842
1 0.992035 0.523842
1 0.992035 0.523827
1 0.992035 0.523827
1 0.992081 0.523781
1 0.992203 0.523705
1 0.992386 0.523507
1 0.992447 0.523323
1 0.992416 0.523003
1 0.992264 0.522759
0.392752 0.96173 0.551598
0.389288 0.95877 0.54789
0.386709 0.956558 0.544686
0.385946 0.955856 0.543389
0.385672 0.955459 0.54226
0.385931 0.955337 0.540932
0.386252 0.955169 0.539147
0.386725 0.954971 0.536904
0.38706 0.954833 0.535332
0.387778 0.954498 0.531777
0.388037 0.954696 0.532113
0.389929 0.9561 0.533989
0.398337 0.957931 0.522301
0.466911 0.966171 0.454963
0.610178 0.994339 0.432258
0.729885 0.977768 0.413336
0.829099 0.965881 0.427527
0.905913 0.96968 0.458045
0.954543 0.980743 0.483436
0.983185 0.987152 0.502113
1 0.990448 0.515663
1 0.991653 0.522042
1 0.991989 0.523903
1 0.99202 0.524025
1 0.99202 0.524025
1 0.99202 0.524041
1 0.99202 0.524041
1 0.992065 0.523995
1 0.992187 0.523919
1 0.99237 0.52372
1 0.992432 0.523537
1 0.992401 0.523232
1 0.992264 0.522942
0.394339 0.963302 0.553964
0.390814 0.96022 0.550195
0.387472 0.957351 0.546349
0.386191 0.956176 0.544289
0.38555 0.955535 0.542947
0.385763 0.955428 0.541817
0.386099 0.955245 0.539956
0.386587 0.955032 0.53756
0.386954 0.954879 0.535805
0.387671 0.954559 0.532357
0.387915 0.954589 0.531884
0.389105 0.955474 0.533165
0.394675 0.958068 0.53109
0.440253 0.957214 0.458488
0.59115 0.993088 0.434928
0.708949 0.982177 0.415122
0.813916 0.966735 0.423255
0.894179 0.968078 0.452567
0.947631 0.979309 0.479423
0.978622 0.986481 0.498985
0.997726 0.990234 0.513115
1 0.991562 0.521385
1 0.991943 0.523598
1 0.99202 0.52401
1 0.99202 0.524025
1 0.99202 0.524041
1 0.99202 0.524041
1 0.992065 0.52401
1 0.992187 0.523934
1 0.99237 0.523751
1 0.992493 0.523507
1 0.992523 0.523156
1 0.992432 0.52285
0.394934 0.963897 0.555001
0.391333 0.960708 0.551003
0.387655 0.957595 0.54696
0.386206 0.956268 0.544732
0.385473 0.955581 0.543359
0.385687 0.955489 0.54229
0.386007 0.955306 0.54052
0.386481 0.955077 0.538064
0.386923 0.954894 0.535973
0.387549 0.954604 0.532906
0.387915 0.954589 0.531899
0.38883 0.955276 0.532906
0.39205 0.957656 0.535607
0.42153 0.952392 0.46508
0.573739 0.989593 0.434897
0.694408 0.984527 0.416236
0.801236 0.967605 0.420096
0.884565 0.967208 0.448417
0.941573 0.978286 0.476326
0.973877 0.986038 0.496101
0.994583 0.990021 0.510796
1 0.991791 0.520623
1 0.992111 0.522972
1 0.992157 0.523842
1 0.992081 0.523888
1 0.99205 0.523919
1 0.992035 0.523934
1 0.992081 0.523903
1 0.992187 0.523827
1 0.99237 0.523644
1 0.992493 0.523415
1 0.992584 0.523033
1 0.992569 0.522683
0.394919 0.963943 0.555398
0.391394 0.96083 0.551461
0.387854 0.957824 0.547509
0.386114 0.956268 0.544976
0.385443 0.955612 0.543633
0.385641 0.95552 0.542596
0.385946 0.955352 0.540917
0.386389 0.955108 0.538506
0.386892 0.95491 0.536156
0.387457 0.95465 0.533333
0.38793 0.954604 0.531929
0.38883 0.955291 0.532906
0.391592 0.957397 0.535607
0.41445 0.952712 0.475212
0.558419 0.986481 0.435767
0.681697 0.985641 0.416358
0.792065 0.968383 0.418036
0.877974 0.966537 0.445441
0.937057 0.977157 0.473915
0.97081 0.985504 0.494224
0.992401 0.989715 0.509255
1 0.991913 0.520073
1 0.992355 0.522393
1 0.992554 0.523537
1 0.992554 0.523522
1 0.992554 0.523537
1 0.992554 0.523537
1 0.992599 0.523491
1 0.992721 0.523415
1 0.992905 0.523217
1 0.993027 0.523003
1 0.993103 0.522622
1 0.993133 0.522286
0.394949 0.963989 0.555856
0.391882 0.961288 0.552483
0.388342 0.958282 0.548486
0.386557 0.956695 0.545907
0.385473 0.955703 0.543984
0.385611 0.955566 0.54287
0.385901 0.955383 0.541176
0.386328 0.955139 0.538811
0.386847 0.954925 0.536309
0.387396 0.954681 0.533669
0.387961 0.95462 0.531975
0.388907 0.955337 0.532982
0.391409 0.957244 0.535424
0.410254 0.952987 0.4822
0.547692 0.984039 0.436469
0.674159 0.986267 0.416663
0.785458 0.968963 0.416632
0.872648 0.966064 0.443091
0.933715 0.976287 0.47216
0.968643 0.985031 0.492927
0.991043 0.98941 0.508324
1 0.991775 0.519463
1 0.992309 0.522271
1 0.992538 0.523598
1 0.992538 0.523583
1 0.992538 0.523583
1 0.992538 0.523568
1 0.992599 0.523537
1 0.992721 0.523445
1 0.992889 0.523323
1 0.993011 0.523232
1 0.992966 0.52311
1 0.992752 0.522957
0.397894 0.96669 0.558831
0.393561 0.962844 0.554223
0.389807 0.959503 0.549767
0.387396 0.957382 0.546639
0.385824 0.955901 0.543923
0.385428 0.955367 0.542382
0.385687 0.955154 0.540658
0.38616 0.95494 0.538308
0.386725 0.954711 0.535729
