bundles/resolve-cinematic-luts/Phantom Luts/Komodo Phantom ARRI LUTs G2/Komodo Phantom ARRI LUTs G2/33x/Standard (No WB Offset)/Jamaica_Komodo_G2_33x.cube
TITLE "Generated by Resolve"
LUT_3D_SIZE 5
0.0197757 0.0358129 0.0197604
0.25948 0.0282292 0.0280156
0.64509 0.0666514 0.181979
0.658076 0.0684215 0.218524
0.659602 0.0686961 0.22359
0.0110323 0.277501 0.0382544
0.213581 0.250141 0.0281987
0.62118 0.0731212 0.100587
0.628016 0.0716259 0.12256
0.627466 0.0710765 0.122835
0.361913 0.913329 0.431434
0.416114 0.925811 0.401953
0.912825 0.928481 0.425208
0.97673 0.9281 0.460456
0.974334 0.923171 0.456046
0.394934 0.963897 0.555001
0.386923 0.954894 0.535973
0.801236 0.967605 0.420096
1 0.992081 0.523888
1 0.992569 0.522683
0.399573 0.968277 0.561364
0.388571 0.956207 0.537972
0.783123 0.966644 0.413535
1 0.991485 0.524392
1 0.99295 0.523232
0.0080415 0.0423896 0.204807
0.278691 0.0348821 0.253681
0.689326 0.080293 0.314977
0.70193 0.0900282 0.337804
0.703273 0.0910506 0.33933
0.0191653 0.21883 0.194141
0.178714 0.216968 0.167056
0.630304 0.0657359 0.142977
0.650736 0.0675822 0.196902
0.652201 0.067689 0.20148
0.295598 0.895415 0.513649
0.330739 0.894286 0.421729
0.90219 0.918334 0.41352
0.971557 0.914961 0.450111
0.968978 0.90959 0.44567
0.389929 0.966613 0.585504
0.385153 0.955932 0.546105
0.776394 0.969924 0.415137
1 0.99202 0.523964
1 0.992599 0.522698
0.392905 0.970748 0.597299
0.385977 0.956741 0.547738
0.754345 0.969329 0.408759
1 0.991485 0.524453
1 0.993072 0.52314
0.0312047 0.0462348 0.566903
0.231296 0.0433356 0.621683
0.671351 0.126329 0.665934
0.668559 0.129305 0.673976
0.667643 0.129396 0.671077
0.0136721 0.153964 0.595178
0.0523842 0.0405127 0.568063
0.66775 0.120714 0.651698
0.672496 0.124422 0.659724
0.672267 0.124331 0.657618
0.203906 0.751415 0.72755
0.196521 0.748409 0.71664
0.747036 0.759197 0.698039
0.963958 0.740124 0.692439
0.96199 0.730663 0.681819
0.354894 0.92282 0.792828
0.353262 0.927184 0.779278
0.421424 0.965484 0.506142
1 0.991943 0.521553
1 0.992447 0.521737
0.357595 0.92369 0.792264
0.353155 0.926909 0.780011
0.397314 0.957671 0.523415
1 0.991287 0.520729
1 0.99292 0.522881
0.115663 0.0377813 0.597406
0.250523 0.0491951 0.647486
0.663767 0.135439 0.695781
0.66363 0.135515 0.695796
0.661921 0.13608 0.693919
0.0331121 0.1299 0.607553
0.116472 0.0377966 0.597711
0.659815 0.134554 0.69482
0.663905 0.135485 0.696391
0.663142 0.135637 0.695033
0.183795 0.639277 0.777188
0.177203 0.628153 0.77203
0.605509 0.563226 0.893492
0.937804 0.550576 0.958144
0.933257 0.537713 0.95407
0.340551 0.878584 0.894194
0.339452 0.879606 0.892531
0.354223 0.893355 0.890303
0.982651 0.981476 0.976989
0.994888 0.981506 0.977996
0.347784 0.877211 0.89073
0.339452 0.879606 0.892531
0.352987 0.894209 0.882933
0.970764 0.989868 0.96199
1 0.993179 0.948165
0.127642 0.0379187 0.601907
0.257389 0.0497139 0.649363
0.663767 0.135439 0.695796
0.663798 0.135454 0.695918
0.663706 0.135424 0.695552
0.0304723 0.118242 0.601419
0.1299 0.0380102 0.602808
0.660731 0.134737 0.694957
0.663905 0.135485 0.696391
0.663706 0.135424 0.695552
0.180056 0.631586 0.774823
0.17322 0.61973 0.769635
0.598108 0.543145 0.891264
0.9337 0.527794 0.955062
0.92958 0.512139 0.951782
0.340291 0.878828 0.893828
0.339452 0.879606 0.892531
0.34406 0.88455 0.896422
0.970642 0.967941 0.984665
0.991714 0.970077 0.991791
0.340291 0.878828 0.893828
0.339452 0.879606 0.892531
0.341726 0.882048 0.894408
0.830503 0.986496 0.989517
1 0.994812 1
