bundles/resolve-cinematic-luts/Phantom Luts/Komodo Phantom ARRI LUTs G2/Komodo Phantom ARRI LUTs G2/33x/Standard (No WB Offset)/Jamaica_Komodo_Legacy_G2_33x.cube
TITLE "Generated by Resolve"
LUT_3D_SIZE 5
0.0416266 0.0499428 0.0416266
0.204822 0.0448005 0.0463264
0.645167 0.0772412 0.154376
0.654322 0.075639 0.184253
0.650797 0.0704662 0.186679
0.0364233 0.21886 0.0538796
0.170565 0.200336 0.0503243
0.623743 0.0850996 0.0981918
0.62945 0.0837873 0.111162
0.628992 0.0830091 0.110887
0.335012 0.887449 0.396277
0.386694 0.906905 0.38381
0.883055 0.912062 0.399237
0.969177 0.910445 0.446113
0.966323 0.903883 0.441321
0.391608 0.954833 0.523674
0.382605 0.946258 0.505776
0.761059 0.964858 0.403311
1 0.991485 0.515038
1 0.992004 0.513787
0.396384 0.959182 0.529854
0.384482 0.947402 0.507668
0.740856 0.963378 0.396857
1 0.990967 0.51548
1 0.99237 0.514382
0.0346075 0.0548257 0.161654
0.222019 0.049546 0.199069
0.689387 0.0882277 0.26862
0.699596 0.094728 0.288075
0.700221 0.0950332 0.289113
0.0436408 0.173404 0.154406
0.143755 0.173495 0.134661
0.631189 0.0761425 0.122103
0.650523 0.0783398 0.166674
0.652247 0.0785687 0.170748
0.266133 0.864256 0.451194
0.30016 0.863432 0.378882
0.869398 0.898817 0.38378
0.963149 0.893294 0.433326
0.959594 0.885939 0.427893
0.386404 0.957656 0.549081
0.380682 0.946975 0.514015
0.734829 0.967208 0.400198
1 0.99147 0.515068
1 0.992035 0.513817
0.38996 0.962371 0.560235
0.381537 0.94754 0.51516
0.710628 0.965866 0.394339
1 0.990967 0.515511
1 0.992493 0.51429
0.0414893 0.0559091 0.559869
0.192401 0.0532998 0.587152
0.674861 0.129061 0.652995
0.671092 0.132021 0.663722
0.671214 0.131716 0.661585
0.0276799 0.123201 0.562539
0.0548409 0.0520943 0.548852
0.672648 0.121965 0.637491
0.677577 0.127428 0.645685
0.677867 0.127047 0.643839
0.161105 0.715785 0.682795
0.153033 0.710933 0.669352
0.691478 0.705318 0.639719
0.956649 0.685969 0.633371
0.954116 0.675685 0.622339
0.355383 0.93106 0.761807
0.353811 0.934096 0.745922
0.412268 0.954421 0.485222
1 0.991165 0.513588
1 0.991608 0.513313
0.357351 0.932982 0.762768
0.353765 0.933898 0.74667
0.391714 0.948043 0.496162
1 0.990662 0.51342
1 0.99234 0.514214
0.0973678 0.0469368 0.594888
0.21297 0.0575418 0.63679
0.659007 0.13753 0.689464
0.658946 0.137575 0.689555
0.65832 0.137743 0.688502
0.0413062 0.108675 0.606439
0.0990311 0.0473335 0.595743
0.654154 0.13579 0.688594
0.659007 0.137621 0.690028
0.658732 0.137606 0.688991
0.151186 0.58497 0.75407
0.144732 0.573007 0.749371
0.539025 0.496513 0.862531
0.916716 0.486015 0.93843
0.910765 0.472969 0.933013
0.347967 0.872374 0.889372
0.346853 0.873426 0.887358
0.360403 0.892195 0.882353
0.981598 0.981231 0.974685
0.994751 0.981384 0.974792
0.355032 0.871046 0.885893
0.346853 0.873426 0.887358
0.358434 0.894026 0.871962
0.967147 0.991501 0.954757
0.996704 0.990951 0.932967
0.107515 0.0473793 0.59852
0.219181 0.0578927 0.638712
0.659007 0.13753 0.689479
0.659007 0.137545 0.689601
0.659022 0.137484 0.68925
0.0398413 0.100374 0.602136
0.10985 0.0478218 0.599634
0.655314 0.136156 0.688655
0.659007 0.137621 0.690013
0.659022 0.137484 0.68925
0.147662 0.576684 0.752071
0.140795 0.563577 0.747036
0.531197 0.476051 0.859007
0.909651 0.462974 0.932479
0.904036 0.447517 0.927489
0.347723 0.872602 0.88896
0.346853 0.873426 0.887358
0.352743 0.879942 0.892302
0.967605 0.965225 0.985031
0.992935 0.967773 0.993149
0.347524 0.872786 0.888594
0.346853 0.873426 0.887358
0.349813 0.876661 0.889845
0.791119 0.990341 0.993698
0.995163 0.98967 0.994736
