bundles/resolve-cinematic-luts/Phantom Luts/Komodo Phantom ARRI LUTs G2/Komodo Phantom ARRI LUTs G2/33x/Standard (No WB Offset)/Jamaica_Komodo_Legacy_G2_33x.cube
TITLE "Generated by Resolve"
LUT_3D_SIZE 9
0.0416266 0.0499428 0.0416266
0.06804 0.0494545 0.0417334
0.204822 0.0448005 0.0463264
0.482277 0.047364 0.0824598
0.645167 0.0772412 0.154376
0.65362 0.0787976 0.174502
0.654322 0.075639 0.184253
0.650477 0.0702678 0.186465
0.650797 0.0704662 0.186679
0.0413367 0.0701762 0.0430304
0.0547951 0.0650034 0.0437629
0.180697 0.0555886 0.0423285
0.459358 0.0460517 0.0585336
0.621225 0.071397 0.105516
0.637034 0.0757916 0.136217
0.644907 0.0771496 0.153796
0.646296 0.0775006 0.156847
0.646632 0.0776226 0.157305
0.0364233 0.21886 0.0538796
0.0356451 0.214679 0.0450294
0.170565 0.200336 0.0503243
0.504829 0.174838 0.0918746
0.623743 0.0850996 0.0981918
0.63006 0.0850538 0.111208
0.62945 0.0837873 0.111162
0.629206 0.083299 0.111116
0.628992 0.0830091 0.110887
0.0740215 0.557839 0.1299
0.0726482 0.558022 0.106249
0.0951705 0.552193 0.094316
0.483085 0.524132 0.095079
0.836469 0.579446 0.221469
0.878813 0.559884 0.255329
0.877287 0.531472 0.254398
0.875288 0.518471 0.25333
0.873304 0.51136 0.25214
0.335012 0.887449 0.396277
0.345205 0.888167 0.383291
0.386694 0.906905 0.38381
0.513741 0.897002 0.306004
0.883055 0.912062 0.399237
0.971649 0.9178 0.451545
0.969177 0.910445 0.446113
0.967788 0.9066 0.443214
0.966323 0.903883 0.441321
0.385672 0.949706 0.515953
0.381689 0.9467 0.509941
0.382971 0.946181 0.504128
0.405966 0.94844 0.474128
0.826352 0.962707 0.419074
1 0.991348 0.512215
1 0.992004 0.51426
1 0.992004 0.514244
1 0.991623 0.513649
0.391608 0.954833 0.523674
0.38114 0.9467 0.51165
0.382605 0.946258 0.505776
0.386954 0.948119 0.505531
0.761059 0.964858 0.403311
0.991623 0.989181 0.504189
1 0.991485 0.515038
1 0.991638 0.514961
1 0.992004 0.513787
0.394415 0.957412 0.527489
0.3823 0.947478 0.513115
0.382513 0.945968 0.505409
0.383185 0.945495 0.50164
0.738079 0.965118 0.398581
0.987182 0.987243 0.50074
1 0.990967 0.515496
1 0.991135 0.515358
1 0.992279 0.514092
0.396384 0.959182 0.529854
0.38468 0.949218 0.515984
0.384482 0.947402 0.507668
0.38323 0.945525 0.501686
0.740856 0.963378 0.396857
0.987427 0.987289 0.500832
1 0.990967 0.51548
1 0.991135 0.515358
1 0.99237 0.514382
0.0392004 0.0502937 0.0598764
0.068986 0.0501869 0.0655222
0.213519 0.0503395 0.0752575
0.495644 0.0513008 0.11632
0.655863 0.0777142 0.18349
0.658305 0.0731365 0.203174
0.661875 0.0745556 0.211048
0.662989 0.0750439 0.213367
0.663172 0.0751354 0.213214
0.0433204 0.0632029 0.0563973
0.0460212 0.0599222 0.0471351
0.183703 0.0466011 0.0456092
0.468879 0.0472114 0.0789654
0.644343 0.0770581 0.152316
0.65333 0.0787213 0.173175
0.655756 0.0776074 0.1832
0.654688 0.0750744 0.186374
0.650324 0.0702678 0.185321
0.0367895 0.209598 0.0776837
0.035462 0.206455 0.0559091
0.161532 0.193637 0.0494392
0.500862 0.155734 0.0870832
0.624216 0.0808728 0.103243
0.628153 0.0813764 0.110628
0.627405 0.0800946 0.11017
0.627161 0.0796979 0.109972
0.627039 0.0794995 0.109773
0.0699168 0.550149 0.157549
0.0690013 0.54876 0.13019
0.0776989 0.544411 0.0936751
0.477577 0.518868 0.0937819
0.837934 0.569772 0.221988
0.878584 0.547921 0.2551
0.875196 0.516197 0.253452
0.872587 0.503059 0.252247
0.870115 0.495628 0.250889
0.315877 0.881285 0.406561
0.325032 0.880812 0.392035
0.379202 0.900679 0.376608
0.496986 0.895155 0.305913
0.879973 0.909102 0.395758
0.970504 0.914366 0.449012
0.967697 0.906386 0.443046
0.966278 0.902358 0.440055
0.964858 0.899641 0.438224
0.385214 0.949889 0.517861
0.381155 0.946868 0.512139
0.38265 0.946395 0.505959
0.40061 0.949035 0.484398
0.821668 0.962463 0.417441
1 0.991348 0.512123
1 0.992004 0.51426
1 0.992004 0.51426
1 0.992004 0.51339
0.391073 0.95491 0.525277
0.380743 0.946853 0.513405
0.382391 0.94638 0.506905
0.386633 0.947997 0.505592
0.755962 0.965423 0.402701
0.990723 0.988922 0.503532
1 0.99147 0.515053
1 0.991638 0.514961
1 0.991974 0.513817
0.393835 0.957473 0.529183
0.381689 0.947463 0.514488
0.382177 0.94612 0.50692
0.383154 0.945464 0.501595
0.732754 0.965637 0.398032
0.986053 0.987015 0.499992
1 0.990967 0.51548
1 0.991135 0.515343
1 0.992401 0.514
0.395972 0.959411 0.53164
0.382132 0.947936 0.515511
0.383963 0.947433 0.508965
0.383154 0.94548 0.50161
0.735424 0.963836 0.396262
0.986236 0.987045 0.500038
1 0.990967 0.515496
1 0.991135 0.515373
1 0.99237 0.514382
0.0346075 0.0548257 0.161654
0.0733196 0.0505226 0.169162
0.222019 0.049546 0.199069
0.515602 0.0599222 0.215961
0.689387 0.0882277 0.26862
0.696727 0.0928054 0.282567
0.699596 0.094728 0.288075
0.700267 0.095079 0.289754
0.700221 0.0950332 0.289113
0.0265202 0.0610819 0.134966
0.0366369 0.0542916 0.150164
0.202213 0.0494392 0.179538
0.502083 0.057557 0.190127
0.677684 0.081651 0.245106
0.684733 0.0854047 0.259281
0.688304 0.087541 0.266194
0.689281 0.0881208 0.268116
0.689204 0.0880751 0.267369
0.0436408 0.173404 0.154406
0.0427253 0.169909 0.146426
0.143755 0.173495 0.134661
0.491127 0.0966049 0.107515
0.631189 0.0761425 0.122103
0.64715 0.078294 0.15758
0.650523 0.0783398 0.166674
0.65182 0.0784772 0.169924
0.652247 0.0785687 0.170748
0.0621653 0.518074 0.238071
0.0598459 0.517296 0.217258
0.0599222 0.514397 0.128252
0.457481 0.501305 0.0894179
0.84213 0.538369 0.223911
0.871992 0.498817 0.252171
0.862516 0.461967 0.248386
0.857755 0.446571 0.246708
0.853895 0.438499 0.244648
0.266133 0.864256 0.451194
0.269612 0.862867 0.435248
0.30016 0.863432 0.378882
0.436728 0.882765 0.303578
0.869398 0.898817 0.38378
0.966308 0.902464 0.440116
0.963149 0.893294 0.433326
0.960937 0.888182 0.429297
0.959594 0.885939 0.427893
0.382086 0.951919 0.534722
0.379705 0.947692 0.519875
0.381033 0.946975 0.512795
0.391959 0.950103 0.50425
0.804562 0.962493 0.412421
1 0.991211 0.511635
1 0.992004 0.514275
1 0.992004 0.51426
1 0.992065 0.513359
0.386404 0.957656 0.549081
0.378607 0.948257 0.526024
0.380682 0.946975 0.514015
0.385718 0.947402 0.504692
0.734829 0.967208 0.400198
0.987335 0.988052 0.501152
1 0.99147 0.515068
1 0.991638 0.514992
1 0.992035 0.513817
0.388403 0.960067 0.554437
0.37847 0.948684 0.52871
0.38056 0.946746 0.513741
0.383154 0.945464 0.501595
0.707912 0.967498 0.395941
0.981888 0.986511 0.497398
1 0.990967 0.51545
1 0.991135 0.515297
1 0.992401 0.51397
0.38996 0.962371 0.560235
0.379309 0.949966 0.532799
0.381537 0.94754 0.51516
0.383154 0.945464 0.501595
0.710628 0.965866 0.394339
0.98172 0.986496 0.497276
1 0.990967 0.515511
1 0.991135 0.515389
1 0.992493 0.51429
0.03888 0.0548104 0.356039
0.0725109 0.0481422 0.35819
0.203037 0.0507515 0.389685
0.513039 0.0524605 0.468849
0.692927 0.0806592 0.444404
0.69073 0.0805524 0.457313
0.689097 0.0799878 0.461418
0.691814 0.0820783 0.462837
0.69218 0.0818189 0.460319
0.0245823 0.072343 0.334401
0.0380865 0.054902 0.34789
0.176059 0.0504768 0.376989
0.502449 0.0521248 0.456764
0.684657 0.0730602 0.428321
0.693049 0.080415 0.442115
0.691905 0.0800488 0.446296
0.691295 0.0796368 0.44651
0.690852 0.0789349 0.44387
0.0296025 0.140185 0.293736
0.0288548 0.130648 0.291936
0.0650797 0.074403 0.34905
0.459342 0.0517739 0.407248
0.702983 0.0856031 0.3832
0.702602 0.0855421 0.391806
0.701289 0.0844739 0.395026
0.701152 0.0843671 0.395453
0.701671 0.0846113 0.39379
0.0565652 0.432914 0.391424
0.0547341 0.429633 0.384268
0.0543526 0.419257 0.364843
0.388357 0.423606 0.345373
0.847623 0.370642 0.345678
0.828641 0.283986 0.29836
0.802625 0.252415 0.27985
0.794018 0.24155 0.274464
0.78996 0.237003 0.271336
0.207187 0.821591 0.559884
0.205905 0.821225 0.549523
0.203265 0.819287 0.515282
0.241688 0.821363 0.346716
0.819303 0.851698 0.328893
0.951995 0.862623 0.410315
0.944823 0.848569 0.398352
0.942077 0.843 0.393713
0.940032 0.840711 0.39205
0.361105 0.951278 0.649042
0.36112 0.950835 0.640604
0.367605 0.954787 0.620615
0.3841 0.949172 0.516884
0.744518 0.966583 0.401404
0.998734 0.990158 0.508461
1 0.991272 0.514946
1 0.991211 0.515068
1 0.991272 0.514168
0.364385 0.95407 0.650843
0.361074 0.95082 0.641337
0.366873 0.954345 0.620874
0.38146 0.947646 0.515587
0.656199 0.976944 0.403983
0.973083 0.98555 0.49218
1 0.99147 0.51519
1 0.991638 0.515099
1 0.992035 0.513878
0.366491 0.955871 0.651789
0.361044 0.950774 0.640925
0.36733 0.954711 0.621683
0.380438 0.946822 0.514427
0.613611 0.975586 0.404623
0.963256 0.983581 0.486046
1 0.990936 0.515221
1 0.99115 0.51519
1 0.992401 0.513878
0.367407 0.956786 0.655909
0.360937 0.950759 0.64361
0.366766 0.954437 0.624033
0.380377 0.946868 0.514794
0.616373 0.97499 0.403449
0.963211 0.983536 0.485969
1 0.99089 0.515343
1 0.991135 0.515404
1 0.99237 0.514443
0.0414893 0.0559091 0.559869
0.0756237 0.0467384 0.558587
0.192401 0.0532998 0.587152
0.457755 0.0677958 0.652949
0.674861 0.129061 0.652995
0.671977 0.131579 0.661616
0.671092 0.132021 0.663722
0.671016 0.132021 0.663844
0.671214 0.131716 0.661585
0.0159457 0.0702068 0.561196
0.0428168 0.0553445 0.557153
0.168429 0.0523537 0.578302
0.444022 0.066392 0.648936
0.675532 0.128191 0.649989
0.673426 0.13077 0.658167
0.672526 0.131304 0.660319
0.672541 0.131304 0.660395
0.672847 0.130953 0.658274
0.0276799 0.123201 0.562539
0.0273594 0.115023 0.565805
0.0548409 0.0520943 0.548852
0.388586 0.061326 0.629953
0.672648 0.121965 0.637491
0.678065 0.126864 0.643915
0.677577 0.127428 0.645685
0.677653 0.127413 0.645563
0.677867 0.127047 0.643839
0.0416724 0.376059 0.588357
0.0398413 0.369955 0.585962
0.0387274 0.344579 0.588113
0.262791 0.250767 0.645975
0.770901 0.223133 0.711269
0.727611 0.143954 0.61207
0.696941 0.113085 0.57673
0.689601 0.104738 0.565637
0.687434 0.101747 0.56083
0.161105 0.715785 0.682795
0.158312 0.715373 0.677028
0.153033 0.710933 0.669352
0.13959 0.700252 0.643854
0.691478 0.705318 0.639719
0.958312 0.706157 0.64799
0.956649 0.685969 0.633371
0.955871 0.678325 0.625986
0.954116 0.675685 0.622339
0.3552 0.930053 0.765835
0.354192 0.930953 0.76112
0.353887 0.933135 0.750668
0.35346 0.939025 0.71548
0.528847 0.998932 0.497154
0.994842 0.992264 0.515023
1 0.990936 0.515084
1 0.990799 0.514656
1 0.990845 0.513573
0.355383 0.93106 0.761807
0.35407 0.931853 0.756909
0.353811 0.934096 0.745922
0.353002 0.939696 0.708247
0.412268 0.954421 0.485222
0.938201 0.979644 0.471443
1 0.991165 0.513588
1 0.991363 0.514244
1 0.991608 0.513313
0.356985 0.93315 0.760311
0.35404 0.932158 0.75552
0.353689 0.93434 0.744198
0.352895 0.939803 0.706676
0.390173 0.947265 0.495689
0.918013 0.974395 0.459327
1 0.990433 0.513497
1 0.991043 0.5149
1 0.991882 0.513939
0.357351 0.932982 0.762768
0.354345 0.931701 0.758236
0.353765 0.933898 0.74667
0.352956 0.939605 0.708507
0.391714 0.948043 0.496162
0.915938 0.973877 0.458152
1 0.990662 0.51342
1 0.991379 0.514961
1 0.99234 0.514214
0.0752575 0.0480354 0.588052
0.101839 0.0472114 0.596506
0.198535 0.0568399 0.632456
0.42594 0.0746014 0.685985
0.658076 0.137209 0.689342
0.658976 0.13756 0.68957
0.658518 0.137743 0.689052
0.658534 0.137728 0.689067
0.658183 0.137743 0.68806
0.0460059 0.0573739 0.582712
0.0749371 0.0481575 0.588037
0.177111 0.0557717 0.625513
0.411154 0.0728771 0.684092
0.65742 0.136995 0.689296
0.658991 0.137575 0.689693
0.658488 0.137774 0.689189
0.658488 0.137774 0.688991
0.658091 0.137774 0.687968
0.0424964 0.117556 0.610712
0.0406348 0.105974 0.604944
0.0768902 0.0484627 0.589029
0.352865 0.0668956 0.673487
0.649271 0.134203 0.688441
0.659007 0.137636 0.690105
0.658854 0.137697 0.689998
0.658793 0.137713 0.689906
0.658717 0.137606 0.688991
0.0627298 0.276265 0.669261
0.0611734 0.268254 0.666545
0.0576944 0.239521 0.658213
0.164508 0.101183 0.657786
0.589975 0.123919 0.707942
0.659358 0.138186 0.690532
0.659251 0.138018 0.690486
0.659205 0.137957 0.69044
0.65919 0.137804 0.689677
0.152468 0.616739 0.744259
0.149493 0.614649 0.740826
0.143771 0.604929 0.736965
0.130266 0.571756 0.730922
0.578271 0.56202 0.849165
0.945418 0.575082 0.919402
0.943832 0.552178 0.911208
0.942519 0.544625 0.907271
0.940673 0.541619 0.904433
0.333883 0.872694 0.846738
0.330617 0.871458 0.841825
0.32137 0.863462 0.832029
0.291768 0.837629 0.800671
0.325109 0.871412 0.824323
0.908385 0.912169 0.87686
0.983398 0.915831 0.882826
0.982574 0.910384 0.877897
0.981353 0.908858 0.874708
0.357855 0.894209 0.861204
0.355032 0.8963 0.858869
0.35491 0.899077 0.852674
0.355154 0.906874 0.835462
0.362066 0.929259 0.795804
0.836225 0.998932 0.79173
1 0.997589 0.575463
1 0.990738 0.513756
1 0.990951 0.512886
0.35816 0.894652 0.860273
0.355047 0.896315 0.858763
0.354894 0.899245 0.852262
0.355184 0.907485 0.833997
0.358907 0.928939 0.785519
0.795651 0.998932 0.766979
1 0.998932 0.623545
1 0.990951 0.51368
1 0.991638 0.512795
0.360067 0.893233 0.861494
0.355032 0.895415 0.860609
0.35491 0.898405 0.854154
0.355154 0.907057 0.835004
0.358877 0.929 0.785275
0.791119 0.998932 0.767376
1 0.998932 0.640604
1 0.99086 0.51371
1 0.991547 0.51342
0.0973678 0.0469368 0.594888
0.125368 0.0493782 0.605692
0.21297 0.0575418 0.63679
0.438315 0.0764172 0.687648
0.659007 0.13753 0.689464
0.659007 0.137545 0.689601
0.658946 0.137575 0.689555
0.658747 0.137697 0.689647
0.65832 0.137743 0.688502
0.0693675 0.0489967 0.586648
0.0973678 0.0469978 0.594842
0.191669 0.0565957 0.630381
0.423148 0.0742657 0.685649
0.658473 0.137331 0.689311
0.659007 0.137545 0.689601
0.658961 0.137575 0.689555
0.658534 0.137728 0.689067
0.658137 0.137758 0.688014
0.0413062 0.108675 0.606439
0.0363165 0.0851301 0.593286
0.0990311 0.0473335 0.595743
0.364401 0.0680247 0.67599
0.654154 0.13579 0.688594
0.659007 0.137621 0.690028
0.659007 0.137621 0.690028
0.658854 0.137667 0.689845
0.658732 0.137606 0.688991
0.0580606 0.235355 0.657664
0.0560159 0.226551 0.65388
0.0526284 0.20032 0.644694
0.144625 0.0616617 0.622995
0.575402 0.107836 0.690272
0.659113 0.137758 0.690044
0.659007 0.137652 0.690135
0.659007 0.137636 0.69012
0.659022 0.13753 0.689448
0.151186 0.58497 0.75407
0.149004 0.582788 0.751858
0.144732 0.573007 0.749371
0.130587 0.538705 0.740627
0.539025 0.496513 0.862531
0.920439 0.51252 0.94052
0.916716 0.486015 0.93843
0.914092 0.476356 0.936385
0.910765 0.472969 0.933013
0.301625 0.816129 0.856794
0.297536 0.812696 0.85272
0.285664 0.797177 0.844129
0.24123 0.734997 0.811566
0.253422 0.740749 0.829557
0.845197 0.839094 0.945724
0.974365 0.856397 0.97525
0.974411 0.849882 0.974289
0.973251 0.848157 0.972869
0.347967 0.872374 0.889372
0.346929 0.873365 0.887495
0.346853 0.873426 0.887358
0.347051 0.87332 0.887633
0.360403 0.892195 0.882353
0.580758 0.98436 0.95874
0.981598 0.981231 0.974685
0.995132 0.982101 0.975952
0.994751 0.981384 0.974792
0.352651 0.871168 0.88806
0.346929 0.87335 0.887495
0.346853 0.873426 0.887358
0.347158 0.873274 0.887739
0.358297 0.893187 0.873365
0.428138 0.950408 0.909041
0.971801 0.990936 0.957732
0.999741 0.988785 0.953033
0.999619 0.989502 0.939971
0.355032 0.871046 0.885893
0.346929 0.87335 0.887495
0.346853 0.873426 0.887358
0.347066 0.87335 0.887587
0.358434 0.894026 0.871962
0.431418 0.953948 0.910597
0.967147 0.991501 0.954757
0.996963 0.989883 0.95082
0.996704 0.990951 0.932967
0.105699 0.0472877 0.597864
0.132677 0.0503395 0.608637
0.217899 0.057847 0.638346
0.442115 0.0768902 0.687984
0.659007 0.13753 0.689479
0.659007 0.137545 0.689601
0.659007 0.137545 0.689601
0.658946 0.137591 0.689616
0.658366 0.137713 0.688441
0.0784161 0.0477607 0.589105
0.105226 0.0472725 0.597635
0.196399 0.0568246 0.631861
0.426719 0.0747082 0.686061
0.658869 0.137469 0.689357
0.659007 0.137545 0.689601
0.659007 0.137545 0.689601
0.6589 0.137591 0.689448
0.658351 0.137713 0.688472
0.0400854 0.102586 0.603204
0.0348058 0.0787366 0.589303
0.107225 0.0476387 0.598627
0.36817 0.0682841 0.676631
0.655451 0.136217 0.68867
0.659007 0.137621 0.689998
0.659007 0.137621 0.690013
0.659007 0.137606 0.689952
0.658763 0.137591 0.689021
0.0560922 0.221637 0.652873
0.0543832 0.213367 0.649363
0.0508736 0.186526 0.639597
0.138003 0.0531167 0.612787
0.576394 0.107576 0.689265
0.659007 0.137606 0.689921
0.659007 0.137652 0.690211
0.659007 0.137652 0.690166
0.659022 0.13753 0.689448
0.148638 0.578958 0.752651
0.146151 0.576242 0.75021
0.141909 0.566278 0.747692
0.126925 0.529213 0.738231
0.532906 0.481331 0.859953
0.916106 0.496452 0.937026
0.911162 0.468452 0.933562
0.908568 0.458351 0.93167
0.906065 0.454093 0.929091
0.295216 0.807568 0.852247
0.291371 0.804181 0.848508
0.265934 0.771603 0.82919
0.234714 0.724453 0.80795
0.246387 0.729442 0.82504
0.834943 0.821363 0.943496
0.969406 0.837949 0.974762
0.971435 0.828763 0.976608
0.968154 0.826612 0.973999
0.347768 0.872557 0.889036
0.346929 0.873365 0.887495
0.346853 0.873426 0.887358
0.347021 0.873274 0.887663
0.352972 0.879744 0.892714
0.47657 0.926757 0.96025
0.969909 0.967849 0.986496
0.995346 0.97116 0.99472
0.995117 0.970382 0.994247
0.352392 0.871458 0.887465
0.346929 0.87335 0.887495
0.346853 0.873426 0.887358
0.347097 0.873198 0.887816
0.350408 0.876143 0.890898
0.388724 0.913771 0.918822
0.91043 0.99118 0.991028
0.996078 0.989303 0.995346
0.995041 0.989731 0.994598
0.352422 0.871275 0.887953
0.346929 0.87335 0.887495
0.346853 0.873426 0.887358
0.347005 0.873274 0.887648
0.350423 0.876143 0.890883
0.390967 0.915007 0.917464
0.904173 0.991821 0.989487
0.995041 0.989715 0.993667
0.996902 0.988952 0.995392
0.107515 0.0473793 0.59852
0.134874 0.0507057 0.609583
0.219181 0.0578927 0.638712
0.442664 0.0769207 0.687984
0.659007 0.13753 0.689479
0.659007 0.137545 0.689601
0.659007 0.137545 0.689601
0.659007 0.13756 0.689708
0.659022 0.137484 0.68925
0.0807355 0.0475319 0.589792
0.107881 0.0474556 0.598672
0.19762 0.0568551 0.632242
0.427375 0.074815 0.686168
0.658946 0.137484 0.689372
0.659007 0.137545 0.689601
0.659007 0.137545 0.689601
0.659007 0.137545 0.68954
0.659022 0.137438 0.688945
0.0398413 0.100374 0.602136
0.034226 0.0766766 0.587945
0.10985 0.0478218 0.599634
0.369116 0.0683452 0.676753
0.655314 0.136156 0.688655
0.659007 0.137621 0.689998
0.659007 0.137621 0.690013
0.659007 0.137606 0.689937
0.659022 0.137484 0.68925
0.0552682 0.217014 0.651087
0.053666 0.208682 0.647684
0.0505684 0.18233 0.638178
0.13991 0.0527657 0.612894
0.576867 0.107744 0.68925
0.659007 0.137606 0.689921
0.659007 0.137652 0.690196
0.659007 0.137636 0.690166
0.659022 0.13753 0.689448
0.147662 0.576684 0.752071
0.14519 0.574029 0.74963
0.140795 0.563577 0.747036
0.125826 0.526162 0.73753
0.531197 0.476051 0.859007
0.914672 0.489906 0.935943
0.909651 0.462974 0.932479
0.906783 0.452598 0.930175
0.904036 0.447517 0.927489
0.293172 0.804929 0.850767
0.287068 0.798764 0.845289
0.264103 0.766537 0.827497
0.232837 0.721614 0.806806
0.244297 0.725994 0.823743
0.832288 0.816297 0.942351
0.968856 0.833341 0.974502
0.968948 0.824567 0.974868
0.966735 0.821515 0.972961
0.347723 0.872602 0.88896
0.346929 0.873365 0.887495
0.346853 0.873426 0.887358
0.346853 0.873426 0.887358
0.352743 0.879942 0.892302
0.510597 0.926116 0.961135
0.967605 0.965225 0.985031
0.99379 0.969009 0.993851
0.992935 0.967773 0.993149
0.347845 0.872496 0.889174
0.346929 0.87335 0.887495
0.346853 0.873426 0.887358
0.346853 0.873426 0.887358
0.349783 0.876646 0.889876
0.385 0.912856 0.91928
0.876402 0.986145 0.991302
0.995193 0.989654 0.994766
0.995209 0.989654 0.994797
0.347524 0.872786 0.888594
0.346929 0.87335 0.887495
0.346853 0.873426 0.887358
0.346853 0.873426 0.887358
0.349813 0.876661 0.889845
0.385275 0.913115 0.919463
0.791119 0.990341 0.993698
0.991409 0.990433 0.993057
0.995163 0.98967 0.994736
