bundles/resolve-cinematic-luts/Phantom Luts/Komodo Phantom ARRI LUTs G2/Komodo Phantom ARRI LUTs G2/33x/Standard (No WB Offset)/Jamaica_Komodo_Legacy_G2_33x.cube
TITLE "Generated by Resolve"
LUT_3D_SIZE 33
0.0416266 0.0499428 0.0416266
0.0416724 0.0498817 0.0416419
0.0421759 0.0497749 0.0416419
0.0522316 0.0499428 0.0418555
0.06804 0.0494545 0.0417334
0.0910048 0.0488441 0.0420996
0.120531 0.047364 0.0426947
0.159136 0.0458076 0.0440833
0.204822 0.0448005 0.0463264
0.258717 0.0446021 0.05066
0.323644 0.0459602 0.0570077
0.399939 0.0467079 0.0679332
0.482277 0.047364 0.0824598
0.555123 0.0491188 0.100954
0.605585 0.0526284 0.121172
0.632471 0.0675669 0.138048
0.645167 0.0772412 0.154376
0.647883 0.0778363 0.160357
0.650095 0.0781872 0.165759
0.651896 0.0784772 0.170306
0.65362 0.0787976 0.174502
0.655314 0.0791333 0.178698
0.656184 0.0793469 0.180774
0.657191 0.0795453 0.183322
0.654322 0.075639 0.184253
0.654902 0.0758068 0.185626
0.64979 0.0700236 0.184985
0.650187 0.070161 0.185855
0.650477 0.0702678 0.186465
0.650675 0.0703441 0.186801
0.650797 0.0704051 0.186984
0.650843 0.0704509 0.186923
0.650797 0.0704662 0.186679
0.0416571 0.0498817 0.0416419
0.0416571 0.0499123 0.0416419
0.0416724 0.0498817 0.0416419
0.0482795 0.0501259 0.041825
0.0641337 0.0498512 0.0417792
0.0870069 0.0492409 0.0420386
0.117006 0.0477455 0.042649
0.156664 0.0460822 0.0437629
0.201556 0.0446784 0.0450446
0.254688 0.0439765 0.0475471
0.318822 0.0443885 0.0514992
0.39585 0.0450599 0.0610666
0.480156 0.0458228 0.0762493
0.551934 0.0474861 0.0947738
0.600809 0.0508736 0.112657
0.629862 0.0673381 0.131991
0.643122 0.0769207 0.149584
0.645899 0.0774395 0.155932
0.648447 0.0779431 0.161593
0.650233 0.078233 0.166033
0.651804 0.0784619 0.170047
0.653178 0.0787213 0.173358
0.654597 0.078996 0.176837
0.655268 0.0791791 0.178454
0.655833 0.0793011 0.179843
0.656397 0.0793927 0.181262
0.662135 0.0854658 0.184039
0.66244 0.0855116 0.184878
0.662684 0.0855573 0.185504
0.662852 0.0855879 0.185931
0.662989 0.0856184 0.186175
0.663005 0.0856641 0.186099
0.662959 0.0856947 0.185916
0.0417182 0.0505074 0.0417639
0.0416571 0.0502937 0.0416724
0.0419471 0.0500649 0.0416419
0.0435645 0.0501259 0.0418097
0.0570077 0.0507668 0.0421149
0.0787518 0.0505074 0.0417639
0.109545 0.0492714 0.0421302
0.149325 0.0475319 0.0433356
0.195956 0.0458534 0.0446937
0.249577 0.04477 0.0466621
0.31368 0.0444343 0.0495766
0.388739 0.0440223 0.054551
0.471656 0.0436866 0.0654765
0.546059 0.0450446 0.0849165
0.595773 0.0489662 0.104036
0.626337 0.0682383 0.121965
0.637507 0.0758221 0.137316
0.643107 0.0769207 0.149554
0.645716 0.0773785 0.155535
0.647974 0.0778821 0.160479
0.649638 0.0781567 0.164431
0.650752 0.0783093 0.167376
0.65185 0.0784619 0.170138
0.652705 0.0786297 0.172229
0.653346 0.0787671 0.173754
0.653864 0.0788434 0.175067
0.654337 0.0789502 0.176196
0.654734 0.0790265 0.177203
0.654994 0.0790723 0.177813
0.655161 0.079118 0.17818
0.655192 0.0791485 0.178241
0.655192 0.0791638 0.178073
0.655161 0.0791791 0.17789
0.0417792 0.0576791 0.042649
0.0416114 0.0572671 0.0422675
0.0425422 0.0563668 0.0422675
0.0451972 0.0547036 0.0423438
0.0535439 0.0549172 0.0437476
0.0710155 0.0543069 0.0439612
0.0990158 0.052079 0.0420996
0.138979 0.0503548 0.0424964
0.186877 0.0484169 0.0440986
0.242191 0.0471199 0.0457771
0.308217 0.0467689 0.0488441
0.383627 0.0454261 0.0531624
0.464271 0.0435798 0.0591592
0.533913 0.042649 0.0683909
0.590188 0.0536812 0.0896315
0.619638 0.0673533 0.108019
0.630442 0.0750439 0.121752
0.636011 0.0758526 0.133745
0.641276 0.0768139 0.14519
0.644022 0.0770581 0.151675
0.645991 0.0774243 0.156115
0.647608 0.0777752 0.159716
0.648814 0.0779736 0.162509
0.649622 0.0781262 0.164355
0.650065 0.0782025 0.165515
0.650462 0.0782635 0.166552
0.650782 0.078294 0.167422
0.651057 0.0783398 0.168124
0.65127 0.0784009 0.168658
0.651423 0.0784161 0.169009
0.651499 0.0784466 0.169162
0.65156 0.0784619 0.169131
0.651591 0.0784619 0.169009
0.0413367 0.0701762 0.0430304
0.0414435 0.069749 0.0428473
0.0416419 0.0690166 0.0429694
0.0458839 0.0672007 0.043122
0.0547951 0.0650034 0.0437629
0.071519 0.0649577 0.0461585
0.0990005 0.0639506 0.0476997
0.135027 0.0605936 0.0449989
0.180697 0.0555886 0.0423285
0.232807 0.0512551 0.0443275
0.299596 0.0501259 0.0476844
0.376013 0.048127 0.0520027
0.459358 0.0460517 0.0585336
0.532387 0.04477 0.0682078
0.584939 0.0531624 0.0820172
0.612207 0.0649882 0.0958572
0.621225 0.071397 0.105516
0.624903 0.0731365 0.111559
0.628931 0.0747539 0.118685
0.633951 0.0757458 0.128969
0.637034 0.0757916 0.136217
0.641108 0.0767987 0.144793
0.642832 0.0769207 0.148867
0.643977 0.0770428 0.151568
0.644907 0.0771496 0.153796
0.645426 0.0772869 0.154879
0.645777 0.0773785 0.155673
0.646082 0.0774548 0.156329
0.646296 0.0775006 0.156847
0.646494 0.0775311 0.157275
0.646601 0.0775616 0.157473
0.646647 0.0776074 0.157458
0.646632 0.0776226 0.157305
0.0403143 0.0909438 0.0437781
0.0402533 0.090425 0.0428321
0.0403296 0.0895247 0.0428931
0.04271 0.0874647 0.0429541
0.0508278 0.0842145 0.0433051
0.0688487 0.082414 0.0445716
0.0984054 0.0817426 0.0488136
0.138659 0.0790417 0.0524453
0.185336 0.0730449 0.0509499
0.23711 0.0661631 0.0466163
0.297322 0.0579843 0.044892
0.366217 0.0522774 0.0506142
0.450919 0.0492866 0.0562753
0.527932 0.0473793 0.06598
0.579965 0.0478523 0.0787976
0.613214 0.0656291 0.0967422
0.62182 0.0731212 0.104845
0.620874 0.072282 0.103746
0.619837 0.0714122 0.102434
0.620554 0.071397 0.104036
0.622858 0.0723735 0.107927
0.625208 0.0732738 0.112078
0.626963 0.0738537 0.115297
0.628672 0.0746014 0.118257
0.630289 0.0750286 0.121431
0.631556 0.0752728 0.12401
0.632273 0.0754253 0.125475
0.633066 0.0755627 0.127169
0.633646 0.0757 0.128328
0.634073 0.0757458 0.129259
0.634318 0.0757763 0.129778
0.634485 0.0758068 0.130037
0.634562 0.0758526 0.130083
0.0382849 0.123796 0.045182
0.0379187 0.12311 0.0425727
0.0380102 0.121859 0.0426642
0.0383459 0.12018 0.0426947
0.0460517 0.117144 0.043122
0.0590372 0.113176 0.0434119
0.091783 0.110979 0.0451972
0.136263 0.110338 0.0514229
0.191043 0.106508 0.0574197
0.247959 0.0968795 0.0582742
0.312261 0.0836805 0.0557107
0.376852 0.0692149 0.0503395
0.449607 0.0571603 0.0522774
0.521141 0.0511025 0.061677
0.577905 0.0506447 0.0753643
0.611337 0.0644999 0.0942397
0.625177 0.0767071 0.108522
0.624949 0.0764477 0.108293
0.624323 0.0757 0.107607
0.623606 0.0749523 0.106813
0.623041 0.074342 0.106233
0.622492 0.0738079 0.105592
0.622171 0.0734417 0.105272
0.621958 0.073167 0.105104
0.62182 0.0729839 0.105013
0.621729 0.0728466 0.104952
0.621668 0.0727398 0.104952
0.621653 0.0726635 0.104997
0.621668 0.0726177 0.105058
0.621622 0.0725719 0.105028
0.621683 0.0725872 0.105119
0.621714 0.0726024 0.105135
0.621775 0.0726635 0.10518
0.0365759 0.167315 0.0482948
0.0363012 0.16669 0.0447547
0.0361944 0.165515 0.0431373
0.0360266 0.163882 0.0429084
0.038056 0.161517 0.0429541
0.0509041 0.158679 0.0435187
0.0733196 0.15523 0.0435187
0.125475 0.151965 0.0467231
0.184253 0.150988 0.0541695
0.254368 0.147326 0.0641337
0.326223 0.134966 0.0688792
0.400916 0.118441 0.0690166
0.476844 0.099855 0.0654307
0.538521 0.0754559 0.0588693
0.580011 0.0587625 0.0672465
0.603281 0.0580911 0.086305
0.626322 0.0796826 0.108248
0.627848 0.0807355 0.110582
0.627466 0.0801404 0.110307
0.627131 0.0795758 0.110094
0.626978 0.0791943 0.110063
0.626581 0.078645 0.109697
0.626429 0.0783703 0.10959
0.626307 0.0781262 0.109545
0.626108 0.0778973 0.109361
0.625986 0.0777295 0.109255
0.625879 0.0776074 0.109148
0.625818 0.0775158 0.109087
0.625803 0.0774701 0.109087
0.625742 0.0773938 0.109026
0.625696 0.0773632 0.108995
0.62565 0.0773175 0.108888
0.625574 0.0772564 0.108736
0.0364233 0.21886 0.0538796
0.0359045 0.218189 0.0503243
0.035172 0.217227 0.0453803
0.0352026 0.215991 0.0446784
0.0356451 0.214679 0.0450294
0.043061 0.212421 0.0449226
0.060502 0.208392 0.0452888
0.0995651 0.206043 0.0451362
0.170565 0.200336 0.0503243
0.243183 0.201724 0.0585489
0.332403 0.200198 0.0747539
0.419226 0.190784 0.0864424
0.504829 0.174838 0.0918746
0.580041 0.154788 0.0942702
0.627588 0.128878 0.092195
0.62855 0.0968643 0.0898146
0.623743 0.0850996 0.0981918
0.630564 0.0866712 0.110536
0.630426 0.0860304 0.110933
0.630304 0.0855879 0.111147
0.63006 0.0850538 0.111208
0.629877 0.0846265 0.111254
0.629725 0.0842908 0.111254
0.629557 0.0840009 0.111177
0.62945 0.0837873 0.111162
0.629404 0.0836347 0.111192
0.629328 0.0834821 0.111177
0.629282 0.0834058 0.111147
0.629206 0.083299 0.111116
0.629145 0.0831922 0.111086
0.629084 0.0831159 0.11104
0.629038 0.0830396 0.110979
0.628992 0.0830091 0.110887
0.0398718 0.283558 0.0633097
0.039353 0.283223 0.0599832
0.0385748 0.282734 0.0553445
0.0378882 0.281666 0.050721
0.0382239 0.279713 0.0507057
0.0387121 0.276982 0.0502785
0.0525063 0.275532 0.0506752
0.078233 0.270359 0.0506447
0.138827 0.269337 0.0497292
0.227863 0.262516 0.0565347
0.317632 0.265141 0.0656138
0.418677 0.268055 0.0867628
0.52105 0.260777 0.108736
0.607675 0.251286 0.119707
0.677852 0.232105 0.134508
0.709484 0.211948 0.144244
0.699809 0.188785 0.145937
0.670237 0.143069 0.125826
0.644999 0.107164 0.108583
0.636057 0.098146 0.101396
0.634226 0.0945907 0.106203
0.633371 0.0923781 0.108492
0.633158 0.0919966 0.108629
0.63299 0.0916915 0.108736
0.632837 0.0914321 0.108843
0.632776 0.0912947 0.108904
0.632685 0.0911421 0.108965
0.632624 0.0910201 0.109026
0.632563 0.090898 0.109056
0.632517 0.0908064 0.109102
0.632441 0.0906996 0.109117
0.632425 0.0907149 0.109102
0.632303 0.0906233 0.109041
0.0450446 0.363317 0.0775616
0.0444343 0.363912 0.0737926
0.0436713 0.363119 0.0694743
0.0427863 0.361944 0.0635233
0.042237 0.360372 0.0601511
0.0422217 0.357946 0.0599985
0.0450141 0.355734 0.0597238
0.068101 0.354086 0.0592355
0.108888 0.348821 0.0582437
0.192691 0.345495 0.0570687
0.298741 0.337438 0.0640421
0.405005 0.342672 0.075349
0.514153 0.353933 0.0965438
0.620188 0.352026 0.132677
0.70547 0.349416 0.155169
0.764874 0.342107 0.175463
0.790478 0.328145 0.200305
0.783398 0.296452 0.21062
0.766476 0.272877 0.199023
0.750759 0.251926 0.187396
0.735256 0.231113 0.175906
0.721035 0.212116 0.164874
0.709346 0.196231 0.156039
0.699031 0.182177 0.148257
0.693462 0.174838 0.143893
0.688472 0.168246 0.140002
0.684291 0.1626 0.136965
0.681132 0.158312 0.13463
0.678599 0.154788 0.132723
0.676356 0.151629 0.131029
0.675349 0.150164 0.130144
0.674159 0.148501 0.129137
0.672877 0.146853 0.128176
0.0531777 0.456931 0.0972
0.0523842 0.456992 0.0933852
0.0515755 0.456794 0.0880751
0.0509499 0.45626 0.0817731
0.0500496 0.455802 0.0743877
0.0499275 0.454093 0.0724041
0.0496986 0.452369 0.0721752
0.0601053 0.451087 0.0719615
0.0949721 0.447379 0.0706645
0.15761 0.440391 0.0686961
0.264149 0.433814 0.0687724
0.385641 0.426871 0.0756085
0.502342 0.434363 0.0914015
0.606027 0.453025 0.107118
0.707393 0.456367 0.156695
0.785473 0.459083 0.191104
0.836561 0.463951 0.219791
0.860914 0.46453 0.245563
0.857389 0.444511 0.246784
0.847929 0.422568 0.241779
0.839429 0.403983 0.23772
0.831373 0.387701 0.233555
0.826032 0.375525 0.231449
0.82118 0.365728 0.229084
0.816907 0.357259 0.227039
0.814176 0.351659 0.22594
0.81149 0.346593 0.224613
0.809339 0.342687 0.223529
0.80798 0.340139 0.222919
0.806363 0.337606 0.221958
0.805005 0.335271 0.221317
0.803586 0.333227 0.220432
0.801862 0.330877 0.219196
0.0740215 0.557839 0.1299
0.0733501 0.557839 0.126085
0.0728008 0.557687 0.120806
0.0724804 0.55726 0.114305
0.0726482 0.558022 0.106249
0.0750744 0.559594 0.0994125
0.0744793 0.557092 0.098497
0.0731823 0.553887 0.097322
0.0951705 0.552193 0.094316
0.145464 0.547936 0.0907454
0.233799 0.54342 0.0880598
0.358801 0.529488 0.0880751
0.483085 0.524132 0.095079
0.595102 0.530434 0.118227
0.691722 0.54818 0.136767
0.77171 0.565896 0.177615
0.836469 0.579446 0.221469
0.872267 0.594705 0.251225
0.878782 0.584955 0.256519
0.879225 0.571893 0.256107
0.878813 0.559884 0.255329
0.878477 0.550683 0.254963
0.878401 0.544091 0.255009
0.877409 0.536843 0.254215
0.877287 0.531472 0.254398
0.876554 0.526757 0.253941
0.876158 0.52314 0.253834
0.875669 0.520714 0.253513
0.875288 0.518471 0.25333
0.874632 0.515923 0.252903
0.874159 0.514229 0.252613
0.87396 0.513039 0.252628
0.873304 0.51136 0.25214
0.112963 0.65333 0.178897
0.112963 0.653223 0.174975
0.1131 0.652811 0.170397
0.114061 0.653025 0.16434
0.115816 0.653544 0.156649
0.119173 0.654169 0.148592
0.123293 0.654948 0.144152
0.122072 0.652689 0.142977
0.122789 0.649683 0.140261
0.160342 0.650767 0.13109
0.224231 0.647471 0.124285
0.33727 0.639185 0.118563
0.465171 0.620661 0.118761
0.578988 0.618265 0.129473
0.683162 0.626703 0.161456
0.771221 0.644862 0.193805
0.8309 0.668742 0.233982
0.865339 0.69337 0.268757
0.874189 0.696239 0.27715
0.873808 0.687984 0.274067
0.873243 0.681315 0.271473
0.873335 0.67509 0.269551
0.872877 0.669657 0.267597
0.872923 0.66511 0.266316
0.873121 0.661631 0.265507
0.872999 0.65864 0.264607
0.872969 0.656718 0.264057
0.872938 0.654734 0.263523
0.873137 0.653223 0.26334
0.873106 0.651774 0.263035
0.873075 0.650431 0.262791
0.872984 0.649668 0.262592
0.872831 0.648981 0.262486
0.171908 0.73901 0.241566
0.172946 0.738705 0.238346
0.17525 0.739147 0.234623
0.177539 0.739178 0.230304
0.181231 0.739513 0.224689
0.186603 0.740078 0.218235
0.196475 0.74255 0.211948
0.197467 0.741955 0.209781
0.195178 0.739544 0.207645
0.203357 0.737865 0.19826
0.253758 0.740948 0.18024
0.33196 0.737224 0.16733
0.454749 0.721721 0.158114
0.576745 0.707835 0.166629
0.676783 0.713832 0.189532
0.770108 0.726329 0.231434
0.846891 0.744457 0.276524
0.890822 0.769589 0.31783
0.911284 0.779751 0.338949
0.907332 0.771328 0.332128
0.904952 0.766293 0.328054
0.902571 0.761715 0.324254
0.900511 0.757305 0.320775
0.899702 0.755474 0.319387
0.898772 0.753246 0.317723
0.897978 0.75169 0.316457
0.897154 0.749935 0.315114
0.8963 0.748486 0.313893
0.895598 0.747158 0.312886
0.895201 0.746319 0.312398
0.894804 0.745724 0.312062
0.894545 0.745434 0.31194
0.89395 0.744457 0.311192
0.249882 0.815579 0.317739
0.251637 0.815808 0.31606
0.253773 0.815656 0.313054
0.256992 0.815412 0.308629
0.261265 0.815076 0.303105
0.268162 0.816175 0.298161
0.280644 0.820386 0.294209
0.292027 0.824842 0.292561
0.288472 0.821973 0.289555
0.284764 0.819165 0.286503
0.312963 0.82034 0.262882
0.370291 0.822629 0.239506
0.466239 0.813565 0.219394
0.584482 0.800748 0.219898
0.694423 0.797635 0.245258
0.778988 0.814694 0.283253
0.858518 0.83331 0.334752
0.914672 0.85304 0.380041
0.945953 0.858396 0.403876
0.94638 0.851392 0.400778
0.94432 0.847364 0.397375
0.942657 0.844053 0.394553
0.941161 0.841321 0.392172
0.940185 0.839338 0.390478
0.939391 0.837415 0.388937
0.938445 0.835599 0.387335
0.937591 0.834165 0.386007
0.93695 0.832914 0.384878
0.93637 0.831785 0.383993
0.936126 0.831632 0.383948
0.935592 0.830869 0.383398
0.934997 0.830167 0.382895
0.934539 0.829389 0.382406
0.335012 0.887449 0.396277
0.335958 0.887129 0.39408
0.337194 0.886946 0.391775
0.340032 0.887404 0.388708
0.345205 0.888167 0.383291
0.353079 0.891112 0.380423
0.36611 0.896681 0.380087
0.382956 0.905608 0.384039
0.386694 0.906905 0.38381
0.384146 0.903929 0.380118
0.395987 0.904158 0.371527
0.441474 0.904707 0.339696
0.513741 0.897002 0.306004
0.619959 0.883085 0.292149
0.724605 0.879789 0.313664
0.818112 0.893599 0.357504
0.883055 0.912062 0.399237
0.930907 0.919661 0.428916
0.961822 0.923705 0.448829
0.973266 0.922225 0.454902
0.971649 0.9178 0.451545
0.970733 0.915267 0.449622
0.970321 0.913695 0.448539
0.969894 0.912047 0.44741
0.969177 0.910445 0.446113
0.968719 0.909178 0.445167
0.968307 0.908019 0.444297
0.967941 0.906996 0.443519
0.967788 0.9066 0.443214
0.967483 0.905898 0.442679
0.967147 0.905211 0.442176
0.966781 0.904631 0.441794
0.966323 0.903883 0.441321
0.393301 0.944091 0.476326
0.390021 0.94226 0.472465
0.388327 0.941344 0.469627
0.388525 0.941253 0.468132
0.388632 0.941238 0.467277
0.38883 0.941009 0.465461
0.389181 0.940749 0.463249
0.390249 0.940658 0.461128
0.391897 0.940688 0.458701
0.394842 0.941131 0.457053
0.401114 0.942367 0.455039
0.470863 0.958633 0.435065
0.552422 0.968795 0.408469
0.648753 0.957031 0.379767
0.744152 0.945693 0.380819
0.835355 0.944121 0.405768
0.898528 0.956497 0.437552
0.943221 0.96466 0.46334
0.977142 0.969665 0.484276
0.994385 0.971557 0.494697
0.993317 0.968887 0.492531
0.992813 0.968063 0.491783
0.992157 0.966964 0.490776
0.991623 0.965927 0.489891
0.991318 0.965194 0.489296
0.991119 0.964645 0.488869
0.990921 0.964279 0.488563
0.990677 0.963775 0.488106
0.990417 0.963241 0.487602
0.990204 0.962768 0.487129
0.990005 0.962325 0.486686
0.989822 0.961944 0.486275
0.9897 0.961715 0.486061
0.386847 0.949966 0.514549
0.383429 0.947585 0.511009
0.38172 0.946471 0.509209
0.381933 0.946563 0.508797
0.382177 0.946578 0.508049
0.382452 0.946532 0.507057
0.382635 0.946441 0.506203
0.382956 0.946395 0.505226
0.383948 0.946532 0.503746
0.385077 0.947158 0.504494
0.386999 0.948363 0.506264
0.39498 0.949386 0.495338
0.460426 0.959716 0.445655
0.59115 0.984787 0.422324
0.710079 0.972015 0.401694
0.803708 0.962417 0.412055
0.88748 0.968612 0.443809
0.94078 0.980148 0.472938
0.979324 0.986587 0.495766
1 0.990356 0.511116
1 0.99086 0.514382
1 0.990478 0.513512
1 0.990372 0.51342
1 0.990234 0.513252
1 0.990097 0.513085
1 0.990036 0.512993
1 0.98996 0.512917
1 0.989792 0.512703
1 0.98967 0.512489
1 0.989532 0.512169
1 0.989425 0.511879
1 0.989425 0.511559
1 0.989288 0.511131
0.386084 0.949676 0.515023
0.383001 0.947555 0.511849
0.381537 0.946548 0.510033
0.381674 0.946609 0.509758
0.381903 0.946639 0.509117
0.382223 0.946593 0.507973
0.382544 0.946487 0.506584
0.382681 0.94638 0.50576
0.383368 0.946273 0.503746
0.384726 0.946944 0.504173
0.386404 0.947997 0.50573
0.39118 0.949584 0.503197
0.417105 0.94902 0.461067
0.523125 0.976562 0.435325
0.64152 0.982559 0.411826
0.754833 0.966201 0.403372
0.84596 0.963256 0.425788
0.918547 0.975525 0.460349
0.964416 0.984817 0.487083
0.994064 0.990051 0.505776
1 0.991638 0.513222
1 0.992035 0.514412
1 0.992035 0.514458
1 0.992035 0.514473
1 0.99202 0.514504
1 0.991989 0.514519
1 0.991974 0.514549
1 0.991943 0.514534
1 0.991958 0.514488
1 0.991943 0.514336
1 0.991928 0.514168
1 0.991928 0.513848
1 0.991943 0.513512
0.385672 0.949706 0.515953
0.382727 0.947662 0.512749
0.381353 0.9467 0.511025
0.381491 0.9467 0.510552
0.381689 0.9467 0.509941
0.381994 0.946654 0.508858
0.382406 0.946563 0.507301
0.382605 0.94641 0.506127
0.382971 0.946181 0.504128
0.384131 0.946578 0.503594
0.38584 0.947601 0.505074
0.389853 0.950042 0.508202
0.405966 0.94844 0.474128
0.500175 0.971374 0.439719
0.612268 0.985183 0.418631
0.732326 0.969253 0.402167
0.826352 0.962707 0.419074
0.905409 0.972442 0.4533
0.954803 0.98323 0.481529
0.988144 0.988785 0.501808
1 0.991348 0.512215
1 0.991928 0.514015
1 0.992004 0.514275
1 0.992004 0.51426
1 0.992004 0.51426
1 0.992004 0.51426
1 0.992004 0.51426
1 0.992004 0.51426
1 0.992004 0.514244
1 0.991958 0.514214
1 0.991852 0.514153
1 0.991714 0.513954
1 0.991623 0.513649
0.386023 0.949996 0.516442
0.382727 0.947707 0.513146
0.381186 0.946609 0.511299
0.381292 0.946593 0.510857
0.381521 0.946593 0.510231
0.381781 0.946548 0.509255
0.382223 0.946456 0.507652
0.382559 0.946288 0.506035
0.382788 0.94609 0.504555
0.383169 0.945815 0.502327
0.383658 0.946105 0.502785
0.385901 0.947524 0.504891
0.396521 0.947448 0.484977
0.47361 0.962509 0.441123
0.588647 0.984314 0.422202
0.709621 0.97145 0.401022
0.809308 0.961929 0.413336
0.891814 0.968887 0.445838
0.947143 0.981033 0.476707
0.98291 0.987213 0.498268
1 0.990509 0.51136
1 0.991272 0.514107
1 0.991501 0.514748
1 0.991501 0.514733
1 0.991501 0.514717
1 0.991501 0.514717
1 0.991501 0.514702
1 0.991562 0.514672
1 0.991669 0.514595
1 0.991836 0.514397
1 0.991897 0.514214
1 0.991867 0.513924
1 0.99173 0.51368
0.387396 0.951186 0.518486
0.383902 0.948531 0.514824
0.381781 0.947127 0.512459
0.38143 0.946792 0.511574
0.381384 0.946639 0.510781
0.381613 0.946593 0.509865
0.38204 0.946502 0.508339
0.382483 0.946349 0.506493
0.382666 0.946197 0.505333
0.383154 0.945815 0.502358
0.383246 0.945861 0.502403
0.385046 0.94699 0.504097
0.392233 0.948043 0.494926
0.44773 0.954849 0.44535
0.567254 0.982895 0.426352
0.687358 0.974868 0.402716
0.790448 0.962768 0.408698
0.876722 0.966369 0.438666
0.937682 0.97908 0.471107
0.976059 0.985992 0.494026
0.999191 0.990112 0.509117
1 0.991119 0.514015
1 0.991455 0.515007
1 0.99147 0.515053
1 0.99147 0.515053
1 0.99147 0.515053
1 0.99147 0.515038
1 0.991531 0.515007
1 0.991653 0.514931
1 0.991821 0.514733
1 0.991882 0.514534
1 0.991852 0.514199
1 0.991714 0.513939
0.390265 0.953628 0.521935
0.386297 0.950439 0.517754
0.382773 0.947906 0.514
0.381781 0.947158 0.512581
0.381231 0.94667 0.51133
0.381491 0.946639 0.510445
0.381826 0.946548 0.509102
0.382361 0.946395 0.507042
0.38262 0.946242 0.505638
0.383078 0.945876 0.502831
0.383185 0.945815 0.502342
0.384558 0.94667 0.503639
0.389075 0.948272 0.501854
0.425742 0.947738 0.446967
0.54905 0.980102 0.428794
0.665446 0.978073 0.40557
0.774227 0.96376 0.405325
0.863066 0.964797 0.432685
0.928801 0.977279 0.46598
0.969589 0.985138 0.49012
0.995132 0.989609 0.506508
1 0.991012 0.513695
1 0.991409 0.514916
1 0.99147 0.515129
1 0.99147 0.515145
1 0.99147 0.51516
1 0.99147 0.51516
1 0.991531 0.515129
1 0.991638 0.515053
1 0.991806 0.51487
1 0.991928 0.514626
1 0.991958 0.514244
1 0.991867 0.513954
0.391608 0.954833 0.523674
0.387549 0.951492 0.519417
0.38349 0.948379 0.515023
0.381918 0.947326 0.513085
0.38114 0.9467 0.51165
0.381384 0.94667 0.510826
0.381704 0.946578 0.50956
0.382269 0.946441 0.507454
0.382605 0.946258 0.505776
0.383001 0.945937 0.503288
0.383185 0.945815 0.502342
0.384329 0.946532 0.503426
0.386954 0.948119 0.505531
0.412009 0.944595 0.451713
0.534249 0.976593 0.429664
0.650385 0.979477 0.407401
0.761059 0.964858 0.403311
0.851575 0.963806 0.428061
0.921187 0.976104 0.461967
0.963378 0.984588 0.486625
0.991623 0.989181 0.504189
1 0.991058 0.513283
1 0.991394 0.51458
1 0.991485 0.515038
1 0.991485 0.515038
1 0.99147 0.515053
1 0.99147 0.515053
1 0.991531 0.515023
1 0.991638 0.514961
1 0.991821 0.514763
1 0.991943 0.514519
1 0.99202 0.514122
1 0.992004 0.513787
0.391531 0.954833 0.523919
0.387579 0.951598 0.519768
0.383673 0.948577 0.515511
0.381811 0.947311 0.513252
0.381094 0.946715 0.511864
0.381323 0.946685 0.51107
0.381628 0.946609 0.509865
0.382177 0.946471 0.507805
0.382589 0.946273 0.505898
0.38294 0.945968 0.503624
0.3832 0.94583 0.502358
0.384344 0.946548 0.503441
0.386465 0.947875 0.505425
0.406073 0.94464 0.459205
0.521141 0.972717 0.42974
0.637461 0.979721 0.408148
0.751263 0.965743 0.401953
0.84387 0.96318 0.42501
0.915465 0.97496 0.458915
0.959533 0.984268 0.484565
0.988708 0.988846 0.502388
1 0.991348 0.512749
1 0.991791 0.514015
1 0.991989 0.514626
1 0.991989 0.514641
1 0.991974 0.514641
1 0.991958 0.514656
1 0.99202 0.514626
1 0.992111 0.514565
1 0.992279 0.514382
1 0.992386 0.514153
1 0.992447 0.513771
1 0.992462 0.513436
0.39144 0.954818 0.524239
0.387976 0.952026 0.520699
0.384054 0.94902 0.516472
0.382101 0.947616 0.513878
0.381064 0.946792 0.512154
0.381277 0.946715 0.511284
0.381582 0.946624 0.510063
0.382116 0.946487 0.508064
0.382559 0.946288 0.506035
0.38291 0.946014 0.503899
0.383215 0.94583 0.502373
0.384375 0.946563 0.503471
0.386328 0.947799 0.505302
0.403021 0.945037 0.464942
0.513283 0.971008 0.431174
0.630167 0.980087 0.409171
0.744442 0.966354 0.401129
0.837842 0.962814 0.422751
0.911406 0.97406 0.456748
0.956878 0.983841 0.483085
0.986938 0.988479 0.501274
1 0.991196 0.512184
1 0.991745 0.513909
1 0.991989 0.514626
1 0.991989 0.514611
1 0.991989 0.514611
1 0.991989 0.514611
1 0.992035 0.51458
1 0.992157 0.514504
1 0.992325 0.514382
1 0.992432 0.51429
1 0.992386 0.514153
1 0.992187 0.513985
0.393835 0.956863 0.526574
0.389487 0.953201 0.522042
0.385183 0.949722 0.517159
0.382696 0.947829 0.514153
0.381415 0.946822 0.512078
0.381186 0.94641 0.510704
0.381521 0.946303 0.509361
0.38201 0.946151 0.507485
0.382528 0.945968 0.505364
