bundles/resolve-cinematic-luts/Phantom Luts/Komodo Phantom ARRI LUTs G2/Komodo Phantom ARRI LUTs G2/33x/Standard (No WB Offset)/Neutral_Komodo_G2_33x.cube
TITLE "Generated by Resolve"
LUT_3D_SIZE 33
0.0201267 0.0201267 0.0201267
0.0201267 0.0201267 0.0201267
0.0225986 0.0202487 0.0202029
0.0475319 0.0203098 0.020676
0.0818799 0.0188907 0.0214694
0.120485 0.0163272 0.0227512
0.164767 0.012314 0.0260319
0.214282 0.00854505 0.032578
0.270039 0.00646983 0.0414282
0.332952 0.00683604 0.0554971
0.402762 0.0102388 0.0726024
0.479393 0.0110628 0.0966049
0.562936 0.00970474 0.123278
0.648814 0.00350958 0.152071
0.732021 0 0.176074
0.803296 0 0.190555
0.835981 0 0.209247
0.839277 0 0.218921
0.842069 0 0.226886
0.844221 0 0.234348
0.846082 0 0.241016
0.847852 0 0.246632
0.849226 0 0.250843
0.850385 0 0.254719
0.851362 0 0.257877
0.852033 0 0.260197
0.852537 0 0.261997
0.852903 0 0.263279
0.853162 0 0.264271
0.85333 0 0.264973
0.853468 0 0.265507
0.853559 0 0.265888
0.85362 0 0.266163
0.0201267 0.0201267 0.0201267
0.0201267 0.0201267 0.0201267
0.0201267 0.0201267 0.0201267
0.0405585 0.0206455 0.020676
0.0753948 0.01944 0.0211948
0.115465 0.0168307 0.0224613
0.160693 0.0127413 0.0254215
0.210697 0.00817884 0.0299382
0.265019 0.00505074 0.0353094
0.326925 0.00347906 0.0460975
0.398016 0.00576791 0.0615854
0.475334 0.0069276 0.0855726
0.56022 0.00477607 0.113146
0.644739 0 0.141588
0.728985 0 0.16611
0.800549 0 0.181216
0.833814 0 0.201587
0.836881 0 0.211582
0.839872 0 0.220706
0.842268 0 0.227588
0.844099 0 0.233967
0.845594 0 0.239261
0.846906 0 0.243778
0.84802 0 0.247105
0.848859 0 0.24947
0.84947 0 0.251728
0.849973 0 0.25333
0.850385 0 0.254658
0.85066 0 0.255604
0.850874 0 0.256352
0.851057 0 0.256886
0.851164 0 0.257282
0.85124 0 0.257511
0.0201267 0.0201267 0.0201267
0.0201267 0.0201267 0.0201267
0.0201267 0.0201267 0.0201267
0.0281987 0.0218662 0.0205997
0.0617227 0.021973 0.0210727
0.102464 0.0202029 0.0213779
0.150591 0.0162509 0.0239261
0.202548 0.0113832 0.0282292
0.25922 0.00732433 0.0339513
0.321752 0.00437934 0.0423743
0.391104 0.00422675 0.0524758
0.467887 0.00196841 0.0679026
0.553338 0 0.095552
0.639963 0 0.12607
0.724971 0 0.152529
0.795529 0 0.165591
0.828611 0 0.184146
0.833738 0 0.20119
0.836515 0 0.210636
0.83917 0 0.218647
0.841321 0 0.224887
0.842893 0 0.229679
0.844053 0 0.23386
0.844968 0 0.237095
0.845701 0 0.239658
0.84625 0 0.241657
0.846708 0 0.243168
0.847074 0 0.244327
0.847349 0 0.245212
0.847562 0 0.245899
0.8477 0 0.24625
0.847791 0 0.246494
0.847868 0 0.246662
0.0207675 0.0354009 0.0208438
0.0208438 0.0341344 0.0208743
0.0226139 0.0316014 0.0209201
0.0276341 0.0284276 0.0210727
0.0483864 0.030396 0.0230411
0.0865034 0.0277562 0.0218509
0.135378 0.0221408 0.0215915
0.189899 0.017792 0.0250706
0.249805 0.0134585 0.030808
0.314549 0.0106203 0.0385901
0.385733 0.0104219 0.0493172
0.462882 0.00549325 0.0637064
0.544793 0 0.0789807
0.629038 0 0.0992752
0.715145 0 0.126741
0.788312 0 0.141314
0.821088 0 0.159136
0.82678 0 0.177066
0.832212 0 0.19382
0.834562 0 0.204211
0.836728 0 0.211215
0.83859 0 0.216846
0.84004 0 0.221195
0.841093 0 0.224399
0.841871 0 0.226246
0.84242 0 0.228122
0.842847 0 0.229496
0.843168 0 0.230564
0.843412 0 0.231312
0.84358 0 0.231891
0.843687 0 0.232288
0.843763 0 0.232593
0.843809 0 0.232807
0.0211185 0.0670481 0.0209506
0.0211337 0.0656596 0.0209659
0.021622 0.0637522 0.0209049
0.0297856 0.0587625 0.0217594
0.0519722 0.0560922 0.0221561
0.0863813 0.0569314 0.0265049
0.132464 0.0520333 0.0260777
0.183139 0.0424048 0.0222629
0.24004 0.0272831 0.0248417
0.304021 0.0192111 0.0328527
0.377768 0.0177005 0.0453803
0.456046 0.0123751 0.0601816
0.540047 0.00390631 0.0763867
0.624506 0 0.0939956
0.705409 0 0.108644
0.77322 0 0.118303
0.803098 0 0.127474
0.811063 0 0.137911
0.818769 0 0.152453
0.824292 0 0.168688
0.827802 0 0.181048
0.831922 0 0.192355
0.83328 0 0.198917
0.834287 0 0.203189
0.835019 0 0.206546
0.835691 0 0.208438
0.836225 0 0.209827
0.836591 0 0.21088
0.836881 0 0.211612
0.837079 0 0.212253
0.837232 0 0.212696
0.837324 0 0.213062
0.837415 0 0.213291
0.0206607 0.103822 0.020798
0.0205386 0.102617 0.0198672
0.0205692 0.101045 0.019913
0.0274662 0.0975357 0.0206455
0.0428931 0.0918441 0.0217288
0.0823072 0.0921645 0.0223545
0.132448 0.0918441 0.0288701
0.187793 0.0834669 0.0337224
0.244724 0.0709239 0.030808
0.305623 0.0545052 0.0273899
0.372702 0.0329442 0.0367895
0.446159 0.0214542 0.0546426
0.531929 0.0123598 0.0710613
0.617807 0 0.0894026
0.702617 0 0.105501
0.776654 0 0.117815
0.807279 0 0.120226
0.80293 0 0.119493
0.799039 0 0.118715
0.801587 0 0.123568
0.806424 0 0.130236
0.810864 0 0.136919
0.814237 0 0.143435
0.817319 0 0.149004
0.819486 0 0.154452
0.821088 0 0.159136
0.821912 0 0.161501
0.822583 0 0.163394
0.823163 0 0.165179
0.82356 0 0.166415
0.82385 0 0.167254
0.824063 0 0.167971
0.824247 0 0.168231
0.0188602 0.150088 0.0212406
0.0189212 0.148928 0.0182345
0.0190433 0.147753 0.0183566
0.0200809 0.145663 0.0185397
0.0366522 0.141344 0.0198672
0.0673228 0.138018 0.0212863
0.122087 0.136721 0.0218814
0.183413 0.137163 0.0288701
0.250996 0.128283 0.0428473
0.319463 0.111315 0.0452583
0.387228 0.0902571 0.0449836
0.453346 0.0574502 0.0434577
0.526528 0.0277714 0.0580301
0.60885 0.00973526 0.0806134
0.697078 0 0.0986801
0.777096 0 0.113649
0.82414 0 0.122011
0.82092 0 0.121721
0.817853 0 0.121553
0.815015 0 0.121324
0.812406 0 0.121004
0.81033 0 0.120668
0.80853 0 0.120409
0.807111 0 0.120211
0.805982 0 0.120027
0.805127 0 0.11989
0.804471 0 0.119768
0.803983 0 0.119677
0.80354 0 0.1196
0.803281 0 0.119539
0.803113 0 0.119539
0.802976 0 0.119509
0.802915 0 0.119493
0.0179751 0.202106 0.0239719
0.0180667 0.201038 0.0189212
0.0183413 0.199603 0.0173648
0.0183413 0.197864 0.0173953
0.0261082 0.195346 0.018265
0.0513466 0.191272 0.0200046
0.0975357 0.190768 0.0210727
0.169757 0.188571 0.0210269
0.241993 0.190127 0.030396
0.324758 0.181216 0.0554665
0.402228 0.164019 0.0635386
0.474708 0.141817 0.0670024
0.547936 0.113115 0.0651713
0.622324 0.0592966 0.0589151
0.696071 0.00709544 0.078172
0.773953 0 0.101839
0.837354 0 0.117891
0.838788 0 0.119768
0.83653 0 0.120256
0.83415 0 0.120821
0.832349 0 0.121294
0.830564 0 0.121569
0.829374 0 0.121782
0.828443 0 0.121904
0.827726 0 0.121965
0.827237 0 0.122011
0.826871 0 0.122072
0.826627 0 0.122087
0.826444 0 0.122118
0.826291 0 0.122118
0.8262 0 0.122148
0.826108 0 0.122148
0.826062 0 0.122148
0.0198672 0.261097 0.0306249
0.0199588 0.260136 0.0244297
0.0200504 0.2589 0.0184787
0.0199893 0.257465 0.0184329
0.0199588 0.255711 0.0184329
0.0408484 0.254261 0.019852
0.075639 0.249378 0.022034
0.1411 0.251026 0.0231479
0.224903 0.248829 0.0239109
0.310536 0.252476 0.0354925
0.406989 0.245258 0.0743114
0.487968 0.232944 0.0896468
0.569207 0.209003 0.0992142
0.648936 0.18146 0.0977493
0.728267 0.135851 0.0870222
0.80264 0.0470436 0.064271
0.858473 0 0.0814527
0.859876 0 0.108415
0.858122 0 0.110033
0.856626 0 0.111345
0.854978 0 0.11252
0.85362 0 0.11342
0.852537 0 0.114107
0.851682 0 0.114641
0.851026 0 0.115068
0.850553 0 0.115389
0.850156 0 0.115618
0.849867 0 0.11577
0.849622 0 0.115892
0.849439 0 0.115953
0.849317 0 0.116014
0.84921 0 0.116045
0.849134 0 0.116091
0.0251926 0.329274 0.0439765
0.0254215 0.328984 0.0367285
0.0250858 0.327871 0.028275
0.0251316 0.326528 0.0229648
0.0252842 0.32462 0.022797
0.0274968 0.322438 0.0225986
0.0627146 0.321904 0.0247807
0.108598 0.317662 0.0278782
0.191669 0.321157 0.0298619
0.291051 0.320699 0.0317235
0.388815 0.326589 0.0458228
0.489052 0.326131 0.0936904
0.576608 0.318746 0.118242
0.665522 0.300206 0.12607
0.750957 0.266011 0.136522
0.829755 0.226673 0.120211
0.897154 0.164965 0.0912947
0.922072 0.0759747 0.0665751
0.912596 0.00885023 0.0541085
0.903624 0 0.0467536
0.889769 0 0.0756542
0.881666 0 0.0884718
0.880629 0 0.089662
0.879728 0 0.0905928
0.879042 0 0.0913405
0.878538 0 0.0918898
0.878157 0 0.0922713
0.877882 0 0.092607
0.877684 0 0.0927901
0.877516 0 0.0929732
0.877424 0 0.0930953
0.877333 0 0.0931716
0.877272 0 0.0932174
0.0330968 0.407263 0.0612039
0.0332952 0.406744 0.0547494
0.0332189 0.405982 0.0454108
0.0321355 0.404852 0.0336919
0.032105 0.403342 0.0304875
0.0314641 0.401038 0.0300145
0.0473793 0.400259 0.0310674
0.0911574 0.398657 0.0345617
0.157015 0.39675 0.0394293
0.255222 0.401755 0.0432288
0.367971 0.40325 0.0442817
0.47306 0.411078 0.0597086
0.570977 0.4206 0.0985428
0.664851 0.416434 0.139712
0.752346 0.408164 0.155138
0.83592 0.386038 0.150088
0.905318 0.351781 0.146059
0.947616 0.298268 0.139864
0.945113 0.268818 0.126879
0.942519 0.242008 0.115999
0.939544 0.216312 0.106218
0.936568 0.191913 0.0975509
0.934524 0.171878 0.0911574
0.932342 0.155291 0.0860304
0.930556 0.142962 0.0823529
0.929259 0.132113 0.0791485
0.928145 0.123491 0.076936
0.927398 0.117128 0.0754101
0.926757 0.112016 0.0742046
0.926223 0.108232 0.0732891
0.925765 0.105547 0.0726329
0.925475 0.103456 0.0721447
0.925277 0.101946 0.0717937
0.0415198 0.490745 0.0800183
0.0416419 0.490532 0.0740368
0.0415961 0.490272 0.0648203
0.0404669 0.489815 0.0526741
0.0390784 0.48954 0.0371099
0.0386816 0.487572 0.0368353
0.0380255 0.485542 0.0364538
0.0742809 0.485405 0.0405127
0.130907 0.48188 0.0471809
0.219913 0.481514 0.0555581
0.333059 0.486992 0.0614481
0.450431 0.491051 0.060853
0.557244 0.498894 0.076997
0.648219 0.516075 0.084596
0.742535 0.513909 0.150179
0.821653 0.512795 0.163699
0.890913 0.508232 0.155291
0.940993 0.496788 0.145037
0.946227 0.475212 0.1467
0.948241 0.452995 0.142428
0.950103 0.433448 0.137255
0.950591 0.417273 0.136858
0.950454 0.403723 0.139193
0.950149 0.392889 0.140795
0.950042 0.384222 0.141695
0.950317 0.378363 0.142412
0.950225 0.373816 0.142855
0.950179 0.37023 0.14316
0.950072 0.367453 0.143633
0.950027 0.365316 0.143801
0.949996 0.36376 0.143923
0.949981 0.3626 0.144015
0.949966 0.361837 0.144076
0.0546883 0.578408 0.102617
0.0547189 0.578164 0.0973983
0.0544594 0.578164 0.0883345
0.0540322 0.578378 0.0760815
0.052842 0.579202 0.0603647
0.0558175 0.580438 0.0495308
0.0549477 0.578286 0.049073
0.0537728 0.575341 0.0484474
0.110719 0.57261 0.052079
0.186892 0.566659 0.0628824
0.299962 0.568429 0.0760815
0.424338 0.573159 0.0821851
0.532937 0.578637 0.0787671
0.636271 0.584115 0.0995499
0.725109 0.600977 0.0870832
0.803937 0.613169 0.11873
0.868284 0.621286 0.138949
0.916045 0.630167 0.114687
0.923125 0.619623 0.125078
0.925383 0.608042 0.130556
0.927535 0.597742 0.134112
0.929366 0.589151 0.136034
0.930938 0.582605 0.137362
0.93225 0.576684 0.138048
0.93341 0.571969 0.138323
0.934325 0.568429 0.138521
0.93492 0.565744 0.138582
0.935424 0.563653 0.138613
0.935805 0.562112 0.138613
0.936095 0.560906 0.138613
0.936309 0.560037 0.138613
0.936461 0.559426 0.138613
0.936584 0.558923 0.138613
0.0734722 0.665522 0.131975
0.07364 0.665568 0.12491
0.0737011 0.665537 0.115755
0.073579 0.666194 0.103151
0.0737774 0.668025 0.0877852
0.0779583 0.670161 0.0697032
0.0818341 0.66981 0.0654154
0.080766 0.66717 0.0648661
0.0937209 0.662776 0.0620432
0.174304 0.657496 0.0703441
0.262181 0.649058 0.0850233
0.396704 0.652094 0.101198
0.516182 0.655772 0.107378
0.612696 0.663691 0.102205
0.712047 0.670665 0.124666
0.797696 0.687022 0.103258
0.860945 0.706142 0.0831464
0.904051 0.726543 0.0317998
0.913603 0.726757 0.028687
0.913924 0.7196 0.0357824
0.914199 0.71342 0.0415656
0.914473 0.707805 0.0465553
0.914595 0.703578 0.0502022
0.914839 0.700053 0.0530861
0.914977 0.697154 0.0553445
0.915053 0.695033 0.0569619
0.915114 0.693401 0.0582284
0.91516 0.692302 0.0590982
0.915206 0.691539 0.0596933
0.915221 0.69102 0.06009
0.915251 0.690608 0.0604257
0.915251 0.690303 0.0606546
0.915267 0.690105 0.0608225
0.0945296 0.74905 0.157397
0.0948806 0.749233 0.151965
0.0962997 0.750088 0.142779
0.0973068 0.751308 0.130297
0.0976577 0.753048 0.11397
0.100954 0.755322 0.0949111
0.115175 0.758038 0.0830243
0.114183 0.755718 0.0825666
0.112978 0.752728 0.0820325
0.153628 0.745357 0.07364
0.25185 0.737011 0.0925002
0.364034 0.727993 0.111788
0.492699 0.732006 0.126925
0.606561 0.737743 0.136904
0.693782 0.750851 0.133684
0.786816 0.761318 0.153033
0.862409 0.77673 0.137148
0.913161 0.798199 0.0773327
0.93637 0.803647 0.0673381
0.934157 0.79646 0.0594034
0.932998 0.792493 0.055436
0.931853 0.788891 0.052018
0.930922 0.78584 0.0496529
0.93051 0.784314 0.0484779
0.930007 0.782696 0.0472572
0.929549 0.781338 0.0462501
0.929229 0.780316 0.0455482
0.928985 0.779538 0.0450294
0.928817 0.778943 0.0446479
0.928679 0.778531 0.0443732
0.928588 0.778241 0.0441749
0.928527 0.778012 0.0440375
0.928466 0.777829 0.0439155
0.116564 0.826581 0.178836
0.11751 0.827207 0.172869
0.118288 0.828107 0.16463
0.118868 0.829374 0.152911
0.119265 0.830915 0.137575
0.12459 0.83386 0.115969
0.144808 0.836912 0.104829
0.153765 0.838712 0.0986496
0.152316 0.836042 0.0981613
0.150759 0.832731 0.0975357
0.238025 0.819776 0.0880903
0.352285 0.807706 0.115938
0.481254 0.803388 0.139544
0.594675 0.812085 0.157671
0.701747 0.821271 0.175555
0.779995 0.840864 0.173037
0.857755 0.854871 0.186282
0.914015 0.870619 0.164813
0.947967 0.870359 0.174609
0.950713 0.864317 0.162249
0.950027 0.861616 0.157931
0.949523 0.859602 0.154604
0.948959 0.857603 0.151247
0.948547 0.85594 0.148562
0.948302 0.854749 0.146685
0.948089 0.853788 0.145129
0.947921 0.853086 0.143984
0.947799 0.852583 0.14316
0.947707 0.852201 0.142535
0.947646 0.851957 0.142138
0.947601 0.851774 0.141817
0.947555 0.851606 0.141558
0.947524 0.851484 0.14136
0.131716 0.896757 0.189288
0.132342 0.897551 0.183398
0.133135 0.898314 0.176501
0.134386 0.89987 0.163622
0.135698 0.90219 0.143313
0.148974 0.905119 0.129717
0.168795 0.909606 0.121492
0.182727 0.919234 0.113573
0.183932 0.91632 0.11284
0.182315 0.913451 0.112215
0.238834 0.903578 0.109468
0.348867 0.885161 0.124422
0.473915 0.870878 0.143587
0.600977 0.876982 0.16376
0.712154 0.887984 0.188937
0.802213 0.907256 0.195712
0.86244 0.922042 0.199664
0.910704 0.925277 0.219333
0.94435 0.92575 0.225772
0.958556 0.922972 0.231678
0.958144 0.919707 0.227863
0.957977 0.918074 0.226047
0.957824 0.916625 0.224598
0.957702 0.915434 0.223301
0.95761 0.914519 0.222278
0.957534 0.913893 0.2215
0.957473 0.913375 0.220905
0.957427 0.912963 0.220462
0.957397 0.912642 0.220096
0.957382 0.912428 0.219867
0.957366 0.912245 0.219669
0.957351 0.912123 0.219547
0.957336 0.912032 0.21944
0.113939 0.95491 0.206317
0.113725 0.954955 0.204242
0.11342 0.955032 0.201114
0.113115 0.955108 0.197864
0.112856 0.955154 0.195422
0.112459 0.955215 0.19147
0.111971 0.955291 0.186633
0.111635 0.955383 0.180697
0.113466 0.955444 0.174456
0.115587 0.955489 0.167407
0.119081 0.955627 0.153414
0.313726 0.948516 0.151064
0.457679 0.933074 0.179309
0.598444 0.927886 0.205905
0.711543 0.933776 0.237766
0.809537 0.941268 0.261555
0.865217 0.955825 0.249836
0.908721 0.962737 0.258076
0.944549 0.963668 0.291157
0.965087 0.963729 0.290669
0.964569 0.961532 0.286397
0.964385 0.9608 0.284977
0.964233 0.960098 0.283635
0.964111 0.959487 0.28249
0.964019 0.959045 0.281727
0.963943 0.95874 0.281117
0.963897 0.95848 0.280629
0.963851 0.958267 0.280217
0.963821 0.958099 0.279911
0.96379 0.957992 0.279683
0.96376 0.957885 0.2795
0.963745 0.957824 0.279377
0.963745 0.957763 0.279286
0.123339 0.953384 0.305821
0.123278 0.953399 0.305135
0.123201 0.953414 0.304128
0.123079 0.953445 0.302617
0.122927 0.95349 0.300603
0.122759 0.953521 0.298314
0.122637 0.953552 0.296834
0.122347 0.953597 0.293278
0.122057 0.953658 0.289616
0.122057 0.953658 0.289616
0.122057 0.953658 0.289616
0.116899 0.954437 0.235187
0.298665 0.950957 0.148486
0.511147 0.944274 0.205097
0.662562 0.945068 0.241428
0.773938 0.950698 0.276371
0.855634 0.963989 0.291142
0.902602 0.976715 0.289174
0.941833 0.981064 0.307485
0.966766 0.981994 0.340734
0.971084 0.982116 0.345495
0.970596 0.982162 0.338964
0.970565 0.982162 0.338659
0.970535 0.982177 0.338323
0.97052 0.982177 0.338018
0.970504 0.982177 0.337743
0.970474 0.982177 0.33753
0.970474 0.982177 0.337377
0.970459 0.982177 0.33724
0.970459 0.982177 0.337163
0.970443 0.982177 0.337087
0.970443 0.982177 0.337041
0.970443 0.982177 0.337011
0.123491 0.953353 0.307866
0.12343 0.953368 0.307164
0.123369 0.953384 0.306172
0.123247 0.953399 0.304784
0.123095 0.953445 0.302708
0.122881 0.95349 0.299947
0.122683 0.953536 0.297322
0.122484 0.953582 0.294942
0.122057 0.953658 0.289616
0.122057 0.953658 0.289616
0.122057 0.953658 0.289616
0.120027 0.954009 0.263203
0.158999 0.955001 0.128649
0.401343 0.947448 0.176013
0.585092 0.942824 0.222889
0.717769 0.947555 0.258564
0.818158 0.955718 0.288548
0.88397 0.972595 0.286076
0.927749 0.980209 0.299535
0.960204 0.981918 0.322484
0.970916 0.982132 0.343313
0.971511 0.982071 0.35111
0.971527 0.982071 0.351141
0.971527 0.982071 0.351186
0.971527 0.982071 0.351247
0.971527 0.982071 0.351308
0.971542 0.982071 0.35137
0.971542 0.982071 0.351415
0.971542 0.982071 0.351446
0.971542 0.982071 0.351461
0.971542 0.982071 0.351492
0.971542 0.982071 0.351507
0.971542 0.982071 0.351507
0.123598 0.953338 0.309331
0.123552 0.953338 0.308705
0.123491 0.953353 0.307866
0.123384 0.953384 0.306416
0.123232 0.953414 0.304509
0.123018 0.95346 0.301701
0.122759 0.953521 0.298405
0.122591 0.953552 0.29633
0.122164 0.953643 0.290883
0.122057 0.953658 0.289616
0.122057 0.953658 0.289616
0.121843 0.953719 0.283986
0.123156 0.955566 0.149752
0.368948 0.948547 0.167254
0.544808 0.943496 0.213306
0.696239 0.946487 0.251804
0.801877 0.95375 0.283543
0.873838 0.969757 0.287144
0.919005 0.979492 0.294774
0.954086 0.981659 0.316854
0.970657 0.982162 0.339727
0.971389 0.982086 0.34934
0.971466 0.982086 0.350317
0.971466 0.982086 0.350317
0.971466 0.982086 0.350317
0.971466 0.982086 0.350317
0.971466 0.982086 0.350317
0.971466 0.982086 0.350317
0.971466 0.982086 0.350317
0.971466 0.982086 0.350317
0.971466 0.982086 0.350317
0.971466 0.982086 0.350317
0.971466 0.982086 0.350317
0.12369 0.953323 0.310445
0.123629 0.953338 0.309819
0.123583 0.953338 0.309026
0.123491 0.953353 0.307866
0.123339 0.953384 0.305913
0.123125 0.953429 0.303181
0.12285 0.953506 0.299519
0.122637 0.953552 0.296864
0.122271 0.953613 0.292119
0.122057 0.953658 0.289616
0.122057 0.953658 0.289616
0.122057 0.953658 0.289616
0.112062 0.955276 0.187671
0.337453 0.94963 0.15877
0.517159 0.944137 0.206622
0.67776 0.945693 0.246098
0.788022 0.952041 0.280034
0.864836 0.967041 0.288808
0.912566 0.978561 0.292119
0.949065 0.981414 0.312871
0.970459 0.982177 0.337301
0.971206 0.982101 0.347082
0.971466 0.982086 0.350317
0.971466 0.982086 0.350317
0.971466 0.982086 0.350317
0.971466 0.982086 0.350317
0.971466 0.982086 0.350317
0.971466 0.982086 0.350317
0.971466 0.982086 0.350317
0.971466 0.982086 0.350317
0.971466 0.982086 0.350317
0.971466 0.982086 0.350317
0.971466 0.982086 0.350317
0.123751 0.953307 0.311391
0.12372 0.953323 0.310811
0.123644 0.953323 0.309926
0.123568 0.953338 0.308812
0.12343 0.953368 0.307057
0.123217 0.953414 0.304402
0.122927 0.95349 0.300572
0.122667 0.953552 0.297139
0.122332 0.953613 0.293034
0.122057 0.953658 0.289616
0.122057 0.953658 0.289616
0.122057 0.953658 0.289616
0.114504 0.954803 0.211963
0.309789 0.95053 0.151415
0.49865 0.944564 0.201846
0.661036 0.945006 0.240986
0.777264 0.950957 0.277211
0.857053 0.964477 0.290761
0.906706 0.977539 0.29015
0.944762 0.981201 0.309545
0.968124 0.982116 0.33312
0.971054 0.982116 0.345037
0.971466 0.982086 0.350317
0.971466 0.982086 0.350317
0.971466 0.982086 0.350317
0.971466 0.982086 0.350317
0.971466 0.982086 0.350317
0.971466 0.982086 0.350317
0.971466 0.982086 0.350317
0.971466 0.982086 0.350317
0.971466 0.982086 0.350317
0.971466 0.982086 0.350317
0.971466 0.982086 0.350317
0.123827 0.953307 0.312154
0.123766 0.953307 0.311498
0.123705 0.953323 0.310674
0.123613 0.953338 0.309499
0.123491 0.953353 0.307912
0.123293 0.953399 0.305272
0.123003 0.95346 0.301488
0.122698 0.953536 0.297414
0.122393 0.953597 0.293721
0.122057 0.953658 0.289616
0.122057 0.953658 0.289616
0.122057 0.953658 0.289616
0.115801 0.954604 0.224537
0.290059 0.951263 0.146197
0.485954 0.94493 0.198581
0.647334 0.944533 0.237049
0.767651 0.95021 0.274449
0.85098 0.962432 0.292622
0.902419 0.976684 0.289128
0.941146 0.981033 0.306828
0.965255 0.98204 0.329213
0.970932 0.982132 0.343481
0.971466 0.982086 0.350317
0.971466 0.982086 0.350317
0.971466 0.982086 0.350317
0.971466 0.982086 0.350317
0.971466 0.982086 0.350317
0.971466 0.982086 0.350317
0.971466 0.982086 0.350317
0.971466 0.982086 0.350317
0.971466 0.982086 0.350317
0.971466 0.982086 0.350317
0.971466 0.982086 0.350317
0.123857 0.953292 0.312657
0.123812 0.953307 0.312078
0.123751 0.953307 0.311238
0.123659 0.953323 0.310079
0.123522 0.953353 0.308446
0.123339 0.953384 0.305913
0.123049 0.95346 0.302113
0.122713 0.953536 0.297673
0.122423 0.953597 0.29424
0.122057 0.953658 0.289616
0.122057 0.953658 0.289616
0.122057 0.953658 0.289616
0.116884 0.954437 0.23505
0.272297 0.951843 0.141405
0.476341 0.945205 0.196094
0.637888 0.944198 0.234226
0.759075 0.949722 0.271717
0.846876 0.960967 0.294057
0.898802 0.975937 0.288243
0.937835 0.98085 0.304952
0.963043 0.98201 0.326055
0.97084 0.982147 0.342229
0.971435 0.982086 0.349981
0.971466 0.982086 0.350317
0.971466 0.982086 0.350317
0.971466 0.982086 0.350317
0.971466 0.982086 0.350317
0.971466 0.982086 0.350317
0.971466 0.982086 0.350317
0.971466 0.982086 0.350317
0.971466 0.982086 0.350317
0.971466 0.982086 0.350317
0.971466 0.982086 0.350317
0.123888 0.953292 0.31313
0.123842 0.953307 0.312459
0.123781 0.953307 0.31165
0.12369 0.953323 0.310475
0.123568 0.953338 0.308888
0.123384 0.953384 0.306432
0.123095 0.953445 0.302708
0.122744 0.953536 0.298116
0.122469 0.953582 0.294682
0.122057 0.953658 0.289616
0.122057 0.953658 0.289616
0.122057 0.953658 0.289616
0.117632 0.95433 0.242329
0.257176 0.952392 0.137438
0.468833 0.945403 0.194156
0.629862 0.943954 0.231952
0.752758 0.94934 0.269627
0.843336 0.959716 0.295216
0.895994 0.975341 0.287709
0.935409 0.980713 0.303548
0.961212 0.981964 0.323491
0.970779 0.982147 0.34139
0.971374 0.982086 0.349157
0.971466 0.982086 0.350317
0.971466 0.982086 0.350317
0.971466 0.982086 0.350317
0.971466 0.982086 0.350317
0.971466 0.982086 0.350317
0.971466 0.982086 0.350317
0.971466 0.982086 0.350317
0.971466 0.982086 0.350317
0.971466 0.982086 0.350317
0.971466 0.982086 0.350317
0.123919 0.953292 0.313359
0.123873 0.953292 0.312795
0.123796 0.953307 0.311971
0.12372 0.953323 0.310811
0.123583 0.953338 0.309194
0.1234 0.953368 0.306798
0.12311 0.953445 0.303059
0.122759 0.953521 0.29839
0.122484 0.953582 0.294987
0.122057 0.953658 0.289616
0.122057 0.953658 0.289616
0.122057 0.953658 0.289616
0.118425 0.954238 0.247501
0.245594 0.952773 0.134371
0.46424 0.945541 0.193011
0.623697 0.943771 0.230137
0.748562 0.949157 0.268421
0.84065 0.95874 0.296071
0.893889 0.974914 0.287358
0.93341 0.980575 0.302358
0.959854 0.981918 0.321675
0.970718 0.982162 0.340703
0.971313 0.982086 0.348577
0.971466 0.982086 0.350317
0.971466 0.982086 0.350317
0.971466 0.982086 0.350317
0.971466 0.982086 0.350317
0.971466 0.982086 0.350317
0.971466 0.982086 0.350317
0.971466 0.982086 0.350317
0.971466 0.982086 0.350317
0.971466 0.982086 0.350317
0.971466 0.982086 0.350317
0.123934 0.953292 0.313619
0.123888 0.953292 0.313054
0.123827 0.953307 0.312184
0.123735 0.953323 0.311025
0.123598 0.953338 0.309392
0.12343 0.953368 0.307057
0.12314 0.953429 0.30338
0.122774 0.953521 0.298619
0.122515 0.953582 0.295186
