bundles/resolve-cinematic-luts/Phantom Luts/Komodo Phantom ARRI LUTs G2/Komodo Phantom ARRI LUTs G2/33x/Standard (No WB Offset)/Tungsten_Komodo_G2_33x.cube
TITLE "Generated by Resolve"
LUT_3D_SIZE 33
0.0190127 0.0193179 0.0258793
0.0190127 0.0192264 0.0256809
0.0190433 0.019028 0.0252537
0.0221408 0.0188296 0.0247501
0.0473487 0.0197299 0.0266423
0.0814832 0.0191653 0.0290837
0.123476 0.016968 0.0329442
0.171557 0.0142214 0.0388647
0.227375 0.0128634 0.0484627
0.292058 0.0152895 0.0635233
0.365118 0.0206149 0.0830091
0.444389 0.0253147 0.108766
0.527184 0.0288548 0.137942
0.596536 0.0292821 0.163668
0.651453 0.0336461 0.186709
0.689677 0.0456092 0.202884
0.704707 0.0513924 0.218128
0.707164 0.051957 0.225834
0.709255 0.0523842 0.232502
0.710964 0.0527352 0.23859
0.712444 0.0530709 0.243946
0.713405 0.0531777 0.247761
0.714305 0.0533761 0.251255
0.715068 0.0535439 0.254292
0.715618 0.053666 0.25655
0.715999 0.0537728 0.258045
0.716274 0.0538491 0.259068
0.716503 0.0539101 0.259998
0.716716 0.0539712 0.260761
0.717037 0.0541085 0.261646
0.717403 0.0542611 0.262562
0.718013 0.054551 0.26392
0.718624 0.0548867 0.265049
0.0190433 0.0190433 0.0252689
0.019028 0.0191348 0.0254826
0.0190433 0.019028 0.0252537
0.0198062 0.0187839 0.0245365
0.0410468 0.0197299 0.0260166
0.0762341 0.0192721 0.0282139
0.118517 0.016968 0.0312047
0.16791 0.0132143 0.0356298
0.222843 0.0106661 0.042359
0.28658 0.0108034 0.0545663
0.359823 0.0155947 0.0724346
0.439796 0.0203708 0.0973983
0.522362 0.0236515 0.12694
0.592218 0.0247349 0.154482
0.650431 0.0335699 0.180072
0.687358 0.0453193 0.195087
0.70312 0.0511482 0.212818
0.70576 0.0516976 0.22089
0.708034 0.0522011 0.228153
0.709789 0.0525826 0.233753
0.711192 0.0528572 0.23888
0.712367 0.0531167 0.243259
0.713161 0.0532998 0.24596
0.713726 0.0533303 0.248554
0.714229 0.0534066 0.250584
0.714656 0.0535286 0.252049
0.714961 0.0536049 0.253269
0.71519 0.053666 0.254185
0.715358 0.0536965 0.254826
0.715587 0.0537881 0.255512
0.715892 0.0539101 0.256245
0.716457 0.0541848 0.257435
0.717052 0.05449 0.258457
0.0193637 0.0204623 0.0258183
0.0193332 0.0206455 0.0262303
0.0192721 0.0198825 0.0258793
0.0191348 0.0191196 0.0252842
0.0290837 0.0209659 0.0259251
0.0632792 0.0217899 0.0277867
0.107378 0.0202335 0.0301976
0.159319 0.0166476 0.0352331
0.216754 0.0129549 0.0413062
0.280507 0.0111543 0.0502174
0.35172 0.0122988 0.0629587
0.431586 0.0144961 0.0818647
0.514885 0.0171359 0.110674
0.587777 0.0230869 0.141009
0.646815 0.0330816 0.168002
0.683543 0.0447852 0.183536
0.69955 0.0505837 0.201236
0.703151 0.0511482 0.212924
0.705653 0.0516823 0.220493
0.707637 0.0521401 0.22681
0.709133 0.0524605 0.231571
0.710292 0.0526894 0.235554
0.711177 0.0528725 0.238727
0.711864 0.0530251 0.241215
0.712413 0.0531472 0.24332
0.712795 0.053254 0.244602
0.713024 0.0532845 0.245441
0.713176 0.053315 0.245884
0.713283 0.0533303 0.246372
0.713481 0.0533913 0.246983
0.713741 0.0534981 0.247608
0.71426 0.0537575 0.248646
0.714839 0.0540475 0.249729
0.0234836 0.0396277 0.0316625
0.0234531 0.0398718 0.0320439
0.0233005 0.0384375 0.0303044
0.0240635 0.0357519 0.0295872
0.0319524 0.0321813 0.0289616
0.0564584 0.0340276 0.0318303
0.0954757 0.0310521 0.0312505
0.148013 0.024094 0.0336309
0.20705 0.019089 0.0395514
0.274083 0.0171359 0.0482795
0.348608 0.0184482 0.0614481
0.427573 0.0175326 0.0774395
0.506325 0.0157473 0.0945296
0.578759 0.0218509 0.117998
0.63856 0.031693 0.146349
0.676646 0.0438239 0.164508
0.692409 0.0495766 0.180926
0.697719 0.0504158 0.195727
0.701946 0.0509804 0.208804
0.70425 0.0513619 0.216327
0.706035 0.0517586 0.221729
0.707362 0.0520638 0.226108
0.708293 0.0522774 0.228794
0.709026 0.0524453 0.231159
0.709575 0.0525521 0.233036
0.709957 0.0526284 0.234302
0.710231 0.0526741 0.235325
0.710414 0.0527047 0.236011
0.710536 0.0527352 0.2365
0.710735 0.0527962 0.237018
0.710994 0.0529335 0.237446
0.711498 0.053193 0.238285
0.712001 0.0534829 0.239139
0.0276799 0.0691691 0.0372015
0.0276036 0.0694896 0.037583
0.0273899 0.0682689 0.0349889
0.0273594 0.066453 0.0346685
0.0352789 0.0614328 0.0343786
0.0636149 0.0603647 0.0355993
0.0996414 0.061265 0.0394903
0.150362 0.0547341 0.0388952
0.206668 0.0420844 0.0365454
0.26807 0.0284428 0.0445411
0.342321 0.025742 0.0590829
0.423194 0.0241093 0.0757153
0.503777 0.019791 0.0932326
0.57438 0.0212863 0.112154
0.630365 0.0302739 0.13019
0.66714 0.0417487 0.146136
0.680217 0.046891 0.155581
0.685695 0.0482032 0.16556
0.692027 0.0495155 0.179934
0.696666 0.0502785 0.192569
0.700267 0.0507362 0.20322
0.702205 0.0509957 0.209918
0.703456 0.051194 0.213993
0.704356 0.0513924 0.216663
0.705013 0.051545 0.218585
0.705531 0.0516518 0.220188
0.705852 0.0517281 0.22118
0.706111 0.0517739 0.222019
0.706279 0.0518044 0.222568
0.706462 0.0518807 0.223011
0.706706 0.0520027 0.223346
0.707149 0.0522469 0.22388
0.707546 0.052491 0.224186
0.0293584 0.103441 0.0408789
0.029221 0.103807 0.0412757
0.0292973 0.103075 0.0375982
0.0293431 0.101518 0.0368353
0.0356298 0.0981155 0.0373083
0.0560769 0.0943923 0.0374456
0.104494 0.0935836 0.0403601
0.154376 0.0944839 0.0458534
0.216648 0.0843061 0.0488899
0.280751 0.0694743 0.0479591
0.348074 0.048188 0.0520333
0.418433 0.0340581 0.0717327
0.499352 0.0274357 0.0899977
0.569894 0.0214694 0.10869
0.628779 0.0301061 0.128008
0.66746 0.0421149 0.144656
0.679438 0.0474556 0.149569
0.67744 0.04654 0.148547
0.677424 0.0462959 0.150011
0.680919 0.0471656 0.156191
0.684367 0.0478828 0.16286
0.6878 0.0486915 0.16994
0.69073 0.0492714 0.17673
0.693065 0.0496681 0.18265
0.694377 0.0499275 0.186114
0.695521 0.0501106 0.189288
0.696284 0.050248 0.191287
0.696788 0.0503243 0.192782
0.697078 0.0503548 0.193668
0.697292 0.0504158 0.194141
0.697353 0.0505074 0.194034
0.69752 0.0507057 0.193805
0.697444 0.0508888 0.192874
0.0275273 0.144762 0.0426337
0.0272374 0.145388 0.0430152
0.0275883 0.144488 0.038407
0.0278935 0.142916 0.0358587
0.0292821 0.140475 0.0358434
0.0486305 0.136584 0.0366064
0.0893263 0.136477 0.0352483
0.161074 0.134447 0.0426337
0.222614 0.136629 0.052079
0.297597 0.125322 0.0615702
0.372457 0.106142 0.0667887
0.440711 0.0791485 0.0695201
0.506386 0.0471199 0.082475
0.568704 0.0305486 0.102907
0.625223 0.0295109 0.122957
0.66746 0.0425116 0.142443
0.686091 0.0506447 0.15288
0.684489 0.049836 0.152117
0.682933 0.0490578 0.151293
0.681682 0.0485389 0.150805
0.6804 0.0479133 0.150179
0.679622 0.0474861 0.14992
0.679271 0.0472572 0.150149
0.679103 0.0471351 0.150454
0.679088 0.0470436 0.150927
0.679194 0.047013 0.151446
0.679316 0.0470283 0.151827
0.679393 0.0470283 0.152071
0.679408 0.047013 0.152209
0.679301 0.0469978 0.152056
0.679149 0.0469673 0.151858
0.678859 0.0469673 0.151263
0.678325 0.0469215 0.150164
0.0231174 0.189014 0.0422065
0.0227817 0.1897 0.0429541
0.0229038 0.188739 0.037171
0.0231785 0.18703 0.0315099
0.0235294 0.18529 0.0315557
0.0347295 0.183368 0.0319829
0.0688487 0.181247 0.0334478
0.137118 0.183124 0.0296788
0.226596 0.181521 0.0434272
0.300832 0.187274 0.0597238
0.390707 0.175814 0.0798962
0.474968 0.157122 0.0908522
0.54934 0.131167 0.0954299
0.602319 0.0838941 0.0940108
0.630518 0.040589 0.110323
0.664775 0.0424659 0.134249
0.691218 0.0538186 0.153185
0.691432 0.0537423 0.154147
0.690333 0.0530556 0.154238
0.689387 0.0524605 0.154253
0.688487 0.0519265 0.154101
0.687755 0.0515145 0.153933
0.687205 0.0512245 0.153796
0.686763 0.0509651 0.153628
0.686397 0.050782 0.153506
0.686122 0.0506142 0.153368
0.685939 0.0505226 0.153323
0.685802 0.0504463 0.153277
0.685786 0.0504463 0.153262
0.685847 0.0504768 0.153307
0.686015 0.0505684 0.153414
0.686473 0.0507973 0.153796
0.687205 0.0511482 0.154421
0.0156863 0.237095 0.0417487
0.0153811 0.237842 0.0426795
0.0153964 0.237034 0.0351568
0.0155184 0.235523 0.0264134
0.0157321 0.234485 0.0240482
0.0176852 0.232593 0.024155
0.0475624 0.232441 0.0252995
0.0986038 0.232715 0.0256809
0.197803 0.234043 0.0232395
0.302556 0.236728 0.0444648
0.390051 0.247578 0.0706035
0.488991 0.24062 0.102007
0.582437 0.223133 0.123583
0.658686 0.198779 0.132189
0.707454 0.160311 0.131838
0.696147 0.0866255 0.120897
0.692805 0.0587472 0.135576
0.696712 0.0579232 0.149981
0.696254 0.0573892 0.151034
0.695781 0.0569467 0.151904
0.695338 0.0565652 0.15259
0.694881 0.056199 0.152941
0.694469 0.0558785 0.15314
0.694133 0.0556344 0.153384
0.693858 0.0554055 0.15349
0.693614 0.0552377 0.153567
0.693446 0.0551308 0.153613
0.693416 0.0551156 0.153628
0.693385 0.0551003 0.153628
0.693462 0.0551308 0.153643
0.693629 0.0552377 0.153628
0.694057 0.0555123 0.15378
0.694789 0.0559548 0.15404
0.00613413 0.289189 0.0408484
0.00569161 0.290074 0.0417945
0.00561532 0.289784 0.0348669
0.00569161 0.288609 0.0229648
0.00573739 0.286839 0.0141146
0.00604257 0.285069 0.0141604
0.0187533 0.284581 0.0144045
0.0631266 0.285023 0.0160525
0.141848 0.289784 0.0143435
0.268772 0.292622 0.0194095
0.390692 0.30132 0.0490425
0.481437 0.320317 0.085069
0.58645 0.320699 0.128374
0.682841 0.311269 0.151247
0.7617 0.283665 0.176547
0.801495 0.25182 0.177951
0.790997 0.195483 0.166003
0.741344 0.114794 0.142443
0.703487 0.0691691 0.124056
0.70074 0.065095 0.130755
0.700359 0.0623026 0.141329
0.699947 0.061738 0.142626
0.699702 0.0613565 0.14345
0.699489 0.0610666 0.144091
0.699321 0.0608682 0.144442
0.699214 0.0607614 0.144656
0.699123 0.0606546 0.144884
0.699077 0.0605936 0.145006
0.699092 0.0605936 0.145022
0.699138 0.0606699 0.144869
0.699275 0.0608225 0.144564
0.699687 0.0611887 0.144244
0.700267 0.0616922 0.143847
0 0.34519 0.0389105
0 0.346532 0.0399023
0 0.346151 0.0336919
0 0.345052 0.0227207
0 0.343084 0.0083772
0 0.341451 0.00332647
0 0.33962 0.0033875
0.0286259 0.342153 0.00402838
0.0886244 0.342748 0.00682078
0.196429 0.351583 0.00561532
0.352193 0.35877 0.0212711
0.48333 0.374319 0.057908
0.575387 0.401968 0.0948501
0.673121 0.411032 0.146288
0.766171 0.411627 0.179248
0.839963 0.396811 0.198322
0.878782 0.368566 0.21883
0.874937 0.320912 0.219776
0.855436 0.286564 0.206088
0.834165 0.251377 0.192004
0.811902 0.216083 0.17882
0.790311 0.183429 0.16672
0.774716 0.161883 0.157458
0.763973 0.148455 0.150347
0.757168 0.139132 0.147265
0.751873 0.131685 0.145754
0.749737 0.125948 0.148791
0.748058 0.123262 0.148791
0.747631 0.122637 0.148821
0.748913 0.124346 0.149172
0.753323 0.130282 0.150668
0.757977 0.138888 0.149508
0.766369 0.150423 0.152728
0 0.404181 0.0386053
0 0.405234 0.0397803
0 0.405188 0.0341039
0 0.404685 0.0239719
0 0.403769 0.00914015
0 0.402701 0
0 0.401877 0
0 0.400214 0
0.0459144 0.401923 0
0.130922 0.403479 0
0.272694 0.416312 0.00300603
0.44239 0.43035 0.0285954
0.576181 0.451209 0.0731823
0.664012 0.480735 0.0945144
0.745739 0.499428 0.159533
0.824582 0.505653 0.190814
0.881666 0.506798 0.208927
0.911833 0.495277 0.225162
0.912795 0.47071 0.228031
0.910109 0.445975 0.227756
0.905989 0.422583 0.226902
0.902327 0.403998 0.227008
0.898497 0.389578 0.226246
0.895369 0.378561 0.225528
0.892363 0.369406 0.224506
0.89015 0.362936 0.223682
0.888762 0.358633 0.223377
0.887968 0.356542 0.223087
0.888792 0.358083 0.223682
0.889845 0.360952 0.224186
0.89247 0.367056 0.225788
0.896605 0.37734 0.228382
0.901961 0.39173 0.231571
0 0.469047 0.0479438
0 0.470146 0.0494392
0 0.470481 0.0438849
0 0.470619 0.0348974
0 0.471351 0.0213931
0 0.472236 0.00387579
0 0.472694 0
0 0.470726 0
0.0118715 0.467826 0
0.0860304 0.464637 0
0.200565 0.469596 0
0.37261 0.484947 0.0104372
0.532708 0.504616 0.044358
0.657633 0.526055 0.0988327
0.742809 0.553796 0.117266
0.805951 0.581399 0.160006
0.857572 0.599893 0.191196
0.887022 0.607691 0.201663
0.89308 0.595743 0.206607
0.896529 0.583093 0.209262
0.899657 0.57174 0.21181
0.901625 0.562631 0.213428
0.903639 0.555291 0.215106
0.905241 0.548913 0.216541
0.90634 0.543709 0.217548
0.907118 0.540475 0.218204
0.907485 0.538323 0.218418
0.907454 0.538354 0.218326
0.907317 0.539284 0.218143
0.906874 0.541726 0.217639
0.90602 0.546029 0.216693
0.904738 0.553201 0.215488
0.902617 0.562676 0.213718
0 0.537438 0.0707256
0 0.538476 0.072694
0 0.538872 0.06598
0 0.539422 0.0570993
0 0.540078 0.0440375
0.00062562 0.541146 0.0278477
0.00906386 0.542687 0.00920119
0.0105592 0.541573 0.00657664
0.00962844 0.539635 0.00605783
0.0611887 0.535821 0
0.152041 0.530678 0
0.299443 0.53817 0.00604257
0.477134 0.556344 0.0363622
0.613748 0.579187 0.0739757
0.73077 0.601953 0.133944
0.812848 0.629145 0.160662
0.860212 0.654551 0.18529
0.884993 0.672679 0.196811
0.887648 0.670039 0.19852
0.886625 0.664347 0.198047
0.886 0.659724 0.197742
0.885237 0.655375 0.197269
0.884886 0.652003 0.197177
0.884382 0.649012 0.196841
0.884184 0.646708 0.196689
0.884184 0.645624 0.196689
0.884153 0.645472 0.196643
0.884123 0.645533 0.196567
0.883986 0.646189 0.196353
0.884001 0.647852 0.196277
0.884306 0.650721 0.196353
0.884764 0.655146 0.196445
0.886122 0.660105 0.19762
0.0158236 0.601175 0.0956283
0.0156558 0.601877 0.0972457
0.0168765 0.602777 0.0921798
0.0191196 0.603326 0.0838941
0.0224002 0.604105 0.0721447
0.0267796 0.604944 0.056733
0.0357519 0.606348 0.0385138
0.0474861 0.607889 0.0287175
0.0465858 0.606348 0.0280919
0.0549172 0.603418 0.0222629
0.137819 0.598642 0.00758373
0.249058 0.595438 0.0136416
0.413672 0.608347 0.0318303
0.575906 0.630793 0.0776074
0.692622 0.656306 0.119417
0.801282 0.681788 0.181048
0.873472 0.706508 0.217044
0.908843 0.72752 0.233585
0.917983 0.729168 0.238163
0.915038 0.723873 0.233692
0.912703 0.71957 0.230228
0.910552 0.71574 0.227207
0.909209 0.71342 0.225391
0.9084 0.711849 0.224216
0.907607 0.710521 0.223148
0.907286 0.709972 0.222721
0.907149 0.709728 0.222522
0.907378 0.71014 0.222812
0.907958 0.711162 0.22356
0.908812 0.712749 0.224704
0.910384 0.715557 0.226886
0.912886 0.719799 0.230594
0.915633 0.724834 0.234852
0.0449683 0.658259 0.123049
0.0452277 0.659327 0.12491
0.0473182 0.659892 0.119951
0.0501106 0.660471 0.113207
0.0536202 0.660975 0.103593
0.0586557 0.661448 0.0907454
0.071107 0.663005 0.0724193
0.0930037 0.666575 0.0590219
0.0961776 0.666377 0.0560464
0.0941939 0.66424 0.0547494
0.137758 0.66041 0.0341344
0.234028 0.656748 0.0263066
0.373068 0.660578 0.0396887
0.531563 0.680766 0.0770123
0.67538 0.70692 0.136019
0.775235 0.736477 0.182483
0.86424 0.763043 0.238804
0.919264 0.782788 0.272404
0.945754 0.788144 0.291646
0.944793 0.782742 0.287236
0.943542 0.780056 0.284596
0.942428 0.777523 0.282307
0.941543 0.775448 0.280415
0.941054 0.774563 0.279545
0.940673 0.773739 0.278798
0.940627 0.773587 0.278676
0.940658 0.773754 0.278798
0.940963 0.774472 0.279438
0.941695 0.77583 0.280766
0.94255 0.777874 0.282628
0.943633 0.780392 0.28484
0.945098 0.783627 0.287892
0.947051 0.787915 0.291905
0.0787976 0.706996 0.148333
0.0787976 0.707729 0.150103
0.0810101 0.70837 0.14641
0.0840925 0.708949 0.141054
0.088426 0.709331 0.132937
0.0965286 0.709865 0.118639
0.111498 0.711986 0.10544
0.131685 0.717037 0.0965591
0.143954 0.721706 0.0934768
0.142962 0.719875 0.0916762
0.148974 0.717998 0.0864118
0.241062 0.714763 0.0599832
0.360739 0.712993 0.0585489
0.517159 0.727596 0.0869154
0.664073 0.75378 0.145556
0.78265 0.78529 0.206729
0.855299 0.809461 0.25095
0.910292 0.823392 0.291203
0.945785 0.830793 0.316609
0.954986 0.829908 0.322255
0.954742 0.827848 0.320836
0.954604 0.826459 0.319905
0.95465 0.825833 0.319554
0.954635 0.825177 0.319112
0.954513 0.824826 0.318761
0.954513 0.824826 0.318776
0.95465 0.825162 0.319112
0.954696 0.825757 0.31957
0.954711 0.82681 0.320256
0.954879 0.828122 0.321187
0.955108 0.829938 0.322454
0.955535 0.832456 0.324331
0.955535 0.835431 0.326253
0.0963455 0.744564 0.186175
0.0962234 0.745159 0.187716
0.0964218 0.745495 0.187594
0.0967117 0.745739 0.187076
0.0970474 0.745663 0.185962
0.097261 0.745586 0.185168
0.0976272 0.745388 0.183612
0.098146 0.745068 0.181353
0.0995956 0.744701 0.17763
0.101137 0.744488 0.174594
0.10428 0.743908 0.167865
0.173739 0.746197 0.111177
0.321843 0.753948 0.0956893
0.471717 0.761257 0.111498
0.626352 0.782055 0.161044
0.764294 0.809155 0.228656
0.845182 0.833539 0.269062
0.898924 0.849775 0.303914
0.93991 0.860594 0.340032
0.958007 0.863691 0.350591
0.957656 0.862074 0.34847
0.957671 0.861769 0.348135
0.95761 0.861433 0.347692
0.957534 0.861189 0.347402
0.957549 0.861143 0.347372
0.957595 0.861265 0.347524
0.957732 0.861677 0.348074
0.957748 0.861982 0.348455
0.957763 0.862516 0.349035
0.9579 0.863386 0.349889
0.958068 0.864576 0.351156
0.958297 0.866239 0.352972
0.958541 0.868482 0.355383
0.085771 0.754772 0.260746
0.0857862 0.754894 0.261189
0.085832 0.754986 0.261128
0.0859083 0.755016 0.260731
0.0860456 0.754986 0.2598
0.0862135 0.754864 0.25832
0.0864424 0.75465 0.256214
0.0865339 0.754467 0.25478
0.0868391 0.754055 0.251453
0.087068 0.75378 0.24921
0.087068 0.753765 0.24918
0.0882124 0.752453 0.238819
0.137255 0.742687 0.127138
0.339162 0.76022 0.103044
0.532006 0.77673 0.137057
0.692638 0.801495 0.201175
0.816419 0.831785 0.268376
0.882567 0.854749 0.303838
0.931136 0.868894 0.340551
0.958129 0.876982 0.369818
0.960357 0.877607 0.372839
0.960235 0.877409 0.371756
0.960235 0.877333 0.371572
0.96022 0.877287 0.37145
0.960235 0.877272 0.371405
0.960266 0.877287 0.371572
0.960266 0.877302 0.371695
0.960296 0.877333 0.371923
0.960357 0.877379 0.372244
0.960418 0.87744 0.372702
0.96051 0.877531 0.373342
0.960616 0.877638 0.374151
0.960632 0.877653 0.374228
0.0856489 0.75494 0.262242
0.0856489 0.755047 0.262562
0.0856947 0.755154 0.262715
0.0857862 0.755199 0.262287
0.0858778 0.755169 0.261509
0.0860304 0.755032 0.260029
0.0862745 0.754818 0.257832
0.0865339 0.754528 0.255222
0.0866865 0.754238 0.25304
0.087068 0.753796 0.249256
0.087068 0.75378 0.24921
0.0872206 0.753582 0.247715
0.10367 0.744793 0.172732
0.259678 0.75462 0.100145
0.43035 0.76672 0.114794
0.624262 0.789776 0.169848
0.769985 0.818753 0.242344
0.861891 0.847822 0.290761
0.916793 0.865232 0.329213
0.953323 0.875425 0.361456
0.960159 0.877791 0.372442
0.960479 0.878111 0.37467
0.960479 0.878096 0.37467
0.960479 0.878096 0.37467
0.960494 0.87808 0.374655
0.960494 0.87808 0.37464
0.960494 0.878065 0.374624
0.960494 0.878065 0.374624
0.960479 0.87805 0.374578
0.960479 0.87805 0.374563
0.960479 0.87805 0.374563
0.960479 0.878065 0.374563
0.960479 0.878065 0.374578
0.0855726 0.755367 0.264302
0.0855726 0.755383 0.264347
0.0855879 0.755398 0.264256
0.0856489 0.755367 0.263722
0.0857404 0.755322 0.262928
0.085893 0.755199 0.261494
0.0860914 0.754986 0.259403
0.0864424 0.75465 0.25626
0.0866102 0.754376 0.254078
0.0870375 0.753841 0.249607
0.087068 0.75378 0.24921
0.087068 0.75378 0.24921
0.0952468 0.747326 0.197406
0.226612 0.751949 0.102388
0.395407 0.764065 0.109483
0.593301 0.78497 0.157351
0.748974 0.813458 0.230457
0.849653 0.843473 0.284047
0.90753 0.862547 0.321935
0.946746 0.873549 0.354849
0.959915 0.877592 0.370947
0.960464 0.878111 0.374609
0.960464 0.878111 0.374609
0.960464 0.878111 0.374609
0.960464 0.878111 0.374609
0.960464 0.878111 0.374609
0.960464 0.878111 0.374609
0.960464 0.878111 0.374609
0.960464 0.878111 0.374609
0.960464 0.878111 0.374609
0.960464 0.87808 0.374594
0.960479 0.878035 0.374548
0.96051 0.877958 0.374472
0.085481 0.755337 0.264805
0.085481 0.755322 0.264759
0.0854963 0.755322 0.264683
0.0855421 0.755306 0.264271
0.0856336 0.755261 0.263508
0.085771 0.755154 0.262165
0.0859693 0.754955 0.260105
0.0863203 0.75462 0.256901
0.0865492 0.754299 0.254215
0.0869764 0.753735 0.249622
0.0870375 0.753628 0.248875
0.0870375 0.753628 0.248875
0.0913863 0.749218 0.214038
0.199176 0.749477 0.107836
0.373907 0.762524 0.10663
0.569039 0.781415 0.148638
0.732662 0.809476 0.221698
0.839323 0.839612 0.278645
0.899535 0.859922 0.315724
0.941497 0.871733 0.349416
0.959655 0.87715 0.369467
0.960494 0.877852 0.374105
0.960525 0.877882 0.37438
0.960525 0.877882 0.37438
0.960525 0.877882 0.37438
0.960525 0.877882 0.37438
0.960525 0.877882 0.37438
0.960525 0.877913 0.374411
0.96051 0.877958 0.374472
0.960479 0.878035 0.374548
0.960479 0.878065 0.374563
0.960479 0.878035 0.374548
0.96051 0.877958 0.374472
0.0854353 0.755413 0.265461
0.08542 0.755383 0.265446
0.0854353 0.755398 0.265339
0.085481 0.755383 0.264927
0.0855573 0.755352 0.264286
0.0856947 0.755245 0.26305
0.0858778 0.755047 0.261021
0.0862135 0.754711 0.257786
0.0865034 0.75433 0.254612
0.0869306 0.753811 0.250187
0.0870375 0.753628 0.248875
0.0870375 0.753628 0.248875
0.0899977 0.750423 0.223239
0.180606 0.747646 0.112413
0.360555 0.761593 0.104982
0.550103 0.779171 0.142672
0.719722 0.806714 0.214939
0.831006 0.836591 0.274876
0.893996 0.858274 0.311681
0.93727 0.870558 0.345678
0.958953 0.876875 0.368063
0.960357 0.877729 0.373266
0.960525 0.877882 0.37438
0.960525 0.877882 0.37438
0.960525 0.877882 0.37438
0.960525 0.877882 0.37438
0.960525 0.877882 0.37438
0.960525 0.877913 0.374411
0.96051 0.877958 0.374472
0.960494 0.878035 0.374533
0.960479 0.878065 0.374563
0.960479 0.87805 0.374563
0.960494 0.878019 0.374517
0.0853742 0.755505 0.266178
0.0853742 0.755474 0.266133
0.0853895 0.755459 0.265919
0.0854505 0.755428 0.2654
0.0855116 0.755413 0.264851
0.0856336 0.755306 0.2636
0.0858473 0.755108 0.261555
0.0861524 0.754757 0.258335
0.0865034 0.754376 0.25478
0.0868696 0.753857 0.250645
0.0870375 0.753628 0.248875
0.0870375 0.753628 0.248875
0.0890059 0.751263 0.230015
0.172259 0.747021 0.11548
0.35198 0.761151 0.104311
0.538796 0.777768 0.138903
0.709102 0.804608 0.209491
0.82562 0.834928 0.27277
0.889693 0.857023 0.308736
0.934401 0.869825 0.343236
0.958541 0.876707 0.367193
0.960296 0.877638 0.372625
0.960525 0.877882 0.37438
0.960525 0.877882 0.37438
0.960525 0.877882 0.37438
0.960525 0.877882 0.37438
0.960525 0.877882 0.37438
0.960525 0.877913 0.374411
0.96051 0.877958 0.374472
0.960479 0.878035 0.374548
0.960464 0.87808 0.374594
0.960464 0.878111 0.374609
0.960464 0.87808 0.374594
0.0853437 0.755627 0.26685
0.0853437 0.755566 0.266712
0.085359 0.75552 0.266438
0.0854047 0.755474 0.265858
0.085481 0.755444 0.265141
0.0856031 0.755337 0.263996
0.0858167 0.755154 0.261906
0.0861067 0.754803 0.258747
0.0864881 0.754391 0.254917
0.0868544 0.753887 0.250889
0.0870375 0.753628 0.248875
0.0870375 0.753628 0.248875
0.0889143 0.751461 0.23151
0.167254 0.74699 0.119005
0.347372 0.760815 0.103929
0.53196 0.776883 0.13695
0.702586 0.803449 0.206241
0.822766 0.833921 0.271717
0.887526 0.856382 0.307332
0.932128 0.869337 0.341558
0.958282 0.876753 0.366842
0.960189 0.877684 0.372274
0.96051 0.877958 0.374472
0.96051 0.877928 0.374441
0.960525 0.877913 0.374411
0.960525 0.877897 0.374395
0.960525 0.877882 0.37438
0.960525 0.877913 0.374411
0.96051 0.877958 0.374472
0.960479 0.878035 0.374548
0.960464 0.87808 0.374594
0.960464 0.878111 0.374609
0.960464 0.878111 0.374609
0.0853437 0.755718 0.267262
0.0853437 0.755673 0.267185
0.0853437 0.755611 0.266865
0.0853895 0.755535 0.266209
0.0854658 0.755474 0.265354
0.0855726 0.755367 0.264256
0.0857862 0.755169 0.262181
0.0860761 0.754833 0.258976
0.0864881 0.754406 0.254978
0.0868391 0.753902 0.25095
0.0870375 0.753628 0.248875
0.0870375 0.753628 0.248875
0.0889601 0.751461 0.231464
0.166064 0.746975 0.119799
0.346838 0.760769 0.103868
0.52932 0.776471 0.135882
0.701076 0.803296 0.2056
0.820981 0.833173 0.270909
0.886076 0.855909 0.306386
0.930831 0.868971 0.340505
0.957382 0.876539 0.365957
0.960113 0.87776 0.372076
0.960464 0.878111 0.374609
0.960464 0.878096 0.374609
0.960464 0.878096 0.374609
0.960464 0.878096 0.374594
0.960464 0.878096 0.374594
0.960464 0.878111 0.374609
0.960449 0.878157 0.374655
0.960433 0.878218 0.374716
0.960418 0.878264 0.374762
0.960418 0.878279 0.374777
0.960418 0.878279 0.374777
0.0853742 0.755901 0.267811
0.085359 0.755917 0.268025
0.0853742 0.755825 0.267491
0.0853895 0.755688 0.266819
0.0854658 0.75555 0.265736
0.0855573 0.755413 0.264485
0.085771 0.755184 0.262348
0.0860761 0.754833 0.259068
0.0865034 0.754391 0.254963
0.0868544 0.753887 0.250904
0.0870375 0.753628 0.248875
0.0870375 0.753628 0.248875
0.0890364 0.751369 0.230793
0.167926 0.746914 0.118059
0.349355 0.760937 0.104112
0.531685 0.776654 0.136507
0.701579 0.803403 0.205783
0.820188 0.833082 0.270085
0.886015 0.855894 0.30631
0.930343 0.868833 0.340108
0.957122 0.876463 0.365606
0.960098 0.877745 0.371954
0.960464 0.878111 0.374609
0.960464 0.878111 0.374609
