bundles/resolve-cinematic-luts/Phantom Luts/Komodo Phantom ARRI LUTs G2/Komodo Phantom ARRI LUTs G2/33x/Standard (No WB Offset)/Tungsten_Komodo_G2_33x.cube
TITLE "Generated by Resolve"
LUT_3D_SIZE 5
0.0190127 0.0193179 0.0258793
0.227375 0.0128634 0.0484627
0.704707 0.0513924 0.218128
0.715618 0.053666 0.25655
0.718624 0.0548867 0.265049
0.0156863 0.237095 0.0417487
0.197803 0.234043 0.0232395
0.692805 0.0587472 0.135576
0.693858 0.0554055 0.15349
0.694789 0.0559548 0.15404
0.0787976 0.706996 0.148333
0.143954 0.721706 0.0934768
0.855299 0.809461 0.25095
0.954513 0.824826 0.318761
0.955535 0.835431 0.326253
0.0853437 0.755627 0.26685
0.0864881 0.754391 0.254917
0.702586 0.803449 0.206241
0.960525 0.877913 0.374411
0.960464 0.878111 0.374609
0.0853132 0.756039 0.268879
0.0866407 0.753918 0.252277
0.779309 0.820539 0.247044
0.960616 0.877623 0.37406
0.960418 0.878264 0.374762
0 0.0426337 0.217685
0.233005 0.0315404 0.24181
0.746273 0.0800336 0.369497
0.753292 0.0889601 0.384955
0.756909 0.0932021 0.393393
0.0239109 0.205173 0.204532
0.159503 0.211154 0.217716
0.709422 0.0529946 0.228214
0.718685 0.0547799 0.266758
0.719829 0.0551461 0.271412
0.0425727 0.701747 0.298161
0.0534371 0.699336 0.201099
0.847318 0.801572 0.243427
0.953658 0.816114 0.312978
0.95462 0.826719 0.320058
0.0853895 0.763943 0.330785
0.0851148 0.756329 0.272038
0.664988 0.796597 0.187976
0.960525 0.877882 0.37438
0.960464 0.878111 0.374609
0.0892805 0.770687 0.379751
0.085008 0.756283 0.272648
0.735103 0.809934 0.222339
0.960616 0.877623 0.37406
0.960403 0.878294 0.374792
0 0.0734112 0.583444
0.197864 0.0633402 0.664958
0.731838 0.115145 0.712383
0.729305 0.116625 0.719753
0.728542 0.118212 0.724819
0 0.216571 0.631266
0 0.0750134 0.578805
0.729686 0.111147 0.70132
0.733257 0.113649 0.706218
0.732021 0.115312 0.712612
0.0957656 0.710918 0.685084
0.0966201 0.711803 0.686473
0.737789 0.741817 0.725856
0.958373 0.733516 0.732967
0.958175 0.749355 0.748302
0.147417 0.820172 0.674723
0.14519 0.819135 0.669505
0.105486 0.7682 0.33727
0.960204 0.877485 0.371847
0.96025 0.877699 0.372595
0.171649 0.832776 0.726513
0.162951 0.828336 0.708705
0.151904 0.77525 0.378973
0.959854 0.877165 0.369726
0.960159 0.878019 0.373007
0.082536 0.0565652 0.635843
0.22771 0.0692454 0.700633
0.723156 0.123156 0.742641
0.723156 0.123079 0.742473
0.723171 0.123445 0.743343
0 0.179431 0.645808
0.0702525 0.0565194 0.630213
0.722698 0.123232 0.74313
0.723095 0.122744 0.74168
0.723156 0.123339 0.743114
0.131502 0.686412 0.794995
0.131395 0.685328 0.795636
0.659831 0.655894 0.980423
0.914107 0.578012 0.91957
0.916991 0.605829 0.924071
0.237171 0.86276 0.857267
0.237705 0.863218 0.858198
0.245686 0.872236 0.863523
0.982284 0.98088 0.980026
0.991547 0.982681 0.980789
0.237446 0.862989 0.85774
0.237705 0.863218 0.858198
0.249668 0.876066 0.863157
0.976013 0.991562 0.978668
1 0.996872 0.98085
0.0918288 0.0567636 0.640284
0.234134 0.069276 0.702541
0.723156 0.12314 0.742626
0.723156 0.123079 0.742473
0.723171 0.123476 0.743435
0 0.169894 0.640528
0.0813764 0.056611 0.635386
0.723156 0.123323 0.743069
0.723095 0.122744 0.74168
0.723156 0.123339 0.743114
0.131136 0.68545 0.794965
0.131304 0.684947 0.795697
0.664958 0.65388 0.980667
0.914076 0.577951 0.920043
0.91696 0.604471 0.924041
0.237278 0.862837 0.85745
0.237705 0.863218 0.858198
0.246067 0.872511 0.865354
0.972839 0.973434 0.98471
0.988128 0.976333 0.98677
0.237308 0.862867 0.857496
0.237705 0.863218 0.858198
0.248539 0.875227 0.86746
0.937255 0.986282 0.985443
0.999786 0.998764 0.997986
