bundles/resolve-cinematic-luts/Phantom Luts/Komodo Phantom ARRI LUTs G2/Komodo Phantom ARRI LUTs G2/33x/Standard (No WB Offset)/Tungsten_Komodo_G2_33x.cube
TITLE "Generated by Resolve"
LUT_3D_SIZE 9
0.0190127 0.0193179 0.0258793
0.0473487 0.0197299 0.0266423
0.227375 0.0128634 0.0484627
0.527184 0.0288548 0.137942
0.704707 0.0513924 0.218128
0.712444 0.0530709 0.243946
0.715618 0.053666 0.25655
0.716716 0.0539712 0.260761
0.718624 0.0548867 0.265049
0.0276799 0.0691691 0.0372015
0.0352789 0.0614328 0.0343786
0.206668 0.0420844 0.0365454
0.503777 0.019791 0.0932326
0.680217 0.046891 0.155581
0.700267 0.0507362 0.20322
0.705013 0.051545 0.218585
0.706279 0.0518044 0.222568
0.707546 0.052491 0.224186
0.0156863 0.237095 0.0417487
0.0157321 0.234485 0.0240482
0.197803 0.234043 0.0232395
0.582437 0.223133 0.123583
0.692805 0.0587472 0.135576
0.695338 0.0565652 0.15259
0.693858 0.0554055 0.15349
0.693385 0.0551003 0.153628
0.694789 0.0559548 0.15404
0 0.469047 0.0479438
0 0.471351 0.0213931
0.0118715 0.467826 0
0.532708 0.504616 0.044358
0.857572 0.599893 0.191196
0.899657 0.57174 0.21181
0.90634 0.543709 0.217548
0.907317 0.539284 0.218143
0.902617 0.562676 0.213718
0.0787976 0.706996 0.148333
0.088426 0.709331 0.132937
0.143954 0.721706 0.0934768
0.360739 0.712993 0.0585489
0.855299 0.809461 0.25095
0.954742 0.827848 0.320836
0.954513 0.824826 0.318761
0.954711 0.82681 0.320256
0.955535 0.835431 0.326253
0.0855726 0.755367 0.264302
0.0857404 0.755322 0.262928
0.0866102 0.754376 0.254078
0.0952468 0.747326 0.197406
0.748974 0.813458 0.230457
0.959915 0.877592 0.370947
0.960464 0.878111 0.374609
0.960464 0.878111 0.374609
0.96051 0.877958 0.374472
0.0853437 0.755627 0.26685
0.085481 0.755444 0.265141
0.0864881 0.754391 0.254917
0.0889143 0.751461 0.23151
0.702586 0.803449 0.206241
0.958282 0.876753 0.366842
0.960525 0.877913 0.374411
0.96051 0.877958 0.374472
0.960464 0.878111 0.374609
0.0853437 0.755856 0.267948
0.08542 0.755322 0.265217
0.0864576 0.753964 0.253697
0.0895705 0.7505 0.225727
0.710628 0.804593 0.209262
0.956603 0.875822 0.364553
0.960616 0.877623 0.37406
0.960586 0.877714 0.374166
0.960433 0.878233 0.374731
0.0853132 0.756039 0.268879
0.0854963 0.755581 0.265614
0.0866407 0.753918 0.252277
0.118471 0.745037 0.157
0.779309 0.820539 0.247044
0.959884 0.876936 0.369329
0.960616 0.877623 0.37406
0.960586 0.877714 0.374166
0.960418 0.878264 0.374762
0.00781262 0.0243076 0.0727245
0.0511482 0.0219577 0.0759899
0.229038 0.031632 0.106386
0.533455 0.0385748 0.188678
0.718318 0.0545968 0.265873
0.72221 0.0555886 0.286976
0.723217 0.055848 0.29398
0.723552 0.0559548 0.296376
0.724697 0.0565347 0.300267
0.0245975 0.0545357 0.0615091
0.0218814 0.0483406 0.0567178
0.209354 0.0218967 0.0592508
0.518456 0.0318761 0.142687
0.707866 0.0524453 0.226108
0.715434 0.0539712 0.2533
0.718502 0.0547341 0.265812
0.719219 0.0549172 0.269337
0.720272 0.0554055 0.271977
0.0178225 0.230289 0.0971847
0.0169833 0.228611 0.0742351
0.179416 0.227039 0.0237736
0.577844 0.196231 0.117754
0.691279 0.0548409 0.14876
0.690913 0.0533608 0.154818
0.689006 0.0522011 0.154604
0.688487 0.0519112 0.154543
0.689769 0.0525673 0.155489
0 0.465003 0.101457
0 0.465553 0.0771038
0 0.463325 0
0.528939 0.50071 0.0437934
0.859586 0.593042 0.193378
0.902663 0.560815 0.214313
0.908507 0.530663 0.218723
0.908843 0.526314 0.218799
0.905257 0.551766 0.215442
0.0619821 0.705119 0.188464
0.0703593 0.707073 0.169818
0.129229 0.714092 0.0943465
0.339818 0.71075 0.0558633
0.853864 0.808286 0.24976
0.954665 0.826566 0.320058
0.954391 0.823529 0.317876
0.954772 0.825849 0.319722
0.955474 0.83447 0.325536
0.0853285 0.755779 0.26775
0.08542 0.755718 0.266667
0.0864271 0.754665 0.256352
0.0915541 0.749203 0.213291
0.745861 0.812589 0.228794
0.959884 0.877577 0.370809
0.960464 0.878111 0.374609
0.960464 0.878111 0.374609
0.960464 0.878111 0.374609
0.0851606 0.756146 0.270741
0.0852674 0.755901 0.268864
0.0860914 0.754818 0.258808
0.0881361 0.752422 0.239078
0.697444 0.802548 0.203677
0.957626 0.876524 0.366079
0.960525 0.877897 0.374395
0.96051 0.877958 0.374472
0.960464 0.878111 0.374609
0.0851301 0.756451 0.272282
0.0851911 0.755962 0.26978
0.0860456 0.754437 0.257923
0.0879683 0.752239 0.239582
0.703517 0.803159 0.205921
0.955367 0.875502 0.363226
0.960616 0.877623 0.37406
0.960586 0.877714 0.374166
0.960418 0.878264 0.374762
0.0850843 0.756573 0.273274
0.0851453 0.756115 0.270695
0.0863508 0.754376 0.255909
0.102419 0.744884 0.176333
0.770748 0.818463 0.242206
0.959808 0.87686 0.368872
0.960616 0.877623 0.37406
0.960586 0.877714 0.374166
0.960418 0.878264 0.374762
0 0.0426337 0.217685
0.0491035 0.0299382 0.234913
0.233005 0.0315404 0.24181
0.526268 0.064683 0.296056
0.746273 0.0800336 0.369497
0.752026 0.0872511 0.38204
0.753292 0.0889601 0.384955
0.753765 0.0895247 0.385962
0.756909 0.0932021 0.393393
0 0.0605631 0.18352
0 0.049897 0.196384
0.209888 0.0301366 0.227863
0.519707 0.0684977 0.27425
0.735912 0.0674296 0.345953
0.741817 0.0742809 0.359228
0.743893 0.0768749 0.363714
0.744442 0.0775921 0.365087
0.746838 0.0801709 0.371038
0.0239109 0.205173 0.204532
0.0234684 0.202945 0.203342
0.159503 0.211154 0.217716
0.567117 0.151598 0.22681
0.709422 0.0529946 0.228214
0.71548 0.0539864 0.253574
0.718685 0.0547799 0.266758
0.719356 0.0549325 0.270085
0.719829 0.0551461 0.271412
0 0.456779 0.225223
0 0.457008 0.213703
0 0.446296 0.120027
0.512886 0.485893 0.041825
0.869657 0.564706 0.200732
0.910704 0.510109 0.221897
0.913069 0.473182 0.228779
0.912596 0.467811 0.228717
0.912245 0.498924 0.224628
0.0425727 0.701747 0.298161
0.0432593 0.702922 0.286458
0.0534371 0.699336 0.201099
0.260136 0.701213 0.0472267
0.847318 0.801572 0.243427
0.95404 0.819715 0.315358
0.953658 0.816114 0.312978
0.953811 0.817746 0.314076
0.95462 0.826719 0.320058
0.0843977 0.760281 0.303395
0.0843977 0.759228 0.294179
0.0852522 0.756161 0.269886
0.0874647 0.753307 0.245563
0.722591 0.807446 0.21648
0.959792 0.877455 0.370184
0.960464 0.878111 0.374609
0.960464 0.878111 0.374609
0.960464 0.878111 0.374609
0.0853895 0.763943 0.330785
0.0849012 0.762707 0.321141
0.0851148 0.756329 0.272038
0.0870375 0.753628 0.248875
0.664988 0.796597 0.187976
0.953094 0.875196 0.360906
0.960525 0.877882 0.37438
0.96051 0.877958 0.374472
0.960464 0.878111 0.374609
0.0864729 0.766171 0.347631
0.0857862 0.764828 0.336736
0.085008 0.75613 0.272175
0.0869917 0.753246 0.247837
0.668193 0.79646 0.188571
0.950942 0.874174 0.358068
0.960616 0.877623 0.37406
0.960586 0.877714 0.374166
0.960418 0.878264 0.374762
0.0892805 0.770687 0.379751
0.0875715 0.768231 0.362646
0.085008 0.756283 0.272648
0.087953 0.752132 0.239002
0.735103 0.809934 0.222339
0.956909 0.875914 0.364965
0.960616 0.877623 0.37406
0.960586 0.877714 0.374166
0.960403 0.878294 0.374792
0 0.0601663 0.428321
0.0325475 0.0435492 0.438025
0.221103 0.0408637 0.478309
0.53785 0.0536355 0.506508
0.722866 0.0612039 0.514733
0.722377 0.0614633 0.5205
0.722362 0.0614481 0.52047
0.722423 0.0614939 0.520317
0.722576 0.0626078 0.528969
0 0.110323 0.416083
0 0.0708019 0.417975
0.184787 0.0412909 0.469703
0.528328 0.0534524 0.499535
0.723522 0.0608225 0.506661
0.723232 0.0611734 0.512047
0.723186 0.0612039 0.512566
0.723186 0.0612039 0.512551
0.723171 0.0620737 0.521004
0 0.200626 0.368704
0 0.19353 0.373327
0 0.111208 0.428962
0.490455 0.0539101 0.46537
0.726894 0.0622721 0.470512
0.726604 0.0610819 0.474357
0.725597 0.0600748 0.475029
0.725261 0.0597696 0.475639
0.725551 0.0604257 0.483116
0.0221256 0.460319 0.442802
0.0217136 0.46128 0.444236
0.0211643 0.452674 0.434745
0.465248 0.475166 0.464088
0.911208 0.44567 0.490578
0.930861 0.340383 0.441199
0.912108 0.299474 0.421332
0.908614 0.293004 0.419501
0.922911 0.321813 0.437095
0.0436408 0.708232 0.480095
0.0442664 0.709895 0.47895
0.0407721 0.703777 0.448066
0.0331426 0.672862 0.239506
0.798962 0.760906 0.223301
0.949447 0.795087 0.29778
0.946822 0.788144 0.291814
0.947265 0.789029 0.292683
0.95169 0.799359 0.302388
0.096376 0.782223 0.468711
0.0965896 0.782452 0.469032
0.0981155 0.780926 0.448295
0.0850996 0.756527 0.272892
0.624231 0.789792 0.169848
0.958297 0.876402 0.366445
0.960601 0.877638 0.374075
0.960601 0.877623 0.37406
0.960601 0.877623 0.374075
0.0961013 0.783841 0.48246
0.0963607 0.784176 0.483345
0.0974136 0.781567 0.458915
0.0848402 0.757031 0.277623
0.539895 0.777783 0.139559
0.937224 0.870542 0.345632
0.960525 0.877882 0.37438
0.96051 0.877958 0.374472
0.960464 0.878111 0.374609
0.0968795 0.785962 0.496925
0.096788 0.78584 0.495857
0.0967117 0.782254 0.467308
0.0844587 0.757397 0.282261
0.535378 0.776883 0.137621
0.932631 0.869001 0.341344
0.960616 0.877623 0.37406
0.960586 0.877714 0.374166
0.960418 0.878264 0.374762
0.100816 0.791028 0.52961
0.100084 0.790249 0.524758
0.0964981 0.785031 0.490532
0.0843061 0.758984 0.294636
0.604578 0.786145 0.160952
0.939086 0.870787 0.346975
0.960616 0.877623 0.37406
0.960586 0.877714 0.374166
0.960418 0.878264 0.374762
0 0.0734112 0.583444
0.028336 0.0520027 0.593973
0.197864 0.0633402 0.664958
0.501366 0.0720531 0.71191
0.731838 0.115145 0.712383
0.729519 0.116503 0.719127
0.729305 0.116625 0.719753
0.729381 0.11667 0.719814
0.728542 0.118212 0.724819
0 0.114549 0.591745
0 0.0818341 0.580392
0.16492 0.0628672 0.653147
0.488228 0.0706798 0.710292
0.732174 0.114702 0.710719
0.730266 0.116045 0.716838
0.729931 0.116197 0.717784
0.729976 0.116258 0.717937
0.728923 0.117861 0.723491
0 0.216571 0.631266
0 0.207477 0.631769
0 0.0750134 0.578805
0.435203 0.0646982 0.698482
0.729686 0.111147 0.70132
0.733394 0.113481 0.70547
0.733257 0.113649 0.706218
0.73315 0.113741 0.706615
0.732021 0.115312 0.712612
0.0201724 0.487907 0.6607
0.0205844 0.487739 0.663996
0.0175021 0.469657 0.6692
0.341268 0.355245 0.812345
0.811917 0.256489 0.771588
0.76054 0.124468 0.671778
0.726848 0.087129 0.63418
0.725063 0.0853285 0.632715
0.746563 0.109926 0.661112
0.0957656 0.710918 0.685084
0.097261 0.713054 0.687526
0.0966201 0.711803 0.686473
0.0881361 0.699992 0.672465
0.737789 0.741817 0.725856
0.958968 0.746441 0.739269
0.958373 0.733516 0.732967
0.958251 0.734768 0.734676
0.958175 0.749355 0.748302
0.14284 0.817731 0.664057
0.144656 0.818845 0.668162
0.141436 0.817075 0.660609
0.12343 0.806821 0.613443
0.237568 0.768978 0.333898
0.940841 0.880796 0.446906
0.960845 0.877897 0.375753
0.961517 0.878691 0.381826
0.96286 0.880171 0.394446
0.147417 0.820172 0.674723
0.149828 0.821515 0.680247
0.14519 0.819135 0.669505
0.124041 0.807202 0.614969
0.105486 0.7682 0.33727
0.907713 0.862562 0.321889
0.960204 0.877485 0.371847
0.960296 0.877607 0.37261
0.96025 0.877699 0.372595
0.154543 0.823911 0.690867
0.155749 0.824613 0.693492
0.150011 0.821683 0.680583
0.126452 0.808591 0.62179
0.106188 0.770199 0.355138
0.897871 0.859419 0.314351
0.959945 0.876997 0.369757
0.960342 0.87747 0.372503
0.96022 0.877836 0.372854
0.171649 0.832776 0.726513
0.17116 0.832547 0.72549
0.162951 0.828336 0.708705
0.134249 0.813077 0.642847
0.151904 0.77525 0.378973
0.910567 0.863249 0.323995
0.959854 0.877165 0.369726
0.96025 0.877653 0.372549
0.960159 0.878019 0.373007
0.0518502 0.0565194 0.621424
0.0831464 0.0567025 0.636286
0.212467 0.0690471 0.695781
0.484916 0.0777295 0.74406
0.723156 0.123156 0.742672
0.723156 0.123079 0.742473
0.723156 0.123079 0.742473
0.723156 0.123125 0.742565
0.723171 0.123583 0.743694
0 0.0660258 0.599329
0.0379034 0.0563058 0.614298
0.182559 0.0684215 0.685039
0.469871 0.0762798 0.742992
0.723156 0.123186 0.742718
0.72314 0.123049 0.742412
0.723156 0.123049 0.742397
0.723156 0.12311 0.74255
0.723171 0.123598 0.743725
0 0.203037 0.657343
0 0.181033 0.646799
0.0385138 0.0563668 0.614664
0.411383 0.0724041 0.73753
0.719753 0.122454 0.743191
0.723095 0.122744 0.741695
0.723095 0.122744 0.74168
0.72311 0.122774 0.741772
0.723156 0.123339 0.743114
0.0231327 0.388907 0.723918
0.0224002 0.385992 0.723384
0.0155032 0.355993 0.71516
0.193713 0.139986 0.741207
0.660334 0.114977 0.756649
0.72369 0.123354 0.742138
0.723415 0.123018 0.741802
0.723369 0.122988 0.741787
0.723796 0.123934 0.743358
0.128496 0.694255 0.782376
0.130159 0.69604 0.784497
0.129641 0.693095 0.785855
0.12726 0.67808 0.79263
0.669902 0.686015 0.977066
0.921859 0.630182 0.920699
0.920668 0.616709 0.915587
0.921065 0.619913 0.915846
0.923217 0.63975 0.920226
0.211887 0.843397 0.819516
0.215961 0.847227 0.824094
0.214298 0.845685 0.822416
0.199069 0.830655 0.806806
0.22771 0.845731 0.823163
0.923659 0.925353 0.919097
0.972 0.926528 0.92076
0.971725 0.924971 0.92015
0.972717 0.929961 0.925475
0.230198 0.86099 0.838285
0.231373 0.861616 0.840467
0.229267 0.860761 0.836469
0.217746 0.855558 0.815
0.197391 0.849867 0.768475
0.834852 0.943923 0.847333
0.993973 0.963058 0.819806
0.980941 0.934676 0.701152
0.984848 0.943938 0.739025
0.234379 0.862776 0.846036
0.23508 0.863188 0.847318
0.232197 0.861967 0.842039
0.219089 0.856184 0.817426
0.194461 0.848066 0.763394
0.806455 0.935241 0.831525
0.982818 0.962631 0.822065
0.95996 0.877119 0.370138
0.960876 0.87895 0.380011
0.237476 0.863142 0.856947
0.237613 0.86331 0.856291
0.236698 0.863539 0.851591
0.22327 0.858045 0.825284
0.205646 0.855558 0.781003
0.836179 0.946105 0.859709
0.983459 0.969085 0.849699
0.962417 0.883375 0.422248
0.961669 0.880659 0.393606
0.082536 0.0565652 0.635843
0.109346 0.056733 0.648142
0.22771 0.0692454 0.700633
0.49276 0.0783703 0.744411
0.723156 0.123156 0.742641
0.723156 0.123079 0.742473
0.723156 0.123079 0.742473
0.72314 0.122911 0.742046
0.723171 0.123445 0.743343
0.0367742 0.0560922 0.613458
0.0698405 0.0565042 0.630014
0.19855 0.068864 0.691005
0.47834 0.0770733 0.743587
0.723156 0.123186 0.742733
0.723156 0.123079 0.742458
0.723156 0.123079 0.742458
0.723156 0.123125 0.74258
0.723171 0.123598 0.743725
0 0.179431 0.645808
0 0.146593 0.62678
0.0702525 0.0565194 0.630213
0.420478 0.0730144 0.738735
0.722698 0.123232 0.74313
0.723095 0.122744 0.741711
0.723095 0.122744 0.74168
0.72311 0.122789 0.741802
0.723156 0.123339 0.743114
0.012314 0.342687 0.710765
0.0119173 0.340734 0.710399
0.00579843 0.3122 0.70135
0.157656 0.0747539 0.681437
0.655177 0.105913 0.746441
0.723247 0.12285 0.741695
0.723064 0.122576 0.741344
0.723064 0.122621 0.741451
0.723384 0.12343 0.742962
0.131502 0.686412 0.794995
0.132784 0.688487 0.796063
0.131395 0.685328 0.795636
0.121935 0.664485 0.791699
0.659831 0.655894 0.980423
0.916014 0.594888 0.922713
0.914107 0.578012 0.91957
0.91458 0.581643 0.919875
0.916991 0.605829 0.924071
0.217533 0.834913 0.845731
0.219989 0.83856 0.847578
0.21886 0.836759 0.846922
0.202319 0.811521 0.835828
0.206943 0.809461 0.848371
0.887709 0.892134 0.962982
0.961593 0.891783 0.961257
0.961379 0.890517 0.96083
0.962722 0.897536 0.962631
0.237171 0.86276 0.857267
0.237675 0.863188 0.858152
0.237705 0.863218 0.858198
0.237629 0.863142 0.858061
0.245686 0.872236 0.863523
0.663188 0.945388 0.935576
0.982284 0.98088 0.980026
0.99147 0.982055 0.979629
0.991547 0.982681 0.980789
0.237278 0.862852 0.857466
0.237675 0.863188 0.858152
0.237705 0.863218 0.858198
0.237568 0.863096 0.857969
0.245151 0.871824 0.858473
0.332021 0.921813 0.888655
0.975875 0.991196 0.977096
1 0.996139 0.98027
1 0.996551 0.981445
0.237446 0.862989 0.85774
0.237675 0.863188 0.858152
0.237705 0.863218 0.858198
0.237613 0.863127 0.85803
0.249668 0.876066 0.863157
0.405417 0.930404 0.900069
0.976013 0.991562 0.978668
0.998367 0.996551 0.980667
1 0.996872 0.98085
0.0904707 0.0567025 0.639597
0.117037 0.0567941 0.65153
0.231403 0.0693523 0.701823
0.494545 0.0785534 0.744503
0.723156 0.123156 0.742641
0.723156 0.123079 0.742473
0.723156 0.123079 0.742473
0.72314 0.123003 0.742275
0.723171 0.123476 0.743435
0.0476844 0.0563058 0.619058
0.0787823 0.0565957 0.634165
0.202182 0.0687266 0.692103
0.480323 0.0773175 0.743832
0.72314 0.123186 0.742718
0.723156 0.123079 0.742458
0.723156 0.123079 0.742458
0.723156 0.123125 0.74258
0.723171 0.123476 0.74342
0 0.169238 0.640055
0 0.135821 0.619959
0.0789654 0.056611 0.634241
0.423301 0.0731365 0.738979
0.723156 0.123339 0.743084
0.723095 0.122744 0.741695
0.723095 0.122744 0.74168
0.72311 0.122789 0.741787
0.723156 0.123339 0.743114
0.00982681 0.331029 0.70724
0.009308 0.329244 0.706737
0.0034638 0.301076 0.697581
0.15494 0.0673838 0.674311
0.656931 0.106416 0.746502
0.72311 0.122774 0.741756
0.723064 0.122576 0.741314
0.723049 0.122621 0.741451
0.723354 0.123415 0.742947
0.130434 0.683696 0.794766
0.131563 0.685847 0.795636
0.130556 0.683192 0.795514
0.1205 0.661189 0.79115
0.659388 0.64921 0.980743
0.915099 0.587503 0.922133
0.913191 0.571557 0.919387
0.913695 0.575097 0.919753
0.916442 0.599283 0.923339
0.216007 0.832502 0.844816
0.218677 0.836439 0.84686
0.217243 0.834272 0.845899
0.196765 0.802915 0.832044
0.20557 0.806592 0.848035
0.885359 0.886564 0.963149
0.960281 0.885679 0.959915
0.960342 0.88336 0.958343
0.961547 0.891386 0.961089
0.237247 0.862821 0.857404
0.237675 0.863188 0.858152
0.237705 0.863218 0.858198
0.237629 0.863142 0.858061
0.245441 0.871855 0.864744
0.642771 0.943862 0.950805
0.972976 0.974014 0.984543
0.988357 0.975845 0.986053
0.988495 0.976776 0.98677
0.237369 0.862913 0.857603
0.237675 0.863188 0.858152
0.237705 0.863218 0.858198
0.237568 0.863096 0.857969
0.244648 0.871031 0.863859
0.265705 0.894408 0.882765
0.951766 0.987457 0.985397
0.996307 0.995621 0.99527
0.99646 0.996201 0.997009
0.237034 0.862638 0.857038
0.237675 0.863188 0.858152
0.237705 0.863218 0.858198
0.237598 0.863127 0.85803
0.247974 0.874678 0.866712
0.267567 0.896559 0.88455
0.952499 0.988327 0.985626
0.995926 0.997467 0.997421
0.999817 0.99675 0.995972
0.0918288 0.0567636 0.640284
0.119707 0.0567788 0.652644
0.234134 0.069276 0.702541
0.498741 0.078996 0.744717
0.723156 0.12314 0.742626
0.723156 0.123079 0.742473
0.723156 0.123079 0.742473
0.723156 0.123003 0.74226
0.723171 0.123476 0.743435
0.0488594 0.0563211 0.619638
0.0809186 0.0565957 0.635157
0.204791 0.0688487 0.69308
0.484474 0.0777295 0.744137
0.723156 0.123186 0.742718
0.723156 0.123079 0.742458
0.723156 0.123079 0.742458
0.723156 0.123125 0.74258
0.723171 0.123507 0.743496
0 0.169894 0.640528
0 0.135409 0.619684
0.0813764 0.056611 0.635386
0.427314 0.0734264 0.739452
0.723156 0.123323 0.743069
0.723095 0.122744 0.741695
0.723095 0.122744 0.74168
0.72311 0.122789 0.741787
0.723156 0.123339 0.743114
0.0103761 0.333837 0.708019
0.00987259 0.331395 0.707485
0.00349432 0.301549 0.697597
0.159701 0.068864 0.677165
0.659541 0.10721 0.746593
0.72311 0.122774 0.741772
0.723049 0.122576 0.741329
0.723095 0.122652 0.741466
0.723415 0.123476 0.743008
0.131136 0.68545 0.794965
0.132448 0.687587 0.796063
0.131304 0.684947 0.795697
0.121431 0.663432 0.791485
0.664958 0.65388 0.980667
0.915755 0.593149 0.922545
0.914076 0.577951 0.920043
0.914504 0.581781 0.920317
0.91696 0.604471 0.924041
0.217395 0.834669 0.84567
0.219898 0.838407 0.847517
0.218616 0.836393 0.846769
0.198444 0.805554 0.833234
0.206287 0.807568 0.848753
0.887251 0.887388 0.963226
0.96051 0.886946 0.960189
0.96054 0.885283 0.958984
0.961837 0.893156 0.96141
0.237278 0.862837 0.85745
0.237675 0.863188 0.858152
0.237705 0.863218 0.858198
0.237705 0.863218 0.858198
0.246067 0.872511 0.865354
0.664408 0.945327 0.952697
0.972839 0.973434 0.98471
0.988022 0.975555 0.986419
0.988128 0.976333 0.98677
0.237354 0.862913 0.857603
0.237675 0.863188 0.858152
0.237705 0.863218 0.858198
0.237705 0.863218 0.858198
0.245426 0.871794 0.864805
0.266346 0.895018 0.883619
0.949996 0.986465 0.986526
0.995087 0.994888 0.996002
0.995987 0.995605 0.996933
0.237308 0.862867 0.857496
0.237675 0.863188 0.858152
0.237705 0.863218 0.858198
0.237705 0.863218 0.858198
0.248539 0.875227 0.86746
0.268544 0.897139 0.88539
0.937255 0.986282 0.985443
0.995377 0.998047 0.998367
0.999786 0.998764 0.997986
