bundles/resolve-cinematic-luts/Phantom Luts/Komodo Phantom ARRI LUTs G2/Komodo Phantom ARRI LUTs G2/33x/Standard (No WB Offset)/Utopia_Komodo_Legacy_G2_33x.cube
TITLE "Generated by Resolve"
LUT_3D_SIZE 9
0.0199588 0.0483101 0.0582284
0.0457313 0.0467842 0.0608377
0.175494 0.036759 0.0569162
0.444739 0.0331731 0.0739605
0.696544 0.0451362 0.12668
0.706996 0.0466011 0.150774
0.711055 0.0450294 0.163638
0.708263 0.0357519 0.16582
0.713771 0.0343938 0.167376
0.0209659 0.0668193 0.0603037
0.0338293 0.0625467 0.0619059
0.155581 0.0483864 0.0538949
0.425834 0.0301213 0.0501106
0.664179 0.0415808 0.0737316
0.689357 0.0443427 0.106889
0.696681 0.0448768 0.125338
0.69865 0.0451057 0.129442
0.702724 0.0441291 0.130175
0.00929274 0.207233 0.033051
0.0108186 0.203677 0.0264591
0.160479 0.191287 0.0567025
0.480339 0.161471 0.0936904
0.706615 0.0433661 0.0505989
0.712459 0.0462196 0.0689555
0.709239 0.0458534 0.0698405
0.708324 0.0458381 0.0701152
0.709621 0.0454566 0.0697948
0.0328069 0.542733 0.0369726
0.0369879 0.544274 0.0118868
0.0738994 0.538369 0.0102083
0.49633 0.50634 0.0985885
0.813504 0.557107 0.15964
0.88394 0.538064 0.167483
0.888701 0.514046 0.169696
0.890394 0.506065 0.169772
0.890913 0.504295 0.168444
0.141146 0.902663 0.127016
0.149996 0.909819 0.0871595
0.197086 0.926726 0.0710155
0.479545 0.853986 0.115496
0.884962 0.876173 0.24802
0.993469 0.87303 0.281712
0.992279 0.868116 0.278264
0.991897 0.866773 0.277394
0.991791 0.866438 0.27718
0.131579 0.991318 0.234043
0.13051 0.991928 0.227695
0.13193 0.992081 0.215076
0.17554 0.987121 0.100725
0.828824 0.934859 0.291447
0.999969 0.954925 0.362005
0.999969 0.955169 0.369894
0.999969 0.955169 0.369894
0.999969 0.955047 0.371008
0.131991 0.990982 0.238193
0.132113 0.991226 0.233433
0.134142 0.991409 0.21944
0.149126 0.988922 0.152209
0.790021 0.934157 0.275776
0.999969 0.954955 0.353216
0.999969 0.955062 0.370901
0.999969 0.955093 0.370657
0.999969 0.955154 0.370001
0.129473 0.991638 0.237293
0.134447 0.990509 0.236393
0.13901 0.98996 0.224537
0.149981 0.987869 0.171481
0.781888 0.934493 0.273167
0.999939 0.954452 0.351949
0.999969 0.954864 0.372381
0.999969 0.954925 0.371969
0.999969 0.955261 0.369223
0.127764 0.992081 0.236347
0.131701 0.991272 0.234363
0.136507 0.990707 0.222538
0.148974 0.987991 0.172412
0.781476 0.934447 0.272908
0.999878 0.954391 0.351568
0.999969 0.954864 0.372381
0.999969 0.954925 0.371969
0.999969 0.955291 0.368948
0.0117494 0.05066 0.0751507
0.0417334 0.0492103 0.0832532
0.182071 0.0446632 0.0867628
0.454749 0.0383154 0.110826
0.710277 0.0360418 0.16289
0.718196 0.0386969 0.18851
0.721004 0.0406348 0.198993
0.722103 0.0412146 0.202472
0.725719 0.0404974 0.204105
0.0196078 0.0605936 0.0712749
0.0268711 0.0575723 0.0674907
0.160906 0.0392004 0.0600137
0.438422 0.0351263 0.0779889
0.699184 0.0441596 0.129168
0.711879 0.0457313 0.154696
0.711894 0.0355383 0.16492
0.713802 0.0362402 0.170138
0.717021 0.0356298 0.171633
0.00503548 0.198886 0.0637675
0.00843824 0.195514 0.0396582
0.153307 0.183597 0.0564736
0.47599 0.140063 0.0866102
0.694713 0.0403906 0.0600137
0.700679 0.0446021 0.0717784
0.697047 0.0441291 0.0720531
0.695872 0.044007 0.0721447
0.696666 0.0436866 0.0718242
0.02327 0.534707 0.0720226
0.0294041 0.534752 0.042649
0.0535134 0.531426 0.00779736
0.491554 0.501259 0.097673
0.814649 0.54728 0.162097
0.886564 0.524865 0.169177
0.891981 0.497627 0.170184
0.893797 0.48954 0.170047
0.894179 0.487831 0.168948
0.124025 0.893782 0.166491
0.133806 0.898619 0.129046
0.195483 0.923171 0.0704814
0.455772 0.854505 0.108354
0.881621 0.872862 0.246693
0.992462 0.869368 0.279011
0.990951 0.863584 0.27509
0.990326 0.861891 0.273808
0.990295 0.861814 0.273793
0.130785 0.991272 0.238788
0.129366 0.991852 0.233143
0.131228 0.992157 0.219043
0.158831 0.988693 0.125414
0.823102 0.934447 0.28925
0.999969 0.95494 0.36173
0.999969 0.955169 0.369894
0.999969 0.955169 0.369894
0.999969 0.955154 0.370062
0.130251 0.991302 0.242405
0.13109 0.991226 0.238132
0.133471 0.991485 0.22298
0.142489 0.98996 0.174319
0.782956 0.934752 0.27277
0.999969 0.954879 0.351614
0.999969 0.955047 0.371008
0.999969 0.955077 0.370718
0.999969 0.955154 0.370031
0.126894 0.992157 0.241108
0.133486 0.990478 0.241443
0.138445 0.990051 0.227527
0.145556 0.988678 0.190829
0.774182 0.934478 0.26978
0.999741 0.954376 0.350652
0.999969 0.954864 0.372381
0.999969 0.954925 0.371969
0.999969 0.955291 0.368948
0.126833 0.992157 0.241382
0.130816 0.991241 0.239551
0.136019 0.990753 0.225727
0.145388 0.988708 0.191012
0.773785 0.934524 0.269627
0.999603 0.954314 0.350195
0.999969 0.954864 0.372381
0.999969 0.954925 0.371969
0.999969 0.955291 0.368948
0 0.0617838 0.178607
0.021149 0.0555276 0.192432
0.1823 0.0471351 0.198367
0.456168 0.0547036 0.212116
0.732631 0.0636149 0.273213
0.736233 0.0700542 0.2907
0.736873 0.0730602 0.298802
0.737087 0.0740063 0.302159
0.739391 0.0737316 0.304433
0 0.0680858 0.151171
0 0.0587472 0.174838
0.167361 0.0472725 0.186252
0.45095 0.0543984 0.192203
0.728359 0.0543221 0.249775
0.734127 0.0605936 0.267491
0.73518 0.0642252 0.276204
0.735424 0.0654002 0.279286
0.737438 0.0652323 0.280919
0.0041352 0.162951 0.166079
0.0043946 0.159625 0.162295
0.130388 0.163592 0.169589
0.468391 0.101701 0.137163
0.695644 0.042771 0.124498
0.71133 0.0456703 0.15111
0.711604 0.0366369 0.161608
0.713039 0.0373388 0.166354
0.714366 0.037171 0.167224
0 0.500832 0.186709
0.00137331 0.502235 0.165743
0.0208133 0.501396 0.0591897
0.473503 0.483146 0.0948196
0.822431 0.512627 0.168582
0.895232 0.467124 0.171984
0.894926 0.435599 0.173495
0.894484 0.424887 0.172946
0.894835 0.42295 0.171481
0.0797284 0.866026 0.286076
0.0844129 0.869505 0.25745
0.119875 0.877272 0.146944
0.368673 0.853513 0.0837568
0.869795 0.860761 0.242725
0.988754 0.855756 0.269749
0.986221 0.848203 0.264469
0.985458 0.845655 0.262867
0.985519 0.845762 0.26302
0.121355 0.991119 0.296117
0.124208 0.991913 0.259663
0.128099 0.992065 0.23447
0.137301 0.99115 0.191348
0.802945 0.934081 0.281651
0.999969 0.95494 0.360464
0.999969 0.955169 0.369894
0.999969 0.955169 0.369894
0.999969 0.955169 0.369894
0.114397 0.99115 0.324239
0.119631 0.99176 0.291325
0.130007 0.991455 0.239414
0.13518 0.991272 0.214084
0.756359 0.935683 0.26067
0.999359 0.954543 0.347524
0.999969 0.955032 0.371145
0.999969 0.955077 0.370733
0.999969 0.955169 0.369894
0.109895 0.99118 0.334371
0.116533 0.991836 0.303868
0.134493 0.990188 0.244221
0.139834 0.989837 0.220432
0.745159 0.935958 0.256779
0.997421 0.954055 0.345876
0.999969 0.954864 0.372381
0.999969 0.954925 0.371969
0.999969 0.955291 0.368948
0.109071 0.991043 0.338781
0.115038 0.991943 0.307546
0.132601 0.990707 0.243229
0.139788 0.989853 0.2206
0.74406 0.936019 0.256229
0.996826 0.953994 0.345342
0.999969 0.954864 0.372381
0.999969 0.954925 0.371969
0.999969 0.955322 0.368673
0 0.0766918 0.378653
0 0.0673381 0.386954
0.133761 0.0603342 0.411597
0.459098 0.0576486 0.437934
0.710109 0.0580911 0.449836
0.714076 0.0604868 0.46714
0.714305 0.0610971 0.474922
0.714672 0.0610666 0.478492
0.7178 0.0597696 0.482124
0 0.0954604 0.361837
0 0.0744945 0.377325
0.105867 0.0614481 0.407324
0.452491 0.0573129 0.432303
0.70988 0.0570382 0.441459
0.713222 0.0569009 0.455665
0.713512 0.0574807 0.462943
0.713451 0.057496 0.466163
0.715923 0.0564889 0.468986
0 0.152117 0.299687
0 0.14287 0.30518
0 0.084535 0.387488
0.41416 0.0564431 0.397467
0.704799 0.057969 0.398367
0.714794 0.0575265 0.409567
0.713085 0.0555886 0.413733
0.712428 0.0548409 0.415488
0.714397 0.0536355 0.417548
0 0.418601 0.399268
0 0.416617 0.398108
0 0.405676 0.385245
0.389441 0.415305 0.404364
0.806531 0.368658 0.379187
0.86482 0.289616 0.338933
0.853803 0.257115 0.322591
0.849867 0.246433 0.317601
0.849577 0.244388 0.317082
0.0124666 0.807691 0.482429
0.012192 0.808484 0.473304
0.0215305 0.807752 0.435248
0.088014 0.816892 0.205524
0.795956 0.792523 0.249729
0.97293 0.814389 0.238849
0.966812 0.802075 0.225742
0.964553 0.797665 0.221302
0.964355 0.797299 0.22092
0.0687114 0.976333 0.485084
0.0680095 0.978256 0.475685
0.0871138 0.983719 0.446204
0.127138 0.992142 0.239811
0.724437 0.937896 0.24596
0.999969 0.954726 0.354437
0.999969 0.95494 0.373602
0.999969 0.954925 0.373953
0.999969 0.954925 0.374029
0.0577096 0.976394 0.495949
0.0610971 0.97734 0.486488
0.082536 0.981155 0.456657
0.128771 0.991577 0.246067
0.651255 0.943313 0.212512
0.984253 0.954253 0.336049
0.999969 0.955032 0.371145
0.999969 0.955077 0.370733
0.999969 0.955169 0.369894
0.0525368 0.976547 0.500755
0.0573739 0.977127 0.491722
0.0808576 0.980285 0.460441
0.13254 0.990188 0.254215
0.629374 0.945434 0.205371
0.97351 0.953613 0.332113
0.999969 0.954833 0.371542
0.999969 0.954925 0.371969
0.999969 0.955291 0.368948
0.0512703 0.976364 0.503395
0.0560006 0.976974 0.494316
0.0781415 0.980194 0.462181
0.132021 0.990173 0.256443
0.624903 0.946059 0.203311
0.971374 0.953658 0.331167
0.999969 0.954818 0.370901
0.999969 0.954925 0.371969
0.999969 0.955291 0.368948
0 0.0932784 0.597421
0 0.0787671 0.594568
0.0853285 0.0789197 0.620417
0.411032 0.0788739 0.656931
0.738308 0.10518 0.695781
0.742245 0.108171 0.71371
0.741207 0.108858 0.719692
0.741238 0.108873 0.722683
0.746777 0.106493 0.730785
0 0.110094 0.601114
0 0.090547 0.595789
0.0568551 0.0796826 0.615625
0.398459 0.0782177 0.65536
0.738415 0.104997 0.694179
0.742626 0.10782 0.70985
0.741665 0.108553 0.716045
0.741848 0.108568 0.718929
0.747707 0.106111 0.72694
0 0.170153 0.589227
0 0.161257 0.600137
0 0.0800488 0.58706
0.336355 0.0756085 0.640726
0.727626 0.101671 0.677867
0.744732 0.106828 0.690028
0.743923 0.107149 0.694728
0.743633 0.10724 0.696422
0.748272 0.105287 0.702785
0 0.415167 0.584634
0 0.410925 0.58584
0 0.389624 0.585916
0.197589 0.282353 0.693553
0.740917 0.235279 0.693767
0.761868 0.136339 0.635309
0.741634 0.103304 0.608484
0.736843 0.0963607 0.601297
0.738918 0.0949111 0.603815
0 0.715114 0.679927
0 0.714763 0.680217
0 0.709529 0.675059
0 0.69276 0.655863
0.672953 0.686015 0.668666
0.922805 0.671489 0.654673
0.918181 0.654871 0.642191
0.917449 0.649607 0.639689
0.916579 0.64892 0.639765
0.027039 0.96199 0.679026
0.0211032 0.963775 0.674449
0.0208133 0.965225 0.657832
0.0237278 0.965377 0.602228
0.429084 0.986984 0.45095
0.977844 0.958419 0.565866
0.999969 0.957702 0.497368
0.999969 0.953765 0.504402
0.999969 0.952682 0.506477
0.0270542 0.960311 0.691417
0.0210574 0.962707 0.685252
0.0206455 0.964843 0.665003
0.0274968 0.970199 0.601251
0.169467 0.993042 0.313024
0.950042 0.952438 0.320607
0.999969 0.954696 0.36733
0.999969 0.954818 0.36965
0.999969 0.954894 0.369024
0.0225528 0.960815 0.696605
0.0210269 0.961944 0.69102
0.0205234 0.964431 0.669001
0.0288243 0.969696 0.603342
0.148302 0.991394 0.323339
0.933181 0.950011 0.316533
0.999969 0.954467 0.364431
0.999969 0.954772 0.370199
0.999969 0.955047 0.367941
0.0203555 0.960952 0.699657
0.0203098 0.961791 0.693782
0.0204318 0.964202 0.671519
0.0284123 0.969635 0.604776
0.147951 0.991318 0.328344
0.928298 0.949065 0.315068
0.999969 0.954589 0.362264
0.999969 0.95491 0.369131
0.999969 0.955215 0.36672
0 0.0821851 0.658122
0 0.0789349 0.660929
0.0877394 0.0834363 0.685191
0.389258 0.084062 0.722011
0.731441 0.112215 0.754925
0.733959 0.112917 0.754391
0.733959 0.112917 0.754391
0.734417 0.112703 0.755016
0.739193 0.110552 0.761364
0 0.0948196 0.66157
0 0.0814527 0.658335
0.061326 0.0838788 0.680629
0.374655 0.0834669 0.720638
0.729656 0.11191 0.754833
0.733684 0.113039 0.75404
0.733669 0.113039 0.754025
0.734203 0.112795 0.754726
0.739269 0.110506 0.761486
0 0.168582 0.686961
0 0.149065 0.68867
0 0.0794995 0.658381
0.303761 0.0816968 0.711833
0.716899 0.110246 0.755032
0.731136 0.114183 0.750637
0.73109 0.114199 0.750561
0.731441 0.114046 0.751019
0.7364 0.111788 0.757733
0 0.337743 0.688334
0 0.330648 0.689845
0 0.299062 0.689433
0.062974 0.136843 0.720043
0.611917 0.11548 0.762951
0.730938 0.115099 0.750301
0.730632 0.114992 0.74992
0.730617 0.114931 0.749905
0.734997 0.112947 0.755764
0 0.659312 0.780163
0 0.658091 0.781552
0 0.649546 0.778637
0 0.62417 0.779263
0.529244 0.59852 0.881392
0.899367 0.585214 0.872877
0.896071 0.567834 0.863355
0.89482 0.563607 0.860456
0.894011 0.563073 0.86038
0.0244297 0.894255 0.846082
0.016907 0.893736 0.845426
0.0128786 0.883528 0.835691
0.00187686 0.844694 0.797894
0.146227 0.874434 0.833432
0.888975 0.890822 0.879347
0.973816 0.888121 0.875303
0.972808 0.883024 0.871519
0.972 0.882246 0.871275
0.0398718 0.935256 0.874876
0.0332647 0.937224 0.873121
0.0312963 0.939391 0.861341
0.0288243 0.944656 0.82446
0.0286412 0.967926 0.758694
0.794003 0.994598 0.776059
0.999893 0.98146 0.798138
0.999969 0.977707 0.752361
0.999969 0.97969 0.775891
0.0392157 0.934615 0.881468
0.0341802 0.936141 0.879286
0.0317388 0.938689 0.865812
0.0301518 0.944381 0.824292
0.0314183 0.966384 0.745922
0.753552 0.996048 0.753307
0.996124 0.979538 0.740734
0.999969 0.954635 0.366873
0.999969 0.95494 0.364446
0.0367285 0.934737 0.884794
0.034638 0.935729 0.881788
0.0319524 0.938354 0.867796
0.0295262 0.944457 0.825162
0.0312657 0.966567 0.743358
0.743191 0.996277 0.748852
0.991012 0.980453 0.743587
0.999969 0.954574 0.365667
0.999969 0.954925 0.364614
0 0.0789044 0.658961
0 0.0803082 0.66656
0.108263 0.0827497 0.687755
0.40618 0.0848096 0.724407
0.734524 0.112642 0.755154
0.733959 0.112917 0.754391
0.733913 0.112932 0.754345
0.732708 0.113466 0.752865
0.737606 0.111269 0.759258
0 0.0835126 0.657465
0 0.0789044 0.659953
0.0808423 0.0835889 0.684184
0.391226 0.0840009 0.722606
0.733272 0.112261 0.755428
0.733928 0.112917 0.75436
0.733928 0.112917 0.75436
0.734417 0.112703 0.755016
0.739269 0.110506 0.761486
0 0.157595 0.688746
0 0.126482 0.679774
0 0.0789197 0.661814
0.320256 0.0819257 0.713832
0.725734 0.110796 0.756085
0.731228 0.114137 0.750744
0.731151 0.114183 0.750637
0.731624 0.11397 0.751263
0.736416 0.111788 0.757748
0 0.295155 0.68777
0 0.287846 0.689281
0 0.258549 0.68893
0.0381781 0.097322 0.68835
0.603326 0.0990005 0.749889
0.731044 0.114504 0.7505
0.729717 0.114916 0.74876
0.730114 0.114748 0.749249
0.735088 0.112505 0.755886
0 0.643885 0.798398
0 0.642954 0.799817
0 0.635081 0.79678
0 0.605188 0.782559
0.501152 0.554482 0.889952
0.882185 0.539666 0.888395
0.879484 0.520989 0.883864
0.878279 0.51545 0.882872
0.876234 0.515373 0.883848
0.0168765 0.849958 0.889555
0.00991836 0.850217 0.892424
0.00189212 0.827222 0.882277
0 0.778225 0.863066
0.0145113 0.799893 0.898192
0.81117 0.837308 0.956878
0.960952 0.839902 0.958038
0.95996 0.835172 0.956054
0.959503 0.834607 0.956054
0.0440223 0.922988 0.915755
0.0360266 0.924681 0.918288
0.0355383 0.924788 0.918471
0.0369116 0.924498 0.918151
0.0455482 0.945403 0.913893
0.619013 0.965148 0.946075
0.975998 0.973465 0.969039
0.994537 0.973617 0.968048
0.993759 0.972488 0.967758
0.042237 0.923384 0.916304
0.0360266 0.924681 0.918288
0.0354925 0.924788 0.918471
0.0381933 0.924239 0.917769
0.04654 0.944793 0.896788
0.167422 0.985855 0.903197
0.960922 0.991241 0.952819
0.995163 0.988357 0.958999
0.994537 0.98851 0.958602
0.037232 0.924437 0.918105
0.0360266 0.924681 0.918288
0.0354772 0.924788 0.918486
0.0375677 0.924361 0.917998
0.0457465 0.945113 0.892607
0.170306 0.986358 0.899138
0.952651 0.991943 0.948531
0.994324 0.98851 0.956268
0.993439 0.988693 0.954452
0 0.0788891 0.66096
0 0.0813001 0.668727
0.116197 0.0826581 0.689006
0.412543 0.0851301 0.725353
0.734478 0.112673 0.755093
0.733959 0.112917 0.754391
0.733959 0.112917 0.754391
0.733257 0.113222 0.753475
0.737896 0.111116 0.75967
0 0.0813764 0.65716
0 0.0788891 0.661631
0.0880446 0.0834516 0.685298
0.396918 0.0842145 0.723384
0.734234 0.112428 0.755535
0.733928 0.112917 0.75436
0.733928 0.112917 0.75436
0.734386 0.112718 0.754986
0.737957 0.111101 0.759731
0 0.149783 0.685908
0 0.119982 0.676051
0 0.0793622 0.664012
0.326345 0.082002 0.714534
0.728801 0.111147 0.756359
0.731243 0.114137 0.750759
0.731151 0.114183 0.750637
0.73164 0.113954 0.751293
0.736416 0.111788 0.757748
0 0.281956 0.687007
0 0.274708 0.688777
0 0.2448 0.689662
0.0296178 0.0872663 0.67747
0.605814 0.0980697 0.748974
0.731533 0.114076 0.751125
0.729686 0.1149 0.748699
0.730129 0.114702 0.749279
0.735088 0.112474 0.755886
0 0.639719 0.79675
0 0.638697 0.798184
0 0.630762 0.795209
0 0.598581 0.779568
0.496895 0.542565 0.888319
0.878889 0.527626 0.886366
0.876432 0.507454 0.881605
0.875212 0.501961 0.880705
0.873426 0.501152 0.881468
0.0154116 0.844099 0.887922
0.00825513 0.84268 0.889509
0.00292973 0.808499 0.874067
0 0.773526 0.862776
0.0152438 0.791012 0.895933
0.805997 0.825879 0.956237
0.95816 0.828122 0.955947
0.958022 0.822721 0.954055
0.95639 0.821393 0.955077
0.0432288 0.923171 0.915999
0.0360266 0.924681 0.918288
0.0355383 0.924788 0.918471
0.0369268 0.924498 0.918151
0.0439918 0.938338 0.927794
0.545968 0.934554 0.958877
0.959457 0.960876 0.983093
0.991012 0.962905 0.984268
0.990112 0.961883 0.984436
0.0445869 0.922866 0.915572
0.0360266 0.924681 0.918288
0.0354925 0.924788 0.918471
0.0382544 0.924224 0.917754
0.0471809 0.936675 0.925399
0.0645151 0.967773 0.947692
0.905776 0.990326 0.984649
0.99324 0.98938 0.987823
0.992218 0.989609 0.988586
0.040589 0.923751 0.916823
0.0360418 0.924681 0.918288
0.0354772 0.924788 0.918486
0.0376287 0.924346 0.917983
0.047013 0.936324 0.925109
0.0661326 0.969635 0.9449
0.870756 0.992569 0.981399
0.992432 0.989563 0.988434
0.99234 0.989578 0.988495
0 0.0788739 0.661326
0 0.0813458 0.669047
0.118822 0.0826429 0.689433
0.415244 0.0853285 0.725826
0.734478 0.112688 0.755077
0.733959 0.112917 0.754391
0.733959 0.112917 0.754391
0.732967 0.113344 0.753094
0.736309 0.111833 0.757656
0 0.0809491 0.657328
0 0.0790723 0.662394
0.0903334 0.0833906 0.685634
0.399374 0.0843824 0.723781
0.734615 0.112474 0.75555
0.733928 0.112917 0.75436
0.733928 0.112917 0.75436
0.734417 0.112703 0.755016
0.738247 0.110979 0.760113
0 0.147387 0.685237
0 0.118196 0.674968
0 0.0795148 0.664637
0.328695 0.0820172 0.714763
0.729564 0.111284 0.756481
0.731243 0.114137 0.750759
0.731151 0.114183 0.750637
0.731655 0.113954 0.751293
0.736416 0.111788 0.757748
0 0.27863 0.687053
0 0.270985 0.688914
0 0.241367 0.690028
0.034287 0.08748 0.678309
0.607507 0.0982528 0.749172
0.731533 0.114061 0.751141
0.729686 0.1149 0.748714
0.730144 0.114702 0.749294
0.735073 0.112474 0.755886
0 0.638682 0.796338
0 0.63769 0.797833
0 0.62945 0.794629
0 0.596872 0.778683
0.496788 0.539269 0.888212
0.877928 0.523659 0.885466
0.875654 0.504036 0.880995
0.874174 0.49836 0.879774
0.872465 0.497261 0.880674
0.0152285 0.843671 0.887938
0.00630198 0.837659 0.886976
0.00213626 0.8038 0.871595
0 0.772274 0.862562
0.0163577 0.78851 0.895155
0.804669 0.822156 0.955657
0.957214 0.824674 0.955215
0.957214 0.819425 0.953506
0.955367 0.818326 0.954284
0.0427558 0.923278 0.916136
0.0360266 0.924681 0.918288
0.0354772 0.924788 0.918486
0.0354772 0.924788 0.918486
0.0406806 0.935393 0.926986
0.560555 0.932387 0.959106
0.957351 0.958465 0.983017
0.989868 0.960586 0.983917
0.988968 0.959503 0.983902
0.0447242 0.922835 0.915541
0.0360266 0.924681 0.918288
0.0354772 0.924788 0.918486
0.0354772 0.924788 0.918486
0.0419165 0.937789 0.927077
0.0608072 0.968383 0.948821
0.891157 0.985824 0.988128
0.99237 0.989578 0.988479
0.992401 0.989578 0.988464
0.0416266 0.923522 0.916503
0.0360418 0.924681 0.918288
0.0354772 0.924788 0.918486
0.0354772 0.924788 0.918486
0.0417334 0.937438 0.926787
0.0601663 0.967483 0.948257
0.785397 0.989517 0.985519
0.989136 0.98996 0.989548
0.992737 0.989502 0.988205
