bundles/resolve-cinematic-luts/Phantom Luts/Komodo Phantom ARRI LUTs G2/Komodo Phantom ARRI LUTs G2/33x/Standard (No WB Offset)/Utopia_Komodo_Legacy_G2_33x.cube
TITLE "Generated by Resolve"
LUT_3D_SIZE 5
0.0199588 0.0483101 0.0582284
0.175494 0.036759 0.0569162
0.696544 0.0451362 0.12668
0.711055 0.0450294 0.163638
0.713771 0.0343938 0.167376
0.00929274 0.207233 0.033051
0.160479 0.191287 0.0567025
0.706615 0.0433661 0.0505989
0.709239 0.0458534 0.0698405
0.709621 0.0454566 0.0697948
0.141146 0.902663 0.127016
0.197086 0.926726 0.0710155
0.884962 0.876173 0.24802
0.992279 0.868116 0.278264
0.991791 0.866438 0.27718
0.131991 0.990982 0.238193
0.134142 0.991409 0.21944
0.790021 0.934157 0.275776
0.999969 0.955062 0.370901
0.999969 0.955154 0.370001
0.127764 0.992081 0.236347
0.136507 0.990707 0.222538
0.781476 0.934447 0.272908
0.999969 0.954864 0.372381
0.999969 0.955291 0.368948
0 0.0617838 0.178607
0.1823 0.0471351 0.198367
0.732631 0.0636149 0.273213
0.736873 0.0730602 0.298802
0.739391 0.0737316 0.304433
0.0041352 0.162951 0.166079
0.130388 0.163592 0.169589
0.695644 0.042771 0.124498
0.711604 0.0366369 0.161608
0.714366 0.037171 0.167224
0.0797284 0.866026 0.286076
0.119875 0.877272 0.146944
0.869795 0.860761 0.242725
0.986221 0.848203 0.264469
0.985519 0.845762 0.26302
0.114397 0.99115 0.324239
0.130007 0.991455 0.239414
0.756359 0.935683 0.26067
0.999969 0.955032 0.371145
0.999969 0.955169 0.369894
0.109071 0.991043 0.338781
0.132601 0.990707 0.243229
0.74406 0.936019 0.256229
0.999969 0.954864 0.372381
0.999969 0.955322 0.368673
0 0.0932784 0.597421
0.0853285 0.0789197 0.620417
0.738308 0.10518 0.695781
0.741207 0.108858 0.719692
0.746777 0.106493 0.730785
0 0.170153 0.589227
0 0.0800488 0.58706
0.727626 0.101671 0.677867
0.743923 0.107149 0.694728
0.748272 0.105287 0.702785
0 0.715114 0.679927
0 0.709529 0.675059
0.672953 0.686015 0.668666
0.918181 0.654871 0.642191
0.916579 0.64892 0.639765
0.0270542 0.960311 0.691417
0.0206455 0.964843 0.665003
0.169467 0.993042 0.313024
0.999969 0.954696 0.36733
0.999969 0.954894 0.369024
0.0203555 0.960952 0.699657
0.0204318 0.964202 0.671519
0.147951 0.991318 0.328344
0.999969 0.954589 0.362264
0.999969 0.955215 0.36672
0 0.0789044 0.658961
0.108263 0.0827497 0.687755
0.734524 0.112642 0.755154
0.733913 0.112932 0.754345
0.737606 0.111269 0.759258
0 0.157595 0.688746
0 0.0789197 0.661814
0.725734 0.110796 0.756085
0.731151 0.114183 0.750637
0.736416 0.111788 0.757748
0 0.643885 0.798398
0 0.635081 0.79678
0.501152 0.554482 0.889952
0.879484 0.520989 0.883864
0.876234 0.515373 0.883848
0.0440223 0.922988 0.915755
0.0355383 0.924788 0.918471
0.0455482 0.945403 0.913893
0.975998 0.973465 0.969039
0.993759 0.972488 0.967758
0.037232 0.924437 0.918105
0.0354772 0.924788 0.918486
0.0457465 0.945113 0.892607
0.952651 0.991943 0.948531
0.993439 0.988693 0.954452
0 0.0788739 0.661326
0.118822 0.0826429 0.689433
0.734478 0.112688 0.755077
0.733959 0.112917 0.754391
0.736309 0.111833 0.757656
0 0.147387 0.685237
0 0.0795148 0.664637
0.729564 0.111284 0.756481
0.731151 0.114183 0.750637
0.736416 0.111788 0.757748
0 0.638682 0.796338
0 0.62945 0.794629
0.496788 0.539269 0.888212
0.875654 0.504036 0.880995
0.872465 0.497261 0.880674
0.0427558 0.923278 0.916136
0.0354772 0.924788 0.918486
0.0406806 0.935393 0.926986
0.957351 0.958465 0.983017
0.988968 0.959503 0.983902
0.0416266 0.923522 0.916503
0.0354772 0.924788 0.918486
0.0417334 0.937438 0.926787
0.785397 0.989517 0.985519
0.992737 0.989502 0.988205
