bundles/resolve-cinematic-luts/Phantom Luts/Komodo Phantom ARRI LUTs G2/Komodo Phantom ARRI LUTs G2/33x/Standard (No WB Offset)/Utopia_Komodo_Legacy_G2_33x.cube
TITLE "Generated by Resolve"
LUT_3D_SIZE 33
0.0199588 0.0483101 0.0582284
0.0199588 0.0482643 0.0581674
0.0208743 0.0482032 0.0580453
0.0295872 0.0484932 0.0585794
0.0457313 0.0467842 0.0608377
0.0676585 0.045182 0.0597543
0.0950179 0.042359 0.0589151
0.132082 0.0391852 0.0580301
0.175494 0.036759 0.0569162
0.227832 0.0352789 0.0573281
0.289662 0.0349737 0.0588693
0.362234 0.034165 0.0644694
0.444739 0.0331731 0.0739605
0.523384 0.0323339 0.0860151
0.592828 0.0316014 0.0999924
0.65275 0.035172 0.111421
0.696544 0.0451362 0.12668
0.69987 0.0455787 0.133593
0.702571 0.0459449 0.140093
0.704875 0.0463111 0.145602
0.706996 0.0466011 0.150774
0.708782 0.0468605 0.155657
0.710201 0.0470893 0.158663
0.711116 0.0470893 0.161852
0.711055 0.0450294 0.163638
0.706554 0.0353704 0.161913
0.707225 0.0356451 0.163607
0.707698 0.0356756 0.164858
0.708263 0.0357519 0.16582
0.709178 0.0356451 0.166506
0.710231 0.0354009 0.166918
0.711879 0.0349279 0.167254
0.713771 0.0343938 0.167376
0.0199588 0.0482643 0.0581674
0.0199588 0.0482948 0.0581979
0.0199588 0.0482643 0.0581674
0.0274205 0.0487678 0.0585641
0.0424353 0.0473182 0.0605631
0.0651255 0.0454414 0.0599222
0.0927596 0.0425574 0.0588998
0.130617 0.0390478 0.0572366
0.172839 0.0361181 0.0549783
0.223819 0.0339208 0.0538186
0.286351 0.0326085 0.0540017
0.359655 0.0317845 0.0584878
0.442969 0.0305791 0.0672313
0.521431 0.0303044 0.0798505
0.590723 0.029221 0.0924086
0.651423 0.0349279 0.104601
0.695232 0.0448005 0.120943
0.698177 0.0450752 0.128771
0.70132 0.0454414 0.13518
0.703578 0.0458076 0.140963
0.705684 0.0460822 0.145693
0.707378 0.0462959 0.149905
0.708766 0.0465095 0.153658
0.710048 0.0466926 0.156634
0.710689 0.0468299 0.158328
0.711345 0.0468757 0.160082
0.711772 0.0468452 0.161471
0.712062 0.0462806 0.162524
0.712367 0.0462806 0.163333
0.712901 0.0461738 0.163775
0.713664 0.0459907 0.164065
0.71519 0.0455634 0.164324
0.716777 0.0450904 0.164584
0.0199588 0.0482643 0.0581674
0.0199588 0.0482948 0.0581979
0.0199588 0.0482643 0.0581674
0.0233158 0.049073 0.0584573
0.035462 0.0489815 0.0592355
0.0582742 0.0469825 0.0603037
0.0865797 0.0444038 0.0588846
0.124865 0.0407874 0.0571908
0.168643 0.0373388 0.0550393
0.220005 0.0344549 0.0529793
0.280735 0.0320745 0.0509041
0.352956 0.0299382 0.0511788
0.436652 0.0272984 0.0569162
0.516518 0.0265812 0.0695811
0.586053 0.0259709 0.0818799
0.650401 0.0399634 0.0959487
0.689632 0.0443885 0.108949
0.695308 0.0448005 0.120745
0.697932 0.0450141 0.128298
0.700755 0.0453651 0.133837
0.70277 0.045655 0.138857
0.704479 0.0458991 0.14258
0.705898 0.0460822 0.146014
0.70692 0.0462043 0.148699
0.70779 0.0463264 0.150622
0.708446 0.0464179 0.152407
0.708873 0.0464942 0.15375
0.709285 0.04654 0.154742
0.709606 0.0465858 0.15552
0.710063 0.0465248 0.156024
0.71075 0.0463722 0.156329
0.712215 0.0459602 0.156344
0.713848 0.0454719 0.156329
0.0215915 0.0543679 0.0603189
0.021561 0.0540475 0.0603037
0.0221714 0.0531777 0.06009
0.0238346 0.0519112 0.0596323
0.0312047 0.053193 0.0604715
0.0494545 0.0509957 0.0610819
0.0780499 0.0473487 0.0586404
0.116152 0.0441444 0.0567941
0.161715 0.04065 0.0551156
0.214298 0.0376287 0.0528878
0.277363 0.0352483 0.0509346
0.349844 0.0317388 0.0504158
0.429557 0.0268406 0.0502785
0.506432 0.0233158 0.0546273
0.579599 0.0298009 0.0689403
0.643854 0.0396124 0.0813306
0.680385 0.043183 0.0900893
0.68777 0.0441138 0.103166
0.692683 0.0447547 0.114931
0.695994 0.04477 0.123537
0.698299 0.0450752 0.128923
0.700313 0.045304 0.132937
0.701823 0.0455024 0.136095
0.702754 0.045655 0.138827
0.703517 0.0457771 0.140673
0.704189 0.0458686 0.141955
0.704662 0.0459297 0.143008
0.705013 0.0459754 0.143786
0.705257 0.0460059 0.144411
0.70576 0.0459297 0.144884
0.706493 0.0457618 0.14522
0.707912 0.0453651 0.145312
0.709407 0.0449226 0.145403
0.0209659 0.0668193 0.0603037
0.0209506 0.0663615 0.0603952
0.0213321 0.0655833 0.0605478
0.0253452 0.0635843 0.0614328
0.0338293 0.0625467 0.0619059
0.0501106 0.0622568 0.0637217
0.0777295 0.0599069 0.0622568
0.112367 0.0553292 0.0572976
0.155581 0.0483864 0.0538949
0.206821 0.0424659 0.0525368
0.271153 0.0394903 0.0510262
0.344015 0.0349584 0.0499886
0.425834 0.0301213 0.0501106
0.503899 0.0257725 0.0532998
0.572427 0.0294652 0.059968
0.632197 0.0382696 0.0684062
0.664179 0.0415808 0.0737316
0.672084 0.0425269 0.0797589
0.678691 0.0429847 0.0868849
0.684749 0.0437629 0.0969711
0.689357 0.0443427 0.106889
0.692088 0.0446784 0.113848
0.69485 0.0448157 0.119631
0.695644 0.0447395 0.12282
0.696681 0.0448768 0.125338
0.697429 0.0449683 0.127092
0.697932 0.0450141 0.128069
0.698344 0.0450752 0.128771
0.69865 0.0451057 0.129442
0.699153 0.0450446 0.12987
0.699886 0.044892 0.130144
0.701289 0.0445258 0.130159
0.702724 0.0441291 0.130175
0.017792 0.0865949 0.0560769
0.017792 0.0860456 0.0556497
0.0178836 0.0852064 0.0558938
0.0213779 0.0834516 0.0570382
0.0276646 0.0804761 0.0584421
0.0465858 0.0805524 0.0579538
0.0794385 0.0785534 0.0649729
0.117098 0.073991 0.0657511
0.161624 0.0666819 0.0603952
0.211627 0.0581826 0.0541848
0.269245 0.0481117 0.0501259
0.335744 0.0403754 0.0500038
0.418738 0.0344091 0.0495918
0.500374 0.0294652 0.0525368
0.569009 0.0249638 0.0568551
0.634012 0.0384375 0.0677958
0.668208 0.0420081 0.0715343
0.667079 0.041886 0.0710613
0.663951 0.0415503 0.0706798
0.664668 0.0416266 0.0724804
0.668681 0.0421149 0.0758526
0.672206 0.0425422 0.0794232
0.675013 0.0425422 0.082414
0.677775 0.0428779 0.0856947
0.68011 0.0431373 0.0886244
0.681514 0.0433356 0.0910964
0.682536 0.043473 0.09308
0.683162 0.0435798 0.0944686
0.683787 0.0436561 0.0957198
0.684489 0.0436255 0.096376
0.685298 0.0435035 0.0967575
0.686595 0.0431525 0.0966354
0.688212 0.0427558 0.0967269
0.0138247 0.11606 0.0484779
0.0140383 0.11574 0.0465553
0.0141451 0.114992 0.0467842
0.0149081 0.113664 0.0472419
0.0223545 0.111208 0.0487221
0.0365148 0.109239 0.0500496
0.0722515 0.106905 0.0526131
0.118105 0.105577 0.0650797
0.170336 0.0993668 0.0693675
0.225803 0.0885786 0.0668498
0.286976 0.074403 0.059266
0.34876 0.0574655 0.0511025
0.418814 0.0435645 0.0472725
0.493812 0.0341497 0.050248
0.566903 0.0292973 0.0552071
0.632715 0.0345769 0.0636912
0.679026 0.0427558 0.0719463
0.682033 0.0432593 0.0727703
0.679469 0.0429236 0.0724346
0.676844 0.04271 0.0722362
0.674922 0.04271 0.0722667
0.673487 0.0426337 0.0721752
0.671809 0.0424659 0.0719158
0.670512 0.0423285 0.0717327
0.669612 0.042237 0.0715801
0.668849 0.0421454 0.0714427
0.668437 0.0420386 0.0712902
0.668116 0.0419776 0.0711986
0.66775 0.0419471 0.0711528
0.667811 0.041886 0.0710765
0.667979 0.0417945 0.0709544
0.668513 0.0416114 0.0707713
0.669169 0.0413825 0.0705577
0.0105898 0.157366 0.0394903
0.0112459 0.157046 0.0364996
0.0116579 0.156222 0.0359503
0.0116732 0.154925 0.036286
0.0158846 0.153185 0.0376135
0.0268101 0.1505 0.0397955
0.0528878 0.149844 0.0413825
0.11046 0.144656 0.0527657
0.167865 0.144305 0.0658885
0.236103 0.137194 0.0741283
0.305531 0.123171 0.0759136
0.376898 0.106523 0.0715343
0.449805 0.0880598 0.0621042
0.515831 0.060502 0.050721
0.571771 0.0386816 0.0480354
0.628061 0.0290684 0.0552987
0.688487 0.0435187 0.0691539
0.698848 0.0447852 0.0721752
0.696849 0.0445716 0.0723583
0.694804 0.0443427 0.0725261
0.693294 0.0440986 0.0726329
0.691752 0.043946 0.0727245
0.6907 0.0438239 0.0727855
0.689998 0.0437629 0.0728618
0.689464 0.0437018 0.0729076
0.68896 0.0436561 0.0728923
0.68867 0.0436255 0.0728923
0.688457 0.043595 0.0729076
0.688426 0.043595 0.0728923
0.688334 0.0435645 0.0728771
0.688304 0.0435492 0.0728618
0.688655 0.0434424 0.0727398
0.689281 0.0432441 0.0725109
0.00929274 0.207233 0.033051
0.00984207 0.206622 0.0294652
0.0103609 0.205585 0.0259709
0.0104067 0.204593 0.0261082
0.0108186 0.203677 0.0264591
0.0200961 0.202731 0.0282139
0.0380102 0.198856 0.0316014
0.0842908 0.198886 0.0364538
0.160479 0.191287 0.0567025
0.231464 0.19382 0.0688182
0.317235 0.189349 0.0831159
0.399649 0.178576 0.0923629
0.480339 0.161471 0.0936904
0.558328 0.140551 0.0888838
0.620966 0.112459 0.0771496
0.66952 0.0699168 0.0581064
0.706615 0.0433661 0.0505989
0.718227 0.046952 0.0664988
0.715236 0.0465858 0.0679942
0.713787 0.0464179 0.0685435
0.712459 0.0462196 0.0689555
0.71136 0.0460975 0.069276
0.710414 0.0459754 0.0695354
0.709773 0.0458839 0.069688
0.709239 0.0458534 0.0698405
0.708827 0.0458534 0.0699779
0.708553 0.0458381 0.0700542
0.708507 0.0458381 0.0700542
0.708324 0.0458381 0.0701152
0.708232 0.0458381 0.0701305
0.708186 0.0458381 0.0701457
0.708614 0.045716 0.0700236
0.709621 0.0454566 0.0697948
0.0107881 0.270558 0.0288701
0.0113375 0.270527 0.025452
0.0116121 0.26949 0.0213626
0.0121157 0.268696 0.0183566
0.0121462 0.266819 0.018555
0.013901 0.265202 0.0187839
0.0298924 0.265339 0.021912
0.0593576 0.261173 0.0264134
0.131197 0.260899 0.0365911
0.22562 0.253376 0.0631418
0.311299 0.257481 0.0747082
0.403433 0.259373 0.0931411
0.497826 0.250721 0.11162
0.585077 0.238834 0.117891
0.661921 0.217533 0.125002
0.727779 0.190234 0.118746
0.7794 0.153323 0.0992142
0.789029 0.100465 0.0753948
0.765347 0.0644846 0.0562295
0.751461 0.050721 0.0481727
0.74374 0.0518959 0.0548409
0.736339 0.0500496 0.0594339
0.734798 0.0492409 0.0598917
0.733669 0.0484932 0.0597848
0.733379 0.0490883 0.0601358
0.732998 0.0490425 0.0603189
0.732677 0.0489967 0.0605173
0.732311 0.0489509 0.0607309
0.732067 0.0489204 0.060914
0.731991 0.0489052 0.0609445
0.731975 0.0488899 0.0609445
0.732784 0.0487526 0.0606088
0.734096 0.0484016 0.0602274
0.0145571 0.349523 0.0266117
0.0150607 0.349996 0.0234226
0.0159304 0.349508 0.0189822
0.0164034 0.348302 0.0138705
0.0162661 0.346685 0.0125124
0.016022 0.344411 0.0125124
0.0234836 0.344335 0.0139162
0.0480049 0.343236 0.0173495
0.0986954 0.339773 0.0239261
0.194827 0.337377 0.0422065
0.304585 0.328222 0.0708171
0.403265 0.334325 0.0835889
0.495109 0.347433 0.0990311
0.592844 0.344045 0.127352
0.679088 0.338872 0.143923
0.755581 0.327138 0.151904
0.823316 0.304036 0.155734
0.862821 0.265217 0.154116
0.857527 0.239902 0.143908
0.848753 0.219593 0.133715
0.839704 0.199283 0.123613
0.830808 0.180987 0.114092
0.824002 0.166033 0.106401
0.817334 0.152712 0.0995956
0.813001 0.144076 0.0953231
0.809812 0.138155 0.0921645
0.806683 0.132784 0.0892195
0.80473 0.129107 0.0874647
0.802838 0.125704 0.0856031
0.801465 0.123537 0.0843824
0.801556 0.123812 0.0846113
0.801816 0.122759 0.0838636
0.802823 0.121401 0.0829786
0.0207218 0.441688 0.0280461
0.0212863 0.441993 0.0247349
0.0220645 0.441688 0.0195315
0.0225376 0.441093 0.0130922
0.0229648 0.44033 0.00639353
0.0229038 0.438926 0.00640879
0.0228885 0.437705 0.00634775
0.0417487 0.438025 0.00959792
0.0807507 0.433402 0.0155489
0.161807 0.429404 0.0284581
0.278767 0.423774 0.056611
0.397009 0.415518 0.0825818
0.502541 0.422049 0.0970626
0.586206 0.442481 0.0996109
0.674556 0.445594 0.139559
0.755474 0.445197 0.161044
0.828244 0.443107 0.168307
0.884855 0.436667 0.171176
0.895018 0.417914 0.173434
0.894087 0.398367 0.171206
0.892714 0.380438 0.167956
0.891447 0.365698 0.165881
0.88954 0.354223 0.166155
0.887388 0.345983 0.165972
0.886076 0.339132 0.165957
0.885374 0.334447 0.165835
0.884688 0.33109 0.165682
0.884031 0.328328 0.165499
0.883696 0.326894 0.165484
0.883452 0.326375 0.165469
0.883131 0.325551 0.165347
0.883314 0.325063 0.165026
0.883864 0.324331 0.164401
0.0328069 0.542733 0.0369726
0.033463 0.542992 0.0336614
0.0344091 0.542992 0.0280156
0.0356146 0.543038 0.0205539
0.0369879 0.544274 0.0118868
0.0394903 0.545434 0.00741588
0.038819 0.543236 0.00706493
0.0396429 0.540261 0.00679026
0.0738994 0.538369 0.0102083
0.137713 0.529915 0.0208896
0.249744 0.524681 0.043595
0.383352 0.512459 0.0800641
0.49633 0.50634 0.0985885
0.594827 0.509636 0.116854
0.674205 0.52874 0.117525
0.745602 0.545861 0.138964
0.813504 0.557107 0.15964
0.867201 0.567071 0.158221
0.880446 0.559762 0.163119
0.882338 0.548531 0.165972
0.88394 0.538064 0.167483
0.885481 0.529778 0.16849
0.886732 0.524453 0.169223
0.887678 0.518593 0.169482
0.888701 0.514046 0.169696
0.889677 0.511025 0.170016
0.890105 0.50837 0.170047
0.890288 0.506874 0.169924
0.890394 0.506065 0.169772
0.89044 0.505241 0.169619
0.890578 0.504768 0.169589
0.890715 0.504646 0.169177
0.890913 0.504295 0.168444
0.0555886 0.639017 0.0598306
0.0565194 0.639353 0.0552071
0.0575875 0.639277 0.0489509
0.0593576 0.640238 0.0405127
0.0616312 0.641779 0.0308232
0.0668498 0.643885 0.0213779
0.0688945 0.643366 0.0195621
0.0677501 0.640803 0.0189059
0.0776684 0.636576 0.0178378
0.139101 0.632364 0.0245975
0.219654 0.620752 0.0382391
0.361105 0.60972 0.0713359
0.492302 0.59411 0.108583
0.589609 0.592432 0.123354
0.682109 0.597055 0.146944
0.760616 0.615381 0.146975
0.823423 0.637049 0.146029
0.872343 0.658091 0.137209
0.887236 0.662333 0.136294
0.885908 0.655772 0.137011
0.884611 0.650416 0.137316
0.883894 0.645716 0.137987
0.882963 0.641657 0.138323
0.882551 0.638682 0.138857
0.882292 0.636255 0.139101
0.881941 0.63444 0.139315
0.881804 0.633677 0.139437
0.881514 0.632776 0.139437
0.881376 0.632166 0.139483
0.881315 0.631861 0.139528
0.8813 0.631724 0.139559
0.881376 0.631968 0.139498
0.881437 0.632197 0.139391
0.0830701 0.730007 0.0852979
0.0842603 0.730571 0.0806134
0.0866865 0.732097 0.0737774
0.0889296 0.73315 0.0654612
0.0916457 0.734508 0.0549325
0.0972 0.736355 0.0425422
0.107759 0.738796 0.0366522
0.107118 0.736828 0.0363928
0.106569 0.734279 0.0361028
0.139345 0.726329 0.0324254
0.223575 0.716503 0.0462348
0.335515 0.700099 0.0700389
0.479438 0.684993 0.111162
0.597131 0.674464 0.144305
0.683131 0.68098 0.158785
0.770336 0.689052 0.183246
0.846082 0.705303 0.186511
0.903288 0.728298 0.170871
0.932494 0.738323 0.169879
0.929168 0.731517 0.165331
0.926635 0.727565 0.162692
0.924285 0.723888 0.160464
0.922698 0.721035 0.159014
0.921798 0.719615 0.158175
0.920943 0.718227 0.157504
0.920439 0.717556 0.157275
0.919799 0.716594 0.156817
0.919341 0.715892 0.156497
0.919005 0.715389 0.156298
0.918853 0.715145 0.156207
0.918853 0.71519 0.156268
0.919142 0.715663 0.156573
0.919005 0.715434 0.156451
0.113146 0.817456 0.110796
0.114641 0.818738 0.105379
0.116304 0.819837 0.0973983
0.11841 0.82118 0.0873884
0.12105 0.82266 0.0756237
0.128389 0.825589 0.0625925
0.144778 0.829557 0.0559243
0.152132 0.831159 0.0533913
0.150805 0.827939 0.0530251
0.154009 0.823453 0.0521553
0.229007 0.807492 0.0505379
0.334279 0.789029 0.0746471
0.476677 0.769985 0.113405
0.599222 0.762615 0.156985
0.703212 0.7608 0.19147
0.781247 0.777417 0.206043
0.862013 0.79147 0.22826
0.926955 0.808682 0.228504
0.965393 0.813062 0.238193
0.96939 0.807004 0.231281
0.9673 0.803052 0.227359
0.966247 0.801038 0.225071
0.965331 0.799069 0.222873
0.96466 0.797833 0.22153
0.963989 0.796536 0.220295
0.963455 0.795544 0.219226
0.963043 0.794873 0.218463
0.962783 0.794446 0.217945
0.962676 0.794202 0.217716
0.962829 0.794568 0.218112
0.962798 0.794522 0.218097
0.962814 0.794537 0.218128
0.962707 0.794385 0.217975
0.141146 0.902663 0.127016
0.14229 0.904112 0.122225
0.143008 0.905531 0.115633
0.145647 0.907485 0.1037
0.149996 0.909819 0.0871595
0.162417 0.913924 0.0788739
0.182055 0.920073 0.074052
0.196948 0.930205 0.0715343
0.197086 0.926726 0.0710155
0.196002 0.923033 0.071107
0.247227 0.909239 0.0700084
0.34757 0.883223 0.084535
0.479545 0.853986 0.115496
0.617517 0.844144 0.164599
0.727138 0.844114 0.207568
0.817594 0.859861 0.231815
0.884962 0.876173 0.24802
0.938796 0.879545 0.268635
0.977829 0.880156 0.278386
0.994293 0.877546 0.284764
0.993469 0.87303 0.281712
0.992935 0.871092 0.280308
0.992737 0.870161 0.279622
0.99237 0.86894 0.278691
0.992279 0.868116 0.278264
0.992126 0.867506 0.277897
0.991958 0.866987 0.277516
0.991836 0.866545 0.277211
0.991897 0.866773 0.277394
0.991836 0.866636 0.277302
0.991836 0.86659 0.277272
0.991821 0.866606 0.277287
0.991791 0.866438 0.27718
0.15349 0.980209 0.148287
0.152926 0.981201 0.145327
0.151614 0.982208 0.140307
0.150637 0.983383 0.135073
0.15021 0.984909 0.130266
0.150958 0.986206 0.126711
0.152102 0.987213 0.123247
0.154757 0.987518 0.119493
0.157061 0.987045 0.116197
0.160327 0.986389 0.111772
0.175479 0.984955 0.10251
0.330755 0.971328 0.105501
0.47274 0.942138 0.139284
0.623102 0.918441 0.188281
0.736584 0.912383 0.238972
0.832609 0.912001 0.275868
0.895598 0.925994 0.282429
0.945052 0.931212 0.297246
0.986053 0.931548 0.324086
0.999969 0.931044 0.328923
0.999969 0.928405 0.326238
0.999969 0.927825 0.325628
0.999969 0.927275 0.324971
0.999969 0.926787 0.324376
0.999969 0.926375 0.323873
0.999969 0.926146 0.323537
0.999969 0.926177 0.323583
0.999969 0.926024 0.32343
0.999969 0.925887 0.323262
0.999969 0.925826 0.323201
0.999969 0.925826 0.323201
0.999969 0.925841 0.323232
0.999969 0.926192 0.32369
0.137026 0.990143 0.230442
0.135958 0.990494 0.228977
0.134203 0.991089 0.226368
0.132891 0.991501 0.224079
0.131899 0.991913 0.220844
0.131746 0.99205 0.218204
0.131701 0.992096 0.216388
0.132311 0.992035 0.213077
0.132815 0.991974 0.210285
0.133028 0.991928 0.209598
0.133684 0.991775 0.208133
0.152682 0.989502 0.150378
0.32929 0.978927 0.108171
0.536736 0.956695 0.168688
0.693507 0.939956 0.231312
0.801068 0.933806 0.280659
0.885969 0.940856 0.307622
0.940154 0.951308 0.316732
0.985702 0.953841 0.336126
0.999969 0.954681 0.362554
0.999969 0.954543 0.367926
0.999969 0.954376 0.363348
0.999969 0.95436 0.363409
0.999969 0.95436 0.363409
0.999969 0.954376 0.363378
0.999969 0.954498 0.363546
0.999969 0.954528 0.363577
0.999969 0.954528 0.363546
0.999969 0.954513 0.363516
0.999969 0.954513 0.363531
0.999969 0.954513 0.363531
0.999969 0.954513 0.363699
0.999969 0.954513 0.363745
0.135775 0.990219 0.235737
0.134798 0.990555 0.234195
0.132967 0.991135 0.23183
0.131823 0.991547 0.229129
0.130846 0.991958 0.226078
0.13077 0.992142 0.223194
0.130907 0.992187 0.220798
0.13138 0.992142 0.218189
0.132082 0.99205 0.214267
0.132082 0.99205 0.214221
0.132082 0.99205 0.214221
0.137835 0.991119 0.184878
0.204883 0.985687 0.0906233
0.415488 0.971252 0.132097
0.614588 0.947051 0.19791
0.747982 0.936324 0.257084
0.84593 0.935668 0.29839
0.919219 0.948318 0.311055
0.969497 0.954192 0.328115
0.999817 0.954864 0.348928
0.999969 0.954971 0.364874
0.999969 0.955184 0.370428
0.999969 0.955184 0.370611
0.999969 0.955184 0.370657
0.999969 0.955184 0.370718
0.999969 0.955184 0.370794
0.999969 0.955169 0.370855
0.999969 0.955184 0.370901
0.999969 0.955184 0.370932
0.999969 0.955184 0.370962
0.999969 0.955169 0.370977
0.999969 0.955169 0.370977
0.999969 0.955169 0.370977
0.131579 0.991318 0.234043
0.131579 0.991348 0.233433
0.131334 0.99147 0.232242
0.130999 0.991653 0.23032
0.13051 0.991928 0.227695
0.130465 0.992126 0.224689
0.130755 0.992203 0.221546
0.131167 0.992172 0.219409
0.13193 0.992081 0.215076
0.132082 0.99205 0.214221
0.132082 0.99205 0.214221
0.13434 0.991745 0.201862
0.17554 0.987121 0.100725
0.383505 0.974533 0.122438
0.570871 0.952911 0.180896
0.726329 0.937804 0.246876
0.828824 0.934859 0.291447
0.9075 0.945953 0.309361
0.959533 0.953597 0.323384
0.997864 0.954559 0.344213
0.999969 0.954925 0.362005
0.999969 0.955123 0.36878
0.999969 0.955169 0.369894
0.999969 0.955169 0.369894
0.999969 0.955169 0.369894
0.999969 0.955169 0.369894
0.999969 0.955169 0.369894
0.999969 0.955169 0.369894
0.999969 0.955169 0.369894
0.999969 0.955154 0.370031
0.999969 0.955123 0.370321
0.999969 0.955077 0.370733
0.999969 0.955047 0.371008
0.133318 0.990753 0.236713
0.133455 0.990768 0.236118
0.133333 0.990845 0.235065
0.132937 0.991012 0.233646
0.132662 0.991257 0.231006
0.132769 0.991424 0.227893
0.133165 0.991501 0.224567
0.133608 0.99147 0.222248
0.134447 0.991379 0.217823
0.134676 0.991333 0.216449
0.134676 0.991333 0.216449
0.135698 0.991196 0.211048
0.162478 0.987793 0.12639
0.356924 0.976394 0.115862
0.542123 0.956649 0.171115
0.709041 0.938598 0.239033
0.816327 0.933745 0.287129
0.898268 0.943679 0.309667
0.953155 0.95285 0.322103
0.994781 0.954284 0.34229
0.999969 0.954757 0.361639
0.999969 0.95491 0.36849
0.999969 0.955032 0.371145
0.999969 0.955032 0.371145
0.999969 0.955032 0.371145
0.999969 0.955032 0.371145
0.999969 0.955032 0.371145
0.999969 0.955047 0.371008
0.999969 0.955077 0.370733
0.999969 0.955123 0.370321
0.999969 0.955139 0.370184
0.999969 0.955123 0.370321
0.999969 0.955077 0.370733
0.13283 0.990829 0.237385
0.133257 0.990753 0.237003
0.13315 0.990845 0.235935
0.132799 0.991012 0.234394
0.132433 0.991241 0.232059
0.132525 0.991409 0.228992
0.132967 0.991501 0.225452
0.133532 0.99147 0.22266
0.13434 0.991394 0.218433
0.134676 0.991333 0.216449
0.134676 0.991333 0.216449
0.135348 0.991241 0.213062
0.155627 0.988342 0.140032
0.333959 0.978225 0.109804
0.524804 0.958724 0.164981
0.694392 0.940078 0.231952
0.80647 0.934005 0.283314
0.889693 0.941756 0.308797
0.946883 0.952377 0.319707
0.990845 0.954223 0.339467
0.999969 0.954833 0.358923
0.999969 0.954864 0.367346
0.999969 0.955032 0.371084
0.999969 0.955032 0.371145
0.999969 0.955032 0.371145
0.999969 0.955032 0.371145
0.999969 0.955032 0.371145
0.999969 0.955047 0.371008
0.999969 0.955077 0.370733
0.999969 0.955123 0.370321
0.999969 0.955139 0.370184
0.999969 0.955123 0.370321
0.999969 0.955077 0.370733
0.132677 0.990814 0.238117
0.133089 0.990738 0.237751
0.132998 0.990845 0.236667
0.132677 0.991012 0.235004
0.13225 0.991241 0.232868
0.132326 0.991394 0.229831
0.13286 0.991516 0.226017
0.133486 0.991485 0.222919
0.134234 0.991409 0.218982
0.134676 0.991333 0.216449
0.134676 0.991333 0.216449
0.135058 0.991287 0.214649
0.151186 0.988571 0.146715
0.319768 0.979324 0.106081
0.511604 0.960678 0.160739
0.681865 0.940887 0.226123
0.797238 0.934051 0.279149
0.883024 0.940429 0.308034
0.942 0.951705 0.317769
0.987198 0.954284 0.337209
0.999969 0.954894 0.356146
0.999969 0.954818 0.366308
0.999969 0.955032 0.371008
0.999969 0.955032 0.371145
0.999969 0.955032 0.371145
0.999969 0.955032 0.371145
0.999969 0.955032 0.371145
0.999969 0.955047 0.371008
0.999969 0.955077 0.370733
0.999969 0.955123 0.370321
0.999969 0.955154 0.370031
0.999969 0.955154 0.370031
0.999969 0.955123 0.370321
0.131991 0.990982 0.238193
0.132692 0.990829 0.238025
0.132891 0.990829 0.237186
0.132555 0.991012 0.235554
0.132113 0.991226 0.233433
0.132189 0.991379 0.230426
0.132769 0.991501 0.226459
0.133425 0.991485 0.223194
0.134142 0.991409 0.21944
0.134676 0.991333 0.216449
0.134676 0.991333 0.216449
0.134691 0.991333 0.216419
0.149126 0.988922 0.152209
0.307317 0.979965 0.102953
0.50309 0.961608 0.157946
0.673548 0.941482 0.222217
0.790021 0.934157 0.275776
0.879194 0.939376 0.307744
0.938293 0.951171 0.31603
0.983566 0.954452 0.334691
0.999969 0.954955 0.353216
0.999969 0.954879 0.364874
0.999969 0.955062 0.370291
0.999969 0.955062 0.370825
0.999969 0.955062 0.370901
0.999969 0.955047 0.370962
0.999969 0.955047 0.371023
0.999969 0.955062 0.370916
0.999969 0.955093 0.370657
0.999969 0.955123 0.37026
0.999969 0.955154 0.369985
0.999969 0.955169 0.369863
0.999969 0.955154 0.370001
0.13109 0.991226 0.237842
0.13196 0.990997 0.237903
0.132433 0.990921 0.237324
0.132418 0.991012 0.235904
0.132006 0.991226 0.233814
0.132097 0.991379 0.230869
0.132662 0.991501 0.226947
0.133379 0.991485 0.223407
0.134081 0.991424 0.21973
0.134676 0.991333 0.216449
0.134676 0.991333 0.216449
0.134676 0.991333 0.216449
0.147402 0.989212 0.157992
0.297749 0.980941 0.10132
0.49691 0.962203 0.156024
0.667384 0.942397 0.219501
0.785992 0.934493 0.273884
0.875746 0.93846 0.307652
0.935363 0.950759 0.315114
0.98085 0.954406 0.333181
0.999969 0.95494 0.350881
0.999969 0.95494 0.363699
0.999969 0.955139 0.368994
0.999969 0.955154 0.369924
0.999969 0.955154 0.36994
0.999969 0.955154 0.369955
0.999969 0.955154 0.36997
0.999969 0.955169 0.369848
0.999969 0.9552 0.369589
0.999969 0.955261 0.369192
0.999969 0.955291 0.368917
0.999969 0.955306 0.368795
0.999969 0.955306 0.368795
0.128389 0.991943 0.236011
0.12903 0.991791 0.235752
0.129946 0.991608 0.235492
0.130739 0.99147 0.234714
0.131243 0.991424 0.233494
0.131777 0.99144 0.230991
0.132586 0.991501 0.227268
0.133349 0.991501 0.223575
0.134051 0.991424 0.219959
0.134676 0.991333 0.216449
