bundles/resolve-cinematic-luts/Phantom Luts/Komodo Phantom ARRI LUTs G2/Komodo Phantom ARRI LUTs G2/33x/Standard (No WB Offset)/Utopia_Komodo_G2_33x.cube
TITLE "Generated by Resolve"
LUT_3D_SIZE 33
0.00753796 0.0331579 0.041886
0.00753796 0.0331273 0.0418555
0.00918593 0.0329442 0.0415351
0.0250858 0.0322423 0.0428168
0.0520943 0.0297856 0.0415351
0.085069 0.0264286 0.0386969
0.125246 0.0220951 0.035935
0.171252 0.0171664 0.0346532
0.224521 0.0128939 0.0345006
0.286625 0.0108492 0.0389868
0.355535 0.011368 0.0468757
0.429603 0.0116274 0.0613565
0.504799 0.0124208 0.0805524
0.572503 0.0126955 0.10251
0.633967 0.0140688 0.121675
0.68864 0.0203555 0.13669
0.722667 0.0248722 0.153613
0.725078 0.0254063 0.162585
0.727306 0.025864 0.170611
0.728969 0.0262455 0.177554
0.730236 0.0266117 0.184085
0.731441 0.0269169 0.189395
0.732174 0.0268864 0.193088
0.732708 0.0269627 0.196841
0.73344 0.0271611 0.2
0.733974 0.0273136 0.202319
0.73434 0.0274205 0.204273
0.734768 0.027451 0.205692
0.735164 0.0274357 0.206821
0.736294 0.0271916 0.207523
0.737819 0.0267796 0.208164
0.740566 0.0260014 0.20853
0.743618 0.0251011 0.208972
0.00753796 0.0331273 0.0418555
0.00753796 0.0331426 0.0418708
0.00753796 0.0331273 0.0418555
0.0205844 0.0327306 0.0421302
0.0476997 0.0302739 0.0418097
0.0815595 0.0269322 0.0390784
0.122484 0.0225376 0.0360723
0.169421 0.0170901 0.0331884
0.221073 0.0120241 0.0304723
0.28159 0.00849927 0.0315251
0.351537 0.00796521 0.0377813
0.426734 0.00831617 0.0513466
0.501534 0.00820935 0.069749
0.569177 0.00881971 0.0915389
0.633066 0.0138552 0.112932
0.687572 0.0199435 0.127703
0.721721 0.0243076 0.145998
0.724239 0.0247807 0.156313
0.726711 0.0252079 0.16463
0.728664 0.0255894 0.171664
0.730083 0.0259251 0.177615
0.731167 0.0261845 0.182895
0.732189 0.0264286 0.187076
0.732921 0.0265049 0.190692
0.733394 0.0264897 0.192599
0.7337 0.0265049 0.194614
0.733928 0.0265354 0.196368
0.734234 0.0266117 0.197726
0.734462 0.0266728 0.198718
0.735134 0.026566 0.19942
0.736324 0.0262608 0.200061
0.739086 0.0254978 0.200412
0.742016 0.0246433 0.200809
0.00753796 0.0331273 0.0418555
0.00753796 0.0331426 0.0418708
0.00753796 0.0331273 0.0418555
0.013077 0.0335546 0.0416419
0.0372931 0.0321813 0.043183
0.0710613 0.0296941 0.0398718
0.114046 0.02533 0.0366064
0.162402 0.0197299 0.0334936
0.216251 0.0138857 0.0303807
0.277241 0.00939956 0.0295872
0.345235 0.00688182 0.0310369
0.418647 0.0043183 0.0366217
0.494652 0.00390631 0.0529183
0.565423 0.00796521 0.0771954
0.630045 0.013489 0.100343
0.684703 0.0195773 0.115206
0.717342 0.0240635 0.130602
0.721736 0.0243076 0.145739
0.724041 0.0247349 0.15555
0.726207 0.0251164 0.162875
0.728023 0.0254368 0.16936
0.729244 0.0257115 0.173907
0.730175 0.0259556 0.17789
0.730816 0.0261082 0.181231
0.731395 0.0262303 0.183917
0.731884 0.0263523 0.185611
0.732219 0.0264286 0.187182
0.732494 0.0264897 0.188388
0.732692 0.0265202 0.189258
0.733333 0.0263371 0.189868
0.734554 0.0259861 0.19028
0.737072 0.0252232 0.1906
0.740063 0.0243229 0.190829
0.00860609 0.0414282 0.0436408
0.0087892 0.0406806 0.0437324
0.0103304 0.0390936 0.0435492
0.0137179 0.0371862 0.0431373
0.0266423 0.038407 0.043946
0.0583352 0.0352483 0.0422827
0.100832 0.0298161 0.0370642
0.151522 0.024567 0.0334783
0.208515 0.0188907 0.0307774
0.271992 0.0144503 0.0294804
0.342641 0.0121004 0.0311742
0.416434 0.00737011 0.0349432
0.488167 0.00367742 0.041001
0.55671 0.00726329 0.0554971
0.621958 0.0128328 0.0775769
0.678187 0.0187991 0.0933852
0.709545 0.0229648 0.106783
0.71574 0.0238346 0.123339
0.719402 0.0239567 0.137636
0.722606 0.0244602 0.14931
0.724285 0.0247959 0.156512
0.725856 0.0250401 0.161913
0.727077 0.0252689 0.166049
0.727977 0.0254215 0.169299
0.728603 0.0255741 0.171298
0.729046 0.0256657 0.173129
0.729381 0.0257267 0.174578
0.72961 0.0257725 0.17557
0.729778 0.0258183 0.176318
0.730358 0.0256962 0.176928
0.731594 0.025391 0.177188
0.734264 0.0246128 0.177203
0.737148 0.023743 0.177386
0.00476081 0.0666972 0.0385748
0.00491341 0.0658885 0.0388952
0.00570687 0.064271 0.0393072
0.0125277 0.0601816 0.0411383
0.0289921 0.0584726 0.041825
0.0599527 0.0576944 0.0474861
0.10103 0.0526894 0.0452735
0.148531 0.043534 0.0371862
0.202533 0.0299992 0.0308537
0.263798 0.0214237 0.0288396
0.336721 0.0181125 0.0308385
0.41236 0.0132753 0.0351568
0.48632 0.00747692 0.0407111
0.553338 0.00695811 0.0513924
0.615198 0.012314 0.0639353
0.667948 0.0178683 0.0744488
0.695521 0.0213931 0.0818647
0.702068 0.0221103 0.0905776
0.70811 0.0227817 0.102007
0.713314 0.0234989 0.115755
0.717113 0.0240482 0.127977
0.719005 0.0239567 0.136248
0.721294 0.0242313 0.143923
0.72221 0.0243992 0.148379
0.723171 0.0245365 0.151751
0.72372 0.0246433 0.153994
0.724056 0.0247349 0.155169
0.72433 0.0247959 0.156344
0.724575 0.0248417 0.157214
0.725292 0.0246891 0.157794
0.726528 0.0243839 0.15816
0.729137 0.0236362 0.158282
0.732052 0.022797 0.158282
0.000183108 0.0998703 0.028275
0.000274662 0.0990158 0.0277104
0.000564584 0.0978866 0.0283055
0.00668345 0.0949416 0.0296788
0.0191653 0.0901045 0.0325475
0.0558633 0.0893873 0.035874
0.102739 0.0871138 0.0484627
0.156909 0.0787823 0.0512703
0.213718 0.0664073 0.0449531
0.273228 0.0511482 0.0346532
0.337377 0.0316167 0.0297704
0.405615 0.020676 0.034165
0.482277 0.0141909 0.0398718
0.549844 0.00816358 0.048661
0.613748 0.0121004 0.061387
0.669535 0.0180362 0.0731518
0.698421 0.0219272 0.0783856
0.697475 0.0218051 0.07776
0.695064 0.0213931 0.0771344
0.69572 0.0214694 0.0796521
0.699214 0.021973 0.0851759
0.702144 0.0221256 0.0900282
0.704829 0.0223697 0.0952316
0.707317 0.0226749 0.100328
0.709194 0.0229496 0.104402
0.710399 0.0231327 0.108156
0.71133 0.0232547 0.110567
0.71194 0.023331 0.112169
0.712474 0.0233921 0.11371
0.713359 0.02327 0.114672
0.714687 0.0229801 0.115084
0.717128 0.0222629 0.114839
0.720226 0.0214389 0.114748
0 0.144549 0.016968
0 0.143969 0.0143435
0 0.142962 0.0146487
0 0.141054 0.0153353
0.0113832 0.137102 0.0184634
0.0380407 0.134157 0.022446
0.0973068 0.129381 0.0355688
0.156527 0.128664 0.0484169
0.224125 0.11931 0.0579385
0.294484 0.1019 0.0577249
0.361746 0.0818341 0.0501869
0.422568 0.0540932 0.036347
0.485435 0.027863 0.0352941
0.546853 0.0159762 0.0455787
0.610285 0.0115816 0.0557717
0.67071 0.0176089 0.0690776
0.708644 0.0222477 0.0784924
0.711086 0.0227512 0.079408
0.708766 0.0225223 0.0792248
0.706691 0.0222782 0.078996
0.704921 0.0222782 0.0789197
0.703502 0.0222782 0.0788434
0.702281 0.0221103 0.0785229
0.701228 0.021973 0.078294
0.70045 0.0218967 0.0781262
0.699779 0.0218204 0.0779889
0.699321 0.0217594 0.0778668
0.69897 0.0217136 0.0778058
0.698665 0.0216831 0.0777142
0.698878 0.0215915 0.0776226
0.699321 0.0214084 0.0774853
0.700664 0.0210269 0.0771649
0.702129 0.0205692 0.0767987
0 0.198215 0.00749218
0 0.197299 0.00306706
0 0.195911 0.00199893
0 0.194217 0.00239567
0.000579843 0.191699 0.00396735
0.0211185 0.188693 0.00881971
0.0678264 0.187366 0.014847
0.15021 0.178775 0.0368505
0.220859 0.179461 0.0501411
0.302663 0.170901 0.0675364
0.384756 0.152255 0.0753338
0.456718 0.131075 0.0738689
0.523476 0.105684 0.0644846
0.576181 0.0632029 0.0491646
0.616144 0.0214084 0.0422675
0.668437 0.0170596 0.059144
0.716442 0.0229038 0.0738842
0.724926 0.024155 0.0781872
0.723415 0.0239414 0.0785382
0.721874 0.0237125 0.0788891
0.720699 0.0234684 0.079118
0.719585 0.0233005 0.0792554
0.718746 0.0231785 0.0793011
0.718151 0.0230869 0.0793469
0.717708 0.0230411 0.0793927
0.717311 0.0229801 0.0793927
0.717098 0.0229496 0.0793927
0.71693 0.0229343 0.0794232
0.716899 0.0229191 0.079408
0.716823 0.0229191 0.079408
0.716777 0.0229038 0.0793927
0.717388 0.0227207 0.0792554
0.718624 0.0223545 0.0789502
0 0.261051 0.00158694
0 0.260441 0
0 0.259174 0
0 0.257832 0
0 0.256397 0
0.0112306 0.255528 0
0.0433967 0.251179 0.00148013
0.116716 0.249027 0.0133059
0.212848 0.238346 0.0406348
0.297551 0.241047 0.055024
0.391592 0.236362 0.0834211
0.476707 0.222278 0.10013
0.556954 0.199207 0.108049
0.624262 0.175616 0.105974
0.678752 0.140505 0.0923934
0.713237 0.0713664 0.0597848
0.729046 0.025803 0.0442359
0.738552 0.0262913 0.0685435
0.736477 0.0258946 0.0710613
0.735515 0.0257115 0.0720073
0.7346 0.0255741 0.0728618
0.733913 0.0255131 0.0733654
0.73341 0.0254673 0.0738079
0.733059 0.0254063 0.0742199
0.732708 0.0253758 0.0745556
0.732448 0.0253605 0.074815
0.73225 0.0253452 0.0749676
0.732219 0.0253452 0.0749828
0.732097 0.0253452 0.0750744
0.732036 0.02533 0.0751049
0.731991 0.02533 0.0751049
0.732769 0.0251164 0.0749065
0.734264 0.0247196 0.074464
0 0.336568 0.00277714
0 0.336416 0
0 0.33518 0
0 0.334462 0
0 0.332357 0
0.00146487 0.330434 0
0.0306554 0.331395 0
0.0790723 0.325933 0
0.177981 0.322347 0.0188296
0.290501 0.311711 0.0495155
0.387167 0.316289 0.0661021
0.478462 0.320516 0.100771
0.568856 0.311574 0.128206
0.653422 0.294392 0.141299
0.725704 0.266667 0.154849
0.781643 0.234455 0.144762
0.817624 0.185504 0.117357
0.808118 0.108934 0.0752422
0.775418 0.0500343 0.0486915
0.760098 0.0340429 0.0361791
0.755901 0.0326696 0.0482032
0.751171 0.0301823 0.0567178
0.749203 0.0286259 0.0567941
0.748699 0.0285039 0.0570382
0.748287 0.0284123 0.057145
0.748058 0.0283665 0.0575265
0.74789 0.0283207 0.0579385
0.747677 0.028275 0.058381
0.747539 0.0282292 0.0587015
0.747478 0.0282292 0.0587778
0.747478 0.0282292 0.0587625
0.748547 0.027985 0.0581674
0.750484 0.027451 0.057557
0.00306706 0.424887 0.0107424
0.00427253 0.425315 0.004654
0.00555428 0.424338 0
0.00637827 0.422797 0
0.00669871 0.421149 0
0.00596628 0.418723 0
0.0197604 0.419226 0
0.062501 0.418509 0
0.138003 0.413413 0.00584421
0.257954 0.406989 0.0349126
0.38114 0.395544 0.0638132
0.48278 0.401343 0.0820935
0.567788 0.415641 0.110155
0.656809 0.414084 0.150561
0.737926 0.406226 0.173693
0.8094 0.388098 0.18204
0.864057 0.359869 0.185962
0.891966 0.314305 0.181033
0.886213 0.28481 0.168048
0.877836 0.260365 0.155535
0.868605 0.235798 0.143328
0.859617 0.213642 0.132097
0.851759 0.194858 0.122225
0.844465 0.179385 0.114015
0.839582 0.168978 0.108553
0.835462 0.160098 0.103838
0.831891 0.152728 0.100069
0.829084 0.147051 0.0971542
0.826902 0.142702 0.0948348
0.82533 0.139666 0.0932937
0.82536 0.139788 0.0934615
0.825727 0.138369 0.0925307
0.826886 0.136385 0.0910353
0.0136416 0.519585 0.0235752
0.0148623 0.519738 0.0177768
0.016556 0.51931 0.0090486
0.0180514 0.518441 0
0.0192111 0.517082 0
0.0187839 0.515175 0
0.018677 0.513985 0
0.0514992 0.516121 0
0.112169 0.511208 0.00112917
0.218097 0.503487 0.0228275
0.354498 0.492348 0.0609903
0.476539 0.48278 0.082948
0.577676 0.488899 0.103059
0.654353 0.508186 0.113848
0.731731 0.512139 0.167452
0.803601 0.511879 0.189944
0.863951 0.508095 0.194949
0.906523 0.50042 0.193713
0.914199 0.480674 0.196109
0.913802 0.460456 0.192493
0.913283 0.442084 0.188495
0.912261 0.42649 0.18674
0.911391 0.414221 0.188617
0.910216 0.405188 0.189364
0.909377 0.397253 0.189944
0.909194 0.391928 0.190555
0.908675 0.387808 0.190631
0.90811 0.384695 0.190631
0.907835 0.382864 0.19086
0.90779 0.382345 0.191058
0.907729 0.381552 0.19118
0.907912 0.381079 0.190906
0.9084 0.380346 0.190372
0.0348516 0.613794 0.0484321
0.0357824 0.613855 0.0431678
0.0372931 0.61355 0.0339361
0.0392615 0.613214 0.0217136
0.0417487 0.613718 0.00648508
0.0460517 0.614527 0
0.0450141 0.612543 0
0.046952 0.610224 0
0.101686 0.60882 0.00381476
0.184741 0.600687 0.0186465
0.321187 0.590677 0.0502327
0.462821 0.574792 0.0915999
0.570459 0.568078 0.107836
0.661891 0.57142 0.134127
0.735653 0.588617 0.133776
0.798352 0.604685 0.161028
0.852995 0.615396 0.184024
0.893874 0.62472 0.175158
0.903243 0.618158 0.180377
0.903746 0.607599 0.183536
0.904677 0.598123 0.185916
0.905821 0.590509 0.187228
0.906569 0.585077 0.187808
0.907607 0.579828 0.188617
0.908141 0.575418 0.188693
0.908797 0.572396 0.188952
0.909163 0.570138 0.189105
0.90927 0.56878 0.188952
0.9093 0.568048 0.188754
0.909316 0.567269 0.188586
0.909392 0.566735 0.188525
0.909453 0.566522 0.188144
0.90959 0.566018 0.187533
0.0635691 0.703914 0.0829023
0.065095 0.704143 0.0756542
0.0667735 0.703914 0.0662547
0.0693675 0.70457 0.0538643
0.0728161 0.705623 0.0388647
0.0808423 0.706935 0.0228275
0.0843366 0.706325 0.0197299
0.0831769 0.704082 0.0193484
0.0993973 0.700191 0.0175021
0.183398 0.695018 0.0278477
0.283467 0.681682 0.0491646
0.441627 0.665385 0.0944228
0.565927 0.649943 0.129641
0.656184 0.64831 0.141558
0.741634 0.652949 0.170016
0.813779 0.669169 0.166064
0.866835 0.688151 0.160067
0.905364 0.706294 0.139162
0.916152 0.709987 0.1355
0.914427 0.704097 0.137758
0.91313 0.699397 0.139437
0.912093 0.695109 0.141207
0.911131 0.691569 0.142321
0.910338 0.688685 0.143145
0.909773 0.686381 0.143801
0.909636 0.685008 0.144396
0.909529 0.684443 0.14461
0.90927 0.683665 0.144793
0.909148 0.683131 0.144945
0.909087 0.682872 0.145022
0.909072 0.68275 0.145052
0.909163 0.682979 0.145006
0.909239 0.683207 0.144945
0.0950179 0.787549 0.114092
0.0964523 0.788006 0.108003
0.0996414 0.789288 0.0980545
0.102846 0.790097 0.0853742
0.106661 0.791043 0.069398
0.1149 0.792493 0.051194
0.130449 0.79443 0.0418555
0.129839 0.79266 0.0416724
0.129061 0.790082 0.0412299
0.177722 0.78201 0.0361639
0.282216 0.770474 0.058381
0.411139 0.750469 0.0920272
0.553017 0.733425 0.139391
0.661982 0.724743 0.171771
0.741512 0.730343 0.184039
0.821378 0.738109 0.211246
0.88629 0.752178 0.210834
0.932143 0.770642 0.182254
0.953704 0.778729 0.177844
0.951095 0.772549 0.171542
0.949279 0.769162 0.16846
0.947463 0.765896 0.165652
0.945861 0.763195 0.163638
0.945022 0.761822 0.162539
0.944564 0.760784 0.161868
0.944274 0.760266 0.161639
0.943786 0.759441 0.161074
0.94345 0.758831 0.160662
0.943206 0.758404 0.160388
0.943069 0.758175 0.160266
0.943114 0.758236 0.160372
0.943343 0.758663 0.160815
0.943221 0.758465 0.160662
0.128206 0.864378 0.140841
0.130709 0.86566 0.134447
0.132708 0.866575 0.125063
0.135256 0.867613 0.112779
0.138659 0.86862 0.0961318
0.149477 0.8701 0.0760662
0.173449 0.873045 0.0661631
0.182391 0.873732 0.0620432
0.181521 0.871321 0.0620279
0.186389 0.867552 0.061265
0.281331 0.851377 0.0593118
0.405432 0.831464 0.0952773
0.549661 0.810575 0.145159
0.66212 0.802884 0.188296
0.758434 0.801297 0.222232
0.829892 0.814664 0.234485
0.897993 0.82565 0.256245
0.949294 0.839429 0.251743
0.977188 0.842039 0.260594
0.980438 0.837308 0.252979
0.979126 0.834134 0.248692
0.978225 0.832227 0.246128
0.977722 0.830777 0.243839
0.97731 0.829755 0.24242
0.976928 0.828687 0.241016
0.976577 0.827863 0.24004
0.976333 0.827314 0.239322
0.976165 0.826932 0.238804
0.976059 0.826673 0.238422
0.976226 0.827054 0.238926
0.976211 0.827008 0.238865
0.976211 0.827024 0.23888
0.976165 0.826871 0.238682
0.157351 0.932235 0.157626
0.158953 0.933303 0.15111
0.160235 0.934295 0.142626
0.163714 0.935561 0.128527
0.169146 0.936889 0.107759
0.186236 0.9393 0.0951858
0.209613 0.943343 0.0874037
0.226993 0.95021 0.082063
0.227939 0.947646 0.0817426
0.226688 0.944976 0.0817121
0.293294 0.93283 0.0814527
0.413382 0.908934 0.104463
0.550256 0.880461 0.146746
0.677714 0.869062 0.196567
0.778164 0.868025 0.239384
0.859724 0.879332 0.261997
0.915496 0.891447 0.275792
0.957137 0.894453 0.296864
0.985397 0.894865 0.30573
0.996262 0.892989 0.312535
0.995865 0.88954 0.309178
0.995605 0.88809 0.307668
0.99556 0.887388 0.306981
0.995346 0.886534 0.306127
0.995193 0.88574 0.305379
0.995087 0.885237 0.304814
0.995026 0.884825 0.304402
0.994949 0.884489 0.304082
0.99498 0.884672 0.304295
0.994965 0.884565 0.304204
0.994965 0.884535 0.304189
0.994965 0.88455 0.304204
0.994949 0.884428 0.304082
0.158267 0.988403 0.177935
0.157519 0.98912 0.174273
0.15639 0.989853 0.168551
0.155413 0.990707 0.162615
0.154757 0.991745 0.156909
0.155612 0.992508 0.151446
0.157031 0.993057 0.146822
0.160418 0.993072 0.14139
0.16347 0.992706 0.136889
0.167391 0.992187 0.131487
0.18761 0.99089 0.119158
0.385473 0.976867 0.127565
0.538979 0.950011 0.171466
0.681147 0.927291 0.227466
0.784527 0.920058 0.278721
0.870054 0.918685 0.314549
0.922057 0.927962 0.315847
0.960891 0.93283 0.329366
0.990066 0.9337 0.358831
0.999924 0.933501 0.362875
0.999969 0.931289 0.359655
0.999954 0.930785 0.358785
0.999939 0.930159 0.3579
0.999939 0.929625 0.357122
0.999924 0.92929 0.356573
0.999924 0.929061 0.356207
0.999924 0.929091 0.356252
0.999924 0.928969 0.356069
0.999908 0.928847 0.355886
0.999908 0.928801 0.35584
0.999908 0.928801 0.35584
0.999908 0.928832 0.355871
0.999924 0.929137 0.356359
0.137804 0.995087 0.281117
0.136904 0.9953 0.279713
0.135149 0.995697 0.277577
0.133761 0.996033 0.275044
0.132952 0.996262 0.27155
0.13283 0.996338 0.268711
0.132906 0.996384 0.266285
0.133577 0.996368 0.262135
0.134051 0.996353 0.2589
0.134188 0.996338 0.257969
0.134874 0.996277 0.255756
0.157992 0.994919 0.181552
0.382315 0.9823 0.129915
0.599466 0.959014 0.20737
0.74406 0.941176 0.273976
0.841764 0.934798 0.323507
0.913359 0.940444 0.348363
0.956374 0.949523 0.354284
0.990005 0.952544 0.373571
0.999969 0.953567 0.402121
0.999969 0.953735 0.40795
0.999969 0.95346 0.402533
0.999969 0.95346 0.402487
0.999969 0.95346 0.402426
0.999969 0.95346 0.402365
0.999969 0.953597 0.402579
0.999969 0.953628 0.402625
0.999969 0.953613 0.402579
0.999969 0.953613 0.402533
0.999969 0.953597 0.402548
0.999969 0.953597 0.402548
0.999969 0.953613 0.402747
0.999969 0.953597 0.402792
0.135607 0.995148 0.287266
0.134905 0.995346 0.285893
0.133577 0.995682 0.283711
0.132464 0.995972 0.281147
0.13167 0.996216 0.278111
0.131838 0.996353 0.274662
0.132021 0.996399 0.271763
0.132479 0.996384 0.268803
0.133303 0.996384 0.263645
0.133318 0.996384 0.263569
0.133318 0.996384 0.263569
0.139559 0.995972 0.226719
0.228183 0.990707 0.1037
0.4795 0.973739 0.160983
0.672267 0.949279 0.240085
0.793683 0.937636 0.299718
0.880552 0.935866 0.340719
0.940185 0.946807 0.34963
0.978271 0.952377 0.365972
0.999496 0.953536 0.387823
0.999969 0.954009 0.405966
0.999969 0.954253 0.412314
0.999969 0.954269 0.412497
0.999969 0.954269 0.412512
0.999969 0.954269 0.412543
0.999969 0.954269 0.412589
0.999969 0.954269 0.412634
0.999969 0.954284 0.412665
0.999969 0.954284 0.412695
0.999969 0.954284 0.412711
0.999969 0.954284 0.412711
0.999969 0.954284 0.412726
0.999969 0.954284 0.412726
0.131823 0.995819 0.286687
0.13196 0.995834 0.285954
0.131899 0.995895 0.284749
0.131701 0.996033 0.282719
0.131334 0.996216 0.279911
0.131487 0.996323 0.276478
0.131853 0.996399 0.272709
0.13228 0.996399 0.270146
0.133135 0.996384 0.264637
0.133318 0.996384 0.263569
0.133318 0.996384 0.263569
0.135744 0.996277 0.248264
0.188113 0.992309 0.117968
0.444389 0.977005 0.148669
0.63151 0.955062 0.221515
0.773632 0.938918 0.289342
0.865888 0.935332 0.333959
0.930816 0.944701 0.348547
0.970901 0.951812 0.361196
0.997787 0.953231 0.382803
0.999969 0.953887 0.402564
0.999969 0.954192 0.410468
0.999969 0.954253 0.411749
0.999969 0.954253 0.411749
0.999969 0.954253 0.411749
0.999969 0.954253 0.411749
0.999969 0.954253 0.411749
0.999969 0.954253 0.411749
0.999969 0.954253 0.411749
0.999969 0.954223 0.411826
0.999969 0.954192 0.411978
0.999969 0.954147 0.412192
0.999969 0.954116 0.412329
0.134112 0.995331 0.289326
0.134234 0.995346 0.28864
0.134066 0.995392 0.287709
0.133806 0.995529 0.285939
0.13344 0.995727 0.283116
0.133516 0.99588 0.279576
0.133944 0.995972 0.275608
0.134463 0.995987 0.272725
0.135286 0.995972 0.267475
0.135622 0.995972 0.265461
0.135622 0.995972 0.265461
0.13669 0.995911 0.258915
0.169589 0.993164 0.149691
0.414054 0.979553 0.139788
0.604196 0.958862 0.209949
0.75848 0.940169 0.281682
0.855207 0.934585 0.329519
0.923705 0.942855 0.349279
0.966491 0.951156 0.35964
0.995819 0.95285 0.380056
0.999969 0.953658 0.40116
0.999969 0.953979 0.409354
0.999969 0.954101 0.412406
0.999969 0.954101 0.412406
0.999969 0.954101 0.412406
0.999969 0.954101 0.412406
0.999969 0.954101 0.412406
0.999969 0.954116 0.412329
0.999969 0.954147 0.412192
0.999969 0.954192 0.411978
0.999969 0.954208 0.411902
0.999969 0.954192 0.411978
0.999969 0.954147 0.412192
0.133654 0.995392 0.290227
0.134051 0.995346 0.289677
0.133944 0.995392 0.288518
0.133593 0.995514 0.287053
0.133196 0.995712 0.284382
0.133257 0.995865 0.280873
0.13373 0.995972 0.276692
0.134386 0.995987 0.273243
0.135164 0.995972 0.268238
0.135622 0.995972 0.265461
0.135622 0.995972 0.265461
0.136355 0.995941 0.26128
0.161013 0.993927 0.167895
0.387869 0.981765 0.132006
0.587839 0.960937 0.202731
0.744823 0.941299 0.274586
0.846418 0.934844 0.325887
0.916564 0.9411 0.349172
0.9617 0.950378 0.357153
0.993317 0.952651 0.377172
0.999969 0.953521 0.398047
0.999969 0.953918 0.407843
0.999969 0.954101 0.412329
0.999969 0.954101 0.412406
0.999969 0.954101 0.412406
0.999969 0.954101 0.412406
0.999969 0.954101 0.412406
0.999969 0.954116 0.412329
0.999969 0.954147 0.412192
0.999969 0.954192 0.411978
0.999969 0.954208 0.411902
0.999969 0.954192 0.411978
0.999969 0.954147 0.412192
0.133486 0.995392 0.291112
0.133883 0.995331 0.290578
0.133806 0.995392 0.289357
0.13344 0.995499 0.287831
0.133013 0.995697 0.285328
0.133059 0.99585 0.281895
0.133562 0.995956 0.277592
0.13431 0.995987 0.273564
0.135058 0.995972 0.268925
0.135622 0.995972 0.265461
0.135622 0.995972 0.265461
0.136065 0.995956 0.263203
0.155703 0.994171 0.176425
0.370977 0.982895 0.127169
0.575219 0.962478 0.197467
0.733837 0.94255 0.26894
0.838575 0.934997 0.322072
0.911147 0.940093 0.349279
0.95787 0.949874 0.355367
0.990982 0.952651 0.374685
0.999969 0.953582 0.394995
0.999969 0.953872 0.406836
0.999969 0.954101 0.412238
0.999969 0.954101 0.412406
0.999969 0.954101 0.412406
0.999969 0.954101 0.412406
0.999969 0.954101 0.412406
0.999969 0.954116 0.412329
0.999969 0.954147 0.412192
0.999969 0.954192 0.411978
0.999969 0.954223 0.411826
0.999969 0.954223 0.411826
0.999969 0.954192 0.411978
0.132845 0.995483 0.291356
0.133501 0.995392 0.291005
0.133684 0.995392 0.289998
0.133364 0.995499 0.288319
0.132876 0.995682 0.28603
0.132921 0.995834 0.282612
0.13344 0.995941 0.278187
0.134264 0.995987 0.273884
0.134966 0.995972 0.269444
0.135622 0.995972 0.265461
0.135622 0.995972 0.265461
0.135637 0.995956 0.265415
0.15288 0.99443 0.183917
0.356283 0.98407 0.123049
0.567071 0.963638 0.194125
0.726192 0.943191 0.264912
0.83209 0.93521 0.31873
0.907942 0.939345 0.349554
0.955123 0.949416 0.354009
0.988479 0.95285 0.372641
0.999969 0.953674 0.392126
0.999969 0.953948 0.405417
0.999969 0.954162 0.411521
0.999969 0.954177 0.412055
0.999969 0.954162 0.412116
0.999969 0.954162 0.412146
0.999969 0.954147 0.412192
0.999969 0.954162 0.412131
0.999969 0.954192 0.412009
0.999969 0.954238 0.41181
0.999969 0.954269 0.411673
0.999969 0.954284 0.411612
0.999969 0.954269 0.411688
0.131426 0.995743 0.290974
0.132372 0.99559 0.290791
0.132876 0.995529 0.289998
0.132952 0.99556 0.288518
0.132616 0.995697 0.286381
0.132784 0.995834 0.28307
0.133379 0.995941 0.27863
0.134218 0.995987 0.274174
0.134936 0.995987 0.269734
0.135622 0.995972 0.265461
0.135622 0.995972 0.265461
0.135622 0.995972 0.265461
0.150729 0.994644 0.191104
0.34432 0.984741 0.119753
0.561028 0.964538 0.191836
0.720226 0.94374 0.261952
0.828138 0.935409 0.316686
0.905226 0.938613 0.349798
0.952941 0.94905 0.353277
0.986587 0.952789 0.371328
0.999847 0.953613 0.389944
0.999969 0.953964 0.404608
0.999969 0.954208 0.410712
0.999969 0.954253 0.411749
0.999969 0.954253 0.411749
0.999969 0.954253 0.411749
0.999969 0.954253 0.411749
0.999969 0.954269 0.411688
0.999969 0.954299 0.411536
0.999969 0.954345 0.411322
0.999969 0.954391 0.411185
0.999969 0.954406 0.411109
0.999969 0.954406 0.411109
0.128847 0.996201 0.289662
0.129351 0.996124 0.289204
0.13019 0.996002 0.288685
0.131044 0.995895 0.287922
0.131807 0.99585 0.286198
0.132479 0.99588 0.28333
0.133333 0.995941 0.278904
0.134188 0.995987 0.274357
0.134905 0.995987 0.269932
0.135622 0.995972 0.265461
0.135622 0.995972 0.265461
0.135622 0.995972 0.265461
0.149233 0.994797 0.196048
0.335637 0.985214 0.117433
0.558022 0.964828 0.190555
0.716869 0.944076 0.260197
0.825666 0.935546 0.31545
0.903334 0.938033 0.349813
0.951446 0.948791 0.352804
0.985107 0.952728 0.370321
0.999725 0.953582 0.388739
0.999969 0.953964 0.404166
0.999969 0.954177 0.4103
0.999969 0.954253 0.411749
0.999969 0.954253 0.411749
