bundles/resolve-cinematic-luts/Phantom Luts/Komodo Phantom ARRI LUTs G2/Komodo Phantom ARRI LUTs G2/33x/Standard (No WB Offset)/Utopia_Komodo_G2_33x.cube
TITLE "Generated by Resolve"
LUT_3D_SIZE 9
0.00753796 0.0331579 0.041886
0.0520943 0.0297856 0.0415351
0.224521 0.0128939 0.0345006
0.504799 0.0124208 0.0805524
0.722667 0.0248722 0.153613
0.730236 0.0266117 0.184085
0.73344 0.0271611 0.2
0.735164 0.0274357 0.206821
0.743618 0.0251011 0.208972
0.00476081 0.0666972 0.0385748
0.0289921 0.0584726 0.041825
0.202533 0.0299992 0.0308537
0.48632 0.00747692 0.0407111
0.695521 0.0213931 0.0818647
0.717113 0.0240482 0.127977
0.723171 0.0245365 0.151751
0.724575 0.0248417 0.157214
0.732052 0.022797 0.158282
0 0.261051 0.00158694
0 0.256397 0
0.212848 0.238346 0.0406348
0.556954 0.199207 0.108049
0.729046 0.025803 0.0442359
0.7346 0.0255741 0.0728618
0.732708 0.0253758 0.0745556
0.732097 0.0253452 0.0750744
0.734264 0.0247196 0.074464
0.0348516 0.613794 0.0484321
0.0417487 0.613718 0.00648508
0.101686 0.60882 0.00381476
0.570459 0.568078 0.107836
0.852995 0.615396 0.184024
0.904677 0.598123 0.185916
0.908141 0.575418 0.188693
0.9093 0.568048 0.188754
0.90959 0.566018 0.187533
0.157351 0.932235 0.157626
0.169146 0.936889 0.107759
0.227939 0.947646 0.0817426
0.550256 0.880461 0.146746
0.915496 0.891447 0.275792
0.995865 0.88954 0.309178
0.995193 0.88574 0.305379
0.99498 0.884672 0.304295
0.994949 0.884428 0.304082
0.131823 0.995819 0.286687
0.131334 0.996216 0.279911
0.133135 0.996384 0.264637
0.188113 0.992309 0.117968
0.865888 0.935332 0.333959
0.999969 0.953887 0.402564
0.999969 0.954253 0.411749
0.999969 0.954253 0.411749
0.999969 0.954116 0.412329
0.132845 0.995483 0.291356
0.132876 0.995682 0.28603
0.134966 0.995972 0.269444
0.15288 0.99443 0.183917
0.83209 0.93521 0.31873
0.999969 0.953674 0.392126
0.999969 0.954162 0.412116
0.999969 0.954192 0.412009
0.999969 0.954269 0.411688
0.130175 0.995941 0.291096
0.135164 0.995178 0.288624
0.139803 0.995041 0.273762
0.152361 0.993637 0.206195
0.82446 0.935347 0.315312
0.999741 0.953246 0.389624
0.999969 0.954009 0.413062
0.999969 0.95404 0.412848
0.999969 0.95433 0.411399
0.128573 0.996216 0.290394
0.131899 0.995789 0.287129
0.137514 0.995499 0.272053
0.15079 0.993759 0.207279
0.824125 0.935409 0.315084
0.999649 0.953201 0.389227
0.999969 0.954009 0.413062
0.999969 0.95404 0.412848
0.999969 0.95436 0.411261
0 0.0367285 0.0739757
0.0471809 0.0323186 0.0844282
0.233783 0.0249027 0.0901656
0.51545 0.0203403 0.134661
0.738964 0.0257115 0.203098
0.743175 0.0275578 0.233097
0.74403 0.028275 0.244755
0.744518 0.028397 0.248905
0.750011 0.0266575 0.25098
0.00560006 0.0531624 0.0631418
0.0190433 0.0466621 0.0556954
0.207233 0.0167086 0.0396429
0.500511 0.0151064 0.0868391
0.727916 0.0231479 0.156954
0.737423 0.0249485 0.188525
0.740764 0.0255894 0.205859
0.741863 0.0259403 0.21207
0.746654 0.0245975 0.214038
0 0.251118 0.057023
0 0.246921 0.0120394
0.203998 0.228977 0.0403449
0.552071 0.172854 0.0981918
0.723079 0.0231174 0.0614633
0.727535 0.023682 0.0774853
0.724773 0.0232395 0.078172
0.723873 0.0231174 0.0783703
0.725689 0.0225223 0.0779126
0.020676 0.607019 0.0999771
0.0301823 0.606577 0.0556649
0.0710765 0.602487 0
0.566064 0.563668 0.10663
0.853346 0.606577 0.187732
0.906493 0.585504 0.187854
0.910369 0.559762 0.189059
0.911467 0.551873 0.188525
0.911696 0.550011 0.187564
0.13518 0.925872 0.208667
0.148821 0.929381 0.161135
0.226184 0.945129 0.0811475
0.527199 0.881697 0.137331
0.912947 0.889006 0.274632
0.995468 0.886885 0.306462
0.994522 0.882261 0.301869
0.994247 0.880934 0.300694
0.994232 0.880888 0.300694
0.130968 0.995789 0.292058
0.130068 0.996109 0.286351
0.132311 0.996399 0.26978
0.165408 0.993942 0.149554
0.860929 0.935042 0.331762
0.999969 0.953872 0.402167
0.999969 0.954253 0.411749
0.999969 0.954253 0.411749
0.999969 0.954223 0.411841
0.131044 0.995621 0.296651
0.131899 0.995636 0.291585
0.13431 0.995987 0.273625
0.144366 0.995178 0.2121
0.825406 0.935485 0.315343
0.999878 0.953597 0.390265
0.999969 0.954147 0.412177
0.999969 0.954177 0.41207
0.999969 0.954253 0.411749
0.127611 0.996201 0.29601
0.134005 0.995193 0.294438
0.138994 0.995026 0.27776
0.147143 0.994354 0.231495
0.817761 0.935729 0.312139
0.999481 0.953155 0.388281
0.999969 0.954009 0.413062
0.999969 0.95404 0.412848
0.999969 0.95436 0.411261
0.127535 0.996201 0.296376
0.131609 0.995636 0.293278
0.136812 0.995483 0.276219
0.146838 0.9944 0.231724
0.817197 0.93576 0.31191
0.999329 0.953124 0.387839
0.999969 0.954009 0.413062
0.999969 0.95404 0.412848
0.999969 0.95436 0.411261
0 0.0504005 0.222599
0.0198978 0.0401007 0.239567
0.232349 0.0285344 0.240253
0.517555 0.0481727 0.262623
0.752255 0.051606 0.327733
0.757198 0.062562 0.347784
0.75906 0.06804 0.356924
0.76025 0.0703288 0.360998
0.764172 0.0699168 0.363836
0 0.0650645 0.186999
0 0.045716 0.217258
0.214069 0.0285649 0.225055
0.514366 0.048127 0.239078
0.746426 0.0377356 0.299489
0.752834 0.0471962 0.320699
0.755108 0.0526741 0.331304
0.755444 0.0543679 0.334676
0.759136 0.0538949 0.337011
0 0.204929 0.203265
0 0.200412 0.198367
0.172656 0.205051 0.208759
0.541833 0.125338 0.171954
0.725246 0.0227512 0.151431
0.737163 0.0248264 0.184237
0.7402 0.0253605 0.201282
0.740963 0.0256352 0.206806
0.742901 0.0251926 0.20766
0 0.573114 0.239551
0 0.57499 0.213794
0.0153811 0.576242 0.0774548
0.549416 0.546777 0.101381
0.858167 0.574792 0.194522
0.912886 0.53051 0.191821
0.91371 0.499214 0.196002
0.913878 0.487755 0.195483
0.914076 0.485756 0.193469
0.0826429 0.901183 0.352285
0.08748 0.905196 0.319799
0.132525 0.913207 0.185336
0.438437 0.884001 0.104646
0.903487 0.88011 0.271351
0.99321 0.876234 0.295903
0.991592 0.870283 0.290211
0.991089 0.868162 0.28835
0.991119 0.868254 0.288502
0.121447 0.994827 0.358297
0.125185 0.995911 0.317632
0.128954 0.996216 0.288197
0.138994 0.995972 0.234485
0.843488 0.93492 0.324498
0.999969 0.953811 0.400549
0.999969 0.954253 0.411749
0.999969 0.954253 0.411765
0.999969 0.954253 0.411765
0.11606 0.99379 0.390143
0.121004 0.995117 0.353979
0.130694 0.995789 0.293385
0.136187 0.995956 0.262531
0.80119 0.936858 0.303349
0.998932 0.953307 0.385794
0.999969 0.954116 0.412375
0.999969 0.954147 0.412192
0.999969 0.954253 0.411749
0.112016 0.993545 0.401099
0.118105 0.994858 0.36817
0.134951 0.994919 0.297612
0.140688 0.994995 0.268894
0.791257 0.937407 0.298848
0.997681 0.95285 0.383383
0.999969 0.954009 0.413062
0.999969 0.95404 0.412848
0.999969 0.95436 0.411261
0.111208 0.993301 0.405997
0.116594 0.994858 0.372503
0.133211 0.995254 0.297002
0.140658 0.994995 0.269078
0.790112 0.937499 0.298268
0.997299 0.952804 0.382696
0.999969 0.954009 0.413062
0.999969 0.95404 0.412848
0.999969 0.954406 0.411109
0 0.065919 0.445502
0 0.0515145 0.456001
0.179294 0.042359 0.475898
0.510704 0.0466011 0.492012
0.725856 0.0454414 0.495842
0.727611 0.0467231 0.511284
0.727611 0.0473487 0.518624
0.728267 0.0473945 0.522026
0.734508 0.045182 0.527276
0 0.104601 0.426795
0 0.0629282 0.4448
0.145006 0.043534 0.47216
0.504829 0.046067 0.487022
0.726589 0.0439765 0.488106
0.729763 0.0455024 0.502327
0.729473 0.0457923 0.508858
0.729427 0.0460212 0.512032
0.73434 0.0443275 0.516228
0 0.191669 0.360388
0 0.180209 0.365835
0 0.081529 0.460319
0.472129 0.0444495 0.45687
0.722438 0.0447242 0.447395
0.729885 0.0456092 0.457923
0.728573 0.0446632 0.462135
0.728099 0.0444038 0.46392
0.732204 0.042771 0.467002
0 0.491646 0.469841
0 0.489921 0.468666
0 0.479255 0.455833
0.462074 0.484932 0.471061
0.849012 0.434821 0.445274
0.896178 0.347463 0.40444
0.886961 0.310689 0.388708
0.883391 0.298253 0.3841
0.882902 0.29604 0.383749
0.00704967 0.847822 0.548638
0.00671397 0.849042 0.539727
0.0189364 0.848661 0.503975
0.0969253 0.863813 0.25977
0.841382 0.827695 0.287968
0.982971 0.843244 0.261387
0.978439 0.832883 0.246799
0.977295 0.829648 0.242237
0.977188 0.829343 0.24181
0.0668498 0.976303 0.549569
0.0674601 0.978408 0.54081
0.0921187 0.983932 0.512367
0.127871 0.996201 0.294499
0.772107 0.939162 0.288609
0.999969 0.953475 0.392538
0.999969 0.954116 0.414298
0.999969 0.954116 0.414694
0.999969 0.954101 0.414771
0.0538796 0.975998 0.560479
0.0587472 0.977142 0.551461
0.0859083 0.981567 0.522438
0.129442 0.995773 0.301213
0.705989 0.945266 0.255177
0.989166 0.952682 0.373602
0.999969 0.954101 0.412406
0.999969 0.954147 0.412192
0.999969 0.954253 0.411749
0.0480507 0.976013 0.565026
0.0540627 0.976837 0.55642
0.0834363 0.980636 0.526299
0.133074 0.994873 0.309514
0.68545 0.947356 0.247074
0.981796 0.952148 0.369207
0.999969 0.953964 0.4121
0.999969 0.95404 0.412848
0.999969 0.95436 0.411261
0.0463722 0.975753 0.567697
0.05243 0.976593 0.558923
0.0803998 0.980484 0.528008
0.132616 0.994858 0.312154
0.681605 0.94818 0.245182
0.980087 0.952041 0.3682
0.999969 0.953933 0.411337
0.999969 0.95404 0.412848
0.999969 0.95436 0.411261
0 0.0799878 0.641917
0 0.0580453 0.639918
0.133761 0.0603799 0.665202
0.467262 0.0680705 0.695766
0.748852 0.0982071 0.723079
0.751446 0.101335 0.737057
0.75053 0.102068 0.741955
0.751125 0.102052 0.744686
0.758389 0.0990921 0.754055
0 0.112413 0.64596
0 0.0764935 0.640772
0.0994125 0.0612039 0.661524
0.455344 0.0668345 0.694728
0.748699 0.0979629 0.721553
0.751736 0.101183 0.734096
0.750698 0.101747 0.738796
0.751202 0.10164 0.741283
0.758907 0.0985428 0.750942
0 0.20763 0.63122
0 0.194263 0.642908
0 0.060441 0.632853
0.397513 0.0620432 0.680995
0.741421 0.0949264 0.708583
0.75201 0.0998093 0.716976
0.751476 0.100298 0.721126
0.751324 0.100481 0.722515
0.757717 0.0978256 0.730327
0 0.482872 0.648371
0 0.478981 0.649561
0 0.458244 0.647028
0.272572 0.341299 0.756237
0.788464 0.284764 0.749371
0.788327 0.15491 0.687037
0.757595 0.0996872 0.650965
0.750149 0.0885481 0.641688
0.753597 0.0869001 0.644862
0 0.765667 0.731121
0 0.766003 0.731868
0 0.76141 0.727291
0 0.746349 0.709972
0.727108 0.737621 0.720729
0.936828 0.723476 0.707973
0.933318 0.707362 0.696254
0.932998 0.702907 0.694057
0.932067 0.702144 0.694041
0.015671 0.959564 0.730892
0.00939956 0.961471 0.726177
0.00875868 0.962737 0.710765
0.0121767 0.964218 0.659953
0.4869 0.992569 0.511818
0.978912 0.959182 0.61976
0.999969 0.958282 0.544961
0.999969 0.955016 0.552483
0.999969 0.954009 0.55462
0.0161135 0.95819 0.74197
0.00961318 0.96051 0.736278
0.00880446 0.962432 0.71751
0.0159762 0.967559 0.658915
0.187167 0.996506 0.373129
0.964004 0.950835 0.358267
0.999969 0.95378 0.40705
0.999969 0.953933 0.409842
0.999969 0.954009 0.409522
0.0116274 0.958846 0.746807
0.00976577 0.959899 0.741283
0.00872816 0.962051 0.721386
0.0173037 0.966995 0.66099
0.159197 0.995239 0.385122
0.951232 0.948241 0.353964
0.999969 0.953521 0.403464
0.999969 0.953872 0.410437
0.999969 0.954116 0.409186
0.00894179 0.959258 0.749325
0.00872816 0.959869 0.744167
0.00865187 0.961852 0.723445
0.0168612 0.966918 0.662257
0.158862 0.995041 0.390387
0.947753 0.947768 0.35288
0.999969 0.953597 0.401602
0.999969 0.953979 0.409842
0.999969 0.954269 0.40853
0 0.0640879 0.69897
0 0.0605173 0.703548
0.139681 0.0632639 0.724849
0.447486 0.0704051 0.75378
0.745342 0.106996 0.771115
0.746822 0.107515 0.770291
0.746822 0.107515 0.770291
0.747356 0.107286 0.770947
0.753262 0.104692 0.778363
0 0.0788281 0.698177
0 0.0636454 0.699626
0.108171 0.0637675 0.721645
0.433982 0.0691997 0.752911
0.74406 0.106859 0.771298
0.746532 0.107637 0.769924
0.746532 0.107652 0.769909
0.747189 0.107362 0.770718
0.753475 0.104601 0.778607
0 0.199832 0.719951
0 0.170703 0.723293
0 0.0621805 0.700969
0.366918 0.0656291 0.74583
0.735348 0.105516 0.771908
0.743069 0.109163 0.765621
0.743008 0.109194 0.76553
0.743465 0.108995 0.76611
0.750042 0.106111 0.774289
0 0.404471 0.725032
0 0.397116 0.726818
0 0.361578 0.724224
0.120684 0.153109 0.772366
0.660349 0.122469 0.790814
0.743435 0.11104 0.765866
0.742901 0.110704 0.765301
0.742824 0.110582 0.765225
0.748699 0.108019 0.772274
0 0.714412 0.823331
0 0.714153 0.8262
0 0.706188 0.824186
0 0.682719 0.826658
0.595789 0.654688 0.910521
0.915862 0.640757 0.897139
0.913756 0.624491 0.889921
0.912871 0.620432 0.887633
0.911925 0.619989 0.887861
0.0169223 0.90927 0.869932
0.00674449 0.909895 0.870466
0.00144961 0.902663 0.862943
0 0.874464 0.834241
0.183597 0.902571 0.868162
0.908995 0.910063 0.901061
0.974105 0.908186 0.898054
0.973037 0.904356 0.894987
0.972259 0.90367 0.894835
0.0324865 0.93933 0.892561
0.0264744 0.940963 0.891524
0.0243534 0.942626 0.883116
0.0214542 0.946395 0.855085
0.020264 0.964065 0.801984
0.831266 0.988693 0.817105
0.99939 0.983368 0.836225
0.999969 0.979629 0.794171
0.999969 0.98175 0.815961
0.0323491 0.938766 0.897215
0.0274205 0.940093 0.895903
0.0249332 0.942107 0.88632
0.0229801 0.946075 0.854932
0.0224155 0.962676 0.790921
0.795193 0.990097 0.797101
0.993942 0.979858 0.786389
0.999969 0.953689 0.406668
0.999969 0.953948 0.405417
0.0299535 0.938918 0.89987
0.0279088 0.939773 0.897673
0.0251774 0.941848 0.887907
0.0224308 0.946151 0.855604
0.0220951 0.962737 0.788556
0.786252 0.990753 0.793774
0.988663 0.980407 0.788907
0.999969 0.953643 0.405173
0.999969 0.953948 0.405463
0 0.0611887 0.701778
0.00856031 0.0581216 0.707469
0.163287 0.0628214 0.726818
0.463493 0.0714122 0.755154
0.747417 0.107271 0.771008
0.746822 0.107515 0.770291
0.746792 0.10753 0.770245
0.745159 0.108248 0.768215
0.751598 0.105455 0.775952
0 0.0645914 0.696635
0 0.0608835 0.702815
0.131426 0.0634012 0.724132
0.449775 0.0703593 0.754635
0.746731 0.10695 0.771481
0.746807 0.10753 0.770245
0.746807 0.10753 0.770245
0.747433 0.107256 0.771038
0.753475 0.104601 0.778592
0 0.183047 0.72224
0 0.134951 0.714839
0 0.0601358 0.704372
0.382467 0.0664683 0.747723
0.741802 0.105989 0.772671
0.74316 0.109133 0.765713
0.743053 0.109178 0.765606
0.743648 0.108919 0.766323
0.750057 0.106096 0.774304
0 0.357153 0.721721
0 0.348302 0.723644
0 0.313405 0.722728
0.0831922 0.0828412 0.733272
0.646311 0.0940871 0.773754
0.743053 0.10988 0.76553
0.741207 0.110216 0.763317
0.741726 0.109987 0.763943
0.748363 0.107118 0.772045
0 0.69987 0.840192
0 0.699641 0.842863
0 0.692409 0.84094
0 0.664256 0.830335
0.571344 0.613687 0.918853
0.902586 0.597482 0.908583
0.900938 0.579965 0.905013
0.90016 0.574853 0.904341
0.898085 0.574639 0.905348
0.0130312 0.876112 0.903243
0.0039826 0.877211 0.906386
0 0.860105 0.899992
0 0.820142 0.887007
0.0113985 0.837858 0.914137
0.848203 0.867033 0.958587
0.963348 0.869627 0.959609
0.962631 0.865797 0.958038
0.962066 0.865232 0.958007
0.0359197 0.929305 0.92047
0.0292058 0.930632 0.922408
0.0289769 0.930663 0.922591
0.0299077 0.930526 0.922179
0.039765 0.946639 0.921324
0.675883 0.965713 0.951705
0.977035 0.974441 0.97052
0.993194 0.974655 0.969757
0.992248 0.973754 0.969604
0.0345769 0.92958 0.920928
0.029221 0.930632 0.922408
0.0289616 0.930663 0.922606
0.03122 0.930266 0.921767
0.0396124 0.946258 0.909102
0.201099 0.984985 0.921538
0.965011 0.99173 0.957321
0.999069 0.993988 0.963363
0.99884 0.994095 0.963211
0.0317235 0.930159 0.921599
0.029221 0.930632 0.922393
0.0289311 0.930663 0.922621
0.0306706 0.930373 0.921935
0.0387884 0.946441 0.906004
0.20441 0.985367 0.918532
0.958099 0.991424 0.95407
0.996887 0.994049 0.961685
0.998093 0.994247 0.960662
0 0.0603494 0.703441
0.021149 0.0576791 0.70901
0.172274 0.0627909 0.727687
0.469245 0.0719005 0.755856
0.747356 0.107286 0.770947
0.746822 0.107515 0.770291
0.746822 0.107515 0.770291
0.745327 0.108171 0.768444
0.749447 0.106371 0.773556
0 0.0636149 0.697643
0 0.0601816 0.704265
0.140047 0.0632944 0.72491
0.45507 0.0708629 0.755383
0.747387 0.107057 0.771466
0.746792 0.10753 0.770245
0.746792 0.10753 0.770245
0.747402 0.107271 0.770993
0.751873 0.105318 0.776486
0 0.17171 0.71873
0 0.123842 0.711315
0 0.0591135 0.705653
0.388464 0.0667582 0.748409
0.743801 0.106203 0.772656
0.74316 0.109133 0.765728
0.743053 0.109178 0.765576
0.743664 0.108904 0.766369
0.750057 0.106096 0.774304
0 0.341543 0.720485
0 0.333089 0.72314
0 0.29688 0.723171
0.0697948 0.0682536 0.720226
0.647913 0.0922255 0.77232
0.743496 0.109148 0.76614
0.741146 0.110185 0.76321
0.741741 0.109926 0.763973
0.748333 0.107057 0.772015
0 0.695644 0.838697
0 0.69575 0.841825
0 0.68809 0.839567
0 0.658015 0.827924
0.567498 0.602457 0.917632
0.900236 0.586069 0.907179
0.898299 0.567041 0.903014
0.898085 0.56202 0.902525
0.895766 0.561364 0.903532
0.0115511 0.871397 0.901946
0.00274662 0.87155 0.904372
0 0.844907 0.893935
0 0.81593 0.886671
0.012314 0.83061 0.912963
0.844144 0.857435 0.958312
0.960998 0.860121 0.958114
0.961608 0.855283 0.955779
0.959548 0.854398 0.957122
0.0353399 0.929427 0.920684
0.0292058 0.930632 0.922408
0.0289921 0.930663 0.922591
0.0299077 0.930526 0.922179
0.0368658 0.939849 0.928771
0.605676 0.944259 0.960967
0.962615 0.963241 0.981506
0.989242 0.965072 0.982437
0.98854 0.96434 0.982834
0.0376593 0.928954 0.919783
0.029221 0.930632 0.922393
0.0289616 0.930663 0.922606
0.0312963 0.930251 0.921752
0.0390631 0.938842 0.92723
0.0550698 0.961837 0.943435
0.923308 0.988296 0.983322
0.995743 0.992203 0.991333
0.998413 0.991363 0.990967
0.0340734 0.929686 0.92108
0.029221 0.930632 0.922408
0.0289311 0.930663 0.922621
0.0307317 0.930358 0.92192
0.0388952 0.938582 0.927001
0.0577859 0.965057 0.942824
0.896239 0.989944 0.980392
0.993927 0.995239 0.989792
0.997543 0.995789 0.991928
0 0.0601816 0.703868
0.0255741 0.0580301 0.709636
0.175128 0.0628214 0.728008
0.471794 0.0721447 0.756207
0.747341 0.107301 0.770932
0.746822 0.107515 0.770291
0.746822 0.107515 0.770291
0.745922 0.107912 0.769146
0.750011 0.106126 0.774258
0 0.0634165 0.6981
0 0.0597543 0.704585
0.142748 0.0632334 0.725139
0.457496 0.0710155 0.755642
0.747631 0.107088 0.771435
0.746792 0.10753 0.770245
0.746792 0.10753 0.770245
0.747433 0.107256 0.771038
0.752163 0.10518 0.776959
0 0.168353 0.718334
0 0.120562 0.710048
0 0.0588998 0.706081
0.390723 0.0668956 0.748684
0.744427 0.106249 0.77261
0.74316 0.109133 0.765728
0.743038 0.109178 0.765591
0.743679 0.108904 0.766369
0.750057 0.106096 0.774304
0 0.337301 0.720027
0 0.328557 0.722896
0 0.292775 0.72343
0.0758068 0.0689403 0.721447
0.649256 0.0925002 0.772442
0.743496 0.109133 0.76614
0.741146 0.11017 0.763226
0.741741 0.109911 0.763958
0.748333 0.107057 0.772015
0 0.694881 0.838636
0 0.694743 0.84152
0 0.686976 0.839277
0 0.656291 0.826978
0.567315 0.599207 0.917403
0.899519 0.582559 0.906554
0.89807 0.564233 0.903029
0.897002 0.558526 0.902205
0.895125 0.557336 0.903044
0.0115053 0.871153 0.902007
0.00172427 0.867979 0.903197
0 0.841154 0.892424
0 0.814862 0.886549
0.0133211 0.828717 0.912703
0.843275 0.854551 0.958099
0.960342 0.857221 0.957656
0.960891 0.852918 0.955734
0.958968 0.852064 0.956786
0.0349584 0.929503 0.920806
0.0292058 0.930632 0.922408
0.0289311 0.930663 0.922621
0.0289311 0.930663 0.922621
0.0344091 0.937606 0.928069
0.619471 0.942763 0.961288
0.960494 0.961151 0.981262
0.988388 0.963378 0.982391
0.987381 0.962524 0.982345
0.0368353 0.929137 0.920012
0.029221 0.930632 0.922408
0.0289311 0.930663 0.922621
0.0289311 0.930663 0.922621
0.0356146 0.939452 0.928389
0.0548867 0.961501 0.943618
0.911727 0.984115 0.986099
0.993423 0.9906 0.992798
0.996139 0.990997 0.993301
0.0345312 0.929595 0.920958
0.029221 0.930632 0.922393
0.0289311 0.930663 0.922621
0.0289311 0.930663 0.922621
0.0354009 0.939223 0.928191
0.0542306 0.9608 0.943175
0.826917 0.986404 0.983291
0.988052 0.995315 0.994904
0.996811 0.996811 0.996811
