bundles/resolve-cinematic-luts/Phantom Luts/Komodo Phantom ARRI LUTs G2/Komodo Phantom ARRI LUTs G2/33x/Standard (No WB Offset)/Utopia_Komodo_G2_33x.cube
TITLE "Generated by Resolve"
LUT_3D_SIZE 5
0.00753796 0.0331579 0.041886
0.224521 0.0128939 0.0345006
0.722667 0.0248722 0.153613
0.73344 0.0271611 0.2
0.743618 0.0251011 0.208972
0 0.261051 0.00158694
0.212848 0.238346 0.0406348
0.729046 0.025803 0.0442359
0.732708 0.0253758 0.0745556
0.734264 0.0247196 0.074464
0.157351 0.932235 0.157626
0.227939 0.947646 0.0817426
0.915496 0.891447 0.275792
0.995193 0.88574 0.305379
0.994949 0.884428 0.304082
0.132845 0.995483 0.291356
0.134966 0.995972 0.269444
0.83209 0.93521 0.31873
0.999969 0.954162 0.412116
0.999969 0.954269 0.411688
0.128573 0.996216 0.290394
0.137514 0.995499 0.272053
0.824125 0.935409 0.315084
0.999969 0.954009 0.413062
0.999969 0.95436 0.411261
0 0.0504005 0.222599
0.232349 0.0285344 0.240253
0.752255 0.051606 0.327733
0.75906 0.06804 0.356924
0.764172 0.0699168 0.363836
0 0.204929 0.203265
0.172656 0.205051 0.208759
0.725246 0.0227512 0.151431
0.7402 0.0253605 0.201282
0.742901 0.0251926 0.20766
0.0826429 0.901183 0.352285
0.132525 0.913207 0.185336
0.903487 0.88011 0.271351
0.991592 0.870283 0.290211
0.991119 0.868254 0.288502
0.11606 0.99379 0.390143
0.130694 0.995789 0.293385
0.80119 0.936858 0.303349
0.999969 0.954116 0.412375
0.999969 0.954253 0.411749
0.111208 0.993301 0.405997
0.133211 0.995254 0.297002
0.790112 0.937499 0.298268
0.999969 0.954009 0.413062
0.999969 0.954406 0.411109
0 0.0799878 0.641917
0.133761 0.0603799 0.665202
0.748852 0.0982071 0.723079
0.75053 0.102068 0.741955
0.758389 0.0990921 0.754055
0 0.20763 0.63122
0 0.060441 0.632853
0.741421 0.0949264 0.708583
0.751476 0.100298 0.721126
0.757717 0.0978256 0.730327
0 0.765667 0.731121
0 0.76141 0.727291
0.727108 0.737621 0.720729
0.933318 0.707362 0.696254
0.932067 0.702144 0.694041
0.0161135 0.95819 0.74197
0.00880446 0.962432 0.71751
0.187167 0.996506 0.373129
0.999969 0.95378 0.40705
0.999969 0.954009 0.409522
0.00894179 0.959258 0.749325
0.00865187 0.961852 0.723445
0.158862 0.995041 0.390387
0.999969 0.953597 0.401602
0.999969 0.954269 0.40853
0 0.0611887 0.701778
0.163287 0.0628214 0.726818
0.747417 0.107271 0.771008
0.746792 0.10753 0.770245
0.751598 0.105455 0.775952
0 0.183047 0.72224
0 0.0601358 0.704372
0.741802 0.105989 0.772671
0.743053 0.109178 0.765606
0.750057 0.106096 0.774304
0 0.69987 0.840192
0 0.692409 0.84094
0.571344 0.613687 0.918853
0.900938 0.579965 0.905013
0.898085 0.574639 0.905348
0.0359197 0.929305 0.92047
0.0289769 0.930663 0.922591
0.039765 0.946639 0.921324
0.977035 0.974441 0.97052
0.992248 0.973754 0.969604
0.0317235 0.930159 0.921599
0.0289311 0.930663 0.922621
0.0387884 0.946441 0.906004
0.958099 0.991424 0.95407
0.998093 0.994247 0.960662
0 0.0601816 0.703868
0.175128 0.0628214 0.728008
0.747341 0.107301 0.770932
0.746822 0.107515 0.770291
0.750011 0.106126 0.774258
0 0.168353 0.718334
0 0.0588998 0.706081
0.744427 0.106249 0.77261
0.743038 0.109178 0.765591
0.750057 0.106096 0.774304
0 0.694881 0.838636
0 0.686976 0.839277
0.567315 0.599207 0.917403
0.89807 0.564233 0.903029
0.895125 0.557336 0.903044
0.0349584 0.929503 0.920806
0.0289311 0.930663 0.922621
0.0344091 0.937606 0.928069
0.960494 0.961151 0.981262
0.987381 0.962524 0.982345
0.0345312 0.929595 0.920958
0.0289311 0.930663 0.922621
0.0354009 0.939223 0.928191
0.826917 0.986404 0.983291
0.996811 0.996811 0.996811
