bundles/resolve-cinematic-luts/Phantom Luts/Canon Alexa LUT/ATOMOS Monitoring LUTs/C-Log 2/IceBlue Canon CL2 AML.cube
TITLE "Generated by Resolve"
LUT_3D_SIZE 5
0.0886549 0.0993973 0.0973831
0.187091 0.099855 0.103746
0.570657 0.111269 0.184924
0.686488 0.14052 0.295415
0.690608 0.138399 0.333196
0.0890059 0.213092 0.117586
0.161089 0.197162 0.10631
0.556069 0.110979 0.132219
0.670375 0.13846 0.241657
0.676631 0.137606 0.265187
0.146487 0.64271 0.223819
0.156329 0.651652 0.216892
0.600824 0.662089 0.188754
0.846357 0.629374 0.288197
0.852293 0.660777 0.297978
0.254688 0.798672 0.36025
0.258869 0.793057 0.318029
0.435828 0.82182 0.288487
0.927733 0.895628 0.4878
0.926848 0.897276 0.497093
0.252064 0.8047 0.404089
0.257679 0.793256 0.319066
0.54139 0.833875 0.290318
0.930114 0.896208 0.494285
0.925856 0.897734 0.49572
0.0845197 0.104158 0.179843
0.180667 0.100954 0.195651
0.587228 0.110018 0.269993
0.695796 0.140093 0.357412
0.697917 0.139528 0.398383
0.0883192 0.189609 0.191806
0.153658 0.180545 0.19292
0.572244 0.109895 0.200275
0.68777 0.13959 0.307164
0.690822 0.138628 0.333349
0.133455 0.638453 0.288792
0.146014 0.645029 0.238697
0.580026 0.65594 0.179965
0.838605 0.593454 0.277104
0.843656 0.619013 0.284443
0.251514 0.809339 0.446738
0.252995 0.801633 0.383948
0.382971 0.814725 0.293782
0.926253 0.895033 0.485481
0.926741 0.897246 0.497871
0.25716 0.819669 0.533028
0.250355 0.809033 0.442863
0.481025 0.827115 0.287999
0.928801 0.895155 0.489158
0.924926 0.897673 0.499184
0.08336 0.12781 0.495903
0.165316 0.115663 0.546365
0.553155 0.117769 0.553689
0.693721 0.153826 0.592432
0.683665 0.156359 0.624689
0.0748608 0.160281 0.484199
0.081529 0.129976 0.496895
0.546181 0.118029 0.562097
0.695476 0.153216 0.585458
0.687877 0.155688 0.615335
0.143038 0.609583 0.590997
0.147478 0.617929 0.599145
0.53431 0.609003 0.619013
0.923018 0.460304 0.608392
0.92253 0.460243 0.63241
0.309438 0.844846 0.733959
0.315404 0.842191 0.727123
0.257862 0.818341 0.528054
0.923796 0.893141 0.48336
0.929305 0.900587 0.571756
0.333013 0.85922 0.802457
0.340932 0.853986 0.791257
0.268482 0.825269 0.595697
0.922972 0.897932 0.507088
0.926558 0.903395 0.572442
0.100114 0.216312 0.64329
0.174044 0.196612 0.689677
0.529213 0.156588 0.717815
0.662104 0.165316 0.696254
0.661387 0.165408 0.697261
0.0856947 0.221866 0.615534
0.0965896 0.217578 0.639628
0.516243 0.157137 0.720119
0.66331 0.165133 0.695003
0.661219 0.165438 0.697459
0.194965 0.625177 0.767224
0.198413 0.630381 0.770733
0.345083 0.575967 0.86566
0.761486 0.292531 0.783047
0.771145 0.310079 0.797909
0.354009 0.868894 0.853498
0.365805 0.866224 0.850568
0.362432 0.8645 0.849332
0.903273 0.910384 0.914015
0.928176 0.911833 0.916472
0.351873 0.869551 0.854078
0.367254 0.865812 0.850294
0.361807 0.867216 0.851316
0.913298 0.925811 0.924956
0.930983 0.928878 0.931807
0.113527 0.213352 0.656245
0.197147 0.189136 0.696147
0.542031 0.155856 0.715267
0.662104 0.165316 0.696269
0.661738 0.165362 0.696818
0.0859693 0.222309 0.616159
0.106172 0.215213 0.650019
0.527901 0.15671 0.71841
0.663233 0.165133 0.695125
0.66125 0.165423 0.69749
0.197482 0.62707 0.772381
0.198306 0.628534 0.771695
0.346777 0.559579 0.86595
0.750912 0.279026 0.774395
0.76405 0.300221 0.791394
0.356619 0.868421 0.852705
0.368841 0.86537 0.849928
0.366674 0.863996 0.849485
0.893477 0.907393 0.922469
0.925292 0.908125 0.921187
0.348775 0.870298 0.854841
0.37026 0.864973 0.849699
0.370489 0.864912 0.849668
0.89691 0.924407 0.928069
0.935805 0.927687 0.927687
