bundles/resolve-cinematic-luts/Phantom Luts/Canon Alexa LUT/ATOMOS Monitoring LUTs/C-Log 2/IceBlue Canon CL2 AML.cube
TITLE "Generated by Resolve"
LUT_3D_SIZE 9
0.0886549 0.0993973 0.0973831
0.104875 0.0994125 0.100542
0.187091 0.099855 0.103746
0.3832 0.0995193 0.12192
0.570657 0.111269 0.184924
0.68101 0.140093 0.273655
0.686488 0.14052 0.295415
0.688823 0.140475 0.307988
0.690608 0.138399 0.333196
0.0905623 0.114534 0.104021
0.0990463 0.111208 0.102449
0.176898 0.101915 0.10042
0.371344 0.0998703 0.104997
0.569406 0.111513 0.170321
0.677546 0.139406 0.263233
0.683879 0.140261 0.285374
0.686641 0.140124 0.298238
0.688457 0.138109 0.320348
0.0890059 0.213092 0.117586
0.0889906 0.212207 0.111757
0.161089 0.197162 0.10631
0.389914 0.135561 0.0963912
0.556069 0.110979 0.132219
0.654734 0.135485 0.210208
0.670375 0.13846 0.241657
0.675776 0.139208 0.256458
0.676631 0.137606 0.265187
0.0851301 0.417121 0.121736
0.0852522 0.424399 0.113573
0.0870222 0.416464 0.112963
0.326162 0.401175 0.094255
0.625208 0.343648 0.133242
0.665888 0.159045 0.15256
0.670253 0.143786 0.180529
0.671611 0.143008 0.191989
0.668711 0.145296 0.179294
0.146487 0.64271 0.223819
0.153857 0.649226 0.218662
0.156329 0.651652 0.216892
0.183642 0.651682 0.200778
0.600824 0.662089 0.188754
0.831479 0.693065 0.296056
0.846357 0.629374 0.288197
0.842496 0.611688 0.283009
0.852293 0.660777 0.297978
0.257099 0.793652 0.32282
0.25922 0.793011 0.316625
0.260029 0.792782 0.316915
0.25919 0.793088 0.316228
0.500298 0.828321 0.286534
0.856245 0.860349 0.387472
0.916228 0.871778 0.420691
0.915496 0.870878 0.419806
0.918547 0.877134 0.431891
0.254688 0.798672 0.36025
0.255329 0.796735 0.343816
0.258869 0.793057 0.318029
0.258671 0.793027 0.316732
0.435828 0.82182 0.288487
0.824033 0.866987 0.368307
0.927733 0.895628 0.4878
0.927932 0.897032 0.496178
0.926848 0.897276 0.497093
0.252552 0.802731 0.392813
0.252293 0.800427 0.373068
0.256901 0.793973 0.326574
0.257725 0.792859 0.318349
0.44097 0.822324 0.28867
0.81323 0.865339 0.365133
0.926757 0.894148 0.484352
0.930312 0.8963 0.496284
0.926482 0.897353 0.497612
0.252064 0.8047 0.404089
0.252766 0.800809 0.373678
0.257679 0.793256 0.319066
0.257389 0.792996 0.318044
0.54139 0.833875 0.290318
0.889174 0.879622 0.419806
0.930114 0.896208 0.494285
0.929747 0.896605 0.495094
0.925856 0.897734 0.49572
0.0877852 0.100481 0.106889
0.102785 0.0999771 0.112032
0.188479 0.0994736 0.128985
0.389013 0.0994125 0.154742
0.578927 0.110201 0.216876
0.685496 0.139025 0.299062
0.689525 0.139376 0.320134
0.691386 0.1393 0.332662
0.692576 0.138048 0.353445
0.0898604 0.110048 0.108385
0.0957809 0.107866 0.108003
0.183001 0.101961 0.111559
0.388205 0.0985885 0.133288
0.580743 0.110903 0.203723
0.68307 0.138491 0.290028
0.687831 0.138979 0.31136
0.689693 0.13901 0.323552
0.690822 0.137774 0.340337
0.0891127 0.206027 0.133654
0.0884871 0.206683 0.118334
0.154086 0.192615 0.107485
0.393637 0.122148 0.0963607
0.554421 0.109453 0.141405
0.665675 0.136782 0.233722
0.67744 0.138705 0.264668
0.680858 0.139055 0.276936
0.681941 0.137728 0.287449
0.0849317 0.413672 0.137987
0.0852674 0.420188 0.122484
0.0851301 0.415915 0.113603
0.318379 0.4 0.0941329
0.626184 0.326635 0.133257
0.663371 0.150698 0.152865
0.67158 0.143664 0.186038
0.669322 0.141909 0.192798
0.665827 0.141436 0.178866
0.143694 0.643656 0.240711
0.151568 0.649851 0.229313
0.15584 0.651026 0.216358
0.17409 0.650645 0.20473
0.59826 0.662898 0.188418
0.832807 0.692699 0.296605
0.845472 0.625422 0.287022
0.841367 0.607019 0.281102
0.851026 0.65507 0.29543
0.255924 0.79527 0.336522
0.258473 0.793912 0.323293
0.259556 0.792966 0.316503
0.259022 0.793072 0.316152
0.493935 0.827649 0.286458
0.856596 0.86067 0.387823
0.91606 0.871748 0.420508
0.914885 0.870542 0.420294
0.917967 0.876616 0.431296
0.252766 0.801633 0.382757
0.253346 0.799756 0.366201
0.258228 0.793927 0.324681
0.25864 0.793042 0.316716
0.42858 0.820951 0.288975
0.821485 0.866804 0.36733
0.927459 0.895537 0.487388
0.927932 0.897032 0.496178
0.926848 0.897276 0.497093
0.251484 0.806088 0.418463
0.250996 0.803815 0.399512
0.254749 0.796521 0.345403
0.25771 0.792859 0.318334
0.424491 0.820371 0.289693
0.808545 0.864683 0.363165
0.926513 0.894041 0.483909
0.930373 0.896284 0.4963
0.92665 0.897368 0.496956
0.252308 0.808774 0.442557
0.251423 0.805478 0.414282
0.256046 0.7953 0.334295
0.257389 0.792996 0.318044
0.530526 0.832593 0.289311
0.884764 0.878553 0.415259
0.930037 0.896101 0.493706
0.929641 0.896559 0.495888
0.925231 0.897536 0.49955
0.0845197 0.104158 0.179843
0.102312 0.102403 0.189502
0.180667 0.100954 0.195651
0.392966 0.0973983 0.220829
0.587228 0.110018 0.269993
0.691722 0.139513 0.332586
0.695796 0.140093 0.357412
0.697932 0.14049 0.373007
0.697917 0.139528 0.398383
0.0834363 0.109392 0.16257
0.0849928 0.104601 0.178119
0.170367 0.101076 0.191882
0.393713 0.0972152 0.211261
0.591562 0.111025 0.261143
0.690303 0.1393 0.325628
0.69456 0.139925 0.348943
0.696544 0.140093 0.364797
0.697078 0.13933 0.388739
0.0883192 0.189609 0.191806
0.0877241 0.189395 0.192035
0.153658 0.180545 0.19292
0.419425 0.133333 0.182528
0.572244 0.109895 0.200275
0.682994 0.139391 0.285618
0.68777 0.13959 0.307164
0.68957 0.139803 0.317067
0.690822 0.138628 0.333349
0.0856794 0.399786 0.21207
0.085359 0.406027 0.197024
0.0850843 0.401785 0.137758
0.289998 0.387961 0.0955367
0.618601 0.266682 0.134356
0.677607 0.149722 0.190738
0.672618 0.143191 0.209857
0.661631 0.137591 0.211276
0.671443 0.142184 0.214282
0.133455 0.638453 0.288792
0.139971 0.646204 0.278965
0.146014 0.645029 0.238697
0.15111 0.639017 0.206424
0.580026 0.65594 0.179965
0.829374 0.673838 0.288914
0.838605 0.593454 0.277104
0.83389 0.572686 0.271351
0.843656 0.619013 0.284443
0.250736 0.801907 0.392203
0.253208 0.800351 0.377478
0.258442 0.79469 0.336294
0.25951 0.792462 0.316838
0.463676 0.823758 0.286305
0.850919 0.857572 0.383169
0.914565 0.868635 0.413626
0.913039 0.866224 0.412192
0.915969 0.87216 0.422248
0.251514 0.809339 0.446738
0.251148 0.808087 0.433356
0.252995 0.801633 0.383948
0.259022 0.792889 0.317113
0.382971 0.814725 0.293782
0.802457 0.864378 0.359213
0.926253 0.895033 0.485481
0.927687 0.896941 0.497993
0.926741 0.897246 0.497871
0.252949 0.814115 0.48632
0.251377 0.812711 0.471855
0.250492 0.806073 0.419364
0.257603 0.792905 0.318334
0.364431 0.812009 0.29691
0.783276 0.861463 0.351644
0.925002 0.893034 0.478935
0.930617 0.89604 0.497948
0.926833 0.897108 0.498894
0.25716 0.819669 0.533028
0.253864 0.817945 0.514778
0.250355 0.809033 0.442863
0.257939 0.792782 0.318517
0.481025 0.827115 0.287999
0.867918 0.874556 0.399649
0.928801 0.895155 0.489158
0.929641 0.896559 0.495888
0.924926 0.897673 0.499184
0.0803998 0.111223 0.333944
0.0970626 0.107668 0.350256
0.177279 0.103838 0.362585
0.370245 0.0997482 0.362875
0.594781 0.111406 0.386175
0.704646 0.142916 0.421805
0.706691 0.144091 0.442573
0.70721 0.144778 0.456336
0.704295 0.144854 0.483818
0.076051 0.115312 0.316548
0.0798047 0.111635 0.338262
0.155642 0.104723 0.373053
0.372564 0.0999619 0.37409
0.601846 0.112779 0.390173
0.704662 0.142916 0.423377
0.707088 0.144274 0.443458
0.707988 0.145022 0.456458
0.704326 0.145006 0.484962
0.0766766 0.183078 0.317342
0.0755779 0.175738 0.330877
0.0931563 0.141421 0.371817
0.346502 0.103853 0.367666
0.592767 0.110613 0.353536
0.701778 0.141863 0.392401
0.704494 0.142931 0.412512
0.705638 0.143313 0.423117
0.705272 0.143465 0.447395
0.0835737 0.381735 0.361303
0.0832227 0.387823 0.367407
0.082826 0.381399 0.364584
0.314656 0.37348 0.378332
0.686397 0.277424 0.354116
0.705287 0.149584 0.335012
0.693156 0.140398 0.328679
0.692744 0.139864 0.332464
0.695262 0.139971 0.346944
0.126879 0.62742 0.419821
0.130388 0.635416 0.420722
0.129335 0.635203 0.39588
0.126635 0.62324 0.279988
0.537011 0.640894 0.191409
0.836439 0.603189 0.304982
0.835279 0.502831 0.297795
0.826764 0.470924 0.292317
0.845502 0.522133 0.313924
0.250599 0.811276 0.5196
0.253239 0.813107 0.518547
0.251881 0.810651 0.490578
0.251347 0.798993 0.381292
0.336889 0.805493 0.298573
0.832273 0.848127 0.369223
0.910979 0.858488 0.40116
0.910018 0.855528 0.400381
0.911742 0.860502 0.406546
0.262303 0.82417 0.574594
0.261814 0.824216 0.571145
0.258259 0.820569 0.54226
0.251926 0.807218 0.430518
0.267262 0.794095 0.315847
0.736446 0.856565 0.33402
0.922866 0.893736 0.479118
0.927749 0.896986 0.497719
0.926604 0.8972 0.498939
0.267887 0.828656 0.607904
0.266957 0.828321 0.603952
0.261784 0.824781 0.575174
0.251331 0.811612 0.469245
0.264225 0.793851 0.317098
0.7066 0.852659 0.324178
0.919707 0.890242 0.467399
0.930663 0.895811 0.500343
0.926589 0.896925 0.501823
0.283207 0.836881 0.668223
0.282124 0.835859 0.662776
0.273274 0.831479 0.630152
0.25359 0.816007 0.506096
0.294347 0.799725 0.310231
0.790997 0.862348 0.354574
0.923445 0.892729 0.476738
0.929458 0.896498 0.497383
0.925429 0.897627 0.498451
0.08336 0.12781 0.495903
0.0988632 0.123232 0.51426
0.165316 0.115663 0.546365
0.353765 0.110658 0.569314
0.553155 0.117769 0.553689
0.696635 0.151781 0.572793
0.693721 0.153826 0.592432
0.691691 0.154864 0.60351
0.683665 0.156359 0.624689
0.0750439 0.132891 0.481147
0.0831311 0.129625 0.501976
0.144045 0.118074 0.546532
0.349325 0.112337 0.581384
0.558618 0.120058 0.564721
0.695109 0.152743 0.582879
0.692592 0.154864 0.601801
0.689921 0.15552 0.611109
0.681697 0.156878 0.630991
0.0748608 0.160281 0.484199
0.0742962 0.150149 0.485878
0.081529 0.129976 0.496895
0.293629 0.113146 0.576699
0.546181 0.118029 0.562097
0.696803 0.151202 0.568521
0.695476 0.153216 0.585458
0.694148 0.154253 0.595468
0.687877 0.155688 0.615335
0.0880751 0.390417 0.543648
0.0889448 0.393988 0.552483
0.0879683 0.375357 0.559564
0.158892 0.314229 0.63389
0.568582 0.162005 0.606607
0.70248 0.147173 0.517449
0.703975 0.148669 0.526696
0.702968 0.149279 0.535927
0.698009 0.149935 0.555978
0.143038 0.609583 0.590997
0.147097 0.617731 0.597757
0.147478 0.617929 0.599145
0.142504 0.608286 0.593729
0.53431 0.609003 0.619013
0.907027 0.537194 0.614862
0.923018 0.460304 0.608392
0.911574 0.432486 0.604395
0.92253 0.460243 0.63241
0.279759 0.81471 0.684367
0.287053 0.818082 0.689311
0.285847 0.817884 0.683024
0.270588 0.813352 0.65127
0.240162 0.797345 0.52108
0.778927 0.855039 0.463645
0.932662 0.840772 0.524437
0.931609 0.830411 0.530129
0.925093 0.840223 0.582528
0.309438 0.844846 0.733959
0.317769 0.843732 0.736217
0.315404 0.842191 0.727123
0.299016 0.837522 0.691936
0.257862 0.818341 0.528054
0.603723 0.841321 0.299321
0.923796 0.893141 0.48336
0.932372 0.898924 0.523796
0.929305 0.900587 0.571756
0.315343 0.85034 0.756741
0.326207 0.847898 0.758221
0.322957 0.846143 0.748226
0.305196 0.840757 0.712108
0.262272 0.821439 0.560464
0.561135 0.835279 0.294026
0.912764 0.887526 0.456687
0.931426 0.897948 0.515038
0.927352 0.900526 0.542321
0.333013 0.85922 0.802457
0.343359 0.856428 0.801129
0.340932 0.853986 0.791257
0.322927 0.848585 0.756802
0.268482 0.825269 0.595697
0.681147 0.86331 0.361868
0.922972 0.897932 0.507088
0.931975 0.903822 0.581186
0.926558 0.903395 0.572442
0.0915389 0.186191 0.603983
0.107042 0.182086 0.622019
0.161212 0.161669 0.650568
0.330175 0.148287 0.693187
0.520333 0.14435 0.691844
0.664408 0.163043 0.682689
0.662959 0.164858 0.693614
0.662882 0.165194 0.69543
0.66125 0.165438 0.697414
0.0834363 0.195636 0.595392
0.0908522 0.194018 0.610162
0.140978 0.176028 0.650065
0.325948 0.152773 0.69958
0.527901 0.147143 0.698207
0.664424 0.163973 0.68751
0.663661 0.164828 0.693294
0.662654 0.16524 0.695659
0.660319 0.165545 0.698711
0.08336 0.209339 0.593683
0.082414 0.202533 0.591577
0.0889143 0.192813 0.605066
0.271733 0.154162 0.688762
0.510689 0.147356 0.700908
0.665187 0.163668 0.685222
0.665522 0.164492 0.690517
0.664683 0.164797 0.692485
0.661326 0.165423 0.697322
0.098909 0.339666 0.641398
0.0992294 0.3393 0.645823
0.0951553 0.308843 0.638514
0.101472 0.223392 0.632395
0.448157 0.148333 0.702693
0.657832 0.159899 0.674876
0.669078 0.162997 0.678508
0.667872 0.163577 0.68246
0.66392 0.164355 0.68986
0.182239 0.625315 0.719158
0.186801 0.632273 0.724849
0.18735 0.630777 0.728588
0.181476 0.614969 0.732189
0.423835 0.596735 0.875715
0.802106 0.422873 0.836072
0.822568 0.341878 0.77232
0.808957 0.322683 0.760464
0.825544 0.356359 0.791043
0.299809 0.807065 0.791379
0.308461 0.811185 0.795163
0.310246 0.811139 0.795483
0.306447 0.806653 0.791623
0.289433 0.793317 0.780591
0.762371 0.818631 0.827863
0.931426 0.780331 0.827131
0.934325 0.766949 0.826795
0.921996 0.78323 0.839612
0.345892 0.864515 0.832578
0.356039 0.862699 0.831891
0.357046 0.861875 0.829847
0.354208 0.860685 0.823087
0.339864 0.856092 0.796979
0.558206 0.890745 0.760861
0.90515 0.91545 0.8103
0.932448 0.919753 0.869383
0.930632 0.92076 0.885618
0.346807 0.867079 0.842405
0.359518 0.864408 0.840269
0.360296 0.8636 0.837598
0.354849 0.862577 0.830518
0.340978 0.857221 0.801801
0.455329 0.883757 0.740917
0.874922 0.914168 0.754604
0.93492 0.925505 0.88304
0.934783 0.926024 0.895964
0.351019 0.869718 0.852262
0.363348 0.866331 0.849805
0.366125 0.865339 0.847822
0.360754 0.865187 0.843183
0.346456 0.860349 0.816419
0.638376 0.899458 0.821286
0.89691 0.91957 0.831891
0.931807 0.927092 0.905669
0.931273 0.927413 0.90515
0.100114 0.216312 0.64329
0.118166 0.212299 0.660304
0.174044 0.196612 0.689677
0.338796 0.168612 0.723827
0.529213 0.156588 0.717815
0.661768 0.165362 0.696757
0.662104 0.165316 0.696254
0.662928 0.165179 0.695399
0.661387 0.165408 0.697261
0.0885786 0.219593 0.628473
0.0997635 0.216617 0.643549
0.153994 0.202533 0.681712
0.335149 0.168948 0.723598
0.535866 0.156359 0.716991
0.661707 0.165286 0.696574
0.662196 0.165301 0.696178
0.661997 0.165331 0.696422
0.660609 0.165499 0.698314
0.0856947 0.221866 0.615534
0.0857252 0.223484 0.617487
0.0965896 0.217578 0.639628
0.280354 0.172702 0.714244
0.516243 0.157137 0.720119
0.660807 0.165164 0.696666
0.66331 0.165133 0.695003
0.663111 0.165148 0.695216
0.661219 0.165438 0.697459
0.102388 0.32546 0.674174
0.100557 0.318303 0.670863
0.0948196 0.285588 0.65388
0.0986801 0.218631 0.638392
0.443122 0.161257 0.72726
0.650217 0.163653 0.698466
0.6636 0.165118 0.694697
0.663645 0.165103 0.694667
0.661814 0.165377 0.696849
0.194965 0.625177 0.767224
0.199329 0.633036 0.769955
0.198413 0.630381 0.770733
0.18616 0.605493 0.76556
0.345083 0.575967 0.86566
0.746517 0.388388 0.873304
0.761486 0.292531 0.783047
0.748272 0.273503 0.769665
0.771145 0.310079 0.797909
0.314443 0.815641 0.829725
0.323781 0.819257 0.830076
0.325216 0.819226 0.830381
0.322255 0.814725 0.829282
0.3075 0.798871 0.825528
0.707942 0.823316 0.919249
0.906874 0.729061 0.917113
0.915724 0.708461 0.913588
0.90634 0.733333 0.908721
0.354009 0.868894 0.853498
0.364141 0.866651 0.850843
0.365805 0.866224 0.850568
0.365484 0.8663 0.850584
0.362432 0.8645 0.849332
0.563882 0.912535 0.904326
0.903273 0.910384 0.914015
0.930907 0.908995 0.912474
0.928176 0.911833 0.916472
0.350607 0.869993 0.854215
0.363928 0.866712 0.850889
0.365698 0.866255 0.850568
0.363485 0.866865 0.85095
0.361288 0.86714 0.850446
0.391882 0.877577 0.856504
0.900206 0.924178 0.919997
0.932403 0.927764 0.924361
0.933577 0.928237 0.92961
0.351873 0.869551 0.854078
0.363668 0.866789 0.850965
0.367254 0.865812 0.850294
0.364782 0.866514 0.850675
0.361807 0.867216 0.851316
0.467903 0.902983 0.886
0.913298 0.925811 0.924956
0.931151 0.928832 0.931594
0.930983 0.928878 0.931807
0.110384 0.214038 0.6533
0.130022 0.209384 0.668757
0.189593 0.191714 0.69453
0.346197 0.167865 0.7243
0.534524 0.156207 0.716793
0.661814 0.165362 0.696712
0.662104 0.165316 0.696269
0.662135 0.165316 0.696254
0.661707 0.165377 0.696895
0.0941482 0.217945 0.636332
0.109224 0.214374 0.652781
0.167803 0.19855 0.687724
0.342611 0.168063 0.72398
0.540475 0.156161 0.716152
0.661967 0.165331 0.696513
0.662196 0.165301 0.696193
0.661997 0.165331 0.696437
0.660899 0.165484 0.697887
0.0859693 0.222293 0.616022
0.0857404 0.222843 0.61825
0.104036 0.215686 0.647623
0.288884 0.172274 0.716152
0.5205 0.156985 0.719524
0.661189 0.16527 0.696742
0.663218 0.165133 0.695094
0.663066 0.165164 0.695262
0.661219 0.165438 0.697459
0.101457 0.320424 0.671855
0.0994888 0.312963 0.66804
0.0937209 0.278904 0.650294
0.101732 0.217075 0.642084
0.446876 0.161089 0.727138
0.650965 0.163882 0.698726
0.663661 0.165103 0.694636
0.663676 0.165103 0.694636
0.66183 0.165377 0.696849
0.193286 0.619654 0.770291
0.196857 0.626871 0.771801
0.194186 0.621408 0.769833
0.179934 0.592554 0.761975
0.332341 0.552041 0.857603
0.72932 0.36437 0.859403
0.741192 0.2663 0.765988
0.729458 0.249241 0.753613
0.754543 0.287327 0.782208
0.318181 0.818616 0.834638
0.32549 0.821317 0.834287
0.326955 0.820508 0.833692
0.322225 0.814313 0.831113
0.3028 0.792569 0.824048
0.697765 0.816373 0.920638
0.901839 0.714366 0.92047
0.917021 0.690105 0.915129
0.90483 0.717266 0.911376
0.354467 0.869001 0.853254
0.364126 0.866667 0.850843
0.365728 0.866239 0.850568
0.365423 0.866331 0.850599
0.363104 0.864927 0.850309
0.496788 0.904814 0.900755
0.89221 0.906706 0.921706
0.926802 0.903899 0.920394
0.925734 0.90695 0.920607
0.351064 0.869642 0.854444
0.363867 0.866728 0.850904
0.36556 0.866285 0.850584
0.363424 0.86688 0.85095
0.361639 0.867277 0.851514
0.35964 0.867704 0.852186
0.886046 0.923201 0.92546
0.931868 0.928588 0.930831
0.931746 0.928679 0.931105
0.351507 0.869673 0.854154
0.363638 0.866804 0.850965
0.367102 0.865858 0.850324
0.364813 0.866499 0.850675
0.361883 0.867216 0.851408
0.390646 0.876875 0.862257
0.901518 0.924498 0.927214
0.931243 0.928817 0.931548
0.934203 0.928084 0.92903
0.113527 0.213352 0.656245
0.133776 0.208347 0.671229
0.197147 0.189136 0.696147
0.354788 0.167285 0.725078
0.542031 0.155856 0.715267
0.661845 0.165347 0.696651
0.662104 0.165316 0.696269
0.662165 0.165301 0.696223
0.661738 0.165362 0.696818
0.0956741 0.217472 0.638193
0.111986 0.213779 0.655283
0.17435 0.196582 0.689876
0.35108 0.167376 0.724651
0.548165 0.155871 0.714565
0.662226 0.165286 0.696208
0.662196 0.165301 0.696193
0.661997 0.165331 0.696437
0.660853 0.165484 0.697948
0.0859693 0.222309 0.616159
0.0857099 0.222782 0.618158
0.106172 0.215213 0.650019
0.296818 0.171633 0.717449
0.527901 0.15671 0.71841
0.661875 0.165362 0.696574
0.663233 0.165133 0.695125
0.663081 0.165148 0.695277
0.66125 0.165423 0.69749
0.102113 0.323781 0.673701
0.100404 0.317632 0.670451
0.0942092 0.282246 0.652049
0.102449 0.216846 0.642771
0.453193 0.160891 0.727016
0.652613 0.164218 0.698695
0.663676 0.165103 0.694636
0.663691 0.165103 0.694667
0.66186 0.165362 0.69688
0.197482 0.62707 0.772381
0.201129 0.634089 0.773358
0.198306 0.628534 0.771695
0.1832 0.599008 0.763745
0.346777 0.559579 0.86595
0.737743 0.373663 0.864668
0.750912 0.279026 0.774395
0.738994 0.262913 0.763149
0.76405 0.300221 0.791394
0.322805 0.821744 0.835584
0.329992 0.824445 0.835203
0.331395 0.823484 0.834287
0.326772 0.81709 0.831952
0.306477 0.794308 0.824323
0.707744 0.819333 0.917891
0.901457 0.721965 0.918837
0.915679 0.699016 0.913497
0.902052 0.726909 0.908141
0.356619 0.868421 0.852705
0.366033 0.866133 0.850568
0.368841 0.86537 0.849928
0.369314 0.865248 0.849851
0.366674 0.863996 0.849485
0.522316 0.908278 0.90576
0.893477 0.907393 0.922469
0.926802 0.904372 0.920958
0.925292 0.908125 0.921187
0.356649 0.868162 0.853086
0.366903 0.865888 0.850401
0.36997 0.865064 0.849744
0.370092 0.865034 0.849714
0.369802 0.86511 0.849775
0.367712 0.86569 0.850202
0.887465 0.923278 0.927031
0.931701 0.928374 0.930648
0.932143 0.928588 0.9308
0.348775 0.870298 0.854841
0.365148 0.866377 0.85066
0.37026 0.864973 0.849699
0.370626 0.864881 0.849638
0.370489 0.864912 0.849668
0.396948 0.874403 0.859876
0.89691 0.924407 0.928069
0.930282 0.929061 0.932418
0.935805 0.927687 0.927687
