bundles/resolve-cinematic-luts/Phantom Luts/Canon Alexa LUT/ATOMOS Monitoring LUTs/C-Log 2/IceBlue Canon CL2-Legacy AML.cube
TITLE "Generated by Resolve"
LUT_3D_SIZE 5
0.0968948 0.107622 0.107836
0.162951 0.107668 0.111604
0.552605 0.116716 0.164965
0.680964 0.147814 0.269352
0.687388 0.145815 0.30573
0.0982071 0.182986 0.123079
0.144991 0.171054 0.11545
0.542458 0.116503 0.127275
0.662425 0.1449 0.218479
0.669718 0.144289 0.239597
0.137499 0.615579 0.203922
0.146487 0.625299 0.198688
0.564187 0.630289 0.167727
0.84445 0.600885 0.283452
0.850523 0.633555 0.292576
0.264836 0.799802 0.352178
0.268345 0.795529 0.320562
0.412482 0.819791 0.293996
0.926711 0.89398 0.479637
0.925551 0.895476 0.488212
0.262516 0.804547 0.387167
0.267094 0.795773 0.321874
0.515343 0.831937 0.291646
0.928786 0.894438 0.485512
0.924498 0.895949 0.486702
0.0938582 0.111055 0.165789
0.158587 0.108873 0.175265
0.568673 0.114839 0.239597
0.692241 0.146212 0.329992
0.69781 0.146304 0.371664
0.097673 0.165621 0.171176
0.139437 0.159777 0.172305
0.554009 0.115373 0.177951
0.682887 0.146914 0.280552
0.687678 0.146075 0.306371
0.126665 0.609201 0.251942
0.137469 0.617182 0.214099
0.542336 0.624155 0.159548
0.835401 0.563241 0.272145
0.84155 0.590112 0.279957
0.25977 0.809003 0.423499
0.263081 0.802274 0.370474
0.364965 0.813077 0.300282
0.926436 0.893629 0.478309
0.925521 0.895476 0.48835
0.261967 0.819211 0.507439
0.258961 0.808682 0.420142
0.454994 0.82504 0.291951
0.928115 0.893584 0.481147
0.923674 0.895857 0.490028
0.0857404 0.130694 0.481392
0.143023 0.122118 0.523781
0.540337 0.120546 0.537881
0.700755 0.158221 0.570809
0.690913 0.161227 0.607874
0.0794537 0.15082 0.463493
0.0842145 0.132097 0.483314
0.53312 0.120821 0.547234
0.702388 0.157717 0.563394
0.694896 0.160388 0.596735
0.1308 0.577569 0.558556
0.134493 0.586419 0.568093
0.49691 0.571969 0.581827
0.906035 0.425376 0.566842
0.907271 0.42446 0.590127
0.308782 0.843503 0.714412
0.313481 0.841169 0.70724
0.262181 0.818036 0.502754
0.927642 0.892119 0.478004
0.929442 0.899641 0.554543
0.33724 0.859602 0.795392
0.341772 0.854582 0.781933
0.269932 0.825116 0.569986
0.928679 0.896925 0.500832
0.926665 0.902358 0.555215
0.0979324 0.195117 0.62681
0.146609 0.182086 0.667826
0.501579 0.161181 0.724529
0.660502 0.173556 0.704738
0.660273 0.173571 0.705165
0.0877852 0.198413 0.601144
0.0954757 0.196048 0.623911
0.488624 0.161791 0.726452
0.661357 0.173434 0.703609
0.659937 0.173632 0.705592
0.187869 0.593301 0.762982
0.191394 0.598932 0.767987
0.307897 0.533425 0.842603
0.738125 0.268498 0.767971
0.744137 0.2804 0.778225
0.363409 0.871412 0.856291
0.373922 0.869062 0.85362
0.372747 0.86923 0.853773
0.910048 0.918975 0.92311
0.93257 0.919493 0.924163
0.359548 0.872389 0.857298
0.375921 0.868513 0.853178
0.37026 0.86978 0.8542
0.917494 0.927611 0.930205
0.930373 0.92903 0.932357
0.106126 0.193271 0.637293
0.163287 0.177325 0.675059
0.515602 0.161288 0.7234
0.660517 0.173556 0.704738
0.659846 0.173648 0.705684
0.0879835 0.198734 0.601755
0.10161 0.194583 0.632319
0.500404 0.161379 0.725093
0.66128 0.173449 0.703731
0.659968 0.173617 0.705623
0.190616 0.595361 0.769619
0.191302 0.596841 0.769528
0.307073 0.516899 0.84097
0.729854 0.257542 0.760662
0.739437 0.273991 0.774166
0.365042 0.871092 0.855695
0.376623 0.86833 0.853025
0.376715 0.868299 0.85301
0.899443 0.915297 0.927672
0.930678 0.915923 0.925582
0.35816 0.872648 0.857542
0.378561 0.867781 0.852628
0.37879 0.86772 0.852567
0.898756 0.926314 0.929549
0.930343 0.929046 0.932342
