bundles/resolve-cinematic-luts/Phantom Luts/Canon Alexa LUT/ATOMOS Monitoring LUTs/C-Log 2/IceBlue Canon CL2-Legacy AML.cube
TITLE "Generated by Resolve"
LUT_3D_SIZE 33
0.0968948 0.107622 0.107836
0.0977035 0.107622 0.108003
0.0994888 0.107668 0.108827
0.102998 0.107637 0.110018
0.108843 0.107561 0.110307
0.116823 0.107546 0.110384
0.127657 0.107652 0.110597
0.142596 0.10779 0.111025
0.162951 0.107668 0.111604
0.193637 0.107622 0.112596
0.233463 0.107485 0.114397
0.280644 0.107576 0.11812
0.338735 0.10753 0.121172
0.399283 0.108049 0.127138
0.458213 0.109255 0.136156
0.509773 0.111894 0.148928
0.552605 0.116716 0.164965
0.591333 0.123888 0.185824
0.628229 0.133135 0.209201
0.660075 0.142855 0.232578
0.674418 0.147326 0.247456
0.676295 0.147417 0.253773
0.678096 0.147539 0.25951
0.679606 0.147601 0.264836
0.680964 0.147814 0.269352
0.681956 0.147997 0.273213
0.682857 0.148135 0.276143
0.683604 0.148196 0.279026
0.684291 0.148165 0.281819
0.685039 0.147875 0.286213
0.685786 0.147463 0.290883
0.68661 0.14667 0.298024
0.687388 0.145815 0.30573
0.0970474 0.108019 0.107637
0.0971084 0.107774 0.107744
0.0981765 0.107881 0.108156
0.101076 0.107744 0.109148
0.106081 0.107698 0.110262
0.113985 0.107591 0.109911
0.125353 0.107668 0.110124
0.140215 0.107866 0.110369
0.161379 0.107851 0.11075
0.193484 0.107698 0.111406
0.23476 0.107393 0.112764
0.284688 0.107454 0.11606
0.344274 0.107485 0.11989
0.404959 0.108049 0.125963
0.464118 0.109453 0.134768
0.514549 0.112413 0.14789
0.557168 0.117647 0.164965
0.595575 0.125002 0.185931
0.632715 0.134646 0.210086
0.662501 0.143832 0.233066
0.674098 0.147356 0.245945
0.675792 0.147356 0.252308
0.677699 0.147524 0.258335
0.679103 0.147539 0.263218
0.680476 0.147738 0.267613
0.681453 0.147906 0.271565
0.682307 0.148074 0.274098
0.683085 0.148104 0.277195
0.683711 0.148074 0.279911
0.684474 0.147799 0.283879
0.685237 0.147372 0.288548
0.686137 0.146578 0.29601
0.686961 0.145739 0.303563
0.0973678 0.109621 0.108171
0.0975814 0.109346 0.108141
0.0982528 0.109117 0.10837
0.100145 0.109224 0.108904
0.104662 0.108415 0.109819
0.111925 0.107836 0.109651
0.122515 0.107942 0.110262
0.137041 0.107759 0.11014
0.157961 0.107851 0.110185
0.188846 0.108019 0.110658
0.229725 0.107637 0.11133
0.281056 0.107469 0.113832
0.342275 0.107271 0.117296
0.404593 0.107851 0.123171
0.464363 0.1093 0.132372
0.515282 0.112444 0.145586
0.557595 0.117876 0.16228
0.596033 0.125322 0.183474
0.633356 0.135134 0.208118
0.662837 0.144183 0.231189
0.673167 0.147234 0.243488
0.674998 0.147295 0.249882
0.676982 0.147509 0.255833
0.678416 0.147509 0.260868
0.679713 0.147616 0.265263
0.680842 0.147768 0.268879
0.681605 0.147936 0.272053
0.682338 0.147997 0.27454
0.682994 0.147951 0.277348
0.683803 0.147662 0.281483
0.684535 0.147234 0.286213
0.68545 0.146471 0.293446
0.686351 0.145586 0.301213
0.0978256 0.112367 0.108995
0.0979934 0.112123 0.108659
0.0984207 0.111498 0.108553
0.100282 0.111284 0.108934
0.104021 0.111498 0.109773
0.111208 0.109789 0.109819
0.121904 0.108736 0.109453
0.136095 0.108156 0.109575
0.155764 0.108125 0.110292
0.184039 0.108034 0.110475
0.223957 0.107744 0.110216
0.273991 0.107713 0.111406
0.334554 0.107362 0.114061
0.398947 0.107637 0.119646
0.461479 0.108888 0.128481
0.514031 0.11223 0.142733
0.556329 0.117678 0.158953
0.594629 0.125185 0.179706
0.632273 0.135042 0.204227
0.66212 0.144228 0.228275
0.672038 0.147066 0.24007
0.674235 0.147341 0.24654
0.675807 0.147356 0.252338
0.677531 0.147539 0.257649
0.678752 0.147509 0.261997
0.679866 0.147631 0.265736
0.680797 0.147768 0.268711
0.681422 0.147829 0.271641
0.682094 0.147814 0.274235
0.682841 0.147524 0.278202
0.683619 0.147097 0.282673
0.68452 0.146288 0.289952
0.68545 0.145403 0.297322
0.0984207 0.117617 0.111208
0.0984665 0.117403 0.110628
0.0992142 0.116533 0.110277
0.100359 0.115557 0.110079
0.104143 0.11519 0.110445
0.110765 0.115373 0.11075
0.120363 0.113451 0.110369
0.135393 0.110933 0.109529
0.156161 0.10898 0.10869
0.184558 0.108461 0.109651
0.221134 0.107851 0.109972
0.267964 0.107317 0.109621
0.326345 0.107485 0.110872
0.389334 0.10779 0.115221
0.453681 0.108659 0.123644
0.508644 0.111559 0.13698
0.55314 0.11696 0.154467
0.592233 0.12462 0.175631
0.630106 0.134539 0.200122
0.66099 0.143969 0.225132
0.670451 0.146715 0.236255
0.672724 0.147066 0.24242
0.674556 0.147265 0.248188
0.676081 0.147326 0.253269
0.677577 0.147463 0.258122
0.67863 0.147433 0.26183
0.679561 0.147463 0.265095
0.6804 0.147463 0.268177
0.681056 0.147433 0.271153
0.681651 0.14725 0.274403
0.682322 0.146853 0.278492
0.683207 0.146059 0.285359
0.684138 0.145159 0.292546
0.0994278 0.126192 0.114244
0.0993362 0.126177 0.113252
0.0996567 0.125521 0.112657
0.101015 0.124041 0.112612
0.10367 0.122927 0.112474
0.110414 0.121965 0.112474
0.120653 0.12282 0.112245
0.134264 0.120882 0.112276
0.154742 0.115373 0.111025
0.183886 0.111177 0.108888
0.224704 0.108598 0.107881
0.270695 0.107561 0.108782
0.323247 0.107485 0.109819
0.383551 0.107668 0.111482
0.444694 0.108965 0.117952
0.49987 0.111116 0.129259
0.546334 0.116167 0.146929
0.586572 0.123354 0.16817
0.625956 0.133486 0.19382
0.659266 0.143404 0.220859
0.668482 0.145953 0.232563
0.671031 0.146349 0.238972
0.673152 0.146609 0.245258
0.67483 0.146822 0.250736
0.676143 0.146746 0.255268
0.677409 0.146914 0.259098
0.678386 0.14699 0.262257
0.679042 0.146975 0.264729
0.679545 0.14696 0.266651
0.680079 0.146853 0.269032
0.680583 0.146548 0.272358
0.681315 0.145815 0.278874
0.682185 0.144869 0.285756
0.0999161 0.139376 0.117769
0.0998398 0.139574 0.116655
0.0995499 0.13933 0.115434
0.100771 0.137758 0.11487
0.102922 0.135927 0.114946
0.106935 0.134798 0.114977
0.11902 0.133425 0.115007
0.134722 0.133745 0.114076
0.154376 0.132113 0.113481
0.18262 0.124025 0.111086
0.224201 0.115175 0.108186
0.274846 0.110231 0.105852
0.332616 0.107988 0.105638
0.387625 0.107881 0.108873
0.442237 0.108492 0.11371
0.493126 0.110964 0.122393
0.536477 0.114992 0.137316
0.578622 0.122255 0.158038
0.617685 0.131685 0.182727
0.653071 0.142016 0.209827
0.664637 0.14519 0.223468
0.667689 0.145846 0.230457
0.6701 0.146242 0.2365
0.672114 0.146517 0.241871
0.673838 0.146731 0.24683
0.674922 0.146822 0.250797
0.675792 0.146761 0.253819
0.676585 0.146807 0.256519
0.677195 0.146883 0.258396
0.67776 0.146838 0.260349
0.678218 0.146639 0.262791
0.678813 0.146136 0.266819
0.679301 0.14551 0.270481
0.0995651 0.157244 0.120729
0.0992599 0.157855 0.119432
0.0989548 0.157824 0.118013
0.099443 0.15697 0.116945
0.101518 0.154971 0.116701
0.104799 0.153368 0.116701
0.111513 0.152178 0.117021
0.130632 0.149432 0.116136
0.153521 0.148943 0.114702
0.182635 0.148363 0.113695
0.223239 0.137148 0.110704
0.277531 0.120943 0.105898
0.335866 0.112474 0.103929
0.399313 0.108919 0.10277
0.455253 0.108904 0.108675
0.495369 0.110964 0.118837
0.532464 0.114824 0.131945
0.567834 0.120348 0.147005
0.606714 0.129381 0.16907
0.644648 0.140307 0.195911
0.65658 0.143725 0.20853
0.661341 0.144686 0.216999
0.665324 0.145357 0.224537
0.667857 0.145922 0.230503
0.669749 0.146212 0.235218
0.671275 0.146441 0.239094
0.672435 0.146609 0.242313
0.67335 0.146715 0.245014
0.674022 0.146792 0.24683
0.674464 0.146761 0.248814
0.674846 0.146563 0.251087
0.675441 0.146014 0.254475
0.675731 0.145342 0.257252
0.0982071 0.182986 0.123079
0.0977646 0.183825 0.121401
0.0973983 0.184192 0.119707
0.0972763 0.183902 0.11812
0.0985733 0.182086 0.117205
0.101595 0.179675 0.117372
0.107179 0.177829 0.117586
0.117235 0.176043 0.117876
0.144991 0.171054 0.11545
0.179751 0.169055 0.113817
0.22063 0.170565 0.111391
0.275486 0.15462 0.108415
0.341268 0.130449 0.104036
0.403479 0.117937 0.101884
0.462242 0.1122 0.102434
0.509682 0.112688 0.110979
0.542458 0.116503 0.127275
0.566659 0.120684 0.144305
0.596613 0.127031 0.159854
0.633478 0.137667 0.181598
0.646036 0.141314 0.191806
0.650813 0.142336 0.199023
0.655451 0.143465 0.206348
0.659663 0.144442 0.212985
0.662425 0.1449 0.218479
0.664988 0.145342 0.223438
0.66688 0.145724 0.227161
0.667811 0.145953 0.229892
0.668544 0.14609 0.231449
0.669154 0.146044 0.23331
0.669612 0.1458 0.235264
0.670039 0.145174 0.238087
0.669718 0.144289 0.239597
0.0971389 0.218418 0.124453
0.0968338 0.219959 0.122545
0.0965286 0.220813 0.120409
0.0963912 0.220417 0.119066
0.0963912 0.219074 0.118456
0.0977188 0.216571 0.118273
0.101076 0.213657 0.118334
0.108888 0.212482 0.118318
0.123827 0.209705 0.117235
0.165377 0.202686 0.113558
0.216571 0.198444 0.11223
0.268315 0.201846 0.109438
0.338781 0.179126 0.106432
0.407034 0.148043 0.102968
0.469032 0.127459 0.100755
0.51223 0.119844 0.104921
0.548394 0.11899 0.114412
0.582177 0.124865 0.137133
0.603952 0.129732 0.157763
0.62475 0.134997 0.17467
0.641886 0.140429 0.185183
0.643061 0.140734 0.186816
0.644266 0.140993 0.188876
0.646372 0.141451 0.19205
0.649393 0.142061 0.196597
0.652338 0.142657 0.201129
0.654749 0.143313 0.204944
0.656489 0.143786 0.20763
0.657755 0.144076 0.209567
0.658671 0.144121 0.211215
0.659068 0.143923 0.212467
0.658961 0.143099 0.214496
0.657984 0.141939 0.215488
0.0959182 0.262104 0.124788
0.0953994 0.264149 0.122484
0.0950179 0.265126 0.119982
0.0948806 0.265034 0.118379
0.0948501 0.264103 0.118151
0.095079 0.262226 0.118334
0.0961624 0.259495 0.118486
0.100496 0.256443 0.118486
0.111101 0.255879 0.118303
0.133242 0.25211 0.116594
0.194171 0.243397 0.111208
0.263905 0.23859 0.110643
0.327672 0.242679 0.10695
0.405158 0.218982 0.105318
0.471946 0.178607 0.10454
0.522515 0.144427 0.105577
0.553841 0.13283 0.111254
0.580392 0.128969 0.122072
0.616617 0.135363 0.147433
0.643503 0.14226 0.173938
0.64921 0.143816 0.188754
0.64361 0.140597 0.186328
0.643122 0.140551 0.186282
0.643061 0.140597 0.186267
0.643397 0.140719 0.186892
0.643793 0.14081 0.187549
0.644068 0.140871 0.188098
0.644251 0.140826 0.188632
0.644236 0.140673 0.189029
0.643931 0.140322 0.189364
0.644053 0.140047 0.190173
0.644968 0.139696 0.192935
0.64596 0.13933 0.19588
0.0938735 0.315892 0.124407
0.0936294 0.318883 0.122621
0.0932784 0.320546 0.119905
0.0931106 0.320989 0.11751
0.0930953 0.320989 0.116915
0.0931258 0.320867 0.117388
0.0933089 0.318166 0.117662
0.094377 0.314168 0.117433
0.100481 0.311192 0.117449
0.114015 0.310903 0.116518
0.146349 0.305715 0.114336
0.23151 0.296681 0.1075
0.324742 0.292424 0.107118
0.396674 0.297871 0.105455
0.470771 0.276097 0.106172
0.534401 0.227329 0.110414
0.570535 0.177081 0.116945
0.594079 0.155108 0.12398
0.613306 0.146441 0.133135
0.640269 0.145037 0.149371
0.669825 0.152178 0.181323
0.66952 0.151263 0.187381
0.665644 0.149004 0.18883
0.66157 0.147341 0.19115
0.656458 0.145632 0.193484
0.650172 0.142977 0.192844
0.644953 0.140063 0.189944
0.644892 0.13991 0.190478
0.644877 0.13991 0.190478
0.645533 0.140154 0.190417
0.647425 0.14107 0.190295
0.650584 0.142046 0.190875
0.65536 0.143618 0.192584
0.0923476 0.376135 0.125582
0.0924239 0.379492 0.123644
0.0924849 0.381613 0.121859
0.0923171 0.382452 0.119295
0.0918135 0.383474 0.116548
0.0918441 0.383673 0.117052
0.0919203 0.383291 0.117205
0.0922866 0.379904 0.117754
0.0941176 0.375509 0.117525
0.102785 0.373053 0.116548
0.121691 0.373205 0.114763
0.168063 0.366308 0.110552
0.281209 0.358083 0.1028
0.395453 0.356817 0.105135
0.467124 0.362707 0.107317
0.534752 0.351461 0.111376
0.593378 0.297627 0.125383
0.621576 0.240284 0.135912
0.636088 0.194583 0.142138
0.651087 0.175723 0.148699
0.663417 0.161196 0.154665
0.664897 0.155184 0.157458
0.666453 0.153216 0.16173
0.67013 0.153811 0.169955
0.672206 0.153933 0.175982
0.672908 0.153689 0.180072
0.673259 0.153399 0.182528
0.672862 0.153109 0.183856
0.672114 0.152834 0.184222
0.671275 0.152773 0.183536
0.670268 0.152941 0.181704
0.669566 0.153094 0.179095
0.668894 0.153414 0.176013
0.092668 0.438315 0.13019
0.0925612 0.441413 0.127932
0.0929274 0.44358 0.126345
0.0929885 0.445319 0.124758
0.0930648 0.446128 0.122042
0.0930953 0.446693 0.120684
0.0931411 0.447044 0.121096
0.0931258 0.445945 0.121111
0.0926223 0.442313 0.121141
0.0957656 0.438895 0.12018
0.108751 0.436576 0.117647
0.136187 0.436835 0.113756
0.203616 0.429053 0.106828
0.341146 0.423774 0.10042
0.467781 0.426032 0.108202
0.535668 0.430976 0.116945
0.59469 0.435538 0.131502
0.649607 0.390661 0.149798
0.680171 0.326375 0.164614
0.687465 0.2607 0.168948
0.693065 0.222416 0.170581
0.691402 0.204685 0.168612
0.68545 0.194751 0.165087
0.680415 0.186892 0.161959
0.675975 0.180148 0.159594
0.673152 0.175952 0.157183
0.672496 0.171511 0.159457
0.671199 0.169162 0.158709
0.671138 0.168643 0.158709
0.672084 0.169696 0.159289
0.674586 0.173495 0.160815
0.677638 0.179492 0.161303
0.683558 0.187625 0.166506
0.0982681 0.498619 0.143984
0.0992142 0.501503 0.143175
0.0999008 0.504051 0.141741
0.100313 0.505226 0.140032
0.100679 0.505882 0.138674
0.100999 0.506386 0.136568
0.101152 0.506661 0.136126
0.101335 0.507332 0.136416
0.100969 0.505531 0.135836
0.100679 0.502113 0.134585
0.104875 0.499855 0.131609
0.122652 0.499657 0.124788
0.162554 0.501488 0.115923
0.254734 0.494408 0.105776
0.411261 0.49189 0.103883
0.536431 0.495521 0.123766
0.602441 0.501915 0.14435
0.655665 0.51194 0.166064
0.708522 0.485771 0.187198
0.744884 0.431617 0.204379
0.753399 0.371572 0.208255
0.741924 0.307378 0.199756
0.730907 0.281605 0.192828
0.725811 0.271092 0.1897
0.722301 0.263844 0.187579
0.719097 0.257603 0.185565
0.717098 0.253407 0.184344
0.715755 0.250996 0.183337
0.715709 0.251057 0.183322
0.718227 0.25626 0.185122
0.722255 0.264561 0.187564
0.728878 0.277745 0.192172
0.738735 0.297505 0.199634
0.113207 0.557641 0.170352
0.114519 0.560372 0.169741
0.115877 0.562448 0.168933
0.116716 0.563592 0.167788
0.117327 0.564309 0.165927
0.117906 0.564935 0.164309
0.118441 0.565744 0.162844
0.118517 0.565957 0.163073
0.118486 0.565911 0.163149
0.117754 0.563745 0.162203
0.117327 0.560403 0.160006
0.126223 0.560876 0.154574
0.154665 0.563287 0.143633
0.212009 0.56762 0.130861
0.322179 0.561135 0.115023
0.486412 0.560327 0.125078
0.603021 0.567132 0.158465
0.668299 0.574945 0.186038
0.717571 0.5841 0.210391
0.766003 0.580499 0.233463
0.801022 0.542214 0.248005
0.810178 0.483452 0.24889
0.805402 0.461082 0.244633
0.800519 0.448325 0.240528
0.795789 0.436347 0.237079
0.791775 0.42623 0.233845
0.788373 0.418143 0.231281
0.786236 0.412833 0.229694
0.785977 0.412177 0.229511
0.786969 0.41471 0.23035
0.790249 0.423285 0.232532
0.796857 0.439826 0.23798
0.805631 0.463478 0.245258
0.137499 0.615579 0.203922
0.139742 0.618326 0.203815
0.141711 0.620859 0.203586
0.14313 0.622232 0.202777
0.144213 0.623102 0.201328
0.145144 0.624079 0.199969
0.145922 0.624537 0.198215
0.146304 0.624949 0.198352
0.146487 0.625299 0.198688
0.14609 0.624796 0.198383
0.144625 0.622644 0.197375
0.146242 0.621225 0.195132
0.164202 0.623453 0.186328
0.212863 0.629435 0.17171
0.284062 0.635279 0.157809
0.40763 0.629694 0.145129
0.564187 0.630289 0.167727
0.66952 0.640055 0.205966
0.734829 0.648432 0.237049
0.780255 0.657099 0.261326
0.820676 0.665248 0.283986
0.844373 0.642969 0.291081
0.848447 0.619928 0.288899
0.846403 0.610117 0.286122
0.84445 0.600885 0.283452
0.842481 0.59202 0.28072
0.840726 0.58613 0.278889
0.84007 0.5832 0.27805
0.839673 0.582437 0.277623
0.840208 0.585336 0.278294
0.842023 0.594125 0.280507
0.845502 0.609979 0.285313
0.850523 0.633555 0.292576
0.176379 0.678874 0.245457
0.179583 0.68188 0.245731
0.182452 0.684718 0.246143
0.184451 0.686442 0.245624
0.186023 0.687312 0.244556
0.187259 0.688151 0.243671
0.188602 0.688884 0.242756
0.18912 0.689387 0.242695
0.189441 0.690028 0.243091
0.1897 0.690669 0.243503
0.188785 0.689494 0.24271
0.185168 0.684596 0.239048
0.192523 0.686244 0.236622
0.224247 0.689876 0.224491
0.290532 0.701808 0.210742
0.373327 0.707683 0.198093
0.499443 0.699931 0.191348
0.642298 0.701442 0.222232
0.736584 0.715496 0.262104
0.801907 0.725383 0.295003
0.84126 0.732647 0.316411
0.86566 0.736431 0.329747
0.876707 0.735546 0.334661
0.875853 0.731197 0.332845
0.874388 0.727245 0.330816
0.872419 0.721462 0.328267
0.871412 0.717327 0.326741
0.8701 0.714122 0.325154
0.869612 0.712856 0.324681
0.869978 0.714275 0.325322
0.871366 0.718807 0.327672
0.874235 0.728435 0.332113
0.87863 0.741604 0.33872
0.224384 0.741497 0.287648
0.226917 0.744121 0.288151
0.229374 0.746288 0.288273
0.230991 0.747631 0.287678
0.232395 0.748745 0.287129
0.233555 0.749538 0.286213
0.23508 0.749859 0.286397
0.235584 0.750744 0.286992
0.235966 0.751492 0.287266
0.236255 0.751919 0.287495
0.23566 0.751598 0.287144
0.233188 0.748745 0.285176
0.230838 0.744335 0.281315
0.250462 0.749813 0.277653
0.30193 0.756573 0.262394
0.383917 0.771557 0.25275
0.474311 0.774578 0.244343
0.596155 0.768048 0.248081
0.72166 0.771054 0.28394
0.802869 0.787778 0.322026
0.859785 0.79675 0.350759
0.886763 0.801297 0.364843
0.895766 0.801251 0.369116
0.895262 0.797711 0.367483
0.894591 0.795117 0.366339
0.893614 0.792523 0.365057
0.892973 0.790417 0.364553
0.892607 0.789258 0.364492
0.892531 0.789273 0.364782
0.89279 0.790936 0.365667
0.894102 0.795041 0.368063
0.896071 0.801556 0.371481
0.898604 0.810636 0.375891
0.258686 0.785992 0.318837
0.259419 0.786633 0.317693
0.260578 0.787167 0.316747
0.261524 0.787427 0.315602
0.262409 0.787488 0.314504
0.263111 0.787488 0.313558
0.263722 0.787762 0.31371
0.263981 0.78793 0.313954
0.264179 0.78822 0.314122
0.264012 0.788251 0.314
0.263722 0.788296 0.313863
0.262989 0.787732 0.313313
0.261265 0.786084 0.31191
0.270375 0.786969 0.308949
0.311574 0.79501 0.300343
0.391135 0.806821 0.286091
0.47715 0.818143 0.281666
0.568689 0.821546 0.282826
0.686549 0.821576 0.302678
0.794232 0.827893 0.341863
0.857206 0.842069 0.372412
0.898314 0.848875 0.393057
0.909651 0.851392 0.398627
0.909194 0.850141 0.397421
0.90869 0.848768 0.396826
0.908385 0.84741 0.39649
0.908049 0.84622 0.396384
0.907759 0.845533 0.396643
0.90779 0.845884 0.397253
0.908064 0.847425 0.398199
0.908843 0.850202 0.399786
0.910307 0.855436 0.402518
0.911727 0.859739 0.40557
0.266712 0.796109 0.325353
0.266926 0.796033 0.323903
0.267384 0.795972 0.322759
0.268009 0.795819 0.321386
0.268711 0.79559 0.31986
0.26923 0.795331 0.318853
0.269505 0.7953 0.319173
0.269612 0.795239 0.319295
0.269612 0.795239 0.319295
0.269505 0.7953 0.319188
0.269276 0.795377 0.318975
0.269001 0.795468 0.318853
0.268727 0.795544 0.318761
0.273793 0.79675 0.317754
0.307668 0.802991 0.310185
0.381155 0.815549 0.298009
0.475273 0.827665 0.290501
0.560632 0.836988 0.295171
0.658228 0.846632 0.313054
0.770779 0.856504 0.353124
0.853254 0.86627 0.390219
0.895232 0.874403 0.412497
0.916762 0.877913 0.424643
0.91809 0.878096 0.425422
0.917983 0.877913 0.425238
0.917739 0.877607 0.424613
0.917525 0.877333 0.424384
0.917433 0.877455 0.424903
0.917388 0.877607 0.425574
0.917708 0.878218 0.427054
0.917983 0.879591 0.428397
0.918532 0.881163 0.430991
0.919554 0.8822 0.435279
0.266468 0.796338 0.327794
0.266484 0.796231 0.32639
0.266773 0.796185 0.325032
0.267247 0.796033 0.323491
0.267903 0.795758 0.322148
0.268482 0.795438 0.320577
0.268971 0.795178 0.319722
0.269139 0.795132 0.320058
0.269184 0.795102 0.320119
0.269139 0.795132 0.320058
0.26894 0.795209 0.31989
0.26865 0.795316 0.319646
0.268406 0.795407 0.319432
0.271336 0.796155 0.318746
0.299825 0.801678 0.312474
0.367742 0.81326 0.29958
0.45452 0.825177 0.291341
0.53431 0.83418 0.292699
0.628016 0.844968 0.306584
0.743984 0.858213 0.339849
0.856214 0.87219 0.390005
0.899336 0.880293 0.421592
0.918334 0.885191 0.443687
0.924865 0.887526 0.456001
0.925963 0.888441 0.460624
0.92575 0.888182 0.45977
0.925582 0.888029 0.459556
0.925261 0.887938 0.459541
0.924865 0.888045 0.459953
0.924468 0.88835 0.460975
0.924437 0.888884 0.462638
0.924849 0.889616 0.464988
0.925948 0.890669 0.469123
0.265644 0.797513 0.335454
0.26566 0.79733 0.333562
0.266117 0.797177 0.331548
0.266636 0.796918 0.329549
0.267384 0.79649 0.326558
0.268055 0.796048 0.324132
0.268666 0.795529 0.322072
0.269154 0.795163 0.32047
0.269322 0.795056 0.320226
0.269322 0.795056 0.320226
0.269184 0.795102 0.320119
0.26894 0.795209 0.319905
0.26865 0.795316 0.319631
0.269261 0.79559 0.319234
0.290791 0.799908 0.314305
0.354528 0.811307 0.30193
0.435554 0.822828 0.292378
0.525093 0.833234 0.292149
0.616037 0.843656 0.304128
0.730144 0.856672 0.334218
0.843061 0.870832 0.383047
0.900236 0.88217 0.427161
0.918837 0.887831 0.452522
0.926528 0.892409 0.473945
0.928267 0.893782 0.482612
0.929183 0.894209 0.48574
0.929503 0.894133 0.48661
0.929534 0.894194 0.487663
0.92929 0.894301 0.488746
0.928725 0.894423 0.489174
0.928328 0.89453 0.489326
0.928054 0.894621 0.489143
0.927855 0.894728 0.48867
0.265034 0.798688 0.34406
0.265095 0.798489 0.341787
0.265309 0.79826 0.339559
0.265782 0.797955 0.336843
0.266575 0.797528 0.333257
0.267262 0.796918 0.329427
0.268055 0.796185 0.325368
0.268589 0.79559 0.322148
0.268894 0.795239 0.320089
0.268879 0.795209 0.319844
0.268757 0.79527 0.319722
0.268513 0.795361 0.319509
0.26833 0.795438 0.319356
0.268162 0.795483 0.319265
0.283482 0.798428 0.315465
0.340871 0.809079 0.30428
0.4224 0.82118 0.293141
0.5093 0.831388 0.291173
0.602716 0.841962 0.301381
0.712108 0.854719 0.328542
0.826459 0.86833 0.373663
0.894942 0.88101 0.422354
0.916609 0.887221 0.448936
0.925124 0.892103 0.470253
0.926863 0.894209 0.481056
0.927459 0.895171 0.485801
0.927413 0.89514 0.486168
0.927214 0.895155 0.48661
0.926802 0.895216 0.487098
0.926162 0.895338 0.487724
0.925765 0.89543 0.488106
0.925551 0.895476 0.488182
0.925582 0.895491 0.487999
0.264836 0.799802 0.352178
0.264652 0.799573 0.349981
0.264546 0.79939 0.347845
0.264851 0.7991 0.344472
0.265293 0.798581 0.340337
0.266011 0.79794 0.335317
0.266804 0.797223 0.329717
0.267399 0.796399 0.324269
0.268345 0.795529 0.320562
0.268452 0.795392 0.319387
0.268345 0.795438 0.319371
0.268223 0.795468 0.319295
0.268132 0.795499 0.319249
0.26807 0.795529 0.319219
0.279332 0.797757 0.316594
0.329915 0.807172 0.306111
0.412482 0.819791 0.293996
0.496635 0.829984 0.290776
0.590265 0.840879 0.299611
0.696025 0.852872 0.323415
0.812345 0.866545 0.366476
0.889525 0.879728 0.417319
0.914534 0.886412 0.445335
0.923919 0.891264 0.466056
0.926711 0.89398 0.479637
0.927459 0.895171 0.485801
0.927413 0.89514 0.486168
0.927214 0.895155 0.48661
0.926802 0.895216 0.487098
0.926162 0.895338 0.487724
0.925734 0.89543 0.488182
0.925536 0.89546 0.488304
0.925551 0.895476 0.488212
0.263951 0.800732 0.359808
0.263844 0.800473 0.357443
0.263767 0.80029 0.355123
0.263935 0.8 0.351827
0.264454 0.799466 0.34725
0.265248 0.798795 0.341756
0.266239 0.797879 0.335119
0.26714 0.796887 0.328206
0.267903 0.795941 0.322591
0.268315 0.795483 0.319615
0.268345 0.795438 0.319356
0.268269 0.795468 0.31931
0.268193 0.795483 0.31928
0.268101 0.795514 0.319234
0.275853 0.797101 0.317433
0.322972 0.805905 0.307515
0.408148 0.819379 0.294682
0.485832 0.828885 0.290517
0.580407 0.839567 0.297856
0.68397 0.851926 0.320333
0.799664 0.864942 0.36025
0.884962 0.878889 0.413352
0.912688 0.885847 0.442512
0.922774 0.890608 0.463539
0.926528 0.893706 0.478202
0.927382 0.895033 0.485191
0.927413 0.895125 0.486152
0.927214 0.895155 0.486564
0.926818 0.895216 0.486992
0.926177 0.895354 0.487556
0.92578 0.895445 0.487861
0.925597 0.895491 0.487907
0.925612 0.895506 0.487709
0.263355 0.80177 0.36669
0.263203 0.80145 0.363806
0.263111 0.801175 0.360967
0.263188 0.800748 0.357473
0.263737 0.800305 0.353033
0.264485 0.799512 0.347036
0.265568 0.79852 0.339849
0.266804 0.797436 0.331655
0.267704 0.796262 0.324422
0.268238 0.79556 0.320333
0.26836 0.795422 0.319387
0.26833 0.795438 0.319356
0.268223 0.795468 0.319295
0.268132 0.795499 0.319249
0.274266 0.796887 0.317952
0.319585 0.805386 0.308339
0.406439 0.81915 0.294865
0.478737 0.828183 0.290654
0.574914 0.838987 0.297093
0.676143 0.850935 0.318029
0.792645 0.864561 0.357824
0.881285 0.878523 0.410391
0.910353 0.885466 0.440146
0.921752 0.890303 0.461692
0.926284 0.893477 0.477241
0.927275 0.894835 0.484108
0.927474 0.895171 0.485618
0.927306 0.895201 0.485725
0.926955 0.895277 0.486015
0.926345 0.895415 0.486442
0.925902 0.895491 0.486961
0.925628 0.895506 0.487617
0.925597 0.895491 0.487861
0.262959 0.802579 0.372686
0.262882 0.802197 0.369757
0.262669 0.801846 0.366934
