bundles/resolve-cinematic-luts/Phantom Luts/Canon Alexa LUT/ATOMOS Monitoring LUTs/C-Log 2/IceBlue Canon CL2 AML.cube
TITLE "Generated by Resolve"
LUT_3D_SIZE 33
0.0886549 0.0993973 0.0973831
0.0897536 0.0994278 0.0977188
0.0922713 0.099443 0.0987259
0.0972457 0.0993362 0.100359
0.104875 0.0994125 0.100542
0.116838 0.0998093 0.101625
0.133455 0.0998398 0.1019
0.156024 0.099855 0.102541
0.187091 0.099855 0.103746
0.227375 0.0997482 0.105592
0.273808 0.0994736 0.108614
0.327382 0.099382 0.114046
0.3832 0.0995193 0.12192
0.438697 0.100343 0.133272
0.489052 0.102083 0.14699
0.53138 0.105516 0.164187
0.570657 0.111269 0.184924
0.607385 0.11902 0.209155
0.641627 0.128359 0.234501
0.668986 0.136721 0.258778
0.68101 0.140093 0.273655
0.682689 0.140337 0.279988
0.684245 0.140475 0.285924
0.68545 0.140444 0.291051
0.686488 0.14052 0.295415
0.687251 0.14049 0.299245
0.687907 0.140551 0.302007
0.688457 0.140536 0.304921
0.688823 0.140475 0.307988
0.689265 0.14023 0.312184
0.689693 0.139849 0.317006
0.690166 0.139147 0.32488
0.690608 0.138399 0.333196
0.0888075 0.100099 0.0973983
0.0889754 0.0996872 0.0973831
0.090425 0.0998703 0.0979934
0.094316 0.0995499 0.0992752
0.10164 0.0995956 0.100237
0.112886 0.0998245 0.100877
0.129885 0.0997635 0.101076
0.153033 0.100114 0.101732
0.184726 0.100175 0.102632
0.227024 0.0997787 0.103578
0.275761 0.0993362 0.10605
0.330831 0.0992905 0.111299
0.387854 0.0994583 0.119265
0.44329 0.100145 0.130495
0.49305 0.102281 0.144915
0.535164 0.106081 0.162585
0.574517 0.112047 0.184222
0.611109 0.120104 0.208942
0.645548 0.129656 0.235035
0.671199 0.137453 0.259159
0.680613 0.140032 0.272175
0.682307 0.140276 0.278614
0.683894 0.140475 0.284413
0.6851 0.140444 0.289509
0.686137 0.14052 0.294011
0.686885 0.14052 0.297353
0.68751 0.140505 0.300404
0.688075 0.140505 0.303075
0.688502 0.140429 0.305882
0.68893 0.140169 0.310201
0.689296 0.139818 0.315084
0.68983 0.139116 0.323033
0.690318 0.138369 0.33109
0.0889906 0.102419 0.0983291
0.0893568 0.101961 0.0981308
0.0903334 0.101564 0.098436
0.0932021 0.101686 0.0992447
0.0994736 0.100465 0.0999313
0.110292 0.100084 0.10013
0.125765 0.0998398 0.100771
0.148043 0.100023 0.10135
0.178958 0.100099 0.101961
0.221088 0.100099 0.102556
0.270481 0.0999008 0.104204
0.327123 0.099321 0.107439
0.385916 0.0992294 0.114412
0.442741 0.100069 0.12639
0.492882 0.102205 0.141299
0.535241 0.106111 0.159289
0.574639 0.112276 0.180896
0.611292 0.120455 0.205722
0.645762 0.130037 0.232456
0.671321 0.137697 0.25713
0.679835 0.139956 0.269505
0.68159 0.140215 0.275929
0.683238 0.140398 0.281804
0.68452 0.140459 0.287114
0.685557 0.140459 0.291508
0.686381 0.14052 0.294987
0.686992 0.140505 0.297871
0.68751 0.140459 0.300771
0.688029 0.140383 0.303517
0.688518 0.140093 0.307836
0.688853 0.139742 0.312642
0.689357 0.13904 0.320638
0.689876 0.138277 0.328771
0.0897993 0.10692 0.100435
0.0900893 0.106462 0.0998856
0.0907454 0.10547 0.0996109
0.0936599 0.105089 0.100038
0.0989395 0.105562 0.101335
0.109087 0.102968 0.100481
0.125185 0.101228 0.0999466
0.146715 0.100572 0.100801
0.175509 0.100175 0.101717
0.214984 0.0999008 0.102037
0.263584 0.0997635 0.102281
0.319356 0.099794 0.10457
0.37911 0.0997635 0.109987
0.437613 0.100023 0.12047
0.490043 0.101869 0.135836
0.533761 0.105837 0.154879
0.573098 0.112062 0.176547
0.610132 0.120424 0.201572
0.644526 0.129961 0.228122
0.670649 0.137743 0.253773
0.678721 0.139849 0.265965
0.680781 0.140047 0.272755
0.682322 0.140291 0.278645
0.683711 0.140444 0.283742
0.684794 0.140459 0.28809
0.685664 0.140459 0.291997
0.686336 0.14052 0.29482
0.68687 0.140459 0.297612
0.687327 0.140337 0.300374
0.687861 0.140032 0.304616
0.688319 0.139651 0.309285
0.688807 0.138949 0.317296
0.689265 0.138201 0.325216
0.0905623 0.114534 0.104021
0.0905623 0.114412 0.103243
0.0917067 0.113329 0.102754
0.0935988 0.111772 0.102251
0.0990463 0.111208 0.102449
0.109071 0.112016 0.103319
0.123232 0.108995 0.102571
0.146014 0.104707 0.101076
0.176898 0.101915 0.10042
0.215824 0.100603 0.100984
0.259663 0.0997787 0.101778
0.312779 0.0995041 0.10219
0.371344 0.0998703 0.104997
0.42916 0.100557 0.113649
0.483558 0.10164 0.128115
0.528618 0.105241 0.147494
0.569406 0.111513 0.170321
0.607507 0.119844 0.196353
0.642603 0.129381 0.224125
0.669779 0.137469 0.251347
0.677546 0.139406 0.263233
0.679576 0.139666 0.269825
0.681254 0.139925 0.275639
0.682673 0.140124 0.28072
0.683879 0.140261 0.285374
0.68484 0.14023 0.289464
0.685542 0.140154 0.292836
0.686183 0.140185 0.295705
0.686641 0.140124 0.298238
0.687053 0.139925 0.301488
0.687419 0.139605 0.305364
0.687999 0.138888 0.312642
0.688457 0.138109 0.320348
0.0912337 0.128161 0.108415
0.0911116 0.128191 0.107103
0.0919966 0.127474 0.106538
0.0941024 0.125597 0.106447
0.0979171 0.123857 0.106401
0.108003 0.122332 0.10605
0.123919 0.123445 0.10547
0.145418 0.120302 0.105241
0.175921 0.111696 0.102815
0.216434 0.105058 0.100298
0.264958 0.101244 0.0993057
0.315602 0.0999313 0.100755
0.367849 0.0997177 0.103212
0.423255 0.099855 0.106706
0.476036 0.101991 0.118624
0.520241 0.104768 0.137118
0.562371 0.110704 0.160021
0.601389 0.118685 0.186282
0.638636 0.128664 0.215457
0.667567 0.137011 0.244846
0.675837 0.139101 0.258015
0.677806 0.139208 0.265019
0.679683 0.139406 0.271443
0.681208 0.13962 0.277058
0.68249 0.139803 0.281605
0.683528 0.13991 0.285634
0.684337 0.140002 0.28864
0.684901 0.139971 0.291234
0.685298 0.139956 0.292988
0.68571 0.139788 0.295552
0.686091 0.139513 0.299245
0.686702 0.138796 0.306355
0.68719 0.137987 0.313649
0.0910201 0.149462 0.112947
0.0907912 0.14992 0.111421
0.0905165 0.149767 0.109789
0.0928511 0.147555 0.109087
0.0961929 0.144839 0.109392
0.102754 0.143297 0.109575
0.121141 0.140459 0.108629
0.146014 0.141146 0.107088
0.176013 0.138064 0.105928
0.21648 0.125185 0.102724
0.265751 0.111559 0.0990005
0.320363 0.10367 0.0966812
0.377249 0.101015 0.0981003
0.427207 0.100374 0.103731
0.473152 0.101503 0.112169
0.51371 0.104707 0.126894
0.552666 0.109361 0.14696
0.592706 0.117433 0.173205
0.630823 0.127001 0.202579
0.662165 0.136095 0.231952
0.672419 0.138689 0.247211
0.675105 0.139071 0.255222
0.677089 0.139178 0.262074
0.678767 0.13933 0.267979
0.680201 0.139483 0.27306
0.68127 0.139651 0.277058
0.682155 0.139773 0.280278
0.682841 0.139849 0.282765
0.68333 0.139895 0.284733
0.683772 0.139818 0.287022
0.684108 0.139651 0.289448
0.68455 0.139162 0.293919
0.684871 0.138613 0.29781
0.0901808 0.176837 0.115816
0.0898299 0.177493 0.113893
0.0895857 0.177646 0.111849
0.090013 0.176699 0.111147
0.0930953 0.173877 0.11078
0.0986343 0.171191 0.110658
0.108858 0.169055 0.110719
0.13872 0.164767 0.108537
0.17467 0.163684 0.106554
0.216907 0.162463 0.104952
0.266194 0.145632 0.101976
0.325628 0.120577 0.0971847
0.381964 0.108232 0.0958877
0.437919 0.102739 0.0957198
0.482612 0.102785 0.105196
0.514641 0.104738 0.121004
0.548791 0.109361 0.13994
0.58143 0.115328 0.158465
0.619928 0.125048 0.185687
0.654093 0.1346 0.215854
0.664805 0.137285 0.229892
0.669444 0.138308 0.239918
0.673106 0.138827 0.248783
0.675181 0.139101 0.255192
0.676783 0.139223 0.260395
0.677974 0.139284 0.264927
0.679026 0.139391 0.268406
0.679789 0.139483 0.27097
0.680369 0.139528 0.273091
0.680812 0.139498 0.274937
0.681102 0.1393 0.277409
0.681514 0.138842 0.281224
0.681682 0.138201 0.284337
0.0890059 0.213092 0.117586
0.0886854 0.214328 0.115145
0.0883803 0.214588 0.112993
0.0882582 0.214328 0.111742
0.0889906 0.212207 0.111757
0.0925612 0.20885 0.111482
0.101534 0.206302 0.111147
0.117006 0.203525 0.110552
0.161089 0.197162 0.10631
0.212741 0.194339 0.105028
0.262852 0.196201 0.102419
0.325414 0.172763 0.100008
0.389914 0.135561 0.0963912
0.443854 0.117082 0.0936599
0.489021 0.108263 0.0973526
0.525902 0.107622 0.109071
0.556069 0.110979 0.132219
0.580056 0.11548 0.154559
0.609812 0.122637 0.174105
0.643427 0.132342 0.197925
0.654734 0.135485 0.210208
0.659571 0.13637 0.218845
0.663828 0.137194 0.227497
0.667414 0.137896 0.23508
0.670375 0.13846 0.241657
0.672709 0.138796 0.247379
0.674311 0.139086 0.251743
0.675151 0.139132 0.254627
0.675776 0.139208 0.256458
0.67631 0.139116 0.258717
0.676661 0.138903 0.260563
0.676997 0.138354 0.263752
0.676631 0.137606 0.265187
0.0878309 0.255802 0.118257
0.0871901 0.257313 0.115114
0.0868544 0.258335 0.112627
0.0867018 0.257771 0.111421
0.0870069 0.256733 0.111711
0.0875868 0.253681 0.111757
0.091783 0.250553 0.111696
0.104005 0.24889 0.111208
0.127352 0.246036 0.109377
0.190234 0.237797 0.103517
0.257511 0.232792 0.10309
0.316732 0.236957 0.0999466
0.389319 0.207767 0.0985122
0.452461 0.163622 0.0970474
0.501228 0.131701 0.0968185
0.531685 0.11899 0.101961
0.559548 0.114565 0.112337
0.593057 0.119707 0.143053
0.615473 0.124697 0.169757
0.635767 0.130037 0.190875
0.650874 0.134737 0.202213
0.651804 0.134936 0.203586
0.652888 0.135103 0.205951
0.655085 0.135622 0.210315
0.658106 0.13608 0.215961
0.660883 0.136721 0.221485
0.663172 0.137148 0.225727
0.664698 0.137331 0.228946
0.665736 0.137545 0.230976
0.666453 0.137591 0.232715
0.666773 0.137362 0.234073
0.666606 0.136614 0.235889
0.665751 0.135775 0.236622
0.0862898 0.305165 0.117891
0.0856336 0.307546 0.11458
0.0854047 0.308644 0.111864
0.0852522 0.308553 0.110567
0.0852522 0.307942 0.110567
0.0855726 0.306035 0.110918
0.0860151 0.303181 0.111147
0.0914168 0.30013 0.110826
0.107088 0.299351 0.109667
0.140642 0.294957 0.1066
0.226658 0.285313 0.0999771
0.311543 0.279576 0.100175
0.378958 0.284718 0.0984665
0.45214 0.256947 0.0985428
0.512673 0.207782 0.100511
0.549706 0.157366 0.105135
0.571893 0.137377 0.111009
0.591546 0.127123 0.121233
0.62388 0.129625 0.151598
0.649607 0.135088 0.185229
0.657588 0.137285 0.206683
0.652689 0.134463 0.204761
0.652354 0.134417 0.20499
0.652293 0.134463 0.20502
0.652598 0.134539 0.205646
0.652888 0.13463 0.206348
0.653132 0.134676 0.207126
0.653284 0.134646 0.207843
0.653254 0.134493 0.208286
0.652995 0.134234 0.208255
0.652995 0.134081 0.208789
0.653544 0.133867 0.210681
0.654444 0.133516 0.213489
0.0850538 0.359686 0.118349
0.0849317 0.362325 0.115908
0.0848554 0.364218 0.112902
0.0848402 0.36466 0.111406
0.0848249 0.364584 0.111223
0.0848249 0.364446 0.111208
0.0848554 0.361776 0.111223
0.0855268 0.358312 0.111192
0.0933089 0.355474 0.110201
0.113741 0.355642 0.107958
0.161181 0.350347 0.103426
0.27187 0.341451 0.0962692
0.375265 0.33727 0.0985733
0.44477 0.34284 0.0995956
0.512932 0.320897 0.102037
0.569009 0.267567 0.111803
0.59791 0.204044 0.120821
0.614878 0.169223 0.127718
0.625238 0.150896 0.131167
0.64271 0.137774 0.147265
0.669001 0.142031 0.187625
0.670192 0.141711 0.196948
0.667674 0.140261 0.200244
0.665202 0.139071 0.204257
0.662242 0.138231 0.208591
0.657908 0.136614 0.209384
0.653056 0.134173 0.206104
0.653178 0.134142 0.207065
0.653162 0.134142 0.207065
0.653452 0.134295 0.206729
0.65481 0.134905 0.205859
0.657267 0.135698 0.205936
0.660655 0.136492 0.206638
0.0851301 0.417121 0.121736
0.0852522 0.42034 0.119493
0.0854963 0.422156 0.117479
0.0856031 0.423178 0.115175
0.0852522 0.424399 0.113573
0.0852827 0.424506 0.113649
0.0853895 0.424186 0.113802
0.0852369 0.420676 0.113542
0.0870222 0.416464 0.112963
0.0982834 0.414176 0.110674
0.126162 0.414313 0.106157
0.193591 0.408194 0.10016
0.326162 0.401175 0.094255
0.442313 0.39971 0.099443
0.510216 0.405631 0.105165
0.570596 0.39617 0.115816
0.625208 0.343648 0.133242
0.651774 0.280919 0.145693
0.6598 0.221149 0.149813
0.66566 0.189197 0.152438
0.665888 0.159045 0.15256
0.663172 0.147463 0.153933
0.662974 0.143252 0.158877
0.667506 0.143648 0.171405
0.670253 0.143786 0.180529
0.67126 0.143404 0.185748
0.671763 0.142977 0.188998
0.67187 0.142885 0.191165
0.671611 0.143008 0.191989
0.671183 0.143313 0.19115
0.670298 0.143893 0.188449
0.669535 0.144411 0.184329
0.668711 0.145296 0.179294
0.0889296 0.475044 0.133181
0.0897688 0.478157 0.132021
0.090013 0.479973 0.130068
0.0902113 0.481254 0.127947
0.090425 0.481941 0.125963
0.090547 0.48249 0.125765
0.0906233 0.482719 0.125795
0.0904555 0.481727 0.125536
0.0903487 0.478813 0.125139
0.0929274 0.475807 0.122377
0.110307 0.474571 0.114946
0.149889 0.474876 0.106813
0.238926 0.468009 0.0983291
0.386999 0.463676 0.0955062
0.508888 0.465858 0.109056
0.573098 0.471214 0.126101
0.627634 0.475914 0.144762
0.680369 0.434531 0.164355
0.709316 0.372259 0.178317
0.711803 0.298695 0.179736
0.707988 0.24622 0.176654
0.701778 0.221592 0.172457
0.694713 0.208347 0.167895
0.688411 0.197086 0.16405
0.682567 0.18703 0.160693
0.678431 0.179431 0.157961
0.67483 0.174044 0.154986
0.674693 0.169818 0.157671
0.674205 0.168521 0.157351
0.674983 0.169711 0.158007
0.676555 0.175189 0.156374
0.682002 0.182971 0.161196
0.689952 0.195422 0.167819
0.0996719 0.530922 0.156374
0.100816 0.533578 0.155093
0.1019 0.53579 0.154055
0.102449 0.536751 0.152178
0.102968 0.537423 0.14995
0.103365 0.537926 0.148241
0.103517 0.538354 0.148379
0.10367 0.538857 0.148714
0.103197 0.537285 0.148165
0.102449 0.533959 0.146883
0.108034 0.532631 0.141741
0.134157 0.533989 0.129519
0.192279 0.53724 0.11577
0.298146 0.531243 0.102525
0.455879 0.528908 0.108141
0.573343 0.532616 0.137011
0.635752 0.538796 0.161013
0.686992 0.548684 0.184909
0.735698 0.524727 0.2047
0.765637 0.47155 0.217548
0.770977 0.412299 0.218097
0.757 0.342947 0.207614
0.745724 0.314488 0.200366
0.740078 0.301579 0.196567
0.736385 0.29337 0.194247
0.73312 0.286305 0.192218
0.730846 0.280934 0.190814
0.729488 0.278035 0.189792
0.729351 0.277775 0.189715
0.731517 0.282872 0.191226
0.735683 0.292226 0.19382
0.74287 0.307576 0.198947
0.753353 0.330373 0.207019
0.118334 0.586343 0.187381
0.119936 0.588922 0.186404
0.121645 0.590951 0.185489
0.122683 0.591959 0.183597
0.123491 0.592599 0.181872
0.124178 0.593118 0.179736
0.124636 0.593881 0.179187
0.124697 0.594095 0.1794
0.124651 0.594095 0.179568
0.123766 0.592081 0.178637
0.123537 0.588952 0.175509
0.136873 0.590646 0.1682
0.179889 0.595209 0.152041
0.253651 0.600381 0.136629
0.371038 0.595743 0.123919
0.527184 0.594797 0.141619
0.636759 0.601267 0.177905
0.699153 0.608698 0.206317
0.745785 0.617731 0.230777
0.785718 0.61323 0.249607
0.811215 0.57554 0.257237
0.817639 0.517601 0.255085
0.813947 0.496452 0.251331
0.809369 0.483833 0.247181
0.805768 0.472435 0.24419
0.802197 0.463142 0.241184
0.799405 0.455589 0.238758
0.797635 0.450477 0.237476
0.797253 0.449439 0.237125
0.79823 0.451911 0.237919
0.801114 0.459968 0.240009
0.806348 0.475486 0.244724
0.813855 0.498039 0.251713
0.146487 0.64271 0.223819
0.148989 0.645624 0.223346
0.151385 0.647715 0.222492
0.152636 0.648615 0.220859
0.153857 0.649226 0.218662
0.155016 0.650339 0.217411
0.155901 0.650904 0.216281
0.156191 0.651362 0.216632
0.156329 0.651652 0.216892
0.155901 0.651225 0.216678
0.154238 0.648692 0.215106
0.156405 0.647562 0.21236
0.183642 0.651682 0.200778
0.248676 0.659449 0.182147
0.330983 0.666056 0.168719
0.454414 0.661631 0.161715
0.600824 0.662089 0.188754
0.700679 0.671534 0.227756
0.761975 0.679606 0.257923
0.800061 0.686748 0.278584
0.831479 0.693065 0.296056
0.847135 0.669947 0.297078
0.850126 0.647517 0.294102
0.848188 0.638254 0.290898
0.846357 0.629374 0.288197
0.844648 0.621134 0.285954
0.843244 0.615503 0.284108
0.842725 0.612421 0.283253
0.842496 0.611688 0.283009
0.842924 0.614679 0.283757
0.844343 0.623209 0.286076
0.847471 0.638346 0.290501
0.852293 0.660777 0.297978
0.185702 0.700481 0.26247
0.188327 0.702678 0.261967
0.190524 0.704585 0.261051
0.19263 0.706004 0.260014
0.194217 0.706874 0.25861
0.195377 0.7075 0.25713
0.196139 0.70808 0.256168
0.196384 0.708553 0.256474
0.196643 0.708965 0.256733
0.19704 0.709422 0.257237
0.196201 0.708614 0.256641
0.193027 0.704219 0.25359
0.202838 0.70663 0.25098
0.24773 0.712566 0.235065
0.328908 0.72488 0.219165
0.417792 0.730877 0.209796
0.539467 0.72546 0.209567
0.67451 0.727489 0.242802
0.763012 0.740032 0.281331
0.818357 0.748592 0.309529
0.849027 0.75407 0.326177
0.868238 0.756161 0.336187
0.878614 0.754894 0.340612
0.878126 0.751141 0.338949
0.876814 0.747509 0.337026
0.875364 0.742336 0.334966
0.873808 0.738048 0.332982
0.872999 0.735439 0.332006
0.872602 0.734401 0.33167
0.872984 0.735485 0.332311
0.874296 0.73962 0.334371
0.877424 0.748638 0.338827
0.88127 0.760571 0.344778
0.223331 0.748852 0.293873
0.225101 0.750668 0.293416
0.227375 0.752407 0.292866
0.228641 0.753246 0.291646
0.229938 0.753948 0.290272
0.230808 0.754513 0.289509
0.231907 0.754665 0.289967
0.232258 0.755261 0.290303
0.232532 0.755947 0.290639
0.232456 0.756222 0.290669
0.23209 0.756039 0.290471
0.230549 0.75407 0.289067
0.228168 0.750484 0.286397
0.254994 0.756558 0.279942
0.32372 0.766079 0.261906
0.416281 0.780316 0.252644
0.508247 0.78436 0.249393
0.627176 0.780743 0.259739
0.747662 0.784955 0.2981
0.817685 0.798321 0.330877
0.862638 0.805112 0.353353
0.884215 0.808362 0.36463
0.893034 0.808209 0.368658
0.895537 0.805951 0.368933
0.894789 0.803937 0.368002
0.894133 0.801831 0.367224
0.893309 0.800259 0.366522
0.893019 0.799496 0.366735
0.892943 0.799542 0.367117
0.893294 0.80087 0.367941
0.894408 0.804242 0.369863
0.896056 0.809262 0.37229
0.898268 0.816342 0.375799
0.248508 0.782025 0.315801
0.249607 0.782834 0.314687
0.250751 0.783505 0.313558
0.251728 0.78381 0.31223
0.252567 0.784009 0.310872
0.253162 0.784192 0.310506
0.253727 0.784558 0.310887
0.253956 0.784772 0.311086
0.254078 0.785046 0.311208
0.253956 0.785199 0.311116
0.253803 0.785306 0.310994
0.253285 0.784985 0.310735
0.251453 0.782589 0.309087
0.26305 0.784421 0.306004
0.31902 0.794003 0.293339
0.413367 0.807187 0.278767
0.503029 0.818006 0.277409
0.594034 0.821302 0.282445
0.710521 0.823026 0.30782
0.808957 0.829084 0.346044
0.859403 0.839719 0.370016
0.891691 0.844572 0.385794
0.904936 0.847379 0.391882
0.908125 0.84741 0.393332
0.907607 0.846036 0.392767
0.907149 0.84477 0.392248
0.906813 0.843793 0.391897
0.906569 0.84332 0.391821
0.906615 0.843473 0.391989
0.907027 0.844785 0.392737
0.907881 0.847166 0.393973
0.908766 0.850568 0.395789
0.910185 0.854612 0.398886
0.257099 0.793652 0.32282
0.257435 0.7935 0.321202
0.258 0.793408 0.319799
0.25864 0.793225 0.318166
0.25922 0.793011 0.316625
0.259571 0.79292 0.31664
0.259907 0.792828 0.316793
0.260029 0.792782 0.316915
0.260029 0.792782 0.316915
0.259907 0.792828 0.316793
0.259648 0.792935 0.316564
0.259403 0.793027 0.316335
0.25919 0.793088 0.316228
0.265354 0.793469 0.314275
0.311345 0.802304 0.304753
0.400168 0.815869 0.290303
0.500298 0.828321 0.286534
0.584787 0.837629 0.294606
0.67985 0.845319 0.313848
0.787243 0.852613 0.355352
0.856245 0.860349 0.387472
0.889555 0.867674 0.405371
0.91014 0.871046 0.416663
0.916335 0.872175 0.420798
0.916228 0.871778 0.420691
0.915938 0.871199 0.419577
0.91577 0.870893 0.41915
0.915633 0.870817 0.419364
0.915496 0.870878 0.419806
0.915434 0.871229 0.420722
0.915892 0.87245 0.422171
0.916655 0.874418 0.425437
0.918547 0.877134 0.431891
0.257008 0.793835 0.325429
0.257008 0.793759 0.32401
0.257359 0.793637 0.322652
0.257893 0.793439 0.320836
0.258534 0.793149 0.318914
0.258991 0.79292 0.317968
0.259373 0.792737 0.31754
0.259525 0.792676 0.317693
0.259602 0.792645 0.317739
0.259525 0.792676 0.317693
0.259373 0.792737 0.31754
0.259129 0.792844 0.317235
0.258915 0.792935 0.316976
0.262318 0.793667 0.316075
0.301564 0.801129 0.307637
0.387106 0.815412 0.293645
0.480278 0.827192 0.287343
0.560037 0.835981 0.292149
0.65156 0.846601 0.308797
0.764019 0.858915 0.343938
0.859693 0.870695 0.388128
0.894484 0.878782 0.419043
0.912413 0.884138 0.44303
0.924117 0.887633 0.459556
0.92694 0.88893 0.465995
0.926757 0.888579 0.464958
0.926574 0.888472 0.464607
0.926238 0.888487 0.464561
0.925917 0.888792 0.465141
0.925612 0.88954 0.466621
0.925689 0.890394 0.468742
0.92607 0.891127 0.471153
0.926955 0.891951 0.475334
0.255787 0.795178 0.336141
0.255985 0.794934 0.333288
0.256428 0.794675 0.330694
0.257069 0.794278 0.32784
0.25803 0.793912 0.324392
0.258701 0.793454 0.321599
0.259236 0.79295 0.31899
0.259525 0.792676 0.317739
0.259617 0.792645 0.317754
0.259556 0.792676 0.317708
0.259403 0.792737 0.317556
0.259144 0.792828 0.31725
0.258915 0.792935 0.317006
0.258762 0.792996 0.316823
0.289326 0.798688 0.309758
0.370031 0.812634 0.295232
0.460716 0.824842 0.287495
0.550851 0.835233 0.291295
0.639612 0.845441 0.306294
0.751324 0.858183 0.339055
0.849882 0.871031 0.383536
0.896147 0.882231 0.427192
0.913359 0.888533 0.454597
0.923522 0.893736 0.479042
0.928771 0.895857 0.490669
0.929564 0.896345 0.493935
0.929854 0.896254 0.494759
0.929885 0.896315 0.495964
0.929671 0.896422 0.497093
0.929137 0.896513 0.497642
0.92874 0.89662 0.497856
0.928435 0.896742 0.497673
0.928374 0.896788 0.4972
0.255314 0.796963 0.348333
0.255253 0.796674 0.345418
0.25536 0.796307 0.342626
0.255802 0.795789 0.338231
0.256687 0.79527 0.333181
0.257404 0.794385 0.32755
0.258198 0.79379 0.322652
0.258595 0.79321 0.318318
0.258747 0.792996 0.316838
0.258717 0.793011 0.316777
0.258656 0.793027 0.316732
0.25861 0.793057 0.316686
0.258579 0.793072 0.316655
0.258564 0.793072 0.31664
0.279728 0.796979 0.312078
0.35314 0.809949 0.297841
0.446845 0.823011 0.287785
0.53518 0.83331 0.289586
0.627085 0.844007 0.303441
0.733166 0.856229 0.332677
0.836149 0.86894 0.375189
0.891859 0.880888 0.422187
0.910964 0.887724 0.450416
0.921355 0.893126 0.475166
0.927977 0.895964 0.489586
0.928679 0.896956 0.494697
0.928634 0.896941 0.495079
0.928389 0.896971 0.495583
0.927932 0.897032 0.496178
0.927382 0.897169 0.496727
0.927047 0.897231 0.497047
0.926848 0.897276 0.497063
0.927077 0.897246 0.49688
0.254688 0.798672 0.36025
0.254551 0.798428 0.35758
0.25449 0.798062 0.354498
0.254734 0.797498 0.350088
0.255329 0.796735 0.343816
0.256199 0.795697 0.3364
0.257237 0.794614 0.328389
0.258076 0.79382 0.321935
0.258869 0.793057 0.318029
0.258915 0.792935 0.316976
0.258839 0.792966 0.316915
0.258747 0.792996 0.316808
0.258671 0.793027 0.316732
0.25861 0.793057 0.316686
0.273381 0.795773 0.313603
0.340398 0.808087 0.300313
0.435828 0.82182 0.288487
0.522515 0.831907 0.288624
0.61474 0.842802 0.301045
0.71783 0.854627 0.327672
0.824033 0.866987 0.368307
0.887648 0.879789 0.417258
0.90898 0.8869 0.446769
0.920027 0.892256 0.470466
0.927733 0.895628 0.4878
0.928679 0.896956 0.494697
0.928634 0.896941 0.495079
0.928389 0.896971 0.495583
0.927932 0.897032 0.496178
0.927367 0.897154 0.496803
0.927016 0.897231 0.4972
0.926833 0.897261 0.497307
0.926848 0.897276 0.497093
0.25388 0.799969 0.370779
0.253819 0.79968 0.367224
0.253681 0.799298 0.36405
0.253941 0.798886 0.359716
0.25449 0.798184 0.353872
0.255268 0.797055 0.345846
0.256443 0.795621 0.336095
0.257679 0.794232 0.32636
0.258518 0.793347 0.319448
0.258808 0.792981 0.316915
0.258793 0.792981 0.316869
0.258747 0.793011 0.316808
0.258686 0.793027 0.316732
0.258625 0.793057 0.316686
0.269093 0.794873 0.314443
0.331395 0.806409 0.301564
0.431037 0.821317 0.288853
0.512306 0.830716 0.287968
0.605142 0.841581 0.299062
0.705913 0.853559 0.323949
0.814588 0.866148 0.364065
0.883558 0.878798 0.41297
0.907103 0.886152 0.443519
0.918624 0.891539 0.467292
0.926665 0.895125 0.485512
0.928618 0.89688 0.494118
0.928679 0.896956 0.49485
0.92845 0.897002 0.495033
0.928069 0.897108 0.495186
0.927565 0.897246 0.495232
0.927306 0.897353 0.49514
0.927184 0.897398 0.494957
0.927214 0.897414 0.494743
0.252598 0.801373 0.379141
0.252583 0.800916 0.375357
0.252705 0.800504 0.371939
0.253117 0.8 0.367422
0.253666 0.799191 0.36141
0.254582 0.798215 0.353704
0.255634 0.796628 0.343206
0.25716 0.79498 0.331304
0.258381 0.793683 0.321996
0.258824 0.793027 0.317525
0.258869 0.79295 0.316945
0.258839 0.792966 0.316899
0.258762 0.792996 0.316823
0.258686 0.793027 0.316732
0.266636 0.7944 0.315114
0.327245 0.8056 0.302205
0.428702 0.820966 0.28896
0.504997 0.830014 0.287816
0.59968 0.841093 0.298207
0.6981 0.852522 0.321599
0.808362 0.865553 0.361669
0.880339 0.878416 0.409827
0.904997 0.885786 0.441032
0.917342 0.891157 0.464958
0.925612 0.894835 0.484062
0.928496 0.896681 0.492836
0.92871 0.896971 0.49453
0.928512 0.897032 0.494667
0.9281 0.897124 0.494987
0.92755 0.897246 0.49543
0.927199 0.897307 0.495933
0.92694 0.897322 0.496513
0.926909 0.897307 0.496727
0.25275 0.801984 0.386816
