bundles/resolve-cinematic-luts/Phantom Luts/Canon Alexa LUT/ATOMOS Monitoring LUTs/C-Log 2/IceBlue Canon CL2-Legacy AML.cube
TITLE "Generated by Resolve"
LUT_3D_SIZE 9
0.0968948 0.107622 0.107836
0.108843 0.107561 0.110307
0.162951 0.107668 0.111604
0.338735 0.10753 0.121172
0.552605 0.116716 0.164965
0.674418 0.147326 0.247456
0.680964 0.147814 0.269352
0.684291 0.148165 0.281819
0.687388 0.145815 0.30573
0.0984207 0.117617 0.111208
0.104143 0.11519 0.110445
0.156161 0.10898 0.10869
0.326345 0.107485 0.110872
0.55314 0.11696 0.154467
0.670451 0.146715 0.236255
0.677577 0.147463 0.258122
0.681056 0.147433 0.271153
0.684138 0.145159 0.292546
0.0982071 0.182986 0.123079
0.0985733 0.182086 0.117205
0.144991 0.171054 0.11545
0.341268 0.130449 0.104036
0.542458 0.116503 0.127275
0.646036 0.141314 0.191806
0.662425 0.1449 0.218479
0.668544 0.14609 0.231449
0.669718 0.144289 0.239597
0.0923476 0.376135 0.125582
0.0918135 0.383474 0.116548
0.0941176 0.375509 0.117525
0.281209 0.358083 0.1028
0.593378 0.297627 0.125383
0.663417 0.161196 0.154665
0.672206 0.153933 0.175982
0.672114 0.152834 0.184222
0.668894 0.153414 0.176013
0.137499 0.615579 0.203922
0.144213 0.623102 0.201328
0.146487 0.625299 0.198688
0.164202 0.623453 0.186328
0.564187 0.630289 0.167727
0.820676 0.665248 0.283986
0.84445 0.600885 0.283452
0.839673 0.582437 0.277623
0.850523 0.633555 0.292576
0.266712 0.796109 0.325353
0.268711 0.79559 0.31986
0.269612 0.795239 0.319295
0.268727 0.795544 0.318761
0.475273 0.827665 0.290501
0.853254 0.86627 0.390219
0.917983 0.877913 0.425238
0.917388 0.877607 0.425574
0.919554 0.8822 0.435279
0.264836 0.799802 0.352178
0.265293 0.798581 0.340337
0.268345 0.795529 0.320562
0.268132 0.795499 0.319249
0.412482 0.819791 0.293996
0.812345 0.866545 0.366476
0.926711 0.89398 0.479637
0.926802 0.895216 0.487098
0.925551 0.895476 0.488212
0.262486 0.80325 0.377752
0.262287 0.801144 0.361761
0.266407 0.79649 0.328481
0.267201 0.795254 0.320775
0.415686 0.820203 0.294255
0.798596 0.864317 0.361501
0.927825 0.892866 0.477928
0.929473 0.894362 0.487663
0.925658 0.895399 0.488701
0.262516 0.804547 0.387167
0.263401 0.801404 0.362356
0.267094 0.795773 0.321874
0.267124 0.795483 0.320363
0.515343 0.831937 0.291646
0.891249 0.879637 0.419806
0.928786 0.894438 0.485512
0.92842 0.89482 0.486244
0.924498 0.895949 0.486702
0.0964065 0.108476 0.115801
0.10695 0.107927 0.118898
0.163867 0.107576 0.128725
0.343389 0.107332 0.144167
0.561212 0.115999 0.192248
0.679988 0.145983 0.272129
0.685634 0.146807 0.293416
0.688426 0.146883 0.306584
0.690211 0.145205 0.326452
0.098024 0.114717 0.115419
0.102083 0.113283 0.115236
0.160006 0.109163 0.117082
0.344335 0.106691 0.129839
0.563973 0.116487 0.182269
0.676875 0.145571 0.261524
0.68278 0.146319 0.282887
0.685893 0.146548 0.295537
0.687938 0.145129 0.312322
0.0989242 0.177905 0.134035
0.0981308 0.178546 0.123903
0.140993 0.16788 0.116548
0.346944 0.121431 0.104295
0.539315 0.114992 0.133852
0.657694 0.143221 0.211994
0.670619 0.145693 0.238849
0.674495 0.146319 0.250401
0.676234 0.144808 0.260227
0.0925154 0.37229 0.13724
0.0922408 0.379538 0.125414
0.0920272 0.375296 0.118074
0.275441 0.357214 0.103319
0.594659 0.281422 0.12578
0.663905 0.156832 0.156207
0.673304 0.153964 0.180545
0.669184 0.151354 0.184619
0.666972 0.150774 0.176104
0.135149 0.61561 0.215625
0.142535 0.623423 0.209369
0.14609 0.624689 0.198199
0.157839 0.622889 0.189258
0.561547 0.631067 0.16733
0.822446 0.664881 0.284916
0.843168 0.596429 0.281743
0.838453 0.57731 0.27599
0.849515 0.627497 0.290623
0.265705 0.797589 0.335927
0.267887 0.796567 0.325414
0.269261 0.795377 0.318959
0.268635 0.795575 0.318685
0.469062 0.826703 0.290257
0.853742 0.866773 0.390768
0.918181 0.878416 0.42594
0.916899 0.877394 0.426917
0.919081 0.881483 0.435492
0.262867 0.802228 0.369268
0.263462 0.80061 0.356527
0.267933 0.796445 0.327153
0.268223 0.795468 0.319295
0.406424 0.81915 0.294865
0.808118 0.865873 0.364614
0.926696 0.89395 0.479469
0.926802 0.895216 0.487098
0.925582 0.895491 0.487999
0.260777 0.805982 0.399268
0.260899 0.804288 0.382879
0.264622 0.798367 0.341909
0.267124 0.7953 0.320699
0.399954 0.81828 0.29604
0.794003 0.864134 0.359869
0.927749 0.892729 0.47744
0.929519 0.894347 0.487678
0.925765 0.895399 0.488289
0.260792 0.808392 0.419577
0.26099 0.805768 0.39527
0.265782 0.79765 0.334051
0.266865 0.795407 0.320394
0.504326 0.830732 0.291234
0.886046 0.87863 0.415396
0.928695 0.894316 0.484962
0.928313 0.894789 0.487007
0.923919 0.895689 0.490913
0.0938582 0.111055 0.165789
0.10576 0.109941 0.172229
0.158587 0.108873 0.175265
0.347417 0.105013 0.194125
0.568673 0.114839 0.239597
0.68835 0.146731 0.306157
0.692241 0.146212 0.329992
0.695949 0.147219 0.346212
0.69781 0.146304 0.371664
0.0934768 0.114183 0.152605
0.0942855 0.111299 0.164233
0.151659 0.108873 0.172107
0.349218 0.105165 0.18703
0.574014 0.116411 0.230625
0.686854 0.14699 0.298299
0.690639 0.146105 0.321798
0.693706 0.146532 0.336721
0.695857 0.145769 0.361425
0.097673 0.165621 0.171176
0.0969558 0.165118 0.171206
0.139437 0.159777 0.172305
0.369985 0.128313 0.163729
0.554009 0.115373 0.177951
0.676829 0.146304 0.258732
0.682887 0.146914 0.280552
0.685634 0.147372 0.290745
0.687678 0.146075 0.306371
0.0935378 0.3561 0.188922
0.0930037 0.363012 0.177539
0.0926833 0.35996 0.13637
0.251545 0.343801 0.106126
0.587671 0.227344 0.127031
0.677943 0.157671 0.183795
0.669566 0.151431 0.196078
0.655421 0.144793 0.195483
0.667247 0.149172 0.199588
0.126665 0.609201 0.251942
0.132525 0.61709 0.243931
0.137469 0.617182 0.214099
0.141238 0.611856 0.18912
0.542336 0.624155 0.159548
0.819593 0.64506 0.277745
0.835401 0.563241 0.272145
0.82945 0.541482 0.266072
0.84155 0.590112 0.279957
0.261097 0.80322 0.377462
0.263813 0.801648 0.365576
0.268132 0.79736 0.335653
0.269352 0.795239 0.319448
0.439033 0.822782 0.2916
0.846403 0.863462 0.385397
0.916686 0.875547 0.420462
0.915328 0.873793 0.419913
0.917861 0.878202 0.427741
0.25977 0.809003 0.423499
0.259663 0.807752 0.411719
0.263081 0.802274 0.370474
0.268544 0.795346 0.319539
0.364965 0.813077 0.300282
0.785534 0.863127 0.354925
0.926436 0.893629 0.478309
0.926574 0.895125 0.488609
0.925521 0.895476 0.48835
0.259602 0.813474 0.461616
0.258747 0.812192 0.44741
0.259541 0.806119 0.399832
0.267018 0.795346 0.320745
0.348577 0.810361 0.303426
0.76643 0.860456 0.348013
0.927199 0.89189 0.473259
0.92961 0.894179 0.489204
0.925689 0.895262 0.489891
0.261967 0.819211 0.507439
0.25951 0.817365 0.490013
0.258961 0.808682 0.420142
0.267323 0.795209 0.320867
0.454994 0.82504 0.291951
0.865476 0.87454 0.399649
0.928115 0.893584 0.481147
0.928313 0.894789 0.487007
0.923674 0.895857 0.490028
0.0882124 0.116945 0.296544
0.0997635 0.11487 0.310109
0.154604 0.111498 0.320287
0.325933 0.107988 0.322362
0.579507 0.114824 0.357778
0.706371 0.150164 0.394476
0.709514 0.151186 0.41471
0.71107 0.151904 0.42858
0.710033 0.151919 0.458701
0.0838026 0.119493 0.279271
0.087602 0.117235 0.301366
0.139513 0.112291 0.331075
0.329397 0.108186 0.332906
0.587137 0.115938 0.361532
0.706523 0.150195 0.396155
0.71017 0.151461 0.415579
0.712245 0.152407 0.429114
0.710094 0.152041 0.459815
0.0853742 0.161837 0.274403
0.0837873 0.157321 0.287236
0.0966201 0.136049 0.326574
0.300893 0.110643 0.324849
0.57641 0.114504 0.323888
0.700954 0.148653 0.365591
0.705409 0.150088 0.385183
0.707897 0.150927 0.396033
0.708537 0.150423 0.420233
0.0905013 0.331777 0.317098
0.0895857 0.337469 0.32285
0.0895094 0.331228 0.320043
0.270573 0.325917 0.334264
0.642527 0.237049 0.31136
0.701564 0.15555 0.306859
0.689616 0.147677 0.301717
0.689479 0.147372 0.30602
0.692454 0.147036 0.320104
0.117968 0.595361 0.374136
0.12076 0.6038 0.374487
0.120378 0.603693 0.348974
0.12076 0.593194 0.243595
0.498848 0.607126 0.169802
0.823392 0.570718 0.287266
0.82034 0.467552 0.278935
0.809613 0.43444 0.272099
0.830961 0.487587 0.293721
0.256764 0.813169 0.49514
0.258778 0.814115 0.493553
0.258488 0.81146 0.465675
0.261326 0.800458 0.368429
0.327901 0.805386 0.304829
0.823148 0.85214 0.3691
0.913252 0.864958 0.407965
0.911894 0.861173 0.406348
0.913619 0.866392 0.412436
0.26537 0.823484 0.548714
0.265263 0.823484 0.546029
0.262928 0.820066 0.517037
0.260594 0.806943 0.409415
0.275303 0.796567 0.3187
0.715236 0.854826 0.329488
0.925582 0.892607 0.473533
0.926711 0.895186 0.488029
0.925582 0.895506 0.488258
0.270329 0.827832 0.583429
0.269673 0.827466 0.57937
0.265522 0.824155 0.549935
0.258824 0.811292 0.445533
0.272129 0.796262 0.319814
0.684535 0.851102 0.320455
0.924681 0.889479 0.46421
0.929335 0.894072 0.491447
0.92546 0.895201 0.491875
0.283375 0.835904 0.645975
0.282048 0.835065 0.640528
0.273854 0.830625 0.606043
0.259205 0.815625 0.481376
0.294957 0.800931 0.314549
0.773938 0.861219 0.350607
0.926253 0.891661 0.471427
0.928176 0.894759 0.488396
0.924224 0.895857 0.489067
0.0857404 0.130694 0.481392
0.0964218 0.127611 0.496422
0.143023 0.122118 0.523781
0.319005 0.116167 0.548318
0.540337 0.120546 0.537881
0.704402 0.157061 0.549966
0.700755 0.158221 0.570809
0.698543 0.159304 0.582925
0.690913 0.161227 0.607874
0.0796674 0.133913 0.469612
0.0854047 0.131945 0.488365
0.127901 0.124392 0.526238
0.315679 0.117739 0.562356
0.546456 0.122759 0.550118
0.702174 0.157336 0.560693
0.699565 0.15935 0.581018
0.69691 0.160281 0.592325
0.688777 0.162066 0.616571
0.0794537 0.15082 0.463493
0.0784772 0.145098 0.469093
0.0842145 0.132097 0.483314
0.257053 0.118959 0.55668
0.53312 0.120821 0.547234
0.704067 0.156344 0.545876
0.702388 0.157717 0.563394
0.701076 0.15874 0.574441
0.694896 0.160388 0.596735
0.0864576 0.345327 0.51722
0.0867323 0.348791 0.52781
0.0862287 0.32958 0.537011
0.135698 0.269261 0.594949
0.539818 0.149584 0.57641
0.708232 0.153399 0.49221
0.71014 0.154421 0.50132
0.70956 0.154986 0.511513
0.705364 0.155642 0.533471
0.1308 0.577569 0.558556
0.134066 0.586038 0.566278
0.134493 0.586419 0.568093
0.130327 0.576333 0.561776
0.49691 0.571969 0.581827
0.896834 0.500282 0.577554
0.906035 0.425376 0.566842
0.893095 0.398642 0.561578
0.907271 0.42446 0.590127
0.277623 0.812833 0.661524
0.285344 0.817777 0.667781
0.283177 0.817868 0.660777
0.268559 0.812787 0.627176
0.244816 0.79646 0.49369
0.758236 0.854093 0.442054
0.930724 0.835447 0.507042
0.929412 0.821668 0.510384
0.925521 0.834012 0.557046
0.308782 0.843503 0.714412
0.316136 0.842756 0.716976
0.313481 0.841169 0.70724
0.296635 0.836896 0.670375
0.262181 0.818036 0.502754
0.579034 0.839292 0.297963
0.927642 0.892119 0.478004
0.931807 0.897597 0.512016
0.929442 0.899641 0.554543
0.315022 0.84892 0.738796
0.324224 0.846891 0.740826
0.319997 0.844938 0.730175
0.302434 0.840436 0.691691
0.264942 0.821012 0.53431
0.534768 0.83357 0.294484
0.918288 0.886915 0.455222
0.930861 0.896391 0.504891
0.926802 0.899138 0.528069
0.33724 0.859602 0.795392
0.345937 0.857298 0.794186
0.341772 0.854582 0.781933
0.32018 0.847898 0.739651
0.269932 0.825116 0.569986
0.659571 0.859983 0.353185
0.928679 0.896925 0.500832
0.932113 0.90251 0.562448
0.926665 0.902358 0.555215
0.0914778 0.171389 0.58677
0.101427 0.168948 0.601175
0.139132 0.157519 0.629175
0.295506 0.149142 0.681788
0.499565 0.149142 0.693782
0.663935 0.169818 0.685298
0.66183 0.173098 0.701305
0.661189 0.173465 0.703838
0.660136 0.173602 0.705348
0.0861067 0.178256 0.581506
0.0911269 0.177172 0.593622
0.12401 0.166125 0.626902
0.289204 0.15285 0.688304
0.50544 0.152316 0.701976
0.663706 0.171298 0.692088
0.662486 0.173053 0.701076
0.661158 0.173449 0.703822
0.659144 0.173754 0.706523
0.0854505 0.187854 0.578561
0.0847944 0.183032 0.577096
0.0898909 0.176318 0.589487
0.233738 0.153826 0.673411
0.487083 0.152087 0.703334
0.664591 0.170718 0.689006
0.66482 0.17261 0.697734
0.663569 0.172946 0.700236
0.66009 0.173602 0.705409
0.0968948 0.295918 0.622843
0.0973068 0.295537 0.627283
0.0943465 0.269093 0.62063
0.0980392 0.199298 0.611551
0.420157 0.150195 0.698955
0.655955 0.165972 0.675471
0.669429 0.169772 0.680537
0.667781 0.170764 0.686366
0.663478 0.172183 0.695613
0.169116 0.593347 0.699229
0.173846 0.600549 0.706691
0.174853 0.599344 0.711421
0.170214 0.582208 0.717037
0.38143 0.556451 0.849912
0.765759 0.380163 0.804654
0.800229 0.307851 0.737179
0.787472 0.290684 0.726879
0.801083 0.318502 0.755489
0.29633 0.797467 0.781888
0.306096 0.803418 0.787518
0.30779 0.803326 0.787945
0.302342 0.797253 0.782589
0.282094 0.778943 0.76791
0.737087 0.802869 0.814435
0.936751 0.759686 0.815427
0.936629 0.742901 0.815122
0.927077 0.762692 0.831235
0.354879 0.867155 0.835233
0.365148 0.865553 0.835294
0.365774 0.864668 0.832792
0.361044 0.862593 0.823346
0.343008 0.856687 0.789349
0.531792 0.886976 0.738247
0.911009 0.919402 0.794049
0.93492 0.924712 0.864317
0.933059 0.925353 0.884993
0.357259 0.870253 0.847669
0.370016 0.867628 0.845472
0.370428 0.866682 0.842741
0.363867 0.865354 0.833585
0.344747 0.857969 0.795422
0.433234 0.879194 0.718761
0.872694 0.913283 0.731075
0.934401 0.925856 0.881376
0.934142 0.926253 0.896712
0.359258 0.87306 0.857099
0.373068 0.869718 0.854322
0.377035 0.868833 0.853452
0.371664 0.868666 0.849226
0.352514 0.861845 0.814389
0.612558 0.896803 0.80827
0.899641 0.920241 0.818631
0.932326 0.927581 0.907927
0.931334 0.927581 0.907164
0.0979324 0.195117 0.62681
0.109056 0.192523 0.640482
0.146609 0.182086 0.667826
0.299947 0.166476 0.714366
0.501579 0.161181 0.724529
0.660258 0.173571 0.705165
0.660502 0.173556 0.704738
0.661189 0.173449 0.703838
0.660273 0.173571 0.705165
0.090547 0.197375 0.615381
0.0976425 0.195438 0.627115
0.132708 0.185611 0.66009
0.295506 0.16669 0.713558
0.509148 0.16141 0.724254
0.660212 0.173526 0.704982
0.660609 0.173541 0.704601
0.660487 0.173556 0.704784
0.659144 0.173754 0.706523
0.0877852 0.198413 0.601144
0.0877394 0.199512 0.602945
0.0954757 0.196048 0.623911
0.239841 0.168261 0.699886
0.488624 0.161791 0.726452
0.65919 0.17348 0.705257
0.661357 0.173434 0.703609
0.661204 0.173465 0.703792
0.659937 0.173632 0.705592
0.101656 0.285023 0.661585
0.100023 0.278782 0.658167
0.0951553 0.249592 0.639475
0.0967575 0.196536 0.621164
0.410178 0.162631 0.726787
0.644251 0.170764 0.706554
0.661601 0.173419 0.703349
0.661677 0.173404 0.703288
0.66038 0.173571 0.705165
0.187869 0.593301 0.762982
0.191882 0.601694 0.766293
0.191394 0.598932 0.767987
0.179858 0.572198 0.762905
0.307897 0.533425 0.842603
0.69807 0.350225 0.85362
0.738125 0.268498 0.767971
0.728023 0.253498 0.757641
0.744137 0.2804 0.778225
0.315587 0.808194 0.831479
0.325185 0.812924 0.832044
0.326635 0.813062 0.832105
0.322621 0.80708 0.830289
0.304417 0.785855 0.82443
0.681971 0.808423 0.927733
0.912795 0.703517 0.926284
0.922805 0.681788 0.923613
0.91339 0.708217 0.918593
0.363409 0.871412 0.856291
0.372412 0.869459 0.85391
0.373922 0.869062 0.85362
0.373297 0.868986 0.853498
0.372747 0.86923 0.853773
0.55227 0.916976 0.908064
0.910048 0.918975 0.92311
0.935241 0.916564 0.920516
0.93257 0.919493 0.924163
0.359274 0.872618 0.857206
0.37229 0.86949 0.853956
0.374182 0.868986 0.853605
0.371954 0.869596 0.854002
0.370611 0.870054 0.854459
0.396811 0.879179 0.861158
0.902953 0.926299 0.926253
0.933516 0.928145 0.927398
0.93341 0.928267 0.929747
0.359548 0.872389 0.857298
0.371923 0.869581 0.854032
0.375921 0.868513 0.853178
0.373449 0.869184 0.853681
0.37026 0.86978 0.8542
0.468132 0.903838 0.890242
0.917494 0.927611 0.930205
0.930816 0.928923 0.93193
0.930373 0.92903 0.932357
0.104219 0.193759 0.634897
0.116762 0.190127 0.647791
0.157794 0.178943 0.673091
0.307958 0.1664 0.716045
0.507439 0.161212 0.724025
0.660288 0.173571 0.705135
0.660517 0.173556 0.704738
0.660594 0.173541 0.704646
0.659846 0.173648 0.705684
0.0939193 0.196323 0.621271
0.103548 0.194049 0.634516
0.142184 0.183093 0.665843
0.30425 0.166476 0.715419
0.514092 0.16144 0.723857
0.660456 0.173556 0.704906
0.660609 0.173541 0.704616
0.660487 0.173556 0.704799
0.659892 0.173648 0.705653
0.0879683 0.198718 0.601602
0.0878462 0.199145 0.60412
0.100084 0.194965 0.630442
0.248447 0.167956 0.702235
0.493019 0.161837 0.726192
0.659632 0.173526 0.705242
0.66128 0.173449 0.703716
0.661173 0.173465 0.703853
0.659937 0.173632 0.705592
0.100862 0.280476 0.659327
0.0991989 0.273762 0.655161
0.0941787 0.24419 0.63563
0.098558 0.195544 0.624659
0.414069 0.162615 0.727047
0.64564 0.171038 0.706584
0.661662 0.173404 0.703304
0.661692 0.173404 0.703273
0.66038 0.173571 0.705165
0.186999 0.587762 0.76762
0.189853 0.595087 0.769116
0.187396 0.589349 0.767315
0.174243 0.558618 0.759121
0.294621 0.508675 0.832731
0.680095 0.327596 0.839567
0.72282 0.248325 0.755245
0.713512 0.235325 0.745525
0.730816 0.262333 0.765805
0.318761 0.811093 0.834043
0.326772 0.815183 0.834348
0.327947 0.814389 0.833646
0.321614 0.805859 0.830396
0.298283 0.777584 0.82179
0.669032 0.799069 0.930678
0.906188 0.6878 0.931105
0.918242 0.663279 0.929015
0.910704 0.691142 0.921263
0.363684 0.871427 0.856123
0.372381 0.869474 0.853925
0.373831 0.869093 0.853635
0.373632 0.869139 0.853651
0.372915 0.869291 0.853834
0.489845 0.906935 0.898772
0.897856 0.914794 0.927337
0.933684 0.910628 0.92311
0.931228 0.914412 0.924697
0.358816 0.872908 0.857145
0.372183 0.86952 0.853971
0.374121 0.869001 0.853605
0.371923 0.869612 0.854002
0.370306 0.869993 0.854398
0.368475 0.870375 0.855024
0.885939 0.926452 0.92871
0.931731 0.92871 0.93109
0.931716 0.928695 0.931121
0.359457 0.872419 0.857298
0.371939 0.869566 0.854032
0.375723 0.868559 0.853269
0.37348 0.869184 0.853681
0.370657 0.869902 0.854322
0.391897 0.877394 0.862699
0.904128 0.926787 0.929595
0.930632 0.928969 0.932113
0.930144 0.929076 0.93254
0.106126 0.193271 0.637293
0.11931 0.189502 0.650156
0.163287 0.177325 0.675059
0.31664 0.166003 0.717327
0.515602 0.161288 0.7234
0.660334 0.173571 0.705089
0.660517 0.173556 0.704738
0.660578 0.173541 0.704646
0.659846 0.173648 0.705684
0.0948806 0.196124 0.622827
0.105119 0.193606 0.636576
0.146624 0.18204 0.667872
0.313344 0.166079 0.716945
0.52224 0.161547 0.72314
0.660639 0.173526 0.704631
0.660609 0.173541 0.704616
0.660487 0.173556 0.704799
0.659892 0.173648 0.705653
0.0879835 0.198734 0.601755
0.0878309 0.199161 0.604028
0.10161 0.194583 0.632319
0.256352 0.167575 0.704067
0.500404 0.161379 0.725093
0.660304 0.173571 0.705043
0.66128 0.173449 0.703731
0.661189 0.173449 0.703899
0.659968 0.173617 0.705623
0.101411 0.283803 0.661021
0.099794 0.277836 0.65745
0.0948043 0.24715 0.637751
0.0990463 0.195361 0.625055
0.42089 0.162524 0.727413
0.647837 0.171557 0.706554
0.661662 0.173404 0.703304
0.661707 0.173404 0.703288
0.660395 0.173556 0.705196
0.190616 0.595361 0.769619
0.19382 0.602655 0.771054
0.191302 0.596841 0.769528
0.177157 0.565545 0.761059
0.307073 0.516899 0.84097
0.689204 0.335836 0.844327
0.729854 0.257542 0.760662
0.719799 0.24445 0.751675
0.739437 0.273991 0.774166
0.324117 0.815656 0.835325
0.331838 0.819577 0.835554
0.333288 0.818677 0.834836
0.326619 0.8094 0.831373
0.30164 0.779843 0.821775
0.679408 0.802609 0.927916
0.907591 0.695979 0.930785
0.917601 0.672908 0.927367
0.908171 0.701564 0.917906
0.365042 0.871092 0.855695
0.374044 0.869001 0.853635
0.376623 0.86833 0.853025
0.377218 0.868147 0.852903
0.376715 0.868299 0.85301
0.513878 0.91078 0.903655
0.899443 0.915297 0.927672
0.933486 0.911299 0.923842
0.930678 0.915923 0.925582
0.364675 0.871305 0.855726
0.375219 0.868666 0.853452
0.378073 0.867918 0.85272
0.378286 0.867857 0.852674
0.37818 0.867887 0.852689
0.376242 0.868421 0.853101
0.887785 0.926207 0.929152
0.932265 0.928573 0.930663
0.932189 0.928573 0.93077
0.35816 0.872648 0.857542
0.373632 0.869108 0.853681
0.378561 0.867781 0.852628
0.378851 0.867689 0.852552
0.37879 0.86772 0.852567
0.39823 0.874876 0.86041
0.898756 0.926314 0.929549
0.929778 0.929183 0.93283
0.930343 0.929046 0.932342
