bundles/resolve-cinematic-luts/Phantom Luts/Canon Alexa LUT/ATOMOS Monitoring LUTs/C-Log 2/Jamaica Canon CL2-Legacy AML.cube
TITLE "Generated by Resolve"
LUT_3D_SIZE 9
0.0853132 0.0984207 0.0853285
0.106462 0.098436 0.0876478
0.19324 0.0986954 0.0937209
0.387732 0.0982681 0.115541
0.595972 0.108537 0.181399
0.659678 0.144427 0.267018
0.666133 0.14464 0.29044
0.668589 0.144594 0.301717
0.669001 0.144717 0.30544
0.0840009 0.114809 0.0876936
0.0967422 0.10959 0.0861372
0.17763 0.101686 0.0861524
0.358984 0.0984817 0.0952316
0.582467 0.107561 0.154925
0.653437 0.14406 0.248386
0.661372 0.14461 0.273182
0.664851 0.144686 0.285512
0.665751 0.144671 0.289586
0.074403 0.205432 0.0899367
0.0764477 0.19913 0.0805829
0.15758 0.180392 0.0847028
0.371862 0.126223 0.0865187
0.570169 0.108782 0.119707
0.627512 0.13817 0.192874
0.642405 0.14258 0.221027
0.649912 0.144167 0.237644
0.651682 0.144213 0.242603
0.0779889 0.440894 0.107836
0.0764477 0.439002 0.0964675
0.0813611 0.423667 0.0951705
0.33019 0.37705 0.0871595
0.625544 0.291066 0.12221
0.64268 0.165896 0.158068
0.647608 0.157504 0.174472
0.646357 0.155032 0.184939
0.643534 0.15314 0.186938
0.216526 0.704768 0.258488
0.216876 0.701106 0.250065
0.216007 0.697749 0.243687
0.244755 0.700542 0.217014
0.631296 0.660517 0.18349
0.84065 0.683345 0.322133
0.842512 0.575296 0.30222
0.831601 0.536904 0.290761
0.824491 0.516106 0.28333
0.399588 0.897627 0.434791
0.385977 0.89868 0.416114
0.38587 0.898802 0.416297
0.398138 0.897963 0.427741
0.625498 0.9355 0.442237
0.891859 0.900862 0.468833
0.93518 0.9084 0.497139
0.933074 0.903609 0.493141
0.932754 0.900496 0.489555
0.404227 0.900099 0.467887
0.388632 0.899458 0.437873
0.386389 0.898512 0.417533
0.386389 0.898451 0.416464
0.556008 0.927413 0.449317
0.848661 0.912261 0.45568
0.937667 0.935668 0.524147
0.937652 0.93669 0.528374
0.937636 0.936675 0.526986
0.419745 0.905104 0.508812
0.394324 0.900343 0.467887
0.388495 0.898268 0.42707
0.387411 0.897688 0.416281
0.512459 0.91606 0.438087
0.805234 0.911559 0.438468
0.937682 0.933455 0.520882
0.937652 0.936553 0.529564
0.937652 0.936675 0.528176
0.419791 0.907362 0.521889
0.397528 0.901915 0.482429
0.3944 0.898756 0.439734
0.387411 0.897688 0.416281
0.506859 0.915022 0.435508
0.796429 0.911772 0.435874
0.937682 0.933104 0.520241
0.937652 0.93669 0.52932
0.937636 0.936675 0.528359
0.0848859 0.0991073 0.0971237
0.105211 0.0985733 0.102892
0.19559 0.098146 0.115785
0.390661 0.098024 0.138476
0.602594 0.108202 0.202472
0.663706 0.144762 0.282719
0.668803 0.144701 0.304006
0.671473 0.144625 0.316335
0.672068 0.14435 0.322011
0.0862898 0.10898 0.0979782
0.0936446 0.106722 0.0941787
0.181918 0.100999 0.0953384
0.371389 0.0983444 0.112062
0.591196 0.107851 0.176745
0.658503 0.144488 0.264622
0.665171 0.144808 0.287953
0.667704 0.14464 0.299504
0.668467 0.144717 0.303319
0.0769818 0.196689 0.109239
0.0755779 0.193088 0.090898
0.152102 0.175219 0.0855726
0.375509 0.114275 0.0842298
0.564935 0.106584 0.123018
0.637751 0.141238 0.211795
0.651041 0.144167 0.241382
0.655543 0.144442 0.254276
0.657237 0.144564 0.259586
0.0768444 0.431571 0.123949
0.0755169 0.42948 0.106722
0.0752575 0.418265 0.0950027
0.323781 0.37113 0.0868849
0.622736 0.269413 0.121462
0.641367 0.16025 0.156634
0.647959 0.156878 0.18027
0.643946 0.153185 0.187335
0.640436 0.151034 0.189105
0.206058 0.702556 0.265675
0.208713 0.698482 0.253239
0.210483 0.692439 0.238056
0.232105 0.694606 0.216693
0.626688 0.656413 0.179812
0.839673 0.677729 0.319463
0.838544 0.560586 0.297841
0.826612 0.5205 0.286366
0.819181 0.49955 0.279286
0.399207 0.898421 0.44744
0.386969 0.899138 0.425376
0.38587 0.898802 0.416297
0.394919 0.898146 0.424887
0.618433 0.93518 0.442985
0.88954 0.899123 0.466484
0.934646 0.907118 0.496086
0.93196 0.90135 0.491478
0.930892 0.898405 0.487205
0.403037 0.901701 0.485039
0.3897 0.900267 0.455619
0.386954 0.898726 0.42182
0.386267 0.898466 0.416327
0.546334 0.925368 0.449424
0.84303 0.912001 0.453117
0.937697 0.935546 0.523812
0.937652 0.93669 0.528344
0.937652 0.93669 0.527016
0.416724 0.907408 0.52726
0.393072 0.901839 0.486412
0.389609 0.899077 0.440818
0.387411 0.897688 0.416281
0.500542 0.914153 0.43743
0.798444 0.911818 0.436332
0.937697 0.933242 0.520546
0.937652 0.936538 0.529564
0.937652 0.93669 0.528115
0.416602 0.909483 0.540597
0.393027 0.903029 0.499382
0.393973 0.899519 0.454337
0.387411 0.897688 0.416281
0.491432 0.912367 0.434348
0.789212 0.912108 0.434012
0.937682 0.932601 0.5196
0.937652 0.93669 0.52932
0.937652 0.93669 0.528252
0.0839246 0.0999924 0.152865
0.106325 0.0996109 0.160693
0.187304 0.098497 0.180163
0.400381 0.0941024 0.202884
0.613169 0.105699 0.256168
0.672053 0.144228 0.321065
0.676005 0.143557 0.348272
0.678538 0.144213 0.3626
0.67892 0.144305 0.367376
0.0842603 0.106706 0.138018
0.0861219 0.101472 0.146944
0.171221 0.0987716 0.163012
0.382544 0.0956283 0.176516
0.605081 0.106294 0.229114
0.668574 0.144656 0.302907
0.672892 0.143847 0.327153
0.675227 0.14374 0.342123
0.675486 0.143404 0.346807
0.0856031 0.175708 0.160906
0.085481 0.171344 0.154314
0.15111 0.167285 0.145327
0.392981 0.12108 0.137682
0.57763 0.105638 0.164462
0.656931 0.144457 0.258625
0.663996 0.144793 0.282887
0.666972 0.144656 0.294743
0.667643 0.144594 0.298787
0.0763561 0.406653 0.17908
0.0744182 0.404883 0.158862
0.0733806 0.399802 0.104234
0.30663 0.355993 0.0874189
0.612192 0.222187 0.119966
0.648646 0.159152 0.174441
0.644419 0.153567 0.190982
0.634134 0.145403 0.19324
0.631678 0.142657 0.194156
0.180606 0.696559 0.292348
0.183413 0.693446 0.276509
0.192706 0.684703 0.240604
0.203037 0.679286 0.215351
0.616999 0.647593 0.171878
0.835172 0.652995 0.308507
0.827817 0.524239 0.287282
0.812268 0.47953 0.275319
0.804196 0.459693 0.268757
0.397971 0.901884 0.488838
0.389639 0.901122 0.465797
0.38706 0.899351 0.427634
0.391012 0.898299 0.421027
0.600885 0.934035 0.445365
0.884733 0.895369 0.461631
0.932464 0.902388 0.492073
0.929274 0.895521 0.486763
0.927703 0.891722 0.48159
0.400763 0.905394 0.530083
0.390631 0.903365 0.501335
0.389487 0.900328 0.454612
0.386267 0.898466 0.416327
0.520317 0.920119 0.449699
0.829297 0.911589 0.447318
0.937774 0.935286 0.52311
0.937652 0.93669 0.528313
0.937636 0.936675 0.526955
0.410834 0.911116 0.569406
0.39028 0.904967 0.531945
0.391119 0.901564 0.483375
0.387396 0.897688 0.416266
0.467948 0.908324 0.434333
0.782559 0.912673 0.432166
0.937682 0.932601 0.519738
0.937652 0.936538 0.529595
0.937636 0.936675 0.52813
0.409567 0.912123 0.583291
0.391241 0.906065 0.547463
0.393103 0.902754 0.498039
0.387289 0.897658 0.415381
0.458671 0.907164 0.431586
0.773648 0.913542 0.430564
0.937682 0.931777 0.518074
0.937652 0.936675 0.529305
0.937652 0.93669 0.528161
0.0842756 0.101839 0.28101
0.107408 0.100252 0.294987
0.182696 0.0999008 0.311162
0.373495 0.0960555 0.355779
0.622446 0.104234 0.395605
0.684733 0.146639 0.418799
0.686091 0.148211 0.439704
0.686458 0.148943 0.45037
0.686061 0.149279 0.452369
0.0774395 0.105119 0.25449
0.0838941 0.101701 0.271183
0.159976 0.0998856 0.29958
0.360616 0.0961318 0.340337
0.618173 0.102861 0.376211
0.683619 0.146044 0.405158
0.685252 0.147189 0.425483
0.686076 0.147997 0.43595
0.685847 0.148241 0.438315
0.0818952 0.162264 0.2607
0.0808881 0.153307 0.262669
0.114885 0.131243 0.293187
0.341665 0.101167 0.311864
0.604456 0.100877 0.320317
0.678203 0.143587 0.362264
0.68162 0.145068 0.386343
0.683055 0.145663 0.398703
0.68333 0.145861 0.402136
0.082414 0.354925 0.310369
0.080766 0.350088 0.301534
0.0806287 0.339055 0.284092
0.309178 0.336522 0.271839
0.653223 0.229999 0.254108
0.680186 0.160067 0.288869
0.664546 0.145937 0.27953
0.66479 0.145403 0.282719
0.665232 0.14519 0.285512
0.142657 0.672877 0.398383
0.141146 0.672206 0.381033
0.141192 0.668849 0.337728
0.159976 0.653391 0.213092
0.594141 0.627802 0.167605
0.828046 0.557076 0.286
0.799237 0.429831 0.272511
0.773342 0.379568 0.256718
0.760601 0.356374 0.248341
0.386923 0.90312 0.587884
0.385 0.902632 0.57171
0.385809 0.900938 0.531762
0.384329 0.894423 0.429068
0.539788 0.922286 0.447654
0.871122 0.884581 0.447807
0.926284 0.888487 0.481239
0.922087 0.87837 0.473625
0.920455 0.873243 0.466529
0.395529 0.908553 0.63032
0.389044 0.907515 0.611322
0.389929 0.906889 0.570184
0.389273 0.900084 0.449836
0.447089 0.903975 0.443473
0.792813 0.912474 0.435203
0.937819 0.93463 0.521614
0.937652 0.93669 0.528298
0.937636 0.936675 0.52697
0.401984 0.911009 0.656031
0.389227 0.907515 0.633387
0.38912 0.907271 0.597055
0.390967 0.901122 0.477256
0.407813 0.899351 0.423636
0.745983 0.916564 0.426505
0.937667 0.930556 0.516518
0.937652 0.936538 0.529656
0.937652 0.93669 0.528206
0.401495 0.91043 0.665599
0.389746 0.907469 0.644877
0.389059 0.907485 0.609751
0.391241 0.902007 0.490074
0.402823 0.899016 0.421653
0.734371 0.917556 0.425498
0.937682 0.929854 0.514412
0.937652 0.93669 0.52929
0.937652 0.93669 0.528237
0.0870527 0.10631 0.471412
0.110903 0.103761 0.484138
0.183291 0.101686 0.503624
0.359808 0.100267 0.54049
0.571328 0.10988 0.563119
0.669169 0.154055 0.559106
0.664042 0.155444 0.575372
0.662409 0.156252 0.583001
0.661051 0.156786 0.58291
0.072343 0.108446 0.449607
0.0864729 0.105974 0.464805
0.158389 0.101823 0.494179
0.343511 0.100114 0.534401
0.56846 0.108324 0.559213
0.671153 0.153246 0.550896
0.665888 0.15436 0.566751
0.664439 0.155276 0.574823
0.663478 0.155657 0.574914
0.0752575 0.128344 0.429496
0.0745556 0.119265 0.428305
0.0870222 0.105226 0.453391
0.290196 0.100313 0.512337
0.559121 0.104524 0.544869
0.676158 0.151293 0.527535
0.672679 0.152743 0.544289
0.671016 0.153445 0.552087
0.670039 0.153445 0.553384
0.0827802 0.333089 0.502678
0.0814679 0.325826 0.502037
0.081178 0.303212 0.505882
0.219745 0.248112 0.538903
0.586755 0.143542 0.546059
0.686671 0.149538 0.464195
0.686168 0.149706 0.47071
0.685481 0.149996 0.47895
0.684932 0.149966 0.48098
0.132677 0.607065 0.563226
0.129244 0.605051 0.556069
0.125093 0.599191 0.545617
0.115053 0.583917 0.512627
0.554635 0.57319 0.490745
0.910857 0.502235 0.506233
0.912474 0.427558 0.49865
0.895186 0.389563 0.491615
0.8851 0.372045 0.48658
0.363516 0.874159 0.706996
0.361654 0.874464 0.699046
0.358038 0.87393 0.682124
0.35024 0.872404 0.629725
0.408911 0.88513 0.469581
0.856855 0.879286 0.441184
0.92871 0.851133 0.462181
0.925673 0.829358 0.4495
0.924544 0.819928 0.444495
0.399649 0.899367 0.750088
0.39472 0.900877 0.741344
0.393164 0.902617 0.724834
0.390372 0.906355 0.673915
0.392981 0.89955 0.447318
0.708446 0.922789 0.426505
0.937682 0.932128 0.519417
0.937652 0.936477 0.528878
0.937636 0.935912 0.524758
0.404211 0.898863 0.758465
0.39559 0.899901 0.749996
0.393988 0.901701 0.734173
0.390631 0.905592 0.685161
0.390448 0.900023 0.461341
0.651606 0.927703 0.430686
0.937713 0.926589 0.508522
0.937652 0.936553 0.529702
0.937652 0.93669 0.528328
0.404822 0.897826 0.764462
0.396124 0.899168 0.756207
0.394629 0.900999 0.740856
0.390921 0.905058 0.692164
0.390753 0.900587 0.469917
0.637156 0.926879 0.430518
0.932586 0.925109 0.5037
0.937652 0.93669 0.528115
0.937652 0.936675 0.528176
0.099733 0.131258 0.579843
0.121859 0.127932 0.589868
0.186831 0.119295 0.61297
0.343145 0.122484 0.655406
0.513436 0.133425 0.650126
0.637903 0.165728 0.663249
0.632822 0.168261 0.671809
0.633967 0.168597 0.67602
0.632242 0.16939 0.675441
0.0856184 0.132952 0.571801
0.0987716 0.129793 0.578195
0.160342 0.12105 0.603418
0.325994 0.121187 0.651926
0.508812 0.131945 0.649485
0.638849 0.165393 0.661006
0.633402 0.167788 0.669169
0.632959 0.168475 0.673121
0.631174 0.169223 0.672206
0.0847486 0.148379 0.575235
0.082826 0.137514 0.568917
0.0966049 0.127138 0.57435
0.276158 0.118364 0.639078
0.496056 0.128099 0.648905
0.641382 0.164492 0.654063
0.63801 0.165881 0.663798
0.63621 0.166629 0.667094
0.634958 0.166827 0.666804
0.105913 0.290501 0.632563
0.104494 0.278431 0.629389
0.101488 0.246967 0.620981
0.146517 0.178485 0.62771
0.455207 0.124132 0.654521
0.640101 0.159014 0.629694
0.646799 0.162753 0.639887
0.645594 0.16318 0.643427
0.644877 0.163287 0.643336
0.172412 0.563027 0.693919
0.170123 0.560403 0.691768
0.168032 0.552071 0.691875
0.162524 0.525536 0.692546
0.467521 0.487266 0.763561
0.811017 0.347433 0.753216
0.790249 0.279744 0.690394
0.761715 0.255238 0.668482
0.749706 0.244343 0.658061
0.340719 0.816388 0.789197
0.337667 0.815488 0.784146
0.33228 0.811017 0.776577
0.319936 0.801205 0.75935
0.313405 0.804044 0.737728
0.779431 0.797223 0.717617
0.937591 0.74995 0.735988
0.937728 0.728389 0.728985
0.937606 0.71902 0.725246
0.412192 0.882795 0.848875
0.404868 0.885466 0.846082
0.404227 0.886397 0.840391
0.402396 0.889082 0.823697
0.397269 0.897765 0.767422
0.632395 0.93666 0.644495
0.937819 0.936858 0.704601
0.937682 0.936248 0.739742
0.937652 0.936446 0.729519
0.415213 0.881117 0.8542
0.405417 0.884627 0.851331
0.404715 0.885664 0.845106
0.402869 0.888395 0.828031
0.397589 0.897353 0.770153
0.4916 0.936675 0.581888
0.93257 0.93666 0.547112
0.937743 0.936782 0.671672
0.937758 0.936797 0.678508
0.421103 0.879423 0.855314
0.405829 0.884016 0.855497
0.405066 0.885039 0.849287
0.403311 0.887755 0.831983
0.397971 0.896864 0.773388
0.470802 0.936767 0.577142
0.918059 0.936767 0.529213
0.937652 0.93669 0.626184
0.937728 0.936767 0.666743
0.115969 0.16321 0.601892
0.135042 0.161532 0.612009
0.189151 0.152819 0.634302
0.339483 0.148455 0.678035
0.512337 0.153887 0.683955
0.634409 0.16994 0.685847
0.634363 0.16997 0.685817
0.633997 0.170153 0.685695
0.632532 0.170718 0.683864
0.103929 0.164401 0.595178
0.115282 0.163333 0.601511
0.16492 0.156985 0.625269
0.321965 0.148516 0.674647
0.505852 0.153613 0.684627
0.63444 0.16994 0.685924
0.634302 0.170001 0.685802
0.632532 0.170718 0.683803
0.630884 0.171344 0.681743
0.102708 0.16907 0.596811
0.101015 0.165072 0.594339
0.112978 0.163561 0.600259
0.271748 0.147082 0.660945
0.484489 0.15259 0.686336
0.63447 0.169955 0.686015
0.634562 0.169955 0.68629
0.633982 0.170169 0.685649
0.63331 0.170382 0.684581
0.1308 0.254612 0.644724
0.12726 0.243076 0.638788
0.117678 0.211795 0.621759
0.122393 0.163012 0.605341
0.419455 0.149706 0.686748
0.620493 0.167361 0.683391
0.63473 0.16997 0.686641
0.634714 0.16997 0.686656
0.634455 0.169955 0.685908
0.216098 0.549264 0.751446
0.214481 0.544778 0.75024
0.211704 0.533272 0.748684
0.203662 0.497658 0.742931
0.376654 0.452003 0.855161
0.693019 0.299428 0.81857
0.686656 0.236545 0.725536
0.671061 0.215763 0.710491
0.665431 0.207187 0.704479
0.3346 0.780789 0.835096
0.332418 0.778851 0.833158
0.328069 0.771801 0.830182
0.31928 0.75668 0.825223
0.303334 0.726787 0.817746
0.71754 0.734997 0.892989
0.928435 0.647349 0.912459
0.928084 0.619837 0.910323
0.926101 0.607385 0.906981
0.410376 0.878645 0.890303
0.409155 0.879408 0.888441
0.409033 0.879515 0.887602
0.40856 0.879805 0.885267
0.407233 0.880674 0.876387
0.583581 0.936751 0.915145
0.909667 0.919326 0.89012
0.937621 0.909926 0.898482
0.937163 0.904982 0.894011
0.4215 0.875486 0.886946
0.409354 0.879301 0.889265
0.409308 0.879362 0.88896
0.408911 0.879652 0.886564
0.40766 0.881239 0.87454
0.434241 0.898222 0.850553
0.880873 0.936858 0.868284
0.935302 0.929152 0.927001
0.93521 0.929244 0.930983
0.422217 0.874998 0.885283
0.408362 0.879088 0.88957
0.409369 0.879316 0.889357
0.409049 0.879515 0.887678
0.407691 0.881193 0.874983
0.41326 0.889982 0.839963
0.864317 0.936721 0.861479
0.933883 0.929839 0.906249
0.933333 0.930022 0.927245
0.126833 0.162478 0.607919
0.147936 0.159716 0.618051
0.201465 0.150439 0.638346
0.346929 0.14847 0.679332
0.517632 0.15404 0.683314
0.634409 0.169955 0.685863
0.634424 0.16994 0.685893
0.634394 0.16997 0.685878
0.632624 0.170642 0.683833
0.109712 0.163928 0.598352
0.126009 0.162432 0.607309
0.178408 0.154894 0.630793
0.329824 0.148379 0.676158
0.510689 0.153765 0.684077
0.634424 0.16994 0.685893
0.63444 0.169955 0.685924
0.633982 0.170123 0.685435
0.632822 0.170581 0.684092
0.101381 0.16582 0.594827
0.101259 0.165362 0.594553
0.123125 0.162799 0.605722
0.2804 0.147448 0.663767
0.488975 0.152834 0.686061
0.634363 0.16994 0.685817
0.634501 0.169955 0.686076
0.634485 0.169955 0.686061
0.633524 0.170275 0.68484
0.132021 0.248295 0.644114
0.127565 0.236316 0.63711
0.116304 0.205219 0.618418
0.130587 0.162188 0.60972
0.422477 0.149859 0.686946
0.621683 0.167483 0.683223
0.634577 0.16997 0.686229
0.634562 0.169955 0.686213
0.634424 0.169955 0.685863
0.223789 0.541024 0.763592
0.22118 0.534951 0.76109
0.215641 0.519829 0.75581
0.200977 0.475929 0.740978
0.351995 0.409934 0.836805
0.653605 0.26717 0.787549
0.663951 0.206622 0.708736
0.653117 0.188067 0.698787
0.649287 0.182422 0.695567
0.342199 0.789853 0.847913
0.340154 0.787106 0.846326
0.33637 0.780667 0.843748
0.327047 0.765148 0.837736
0.303899 0.723659 0.822858
0.677714 0.715709 0.912032
0.905608 0.60296 0.933867
0.905898 0.570947 0.93402
0.90193 0.558709 0.931731
0.40798 0.878645 0.890059
0.407553 0.879026 0.889326
0.407523 0.879042 0.889296
0.407523 0.879042 0.889296
0.404486 0.875196 0.887434
0.499825 0.916732 0.93695
0.896284 0.905699 0.927626
0.932326 0.894499 0.93344
0.931792 0.887633 0.932784
0.420249 0.875502 0.88574
0.407553 0.879026 0.889342
0.407523 0.879042 0.889296
0.407523 0.879042 0.889296
0.407614 0.878965 0.889448
0.409766 0.879164 0.88983
0.871107 0.932357 0.9337
0.933272 0.930144 0.933028
0.933288 0.930144 0.933043
0.408286 0.878386 0.890455
0.407553 0.879011 0.889357
0.407523 0.879042 0.889296
0.407523 0.879042 0.889296
0.407599 0.878981 0.889433
0.409964 0.87921 0.889601
0.841352 0.934493 0.934371
0.932952 0.930266 0.932784
0.935836 0.929107 0.934829
0.132723 0.161883 0.610986
0.153872 0.158831 0.620645
0.207996 0.149279 0.640223
0.350164 0.14847 0.67982
0.519814 0.154131 0.683101
0.634409 0.169955 0.685863
0.634424 0.16994 0.685893
0.63444 0.169955 0.685908
0.634409 0.16994 0.685832
0.113481 0.163745 0.600641
0.131792 0.162036 0.610529
0.184497 0.153811 0.632776
0.333272 0.148409 0.676844
0.512413 0.153887 0.68394
0.63444 0.169955 0.685924
0.63444 0.169955 0.685908
0.634424 0.16994 0.685863
0.634363 0.16994 0.685679
0.101518 0.166033 0.594965
0.101656 0.165179 0.594568
0.128527 0.162341 0.608759
0.284276 0.147616 0.665003
0.490791 0.152956 0.685985
0.634333 0.169924 0.685817
0.634501 0.169955 0.686076
0.634485 0.169955 0.686061
0.634394 0.16994 0.68574
0.130617 0.244633 0.641855
0.126238 0.232136 0.63473
0.11458 0.201236 0.616022
0.134142 0.161608 0.611429
0.423941 0.14995 0.687037
0.622263 0.167559 0.683253
0.634592 0.16997 0.686244
0.634577 0.169955 0.686229
0.634424 0.169955 0.685863
0.22005 0.531029 0.760098
0.21735 0.524681 0.757565
0.211749 0.50837 0.752102
0.196826 0.462852 0.736675
0.342061 0.388464 0.825833
0.635386 0.251041 0.770611
0.656077 0.192584 0.701411
0.645548 0.178058 0.693401
0.638575 0.172442 0.688563
0.339757 0.786038 0.846296
0.337514 0.782818 0.844648
0.33341 0.775784 0.842069
0.323095 0.758282 0.83537
0.298344 0.713161 0.819471
0.66894 0.700526 0.911772
0.900313 0.586358 0.933089
0.901106 0.551232 0.931563
0.897642 0.537438 0.92932
0.407874 0.878721 0.889876
0.407553 0.879026 0.889326
0.407523 0.879042 0.889296
0.407523 0.879042 0.889296
0.403586 0.874281 0.886809
0.485069 0.908736 0.92987
0.887007 0.899641 0.927337
0.930632 0.884276 0.933181
0.930022 0.875822 0.933135
0.408194 0.878492 0.890318
0.407553 0.879026 0.889342
0.407523 0.879042 0.889296
0.407523 0.879042 0.889296
0.407523 0.879042 0.889296
0.407523 0.879042 0.889296
0.845121 0.934005 0.936934
0.933349 0.930114 0.93312
0.933349 0.930114 0.933104
0.408103 0.878553 0.890196
0.407553 0.879011 0.889357
0.407523 0.879042 0.889296
0.407523 0.879042 0.889296
0.407523 0.879042 0.889296
0.407523 0.879042 0.889296
0.771496 0.936706 0.937667
0.932372 0.93051 0.932326
0.934142 0.929763 0.933791
