bundles/resolve-cinematic-luts/Phantom Luts/Canon Alexa LUT/ATOMOS Monitoring LUTs/C-Log 2/Jamaica Canon CL2 AML.cube
TITLE "Generated by Resolve"
LUT_3D_SIZE 33
0.0693065 0.0895094 0.0693675
0.0711681 0.0894026 0.0694133
0.0766155 0.0895857 0.0700542
0.0872816 0.0898451 0.0717784
0.103456 0.0899367 0.0735027
0.126986 0.0903029 0.0758526
0.155077 0.090425 0.0780194
0.186938 0.0905318 0.0813306
0.224674 0.0903029 0.0843214
0.268772 0.090013 0.0894484
0.320119 0.0899214 0.0970626
0.375906 0.0895705 0.107408
0.432944 0.0893568 0.121859
0.488914 0.089662 0.138705
0.539345 0.0913558 0.158755
0.579705 0.0956893 0.182208
0.606622 0.103777 0.208789
0.626032 0.116152 0.237278
0.646296 0.128939 0.266285
0.661692 0.136019 0.290044
0.663508 0.136004 0.29778
0.665019 0.136095 0.30454
0.666346 0.136156 0.311147
0.667369 0.136233 0.316762
0.668116 0.136278 0.321706
0.668833 0.136324 0.325673
0.669306 0.136339 0.328801
0.669688 0.136324 0.331243
0.669963 0.136339 0.333349
0.670146 0.136324 0.334874
0.670268 0.136324 0.336172
0.670298 0.136324 0.336828
0.669596 0.136522 0.336843
0.0694285 0.090837 0.0698558
0.0700999 0.0902113 0.0693523
0.0732433 0.0901198 0.0696574
0.0812238 0.0903639 0.0706493
0.0953078 0.0903334 0.0717937
0.118242 0.090425 0.0737011
0.146029 0.0903944 0.0754864
0.178302 0.0906386 0.0778668
0.216724 0.0905776 0.0806897
0.261097 0.0902876 0.0842756
0.313268 0.0900893 0.0905928
0.370047 0.0895552 0.0992905
0.428016 0.0894026 0.113085
0.485145 0.0897841 0.131243
0.53576 0.0913863 0.151446
0.576806 0.0956741 0.175067
0.604501 0.103731 0.202518
0.624338 0.115892 0.23151
0.645045 0.128878 0.26125
0.661128 0.136202 0.286778
0.662654 0.135958 0.294072
0.664225 0.136034 0.30103
0.665583 0.136095 0.307469
0.666712 0.136187 0.313069
0.667536 0.136248 0.317876
0.668208 0.136294 0.322148
0.668803 0.136324 0.325414
0.669184 0.136339 0.327962
0.669474 0.136339 0.329976
0.669657 0.136324 0.331472
0.669795 0.136324 0.332662
0.669795 0.136324 0.333364
0.669718 0.136324 0.333623
0.069337 0.0948501 0.0708476
0.0704967 0.0941787 0.0696727
0.074342 0.0932174 0.0701152
0.0800793 0.0931868 0.0708934
0.0924849 0.092134 0.0709239
0.113344 0.0913252 0.072694
0.139376 0.0908064 0.0741436
0.171725 0.0905623 0.0760967
0.209522 0.0905165 0.0778515
0.253178 0.0908064 0.0817273
0.304219 0.0903639 0.0859388
0.361868 0.0898604 0.0932784
0.421225 0.089601 0.105394
0.480125 0.0897383 0.122591
0.531945 0.0915084 0.143832
0.573602 0.0956893 0.168002
0.602365 0.103716 0.195972
0.622293 0.115618 0.225772
0.643122 0.128496 0.256046
0.660273 0.136126 0.282429
0.661875 0.13608 0.29015
0.663371 0.136004 0.297047
0.664775 0.136095 0.303273
0.665995 0.136141 0.309224
0.666972 0.136187 0.314473
0.667597 0.136263 0.318364
0.668162 0.136294 0.321935
0.66865 0.136324 0.324575
0.669001 0.136324 0.326802
0.669169 0.136324 0.328206
0.669276 0.136309 0.329488
0.669291 0.136309 0.330114
0.669245 0.136309 0.330373
0.0689403 0.10164 0.072221
0.0693217 0.100755 0.0694438
0.0727703 0.0990768 0.0698863
0.0798505 0.098024 0.0708629
0.0911421 0.0986496 0.0724804
0.111009 0.0962539 0.0725567
0.139391 0.0936141 0.0718853
0.17116 0.0917983 0.0738231
0.203449 0.0912032 0.0762951
0.246342 0.0906996 0.0782177
0.296635 0.0901961 0.0811475
0.353414 0.0907454 0.0890669
0.412131 0.0899672 0.0973068
0.470619 0.0899825 0.112932
0.525429 0.0914626 0.134188
0.569009 0.0955062 0.158892
0.598962 0.10338 0.18764
0.619593 0.115297 0.218235
0.640528 0.128115 0.249027
0.65893 0.136034 0.277378
0.660899 0.136217 0.285496
0.662333 0.135988 0.292576
0.663752 0.136019 0.298802
0.664973 0.136095 0.304341
0.666041 0.136141 0.309468
0.666865 0.136187 0.313848
0.66743 0.136233 0.317281
0.667842 0.136278 0.320104
0.668193 0.136294 0.322271
0.668482 0.136324 0.323903
0.66865 0.136324 0.325277
0.668696 0.136309 0.326146
0.668635 0.136309 0.326513
0.0677958 0.11426 0.0737011
0.0675822 0.113344 0.06981
0.0706951 0.111116 0.0695354
0.0760967 0.108644 0.0698558
0.0892195 0.107088 0.0717327
0.108782 0.10779 0.073106
0.134432 0.104891 0.0742046
0.167666 0.0985733 0.0735027
0.204593 0.0944533 0.0712444
0.248249 0.0920729 0.0743877
0.291676 0.0909285 0.0780041
0.346838 0.0904097 0.0833753
0.403861 0.0899367 0.0890822
0.461082 0.0915847 0.104631
0.514931 0.0911879 0.122606
0.561593 0.0948959 0.147524
0.593805 0.102495 0.176104
0.615595 0.114443 0.207675
0.637385 0.127672 0.239933
0.656809 0.135866 0.270176
0.659373 0.136095 0.27895
0.661067 0.136217 0.286503
0.662394 0.135988 0.292866
0.663661 0.136019 0.298344
0.664744 0.13608 0.303197
0.665644 0.13611 0.307729
0.666392 0.136156 0.311315
0.666926 0.136187 0.314244
0.667308 0.136233 0.316411
0.667521 0.136248 0.318151
0.667674 0.136263 0.319554
0.667704 0.136263 0.320317
0.667659 0.136278 0.320638
0.0659953 0.135958 0.0750744
0.0659495 0.134768 0.0699931
0.0666514 0.132891 0.0675975
0.0721904 0.128985 0.0691844
0.0808423 0.126375 0.0697185
0.104051 0.123125 0.0722057
0.13315 0.123613 0.0731518
0.165591 0.119799 0.0753796
0.202869 0.10869 0.0754864
0.24593 0.0992142 0.0717174
0.297612 0.093019 0.0697185
0.350576 0.0915847 0.0779889
0.399771 0.090425 0.0852674
0.456336 0.0903792 0.0947433
0.50782 0.0920882 0.111391
0.551461 0.0942245 0.133532
0.58677 0.101396 0.16228
0.609842 0.112627 0.19443
0.631846 0.126177 0.227466
0.653788 0.135698 0.260212
0.656764 0.136004 0.269337
0.658991 0.136126 0.277378
0.66067 0.136217 0.284398
0.661875 0.13608 0.290379
0.662913 0.135973 0.295369
0.663874 0.136019 0.299672
0.664652 0.13608 0.303044
0.665263 0.136095 0.306188
0.665751 0.136126 0.308415
0.666133 0.136156 0.310445
0.666377 0.136156 0.311986
0.666468 0.136172 0.31284
0.666423 0.136187 0.313298
0.065919 0.166018 0.076051
0.065919 0.164858 0.070985
0.0659037 0.163058 0.0664988
0.066392 0.159686 0.0665141
0.0746777 0.155673 0.0678264
0.0882277 0.152621 0.068452
0.125673 0.147234 0.0723583
0.161929 0.146578 0.0723278
0.200855 0.143359 0.0751965
0.24477 0.125841 0.0755474
0.298085 0.105974 0.0729839
0.351583 0.096437 0.0683604
0.411994 0.0922103 0.0747539
0.459586 0.0916457 0.0884108
0.504265 0.0917372 0.102541
0.546227 0.0946822 0.123049
0.576852 0.0996262 0.145403
0.602045 0.110491 0.177447
0.624552 0.124315 0.212024
0.647227 0.134752 0.243748
0.652171 0.13547 0.255497
0.655451 0.136019 0.265126
0.657694 0.136141 0.272816
0.659419 0.136217 0.279286
0.660716 0.136309 0.284611
0.661585 0.136202 0.289052
0.662318 0.136065 0.292851
0.663005 0.136049 0.29572
0.663569 0.13608 0.298283
0.664012 0.13608 0.300237
0.664317 0.136095 0.301671
0.6645 0.13611 0.30277
0.664576 0.13611 0.30338
0.0658427 0.200717 0.0764935
0.0658274 0.19942 0.071397
0.066041 0.198306 0.0670176
0.0659342 0.19585 0.066453
0.0661021 0.191745 0.0659953
0.0788281 0.188342 0.0658732
0.0984512 0.18526 0.066041
0.150439 0.176486 0.0708324
0.194659 0.174334 0.0707103
0.241413 0.174136 0.0730602
0.295003 0.150637 0.0755627
0.358587 0.11429 0.0732738
0.413108 0.102464 0.0689555
0.468605 0.0941024 0.0704204
0.515068 0.0940414 0.0905928
0.54641 0.0952773 0.114092
0.574746 0.0999924 0.139498
0.5944 0.107927 0.16257
0.614649 0.121294 0.19173
0.638743 0.13286 0.224552
0.643885 0.134173 0.234882
0.648341 0.134981 0.245594
0.65243 0.135607 0.25568
0.655039 0.136065 0.263554
0.65687 0.136187 0.269566
0.658259 0.136278 0.274556
0.659312 0.136294 0.278706
0.660166 0.136324 0.281758
0.660746 0.13637 0.284489
0.661189 0.136324 0.286793
0.661524 0.136248 0.288136
0.661662 0.136233 0.289067
0.661723 0.136202 0.289799
0.065919 0.243549 0.0774548
0.0658885 0.242313 0.0721904
0.0658732 0.240604 0.0675975
0.0658885 0.238895 0.0673686
0.0659495 0.23566 0.0671855
0.066041 0.231449 0.0667735
0.0838483 0.228229 0.06598
0.112856 0.223667 0.0660105
0.179965 0.211368 0.0683604
0.23299 0.207568 0.0704967
0.287404 0.211475 0.0714427
0.35758 0.177844 0.0755016
0.420188 0.133547 0.0746777
0.475242 0.110216 0.0715343
0.516533 0.100679 0.0725719
0.552651 0.0997482 0.095552
0.576013 0.10399 0.127611
0.592584 0.108492 0.157137
0.608286 0.118074 0.181353
0.63006 0.130724 0.208164
0.633707 0.13225 0.213428
0.637888 0.132815 0.22211
0.642161 0.133806 0.231006
0.645884 0.1346 0.238788
0.648722 0.135042 0.245823
0.651698 0.135515 0.252979
0.653742 0.135958 0.258808
0.654948 0.13608 0.262318
0.655833 0.136141 0.265187
0.656565 0.136187 0.267536
0.657038 0.136217 0.269383
0.657313 0.136248 0.270619
0.65745 0.136248 0.271366
0.065919 0.293996 0.0792554
0.0659037 0.293095 0.073518
0.0658885 0.291783 0.0694743
0.0658732 0.289845 0.0691997
0.0658579 0.287098 0.0692149
0.0659495 0.282963 0.0688182
0.0665751 0.278721 0.0677806
0.0902876 0.276493 0.0663615
0.13167 0.26978 0.0658885
0.215122 0.252934 0.0683452
0.279591 0.248035 0.0718395
0.344076 0.252155 0.0730755
0.420951 0.212833 0.0757916
0.482033 0.165316 0.0782025
0.530159 0.1243 0.0790112
0.555261 0.113268 0.0837873
0.565026 0.108141 0.0981155
0.590951 0.11754 0.141909
0.608865 0.123522 0.172961
0.623835 0.128099 0.199313
0.632731 0.132387 0.210208
0.632853 0.132357 0.210681
0.632425 0.132097 0.210101
0.633341 0.132296 0.212284
0.63592 0.132525 0.217838
0.638849 0.133059 0.223819
0.641245 0.133654 0.228931
0.643305 0.134096 0.233112
0.644816 0.134401 0.236423
0.646006 0.134646 0.239033
0.646738 0.134905 0.241032
0.647349 0.135073 0.242374
0.64773 0.135134 0.243458
0.06598 0.354238 0.0835431
0.0660105 0.35407 0.0782025
0.0659953 0.352865 0.0728923
0.0658885 0.350973 0.0728618
0.0658427 0.348745 0.0725414
0.0660563 0.345403 0.072694
0.0659037 0.340627 0.0720531
0.0711833 0.335927 0.0704204
0.101274 0.334752 0.0682231
0.15639 0.323796 0.0660258
0.258671 0.302419 0.0695201
0.337224 0.297017 0.0734112
0.407446 0.302327 0.0761425
0.484611 0.263127 0.078172
0.542336 0.208637 0.0866255
0.575708 0.151461 0.0934615
0.584161 0.134615 0.103243
0.582757 0.127184 0.112062
0.607126 0.130159 0.14931
0.632197 0.136767 0.187991
0.639246 0.137881 0.210788
0.632639 0.132906 0.207797
0.632609 0.132647 0.208865
0.632654 0.13257 0.209308
0.632792 0.132555 0.209873
0.632975 0.13254 0.210407
0.633173 0.132555 0.210803
0.633371 0.13257 0.211292
0.633509 0.132555 0.211734
0.633326 0.132494 0.21149
0.633051 0.132433 0.211032
0.632959 0.132418 0.210971
0.633143 0.132479 0.211414
0.0660258 0.421225 0.0922866
0.0659495 0.420874 0.0872358
0.0658885 0.42031 0.0816052
0.0658885 0.419181 0.0796368
0.0658885 0.417624 0.0802014
0.0658885 0.416449 0.0800946
0.0659495 0.411872 0.0796521
0.0657969 0.406943 0.0784009
0.0817731 0.401923 0.0760662
0.120958 0.401312 0.0720989
0.190921 0.385519 0.066392
0.314107 0.361074 0.0709697
0.405234 0.358175 0.0771038
0.47483 0.363668 0.0821393
0.546548 0.32958 0.0881514
0.60116 0.264912 0.10338
0.618173 0.201068 0.116472
0.614313 0.172168 0.128939
0.611002 0.15465 0.134051
0.621073 0.13753 0.142382
0.64715 0.143984 0.188144
0.646769 0.142855 0.195361
0.644694 0.141253 0.198596
0.643 0.139956 0.203876
0.641978 0.139742 0.21059
0.637156 0.13666 0.210163
0.632242 0.132921 0.206439
0.632517 0.132845 0.207813
0.632502 0.13283 0.207858
0.632486 0.132815 0.207858
0.632486 0.132799 0.207904
0.632441 0.132799 0.207858
0.632395 0.132784 0.207843
0.0707561 0.490211 0.107561
0.0703441 0.489982 0.103105
0.070161 0.489418 0.0984817
0.0703288 0.489036 0.0943465
0.0703746 0.488579 0.0943008
0.0702373 0.487373 0.0939956
0.0700389 0.485451 0.0935683
0.0691234 0.479438 0.0921645
0.074342 0.475029 0.0901045
0.102525 0.471168 0.0850538
0.150988 0.471366 0.0793317
0.239841 0.448447 0.0703288
0.380011 0.424933 0.0762036
0.477455 0.42388 0.0851606
0.540307 0.428534 0.094728
0.607004 0.409918 0.108446
0.657343 0.340902 0.130663
0.668009 0.278538 0.149371
0.650797 0.219226 0.15819
0.647868 0.195102 0.160418
0.644709 0.162554 0.155398
0.639582 0.149767 0.150607
0.639673 0.144976 0.154955
0.642908 0.145068 0.167956
0.645319 0.14522 0.178195
0.645945 0.144686 0.184131
0.645777 0.143633 0.18793
0.646021 0.143145 0.19118
0.646052 0.14284 0.193713
0.64596 0.142519 0.195636
0.645716 0.142199 0.196551
0.645243 0.141863 0.197391
0.644846 0.141619 0.197894
0.091722 0.555566 0.134051
0.0916915 0.555093 0.129946
0.0914931 0.554467 0.12604
0.0921035 0.554192 0.121736
0.0923934 0.553292 0.117998
0.0919509 0.552743 0.118349
0.0915694 0.551781 0.118059
0.0906386 0.548974 0.116915
0.0885176 0.544076 0.114382
0.0993668 0.541878 0.11017
0.13933 0.542794 0.101549
0.195926 0.542367 0.092546
0.302434 0.512535 0.0784619
0.449943 0.492668 0.0864729
0.54815 0.492592 0.102708
0.604089 0.497169 0.118257
0.665934 0.498604 0.14403
0.710948 0.431769 0.169497
0.72253 0.366857 0.191989
0.701152 0.290944 0.194232
0.686107 0.242435 0.187976
0.678264 0.222736 0.181643
0.671412 0.210895 0.176028
0.664424 0.199496 0.170611
0.65832 0.189166 0.165911
0.6533 0.180438 0.161929
0.64947 0.173373 0.158846
0.647776 0.16759 0.159121
0.646326 0.163592 0.157977
0.645014 0.16022 0.156664
0.644099 0.157397 0.155886
0.643381 0.155276 0.15523
0.642863 0.154116 0.155047
0.128237 0.615976 0.174823
0.128832 0.615152 0.171359
0.129671 0.614679 0.168292
0.130144 0.613581 0.164797
0.13135 0.612421 0.160327
0.131563 0.611917 0.158923
0.130907 0.611337 0.15848
0.130434 0.610773 0.157855
0.127398 0.606882 0.154604
0.126253 0.604044 0.151644
0.141543 0.604089 0.14255
0.192035 0.611933 0.129915
0.257404 0.610636 0.114595
0.381109 0.577096 0.0956436
0.524071 0.560616 0.109667
0.616968 0.561654 0.136553
0.666087 0.565805 0.15906
0.722087 0.574395 0.195209
0.761975 0.52845 0.219913
0.777478 0.461952 0.238499
0.765393 0.399542 0.238437
0.736446 0.328679 0.223362
0.721172 0.299641 0.213184
0.71281 0.284245 0.207599
0.707424 0.274357 0.203647
0.702693 0.26627 0.200427
0.698634 0.258717 0.197284
0.695552 0.252552 0.195026
0.692485 0.246921 0.19234
0.690669 0.243 0.190387
0.689143 0.239429 0.188861
0.688319 0.237049 0.187503
0.687114 0.234607 0.186389
0.181582 0.673396 0.229587
0.18262 0.672892 0.227085
0.183093 0.671824 0.224216
0.183795 0.670558 0.220981
0.184833 0.669444 0.217487
0.186007 0.668421 0.214221
0.185779 0.668055 0.213642
0.185016 0.667445 0.212802
0.183474 0.66601 0.211109
0.178653 0.661082 0.205997
0.182391 0.661692 0.202365
0.206226 0.666529 0.187243
0.263859 0.679973 0.172702
0.334798 0.675731 0.149813
0.464439 0.638758 0.126513
0.596414 0.62739 0.152056
0.682109 0.630167 0.190295
0.726482 0.634653 0.218387
0.77435 0.642985 0.255863
0.807782 0.627558 0.278737
0.821576 0.565972 0.280934
0.817166 0.499657 0.278233
0.809567 0.479347 0.272679
0.803235 0.464424 0.267781
0.796796 0.45008 0.263249
0.7906 0.43711 0.258824
0.785153 0.42594 0.254902
0.780362 0.415976 0.251911
0.776196 0.407263 0.24889
0.773266 0.401007 0.246616
0.770306 0.394736 0.244541
0.767788 0.389715 0.24242
0.765698 0.38558 0.240726
0.242435 0.731991 0.289921
0.243107 0.73138 0.287343
0.243259 0.730556 0.284672
0.243458 0.729442 0.281209
0.243977 0.728374 0.277867
0.245228 0.727382 0.273579
0.244877 0.72665 0.272709
0.244312 0.725917 0.272114
0.243442 0.72491 0.271183
0.240391 0.721843 0.268009
0.236805 0.717647 0.264179
0.248829 0.722026 0.259953
0.289158 0.733196 0.243885
0.352483 0.746838 0.229694
0.426947 0.736843 0.200015
0.552789 0.698604 0.179004
0.667536 0.693339 0.215427
0.745418 0.698512 0.259617
0.786236 0.704112 0.288945
0.819059 0.709056 0.315084
0.848066 0.714672 0.339086
0.853346 0.671595 0.328679
0.852125 0.636973 0.319585
0.849622 0.622614 0.314702
0.847105 0.609354 0.31017
0.844739 0.597711 0.306615
0.842405 0.587396 0.303014
0.840223 0.578531 0.300328
0.838666 0.572122 0.298344
0.837125 0.566049 0.296284
0.835889 0.560952 0.294606
0.834485 0.556405 0.292714
0.833021 0.552758 0.290898
0.297948 0.792432 0.343435
0.297887 0.79202 0.340612
0.297566 0.791455 0.337606
0.297444 0.79086 0.334722
0.297704 0.790417 0.331029
0.29781 0.789624 0.327688
0.297566 0.788739 0.325795
0.297566 0.788006 0.325994
0.297597 0.787076 0.326024
0.296956 0.785901 0.325338
0.29398 0.780987 0.321996
0.295659 0.779583 0.321508
0.322866 0.786236 0.319478
0.382605 0.801968 0.308278
0.452461 0.81503 0.298024
0.523323 0.793744 0.261387
0.640269 0.758801 0.249836
0.737041 0.759655 0.290822
0.806043 0.766766 0.335027
0.840223 0.77322 0.362005
0.8598 0.775433 0.377462
0.875883 0.777447 0.389715
0.883574 0.774823 0.393286
0.881788 0.769162 0.388922
0.880018 0.763531 0.384771
0.87744 0.753429 0.377768
0.875319 0.745144 0.372122
0.873503 0.737713 0.367437
0.8719 0.731106 0.363302
0.870954 0.725887 0.359548
0.86981 0.72134 0.356023
0.869383 0.717662 0.352682
0.869032 0.715373 0.35053
0.339513 0.844877 0.381735
0.339193 0.844556 0.378714
0.338659 0.844282 0.375921
0.338399 0.844282 0.373098
0.338262 0.844068 0.370199
0.337942 0.843671 0.368032
0.337392 0.843137 0.367025
0.337118 0.842542 0.366964
0.338399 0.842145 0.368002
0.339544 0.841184 0.369116
0.33933 0.838804 0.368673
0.337026 0.833066 0.365896
0.351858 0.834928 0.370916
0.400595 0.844709 0.372488
0.477668 0.863798 0.369162
0.549905 0.868681 0.358053
0.618082 0.84033 0.322744
0.722179 0.812634 0.324559
0.801465 0.817807 0.366979
0.8551 0.825544 0.402914
0.882856 0.831434 0.423865
0.892332 0.832547 0.430747
0.899123 0.830777 0.434379
0.899916 0.827268 0.432853
0.89865 0.823377 0.42974
0.89752 0.820249 0.427436
0.896773 0.817624 0.425467
0.895644 0.814618 0.422919
0.89485 0.812177 0.420951
0.894636 0.810513 0.419165
0.894286 0.808774 0.416678
0.894224 0.807752 0.413596
0.894301 0.80647 0.410315
0.370214 0.88159 0.409964
0.366827 0.882033 0.404364
0.364706 0.882246 0.400015
0.363943 0.882322 0.396597
0.363531 0.882246 0.394751
0.36321 0.882155 0.393591
0.363027 0.882017 0.393484
0.363058 0.882048 0.3935
0.363699 0.881636 0.394308
0.365667 0.880858 0.396414
0.368185 0.879194 0.398535
0.369726 0.875792 0.399603
0.37499 0.872572 0.403357
0.418494 0.879286 0.415534
0.492836 0.894377 0.418448
0.572534 0.908049 0.413611
0.635187 0.899962 0.395529
0.702602 0.872267 0.374014
0.794232 0.855406 0.390799
0.854002 0.86363 0.425895
0.891173 0.869245 0.449866
0.910262 0.874525 0.464134
0.916777 0.875578 0.468864
0.919051 0.873655 0.469306
0.917922 0.871244 0.467338
0.916686 0.869047 0.465385
0.91606 0.86717 0.464027
0.915099 0.865034 0.462516
0.914046 0.86334 0.460883
0.913573 0.861967 0.459525
0.913375 0.861082 0.45832
0.913405 0.860334 0.456046
0.913558 0.859648 0.452262
0.388891 0.894804 0.426474
0.379675 0.895918 0.41561
0.373632 0.896651 0.408042
0.372717 0.896757 0.404318
0.372534 0.89688 0.403555
0.372381 0.896956 0.403418
0.37232 0.897017 0.403418
0.37232 0.897017 0.403418
0.37232 0.897017 0.403418
0.373526 0.89691 0.404791
0.376776 0.89659 0.407675
0.382223 0.895903 0.412818
0.388525 0.893538 0.418647
0.420706 0.896376 0.432288
0.49012 0.909545 0.444724
0.573968 0.92575 0.440803
0.642847 0.927214 0.429068
0.700099 0.911757 0.413382
0.772107 0.894423 0.413718
0.849683 0.888029 0.43949
0.892378 0.895399 0.465873
0.916259 0.899977 0.481849
0.928603 0.902388 0.490379
0.93193 0.903029 0.492393
0.931456 0.9019 0.49163
0.93106 0.900908 0.490883
0.93051 0.899901 0.490028
0.929946 0.898985 0.489128
0.929671 0.898238 0.488609
0.929458 0.897444 0.488197
0.929305 0.896498 0.487724
0.929244 0.895735 0.486625
0.929458 0.895323 0.483513
0.395254 0.894331 0.433204
0.38265 0.895216 0.418601
0.374289 0.896269 0.408637
0.373449 0.896391 0.405554
0.372808 0.896529 0.402991
0.37258 0.896574 0.402274
0.372671 0.896666 0.403433
0.372671 0.896666 0.403433
0.372671 0.896666 0.403433
0.372671 0.896666 0.403433
0.374228 0.896498 0.404852
0.377279 0.896193 0.407568
0.382849 0.895567 0.412848
0.405188 0.896666 0.424033
0.47126 0.906981 0.440879
0.559014 0.925139 0.444434
0.636133 0.930434 0.434424
0.696727 0.922927 0.424918
0.759869 0.912108 0.425422
0.835172 0.908064 0.44712
0.893065 0.910231 0.475044
0.919585 0.91635 0.492439
0.936843 0.919814 0.503929
0.937713 0.921202 0.509285
0.937728 0.921202 0.509712
0.937606 0.920424 0.508827
0.93756 0.919631 0.508019
0.93756 0.919188 0.507515
0.93756 0.918654 0.506828
0.937636 0.918257 0.506416
0.937728 0.917845 0.50631
0.937789 0.917372 0.506477
0.937774 0.916976 0.505714
0.395483 0.895323 0.445014
0.383246 0.895567 0.429297
0.375677 0.896651 0.419394
0.374792 0.896788 0.415442
0.373877 0.896819 0.411139
0.373098 0.896727 0.406332
0.372427 0.896605 0.401617
0.372671 0.896666 0.403433
0.372671 0.896666 0.403433
0.372671 0.896666 0.403433
0.372671 0.896666 0.403433
0.374273 0.896498 0.404898
0.378347 0.896086 0.408469
0.394675 0.895781 0.419242
0.453758 0.90367 0.437064
0.540612 0.921706 0.445075
0.614206 0.930816 0.438209
0.672953 0.92694 0.427939
0.733776 0.91664 0.423697
0.813199 0.909529 0.440101
0.889509 0.913664 0.475883
0.923888 0.92256 0.498527
0.937652 0.928573 0.509514
0.937667 0.932631 0.518074
0.937804 0.934569 0.522728
0.937774 0.934401 0.523003
0.937697 0.933989 0.522454
0.937697 0.933608 0.521935
0.937697 0.933379 0.521447
0.937697 0.933257 0.520958
0.937697 0.933074 0.520577
0.937697 0.932876 0.520333
0.937697 0.932616 0.520424
0.394858 0.896574 0.458366
0.38381 0.896513 0.443503
0.376715 0.896834 0.432456
0.375921 0.896849 0.427146
0.375158 0.897139 0.42121
0.374304 0.897078 0.415122
0.373297 0.896849 0.40798
0.37258 0.896651 0.40267
0.372671 0.896666 0.403433
0.372671 0.896666 0.403433
0.372671 0.896666 0.403433
0.372732 0.896666 0.403464
0.375158 0.896406 0.405798
0.383719 0.895552 0.413046
0.432853 0.90013 0.431922
0.517082 0.916854 0.444511
0.594369 0.929427 0.440848
0.661036 0.928344 0.43006
0.724208 0.918212 0.423529
0.799512 0.90988 0.435416
0.8757 0.912703 0.468208
0.920653 0.922805 0.496361
0.937652 0.929793 0.510246
0.937819 0.935286 0.520806
0.937636 0.936675 0.529793
0.937667 0.936706 0.534081
0.937667 0.936706 0.534676
0.937652 0.93669 0.53463
0.937667 0.936706 0.534554
0.937667 0.936706 0.534356
0.937667 0.936706 0.534127
0.937652 0.93669 0.533776
0.937652 0.93669 0.533486
0.393027 0.898085 0.471382
0.384024 0.897993 0.458412
0.377691 0.897871 0.4477
0.377096 0.897597 0.44123
0.376242 0.897292 0.433158
0.375265 0.897139 0.424536
0.374411 0.897169 0.416434
0.373266 0.896849 0.407782
0.372671 0.896666 0.403433
0.372671 0.896666 0.403433
0.372671 0.896666 0.403433
0.372671 0.896666 0.403433
0.373785 0.896544 0.404456
0.379843 0.895964 0.410193
0.41561 0.898116 0.426078
0.495384 0.91223 0.443122
0.578149 0.927626 0.442512
0.646952 0.929564 0.43238
0.709667 0.920424 0.423728
0.78143 0.911269 0.430747
0.858869 0.911086 0.45951
0.912627 0.920348 0.490715
0.936385 0.928435 0.507469
0.937682 0.933852 0.517739
0.937652 0.936675 0.527459
0.937652 0.93669 0.533639
0.937667 0.936706 0.534859
0.937667 0.936706 0.534798
0.937667 0.936706 0.534707
0.937667 0.936706 0.534524
0.937667 0.936706 0.53431
0.937667 0.936706 0.533898
0.937652 0.93669 0.533562
0.398077 0.899336 0.487083
0.388891 0.898665 0.473915
0.381872 0.898558 0.462974
0.378882 0.898299 0.454841
0.377371 0.897978 0.446296
0.376379 0.897505 0.435752
0.375189 0.897169 0.424842
0.374151 0.897093 0.414481
0.373037 0.896773 0.406332
0.372671 0.896666 0.403433
0.372671 0.896666 0.403433
0.372671 0.896666 0.403433
0.37348 0.896574 0.404181
0.378698 0.89604 0.408804
0.404837 0.897169 0.421988
0.477226 0.908354 0.440894
0.564355 0.925689 0.443275
0.634882 0.930144 0.434363
0.6972 0.92253 0.42475
0.766812 0.912398 0.427665
0.844419 0.910033 0.452705
0.904723 0.918379 0.485527
0.933028 0.927367 0.505089
0.937682 0.932738 0.515602
0.937621 0.936461 0.525322
0.937636 0.936675 0.533227
0.937667 0.936706 0.535119
0.937667 0.93669 0.535058
0.937667 0.93669 0.534966
0.937667 0.936706 0.534752
0.937667 0.936706 0.534554
0.937667 0.936706 0.534203
0.937667 0.936706 0.533822
0.404166 0.900694 0.501595
0.396414 0.89958 0.489555
0.38706 0.89897 0.476493
0.38201 0.898909 0.466941
0.37818 0.898604 0.456886
0.377325 0.898085 0.44686
0.376135 0.897444 0.434012
0.374945 0.897246 0.421225
0.373419 0.896895 0.408957
0.372671 0.896666 0.403433
0.372671 0.896666 0.403433
0.372671 0.896666 0.403433
0.37348 0.896574 0.404181
0.377966 0.896132 0.408118
0.398535 0.896529 0.41944
0.464317 0.906004 0.438346
0.553613 0.923445 0.443076
0.625849 0.930083 0.435492
0.687404 0.924193 0.425803
0.756115 0.913481 0.425711
0.833051 0.909773 0.447913
0.898238 0.917189 0.481819
0.929641 0.926421 0.502815
0.937667 0.931884 0.513771
0.937636 0.935821 0.523491
0.937636 0.936675 0.531991
