bundles/resolve-cinematic-luts/Phantom Luts/Canon Alexa LUT/ATOMOS Monitoring LUTs/C-Log 2/Jamaica Canon CL2 AML.cube
TITLE "Generated by Resolve"
LUT_3D_SIZE 9
0.0693065 0.0895094 0.0693675
0.103456 0.0899367 0.0735027
0.224674 0.0903029 0.0843214
0.432944 0.0893568 0.121859
0.606622 0.103777 0.208789
0.663508 0.136004 0.29778
0.668116 0.136278 0.321706
0.669963 0.136339 0.333349
0.669596 0.136522 0.336843
0.0677958 0.11426 0.0737011
0.0892195 0.107088 0.0717327
0.204593 0.0944533 0.0712444
0.403861 0.0899367 0.0890822
0.593805 0.102495 0.176104
0.659373 0.136095 0.27895
0.664744 0.13608 0.303197
0.667308 0.136233 0.316411
0.667659 0.136278 0.320638
0.065919 0.243549 0.0774548
0.0659495 0.23566 0.0671855
0.179965 0.211368 0.0683604
0.420188 0.133547 0.0746777
0.576013 0.10399 0.127611
0.633707 0.13225 0.213428
0.648722 0.135042 0.245823
0.655833 0.136141 0.265187
0.65745 0.136248 0.271366
0.0707561 0.490211 0.107561
0.0703746 0.488579 0.0943008
0.074342 0.475029 0.0901045
0.380011 0.424933 0.0762036
0.657343 0.340902 0.130663
0.644709 0.162554 0.155398
0.645319 0.14522 0.178195
0.646052 0.14284 0.193713
0.644846 0.141619 0.197894
0.242435 0.731991 0.289921
0.243977 0.728374 0.277867
0.243442 0.72491 0.271183
0.289158 0.733196 0.243885
0.667536 0.693339 0.215427
0.848066 0.714672 0.339086
0.847105 0.609354 0.31017
0.838666 0.572122 0.298344
0.833021 0.552758 0.290898
0.388891 0.894804 0.426474
0.372534 0.89688 0.403555
0.37232 0.897017 0.403418
0.388525 0.893538 0.418647
0.642847 0.927214 0.429068
0.892378 0.895399 0.465873
0.931456 0.9019 0.49163
0.929671 0.898238 0.488609
0.929458 0.895323 0.483513
0.393027 0.898085 0.471382
0.376242 0.897292 0.433158
0.372671 0.896666 0.403433
0.373785 0.896544 0.404456
0.578149 0.927626 0.442512
0.858869 0.911086 0.45951
0.937652 0.936675 0.527459
0.937667 0.936706 0.534707
0.937652 0.93669 0.533562
0.409369 0.903075 0.520272
0.384161 0.898772 0.474998
0.375738 0.896452 0.418204
0.373831 0.895872 0.403342
0.532982 0.917357 0.434134
0.820661 0.908919 0.442329
0.93785 0.934768 0.521553
0.937667 0.93669 0.535576
0.937667 0.936706 0.534401
0.409628 0.90544 0.536034
0.387381 0.90016 0.493172
0.383078 0.896315 0.434867
0.373816 0.895888 0.403342
0.525979 0.915755 0.43064
0.812665 0.909087 0.439628
0.937758 0.93431 0.520165
0.937667 0.936706 0.535454
0.937667 0.936706 0.534463
0.0686503 0.0904402 0.0889296
0.101076 0.0901656 0.0984054
0.228168 0.0894026 0.11957
0.439002 0.0888991 0.154971
0.613458 0.103441 0.234058
0.665949 0.136385 0.313237
0.669627 0.136477 0.335592
0.671336 0.136477 0.347555
0.671382 0.13666 0.352529
0.0716106 0.105943 0.0913863
0.0836194 0.102403 0.084535
0.210483 0.0933394 0.0869917
0.416739 0.0894789 0.116594
0.603464 0.102693 0.203403
0.662089 0.136156 0.294972
0.667048 0.136416 0.318914
0.669001 0.136461 0.330907
0.669215 0.136507 0.33492
0.066041 0.232105 0.108431
0.0658579 0.22771 0.0792401
0.170977 0.204547 0.0695048
0.421897 0.114641 0.0721294
0.575006 0.101213 0.133501
0.644144 0.134188 0.23566
0.656748 0.136248 0.269795
0.660746 0.136416 0.284901
0.661601 0.136248 0.290196
0.0680247 0.482414 0.132143
0.0675212 0.479942 0.106172
0.0668803 0.469032 0.0896162
0.372702 0.419471 0.0755627
0.65362 0.31696 0.129412
0.640665 0.152148 0.152209
0.646113 0.144366 0.18616
0.645136 0.141711 0.198352
0.643122 0.140352 0.202228
0.231464 0.730648 0.303136
0.235355 0.726162 0.285985
0.238346 0.719661 0.26569
0.274144 0.726741 0.243885
0.663676 0.689982 0.211582
0.846723 0.709041 0.336019
0.844022 0.595239 0.305623
0.834745 0.556588 0.293812
0.828779 0.536828 0.286717
0.389807 0.896208 0.445823
0.373877 0.897383 0.415351
0.37232 0.897017 0.403418
0.384878 0.893751 0.414939
0.636042 0.92723 0.42974
0.890791 0.894133 0.46424
0.930938 0.900725 0.49073
0.928634 0.896147 0.486885
0.927977 0.893721 0.481758
0.39234 0.899962 0.494362
0.378347 0.898695 0.459281
0.373602 0.896941 0.410407
0.373053 0.896635 0.403769
0.567864 0.926177 0.443198
0.853895 0.91043 0.456794
0.937636 0.936675 0.526909
0.937667 0.936706 0.534691
0.937652 0.93669 0.533593
0.406348 0.905379 0.54226
0.382269 0.90013 0.498619
0.377432 0.896941 0.437812
0.373831 0.895872 0.403342
0.519203 0.914885 0.432654
0.81445 0.909117 0.440162
0.937804 0.934524 0.520806
0.937667 0.936706 0.535622
0.937667 0.93669 0.53434
0.406577 0.906996 0.557656
0.383139 0.901427 0.514763
0.384146 0.89781 0.45713
0.373831 0.895872 0.403342
0.508782 0.913344 0.429313
0.805707 0.909133 0.43714
0.937667 0.933837 0.519173
0.937667 0.936706 0.535454
0.937667 0.936706 0.534371
0.0674144 0.0918593 0.171969
0.10396 0.091371 0.182925
0.216617 0.0900587 0.210056
0.446113 0.0861982 0.241001
0.62359 0.101808 0.294194
0.671916 0.136614 0.352087
0.674403 0.136645 0.379934
0.675715 0.137194 0.394476
0.675196 0.137255 0.398795
0.0671855 0.101808 0.151324
0.0708019 0.0941787 0.16434
0.196063 0.0903792 0.187762
0.429419 0.0865339 0.207706
0.617121 0.101122 0.26479
0.66952 0.136477 0.334508
0.672557 0.136553 0.358389
0.673976 0.136461 0.373663
0.674022 0.136599 0.378668
0.0699016 0.204852 0.184634
0.0697337 0.198871 0.17557
0.169512 0.193866 0.162493
0.440513 0.12549 0.153552
0.593179 0.0995956 0.188556
0.66154 0.136248 0.28893
0.666453 0.136294 0.31371
0.668544 0.136355 0.326024
0.669093 0.13637 0.330205
0.0660105 0.457847 0.210117
0.0659648 0.456474 0.183124
0.0658427 0.451225 0.103563
0.35436 0.405524 0.0745098
0.641901 0.263035 0.127703
0.64654 0.147936 0.177249
0.646464 0.142947 0.203983
0.639277 0.136828 0.210864
0.637278 0.13547 0.213184
0.203571 0.726345 0.341314
0.207507 0.723064 0.322377
0.219959 0.712612 0.274052
0.237095 0.708858 0.243946
0.654322 0.681392 0.202564
0.842313 0.685252 0.323903
0.83592 0.560281 0.294972
0.823087 0.517342 0.282826
0.816007 0.497581 0.276081
0.388586 0.899626 0.501442
0.378302 0.899184 0.472526
0.373693 0.897032 0.418311
0.376867 0.893935 0.407416
0.617853 0.926238 0.430961
0.886732 0.890791 0.460121
0.929168 0.897124 0.487648
0.926741 0.891752 0.483421
0.925856 0.888899 0.477501
0.390311 0.903349 0.547707
0.380041 0.901747 0.516762
0.378073 0.898726 0.457572
0.372671 0.896666 0.403433
0.539422 0.921248 0.444495
0.842298 0.909728 0.451392
0.937636 0.936675 0.525734
0.937667 0.936706 0.534646
0.937652 0.93669 0.533501
0.400732 0.90779 0.589731
0.380102 0.90312 0.552041
0.380209 0.899901 0.495308
0.373831 0.895872 0.403342
0.480171 0.90866 0.429557
0.799191 0.909361 0.43508
0.937667 0.933867 0.519295
0.937667 0.936706 0.535668
0.937667 0.936706 0.534371
0.400748 0.908751 0.604303
0.381598 0.903868 0.568475
0.382605 0.901076 0.512566
0.373831 0.895872 0.403342
0.468315 0.907012 0.426047
0.790433 0.909636 0.432563
0.937682 0.932937 0.51725
0.937667 0.936706 0.535454
0.937667 0.936706 0.534295
0.0696727 0.0943465 0.324895
0.107042 0.0921645 0.340627
0.210651 0.0914015 0.360876
0.41445 0.087068 0.404242
0.624811 0.102831 0.426932
0.677546 0.139406 0.448844
0.677577 0.140826 0.468528
0.677211 0.141421 0.478279
0.676097 0.141695 0.479759
0.0659037 0.0993057 0.296513
0.0688487 0.0942397 0.313756
0.181567 0.0917983 0.347951
0.402487 0.0871138 0.390005
0.62327 0.100801 0.409842
0.677272 0.13846 0.435172
0.677562 0.139864 0.455161
0.677791 0.140566 0.465171
0.676982 0.140673 0.466606
0.0658274 0.185122 0.305837
0.0659495 0.173175 0.307851
0.118364 0.140459 0.339452
0.386282 0.0946365 0.362799
0.616251 0.0970016 0.359304
0.676265 0.137179 0.394278
0.677363 0.138048 0.417899
0.677455 0.138155 0.429068
0.677195 0.138155 0.432471
0.0689097 0.404929 0.361151
0.0677195 0.400778 0.352697
0.0666972 0.390097 0.332753
0.353872 0.385519 0.314885
0.697307 0.269978 0.297505
0.683436 0.152422 0.320882
0.667185 0.137011 0.310048
0.667155 0.136568 0.313497
0.667399 0.136477 0.316289
0.16257 0.703487 0.452338
0.161212 0.702876 0.436255
0.159945 0.700267 0.392691
0.185306 0.683207 0.248203
0.632853 0.663539 0.191211
0.839384 0.594003 0.300099
0.819013 0.46949 0.285634
0.796384 0.420218 0.272206
0.78468 0.39733 0.265049
0.376089 0.896757 0.60795
0.372229 0.896559 0.590433
0.372198 0.895506 0.548562
0.370474 0.889036 0.421347
0.555718 0.918761 0.435584
0.876661 0.882399 0.449454
0.924285 0.886183 0.478996
0.920974 0.878508 0.473106
0.920027 0.874769 0.465583
0.38761 0.903899 0.65008
0.380758 0.904158 0.63212
0.38024 0.904234 0.591394
0.377569 0.898314 0.450294
0.452079 0.902937 0.439155
0.808927 0.909606 0.438575
0.937636 0.935866 0.52285
0.937667 0.936706 0.534569
0.937652 0.93669 0.53344
0.395132 0.905135 0.673976
0.381231 0.903441 0.652979
0.380636 0.904387 0.618311
0.380194 0.899596 0.487053
0.402609 0.897841 0.414267
0.763668 0.911757 0.426459
0.937667 0.931624 0.515236
0.937667 0.936706 0.535714
0.937667 0.93669 0.534447
0.395315 0.904448 0.68307
0.382361 0.903166 0.66389
0.380789 0.904219 0.630579
0.380407 0.900298 0.502129
0.395407 0.897047 0.411933
0.752422 0.912413 0.424552
0.937682 0.930739 0.512917
0.937667 0.936706 0.535424
0.937667 0.936706 0.534371
0.0794385 0.10222 0.5019
0.115908 0.0983597 0.515541
0.210636 0.0953841 0.538186
0.393057 0.0935683 0.570642
0.571847 0.11075 0.568429
0.65922 0.147753 0.578759
0.654795 0.150057 0.593469
0.653849 0.150958 0.601022
0.651881 0.151751 0.600015
0.0660258 0.105333 0.481941
0.0787213 0.101991 0.496834
0.179446 0.0954757 0.528222
0.378134 0.093492 0.566369
0.569757 0.108736 0.565332
0.661158 0.147097 0.571191
0.65626 0.148928 0.585611
0.65536 0.149844 0.593088
0.65388 0.150317 0.592844
0.0659648 0.136156 0.468193
0.0658732 0.121782 0.46569
0.0801709 0.100786 0.4869
0.328023 0.0932631 0.549355
0.563912 0.103731 0.555535
0.666239 0.145235 0.54995
0.662562 0.146746 0.564981
0.660945 0.147204 0.572259
0.660105 0.147265 0.573281
0.0758068 0.37966 0.544091
0.0743267 0.372625 0.543008
0.0731975 0.349493 0.546197
0.25594 0.290806 0.582528
0.620005 0.162997 0.584054
0.676875 0.141741 0.491707
0.676188 0.142107 0.49807
0.67538 0.142626 0.505501
0.674632 0.142565 0.507027
0.152544 0.639368 0.60029
0.148669 0.637583 0.593439
0.14284 0.632181 0.583642
0.128099 0.618311 0.553918
0.592248 0.612116 0.531228
0.920867 0.540719 0.546242
0.930632 0.46566 0.540719
0.919936 0.426566 0.536049
0.912703 0.408759 0.532616
0.360494 0.869734 0.725261
0.35874 0.870466 0.717769
0.355413 0.870207 0.702144
0.348394 0.870878 0.653483
0.416266 0.892882 0.485527
0.868696 0.884077 0.453803
0.933425 0.86154 0.470237
0.931807 0.844633 0.461295
0.930953 0.836469 0.456626
0.394888 0.893538 0.764385
0.388663 0.895766 0.756298
0.387106 0.897597 0.740749
0.383459 0.901595 0.691676
0.383108 0.89749 0.446891
0.726375 0.916442 0.422889
0.937682 0.933364 0.51873
0.937667 0.936706 0.534813
0.937652 0.93669 0.528954
0.400732 0.89221 0.772381
0.389487 0.894713 0.764752
0.38793 0.89662 0.749554
0.384268 0.900816 0.702708
0.379187 0.898375 0.462715
0.672312 0.922545 0.424414
0.936645 0.927123 0.506874
0.937667 0.936706 0.53579
0.937667 0.936706 0.5346
0.401495 0.891218 0.778119
0.390082 0.893919 0.770977
0.38854 0.895903 0.755703
0.384787 0.900298 0.709575
0.379675 0.899046 0.47361
0.658595 0.922042 0.423896
0.9299 0.925414 0.502342
0.937667 0.936706 0.533822
0.937667 0.936706 0.534401
0.101884 0.140124 0.585214
0.132937 0.134417 0.598825
0.212314 0.120317 0.622919
0.367407 0.122621 0.65655
0.523857 0.131746 0.645274
0.638972 0.157961 0.665873
0.634516 0.160204 0.670573
0.636133 0.160189 0.674281
0.634073 0.160983 0.673365
0.0806744 0.142824 0.574472
0.100206 0.138064 0.583398
0.181476 0.123217 0.613596
0.352041 0.121706 0.654673
0.518898 0.130373 0.64448
0.639445 0.157702 0.664591
0.634974 0.159823 0.66894
0.634791 0.160296 0.671748
0.632868 0.161044 0.670481
0.0812695 0.165621 0.583703
0.0783093 0.150286 0.576242
0.0968338 0.133837 0.579797
0.305592 0.118624 0.64596
0.504631 0.126757 0.642786
0.640787 0.156924 0.659663
0.639048 0.158129 0.666468
0.637736 0.158724 0.668254
0.636637 0.158877 0.667582
0.113741 0.333089 0.650263
0.111849 0.321431 0.646998
0.106661 0.286198 0.63679
0.166384 0.206332 0.65182
0.46865 0.125307 0.651484
0.638895 0.15346 0.640513
0.644327 0.155596 0.648783
0.643412 0.155871 0.651469
0.642695 0.155978 0.651072
0.197635 0.59585 0.714549
0.195682 0.59321 0.712535
0.192981 0.585138 0.712047
0.185702 0.560082 0.710826
0.506935 0.528008 0.796567
0.841627 0.391897 0.797879
0.814755 0.312215 0.741039
0.781125 0.283162 0.714366
0.7664 0.270222 0.701701
0.345464 0.822995 0.805341
0.343175 0.822583 0.801175
0.339529 0.819486 0.795163
0.330663 0.811887 0.780682
0.338842 0.821897 0.76614
0.802228 0.817243 0.745235
0.937621 0.775296 0.762295
0.937591 0.75552 0.756649
0.937652 0.746685 0.752926
0.403311 0.879469 0.853147
0.39617 0.882155 0.851102
0.39585 0.882918 0.846479
0.395102 0.885008 0.833127
0.391089 0.892515 0.78172
0.652232 0.936828 0.663859
0.936156 0.93492 0.724559
0.937728 0.931563 0.760143
0.937758 0.931029 0.749493
0.408072 0.877333 0.85658
0.396384 0.881483 0.855283
0.396017 0.882338 0.850278
0.3953 0.884489 0.836408
0.391333 0.892103 0.78436
0.496849 0.936751 0.596902
0.93048 0.936706 0.560021
0.937789 0.936828 0.693843
0.937804 0.936843 0.700664
0.415564 0.875395 0.856413
0.396475 0.881025 0.858122
0.39617 0.881819 0.853635
0.395499 0.88397 0.83978
0.391684 0.89163 0.787457
0.470436 0.936782 0.593683
0.918364 0.936782 0.539773
0.937697 0.936736 0.647196
0.937774 0.936812 0.688701
0.118959 0.182116 0.612345
0.146883 0.179461 0.626978
0.217288 0.166155 0.653803
0.371725 0.15108 0.684901
0.534691 0.148669 0.676814
0.637186 0.160769 0.682383
0.63714 0.1608 0.682338
0.636713 0.161028 0.682139
0.635172 0.161563 0.680415
0.102739 0.183856 0.602762
0.117983 0.182208 0.611627
0.187137 0.173175 0.644343
0.355016 0.151553 0.68307
0.528313 0.148714 0.677653
0.637217 0.160769 0.682414
0.637095 0.16083 0.682338
0.634989 0.161654 0.680262
0.633661 0.162112 0.678645
0.102495 0.190723 0.604395
0.100633 0.185534 0.601312
0.11516 0.182483 0.610208
0.306325 0.152895 0.674525
0.508782 0.149157 0.680537
0.637232 0.160769 0.682521
0.6374 0.160769 0.682902
0.636774 0.161013 0.682185
0.636072 0.161196 0.681102
0.135134 0.292576 0.658686
0.131014 0.279103 0.652171
0.119951 0.243626 0.634134
0.128313 0.181765 0.617441
0.447929 0.149737 0.686397
0.626673 0.158679 0.680049
0.637537 0.160784 0.683207
0.637522 0.160769 0.683207
0.637217 0.160784 0.682399
0.227283 0.585 0.760937
0.225544 0.580728 0.759686
0.222019 0.569207 0.757717
0.211933 0.535241 0.751247
0.414206 0.493355 0.87303
0.744915 0.338094 0.849836
0.705699 0.255573 0.74139
0.683665 0.227741 0.719783
0.675196 0.215671 0.710979
0.338079 0.797253 0.839734
0.336461 0.795758 0.838163
0.332723 0.790112 0.835737
0.325734 0.778164 0.831373
0.313069 0.755032 0.82504
0.74992 0.766522 0.892409
0.922515 0.678401 0.911162
0.923095 0.651484 0.911345
0.921477 0.639887 0.909102
0.397604 0.876554 0.885435
0.396475 0.877455 0.883757
0.396445 0.877577 0.882918
0.395804 0.877012 0.88011
0.393713 0.874891 0.872084
0.601236 0.936843 0.914626
0.905211 0.912825 0.889418
0.934722 0.904814 0.897612
0.932815 0.900603 0.893095
0.410101 0.872847 0.883299
0.396475 0.877089 0.885405
0.396429 0.877363 0.884596
0.396475 0.877699 0.882017
0.39678 0.878874 0.872557
0.435981 0.896773 0.858335
0.883833 0.935164 0.874495
0.934752 0.928908 0.923751
0.935317 0.929183 0.928222
0.409308 0.873487 0.883391
0.396521 0.876997 0.88629
0.396338 0.877104 0.885451
0.396445 0.877562 0.883009
0.396765 0.878828 0.872908
0.407523 0.886137 0.846555
0.870054 0.936751 0.869001
0.931029 0.929244 0.905623
0.933425 0.929946 0.923568
0.134813 0.180591 0.620798
0.165209 0.177188 0.635615
0.231678 0.161975 0.657313
0.378958 0.150805 0.68542
0.539742 0.148486 0.676036
0.637201 0.160769 0.682383
0.637217 0.160769 0.682414
0.63714 0.160784 0.682368
0.637156 0.160784 0.682322
0.109392 0.182849 0.606836
0.133425 0.180804 0.620096
0.204166 0.169436 0.650248
0.362692 0.151354 0.684016
0.532876 0.148608 0.676982
0.637201 0.160769 0.682399
0.637232 0.160769 0.68246
0.637003 0.160861 0.682185
0.63566 0.161334 0.680781
0.101122 0.186603 0.602014
0.100923 0.186023 0.601678
0.129183 0.181231 0.617884
0.314611 0.152529 0.676219
0.512871 0.149264 0.680171
0.637156 0.160769 0.682353
0.637324 0.160769 0.682704
0.637293 0.160769 0.682658
0.636408 0.161074 0.681361
0.135317 0.285008 0.65771
0.130556 0.271305 0.65037
0.118059 0.235431 0.630457
0.140124 0.18027 0.623529
0.450492 0.14963 0.686168
0.627619 0.158892 0.680064
0.6374 0.160784 0.682857
0.637385 0.160784 0.682857
0.637201 0.160784 0.682353
0.230976 0.577081 0.770214
0.228061 0.57116 0.767391
0.222492 0.556405 0.762493
0.206973 0.513664 0.748135
0.389136 0.452689 0.860868
0.704265 0.300237 0.814923
0.673198 0.213565 0.712749
0.656474 0.184787 0.697307
0.650843 0.175219 0.692149
0.343648 0.803998 0.85214
0.342336 0.802258 0.850935
0.338796 0.796887 0.848753
0.33167 0.784695 0.8439
0.313466 0.752209 0.831342
0.711269 0.748394 0.909163
0.905531 0.635904 0.929824
0.907118 0.604562 0.932219
0.904005 0.592462 0.930068
0.396902 0.87628 0.887938
0.396078 0.876524 0.887037
0.395514 0.875853 0.886671
0.394491 0.874311 0.886076
0.389944 0.868559 0.883101
0.507027 0.914717 0.936812
0.893996 0.901122 0.922179
0.929412 0.891539 0.928344
0.928695 0.886397 0.927764
0.397742 0.876005 0.888869
0.396445 0.876982 0.887282
0.396399 0.877028 0.887236
0.396399 0.877028 0.887236
0.396597 0.87689 0.887449
0.397833 0.877043 0.887068
0.875319 0.929625 0.928222
0.932311 0.92929 0.931228
0.937331 0.927672 0.934386
0.397574 0.876143 0.888655
0.39646 0.876982 0.887297
0.396399 0.877028 0.887236
0.396399 0.877028 0.887236
0.396567 0.876905 0.887419
0.397681 0.87715 0.885863
0.850538 0.932006 0.9281
0.931365 0.930022 0.930495
0.935866 0.929107 0.934844
0.143343 0.179767 0.625071
0.172915 0.175967 0.639048
0.238712 0.15967 0.658473
0.381826 0.150713 0.685618
0.541497 0.148348 0.6757
0.637201 0.160769 0.682399
0.637217 0.160769 0.682414
0.637217 0.160769 0.682429
0.63714 0.160769 0.682231
0.115129 0.18233 0.610224
0.141772 0.179873 0.624445
0.211688 0.167666 0.652522
0.365667 0.151263 0.684337
0.534798 0.148653 0.676783
0.637232 0.160769 0.68246
0.637217 0.160769 0.682445
0.637201 0.160769 0.682399
0.637049 0.160769 0.681987
0.10135 0.187106 0.602365
0.101183 0.185595 0.601724
0.137057 0.180331 0.621897
0.318151 0.152529 0.677073
0.514626 0.149233 0.679927
0.63711 0.160754 0.682338
0.637324 0.160769 0.682704
0.637293 0.160769 0.682658
0.637125 0.160769 0.682185
0.133928 0.280735 0.655573
0.129305 0.267063 0.648219
0.116732 0.23093 0.628
0.1458 0.179644 0.6262
0.451865 0.149554 0.686046
0.628046 0.158984 0.68014
0.6374 0.160784 0.682872
0.6374 0.160784 0.682857
0.637201 0.160784 0.682353
0.227024 0.567224 0.766659
0.224384 0.56141 0.764416
0.218311 0.545617 0.758816
0.20264 0.500954 0.743923
0.379553 0.431327 0.852888
0.683757 0.280949 0.794812
0.660197 0.191348 0.700542
0.646128 0.167773 0.688746
0.639735 0.161364 0.68394
0.341939 0.801022 0.851118
0.339864 0.798535 0.849592
0.336645 0.793194 0.847349
0.328557 0.779156 0.84184
0.308522 0.743664 0.827985
0.702953 0.733989 0.90927
0.901717 0.620035 0.929763
0.903853 0.586191 0.93048
0.901503 0.572564 0.929427
0.39675 0.876402 0.887739
0.396078 0.876524 0.887037
0.395514 0.875868 0.886671
0.39443 0.874235 0.886046
0.389105 0.86772 0.882475
0.488838 0.907546 0.93138
0.886488 0.896574 0.923583
0.924773 0.884245 0.927794
0.92401 0.877745 0.927611
0.396994 0.876585 0.887938
0.396445 0.876982 0.887282
0.396399 0.877028 0.887236
0.396399 0.877028 0.887236
0.396399 0.877028 0.887236
0.396399 0.877028 0.887236
0.852735 0.928862 0.93402
0.930922 0.928222 0.932235
0.933669 0.927932 0.933425
0.396887 0.876677 0.887816
0.39646 0.876982 0.887297
0.396399 0.877028 0.887236
0.396399 0.877028 0.887236
0.396399 0.877028 0.887236
0.396399 0.877028 0.887236
0.786679 0.935088 0.937758
0.931731 0.930556 0.932204
0.933288 0.930129 0.933059
