bundles/resolve-cinematic-luts/Phantom Luts/Canon Alexa LUT/ATOMOS Monitoring LUTs/C-Log 2/Jamaica Canon CL2-Legacy AML.cube
TITLE "Generated by Resolve"
LUT_3D_SIZE 5
0.0853132 0.0984207 0.0853285
0.19324 0.0986954 0.0937209
0.595972 0.108537 0.181399
0.666133 0.14464 0.29044
0.669001 0.144717 0.30544
0.074403 0.205432 0.0899367
0.15758 0.180392 0.0847028
0.570169 0.108782 0.119707
0.642405 0.14258 0.221027
0.651682 0.144213 0.242603
0.216526 0.704768 0.258488
0.216007 0.697749 0.243687
0.631296 0.660517 0.18349
0.842512 0.575296 0.30222
0.824491 0.516106 0.28333
0.404227 0.900099 0.467887
0.386389 0.898512 0.417533
0.556008 0.927413 0.449317
0.937667 0.935668 0.524147
0.937636 0.936675 0.526986
0.419791 0.907362 0.521889
0.3944 0.898756 0.439734
0.506859 0.915022 0.435508
0.937682 0.933104 0.520241
0.937636 0.936675 0.528359
0.0839246 0.0999924 0.152865
0.187304 0.098497 0.180163
0.613169 0.105699 0.256168
0.676005 0.143557 0.348272
0.67892 0.144305 0.367376
0.0856031 0.175708 0.160906
0.15111 0.167285 0.145327
0.57763 0.105638 0.164462
0.663996 0.144793 0.282887
0.667643 0.144594 0.298787
0.180606 0.696559 0.292348
0.192706 0.684703 0.240604
0.616999 0.647593 0.171878
0.827817 0.524239 0.287282
0.804196 0.459693 0.268757
0.400763 0.905394 0.530083
0.389487 0.900328 0.454612
0.520317 0.920119 0.449699
0.937774 0.935286 0.52311
0.937636 0.936675 0.526955
0.409567 0.912123 0.583291
0.393103 0.902754 0.498039
0.458671 0.907164 0.431586
0.937682 0.931777 0.518074
0.937652 0.93669 0.528161
0.0870527 0.10631 0.471412
0.183291 0.101686 0.503624
0.571328 0.10988 0.563119
0.664042 0.155444 0.575372
0.661051 0.156786 0.58291
0.0752575 0.128344 0.429496
0.0870222 0.105226 0.453391
0.559121 0.104524 0.544869
0.672679 0.152743 0.544289
0.670039 0.153445 0.553384
0.132677 0.607065 0.563226
0.125093 0.599191 0.545617
0.554635 0.57319 0.490745
0.912474 0.427558 0.49865
0.8851 0.372045 0.48658
0.399649 0.899367 0.750088
0.393164 0.902617 0.724834
0.392981 0.89955 0.447318
0.937682 0.932128 0.519417
0.937636 0.935912 0.524758
0.404822 0.897826 0.764462
0.394629 0.900999 0.740856
0.390753 0.900587 0.469917
0.932586 0.925109 0.5037
0.937652 0.936675 0.528176
0.115969 0.16321 0.601892
0.189151 0.152819 0.634302
0.512337 0.153887 0.683955
0.634363 0.16997 0.685817
0.632532 0.170718 0.683864
0.102708 0.16907 0.596811
0.112978 0.163561 0.600259
0.484489 0.15259 0.686336
0.634562 0.169955 0.68629
0.63331 0.170382 0.684581
0.216098 0.549264 0.751446
0.211704 0.533272 0.748684
0.376654 0.452003 0.855161
0.686656 0.236545 0.725536
0.665431 0.207187 0.704479
0.410376 0.878645 0.890303
0.409033 0.879515 0.887602
0.407233 0.880674 0.876387
0.909667 0.919326 0.89012
0.937163 0.904982 0.894011
0.422217 0.874998 0.885283
0.409369 0.879316 0.889357
0.407691 0.881193 0.874983
0.864317 0.936721 0.861479
0.933333 0.930022 0.927245
0.132723 0.161883 0.610986
0.207996 0.149279 0.640223
0.519814 0.154131 0.683101
0.634424 0.16994 0.685893
0.634409 0.16994 0.685832
0.101518 0.166033 0.594965
0.128527 0.162341 0.608759
0.490791 0.152956 0.685985
0.634501 0.169955 0.686076
0.634394 0.16994 0.68574
0.22005 0.531029 0.760098
0.211749 0.50837 0.752102
0.342061 0.388464 0.825833
0.656077 0.192584 0.701411
0.638575 0.172442 0.688563
0.407874 0.878721 0.889876
0.407523 0.879042 0.889296
0.403586 0.874281 0.886809
0.887007 0.899641 0.927337
0.930022 0.875822 0.933135
0.408103 0.878553 0.890196
0.407523 0.879042 0.889296
0.407523 0.879042 0.889296
0.771496 0.936706 0.937667
0.934142 0.929763 0.933791
