bundles/resolve-cinematic-luts/Phantom Luts/Canon Alexa LUT/ATOMOS Monitoring LUTs/C-Log 2/Jamaica Canon CL2-Legacy AML.cube
TITLE "Generated by Resolve"
LUT_3D_SIZE 33
0.0853132 0.0984207 0.0853285
0.0865034 0.0982834 0.0852979
0.0898604 0.0983597 0.0858015
0.0962997 0.0984665 0.0867475
0.106462 0.098436 0.0876478
0.121752 0.0986648 0.0889754
0.140703 0.0985885 0.0900587
0.16379 0.0986954 0.0915999
0.19324 0.0986954 0.0937209
0.230335 0.0984512 0.0964218
0.273487 0.0982834 0.100923
0.327916 0.0981918 0.107012
0.387732 0.0982681 0.115541
0.448524 0.0984512 0.126284
0.507378 0.0996872 0.140887
0.557427 0.10248 0.158267
0.595972 0.108537 0.181399
0.621164 0.119142 0.20795
0.641016 0.134661 0.236683
0.656901 0.14406 0.259205
0.659678 0.144427 0.267018
0.661723 0.14464 0.274098
0.663386 0.144625 0.280278
0.664942 0.144671 0.285863
0.666133 0.14464 0.29044
0.666972 0.144625 0.29398
0.667582 0.144594 0.297108
0.66807 0.144564 0.299687
0.668589 0.144594 0.301717
0.668971 0.144625 0.303349
0.669169 0.14461 0.304509
0.669306 0.14461 0.305333
0.669001 0.144717 0.30544
0.0852674 0.0993057 0.0856184
0.085771 0.0988327 0.0852216
0.0877546 0.0987259 0.0854658
0.0923171 0.0988937 0.0860609
0.100954 0.0986954 0.0865797
0.115801 0.0987106 0.0876173
0.134081 0.0987411 0.0886854
0.157748 0.0989548 0.0900893
0.186999 0.0989242 0.0912642
0.223896 0.0987869 0.0936141
0.267308 0.0984665 0.0971542
0.322744 0.0982986 0.102464
0.383688 0.0983139 0.110307
0.445304 0.0986191 0.120897
0.504585 0.0997635 0.135805
0.555123 0.102739 0.153399
0.594018 0.108659 0.176303
0.619272 0.11902 0.202976
0.639506 0.134524 0.232319
0.655909 0.144137 0.255787
0.658457 0.14435 0.263294
0.660685 0.144549 0.270542
0.66244 0.144594 0.276844
0.663935 0.144625 0.282139
0.665263 0.144686 0.287068
0.666209 0.14464 0.29073
0.666911 0.14461 0.293767
0.66743 0.144594 0.296284
0.667765 0.14461 0.298192
0.668101 0.144579 0.299886
0.668391 0.144579 0.301228
0.668559 0.14461 0.3019
0.668589 0.144625 0.30222
0.0852827 0.102098 0.0862593
0.0859388 0.101564 0.0853437
0.0881361 0.100954 0.0855726
0.0914931 0.100938 0.0860609
0.0989395 0.0999924 0.0859083
0.1122 0.0993668 0.0869917
0.12958 0.0991531 0.0880293
0.153414 0.0989853 0.0889754
0.181674 0.0988632 0.0899825
0.216663 0.0990311 0.0916304
0.260105 0.0987869 0.0942702
0.315099 0.0984512 0.0985885
0.377035 0.0983139 0.105333
0.440726 0.0985275 0.115526
0.50074 0.0997635 0.130297
0.552224 0.102724 0.147799
0.591348 0.108492 0.171038
0.617533 0.118868 0.198108
0.637781 0.134081 0.227909
0.654749 0.144106 0.252293
0.657176 0.144244 0.259342
0.659556 0.144442 0.266636
0.661387 0.14461 0.273243
0.662989 0.144594 0.278874
0.664271 0.144656 0.28333
0.6654 0.144717 0.287373
0.666178 0.14464 0.290593
0.666728 0.144625 0.29305
0.667216 0.14461 0.295064
0.667475 0.14461 0.296544
0.667628 0.14461 0.297642
0.667704 0.14461 0.298344
0.66772 0.14461 0.29865
0.0848707 0.106477 0.0869459
0.0850233 0.105852 0.0851759
0.0869612 0.104616 0.0851759
0.0909743 0.103914 0.085771
0.0981155 0.104311 0.0867628
0.111101 0.102632 0.0869917
0.129274 0.100923 0.086305
0.152865 0.0998245 0.0877089
0.176623 0.0993973 0.0889448
0.210636 0.0989395 0.0898909
0.253895 0.0987716 0.0912795
0.306661 0.0988327 0.0953231
0.367254 0.0982528 0.100008
0.430701 0.098436 0.109636
0.494118 0.0995651 0.122667
0.547875 0.102495 0.141451
0.588159 0.108324 0.16408
0.614404 0.118379 0.191196
0.634958 0.133318 0.221607
0.652964 0.143877 0.247272
0.655512 0.144152 0.25449
0.657893 0.144289 0.26157
0.660044 0.144518 0.268009
0.661677 0.14464 0.273945
0.66302 0.144579 0.279057
0.664134 0.144656 0.282811
0.66508 0.144686 0.286351
0.665782 0.144671 0.288899
0.666255 0.144625 0.291066
0.666575 0.14464 0.292393
0.666804 0.14461 0.293584
0.666941 0.144594 0.294453
0.666987 0.14461 0.294774
0.0840009 0.114809 0.0876936
0.0838483 0.114015 0.0852827
0.0859236 0.112352 0.0851911
0.0890364 0.110842 0.0852522
0.0967422 0.10959 0.0861372
0.10956 0.110063 0.0872053
0.126101 0.10811 0.0879072
0.149508 0.10399 0.0871138
0.17763 0.101686 0.0861524
0.21236 0.0999466 0.0875715
0.249653 0.0991073 0.0895399
0.300542 0.0986343 0.0920577
0.358984 0.0984817 0.0952316
0.419989 0.0992905 0.103944
0.482673 0.0994736 0.115236
0.539361 0.101839 0.132815
0.582467 0.107561 0.154925
0.610407 0.117632 0.1823
0.631724 0.132799 0.213443
0.650965 0.143755 0.241688
0.653437 0.14406 0.248386
0.655818 0.144152 0.255482
0.658 0.144305 0.261921
0.659953 0.144503 0.26772
0.661372 0.14461 0.273182
0.662516 0.144594 0.277119
0.663462 0.14461 0.280461
0.664256 0.14464 0.283268
0.664851 0.144686 0.285512
0.665278 0.144701 0.287175
0.665568 0.144717 0.288243
0.665721 0.144686 0.289189
0.665751 0.144671 0.289586
0.0830854 0.128069 0.0885176
0.0828107 0.127306 0.0855726
0.0833753 0.12607 0.0842145
0.0866865 0.123552 0.0849012
0.0916915 0.121859 0.0853132
0.106493 0.119722 0.0867018
0.125338 0.119921 0.0873579
0.147631 0.117815 0.0886397
0.175174 0.110811 0.0885939
0.209628 0.104585 0.0859083
0.254353 0.100816 0.0843214
0.303487 0.0993515 0.0888533
0.354437 0.0987259 0.0928359
0.416205 0.0986954 0.0985428
0.475074 0.0996262 0.107927
0.528664 0.101534 0.122347
0.574792 0.106645 0.144671
0.604608 0.116152 0.17145
0.626062 0.1308 0.202213
0.647852 0.143648 0.233417
0.650858 0.143954 0.240818
0.653086 0.14406 0.247364
0.655253 0.144167 0.253742
0.657252 0.144259 0.259693
0.65893 0.144366 0.264942
0.660319 0.144518 0.269108
0.66128 0.144625 0.272938
0.662135 0.14461 0.275807
0.66273 0.14461 0.277989
0.663157 0.14461 0.279652
0.663554 0.144625 0.280964
0.663767 0.144625 0.281987
0.663844 0.14464 0.282445
0.0810712 0.147127 0.0892653
0.080705 0.146365 0.0862135
0.0805524 0.144991 0.0836194
0.0837568 0.142519 0.0840009
0.0881514 0.139879 0.0847334
0.0964675 0.138064 0.0847334
0.120165 0.134508 0.0868544
0.145403 0.133959 0.0873121
0.173709 0.132067 0.0887312
0.208286 0.121599 0.0893111
0.25359 0.10898 0.0862898
0.304479 0.102739 0.0830396
0.36788 0.0995804 0.085893
0.419699 0.099382 0.093843
0.471962 0.0994583 0.102541
0.523079 0.101564 0.115297
0.5635 0.10518 0.131426
0.596765 0.114168 0.157336
0.61941 0.128084 0.188968
0.640604 0.141726 0.218433
0.646265 0.143374 0.22974
0.649668 0.143999 0.237522
0.65185 0.144045 0.243412
0.653651 0.144198 0.248844
0.655421 0.144244 0.254078
0.656886 0.144335 0.258503
0.658137 0.144411 0.262211
0.659098 0.144472 0.265263
0.659907 0.144518 0.267552
0.660487 0.144579 0.269657
0.660899 0.14464 0.271519
0.661173 0.144686 0.272587
0.661295 0.144717 0.27303
0.077821 0.172305 0.0897078
0.0776226 0.171572 0.0868086
0.0773785 0.17052 0.0836805
0.0786603 0.168505 0.0822309
0.0831311 0.165469 0.0827497
0.0901808 0.163088 0.0832074
0.102968 0.160983 0.0834516
0.137591 0.155077 0.0863661
0.168704 0.153674 0.0866255
0.20528 0.153338 0.0879072
0.250767 0.13695 0.0889296
0.310033 0.114168 0.0860914
0.367453 0.106325 0.0823529
0.430503 0.100633 0.0825666
0.487114 0.10071 0.094377
0.525734 0.101915 0.109239
0.561242 0.105547 0.126406
0.588571 0.111742 0.145846
0.610361 0.124575 0.171283
0.632425 0.139574 0.202228
0.637369 0.141176 0.210941
0.641947 0.142321 0.220554
0.646433 0.143557 0.230015
0.649317 0.144076 0.2365
0.651072 0.144106 0.241169
0.652445 0.144121 0.245045
0.65359 0.144305 0.248585
0.654643 0.144335 0.251728
0.655436 0.14435 0.253864
0.656138 0.144366 0.25597
0.656687 0.144396 0.257664
0.657023 0.144442 0.258717
0.657206 0.144472 0.25919
0.074403 0.205432 0.0899367
0.0740063 0.204349 0.0869459
0.0738079 0.203326 0.0838483
0.073579 0.202075 0.0819257
0.0764477 0.19913 0.0805829
0.082475 0.195575 0.0810712
0.0927443 0.193103 0.0812085
0.111406 0.189807 0.081651
0.15758 0.180392 0.0847028
0.198306 0.177508 0.0845655
0.244495 0.180972 0.0854353
0.307652 0.155703 0.0883803
0.371862 0.126223 0.0865187
0.434943 0.111299 0.0828412
0.489219 0.104906 0.0821698
0.539773 0.104463 0.0965744
0.570169 0.108782 0.119707
0.587549 0.112581 0.141711
0.604486 0.121065 0.162066
0.624567 0.136645 0.188754
0.627512 0.13817 0.192874
0.631754 0.139498 0.200412
0.635843 0.140841 0.207919
0.639094 0.141604 0.214282
0.642405 0.14258 0.221027
0.645701 0.143481 0.227451
0.647807 0.144015 0.232227
0.649027 0.144167 0.235157
0.649912 0.144167 0.237644
0.65066 0.144198 0.239429
0.651194 0.144183 0.241016
0.65153 0.144198 0.242084
0.651682 0.144213 0.242603
0.0741894 0.247883 0.090547
0.0737774 0.246738 0.0875715
0.0733501 0.245548 0.0840772
0.0730449 0.244038 0.083238
0.0734417 0.241718 0.0833448
0.0751659 0.237827 0.0829023
0.0818799 0.233829 0.0823987
0.0961776 0.231937 0.0817426
0.122759 0.226993 0.0792248
0.184817 0.214115 0.0830549
0.237613 0.209903 0.0864118
0.294652 0.21323 0.0870832
0.371038 0.181903 0.0887617
0.4365 0.146181 0.0883803
0.498405 0.120439 0.0859083
0.539193 0.112856 0.0882582
0.567025 0.111452 0.0998856
0.591272 0.12105 0.133242
0.605814 0.127092 0.158389
0.618143 0.132738 0.179934
0.626596 0.138323 0.190295
0.626749 0.138262 0.190799
0.626322 0.138033 0.190234
0.627222 0.138216 0.192065
0.629984 0.139086 0.196948
0.632593 0.139849 0.201984
0.634897 0.140566 0.206104
0.63682 0.141176 0.209659
0.638239 0.141466 0.212314
0.639261 0.141711 0.214649
0.64007 0.141955 0.216526
0.640665 0.142153 0.217517
0.641093 0.142321 0.218311
0.0730907 0.300389 0.0928969
0.0726635 0.300023 0.0897078
0.0721599 0.298482 0.0862287
0.0719921 0.296727 0.0842451
0.0717479 0.294514 0.0848707
0.0719615 0.291203 0.0848707
0.0736706 0.286397 0.0842756
0.0828565 0.28217 0.0835889
0.102205 0.281178 0.082475
0.139452 0.272847 0.0799725
0.220478 0.25655 0.084184
0.287251 0.252049 0.0875105
0.356023 0.256626 0.0887922
0.436973 0.222843 0.0903029
0.501534 0.178149 0.0932021
0.550256 0.136797 0.0946059
0.575814 0.12723 0.10132
0.583474 0.126482 0.111299
0.605524 0.136599 0.145968
0.628748 0.14583 0.176944
0.633417 0.145449 0.192615
0.626474 0.138994 0.188785
0.626535 0.138689 0.18938
0.626566 0.138598 0.18967
0.626703 0.138552 0.190112
0.626856 0.138506 0.190555
0.627039 0.138506 0.190997
0.627207 0.138537 0.191363
0.627329 0.138537 0.191684
0.627207 0.138445 0.191546
0.626993 0.138354 0.191196
0.626947 0.138338 0.19115
0.627161 0.13843 0.191562
0.0737621 0.367346 0.0982223
0.0731518 0.366995 0.095079
0.0725261 0.366232 0.0918288
0.0721447 0.365118 0.0876936
0.071809 0.363531 0.0888075
0.0717937 0.362051 0.0889906
0.0717784 0.356939 0.0885939
0.0747845 0.351537 0.0879988
0.0876173 0.346532 0.086656
0.11281 0.3458 0.0847181
0.163531 0.332296 0.0809339
0.267124 0.312093 0.0851911
0.353567 0.308904 0.0896162
0.425635 0.315038 0.092195
0.503929 0.28101 0.0946365
0.565118 0.223651 0.103609
0.59527 0.172732 0.110704
0.603128 0.153658 0.120729
0.604334 0.148623 0.131518
0.619959 0.147295 0.146654
0.64863 0.156832 0.182071
0.646738 0.155062 0.185916
0.643061 0.152453 0.187243
0.639994 0.150515 0.190265
0.637034 0.148211 0.193729
0.631785 0.144106 0.191913
0.62623 0.139254 0.187854
0.626368 0.138949 0.188724
0.626352 0.138903 0.188754
0.626337 0.138888 0.188769
0.626322 0.138872 0.188769
0.626291 0.138857 0.188739
0.626245 0.138857 0.188693
0.0779889 0.440894 0.107836
0.0773327 0.440681 0.104814
0.0767376 0.440406 0.101976
0.0764477 0.439719 0.0983139
0.0764477 0.439002 0.0964675
0.0766155 0.437812 0.0975662
0.076585 0.435813 0.097322
0.0761273 0.428702 0.0963912
0.0813611 0.423667 0.0951705
0.100099 0.418952 0.0925917
0.133181 0.418647 0.0894331
0.20174 0.398917 0.0829786
0.33019 0.37705 0.0871595
0.428367 0.376623 0.0932631
0.496468 0.381735 0.098909
0.568566 0.361517 0.105013
0.625544 0.291066 0.12221
0.643046 0.235477 0.136019
0.632929 0.19237 0.146349
0.635264 0.181415 0.154818
0.64268 0.165896 0.158068
0.641001 0.158907 0.155886
0.642435 0.15639 0.159686
0.645914 0.157198 0.16788
0.647608 0.157504 0.174472
0.647913 0.157107 0.178836
0.647257 0.156191 0.181552
0.646922 0.155612 0.183413
0.646357 0.155032 0.184939
0.645731 0.154421 0.185763
0.644938 0.153918 0.186343
0.644175 0.15349 0.18677
0.643534 0.15314 0.186938
0.0894789 0.514229 0.124834
0.0890516 0.513909 0.121965
0.0886854 0.513375 0.119097
0.0885939 0.51339 0.116564
0.0886397 0.51281 0.112306
0.0885176 0.512154 0.112322
0.0883803 0.511208 0.112383
0.0876478 0.507469 0.111528
0.0861982 0.502159 0.110338
0.0946517 0.498146 0.107607
0.122469 0.495598 0.102937
0.164782 0.494209 0.0973983
0.254704 0.467872 0.0867781
0.401602 0.447395 0.0924544
0.504738 0.447837 0.102815
0.565179 0.452537 0.112703
0.632776 0.453529 0.130297
0.682322 0.382834 0.150866
0.695491 0.316426 0.172152
0.677653 0.253178 0.180117
0.671794 0.220813 0.180102
0.667613 0.206943 0.175784
0.661784 0.197955 0.171481
0.656504 0.190112 0.167559
0.652079 0.183169 0.164172
0.649134 0.178408 0.162173
0.646113 0.173312 0.160113
0.645304 0.169253 0.160876
0.644068 0.166735 0.15993
0.643641 0.164889 0.159503
0.643366 0.163424 0.159289
0.642863 0.161944 0.158816
0.642451 0.161196 0.158541
0.113024 0.581704 0.15317
0.11281 0.581201 0.150561
0.112871 0.581018 0.148104
0.112825 0.580224 0.14551
0.113146 0.579767 0.142672
0.113268 0.578805 0.139864
0.112856 0.577981 0.139605
0.11249 0.57705 0.139116
0.110475 0.572534 0.136584
0.111025 0.569146 0.134325
0.122148 0.566186 0.129244
0.160571 0.57023 0.12221
0.213565 0.568292 0.112261
0.329335 0.537713 0.0963607
0.479011 0.519829 0.105119
0.578897 0.520974 0.123735
0.632609 0.525216 0.140215
0.693538 0.533425 0.169284
0.739254 0.48397 0.196063
0.756954 0.416861 0.222354
0.743435 0.354971 0.225284
0.717418 0.292546 0.212573
0.703212 0.26717 0.202686
0.695659 0.254261 0.197116
0.691157 0.246479 0.193957
0.687633 0.240085 0.19118
0.684138 0.234333 0.188785
0.681437 0.229603 0.186618
0.679423 0.225437 0.184634
0.67776 0.222278 0.182681
0.677104 0.220096 0.182025
0.676356 0.218341 0.180972
0.675181 0.216709 0.179904
0.156039 0.644541 0.198459
0.156512 0.644144 0.196506
0.156558 0.643305 0.194537
0.156786 0.642466 0.192126
0.157015 0.641474 0.189487
0.157931 0.640558 0.186419
0.157794 0.640238 0.185931
0.157397 0.639597 0.185031
0.155871 0.63801 0.183368
0.151263 0.632547 0.178668
0.154391 0.632044 0.175143
0.171481 0.63238 0.164782
0.217899 0.643091 0.155535
0.280598 0.64007 0.138186
0.41445 0.603937 0.114839
0.555428 0.590356 0.13167
0.648966 0.593149 0.163409
0.696895 0.597604 0.187991
0.749828 0.605478 0.224475
0.792584 0.590723 0.256489
0.811521 0.527871 0.269841
0.804227 0.46038 0.269902
0.795254 0.439704 0.264042
0.7879 0.424689 0.259037
0.78024 0.40972 0.25362
0.773053 0.396094 0.248692
0.766888 0.384253 0.244877
0.761425 0.373831 0.241032
0.757153 0.365438 0.238224
0.754086 0.359533 0.236042
0.751125 0.353414 0.233677
0.748592 0.348684 0.231586
0.746624 0.344884 0.230274
0.216526 0.704768 0.258488
0.216953 0.704189 0.256809
0.216968 0.703334 0.254963
0.216938 0.702312 0.252552
0.216876 0.701106 0.250065
0.217685 0.700526 0.247669
0.217578 0.699748 0.246021
0.217227 0.698985 0.244968
0.216007 0.697749 0.243687
0.212696 0.69482 0.240314
0.207965 0.690288 0.235752
0.215824 0.692912 0.231067
0.244755 0.700542 0.217014
0.297047 0.713481 0.204974
0.3691 0.707042 0.177905
0.505669 0.667277 0.153719
0.631296 0.660517 0.18349
0.71545 0.665049 0.225467
0.760266 0.670466 0.25597
0.802518 0.676204 0.289113
0.84065 0.683345 0.322133
0.851499 0.640543 0.319921
0.849607 0.604776 0.311971
0.845914 0.589441 0.306889
0.842512 0.575296 0.30222
0.8392 0.562936 0.298573
0.836164 0.552422 0.295171
0.833478 0.543282 0.292576
0.831601 0.536904 0.290761
0.829557 0.530404 0.288594
0.827817 0.524941 0.286854
0.826383 0.52018 0.285298
0.824491 0.516106 0.28333
0.283818 0.770306 0.323507
0.283619 0.769772 0.321981
0.283253 0.769009 0.320012
0.283116 0.768338 0.318029
0.283299 0.767834 0.315816
0.283238 0.766781 0.312978
0.282704 0.765713 0.31104
0.282292 0.764858 0.310063
0.281468 0.763699 0.309316
0.280385 0.762188 0.308248
0.274952 0.756222 0.302541
0.27538 0.754589 0.300343
0.291569 0.759182 0.295613
0.335348 0.772473 0.283742
0.397116 0.787457 0.27451
0.470085 0.769512 0.234836
0.598993 0.730816 0.216602
0.703914 0.730358 0.255421
0.78085 0.737423 0.301854
0.824521 0.744564 0.334936
0.851392 0.74789 0.356558
0.872908 0.751614 0.37438
0.88188 0.749599 0.379919
0.879957 0.743038 0.375509
0.878431 0.737087 0.37171
0.875944 0.726421 0.365225
0.873716 0.7178 0.360296
0.872053 0.710094 0.356298
0.870253 0.703075 0.35201
0.868757 0.697597 0.348699
0.867613 0.692699 0.345586
0.867292 0.688899 0.343343
0.866728 0.686458 0.34139
0.340993 0.837003 0.379019
0.340627 0.836637 0.376928
0.339986 0.836255 0.374914
0.339864 0.836225 0.373251
0.339239 0.835676 0.370886
0.338674 0.834913 0.368643
0.338369 0.834409 0.367285
0.338109 0.833677 0.367132
0.338811 0.83328 0.367742
0.33901 0.831937 0.367819
0.337057 0.828794 0.365682
0.33196 0.820981 0.360357
0.342672 0.823178 0.363363
0.375555 0.829297 0.36173
0.440742 0.849287 0.36025
0.51014 0.858915 0.350027
0.580209 0.830335 0.306401
0.689982 0.795529 0.297154
0.776623 0.801816 0.341588
0.842649 0.810361 0.385855
0.878904 0.8177 0.413916
0.892027 0.819989 0.42385
0.899748 0.817807 0.428046
0.899016 0.812879 0.424704
0.897932 0.808423 0.4215
0.896406 0.804227 0.418402
0.895476 0.801007 0.415915
0.894301 0.796948 0.413123
0.893523 0.79411 0.410834
0.893004 0.791928 0.408499
0.892638 0.7897 0.406058
0.892531 0.788251 0.403189
0.892332 0.786648 0.400519
0.380377 0.886198 0.417426
0.379339 0.88629 0.414603
0.378302 0.88629 0.412589
0.377707 0.886229 0.410544
0.377111 0.886046 0.407782
0.376761 0.885924 0.407172
0.376501 0.88574 0.40676
0.376455 0.885679 0.406699
0.376715 0.885222 0.406989
0.378225 0.884398 0.408148
0.379461 0.882734 0.409339
0.37882 0.878416 0.408148
0.381842 0.875349 0.409094
0.41297 0.879759 0.418021
0.473274 0.891783 0.422415
0.548486 0.909072 0.421973
0.613062 0.90576 0.403357
0.678721 0.874342 0.370886
0.771908 0.849744 0.376547
0.84239 0.86038 0.417395
0.890623 0.868025 0.448753
0.914931 0.874372 0.46685
0.920913 0.875517 0.471153
0.919554 0.871672 0.468528
0.918212 0.868727 0.466072
0.917449 0.866056 0.46421
0.915984 0.862989 0.461875
0.915129 0.860441 0.460014
0.914626 0.85864 0.458778
0.913787 0.856886 0.457084
0.913359 0.855344 0.455589
0.913039 0.853956 0.45304
0.913085 0.853056 0.449836
0.399588 0.897627 0.434791
0.391852 0.897978 0.426215
0.387121 0.898451 0.420829
0.386526 0.898619 0.418891
0.385977 0.89868 0.416114
0.385885 0.898772 0.416007
0.38587 0.898802 0.416297
0.38587 0.898802 0.416297
0.38587 0.898802 0.416297
0.38677 0.898741 0.41738
0.389395 0.898512 0.419699
0.393271 0.898283 0.423301
0.398138 0.897963 0.427741
0.422415 0.900328 0.437766
0.47866 0.911177 0.45069
0.555947 0.928618 0.452018
0.625498 0.9355 0.442237
0.685389 0.923858 0.424933
0.757046 0.902449 0.415869
0.839063 0.891768 0.436927
0.891859 0.900862 0.468833
0.922759 0.906996 0.489219
0.935622 0.909972 0.498283
0.935851 0.909651 0.498238
0.93518 0.9084 0.497139
0.934768 0.907347 0.496284
0.934051 0.905959 0.494942
0.933532 0.904784 0.493996
0.933074 0.903609 0.493141
0.93286 0.902678 0.492699
0.932723 0.901656 0.492302
0.932601 0.900923 0.491814
0.932754 0.900496 0.489555
0.40708 0.89691 0.442161
0.395254 0.897536 0.42916
0.387671 0.8981 0.421027
0.387152 0.898253 0.419318
0.386511 0.89836 0.416953
0.386221 0.898375 0.41529
0.386343 0.898497 0.416938
0.386267 0.898466 0.416327
0.386267 0.898466 0.416327
0.386267 0.898466 0.416327
0.387533 0.898329 0.417533
0.390143 0.898131 0.419913
0.393423 0.897963 0.422873
0.408682 0.898878 0.429892
0.4598 0.90695 0.44387
0.538125 0.924041 0.450553
0.614649 0.934096 0.44239
0.678553 0.929976 0.431556
0.744259 0.918914 0.427817
0.823636 0.914458 0.44741
0.89163 0.915587 0.477516
0.924041 0.921904 0.498268
0.937713 0.924956 0.510582
0.937743 0.925505 0.51281
0.937743 0.925597 0.513008
0.937743 0.925277 0.512657
0.937728 0.924941 0.512383
0.937728 0.924788 0.512169
0.937728 0.92462 0.511894
0.937713 0.924239 0.511498
0.937728 0.923842 0.511391
0.937728 0.923369 0.511727
0.937728 0.923079 0.511193
0.406989 0.897627 0.449821
0.395743 0.898054 0.436667
0.388373 0.898497 0.428061
0.387732 0.898558 0.424811
0.387198 0.898634 0.422461
0.386725 0.898558 0.419608
0.386297 0.898482 0.416571
0.386267 0.898466 0.416327
0.386267 0.898466 0.416327
0.386267 0.898466 0.416327
0.386267 0.898466 0.416327
0.387655 0.898314 0.417639
0.390494 0.898116 0.420264
0.401999 0.898451 0.42707
0.445808 0.904387 0.440421
0.520226 0.920089 0.449729
0.591485 0.932723 0.446159
0.653574 0.933272 0.435798
0.715801 0.922927 0.426963
0.796841 0.91223 0.436179
0.884657 0.914351 0.473793
0.925856 0.922698 0.499535
0.937652 0.927794 0.511528
0.937667 0.931319 0.518044
0.937697 0.932738 0.520455
0.937697 0.932616 0.520592
0.937697 0.932296 0.520256
0.937682 0.932021 0.519936
0.937682 0.931853 0.519615
0.937682 0.931792 0.519265
0.937682 0.931701 0.519081
0.937667 0.931517 0.519127
0.937682 0.931289 0.519509
0.405554 0.898665 0.458595
0.395346 0.898619 0.446082
0.389105 0.899031 0.437156
0.388479 0.899031 0.433768
0.387884 0.899016 0.429587
0.387335 0.898863 0.425116
0.386816 0.89865 0.420829
0.386297 0.898482 0.416587
0.386267 0.898466 0.416327
0.386267 0.898466 0.416327
0.386267 0.898466 0.416327
0.386267 0.898466 0.416327
0.387884 0.898314 0.417838
0.394553 0.898146 0.422919
0.430228 0.901747 0.436469
0.499962 0.915526 0.44892
0.571618 0.929946 0.448356
0.640528 0.933791 0.437888
0.706386 0.924834 0.427771
0.782818 0.913237 0.432593
0.867811 0.913497 0.464897
0.92134 0.922728 0.496895
0.937652 0.929015 0.512001
0.937713 0.934051 0.520394
0.937636 0.936446 0.525536
0.937636 0.936675 0.528038
0.937652 0.93669 0.528435
0.937652 0.93669 0.528405
0.937636 0.936675 0.528313
0.937636 0.936675 0.52813
0.937652 0.93669 0.527916
0.937652 0.93669 0.527489
0.937636 0.936675 0.527077
0.404227 0.900099 0.467887
0.395026 0.89955 0.45597
0.389624 0.899702 0.447166
0.389258 0.899641 0.443061
0.388632 0.899458 0.437873
0.388052 0.899245 0.432731
0.387381 0.898939 0.426215
0.386786 0.898634 0.42063
0.386389 0.898512 0.417533
0.386267 0.898466 0.416327
0.386267 0.898466 0.416327
0.386267 0.898466 0.416327
0.386389 0.898451 0.416464
0.390646 0.8981 0.420401
0.416251 0.900069 0.431556
0.48188 0.91162 0.447227
0.556008 0.927413 0.449317
0.62591 0.934096 0.440497
0.691539 0.927199 0.428946
0.765057 0.915282 0.429404
0.848661 0.912261 0.45568
0.912047 0.920378 0.49044
0.937652 0.927825 0.509117
0.937682 0.932647 0.518456
0.937667 0.935668 0.524147
0.937652 0.93669 0.527718
0.937652 0.93669 0.528542
0.937652 0.93669 0.528481
0.937652 0.93669 0.528374
0.937652 0.93669 0.528161
0.937652 0.93669 0.527916
0.937652 0.93669 0.527474
0.937636 0.936675 0.526986
0.405646 0.901213 0.477928
0.397162 0.900465 0.466667
0.391455 0.900099 0.45771
0.389838 0.899977 0.451759
0.389288 0.89987 0.446571
0.388693 0.899626 0.439658
0.387991 0.89926 0.432242
0.387243 0.898863 0.424811
0.386496 0.898558 0.418173
0.386267 0.898466 0.416327
0.386267 0.898466 0.416327
0.386267 0.898466 0.416327
0.386374 0.898451 0.416449
0.389395 0.898192 0.419135
0.407935 0.89926 0.427863
0.465782 0.908049 0.443748
0.542733 0.924453 0.449165
0.612955 0.933623 0.442237
0.678645 0.929213 0.430945
0.749615 0.917128 0.427558
0.832273 0.912016 0.448966
0.902495 0.918624 0.484413
0.935912 0.92697 0.506371
0.937682 0.931655 0.51664
0.937819 0.935073 0.523033
0.937652 0.936675 0.527642
0.937652 0.93669 0.528923
0.937652 0.93669 0.528862
0.937652 0.93669 0.528756
0.937636 0.936675 0.528557
0.937652 0.93669 0.528313
0.937652 0.93669 0.527871
0.937652 0.93669 0.527382
0.412985 0.902464 0.491554
0.405585 0.901366 0.480659
0.397116 0.90071 0.46952
0.39266 0.900328 0.461921
0.389609 0.900236 0.453803
0.389181 0.899947 0.446967
0.38851 0.89958 0.438285
0.387732 0.899138 0.429648
0.386892 0.898695 0.421408
0.386313 0.898482 0.416693
0.386267 0.898466 0.416327
0.386267 0.898466 0.416327
0.386374 0.898451 0.416449
0.389197 0.898192 0.418936
0.403418 0.898909 0.426276
0.455039 0.906157 0.441581
0.53312 0.922332 0.448844
0.603647 0.933165 0.443702
0.668162 0.930755 0.432685
0.738384 0.91873 0.426657
0.819165 0.911467 0.443488
0.894484 0.917342 0.479942
0.932418 0.926055 0.504158
0.937682 0.930892 0.515084
0.937819 0.9346 0.522011
0.937636 0.936675 0.52697
0.937652 0.93669 0.528969
0.937652 0.93669 0.529046
