bundles/resolve-cinematic-luts/Phantom Luts/Canon Alexa LUT/ATOMOS Monitoring LUTs/C-Log 2/Jamaica Canon CL2 AML.cube
TITLE "Generated by Resolve"
LUT_3D_SIZE 5
0.0693065 0.0895094 0.0693675
0.224674 0.0903029 0.0843214
0.606622 0.103777 0.208789
0.668116 0.136278 0.321706
0.669596 0.136522 0.336843
0.065919 0.243549 0.0774548
0.179965 0.211368 0.0683604
0.576013 0.10399 0.127611
0.648722 0.135042 0.245823
0.65745 0.136248 0.271366
0.242435 0.731991 0.289921
0.243442 0.72491 0.271183
0.667536 0.693339 0.215427
0.847105 0.609354 0.31017
0.833021 0.552758 0.290898
0.393027 0.898085 0.471382
0.372671 0.896666 0.403433
0.578149 0.927626 0.442512
0.937652 0.936675 0.527459
0.937652 0.93669 0.533562
0.409628 0.90544 0.536034
0.383078 0.896315 0.434867
0.525979 0.915755 0.43064
0.937758 0.93431 0.520165
0.937667 0.936706 0.534463
0.0674144 0.0918593 0.171969
0.216617 0.0900587 0.210056
0.62359 0.101808 0.294194
0.674403 0.136645 0.379934
0.675196 0.137255 0.398795
0.0699016 0.204852 0.184634
0.169512 0.193866 0.162493
0.593179 0.0995956 0.188556
0.666453 0.136294 0.31371
0.669093 0.13637 0.330205
0.203571 0.726345 0.341314
0.219959 0.712612 0.274052
0.654322 0.681392 0.202564
0.83592 0.560281 0.294972
0.816007 0.497581 0.276081
0.390311 0.903349 0.547707
0.378073 0.898726 0.457572
0.539422 0.921248 0.444495
0.937636 0.936675 0.525734
0.937652 0.93669 0.533501
0.400748 0.908751 0.604303
0.382605 0.901076 0.512566
0.468315 0.907012 0.426047
0.937682 0.932937 0.51725
0.937667 0.936706 0.534295
0.0794385 0.10222 0.5019
0.210636 0.0953841 0.538186
0.571847 0.11075 0.568429
0.654795 0.150057 0.593469
0.651881 0.151751 0.600015
0.0659648 0.136156 0.468193
0.0801709 0.100786 0.4869
0.563912 0.103731 0.555535
0.662562 0.146746 0.564981
0.660105 0.147265 0.573281
0.152544 0.639368 0.60029
0.14284 0.632181 0.583642
0.592248 0.612116 0.531228
0.930632 0.46566 0.540719
0.912703 0.408759 0.532616
0.394888 0.893538 0.764385
0.387106 0.897597 0.740749
0.383108 0.89749 0.446891
0.937682 0.933364 0.51873
0.937652 0.93669 0.528954
0.401495 0.891218 0.778119
0.38854 0.895903 0.755703
0.379675 0.899046 0.47361
0.9299 0.925414 0.502342
0.937667 0.936706 0.534401
0.118959 0.182116 0.612345
0.217288 0.166155 0.653803
0.534691 0.148669 0.676814
0.63714 0.1608 0.682338
0.635172 0.161563 0.680415
0.102495 0.190723 0.604395
0.11516 0.182483 0.610208
0.508782 0.149157 0.680537
0.6374 0.160769 0.682902
0.636072 0.161196 0.681102
0.227283 0.585 0.760937
0.222019 0.569207 0.757717
0.414206 0.493355 0.87303
0.705699 0.255573 0.74139
0.675196 0.215671 0.710979
0.397604 0.876554 0.885435
0.396445 0.877577 0.882918
0.393713 0.874891 0.872084
0.905211 0.912825 0.889418
0.932815 0.900603 0.893095
0.409308 0.873487 0.883391
0.396338 0.877104 0.885451
0.396765 0.878828 0.872908
0.870054 0.936751 0.869001
0.933425 0.929946 0.923568
0.143343 0.179767 0.625071
0.238712 0.15967 0.658473
0.541497 0.148348 0.6757
0.637217 0.160769 0.682414
0.63714 0.160769 0.682231
0.10135 0.187106 0.602365
0.137057 0.180331 0.621897
0.514626 0.149233 0.679927
0.637324 0.160769 0.682704
0.637125 0.160769 0.682185
0.227024 0.567224 0.766659
0.218311 0.545617 0.758816
0.379553 0.431327 0.852888
0.660197 0.191348 0.700542
0.639735 0.161364 0.68394
0.39675 0.876402 0.887739
0.395514 0.875868 0.886671
0.389105 0.86772 0.882475
0.886488 0.896574 0.923583
0.92401 0.877745 0.927611
0.396887 0.876677 0.887816
0.396399 0.877028 0.887236
0.396399 0.877028 0.887236
0.786679 0.935088 0.937758
0.933288 0.930129 0.933059
