bundles/resolve-cinematic-luts/Phantom Luts/Canon Alexa LUT/ATOMOS Monitoring LUTs/C-Log 2/Utopia Canon CL2-Legacy AML.cube
TITLE "Generated by Resolve"
LUT_3D_SIZE 9
0.07364 0.095613 0.103441
0.0907759 0.0953689 0.107546
0.168826 0.0919966 0.107805
0.352514 0.0846418 0.112642
0.582055 0.0878157 0.160327
0.739788 0.106569 0.249958
0.741909 0.107759 0.27953
0.743069 0.108598 0.295003
0.751324 0.10634 0.302113
0.0731212 0.110704 0.105013
0.0838178 0.106203 0.105562
0.156313 0.0946212 0.100999
0.327764 0.0854505 0.0961013
0.570916 0.0871901 0.134737
0.737438 0.105821 0.227253
0.740612 0.106722 0.257527
0.742214 0.107271 0.274052
0.751476 0.104921 0.281224
0.0659648 0.19588 0.0831922
0.0658732 0.189303 0.0764477
0.145052 0.173953 0.0950484
0.348394 0.114717 0.0928817
0.567498 0.0871138 0.0981613
0.709072 0.101167 0.159884
0.728267 0.103929 0.19089
0.736339 0.104753 0.211292
0.74342 0.103609 0.218082
0.0658885 0.42533 0.0658885
0.06598 0.424063 0.06598
0.0688334 0.409979 0.06598
0.341375 0.3673 0.0999466
0.611566 0.27863 0.116197
0.753231 0.124895 0.106096
0.760967 0.114092 0.122484
0.76051 0.112337 0.135958
0.760571 0.110124 0.138308
0.108476 0.71339 0.0662699
0.107424 0.713405 0.06598
0.107836 0.710948 0.06598
0.174502 0.701442 0.0658885
0.64303 0.635264 0.141451
0.860014 0.651499 0.171984
0.88835 0.55108 0.178683
0.884428 0.518334 0.179141
0.884199 0.504219 0.176989
0.192264 0.935195 0.123201
0.199161 0.933684 0.113664
0.200122 0.933486 0.11519
0.200855 0.9337 0.113817
0.517922 0.934066 0.116884
0.908568 0.875944 0.235767
0.93756 0.876478 0.255039
0.937774 0.871839 0.254185
0.937621 0.869429 0.257389
0.179583 0.937575 0.14786
0.18909 0.936721 0.128618
0.198657 0.934722 0.114687
0.198657 0.934722 0.114687
0.444984 0.937514 0.10486
0.883757 0.896895 0.228565
0.937636 0.905196 0.396963
0.937728 0.906172 0.413703
0.937743 0.906249 0.413169
0.164843 0.937652 0.189425
0.175509 0.937682 0.161349
0.195392 0.935409 0.121538
0.197101 0.934966 0.118212
0.418173 0.937362 0.10753
0.839078 0.898482 0.215839
0.937591 0.904234 0.384985
0.937713 0.905989 0.415061
0.937743 0.906218 0.413443
0.153475 0.937575 0.199573
0.167544 0.937606 0.169299
0.192767 0.936049 0.1234
0.197101 0.934966 0.118212
0.404486 0.937591 0.106218
0.823072 0.899702 0.211536
0.937575 0.903746 0.376959
0.937728 0.906081 0.41445
0.937758 0.906325 0.412711
0.069688 0.0974746 0.113512
0.0858778 0.0965438 0.119387
0.165103 0.0925307 0.12842
0.352636 0.0855268 0.135714
0.584573 0.0885328 0.18526
0.746792 0.105669 0.271687
0.7476 0.107362 0.298955
0.747555 0.108171 0.314565
0.752377 0.106065 0.324819
0.0733501 0.105425 0.113497
0.0799573 0.103441 0.111604
0.159228 0.0952163 0.111604
0.340703 0.0850233 0.112566
0.577401 0.0874189 0.159075
0.745556 0.104845 0.248981
0.74728 0.105989 0.278828
0.748302 0.106828 0.294255
0.753796 0.105455 0.301427
0.0658122 0.1879 0.104982
0.0659953 0.184451 0.0880293
0.140581 0.168551 0.0965133
0.35108 0.101778 0.0884565
0.555886 0.0862287 0.103944
0.724422 0.102419 0.181338
0.739651 0.10454 0.218173
0.742809 0.105257 0.235584
0.748775 0.103975 0.242664
0.0658579 0.415824 0.065919
0.0659342 0.414694 0.0659342
0.0659495 0.403937 0.0659495
0.335637 0.360845 0.0996109
0.61178 0.256352 0.116472
0.751476 0.118364 0.104311
0.761837 0.11339 0.129839
0.756863 0.110674 0.139742
0.753811 0.107836 0.142077
0.102983 0.709392 0.0860609
0.103716 0.708705 0.0658579
0.106722 0.705592 0.066041
0.158221 0.698177 0.0659953
0.63946 0.631571 0.14049
0.859144 0.646708 0.171252
0.886488 0.53637 0.178988
0.882689 0.501945 0.179263
0.882078 0.4869 0.176852
0.184405 0.936599 0.138705
0.193683 0.935103 0.119799
0.200061 0.933455 0.115114
0.199954 0.933577 0.113985
0.506706 0.934798 0.114794
0.906355 0.87425 0.23476
0.937591 0.874693 0.254841
0.937621 0.869139 0.252476
0.937621 0.866331 0.252171
0.168032 0.937636 0.172244
0.178897 0.937606 0.147539
0.197711 0.934981 0.115938
0.198657 0.934722 0.114687
0.432944 0.93756 0.103258
0.875868 0.896956 0.22504
0.937621 0.905119 0.395315
0.937728 0.906172 0.413703
0.937743 0.906233 0.413199
0.149981 0.937621 0.217426
0.164004 0.937652 0.189944
0.189807 0.936538 0.132387
0.197101 0.934966 0.118212
0.400076 0.937621 0.105852
0.830213 0.899199 0.213321
0.937591 0.904143 0.383703
0.937697 0.905974 0.415137
0.937743 0.906249 0.413275
0.140093 0.937606 0.237949
0.154788 0.937636 0.205722
0.18471 0.937209 0.138781
0.197101 0.934966 0.118212
0.379339 0.937621 0.104585
0.81323 0.900511 0.208469
0.93756 0.903365 0.370306
0.937728 0.906081 0.41445
0.937758 0.906355 0.412451
0.0658122 0.10132 0.167361
0.0726482 0.100359 0.177737
0.15346 0.0943618 0.184848
0.348241 0.0832074 0.194553
0.581094 0.088426 0.247578
0.746166 0.107942 0.323766
0.74461 0.109804 0.355566
0.7449 0.111223 0.373327
0.750423 0.110048 0.382406
0.0659342 0.106645 0.150561
0.0658122 0.101747 0.163745
0.140566 0.0952773 0.173159
0.337743 0.0845655 0.17644
0.57821 0.0887617 0.218967
0.747509 0.107607 0.30219
0.744991 0.107652 0.332967
0.745129 0.109194 0.351186
0.750698 0.108049 0.360174
0.0659342 0.168261 0.170947
0.065919 0.16434 0.167575
0.133654 0.162264 0.169253
0.370398 0.11545 0.147539
0.563561 0.0871595 0.15639
0.743267 0.10544 0.246738
0.745586 0.106523 0.27744
0.745861 0.107515 0.292622
0.750561 0.106416 0.299504
0.0659648 0.393164 0.137087
0.0657816 0.392325 0.116457
0.0659037 0.38584 0.0659037
0.319371 0.343465 0.101061
0.604181 0.201938 0.115373
0.76379 0.116609 0.13051
0.755901 0.111192 0.150988
0.729198 0.104768 0.156817
0.724834 0.101717 0.15555
0.0851759 0.697627 0.149905
0.088426 0.696956 0.124346
0.0991836 0.692531 0.0681926
0.120745 0.686763 0.0658885
0.629999 0.622522 0.138064
0.854902 0.619699 0.166461
0.881743 0.496071 0.178927
0.876921 0.458198 0.177935
0.875883 0.442542 0.175067
0.159533 0.937621 0.199145
0.166445 0.937575 0.166232
0.191806 0.935454 0.123003
0.198718 0.933608 0.113542
0.47715 0.936202 0.10927
0.900008 0.869703 0.231769
0.937606 0.868055 0.252033
0.937667 0.861082 0.249241
0.937621 0.857679 0.247776
0.138705 0.937606 0.258137
0.148257 0.937621 0.220233
0.177859 0.937652 0.148608
0.198657 0.934722 0.114687
0.393683 0.937667 0.0993362
0.854231 0.897795 0.216129
0.937606 0.904891 0.39176
0.937728 0.906172 0.413703
0.937743 0.906249 0.413108
0.120989 0.937652 0.317174
0.131167 0.937606 0.276524
0.163455 0.937652 0.193637
0.197101 0.934966 0.118212
0.337957 0.937728 0.103334
0.804517 0.901045 0.205188
0.937575 0.903517 0.374014
0.937697 0.905974 0.415259
0.937743 0.906233 0.413291
0.111833 0.937652 0.340734
0.12166 0.937621 0.302342
0.155291 0.937652 0.211917
0.197101 0.934966 0.118212
0.319036 0.937591 0.103502
0.785687 0.903014 0.199649
0.937713 0.902983 0.357626
0.937728 0.906081 0.41445
0.937774 0.906386 0.412314
0.0659342 0.11165 0.30103
0.0658885 0.110338 0.31754
0.123232 0.103304 0.332189
0.321752 0.0910048 0.334661
0.571313 0.0958724 0.378012
0.74725 0.116976 0.432258
0.749432 0.119066 0.454459
0.749569 0.119982 0.46714
0.755352 0.118273 0.475441
0.0659342 0.114 0.272694
0.0658427 0.111208 0.29485
0.0985428 0.105165 0.326711
0.311406 0.0910506 0.324819
0.568505 0.0950027 0.362844
0.745876 0.115709 0.420218
0.748028 0.117632 0.441505
0.7505 0.118853 0.454215
0.756466 0.117235 0.462119
0.0658579 0.169909 0.265248
0.0659342 0.162341 0.272862
0.0660258 0.141238 0.325658
0.293156 0.0960555 0.305455
0.555566 0.0912032 0.31632
0.741772 0.112383 0.381079
0.743282 0.114656 0.404883
0.744213 0.116045 0.417411
0.749264 0.114946 0.42417
0.0657969 0.341512 0.319585
0.0660105 0.338018 0.316197
0.0658885 0.326833 0.304295
0.304341 0.329564 0.322683
0.63537 0.23122 0.287358
0.775631 0.120867 0.298253
0.754528 0.108659 0.290196
0.75021 0.107332 0.29192
0.751278 0.106996 0.297566
0.0658885 0.658961 0.340703
0.0658427 0.660105 0.323171
0.0658579 0.661006 0.265782
0.0901808 0.655161 0.0834516
0.608454 0.601053 0.178561
0.848142 0.523812 0.209644
0.867658 0.395132 0.213092
0.855787 0.338369 0.205615
0.850752 0.312734 0.199603
0.104433 0.93724 0.385275
0.10425 0.937591 0.355993
0.120012 0.937728 0.284779
0.176745 0.93257 0.124895
0.366735 0.937179 0.0954757
0.884733 0.85774 0.225223
0.93756 0.849302 0.244358
0.937621 0.838651 0.240238
0.937667 0.833677 0.238437
0.0952621 0.93756 0.461448
0.0938735 0.937728 0.433738
0.108766 0.937652 0.361349
0.175448 0.937652 0.153567
0.246311 0.937667 0.104509
0.796704 0.902281 0.199207
0.937591 0.904418 0.383749
0.937728 0.906172 0.413825
0.937743 0.906264 0.413108
0.085771 0.937606 0.49839
0.0869917 0.937728 0.475914
0.0990005 0.937728 0.412146
0.161501 0.937667 0.19913
0.217151 0.936584 0.113848
0.736492 0.907942 0.184543
0.937743 0.902205 0.348486
0.937713 0.905974 0.415503
0.937743 0.906249 0.413596
0.0811933 0.937606 0.51458
0.0834516 0.937606 0.493767
0.0943465 0.937728 0.432746
0.154406 0.937652 0.220035
0.210788 0.936446 0.115663
0.713283 0.910719 0.177584
0.937697 0.901366 0.333211
0.937728 0.906081 0.414542
0.937758 0.906371 0.412619
0.0658579 0.131518 0.491783
0.0659037 0.128511 0.507088
0.0846571 0.120867 0.530648
0.301656 0.105089 0.539849
0.542687 0.10454 0.544732
0.737041 0.127901 0.581781
0.73402 0.129213 0.604837
0.733394 0.130159 0.618051
0.74049 0.127733 0.630076
0.0659495 0.13315 0.468803
0.0658579 0.131197 0.489647
0.0658732 0.122972 0.523705
0.285359 0.106065 0.539086
0.538537 0.103822 0.540291
0.737255 0.127092 0.574044
0.735271 0.128649 0.596902
0.734493 0.129351 0.609644
0.74168 0.126909 0.620798
0.0658579 0.154009 0.449683
0.0658732 0.144152 0.452689
0.0658579 0.129824 0.486778
0.224399 0.109117 0.530098
0.522133 0.101656 0.523995
0.733547 0.125368 0.548501
0.734981 0.127489 0.569162
0.734524 0.128649 0.580957
0.740291 0.126864 0.590326
0.0657969 0.363333 0.50132
0.065919 0.357809 0.503227
0.065919 0.336553 0.507301
0.133867 0.278492 0.581613
0.538598 0.150744 0.530022
0.738781 0.122286 0.48748
0.741665 0.123766 0.496071
0.74052 0.124239 0.504814
0.745327 0.122652 0.512108
0.0658427 0.600366 0.567117
0.0660105 0.598566 0.565103
0.0658427 0.592569 0.558572
0.0657664 0.575555 0.537545
0.545892 0.561486 0.54136
0.872755 0.486809 0.523812
0.900832 0.409583 0.520165
0.891478 0.372686 0.516976
0.885969 0.355032 0.515297
0.0720226 0.891493 0.613886
0.0658885 0.893126 0.60415
0.0659648 0.892454 0.582101
0.0659648 0.891066 0.511177
0.205615 0.913176 0.302495
0.850278 0.842908 0.418189
0.935561 0.79324 0.420722
0.932204 0.770443 0.421927
0.930785 0.760983 0.423423
0.084184 0.934005 0.673869
0.0776837 0.935241 0.66273
0.076173 0.93608 0.637263
0.0793927 0.93756 0.55639
0.173037 0.937621 0.158511
0.67747 0.915831 0.163622
0.937575 0.90338 0.374792
0.937621 0.904738 0.394934
0.937575 0.903716 0.376226
0.0814221 0.934066 0.694865
0.0790112 0.93463 0.685054
0.076585 0.935485 0.658
0.0791028 0.937255 0.578637
0.158312 0.937636 0.20882
0.594812 0.925933 0.14287
0.937667 0.89987 0.317418
0.937728 0.906081 0.417441
0.937774 0.906371 0.415534
0.0821393 0.933761 0.705547
0.0797284 0.934325 0.695583
0.076997 0.935241 0.668223
0.0784924 0.937118 0.589227
0.151751 0.937636 0.228809
0.556924 0.930602 0.132036
0.937697 0.899062 0.29659
0.937667 0.905776 0.409186
0.937789 0.906462 0.41445
0.0658427 0.170626 0.650385
0.0659495 0.166949 0.669841
0.0659342 0.149004 0.704662
0.286183 0.133837 0.735714
0.524407 0.122774 0.727642
0.708659 0.140276 0.730541
0.704372 0.143221 0.751781
0.702724 0.144549 0.758373
0.706966 0.142809 0.766567
0.0658122 0.173297 0.632578
0.0658885 0.170123 0.649577
0.065919 0.154879 0.692424
0.26389 0.134905 0.733455
0.518898 0.122652 0.727413
0.707454 0.139925 0.727321
0.704402 0.143191 0.747158
0.703471 0.144045 0.757137
0.708782 0.141924 0.767147
0.066041 0.18967 0.620127
0.065919 0.177356 0.61767
0.0658885 0.167346 0.641505
0.194522 0.138247 0.721889
0.498207 0.122087 0.723079
0.704906 0.139528 0.713771
0.702235 0.143557 0.729198
0.70164 0.144305 0.739284
0.709041 0.141253 0.752972
0.0658885 0.341817 0.650309
0.0657969 0.329015 0.653559
0.0658885 0.294133 0.656168
0.0659953 0.219425 0.710567
0.434318 0.127504 0.718364
0.69987 0.132494 0.686046
0.712551 0.139132 0.693202
0.711055 0.139605 0.700832
0.717281 0.13695 0.71162
0.0658885 0.60853 0.731945
0.0658885 0.607858 0.73492
0.0659495 0.60209 0.736873
0.065919 0.582345 0.739162
0.416327 0.536309 0.803006
0.76141 0.365743 0.727153
0.818433 0.279805 0.703593
0.80676 0.251026 0.695338
0.804227 0.238437 0.694987
0.0758526 0.835157 0.795727
0.0684825 0.835401 0.795926
0.0666209 0.830564 0.790799
0.0658579 0.818265 0.776333
0.137606 0.805508 0.757961
0.762173 0.768658 0.746105
0.928298 0.71841 0.738659
0.927581 0.696971 0.73637
0.926146 0.686397 0.735714
0.109682 0.926009 0.848386
0.105638 0.926802 0.84509
0.102754 0.92752 0.836301
0.0953536 0.929412 0.809277
0.0821546 0.933608 0.715328
0.617197 0.937667 0.631266
0.934661 0.921233 0.739879
0.937636 0.918395 0.747189
0.937621 0.915999 0.740093
0.115206 0.925078 0.863905
0.111406 0.925689 0.860426
0.107347 0.926452 0.85008
0.0982528 0.928801 0.82063
0.0833143 0.933043 0.719036
0.44181 0.937621 0.545083
0.915908 0.919829 0.613458
0.937697 0.920851 0.721843
0.937621 0.920577 0.715236
0.115587 0.925032 0.870863
0.114153 0.9252 0.867308
0.110002 0.925917 0.856962
0.0998245 0.928405 0.826413
0.0836347 0.93286 0.723247
0.361593 0.937743 0.527108
0.893095 0.922026 0.584863
0.937514 0.919448 0.69543
0.937545 0.920134 0.703212
0.0659495 0.209216 0.737148
0.0659953 0.206531 0.758221
0.0658274 0.18764 0.796735
0.28368 0.157931 0.828901
0.53402 0.139269 0.811521
0.70219 0.144808 0.770428
0.702113 0.145006 0.769848
0.700298 0.1458 0.767391
0.70457 0.143938 0.773083
0.066041 0.210773 0.719219
0.0659342 0.209308 0.738872
0.0658885 0.196368 0.783337
0.259159 0.160494 0.828473
0.526909 0.139513 0.813977
0.701274 0.144778 0.770626
0.702052 0.145068 0.769574
0.702403 0.144869 0.770321
0.706233 0.143221 0.775296
0.06598 0.213123 0.701854
0.066041 0.211536 0.702815
0.065919 0.209491 0.738064
0.182376 0.166796 0.823194
0.498451 0.1411 0.819135
0.698589 0.145037 0.770275
0.698787 0.146456 0.765301
0.699321 0.146242 0.765835
0.704219 0.144076 0.772747
0.065919 0.311406 0.75024
0.0658274 0.299351 0.751492
0.0658885 0.262287 0.737118
0.0657511 0.20943 0.749401
0.405661 0.147875 0.82649
0.67985 0.14107 0.776928
0.697124 0.147204 0.763134
0.697185 0.147173 0.76321
0.703014 0.14464 0.771038
0.0659495 0.624063 0.818662
0.0659648 0.622324 0.821729
0.0658427 0.614069 0.822065
0.0659648 0.585199 0.82031
0.290929 0.525841 0.895613
0.691432 0.322438 0.865217
0.761105 0.228 0.808881
0.748638 0.20502 0.798108
0.74847 0.194018 0.799893
0.087953 0.823941 0.890837
0.0829328 0.823484 0.893217
0.081529 0.818891 0.893202
0.0783246 0.807416 0.893477
0.0780346 0.787289 0.897108
0.676509 0.756771 0.921126
0.898497 0.647593 0.879057
0.896223 0.625086 0.873747
0.893782 0.616129 0.872145
0.132723 0.922194 0.910399
0.139528 0.920012 0.908598
0.140581 0.919615 0.907897
0.139132 0.919615 0.906004
0.126696 0.917464 0.897124
0.560433 0.922454 0.89929
0.908019 0.906844 0.898177
0.933806 0.897215 0.896345
0.932998 0.890929 0.895064
0.133089 0.922042 0.911025
0.140368 0.919799 0.909239
0.142336 0.91902 0.908522
0.13994 0.920378 0.908583
0.12697 0.923125 0.894926
0.163729 0.936522 0.866606
0.88954 0.932464 0.887861
0.932784 0.929763 0.928145
0.932342 0.92987 0.928832
0.133654 0.921645 0.91075
0.139879 0.919814 0.909209
0.142016 0.919264 0.908782
0.140566 0.920134 0.908873
0.126986 0.92311 0.894545
0.136309 0.934981 0.851759
0.862852 0.934005 0.873625
0.932982 0.929305 0.910079
0.930938 0.930144 0.92961
0.06598 0.20798 0.749249
0.0659495 0.202823 0.769192
0.0659953 0.182818 0.802075
0.296208 0.156695 0.828962
0.542153 0.138445 0.809277
0.702373 0.144884 0.770291
0.702129 0.145006 0.769848
0.701885 0.145144 0.769253
0.70515 0.143694 0.773739
0.065919 0.21004 0.729488
0.0659648 0.208103 0.750088
0.06598 0.191913 0.791608
0.272374 0.159091 0.828794
0.5346 0.139101 0.812589
0.702312 0.144915 0.770184
0.702068 0.145037 0.769665
0.702403 0.144869 0.770321
0.705226 0.143664 0.773846
0.0659648 0.210544 0.698833
0.066041 0.211749 0.704311
0.0659495 0.208316 0.748959
0.196948 0.165759 0.824842
0.505196 0.140536 0.818128
0.699962 0.14493 0.770367
0.699229 0.146288 0.765728
0.699702 0.146075 0.76643
0.704219 0.144076 0.772747
0.0657969 0.306645 0.758801
0.0659037 0.293172 0.756664
0.0659342 0.25449 0.734981
0.0659953 0.206867 0.757366
0.410483 0.147311 0.826123
0.682353 0.140887 0.777462
0.697688 0.146944 0.764126
0.697871 0.146853 0.764385
0.703059 0.14461 0.771145
0.0659342 0.62269 0.838224
0.0660105 0.619257 0.839689
0.0658885 0.606683 0.834638
0.0657969 0.565682 0.819806
0.262287 0.483711 0.892576
0.669291 0.283482 0.861372
0.743175 0.193271 0.797787
0.730022 0.174395 0.785412
0.728725 0.166613 0.786923
0.0940871 0.833463 0.905882
0.0909895 0.832776 0.907835
0.0886091 0.82739 0.907149
0.08365 0.813733 0.905928
0.0756542 0.780621 0.901762
0.641642 0.749142 0.935286
0.87921 0.619989 0.906905
0.879606 0.593515 0.900786
0.87628 0.584527 0.900267
0.13312 0.921691 0.910826
0.140658 0.919356 0.908949
0.142245 0.918914 0.908553
0.141909 0.918975 0.908614
0.134432 0.914672 0.909575
0.478416 0.923903 0.936782
0.88397 0.899413 0.930449
0.929778 0.879194 0.926268
0.928923 0.872999 0.926558
0.134096 0.921462 0.910613
0.140764 0.919478 0.908919
0.142351 0.91902 0.908537
0.142168 0.919066 0.908568
0.136568 0.920699 0.910033
0.134661 0.921401 0.910658
0.874922 0.932235 0.930785
0.932311 0.92987 0.928862
0.931807 0.929976 0.929259
0.133623 0.92163 0.910735
0.140627 0.919509 0.908965
0.142351 0.91902 0.908537
0.142336 0.91902 0.908537
0.136995 0.920577 0.909895
0.134768 0.921889 0.911162
0.830243 0.933761 0.931029
0.931823 0.929976 0.929259
0.932189 0.9299 0.928985
0.0659953 0.207111 0.754498
0.0658732 0.200885 0.77351
0.0701305 0.18024 0.805081
0.302174 0.156222 0.828992
0.546395 0.138109 0.808286
0.702358 0.144884 0.77026
0.702129 0.145006 0.769848
0.70193 0.145113 0.769314
0.704005 0.144183 0.772381
0.0659342 0.20972 0.73402
0.0659953 0.207248 0.755505
0.06598 0.189425 0.794903
0.278843 0.158495 0.828946
0.538354 0.13875 0.811719
0.702068 0.145037 0.76965
0.702083 0.145037 0.769711
0.702495 0.144839 0.770367
0.705379 0.143603 0.77406
0.0660258 0.211124 0.699779
0.066041 0.211322 0.707835
0.0659953 0.207492 0.754131
0.203937 0.165225 0.825528
0.508476 0.140368 0.817777
0.700389 0.144991 0.770123
0.699229 0.146288 0.765728
0.699702 0.146075 0.76643
0.704219 0.144076 0.772747
0.0659953 0.303426 0.757794
0.0659037 0.289189 0.754818
0.0658122 0.250095 0.731762
0.0660105 0.205631 0.760937
0.413321 0.147005 0.82591
0.683833 0.141054 0.777066
0.697643 0.14696 0.76408
0.697871 0.146853 0.764385
0.703075 0.14461 0.77113
0.0658274 0.614633 0.834821
0.0659648 0.611139 0.836103
0.0659648 0.597421 0.830823
0.0659342 0.554604 0.816709
0.250797 0.462943 0.891218
0.659983 0.264912 0.857099
0.733471 0.179202 0.788449
0.719966 0.164004 0.778698
0.716045 0.156649 0.780331
0.0933394 0.83064 0.905913
0.0895399 0.829099 0.907164
0.0874037 0.823697 0.907027
0.0818952 0.808286 0.905272
0.0725261 0.772671 0.899687
0.635615 0.737957 0.936019
0.873518 0.607401 0.905852
0.876005 0.577966 0.898573
0.873167 0.568994 0.898177
0.133272 0.92163 0.910811
0.140673 0.919371 0.908949
0.14226 0.918914 0.908537
0.142245 0.918883 0.908537
0.1355 0.911742 0.908995
0.469642 0.91986 0.936767
0.87657 0.892943 0.931136
0.928359 0.869184 0.926452
0.92755 0.862074 0.926726
0.13724 0.92105 0.909407
0.132799 0.921981 0.910826
0.132799 0.92195 0.910842
0.132799 0.92195 0.910842
0.132799 0.92195 0.910842
0.132799 0.92195 0.910842
0.85594 0.932754 0.930953
0.93196 0.929946 0.929152
0.931945 0.929946 0.929168
0.133104 0.921813 0.910811
0.140627 0.919509 0.908965
0.142351 0.91902 0.908537
0.142351 0.91902 0.908537
0.142351 0.91902 0.908537
0.142351 0.91902 0.908537
0.762371 0.935393 0.934218
0.930846 0.930175 0.929946
0.933013 0.929717 0.928237
