bundles/resolve-cinematic-luts/Phantom Luts/Canon Alexa LUT/ATOMOS Monitoring LUTs/C-Log 2/Utopia Canon CL2-Legacy AML.cube
TITLE "Generated by Resolve"
LUT_3D_SIZE 33
0.07364 0.095613 0.103441
0.0749981 0.0955978 0.103395
0.0773327 0.0958267 0.104021
0.0820172 0.0959029 0.105058
0.0907759 0.0953689 0.107546
0.104463 0.0946365 0.108354
0.120592 0.0938735 0.107958
0.141497 0.0932631 0.108309
0.168826 0.0919966 0.107805
0.203433 0.0903029 0.106874
0.24419 0.0883192 0.107912
0.296086 0.0866407 0.10959
0.352514 0.0846418 0.112642
0.411322 0.0832227 0.118456
0.471397 0.0825666 0.127764
0.528038 0.0844434 0.141466
0.582055 0.0878157 0.160327
0.636042 0.0927901 0.183871
0.692073 0.0989395 0.210681
0.730175 0.104677 0.236301
0.739788 0.106569 0.249958
0.74052 0.106783 0.25864
0.741115 0.107073 0.266377
0.741466 0.107439 0.273426
0.741909 0.107759 0.27953
0.742168 0.108064 0.284443
0.742351 0.108354 0.288411
0.742641 0.108522 0.292027
0.743069 0.108598 0.295003
0.744305 0.108385 0.297383
0.745571 0.108064 0.299428
0.748425 0.10721 0.300999
0.751324 0.10634 0.302113
0.0738994 0.0962692 0.103822
0.0740368 0.0959029 0.103593
0.0757763 0.0959945 0.103593
0.0792554 0.0959029 0.104005
0.0859541 0.0958572 0.105531
0.0985275 0.0950332 0.107561
0.114748 0.094316 0.106767
0.135653 0.0937819 0.107012
0.163272 0.0924392 0.105867
0.198123 0.0905013 0.104784
0.239475 0.0886702 0.104494
0.292149 0.0866407 0.105364
0.349126 0.0845045 0.108156
0.407965 0.0832074 0.11339
0.469337 0.0825208 0.122881
0.526314 0.0843977 0.136263
0.580407 0.0876783 0.154833
0.634546 0.0926223 0.178531
0.690761 0.0986648 0.205234
0.729473 0.104494 0.231403
0.739422 0.1066 0.245563
0.74023 0.106737 0.253834
0.74078 0.10692 0.261845
0.741283 0.10721 0.268833
0.741619 0.107546 0.2748
0.741955 0.107805 0.280247
0.742153 0.108064 0.284413
0.742535 0.108232 0.287724
0.743008 0.108278 0.29073
0.74432 0.108049 0.293065
0.745678 0.107759 0.295033
0.748623 0.10692 0.296757
0.751553 0.10605 0.298238
0.0746319 0.098436 0.104768
0.0751812 0.0979324 0.104387
0.076463 0.0977188 0.10428
0.0789807 0.0978866 0.104356
0.0846418 0.0965896 0.104311
0.0962692 0.0953841 0.106767
0.110979 0.0946059 0.106722
0.131991 0.0937514 0.106035
0.157824 0.0924697 0.104768
0.191058 0.0912184 0.103517
0.232456 0.0895094 0.102678
0.285298 0.0868086 0.102434
0.344213 0.084535 0.10396
0.405264 0.08336 0.109087
0.466743 0.082536 0.118196
0.524468 0.0842756 0.131411
0.578729 0.0875105 0.14966
0.632792 0.0924086 0.173098
0.689281 0.0984665 0.200076
0.728969 0.104387 0.226856
0.738979 0.106569 0.240986
0.739742 0.106569 0.249393
0.740444 0.106783 0.257511
0.740978 0.107012 0.264714
0.741329 0.107286 0.270817
0.741695 0.107576 0.275822
0.741955 0.107805 0.280293
0.742336 0.107958 0.283818
0.742885 0.108003 0.286671
0.744244 0.10779 0.288838
0.745632 0.107454 0.291051
0.748623 0.106615 0.292576
0.751675 0.10573 0.293782
0.0747082 0.102327 0.105531
0.0754559 0.101671 0.104997
0.076524 0.100618 0.104936
0.0794842 0.100542 0.105074
0.0846876 0.101106 0.105196
0.0946975 0.0982071 0.105776
0.111772 0.0957198 0.104601
0.132494 0.0942702 0.10486
0.154192 0.0929274 0.104311
0.185473 0.0912947 0.102174
0.226123 0.0893568 0.100069
0.277256 0.0876936 0.0994583
0.335576 0.0855421 0.101137
0.397436 0.0835584 0.104646
0.462089 0.0826886 0.111986
0.521233 0.0843671 0.125795
0.576211 0.0873732 0.142916
0.630381 0.0919814 0.165866
0.687327 0.0982834 0.193149
0.728054 0.104295 0.220996
0.738109 0.10631 0.235004
0.739284 0.1066 0.243732
0.73994 0.1066 0.25156
0.740536 0.106798 0.258686
0.741024 0.107042 0.265019
0.741314 0.107271 0.270329
0.741588 0.10753 0.274571
0.742077 0.107622 0.27837
0.742657 0.107683 0.281147
0.744015 0.107424 0.283711
0.745602 0.107073 0.285542
0.748577 0.106233 0.286992
0.751659 0.105348 0.288258
0.0731212 0.110704 0.105013
0.0733043 0.109728 0.103883
0.075288 0.107912 0.104417
0.0777752 0.106462 0.104814
0.0838178 0.106203 0.105562
0.0939956 0.10753 0.105592
0.109148 0.103532 0.105852
0.130251 0.0977798 0.103487
0.156313 0.0946212 0.100999
0.188128 0.0920119 0.0999008
0.222889 0.0898756 0.0988327
0.27187 0.0877394 0.097612
0.327764 0.0854505 0.0961013
0.387533 0.0842451 0.0997635
0.451179 0.0826123 0.105531
0.513237 0.0838331 0.117968
0.570916 0.0871901 0.134737
0.626474 0.0915999 0.156771
0.684657 0.0979629 0.184085
0.727062 0.103914 0.213352
0.737438 0.105821 0.227253
0.738598 0.106233 0.235966
0.739574 0.106523 0.244129
0.740108 0.106523 0.251102
0.740612 0.106722 0.257527
0.740978 0.10692 0.262882
0.741268 0.107118 0.267262
0.741588 0.10724 0.271077
0.742214 0.107271 0.274052
0.743664 0.106996 0.276509
0.745312 0.106615 0.278553
0.748318 0.105806 0.280079
0.751476 0.104921 0.281224
0.0704662 0.124285 0.102785
0.0705882 0.123644 0.100603
0.072343 0.122179 0.100633
0.074876 0.119707 0.101976
0.078996 0.118685 0.102754
0.0910048 0.117433 0.103624
0.108095 0.118074 0.102312
0.128893 0.11371 0.105882
0.154162 0.103624 0.102998
0.186725 0.096437 0.0984665
0.229404 0.0908827 0.0948501
0.275883 0.0881819 0.0944533
0.323812 0.0859693 0.0946365
0.382605 0.0836652 0.0951095
0.442695 0.0829786 0.098909
0.502586 0.0834058 0.108598
0.561502 0.0862745 0.124788
0.618357 0.0909285 0.146151
0.677394 0.0966964 0.171527
0.725383 0.103258 0.202731
0.736873 0.10486 0.217243
0.738659 0.105333 0.225803
0.740017 0.105684 0.233631
0.741009 0.105989 0.241108
0.741543 0.10602 0.247425
0.741939 0.106157 0.252934
0.742184 0.106264 0.257801
0.742489 0.106386 0.261357
0.742718 0.106477 0.264744
0.743587 0.106386 0.266987
0.744961 0.106081 0.268879
0.747738 0.105303 0.270604
0.750912 0.104433 0.271839
0.0670634 0.142458 0.0978103
0.0672618 0.141787 0.0954604
0.0677195 0.140703 0.0939498
0.0706951 0.138094 0.0946212
0.0740826 0.136034 0.0961166
0.0809033 0.135393 0.0969711
0.103487 0.132464 0.098558
0.127413 0.13164 0.102388
0.153445 0.128588 0.10486
0.186664 0.113924 0.103304
0.230701 0.0991836 0.0964981
0.27921 0.0916609 0.0906386
0.338155 0.0862745 0.0882887
0.389212 0.0841077 0.090547
0.441688 0.0828717 0.0944839
0.496864 0.083711 0.102281
0.54995 0.0858778 0.113924
0.606012 0.0897688 0.131975
0.665766 0.0955978 0.156954
0.717128 0.10193 0.185748
0.73164 0.104204 0.20177
0.735637 0.104646 0.211856
0.737774 0.10515 0.220157
0.739284 0.10547 0.227298
0.740322 0.10573 0.233799
0.741085 0.105943 0.239628
0.741588 0.106004 0.244465
0.741863 0.106004 0.248051
0.742046 0.106081 0.25153
0.742718 0.106065 0.253742
0.743694 0.105821 0.256107
0.745571 0.105303 0.258061
0.747555 0.104784 0.258915
0.0659648 0.165194 0.0910811
0.0659495 0.164431 0.0889143
0.0659495 0.16347 0.086305
0.0660258 0.161761 0.0856947
0.0696269 0.159457 0.0871748
0.0760204 0.15787 0.0885176
0.0862593 0.157046 0.0903792
0.121965 0.151308 0.0961166
0.15108 0.149737 0.101595
0.185077 0.149676 0.102647
0.230289 0.127901 0.102861
0.285771 0.102739 0.0928359
0.340505 0.0933852 0.0871595
0.401801 0.0854047 0.0818036
0.460578 0.0832685 0.086183
0.502449 0.083772 0.0962997
0.547341 0.0861219 0.108125
0.593271 0.0888991 0.121431
0.650141 0.0937972 0.140032
0.706172 0.100587 0.16614
0.721675 0.10277 0.179721
0.727459 0.103792 0.190707
0.731945 0.10428 0.201205
0.735332 0.104585 0.209903
0.73724 0.104982 0.216815
0.738537 0.105272 0.222217
0.739452 0.105501 0.226673
0.740093 0.105638 0.230793
0.740612 0.105776 0.233768
0.741421 0.105715 0.2365
0.742473 0.105562 0.238651
0.744701 0.105058 0.239918
0.7467 0.104524 0.241001
0.0659648 0.19588 0.0831922
0.065919 0.194797 0.0808118
0.0659037 0.193866 0.0781872
0.0658885 0.192157 0.0758831
0.0658732 0.189303 0.0764477
0.0694133 0.187076 0.078584
0.0784009 0.186053 0.0799268
0.0940566 0.183825 0.0832532
0.145052 0.173953 0.0950484
0.181735 0.171191 0.0995651
0.224399 0.175967 0.0992294
0.288731 0.145449 0.102296
0.348394 0.114717 0.0928817
0.408743 0.0971389 0.0844587
0.465888 0.0877089 0.0787671
0.524346 0.0852064 0.0836042
0.567498 0.0871138 0.0981613
0.595789 0.0899367 0.116609
0.638605 0.0927749 0.131518
0.692897 0.0990311 0.151034
0.709072 0.101167 0.159884
0.714519 0.101976 0.167224
0.719203 0.102419 0.174899
0.72401 0.103212 0.182971
0.728267 0.103929 0.19089
0.731258 0.104219 0.19791
0.733837 0.104479 0.203708
0.735424 0.104601 0.208026
0.736339 0.104753 0.211292
0.737285 0.104814 0.213718
0.738613 0.104662 0.215885
0.741009 0.104158 0.217243
0.74342 0.103609 0.218082
0.0659648 0.235691 0.07393
0.0659648 0.234638 0.071519
0.0659495 0.233433 0.0690166
0.0659495 0.231739 0.0686503
0.0657816 0.229572 0.0692454
0.0660105 0.226291 0.0700084
0.0688945 0.223529 0.071046
0.0809796 0.224201 0.0721904
0.106844 0.21886 0.0748455
0.175769 0.205524 0.0937209
0.223316 0.202075 0.101274
0.275105 0.207462 0.0988479
0.352407 0.168795 0.101411
0.413489 0.134127 0.0950484
0.476448 0.106432 0.0835431
0.526299 0.0953384 0.0807965
0.57734 0.088426 0.0800031
0.627939 0.0920882 0.0999313
0.659922 0.0953994 0.122454
0.686656 0.0981155 0.142992
0.705943 0.100771 0.154208
0.709026 0.101183 0.156222
0.708766 0.101122 0.156649
0.70959 0.101335 0.15874
0.712505 0.101778 0.163104
0.71545 0.101976 0.16791
0.718273 0.102373 0.172442
0.720516 0.102617 0.17615
0.722667 0.102922 0.179431
0.72462 0.10312 0.182162
0.726741 0.103105 0.184329
0.729656 0.102708 0.185641
0.732296 0.102251 0.186786
0.065919 0.285924 0.065919
0.065919 0.284733 0.065919
0.065919 0.283574 0.065919
0.065919 0.282322 0.065919
0.0658274 0.280217 0.0658274
0.06598 0.276707 0.06598
0.0658274 0.273106 0.0658274
0.0699626 0.270237 0.0659495
0.0868696 0.272908 0.0658274
0.126345 0.26331 0.0699779
0.216785 0.24686 0.0951247
0.276219 0.243046 0.10193
0.337453 0.250004 0.0991379
0.4168 0.209079 0.101335
0.480415 0.163973 0.099321
0.536294 0.123278 0.0889906
0.583062 0.108278 0.0843671
0.626703 0.0977951 0.083772
0.683665 0.0987259 0.100954
0.722423 0.103807 0.128573
0.728252 0.10602 0.151415
0.716731 0.102602 0.153399
0.712825 0.10161 0.153948
0.712047 0.10161 0.15465
0.711131 0.101564 0.1552
0.71017 0.101442 0.155474
0.70956 0.101244 0.155612
0.709407 0.101213 0.155795
0.709316 0.101198 0.155932
0.70959 0.101122 0.156054
0.710445 0.100938 0.156222
0.71223 0.100481 0.156039
0.714214 0.0999771 0.155962
0.0658732 0.35108 0.0658732
0.0657969 0.350652 0.0657969
0.0657969 0.34992 0.0657969
0.0657816 0.349294 0.0657816
0.0657816 0.348287 0.0657816
0.0658732 0.346883 0.0658732
0.0658579 0.340398 0.0658579
0.0658579 0.336873 0.0658579
0.0747845 0.33431 0.0658274
0.0983902 0.33727 0.0660258
0.154101 0.321538 0.0658427
0.270024 0.302296 0.0963455
0.347265 0.299184 0.103731
0.407385 0.308217 0.100893
0.481544 0.26923 0.10135
0.548058 0.209628 0.106874
0.5944 0.15668 0.101106
0.639506 0.13019 0.0944381
0.67866 0.114229 0.092668
0.721721 0.106508 0.0974136
0.756252 0.111589 0.127337
0.759609 0.111482 0.137789
0.755505 0.109972 0.141939
0.749111 0.108186 0.146166
0.740368 0.106981 0.15111
0.730114 0.105486 0.153933
0.71986 0.102388 0.15172
0.717098 0.101381 0.151598
0.717083 0.101335 0.152056
0.717128 0.101335 0.152163
0.71722 0.101335 0.152209
0.717891 0.101198 0.152117
0.719356 0.100801 0.151797
0.0658885 0.42533 0.0658885
0.065919 0.425208 0.065919
0.0659342 0.425116 0.0659342
0.06598 0.424628 0.06598
0.06598 0.424063 0.06598
0.06598 0.423468 0.06598
0.0658579 0.420768 0.0658579
0.0658885 0.413825 0.0658885
0.0688334 0.409979 0.06598
0.086656 0.408179 0.0660868
0.120394 0.409567 0.0659342
0.199939 0.386847 0.0659495
0.341375 0.3673 0.0999466
0.426261 0.366445 0.106706
0.479515 0.374243 0.104845
0.545449 0.354009 0.102358
0.611566 0.27863 0.116197
0.65507 0.218204 0.118853
0.695918 0.16553 0.110002
0.73167 0.143069 0.10602
0.753231 0.124895 0.106096
0.75375 0.116793 0.104509
0.755245 0.114183 0.107897
0.758602 0.113954 0.115206
0.760967 0.114092 0.122484
0.761913 0.113771 0.127657
0.761822 0.113222 0.131533
0.761334 0.112764 0.134112
0.76051 0.112337 0.135958
0.759548 0.111849 0.137118
0.758709 0.111498 0.138048
0.75906 0.110948 0.138445
0.760571 0.110124 0.138308
0.0666209 0.501198 0.066041
0.0668803 0.500908 0.066041
0.067155 0.500679 0.066041
0.0675212 0.500298 0.066041
0.0680552 0.49984 0.066041
0.0678264 0.499596 0.066041
0.0677348 0.498894 0.0660105
0.0668803 0.494347 0.0658885
0.0664378 0.489647 0.0659495
0.0780041 0.485908 0.066041
0.10779 0.486198 0.0660105
0.155154 0.483665 0.0659648
0.264744 0.453819 0.0681926
0.419516 0.43621 0.105074
0.504967 0.435218 0.110658
0.551797 0.441367 0.112078
0.611231 0.444099 0.114824
0.67155 0.373724 0.125109
0.722759 0.300114 0.135927
0.756588 0.225925 0.132723
0.780194 0.184771 0.126665
0.782208 0.166918 0.122301
0.777325 0.157244 0.118563
0.771862 0.149599 0.114977
0.766995 0.142687 0.111727
0.764828 0.136828 0.111986
0.76202 0.132296 0.110292
0.75967 0.12845 0.108553
0.758389 0.125887 0.107424
0.757824 0.124315 0.107103
0.757046 0.12285 0.106477
0.757763 0.121401 0.105669
0.75993 0.119921 0.104707
0.0779736 0.572152 0.0659495
0.0781415 0.571908 0.0659495
0.0782788 0.571679 0.0659495
0.0786145 0.57142 0.0659495
0.079057 0.57113 0.0659495
0.0792554 0.570611 0.0659495
0.0792096 0.570291 0.0659495
0.079057 0.568933 0.0659495
0.0783551 0.563546 0.0660105
0.0820172 0.560662 0.0658579
0.0968338 0.557336 0.0659495
0.14258 0.560952 0.0658427
0.205921 0.553277 0.0658885
0.35021 0.519203 0.0797894
0.496391 0.503471 0.111513
0.579904 0.502953 0.121874
0.623621 0.508614 0.125917
0.679194 0.518166 0.130709
0.734173 0.47097 0.135607
0.791119 0.399466 0.150698
0.820554 0.33164 0.157641
0.823804 0.26392 0.152697
0.815473 0.233646 0.145922
0.809735 0.220142 0.141741
0.806317 0.211994 0.13933
0.803433 0.205615 0.13727
0.801007 0.200229 0.135378
0.798749 0.19585 0.133654
0.796979 0.19237 0.132586
0.795865 0.190005 0.131868
0.794659 0.187991 0.130922
0.794995 0.186191 0.129839
0.796658 0.184512 0.128466
0.092546 0.642329 0.0660716
0.0925002 0.642222 0.0660716
0.0924849 0.642115 0.0660716
0.0926833 0.642008 0.0660716
0.0929427 0.641688 0.0660716
0.0935073 0.641199 0.0660716
0.0934157 0.640757 0.0660716
0.0933242 0.640192 0.0660716
0.0927901 0.638132 0.065919
0.0922103 0.631647 0.06598
0.100404 0.631098 0.0658732
0.127443 0.628168 0.0659953
0.189685 0.633066 0.0661326
0.273777 0.618952 0.06598
0.441093 0.580713 0.0973678
0.570809 0.569497 0.124163
0.652323 0.569894 0.137316
0.694408 0.574594 0.14229
0.746715 0.582528 0.147127
0.799496 0.567987 0.149767
0.844312 0.508263 0.16231
0.869734 0.43917 0.174502
0.868925 0.414099 0.174868
0.865431 0.399481 0.173861
0.861402 0.385595 0.171862
0.858427 0.373587 0.170718
0.855558 0.362707 0.169268
0.852857 0.353445 0.168063
0.850797 0.346014 0.167346
0.84918 0.339498 0.166308
0.847898 0.334417 0.165789
0.847333 0.330083 0.164553
0.84799 0.327108 0.163424
0.108476 0.71339 0.0662699
0.107912 0.713466 0.06598
0.107347 0.713603 0.06598
0.107317 0.713558 0.06598
0.107424 0.713405 0.06598
0.107897 0.713054 0.06598
0.108049 0.712642 0.06598
0.107958 0.712154 0.06598
0.107836 0.710948 0.06598
0.106981 0.706966 0.066041
0.106844 0.702083 0.065919
0.123323 0.702632 0.0660258
0.174502 0.701442 0.0658885
0.251255 0.703075 0.0661021
0.360555 0.681636 0.0744488
0.529 0.641001 0.119112
0.64303 0.635264 0.141451
0.722591 0.636393 0.154421
0.767681 0.64094 0.160464
0.813214 0.646159 0.165331
0.860014 0.651499 0.171984
0.885145 0.614115 0.1738
0.891035 0.578973 0.176928
0.889845 0.562936 0.178073
0.88835 0.55108 0.178683
0.887205 0.540764 0.179141
0.886076 0.53196 0.179278
0.88513 0.524285 0.179187
0.884428 0.518334 0.179141
0.883955 0.513497 0.179217
0.883421 0.509514 0.179095
0.88333 0.506233 0.178256
0.884199 0.504219 0.176989
0.127718 0.790585 0.0766766
0.126772 0.790845 0.0721752
0.125658 0.79115 0.0679484
0.125048 0.791119 0.0658274
0.124575 0.791089 0.0658274
0.124971 0.790951 0.0658274
0.125185 0.790524 0.065919
0.125216 0.790173 0.0659953
0.125032 0.789212 0.066041
0.124773 0.787274 0.066041
0.123644 0.779995 0.0660258
0.129229 0.779339 0.0659648
0.15639 0.779019 0.0659648
0.234226 0.778347 0.065919
0.326833 0.778042 0.0715496
0.454063 0.742245 0.0961624
0.61326 0.702785 0.142138
0.713603 0.70309 0.160662
0.794247 0.705226 0.174273
0.843458 0.709972 0.182544
0.876219 0.712123 0.187594
0.90544 0.713787 0.192645
0.919066 0.712474 0.195041
0.919417 0.708247 0.194156
0.917845 0.703349 0.192721
0.915343 0.695323 0.190311
0.913283 0.68751 0.188357
0.911818 0.681331 0.186969
0.910307 0.676036 0.18529
0.909102 0.671763 0.183917
0.908354 0.668498 0.183261
0.907591 0.665858 0.182742
0.90724 0.66389 0.182498
0.151354 0.865858 0.0894484
0.151019 0.866011 0.0854658
0.150134 0.866392 0.080705
0.149523 0.866804 0.0766308
0.14873 0.866972 0.0724346
0.148882 0.86659 0.0688792
0.148547 0.866621 0.0686046
0.148394 0.866194 0.068513
0.148241 0.865812 0.0684062
0.147784 0.864713 0.0680705
0.146792 0.861341 0.0674296
0.145434 0.853254 0.066041
0.158114 0.856611 0.0680095
0.208545 0.854383 0.0691234
0.311223 0.858198 0.0754864
0.421973 0.84828 0.0897536
0.554025 0.806317 0.122255
0.69633 0.768139 0.166888
0.785061 0.774701 0.182589
0.862821 0.776638 0.197803
0.909255 0.780072 0.209567
0.928923 0.780743 0.214878
0.936599 0.778454 0.217395
0.936828 0.774365 0.216587
0.936339 0.770672 0.21529
0.935988 0.767178 0.214038
0.935256 0.763943 0.21265
0.934936 0.761486 0.211933
0.934646 0.75938 0.211246
0.934157 0.757763 0.210498
0.933883 0.756374 0.210071
0.933639 0.755261 0.209674
0.933425 0.754376 0.209354
0.179522 0.920699 0.112245
0.180011 0.920653 0.108629
0.180194 0.92076 0.104555
0.180957 0.920653 0.101076
0.18204 0.920272 0.098024
0.182315 0.920211 0.0975509
0.182269 0.920272 0.0976577
0.18233 0.920363 0.0977188
0.182132 0.920134 0.0975204
0.181765 0.919692 0.0971084
0.180285 0.918181 0.0957198
0.176272 0.913664 0.0917067
0.178927 0.912184 0.0898451
0.209049 0.917342 0.0884108
0.298039 0.916579 0.0845045
0.416007 0.915648 0.0952163
0.527886 0.89543 0.115404
0.652415 0.856123 0.152117
0.776043 0.824689 0.193851
0.854124 0.834241 0.208652
0.916548 0.834852 0.224155
0.937621 0.837293 0.236225
0.937621 0.838193 0.23978
0.937682 0.835172 0.238865
0.937667 0.831907 0.23769
0.937575 0.829297 0.236759
0.937728 0.826902 0.235782
0.937728 0.824674 0.234943
0.937728 0.822919 0.234333
0.937636 0.821698 0.233967
0.937575 0.820478 0.233402
0.937575 0.819623 0.232959
0.937575 0.819013 0.232731
0.192264 0.935195 0.123201
0.193057 0.935058 0.120134
0.194385 0.934798 0.117098
0.196353 0.934371 0.114931
0.199161 0.933684 0.113664
0.199649 0.933562 0.114626
0.200046 0.933455 0.115099
0.200122 0.933486 0.115175
0.200122 0.933486 0.11519
0.200153 0.933501 0.115236
0.200122 0.933486 0.115175
0.199893 0.93341 0.114946
0.200855 0.9337 0.113817
0.216831 0.93669 0.10901
0.28249 0.937575 0.0970626
0.407416 0.937697 0.0995193
0.517922 0.934066 0.116884
0.622187 0.916075 0.143771
0.739116 0.888533 0.185641
0.847456 0.868559 0.22182
0.908568 0.875944 0.235767
0.937545 0.876204 0.25034
0.937606 0.877836 0.256275
0.93756 0.877531 0.25568
0.93756 0.876478 0.255039
0.93756 0.875578 0.255085
0.937697 0.874235 0.254719
0.937789 0.872953 0.254261
0.937774 0.871839 0.254185
0.937667 0.871031 0.254749
0.937621 0.87039 0.256046
0.937621 0.869856 0.256947
0.937621 0.869429 0.257389
0.195148 0.935531 0.127352
0.195117 0.9355 0.124147
0.195178 0.935485 0.120165
0.196384 0.935241 0.116854
0.198352 0.934768 0.114305
0.198489 0.934752 0.114626
0.198657 0.934722 0.114687
0.198657 0.934722 0.114687
0.198657 0.934722 0.114687
0.198657 0.934722 0.114687
0.198657 0.934722 0.114687
0.198657 0.934722 0.114687
0.199435 0.934874 0.114504
0.211337 0.936797 0.112001
0.27013 0.937697 0.100847
0.392172 0.937621 0.100465
0.51577 0.934646 0.118608
0.61503 0.923964 0.145388
0.716793 0.911238 0.180499
0.824216 0.900664 0.231098
0.906676 0.89424 0.256931
0.937621 0.89659 0.270497
0.937652 0.896559 0.283345
0.937667 0.896681 0.287037
0.937667 0.896788 0.288533
0.937667 0.89662 0.287221
0.937652 0.896422 0.28574
0.937652 0.896284 0.284138
0.937652 0.896086 0.282551
0.937652 0.89572 0.281071
0.937652 0.895323 0.280858
0.937652 0.894987 0.280812
0.937652 0.894728 0.280964
0.191592 0.936263 0.13434
0.19205 0.936156 0.130037
0.192523 0.936065 0.125124
0.194003 0.93579 0.120851
0.196033 0.935378 0.117754
0.197986 0.93489 0.115297
0.198703 0.934707 0.114595
0.198657 0.934722 0.114687
0.198657 0.934722 0.114687
0.198657 0.934722 0.114687
0.198657 0.934722 0.114687
0.198657 0.934722 0.114687
0.199161 0.934829 0.11458
0.207507 0.936324 0.112902
0.259373 0.937652 0.10164
0.37293 0.937743 0.0985885
0.485206 0.936248 0.112032
0.576745 0.929061 0.133455
0.681193 0.91548 0.165011
0.798856 0.902022 0.200244
0.914031 0.895689 0.240146
0.937636 0.897551 0.274006
0.937652 0.899947 0.308614
0.937713 0.901793 0.338369
0.937743 0.902922 0.356741
0.937758 0.902785 0.355917
0.937758 0.902556 0.353323
0.937743 0.902342 0.350835
0.937728 0.90222 0.348119
0.937743 0.902129 0.345617
0.937743 0.902037 0.343908
0.937713 0.901915 0.343236
0.937728 0.901793 0.343206
0.186419 0.937011 0.143938
0.187594 0.936858 0.138994
0.188327 0.936767 0.13312
0.190417 0.936492 0.126909
0.193088 0.936049 0.12221
0.195697 0.9355 0.118563
0.197787 0.934966 0.115831
0.198657 0.934722 0.114687
0.198657 0.934722 0.114687
0.198657 0.934722 0.114687
0.198657 0.934722 0.114687
0.198657 0.934722 0.114687
0.198795 0.934752 0.114656
0.203662 0.93576 0.113664
0.245045 0.937713 0.104173
0.351247 0.937575 0.0972915
0.459022 0.937148 0.107012
0.572915 0.929671 0.131411
0.674357 0.916396 0.161959
0.789548 0.902876 0.196506
0.900267 0.896574 0.237873
0.937652 0.898711 0.284199
0.937682 0.901137 0.324819
0.937575 0.904051 0.377584
0.937636 0.905501 0.402136
0.937713 0.906081 0.412573
0.937713 0.906111 0.413458
0.937728 0.906142 0.413611
0.937728 0.906172 0.413672
0.937728 0.906203 0.413352
0.937743 0.906233 0.413138
0.937743 0.906233 0.413123
0.937728 0.906188 0.413306
0.179583 0.937575 0.14786
0.181598 0.937453 0.144625
0.183474 0.937346 0.14023
0.18613 0.937087 0.134401
0.18909 0.936721 0.128618
0.192691 0.936141 0.122927
0.195941 0.935454 0.11841
0.198276 0.934829 0.115206
0.198657 0.934722 0.114687
0.198657 0.934722 0.114687
0.198657 0.934722 0.114687
0.198657 0.934722 0.114687
0.198657 0.934722 0.114687
0.201328 0.935286 0.114153
0.233036 0.937621 0.106371
0.331594 0.937667 0.0970626
0.444984 0.937514 0.10486
0.555215 0.93193 0.126085
0.660105 0.918593 0.156313
0.771435 0.904921 0.190204
0.883757 0.896895 0.228565
0.937636 0.898421 0.278355
0.937667 0.900572 0.31696
0.93756 0.903487 0.365774
0.937636 0.905196 0.396963
0.937713 0.906096 0.413031
0.937728 0.906142 0.413993
0.937728 0.906157 0.413901
0.937728 0.906172 0.413703
0.937743 0.906218 0.413397
0.937743 0.906233 0.413199
0.937743 0.906249 0.413108
0.937743 0.906249 0.413169
0.174334 0.937621 0.156863
0.176532 0.937652 0.153384
0.178912 0.937606 0.148913
0.181689 0.937453 0.143038
0.185031 0.937209 0.135698
0.189105 0.936736 0.128466
0.193423 0.935988 0.12192
0.196948 0.93518 0.11696
0.198703 0.934707 0.114611
0.198657 0.934722 0.114687
0.198657 0.934722 0.114687
0.198657 0.934722 0.114687
0.198657 0.934722 0.114687
0.200717 0.935149 0.114229
0.224491 0.937392 0.108415
0.315496 0.937743 0.0975052
0.431907 0.937575 0.103105
0.53846 0.933333 0.121691
0.646967 0.920562 0.151949
0.755795 0.906813 0.184741
0.869184 0.897688 0.220615
0.937575 0.898039 0.271244
0.937652 0.900343 0.310552
0.937758 0.903105 0.354559
0.937621 0.904906 0.392111
0.937713 0.906096 0.412955
0.937728 0.906142 0.413993
0.937728 0.906157 0.413901
0.937728 0.906172 0.413703
0.937743 0.906218 0.413397
0.937743 0.906233 0.413199
0.937743 0.906249 0.413108
0.937743 0.906249 0.413108
0.169848 0.937636 0.165133
0.172045 0.937621 0.160983
0.174441 0.937621 0.156664
0.177386 0.937652 0.150759
0.181109 0.937499 0.142992
0.185657 0.937163 0.134264
0.190646 0.936507 0.12604
0.195346 0.935592 0.119203
0.198383 0.934798 0.115068
0.198657 0.934722 0.114687
0.198657 0.934722 0.114687
0.198657 0.934722 0.114687
0.198657 0.934722 0.114687
0.200229 0.935042 0.114336
0.218708 0.937102 0.109789
0.303044 0.937697 0.0978103
0.424048 0.937591 0.10219
0.523705 0.934432 0.118456
0.636439 0.921874 0.148592
0.743053 0.908354 0.180667
0.856077 0.898192 0.214191
0.936507 0.897765 0.264561
0.937636 0.900084 0.30457
0.937743 0.902739 0.347509
