bundles/resolve-cinematic-luts/Phantom Luts/Canon Alexa LUT/ATOMOS Monitoring LUTs/C-Log 2/Utopia Canon CL2-Legacy AML.cube
TITLE "Generated by Resolve"
LUT_3D_SIZE 5
0.07364 0.095613 0.103441
0.168826 0.0919966 0.107805
0.582055 0.0878157 0.160327
0.741909 0.107759 0.27953
0.751324 0.10634 0.302113
0.0659648 0.19588 0.0831922
0.145052 0.173953 0.0950484
0.567498 0.0871138 0.0981613
0.728267 0.103929 0.19089
0.74342 0.103609 0.218082
0.108476 0.71339 0.0662699
0.107836 0.710948 0.06598
0.64303 0.635264 0.141451
0.88835 0.55108 0.178683
0.884199 0.504219 0.176989
0.179583 0.937575 0.14786
0.198657 0.934722 0.114687
0.444984 0.937514 0.10486
0.937636 0.905196 0.396963
0.937743 0.906249 0.413169
0.153475 0.937575 0.199573
0.192767 0.936049 0.1234
0.404486 0.937591 0.106218
0.937575 0.903746 0.376959
0.937758 0.906325 0.412711
0.0658122 0.10132 0.167361
0.15346 0.0943618 0.184848
0.581094 0.088426 0.247578
0.74461 0.109804 0.355566
0.750423 0.110048 0.382406
0.0659342 0.168261 0.170947
0.133654 0.162264 0.169253
0.563561 0.0871595 0.15639
0.745586 0.106523 0.27744
0.750561 0.106416 0.299504
0.0851759 0.697627 0.149905
0.0991836 0.692531 0.0681926
0.629999 0.622522 0.138064
0.881743 0.496071 0.178927
0.875883 0.442542 0.175067
0.138705 0.937606 0.258137
0.177859 0.937652 0.148608
0.393683 0.937667 0.0993362
0.937606 0.904891 0.39176
0.937743 0.906249 0.413108
0.111833 0.937652 0.340734
0.155291 0.937652 0.211917
0.319036 0.937591 0.103502
0.937713 0.902983 0.357626
0.937774 0.906386 0.412314
0.0658579 0.131518 0.491783
0.0846571 0.120867 0.530648
0.542687 0.10454 0.544732
0.73402 0.129213 0.604837
0.74049 0.127733 0.630076
0.0658579 0.154009 0.449683
0.0658579 0.129824 0.486778
0.522133 0.101656 0.523995
0.734981 0.127489 0.569162
0.740291 0.126864 0.590326
0.0658427 0.600366 0.567117
0.0658427 0.592569 0.558572
0.545892 0.561486 0.54136
0.900832 0.409583 0.520165
0.885969 0.355032 0.515297
0.084184 0.934005 0.673869
0.076173 0.93608 0.637263
0.173037 0.937621 0.158511
0.937575 0.90338 0.374792
0.937575 0.903716 0.376226
0.0821393 0.933761 0.705547
0.076997 0.935241 0.668223
0.151751 0.937636 0.228809
0.937697 0.899062 0.29659
0.937789 0.906462 0.41445
0.0659495 0.209216 0.737148
0.0658274 0.18764 0.796735
0.53402 0.139269 0.811521
0.702113 0.145006 0.769848
0.70457 0.143938 0.773083
0.06598 0.213123 0.701854
0.065919 0.209491 0.738064
0.498451 0.1411 0.819135
0.698787 0.146456 0.765301
0.704219 0.144076 0.772747
0.0659495 0.624063 0.818662
0.0658427 0.614069 0.822065
0.290929 0.525841 0.895613
0.761105 0.228 0.808881
0.74847 0.194018 0.799893
0.132723 0.922194 0.910399
0.140581 0.919615 0.907897
0.126696 0.917464 0.897124
0.908019 0.906844 0.898177
0.932998 0.890929 0.895064
0.133654 0.921645 0.91075
0.142016 0.919264 0.908782
0.126986 0.92311 0.894545
0.862852 0.934005 0.873625
0.930938 0.930144 0.92961
0.0659953 0.207111 0.754498
0.0701305 0.18024 0.805081
0.546395 0.138109 0.808286
0.702129 0.145006 0.769848
0.704005 0.144183 0.772381
0.0660258 0.211124 0.699779
0.0659953 0.207492 0.754131
0.508476 0.140368 0.817777
0.699229 0.146288 0.765728
0.704219 0.144076 0.772747
0.0658274 0.614633 0.834821
0.0659648 0.597421 0.830823
0.250797 0.462943 0.891218
0.733471 0.179202 0.788449
0.716045 0.156649 0.780331
0.133272 0.92163 0.910811
0.14226 0.918914 0.908537
0.1355 0.911742 0.908995
0.87657 0.892943 0.931136
0.92755 0.862074 0.926726
0.133104 0.921813 0.910811
0.142351 0.91902 0.908537
0.142351 0.91902 0.908537
0.762371 0.935393 0.934218
0.933013 0.929717 0.928237
