bundles/resolve-cinematic-luts/Gamut/Lotus/Lotus 02.cube
TITLE "Generated by 3D LUT Creator Pro (c) Oleg Sharonov"
LUT_3D_SIZE 25
#INPUTGAMMA sRGB
#IMAGEPROFILE sRGB
#OUTPUTGAMMA sRGB
0.000000 0.004731 0.000000
0.010251 0.001577 0.000000
0.047596 0.003154 0.000000
0.061056 0.003943 0.000000
0.102253 0.003943 0.002366
0.143964 0.007097 0.000000
0.185650 0.006309 0.000000
0.236218 0.004731 0.000000
0.292373 0.003154 0.000789
0.346671 0.003154 0.000789
0.398786 0.007886 0.000789
0.448730 0.018926 0.000789
0.497031 0.036274 0.001577
0.542188 0.060464 0.001577
0.584037 0.088729 0.001577
0.623957 0.118753 0.000789
0.662909 0.147523 0.000789
0.700606 0.174226 0.000789
0.737083 0.198744 0.000789
0.776649 0.221204 0.000789
0.818966 0.241677 0.000789
0.861834 0.259320 0.000789
0.904673 0.273762 0.001577
0.945337 0.283576 0.002366
0.984576 0.288789 0.001577
0.002366 0.010251 0.000000
0.012617 0.006309 0.000000
0.037063 0.011829 0.001577
0.063382 0.019714 0.000789
0.104163 0.019714 0.000000
0.143686 0.020503 0.002366
0.186287 0.022080 0.000789
0.237515 0.026023 0.000789
0.292881 0.027600 0.000789
0.347913 0.029966 0.000789
0.399397 0.037063 0.000789
0.449710 0.048294 0.000789
0.497430 0.065085 0.001577
0.542009 0.086072 0.001577
0.584091 0.110791 0.001577
0.624206 0.136563 0.001577
0.662863 0.162679 0.000789
0.699964 0.187762 0.001577
0.737243 0.210770 0.001577
0.776649 0.231945 0.000789
0.818477 0.251435 0.000789
0.861180 0.268206 0.001577
0.903815 0.281858 0.001577
0.944759 0.291609 0.002366
0.985233 0.297778 0.003154
0.003943 0.026023 0.001577
0.016560 0.023657 0.001577
0.029177 0.023657 0.003943
0.054295 0.020503 0.011829
0.094676 0.029966 0.006309
0.133906 0.041759 0.000000
0.182434 0.044738 0.000789
0.234585 0.050348 0.001577
0.291991 0.054934 0.000789
0.347603 0.060464 0.000789
0.400443 0.068394 0.000789
0.450237 0.079582 0.001577
0.497629 0.094676 0.001577
0.541890 0.113270 0.001577
0.583712 0.134501 0.001577
0.623659 0.157205 0.001577
0.662265 0.180693 0.001577
0.699621 0.203610 0.001577
0.737163 0.225021 0.001577
0.776948 0.244823 0.001577
0.818512 0.262945 0.001577
0.861246 0.278518 0.001577
0.903754 0.291354 0.002366
0.944730 0.300745 0.002366
0.984768 0.307417 0.003154
0.018137 0.045463 0.014194
0.032332 0.046181 0.014194
0.043264 0.044738 0.014983
0.064521 0.035486 0.023657
0.084261 0.037063 0.017349
0.123360 0.054295 0.013406
0.170081 0.066756 0.007097
0.225192 0.073649 0.003943
0.285283 0.083343 0.002366
0.344067 0.093011 0.001577
0.399048 0.102637 0.001577
0.450237 0.113620 0.001577
0.497231 0.127180 0.002366
0.541592 0.143686 0.001577
0.582899 0.162434 0.001577
0.622413 0.182217 0.001577
0.661343 0.202840 0.001577
0.699321 0.223641 0.000789
0.737444 0.243098 0.000789
0.777547 0.261357 0.001577
0.819280 0.277574 0.002366
0.861899 0.291991 0.002366
0.904183 0.303921 0.002366
0.944817 0.313220 0.001577
0.984686 0.319813 0.002366
0.018137 0.070533 0.017349
0.033120 0.072622 0.025234
0.046892 0.073137 0.019714
0.065646 0.071060 0.025234
0.087409 0.065646 0.025234
0.107524 0.061056 0.023657
0.154907 0.074158 0.018926
0.211508 0.090463 0.011040
0.273075 0.106786 0.006309
0.334272 0.122387 0.003154
0.392430 0.135683 0.001577
0.446153 0.148333 0.001577
0.494833 0.161452 0.001577
0.539860 0.176709 0.001577
0.581704 0.193338 0.001577
0.621315 0.211139 0.000789
0.660188 0.229103 0.000789
0.698848 0.246998 0.000789
0.737964 0.264665 0.001577
0.778630 0.281459 0.002366
0.820605 0.296281 0.002366
0.862878 0.309445 0.002366
0.904673 0.320611 0.001577
0.945250 0.329132 0.000789
0.985261 0.335245 0.001577
0.020503 0.104163 0.027600
0.033909 0.104542 0.029177
0.048294 0.099916 0.028389
0.081010 0.103784 0.024446
0.101090 0.101479 0.029966
0.124005 0.095499 0.033120
0.145618 0.082881 0.035486
0.198151 0.102637 0.028389
0.259028 0.123360 0.016560
0.320269 0.145068 0.008674
0.379973 0.163654 0.003943
0.436123 0.179596 0.002366
0.487482 0.194755 0.001577
0.534804 0.210214 0.001577
0.578647 0.226049 0.001577
0.619210 0.242310 0.000789
0.658521 0.258442 0.000789
0.697903 0.274174 0.000789
0.737884 0.290075 0.001577
0.778816 0.305494 0.002366
0.820779 0.319012 0.002366
0.862911 0.331112 0.001577
0.904551 0.341333 0.000789
0.944990 0.348635 0.000789
0.985206 0.353739 0.001577
0.022869 0.145618 0.032332
0.035486 0.146165 0.031543
0.053002 0.143964 0.035486
0.074664 0.143964 0.025234
0.104163 0.142571 0.038640
0.134501 0.139742 0.038640
0.160215 0.133308 0.040217
0.187552 0.119088 0.048985
0.245135 0.137147 0.040217
0.305615 0.162189 0.024446
0.364372 0.184371 0.012617
0.421663 0.204377 0.006309
0.475027 0.222948 0.003154
0.524318 0.240883 0.002366
0.570299 0.258001 0.001577
0.612891 0.274037 0.000789
0.654282 0.289561 0.000789
0.695315 0.304527 0.001577
0.736120 0.319241 0.001577
0.776986 0.333078 0.001577
0.819036 0.345216 0.001577
0.861475 0.356057 0.000789
0.903324 0.364957 0.000789
0.944064 0.371129 0.001577
0.984604 0.375395 0.002366
0.013406 0.193338 0.035486
0.032332 0.192114 0.038640
0.051686 0.189433 0.037852
0.086520 0.187131 0.040217
0.117744 0.187131 0.043264
0.147253 0.184799 0.044005
0.181566 0.184157 0.044738
0.211508 0.176709 0.056196
0.239126 0.165105 0.061643
0.293640 0.181566 0.051686
0.350073 0.202067 0.035486
0.406474 0.223295 0.021292
0.460032 0.244979 0.011040
0.509652 0.266088 0.005520
0.556815 0.286066 0.002366
0.601406 0.304163 0.001577
0.645125 0.320383 0.000789
0.688440 0.335569 0.000789
0.730796 0.349970 0.001577
0.773157 0.362904 0.001577
0.816482 0.373885 0.001577
0.859609 0.383203 0.000789
0.901695 0.390821 0.000789
0.942673 0.395712 0.001577
0.983452 0.399048 0.003154
0.006309 0.242468 0.041759
0.028389 0.242468 0.046181
0.053651 0.241360 0.049669
0.083343 0.240564 0.052347
0.114664 0.240405 0.054934
0.156188 0.240086 0.059868
0.193135 0.236218 0.058662
0.230111 0.236218 0.065646
0.262513 0.226561 0.072622
0.293387 0.216775 0.071060
0.341544 0.226561 0.065646
0.392875 0.241835 0.052347
0.444705 0.262657 0.034697
0.493963 0.285805 0.018926
0.541354 0.308493 0.008674
0.586843 0.329573 0.003943
0.631556 0.348119 0.001577
0.676346 0.364957 0.000789
0.720901 0.380252 0.000789
0.766188 0.393409 0.000789
0.812013 0.403989 0.001577
0.857049 0.412398 0.001577
0.899970 0.418548 0.000789
0.941337 0.422315 0.001577
0.982382 0.425073 0.001577
0.007886 0.291864 0.054295
0.032332 0.291991 0.058662
0.059868 0.291737 0.062806
0.091319 0.290843 0.066202
0.126235 0.290331 0.069470
0.164139 0.288789 0.071584
0.202454 0.287366 0.073137
0.239926 0.289175 0.076167
0.277574 0.282520 0.076167
0.311103 0.271971 0.084261
0.344694 0.265377 0.090463
0.384942 0.268066 0.087409
0.431158 0.281327 0.074158
0.479572 0.301971 0.053002
0.527165 0.325353 0.031543
0.572858 0.348532 0.016560
0.617701 0.370364 0.007097
0.662541 0.390462 0.002366
0.708216 0.408093 0.001577
0.755615 0.422722 0.001577
0.803909 0.434083 0.001577
0.851598 0.442252 0.001577
0.896693 0.447595 0.001577
0.939533 0.450838 0.000789
0.981337 0.453531 0.000789
0.025234 0.339425 0.072104
0.048985 0.339106 0.075168
0.075669 0.338359 0.078619
0.105669 0.337611 0.081950
0.139170 0.336860 0.085170
0.175585 0.335137 0.087851
0.213523 0.333730 0.090892
0.252342 0.333404 0.091745
0.291864 0.331331 0.095088
0.327583 0.324119 0.100309
0.357159 0.314854 0.107524
0.387941 0.307537 0.112919
0.424830 0.308254 0.112214
0.467999 0.320155 0.099916
0.514133 0.340169 0.077155
0.560139 0.363492 0.051686
0.605507 0.387488 0.029966
0.650102 0.410716 0.014194
0.695358 0.431555 0.006309
0.743023 0.449032 0.003154
0.792496 0.462731 0.001577
0.842107 0.472133 0.001577
0.889683 0.477760 0.001577
0.934268 0.481097 0.001577
0.977144 0.483788 0.001577
0.058053 0.384851 0.092590
0.077646 0.384028 0.094676
0.100700 0.383019 0.097529
0.126866 0.382376 0.100700
0.156697 0.381546 0.103784
0.190469 0.379973 0.106786
0.226220 0.378393 0.109712
0.264236 0.377272 0.112214
0.303191 0.375677 0.116385
0.339850 0.371511 0.122061
0.371511 0.365833 0.124326
0.399833 0.357359 0.130586
0.428689 0.348943 0.137728
0.462222 0.348222 0.139456
0.502246 0.359153 0.129357
0.546981 0.378951 0.107156
0.593360 0.402782 0.078619
0.638749 0.427407 0.050348
0.683909 0.450312 0.027600
0.730877 0.471068 0.013406
0.780083 0.488434 0.006309
0.830557 0.501064 0.003154
0.879745 0.508556 0.002366
0.925791 0.512538 0.002366
0.969664 0.515404 0.001577
0.095088 0.428129 0.114317
0.111148 0.427407 0.115699
0.129973 0.426604 0.117744
0.151788 0.425880 0.120748
0.178048 0.424992 0.124326
0.207788 0.423453 0.128118
0.240564 0.421989 0.131196
0.276084 0.420682 0.134204
0.313688 0.418877 0.137437
0.350380 0.416068 0.140597
0.383203 0.413068 0.143408
0.412901 0.408093 0.148333
0.439007 0.399485 0.155677
0.464977 0.390642 0.163897
0.496233 0.389294 0.167731
0.535590 0.399485 0.160463
0.580560 0.418959 0.140312
0.626635 0.442713 0.111504
0.672568 0.466563 0.080060
0.719663 0.489383 0.051020
0.768849 0.509716 0.028389
0.819141 0.525929 0.014983
0.868882 0.536918 0.007886
0.916187 0.543079 0.003943
0.961627 0.546864 0.002366
0.131499 0.470143 0.137437
0.144793 0.469858 0.138017
0.160463 0.469287 0.139456
0.179155 0.468572 0.142290
0.201679 0.467999 0.146165
0.227072 0.466779 0.150468
0.255487 0.465194 0.154133
0.288143 0.463530 0.157205
0.324232 0.461785 0.159717
0.359550 0.459592 0.161944
0.392073 0.457681 0.165105
0.422396 0.455538 0.169145
0.449786 0.450763 0.173771
0.474535 0.442098 0.181130
0.500339 0.433295 0.191088
0.531276 0.431079 0.197159
0.569517 0.440169 0.192727
0.613298 0.459226 0.176260
0.659911 0.482824 0.150203
0.708469 0.506485 0.118418
0.758595 0.528089 0.086072
0.808827 0.546393 0.057439
0.858330 0.560538 0.035486
0.906753 0.570299 0.020503
0.954527 0.577275 0.011040
0.165825 0.513113 0.162679
0.176933 0.512730 0.162434
0.189848 0.512218 0.163167
0.206469 0.511514 0.165345
0.225707 0.511065 0.169379
0.247153 0.510423 0.173999
0.271694 0.508685 0.177825
0.301114 0.506939 0.181348
0.334380 0.505381 0.183942
0.367866 0.503751 0.185863
0.399485 0.502442 0.188390
0.429806 0.501261 0.192114
0.458491 0.499020 0.195761
0.485776 0.494565 0.200511
0.511258 0.486391 0.209285
0.536255 0.476991 0.219621
0.565022 0.473406 0.227072
0.602396 0.482203 0.226220
0.646932 0.500932 0.214069
0.696395 0.523510 0.192523
0.748156 0.545626 0.164864
0.799420 0.564853 0.134204
0.849105 0.580723 0.103021
0.897777 0.593467 0.076167
0.946175 0.604317 0.056196
0.196960 0.558652 0.189433
0.205331 0.557734 0.188808
0.215877 0.557160 0.189225
0.230780 0.556354 0.191293
0.248078 0.555432 0.194957
0.266796 0.554854 0.199138
0.288143 0.553871 0.203033
0.313805 0.552420 0.207036
0.343334 0.551023 0.210214
0.374735 0.549797 0.211876
0.406047 0.548919 0.214069
0.436515 0.547863 0.217490
0.466059 0.546628 0.221029
0.495300 0.545035 0.225021
0.523012 0.541115 0.230613
0.547158 0.532496 0.238965
0.570745 0.522575 0.249305
0.599892 0.518942 0.258588
0.638024 0.526733 0.261357
0.684616 0.543554 0.254145
0.736441 0.564118 0.238161
0.789023 0.583767 0.216775
0.839679 0.600362 0.192114
0.888492 0.614263 0.167967
0.936612 0.626981 0.148869
0.220853 0.606023 0.218203
0.227751 0.605197 0.217669
0.236868 0.604938 0.218203
0.249916 0.604161 0.220326
0.265946 0.602968 0.223121
0.283444 0.602344 0.226220
0.302704 0.601771 0.229775
0.325017 0.600519 0.234093
0.351096 0.599159 0.237354
0.380437 0.598320 0.239766
0.411137 0.597742 0.242468
0.441944 0.596953 0.245291
0.472487 0.595952 0.248385
0.502770 0.595530 0.252945
0.532009 0.594579 0.257559
0.559167 0.590701 0.262801
0.584091 0.582193 0.270445
0.609162 0.571914 0.281193
0.638845 0.566882 0.292627
0.677510 0.572025 0.299513
0.725216 0.585874 0.297778
0.777210 0.603539 0.288014
0.828875 0.620464 0.274174
0.878568 0.635311 0.260777
0.927275 0.648827 0.251587
0.236381 0.654095 0.248692
0.244041 0.653767 0.248539
0.252644 0.653720 0.249305
0.263950 0.653205 0.250981
0.278114 0.652314 0.252493
0.294775 0.651844 0.254444
0.313337 0.651044 0.258001
0.334055 0.649630 0.262657
0.358257 0.648543 0.266513
0.385581 0.648164 0.269887
0.415071 0.647833 0.273075
0.445924 0.646979 0.275676
0.477271 0.646124 0.278383
0.508233 0.645934 0.282520
0.538782 0.646172 0.287366
0.568957 0.645506 0.291609
0.598897 0.641539 0.296406
0.626487 0.632192 0.304285
0.652173 0.620614 0.316363
0.681430 0.613502 0.330783
0.720282 0.615682 0.341861
0.767520 0.626635 0.345424
0.817988 0.641635 0.343019
0.867783 0.657407 0.339638
0.916518 0.672974 0.338573
0.247924 0.701847 0.281193
0.255785 0.701761 0.281193
0.264379 0.701676 0.282255
0.274584 0.701248 0.283576
0.287107 0.700606 0.284365
0.302948 0.700564 0.285805
0.321407 0.699835 0.289433
0.341861 0.698376 0.294019
0.364762 0.697429 0.298771
0.390462 0.697214 0.303070
0.418548 0.696826 0.307058
0.449107 0.696092 0.310275
0.481028 0.695444 0.312986
0.512857 0.695401 0.316132
0.544621 0.695660 0.320383
0.577714 0.695747 0.325129
0.612127 0.694233 0.329022
0.644601 0.688921 0.334272
0.672342 0.679072 0.343334
0.697558 0.667032 0.356659
0.726851 0.658521 0.372843
0.764700 0.658382 0.388212
0.809394 0.666803 0.399833
0.856752 0.680808 0.408348
0.904704 0.697128 0.416234
0.259466 0.748352 0.317979
0.267220 0.747920 0.318323
0.275404 0.747645 0.319584
0.285021 0.747251 0.320839
0.296781 0.746975 0.321861
0.312164 0.746897 0.323894
0.330454 0.746108 0.327138
0.350278 0.745200 0.331222
0.372177 0.744884 0.336323
0.396505 0.744449 0.341333
0.423534 0.743816 0.346048
0.453606 0.743301 0.350482
0.485639 0.742865 0.353739
0.518250 0.742666 0.356057
0.551140 0.742666 0.359550
0.586359 0.742428 0.364470
0.623410 0.741236 0.369118
0.659355 0.738684 0.373790
0.691671 0.733626 0.380066
0.719001 0.724315 0.389474
0.743935 0.711834 0.403989
0.771989 0.701847 0.422884
0.806586 0.700050 0.445086
0.847571 0.707498 0.467712
0.892963 0.720901 0.489180
0.276627 0.791584 0.361528
0.283839 0.791073 0.362708
0.291226 0.790780 0.363981
0.300376 0.790378 0.364957
0.311693 0.790085 0.366609
0.326359 0.789865 0.369598
0.343753 0.789169 0.372748
0.362806 0.788839 0.376429
0.383570 0.788876 0.381177
0.406730 0.788436 0.386490
0.432663 0.787554 0.391894
0.461712 0.786929 0.396329
0.493025 0.786598 0.399920
0.525620 0.786266 0.402955
0.559568 0.785861 0.406389
0.595741 0.785345 0.411558
0.633266 0.784126 0.417475
0.670170 0.782646 0.422803
0.705423 0.780753 0.427889
0.737243 0.776162 0.435262
0.764242 0.766607 0.447292
0.787775 0.753749 0.464327
0.812931 0.743697 0.487890
0.844124 0.741395 0.518439
0.881364 0.746542 0.552304
0.305132 0.829115 0.414488
0.311575 0.829630 0.415985
0.317979 0.829665 0.417062
0.326024 0.828978 0.418136
0.336431 0.828668 0.419863
0.349765 0.828737 0.422884
0.365833 0.828428 0.426282
0.383936 0.828084 0.430205
0.403731 0.827911 0.434869
0.425557 0.827567 0.440401
0.449936 0.826740 0.445544
0.477131 0.825877 0.449786
0.506680 0.825497 0.454202
0.538422 0.825082 0.459079
0.572581 0.824459 0.463964
0.608289 0.823836 0.469644
0.644123 0.822865 0.476361
0.679518 0.821719 0.482755
0.715012 0.820814 0.488977
0.749138 0.819280 0.496898
0.779897 0.814656 0.508362
0.805303 0.805374 0.522700
0.826498 0.793516 0.541711
0.848372 0.783756 0.568285
0.874256 0.778443 0.600467
0.349868 0.862356 0.478667
0.356057 0.863237 0.480266
0.361626 0.863400 0.481513
0.368444 0.862650 0.482893
0.377552 0.862356 0.484817
0.389204 0.862748 0.487550
0.403731 0.862748 0.491343
0.420518 0.862062 0.495900
0.439085 0.861475 0.501261
0.459299 0.861180 0.506745
0.481305 0.860723 0.511770
0.505771 0.859839 0.516545
0.532618 0.859511 0.522388
0.561962 0.858823 0.529134
0.594102 0.857969 0.535651
0.627228 0.857213 0.542069
0.659818 0.856522 0.549036
0.692149 0.855534 0.556239
0.725339 0.854544 0.563948
0.758170 0.854114 0.573191
0.789389 0.853089 0.584254
0.819699 0.850702 0.594790
0.842343 0.842073 0.609162
0.858100 0.830865 0.627574
0.874512 0.818477 0.648732
0.418795 0.892994 0.559968
0.424830 0.892527 0.561621
0.429886 0.892153 0.563438
0.435497 0.891716 0.565248
0.442867 0.891528 0.566938
0.453159 0.891591 0.569628
0.466131 0.891622 0.573690
0.480543 0.891060 0.578427
0.496633 0.890215 0.583821
0.514514 0.889777 0.589365
0.533348 0.889213 0.594579
0.553697 0.888492 0.599735
0.576505 0.888053 0.605920
0.601197 0.887393 0.612535
0.628067 0.886292 0.618456
0.655683 0.885253 0.623957
0.683158 0.884338 0.629593
0.710827 0.883011 0.635457
0.739762 0.881840 0.643455
0.768660 0.881459 0.653720
0.796891 0.882884 0.667807
0.825877 0.882884 0.674505
0.853651 0.879459 0.687519
0.867297 0.874672 0.698634
0.880190 0.861932 0.711960
0.510038 0.921080 0.658428
0.516481 0.918893 0.660235
0.522014 0.917601 0.662679
0.526362 0.917541 0.664333
0.531399 0.917301 0.665203
0.540518 0.916759 0.667761
0.552013 0.916759 0.671755
0.562474 0.916488 0.675763
0.574188 0.915584 0.680141
0.588990 0.914860 0.684880
0.604109 0.913621 0.689577
0.619662 0.912471 0.693583
0.636815 0.911865 0.697429
0.654750 0.911137 0.700992
0.673290 0.910348 0.703212
0.692410 0.908827 0.705041
0.711960 0.906906 0.706821
0.733101 0.904306 0.707413
0.755071 0.901542 0.709060
0.777958 0.896104 0.713300
0.793843 0.894426 0.709607
0.821232 0.896290 0.714094
0.840388 0.888900 0.717384
0.864279 0.892277 0.710785
0.878791 0.878950 0.729376
0.000000 0.002366 0.011829
0.014983 0.001577 0.018137
0.044738 0.000000 0.019714
0.073649 0.000000 0.006309
0.109350 0.000789 0.011829
0.149404 0.001577 0.007097
0.190055 0.001577 0.007886
0.240405 0.002366 0.007886
0.294650 0.001577 0.005520
0.349663 0.001577 0.003943
0.401745 0.003943 0.002366
0.451963 0.008674 0.002366
0.499350 0.021292 0.001577
0.543851 0.044005 0.001577
0.586305 0.073649 0.001577
0.626388 0.105669 0.001577
0.664929 0.135977 0.001577
0.702615 0.164381 0.001577
0.739921 0.190469 0.000789
0.779413 0.214069 0.000789
0.821023 0.235240 0.001577
0.863595 0.253396 0.001577
0.905806 0.267925 0.001577
0.946752 0.279056 0.002366
0.987092 0.287755 0.003154
0.006309 0.014194 0.012617
0.015771 0.011829 0.013406
0.042516 0.013406 0.012617
0.072104 0.014983 0.007886
0.108987 0.018926 0.008674
0.146437 0.017349 0.008674
0.190055 0.018137 0.007886
0.240724 0.019714 0.007097
0.295780 0.020503 0.005520
0.350789 0.022080 0.003943
0.403041 0.026023 0.002366
0.452860 0.034697 0.001577
0.499878 0.049669 0.001577
0.544266 0.071060 0.001577
0.586251 0.097126 0.001577
0.626388 0.124965 0.001577
0.664883 0.152312 0.001577
0.701975 0.178934 0.001577
0.739403 0.203225 0.001577
0.779189 0.225192 0.000789
0.820605 0.244979 0.001577
0.862878 0.262225 0.001577
0.904949 0.276084 0.001577
0.946261 0.287107 0.001577
0.987556 0.296406 0.002366
0.006309 0.032332 0.019714
0.023657 0.031543 0.023657
0.035486 0.028389 0.016560
0.061643 0.033120 0.022080
0.100700 0.037852 0.015771
0.145618 0.040994 0.008674
0.189016 0.042516 0.006309
0.239926 0.044738 0.007886
0.296156 0.046892 0.005520
0.351198 0.051020 0.003943
0.403559 0.057439 0.002366
0.453382 0.066756 0.001577
0.500208 0.081481 0.001577
0.544325 0.101090 0.001577
0.585982 0.123360 0.001577
0.625546 0.147253 0.001577
0.663966 0.171936 0.001577
0.701163 0.195761 0.001577
0.739043 0.218203 0.001577
0.779040 0.238644 0.001577
0.820536 0.256969 0.001577
0.862813 0.272937 0.001577
0.904704 0.286066 0.001577
0.945886 0.296531 0.001577
0.986873 0.305373 0.002366
0.018137 0.054934 0.028389
0.030754 0.051686 0.027600
0.043264 0.051686 0.027600
0.061643 0.046892 0.035486
0.086072 0.044738 0.026812
0.128429 0.059267 0.022869
0.180474 0.068934 0.011829
0.233929 0.073137 0.011829
0.291482 0.079582 0.007886
0.349046 0.086520 0.003943
0.402955 0.095088 0.003154
0.453457 0.104919 0.002366
0.500405 0.118081 0.001577
0.544029 0.134501 0.001577
0.585281 0.153875 0.001577
0.624504 0.174454 0.001577
0.662817 0.195761 0.001577
0.700521 0.216954 0.001577
0.739163 0.237030 0.001577
0.779301 0.255785 0.001577
0.821023 0.272524 0.001577
0.863171 0.287107 0.001577
0.905225 0.299266 0.001577
0.946146 0.308969 0.001577
0.986573 0.316941 0.002366
0.020503 0.077646 0.032332
0.030754 0.081481 0.033909
0.046181 0.082416 0.030754
0.068394 0.073649 0.038640
0.089165 0.071060 0.033909
0.111859 0.070003 0.037852
0.165105 0.081950 0.031543
0.220326 0.097126 0.022080
0.280794 0.108987 0.014194
0.340804 0.121406 0.007097
0.397911 0.132708 0.003943
0.450463 0.143686 0.002366
0.498623 0.156188 0.002366
0.542842 0.170779 0.001577
0.584254 0.187342 0.001577
0.623211 0.205331 0.001577
0.661481 0.223814 0.001577
0.700007 0.241994 0.001577
0.739363 0.259758 0.001577
0.780009 0.276627 0.001577
0.821580 0.291864 0.002366
0.863921 0.305132 0.002366
0.905745 0.316247 0.001577
0.946550 0.325129 0.001577
0.986928 0.331769 0.001577
0.022080 0.112567 0.040217
0.035486 0.111859 0.037852
0.047596 0.110791 0.039429
0.074664 0.110072 0.040994
0.103021 0.107892 0.042516
0.124005 0.099916 0.048985
0.153875 0.092590 0.054295
0.203033 0.108987 0.040217
0.265520 0.129666 0.028389
0.327138 0.148601 0.016560
0.386127 0.164864 0.007886
0.441328 0.178934 0.003943
0.491949 0.192727 0.002366
0.538242 0.207036 0.002366
0.581214 0.222252 0.001577
0.621165 0.238161 0.001577
0.660049 0.254444 0.001577
0.699278 0.270305 0.001577
0.739123 0.286196 0.001577
0.779785 0.301359 0.001577
0.821510 0.314971 0.001577
0.863693 0.326916 0.001577
0.905316 0.337075 0.001577
0.946261 0.344903 0.001577
0.986791 0.350687 0.001577
0.015771 0.151788 0.044738
0.033909 0.151788 0.046892
0.054295 0.150733 0.046892
0.077646 0.147794 0.044738
0.108623 0.148333 0.052347
0.141164 0.144241 0.056196
0.162923 0.139742 0.057439
0.190469 0.125284 0.063382
0.250829 0.146165 0.053651
0.311928 0.167731 0.037063
0.370843 0.188181 0.022080
0.427006 0.206847 0.011040
0.479433 0.223987 0.005520
0.528150 0.240405 0.003154
0.573468 0.256081 0.001577
0.615732 0.271556 0.001577
0.656662 0.286457 0.001577
0.697171 0.301236 0.001577
0.737363 0.315784 0.001577
0.778144 0.329463 0.001577
0.820048 0.341544 0.001577
0.862552 0.352115 0.001577
0.904244 0.361035 0.001577
0.945279 0.367673 0.001577
0.986272 0.372748 0.002366
0.009463 0.198547 0.052347
0.029966 0.197755 0.054934
0.053002 0.194957 0.056196
0.081010 0.192114 0.057439
0.116042 0.193541 0.062806
0.145891 0.191088 0.061056
0.181348 0.187762 0.059868
0.212243 0.180693 0.067852
0.242783 0.168910 0.074158
0.298275 0.186498 0.066202
0.355655 0.207224 0.048294
0.411474 0.227751 0.030754
0.464254 0.248385 0.017349
0.513432 0.267925 0.007886
0.560424 0.286196 0.003154
0.604783 0.302948 0.002366
0.648259 0.318438 0.001577
0.691148 0.332969 0.001577
0.733061 0.347086 0.001577
0.774925 0.360046 0.001577
0.817883 0.370843 0.001577
0.861180 0.380159 0.001577
0.903293 0.387488 0.001577
0.944383 0.392875 0.001577
0.985397 0.396945 0.002366
0.004731 0.248078 0.060464
0.026812 0.247770 0.063382
0.053651 0.246689 0.066756
0.084261 0.245291 0.069470
0.117405 0.244197 0.071584
0.157205 0.243256 0.075669
0.194755 0.240086 0.071584
0.233105 0.238644 0.079102
0.265520 0.231945 0.087851
0.295153 0.219621 0.087409
0.345111 0.231113 0.080536
0.396945 0.246844 0.065646
0.448503 0.267079 0.046181
0.497695 0.288918 0.026812
0.544858 0.310275 0.013406
0.590113 0.330124 0.006309
0.634728 0.348016 0.003154
0.679607 0.364177 0.001577
0.724028 0.378672 0.001577
0.768887 0.391537 0.001577
0.814304 0.402004 0.001577
0.859118 0.410126 0.001577
0.902095 0.416234 0.001577
0.943745 0.420273 0.001577
0.985042 0.423372 0.001577
0.007097 0.297280 0.071584
0.032332 0.296906 0.075168
0.061056 0.296031 0.078619
0.093011 0.294901 0.081950
0.127493 0.293767 0.084261
0.165345 0.292246 0.087409
0.202840 0.290715 0.089165
0.243413 0.290459 0.089165
0.281193 0.286066 0.091745
0.314272 0.276356 0.099916
0.346256 0.268908 0.105669
0.388392 0.272937 0.101867
0.434633 0.286066 0.087409
0.482824 0.305976 0.065646
0.530237 0.328359 0.041759
0.575624 0.350892 0.022869
0.620263 0.372082 0.011040
0.665341 0.391448 0.004731
0.711289 0.408263 0.002366
0.758710 0.422152 0.001577
0.806836 0.432900 0.001577
0.854213 0.440788 0.001577
0.899199 0.446153 0.001577
0.941947 0.449409 0.001577
0.983644 0.451589 0.001577
0.025234 0.344276 0.087409
0.049669 0.343334 0.090463
0.077646 0.342177 0.093429
0.108258 0.341122 0.096721
0.141446 0.339956 0.099916
0.176709 0.337932 0.102637
0.214069 0.336108 0.105669
0.253396 0.335461 0.107524
0.293007 0.331550 0.109350
