bundles/resolve-cinematic-luts/Gamut/Lotus/Lotus 02.cube
TITLE "Generated by 3D LUT Creator Pro (c) Oleg Sharonov"
LUT_3D_SIZE 5
#INPUTGAMMA sRGB
#IMAGEPROFILE sRGB
#OUTPUTGAMMA sRGB
0.000000 0.004731 0.000000
0.185650 0.006309 0.000000
0.497031 0.036274 0.001577
0.737083 0.198744 0.000789
0.984576 0.288789 0.001577
0.022869 0.145618 0.032332
0.160215 0.133308 0.040217
0.475027 0.222948 0.003154
0.736120 0.319241 0.001577
0.984604 0.375395 0.002366
0.095088 0.428129 0.114317
0.240564 0.421989 0.131196
0.439007 0.399485 0.155677
0.672568 0.466563 0.080060
0.961627 0.546864 0.002366
0.247924 0.701847 0.281193
0.321407 0.699835 0.289433
0.481028 0.695444 0.312986
0.672342 0.679072 0.343334
0.904704 0.697128 0.416234
0.510038 0.921080 0.658428
0.552013 0.916759 0.671755
0.636815 0.911865 0.697429
0.755071 0.901542 0.709060
0.878791 0.878950 0.729376
0.002366 0.015771 0.191704
0.208538 0.000789 0.218559
0.521264 0.000789 0.177380
0.762749 0.030754 0.054295
0.998281 0.198349 0.004731
0.003943 0.187552 0.193541
0.202840 0.193947 0.203033
0.514514 0.177156 0.149404
0.752346 0.262369 0.054295
0.996585 0.323106 0.003943
0.091745 0.457755 0.241518
0.256526 0.450838 0.254145
0.453009 0.432030 0.269468
0.688571 0.495100 0.215697
0.978912 0.530298 0.014194
0.234913 0.715388 0.356559
0.314155 0.712966 0.365639
0.474535 0.708005 0.388483
0.673695 0.691148 0.413821
0.908462 0.703850 0.452785
0.504730 0.920422 0.661251
0.541413 0.918082 0.672026
0.629888 0.912411 0.696912
0.752268 0.902095 0.709986
0.877389 0.881301 0.724192
0.042516 0.063382 0.486868
0.244667 0.006309 0.502901
0.522014 0.000789 0.529624
0.764968 0.001577 0.519571
0.997339 0.002366 0.395624
0.126235 0.263663 0.478388
0.248692 0.240724 0.493561
0.515086 0.125602 0.524938
0.765921 0.075168 0.496233
0.998550 0.018137 0.349765
0.049669 0.486868 0.478737
0.232939 0.492218 0.484131
0.462367 0.504077 0.495434
0.743737 0.491141 0.449032
0.996046 0.477411 0.356959
0.065085 0.746581 0.528642
0.234257 0.746581 0.534501
0.456944 0.741116 0.556181
0.679072 0.727585 0.574630
0.918653 0.735156 0.569125
0.504012 0.922306 0.718214
0.540697 0.921080 0.725052
0.624603 0.914981 0.736120
0.743935 0.903447 0.751995
0.868591 0.888366 0.756778
0.237354 0.231779 0.781496
0.324905 0.202840 0.787444
0.505771 0.046892 0.805231
0.743697 0.001577 0.820222
0.999248 0.000789 0.791292
0.247153 0.365249 0.778667
0.319241 0.347086 0.784200
0.490601 0.266513 0.802153
0.739003 0.060464 0.820013
0.998012 0.013406 0.783349
0.297778 0.573302 0.761483
0.348841 0.573025 0.766531
0.463602 0.547334 0.788142
0.719497 0.468071 0.811554
0.986682 0.435654 0.756468
0.047596 0.762135 0.771423
0.139456 0.764050 0.772517
0.431238 0.771989 0.777734
0.684792 0.781310 0.788252
0.933710 0.755925 0.747999
0.416565 0.931473 0.797072
0.473194 0.928401 0.802296
0.617147 0.919313 0.817323
0.749098 0.906814 0.836969
0.857476 0.891903 0.840084
0.442790 0.552536 0.948682
0.462876 0.532496 0.947876
0.524069 0.462586 0.952155
0.674595 0.198744 0.962813
0.940406 0.000789 0.974622
0.473477 0.611618 0.940988
0.485913 0.595002 0.943369
0.535227 0.530665 0.948970
0.674820 0.330454 0.960326
0.945886 0.000789 0.969105
0.560253 0.736401 0.926949
0.566375 0.726443 0.929761
0.588615 0.686685 0.934884
0.681829 0.566375 0.949286
0.931944 0.404505 0.956238
0.594843 0.827154 0.915282
0.619662 0.828496 0.914256
0.677689 0.832952 0.913833
0.736080 0.815605 0.915584
0.885568 0.763476 0.928963
0.517619 0.911865 0.911319
0.555663 0.910591 0.909618
0.654142 0.909253 0.910348
0.790048 0.906875 0.910165
0.850934 0.905867 0.909801
