bundles/resolve-cinematic-luts/Gamut/Lotus/Lotus 01.cube
TITLE "Generated by 3D LUT Creator Pro (c) Oleg Sharonov"
LUT_3D_SIZE 5
#INPUTGAMMA sRGB
#IMAGEPROFILE sRGB
#OUTPUTGAMMA sRGB
0.011829 0.018926 0.016560
0.200706 0.037063 0.023657
0.597217 0.042516 0.001577
0.879396 0.138882 0.001577
0.999356 0.242310 0.001577
0.007886 0.277304 0.003154
0.234585 0.250068 0.026023
0.564683 0.281725 0.006309
0.849205 0.327915 0.000789
0.998899 0.364079 0.035486
0.197159 0.654282 0.001577
0.422396 0.655917 0.001577
0.598844 0.567387 0.033909
0.786487 0.547452 0.118081
0.968489 0.560367 0.188808
0.379416 0.827188 0.002366
0.476011 0.829046 0.001577
0.651844 0.811271 0.044738
0.795732 0.757165 0.296906
0.919493 0.736000 0.431396
0.520512 0.987310 0.288918
0.563041 0.987501 0.288014
0.680453 0.988346 0.287107
0.848705 0.970474 0.478946
0.982052 0.958512 0.649252
0.001577 0.048985 0.213887
0.211692 0.019714 0.233599
0.626140 0.001577 0.259613
0.905408 0.004731 0.208912
0.998792 0.177380 0.225364
0.001577 0.271001 0.242941
0.232277 0.266230 0.253995
0.630723 0.242152 0.246379
0.875728 0.279592 0.222600
0.998899 0.344799 0.241677
0.020503 0.645030 0.159218
0.320383 0.652314 0.155677
0.609931 0.581377 0.242468
0.799996 0.556757 0.283839
0.975094 0.564231 0.314971
0.362512 0.825877 0.232443
0.464254 0.828703 0.233599
0.650196 0.816447 0.268487
0.796747 0.760675 0.393764
0.924631 0.741872 0.483031
0.532740 0.985589 0.406986
0.574962 0.988101 0.406389
0.684307 0.988700 0.395005
0.849904 0.974178 0.523385
0.983397 0.960750 0.666347
0.001577 0.114664 0.546098
0.223295 0.078619 0.554970
0.607158 0.002366 0.563948
0.867135 0.007097 0.554392
0.999463 0.178491 0.517871
0.001577 0.326804 0.559796
0.179376 0.281725 0.570856
0.618758 0.217669 0.573302
0.863171 0.275404 0.551256
0.998469 0.350789 0.515975
0.003943 0.608135 0.555836
0.241518 0.610187 0.561621
0.610800 0.594208 0.565643
0.820431 0.589793 0.559739
0.987910 0.587542 0.544798
0.325912 0.808578 0.530298
0.448201 0.810564 0.545271
0.642594 0.812613 0.555028
0.798590 0.769835 0.577605
0.935617 0.755304 0.595002
0.554044 0.980236 0.593254
0.590434 0.982986 0.592032
0.691409 0.985534 0.588990
0.846134 0.980484 0.618557
0.984740 0.962784 0.706821
0.036274 0.265520 0.762135
0.272799 0.256969 0.763247
0.567163 0.226561 0.765502
0.812931 0.193338 0.767330
0.994939 0.343124 0.752424
0.110072 0.393231 0.759790
0.292246 0.379230 0.763132
0.567050 0.364372 0.765235
0.808081 0.349046 0.765845
0.986026 0.441482 0.751370
0.322993 0.616743 0.746897
0.425960 0.616995 0.751448
0.589418 0.596953 0.759019
0.797289 0.586951 0.763170
0.972119 0.614111 0.755847
0.401745 0.781384 0.745872
0.477970 0.782720 0.749687
0.624901 0.782979 0.755149
0.796384 0.778144 0.761713
0.970446 0.770894 0.754411
0.515277 0.971869 0.751839
0.551431 0.975649 0.753555
0.652924 0.981255 0.759790
0.825912 0.987665 0.771045
0.989327 0.972398 0.807832
0.513304 0.580341 0.941046
0.548392 0.577660 0.939824
0.643550 0.571914 0.940552
0.788839 0.565022 0.942441
0.955554 0.553523 0.948855
0.526547 0.617600 0.935177
0.561450 0.616187 0.937694
0.651562 0.610289 0.939707
0.790963 0.601093 0.941221
0.957091 0.584308 0.944383
0.589846 0.721355 0.934033
0.604524 0.713007 0.937490
0.659726 0.691366 0.940668
0.792058 0.679696 0.945366
0.962050 0.661620 0.950205
0.589418 0.831550 0.941046
0.611362 0.828324 0.940377
0.674775 0.821406 0.945019
0.785935 0.794498 0.953299
0.973566 0.783534 0.965769
0.561678 0.987255 0.967481
0.586897 0.987910 0.968797
0.662219 0.988292 0.971423
0.799167 0.990414 0.977227
0.994831 0.996046 0.997501
