bundles/resolve-cinematic-luts/Gamut/Lotus/Lotus 01.cube
TITLE "Generated by 3D LUT Creator Pro (c) Oleg Sharonov"
LUT_3D_SIZE 9
#INPUTGAMMA sRGB
#IMAGEPROFILE sRGB
#OUTPUTGAMMA sRGB
0.011829 0.018926 0.016560
0.086072 0.023657 0.018137
0.200706 0.037063 0.023657
0.381177 0.044738 0.011829
0.597217 0.042516 0.001577
0.765426 0.080536 0.000789
0.879396 0.138882 0.001577
0.960892 0.187131 0.001577
0.999356 0.242310 0.001577
0.016560 0.107524 0.014194
0.088291 0.103403 0.026812
0.190262 0.112214 0.032332
0.373317 0.138595 0.014194
0.585065 0.159468 0.001577
0.749569 0.185863 0.001577
0.868688 0.218025 0.001577
0.953956 0.248539 0.001577
0.999114 0.283971 0.008674
0.007886 0.277304 0.003154
0.133009 0.279859 0.006309
0.234585 0.250068 0.026023
0.371987 0.250829 0.030754
0.564683 0.281725 0.006309
0.727178 0.307776 0.001577
0.849205 0.327915 0.000789
0.937753 0.343229 0.003154
0.998899 0.364079 0.035486
0.048294 0.498027 0.000789
0.211139 0.511001 0.001577
0.348222 0.481651 0.002366
0.439705 0.425799 0.019714
0.550148 0.406986 0.040994
0.693105 0.427086 0.022869
0.817393 0.444475 0.013406
0.913198 0.451963 0.034697
0.991582 0.463239 0.106786
0.197159 0.654282 0.001577
0.299018 0.664608 0.001577
0.422396 0.655917 0.001577
0.527350 0.618657 0.002366
0.598844 0.567387 0.033909
0.677152 0.538722 0.108987
0.786487 0.547452 0.118081
0.882884 0.553059 0.138882
0.968489 0.560367 0.188808
0.304890 0.750353 0.001577
0.361232 0.754722 0.001577
0.449861 0.753594 0.001577
0.553697 0.739842 0.001577
0.643359 0.710911 0.013406
0.710323 0.672974 0.133308
0.773459 0.645458 0.232609
0.855369 0.642881 0.266513
0.944759 0.649913 0.301849
0.379416 0.827188 0.002366
0.413988 0.829218 0.002366
0.476011 0.829046 0.001577
0.563608 0.826360 0.002366
0.651844 0.811271 0.044738
0.732293 0.787407 0.187342
0.795732 0.757165 0.296906
0.846636 0.732172 0.376147
0.919493 0.736000 0.431396
0.446001 0.904214 0.089165
0.470000 0.905959 0.090032
0.512090 0.906662 0.081950
0.579467 0.907913 0.076662
0.660927 0.900987 0.143686
0.745003 0.884874 0.273350
0.820431 0.864571 0.373885
0.877517 0.842309 0.455167
0.925048 0.825186 0.541413
0.520512 0.987310 0.288918
0.532009 0.988700 0.291864
0.563041 0.987501 0.288014
0.614060 0.990061 0.280927
0.680453 0.988346 0.287107
0.764662 0.981805 0.375301
0.848705 0.970474 0.478946
0.922246 0.963151 0.566544
0.982052 0.958512 0.649252
0.008674 0.030754 0.092590
0.083343 0.028389 0.099126
0.208538 0.016560 0.107524
0.412733 0.003943 0.105669
0.627278 0.003154 0.086072
0.780604 0.011829 0.066756
0.887927 0.059267 0.055568
0.964982 0.139742 0.059267
0.999383 0.218736 0.094262
0.005520 0.110072 0.101090
0.083803 0.111148 0.107524
0.217669 0.109350 0.113270
0.415653 0.104163 0.105295
0.616743 0.104542 0.084717
0.767292 0.128118 0.065646
0.877357 0.172627 0.056196
0.957432 0.219091 0.062806
0.999195 0.268066 0.097930
0.001577 0.273488 0.080060
0.083803 0.282255 0.079102
0.243570 0.262801 0.099126
0.404591 0.256969 0.113270
0.589686 0.274174 0.093846
0.741156 0.292500 0.072104
0.856818 0.311928 0.064521
0.942354 0.329904 0.078134
0.999329 0.355152 0.123360
0.007097 0.493561 0.025234
0.122387 0.507004 0.024446
0.325689 0.488094 0.029966
0.448956 0.434240 0.080060
0.565361 0.413152 0.120087
0.703126 0.427728 0.107892
0.823697 0.441713 0.101090
0.915916 0.448805 0.122061
0.993831 0.460982 0.169613
0.104163 0.654656 0.007886
0.236218 0.663415 0.008674
0.396681 0.657732 0.007097
0.524007 0.624007 0.022869
0.602916 0.572192 0.100700
0.682848 0.543139 0.171011
0.790670 0.549446 0.179596
0.885095 0.553407 0.196162
0.971869 0.560424 0.235240
0.271140 0.751487 0.010251
0.338679 0.756003 0.011829
0.436202 0.754644 0.010251
0.549329 0.743420 0.014983
0.642929 0.713718 0.077646
0.710911 0.674865 0.197755
0.775375 0.647501 0.270723
0.856752 0.644648 0.297529
0.945915 0.651750 0.330014
0.373980 0.828221 0.051686
0.410041 0.831173 0.053651
0.472062 0.831379 0.048985
0.560994 0.829699 0.049669
0.651844 0.814023 0.128118
0.732778 0.788509 0.242468
0.795913 0.758247 0.330124
0.847037 0.733827 0.399659
0.922485 0.738844 0.450012
0.450989 0.906203 0.187131
0.472982 0.907943 0.190055
0.514705 0.908340 0.182000
0.581159 0.909344 0.173771
0.661758 0.903017 0.217133
0.745714 0.886292 0.312516
0.821197 0.865871 0.399397
0.877995 0.842881 0.473477
0.926444 0.827326 0.552653
0.523448 0.988046 0.335893
0.540040 0.989490 0.339850
0.568845 0.989327 0.333838
0.616390 0.989626 0.325689
0.681252 0.989136 0.325801
0.764968 0.982189 0.398961
0.850635 0.972398 0.494699
0.921887 0.964419 0.577330
0.984001 0.959731 0.656429
0.001577 0.048985 0.213887
0.071584 0.041759 0.221204
0.211692 0.019714 0.233599
0.405363 0.001577 0.256822
0.626140 0.001577 0.259613
0.794280 0.001577 0.231945
0.905408 0.004731 0.208912
0.975787 0.046892 0.206658
0.998792 0.177380 0.225364
0.001577 0.130891 0.229271
0.058053 0.121078 0.238644
0.226220 0.103403 0.248692
0.431872 0.064521 0.257412
0.637638 0.036274 0.248385
0.791620 0.043264 0.226391
0.897127 0.081950 0.212059
0.969021 0.155164 0.210770
0.998523 0.242626 0.225707
0.001577 0.271001 0.242941
0.035486 0.277169 0.249610
0.232277 0.266230 0.253995
0.447140 0.250373 0.257412
0.630723 0.242152 0.246379
0.771347 0.251587 0.230613
0.875728 0.279592 0.222600
0.953013 0.309445 0.223814
0.998899 0.344799 0.241677
0.001577 0.476431 0.205711
0.027600 0.488841 0.207788
0.244510 0.485023 0.203033
0.460325 0.448276 0.231945
0.594314 0.426926 0.252040
0.725952 0.433453 0.248539
0.838393 0.441559 0.244823
0.924691 0.446685 0.249916
0.995722 0.460325 0.270862
0.020503 0.645030 0.159218
0.106415 0.653674 0.164864
0.320383 0.652314 0.155677
0.509716 0.630674 0.178713
0.609931 0.581377 0.242468
0.696006 0.554160 0.276220
0.799996 0.556757 0.283839
0.890027 0.557734 0.293134
0.975094 0.564231 0.314971
0.195560 0.747369 0.170779
0.284365 0.751643 0.177380
0.403559 0.750901 0.169613
0.535046 0.745319 0.175585
0.640867 0.717965 0.235403
0.713509 0.679384 0.300130
0.780083 0.653018 0.343229
0.860101 0.649205 0.360738
0.949171 0.655637 0.384577
0.362512 0.825877 0.232443
0.401138 0.828290 0.238161
0.464254 0.828703 0.233599
0.555143 0.828978 0.230445
0.650196 0.816447 0.268487
0.733101 0.791182 0.331987
0.796747 0.760675 0.393764
0.847938 0.737163 0.444016
0.924631 0.741872 0.483031
0.454499 0.904459 0.315668
0.477061 0.906173 0.319698
0.517240 0.906631 0.315203
0.582193 0.908004 0.310275
0.661988 0.904367 0.321634
0.746503 0.888649 0.380900
0.822379 0.868042 0.448503
0.878059 0.844661 0.508814
0.925850 0.829287 0.575899
0.532740 0.985589 0.406986
0.548039 0.987665 0.410632
0.574962 0.988101 0.406389
0.621014 0.988455 0.400182
0.684307 0.988700 0.395005
0.765006 0.983590 0.442175
0.849904 0.974178 0.523385
0.920781 0.965572 0.595530
0.983397 0.960750 0.666347
0.000000 0.075669 0.381084
0.044738 0.065646 0.386854
0.227751 0.031543 0.399310
0.423047 0.002366 0.414738
0.606797 0.001577 0.425557
0.768584 0.001577 0.422070
0.893804 0.001577 0.397648
0.975704 0.007097 0.370460
0.998523 0.091745 0.366124
0.001577 0.155164 0.397998
0.027600 0.140597 0.407072
0.218025 0.112567 0.414571
0.435340 0.057439 0.422803
0.619310 0.025234 0.426845
0.774324 0.022080 0.417475
0.893057 0.035486 0.393231
0.972175 0.082881 0.370077
0.998039 0.199138 0.368637
0.001577 0.298399 0.413821
0.014983 0.292246 0.424102
0.199138 0.264379 0.429567
0.451064 0.233599 0.432663
0.636427 0.217490 0.427247
0.777622 0.220150 0.412482
0.884811 0.244197 0.394385
0.960637 0.286457 0.381084
0.997312 0.341439 0.382652
0.001577 0.463964 0.414738
0.009463 0.470570 0.422640
0.182866 0.465122 0.421989
0.454722 0.448201 0.424749
0.623111 0.436280 0.423778
0.751214 0.439550 0.415570
0.853618 0.447216 0.406901
0.933239 0.453978 0.399572
0.997447 0.468286 0.401571
0.003943 0.624852 0.388843
0.025234 0.632094 0.395800
0.214794 0.631409 0.395359
0.472274 0.625496 0.397209
0.615732 0.593944 0.410801
0.712463 0.572969 0.420436
0.810493 0.572136 0.423128
0.896321 0.569684 0.421744
0.981337 0.572969 0.427006
0.108258 0.736281 0.378672
0.197358 0.740838 0.388212
0.354244 0.740121 0.391090
0.510809 0.739003 0.391626
0.635263 0.722220 0.403041
0.716179 0.686729 0.429248
0.785455 0.662863 0.446989
0.864018 0.658567 0.454425
0.952527 0.663461 0.466635
0.352827 0.819106 0.407412
0.397998 0.821510 0.415902
0.462076 0.822136 0.415736
0.550556 0.823385 0.413068
0.647596 0.818442 0.417227
0.734069 0.795660 0.446609
0.797615 0.764471 0.482341
0.849704 0.741991 0.509265
0.929318 0.747527 0.531521
0.467066 0.899415 0.448503
0.489383 0.901849 0.453829
0.526486 0.902833 0.451589
0.587166 0.904367 0.448579
0.663828 0.904244 0.446761
0.748431 0.892776 0.473618
0.824078 0.871398 0.519005
0.878282 0.846970 0.560652
0.927660 0.832508 0.610800
0.545389 0.983151 0.500537
0.559625 0.985096 0.504143
0.584037 0.986272 0.499944
0.628560 0.986573 0.495900
0.688702 0.987610 0.491276
0.765578 0.985343 0.508878
0.849405 0.976618 0.566994
0.921349 0.967341 0.624504
0.984193 0.961598 0.683423
0.001577 0.114664 0.546098
0.025234 0.108258 0.548216
0.223295 0.078619 0.554970
0.436593 0.021292 0.561962
0.607158 0.002366 0.563948
0.750314 0.001577 0.565361
0.867135 0.007097 0.554392
0.953814 0.068394 0.531948
0.999463 0.178491 0.517871
0.000789 0.183082 0.554276
0.015771 0.173999 0.560196
0.202067 0.151525 0.562644
0.434004 0.097930 0.565643
0.611413 0.040217 0.567949
0.753671 0.032332 0.565981
0.866293 0.083343 0.552536
0.950865 0.157205 0.528765
0.998604 0.238322 0.513113
0.001577 0.326804 0.559796
0.012617 0.313103 0.568229
0.179376 0.281725 0.570856
0.430045 0.249458 0.573135
0.618758 0.217669 0.573302
0.757590 0.226732 0.567612
0.863171 0.275404 0.551256
0.945713 0.311221 0.529563
0.998469 0.350789 0.515975
0.001577 0.474323 0.558652
0.026812 0.476151 0.566263
0.215697 0.463167 0.568733
0.436593 0.439395 0.572914
0.616491 0.425396 0.574409
0.749961 0.436123 0.567219
0.849538 0.455316 0.553407
0.931827 0.464254 0.537279
0.998711 0.478319 0.527534
0.003943 0.608135 0.555836
0.044738 0.612891 0.561051
0.241518 0.610187 0.561621
0.451738 0.605093 0.563155
0.610800 0.594208 0.565643
0.726198 0.588294 0.565191
0.820431 0.589793 0.559739
0.903692 0.586790 0.549680
0.987910 0.587542 0.544798
0.093846 0.719249 0.534198
0.185863 0.723001 0.540578
0.332751 0.722055 0.542901
0.484749 0.720860 0.548919
0.621514 0.717135 0.553929
0.719042 0.695488 0.560082
0.791401 0.677689 0.562928
0.869560 0.673154 0.560595
0.958739 0.676211 0.561450
0.325912 0.808578 0.530298
0.377365 0.810741 0.539561
0.448201 0.810564 0.545271
0.543198 0.811519 0.552188
0.642594 0.812613 0.555028
0.735156 0.800680 0.563665
0.798590 0.769835 0.577605
0.853122 0.749334 0.584578
0.935617 0.755304 0.595002
0.465987 0.892652 0.558709
0.492084 0.895141 0.565248
0.531948 0.895452 0.567724
0.591926 0.897281 0.568957
0.665341 0.899785 0.568061
0.749608 0.897034 0.574022
0.825428 0.876783 0.596585
0.878568 0.850535 0.619662
0.932857 0.836800 0.650667
0.554044 0.980236 0.593254
0.565474 0.982849 0.594208
0.590434 0.982986 0.592032
0.633217 0.984247 0.590007
0.691409 0.985534 0.588990
0.764433 0.986518 0.590701
0.846134 0.980484 0.618557
0.920032 0.970893 0.660235
0.984740 0.962784 0.706821
0.000789 0.176709 0.672929
0.025234 0.172167 0.673380
0.222252 0.155933 0.674505
0.425234 0.114664 0.675314
0.589900 0.058662 0.677823
0.730309 0.029177 0.680319
0.848639 0.032332 0.675000
0.933033 0.164139 0.656988
0.999571 0.302338 0.650432
0.001577 0.228090 0.672749
0.021292 0.224849 0.676032
0.208164 0.211323 0.675853
0.420846 0.183082 0.676122
0.589900 0.137147 0.679072
0.731363 0.098729 0.680897
0.846101 0.119755 0.673605
0.927838 0.231280 0.654422
0.998120 0.334705 0.644601
0.011040 0.349355 0.673785
0.040994 0.337825 0.677510
0.202840 0.316132 0.678091
0.416565 0.297155 0.679251
0.588454 0.276763 0.680897
0.731242 0.261936 0.682095
0.843116 0.287237 0.673380
0.921648 0.350073 0.654563
0.996100 0.411306 0.644696
0.061643 0.491343 0.665203
0.148333 0.490736 0.671393
0.285283 0.474675 0.673515
0.431158 0.450763 0.677554
0.585658 0.437451 0.680853
0.725748 0.434555 0.681740
0.831345 0.453009 0.672207
0.910834 0.481582 0.656150
0.993235 0.505316 0.647548
0.100309 0.604420 0.663966
0.196761 0.607106 0.668080
0.330564 0.604420 0.668581
0.467784 0.597952 0.671122
0.594261 0.586843 0.675853
0.717467 0.583170 0.678582
0.816342 0.590647 0.672162
0.899415 0.596163 0.660558
0.989925 0.598372 0.653955
0.194554 0.704998 0.658196
0.275404 0.706948 0.662633
0.373032 0.705380 0.663415
0.490668 0.703680 0.665386
0.608803 0.701590 0.669671
0.715012 0.696524 0.673560
0.799744 0.690363 0.671664
0.880920 0.687124 0.664149
0.973316 0.685717 0.658196
0.348119 0.791985 0.643598
0.389384 0.794025 0.648496
0.447595 0.793625 0.650809
0.532131 0.794389 0.656243
0.627327 0.796384 0.663507
0.725543 0.797253 0.670125
0.800428 0.777285 0.671122
0.861311 0.760060 0.667214
0.947991 0.764777 0.668262
0.450312 0.881364 0.646504
0.474041 0.883959 0.650809
0.512346 0.884591 0.654048
0.574298 0.886984 0.660281
0.651515 0.890684 0.667442
0.740001 0.894893 0.671845
0.823905 0.883738 0.677420
0.880127 0.855600 0.684704
0.941889 0.843385 0.700478
0.522076 0.978333 0.665615
0.537039 0.979382 0.666255
0.566882 0.980594 0.669671
0.618104 0.982354 0.674010
0.681652 0.984001 0.677018
0.756429 0.986628 0.677733
0.839070 0.985425 0.684263
0.917812 0.975593 0.709649
0.988401 0.967537 0.747841
0.036274 0.265520 0.762135
0.109350 0.263376 0.763400
0.272799 0.256969 0.763247
0.427808 0.244823 0.763476
0.567163 0.226561 0.765502
0.697257 0.206847 0.768052
0.812931 0.193338 0.767330
0.910652 0.225535 0.759944
0.994939 0.343124 0.752424
0.045463 0.304285 0.760406
0.120418 0.305132 0.763362
0.276220 0.298895 0.763400
0.429408 0.288918 0.763706
0.567050 0.275540 0.764929
0.695617 0.259613 0.767102
0.810670 0.247307 0.766264
0.907425 0.271971 0.758672
0.991338 0.372272 0.751643
0.110072 0.393231 0.759790
0.170314 0.388843 0.762940
0.292246 0.379230 0.763132
0.434319 0.371797 0.763744
0.567050 0.364372 0.765235
0.693279 0.355756 0.766950
0.808081 0.349046 0.765845
0.903048 0.366900 0.757745
0.986026 0.441482 0.751370
0.268908 0.520951 0.752502
0.310275 0.518628 0.756855
0.365639 0.503751 0.758324
0.455983 0.487209 0.761252
0.571191 0.480682 0.763017
0.690843 0.475870 0.765120
0.803049 0.470997 0.764662
0.895079 0.482824 0.757010
0.977282 0.529072 0.752268
0.322993 0.616743 0.746897
0.365347 0.619411 0.749844
0.425960 0.616995 0.751448
0.504077 0.609419 0.754877
0.589418 0.596953 0.759019
0.692062 0.590861 0.762634
0.797289 0.586951 0.763170
0.885915 0.592989 0.757358
0.972119 0.614111 0.755847
0.355152 0.699020 0.747290
0.393053 0.701676 0.749648
0.447974 0.700992 0.750079
0.528150 0.700606 0.751878
0.614517 0.698376 0.755498
0.701205 0.691758 0.759867
0.794970 0.686685 0.762250
0.882378 0.687080 0.758865
0.975288 0.690712 0.756274
0.401745 0.781384 0.745872
0.432268 0.783497 0.749020
0.477970 0.782720 0.749687
0.546981 0.782720 0.751956
0.624901 0.782979 0.755149
0.708216 0.783275 0.759520
0.796384 0.778144 0.761713
0.877006 0.769835 0.758363
0.970446 0.770894 0.754411
0.466923 0.866682 0.743102
0.486596 0.869270 0.745595
0.518250 0.869883 0.746936
0.569181 0.872137 0.749922
0.633949 0.876048 0.753983
0.714846 0.881333 0.760060
0.809713 0.883359 0.766074
0.883706 0.864376 0.764012
0.956721 0.853883 0.767216
0.515277 0.971869 0.751839
0.529318 0.974317 0.751526
0.551431 0.975649 0.753555
0.592405 0.978084 0.755265
0.652924 0.981255 0.759790
0.733505 0.985288 0.765731
0.825912 0.987665 0.771045
0.914044 0.982409 0.782534
0.989327 0.972398 0.807832
0.272937 0.397209 0.844661
0.316479 0.396065 0.845565
0.387579 0.394828 0.845130
0.479085 0.392519 0.845967
0.577440 0.388031 0.845867
0.679518 0.383386 0.848038
0.782979 0.376897 0.847805
0.880127 0.373032 0.848038
0.977669 0.394917 0.849438
0.288789 0.424264 0.842881
0.331441 0.426363 0.846001
0.396505 0.423778 0.845331
0.483513 0.419781 0.845096
0.578427 0.414405 0.845230
0.678403 0.407583 0.845230
0.782052 0.400790 0.846402
0.879014 0.397472 0.846669
0.976369 0.416234 0.848139
0.330014 0.483100 0.842915
0.361626 0.483237 0.844325
0.414821 0.479502 0.844392
0.493427 0.475940 0.844828
0.582465 0.470997 0.844728
0.678716 0.464905 0.844594
0.780195 0.458785 0.845867
0.876911 0.454573 0.846034
0.972899 0.469144 0.847972
0.417558 0.576450 0.838765
0.433925 0.574077 0.840860
0.459152 0.563041 0.841332
0.513750 0.553639 0.842578
0.591607 0.548039 0.843318
0.681430 0.542545 0.844426
0.779748 0.536375 0.845666
0.875057 0.530726 0.846669
0.969105 0.540518 0.848072
0.469572 0.656616 0.832679
0.488705 0.658057 0.835610
0.515721 0.653861 0.837275
0.554392 0.642881 0.839138
0.608289 0.629397 0.840995
0.686421 0.622313 0.843520
0.780195 0.616390 0.846001
0.874224 0.610647 0.847104
0.966724 0.616238 0.848272
0.482962 0.721891 0.830522
0.502311 0.723987 0.832884
0.532131 0.723084 0.833293
0.578866 0.720654 0.835644
0.631996 0.713091 0.838799
0.694839 0.700820 0.842343
0.780641 0.693279 0.847104
0.874640 0.688308 0.849505
0.968517 0.691148 0.850768
0.489790 0.790780 0.835270
0.507845 0.792350 0.837715
0.536013 0.791803 0.837817
0.581159 0.791036 0.838935
0.637396 0.788949 0.840590
0.703978 0.784052 0.844292
0.783756 0.775150 0.849105
0.877517 0.770629 0.854114
0.975288 0.773910 0.856917
0.498755 0.868979 0.840827
0.514133 0.870302 0.842679
0.539202 0.870496 0.843352
0.581050 0.870786 0.845096
0.635700 0.870979 0.847171
0.704446 0.871623 0.849970
0.789682 0.872137 0.855237
0.883232 0.869335 0.860101
0.974927 0.867492 0.862943
0.527966 0.964841 0.847237
0.541294 0.966499 0.847772
0.561165 0.967032 0.850303
0.596743 0.969608 0.850901
0.647691 0.972649 0.853519
0.716012 0.977531 0.856950
0.804660 0.983096 0.865091
0.904673 0.986873 0.877995
0.993479 0.982052 0.886984
0.513304 0.580341 0.941046
0.524007 0.578098 0.942673
0.548392 0.577660 0.939824
0.589311 0.574741 0.942092
0.643550 0.571914 0.940552
0.710617 0.567949 0.941599
0.788839 0.565022 0.942441
0.874768 0.559339 0.944585
0.955554 0.553523 0.948855
0.513687 0.589097 0.934884
0.527041 0.590113 0.938162
0.549563 0.587757 0.938483
0.589953 0.585766 0.938103
0.644219 0.583062 0.937139
0.711373 0.579959 0.938658
0.789206 0.574243 0.941279
0.872330 0.565586 0.942992
0.957205 0.560595 0.947271
0.526547 0.617600 0.935177
0.540219 0.618456 0.937928
0.561450 0.616187 0.937694
0.599159 0.613400 0.938103
0.651562 0.610289 0.939707
0.715554 0.607003 0.939387
0.790963 0.601093 0.941221
0.872812 0.591553 0.942267
0.957091 0.584308 0.944383
0.556354 0.663690 0.935177
0.564740 0.662725 0.937869
0.577660 0.656988 0.937256
0.609111 0.652642 0.938278
0.656476 0.648543 0.940115
0.719083 0.644982 0.941482
0.792715 0.638169 0.943659
0.873903 0.628412 0.944469
0.959221 0.620414 0.947213
0.589846 0.721355 0.934033
0.596427 0.719993 0.936759
0.604524 0.713007 0.937490
0.623161 0.701334 0.938949
0.659726 0.691366 0.940668
0.718628 0.686157 0.943659
0.792058 0.679696 0.945366
0.875121 0.670669 0.948193
0.962050 0.661620 0.950205
0.595477 0.774060 0.934767
0.602760 0.772819 0.934942
0.615732 0.770024 0.935060
0.640435 0.763859 0.938599
0.670397 0.750000 0.941947
0.716511 0.736160 0.945424
0.787407 0.728441 0.949229
0.873839 0.720901 0.952098
0.967761 0.714345 0.956351
0.589418 0.831550 0.941046
0.597269 0.830145 0.940202
0.611362 0.828324 0.940377
0.637493 0.826533 0.942760
0.674775 0.821406 0.945019
0.723371 0.810174 0.949631
0.785935 0.794498 0.953299
0.873583 0.787039 0.959532
0.973566 0.783534 0.965769
0.577769 0.900772 0.951353
0.584848 0.899723 0.952269
0.600310 0.898797 0.952155
0.628806 0.897343 0.953442
0.669172 0.896104 0.956067
0.723987 0.893742 0.958625
0.793443 0.886827 0.963320
0.877517 0.878377 0.969608
0.979133 0.876240 0.976507
0.561678 0.987255 0.967481
0.568117 0.988101 0.967593
0.586897 0.987910 0.968797
0.618456 0.988155 0.968993
0.662219 0.988292 0.971423
0.723741 0.989327 0.975149
0.799167 0.990414 0.977227
0.889777 0.992260 0.986136
0.994831 0.996046 0.997501
