bundles/resolve-cinematic-luts/Gamut/Lotus/Lotus 01.cube
TITLE "Generated by 3D LUT Creator Pro (c) Oleg Sharonov"
LUT_3D_SIZE 25
#INPUTGAMMA sRGB
#IMAGEPROFILE sRGB
#OUTPUTGAMMA sRGB
0.011829 0.018926 0.016560
0.034697 0.019714 0.017349
0.057439 0.021292 0.018137
0.086072 0.023657 0.018137
0.118081 0.028389 0.019714
0.156951 0.033120 0.022080
0.200706 0.037063 0.023657
0.252794 0.041759 0.022080
0.313688 0.044005 0.017349
0.381177 0.044738 0.011829
0.453382 0.043264 0.007097
0.526794 0.041759 0.003154
0.597217 0.042516 0.001577
0.660373 0.049669 0.001577
0.716179 0.062227 0.001577
0.765426 0.080536 0.000789
0.808614 0.101090 0.000789
0.846368 0.121078 0.000789
0.879396 0.138882 0.001577
0.909131 0.155164 0.001577
0.936525 0.170779 0.001577
0.960892 0.187131 0.001577
0.980153 0.204568 0.000789
0.992341 0.222948 0.000789
0.999356 0.242310 0.001577
0.014194 0.042516 0.016560
0.033909 0.043264 0.018926
0.056820 0.044005 0.022080
0.083343 0.046181 0.023657
0.114664 0.050348 0.025234
0.151525 0.055568 0.026023
0.195158 0.061056 0.025234
0.247770 0.066756 0.023657
0.309088 0.071584 0.018926
0.377739 0.074664 0.012617
0.450237 0.076662 0.007097
0.523385 0.078134 0.003154
0.592936 0.081010 0.001577
0.655403 0.087851 0.001577
0.710869 0.099126 0.001577
0.759944 0.113969 0.001577
0.803515 0.130586 0.001577
0.842006 0.146710 0.001577
0.875920 0.161944 0.001577
0.906387 0.176260 0.001577
0.934209 0.190262 0.001577
0.958965 0.204568 0.001577
0.978912 0.219621 0.001577
0.991663 0.235730 0.001577
0.999168 0.252945 0.003943
0.015771 0.071584 0.015771
0.036274 0.071060 0.019714
0.058662 0.070533 0.024446
0.082881 0.070533 0.027600
0.112567 0.073649 0.029177
0.148333 0.078619 0.029966
0.191293 0.085170 0.028389
0.244197 0.092590 0.025234
0.305976 0.099522 0.019714
0.374924 0.105669 0.012617
0.448125 0.110432 0.007097
0.520763 0.115010 0.003154
0.589204 0.119755 0.001577
0.650809 0.126866 0.001577
0.705677 0.136563 0.001577
0.754527 0.148601 0.001577
0.798662 0.161698 0.001577
0.837682 0.175134 0.001577
0.872523 0.187762 0.001577
0.903539 0.199924 0.001577
0.931650 0.212243 0.000789
0.956778 0.224504 0.001577
0.977172 0.237192 0.001577
0.990931 0.250981 0.003154
0.999007 0.265804 0.005520
0.016560 0.107524 0.014194
0.040217 0.106786 0.018137
0.063953 0.105295 0.022080
0.088291 0.103403 0.026812
0.115355 0.103021 0.030754
0.148333 0.106043 0.033120
0.190262 0.112214 0.032332
0.242152 0.120748 0.028389
0.303678 0.129973 0.022080
0.373317 0.138595 0.014194
0.446001 0.146437 0.007097
0.517808 0.152835 0.003154
0.585065 0.159468 0.001577
0.646077 0.166781 0.001577
0.700564 0.175585 0.001577
0.749569 0.185863 0.001577
0.793916 0.196761 0.001577
0.833566 0.207788 0.001577
0.868688 0.218025 0.001577
0.900094 0.228090 0.001577
0.928430 0.238161 0.001577
0.953956 0.248539 0.001577
0.975122 0.259466 0.002366
0.989762 0.271278 0.003943
0.999114 0.283971 0.008674
0.014983 0.152312 0.011040
0.043264 0.153095 0.012617
0.071584 0.151525 0.016560
0.098729 0.147794 0.021292
0.125602 0.143964 0.027600
0.156188 0.142571 0.033909
0.194149 0.145343 0.036274
0.243256 0.152574 0.033909
0.303070 0.162679 0.026812
0.371034 0.173543 0.017349
0.442559 0.183513 0.009463
0.513304 0.192319 0.004731
0.579686 0.200315 0.002366
0.640242 0.208164 0.001577
0.694666 0.216416 0.001577
0.743895 0.225535 0.001577
0.788656 0.234913 0.001577
0.828634 0.244041 0.000789
0.863823 0.252493 0.000789
0.895172 0.260632 0.001577
0.923797 0.268628 0.001577
0.949631 0.277169 0.001577
0.971785 0.286327 0.003154
0.988019 0.296406 0.006309
0.999087 0.307537 0.012617
0.011040 0.208725 0.007097
0.045463 0.211508 0.007097
0.080536 0.211139 0.009463
0.113969 0.207036 0.013406
0.144241 0.200120 0.020503
0.173999 0.193338 0.028389
0.208164 0.190055 0.034697
0.251132 0.192114 0.036274
0.305494 0.199532 0.032332
0.369598 0.210400 0.023657
0.438152 0.221554 0.014194
0.507069 0.231945 0.007097
0.572470 0.241201 0.003154
0.632632 0.249763 0.002366
0.687036 0.258148 0.001577
0.736401 0.266513 0.001577
0.781458 0.274858 0.001577
0.821823 0.282520 0.000789
0.857279 0.289304 0.000789
0.888837 0.295906 0.001577
0.917541 0.302338 0.001577
0.944122 0.309088 0.002366
0.967172 0.316479 0.003943
0.985397 0.325129 0.010251
0.999248 0.334597 0.020503
0.007886 0.277304 0.003154
0.048294 0.281990 0.003154
0.091319 0.283313 0.003943
0.133009 0.279859 0.006309
0.170314 0.271556 0.011040
0.202840 0.260341 0.018137
0.234585 0.250068 0.026023
0.270305 0.243727 0.033120
0.316132 0.244354 0.034697
0.371987 0.250829 0.030754
0.435340 0.260777 0.022080
0.500932 0.271556 0.013406
0.564683 0.281725 0.006309
0.623808 0.290971 0.003154
0.677867 0.299636 0.002366
0.727178 0.307776 0.001577
0.772253 0.315320 0.001577
0.813283 0.321975 0.001577
0.849205 0.327915 0.000789
0.881396 0.333186 0.001577
0.910743 0.338039 0.001577
0.937753 0.343229 0.003154
0.962050 0.349149 0.007886
0.982299 0.356157 0.018926
0.998899 0.364079 0.035486
0.007886 0.352725 0.001577
0.055568 0.359054 0.001577
0.106043 0.361922 0.001577
0.155677 0.359649 0.003154
0.200120 0.351708 0.004731
0.237839 0.338573 0.008674
0.270445 0.323331 0.014983
0.301849 0.309564 0.023657
0.338039 0.300745 0.030754
0.383386 0.299018 0.033120
0.437373 0.303556 0.029966
0.496832 0.312164 0.022869
0.556930 0.321975 0.014194
0.614415 0.331769 0.007886
0.667670 0.340699 0.004731
0.716387 0.348738 0.003154
0.761406 0.355756 0.002366
0.802942 0.361922 0.001577
0.839949 0.367190 0.001577
0.872812 0.371606 0.001577
0.902986 0.375395 0.003154
0.930765 0.378951 0.006309
0.956038 0.383386 0.015771
0.978222 0.389114 0.033120
0.997985 0.395712 0.058053
0.019714 0.427969 0.000789
0.072104 0.435497 0.000789
0.127180 0.439627 0.001577
0.181348 0.438696 0.001577
0.231113 0.432189 0.002366
0.274174 0.419863 0.003154
0.310275 0.403386 0.006309
0.341439 0.385490 0.012617
0.371987 0.369214 0.020503
0.406560 0.357859 0.029177
0.448125 0.353435 0.033909
0.497231 0.356057 0.033120
0.550732 0.363100 0.026812
0.604834 0.371892 0.018926
0.656522 0.380622 0.012617
0.704446 0.388663 0.007886
0.749452 0.395535 0.005520
0.791292 0.401398 0.004731
0.829012 0.406389 0.003943
0.862748 0.410379 0.005520
0.893804 0.413152 0.008674
0.922425 0.415653 0.015771
0.948768 0.418712 0.029966
0.972927 0.423291 0.053002
0.995776 0.429088 0.081950
0.048294 0.498027 0.000789
0.102253 0.506031 0.001577
0.156951 0.510744 0.001577
0.211139 0.511001 0.001577
0.262225 0.506290 0.001577
0.308493 0.496366 0.001577
0.348222 0.481651 0.002366
0.381823 0.463457 0.005520
0.411390 0.443787 0.011040
0.439705 0.425799 0.019714
0.470285 0.412649 0.030754
0.506809 0.406389 0.039429
0.550148 0.406986 0.040994
0.597847 0.412146 0.037063
0.646409 0.419452 0.029966
0.693105 0.427086 0.022869
0.737724 0.433847 0.017349
0.779413 0.439705 0.014194
0.817393 0.444475 0.013406
0.851896 0.447898 0.016560
0.883738 0.450162 0.022869
0.913198 0.451963 0.034697
0.940552 0.454276 0.053002
0.966359 0.458050 0.078134
0.991582 0.463239 0.106786
0.094676 0.559282 0.000789
0.143686 0.567275 0.001577
0.192931 0.571970 0.001577
0.242468 0.572858 0.001577
0.291609 0.569964 0.001577
0.338466 0.562814 0.001577
0.380344 0.551140 0.001577
0.416483 0.535167 0.002366
0.447822 0.516101 0.004731
0.475168 0.496100 0.011040
0.500076 0.477830 0.021292
0.526794 0.463747 0.035486
0.558652 0.455909 0.048985
0.596848 0.454425 0.056196
0.639376 0.457681 0.055568
0.683556 0.463530 0.048985
0.727096 0.470072 0.042516
0.768242 0.476011 0.037852
0.806087 0.480543 0.036274
0.840894 0.483650 0.040217
0.873133 0.485434 0.048985
0.903416 0.487005 0.063382
0.931502 0.488909 0.082881
0.958398 0.492286 0.106415
0.984877 0.497098 0.132407
0.148063 0.611107 0.001577
0.188599 0.618205 0.001577
0.229439 0.622463 0.001577
0.272386 0.623460 0.001577
0.317518 0.621914 0.001577
0.362806 0.617298 0.002366
0.404848 0.608854 0.001577
0.442636 0.596374 0.001577
0.476221 0.580123 0.002366
0.505446 0.561792 0.004731
0.530237 0.542842 0.011829
0.552653 0.525000 0.025234
0.576450 0.510423 0.045463
0.604731 0.501261 0.065646
0.638700 0.498093 0.078619
0.677376 0.499944 0.081950
0.718255 0.504860 0.079102
0.758286 0.510423 0.074664
0.795768 0.514832 0.073649
0.830385 0.517619 0.077155
0.862748 0.519383 0.086072
0.893088 0.520575 0.099126
0.921678 0.522076 0.116042
0.949257 0.525062 0.136563
0.976618 0.529624 0.159218
0.197159 0.654282 0.001577
0.229439 0.660235 0.001577
0.262801 0.663644 0.001577
0.299018 0.664608 0.001577
0.339212 0.663828 0.001577
0.381269 0.661343 0.001577
0.422396 0.655917 0.001577
0.460690 0.646647 0.001577
0.495900 0.633851 0.001577
0.527350 0.618657 0.002366
0.554449 0.601979 0.005520
0.577660 0.584524 0.014983
0.598844 0.567387 0.033909
0.620614 0.552827 0.061643
0.646172 0.542842 0.089600
0.677152 0.538722 0.108987
0.712882 0.539980 0.116726
0.750235 0.543792 0.117744
0.786487 0.547452 0.118081
0.820814 0.550323 0.121406
0.852791 0.551955 0.128429
0.882884 0.553059 0.138882
0.911623 0.554218 0.152312
0.939940 0.556642 0.169379
0.968489 0.560367 0.188808
0.238644 0.690712 0.001577
0.264522 0.695401 0.001577
0.291737 0.697989 0.001577
0.322314 0.698805 0.001577
0.357059 0.698462 0.001577
0.395094 0.697214 0.001577
0.434004 0.693973 0.001577
0.472133 0.687695 0.001577
0.508168 0.678135 0.001577
0.541294 0.666073 0.001577
0.570800 0.652548 0.003154
0.596690 0.637638 0.007886
0.619210 0.621664 0.022080
0.639665 0.605507 0.050348
0.660604 0.591553 0.088291
0.684307 0.581704 0.123036
0.712966 0.577220 0.145891
0.745200 0.577220 0.156697
0.778742 0.579303 0.161944
0.811837 0.581540 0.166304
0.843385 0.583170 0.172397
0.873101 0.584254 0.180693
0.901972 0.585119 0.191499
0.931237 0.587112 0.205521
0.961061 0.590167 0.222252
0.274037 0.722138 0.001577
0.294775 0.725666 0.001577
0.317057 0.727748 0.001577
0.342598 0.728074 0.001577
0.372463 0.728033 0.001577
0.406133 0.727504 0.001577
0.442252 0.725830 0.001577
0.479293 0.721850 0.001577
0.515404 0.714971 0.001577
0.549212 0.705677 0.001577
0.580396 0.694882 0.001577
0.608803 0.682848 0.003943
0.634241 0.669626 0.014194
0.656522 0.655217 0.040217
0.676749 0.640483 0.082416
0.696869 0.627376 0.128118
0.719208 0.617701 0.164381
0.744924 0.612535 0.187762
0.773760 0.611260 0.200901
0.804123 0.611924 0.208912
0.834555 0.613044 0.215877
0.864018 0.613959 0.223468
0.892745 0.614973 0.232774
0.922515 0.616793 0.244979
0.953414 0.619762 0.260196
0.304890 0.750353 0.001577
0.321407 0.752853 0.001577
0.339638 0.754333 0.001577
0.361232 0.754722 0.001577
0.386854 0.754566 0.001577
0.416648 0.754411 0.001577
0.449861 0.753594 0.001577
0.484886 0.751331 0.001577
0.520136 0.746739 0.001577
0.553697 0.739842 0.001577
0.585550 0.731323 0.001577
0.615581 0.721685 0.003943
0.643359 0.710911 0.013406
0.668307 0.699235 0.038640
0.690363 0.686201 0.082881
0.710323 0.672974 0.133308
0.729741 0.660650 0.177380
0.750392 0.651138 0.210214
0.773459 0.645458 0.232609
0.799384 0.643024 0.247307
0.827154 0.642450 0.257854
0.855369 0.642881 0.266513
0.883801 0.644028 0.275540
0.913561 0.646362 0.287237
0.944759 0.649913 0.301849
0.332315 0.776836 0.001577
0.345736 0.778630 0.001577
0.360936 0.779673 0.001577
0.379138 0.779934 0.001577
0.401398 0.779785 0.001577
0.427808 0.779562 0.001577
0.457976 0.779152 0.001577
0.490803 0.777995 0.001577
0.524131 0.775262 0.001577
0.556930 0.770364 0.001577
0.588615 0.763821 0.002366
0.619260 0.755847 0.005520
0.648259 0.747133 0.017349
0.674910 0.737484 0.046892
0.699149 0.726892 0.093011
0.720984 0.715138 0.144517
0.740838 0.702999 0.190469
0.759443 0.691540 0.227412
0.778406 0.682228 0.256822
0.799384 0.675853 0.279324
0.822865 0.672523 0.296031
0.848372 0.671619 0.308373
0.875505 0.672568 0.318783
0.904612 0.675359 0.330564
0.935529 0.679874 0.345007
0.356859 0.802261 0.001577
0.368444 0.803658 0.001577
0.381269 0.804445 0.001577
0.396681 0.804695 0.001577
0.415819 0.804445 0.000789
0.439317 0.804195 0.000789
0.466779 0.804016 0.001577
0.497098 0.803479 0.001577
0.528704 0.801938 0.001577
0.560139 0.798771 0.001577
0.590967 0.793843 0.003154
0.621215 0.787407 0.009463
0.650479 0.779971 0.027600
0.678001 0.771800 0.063382
0.703808 0.762749 0.112214
0.727789 0.752853 0.162923
0.749648 0.742071 0.207224
0.768963 0.730715 0.244510
0.786561 0.719828 0.276491
0.804159 0.710701 0.304406
0.823385 0.704233 0.327472
0.844929 0.700820 0.345424
0.869205 0.700649 0.359550
0.896600 0.703425 0.373032
0.926652 0.708511 0.387850
0.379416 0.827188 0.002366
0.389744 0.828428 0.002366
0.400877 0.829184 0.002366
0.413988 0.829218 0.002366
0.430443 0.829046 0.001577
0.451214 0.828978 0.001577
0.476011 0.829046 0.001577
0.503881 0.828943 0.001577
0.533530 0.828187 0.002366
0.563608 0.826360 0.002366
0.593467 0.822830 0.006309
0.623012 0.817708 0.018137
0.651844 0.811271 0.044738
0.679874 0.804016 0.088291
0.706736 0.796058 0.138882
0.732293 0.787407 0.187342
0.756119 0.777958 0.228934
0.777285 0.767710 0.264808
0.795732 0.757165 0.296906
0.812366 0.747015 0.326247
0.828909 0.738284 0.353131
0.846636 0.732172 0.376147
0.867071 0.729741 0.395712
0.891591 0.731363 0.413654
0.919493 0.736000 0.431396
0.400964 0.852294 0.008674
0.410126 0.853453 0.009463
0.419945 0.853916 0.009463
0.431317 0.853751 0.008674
0.445696 0.853585 0.007886
0.463892 0.853817 0.007886
0.485913 0.854246 0.007097
0.511129 0.854544 0.007097
0.538542 0.854478 0.007097
0.567331 0.853618 0.007886
0.596374 0.851266 0.014194
0.625298 0.847171 0.033120
0.653861 0.841737 0.069470
0.682006 0.835372 0.118418
0.709481 0.828256 0.169145
0.736160 0.820396 0.214613
0.761406 0.811942 0.253846
0.784274 0.802906 0.288272
0.804374 0.793407 0.319698
0.822066 0.783682 0.348841
0.838258 0.774361 0.376241
0.853784 0.766493 0.402004
0.870528 0.761444 0.426363
0.891185 0.760560 0.450162
0.915463 0.763017 0.473759
0.422803 0.877676 0.034697
0.430920 0.878887 0.035486
0.439627 0.879364 0.035486
0.449786 0.879046 0.034697
0.462440 0.878855 0.033120
0.478388 0.879268 0.031543
0.497695 0.879936 0.030754
0.520136 0.880539 0.029177
0.545094 0.880984 0.028389
0.572136 0.880762 0.029177
0.600310 0.879173 0.037063
0.628560 0.875920 0.060464
0.656802 0.871462 0.101867
0.684880 0.866033 0.151788
0.712756 0.859642 0.200315
0.740121 0.852592 0.242783
0.766340 0.845130 0.279993
0.790670 0.837241 0.313688
0.812366 0.828909 0.344903
0.831858 0.820396 0.373885
0.849238 0.811695 0.400790
0.864636 0.803408 0.426685
0.879459 0.796566 0.453009
0.896476 0.792605 0.480890
0.916488 0.791438 0.510230
0.446001 0.904214 0.089165
0.453457 0.905714 0.090892
0.461201 0.906234 0.091319
0.470000 0.905959 0.090032
0.481097 0.905684 0.087409
0.494966 0.906081 0.084717
0.512090 0.906662 0.081950
0.532009 0.907272 0.080060
0.554565 0.907821 0.077646
0.579467 0.907913 0.076662
0.605817 0.906845 0.083343
0.633169 0.904551 0.105295
0.660927 0.900987 0.143686
0.689009 0.896414 0.189640
0.717176 0.890935 0.233929
0.745003 0.884874 0.273350
0.771876 0.878505 0.309207
0.797181 0.871719 0.342598
0.820431 0.864571 0.373885
0.841669 0.857312 0.402869
0.860755 0.849837 0.429647
0.877517 0.842309 0.455167
0.892527 0.835100 0.481167
0.908035 0.829287 0.509909
0.925048 0.825186 0.541413
0.470356 0.931886 0.160958
0.477201 0.933474 0.163897
0.483788 0.934150 0.164864
0.491073 0.933827 0.163167
0.500603 0.933533 0.159966
0.512921 0.933651 0.156443
0.528150 0.933886 0.153356
0.546098 0.934326 0.150468
0.566657 0.934825 0.147253
0.589418 0.935031 0.144517
0.613705 0.934561 0.147253
0.639327 0.933092 0.161944
0.666301 0.930470 0.191704
0.694276 0.926682 0.230111
0.722631 0.922156 0.269328
0.750862 0.917240 0.306337
0.778331 0.911865 0.341333
0.804517 0.906142 0.374830
0.829081 0.900186 0.406389
0.851996 0.894302 0.435810
0.872812 0.888366 0.463167
0.891466 0.882188 0.488977
0.908279 0.875984 0.514514
0.924333 0.870431 0.542009
0.940784 0.865644 0.572025
0.495233 0.959646 0.229103
0.500800 0.961118 0.232443
0.505836 0.961740 0.233599
0.511706 0.961429 0.231945
0.519948 0.960948 0.229103
0.531276 0.960694 0.226391
0.545094 0.960778 0.223987
0.561393 0.961259 0.221379
0.580341 0.961937 0.218203
0.601145 0.962333 0.214975
0.623360 0.962163 0.213887
0.647122 0.961316 0.220678
0.672929 0.959532 0.239766
0.700221 0.956750 0.269608
0.728563 0.953328 0.304527
0.757435 0.949459 0.340169
0.785750 0.944932 0.375207
0.812825 0.940202 0.409280
0.838630 0.935412 0.441636
0.862943 0.930972 0.471849
0.885568 0.926771 0.500010
0.906356 0.922425 0.526424
0.925464 0.918142 0.552246
0.943282 0.914286 0.579030
0.960637 0.911016 0.608135
0.520512 0.987310 0.288918
0.524194 0.988591 0.292246
0.527534 0.989082 0.293387
0.532009 0.988700 0.291864
0.539621 0.987910 0.290075
0.550381 0.987310 0.289046
0.563041 0.987501 0.288014
0.577660 0.988401 0.286587
0.594949 0.989490 0.284496
0.614060 0.990061 0.280927
0.634533 0.989871 0.277844
0.656290 0.989245 0.277574
0.680453 0.988346 0.287107
0.706652 0.986819 0.308612
0.734915 0.984686 0.340169
0.764662 0.981805 0.375301
0.794134 0.978084 0.410632
0.822032 0.974122 0.445467
0.848705 0.970474 0.478946
0.874512 0.967537 0.509652
0.899106 0.965263 0.538962
0.922246 0.963151 0.566544
0.943861 0.961118 0.592989
0.963630 0.959589 0.620414
0.982052 0.958512 0.649252
0.012617 0.022080 0.039429
0.033120 0.022080 0.040994
0.058053 0.022869 0.041759
0.085170 0.023657 0.042516
0.120418 0.025234 0.044738
0.159468 0.026023 0.046181
0.207036 0.026023 0.046892
0.261936 0.026023 0.044738
0.325129 0.026023 0.040994
0.394208 0.025234 0.036274
0.466995 0.022869 0.029966
0.538662 0.021292 0.024446
0.606178 0.021292 0.019714
0.666849 0.026023 0.015771
0.720282 0.036274 0.012617
0.767672 0.052347 0.010251
0.809784 0.072622 0.008674
0.846703 0.095088 0.007097
0.879618 0.117066 0.007097
0.909314 0.137728 0.006309
0.936437 0.157205 0.007097
0.960609 0.176036 0.007886
0.979795 0.194957 0.011040
0.992260 0.214613 0.016560
0.999517 0.235240 0.024446
0.013406 0.044738 0.040217
0.033909 0.044738 0.042516
0.056820 0.046181 0.044738
0.084261 0.046892 0.046181
0.117405 0.048294 0.047596
0.157458 0.051020 0.048985
0.203610 0.053002 0.048294
0.258442 0.054934 0.046181
0.320839 0.056820 0.041759
0.390642 0.057439 0.036274
0.463022 0.057439 0.029966
0.534743 0.057439 0.024446
0.601771 0.059267 0.019714
0.661850 0.065085 0.015771
0.715346 0.075168 0.012617
0.762825 0.089165 0.010251
0.805195 0.106786 0.008674
0.842948 0.125602 0.007097
0.876495 0.143964 0.007097
0.906631 0.161452 0.006309
0.934121 0.178048 0.007097
0.958540 0.194352 0.007886
0.978250 0.210585 0.011040
0.991338 0.228090 0.016560
0.999060 0.246689 0.025234
0.012617 0.072104 0.040217
0.033909 0.072622 0.044005
0.057439 0.072622 0.046892
0.084717 0.073137 0.049669
0.117066 0.074664 0.051020
0.154650 0.077155 0.051686
0.200511 0.081481 0.051020
0.255190 0.085622 0.048294
0.318209 0.089600 0.043264
0.388031 0.092590 0.037063
0.460178 0.095088 0.030754
0.531338 0.097126 0.024446
0.597532 0.100700 0.019714
0.657220 0.107156 0.015771
0.710575 0.116385 0.012617
0.758131 0.128739 0.010251
0.801040 0.143129 0.008674
0.839205 0.158466 0.007097
0.873390 0.173314 0.006309
0.903907 0.187762 0.006309
0.931561 0.201679 0.007097
0.956295 0.215336 0.008674
0.976646 0.229103 0.011829
0.990442 0.244197 0.018137
0.998953 0.260487 0.026812
0.011040 0.107524 0.040217
0.034697 0.108258 0.042516
0.059868 0.107524 0.045463
0.088291 0.106415 0.048985
0.119422 0.106043 0.052347
0.155421 0.107892 0.054295
0.199532 0.112214 0.054295
0.253095 0.118418 0.051686
0.316595 0.124965 0.046181
0.386309 0.131196 0.038640
0.457755 0.136270 0.031543
0.527781 0.140597 0.025234
0.593254 0.145891 0.019714
0.652454 0.152574 0.015771
0.705635 0.160958 0.012617
0.753360 0.171474 0.010251
0.796602 0.183082 0.008674
0.835338 0.195158 0.007097
0.869754 0.206847 0.007097
0.900710 0.218203 0.007097
0.928608 0.229439 0.007886
0.953699 0.240724 0.009463
0.974650 0.252342 0.013406
0.989517 0.265235 0.020503
0.999034 0.279190 0.031543
0.008674 0.152050 0.036274
0.034697 0.153875 0.037063
0.063953 0.153356 0.039429
0.095088 0.150998 0.043264
0.127180 0.147794 0.048985
0.161698 0.146165 0.054295
0.202840 0.148333 0.056820
0.253995 0.154133 0.055568
0.315320 0.162189 0.050348
0.383570 0.171011 0.042516
0.453755 0.178713 0.033909
0.522762 0.185650 0.026023
0.587488 0.192114 0.020503
0.646362 0.198941 0.015771
0.699363 0.206847 0.012617
0.747448 0.215697 0.010251
0.790890 0.225192 0.008674
0.830077 0.234749 0.007097
0.864961 0.243884 0.007097
0.895949 0.252794 0.007097
0.924363 0.261502 0.008674
0.949775 0.270445 0.010251
0.971841 0.280260 0.015771
0.987965 0.291226 0.024446
0.999195 0.303313 0.037852
0.005520 0.208912 0.028389
0.034697 0.211692 0.028389
0.068394 0.212426 0.029177
0.106043 0.209843 0.033120
0.142290 0.203802 0.039429
0.177156 0.197755 0.047596
0.214613 0.194149 0.054295
0.260196 0.195560 0.057439
0.316247 0.201873 0.054934
0.380344 0.210954 0.048294
0.448276 0.220502 0.038640
0.515784 0.229103 0.029966
0.579467 0.237030 0.022080
0.638073 0.244510 0.017349
0.691061 0.252191 0.013406
0.739323 0.260050 0.011040
0.783275 0.268066 0.008674
0.823039 0.275812 0.007886
0.858330 0.283049 0.007886
0.889714 0.289946 0.007886
0.918533 0.296656 0.009463
0.944614 0.303678 0.012617
0.967593 0.311457 0.018926
0.985671 0.320725 0.030754
0.999383 0.330893 0.046181
0.003943 0.276898 0.018926
0.035486 0.281858 0.018137
0.075168 0.283839 0.018137
0.120087 0.281592 0.020503
0.163654 0.274584 0.026023
0.202067 0.264093 0.033909
0.237839 0.253846 0.044005
0.276763 0.247616 0.052347
0.324007 0.247616 0.055568
0.380622 0.253095 0.053002
0.443710 0.261792 0.045463
0.508298 0.271140 0.036274
0.570522 0.280260 0.026812
0.628412 0.288402 0.020503
0.681341 0.296156 0.015771
0.729620 0.303678 0.012617
0.773872 0.310749 0.010251
0.814234 0.317287 0.009463
0.850137 0.323331 0.008674
0.882125 0.328801 0.010251
0.911350 0.333947 0.011829
0.938249 0.339212 0.016560
0.962389 0.345320 0.025234
0.982574 0.352725 0.040994
0.999195 0.361232 0.061056
0.003943 0.351810 0.010251
0.039429 0.358357 0.009463
0.084717 0.361823 0.009463
0.137147 0.360541 0.010251
0.189016 0.353638 0.013406
0.233435 0.341227 0.018926
0.270723 0.326470 0.028389
0.305373 0.312868 0.038640
0.343648 0.304042 0.048985
0.389654 0.301726 0.054295
0.443940 0.305494 0.052347
0.502770 0.313103 0.045463
0.561848 0.322088 0.036274
0.618104 0.330783 0.027600
0.670261 0.338893 0.020503
0.718338 0.346152 0.016560
0.763017 0.352827 0.013406
0.803909 0.358755 0.011829
0.840590 0.363884 0.011829
0.873326 0.368444 0.013406
0.903201 0.372368 0.017349
0.930942 0.376241 0.023657
0.956266 0.380900 0.036274
0.978664 0.386854 0.055568
0.998415 0.393853 0.080060
0.010251 0.427006 0.004731
0.051686 0.434633 0.004731
0.101867 0.439007 0.004731
0.159468 0.438774 0.004731
0.216596 0.433295 0.005520
0.266796 0.421907 0.008674
0.307776 0.405876 0.014194
0.342177 0.388121 0.022869
0.374830 0.371797 0.034697
0.410885 0.360244 0.046892
0.453159 0.355555 0.054295
0.502114 0.357459 0.054934
0.555085 0.363884 0.048985
0.608033 0.371892 0.040217
0.658799 0.379973 0.032332
0.706271 0.387307 0.026023
0.750901 0.393853 0.021292
0.792387 0.399485 0.018926
0.829768 0.404247 0.018926
0.863334 0.408093 0.022080
0.894022 0.411137 0.027600
0.922455 0.413904 0.037063
0.948826 0.417310 0.053002
0.973455 0.421989 0.074664
0.996342 0.427969 0.101867
0.029177 0.497363 0.002366
0.076167 0.505316 0.002366
0.129049 0.510038 0.002366
0.187552 0.510616 0.002366
0.246224 0.506745 0.003154
0.299142 0.497762 0.003943
0.343753 0.483581 0.005520
0.380622 0.465627 0.011040
0.412314 0.445924 0.019714
0.442175 0.427728 0.033120
0.473759 0.414405 0.047596
0.510552 0.407838 0.058662
0.553639 0.408008 0.062806
0.600780 0.412733 0.059267
0.648590 0.419452 0.051686
0.694796 0.426604 0.044005
0.739123 0.433137 0.037852
0.780529 0.438541 0.033909
0.818337 0.443097 0.033909
0.852592 0.446457 0.037852
0.884054 0.448805 0.046181
0.913410 0.450914 0.058053
0.940726 0.453457 0.075669
0.966892 0.457239 0.098330
0.992341 0.462586 0.124646
0.065646 0.559453 0.001577
0.113969 0.566994 0.001577
0.165586 0.571580 0.001577
0.220502 0.572470 0.001577
0.276084 0.569964 0.001577
0.328469 0.563551 0.002366
0.374452 0.552536 0.003154
0.413821 0.536858 0.004731
0.447292 0.517871 0.009463
