bundles/resolve-cinematic-luts/Gamut/Lotus/Lotus 02.cube
TITLE "Generated by 3D LUT Creator Pro (c) Oleg Sharonov"
LUT_3D_SIZE 9
#INPUTGAMMA sRGB
#IMAGEPROFILE sRGB
#OUTPUTGAMMA sRGB
0.000000 0.004731 0.000000
0.061056 0.003943 0.000000
0.185650 0.006309 0.000000
0.346671 0.003154 0.000789
0.497031 0.036274 0.001577
0.623957 0.118753 0.000789
0.737083 0.198744 0.000789
0.861834 0.259320 0.000789
0.984576 0.288789 0.001577
0.018137 0.045463 0.014194
0.064521 0.035486 0.023657
0.170081 0.066756 0.007097
0.344067 0.093011 0.001577
0.497231 0.127180 0.002366
0.622413 0.182217 0.001577
0.737444 0.243098 0.000789
0.861899 0.291991 0.002366
0.984686 0.319813 0.002366
0.022869 0.145618 0.032332
0.074664 0.143964 0.025234
0.160215 0.133308 0.040217
0.305615 0.162189 0.024446
0.475027 0.222948 0.003154
0.612891 0.274037 0.000789
0.736120 0.319241 0.001577
0.861475 0.356057 0.000789
0.984604 0.375395 0.002366
0.007886 0.291864 0.054295
0.091319 0.290843 0.066202
0.202454 0.287366 0.073137
0.311103 0.271971 0.084261
0.431158 0.281327 0.074158
0.572858 0.348532 0.016560
0.708216 0.408093 0.001577
0.851598 0.442252 0.001577
0.981337 0.453531 0.000789
0.095088 0.428129 0.114317
0.151788 0.425880 0.120748
0.240564 0.421989 0.131196
0.350380 0.416068 0.140597
0.439007 0.399485 0.155677
0.535590 0.399485 0.160463
0.672568 0.466563 0.080060
0.819141 0.525929 0.014983
0.961627 0.546864 0.002366
0.196960 0.558652 0.189433
0.230780 0.556354 0.191293
0.288143 0.553871 0.203033
0.374735 0.549797 0.211876
0.466059 0.546628 0.221029
0.547158 0.532496 0.238965
0.638024 0.526733 0.261357
0.789023 0.583767 0.216775
0.936612 0.626981 0.148869
0.247924 0.701847 0.281193
0.274584 0.701248 0.283576
0.321407 0.699835 0.289433
0.390462 0.697214 0.303070
0.481028 0.695444 0.312986
0.577714 0.695747 0.325129
0.672342 0.679072 0.343334
0.764700 0.658382 0.388212
0.904704 0.697128 0.416234
0.305132 0.829115 0.414488
0.326024 0.828978 0.418136
0.365833 0.828428 0.426282
0.425557 0.827567 0.440401
0.506680 0.825497 0.454202
0.608289 0.823836 0.469644
0.715012 0.820814 0.488977
0.805303 0.805374 0.522700
0.874256 0.778443 0.600467
0.510038 0.921080 0.658428
0.526362 0.917541 0.664333
0.552013 0.916759 0.671755
0.588990 0.914860 0.684880
0.636815 0.911865 0.697429
0.692410 0.908827 0.705041
0.755071 0.901542 0.709060
0.821232 0.896290 0.714094
0.878791 0.878950 0.729376
0.011829 0.007886 0.067305
0.072104 0.000000 0.085170
0.196362 0.001577 0.077646
0.358257 0.000789 0.043264
0.508362 0.003154 0.014983
0.632241 0.053002 0.003943
0.745832 0.157458 0.001577
0.868074 0.230111 0.001577
0.992043 0.272109 0.003154
0.008674 0.061643 0.073137
0.068934 0.060464 0.073137
0.199138 0.056820 0.061056
0.360145 0.058053 0.037852
0.507522 0.081010 0.013406
0.630036 0.142850 0.003943
0.743974 0.214613 0.001577
0.867880 0.269048 0.001577
0.990034 0.301726 0.003154
0.001577 0.167494 0.088291
0.078134 0.164864 0.090032
0.175585 0.151788 0.100309
0.330454 0.180912 0.078134
0.490736 0.222426 0.023657
0.622513 0.261502 0.003154
0.741673 0.304163 0.001577
0.866293 0.340593 0.001577
0.989490 0.361528 0.002366
0.006309 0.310394 0.115355
0.095908 0.306698 0.120748
0.207788 0.301114 0.130280
0.321521 0.289175 0.136855
0.443634 0.299142 0.124646
0.582247 0.357659 0.051686
0.718918 0.407412 0.006309
0.859872 0.435183 0.002366
0.987501 0.443863 0.001577
0.101090 0.437373 0.161698
0.160215 0.435497 0.165825
0.246069 0.430523 0.175360
0.355051 0.424830 0.184157
0.444781 0.409365 0.197159
0.540638 0.411642 0.197755
0.677152 0.476221 0.124005
0.825324 0.528642 0.035486
0.967144 0.542366 0.003154
0.198941 0.564231 0.221903
0.231613 0.563268 0.225878
0.291099 0.560709 0.235403
0.374830 0.556815 0.245447
0.466995 0.553755 0.252493
0.548216 0.539202 0.268487
0.642115 0.534804 0.286847
0.792058 0.589151 0.245447
0.937490 0.628856 0.177156
0.246224 0.706101 0.302582
0.270862 0.705253 0.307058
0.319470 0.703893 0.314505
0.389294 0.701548 0.327360
0.479363 0.699835 0.336968
0.578920 0.698290 0.347706
0.672162 0.683158 0.366803
0.766607 0.662495 0.407157
0.905684 0.697128 0.422070
0.304769 0.831345 0.432505
0.324905 0.830968 0.435575
0.365347 0.830385 0.442943
0.425799 0.828737 0.456353
0.505901 0.826843 0.470143
0.606694 0.825082 0.482893
0.715429 0.821823 0.500669
0.805695 0.805695 0.529195
0.875121 0.778630 0.599996
0.513113 0.919733 0.662034
0.524131 0.917240 0.662955
0.547981 0.917120 0.671800
0.586574 0.915825 0.684395
0.633851 0.911319 0.697429
0.689271 0.906723 0.703978
0.754099 0.900587 0.706694
0.819350 0.894675 0.715346
0.878536 0.878887 0.728929
0.002366 0.015771 0.191704
0.075168 0.003943 0.203225
0.208538 0.000789 0.218559
0.366027 0.000789 0.215336
0.521264 0.000789 0.177380
0.650290 0.001577 0.108258
0.762749 0.030754 0.054295
0.881650 0.123683 0.019714
0.998281 0.198349 0.004731
0.014983 0.082881 0.189225
0.072622 0.076167 0.198547
0.208912 0.037063 0.215336
0.373980 0.011829 0.200511
0.524007 0.010251 0.154392
0.647074 0.034697 0.100309
0.759019 0.110432 0.054934
0.880158 0.195158 0.019714
0.997689 0.244510 0.003943
0.003943 0.187552 0.193541
0.061056 0.191909 0.196162
0.202840 0.193947 0.203033
0.369886 0.180474 0.182217
0.514514 0.177156 0.149404
0.635942 0.212975 0.104163
0.752346 0.262369 0.054295
0.876080 0.301481 0.017349
0.996585 0.323106 0.003943
0.003943 0.333186 0.208912
0.070003 0.333838 0.213340
0.219974 0.331987 0.219974
0.336323 0.315436 0.232111
0.465555 0.331331 0.215336
0.600467 0.371034 0.162679
0.735879 0.400790 0.075669
0.870721 0.418136 0.016560
0.993560 0.421826 0.002366
0.091745 0.457755 0.241518
0.161944 0.456131 0.245758
0.256526 0.450838 0.254145
0.359649 0.444016 0.260341
0.453009 0.432030 0.269468
0.552304 0.438230 0.268066
0.688571 0.495100 0.215697
0.839341 0.530665 0.113270
0.978912 0.530298 0.014194
0.192523 0.579905 0.288272
0.229271 0.578208 0.291482
0.292754 0.575072 0.297902
0.374074 0.570354 0.308969
0.466995 0.566431 0.315900
0.551548 0.554507 0.326470
0.650479 0.553001 0.339319
0.800356 0.602083 0.304163
0.941918 0.634290 0.241994
0.234913 0.715388 0.356559
0.262513 0.714554 0.358855
0.314155 0.712966 0.365639
0.386036 0.710533 0.378299
0.474535 0.708005 0.388483
0.577220 0.706271 0.397296
0.673695 0.691148 0.413821
0.769532 0.673470 0.447368
0.908462 0.703850 0.452785
0.301481 0.835372 0.469430
0.321180 0.834896 0.471352
0.362512 0.833907 0.477900
0.425476 0.832166 0.490195
0.503620 0.830008 0.505576
0.604368 0.828015 0.516798
0.713802 0.824771 0.531338
0.806159 0.808365 0.553349
0.874993 0.782164 0.613705
0.504730 0.920422 0.661251
0.516608 0.918713 0.664149
0.541413 0.918082 0.672026
0.582084 0.916247 0.684263
0.629888 0.912411 0.696912
0.685717 0.907974 0.704701
0.752268 0.902095 0.709986
0.818302 0.895079 0.714220
0.877389 0.881301 0.724192
0.000000 0.026812 0.341122
0.089165 0.010251 0.349252
0.223121 0.000789 0.363002
0.377085 0.001577 0.374452
0.520136 0.000789 0.373601
0.648779 0.001577 0.354850
0.776050 0.001577 0.295278
0.906723 0.003943 0.207600
0.996639 0.022080 0.134798
0.012617 0.108987 0.340062
0.094676 0.097126 0.346671
0.220326 0.053002 0.361429
0.379045 0.008674 0.373317
0.522949 0.002366 0.368252
0.650290 0.001577 0.340593
0.777509 0.004731 0.275131
0.905194 0.022869 0.198547
0.998039 0.075168 0.137728
0.060464 0.223814 0.329684
0.129049 0.224160 0.334813
0.216416 0.214613 0.351402
0.375395 0.165825 0.367383
0.521639 0.133608 0.349765
0.648779 0.092168 0.307297
0.773308 0.097930 0.250068
0.896817 0.162679 0.199138
0.998039 0.228428 0.143686
0.014194 0.347396 0.335785
0.071584 0.349560 0.337825
0.214975 0.352420 0.340593
0.357059 0.360639 0.349970
0.501852 0.350073 0.328801
0.624852 0.347706 0.302582
0.753710 0.363296 0.263089
0.883011 0.380715 0.214250
0.997501 0.385490 0.145068
0.019714 0.477830 0.349355
0.090463 0.478388 0.351810
0.238483 0.479293 0.357159
0.366221 0.476011 0.367287
0.459812 0.465122 0.377552
0.568341 0.478806 0.365639
0.711709 0.514196 0.327915
0.861082 0.524318 0.262225
0.991772 0.511001 0.154650
0.133906 0.600623 0.379138
0.191499 0.600049 0.383845
0.277709 0.598949 0.390373
0.371701 0.593785 0.400964
0.464616 0.589044 0.410126
0.553059 0.578537 0.416068
0.661712 0.581268 0.422315
0.814093 0.622762 0.387579
0.953071 0.635845 0.326693
0.197358 0.731120 0.435654
0.233435 0.730309 0.437919
0.297280 0.728644 0.444322
0.378672 0.725707 0.454350
0.466779 0.721726 0.466779
0.572803 0.719042 0.474323
0.679963 0.708469 0.484817
0.776237 0.690494 0.510680
0.913500 0.717176 0.503097
0.288660 0.841939 0.527041
0.310867 0.841669 0.528888
0.356358 0.840320 0.534743
0.423778 0.838393 0.545744
0.501983 0.835814 0.560253
0.599735 0.833020 0.572247
0.710323 0.829218 0.583929
0.806480 0.816902 0.598267
0.874448 0.789426 0.653861
0.506161 0.921319 0.683953
0.516545 0.920721 0.685321
0.540279 0.919193 0.691540
0.578701 0.917180 0.700007
0.625496 0.912895 0.707667
0.680542 0.908553 0.715096
0.746936 0.902341 0.719373
0.818407 0.894271 0.722590
0.875537 0.882251 0.724971
0.042516 0.063382 0.486868
0.128429 0.044005 0.492218
0.244667 0.006309 0.502901
0.384668 0.001577 0.517871
0.522014 0.000789 0.529624
0.641299 0.001577 0.526794
0.764968 0.001577 0.519571
0.900587 0.001577 0.479988
0.997339 0.002366 0.395624
0.072622 0.145068 0.486322
0.140312 0.133906 0.489925
0.244823 0.094676 0.500537
0.382468 0.023657 0.518124
0.521576 0.002366 0.528827
0.641251 0.001577 0.525310
0.766036 0.001577 0.513495
0.902710 0.001577 0.468572
0.997124 0.002366 0.380344
0.126235 0.263663 0.478388
0.169379 0.258881 0.483237
0.248692 0.240724 0.493561
0.373980 0.191293 0.512730
0.515086 0.125602 0.524938
0.636912 0.112567 0.518376
0.765921 0.075168 0.496233
0.905653 0.018137 0.438152
0.998550 0.018137 0.349765
0.148869 0.375489 0.467712
0.197557 0.377459 0.471494
0.280127 0.381546 0.477760
0.363002 0.373317 0.495967
0.495233 0.339425 0.516734
0.624951 0.329794 0.498027
0.765883 0.296156 0.455983
0.903999 0.249763 0.395712
0.998281 0.239766 0.335893
0.049669 0.486868 0.478737
0.107892 0.488841 0.479849
0.232939 0.492218 0.484131
0.352115 0.495367 0.489316
0.462367 0.504077 0.495434
0.597532 0.497695 0.469644
0.743737 0.491141 0.449032
0.883074 0.485913 0.405962
0.996046 0.477411 0.356959
0.011829 0.616642 0.494900
0.059267 0.617399 0.495567
0.203225 0.619110 0.499614
0.341016 0.620814 0.506161
0.455242 0.616642 0.515467
0.555951 0.607724 0.527966
0.684572 0.621964 0.515023
0.835610 0.638218 0.483100
0.970949 0.624951 0.421499
0.065085 0.746581 0.528642
0.124326 0.746660 0.530176
0.234257 0.746581 0.534501
0.351096 0.745437 0.544088
0.456944 0.741116 0.556181
0.564231 0.736080 0.566544
0.679072 0.727585 0.574630
0.784311 0.713133 0.592086
0.918653 0.735156 0.569125
0.246844 0.851266 0.596690
0.280661 0.850702 0.598425
0.339319 0.849505 0.604317
0.418053 0.847171 0.613806
0.503228 0.843922 0.626685
0.596585 0.840084 0.641107
0.704871 0.836494 0.649158
0.804302 0.829218 0.660373
0.869205 0.802440 0.702785
0.504012 0.922306 0.718214
0.516228 0.922783 0.720448
0.540697 0.921080 0.725052
0.577769 0.919193 0.729295
0.624603 0.914981 0.736120
0.679963 0.909892 0.745595
0.743935 0.903447 0.751995
0.811236 0.896166 0.751292
0.868591 0.888366 0.756778
0.144793 0.129666 0.635700
0.194352 0.117066 0.638942
0.282255 0.075168 0.646457
0.395094 0.011829 0.657592
0.514705 0.001577 0.674325
0.636088 0.001577 0.681652
0.758942 0.001577 0.679251
0.891497 0.001577 0.668853
0.999383 0.002366 0.630576
0.157710 0.199728 0.633413
0.202454 0.190055 0.637879
0.283444 0.162679 0.644505
0.391805 0.090892 0.657034
0.512154 0.014194 0.673695
0.634338 0.001577 0.682095
0.759520 0.001577 0.679117
0.890809 0.001577 0.666803
0.998872 0.001577 0.624256
0.182650 0.305494 0.631115
0.215877 0.299142 0.632632
0.283839 0.282785 0.640387
0.383111 0.245913 0.653064
0.501392 0.169613 0.670669
0.627722 0.094676 0.679696
0.756778 0.076167 0.676525
0.890215 0.044738 0.658938
0.998711 0.006309 0.608289
0.229943 0.420027 0.617399
0.253696 0.418959 0.620814
0.300130 0.413904 0.629643
0.373980 0.396505 0.644553
0.479849 0.359748 0.662679
0.612586 0.321748 0.674325
0.751604 0.311103 0.667807
0.889683 0.277439 0.638797
0.996827 0.182217 0.570689
0.202647 0.515784 0.615277
0.238644 0.517430 0.618506
0.301726 0.521389 0.621664
0.380344 0.525496 0.630134
0.457829 0.517808 0.648779
0.589258 0.487890 0.668626
0.743618 0.475238 0.647880
0.889996 0.440865 0.599525
0.997554 0.394917 0.529563
0.048985 0.626437 0.629003
0.087851 0.627179 0.629446
0.191499 0.630085 0.631800
0.317979 0.635457 0.636912
0.434083 0.641155 0.641635
0.552943 0.646124 0.647975
0.722755 0.639520 0.622164
0.861997 0.622114 0.600623
0.981200 0.601250 0.553059
0.003154 0.757938 0.645791
0.007097 0.759251 0.643933
0.073137 0.760406 0.646694
0.268628 0.762212 0.650809
0.427247 0.762940 0.660604
0.560253 0.761290 0.674235
0.679162 0.750274 0.681519
0.802081 0.753126 0.677867
0.924065 0.751839 0.652126
0.125284 0.859806 0.673605
0.168203 0.859544 0.675090
0.266796 0.858823 0.680542
0.390373 0.858035 0.691017
0.503293 0.854973 0.705253
0.602500 0.850535 0.718918
0.703084 0.843755 0.729701
0.797687 0.836732 0.733545
0.870915 0.822101 0.756429
0.486527 0.926949 0.756041
0.501983 0.925345 0.757706
0.531399 0.924810 0.762710
0.575238 0.921200 0.768849
0.627821 0.917120 0.776162
0.683291 0.911380 0.784311
0.741832 0.906692 0.788583
0.808827 0.894364 0.795297
0.866260 0.888837 0.792715
0.237354 0.231779 0.781496
0.265804 0.225192 0.785013
0.324905 0.202840 0.787444
0.408178 0.146710 0.795768
0.505771 0.046892 0.805231
0.618506 0.003154 0.816447
0.743697 0.001577 0.820222
0.880888 0.001577 0.816447
0.999248 0.000789 0.791292
0.240405 0.282255 0.781644
0.267784 0.275404 0.784385
0.323331 0.256526 0.788069
0.404848 0.214975 0.795043
0.501786 0.125602 0.804910
0.615429 0.020503 0.817148
0.743539 0.001577 0.821058
0.880539 0.001577 0.815183
0.998926 0.000789 0.788032
0.247153 0.365249 0.778667
0.270166 0.360639 0.781236
0.319241 0.347086 0.784200
0.396153 0.318094 0.792168
0.490601 0.266513 0.802153
0.605403 0.158968 0.814937
0.739003 0.060464 0.820013
0.879205 0.032332 0.812719
0.998012 0.013406 0.783349
0.270862 0.473830 0.771574
0.288272 0.470926 0.773534
0.325241 0.461931 0.778816
0.387307 0.442636 0.786266
0.473335 0.408857 0.797723
0.587972 0.351708 0.810387
0.730796 0.296531 0.817183
0.876815 0.273213 0.807049
0.996100 0.243884 0.773120
0.297778 0.573302 0.761483
0.315087 0.573634 0.762710
0.348841 0.573025 0.766531
0.397560 0.567163 0.776387
0.463602 0.547334 0.788142
0.567331 0.509201 0.803622
0.719497 0.468071 0.811554
0.869593 0.454945 0.797940
0.986682 0.435654 0.756468
0.222426 0.658196 0.764395
0.251738 0.659124 0.766074
0.309088 0.661435 0.766112
0.388753 0.666667 0.769039
0.474746 0.670940 0.775300
0.563041 0.661850 0.789426
0.704488 0.629151 0.803980
0.852824 0.622712 0.783312
0.972231 0.595266 0.734915
0.047596 0.762135 0.771423
0.070533 0.762442 0.771649
0.139456 0.764050 0.772517
0.292118 0.767368 0.775075
0.431238 0.771989 0.777734
0.564514 0.777285 0.783978
0.684792 0.781310 0.788252
0.825739 0.773609 0.771536
0.933710 0.755925 0.747999
0.028389 0.866163 0.771838
0.046181 0.866973 0.771914
0.130891 0.866584 0.774474
0.314272 0.866584 0.777846
0.464544 0.865351 0.785160
0.600832 0.863953 0.796457
0.716387 0.852791 0.808543
0.791657 0.851299 0.811625
0.885032 0.848105 0.814023
0.416565 0.931473 0.797072
0.434398 0.930470 0.800500
0.473194 0.928401 0.802296
0.537701 0.925464 0.809075
0.617147 0.919313 0.817323
0.693539 0.913652 0.831071
0.749098 0.906814 0.836969
0.810988 0.898828 0.847371
0.857476 0.891903 0.840084
0.316479 0.367480 0.885820
0.332860 0.361922 0.888178
0.367576 0.346360 0.891216
0.422722 0.315900 0.893555
0.496034 0.258295 0.898241
0.589418 0.134501 0.905592
0.703978 0.014194 0.913319
0.836833 0.001577 0.915524
0.984932 0.000000 0.911683
0.320497 0.400182 0.885820
0.335569 0.395005 0.887299
0.368252 0.381177 0.889683
0.422478 0.352827 0.893368
0.494030 0.302216 0.897839
0.585388 0.198151 0.904704
0.701077 0.037852 0.912865
0.835644 0.001577 0.914920
0.984823 0.000789 0.910469
0.331659 0.463602 0.883548
0.343962 0.458932 0.884622
0.372368 0.447064 0.886481
0.421336 0.423209 0.890778
0.488977 0.382376 0.896135
0.578263 0.309564 0.902771
0.695271 0.153875 0.911046
0.832234 0.033909 0.913228
0.982958 0.007886 0.908797
0.358457 0.553697 0.878791
0.368155 0.549856 0.879713
0.389114 0.540399 0.881840
0.428129 0.522014 0.885537
0.486118 0.490601 0.891278
0.569573 0.437763 0.898457
0.685365 0.346152 0.907608
0.828118 0.267643 0.911077
0.980264 0.222600 0.902587
0.402091 0.645458 0.869754
0.410463 0.644171 0.870689
0.428369 0.640290 0.873262
0.457313 0.629348 0.877804
0.499548 0.606178 0.883359
0.567500 0.567275 0.892589
0.676391 0.502442 0.901603
0.822344 0.447216 0.905653
0.973511 0.427568 0.896786
0.423372 0.719539 0.865091
0.435340 0.719745 0.864344
0.461639 0.721520 0.865481
0.501261 0.722590 0.867751
0.545508 0.718338 0.873037
0.596216 0.698634 0.881301
0.676436 0.656895 0.892870
0.815394 0.616541 0.897591
0.953242 0.608084 0.883074
0.364957 0.782275 0.866325
0.383753 0.784015 0.866909
0.423615 0.785750 0.867071
0.485707 0.789316 0.867621
0.560082 0.794680 0.867718
0.637686 0.799852 0.871043
0.704786 0.795587 0.879141
0.816271 0.771385 0.889526
0.916066 0.768128 0.873165
0.244041 0.861573 0.866811
0.273625 0.861867 0.867265
0.340487 0.862845 0.867848
0.429727 0.863921 0.868430
0.525186 0.865059 0.869819
0.625348 0.866941 0.871752
0.717633 0.867653 0.875409
0.803228 0.871204 0.878186
0.886041 0.864441 0.863465
0.347396 0.933886 0.863334
0.367770 0.932180 0.862487
0.417971 0.931532 0.863432
0.493159 0.927809 0.864636
0.581105 0.923946 0.865546
0.675045 0.918142 0.868947
0.768660 0.909801 0.880127
0.827774 0.902157 0.887707
0.858823 0.898550 0.894831
0.442790 0.552536 0.948682
0.450688 0.546275 0.947876
0.462876 0.532496 0.947876
0.486459 0.505706 0.951238
0.524069 0.462586 0.952155
0.584416 0.380992 0.958001
0.674595 0.198744 0.962813
0.793043 0.003943 0.969301
0.940406 0.000789 0.974622
0.453531 0.570075 0.944093
0.458565 0.565135 0.947098
0.469430 0.552362 0.948049
0.492487 0.526733 0.949947
0.528949 0.483168 0.952870
0.587435 0.406645 0.957461
0.675628 0.244041 0.963546
0.793079 0.009463 0.968853
0.939853 0.000789 0.968433
0.473477 0.611618 0.940988
0.477830 0.606900 0.942702
0.485913 0.595002 0.943369
0.503947 0.571135 0.945626
0.535227 0.530665 0.948970
0.590060 0.463457 0.954213
0.674820 0.330454 0.960326
0.794825 0.053002 0.967313
0.945886 0.000789 0.969105
0.513177 0.671936 0.934767
0.513623 0.667852 0.936700
0.519005 0.657964 0.936963
0.531582 0.637251 0.939562
0.555778 0.602604 0.944151
0.600414 0.544798 0.949573
0.678225 0.440942 0.955212
0.795877 0.255487 0.961881
0.942615 0.165345 0.957631
0.560253 0.736401 0.926949
0.563608 0.733585 0.927986
0.566375 0.726443 0.929761
0.574796 0.712421 0.932121
0.588615 0.686685 0.934884
0.619511 0.643455 0.941221
0.681829 0.566375 0.949286
0.787664 0.447747 0.955810
0.931944 0.404505 0.956238
0.599839 0.793079 0.918383
0.606023 0.792423 0.918262
0.612942 0.789426 0.920302
0.625695 0.783756 0.923350
0.638797 0.771196 0.924363
0.659448 0.746463 0.928963
0.699149 0.702871 0.934825
0.780641 0.629003 0.943108
0.911198 0.598005 0.943543
0.594843 0.827154 0.915282
0.603798 0.827705 0.914860
0.619662 0.828496 0.914256
0.646457 0.831550 0.914498
0.677689 0.832952 0.913833
0.709860 0.830282 0.918082
0.736080 0.815605 0.915584
0.788803 0.786377 0.928342
0.885568 0.763476 0.928963
0.562190 0.863595 0.914196
0.570354 0.863465 0.914135
0.589632 0.863530 0.913137
0.624454 0.864311 0.912290
0.668990 0.866260 0.912471
0.721767 0.868979 0.912895
0.776237 0.877804 0.919433
0.813917 0.878059 0.911926
0.866682 0.867783 0.914075
0.517619 0.911865 0.911319
0.529869 0.911744 0.907425
0.555663 0.910591 0.909618
0.598897 0.910044 0.911137
0.654142 0.909253 0.910348
0.716553 0.909375 0.907394
0.790048 0.906875 0.910165
0.843620 0.906295 0.905408
0.850934 0.905867 0.909801
