bundles/resolve-cinematic-luts/Phantom Luts/Komodo Phantom ARRI LUTs G2/Komodo Phantom ARRI LUTs G2/33x/WB Offset - Green Boost/IceBlue_Komodo_WBO_G2_33x.cube
TITLE "Generated by Resolve"
LUT_3D_SIZE 33
0.0343023 0.0468605 0.0466621
0.0343175 0.0468605 0.0466316
0.0347143 0.0467994 0.04654
0.0420539 0.046479 0.0476997
0.0591135 0.046067 0.0466621
0.0813458 0.0456092 0.0464027
0.113176 0.0441749 0.0455787
0.156024 0.0422065 0.0450904
0.207935 0.0405432 0.0468299
0.26865 0.0397803 0.0510872
0.337041 0.0407568 0.0592813
0.409476 0.0430762 0.0712749
0.479713 0.045655 0.0883955
0.536049 0.0496986 0.108797
0.581949 0.0541085 0.129244
0.620218 0.0624094 0.146853
0.650324 0.0714122 0.161166
0.658885 0.0735027 0.171145
0.661738 0.073991 0.177478
0.664164 0.0743877 0.182864
0.666224 0.0747082 0.187762
0.66804 0.0749828 0.19205
0.669306 0.0751812 0.195254
0.670375 0.0752575 0.198154
0.671382 0.0753948 0.200565
0.67216 0.0755169 0.202487
0.672694 0.0755016 0.20415
0.673182 0.0754253 0.205905
0.673594 0.0753033 0.207614
0.674189 0.0750134 0.21062
0.674876 0.0745861 0.214542
0.676051 0.0737469 0.221836
0.677302 0.0728161 0.229923
0.0344091 0.0467689 0.0463264
0.0343481 0.0468147 0.0464942
0.0343633 0.0468147 0.0464942
0.0396429 0.0465553 0.0472572
0.0573739 0.0462501 0.0469978
0.0808423 0.0456703 0.0467079
0.114794 0.0440223 0.0464027
0.159518 0.0419623 0.0454871
0.211231 0.0399939 0.0455177
0.272328 0.0389563 0.0477455
0.342367 0.0393835 0.055436
0.41622 0.0417029 0.0677806
0.485557 0.0442969 0.0860914
0.5402 0.0482795 0.108003
0.585351 0.0539559 0.128786
0.624079 0.0631876 0.147707
0.653696 0.0718853 0.16376
0.658839 0.0729229 0.172854
0.661616 0.0732738 0.179309
0.663981 0.0736858 0.184619
0.665995 0.073991 0.189441
0.667643 0.0742504 0.193515
0.669062 0.0744793 0.197131
0.670024 0.0746166 0.199496
0.670771 0.0746624 0.201526
0.671351 0.0747234 0.203052
0.67187 0.074815 0.204227
0.672236 0.074876 0.205173
0.672511 0.0749065 0.205859
0.672938 0.0747539 0.207706
0.673564 0.0743877 0.210986
0.674647 0.0735637 0.217838
0.675837 0.0726177 0.225559
0.0344091 0.0467536 0.0463417
0.0343481 0.0468147 0.0465248
0.0343175 0.0468605 0.0466163
0.0356909 0.046891 0.0466621
0.0508888 0.0470588 0.0478523
0.0748455 0.0465858 0.0474861
0.108721 0.0451362 0.0470741
0.155505 0.0428626 0.0467079
0.209308 0.0405127 0.0461738
0.271107 0.0389868 0.0471199
0.338674 0.0384375 0.0505379
0.412253 0.039826 0.0586099
0.481575 0.0417945 0.0753796
0.536904 0.0462348 0.0986191
0.584237 0.0539864 0.122072
0.623255 0.0635386 0.141436
0.650935 0.0718395 0.155215
0.656611 0.0726635 0.167407
0.659449 0.0729686 0.174258
0.661982 0.0733349 0.18024
0.663996 0.0736858 0.18468
0.66566 0.0739452 0.188647
0.666957 0.0741283 0.191836
0.667994 0.0742962 0.194385
0.668803 0.0744335 0.196399
0.669367 0.0745251 0.197879
0.669703 0.0745861 0.198642
0.669993 0.0746166 0.19939
0.670192 0.0746166 0.199969
0.670558 0.0744488 0.201694
0.671107 0.0740673 0.204639
0.672175 0.0732128 0.211124
0.67332 0.0722515 0.218341
0.0349737 0.049897 0.046952
0.0349432 0.0499886 0.0471046
0.0350958 0.0494087 0.046952
0.0354314 0.0482643 0.0467994
0.0429389 0.0491493 0.0486915
0.0647593 0.0490425 0.0482032
0.0966812 0.0475319 0.0472572
0.144396 0.0453956 0.0472114
0.202121 0.0428168 0.0476234
0.265751 0.0410163 0.0478981
0.336568 0.0406195 0.0510872
0.409155 0.0409705 0.0564126
0.475334 0.0407263 0.0650645
0.529549 0.045655 0.0831159
0.578439 0.0536507 0.107958
0.618921 0.0632792 0.129366
0.64448 0.0708171 0.141573
0.65098 0.0719768 0.154101
0.655894 0.0725719 0.16553
0.658671 0.0729076 0.172381
0.660761 0.0731212 0.17734
0.662531 0.0734417 0.181491
0.663828 0.0736706 0.184298
0.664897 0.0738079 0.186862
0.665629 0.07393 0.188571
0.666148 0.0740215 0.189792
0.666545 0.0740673 0.190814
0.666835 0.0741131 0.191546
0.667002 0.0741283 0.191959
0.667353 0.0739452 0.193576
0.667826 0.0735637 0.196185
0.668772 0.0726787 0.202274
0.669841 0.0716564 0.209094
0.038056 0.0653391 0.0531014
0.0380102 0.0656596 0.0531777
0.0379034 0.0651713 0.0529183
0.040177 0.0628214 0.0522621
0.0471351 0.0604715 0.0516365
0.064622 0.0613107 0.0532082
0.0919509 0.06009 0.0525521
0.13666 0.0549172 0.0488441
0.192248 0.0485084 0.0473182
0.256672 0.0449989 0.048188
0.330541 0.0442664 0.0514534
0.405753 0.0439155 0.0572824
0.473732 0.0431373 0.0646067
0.525811 0.0453956 0.0775464
0.570672 0.0528878 0.092958
0.608408 0.0617838 0.110216
0.632914 0.0688487 0.121798
0.640314 0.0704051 0.131975
0.646403 0.0713054 0.144015
0.651347 0.0720378 0.154818
0.654994 0.0724041 0.163622
0.657465 0.0727703 0.169497
0.658946 0.0729381 0.172946
0.659998 0.0730144 0.17554
0.660899 0.0731518 0.17763
0.661494 0.0732586 0.178988
0.661906 0.0733349 0.180072
0.662181 0.0733806 0.180743
0.662287 0.0733959 0.180957
0.662516 0.0731975 0.182315
0.662821 0.0727703 0.184421
0.663539 0.0718395 0.189593
0.66421 0.0707408 0.195254
0.0398718 0.0894331 0.0587015
0.0397803 0.0903944 0.0585031
0.0396735 0.0903944 0.0584268
0.04094 0.0887465 0.0579995
0.0476234 0.0847944 0.0578927
0.0651865 0.083772 0.0570687
0.0955978 0.0839246 0.0582895
0.141939 0.0810559 0.0581369
0.198245 0.0737774 0.0533913
0.259617 0.0632029 0.0468605
0.327047 0.0523384 0.0489967
0.400031 0.047776 0.0576638
0.47155 0.04654 0.0661631
0.52517 0.0466316 0.0777447
0.569284 0.0525216 0.0920119
0.606668 0.0616159 0.106508
0.62948 0.0683146 0.11516
0.629236 0.0682994 0.114549
0.631739 0.0687419 0.1187
0.635813 0.0695811 0.124697
0.639979 0.0703288 0.131502
0.643717 0.0708324 0.138842
0.646677 0.0713207 0.144823
0.648768 0.0716411 0.149248
0.650202 0.0718242 0.152636
0.652079 0.0721447 0.15613
0.652659 0.0721599 0.157656
0.652949 0.0721752 0.158419
0.652949 0.0721752 0.158495
0.652888 0.071931 0.15903
0.652735 0.071519 0.159731
0.652781 0.0704204 0.16289
0.65211 0.0690471 0.164797
0.0393072 0.125475 0.0630045
0.0390173 0.127092 0.0613107
0.0386206 0.127459 0.0607614
0.0387121 0.12639 0.0607767
0.0447395 0.123232 0.060914
0.0585794 0.118944 0.061265
0.0919356 0.118624 0.0589303
0.143816 0.118212 0.0606241
0.206516 0.113649 0.0639811
0.272435 0.102556 0.060029
0.342794 0.0869612 0.0543832
0.409934 0.069398 0.0500191
0.471717 0.0546731 0.0612345
0.524193 0.0507057 0.0767376
0.567056 0.0514687 0.0919509
0.606683 0.0609903 0.107713
0.633982 0.0691539 0.119051
0.636973 0.0702831 0.119417
0.635447 0.0700236 0.118273
0.633875 0.0696269 0.117281
0.632425 0.0692149 0.116381
0.631205 0.0688792 0.115648
0.631113 0.0688029 0.116167
0.631815 0.0689403 0.117281
0.63267 0.0690929 0.118669
0.633188 0.0691844 0.119554
0.633494 0.0692302 0.120104
0.633799 0.0692454 0.120699
0.633906 0.0691539 0.121172
0.633951 0.0688792 0.121981
0.633738 0.0684672 0.122469
0.633402 0.0677348 0.123583
0.63473 0.0673075 0.126604
0.0375372 0.173327 0.0663767
0.037171 0.175372 0.0636606
0.0368811 0.176211 0.0619669
0.0368048 0.175708 0.0616922
0.0383612 0.174212 0.0619059
0.0504921 0.170886 0.0620432
0.0756695 0.167788 0.0618601
0.131899 0.167346 0.0570077
0.203204 0.166812 0.0596628
0.281025 0.163836 0.0691539
0.360754 0.151553 0.0731365
0.434928 0.133211 0.0718242
0.500877 0.110323 0.0694743
0.544671 0.0801099 0.070634
0.57055 0.0587778 0.084184
0.60412 0.0599527 0.104356
0.636744 0.0691081 0.121508
0.645426 0.0716411 0.126787
0.644465 0.0712596 0.126772
0.643671 0.0709697 0.126787
0.642878 0.0707561 0.126741
0.642145 0.0705272 0.126574
0.641566 0.0703136 0.12639
0.641077 0.0701305 0.126223
0.640711 0.0700084 0.126116
0.640406 0.0699016 0.126024
0.640299 0.0698711 0.126009
0.640314 0.0698711 0.126024
0.640421 0.0699168 0.126055
0.640742 0.0700084 0.126192
0.641306 0.0702068 0.126436
0.642664 0.0703288 0.128176
0.644572 0.0702831 0.130755
0.0359503 0.228077 0.0695506
0.0355993 0.230808 0.0665141
0.0352483 0.231937 0.062562
0.0351873 0.23238 0.0612345
0.0351415 0.231556 0.0609751
0.0409705 0.230137 0.0613413
0.0609751 0.227115 0.0616617
0.102342 0.22562 0.0601053
0.184024 0.225147 0.0542763
0.272465 0.225254 0.0590219
0.365209 0.22623 0.0772412
0.452064 0.21706 0.0916915
0.527871 0.201068 0.0976425
0.591714 0.179141 0.103914
0.628397 0.150057 0.10605
0.630259 0.0927596 0.0974594
0.636088 0.0707256 0.104158
0.652354 0.0745098 0.123659
0.651621 0.0741588 0.124727
0.651133 0.0739605 0.125338
0.650523 0.0737163 0.125597
0.65005 0.0734722 0.125872
0.649607 0.0732738 0.12604
0.649241 0.0731365 0.126131
0.648981 0.0730297 0.126207
0.648829 0.0729686 0.126268
0.648768 0.0729381 0.126284
0.648783 0.0729381 0.126299
0.648905 0.0729992 0.126268
0.649195 0.073106 0.126192
0.64979 0.0733349 0.126131
0.651057 0.073518 0.127138
0.652827 0.0735637 0.128359
0.0361486 0.289906 0.0763714
0.0359045 0.293355 0.0723735
0.0356603 0.29575 0.066865
0.0352789 0.296437 0.0623941
0.0353094 0.295811 0.0615549
0.0353704 0.294362 0.0617075
0.0487373 0.294133 0.0620279
0.0769513 0.290867 0.0618906
0.143832 0.292866 0.0584878
0.246036 0.293324 0.053193
0.35169 0.295079 0.062974
0.448936 0.302388 0.0855116
0.543084 0.297963 0.117876
0.620935 0.291859 0.132174
0.681178 0.274052 0.148623
0.715572 0.245792 0.157427
0.72047 0.202106 0.146441
0.693004 0.123522 0.117113
0.669398 0.088304 0.108705
0.658656 0.0787823 0.104601
0.658137 0.07776 0.112932
0.657374 0.0771038 0.117281
0.657038 0.076936 0.117739
0.656779 0.0767834 0.11812
0.656687 0.0767224 0.118318
0.656596 0.0766461 0.118532
0.656565 0.0766155 0.118593
0.656611 0.0766308 0.118578
0.656718 0.0767224 0.11841
0.657069 0.0769207 0.117906
0.657633 0.0772106 0.116991
0.65864 0.0773785 0.116045
0.660166 0.0775158 0.115099
0.0380407 0.360967 0.0889448
0.0382086 0.365499 0.0855573
0.0380102 0.367605 0.0791638
0.0376745 0.368093 0.0706188
0.0374609 0.368109 0.0650492
0.0373846 0.367132 0.0651255
0.0384833 0.366247 0.0654307
0.0616922 0.366949 0.0648814
0.102312 0.364187 0.0645914
0.196521 0.36846 0.0610666
0.321004 0.37174 0.0589151
0.436973 0.376471 0.0735485
0.534463 0.391333 0.0953841
0.631022 0.39498 0.142977
0.707256 0.395727 0.171893
0.76286 0.389746 0.194476
0.79675 0.368582 0.207874
0.806653 0.332265 0.208438
0.792584 0.297581 0.195789
0.776638 0.26836 0.181872
0.759701 0.238025 0.167697
0.743313 0.208972 0.15491
0.729366 0.184176 0.144121
0.721294 0.171054 0.137438
0.715892 0.162783 0.132845
0.712276 0.156954 0.129915
0.710246 0.153521 0.129198
0.71014 0.15317 0.12961
0.712871 0.157229 0.131731
0.718273 0.166323 0.135027
0.727413 0.181933 0.141344
0.744549 0.2103 0.156374
0.768307 0.250065 0.177386
0.042359 0.436637 0.106615
0.0429694 0.440772 0.103838
0.0433661 0.443458 0.0981765
0.0434577 0.444419 0.0900893
0.0429084 0.444648 0.0789807
0.0428168 0.445045 0.0738384
0.0426642 0.444129 0.07393
0.0466926 0.443427 0.0734417
0.082475 0.444724 0.0721599
0.147143 0.442298 0.0719768
0.266377 0.449912 0.0702068
0.407935 0.457053 0.0732128
0.521828 0.464683 0.0921645
0.616007 0.481483 0.114412
0.701808 0.494896 0.166369
0.775525 0.499458 0.210285
0.825208 0.504082 0.233768
0.854765 0.502388 0.244251
0.860578 0.482918 0.247181
0.855497 0.462959 0.242695
0.85008 0.444022 0.23772
0.844633 0.427115 0.232776
0.841382 0.415869 0.231037
0.838026 0.406485 0.228763
0.835508 0.399207 0.227176
0.834623 0.395407 0.226886
0.834211 0.393683 0.226749
0.835203 0.396262 0.227665
0.836927 0.400397 0.229191
0.839918 0.408637 0.231601
0.844205 0.422477 0.234699
0.850629 0.444327 0.239734
0.858991 0.475105 0.246906
0.0538338 0.515602 0.133028
0.0555581 0.519631 0.130938
0.0568399 0.52221 0.126711
0.0579538 0.523491 0.119814
0.0583963 0.525246 0.110475
0.0597086 0.526436 0.0995346
0.0613107 0.526864 0.0972305
0.0608835 0.525505 0.096849
0.0738231 0.524987 0.0918593
0.125597 0.525979 0.0860456
0.214771 0.525017 0.0857557
0.357961 0.535195 0.0889754
0.496498 0.543297 0.0980392
0.600824 0.552209 0.126101
0.691051 0.567803 0.156283
0.759594 0.590555 0.193896
0.820371 0.604501 0.236561
0.856825 0.617517 0.254124
0.86981 0.614954 0.260487
0.871077 0.60441 0.26096
0.871824 0.595636 0.261204
0.871641 0.587716 0.260471
0.872053 0.582284 0.260517
0.871824 0.576944 0.259861
0.872145 0.5738 0.259892
0.872175 0.571832 0.259724
0.872343 0.572473 0.259876
0.872236 0.573159 0.259663
0.872084 0.575631 0.259495
0.871641 0.580392 0.259205
0.871046 0.589227 0.259022
0.870466 0.603632 0.259617
0.86865 0.623514 0.259998
0.082536 0.593057 0.175326
0.0849012 0.59675 0.173754
0.0870985 0.599451 0.170474
0.089128 0.601297 0.164889
0.0911269 0.602304 0.156466
0.0943923 0.604074 0.1467
0.101976 0.606348 0.136248
0.10132 0.605417 0.135851
0.100618 0.60441 0.135698
0.128237 0.604044 0.123491
0.200717 0.60531 0.114641
0.312184 0.606912 0.112184
0.456611 0.618433 0.121431
0.582147 0.626505 0.143557
0.677592 0.639429 0.177966
0.764843 0.655039 0.216434
0.820569 0.677791 0.241321
0.854307 0.69897 0.254688
0.868498 0.709148 0.25977
0.866941 0.702739 0.258015
0.866758 0.698238 0.257816
0.86598 0.693751 0.257038
0.865812 0.690501 0.256779
0.865446 0.68806 0.256458
0.865339 0.686275 0.256275
0.865415 0.685863 0.256352
0.865461 0.685618 0.256367
0.865583 0.686305 0.256504
0.865965 0.688228 0.256931
0.866453 0.69131 0.257404
0.868086 0.698375 0.25922
0.869841 0.707774 0.261357
0.873808 0.719997 0.266316
0.125017 0.665202 0.221653
0.128237 0.668742 0.220935
0.131823 0.671916 0.219165
0.135546 0.673732 0.213825
0.139803 0.675227 0.205966
0.144244 0.67686 0.196796
0.154635 0.679347 0.186099
0.16347 0.682048 0.181308
0.162097 0.680812 0.180743
0.160815 0.678813 0.179065
0.216114 0.678737 0.157763
0.29958 0.679316 0.149569
0.429419 0.685115 0.153185
0.557473 0.69929 0.175021
0.672053 0.711803 0.207599
0.756436 0.729397 0.24535
0.834821 0.746349 0.285298
0.87953 0.767452 0.303151
0.904982 0.782177 0.314626
0.903365 0.775738 0.309285
0.901579 0.77258 0.306355
0.899962 0.769314 0.303639
0.898512 0.766613 0.301411
0.897765 0.765377 0.300359
0.89749 0.764996 0.30016
0.897139 0.764538 0.299977
0.897078 0.764553 0.300221
0.897505 0.765301 0.301198
0.89836 0.766751 0.302632
0.900526 0.770718 0.305974
0.903288 0.775891 0.310246
0.907866 0.784329 0.317418
0.913375 0.794888 0.327459
0.177127 0.731945 0.267613
0.181323 0.735409 0.26714
0.185199 0.737881 0.26479
0.189166 0.739773 0.260731
0.193652 0.741451 0.25449
0.198337 0.742672 0.245518
0.211612 0.745769 0.235142
0.229145 0.751095 0.22797
0.231525 0.751659 0.226368
0.229603 0.75021 0.225208
0.246448 0.748714 0.214908
0.316823 0.748379 0.193896
0.416403 0.749294 0.190509
0.552743 0.763256 0.20943
0.669871 0.78056 0.245228
0.765423 0.800046 0.283558
0.838331 0.822202 0.323339
0.894667 0.838758 0.352743
0.927214 0.846357 0.371878
0.93698 0.843931 0.375219
0.935454 0.840589 0.371939
0.934646 0.83859 0.370092
0.934234 0.837278 0.369039
0.933806 0.836408 0.368307
0.933333 0.835615 0.367712
0.93315 0.835279 0.367727
0.933181 0.835416 0.368154
0.933516 0.836118 0.369207
0.934478 0.837995 0.371313
0.935637 0.840635 0.373709
0.937896 0.845014 0.377981
0.940093 0.851453 0.383291
0.942779 0.860029 0.389822
0.226123 0.789792 0.306569
0.229801 0.792706 0.306035
0.233616 0.795041 0.304021
0.237049 0.796628 0.300786
0.24181 0.798169 0.294835
0.248707 0.800397 0.286015
0.26067 0.804974 0.282155
0.275731 0.811154 0.279011
0.283589 0.815656 0.278538
0.283528 0.814847 0.276692
0.283146 0.814038 0.275044
0.350423 0.81677 0.255543
0.442847 0.81593 0.243259
0.561303 0.820294 0.249561
0.683665 0.840421 0.285161
0.791211 0.859464 0.33019
0.856077 0.879042 0.360403
0.901518 0.889967 0.388174
0.934386 0.895338 0.408499
0.953094 0.896971 0.420569
0.953689 0.894423 0.418997
0.95346 0.893675 0.418372
0.953185 0.892744 0.417594
0.952911 0.892042 0.41706
0.952682 0.891661 0.416892
0.952544 0.891524 0.41706
0.952636 0.891875 0.417884
0.95288 0.892668 0.41915
0.953216 0.893919 0.420462
0.953552 0.895781 0.421973
0.954665 0.89897 0.424826
0.956542 0.903746 0.429053
0.958648 0.910079 0.434852
0.249226 0.833463 0.351202
0.249012 0.834318 0.354345
0.249027 0.834867 0.357244
0.24921 0.835279 0.359075
0.249302 0.83563 0.360815
0.249393 0.835843 0.361837
0.249454 0.835828 0.361547
0.249561 0.835645 0.360189
0.249607 0.835416 0.358755
0.250095 0.835248 0.35697
0.250813 0.834943 0.354101
0.265705 0.835172 0.332174
0.389456 0.847654 0.283635
0.52369 0.858152 0.285359
0.662821 0.873365 0.312398
0.775402 0.890806 0.355062
0.857847 0.90724 0.393423
0.904768 0.921477 0.417151
0.940307 0.929046 0.441337
0.964065 0.933227 0.461646
0.967086 0.932097 0.458839
0.966735 0.931258 0.457771
0.966567 0.930861 0.457282
0.966445 0.930602 0.457053
0.966369 0.930434 0.457099
0.966339 0.930434 0.457542
0.966415 0.930678 0.458457
0.966506 0.930983 0.459358
0.966766 0.931731 0.460548
0.967086 0.932494 0.461646
0.967514 0.9337 0.463111
0.968627 0.936019 0.465888
0.970108 0.938689 0.46952
0.246815 0.841031 0.407004
0.246845 0.841123 0.406622
0.246998 0.841245 0.406149
0.247181 0.841306 0.405371
0.247364 0.841321 0.40441
0.247501 0.84123 0.402991
0.24889 0.840589 0.402243
0.248753 0.840528 0.401236
0.248615 0.840269 0.398428
0.248371 0.840177 0.396567
0.248096 0.840253 0.39646
0.247868 0.840223 0.396002
0.251606 0.833402 0.342931
0.391455 0.849409 0.285527
0.562127 0.866331 0.295644
0.714122 0.885649 0.334813
0.819837 0.902876 0.379828
0.887709 0.921782 0.413123
0.929244 0.933272 0.438346
0.958785 0.93875 0.460838
0.970565 0.94107 0.473381
0.971389 0.941115 0.475349
0.971695 0.940993 0.475425
0.971893 0.940887 0.475578
0.971954 0.940826 0.475822
0.971939 0.940764 0.476219
0.971893 0.940703 0.476753
0.971801 0.940658 0.47744
0.971725 0.940627 0.477775
0.971695 0.940627 0.477867
0.971679 0.940642 0.477699
0.971603 0.940688 0.477195
0.97142 0.940826 0.476295
0.246937 0.841169 0.408286
0.246937 0.841291 0.407889
0.247089 0.841367 0.40737
0.247349 0.841382 0.406653
0.247669 0.841306 0.405875
0.248035 0.841154 0.404547
0.248325 0.840909 0.402899
0.248463 0.840681 0.401373
0.248493 0.840452 0.399329
0.248402 0.840177 0.396597
0.248203 0.840238 0.39646
0.247959 0.840299 0.396368
0.249317 0.835874 0.36289
0.349386 0.843473 0.287129
0.505653 0.861219 0.289021
0.669749 0.878935 0.319463
0.786877 0.896773 0.364233
0.869261 0.915724 0.404089
0.916625 0.930816 0.430167
0.950515 0.937972 0.453681
0.967117 0.941299 0.468986
0.968521 0.941924 0.472801
0.968551 0.941955 0.472999
0.968551 0.941955 0.472999
0.968551 0.941955 0.472999
0.968551 0.941955 0.472999
0.968551 0.941955 0.472999
0.968551 0.941955 0.472999
0.968551 0.941955 0.472999
0.968551 0.941955 0.472999
0.968551 0.941955 0.472999
0.968551 0.941955 0.472999
0.968551 0.941955 0.472999
0.246967 0.841611 0.408789
0.246983 0.841596 0.40853
0.247089 0.84155 0.40824
0.247303 0.841505 0.407706
0.247623 0.841413 0.406836
0.24799 0.841245 0.405753
0.248402 0.841001 0.403967
0.2486 0.840696 0.401831
0.248646 0.840497 0.400305
0.248615 0.840116 0.396902
0.248371 0.840177 0.396567
0.248127 0.840269 0.396414
0.249073 0.837827 0.376333
0.315267 0.838544 0.292302
0.481895 0.858915 0.28687
0.644053 0.87541 0.312276
0.770825 0.894118 0.357244
0.858274 0.912474 0.398779
0.909789 0.928969 0.425849
0.945037 0.936782 0.4495
0.966125 0.940993 0.46746
0.968307 0.941817 0.471977
0.968551 0.941955 0.472999
0.968551 0.941955 0.472999
0.968551 0.941955 0.472999
0.968521 0.941939 0.473213
0.968475 0.941924 0.47364
0.968383 0.941878 0.474266
0.968307 0.941848 0.474861
0.968215 0.941802 0.475517
0.9682 0.941787 0.475731
0.968414 0.941726 0.475624
0.968902 0.941634 0.475181
0.247166 0.841428 0.409751
0.246921 0.841428 0.409567
0.246876 0.841428 0.409262
0.247013 0.841382 0.408682
0.247333 0.841306 0.407935
0.247715 0.841138 0.406714
0.248096 0.840894 0.405097
0.248341 0.840604 0.402853
0.248371 0.840391 0.401282
0.248356 0.839963 0.397574
0.248142 0.839994 0.396902
0.247883 0.840085 0.39675
0.248203 0.83888 0.38645
0.287053 0.834165 0.300069
0.463722 0.857008 0.285786
0.624018 0.87274 0.307576
0.757488 0.891447 0.351293
0.84979 0.908949 0.39408
0.905592 0.926452 0.422919
0.942031 0.93547 0.447028
0.965042 0.939864 0.465599
0.969772 0.9411 0.47216
0.970199 0.94136 0.473915
0.970199 0.94136 0.473915
0.970199 0.94136 0.473915
0.970184 0.941344 0.474128
0.970169 0.941314 0.474571
0.969955 0.941329 0.475044
0.969497 0.941421 0.475517
0.968811 0.941588 0.475883
0.968383 0.941711 0.475929
0.968399 0.941726 0.475746
0.968887 0.941634 0.475319
0.247181 0.841474 0.410361
0.246937 0.841489 0.410071
0.24686 0.841474 0.409735
0.246983 0.841428 0.409247
0.247288 0.841367 0.408484
0.247669 0.841199 0.40737
0.248096 0.840955 0.405844
0.248386 0.840635 0.403464
0.248493 0.840375 0.401694
0.248554 0.839963 0.398199
0.248402 0.839902 0.397055
0.248112 0.840009 0.396872
0.247944 0.839689 0.393713
0.271351 0.831922 0.307515
0.451057 0.855863 0.285496
0.605493 0.870924 0.303548
0.744808 0.889906 0.346319
0.842237 0.907469 0.390616
0.900649 0.925216 0.420172
0.938262 0.934691 0.444358
0.962417 0.939391 0.463157
0.969604 0.940993 0.471534
0.970199 0.94136 0.473915
0.970199 0.94136 0.473915
0.970199 0.94136 0.473915
0.970184 0.941344 0.474128
0.970169 0.941314 0.474571
0.969955 0.941329 0.475044
0.969467 0.941405 0.4757
0.968765 0.941573 0.476265
0.968307 0.94168 0.476493
0.968154 0.941726 0.476417
0.968444 0.94168 0.476097
0.247425 0.841489 0.410864
0.24712 0.841505 0.410529
0.246937 0.84152 0.410101
0.24683 0.84152 0.409598
0.246891 0.841535 0.408682
0.247013 0.841459 0.407538
0.247135 0.841321 0.405798
0.247288 0.841077 0.403281
0.247364 0.840818 0.401114
0.24744 0.840406 0.39794
0.247486 0.840223 0.396506
0.247486 0.840223 0.396506
0.247501 0.840055 0.395224
0.267185 0.832868 0.317632
0.441032 0.854963 0.285267
0.595376 0.869749 0.30135
0.735927 0.888884 0.343023
0.836225 0.90631 0.387976
0.896681 0.924346 0.41796
0.934798 0.934234 0.442039
0.960281 0.938903 0.460975
0.969482 0.940917 0.471092
0.970153 0.941329 0.473671
0.970199 0.94136 0.473915
0.970199 0.94136 0.473915
0.970184 0.941344 0.474128
0.970169 0.941314 0.474571
0.969955 0.941329 0.475044
0.969467 0.941405 0.4757
0.968765 0.941573 0.476265
0.968307 0.94168 0.476493
0.968109 0.941741 0.476402
0.968353 0.941711 0.476066
0.247425 0.841535 0.41117
0.247105 0.841535 0.410864
0.246921 0.84155 0.410422
0.24683 0.84155 0.409857
0.246876 0.841566 0.409003
0.246998 0.841505 0.407813
0.24712 0.841352 0.406088
0.247257 0.841108 0.403647
0.247807 0.840665 0.40145
0.247807 0.840299 0.398428
0.247791 0.840116 0.396689
0.247684 0.840162 0.396628
0.247654 0.839918 0.394614
0.264332 0.833417 0.324758
0.434546 0.854124 0.284932
0.589288 0.8692 0.300298
0.731365 0.888212 0.341207
0.832746 0.905577 0.386343
0.893828 0.924193 0.416587
0.931792 0.934112 0.440024
0.957702 0.938994 0.459174
0.968566 0.941161 0.470298
0.969604 0.941497 0.473167
0.969879 0.941482 0.473716
0.970001 0.941436 0.473793
0.970092 0.94139 0.474067
0.970108 0.941329 0.47454
0.96994 0.941329 0.475029
0.969451 0.941405 0.4757
0.968734 0.941558 0.476493
0.968246 0.941665 0.47689
0.968017 0.941711 0.476997
0.968231 0.941665 0.476875
0.247684 0.841474 0.411627
0.247379 0.841489 0.411215
0.247135 0.84155 0.410727
0.247013 0.841581 0.409995
0.246983 0.841581 0.409247
0.247059 0.841505 0.408072
0.247257 0.841337 0.406317
0.24744 0.841062 0.403967
0.247608 0.840742 0.401358
0.2477 0.84036 0.39852
0.247761 0.840131 0.396674
0.2477 0.840146 0.396643
0.247684 0.839857 0.394247
0.263233 0.833722 0.327977
0.431281 0.853727 0.284855
0.586984 0.869078 0.300069
0.729854 0.887999 0.340642
0.830625 0.905119 0.385214
0.892744 0.923842 0.4159
0.930205 0.933989 0.439094
0.956329 0.939025 0.458228
0.967651 0.941436 0.469657
0.968429 0.941878 0.472404
0.968551 0.941955 0.472999
0.968551 0.941955 0.472999
0.968551 0.941955 0.472999
0.968551 0.941955 0.472999
0.968353 0.942031 0.472892
0.967956 0.942168 0.472679
0.967361 0.942382 0.472374
0.966964 0.942519 0.472175
0.966766 0.942596 0.472068
0.966766 0.942596 0.472068
0.247105 0.842039 0.41091
0.247044 0.841962 0.410727
0.246967 0.841871 0.410468
0.246937 0.841764 0.410025
0.246952 0.841657 0.409308
0.247059 0.84152 0.408179
0.247242 0.841337 0.406424
0.24744 0.841062 0.404089
0.247639 0.840711 0.401343
0.247745 0.84033 0.398489
0.247822 0.840116 0.396704
0.247776 0.840131 0.396674
0.247776 0.839689 0.393179
0.266773 0.834501 0.327321
0.433539 0.853986 0.284977
0.590188 0.869139 0.300404
0.731212 0.888182 0.341146
0.831235 0.905272 0.385565
0.893111 0.923995 0.416068
