bundles/resolve-cinematic-luts/Phantom Luts/Komodo Phantom ARRI LUTs G2/Komodo Phantom ARRI LUTs G2/33x/WB Offset - Green Boost/IceBlue_Komodo_WBO_G2_33x.cube
TITLE "Generated by Resolve"
LUT_3D_SIZE 9
0.0343023 0.0468605 0.0466621
0.0591135 0.046067 0.0466621
0.207935 0.0405432 0.0468299
0.479713 0.045655 0.0883955
0.650324 0.0714122 0.161166
0.666224 0.0747082 0.187762
0.671382 0.0753948 0.200565
0.673594 0.0753033 0.207614
0.677302 0.0728161 0.229923
0.038056 0.0653391 0.0531014
0.0471351 0.0604715 0.0516365
0.192248 0.0485084 0.0473182
0.473732 0.0431373 0.0646067
0.632914 0.0688487 0.121798
0.654994 0.0724041 0.163622
0.660899 0.0731518 0.17763
0.662287 0.0733959 0.180957
0.66421 0.0707408 0.195254
0.0359503 0.228077 0.0695506
0.0351415 0.231556 0.0609751
0.184024 0.225147 0.0542763
0.527871 0.201068 0.0976425
0.636088 0.0707256 0.104158
0.650523 0.0737163 0.125597
0.648981 0.0730297 0.126207
0.648905 0.0729992 0.126268
0.652827 0.0735637 0.128359
0.0538338 0.515602 0.133028
0.0583963 0.525246 0.110475
0.0738231 0.524987 0.0918593
0.496498 0.543297 0.0980392
0.820371 0.604501 0.236561
0.871824 0.595636 0.261204
0.872145 0.5738 0.259892
0.872084 0.575631 0.259495
0.86865 0.623514 0.259998
0.226123 0.789792 0.306569
0.24181 0.798169 0.294835
0.283589 0.815656 0.278538
0.442847 0.81593 0.243259
0.856077 0.879042 0.360403
0.953689 0.894423 0.418997
0.952682 0.891661 0.416892
0.953216 0.893919 0.420462
0.958648 0.910079 0.434852
0.246967 0.841611 0.408789
0.247623 0.841413 0.406836
0.248646 0.840497 0.400305
0.249073 0.837827 0.376333
0.770825 0.894118 0.357244
0.966125 0.940993 0.46746
0.968551 0.941955 0.472999
0.968307 0.941848 0.474861
0.968902 0.941634 0.475181
0.247425 0.841535 0.41117
0.246876 0.841566 0.409003
0.247807 0.840665 0.40145
0.247654 0.839918 0.394614
0.731365 0.888212 0.341207
0.957702 0.938994 0.459174
0.970001 0.941436 0.473793
0.969451 0.941405 0.4757
0.968231 0.941665 0.476875
0.248035 0.841688 0.411826
0.246754 0.841382 0.409674
0.24715 0.840345 0.401816
0.247623 0.838773 0.389029
0.752331 0.889601 0.348669
0.961929 0.938231 0.462089
0.972 0.940719 0.474861
0.971283 0.940887 0.475334
0.966583 0.942168 0.476799
0.24712 0.842145 0.411536
0.246937 0.84152 0.408347
0.247196 0.84007 0.39704
0.372442 0.846922 0.287236
0.874662 0.915236 0.406241
0.97145 0.940414 0.47274
0.972 0.940719 0.474861
0.971405 0.940932 0.474556
0.966751 0.94226 0.475441
0.03122 0.0477302 0.068925
0.0593118 0.0471199 0.0719463
0.220844 0.0464179 0.0905318
0.496971 0.0493629 0.135332
0.664683 0.071397 0.202228
0.679149 0.0745556 0.230198
0.6822 0.0750134 0.239994
0.68333 0.0749218 0.245075
0.685817 0.0733959 0.263905
0.0358587 0.0576944 0.0591592
0.0389105 0.0542611 0.0556497
0.204242 0.0411841 0.0567941
0.494453 0.0463264 0.109407
0.659968 0.0707408 0.185458
0.67129 0.0728466 0.210224
0.675898 0.0734874 0.22298
0.677241 0.0736248 0.227054
0.679377 0.0722362 0.240909
0.0361334 0.223087 0.104219
0.0355535 0.22681 0.0778821
0.17319 0.22002 0.0543679
0.529198 0.181003 0.0945144
0.638254 0.069398 0.117784
0.647227 0.0712749 0.130632
0.645426 0.0706188 0.130632
0.645197 0.0705425 0.130602
0.649256 0.0710307 0.134264
0.0525673 0.514855 0.165789
0.0563363 0.523674 0.144411
0.0604562 0.523156 0.0963455
0.493767 0.543572 0.0979171
0.823926 0.602533 0.239841
0.871962 0.590387 0.261006
0.871809 0.567788 0.258412
0.87158 0.569345 0.257877
0.869169 0.619287 0.260288
0.216083 0.788846 0.33109
0.230396 0.796765 0.317678
0.275319 0.812146 0.278538
0.430884 0.817075 0.245106
0.85658 0.879637 0.361257
0.953811 0.894743 0.419287
0.952667 0.891768 0.416922
0.953216 0.893996 0.419913
0.958465 0.909499 0.433707
0.247303 0.841749 0.41146
0.247318 0.841733 0.40972
0.248096 0.840879 0.401602
0.248325 0.838911 0.384619
0.768521 0.893767 0.356283
0.966506 0.941039 0.467735
0.96849 0.941924 0.473426
0.968139 0.941756 0.476188
0.968368 0.941863 0.474556
0.247379 0.841962 0.413855
0.246845 0.841871 0.411719
0.247425 0.841062 0.403876
0.247608 0.839979 0.394781
0.729183 0.887877 0.340352
0.957366 0.938903 0.458976
0.970062 0.941421 0.473838
0.969467 0.941405 0.4757
0.968048 0.941726 0.476799
0.247547 0.842298 0.414633
0.246693 0.841871 0.412573
0.247089 0.840665 0.40441
0.247257 0.839734 0.396979
0.748501 0.889052 0.347112
0.961349 0.938094 0.461494
0.972 0.940719 0.474861
0.971283 0.940887 0.475319
0.966735 0.942245 0.475654
0.248768 0.842206 0.417792
0.247532 0.841871 0.414481
0.247074 0.840589 0.401129
0.332143 0.84097 0.289631
0.869169 0.913207 0.403632
0.971313 0.940337 0.472358
0.972 0.940719 0.474861
0.971283 0.940887 0.475334
0.966354 0.942061 0.478523
0.0226139 0.0574655 0.206744
0.0630808 0.0492103 0.214481
0.231571 0.0480507 0.21915
0.517372 0.0635386 0.239277
0.692912 0.0812848 0.28661
0.706294 0.0891127 0.304631
0.710109 0.0926833 0.312001
0.711574 0.0938735 0.316533
0.718441 0.0988785 0.347555
0.0163577 0.0680705 0.184466
0.0244602 0.0565347 0.205783
0.222599 0.047776 0.221164
0.525917 0.0645457 0.236103
0.692958 0.0786755 0.286183
0.702846 0.0854353 0.302632
0.706752 0.0888991 0.310353
0.708614 0.0906539 0.313863
0.714855 0.095201 0.3402
0.0312963 0.194736 0.190906
0.0301061 0.197742 0.193149
0.153353 0.196216 0.200351
0.536019 0.129671 0.17998
0.656092 0.069337 0.185306
0.671977 0.0729686 0.212039
0.675929 0.0734722 0.223423
0.677119 0.073579 0.227039
0.67805 0.0730907 0.231907
0.0479133 0.500084 0.259342
0.0493172 0.50956 0.251194
0.0503853 0.505669 0.179004
0.464714 0.529091 0.0920119
0.830335 0.575845 0.243091
0.870466 0.544991 0.255833
0.867231 0.518654 0.253269
0.866972 0.518853 0.253056
0.871366 0.570901 0.258625
0.190234 0.780438 0.408865
0.195773 0.786633 0.402747
0.212512 0.789151 0.344259
0.355322 0.80708 0.243168
0.846952 0.872084 0.352636
0.951049 0.886809 0.412024
0.949722 0.882902 0.409232
0.950134 0.884733 0.411933
0.955123 0.899855 0.425208
0.247181 0.845808 0.444343
0.248142 0.844434 0.433707
0.248814 0.841672 0.413809
0.248585 0.840009 0.396857
0.743175 0.889967 0.346029
0.963455 0.940505 0.464836
0.96849 0.941924 0.473426
0.968078 0.941741 0.476555
0.968277 0.941833 0.475074
0.249058 0.848096 0.465766
0.248081 0.847272 0.456474
0.247684 0.842054 0.415442
0.247959 0.840055 0.396796
0.697459 0.883024 0.328756
0.953109 0.937743 0.455314
0.970184 0.941329 0.474342
0.969131 0.941253 0.478202
0.967819 0.941619 0.478523
0.249897 0.849912 0.482033
0.248493 0.849149 0.471855
0.246845 0.842145 0.417304
0.247166 0.839811 0.397269
0.714412 0.884352 0.334203
0.955596 0.936934 0.456703
0.972 0.940719 0.474861
0.971038 0.940795 0.477119
0.966339 0.942046 0.478706
0.254093 0.855894 0.53637
0.251545 0.855177 0.524468
0.246921 0.845212 0.441428
0.248325 0.837629 0.380102
0.837583 0.904723 0.388617
0.970321 0.939941 0.470329
0.972 0.940719 0.474861
0.971283 0.940887 0.475334
0.965835 0.942138 0.479286
0.0202792 0.0657969 0.420569
0.0516213 0.0537728 0.431968
0.208316 0.0514687 0.453498
0.516426 0.0601511 0.467002
0.696056 0.0774701 0.443519
0.704631 0.0809339 0.457099
0.70457 0.0812238 0.46183
0.704219 0.0813611 0.466819
0.698955 0.0822614 0.502724
0.00885023 0.0967269 0.419791
0.021561 0.0656901 0.430991
0.187167 0.0519722 0.467353
0.521828 0.0617533 0.485908
0.699107 0.0793317 0.461006
0.703166 0.0815595 0.474311
0.70277 0.0817273 0.478843
0.702541 0.0818494 0.482292
0.698238 0.0832532 0.514122
0.0108949 0.174197 0.36614
0.00955215 0.17026 0.382376
0.0247654 0.0829328 0.436545
0.488121 0.0593576 0.472938
0.695567 0.0763867 0.420294
0.705653 0.0799878 0.43032
0.70573 0.0802014 0.434577
0.70573 0.080354 0.438163
0.702846 0.080766 0.466712
0.0409705 0.465614 0.434134
0.0415808 0.474922 0.443641
0.0407111 0.470436 0.439353
0.401358 0.475288 0.464195
0.861799 0.440497 0.446433
0.888731 0.372976 0.421775
0.871763 0.339101 0.40679
0.870787 0.336568 0.407218
0.897215 0.386389 0.444602
0.164675 0.764904 0.556893
0.16968 0.771542 0.562142
0.170703 0.771893 0.543252
0.174823 0.760998 0.427787
0.772671 0.823499 0.322683
0.94226 0.858686 0.388022
0.939284 0.849348 0.381094
0.939437 0.849332 0.382177
0.944915 0.868315 0.397559
0.244327 0.854734 0.584894
0.245823 0.854932 0.587533
0.250401 0.855222 0.571237
0.249165 0.84799 0.464485
0.629969 0.873976 0.309209
0.955703 0.937224 0.456947
0.971801 0.940688 0.475822
0.971496 0.94052 0.478355
0.97145 0.940566 0.477989
0.242298 0.855619 0.596704
0.242344 0.855817 0.59762
0.246281 0.855116 0.579889
0.250141 0.849897 0.485679
0.544045 0.864042 0.294621
0.933623 0.933684 0.441245
0.970138 0.941283 0.474876
0.969131 0.941253 0.478233
0.967681 0.941558 0.4795
0.241291 0.856321 0.610819
0.240818 0.856611 0.611749
0.24271 0.85565 0.592828
0.250187 0.851667 0.502678
0.546868 0.864103 0.294041
0.932921 0.932631 0.440406
0.971847 0.940627 0.474861
0.97084 0.940612 0.479469
0.966003 0.941894 0.481193
0.244038 0.860624 0.669993
0.243595 0.860609 0.669383
0.24094 0.858976 0.646036
0.254002 0.856825 0.550301
0.718029 0.884398 0.336934
0.951492 0.936263 0.453681
0.971862 0.940642 0.474525
0.970932 0.940719 0.477867
0.965927 0.941833 0.48191
0.0260319 0.0732128 0.547784
0.0524758 0.0588235 0.557641
0.175479 0.0652018 0.613687
0.441413 0.0778058 0.657511
0.699535 0.123354 0.663951
0.714534 0.130343 0.675914
0.713344 0.13077 0.678904
0.712184 0.131212 0.681788
0.705165 0.134325 0.698085
0.0135195 0.0957046 0.549767
0.0272221 0.0720226 0.552697
0.156756 0.0654307 0.613657
0.439902 0.0794995 0.666423
0.704326 0.127153 0.673732
0.712322 0.131823 0.68365
0.71162 0.132616 0.686625
0.710567 0.133135 0.689464
0.70341 0.136004 0.70428
0.0201877 0.189349 0.590387
0.0194553 0.182391 0.593988
0.0286107 0.0719615 0.552544
0.385855 0.0742504 0.6589
0.694759 0.12398 0.670375
0.715694 0.130282 0.674891
0.71487 0.130678 0.677211
0.714351 0.13106 0.679332
0.707973 0.133623 0.693874
0.0457313 0.44651 0.615579
0.0471809 0.453208 0.621149
0.0454871 0.437736 0.625086
0.171481 0.317479 0.735576
0.77583 0.27248 0.768841
0.760769 0.17229 0.669764
0.729091 0.13051 0.632898
0.734401 0.13698 0.639506
0.776547 0.198032 0.700359
0.158984 0.720287 0.692744
0.163653 0.727062 0.697932
0.163516 0.726574 0.697887
0.156008 0.717525 0.689738
0.684062 0.750317 0.747097
0.951827 0.74966 0.744106
0.952529 0.734524 0.734188
0.950179 0.735088 0.736339
0.941176 0.763165 0.766339
0.262592 0.865446 0.740658
0.268879 0.864927 0.74461
0.268299 0.86424 0.738735
0.256855 0.862684 0.711299
0.262867 0.871275 0.622095
0.933928 0.95256 0.64445
0.982879 0.948043 0.53257
0.985504 0.950484 0.565454
0.983703 0.951965 0.631403
0.263569 0.866606 0.749874
0.27129 0.865995 0.753216
0.269902 0.865125 0.746319
0.258625 0.862669 0.715038
0.25771 0.869108 0.62208
0.893996 0.92813 0.444602
0.969894 0.940475 0.471977
0.970062 0.94049 0.478187
0.967239 0.939879 0.492134
0.265446 0.869322 0.762936
0.274769 0.867567 0.766186
0.272847 0.866636 0.758267
0.260655 0.86392 0.725551
0.2598 0.870527 0.637064
0.885817 0.92639 0.469535
0.970199 0.939941 0.471702
0.970306 0.940322 0.479072
0.96643 0.940627 0.487114
0.280781 0.874403 0.811215
0.289342 0.871977 0.810697
0.287633 0.870466 0.799786
0.271885 0.867308 0.761303
0.314229 0.891722 0.695613
0.918044 0.949569 0.671443
0.968963 0.94049 0.470985
0.968429 0.940764 0.478874
0.964874 0.941283 0.484688
0.0618296 0.0619059 0.585595
0.086305 0.0616159 0.598779
0.1897 0.069276 0.642573
0.421241 0.0828717 0.688609
0.693538 0.134829 0.705272
0.705882 0.137072 0.704341
0.705806 0.137102 0.704265
0.705547 0.137133 0.704738
0.701976 0.137667 0.709346
0.0383764 0.064744 0.57142
0.0647135 0.0619364 0.587655
0.177066 0.0687572 0.638514
0.427817 0.0836652 0.689921
0.699702 0.136126 0.705791
0.706111 0.137026 0.704158
0.706035 0.137072 0.704051
0.705669 0.137118 0.704601
0.701915 0.137652 0.70959
0.0217136 0.170459 0.612985
0.0182803 0.142 0.599908
0.0614939 0.0619364 0.58558
0.373251 0.0784924 0.682338
0.68806 0.134508 0.707088
0.708171 0.136721 0.701488
0.708156 0.136736 0.701396
0.707927 0.136767 0.701717
0.704021 0.137346 0.706935
0.0424048 0.345357 0.662989
0.0426947 0.352468 0.664332
0.0391394 0.329152 0.658991
0.0965438 0.122484 0.655222
0.612207 0.1299 0.721187
0.709117 0.137972 0.702083
0.709422 0.13753 0.70106
0.709499 0.137591 0.701122
0.707637 0.140459 0.70753
0.15079 0.679438 0.749004
0.154986 0.685328 0.752392
0.154482 0.683284 0.753353
0.147494 0.669078 0.753948
0.554437 0.660639 0.916259
0.944213 0.657313 0.932982
0.948348 0.642588 0.927687
0.948806 0.644175 0.927047
0.940154 0.68014 0.926299
0.281712 0.862882 0.835737
0.291478 0.865843 0.838529
0.290486 0.863249 0.835721
0.275242 0.850156 0.82179
0.260349 0.842618 0.816068
0.90132 0.923766 0.92488
0.977417 0.9281 0.925597
0.97763 0.926787 0.925124
0.975128 0.936019 0.935882
0.291966 0.874571 0.850401
0.30071 0.87303 0.849867
0.301152 0.872877 0.846906
0.298207 0.872923 0.835813
0.291508 0.87715 0.809155
0.750286 0.948775 0.873014
0.989136 0.983658 0.897734
0.998886 0.9823 0.88014
0.998428 0.985306 0.915496
0.287663 0.873808 0.855299
0.296895 0.871031 0.853117
0.300954 0.871962 0.850996
0.297124 0.873549 0.839567
0.291722 0.87747 0.810468
0.739223 0.945495 0.870802
0.97908 0.982269 0.905821
0.997024 0.973587 0.797955
0.991119 0.972 0.794263
0.286717 0.872786 0.856001
0.296239 0.87039 0.853666
0.298894 0.86978 0.85301
0.299413 0.873167 0.848371
0.312154 0.891203 0.841703
0.847364 0.961975 0.923461
0.985306 0.986648 0.943847
0.998886 0.984314 0.89749
0.994354 0.978256 0.84651
0.0855116 0.0615091 0.59794
0.109987 0.0615549 0.609476
0.206226 0.0697642 0.64741
0.432258 0.0840009 0.689921
0.696986 0.135409 0.70515
0.705928 0.137057 0.704387
0.705852 0.137087 0.704311
0.706722 0.13695 0.703258
0.703227 0.137469 0.70779
0.0616312 0.0616312 0.584588
0.0864424 0.0616007 0.598917
0.193057 0.069337 0.643595
0.437201 0.0846723 0.691066
0.703517 0.136934 0.705913
0.70605 0.137026 0.704295
0.705974 0.137057 0.704219
0.705608 0.137118 0.704707
0.701915 0.137652 0.70959
0.0189212 0.143175 0.600443
0.0158236 0.113878 0.583307
0.0818036 0.0616922 0.596704
0.382132 0.0792096 0.683711
0.690593 0.134844 0.707195
0.70811 0.136736 0.701579
0.708156 0.136736 0.701442
0.707897 0.136767 0.701793
0.704005 0.137346 0.706935
0.036759 0.306325 0.653635
0.0369116 0.314458 0.655085
0.0338445 0.292317 0.649409
0.0800793 0.0707713 0.607523
0.601999 0.114626 0.707317
0.708293 0.137194 0.70193
0.709407 0.136828 0.700114
0.709224 0.13698 0.700618
0.706081 0.138399 0.706233
0.148516 0.670375 0.755871
0.151736 0.676661 0.756374
0.150576 0.67425 0.755428
0.141039 0.657572 0.750576
0.550072 0.635523 0.919631
0.938247 0.632166 0.929534
0.946929 0.612741 0.924743
0.947143 0.614862 0.924102
0.938293 0.655329 0.927733
0.269215 0.847654 0.841962
0.27924 0.852293 0.842618
0.277668 0.848997 0.841047
0.261875 0.829786 0.830228
0.239887 0.803586 0.824308
0.841184 0.887587 0.940993
0.971374 0.90074 0.958526
0.971984 0.899413 0.956741
0.969177 0.912902 0.958404
0.288212 0.871672 0.856199
0.296345 0.870405 0.853605
0.29749 0.870161 0.8533
0.297337 0.870039 0.853468
0.302388 0.876265 0.85864
0.395056 0.92311 0.900114
0.979385 0.978714 0.979599
0.998886 0.980575 0.978439
0.997421 0.982422 0.982101
0.285496 0.872557 0.856657
0.295918 0.870512 0.853697
0.297551 0.870146 0.853284
0.295216 0.870573 0.854002
0.301595 0.877409 0.859342
0.339498 0.910567 0.878569
0.967758 0.986099 0.979553
0.998886 0.993439 0.983902
0.998886 0.994598 0.987396
0.28687 0.872587 0.856092
0.296208 0.87042 0.853651
0.298756 0.86981 0.853025
0.295888 0.870436 0.853773
0.314611 0.889265 0.870344
0.43415 0.937469 0.910857
0.976196 0.98883 0.985382
0.998047 0.994095 0.988571
0.998886 0.995453 0.989853
0.0922866 0.0615091 0.601282
0.117418 0.0614176 0.612238
0.211429 0.0698405 0.648737
0.435996 0.0842756 0.690166
0.698238 0.135653 0.705165
0.705928 0.137057 0.704387
0.705867 0.137087 0.704326
0.706554 0.13698 0.703487
0.704692 0.13724 0.705974
0.0677043 0.0616159 0.588266
0.0920882 0.0616159 0.601724
0.197864 0.0694285 0.644968
0.441825 0.0852369 0.691722
0.704601 0.137163 0.705928
0.706065 0.137026 0.704295
0.705989 0.137057 0.704234
0.705623 0.137102 0.704723
0.703212 0.137453 0.707958
0.0186313 0.135241 0.596201
0.0152743 0.107576 0.578897
0.0876936 0.0616159 0.599573
0.386664 0.0795911 0.684352
0.69247 0.135164 0.707179
0.70811 0.136736 0.701595
0.708171 0.136736 0.701442
0.707927 0.136767 0.701778
0.704005 0.137346 0.706935
0.0357977 0.299184 0.651896
0.0360723 0.308186 0.653544
0.032929 0.28481 0.647532
0.0799115 0.0683146 0.603983
0.603662 0.114733 0.707088
0.707668 0.137133 0.70251
0.709438 0.136858 0.70013
0.709209 0.136965 0.700618
0.70602 0.138308 0.706188
0.147753 0.669017 0.755306
0.150973 0.675395 0.755917
0.150103 0.673533 0.755093
0.140261 0.656123 0.750271
0.551217 0.631815 0.920089
0.936446 0.629831 0.927962
0.946136 0.610025 0.924407
0.946654 0.612253 0.922286
0.936812 0.654002 0.926421
0.268559 0.846204 0.840955
0.277226 0.850736 0.841962
0.276066 0.847288 0.839979
0.257237 0.824262 0.826932
0.238834 0.801633 0.823606
0.842664 0.88368 0.9393
0.9691 0.897566 0.956436
0.974517 0.894682 0.951263
0.968277 0.90927 0.956436
0.28867 0.87155 0.856107
0.29633 0.870405 0.853605
0.297459 0.870161 0.8533
0.297307 0.870054 0.853468
0.302541 0.876509 0.858854
0.430426 0.925399 0.916045
0.965957 0.971603 0.980041
0.996979 0.97615 0.982589
0.99559 0.978515 0.98471
0.285573 0.872511 0.856672
0.295903 0.870527 0.853712
0.29752 0.870146 0.853284
0.295171 0.870573 0.854017
0.300923 0.87718 0.860136
0.322606 0.901579 0.880781
0.924117 0.978729 0.978637
0.998886 0.991852 0.993271
0.998886 0.992859 0.992935
0.287343 0.872038 0.856229
0.296208 0.87042 0.853651
0.298695 0.869825 0.85304
0.295857 0.870451 0.853788
0.314183 0.888884 0.870054
0.344976 0.912566 0.89131
0.952224 0.983139 0.984543
0.997482 0.994217 0.996597
0.998886 0.995148 0.996002
0.0933852 0.0615244 0.601816
0.120378 0.0614328 0.613367
0.218036 0.0701152 0.650538
0.446845 0.0856184 0.691615
0.70251 0.136584 0.705364
0.705928 0.137057 0.704387
0.705867 0.137087 0.704326
0.706538 0.13698 0.703487
0.703182 0.137484 0.707835
0.0676127 0.0616007 0.58819
0.0935531 0.0616312 0.602457
0.2038 0.069688 0.646799
0.452995 0.0865339 0.692973
0.704753 0.137148 0.705791
0.70605 0.137026 0.70428
0.706004 0.137057 0.704234
0.705623 0.137102 0.704723
0.702907 0.137499 0.708354
0.0192874 0.142794 0.600137
0.0156405 0.111757 0.581888
0.0892042 0.0616312 0.600305
0.396796 0.0806897 0.686107
0.69781 0.136233 0.707301
0.70811 0.136736 0.701595
0.708186 0.136721 0.701457
0.707958 0.136751 0.701823
0.704051 0.137331 0.706981
0.0378424 0.314733 0.655619
0.0383459 0.324498 0.657542
0.0349889 0.300999 0.651759
0.0966659 0.082948 0.626474
0.61239 0.119768 0.710781
0.708019 0.137453 0.702632
0.709651 0.137133 0.700343
0.709422 0.137194 0.700801
0.706371 0.138796 0.706508
0.151934 0.675761 0.757076
0.15523 0.682017 0.757595
0.154879 0.680507 0.757122
0.144549 0.663035 0.752117
0.568292 0.644465 0.919097
0.934966 0.645274 0.926467
0.949172 0.625849 0.925261
0.947845 0.629389 0.922026
0.935393 0.669062 0.925231
0.275334 0.852018 0.843885
0.283986 0.856352 0.845182
0.282338 0.852033 0.842374
0.266758 0.833005 0.831846
0.244541 0.806409 0.826291
0.851896 0.888975 0.939971
0.970184 0.90309 0.957519
0.975204 0.900298 0.952224
0.968475 0.914488 0.957092
0.290669 0.871061 0.855604
0.298192 0.869902 0.853208
0.300954 0.8692 0.852567
0.301686 0.869001 0.852415
0.308904 0.877165 0.859236
0.471305 0.932601 0.924895
0.967025 0.972808 0.981552
0.996643 0.976883 0.983841
0.995117 0.979141 0.985885
0.290608 0.871183 0.855528
0.298528 0.869795 0.853147
0.301778 0.868971 0.852399
0.301946 0.868925 0.852354
0.310674 0.877348 0.859556
0.332479 0.901137 0.879622
0.926421 0.978805 0.981186
0.998886 0.991531 0.992813
0.998886 0.991821 0.990097
0.285115 0.872465 0.856931
0.297459 0.870069 0.853376
0.301762 0.868971 0.852399
0.302159 0.868864 0.852308
0.323659 0.888014 0.868498
0.356268 0.911299 0.889921
0.947768 0.982238 0.985748
0.993851 0.994751 0.998779
0.998886 0.994858 0.994629
