bundles/resolve-cinematic-luts/Phantom Luts/Komodo Phantom ARRI LUTs G2/Komodo Phantom ARRI LUTs G2/33x/WB Offset - Green Boost/IceBlue_Komodo_WBO_Legacy_G2_33x.cube
TITLE "Generated by Resolve"
LUT_3D_SIZE 33
0.0478218 0.0597543 0.0639048
0.047837 0.0597543 0.0638743
0.0480964 0.0597391 0.0638895
0.0535134 0.0596323 0.0648051
0.0624857 0.0589303 0.0640269
0.0757763 0.0585489 0.0636606
0.0948806 0.0575265 0.0630045
0.12369 0.0565499 0.0629892
0.164202 0.055436 0.0640421
0.212985 0.0547799 0.065507
0.272328 0.0550851 0.0681163
0.341451 0.0564126 0.0732128
0.419623 0.0578927 0.0816968
0.495979 0.0601816 0.0939956
0.553948 0.0638743 0.108736
0.596948 0.0675517 0.123552
0.63624 0.0827955 0.139544
0.646006 0.0855116 0.148013
0.648676 0.0858625 0.15314
0.651179 0.0863355 0.157504
0.653269 0.0867475 0.161624
0.655299 0.087068 0.165545
0.656733 0.0873732 0.167956
0.65803 0.0875868 0.170672
0.664424 0.0953231 0.175113
0.652705 0.0786603 0.170932
0.653284 0.0787671 0.172
0.65391 0.0788586 0.173434
0.65449 0.0788434 0.175128
0.65536 0.0785687 0.178195
0.656336 0.0780957 0.182177
0.657816 0.0772259 0.189059
0.659388 0.0762798 0.196521
0.0479438 0.0596475 0.0635538
0.0478676 0.0597086 0.0637522
0.0478523 0.0597391 0.0638437
0.0518502 0.059678 0.0644846
0.0614176 0.0590524 0.0641794
0.075349 0.0586252 0.0640116
0.0957809 0.0574655 0.0636606
0.12639 0.0563973 0.0633097
0.167025 0.0550546 0.0633402
0.216281 0.0542458 0.063798
0.277378 0.0541543 0.0661021
0.348974 0.055375 0.0711376
0.428809 0.0566873 0.0804303
0.50338 0.0590829 0.0945602
0.558694 0.0626993 0.109316
0.600381 0.066331 0.124849
0.640742 0.0836194 0.142779
0.64596 0.0847334 0.14995
0.648615 0.0851759 0.154772
0.651011 0.0856031 0.159091
0.65304 0.0860151 0.163027
0.654841 0.0863203 0.166537
0.656428 0.0866255 0.169497
0.657526 0.0868238 0.171542
0.658366 0.0869917 0.17322
0.659083 0.087068 0.174807
0.655787 0.0823072 0.173968
0.65626 0.0823987 0.174914
0.656596 0.082475 0.175616
0.65716 0.0823224 0.177462
0.657908 0.0819562 0.180362
0.659388 0.0810559 0.186862
0.660929 0.0800336 0.194217
0.0479438 0.0596475 0.0635691
0.0478676 0.0597086 0.0637675
0.0478523 0.0597391 0.063859
0.0489357 0.0598306 0.0639048
0.057969 0.0597086 0.0647593
0.0715343 0.0593423 0.0640269
0.0920577 0.0582589 0.0636759
0.122972 0.057023 0.0641489
0.165103 0.0554208 0.0638895
0.215381 0.0542763 0.0636606
0.27454 0.0535286 0.0637675
0.346105 0.0540475 0.0662242
0.427054 0.054963 0.0741283
0.502113 0.0571145 0.0880293
0.557412 0.0611124 0.104463
0.605219 0.0735027 0.121843
0.637888 0.0832837 0.135973
0.643793 0.0843214 0.146059
0.646738 0.0848249 0.151431
0.649073 0.0851453 0.155871
0.651133 0.0855268 0.159579
0.652842 0.0858473 0.162921
0.6542 0.0861067 0.165621
0.655329 0.086305 0.167727
0.65626 0.0864729 0.169543
0.656855 0.0865949 0.170581
0.657252 0.0866712 0.171298
0.657572 0.0867323 0.171954
0.657832 0.0867628 0.172488
0.658259 0.0866102 0.173999
0.658946 0.086183 0.176837
0.660319 0.0852216 0.182986
0.661799 0.084123 0.189868
0.0485542 0.0619059 0.0641947
0.0484779 0.0619974 0.0643473
0.0485695 0.0616617 0.064332
0.0488441 0.0608835 0.0642252
0.0539101 0.0611582 0.0649729
0.0659953 0.0610666 0.0647898
0.0842908 0.0599832 0.0634165
0.114397 0.058793 0.06421
0.15877 0.0570077 0.0647288
0.210346 0.0557107 0.0642557
0.271992 0.0550088 0.0641642
0.342504 0.0548257 0.0651255
0.420905 0.0540475 0.0682231
0.49456 0.0548562 0.0771954
0.550393 0.0581979 0.0937819
0.601465 0.0735485 0.11249
0.631479 0.0822766 0.124483
0.638102 0.0834669 0.135088
0.643214 0.0843061 0.14464
0.645853 0.0846571 0.149874
0.647974 0.0850233 0.153841
0.649638 0.0852369 0.15697
0.650965 0.0854963 0.159274
0.652049 0.0856947 0.161242
0.652811 0.0858473 0.16286
0.65333 0.0859541 0.163897
0.653758 0.0860304 0.164752
0.654063 0.0860761 0.165362
0.654246 0.0861067 0.165728
0.654643 0.0859236 0.167056
0.655253 0.0854963 0.16965
0.65655 0.0845045 0.175418
0.657893 0.08336 0.181827
0.050309 0.0701305 0.0662699
0.0502327 0.0703288 0.0663615
0.0501717 0.0700999 0.066331
0.0518959 0.068986 0.0661479
0.0560006 0.0678111 0.066041
0.0655985 0.0681468 0.0681315
0.0816052 0.0674754 0.0675822
0.108019 0.0648661 0.0651102
0.150103 0.0608988 0.0639048
0.202335 0.0582895 0.0649729
0.266056 0.0576638 0.0658274
0.338018 0.0568399 0.066331
0.416678 0.0558633 0.06804
0.49099 0.0556954 0.0738842
0.542382 0.0568551 0.0829328
0.592004 0.0721294 0.0993973
0.61973 0.0797436 0.109438
0.627298 0.0815442 0.116976
0.633402 0.0826429 0.126497
0.638483 0.0835431 0.135698
0.642359 0.0842298 0.143038
0.644572 0.0844434 0.147402
0.646174 0.0847181 0.150347
0.647303 0.0849622 0.152529
0.648096 0.0850385 0.154055
0.6486 0.0850996 0.154971
0.648966 0.0851301 0.155734
0.649241 0.0851759 0.156268
0.649378 0.0851911 0.156512
0.649668 0.0849775 0.157778
0.65008 0.084535 0.15993
0.651179 0.0835584 0.165164
0.652232 0.0824598 0.170794
0.0524758 0.0832227 0.0702525
0.0524758 0.0837568 0.0703441
0.052369 0.083772 0.0703288
0.053193 0.0828565 0.0699779
0.0573739 0.0806439 0.0699779
0.0661936 0.0801862 0.0700542
0.08336 0.0802167 0.0710155
0.11078 0.0787213 0.0717174
0.153414 0.0747082 0.0683146
0.203937 0.0692149 0.064744
0.261509 0.063035 0.0650034
0.330938 0.0597238 0.0677195
0.410956 0.0582437 0.0695048
0.489281 0.0576333 0.0742351
0.54255 0.0587015 0.082826
0.590219 0.0719005 0.0964065
0.616617 0.0791333 0.104723
0.616419 0.079118 0.104265
0.618769 0.0796368 0.107271
0.622889 0.0806287 0.111681
0.626993 0.0814527 0.116686
0.630869 0.0822766 0.122515
0.633707 0.0826429 0.127413
0.635798 0.0830549 0.13106
0.637293 0.0832837 0.133913
0.639292 0.083711 0.136812
0.639948 0.0838178 0.138109
0.640284 0.0838788 0.138857
0.640269 0.0838636 0.138888
0.640146 0.0835584 0.139315
0.639979 0.0829786 0.140215
0.640116 0.0817731 0.143374
0.639567 0.0802625 0.1458
0.0530556 0.105043 0.0742199
0.0528115 0.10605 0.0730144
0.0524605 0.106249 0.0727703
0.052491 0.105516 0.0727092
0.0566873 0.103563 0.0730755
0.0633555 0.101076 0.0731212
0.0811322 0.101228 0.0726635
0.112215 0.101442 0.0746471
0.160189 0.0984817 0.0763409
0.212924 0.0915694 0.0725261
0.273442 0.082063 0.0677348
0.339101 0.0717784 0.0649882
0.408118 0.0636454 0.0677806
0.484062 0.0602426 0.074342
0.541711 0.0607614 0.0833753
0.588022 0.0694743 0.0951247
0.621317 0.0805066 0.106844
0.624857 0.0817273 0.107576
0.62327 0.0813458 0.107012
0.621485 0.0807507 0.10631
0.619913 0.0802319 0.105714
0.618555 0.0798047 0.105196
0.618402 0.0797131 0.105486
0.619043 0.0798657 0.106401
0.619883 0.0800336 0.107439
0.620356 0.0801556 0.107958
0.62063 0.0802167 0.108293
0.62089 0.0802625 0.108568
0.620859 0.0802472 0.108553
0.620798 0.0800183 0.10901
0.620615 0.0795758 0.109773
0.620508 0.0786908 0.111772
0.622171 0.0781872 0.115251
0.0527657 0.138491 0.0785077
0.0526131 0.140291 0.0768292
0.0524147 0.140902 0.0755627
0.0522469 0.140459 0.0753338
0.0530098 0.139345 0.0751202
0.0603647 0.13698 0.075761
0.0732738 0.134585 0.0762493
0.106172 0.134493 0.0737926
0.15787 0.134554 0.0758221
0.220478 0.132235 0.0791943
0.289342 0.123262 0.0784772
0.359487 0.109911 0.0749828
0.431693 0.0957809 0.0714733
0.497917 0.0778821 0.0695659
0.544427 0.0664378 0.0803845
0.584619 0.0653086 0.0948959
0.62533 0.080293 0.111666
0.63534 0.08336 0.116518
0.634165 0.0830091 0.116274
0.633173 0.0827344 0.11606
0.632059 0.0823987 0.115602
0.631037 0.0820935 0.11516
0.630259 0.0818647 0.11487
0.629709 0.081651 0.114611
0.629252 0.0814984 0.114458
0.628901 0.0813611 0.114382
0.628794 0.0813001 0.114458
0.62887 0.0812695 0.114672
0.629068 0.0812695 0.114946
0.629541 0.0813611 0.115312
0.630259 0.08159 0.115755
0.631861 0.0817731 0.117342
0.634165 0.0818952 0.120104
0.0523384 0.183062 0.0829938
0.0519112 0.185397 0.080705
0.0514382 0.186358 0.0778821
0.0513313 0.186709 0.0768444
0.0512856 0.186023 0.0766613
0.0555123 0.184894 0.0772412
0.066041 0.182559 0.0782177
0.0898299 0.181689 0.0781109
0.145037 0.181186 0.0737011
0.214633 0.182025 0.0768139
0.294865 0.182971 0.0832685
0.377539 0.175555 0.0885939
0.458091 0.162036 0.0893111
0.533211 0.143252 0.0902571
0.58436 0.122179 0.0911421
0.607889 0.0912032 0.0916609
0.626856 0.0811322 0.100938
0.644709 0.0870832 0.116091
0.643442 0.0865034 0.116442
0.642695 0.0862287 0.116747
0.642023 0.0859693 0.116869
0.641398 0.0856947 0.117021
0.640772 0.0854505 0.117052
0.640299 0.0852522 0.117098
0.639963 0.0851148 0.117113
0.639765 0.0850233 0.117113
0.639673 0.0849928 0.117098
0.639673 0.0849928 0.117098
0.639811 0.0850538 0.117113
0.640192 0.0852064 0.117128
0.640925 0.0855116 0.117128
0.642512 0.0857557 0.118257
0.644678 0.0858473 0.120012
0.0525216 0.236194 0.0879835
0.0521401 0.23917 0.0855573
0.0517128 0.241291 0.0823682
0.0513466 0.241886 0.0789197
0.0512398 0.241367 0.0781109
0.0514382 0.240208 0.0783703
0.0592508 0.240009 0.0791791
0.0750439 0.237263 0.0801709
0.11696 0.239368 0.0792706
0.197208 0.240146 0.074464
0.284871 0.241779 0.0779889
0.376547 0.247776 0.0868086
0.473991 0.24329 0.104036
0.556725 0.237781 0.112169
0.627878 0.222354 0.122103
0.671641 0.201144 0.131075
0.69015 0.171176 0.128618
0.683742 0.123613 0.116426
0.666194 0.10045 0.110506
0.656794 0.09308 0.10753
0.654292 0.0916457 0.111223
0.652262 0.0905013 0.113252
0.651743 0.0902419 0.11342
0.651301 0.0900587 0.113481
0.651102 0.0899825 0.113542
0.650889 0.0898756 0.113603
0.650813 0.0898451 0.113634
0.650874 0.0898756 0.113634
0.651118 0.0899825 0.113558
0.651698 0.0902266 0.113466
0.652628 0.0906844 0.11313
0.654368 0.0911269 0.113451
0.656855 0.0915847 0.114122
0.0528115 0.301579 0.0941329
0.0526436 0.305776 0.0919356
0.0523232 0.308125 0.0886397
0.051957 0.308751 0.0840925
0.0517128 0.308736 0.0809491
0.0517281 0.307774 0.0809644
0.0524453 0.30695 0.0812238
0.0654154 0.307652 0.0817731
0.0913405 0.305043 0.0824903
0.159213 0.308614 0.0796826
0.260288 0.310506 0.074342
0.365438 0.314458 0.0805676
0.465614 0.327977 0.090486
0.566415 0.330663 0.121035
0.650584 0.33051 0.139437
0.71342 0.326192 0.160006
0.755871 0.310552 0.176394
0.774838 0.282872 0.182742
0.763088 0.25388 0.172732
0.748791 0.229129 0.161563
0.734951 0.205753 0.151049
0.722042 0.184771 0.141527
0.711849 0.168032 0.134096
0.704234 0.155779 0.128695
0.700374 0.150378 0.125887
0.697246 0.146014 0.123583
0.695552 0.143664 0.122606
0.695079 0.143267 0.12224
0.697185 0.145403 0.124285
0.701442 0.151125 0.126802
0.708629 0.161929 0.131334
0.72285 0.184375 0.142885
0.742626 0.215747 0.159319
0.0527504 0.375448 0.102449
0.0528572 0.379507 0.100526
0.0527657 0.382254 0.0965896
0.0527047 0.383352 0.0922103
0.0522621 0.383871 0.0863508
0.0521553 0.38436 0.0836347
0.0521096 0.383352 0.0837262
0.0543984 0.382666 0.0838178
0.0760815 0.383398 0.084123
0.119768 0.380438 0.0840009
0.215152 0.386877 0.0806439
0.338704 0.393088 0.0773175
0.452857 0.400381 0.0882124
0.553124 0.417227 0.0978103
0.647166 0.429358 0.135576
0.727306 0.434333 0.173953
0.786114 0.440543 0.199649
0.824994 0.441474 0.216007
0.832532 0.422858 0.220188
0.82681 0.403372 0.215869
0.82118 0.38529 0.211444
0.815381 0.369268 0.206989
0.811643 0.358679 0.205035
0.808179 0.349981 0.202976
0.805142 0.343145 0.201068
0.80412 0.339971 0.200565
0.803571 0.338277 0.20032
0.804715 0.340597 0.201236
0.806104 0.343893 0.202213
0.809354 0.351614 0.204562
0.81413 0.36492 0.207706
0.821561 0.385992 0.213214
0.831144 0.415549 0.220523
0.0557717 0.45687 0.115862
0.0562753 0.461433 0.113924
0.0569467 0.464637 0.110918
0.0571908 0.466209 0.106096
0.0565499 0.46865 0.0992294
0.0567178 0.470268 0.0924239
0.0575875 0.470649 0.0911879
0.0576028 0.469352 0.0913405
0.0657054 0.467765 0.0898604
0.100847 0.467002 0.0888991
0.171374 0.465263 0.0881514
0.293477 0.473884 0.0864118
0.427344 0.482399 0.0882429
0.537621 0.490822 0.104356
0.635538 0.506996 0.125765
0.712383 0.530388 0.159899
0.782834 0.545174 0.202136
0.829923 0.560586 0.225818
0.846967 0.558694 0.234791
0.847318 0.547524 0.234638
0.847593 0.53846 0.234485
0.847395 0.530358 0.233814
0.84741 0.524514 0.2336
0.84744 0.519387 0.233341
0.847288 0.515846 0.232959
0.847547 0.513985 0.233005
0.847776 0.514611 0.233158
0.847684 0.515297 0.232975
0.847761 0.517678 0.233051
0.847456 0.522835 0.232853
0.847471 0.532006 0.233127
0.847211 0.547143 0.233906
0.845914 0.568048 0.234684
0.06981 0.539879 0.143221
0.071458 0.544244 0.142123
0.0728923 0.547326 0.139696
0.0742046 0.549645 0.135729
0.0753033 0.551202 0.129595
0.0771496 0.553567 0.122911
0.0818341 0.556817 0.117144
0.0814374 0.55581 0.116823
0.0807813 0.554253 0.11635
0.0983597 0.552071 0.108629
0.154528 0.550866 0.102663
0.251209 0.550805 0.101076
0.386038 0.561349 0.102678
0.517845 0.570047 0.114717
0.619501 0.58323 0.142626
0.715953 0.599619 0.179049
0.782238 0.625483 0.20824
0.827482 0.650477 0.230304
0.847608 0.66273 0.24097
0.846189 0.655711 0.238956
0.845731 0.650431 0.238041
0.84538 0.645548 0.237232
0.84509 0.641825 0.236637
0.844556 0.638666 0.235889
0.844465 0.636652 0.235554
0.84477 0.636439 0.235737
0.8448 0.63621 0.235737
0.844923 0.636805 0.235889
0.845319 0.638956 0.236515
0.84593 0.642756 0.2374
0.847364 0.650568 0.239429
0.849393 0.661128 0.242344
0.853483 0.674571 0.247517
0.101869 0.618647 0.183932
0.104219 0.622431 0.183322
0.107271 0.626261 0.182513
0.110018 0.628489 0.178668
0.11284 0.630411 0.173358
0.115923 0.632517 0.167056
0.123354 0.635737 0.160174
0.12958 0.638407 0.157259
0.128313 0.636988 0.156695
0.127352 0.635065 0.155535
0.169543 0.63238 0.138247
0.238926 0.630121 0.12874
0.357534 0.633738 0.126787
0.490349 0.648035 0.139849
0.613031 0.66186 0.167956
0.705409 0.680583 0.204334
0.796475 0.699413 0.247883
0.854231 0.725658 0.274784
0.889418 0.744671 0.294163
0.887938 0.737194 0.289525
0.885801 0.73341 0.286687
0.883818 0.729946 0.284047
0.882246 0.727184 0.282063
0.881346 0.725551 0.280964
0.881254 0.725292 0.280919
0.880934 0.724834 0.280751
0.880842 0.724819 0.280919
0.881285 0.725673 0.281788
0.882109 0.727337 0.282994
0.884535 0.731579 0.286061
0.887907 0.737484 0.290318
0.893233 0.746838 0.297139
0.900008 0.759487 0.307195
0.149477 0.693584 0.231739
0.153399 0.697612 0.232029
0.157458 0.700938 0.230762
0.161044 0.703182 0.227497
0.16495 0.705272 0.222446
0.169299 0.707439 0.2168
0.179461 0.711254 0.210529
0.194034 0.717556 0.206699
0.196292 0.718288 0.205753
0.194308 0.716579 0.204623
0.207111 0.713771 0.195148
0.262409 0.710582 0.174762
0.348531 0.707744 0.164538
0.486992 0.72108 0.174731
0.61059 0.740291 0.20618
0.715496 0.76318 0.244572
0.799924 0.790005 0.287892
0.871305 0.810849 0.325063
0.91545 0.82121 0.350561
0.928695 0.818601 0.355657
0.927001 0.814298 0.3523
0.925521 0.811734 0.350011
0.924697 0.809857 0.348516
0.924529 0.809094 0.348119
0.924178 0.808209 0.347631
0.923995 0.807813 0.347601
0.924056 0.80798 0.348089
0.924407 0.808835 0.349157
0.925322 0.811032 0.351095
0.927291 0.814435 0.354177
0.929702 0.819699 0.358404
0.933196 0.828016 0.364614
0.936172 0.838941 0.371572
0.204227 0.765179 0.279225
0.208469 0.769177 0.280049
0.212665 0.77261 0.279469
0.216495 0.775128 0.277745
0.221241 0.777584 0.273365
0.228336 0.781628 0.268193
0.238895 0.787396 0.267369
0.253559 0.79556 0.267353
0.261555 0.801587 0.268971
0.26099 0.800412 0.26717
0.260182 0.799207 0.265476
0.310002 0.797192 0.24477
0.385199 0.791028 0.225162
0.500084 0.792432 0.222293
0.628367 0.815579 0.253346
0.745129 0.837949 0.296834
0.82237 0.864271 0.333455
0.880079 0.878264 0.36585
0.923751 0.885008 0.390692
0.949187 0.88719 0.405707
0.949508 0.883436 0.403647
0.949126 0.88246 0.402808
0.948684 0.881224 0.401816
0.948348 0.880354 0.401205
0.948165 0.879835 0.401053
0.948028 0.879637 0.401221
0.948074 0.88011 0.401968
0.948318 0.881178 0.403265
0.948837 0.882765 0.404776
0.949783 0.885634 0.407065
0.950835 0.88957 0.409812
0.953048 0.895857 0.414664
0.955917 0.904372 0.421332
0.244038 0.826734 0.332876
0.244236 0.827802 0.335485
0.244266 0.828336 0.337926
0.244419 0.828687 0.339345
0.24448 0.828962 0.340719
0.24448 0.829114 0.341573
0.244572 0.829114 0.341329
0.244663 0.828962 0.340307
0.244724 0.828779 0.339132
0.244968 0.828626 0.338003
0.245457 0.828351 0.335775
0.25716 0.828336 0.318532
0.353185 0.837034 0.277363
0.471473 0.844526 0.269703
0.61059 0.859129 0.287205
0.730465 0.879698 0.326467
0.825772 0.900404 0.367788
0.88455 0.918074 0.397299
0.93109 0.927123 0.425467
0.961944 0.932006 0.447791
0.965682 0.930983 0.446174
0.96524 0.929976 0.445136
0.965011 0.929473 0.444587
0.964828 0.929046 0.444266
0.964691 0.928786 0.444251
0.96463 0.928786 0.444617
0.964706 0.929198 0.445533
0.964797 0.929625 0.446555
0.965072 0.93048 0.447715
0.965438 0.931319 0.448798
0.966033 0.932708 0.45034
0.967163 0.935042 0.452811
0.968948 0.938338 0.456504
0.240574 0.832731 0.377478
0.240635 0.832822 0.377127
0.240879 0.832929 0.376486
0.241154 0.83299 0.375631
0.241413 0.833021 0.374731
0.241627 0.832959 0.373526
0.242969 0.832425 0.373083
0.242878 0.832395 0.372183
0.242725 0.832212 0.370153
0.242527 0.832151 0.368643
0.242313 0.832197 0.368505
0.242115 0.832181 0.368154
0.246693 0.827237 0.326589
0.355123 0.839155 0.279484
0.510277 0.853986 0.277913
0.665171 0.874067 0.30837
0.780392 0.894499 0.351614
0.863539 0.9178 0.391119
0.917891 0.931579 0.421881
0.956558 0.938064 0.447593
0.970275 0.940398 0.459846
0.971069 0.940612 0.461524
0.971099 0.940566 0.461479
0.971038 0.940536 0.461509
0.970993 0.94052 0.461646
0.970901 0.94049 0.461967
0.97081 0.940444 0.462455
0.970718 0.940398 0.463096
0.970626 0.940368 0.463416
0.970611 0.940352 0.463523
0.970611 0.940352 0.463386
0.970657 0.940368 0.462989
0.970687 0.940414 0.462257
0.240513 0.832792 0.378576
0.240604 0.832883 0.378103
0.240848 0.83299 0.377539
0.241154 0.833021 0.376913
0.241566 0.83299 0.376074
0.241962 0.832868 0.375067
0.242405 0.8327 0.373632
0.242618 0.832517 0.372381
0.242679 0.832319 0.370901
0.242679 0.832105 0.36875
0.242481 0.832181 0.368582
0.242298 0.832227 0.368429
0.24419 0.82887 0.342138
0.321721 0.834775 0.282551
0.455222 0.849012 0.275456
0.618692 0.866667 0.295094
0.743557 0.887465 0.336095
0.840177 0.910597 0.379721
0.900236 0.928618 0.411536
0.945754 0.937331 0.43946
0.965911 0.940993 0.455421
0.967376 0.941573 0.458625
0.967514 0.941573 0.458808
0.96759 0.941543 0.458885
0.967666 0.941512 0.458961
0.967727 0.941497 0.459037
0.967773 0.941466 0.459098
0.967788 0.941466 0.459144
0.967788 0.941466 0.459129
0.967773 0.941466 0.459083
0.967727 0.941497 0.459022
0.967636 0.941527 0.45893
0.967544 0.941573 0.458839
0.240772 0.833188 0.3785
0.240803 0.833188 0.378271
0.240925 0.833158 0.378012
0.241123 0.833127 0.377615
0.241443 0.833051 0.376974
0.241886 0.832929 0.375921
0.242329 0.832746 0.374563
0.242634 0.832547 0.372793
0.24271 0.83238 0.371588
0.242771 0.83209 0.368933
0.242542 0.832151 0.368627
0.242374 0.832227 0.368429
0.243641 0.830396 0.352667
0.294713 0.830823 0.287556
0.43328 0.847364 0.275792
0.592126 0.862562 0.288975
0.72546 0.884062 0.329046
0.826047 0.906249 0.372808
0.891447 0.926696 0.406577
0.938506 0.936095 0.434775
0.964996 0.940826 0.45417
0.96701 0.941451 0.457786
0.96733 0.941634 0.458701
0.96733 0.941634 0.458701
0.96733 0.941634 0.458717
0.9673 0.941619 0.4589
0.967254 0.941604 0.459297
0.967178 0.941558 0.459892
0.967132 0.941512 0.460472
0.967102 0.941466 0.461051
0.967086 0.941451 0.461265
0.967102 0.941466 0.461051
0.9673 0.941466 0.460563
0.240879 0.833097 0.379538
0.240635 0.833066 0.379309
0.240604 0.833051 0.379034
0.240742 0.833021 0.378592
0.241062 0.832959 0.377966
0.241489 0.832837 0.377005
0.241932 0.832639 0.375738
0.242329 0.832441 0.373846
0.242466 0.832258 0.372519
0.242542 0.831922 0.369757
0.242374 0.831952 0.369207
0.242145 0.832044 0.369009
0.242603 0.831052 0.360784
0.272694 0.827482 0.294255
0.416739 0.845853 0.276356
0.572061 0.860014 0.28542
0.711055 0.880919 0.32343
0.81619 0.902602 0.367849
0.885664 0.923842 0.402899
0.933486 0.934218 0.431296
0.963394 0.93962 0.452338
0.968551 0.940719 0.458167
0.969085 0.941039 0.459724
0.969085 0.941039 0.459724
0.969085 0.941039 0.459724
0.969055 0.941024 0.459922
0.969009 0.940993 0.460319
0.968734 0.941024 0.460807
0.968246 0.941115 0.461234
0.967575 0.941268 0.461616
0.967224 0.94136 0.461723
0.967071 0.941421 0.46154
0.967254 0.941421 0.461143
0.240955 0.833097 0.380118
0.240665 0.833082 0.379919
0.240604 0.833066 0.379583
0.240711 0.833051 0.379095
0.241016 0.833005 0.378408
0.241428 0.832868 0.377478
0.241901 0.832685 0.376242
0.242329 0.832471 0.374334
0.242512 0.832273 0.372778
0.242588 0.831952 0.37023
0.242466 0.831907 0.369284
0.242191 0.832013 0.369085
0.242237 0.831754 0.366369
0.261448 0.825971 0.299504
0.405432 0.844739 0.276783
0.553658 0.858335 0.282795
0.698116 0.879164 0.31902
0.80679 0.900267 0.36347
0.879057 0.921904 0.399161
0.928801 0.933715 0.428534
0.960327 0.939132 0.449897
0.968368 0.940612 0.457633
0.969085 0.941039 0.459724
0.969085 0.941039 0.459724
0.969085 0.941039 0.459724
0.969055 0.941024 0.459922
0.969009 0.940993 0.460319
0.968734 0.941024 0.460807
0.968231 0.941115 0.461326
0.967544 0.941268 0.461784
0.967208 0.941344 0.461982
0.967056 0.941405 0.461875
0.967239 0.941375 0.46157
0.241001 0.833082 0.380545
0.240696 0.833097 0.380316
0.240558 0.833112 0.379934
0.240558 0.833127 0.379309
0.240696 0.833127 0.37847
0.240848 0.833097 0.377554
0.241077 0.833005 0.376028
0.241337 0.832853 0.373968
0.241459 0.83267 0.372274
0.241627 0.832349 0.369787
0.241703 0.832197 0.368643
0.241703 0.832197 0.368643
0.241779 0.832059 0.367514
0.258564 0.826825 0.307378
0.397009 0.843809 0.27686
0.543633 0.857359 0.281468
0.688457 0.877897 0.315969
0.800153 0.898955 0.360693
0.87454 0.921218 0.39707
0.924743 0.932998 0.426047
0.957671 0.938598 0.447669
0.968261 0.940551 0.457298
0.969009 0.940993 0.45951
0.969085 0.941039 0.459724
0.969085 0.941039 0.459724
0.969055 0.941024 0.459922
0.969009 0.940993 0.460319
0.968734 0.941024 0.460807
0.968231 0.941115 0.461326
0.967544 0.941253 0.46186
0.967208 0.941329 0.462135
0.967025 0.94139 0.462104
0.967224 0.94136 0.461875
0.241093 0.833082 0.38088
0.240742 0.833082 0.380652
0.240558 0.833112 0.380255
0.240558 0.833127 0.379629
0.240681 0.833158 0.378744
0.240833 0.833112 0.377737
0.241032 0.833021 0.376318
0.241276 0.832868 0.374258
0.24184 0.832532 0.372549
0.241947 0.832242 0.37023
0.241993 0.832105 0.368826
0.241886 0.832135 0.368765
0.241932 0.831952 0.367102
0.256535 0.827283 0.313008
0.391653 0.843275 0.277073
0.537087 0.856489 0.280446
0.683284 0.877043 0.314229
0.795789 0.89807 0.35877
0.871199 0.920836 0.395422
0.920821 0.932845 0.423774
0.955215 0.938537 0.445899
0.967742 0.940673 0.45684
0.968795 0.941009 0.459251
0.969039 0.941054 0.459693
0.96907 0.941039 0.459724
0.969055 0.941024 0.459922
0.969009 0.940993 0.460319
0.968734 0.941024 0.460807
0.968231 0.941115 0.461326
0.967544 0.941253 0.461997
0.967193 0.941314 0.462379
0.96698 0.94136 0.46244
0.96701 0.941375 0.462272
0.241337 0.833066 0.381079
0.240986 0.833112 0.380819
0.240711 0.833127 0.380438
0.240635 0.833158 0.379812
0.240711 0.833158 0.378973
0.240879 0.833112 0.37792
0.241123 0.833005 0.376577
0.241428 0.832822 0.374563
0.241703 0.832593 0.372488
0.241871 0.832273 0.370291
0.241978 0.832105 0.368826
0.241932 0.83212 0.368795
0.241993 0.831891 0.366812
0.255772 0.827543 0.315572
0.389044 0.843 0.277211
0.534844 0.856001 0.279988
0.681743 0.876707 0.313649
0.793454 0.897597 0.357671
0.869612 0.920439 0.394553
0.918853 0.932738 0.422614
0.953445 0.938735 0.444846
0.9664 0.9411 0.45594
0.967163 0.941512 0.458228
0.967376 0.941619 0.458732
0.967422 0.941604 0.458747
0.967453 0.941588 0.458824
0.967483 0.941573 0.4589
0.967315 0.941619 0.458854
0.966949 0.941741 0.458701
0.966461 0.941909 0.458442
0.966125 0.942031 0.458228
0.965927 0.942107 0.458061
0.965911 0.942107 0.458
0.240833 0.833524 0.38027
0.240772 0.833478 0.380133
0.240696 0.833387 0.37995
0.240681 0.83331 0.379553
0.240757 0.833234 0.378912
0.240909 0.833143 0.377981
0.241108 0.833005 0.376699
0.241428 0.832822 0.37467
0.241718 0.832578 0.372473
0.241901 0.832273 0.370245
0.242008 0.83209 0.368841
0.241962 0.832105 0.368811
0.242084 0.831769 0.366003
0.25835 0.828077 0.315022
0.391104 0.843214 0.277089
0.538003 0.856443 0.280552
0.682948 0.87689 0.314046
0.79411 0.89778 0.358022
0.870085 0.920623 0.394766
