bundles/resolve-cinematic-luts/Phantom Luts/Komodo Phantom ARRI LUTs G2/Komodo Phantom ARRI LUTs G2/33x/WB Offset - Green Boost/IceBlue_Komodo_WBO_Legacy_G2_33x.cube
TITLE "Generated by Resolve"
LUT_3D_SIZE 9
0.0478218 0.0597543 0.0639048
0.0624857 0.0589303 0.0640269
0.164202 0.055436 0.0640421
0.419623 0.0578927 0.0816968
0.63624 0.0827955 0.139544
0.653269 0.0867475 0.161624
0.664424 0.0953231 0.175113
0.65449 0.0788434 0.175128
0.659388 0.0762798 0.196521
0.050309 0.0701305 0.0662699
0.0560006 0.0678111 0.066041
0.150103 0.0608988 0.0639048
0.416678 0.0558633 0.06804
0.61973 0.0797436 0.109438
0.642359 0.0842298 0.143038
0.648096 0.0850385 0.154055
0.649378 0.0851911 0.156512
0.652232 0.0824598 0.170794
0.0523384 0.183062 0.0829938
0.0512856 0.186023 0.0766613
0.145037 0.181186 0.0737011
0.458091 0.162036 0.0893111
0.626856 0.0811322 0.100938
0.642023 0.0859693 0.116869
0.639963 0.0851148 0.117113
0.639811 0.0850538 0.117113
0.644678 0.0858473 0.120012
0.0557717 0.45687 0.115862
0.0565499 0.46865 0.0992294
0.0657054 0.467765 0.0898604
0.427344 0.482399 0.0882429
0.782834 0.545174 0.202136
0.847593 0.53846 0.234485
0.847288 0.515846 0.232959
0.847761 0.517678 0.233051
0.845914 0.568048 0.234684
0.204227 0.765179 0.279225
0.221241 0.777584 0.273365
0.261555 0.801587 0.268971
0.385199 0.791028 0.225162
0.82237 0.864271 0.333455
0.949508 0.883436 0.403647
0.948165 0.879835 0.401053
0.948837 0.882765 0.404776
0.955917 0.904372 0.421332
0.240772 0.833188 0.3785
0.241443 0.833051 0.376974
0.24271 0.83238 0.371588
0.243641 0.830396 0.352667
0.72546 0.884062 0.329046
0.964996 0.940826 0.45417
0.96733 0.941634 0.458717
0.967132 0.941512 0.460472
0.9673 0.941466 0.460563
0.241093 0.833082 0.38088
0.240681 0.833158 0.378744
0.24184 0.832532 0.372549
0.241932 0.831952 0.367102
0.683284 0.877043 0.314229
0.955215 0.938537 0.445899
0.96907 0.941039 0.459724
0.968231 0.941115 0.461326
0.96701 0.941375 0.462272
0.241932 0.833204 0.381048
0.240528 0.833005 0.379583
0.241093 0.832258 0.37319
0.241794 0.830991 0.362997
0.704952 0.878782 0.320516
0.959167 0.937957 0.448692
0.97084 0.940429 0.460761
0.970138 0.940581 0.461204
0.965576 0.941802 0.462119
0.240909 0.833616 0.380743
0.240726 0.833112 0.378195
0.241306 0.832074 0.369314
0.339345 0.837034 0.281621
0.845411 0.909926 0.38146
0.970199 0.940063 0.458946
0.97084 0.940429 0.460761
0.970245 0.940627 0.46041
0.965743 0.941878 0.460883
0.0455787 0.060441 0.0775464
0.0622568 0.0598459 0.078996
0.172641 0.0597238 0.0874952
0.434226 0.0603494 0.114275
0.649073 0.0797742 0.173419
0.661692 0.0790265 0.196017
0.666056 0.080766 0.205051
0.667781 0.0813001 0.209293
0.67158 0.0800183 0.227115
0.0488594 0.066743 0.0722057
0.051133 0.064683 0.0701915
0.159976 0.0558938 0.0706493
0.434958 0.0577707 0.0974594
0.647242 0.0822156 0.161822
0.659297 0.0847486 0.1823
0.657526 0.0767987 0.190021
0.659327 0.0773785 0.193729
0.662135 0.0760204 0.206592
0.0519875 0.178149 0.100008
0.0516365 0.181674 0.0873579
0.136202 0.177447 0.0740368
0.45977 0.145266 0.0875257
0.626596 0.0786908 0.10988
0.6374 0.0830243 0.120439
0.635309 0.0822919 0.120119
0.635035 0.0822309 0.120073
0.639658 0.082826 0.124117
0.055787 0.455299 0.139315
0.0568856 0.465476 0.123369
0.0577096 0.466911 0.0916915
0.424552 0.482551 0.0881056
0.786984 0.542809 0.205142
0.847639 0.532967 0.234241
0.847562 0.50985 0.232258
0.84741 0.511284 0.231891
0.846052 0.563104 0.234592
0.195361 0.762875 0.297261
0.210788 0.77435 0.28986
0.253727 0.797147 0.267735
0.37525 0.79324 0.228504
0.82298 0.865095 0.33431
0.949676 0.883833 0.403983
0.948043 0.879866 0.400961
0.948943 0.882948 0.404425
0.955749 0.904021 0.420401
0.240879 0.83328 0.381003
0.241047 0.833295 0.379263
0.242191 0.8327 0.372549
0.242802 0.831113 0.358968
0.722988 0.883665 0.328191
0.965347 0.940826 0.454368
0.967285 0.941619 0.459098
0.967041 0.94139 0.462013
0.967117 0.941497 0.460655
0.240955 0.833478 0.382879
0.240543 0.833371 0.381231
0.241535 0.832761 0.37464
0.241886 0.831998 0.367208
0.68101 0.876509 0.313329
0.954864 0.938445 0.445701
0.96907 0.941039 0.459724
0.968231 0.941115 0.461326
0.96701 0.941375 0.462272
0.24123 0.833753 0.383276
0.240238 0.833402 0.38201
0.240864 0.832486 0.375463
0.241291 0.831785 0.369467
0.701244 0.878691 0.319631
0.958419 0.937804 0.448096
0.97084 0.940429 0.460761
0.970138 0.940581 0.461204
0.965698 0.941848 0.461234
0.242252 0.833631 0.385992
0.241093 0.833402 0.383398
0.241093 0.832471 0.372519
0.307729 0.832685 0.285206
0.839292 0.908049 0.37882
0.970077 0.939986 0.458564
0.97084 0.940429 0.460761
0.970138 0.940581 0.461204
0.965301 0.941665 0.464286
0.0383001 0.0673075 0.17171
0.0624247 0.0620584 0.177066
0.181567 0.0609445 0.178729
0.448722 0.0693523 0.195895
0.679438 0.0907149 0.247974
0.693141 0.0975204 0.263996
0.695811 0.0998703 0.269963
0.696925 0.10045 0.273899
0.702968 0.102571 0.301427
0.0326696 0.0727855 0.153033
0.0398566 0.0667277 0.170947
0.174319 0.0608682 0.180484
0.458244 0.0696422 0.193759
0.681498 0.0893873 0.248173
0.690562 0.0945907 0.262303
0.693629 0.0970626 0.268894
0.695048 0.0982528 0.271931
0.700099 0.100191 0.294804
0.0472419 0.154192 0.156863
0.0462043 0.15639 0.158892
0.120119 0.157244 0.165164
0.464057 0.107637 0.148455
0.639612 0.0767987 0.160052
0.658503 0.0828717 0.183124
0.663417 0.0840772 0.193194
0.65922 0.0774243 0.193713
0.660365 0.0769207 0.198199
0.0549325 0.436973 0.215808
0.055024 0.447227 0.208637
0.0552834 0.444984 0.149706
0.394995 0.467536 0.0857252
0.793027 0.514824 0.208148
0.845609 0.48629 0.229709
0.841169 0.458961 0.226764
0.840787 0.459205 0.226444
0.84741 0.51284 0.232776
0.168261 0.749325 0.357702
0.175891 0.758129 0.353704
0.192508 0.762722 0.307027
0.309895 0.783841 0.230518
0.811032 0.855039 0.323919
0.946395 0.873594 0.395972
0.944564 0.86804 0.392416
0.945006 0.870161 0.394934
0.951522 0.890913 0.410513
0.23946 0.836667 0.408637
0.240726 0.835355 0.399268
0.24242 0.833188 0.382574
0.24271 0.831998 0.368963
0.696361 0.879225 0.318807
0.961898 0.940322 0.45156
0.967285 0.941619 0.459098
0.967041 0.94139 0.462013
0.967117 0.941497 0.460639
0.24007 0.838422 0.426352
0.23978 0.837827 0.41857
0.241199 0.833539 0.384237
0.2421 0.832059 0.368948
0.647654 0.871183 0.303105
0.948959 0.937255 0.441581
0.969024 0.941009 0.460105
0.967941 0.940993 0.463478
0.966873 0.941299 0.463325
0.240223 0.840024 0.440574
0.239384 0.839353 0.431434
0.240009 0.833677 0.386282
0.241169 0.831861 0.36968
0.664652 0.87277 0.307546
0.951492 0.936568 0.44303
0.97084 0.940429 0.460761
0.96994 0.94049 0.462684
0.965408 0.941711 0.463554
0.241672 0.845823 0.490105
0.239796 0.844755 0.478614
0.239384 0.836225 0.406195
0.242664 0.830167 0.35613
0.800748 0.897627 0.36112
0.969116 0.939742 0.456992
0.97084 0.940429 0.460761
0.970138 0.940581 0.461204
0.964889 0.941772 0.464363
0.0322271 0.0755169 0.366735
0.0506905 0.0672618 0.37142
0.163958 0.0642863 0.387243
0.462394 0.0678874 0.408591
0.688731 0.0822766 0.397177
0.705135 0.0918135 0.413825
0.704997 0.0914931 0.418616
0.705425 0.0920119 0.424186
0.697276 0.0870985 0.462333
0.0224155 0.0914473 0.36556
0.0323796 0.0756085 0.378759
0.146258 0.0649424 0.401541
0.471153 0.0687724 0.429496
0.698299 0.0889754 0.418311
0.700572 0.0876326 0.42974
0.698558 0.0856184 0.43389
0.698238 0.0853285 0.437446
0.696086 0.0870527 0.474769
0.0261387 0.136965 0.306035
0.0241398 0.134569 0.32137
0.0341344 0.0845502 0.375479
0.428107 0.0677653 0.411032
0.689296 0.0844129 0.374441
0.701091 0.0875715 0.384497
0.700221 0.0864729 0.387961
0.701106 0.0872663 0.391546
0.703243 0.0905776 0.424262
0.0484321 0.396246 0.36936
0.0474098 0.405905 0.378744
0.0468757 0.401007 0.373953
0.334447 0.407401 0.397147
0.811673 0.375372 0.381659
0.843351 0.317143 0.360113
0.826215 0.287129 0.34583
0.825483 0.285405 0.346273
0.852171 0.329107 0.380758
0.13959 0.728435 0.491569
0.145678 0.737423 0.498238
0.146258 0.737316 0.478706
0.148409 0.723323 0.369039
0.723552 0.790265 0.280674
0.935546 0.836896 0.369436
0.931716 0.824872 0.361547
0.932113 0.825055 0.36257
0.938933 0.849348 0.379202
0.232517 0.845502 0.534752
0.234195 0.845792 0.537881
0.237751 0.84538 0.522362
0.239765 0.838361 0.425101
0.578393 0.861509 0.287022
0.952239 0.936828 0.443595
0.970733 0.940383 0.461494
0.970535 0.940307 0.462898
0.97055 0.940307 0.462776
0.231968 0.846784 0.546731
0.232074 0.847028 0.54789
0.234577 0.845472 0.53051
0.240284 0.840238 0.444358
0.493233 0.851972 0.278141
0.922347 0.932448 0.424796
0.968994 0.940993 0.460426
0.968048 0.941039 0.462669
0.966964 0.941344 0.462577
0.231434 0.848142 0.560967
0.23125 0.848325 0.561913
0.232044 0.846647 0.543023
0.239368 0.841779 0.459831
0.494942 0.85214 0.277607
0.920958 0.931426 0.423743
0.970642 0.940322 0.460746
0.96965 0.940368 0.464714
0.965194 0.941604 0.465232
0.23653 0.855146 0.623575
0.236286 0.855055 0.622965
0.233173 0.85243 0.59762
0.241108 0.846906 0.502968
0.66862 0.873198 0.309636
0.945937 0.935683 0.439368
0.970672 0.940337 0.460304
0.969924 0.940505 0.462547
0.965331 0.94168 0.463874
0.0311894 0.0849622 0.54258
0.0477455 0.0747539 0.547799
0.138247 0.0769818 0.590005
0.397375 0.0825818 0.637308
0.694316 0.125154 0.645212
0.713863 0.133745 0.659281
0.712596 0.134356 0.663249
0.711284 0.134813 0.666758
0.702312 0.13756 0.68574
0.0200046 0.0985733 0.543496
0.0320134 0.0843977 0.548577
0.122744 0.0776532 0.59176
0.39649 0.0842756 0.648157
0.700389 0.129503 0.656916
0.710918 0.135302 0.669154
0.709712 0.135943 0.672908
0.7084 0.136385 0.676143
0.699474 0.138888 0.693416
0.0266728 0.156497 0.571572
0.0259251 0.152453 0.576608
0.0331273 0.0844587 0.547631
0.337743 0.0808423 0.638865
0.688258 0.125338 0.652628
0.715129 0.133745 0.658259
0.714031 0.134264 0.661646
0.713405 0.134615 0.664012
0.70547 0.136873 0.681025
0.0406806 0.383474 0.581155
0.0415045 0.390356 0.587839
0.0405585 0.37435 0.593393
0.127016 0.262608 0.681849
0.728542 0.226337 0.717403
0.74725 0.155535 0.629007
0.728069 0.130831 0.602564
0.731029 0.134218 0.607294
0.7579 0.174578 0.657984
0.135454 0.677424 0.648325
0.1402 0.685618 0.65478
0.140093 0.68545 0.655161
0.132784 0.675151 0.64593
0.626322 0.698909 0.694881
0.948882 0.699535 0.692378
0.947417 0.683055 0.681529
0.945525 0.683528 0.683711
0.939162 0.71368 0.715801
0.257969 0.860121 0.702464
0.263005 0.860014 0.707317
0.260822 0.8598 0.700954
0.248905 0.858549 0.669627
0.251682 0.865263 0.575036
0.919676 0.949981 0.585428
0.983581 0.94757 0.506569
0.987381 0.950301 0.531868
0.986618 0.951125 0.582666
0.259373 0.861189 0.712932
0.266545 0.860716 0.717464
0.26421 0.860136 0.709285
0.25156 0.858289 0.674006
0.248188 0.863798 0.574609
0.870939 0.924056 0.417044
0.969512 0.93991 0.458671
0.969619 0.939986 0.463294
0.967147 0.939422 0.47538
0.26215 0.86363 0.728466
0.270298 0.86215 0.732616
0.267582 0.861448 0.7234
0.253803 0.859541 0.685512
0.249943 0.866224 0.589822
0.860044 0.922072 0.434562
0.969284 0.939666 0.458442
0.969268 0.940002 0.464042
0.965499 0.940398 0.470512
0.280613 0.868498 0.788556
0.287266 0.866545 0.788464
0.284215 0.8654 0.774777
0.265797 0.862394 0.726604
0.291997 0.884642 0.651408
0.898161 0.9458 0.611399
0.967987 0.940185 0.457649
0.967559 0.940322 0.464347
0.963806 0.940963 0.468956
0.0540169 0.075288 0.575204
0.070222 0.0742504 0.584466
0.150881 0.0813611 0.624521
0.376486 0.0888075 0.675975
0.684413 0.135927 0.695155
0.700816 0.139574 0.694301
0.700725 0.139605 0.694255
0.700465 0.13962 0.694713
0.696605 0.140215 0.699825
0.0391852 0.0806287 0.568582
0.0558175 0.0750286 0.576333
0.140215 0.0812848 0.620905
0.383948 0.0894026 0.677623
0.692271 0.137713 0.695674
0.701076 0.139513 0.694118
0.700954 0.139559 0.694041
0.700603 0.139605 0.694545
0.696651 0.140185 0.69987
0.0289006 0.145846 0.598733
0.026154 0.126986 0.588952
0.053666 0.0755627 0.575357
0.325307 0.0859083 0.668147
0.676631 0.134508 0.696468
0.703227 0.139193 0.691234
0.703182 0.139223 0.691142
0.702922 0.139254 0.691508
0.69894 0.139834 0.696925
0.0426947 0.288701 0.641291
0.0425269 0.295094 0.64268
0.040116 0.274388 0.637949
0.0746624 0.11487 0.624094
0.578973 0.12253 0.706874
0.703349 0.139757 0.691478
0.70399 0.139498 0.690394
0.704021 0.139513 0.69044
0.701381 0.141283 0.696422
0.130999 0.630533 0.718502
0.13463 0.637308 0.72285
0.13434 0.635081 0.724773
0.128038 0.618524 0.726162
0.486732 0.601953 0.890517
0.93521 0.601267 0.921416
0.938186 0.585489 0.912413
0.938918 0.587259 0.912047
0.935058 0.624887 0.91696
0.282689 0.853498 0.822568
0.292546 0.857939 0.827268
0.290425 0.854398 0.823316
0.27245 0.83714 0.805402
0.257328 0.826719 0.797787
0.877028 0.910155 0.910704
0.978851 0.91545 0.912856
0.978439 0.913283 0.911665
0.975692 0.925673 0.926085
0.296193 0.868788 0.841947
0.304189 0.86746 0.842405
0.304189 0.867384 0.838422
0.299901 0.867796 0.822904
0.290974 0.873564 0.786191
0.694484 0.943679 0.839658
0.989395 0.980377 0.86717
0.996597 0.978653 0.842191
0.993393 0.980819 0.888334
0.293935 0.867964 0.849027
0.302342 0.865461 0.848142
0.304479 0.86627 0.844465
0.299443 0.868467 0.828016
0.291691 0.874144 0.78822
0.682658 0.939941 0.837232
0.977432 0.980758 0.878096
0.994324 0.971466 0.747158
0.988998 0.969436 0.745922
0.293339 0.867124 0.85156
0.3019 0.864988 0.849577
0.304463 0.864408 0.848814
0.302724 0.867613 0.840162
0.315099 0.890761 0.828351
0.805676 0.95906 0.90486
0.984405 0.984039 0.929107
0.995117 0.980117 0.86566
0.990555 0.975219 0.802289
0.0695506 0.0740673 0.583551
0.0891737 0.0757458 0.595865
0.164965 0.0814679 0.629145
0.388693 0.0897231 0.677852
0.688701 0.136614 0.694865
0.700893 0.139544 0.694331
0.700771 0.13959 0.694286
0.701564 0.139452 0.693355
0.698054 0.139971 0.698009
0.0538643 0.0751812 0.574624
0.0701762 0.0742199 0.58436
0.153719 0.0813611 0.625528
0.394507 0.0904097 0.679454
0.697795 0.139193 0.695979
0.701015 0.139513 0.69424
0.700908 0.139559 0.694209
0.700542 0.139605 0.694652
0.696651 0.1402 0.69987
0.0269169 0.127443 0.589395
0.0221256 0.110567 0.574365
0.0673075 0.074342 0.58294
0.334844 0.0865339 0.670008
0.680919 0.135836 0.697429
0.703105 0.139223 0.691417
0.703182 0.139208 0.691218
0.702876 0.139254 0.69163
0.69894 0.139834 0.696925
0.03888 0.25452 0.632959
0.0386969 0.261967 0.634745
0.0365911 0.242924 0.629602
0.0663157 0.0841382 0.593271
0.573846 0.113649 0.697459
0.702876 0.139467 0.691783
0.704387 0.139147 0.689693
0.704143 0.139239 0.690135
0.700435 0.140169 0.695674
0.129747 0.619883 0.72784
0.132128 0.626993 0.728542
0.131014 0.624643 0.727855
0.12224 0.605844 0.722927
0.481682 0.575036 0.89308
0.926406 0.573465 0.915099
0.933059 0.553628 0.907973
0.933745 0.556008 0.90779
0.930037 0.598077 0.916808
0.268635 0.832959 0.832029
0.279637 0.840055 0.834562
0.2766 0.835386 0.832074
0.253437 0.808942 0.816724
0.230091 0.775265 0.810178
0.802747 0.864866 0.940002
0.972335 0.879149 0.960204
0.972869 0.877531 0.958648
0.969009 0.894606 0.958312
0.29543 0.865827 0.851652
0.302434 0.864866 0.849424
0.30341 0.864683 0.84918
0.30309 0.864607 0.849363
0.310231 0.873213 0.856291
0.382742 0.917525 0.892088
0.977874 0.978744 0.979599
0.99852 0.980362 0.978286
0.995727 0.982437 0.982254
0.293202 0.866621 0.852003
0.301991 0.864988 0.849531
0.303258 0.864729 0.84921
0.301228 0.865064 0.84979
0.309407 0.87425 0.856336
0.345068 0.91313 0.876646
0.9626 0.984176 0.977478
0.996689 0.986618 0.980941
0.994385 0.987198 0.984329
0.293156 0.867262 0.85153
0.3019 0.865019 0.849561
0.304524 0.864393 0.848798
0.302144 0.864881 0.849546
0.32607 0.890623 0.871168
0.413321 0.930846 0.900267
0.972747 0.985809 0.984237
0.992996 0.98764 0.986297
0.990738 0.988098 0.986755
0.0747539 0.0741741 0.586664
0.0946975 0.0764019 0.599039
0.169863 0.0815747 0.630701
0.393011 0.090013 0.678416
0.690318 0.136995 0.69485
0.700893 0.139544 0.694331
0.700801 0.139574 0.694301
0.701305 0.139498 0.693706
0.697932 0.140002 0.698161
0.0579385 0.074464 0.57641
0.0746319 0.0742962 0.586954
0.157961 0.0814832 0.627024
0.39939 0.0906386 0.679911
0.69929 0.13962 0.696132
0.701015 0.139513 0.69424
0.700923 0.139544 0.694209
0.700557 0.139605 0.694682
0.69781 0.140002 0.698436
0.0266728 0.122286 0.585855
0.0230869 0.10695 0.573327
0.0712749 0.0743725 0.58526
0.339483 0.0867628 0.670771
0.683299 0.136477 0.697688
0.70309 0.139223 0.691447
0.703212 0.139208 0.691218
0.702892 0.139254 0.69163
0.69894 0.139834 0.696941
0.0383307 0.248569 0.631632
0.0379492 0.25597 0.632914
0.0359045 0.236484 0.627802
0.066392 0.0808423 0.589517
0.575891 0.113664 0.697063
0.702281 0.139483 0.6925
0.704402 0.139162 0.689693
0.704158 0.139223 0.690135
0.700404 0.140124 0.695628
0.128832 0.618219 0.727062
0.131395 0.62565 0.728054
0.1308 0.623987 0.727718
0.121843 0.604532 0.722957
0.482994 0.571176 0.893782
0.925139 0.571221 0.914183
0.931563 0.550607 0.907347
0.932219 0.553338 0.906828
0.928054 0.596475 0.915038
0.267979 0.831296 0.831098
0.277104 0.837827 0.83331
0.274434 0.83299 0.830686
0.246738 0.801495 0.812055
0.228672 0.772915 0.809339
0.804288 0.859892 0.93724
0.969604 0.875059 0.958053
0.971923 0.872374 0.957656
0.967575 0.890578 0.957168
0.295933 0.86569 0.851514
0.302434 0.864866 0.849424
0.303365 0.864698 0.84918
0.303029 0.864622 0.849378
0.31046 0.873549 0.856565
0.408576 0.91519 0.907118
0.963043 0.971145 0.981155
0.996292 0.975204 0.981918
0.993957 0.97789 0.983886
0.293156 0.866682 0.851957
0.301976 0.864988 0.849531
0.303212 0.864729 0.849226
0.301198 0.865064 0.849805
0.309316 0.874174 0.857725
0.337713 0.906157 0.884916
0.905089 0.980026 0.979095
0.996124 0.98703 0.987121
0.99411 0.987503 0.988724
0.293858 0.866407 0.851881
0.3019 0.865003 0.849561
0.304402 0.864424 0.848829
0.302129 0.864881 0.849546
0.325551 0.89012 0.870771
0.353902 0.916533 0.894591
0.942794 0.983734 0.984741
0.992721 0.987854 0.989929
0.990631 0.988357 0.991791
0.0754711 0.0742504 0.587121
0.0968795 0.0767681 0.600381
0.175509 0.0817121 0.632532
0.404547 0.0909133 0.679881
0.6963 0.138628 0.695232
0.700893 0.139544 0.694331
0.700786 0.139574 0.694301
0.701305 0.139498 0.693706
0.697932 0.140002 0.698161
0.0578622 0.0744793 0.576394
0.0757 0.074464 0.587747
0.163088 0.0814679 0.628656
0.411414 0.0916457 0.68162
0.699504 0.13962 0.695979
0.700999 0.139528 0.69424
0.700923 0.139544 0.694209
0.700557 0.139605 0.694682
0.697826 0.140002 0.698436
0.0272831 0.127291 0.589258
0.0242161 0.109224 0.576394
0.0724804 0.0744488 0.586007
0.350103 0.0872206 0.672404
0.690288 0.137819 0.697261
0.703105 0.139223 0.691417
0.703227 0.139193 0.691218
0.702953 0.139223 0.691646
0.698985 0.139818 0.696971
0.0397345 0.261982 0.635019
0.0395514 0.270634 0.636667
0.0374456 0.250584 0.631937
0.0774701 0.0900893 0.605081
0.584329 0.117052 0.699672
0.702464 0.139605 0.692454
0.704448 0.139284 0.689769
0.704234 0.139315 0.690211
0.700526 0.140307 0.69572
0.132692 0.626047 0.729076
0.135576 0.633509 0.730159
0.134554 0.631388 0.729397
0.125368 0.612116 0.724804
0.500648 0.584756 0.895338
0.925399 0.586923 0.914595
0.936873 0.567849 0.910872
0.934844 0.571191 0.909148
0.92903 0.612589 0.916045
0.276555 0.839414 0.835584
0.285847 0.845716 0.83801
0.282765 0.840284 0.834501
0.259709 0.813733 0.819638
0.233661 0.778546 0.812543
0.815763 0.866255 0.937774
0.970535 0.881865 0.95903
0.972259 0.879759 0.958282
0.9673 0.896651 0.957137
0.297551 0.865309 0.850996
0.303975 0.864454 0.849042
0.306294 0.86389 0.848417
0.306828 0.863737 0.848402
0.316533 0.874876 0.857389
0.442466 0.922667 0.91606
0.963912 0.972015 0.982238
0.995575 0.976074 0.983032
0.99324 0.978607 0.984756
0.297444 0.865507 0.850904
0.304204 0.864393 0.848951
0.306798 0.863752 0.848402
0.306981 0.863691 0.848386
0.318578 0.875319 0.857862
0.347005 0.906294 0.884321
0.908034 0.980011 0.981674
0.995315 0.987243 0.987594
0.994919 0.98732 0.987991
0.292943 0.866484 0.852216
0.30338 0.864591 0.849241
0.307103 0.863661 0.848386
0.307454 0.863569 0.848325
0.334722 0.890059 0.869993
0.363973 0.915343 0.892989
0.936751 0.983154 0.986191
0.990127 0.988495 0.992126
0.990478 0.988403 0.991882
