bundles/resolve-cinematic-luts/Phantom Luts/Komodo Phantom ARRI LUTs G2/Komodo Phantom ARRI LUTs G2/33x/WB Offset - Green Boost/IceBlue_Komodo_WBO_Legacy_G2_33x.cube
TITLE "Generated by Resolve"
LUT_3D_SIZE 5
0.0478218 0.0597543 0.0639048
0.164202 0.055436 0.0640421
0.63624 0.0827955 0.139544
0.664424 0.0953231 0.175113
0.659388 0.0762798 0.196521
0.0523384 0.183062 0.0829938
0.145037 0.181186 0.0737011
0.626856 0.0811322 0.100938
0.639963 0.0851148 0.117113
0.644678 0.0858473 0.120012
0.204227 0.765179 0.279225
0.261555 0.801587 0.268971
0.82237 0.864271 0.333455
0.948165 0.879835 0.401053
0.955917 0.904372 0.421332
0.241093 0.833082 0.38088
0.24184 0.832532 0.372549
0.683284 0.877043 0.314229
0.96907 0.941039 0.459724
0.96701 0.941375 0.462272
0.240909 0.833616 0.380743
0.241306 0.832074 0.369314
0.845411 0.909926 0.38146
0.97084 0.940429 0.460761
0.965743 0.941878 0.460883
0.0383001 0.0673075 0.17171
0.181567 0.0609445 0.178729
0.679438 0.0907149 0.247974
0.695811 0.0998703 0.269963
0.702968 0.102571 0.301427
0.0472419 0.154192 0.156863
0.120119 0.157244 0.165164
0.639612 0.0767987 0.160052
0.663417 0.0840772 0.193194
0.660365 0.0769207 0.198199
0.168261 0.749325 0.357702
0.192508 0.762722 0.307027
0.811032 0.855039 0.323919
0.944564 0.86804 0.392416
0.951522 0.890913 0.410513
0.24007 0.838422 0.426352
0.241199 0.833539 0.384237
0.647654 0.871183 0.303105
0.969024 0.941009 0.460105
0.966873 0.941299 0.463325
0.241672 0.845823 0.490105
0.239384 0.836225 0.406195
0.800748 0.897627 0.36112
0.97084 0.940429 0.460761
0.964889 0.941772 0.464363
0.0311894 0.0849622 0.54258
0.138247 0.0769818 0.590005
0.694316 0.125154 0.645212
0.712596 0.134356 0.663249
0.702312 0.13756 0.68574
0.0266728 0.156497 0.571572
0.0331273 0.0844587 0.547631
0.688258 0.125338 0.652628
0.714031 0.134264 0.661646
0.70547 0.136873 0.681025
0.135454 0.677424 0.648325
0.140093 0.68545 0.655161
0.626322 0.698909 0.694881
0.947417 0.683055 0.681529
0.939162 0.71368 0.715801
0.259373 0.861189 0.712932
0.26421 0.860136 0.709285
0.248188 0.863798 0.574609
0.969512 0.93991 0.458671
0.967147 0.939422 0.47538
0.280613 0.868498 0.788556
0.284215 0.8654 0.774777
0.291997 0.884642 0.651408
0.967987 0.940185 0.457649
0.963806 0.940963 0.468956
0.0695506 0.0740673 0.583551
0.164965 0.0814679 0.629145
0.688701 0.136614 0.694865
0.700771 0.13959 0.694286
0.698054 0.139971 0.698009
0.0269169 0.127443 0.589395
0.0673075 0.074342 0.58294
0.680919 0.135836 0.697429
0.703182 0.139208 0.691218
0.69894 0.139834 0.696925
0.129747 0.619883 0.72784
0.131014 0.624643 0.727855
0.481682 0.575036 0.89308
0.933059 0.553628 0.907973
0.930037 0.598077 0.916808
0.29543 0.865827 0.851652
0.30341 0.864683 0.84918
0.310231 0.873213 0.856291
0.977874 0.978744 0.979599
0.995727 0.982437 0.982254
0.293156 0.867262 0.85153
0.304524 0.864393 0.848798
0.32607 0.890623 0.871168
0.972747 0.985809 0.984237
0.990738 0.988098 0.986755
0.0754711 0.0742504 0.587121
0.175509 0.0817121 0.632532
0.6963 0.138628 0.695232
0.700786 0.139574 0.694301
0.697932 0.140002 0.698161
0.0272831 0.127291 0.589258
0.0724804 0.0744488 0.586007
0.690288 0.137819 0.697261
0.703227 0.139193 0.691218
0.698985 0.139818 0.696971
0.132692 0.626047 0.729076
0.134554 0.631388 0.729397
0.500648 0.584756 0.895338
0.936873 0.567849 0.910872
0.92903 0.612589 0.916045
0.297551 0.865309 0.850996
0.306294 0.86389 0.848417
0.316533 0.874876 0.857389
0.963912 0.972015 0.982238
0.99324 0.978607 0.984756
0.292943 0.866484 0.852216
0.307103 0.863661 0.848386
0.334722 0.890059 0.869993
0.936751 0.983154 0.986191
0.990478 0.988403 0.991882
