bundles/resolve-cinematic-luts/Phantom Luts/Komodo Phantom ARRI LUTs G2/Komodo Phantom ARRI LUTs G2/33x/WB Offset - Green Boost/IceBlue_Komodo_WBO_G2_33x.cube
TITLE "Generated by Resolve"
LUT_3D_SIZE 5
0.0343023 0.0468605 0.0466621
0.207935 0.0405432 0.0468299
0.650324 0.0714122 0.161166
0.671382 0.0753948 0.200565
0.677302 0.0728161 0.229923
0.0359503 0.228077 0.0695506
0.184024 0.225147 0.0542763
0.636088 0.0707256 0.104158
0.648981 0.0730297 0.126207
0.652827 0.0735637 0.128359
0.226123 0.789792 0.306569
0.283589 0.815656 0.278538
0.856077 0.879042 0.360403
0.952682 0.891661 0.416892
0.958648 0.910079 0.434852
0.247425 0.841535 0.41117
0.247807 0.840665 0.40145
0.731365 0.888212 0.341207
0.970001 0.941436 0.473793
0.968231 0.941665 0.476875
0.24712 0.842145 0.411536
0.247196 0.84007 0.39704
0.874662 0.915236 0.406241
0.972 0.940719 0.474861
0.966751 0.94226 0.475441
0.0226139 0.0574655 0.206744
0.231571 0.0480507 0.21915
0.692912 0.0812848 0.28661
0.710109 0.0926833 0.312001
0.718441 0.0988785 0.347555
0.0312963 0.194736 0.190906
0.153353 0.196216 0.200351
0.656092 0.069337 0.185306
0.675929 0.0734722 0.223423
0.67805 0.0730907 0.231907
0.190234 0.780438 0.408865
0.212512 0.789151 0.344259
0.846952 0.872084 0.352636
0.949722 0.882902 0.409232
0.955123 0.899855 0.425208
0.249058 0.848096 0.465766
0.247684 0.842054 0.415442
0.697459 0.883024 0.328756
0.970184 0.941329 0.474342
0.967819 0.941619 0.478523
0.254093 0.855894 0.53637
0.246921 0.845212 0.441428
0.837583 0.904723 0.388617
0.972 0.940719 0.474861
0.965835 0.942138 0.479286
0.0260319 0.0732128 0.547784
0.175479 0.0652018 0.613687
0.699535 0.123354 0.663951
0.713344 0.13077 0.678904
0.705165 0.134325 0.698085
0.0201877 0.189349 0.590387
0.0286107 0.0719615 0.552544
0.694759 0.12398 0.670375
0.71487 0.130678 0.677211
0.707973 0.133623 0.693874
0.158984 0.720287 0.692744
0.163516 0.726574 0.697887
0.684062 0.750317 0.747097
0.952529 0.734524 0.734188
0.941176 0.763165 0.766339
0.263569 0.866606 0.749874
0.269902 0.865125 0.746319
0.25771 0.869108 0.62208
0.969894 0.940475 0.471977
0.967239 0.939879 0.492134
0.280781 0.874403 0.811215
0.287633 0.870466 0.799786
0.314229 0.891722 0.695613
0.968963 0.94049 0.470985
0.964874 0.941283 0.484688
0.0855116 0.0615091 0.59794
0.206226 0.0697642 0.64741
0.696986 0.135409 0.70515
0.705852 0.137087 0.704311
0.703227 0.137469 0.70779
0.0189212 0.143175 0.600443
0.0818036 0.0616922 0.596704
0.690593 0.134844 0.707195
0.708156 0.136736 0.701442
0.704005 0.137346 0.706935
0.148516 0.670375 0.755871
0.150576 0.67425 0.755428
0.550072 0.635523 0.919631
0.946929 0.612741 0.924743
0.938293 0.655329 0.927733
0.288212 0.871672 0.856199
0.29749 0.870161 0.8533
0.302388 0.876265 0.85864
0.979385 0.978714 0.979599
0.997421 0.982422 0.982101
0.28687 0.872587 0.856092
0.298756 0.86981 0.853025
0.314611 0.889265 0.870344
0.976196 0.98883 0.985382
0.998886 0.995453 0.989853
0.0933852 0.0615244 0.601816
0.218036 0.0701152 0.650538
0.70251 0.136584 0.705364
0.705867 0.137087 0.704326
0.703182 0.137484 0.707835
0.0192874 0.142794 0.600137
0.0892042 0.0616312 0.600305
0.69781 0.136233 0.707301
0.708186 0.136721 0.701457
0.704051 0.137331 0.706981
0.151934 0.675761 0.757076
0.154879 0.680507 0.757122
0.568292 0.644465 0.919097
0.949172 0.625849 0.925261
0.935393 0.669062 0.925231
0.290669 0.871061 0.855604
0.300954 0.8692 0.852567
0.308904 0.877165 0.859236
0.967025 0.972808 0.981552
0.995117 0.979141 0.985885
0.285115 0.872465 0.856931
0.301762 0.868971 0.852399
0.323659 0.888014 0.868498
0.947768 0.982238 0.985748
0.998886 0.994858 0.994629
