bundles/resolve-cinematic-luts/Phantom Luts/Komodo Phantom ARRI LUTs G2/Komodo Phantom ARRI LUTs G2/33x/WB Offset - Green Boost/Jamaica_Komodo_WBO_Legacy_G2_33x.cube
TITLE "Generated by Resolve"
LUT_3D_SIZE 5
0.0416266 0.0499428 0.0416266
0.204578 0.0448157 0.0463111
0.645136 0.0772412 0.154299
0.661982 0.0843061 0.186557
0.650797 0.0704662 0.186679
0.0364691 0.219776 0.0540475
0.168215 0.20145 0.0500038
0.623545 0.08542 0.0973831
0.629511 0.0839094 0.111162
0.629114 0.0832074 0.110979
0.337499 0.889494 0.398444
0.388861 0.909483 0.387366
0.881407 0.913069 0.399084
0.970047 0.912581 0.447791
0.967117 0.906188 0.443
0.391608 0.954833 0.52369
0.382605 0.946273 0.505837
0.754559 0.965637 0.402609
1 0.991485 0.515038
1 0.992004 0.513787
0.396368 0.959182 0.529854
0.384527 0.947463 0.507836
0.731777 0.96408 0.39585
1 0.990967 0.51548
1 0.99237 0.514366
0.0348363 0.0547341 0.158587
0.222477 0.049424 0.195666
0.687831 0.0872816 0.265629
0.698375 0.0939651 0.285496
0.698878 0.0943008 0.285908
0.0436866 0.175677 0.152026
0.14107 0.175967 0.126436
0.627817 0.0749371 0.115877
0.648936 0.0784772 0.161959
0.650263 0.0783703 0.165606
0.270008 0.866773 0.451072
0.305058 0.866407 0.380255
0.868345 0.900771 0.384558
0.964172 0.89633 0.435554
0.961074 0.889311 0.430549
0.386877 0.957427 0.546654
0.380713 0.946944 0.513863
0.72845 0.968032 0.399878
1 0.99147 0.515068
1 0.992035 0.513802
0.390585 0.962173 0.557473
0.381598 0.94754 0.515053
0.70277 0.966567 0.394049
1 0.990967 0.515511
1 0.992493 0.514275
0.0419165 0.0556344 0.555032
0.193042 0.0530404 0.580743
0.676417 0.127794 0.647929
0.673075 0.130999 0.659022
0.673304 0.130694 0.656886
0.0264897 0.122545 0.5505
0.0521553 0.0526131 0.542031
0.672801 0.118914 0.629801
0.678553 0.12491 0.638361
0.678523 0.124102 0.635843
0.16466 0.724788 0.679316
0.156954 0.720958 0.665034
0.686824 0.714412 0.622461
0.957336 0.697597 0.616266
0.954787 0.687465 0.604852
0.355016 0.932235 0.755825
0.353704 0.935302 0.739467
0.414816 0.949828 0.466712
1 0.991363 0.513466
1 0.991913 0.513146
0.357427 0.934783 0.75668
0.353674 0.935149 0.740124
0.3935 0.946212 0.485237
1 0.9906 0.513497
1 0.992355 0.51426
0.0965438 0.0469215 0.594614
0.212573 0.0575113 0.636667
0.659007 0.13753 0.689464
0.65893 0.137591 0.68957
0.658305 0.137743 0.688487
0.0415045 0.109865 0.60705
0.0969406 0.0472877 0.595087
0.653208 0.135515 0.688594
0.659007 0.137621 0.690028
0.658732 0.137591 0.689006
0.152193 0.587198 0.754681
0.145754 0.575784 0.749813
0.532799 0.502098 0.861906
0.918318 0.492927 0.939727
0.912902 0.48011 0.934661
0.347967 0.872374 0.889372
0.346853 0.873426 0.887358
0.360113 0.893812 0.878172
0.981552 0.982651 0.972091
0.994308 0.982864 0.971893
0.35552 0.870893 0.885817
0.346853 0.873426 0.887358
0.3579 0.895415 0.867628
0.967895 0.99144 0.947692
0.998642 0.991531 0.912474
0.107454 0.047364 0.598505
0.219471 0.057908 0.638788
0.659022 0.13753 0.689479
0.659007 0.137545 0.689601
0.659022 0.137484 0.68925
0.0398413 0.101198 0.602487
0.10837 0.047715 0.599054
0.655146 0.13611 0.68864
0.659007 0.137621 0.690013
0.659022 0.137484 0.68925
0.148562 0.578973 0.75256
0.141924 0.56643 0.747677
0.525597 0.480003 0.858412
0.911208 0.468101 0.933639
0.905715 0.452811 0.928801
0.347723 0.872602 0.88896
0.346853 0.873426 0.887358
0.35201 0.879149 0.891676
0.966125 0.965621 0.984894
0.993194 0.968582 0.993378
0.347524 0.872786 0.888579
0.346853 0.873426 0.887358
0.349157 0.87602 0.889235
0.778134 0.990188 0.993637
0.995178 0.98967 0.994751
