bundles/resolve-cinematic-luts/Phantom Luts/Komodo Phantom ARRI LUTs G2/Komodo Phantom ARRI LUTs G2/33x/WB Offset - Green Boost/Jamaica_Komodo_WBO_G2_33x.cube
TITLE "Generated by Resolve"
LUT_3D_SIZE 33
0.0197757 0.0358129 0.0197604
0.0197604 0.0357824 0.0197452
0.0203403 0.0357519 0.0197604
0.0377356 0.0359197 0.0198672
0.069688 0.0354772 0.0197604
0.107347 0.0344549 0.019913
0.151293 0.0325322 0.0208286
0.200381 0.0302739 0.0231632
0.257176 0.0287175 0.0285191
0.322774 0.028397 0.0390021
0.394797 0.0303807 0.0525521
0.470161 0.0317693 0.0734722
0.539086 0.0337835 0.0969863
0.590463 0.0370947 0.124361
0.618906 0.0468452 0.149294
0.633875 0.0597543 0.164858
0.64506 0.0666361 0.181857
0.647822 0.0670787 0.189166
0.650004 0.0672618 0.195453
0.651972 0.0675517 0.200946
0.653681 0.0677348 0.205982
0.655299 0.0679637 0.210559
0.656306 0.0681621 0.21323
0.657282 0.0682841 0.216205
0.658061 0.0684215 0.218494
0.658656 0.068513 0.22031
0.659068 0.068574 0.221607
0.659388 0.0686198 0.222599
0.659602 0.0686503 0.22327
0.659724 0.0686656 0.223667
0.65977 0.0686809 0.22385
0.659709 0.0686809 0.223789
0.659602 0.0686961 0.22359
0.0197604 0.0357824 0.0197452
0.0197604 0.0357977 0.0197604
0.0197604 0.0357824 0.0197452
0.0305791 0.0361028 0.0199435
0.0624552 0.0359045 0.0198062
0.101289 0.0350805 0.0200198
0.1467 0.033051 0.0207675
0.19733 0.0306706 0.0227207
0.253178 0.0285191 0.025803
0.317372 0.0274968 0.0324102
0.388937 0.0283207 0.042649
0.464775 0.0295567 0.0617685
0.535454 0.0314641 0.0879225
0.586206 0.035584 0.115648
0.615335 0.0466011 0.139681
0.631418 0.0595712 0.158175
0.642878 0.0664073 0.175967
0.645762 0.0667735 0.183627
0.648325 0.0671092 0.190631
0.650141 0.0673228 0.195758
0.65185 0.0675212 0.200656
0.653193 0.067689 0.204608
0.654475 0.0678569 0.208331
0.655268 0.0680095 0.210391
0.655909 0.0681163 0.212161
0.656443 0.0681773 0.213779
0.65687 0.0682383 0.21503
0.657191 0.0682994 0.215991
0.65745 0.0683299 0.216739
0.657618 0.0683604 0.217258
0.657679 0.0683757 0.217487
0.657618 0.0683909 0.217456
0.657511 0.0684062 0.217273
0.0197452 0.0364385 0.019852
0.019791 0.0361944 0.0198215
0.0201267 0.035996 0.019791
0.0223239 0.0361028 0.0198978
0.0483864 0.037232 0.0205844
0.0882734 0.0368048 0.0198215
0.135256 0.0351263 0.0201114
0.188037 0.0326696 0.021912
0.246113 0.0301366 0.0248264
0.31133 0.0285954 0.0301061
0.382788 0.0284276 0.0380865
0.456992 0.0283055 0.0501106
0.526009 0.029572 0.0707713
0.580133 0.035584 0.101152
0.611337 0.0464485 0.129061
0.626734 0.0590372 0.146227
0.636942 0.0655833 0.161028
0.642832 0.0664225 0.175845
0.645579 0.066743 0.18323
0.647852 0.0670939 0.189242
0.649439 0.0671702 0.193957
0.650797 0.0674144 0.197589
0.651865 0.0675364 0.200717
0.652689 0.0676432 0.203128
0.653346 0.0677043 0.205081
0.653819 0.0677806 0.206455
0.654246 0.0678416 0.207675
0.654597 0.0678874 0.208743
0.654887 0.0679179 0.209537
0.655024 0.0679484 0.209949
0.65507 0.0679637 0.210086
0.655009 0.0679789 0.209918
0.654948 0.0679789 0.20972
0.0200351 0.0478065 0.0212711
0.0200046 0.0468605 0.0208896
0.0211795 0.0452277 0.0207675
0.0254215 0.0425727 0.0206302
0.0407416 0.0429389 0.022858
0.0747387 0.0421912 0.0230411
0.118914 0.0392004 0.0200809
0.174441 0.0364385 0.0205539
0.234668 0.0337835 0.0230716
0.302296 0.0320745 0.0276188
0.376806 0.0318608 0.0359197
0.451957 0.0304112 0.0471351
0.519173 0.0296635 0.0608377
0.56878 0.0351263 0.0779583
0.60177 0.0454566 0.106752
0.619058 0.0584421 0.127245
0.629984 0.0650034 0.143633
0.635508 0.0656138 0.157061
0.640757 0.066331 0.170077
0.643748 0.0665293 0.178302
0.645808 0.0667887 0.18381
0.64744 0.0670176 0.18819
0.648646 0.0671092 0.191653
0.649393 0.067155 0.193881
0.649897 0.067277 0.195148
0.650385 0.0673533 0.196521
0.650797 0.0673991 0.197635
0.651087 0.0674449 0.198444
0.651316 0.0674754 0.199054
0.651453 0.0674907 0.199481
0.65153 0.0675059 0.199664
0.651499 0.0675059 0.199619
0.651453 0.0675212 0.199512
0.0191806 0.0724193 0.0222019
0.0193027 0.0715038 0.0218509
0.0190738 0.0699321 0.0215305
0.0257267 0.0665141 0.0218204
0.0420996 0.0624857 0.022385
0.0758679 0.0624704 0.0273594
0.118914 0.0604257 0.0292363
0.170245 0.0539254 0.0255436
0.227176 0.0443275 0.0205844
0.290684 0.0374762 0.0241245
0.367117 0.0361486 0.0328069
0.444816 0.0341192 0.0444953
0.515694 0.0322881 0.0585946
0.567147 0.0348058 0.0772412
0.596857 0.0446784 0.0965896
0.611505 0.0562905 0.112047
0.619135 0.0621805 0.12163
0.62324 0.0635386 0.129351
0.627909 0.0647746 0.13875
0.633051 0.0653086 0.151064
0.636454 0.065568 0.159701
0.640558 0.0663157 0.169497
0.642512 0.0664225 0.174868
0.643671 0.0665293 0.178042
0.644663 0.0665599 0.180911
0.645243 0.0666514 0.182437
0.645609 0.0667277 0.183307
0.645899 0.0667887 0.184024
0.646128 0.0668345 0.184604
0.646326 0.066865 0.185138
0.646433 0.0668803 0.185458
0.646433 0.0668803 0.185443
0.646403 0.0668956 0.185351
0.0175021 0.108583 0.0234379
0.0169375 0.107622 0.0214389
0.0169223 0.106035 0.0214237
0.0203861 0.102815 0.0215763
0.03505 0.0970626 0.021973
0.0708934 0.0936599 0.0244755
0.117891 0.0924239 0.0308843
0.174044 0.0878614 0.0369116
0.233783 0.0775158 0.0353399
0.297292 0.0642405 0.0292973
0.365087 0.0485237 0.0271
0.435355 0.039826 0.0399023
0.509438 0.0366827 0.0542
0.563867 0.0354009 0.0729839
0.595163 0.0442359 0.0936751
0.612116 0.0568856 0.112657
0.619623 0.0637217 0.120211
0.618738 0.0630503 0.119203
0.6177 0.0623026 0.117998
0.61828 0.0621805 0.1196
0.620981 0.062974 0.124758
0.623529 0.0636759 0.129793
0.625696 0.0641184 0.134371
0.627466 0.0646525 0.13785
0.629465 0.0649729 0.142351
0.630976 0.065095 0.146029
0.631632 0.0651102 0.147723
0.632136 0.0651865 0.148867
0.632731 0.0652476 0.150362
0.633219 0.0653086 0.151537
0.633494 0.0653544 0.152178
0.633631 0.0653697 0.152499
0.633768 0.0654002 0.152789
0.0132448 0.157198 0.0248112
0.0130465 0.15642 0.0207523
0.0131685 0.154772 0.0208133
0.0136721 0.15259 0.0209201
0.0261082 0.148196 0.0213626
0.052369 0.141955 0.0217136
0.107546 0.13814 0.0251316
0.170489 0.136614 0.0334936
0.239536 0.131136 0.0461128
0.310552 0.117311 0.0496376
0.383978 0.096376 0.047837
0.44979 0.0709697 0.0413825
0.510811 0.0489662 0.0459449
0.560327 0.0405737 0.0654765
0.59205 0.0437629 0.0876936
0.61062 0.0568704 0.109133
0.623011 0.0665293 0.123064
0.622889 0.066392 0.123018
0.622217 0.0658274 0.122545
0.621515 0.0652323 0.121981
0.62089 0.0647288 0.121401
0.620325 0.0643015 0.120821
0.619974 0.0639963 0.120562
0.619776 0.0637827 0.120485
0.619684 0.0636149 0.1205
0.619623 0.0635233 0.120562
0.619577 0.0634318 0.120607
0.619593 0.0633707 0.120729
0.619623 0.0633249 0.120851
0.619577 0.0632792 0.120821
0.619623 0.0632792 0.120958
0.619638 0.0632792 0.120989
0.619699 0.0632944 0.121111
0.0111086 0.212833 0.0295567
0.0107424 0.212207 0.0245212
0.0104982 0.210727 0.0212558
0.0106508 0.208515 0.0213016
0.0138552 0.2056 0.0213626
0.0367742 0.201648 0.0214237
0.0787213 0.19588 0.02121
0.15491 0.190311 0.0263371
0.230457 0.188785 0.0365911
0.315847 0.184283 0.0578622
0.399115 0.169879 0.0690471
0.477348 0.148836 0.0725109
0.545022 0.122942 0.0710155
0.585611 0.0843366 0.0635233
0.593606 0.0531624 0.0736858
0.606729 0.0565957 0.100404
0.624002 0.068513 0.120836
0.6262 0.0695506 0.123629
0.625772 0.0691081 0.123674
0.625345 0.0686503 0.12369
0.625101 0.0683604 0.123857
0.624811 0.0680552 0.123873
0.624567 0.0678111 0.123827
0.624369 0.0676127 0.123781
0.624186 0.0674449 0.12369
0.624002 0.0672923 0.123568
0.623911 0.067216 0.123522
0.623819 0.0671397 0.123476
0.623774 0.0670939 0.123461
0.623728 0.0670481 0.12343
0.623652 0.0670024 0.123384
0.62359 0.0669718 0.123369
0.623468 0.0669413 0.123247
0.0127413 0.277852 0.0399329
0.0121004 0.277165 0.0330663
0.010956 0.276219 0.0260777
0.0112001 0.274861 0.0248112
0.0112306 0.272587 0.0247044
0.0238041 0.269978 0.0247044
0.0579843 0.264927 0.024567
0.119554 0.259388 0.0237278
0.211093 0.251148 0.0299382
0.301045 0.251423 0.0425879
0.402411 0.249744 0.0745251
0.494591 0.23798 0.0966812
0.574731 0.219562 0.107347
0.640238 0.194553 0.115267
0.669139 0.164096 0.115496
0.64033 0.110277 0.103639
0.620783 0.0731365 0.0994888
0.629374 0.0737621 0.119585
0.629084 0.0732586 0.120455
0.628946 0.0729686 0.120974
0.628702 0.0726024 0.121447
0.628519 0.0723278 0.121828
0.628336 0.0720684 0.122087
0.628199 0.0718853 0.122301
0.628077 0.0717174 0.122469
0.628 0.0715953 0.122621
0.627955 0.0715038 0.122728
0.627924 0.071458 0.122805
0.627878 0.071397 0.122866
0.627802 0.0713207 0.122896
0.627741 0.0712749 0.122942
0.62768 0.0712291 0.122911
0.627619 0.0712139 0.122835
0.0189517 0.354192 0.0582589
0.0183566 0.353841 0.0515602
0.0174411 0.353765 0.0418097
0.0165866 0.353109 0.0341192
0.0163577 0.350805 0.0337224
0.0171969 0.347677 0.0332952
0.0439612 0.345693 0.0328222
0.0875868 0.339132 0.0317693
0.171817 0.334051 0.0313878
0.279698 0.324407 0.039292
0.385275 0.326467 0.0551614
0.492409 0.330571 0.0927901
0.591424 0.322621 0.129213
0.672496 0.312734 0.146609
0.733715 0.290852 0.16791
0.752377 0.26334 0.178592
0.731517 0.228122 0.171649
0.686229 0.159243 0.1364
0.648325 0.0995193 0.10663
0.633371 0.0810101 0.0925307
0.632288 0.0791638 0.104082
0.631922 0.0776989 0.111711
0.631815 0.0775006 0.112322
0.631662 0.0772869 0.112779
0.631556 0.0771191 0.113176
0.631479 0.0770275 0.11339
0.631403 0.0769207 0.113619
0.631388 0.0768444 0.113741
0.631373 0.0767529 0.113863
0.631403 0.0766766 0.113985
0.631434 0.0766003 0.114107
0.631479 0.076585 0.114076
0.631388 0.076524 0.114122
0.0307317 0.441978 0.0836194
0.0301976 0.44271 0.0774243
0.0294041 0.442084 0.0691691
0.028397 0.441215 0.056733
0.0278172 0.439979 0.0499733
0.0273899 0.437339 0.0495003
0.0317693 0.434958 0.0487526
0.0734722 0.434348 0.0475319
0.132555 0.42742 0.0464179
0.237583 0.419989 0.0462806
0.362814 0.409125 0.0543221
0.47837 0.413733 0.0740368
0.58407 0.426505 0.107546
0.685557 0.42533 0.161868
0.764706 0.422187 0.192096
0.81651 0.414969 0.214969
0.835782 0.3953 0.234409
0.826459 0.352987 0.242985
0.806317 0.324651 0.229343
0.788052 0.300023 0.216251
0.768551 0.273777 0.201938
0.751476 0.250568 0.188952
0.736767 0.230198 0.177768
0.724422 0.21323 0.167956
0.717662 0.203998 0.162463
0.710796 0.194675 0.156741
0.705089 0.18645 0.152361
0.700572 0.179995 0.148791
0.697124 0.174868 0.146105
0.694484 0.170611 0.143999
0.693538 0.168872 0.143084
0.692042 0.166384 0.141741
0.690135 0.163592 0.1402
0.0510567 0.536248 0.117006
0.0504005 0.536141 0.111543
0.0500649 0.535927 0.103639
0.0496071 0.535164 0.0928511
0.0485542 0.533928 0.0787671
0.0486 0.532647 0.0745556
0.0479744 0.530617 0.0738994
0.06421 0.530892 0.0727245
0.117739 0.530495 0.0702831
0.197971 0.523049 0.0682536
0.322423 0.511208 0.0694591
0.456977 0.501549 0.0773022
0.571817 0.508797 0.102937
0.669276 0.525887 0.126162
0.762051 0.530373 0.189151
0.832197 0.532555 0.228824
0.874708 0.535271 0.254276
0.8934 0.534066 0.271809
0.892668 0.513344 0.273533
0.885786 0.492485 0.269276
0.878294 0.472572 0.264988
0.870497 0.455451 0.260212
0.866224 0.442222 0.258885
0.862379 0.432029 0.257374
0.858595 0.422644 0.255787
0.855436 0.415229 0.254353
0.8533 0.410056 0.253712
0.851057 0.405463 0.252613
0.849805 0.402853 0.252064
0.84863 0.400336 0.251621
0.84712 0.397589 0.250874
0.845655 0.3953 0.250019
0.843839 0.392676 0.248753
0.0893416 0.629084 0.16643
0.0892805 0.62884 0.160952
0.0890364 0.628077 0.154345
0.089601 0.627054 0.144747
0.0912947 0.626795 0.132937
0.0957351 0.626993 0.120989
0.0957961 0.625681 0.119661
0.0941176 0.623056 0.118273
0.123827 0.624842 0.110811
0.188235 0.62594 0.10515
0.291295 0.619989 0.101564
0.428199 0.601801 0.102251
0.55314 0.594385 0.111131
0.658381 0.59968 0.144121
0.74464 0.615473 0.170031
0.814282 0.633402 0.216648
0.86891 0.64567 0.259892
0.894148 0.658793 0.282292
0.90135 0.650813 0.287083
0.902815 0.638498 0.286213
0.903792 0.627222 0.285405
0.904128 0.617716 0.28452
0.904204 0.611139 0.283864
0.904265 0.604623 0.283314
0.903838 0.598978 0.28246
0.9037 0.594644 0.282032
0.903502 0.591043 0.281636
0.903273 0.588617 0.281285
0.902922 0.586633 0.280842
0.902953 0.584665 0.280797
0.902678 0.582864 0.280476
0.902205 0.581353 0.279973
0.901396 0.579767 0.279118
0.145846 0.71458 0.229587
0.146593 0.714168 0.224842
0.147539 0.713283 0.21854
0.149813 0.71281 0.211276
0.153079 0.712016 0.201511
0.15993 0.712062 0.190524
0.167437 0.712993 0.183398
0.165743 0.71107 0.181842
0.166766 0.709407 0.178561
0.210025 0.714977 0.162753
0.283299 0.716197 0.151934
0.40647 0.704158 0.143801
0.535088 0.684398 0.146807
0.643381 0.681163 0.162737
0.737591 0.689204 0.201801
0.81532 0.70518 0.240055
0.862089 0.725887 0.277409
0.885054 0.746883 0.305043
0.890776 0.750469 0.311299
0.89073 0.743404 0.308217
0.890715 0.737621 0.30576
0.890837 0.732006 0.303532
0.890959 0.727245 0.301717
0.891127 0.723491 0.300359
0.891279 0.720256 0.299229
0.891203 0.717632 0.298177
0.891279 0.71603 0.297627
0.891417 0.714275 0.297124
0.8916 0.712718 0.296757
0.891539 0.711391 0.296376
0.891417 0.710185 0.29604
0.891249 0.709545 0.295903
0.891218 0.708827 0.29575
0.216541 0.790555 0.299901
0.218006 0.790158 0.296376
0.22031 0.790112 0.292683
0.223636 0.789487 0.28629
0.229404 0.789227 0.278157
0.236942 0.78912 0.269139
0.250721 0.791821 0.260227
0.252827 0.791455 0.257221
0.250202 0.789364 0.255146
0.260456 0.789761 0.245518
0.318181 0.79707 0.222156
0.402411 0.794202 0.205264
0.526604 0.775036 0.195911
0.64155 0.763333 0.210407
0.734173 0.767697 0.237125
0.816434 0.780163 0.281315
0.880186 0.795254 0.323857
0.911009 0.815152 0.356588
0.925658 0.823911 0.372976
0.922042 0.816785 0.366735
0.919921 0.812375 0.36286
0.917754 0.808438 0.359197
0.916014 0.805005 0.35613
0.914534 0.802152 0.353521
0.913787 0.800565 0.352132
0.913298 0.799619 0.351293
0.912566 0.798093 0.34995
0.91191 0.796887 0.348867
0.911315 0.795712 0.347875
0.910826 0.79501 0.347265
0.910445 0.794553 0.346792
0.910185 0.7944 0.346426
0.909697 0.793545 0.345266
0.292561 0.857221 0.370672
0.293858 0.856779 0.367864
0.296147 0.856214 0.363455
0.299702 0.855879 0.358221
0.304631 0.855406 0.351308
0.312749 0.855604 0.342504
0.328359 0.859648 0.335073
0.341817 0.86363 0.330968
0.339513 0.861753 0.328878
0.337438 0.860502 0.327626
0.372808 0.864347 0.305272
0.441337 0.869322 0.28188
0.538018 0.857267 0.261326
0.6486 0.843 0.26508
0.749432 0.840406 0.294331
0.826062 0.853864 0.333349
0.891295 0.869169 0.377218
0.934401 0.884794 0.41059
0.957824 0.889433 0.427863
0.958221 0.883772 0.425223
0.956481 0.880613 0.422507
0.954849 0.877684 0.419959
0.953964 0.875776 0.418418
0.953094 0.874144 0.417029
0.95201 0.872404 0.415442
0.951202 0.870909 0.414176
0.950622 0.869734 0.413199
0.950103 0.868757 0.412375
0.949538 0.867796 0.411597
0.94934 0.867643 0.411521
0.948913 0.867063 0.411093
0.948455 0.866621 0.410986
0.947829 0.865873 0.410529
0.363943 0.914855 0.432914
0.363973 0.913451 0.42887
0.365148 0.912627 0.42472
0.367376 0.91252 0.420844
0.372534 0.912627 0.413718
0.380575 0.914229 0.407309
0.395666 0.919142 0.404379
0.412299 0.925963 0.405081
0.417151 0.927504 0.404761
0.417227 0.926146 0.402335
0.434546 0.929641 0.397162
0.499229 0.935653 0.370733
0.579324 0.926726 0.341588
0.677256 0.907912 0.328862
0.77351 0.904585 0.352163
0.858106 0.9149 0.391348
0.911543 0.929152 0.424979
0.948547 0.936156 0.448981
0.970993 0.939452 0.463371
0.980529 0.938811 0.468711
0.979309 0.935195 0.46595
0.978637 0.933654 0.464683
0.978058 0.932296 0.463584
0.977554 0.930861 0.462486
0.97731 0.929778 0.461738
0.976974 0.928756 0.460975
0.976638 0.92781 0.460258
0.976349 0.927062 0.459632
0.976226 0.926818 0.459388
0.975891 0.926314 0.458839
0.97557 0.925872 0.45832
0.975326 0.92546 0.457877
0.97499 0.92488 0.457359
0.398337 0.952514 0.500298
0.39498 0.950103 0.495811
0.393301 0.94873 0.492042
0.393469 0.948623 0.4907
0.393469 0.948608 0.490288
0.393774 0.94844 0.488701
0.394186 0.948058 0.485908
0.395224 0.947768 0.482689
0.39646 0.947448 0.479057
0.400076 0.948043 0.476295
0.407324 0.950301 0.4757
0.488533 0.970382 0.446921
0.594888 0.984817 0.421561
0.691936 0.968093 0.396796
0.783322 0.954833 0.401907
0.867857 0.952972 0.42858
0.921782 0.961883 0.453819
0.956985 0.969192 0.474495
0.982971 0.974014 0.492531
0.997635 0.975387 0.501198
0.996933 0.973144 0.499138
0.996689 0.972625 0.49865
0.996323 0.971862 0.497932
0.995895 0.971069 0.497169
0.995544 0.970352 0.496529
0.995224 0.969741 0.495949
0.99501 0.969421 0.495613
0.994751 0.969039 0.495186
0.994553 0.968658 0.494759
0.9944 0.968338 0.494285
0.994278 0.968048 0.493843
0.994156 0.967773 0.493263
0.994125 0.967636 0.492821
0.390417 0.958984 0.545541
0.387472 0.956481 0.542214
0.385977 0.955215 0.540185
0.38616 0.955215 0.539666
0.386419 0.9552 0.538781
0.38674 0.955093 0.537423
0.386984 0.955016 0.536324
0.387396 0.955001 0.53521
0.388388 0.955139 0.533303
0.389609 0.955932 0.533959
0.391775 0.95758 0.536049
0.399603 0.959121 0.5243
0.470878 0.97026 0.460426
0.623835 0.994827 0.430594
0.744396 0.975525 0.413535
0.835462 0.965606 0.429526
0.91078 0.971054 0.460609
0.954345 0.981308 0.48336
0.983612 0.987579 0.502159
1 0.99118 0.517861
1 0.991867 0.522942
1 0.991318 0.520958
1 0.991119 0.520882
1 0.990921 0.520745
1 0.990768 0.520577
1 0.990707 0.5205
1 0.990646 0.520409
1 0.990509 0.52015
1 0.990402 0.519921
1 0.990311 0.5196
1 0.990219 0.519219
1 0.990234 0.518807
1 0.990158 0.518196
0.389776 0.95874 0.546258
0.387121 0.956481 0.54316
0.385763 0.955352 0.54139
0.385992 0.955352 0.540825
0.386191 0.955322 0.540017
0.386496 0.9552 0.538613
0.386862 0.955077 0.536965
0.387076 0.954955 0.53579
0.387945 0.95494 0.533455
0.389212 0.955627 0.533562
0.391501 0.957366 0.53579
0.39617 0.959472 0.533425
0.423194 0.957275 0.478706
0.552254 0.988708 0.442191
0.677699 0.989227 0.420539
0.789349 0.969207 0.418173
0.874846 0.966384 0.444175
0.936584 0.976913 0.473411
0.972976 0.985824 0.495277
0.995514 0.990417 0.511284
1 0.992142 0.520806
1 0.992584 0.523308
1 0.992599 0.523369
1 0.992599 0.5234
1 0.992599 0.523415
1 0.992615 0.523445
1 0.992599 0.523461
1 0.992599 0.52343
1 0.992615 0.523384
1 0.992615 0.523217
1 0.99263 0.523018
1 0.992645 0.522713
1 0.992676 0.522347
0.389639 0.958862 0.547463
0.387076 0.95668 0.54432
0.385687 0.95555 0.542626
0.385824 0.955505 0.542031
0.386023 0.955444 0.541085
0.386282 0.955306 0.539757
0.386664 0.955139 0.53782
0.386999 0.955001 0.536263
0.387472 0.954833 0.534112
0.388495 0.955108 0.53286
0.390341 0.956466 0.534646
0.39411 0.959442 0.538354
0.410086 0.957427 0.498527
0.521614 0.982086 0.446845
0.647379 0.993362 0.426108
0.766583 0.97203 0.414832
0.857252 0.965881 0.437369
0.92578 0.974212 0.468162
0.965438 0.984207 0.490669
0.990723 0.98938 0.507866
1 0.991852 0.519478
1 0.992447 0.522698
1 0.992554 0.523323
1 0.992554 0.523323
1 0.992554 0.523308
1 0.992569 0.523308
1 0.992569 0.523293
1 0.992569 0.523293
1 0.992569 0.523278
1 0.992508 0.523247
1 0.992401 0.523186
1 0.992248 0.522942
1 0.992157 0.522652
0.390951 0.960067 0.549142
0.387808 0.957443 0.5458
0.385931 0.955825 0.543343
0.385733 0.955566 0.542596
0.385763 0.955383 0.541619
0.386007 0.955261 0.540291
0.386389 0.955108 0.538476
0.386847 0.95494 0.536431
0.387198 0.954772 0.534691
0.387839 0.954528 0.531792
0.388235 0.954833 0.532311
0.3906 0.956603 0.534615
0.401129 0.957 0.512993
0.489021 0.972763 0.451026
0.624277 0.994171 0.429587
0.744625 0.974945 0.413046
0.841291 0.965164 0.431205
0.914565 0.971023 0.462074
0.959701 0.98204 0.486702
0.986664 0.987854 0.50457
1 0.990921 0.517922
1 0.991775 0.522454
1 0.99202 0.523857
1 0.99202 0.523857
1 0.99202 0.523842
1 0.992035 0.523842
1 0.992035 0.523842
1 0.992081 0.523796
1 0.992203 0.523705
1 0.992386 0.523507
1 0.992447 0.523323
1 0.992416 0.523018
1 0.992264 0.522759
0.392798 0.961791 0.55169
0.389334 0.958816 0.547936
0.386755 0.956588 0.544762
0.385946 0.955856 0.54342
0.385641 0.955459 0.542321
0.385916 0.955352 0.541024
0.386221 0.955169 0.539269
0.386694 0.954986 0.537011
0.38703 0.954849 0.5355
0.387732 0.954513 0.532036
0.387961 0.954635 0.531975
0.389654 0.955901 0.53373
0.397223 0.958022 0.525048
0.456901 0.963119 0.456962
0.602396 0.994018 0.433478
0.721675 0.979553 0.413931
0.823102 0.96614 0.425803
0.901595 0.968933 0.455924
0.95198 0.980087 0.481895
0.98172 0.986969 0.501122
1 0.990295 0.514794
1 0.991623 0.521859
1 0.991989 0.523842
1 0.99202 0.524025
1 0.99202 0.524041
1 0.99202 0.524041
1 0.99202 0.524041
1 0.992065 0.523995
1 0.992187 0.523919
1 0.992309 0.523766
1 0.992325 0.523629
1 0.992233 0.523354
1 0.992142 0.523033
0.394354 0.963317 0.553964
0.390845 0.96025 0.55024
0.387472 0.957366 0.54641
0.386191 0.956176 0.54435
0.385534 0.95555 0.543008
0.385748 0.955444 0.541924
0.386084 0.955261 0.540093
0.386557 0.955047 0.537713
0.386938 0.954879 0.535866
0.387625 0.954574 0.532586
0.387854 0.954528 0.531792
0.388891 0.955337 0.532967
0.393454 0.958144 0.534264
0.432319 0.955962 0.463691
0.583291 0.992279 0.436027
0.701839 0.98381 0.416159
0.807477 0.967147 0.421576
0.889433 0.967605 0.450553
0.944778 0.978775 0.477943
0.976791 0.986145 0.497795
0.996704 0.990021 0.512261
1 0.991516 0.521202
1 0.991928 0.523491
1 0.99202 0.52401
1 0.99202 0.524025
1 0.99202 0.524025
1 0.99202 0.524041
1 0.992065 0.523995
1 0.992187 0.523919
1 0.99237 0.523735
1 0.992493 0.523507
1 0.992523 0.523156
1 0.992432 0.522835
0.394903 0.963882 0.555001
0.391302 0.960693 0.551003
0.38764 0.957595 0.546975
0.386206 0.956268 0.544778
0.385473 0.955581 0.54342
0.385672 0.955489 0.542382
0.385977 0.955322 0.540642
0.386435 0.955093 0.538231
0.386908 0.95491 0.53608
0.387503 0.954635 0.533181
0.387854 0.954528 0.531807
0.388647 0.955139 0.532723
0.391546 0.957351 0.535561
0.415869 0.952773 0.473594
0.564752 0.988418 0.436377
0.685832 0.986191 0.417472
0.79498 0.968109 0.418692
0.88014 0.966735 0.446433
0.938445 0.977523 0.474647
0.972168 0.985687 0.494987
0.993423 0.989792 0.509911
1 0.991775 0.520424
1 0.992096 0.522805
1 0.992172 0.523827
1 0.992111 0.523873
1 0.992065 0.523919
1 0.992035 0.523934
1 0.992081 0.523903
1 0.992187 0.523827
1 0.99237 0.523644
1 0.992493 0.523415
1 0.992584 0.523033
1 0.992584 0.522683
0.394919 0.963958 0.555428
0.391394 0.96083 0.551492
0.387854 0.957824 0.547555
0.386099 0.956268 0.545022
0.385428 0.955612 0.543664
0.385626 0.955535 0.542702
0.385916 0.955352 0.541024
0.386343 0.955123 0.538674
0.386862 0.954925 0.536263
0.387411 0.954665 0.533608
0.387869 0.954543 0.531823
0.388647 0.955139 0.532723
0.391135 0.957031 0.535149
0.409339 0.952972 0.483528
0.548226 0.984466 0.436912
0.672663 0.98703 0.417594
0.785153 0.969085 0.416693
0.872572 0.966049 0.443091
0.933623 0.976226 0.472053
0.968811 0.985046 0.492912
0.991241 0.989471 0.508354
1 0.991791 0.519402
1 0.992325 0.522255
1 0.992554 0.523522
1 0.992554 0.523522
1 0.992554 0.523537
1 0.992554 0.523537
1 0.992599 0.523491
1 0.992721 0.523415
1 0.992905 0.523217
1 0.993027 0.522988
1 0.993103 0.522622
1 0.993133 0.522286
0.394934 0.963989 0.555871
0.391882 0.961273 0.552483
0.388342 0.958282 0.548516
0.386557 0.95671 0.545953
0.385473 0.955703 0.54403
0.385611 0.955566 0.542931
0.385885 0.955398 0.541283
0.386282 0.955154 0.53901
0.386831 0.95494 0.536431
0.387335 0.954696 0.533928
0.387884 0.954559 0.531853
0.388693 0.955169 0.532769
0.390951 0.956878 0.534951
0.405325 0.953094 0.490211
0.537209 0.982025 0.438193
0.665171 0.98761 0.418097
0.778088 0.969757 0.415442
0.867063 0.965652 0.440818
0.930373 0.975372 0.47039
0.966659 0.984497 0.491554
0.98999 0.989136 0.507469
1 0.991623 0.518715
1 0.992279 0.522133
1 0.992538 0.523598
1 0.992538 0.523583
1 0.992538 0.523583
1 0.992538 0.523583
1 0.992599 0.523537
1 0.992721 0.523445
1 0.992889 0.523323
1 0.993011 0.523232
1 0.992966 0.52311
1 0.992752 0.522957
0.397894 0.966705 0.558862
0.393545 0.962844 0.554238
0.389807 0.959518 0.549783
0.387411 0.957412 0.546715
0.38584 0.955932 0.543999
0.385428 0.955383 0.542473
0.385657 0.955169 0.54081
0.386145 0.954955 0.53846
0.386679 0.954726 0.535866
