bundles/resolve-cinematic-luts/Phantom Luts/Komodo Phantom ARRI LUTs G2/Komodo Phantom ARRI LUTs G2/33x/WB Offset - Green Boost/Jamaica_Komodo_WBO_Legacy_G2_33x.cube
TITLE "Generated by Resolve"
LUT_3D_SIZE 9
0.0416266 0.0499428 0.0416266
0.0680095 0.0494545 0.0417182
0.204578 0.0448157 0.0463111
0.481834 0.0473487 0.0823224
0.645136 0.0772412 0.154299
0.653605 0.0787976 0.174456
0.661982 0.0843061 0.186557
0.650477 0.0702525 0.186435
0.650797 0.0704662 0.186679
0.0412909 0.0702983 0.0429999
0.0542611 0.0652018 0.0436561
0.180056 0.055787 0.0423133
0.458045 0.0461128 0.058381
0.621042 0.0713054 0.105196
0.636866 0.0757916 0.135836
0.644816 0.0771344 0.153567
0.64622 0.0774853 0.156649
0.64654 0.0776074 0.157092
0.0364691 0.219776 0.0540475
0.0354925 0.215274 0.044892
0.168215 0.20145 0.0500038
0.503059 0.176837 0.0920424
0.623545 0.08542 0.0973831
0.630121 0.0851759 0.111208
0.629511 0.0839094 0.111162
0.629297 0.0834363 0.111162
0.629114 0.0832074 0.110979
0.0746014 0.560281 0.131273
0.0733959 0.560327 0.1075
0.0943008 0.554498 0.0950027
0.478691 0.52607 0.0948501
0.834287 0.581247 0.219974
0.879026 0.563714 0.255619
0.877394 0.535119 0.254307
0.875975 0.522622 0.253681
0.873686 0.515282 0.252079
0.337499 0.889494 0.398444
0.347204 0.890181 0.385809
0.388861 0.909483 0.387366
0.512856 0.900984 0.31165
0.881407 0.913069 0.399084
0.972412 0.919448 0.452903
0.970047 0.912581 0.447791
0.968566 0.908782 0.444846
0.967117 0.906188 0.443
0.385657 0.949706 0.515999
0.381659 0.946715 0.510079
0.382925 0.946197 0.50428
0.403784 0.948791 0.478584
0.820996 0.962463 0.417258
1 0.991318 0.512016
1 0.992004 0.51426
1 0.992004 0.514244
1 0.991623 0.513649
0.391608 0.954833 0.52369
0.38114 0.9467 0.511696
0.382605 0.946273 0.505837
0.386725 0.948058 0.505684
0.754559 0.965637 0.402609
0.990127 0.988891 0.503197
1 0.991485 0.515038
1 0.991638 0.514946
1 0.992004 0.513787
0.39443 0.957427 0.527535
0.382315 0.947494 0.513176
0.382498 0.945983 0.505531
0.383154 0.945464 0.501595
0.730556 0.966003 0.398016
0.985351 0.986908 0.49955
1 0.990967 0.515496
1 0.991135 0.515358
1 0.992065 0.514244
0.396368 0.959182 0.529854
0.384604 0.949187 0.515984
0.384527 0.947463 0.507836
0.383154 0.94548 0.501625
0.731777 0.96408 0.39585
0.985473 0.986923 0.499535
1 0.990967 0.51548
1 0.991135 0.515358
1 0.99237 0.514366
0.0393072 0.050248 0.0593729
0.0690623 0.0501869 0.065095
0.21323 0.0502632 0.0746014
0.494911 0.0512856 0.115389
0.655528 0.0776226 0.182681
0.658076 0.0730602 0.20264
0.661692 0.0744793 0.210651
0.66273 0.0749371 0.212818
0.662928 0.0750439 0.212665
0.0432136 0.0634165 0.0562448
0.0458991 0.06009 0.0464027
0.182681 0.0466316 0.0452277
0.467247 0.0467842 0.0773022
0.643793 0.0769665 0.151064
0.652964 0.078645 0.172305
0.655299 0.0775158 0.182086
0.656992 0.0780041 0.186023
0.657252 0.0780346 0.186572
0.0365911 0.210681 0.0772259
0.0354772 0.207691 0.0555428
0.159106 0.195071 0.0491188
0.499382 0.158007 0.0876783
0.62388 0.0811017 0.102342
0.628214 0.0815595 0.110597
0.627512 0.080293 0.110231
0.627253 0.079881 0.110063
0.627131 0.0796826 0.10985
0.0706798 0.552941 0.1579
0.0695354 0.551156 0.130282
0.0779736 0.547265 0.0947127
0.473335 0.52105 0.0935378
0.835996 0.572106 0.220737
0.878584 0.5514 0.255055
0.875776 0.520943 0.253605
0.873472 0.507759 0.252583
0.87097 0.500328 0.251072
0.318791 0.883391 0.408286
0.327825 0.88304 0.394278
0.381384 0.902968 0.379538
0.496712 0.898619 0.310918
0.87834 0.910338 0.395773
0.971206 0.916564 0.450614
0.968612 0.908934 0.444968
0.967132 0.904753 0.44184
0.965805 0.902342 0.440208
0.385214 0.949889 0.517845
0.38114 0.946868 0.512154
0.382635 0.94641 0.506004
0.399313 0.94931 0.487541
0.816114 0.962295 0.415671
1 0.991272 0.51191
1 0.992004 0.51426
1 0.992004 0.514244
1 0.992004 0.513375
0.391073 0.95491 0.525277
0.380743 0.946853 0.513405
0.382361 0.946395 0.507012
0.386465 0.94789 0.50544
0.749249 0.966064 0.401892
0.989319 0.988663 0.502617
1 0.99147 0.515053
1 0.991638 0.514961
1 0.991989 0.513817
0.393896 0.957504 0.529198
0.381704 0.947478 0.514519
0.382116 0.94612 0.507057
0.383154 0.945464 0.501595
0.724605 0.966415 0.397375
0.98436 0.986801 0.498939
1 0.990967 0.515496
1 0.991135 0.515358
1 0.992401 0.514
0.395987 0.959396 0.531594
0.382116 0.947921 0.51548
0.384024 0.947494 0.509178
0.383154 0.945464 0.50161
0.726116 0.964874 0.395682
0.984512 0.986877 0.499001
1 0.990967 0.51548
1 0.991135 0.515373
1 0.99237 0.514382
0.0348363 0.0547341 0.158587
0.0733501 0.0505226 0.165881
0.222477 0.049424 0.195666
0.514992 0.0598001 0.212314
0.687831 0.0872816 0.265629
0.695216 0.0918746 0.279591
0.698375 0.0939651 0.285496
0.699092 0.0944381 0.286915
0.698878 0.0943008 0.285908
0.0269627 0.0609598 0.130968
0.0364691 0.0543832 0.146456
0.202258 0.0493629 0.174914
0.501228 0.0571908 0.186557
0.675776 0.0806897 0.241108
0.682811 0.0843214 0.255467
0.686641 0.0865644 0.262913
0.687648 0.0871901 0.264897
0.68748 0.0871138 0.264073
0.0436866 0.175677 0.152026
0.0427253 0.172213 0.143709
0.14107 0.175967 0.126436
0.488807 0.0966812 0.10013
0.627817 0.0749371 0.115877
0.644388 0.0782025 0.150698
0.648936 0.0784772 0.161959
0.649927 0.0783246 0.164981
0.650263 0.0783703 0.165606
0.0627146 0.521843 0.23595
0.0605325 0.521248 0.215152
0.0611429 0.518395 0.126009
0.453361 0.504646 0.0892805
0.840421 0.542672 0.222873
0.873503 0.505974 0.252872
0.864775 0.469581 0.249287
0.860243 0.454734 0.247547
0.85684 0.446845 0.245777
0.270008 0.866773 0.451072
0.273808 0.865522 0.435523
0.305058 0.866407 0.380255
0.438239 0.886091 0.308415
0.868345 0.900771 0.384558
0.967117 0.904753 0.441825
0.964172 0.89633 0.435554
0.962448 0.891554 0.432013
0.961074 0.889311 0.430549
0.382498 0.95169 0.532525
0.379858 0.947616 0.519051
0.381079 0.94696 0.512612
0.391867 0.950286 0.50518
0.800107 0.962646 0.411292
1 0.991135 0.511345
1 0.992004 0.514275
1 0.992004 0.51426
1 0.992065 0.513344
0.386877 0.957427 0.546654
0.37882 0.948074 0.524239
0.380713 0.946944 0.513863
0.38558 0.947311 0.50457
0.72845 0.968032 0.399878
0.98587 0.987778 0.500206
1 0.99147 0.515068
1 0.991638 0.514992
1 0.992035 0.513802
0.389013 0.959838 0.551583
0.378759 0.94847 0.526772
0.380591 0.946731 0.513588
0.383154 0.945464 0.501595
0.699901 0.968215 0.395758
0.980011 0.986221 0.496223
1 0.990967 0.51545
1 0.991135 0.515297
1 0.992401 0.51397
0.390585 0.962173 0.557473
0.37966 0.949691 0.53048
0.381598 0.94754 0.515053
0.383154 0.945464 0.501595
0.70277 0.966567 0.394049
0.979721 0.986145 0.49601
1 0.990967 0.515511
1 0.991135 0.515389
1 0.992493 0.514275
0.0376135 0.0552377 0.348135
0.0726177 0.0483711 0.350622
0.203586 0.0506752 0.382803
0.513115 0.0513008 0.459174
0.69424 0.0809796 0.43772
0.692027 0.0804456 0.448981
0.690654 0.079942 0.452811
0.689876 0.0794232 0.452979
0.689403 0.078584 0.450294
0.0247959 0.0714885 0.326421
0.0379339 0.0549325 0.339086
0.176013 0.0505531 0.368933
0.502281 0.0509041 0.445945
0.688396 0.0751965 0.421347
0.684825 0.0733501 0.430564
0.693278 0.0801709 0.437888
0.69276 0.0798199 0.437995
0.69247 0.0792706 0.435569
0.0300145 0.143648 0.288197
0.0293584 0.134279 0.286244
0.0644236 0.0790875 0.341939
0.457816 0.0512703 0.393103
0.706325 0.0889448 0.372992
0.706172 0.0888838 0.38204
0.705028 0.0877852 0.385031
0.704845 0.0876173 0.385565
0.705318 0.0879988 0.384054
0.0571908 0.439719 0.386923
0.0553292 0.436591 0.378866
0.0548867 0.42768 0.357565
0.383536 0.430991 0.327153
0.846967 0.376318 0.336217
0.827741 0.291173 0.288945
0.792828 0.251789 0.261463
0.7794 0.23682 0.251041
0.773907 0.231022 0.246677
0.21117 0.826001 0.5561
0.210071 0.825666 0.545312
0.207965 0.823682 0.510292
0.253239 0.826078 0.341207
0.822766 0.859525 0.335073
0.954299 0.867414 0.414267
0.94786 0.854444 0.403403
0.944808 0.848661 0.398459
0.943023 0.846418 0.396963
0.362127 0.952102 0.645029
0.362448 0.951812 0.637858
0.367697 0.954452 0.614542
0.384298 0.949111 0.515923
0.741817 0.966873 0.401175
0.997131 0.990341 0.507652
1 0.991653 0.514611
1 0.991577 0.514717
1 0.991608 0.513802
0.365988 0.955337 0.648356
0.362371 0.951782 0.637903
0.367453 0.954406 0.615839
0.381613 0.94757 0.514839
0.652094 0.977737 0.405035
0.971969 0.985382 0.491493
1 0.99147 0.515175
1 0.991638 0.515084
1 0.992035 0.513893
0.367926 0.956985 0.649592
0.362478 0.951843 0.637797
0.367391 0.954406 0.616053
0.380545 0.946731 0.513771
0.608682 0.976074 0.405982
0.962158 0.983398 0.48539
1 0.990936 0.515221
1 0.99115 0.515206
1 0.992401 0.513893
0.368872 0.957931 0.653422
0.36231 0.951797 0.64033
0.367224 0.954452 0.618738
0.380499 0.946746 0.513954
0.608896 0.97525 0.404776
0.962097 0.983368 0.485313
1 0.99089 0.515343
1 0.991135 0.515404
1 0.99237 0.514427
0.0419165 0.0556344 0.555032
0.0759289 0.04654 0.552956
0.193042 0.0530404 0.580743
0.461692 0.0671244 0.647944
0.676417 0.127794 0.647929
0.674067 0.130541 0.656703
0.673075 0.130999 0.659022
0.673045 0.131014 0.659144
0.673304 0.130694 0.656886
0.0152285 0.0701152 0.556466
0.0425116 0.0553445 0.551812
0.168704 0.0522316 0.571511
0.447044 0.0656748 0.643473
0.677226 0.126757 0.644282
0.675502 0.129656 0.652979
0.674723 0.130251 0.655207
0.674754 0.13019 0.65507
0.675196 0.129809 0.652827
0.0264897 0.122545 0.5505
0.0261387 0.115084 0.554131
0.0521553 0.0526131 0.542031
0.390417 0.0606699 0.623026
0.672801 0.118914 0.629801
0.678752 0.124147 0.636332
0.678553 0.12491 0.638361
0.678447 0.124681 0.637949
0.678523 0.124102 0.635843
0.0410773 0.382315 0.580362
0.0390173 0.376761 0.577844
0.0380713 0.352453 0.579995
0.262608 0.263523 0.637324
0.774792 0.228779 0.702586
0.74078 0.150469 0.606806
0.708186 0.118013 0.569543
0.699672 0.108751 0.557519
0.697169 0.105531 0.552331
0.16466 0.724788 0.679316
0.161807 0.7243 0.67335
0.156954 0.720958 0.665034
0.143557 0.712367 0.635996
0.686824 0.714412 0.622461
0.959808 0.717632 0.632395
0.957336 0.697597 0.616266
0.956497 0.689891 0.608698
0.954787 0.687465 0.604852
0.355306 0.931441 0.760067
0.354025 0.932204 0.755184
0.353643 0.934249 0.744381
0.353445 0.940139 0.707683
0.551431 0.99826 0.461799
0.993454 0.990356 0.508354
1 0.990997 0.515267
1 0.990845 0.514809
1 0.990875 0.513619
0.355016 0.932235 0.755825
0.353689 0.932906 0.750729
0.353704 0.935302 0.739467
0.353002 0.940612 0.700969
0.414816 0.949828 0.466712
0.936248 0.979156 0.470253
1 0.991363 0.513466
1 0.991653 0.514107
1 0.991913 0.513146
0.356863 0.934646 0.754147
0.353658 0.933227 0.749172
0.353582 0.935546 0.737636
0.352926 0.940734 0.699336
0.391867 0.945571 0.485298
0.91577 0.973754 0.458
1 0.990326 0.513603
1 0.990967 0.515007
1 0.991897 0.513985
0.357427 0.934783 0.75668
0.354086 0.932921 0.751766
0.353674 0.935149 0.740124
0.352956 0.940536 0.701244
0.3935 0.946212 0.485237
0.914015 0.973327 0.457008
1 0.9906 0.513497
1 0.991318 0.515068
1 0.992355 0.51426
0.0730297 0.0483406 0.587442
0.0999161 0.0471351 0.595804
0.197559 0.0568551 0.632197
0.425071 0.0744793 0.685847
0.657954 0.137163 0.689326
0.658976 0.13756 0.68957
0.658503 0.137758 0.689006
0.658518 0.137728 0.688975
0.658106 0.137774 0.687999
0.0436561 0.0586099 0.582406
0.0724041 0.0485084 0.587366
0.175586 0.0557259 0.625055
0.409293 0.0726482 0.683818
0.657282 0.136934 0.689281
0.658976 0.137575 0.689693
0.658488 0.137774 0.689158
0.658473 0.137774 0.688991
0.658091 0.137774 0.687984
0.0424964 0.117647 0.610758
0.041001 0.108217 0.606073
0.0731823 0.049073 0.588159
0.349722 0.0666056 0.672831
0.647684 0.133639 0.68835
0.659007 0.137652 0.690181
0.658839 0.137713 0.690074
0.658778 0.137728 0.689982
0.658717 0.137606 0.689006
0.0628061 0.283589 0.6701
0.0615244 0.275059 0.667735
0.0587472 0.246326 0.660502
0.159091 0.108812 0.660639
0.595193 0.130465 0.715679
0.659388 0.138262 0.690562
0.659312 0.138094 0.690517
0.659251 0.138018 0.690486
0.659236 0.137881 0.689723
0.153613 0.621744 0.743648
0.150835 0.620066 0.740337
0.145434 0.611307 0.736553
0.130312 0.579522 0.728145
0.579217 0.575418 0.840253
0.949203 0.586007 0.911406
0.946853 0.562615 0.902907
0.945739 0.554681 0.899565
0.943557 0.551858 0.895918
0.338842 0.880156 0.845899
0.336065 0.879438 0.841337
0.327504 0.872557 0.831647
0.301183 0.850599 0.802701
0.32726 0.878508 0.816159
0.907347 0.917784 0.867475
0.986542 0.921538 0.87483
0.985656 0.916106 0.869825
0.984176 0.914611 0.866331
0.357839 0.89662 0.856641
0.35494 0.898543 0.853788
0.355062 0.901442 0.847883
0.355245 0.909194 0.830137
0.361318 0.931167 0.78677
0.841978 0.998932 0.770336
1 0.994553 0.533242
1 0.990753 0.513756
1 0.990951 0.512871
0.357931 0.897093 0.855314
0.354955 0.898573 0.853681
0.35494 0.901625 0.84712
0.355276 0.909865 0.828489
0.358083 0.930556 0.777005
0.800702 0.998932 0.744244
1 0.997894 0.574472
1 0.990951 0.513893
1 0.991638 0.513039
0.359823 0.895796 0.856794
0.355032 0.897841 0.855497
0.354925 0.900771 0.848981
0.355261 0.909377 0.82974
0.358144 0.930755 0.776577
0.796307 0.998932 0.745388
1 0.998886 0.591073
1 0.990875 0.513756
1 0.991562 0.513451
0.0965438 0.0469215 0.594614
0.124529 0.0492714 0.605356
0.212573 0.0575113 0.636667
0.438117 0.0763867 0.687617
0.659007 0.13753 0.689464
0.659007 0.137545 0.689601
0.65893 0.137591 0.68957
0.658747 0.137697 0.689662
0.658305 0.137743 0.688487
0.0680552 0.0492561 0.586343
0.0961776 0.0469673 0.594461
0.190814 0.0565499 0.630076
0.422202 0.0741741 0.685573
0.658381 0.137301 0.689296
0.659007 0.137545 0.689601
0.65893 0.137591 0.68954
0.658534 0.137728 0.689052
0.658137 0.137758 0.688014
0.0415045 0.109865 0.60705
0.0367285 0.0869612 0.594385
0.0969406 0.0472877 0.595087
0.362036 0.0678416 0.675547
0.653208 0.135515 0.688594
0.659007 0.137621 0.690028
0.659007 0.137621 0.690028
0.658839 0.137682 0.68983
0.658732 0.137591 0.689006
0.058381 0.239704 0.658854
0.0566873 0.231174 0.655482
0.0533455 0.204685 0.646387
0.14081 0.0644083 0.624399
0.572564 0.107485 0.691371
0.659129 0.137789 0.690044
0.659037 0.137652 0.690044
0.659022 0.137621 0.690028
0.659022 0.13753 0.689448
0.152193 0.587198 0.754681
0.14995 0.585199 0.752331
0.145754 0.575784 0.749813
0.132265 0.543236 0.741604
0.532799 0.502098 0.861906
0.921935 0.519417 0.941833
0.918318 0.492927 0.939727
0.915969 0.483284 0.937804
0.912902 0.48011 0.934661
0.304677 0.82005 0.859022
0.300786 0.816938 0.855116
0.290929 0.803784 0.848081
0.245167 0.740673 0.814084
0.25359 0.742748 0.829374
0.845609 0.846616 0.943771
0.976699 0.86363 0.974502
0.976867 0.856764 0.97348
0.975433 0.854887 0.971725
0.347967 0.872374 0.889372
0.346929 0.873365 0.887495
0.346853 0.873426 0.887358
0.347311 0.873625 0.887449
0.360113 0.893812 0.878172
0.559442 0.988418 0.953536
0.981552 0.982651 0.972091
0.994751 0.983444 0.973434
0.994308 0.982864 0.971893
0.352651 0.871168 0.88806
0.346929 0.87335 0.887495
0.346853 0.873426 0.887358
0.347814 0.874067 0.887266
0.357946 0.894697 0.869215
0.430838 0.956283 0.906554
0.973053 0.990631 0.950896
1 0.989075 0.941039
1 0.990066 0.921187
0.35552 0.870893 0.885817
0.346944 0.87335 0.88751
0.346853 0.873426 0.887358
0.347402 0.873762 0.887343
0.3579 0.895415 0.867628
0.433555 0.959381 0.908156
0.967895 0.99144 0.947692
0.998154 0.990051 0.93991
0.998642 0.991531 0.912474
0.105425 0.0472877 0.597772
0.132433 0.050309 0.608545
0.21799 0.057847 0.638361
0.442405 0.0769055 0.687984
0.659007 0.13753 0.689479
0.659007 0.137545 0.689601
0.659007 0.137545 0.689601
0.658946 0.137591 0.689616
0.658366 0.137713 0.688441
0.0778821 0.0478065 0.588952
0.104707 0.0472419 0.597452
0.196017 0.0568093 0.631739
0.426169 0.0746471 0.686
0.658808 0.137438 0.689342
0.659007 0.137545 0.689601
0.659007 0.137545 0.689601
0.6589 0.137591 0.689448
0.658351 0.137713 0.688472
0.0401923 0.103227 0.60354
0.0350652 0.0797894 0.58999
0.105486 0.0475166 0.597971
0.366415 0.068101 0.676265
0.654841 0.135988 0.688579
0.659007 0.137621 0.689998
0.659007 0.137621 0.690013
0.659007 0.137606 0.689952
0.658763 0.137591 0.689021
0.0564279 0.224338 0.653803
0.0545968 0.216556 0.650339
0.0514229 0.190066 0.640986
0.133043 0.0535744 0.612055
0.573068 0.106432 0.689387
0.659007 0.137606 0.689921
0.659007 0.137652 0.690196
0.659007 0.137652 0.69015
0.659022 0.13753 0.689448
0.149645 0.581353 0.753216
0.14725 0.578759 0.750851
0.142901 0.568887 0.748211
0.128328 0.533028 0.739132
0.526375 0.485512 0.859007
0.917342 0.501945 0.937942
0.912505 0.474296 0.934859
0.910109 0.46392 0.932784
0.9075 0.459861 0.930205
0.297948 0.8112 0.8542
0.293797 0.807309 0.850294
0.27306 0.781292 0.834592
0.236759 0.727687 0.809094
0.245838 0.730938 0.824094
0.830549 0.82359 0.94284
0.970184 0.841398 0.975357
0.971862 0.832456 0.976852
0.968368 0.83035 0.974121
0.347799 0.872541 0.889082
0.346929 0.873365 0.887495
0.346853 0.873426 0.887358
0.347021 0.873274 0.887663
0.352224 0.878935 0.892058
0.447059 0.92314 0.955032
0.968948 0.96936 0.986328
0.997391 0.972122 0.995285
0.996139 0.971389 0.994186
0.352392 0.871458 0.887465
0.346929 0.87335 0.887495
0.346853 0.873426 0.887358
0.347097 0.873198 0.887816
0.349935 0.875608 0.890471
0.38999 0.914412 0.917449
0.913283 0.991562 0.990051
0.996078 0.989288 0.99501
0.995041 0.989715 0.994247
0.352468 0.871229 0.888045
0.346929 0.87335 0.887495
0.346853 0.873426 0.887358
0.347005 0.873274 0.887648
0.349813 0.875486 0.890318
0.391135 0.915709 0.916182
0.907271 0.992111 0.988464
0.995056 0.9897 0.992615
0.996902 0.988922 0.994522
0.107454 0.047364 0.598505
0.134874 0.0507057 0.609583
0.219471 0.057908 0.638788
0.443275 0.0770123 0.688029
0.659022 0.13753 0.689479
0.659007 0.137545 0.689601
0.659007 0.137545 0.689601
0.659007 0.13756 0.689708
0.659022 0.137484 0.68925
0.0805219 0.0475624 0.589731
0.107591 0.047425 0.59855
0.197436 0.0568551 0.632181
0.427115 0.0747692 0.686122
0.65893 0.137484 0.689357
0.659007 0.137545 0.689601
0.659007 0.137545 0.689601
0.659007 0.137545 0.68954
0.659022 0.137438 0.688945
0.0398413 0.101198 0.602487
0.0345006 0.0775464 0.58854
0.10837 0.047715 0.599054
0.367514 0.0682231 0.676524
0.655146 0.13611 0.68864
0.659007 0.137621 0.689998
0.659007 0.137621 0.690013
0.659007 0.137606 0.689952
0.659022 0.137484 0.68925
0.0558938 0.219898 0.652323
0.0541695 0.211704 0.648829
0.0507057 0.185122 0.639078
0.133715 0.0523995 0.61091
0.573693 0.10663 0.689342
0.659007 0.137606 0.689921
0.659007 0.137652 0.690196
0.659007 0.137636 0.690166
0.659022 0.13753 0.689448
0.148562 0.578973 0.75256
0.146212 0.576364 0.75024
0.141924 0.56643 0.747677
0.127184 0.529686 0.738445
0.525597 0.480003 0.858412
0.915831 0.495308 0.936812
0.911208 0.468101 0.933639
0.908537 0.45803 0.931655
0.905715 0.452811 0.928801
0.29546 0.807874 0.85243
0.291249 0.803998 0.848432
0.265614 0.771756 0.829068
0.234577 0.724254 0.807858
0.243244 0.726986 0.822431
0.828519 0.818586 0.941833
0.969329 0.836881 0.974777
0.969406 0.827848 0.97496
0.967514 0.824552 0.973526
0.347723 0.872602 0.88896
0.346929 0.873365 0.887495
0.346853 0.873426 0.887358
0.346853 0.873426 0.887358
0.35201 0.879149 0.891676
0.482277 0.924269 0.958846
0.966125 0.965621 0.984894
0.993927 0.969802 0.993988
0.993194 0.968582 0.993378
0.347845 0.872496 0.889174
0.346929 0.87335 0.887495
0.346853 0.873426 0.887358
0.346853 0.873426 0.887358
0.349279 0.876143 0.889387
0.385336 0.913161 0.919493
0.860639 0.986618 0.991638
0.99501 0.989639 0.994766
0.995224 0.989639 0.994797
0.347524 0.872786 0.888579
0.346929 0.87335 0.887495
0.346853 0.873426 0.887358
0.346853 0.873426 0.887358
0.349157 0.87602 0.889235
0.385489 0.913314 0.919615
0.778134 0.990188 0.993637
0.991348 0.990433 0.993042
0.995178 0.98967 0.994751
