bundles/resolve-cinematic-luts/Phantom Luts/Komodo Phantom ARRI LUTs G2/Komodo Phantom ARRI LUTs G2/33x/WB Offset - Green Boost/Jamaica_Komodo_WBO_G2_33x.cube
TITLE "Generated by Resolve"
LUT_3D_SIZE 5
0.0197757 0.0358129 0.0197604
0.257176 0.0287175 0.0285191
0.64506 0.0666361 0.181857
0.658061 0.0684215 0.218494
0.659602 0.0686961 0.22359
0.0127413 0.277852 0.0399329
0.211093 0.251148 0.0299382
0.620783 0.0731365 0.0994888
0.628077 0.0717174 0.122469
0.627619 0.0712139 0.122835
0.363943 0.914855 0.432914
0.417151 0.927504 0.404761
0.911543 0.929152 0.424979
0.97731 0.929778 0.461738
0.97499 0.92488 0.457359
0.394903 0.963882 0.555001
0.386908 0.95491 0.53608
0.79498 0.968109 0.418692
1 0.992111 0.523873
1 0.992584 0.522683
0.399558 0.968261 0.561379
0.388647 0.956283 0.538109
0.77467 0.967193 0.411704
1 0.991485 0.524392
1 0.99295 0.523232
0.00872816 0.0422675 0.199084
0.277653 0.0350958 0.248005
0.68719 0.078706 0.311009
0.700374 0.0888075 0.334905
0.701289 0.0894789 0.335637
0.0213474 0.221118 0.191119
0.175555 0.220111 0.158114
0.626642 0.0649882 0.135103
0.648692 0.0674144 0.190951
0.650187 0.0675212 0.195407
0.29868 0.897307 0.512291
0.334936 0.896437 0.421744
0.901335 0.919676 0.413901
0.972503 0.917403 0.452003
0.970123 0.912123 0.4477
0.390356 0.9664 0.58265
0.385183 0.955917 0.545922
0.770138 0.970596 0.414145
1 0.99202 0.523964
1 0.992599 0.522698
0.393469 0.970565 0.594003
0.386114 0.956832 0.547707
0.747021 0.970336 0.408087
1 0.991485 0.524453
1 0.993072 0.52314
0.0317082 0.0456397 0.565698
0.232532 0.0429389 0.618112
0.672023 0.125109 0.661738
0.669627 0.128283 0.670085
0.668696 0.128328 0.667262
0.0111086 0.153292 0.588006
0.0482338 0.0413519 0.56463
0.666667 0.117327 0.644404
0.672267 0.121431 0.653178
0.671412 0.120653 0.650217
0.207538 0.759258 0.725185
0.200168 0.756893 0.713283
0.74258 0.7673 0.682963
0.963455 0.751019 0.677089
0.961517 0.741665 0.665888
0.354864 0.924269 0.787732
0.353719 0.928801 0.773648
0.424231 0.95903 0.482628
1 0.991958 0.521569
1 0.992569 0.521737
0.357687 0.925628 0.78703
0.353582 0.928573 0.774243
0.399405 0.955291 0.509789
1 0.991226 0.520821
1 0.992935 0.522972
0.114473 0.0377813 0.596948
0.25008 0.0491646 0.647379
0.663767 0.135439 0.695781
0.663615 0.135531 0.695811
0.661875 0.136095 0.693889
0.0335241 0.131792 0.60853
0.113756 0.0377813 0.596674
0.659022 0.13434 0.694606
0.663905 0.135485 0.696406
0.663142 0.135637 0.695033
0.18471 0.641199 0.777707
0.178622 0.63093 0.773022
0.599237 0.568551 0.891661
0.938354 0.557473 0.958297
0.93402 0.54461 0.954376
0.340551 0.878584 0.894194
0.339452 0.879606 0.892531
0.354162 0.894377 0.887434
0.982666 0.982651 0.97499
0.995041 0.98291 0.975799
0.349523 0.876722 0.890349
0.339452 0.879606 0.892531
0.352743 0.89514 0.879698
0.971466 0.989502 0.957519
1 0.992721 0.933928
0.127565 0.0379187 0.601877
0.257694 0.0497444 0.649454
0.663767 0.135439 0.695796
0.663798 0.135454 0.695918
0.663706 0.135424 0.695583
0.0307927 0.119677 0.602182
0.128145 0.0379644 0.602136
0.660594 0.134722 0.694942
0.663905 0.135485 0.696391
0.663706 0.135424 0.695552
0.180941 0.633631 0.775341
0.17438 0.622156 0.770336
0.59266 0.547295 0.889769
0.934096 0.532631 0.955077
0.930541 0.517601 0.952407
0.340291 0.878828 0.893828
0.339452 0.879606 0.892531
0.343526 0.884001 0.895979
0.969604 0.968307 0.984344
0.991745 0.97084 0.991775
0.340291 0.878828 0.893828
0.339452 0.879606 0.892531
0.341314 0.88159 0.894026
0.82063 0.985946 0.98909
1 0.994186 1
