bundles/resolve-cinematic-luts/Phantom Luts/Komodo Phantom ARRI LUTs G2/Komodo Phantom ARRI LUTs G2/33x/WB Offset - Green Boost/Jamaica_Komodo_WBO_G2_33x.cube
TITLE "Generated by Resolve"
LUT_3D_SIZE 9
0.0197757 0.0358129 0.0197604
0.069688 0.0354772 0.0197604
0.257176 0.0287175 0.0285191
0.539086 0.0337835 0.0969863
0.64506 0.0666361 0.181857
0.653681 0.0677348 0.205982
0.658061 0.0684215 0.218494
0.659602 0.0686503 0.22327
0.659602 0.0686961 0.22359
0.0191806 0.0724193 0.0222019
0.0420996 0.0624857 0.022385
0.227176 0.0443275 0.0205844
0.515694 0.0322881 0.0585946
0.619135 0.0621805 0.12163
0.636454 0.065568 0.159701
0.644663 0.0665599 0.180911
0.646128 0.0668345 0.184604
0.646403 0.0668956 0.185351
0.0127413 0.277852 0.0399329
0.0112306 0.272587 0.0247044
0.211093 0.251148 0.0299382
0.574731 0.219562 0.107347
0.620783 0.0731365 0.0994888
0.628702 0.0726024 0.121447
0.628077 0.0717174 0.122469
0.627878 0.071397 0.122866
0.627619 0.0712139 0.122835
0.0893416 0.629084 0.16643
0.0912947 0.626795 0.132937
0.123827 0.624842 0.110811
0.55314 0.594385 0.111131
0.86891 0.64567 0.259892
0.903792 0.627222 0.285405
0.903838 0.598978 0.28246
0.902922 0.586633 0.280842
0.901396 0.579767 0.279118
0.363943 0.914855 0.432914
0.372534 0.912627 0.413718
0.417151 0.927504 0.404761
0.579324 0.926726 0.341588
0.911543 0.929152 0.424979
0.979309 0.935195 0.46595
0.97731 0.929778 0.461738
0.976226 0.926818 0.459388
0.97499 0.92488 0.457359
0.389639 0.958862 0.547463
0.386023 0.955444 0.541085
0.387472 0.954833 0.534112
0.410086 0.957427 0.498527
0.857252 0.965881 0.437369
1 0.991852 0.519478
1 0.992554 0.523308
1 0.992569 0.523278
1 0.992157 0.522652
0.394903 0.963882 0.555001
0.385473 0.955581 0.54342
0.386908 0.95491 0.53608
0.391546 0.957351 0.535561
0.79498 0.968109 0.418692
0.993423 0.989792 0.509911
1 0.992111 0.523873
1 0.992187 0.523827
1 0.992584 0.522683
0.398688 0.967453 0.560098
0.387106 0.956985 0.545602
0.386679 0.954726 0.535927
0.387732 0.954314 0.531228
0.773022 0.968826 0.413245
0.990387 0.987976 0.506935
1 0.991485 0.524468
1 0.991653 0.52433
1 0.99263 0.523201
0.399558 0.968261 0.561379
0.389044 0.958618 0.548012
0.388647 0.956283 0.538109
0.387793 0.95436 0.531319
0.77467 0.967193 0.411704
0.990494 0.988006 0.506874
1 0.991485 0.524392
1 0.991669 0.524269
1 0.99295 0.523232
0.0160067 0.0361944 0.0534524
0.0720531 0.0362402 0.0646982
0.270893 0.0356146 0.0833906
0.557229 0.0387274 0.144839
0.657099 0.0683146 0.216098
0.664515 0.0691844 0.241382
0.666911 0.0694133 0.250477
0.667506 0.0694896 0.25275
0.667399 0.0694896 0.252644
0.0222629 0.0590829 0.0470436
0.0274815 0.0526741 0.0280613
0.230381 0.0309911 0.0257877
0.527367 0.0325475 0.0894026
0.643549 0.0664378 0.177951
0.652705 0.067689 0.20322
0.656886 0.0683299 0.215488
0.658381 0.0685588 0.22002
0.658595 0.0686046 0.220706
0.0127413 0.265751 0.0854658
0.0110323 0.262928 0.043595
0.200183 0.243427 0.0290379
0.570886 0.19588 0.1019
0.621973 0.0704051 0.111269
0.626505 0.0700999 0.123293
0.625666 0.0691386 0.123507
0.625376 0.0688182 0.123507
0.625147 0.0686656 0.123384
0.0822156 0.624506 0.202792
0.0829328 0.621576 0.165988
0.0989548 0.616037 0.111055
0.547997 0.589853 0.109117
0.871092 0.637385 0.260563
0.904173 0.615045 0.28426
0.902998 0.585229 0.280842
0.901564 0.572305 0.279103
0.899321 0.564736 0.276905
0.344915 0.910948 0.450416
0.353902 0.908721 0.429694
0.410849 0.922576 0.398642
0.563073 0.925536 0.34081
0.909072 0.92694 0.422324
0.978317 0.933013 0.464134
0.976287 0.92697 0.459556
0.974945 0.923827 0.456977
0.973831 0.921843 0.455039
0.389258 0.959152 0.54992
0.385565 0.955734 0.543893
0.38706 0.954986 0.536004
0.404883 0.958267 0.510567
0.853101 0.965713 0.435752
1 0.991821 0.519326
1 0.992569 0.523308
1 0.992569 0.523262
1 0.992569 0.522347
0.394415 0.963989 0.557015
0.385199 0.955825 0.545419
0.386603 0.955032 0.53753
0.391104 0.957 0.535119
0.790036 0.96878 0.417853
0.992844 0.989593 0.509407
1 0.992065 0.523919
1 0.992187 0.523827
1 0.992554 0.522713
0.398093 0.967391 0.561822
0.386236 0.956786 0.547127
0.386267 0.954894 0.53782
0.387594 0.954208 0.53109
0.767407 0.969268 0.412192
0.989593 0.987762 0.506294
1 0.991485 0.524468
1 0.991653 0.52433
1 0.992981 0.522957
0.399237 0.96849 0.563333
0.386801 0.957305 0.548089
0.388174 0.95642 0.539971
0.38764 0.954253 0.531151
0.768734 0.967605 0.410513
0.989639 0.987808 0.506249
1 0.991485 0.524407
1 0.991669 0.524285
1 0.99295 0.523232
0.00872816 0.0422675 0.199084
0.0798047 0.0363775 0.209308
0.277653 0.0350958 0.248005
0.579843 0.0542 0.26627
0.68719 0.078706 0.311009
0.69633 0.0856336 0.327581
0.700374 0.0888075 0.334905
0.70135 0.089601 0.336568
0.701289 0.0894789 0.335637
0 0.0540627 0.164019
0.0110018 0.0417792 0.182971
0.253285 0.0350347 0.222354
0.566873 0.0488136 0.234333
0.673899 0.0698711 0.282628
0.680995 0.0742809 0.299168
0.685557 0.0775158 0.307897
0.686824 0.0784619 0.310094
0.686656 0.0783856 0.309407
0.0213474 0.221118 0.191119
0.0205234 0.216892 0.181216
0.175555 0.220111 0.158114
0.558007 0.115892 0.123033
0.626642 0.0649882 0.135103
0.644083 0.0673838 0.177111
0.648692 0.0674144 0.190951
0.649973 0.0674907 0.194766
0.650187 0.0675212 0.195407
0.0662547 0.596231 0.295659
0.0643473 0.595743 0.271244
0.0678569 0.591989 0.159533
0.529122 0.574502 0.102327
0.87602 0.609033 0.260945
0.901381 0.570443 0.27892
0.896147 0.534432 0.274891
0.893019 0.519402 0.273091
0.89015 0.511467 0.271153
0.29868 0.897307 0.512291
0.30161 0.895781 0.493324
0.334936 0.896437 0.421744
0.503426 0.918166 0.339239
0.901335 0.919676 0.413901
0.97496 0.923919 0.457069
0.972503 0.917403 0.452003
0.970993 0.913573 0.448966
0.970123 0.912123 0.4477
0.386465 0.960952 0.567544
0.38439 0.956664 0.552224
0.38555 0.95584 0.544427
0.397055 0.960143 0.534112
0.837964 0.965667 0.430488
1 0.991684 0.518563
1 0.992569 0.523262
1 0.992569 0.523232
1 0.99263 0.522271
0.390356 0.9664 0.58265
0.383444 0.957305 0.558618
0.385183 0.955917 0.545922
0.390326 0.95639 0.53434
0.770138 0.970596 0.414145
0.990356 0.988861 0.507332
1 0.99202 0.523964
1 0.992187 0.523857
1 0.992599 0.522698
0.393011 0.969268 0.588678
0.383566 0.957946 0.561685
0.384848 0.955734 0.545861
0.387579 0.954192 0.531075
0.744106 0.971908 0.409369
0.986084 0.987076 0.503777
1 0.991485 0.524422
1 0.991669 0.524285
1 0.992981 0.522927
0.393469 0.970565 0.594003
0.384146 0.959014 0.565576
0.386114 0.956832 0.547707
0.387579 0.954192 0.531075
0.747021 0.970336 0.408087
0.985916 0.987045 0.503639
1 0.991485 0.524453
1 0.991669 0.524315
1 0.993072 0.52314
0.0159762 0.0430915 0.414969
0.0805982 0.0339208 0.420294
0.252171 0.0365301 0.459419
0.556848 0.0436408 0.517662
0.675258 0.0730755 0.477028
0.673594 0.0738384 0.486946
0.672984 0.0740368 0.490425
0.672908 0.074052 0.490806
0.672999 0.0738384 0.488151
0 0.0738994 0.394049
0.0173342 0.0426642 0.406012
0.218509 0.0362707 0.444678
0.54934 0.0424201 0.507271
0.676783 0.0724346 0.465522
0.675563 0.0730907 0.474678
0.675166 0.0732586 0.477424
0.675151 0.0732738 0.477684
0.675196 0.0729839 0.47541
0 0.178576 0.355016
0 0.167117 0.35285
0.0621195 0.0862745 0.411902
0.517311 0.0413367 0.462593
0.699641 0.0854963 0.424536
0.696788 0.0838331 0.431891
0.694682 0.0823377 0.434501
0.694377 0.0821241 0.434836
0.695033 0.0825513 0.433631
0.0485237 0.51194 0.461143
0.0463569 0.509331 0.452781
0.04477 0.501198 0.430549
0.454215 0.503471 0.393179
0.897322 0.444495 0.401251
0.878111 0.340978 0.340597
0.838605 0.2934 0.308476
0.823224 0.275608 0.296941
0.816587 0.268513 0.29163
0.247776 0.854154 0.624689
0.247211 0.855253 0.614466
0.24593 0.857801 0.582452
0.293431 0.866499 0.395346
0.865003 0.888487 0.376776
0.963851 0.894652 0.43447
0.958526 0.884306 0.425711
0.955871 0.879728 0.421714
0.95407 0.87776 0.420356
0.369558 0.95697 0.689158
0.370382 0.957687 0.682078
0.374838 0.961822 0.658427
0.388556 0.958251 0.547723
0.782727 0.969497 0.416403
0.99884 0.990829 0.513832
1 0.992538 0.523293
1 0.992508 0.5234
1 0.992554 0.522499
0.37293 0.959899 0.691691
0.370428 0.957748 0.682155
0.374685 0.961761 0.659922
0.386069 0.956664 0.547127
0.695583 0.982254 0.413596
0.980377 0.986725 0.50016
1 0.99202 0.524071
1 0.992187 0.52398
1 0.992599 0.522774
0.37467 0.961471 0.692302
0.370672 0.957946 0.682109
0.374655 0.961776 0.660121
0.384802 0.955749 0.546105
0.652796 0.983719 0.413123
0.97351 0.984634 0.495171
1 0.99144 0.524117
1 0.991669 0.524224
1 0.992981 0.522881
0.374685 0.961379 0.69543
0.370214 0.957458 0.684245
0.374594 0.9617 0.662684
0.384756 0.955764 0.546334
0.65272 0.982559 0.411597
0.973312 0.984497 0.494957
1 0.991424 0.524086
1 0.991653 0.52433
1 0.99295 0.523293
0.0317082 0.0456397 0.565698
0.0864576 0.0330816 0.574594
0.232532 0.0429389 0.618112
0.49456 0.066743 0.661524
0.672023 0.125109 0.661738
0.670192 0.127901 0.668177
0.669627 0.128283 0.670085
0.669642 0.128283 0.670161
0.668696 0.128328 0.667262
0.00695811 0.0718853 0.568933
0.0326696 0.0451667 0.564996
0.204303 0.0418402 0.609506
0.482902 0.0641489 0.659922
0.672175 0.124086 0.658656
0.671107 0.127001 0.665339
0.670527 0.127642 0.666957
0.670588 0.127596 0.666911
0.670329 0.127413 0.664393
0.0111086 0.153292 0.588006
0.0108186 0.142855 0.587823
0.0482338 0.0413519 0.56463
0.436301 0.0555886 0.650477
0.666667 0.117327 0.644404
0.672236 0.120638 0.651606
0.672267 0.121431 0.653178
0.672084 0.121157 0.652796
0.671412 0.120653 0.650217
0.041886 0.448371 0.631006
0.039353 0.442741 0.628458
0.036408 0.417777 0.629862
0.320455 0.321355 0.700496
0.821836 0.279881 0.764462
0.755001 0.176349 0.654231
0.705577 0.128191 0.603616
0.691157 0.112718 0.58735
0.687022 0.107774 0.581231
0.207538 0.759258 0.725185
0.205341 0.759335 0.720394
0.200168 0.756893 0.713283
0.185397 0.751461 0.690044
0.74258 0.7673 0.682963
0.964034 0.7691 0.69189
0.963455 0.751019 0.677089
0.963256 0.743984 0.669886
0.961517 0.741665 0.665888
0.354971 0.923278 0.791318
0.352819 0.92488 0.787167
0.353292 0.927474 0.77789
0.356146 0.936156 0.746395
0.590738 0.998932 0.477913
0.996567 0.990921 0.519646
1 0.991516 0.524178
1 0.991379 0.523323
1 0.991409 0.521965
0.354864 0.924269 0.787732
0.35285 0.925765 0.783566
0.353719 0.928801 0.773648
0.356298 0.937469 0.740536
0.424231 0.95903 0.482628
0.953323 0.980819 0.482612
1 0.991958 0.521569
1 0.992279 0.522774
1 0.992569 0.521737
0.357275 0.925811 0.78529
0.352926 0.926162 0.782101
0.353796 0.929168 0.772137
0.356466 0.937819 0.739162
0.397498 0.954437 0.510048
0.937331 0.976135 0.473182
1 0.990982 0.521035
1 0.991592 0.523735
1 0.992447 0.522759
0.357687 0.925628 0.78703
0.353323 0.925566 0.784314
0.353582 0.928573 0.774243
0.356252 0.937346 0.740826
0.399405 0.955291 0.509789
0.936187 0.975677 0.472557
1 0.991226 0.520821
1 0.991943 0.523766
1 0.992935 0.522972
0.0813306 0.0373236 0.583001
0.118563 0.0377203 0.598413
0.233356 0.048127 0.642802
0.45658 0.0735027 0.681834
0.66302 0.135241 0.695598
0.663676 0.135485 0.695827
0.66244 0.135973 0.694759
0.662531 0.135912 0.694774
0.661387 0.136233 0.69308
0.0332494 0.0485237 0.568704
0.0803998 0.0373083 0.582559
0.208103 0.0465858 0.635264
0.442893 0.0708476 0.680781
0.66247 0.135134 0.695552
0.663752 0.135485 0.695979
0.662486 0.135973 0.694896
0.662364 0.136004 0.694713
0.661357 0.136248 0.693065
0.0357977 0.14342 0.614389
0.0327459 0.12932 0.607141
0.0808576 0.0379644 0.583383
0.38938 0.0626688 0.675532
0.654994 0.133532 0.694301
0.663935 0.1355 0.696529
0.663554 0.135653 0.696239
0.663447 0.135683 0.696071
0.663081 0.135668 0.694987
0.0712291 0.341543 0.688258
0.0691081 0.332158 0.685435
0.0636912 0.299855 0.676478
0.198062 0.132082 0.695033
0.625772 0.150195 0.727932
0.664851 0.137072 0.69749
0.664591 0.136645 0.697276
0.66453 0.136446 0.697215
0.664302 0.136309 0.69633
0.190219 0.670558 0.770779
0.187625 0.668849 0.767697
0.182605 0.661204 0.764111
0.166873 0.632502 0.755016
0.642924 0.638804 0.87303
0.955795 0.647456 0.932082
0.955322 0.625254 0.927199
0.95491 0.617761 0.925048
0.952621 0.615183 0.92166
0.338369 0.883436 0.863279
0.335897 0.883085 0.859525
0.329427 0.877913 0.851972
0.310414 0.860945 0.829068
0.355337 0.894316 0.850065
0.926314 0.932815 0.896406
0.98497 0.935134 0.903181
0.9841 0.930999 0.899245
0.982635 0.929976 0.896239
0.356313 0.894759 0.870939
0.350729 0.897368 0.869352
0.350805 0.899184 0.864683
0.351507 0.904677 0.850813
0.357473 0.922423 0.813962
0.872724 0.998932 0.808255
1 0.994553 0.555962
1 0.991302 0.521752
1 0.991516 0.520668
0.356939 0.895125 0.869566
0.35079 0.897368 0.869261
0.350744 0.899306 0.864088
0.351598 0.90515 0.84947
0.355093 0.922179 0.805798
0.837324 0.998932 0.783444
1 0.996597 0.615442
1 0.991531 0.521813
1 0.992203 0.520912
0.361669 0.893172 0.869657
0.35079 0.896819 0.870756
0.350622 0.898726 0.865461
0.351507 0.904799 0.850462
0.355154 0.922347 0.805432
0.833463 0.998932 0.784863
1 0.996963 0.635416
1 0.99147 0.521645
1 0.992111 0.521477
0.114473 0.0377813 0.596948
0.146258 0.0383764 0.608713
0.25008 0.0491646 0.647379
0.467842 0.0757916 0.682521
0.663767 0.135439 0.695781
0.663798 0.135454 0.695918
0.663615 0.135531 0.695811
0.663264 0.135714 0.695766
0.661875 0.136095 0.693889
0.0736553 0.0372168 0.579446
0.113939 0.0377508 0.596719
0.225467 0.0475929 0.640482
0.454383 0.0730755 0.681697
0.663294 0.135317 0.695613
0.663798 0.135454 0.695933
0.663584 0.135531 0.695766
0.662623 0.135897 0.69485
0.661479 0.136202 0.693172
0.0335241 0.131792 0.60853
0.0250401 0.0972 0.589746
0.113756 0.0377813 0.596674
0.400793 0.0642405 0.676921
0.659022 0.13434 0.694606
0.663905 0.135485 0.696391
0.663905 0.135485 0.696406
0.663508 0.135637 0.69601
0.663142 0.135637 0.695033
0.0627604 0.292012 0.674449
0.0602121 0.282063 0.670665
0.0542763 0.250507 0.659541
0.168658 0.05832 0.635584
0.589593 0.112764 0.689616
0.664164 0.135943 0.696574
0.663996 0.135607 0.696544
0.663935 0.1355 0.696468
0.663767 0.135439 0.69575
0.18471 0.641199 0.777707
0.182757 0.639567 0.775555
0.178622 0.63093 0.773022
0.164034 0.600763 0.763653
0.599237 0.568551 0.891661
0.938918 0.58349 0.957366
0.938354 0.557473 0.958297
0.936996 0.548058 0.957473
0.93402 0.54461 0.954376
0.310094 0.840482 0.871763
0.307271 0.838392 0.868849
0.300694 0.828641 0.863523
0.266117 0.777188 0.834775
0.271946 0.780438 0.847181
0.879744 0.879759 0.950378
0.976989 0.892027 0.974578
0.977157 0.886717 0.973754
0.975784 0.885252 0.972168
0.340551 0.878584 0.894194
0.339529 0.87953 0.892638
0.339452 0.879606 0.892531
0.340032 0.879728 0.892714
0.354162 0.894377 0.887434
0.605829 0.98732 0.964248
0.982666 0.982651 0.97499
0.99588 0.983383 0.977127
0.995041 0.98291 0.975799
0.348837 0.876371 0.892103
0.339529 0.87953 0.892638
0.339452 0.879606 0.892531
0.34081 0.880034 0.892699
0.352697 0.894606 0.880964
0.439658 0.958251 0.924071
0.975586 0.988998 0.96025
1 0.991562 0.955581
1 0.991608 0.940963
0.349523 0.876722 0.890349
0.339544 0.879515 0.892668
0.339452 0.879606 0.892531
0.3402 0.87982 0.892683
0.352743 0.89514 0.879698
0.442374 0.961349 0.925917
0.971466 0.989502 0.957519
1 0.992523 0.954284
1 0.992721 0.933928
0.125139 0.0378576 0.600946
0.155718 0.0386358 0.612009
0.256062 0.0496223 0.649012
0.471839 0.0766308 0.682704
0.663767 0.135439 0.695796
0.663798 0.135454 0.695918
0.663798 0.135454 0.695918
0.663676 0.135515 0.695903
0.663584 0.135424 0.695384
0.0878462 0.0373388 0.585794
0.124254 0.0378424 0.60061
0.231556 0.0480201 0.642298
0.457465 0.0736095 0.681788
0.6636 0.135393 0.695674
0.663798 0.135454 0.695933
0.663798 0.135454 0.695933
0.663523 0.135531 0.695674
0.66212 0.135988 0.693996
0.0315404 0.122454 0.603723
0.0220493 0.0850843 0.582681
0.124681 0.0378729 0.600809
0.404837 0.0648661 0.67747
0.660349 0.134661 0.694881
0.663905 0.135485 0.696361
0.663905 0.135485 0.696391
0.66389 0.135485 0.696315
0.663188 0.135622 0.695079
0.0594034 0.273854 0.668452
0.0570077 0.265003 0.664836
0.0513008 0.233173 0.653162
0.156771 0.0429847 0.617044
0.58854 0.110262 0.686534
0.66389 0.135485 0.6963
0.663951 0.1355 0.696605
0.663935 0.1355 0.696544
0.663767 0.135439 0.69575
0.181994 0.635782 0.776013
0.17969 0.633356 0.773663
0.175311 0.624323 0.770825
0.159518 0.591241 0.760662
0.593439 0.55288 0.890074
0.936095 0.566293 0.955291
0.934752 0.539086 0.95555
0.933791 0.52874 0.955032
0.931517 0.524819 0.952926
0.305379 0.833646 0.867933
0.302617 0.831205 0.865171
0.28925 0.811643 0.853681
0.259342 0.76643 0.830121
0.265858 0.770687 0.842664
0.868101 0.86157 0.949035
0.971023 0.874983 0.97464
0.973159 0.867689 0.976349
0.969589 0.866209 0.973571
0.340352 0.878767 0.893919
0.339529 0.87953 0.892638
0.339452 0.879606 0.892531
0.33962 0.879438 0.89279
0.343771 0.883803 0.8963
0.488441 0.942092 0.967224
0.971939 0.97113 0.985626
0.995895 0.973816 0.994186
0.994904 0.973159 0.993194
0.340825 0.87834 0.894591
0.339529 0.87953 0.892638
0.339452 0.879606 0.892531
0.339696 0.879362 0.892943
0.342077 0.881117 0.895125
0.380407 0.911482 0.916518
0.932509 0.988586 0.987884
0.998337 0.992889 0.995209
1 0.99295 0.994781
0.348837 0.876387 0.892073
0.339544 0.87953 0.892653
0.339452 0.879606 0.892531
0.339635 0.879438 0.892805
0.342031 0.881041 0.895033
0.382956 0.912947 0.916167
0.927855 0.988891 0.986419
0.995529 0.994079 0.993042
1 0.99411 0.995315
0.127565 0.0379187 0.601877
0.158953 0.0388952 0.613291
0.257694 0.0497444 0.649454
0.47248 0.0768139 0.682795
0.663767 0.135439 0.695796
0.663798 0.135454 0.695918
0.663798 0.135454 0.695918
0.663828 0.135454 0.69601
0.663706 0.135424 0.695583
0.0915084 0.0373541 0.587366
0.127672 0.0379187 0.601923
0.233219 0.048127 0.642786
0.458244 0.0737469 0.681819
0.663691 0.135424 0.695689
0.663798 0.135454 0.695933
0.663798 0.135454 0.695933
0.663783 0.135439 0.695857
0.6636 0.135393 0.695323
0.0307927 0.119677 0.602182
0.0208438 0.0812695 0.580209
0.128145 0.0379644 0.602136
0.406043 0.0650187 0.677577
0.660594 0.134722 0.694942
0.663905 0.135485 0.696361
0.663905 0.135485 0.696391
0.66389 0.135485 0.696315
0.663706 0.135424 0.695552
0.0585031 0.268894 0.666728
0.0559243 0.259174 0.66273
0.0503548 0.22739 0.650996
0.157671 0.0423133 0.616617
0.589059 0.11046 0.68661
0.66389 0.135485 0.696284
0.663951 0.1355 0.69659
0.663951 0.1355 0.696559
0.663767 0.135439 0.69575
0.180941 0.633631 0.775341
0.178958 0.631464 0.773297
0.17438 0.622156 0.770336
0.158145 0.588037 0.759838
0.59266 0.547295 0.889769
0.935439 0.559884 0.955016
0.934096 0.532631 0.955077
0.932723 0.522622 0.954421
0.930541 0.517601 0.952407
0.303883 0.831281 0.866835
0.300908 0.828779 0.863783
0.284428 0.80441 0.849668
0.257572 0.763561 0.828962
0.263828 0.767285 0.841276
0.866407 0.857786 0.948348
0.970062 0.871321 0.973861
0.971069 0.863844 0.974746
0.968322 0.861448 0.97261
0.340291 0.878828 0.893828
0.339529 0.87953 0.892638
0.339452 0.879606 0.892531
0.339452 0.879606 0.892531
0.343526 0.884001 0.895979
0.534951 0.942153 0.968734
0.969604 0.968307 0.984344
0.992523 0.971679 0.992462
0.991745 0.97084 0.991775
0.340536 0.878599 0.894179
0.339529 0.87953 0.892638
0.339452 0.879606 0.892531
0.339452 0.879606 0.892531
0.341375 0.881666 0.894118
0.369055 0.909361 0.916457
0.891112 0.983749 0.988113
0.995239 0.990753 0.997543
0.998596 0.991409 0.999268
0.340291 0.878828 0.893828
0.339544 0.87953 0.892653
0.339452 0.879606 0.892531
0.339452 0.879606 0.892531
0.341314 0.88159 0.894026
0.369238 0.909529 0.916594
0.82063 0.985946 0.98909
0.991775 0.994675 0.996521
1 0.994186 1
