bundles/resolve-cinematic-luts/Phantom Luts/Komodo Phantom ARRI LUTs G2/Komodo Phantom ARRI LUTs G2/33x/WB Offset - Green Boost/Jamaica_Komodo_WBO_Legacy_G2_33x.cube
TITLE "Generated by Resolve"
LUT_3D_SIZE 33
0.0416266 0.0499428 0.0416266
0.0416724 0.0498817 0.0416419
0.0421607 0.0497749 0.0416419
0.0522011 0.0499428 0.0418555
0.0680095 0.0494545 0.0417182
0.0909285 0.0488441 0.0420996
0.120394 0.047364 0.04271
0.158984 0.0458228 0.0440986
0.204578 0.0448157 0.0463111
0.258442 0.0446021 0.05066
0.323278 0.0459602 0.0569772
0.399405 0.0467079 0.0678721
0.481834 0.0473487 0.0823224
0.554696 0.0491035 0.100877
0.605432 0.0526436 0.121141
0.632319 0.0674449 0.137911
0.645136 0.0772412 0.154299
0.647868 0.077821 0.160327
0.65008 0.078172 0.165728
0.651881 0.0784772 0.170275
0.653605 0.0787976 0.174456
0.655299 0.0791333 0.178653
0.656168 0.0793469 0.180743
0.657176 0.0795453 0.183276
0.661982 0.0843061 0.186557
0.654887 0.0757916 0.185595
0.64976 0.0700084 0.184909
0.650172 0.0701457 0.185809
0.650477 0.0702525 0.186435
0.650645 0.0703441 0.18677
0.650782 0.0704051 0.186984
0.650813 0.0704356 0.186908
0.650797 0.0704662 0.186679
0.0416571 0.0498817 0.0416419
0.0416571 0.0499123 0.0416419
0.0416724 0.0498817 0.0416419
0.0482185 0.0501259 0.0418097
0.0640421 0.0498512 0.0417945
0.0868086 0.0492409 0.0420233
0.116808 0.0477607 0.042649
0.156451 0.0460822 0.0437629
0.20119 0.0446937 0.0450294
0.254261 0.0439765 0.0475471
0.318288 0.044358 0.0514382
0.395254 0.0450599 0.0609751
0.479454 0.0458381 0.076112
0.551324 0.0474403 0.0945602
0.600381 0.050782 0.112367
0.629679 0.0672313 0.131777
0.643046 0.0769055 0.149447
0.645853 0.0774243 0.15584
0.648386 0.0779431 0.161471
0.650202 0.078233 0.165957
0.651774 0.0784466 0.169955
0.653162 0.0787213 0.173312
0.654551 0.0789807 0.176761
0.655253 0.0791791 0.178408
0.655818 0.0792859 0.179782
0.656382 0.0793774 0.181201
0.66212 0.0854658 0.183993
0.662425 0.0855268 0.184802
0.662669 0.0855573 0.185458
0.662852 0.0856031 0.185885
0.662959 0.0856336 0.186084
0.662989 0.0856641 0.186038
0.662974 0.0856947 0.185901
0.0417029 0.0505074 0.0417792
0.0416571 0.0502937 0.0416724
0.0419471 0.0500649 0.0416419
0.0434882 0.0501106 0.0417945
0.0568704 0.0507515 0.0421149
0.0785534 0.0505074 0.0417639
0.109224 0.0492714 0.0420996
0.14905 0.0475319 0.0433204
0.195499 0.0458534 0.0446784
0.248997 0.04477 0.0466163
0.312917 0.0444495 0.049546
0.387823 0.0440223 0.0543832
0.47071 0.0436408 0.0652018
0.545205 0.0449531 0.0845197
0.595361 0.0488594 0.103731
0.626154 0.068101 0.121813
0.637415 0.0758068 0.137133
0.643015 0.0769055 0.149355
0.64567 0.0773785 0.155428
0.647944 0.0778821 0.160388
0.649607 0.0781567 0.164355
0.650706 0.0783093 0.167285
0.651804 0.0784619 0.170016
0.652689 0.0786145 0.172152
0.653315 0.0787518 0.173678
0.653819 0.0788434 0.174945
0.654292 0.0789349 0.176104
0.654688 0.0790112 0.17705
0.654978 0.0790723 0.177768
0.655131 0.079118 0.178134
0.655192 0.0791333 0.17821
0.655177 0.0791485 0.178073
0.655161 0.0791791 0.177905
0.0418097 0.0577249 0.0426642
0.0416266 0.0573129 0.042298
0.0425727 0.0564279 0.0422827
0.045182 0.0547799 0.0423133
0.0534371 0.054963 0.0437324
0.0707713 0.0543679 0.0440223
0.0986343 0.0521553 0.0421759
0.138399 0.0504158 0.0424659
0.186282 0.0484779 0.0440833
0.241413 0.0471809 0.0457313
0.307286 0.0468605 0.0487984
0.382483 0.0454719 0.0530861
0.463081 0.0436408 0.0590524
0.532769 0.042649 0.0678721
0.589548 0.0535897 0.0892653
0.619303 0.0671702 0.107607
0.630274 0.0749676 0.121447
0.635859 0.0758221 0.133425
0.641184 0.0767987 0.144945
0.643946 0.0770428 0.151492
0.64593 0.0774243 0.155978
0.647532 0.0777752 0.159564
0.648737 0.0779736 0.162325
0.649592 0.0781109 0.164294
0.650019 0.0782025 0.165423
0.650416 0.0782635 0.166445
0.650736 0.078294 0.167315
0.650996 0.0783398 0.168002
0.651225 0.0783856 0.168551
0.651377 0.0784161 0.168902
0.651469 0.0784314 0.16907
0.651514 0.0784466 0.169024
0.65156 0.0784619 0.168917
0.0412909 0.0702983 0.0429999
0.0413977 0.0698711 0.0428321
0.0416114 0.0691997 0.0429694
0.0457771 0.0673533 0.0431373
0.0542611 0.0652018 0.0436561
0.0712749 0.0650492 0.0461433
0.098558 0.0641031 0.047776
0.134478 0.0607767 0.0450904
0.180056 0.055787 0.0423133
0.231937 0.0512245 0.0442359
0.298436 0.0501564 0.0476081
0.374609 0.0482032 0.0520027
0.458045 0.0461128 0.058381
0.531289 0.0448005 0.0680095
0.584176 0.0529946 0.0816968
0.612055 0.0648508 0.0958267
0.621042 0.0713054 0.105196
0.624735 0.0730602 0.111269
0.628656 0.0746929 0.118135
0.633661 0.0757305 0.128344
0.636866 0.0757916 0.135836
0.64097 0.0767834 0.144472
0.642725 0.0769207 0.148592
0.643854 0.0770275 0.151278
0.644816 0.0771344 0.153567
0.64535 0.0772717 0.154726
0.645701 0.0773632 0.155505
0.645991 0.0774243 0.156161
0.64622 0.0774853 0.156649
0.646403 0.0775311 0.157076
0.646525 0.0775616 0.157321
0.646555 0.0775769 0.157259
0.64654 0.0776074 0.157092
0.0404212 0.0911421 0.0438849
0.040238 0.0906386 0.0428168
0.0403296 0.0897841 0.0429084
0.0424964 0.0877089 0.0428931
0.0506905 0.0843977 0.0433051
0.0685893 0.0825818 0.0444953
0.0977951 0.0819562 0.0487068
0.137972 0.0793164 0.052491
0.184558 0.0733654 0.0510567
0.236255 0.066331 0.0469062
0.296345 0.0581979 0.0449226
0.364599 0.052369 0.0504616
0.449165 0.0493782 0.0561227
0.527001 0.0473793 0.0656901
0.579263 0.0478523 0.0785077
0.612833 0.0653697 0.0964218
0.621866 0.0731518 0.104906
0.620935 0.072343 0.103792
0.619974 0.0715038 0.102647
0.620371 0.0713512 0.1037
0.622705 0.0722972 0.107683
0.62504 0.073228 0.111757
0.626749 0.0737621 0.114931
0.628367 0.0744793 0.117739
0.630014 0.0749828 0.120867
0.631296 0.0752422 0.123491
0.632074 0.0753643 0.125093
0.632715 0.0755016 0.126406
0.633356 0.0756237 0.127749
0.633814 0.0757153 0.128664
0.634058 0.0757458 0.129168
0.634195 0.0757763 0.129412
0.634333 0.0758221 0.12958
0.0383154 0.124163 0.045243
0.0379492 0.123507 0.0426642
0.0379644 0.122225 0.042649
0.0382849 0.120623 0.04271
0.0457771 0.117647 0.043122
0.0585641 0.113649 0.0434119
0.0908217 0.111437 0.0450599
0.135256 0.110719 0.051194
0.189853 0.107149 0.0573281
0.247013 0.0975967 0.0584115
0.311299 0.0844129 0.0560464
0.37583 0.0700084 0.0508125
0.448386 0.0576181 0.0520485
0.519463 0.0512398 0.0613565
0.57702 0.0506447 0.0749828
0.61088 0.0642252 0.0937819
0.625208 0.0767529 0.108553
0.625055 0.0765545 0.1084
0.624414 0.0757916 0.107683
0.623682 0.0750439 0.10692
0.623102 0.074403 0.106294
0.622568 0.0738842 0.105684
0.622217 0.0735027 0.105318
0.622003 0.073228 0.10515
0.621866 0.0730449 0.105043
0.62179 0.0729076 0.105013
0.621729 0.0728008 0.105013
0.621714 0.0727398 0.105058
0.621729 0.0726787 0.105119
0.621683 0.0726329 0.105074
0.621714 0.0726329 0.105119
0.621714 0.0726329 0.105104
0.621775 0.0726787 0.10515
0.0365759 0.167971 0.0484016
0.0362402 0.167254 0.0448615
0.0361181 0.166217 0.0431067
0.0360723 0.164553 0.0429847
0.0379034 0.162264 0.0429694
0.0504311 0.159396 0.0434272
0.0724193 0.15581 0.0436255
0.123781 0.152743 0.0463874
0.182895 0.151507 0.0539101
0.252918 0.148196 0.0639963
0.324849 0.136049 0.068986
0.399435 0.119677 0.0693523
0.4757 0.101442 0.0660716
0.537758 0.0767987 0.059266
0.579324 0.0591745 0.066331
0.602838 0.0580148 0.0856184
0.626017 0.079408 0.107836
0.627894 0.0808423 0.110613
0.627527 0.0802472 0.110369
0.627207 0.0796826 0.110155
0.627039 0.0792706 0.110109
0.626688 0.0787823 0.109789
0.626429 0.0784161 0.109575
0.626337 0.0782025 0.10956
0.6262 0.0780041 0.109453
0.626047 0.0778058 0.1093
0.62594 0.0776837 0.109209
0.625864 0.0775769 0.109133
0.625818 0.0775311 0.109087
0.625772 0.0774701 0.109041
0.625711 0.077409 0.108965
0.625681 0.0773632 0.108904
0.625605 0.0773022 0.108736
0.0364691 0.219776 0.0540475
0.0359503 0.219104 0.0505684
0.035111 0.218128 0.0455634
0.0352178 0.216938 0.0447395
0.0354925 0.215274 0.044892
0.0428016 0.213123 0.0450599
0.0598917 0.209522 0.0453346
0.098024 0.206928 0.0451667
0.168215 0.20145 0.0500038
0.241245 0.20235 0.0583505
0.329793 0.201678 0.0742657
0.417304 0.19237 0.086656
0.503059 0.176837 0.0920424
0.579065 0.156863 0.0951858
0.628 0.131106 0.09308
0.630579 0.0995193 0.0910811
0.623545 0.08542 0.0973831
0.63064 0.0868391 0.110491
0.630442 0.0861524 0.110857
0.63035 0.0857099 0.111116
0.630121 0.0851759 0.111208
0.629953 0.0847791 0.111254
0.629786 0.0843977 0.111254
0.629633 0.0841382 0.111208
0.629511 0.0839094 0.111162
0.629419 0.0837262 0.111147
0.629374 0.0836042 0.111162
0.629343 0.0835431 0.111177
0.629297 0.0834363 0.111162
0.629236 0.08336 0.111131
0.629206 0.0832837 0.111131
0.629145 0.0832074 0.11107
0.629114 0.0832074 0.110979
0.0399481 0.284779 0.0635386
0.0394141 0.284276 0.0600748
0.0386511 0.283925 0.0555734
0.0379034 0.283116 0.0508888
0.0380255 0.280995 0.0507362
0.0386511 0.278202 0.0504311
0.0517891 0.27686 0.0507057
0.0769055 0.271839 0.0507362
0.136614 0.270665 0.0499428
0.225162 0.263935 0.0562753
0.314977 0.266011 0.0654002
0.415564 0.269703 0.0857557
0.518318 0.262409 0.108293
0.605173 0.253422 0.119753
0.677333 0.235279 0.134661
0.710674 0.214588 0.145144
0.702556 0.192569 0.147539
0.673136 0.146914 0.128069
0.648173 0.111635 0.110933
0.6365 0.0983444 0.101808
0.634501 0.0951858 0.105531
0.633417 0.0925307 0.108339
0.63328 0.0922103 0.108553
0.633097 0.0918898 0.108659
0.632944 0.0916304 0.108766
0.632853 0.0914931 0.108812
0.632776 0.0913252 0.108888
0.632715 0.0912032 0.108934
0.632654 0.0910811 0.108965
0.632609 0.0909895 0.10901
0.632563 0.090898 0.109056
0.632532 0.090898 0.10901
0.632441 0.0908064 0.108949
0.0450904 0.364813 0.0778515
0.0444648 0.365438 0.0740673
0.0437629 0.364858 0.0699474
0.0428931 0.363668 0.0637827
0.0424811 0.362234 0.0604562
0.0421149 0.359564 0.059968
0.0446174 0.357214 0.0599069
0.067155 0.3561 0.0594492
0.106188 0.350378 0.0584115
0.189075 0.347417 0.0571145
0.295628 0.338979 0.063859
0.401617 0.343648 0.0750744
0.51046 0.355566 0.0946517
0.616739 0.353994 0.131731
0.703258 0.351171 0.154543
0.764385 0.345312 0.175586
0.791257 0.33167 0.199725
0.785931 0.300114 0.212253
0.769116 0.276493 0.200885
0.753811 0.255955 0.1897
0.73724 0.234012 0.177218
0.723659 0.215808 0.166796
0.712596 0.200763 0.158434
0.702464 0.186801 0.150866
0.696269 0.178546 0.146136
0.691279 0.171969 0.142184
0.687114 0.1664 0.13904
0.684016 0.162203 0.136751
0.681544 0.158785 0.13492
0.679271 0.155718 0.133089
0.678691 0.154696 0.132631
0.677348 0.152804 0.131548
0.676143 0.151171 0.130663
0.0535286 0.458976 0.0974594
0.0527657 0.459037 0.0941176
0.0519722 0.458869 0.0888533
0.0511177 0.458289 0.0822919
0.0500954 0.457618 0.074815
0.0502327 0.456382 0.072755
0.0499886 0.454093 0.0724346
0.0590219 0.452781 0.0721752
0.0935225 0.449775 0.0709239
0.154635 0.442512 0.0691844
0.259144 0.436576 0.0689708
0.381949 0.428519 0.0754559
0.498009 0.43563 0.0914473
0.60322 0.453925 0.106233
0.703441 0.458656 0.154208
0.783093 0.461387 0.189975
0.836072 0.466194 0.219318
0.861067 0.468254 0.244862
0.858671 0.44802 0.247349
0.850263 0.427649 0.243137
0.841642 0.408499 0.23888
0.833463 0.392447 0.234424
0.827924 0.379843 0.232166
0.823331 0.370123 0.230106
0.819226 0.361837 0.228153
0.815808 0.355169 0.22652
0.813642 0.350744 0.225635
0.811414 0.346609 0.224537
0.810285 0.344549 0.223972
0.808606 0.341848 0.223026
0.807218 0.339635 0.222263
0.806043 0.337865 0.221607
0.804608 0.335698 0.220706
0.0746014 0.560281 0.131273
0.073991 0.560357 0.127108
0.0732891 0.559899 0.122011
0.073106 0.559442 0.115297
0.0733959 0.560327 0.1075
0.0755016 0.561395 0.100191
0.0753643 0.559564 0.0993668
0.0742809 0.556161 0.0982681
0.0943008 0.554498 0.0950027
0.143679 0.550652 0.0916762
0.229755 0.545632 0.0888685
0.353338 0.532631 0.0882734
0.478691 0.52607 0.0948501
0.590738 0.531807 0.118135
0.688533 0.549004 0.135821
0.768566 0.567422 0.175738
0.834287 0.581247 0.219974
0.870756 0.596994 0.25008
0.878416 0.588296 0.256458
0.878965 0.575402 0.256031
0.879026 0.563714 0.255619
0.87892 0.554131 0.25539
0.878599 0.547631 0.255116
0.87805 0.540825 0.254734
0.877394 0.535119 0.254307
0.877104 0.530602 0.254261
0.876554 0.526955 0.253941
0.87631 0.52459 0.253849
0.875975 0.522622 0.253681
0.875532 0.520302 0.253452
0.875105 0.518471 0.253193
0.87454 0.516899 0.252827
0.873686 0.515282 0.252079
0.114214 0.65565 0.180407
0.114137 0.655573 0.176699
0.114122 0.655039 0.171817
0.115068 0.655177 0.166049
0.116625 0.655192 0.158251
0.120424 0.656413 0.150423
0.124971 0.65742 0.145663
0.123522 0.654826 0.144213
0.124041 0.652079 0.141756
0.15874 0.65272 0.132525
0.222232 0.65008 0.125704
0.332143 0.642023 0.119554
0.46006 0.623865 0.119142
0.574884 0.620157 0.129183
0.678233 0.62855 0.16022
0.768536 0.645884 0.19321
0.829465 0.669612 0.233341
0.86479 0.694133 0.268528
0.874342 0.698909 0.278202
0.873854 0.690852 0.275074
0.873487 0.684337 0.272633
0.873121 0.67776 0.270176
0.873259 0.672694 0.268818
0.872877 0.668101 0.267155
0.873045 0.66453 0.26627
0.873121 0.66186 0.265568
0.873121 0.66006 0.265095
0.873075 0.657908 0.264485
0.87306 0.655985 0.264012
0.872938 0.654582 0.263615
0.873121 0.653422 0.2636
0.87303 0.652644 0.263447
0.872923 0.651896 0.26331
0.173541 0.741085 0.243656
0.174685 0.740856 0.240391
0.176471 0.741054 0.237171
0.178637 0.74081 0.23241
0.182635 0.741253 0.226658
0.188205 0.741955 0.220233
0.198566 0.744823 0.214298
0.2 0.744335 0.211856
0.197406 0.741787 0.209689
0.203845 0.740078 0.201511
0.252079 0.742748 0.182284
0.327901 0.739467 0.169223
0.450034 0.724956 0.159609
0.572488 0.710597 0.1673
0.673396 0.715404 0.189212
0.766049 0.728191 0.230549
0.844984 0.74548 0.276066
0.890013 0.770642 0.317601
0.912474 0.782208 0.340978
0.908843 0.773922 0.334447
0.905928 0.768551 0.329809
0.904036 0.764523 0.326574
0.901961 0.760327 0.323186
0.900221 0.75671 0.320302
0.899565 0.75523 0.319188
0.89929 0.754376 0.318608
0.898466 0.75259 0.31722
0.897734 0.751186 0.316106
0.897047 0.749828 0.315084
0.896406 0.748882 0.314397
0.895857 0.748165 0.313848
0.895506 0.747982 0.31371
0.894957 0.74699 0.312993
0.251759 0.817426 0.320073
0.253285 0.817578 0.318517
0.255512 0.817334 0.31516
0.258854 0.817273 0.310887
0.263661 0.817182 0.305486
0.270115 0.818051 0.300496
0.282872 0.822446 0.29659
0.29456 0.826978 0.294881
0.291493 0.824399 0.291997
0.287953 0.82179 0.28925
0.313161 0.822354 0.266667
0.369299 0.825147 0.242939
0.46215 0.816266 0.221851
0.58056 0.803281 0.220813
0.690471 0.799893 0.245426
0.776364 0.816266 0.283085
0.855863 0.834714 0.334279
0.913451 0.854841 0.380301
0.94609 0.860487 0.405051
0.947509 0.853773 0.402762
0.945403 0.849744 0.399329
0.943725 0.846174 0.396384
0.942367 0.843442 0.394049
0.941421 0.841825 0.392599
0.940337 0.839658 0.390738
0.939666 0.838041 0.389441
0.938994 0.836622 0.388235
0.938338 0.835431 0.387213
0.937636 0.834318 0.38613
0.937377 0.834089 0.386069
0.936797 0.833265 0.385473
0.936187 0.832532 0.38497
0.935546 0.831678 0.384314
0.337499 0.889494 0.398444
0.338369 0.889128 0.396201
0.339849 0.888991 0.393652
0.342046 0.889265 0.39086
0.347204 0.890181 0.385809
0.354971 0.893233 0.383108
0.367849 0.898558 0.382467
0.384512 0.907546 0.386786
0.388861 0.909483 0.387366
0.386618 0.906218 0.382834
0.396994 0.906386 0.375616
0.442634 0.907744 0.344854
0.512856 0.900984 0.31165
0.616373 0.88603 0.294835
0.720745 0.882292 0.314702
0.816037 0.894697 0.357534
0.881407 0.913069 0.399084
0.9299 0.921248 0.429358
0.961318 0.925399 0.44947
0.973922 0.924208 0.456382
0.972412 0.919448 0.452903
0.971557 0.917464 0.451316
0.970855 0.915618 0.449882
0.970321 0.913893 0.448646
0.970047 0.912581 0.447791
0.969619 0.911284 0.44683
0.96907 0.910109 0.445869
0.968719 0.909087 0.445106
0.968566 0.908782 0.444846
0.968277 0.908095 0.444327
0.967956 0.907439 0.443839
0.96762 0.906905 0.443488
0.967117 0.906188 0.443
0.393103 0.94432 0.477775
0.389731 0.942428 0.473884
0.388128 0.941482 0.470771
0.388266 0.941466 0.469703
0.388266 0.941497 0.469352
0.388464 0.94139 0.468223
0.388876 0.941146 0.466026
0.389853 0.941024 0.463813
0.390967 0.940856 0.461173
0.39382 0.941238 0.45922
0.399176 0.942473 0.458213
0.463462 0.957229 0.437675
0.548119 0.969924 0.411856
0.643351 0.959381 0.382544
0.739025 0.947448 0.381353
0.83093 0.944869 0.404883
0.89604 0.956863 0.436881
0.941222 0.965377 0.462852
0.976059 0.970367 0.484077
0.994583 0.972519 0.495384
0.993957 0.970016 0.493553
0.993561 0.969299 0.492912
0.99295 0.968231 0.491966
0.99234 0.967254 0.491051
0.991897 0.966384 0.490318
0.991501 0.965606 0.489647
0.991379 0.965286 0.489387
0.991241 0.964874 0.489067
0.991028 0.964416 0.48864
0.990845 0.963973 0.488197
0.990662 0.963592 0.48777
0.990478 0.963211 0.487358
0.990387 0.963027 0.48719
0.386831 0.949966 0.514595
0.383413 0.947585 0.51107
0.38172 0.946487 0.509239
0.381903 0.946548 0.508827
0.382162 0.946578 0.508141
0.382437 0.946532 0.507088
0.382605 0.946441 0.506233
0.382925 0.946395 0.505287
0.383886 0.946502 0.503792
0.385 0.947112 0.504433
0.386847 0.948257 0.506111
0.394018 0.949477 0.497459
0.451942 0.958083 0.449302
0.580606 0.984451 0.424598
0.702205 0.973236 0.402136
0.797162 0.962493 0.410269
0.882979 0.967834 0.441688
0.937758 0.979446 0.471138
0.977584 0.986404 0.494728
1 0.99028 0.510292
1 0.990982 0.514656
1 0.990524 0.513588
1 0.990417 0.513512
1 0.990295 0.513375
1 0.990173 0.513237
1 0.990127 0.513176
1 0.990066 0.513085
1 0.989914 0.512886
1 0.989792 0.512688
1 0.989685 0.512383
1 0.989578 0.512078
1 0.989578 0.511772
1 0.989456 0.51136
0.386069 0.949676 0.515053
0.382971 0.947555 0.51191
0.381521 0.946548 0.510063
0.381674 0.946624 0.509819
0.381903 0.946654 0.509194
0.382208 0.946609 0.508049
0.382528 0.946502 0.506706
0.382666 0.94638 0.505791
0.383307 0.946273 0.503822
0.384649 0.946899 0.504097
0.386236 0.947875 0.505562
0.390677 0.949584 0.504189
0.412634 0.947768 0.462715
0.517388 0.975219 0.436118
0.634241 0.983352 0.413413
0.748989 0.966751 0.402701
0.840543 0.963058 0.423835
0.914855 0.97467 0.458305
0.962112 0.984405 0.485679
0.992752 0.989715 0.504829
1 0.991562 0.513039
1 0.99202 0.514366
1 0.992035 0.514412
1 0.99202 0.514427
1 0.99202 0.514458
1 0.992004 0.514488
1 0.991989 0.514488
1 0.991974 0.514488
1 0.991958 0.514443
1 0.991958 0.514275
1 0.991943 0.514122
1 0.991958 0.513802
1 0.991958 0.513481
0.385657 0.949706 0.515999
0.382727 0.947662 0.512764
0.381338 0.9467 0.51107
0.381476 0.9467 0.510628
0.381659 0.946715 0.510079
0.381979 0.94667 0.508949
0.382376 0.946578 0.507408
0.38262 0.946441 0.506188
0.382925 0.946197 0.50428
0.384085 0.946548 0.503548
0.385748 0.947555 0.505028
0.389548 0.950011 0.50869
0.403784 0.948791 0.478584
0.492821 0.969162 0.440406
0.604623 0.985534 0.420508
0.725689 0.970047 0.401907
0.820996 0.962463 0.417258
0.90132 0.971542 0.451179
0.952209 0.982773 0.480034
0.986542 0.988495 0.500786
1 0.991318 0.512016
1 0.991897 0.513939
1 0.992004 0.51426
1 0.992004 0.51426
1 0.992004 0.51426
1 0.992004 0.51426
1 0.992004 0.51426
1 0.992004 0.51426
1 0.992004 0.514244
1 0.991958 0.514214
1 0.991852 0.514153
1 0.991714 0.513954
1 0.991623 0.513649
0.386023 0.949996 0.516472
0.382712 0.947692 0.513161
0.38117 0.946593 0.511315
0.381308 0.946609 0.510918
0.381506 0.946609 0.510277
0.38175 0.946563 0.509377
0.382193 0.946471 0.50779
0.382544 0.946303 0.506111
0.382788 0.946136 0.504738
0.383169 0.945815 0.502327
0.383627 0.946105 0.50277
0.38584 0.947478 0.504829
0.395468 0.94786 0.488411
0.465843 0.960327 0.442527
0.58085 0.983841 0.423575
0.702632 0.972549 0.40148
0.80354 0.962051 0.411765
0.887297 0.9682 0.443671
0.94432 0.980484 0.475059
0.981003 0.986893 0.497063
1 0.990387 0.510857
1 0.991241 0.514015
1 0.991501 0.514748
1 0.991501 0.514733
1 0.991501 0.514733
1 0.991501 0.514717
1 0.991501 0.514717
1 0.991562 0.514672
1 0.991669 0.514595
1 0.991836 0.514412
1 0.991897 0.514214
1 0.991867 0.513939
1 0.99173 0.51368
0.387442 0.951247 0.518608
0.383963 0.948577 0.514885
0.381826 0.947143 0.512489
0.38143 0.946792 0.511604
0.381338 0.946624 0.510826
0.381598 0.946593 0.509941
0.38201 0.946502 0.508446
0.382467 0.946365 0.5066
0.38265 0.946212 0.50547
0.383139 0.945846 0.502586
0.3832 0.94583 0.502358
0.384939 0.946929 0.504021
0.391424 0.948257 0.497337
0.439048 0.952087 0.446464
0.560037 0.982162 0.427787
0.678813 0.976287 0.403876
0.783963 0.963058 0.407233
0.871412 0.965621 0.43624
0.934295 0.978302 0.469108
0.973785 0.985656 0.492622
0.99794 0.989929 0.508309
1 0.991089 0.513909
1 0.99144 0.514977
1 0.99147 0.515068
1 0.99147 0.515053
1 0.99147 0.515053
1 0.99147 0.515053
1 0.991531 0.515007
1 0.991653 0.514931
1 0.99176 0.514778
1 0.991775 0.514611
1 0.991684 0.514336
1 0.991592 0.514031
0.390326 0.953689 0.522011
0.386389 0.9505 0.517861
0.382818 0.947921 0.514076
0.381796 0.947173 0.512627
0.381216 0.946685 0.51136
0.38146 0.946639 0.510536
0.381796 0.946563 0.509224
0.382345 0.94641 0.507179
0.38262 0.946242 0.505699
0.383047 0.945907 0.503014
0.383169 0.945815 0.502327
0.384497 0.946639 0.503578
0.388205 0.948455 0.504433
0.420233 0.946929 0.450492
0.542153 0.978866 0.429755
0.658152 0.979324 0.407095
0.767681 0.964416 0.404379
0.857481 0.964248 0.430381
0.925231 0.976638 0.464042
0.967193 0.984741 0.48867
0.993896 0.989349 0.505638
1 0.990982 0.513588
1 0.991379 0.514855
1 0.99147 0.515129
1 0.99147 0.515145
1 0.99147 0.515145
1 0.99147 0.51516
1 0.991531 0.515129
1 0.991638 0.515053
1 0.991806 0.51487
1 0.991928 0.514626
1 0.991958 0.514244
1 0.991867 0.513954
0.391608 0.954833 0.52369
0.387533 0.951492 0.519417
0.38349 0.948379 0.515038
0.381918 0.947326 0.513115
0.38114 0.9467 0.511696
0.381369 0.94667 0.510887
0.381689 0.946593 0.509651
0.382239 0.946456 0.507591
0.382605 0.946273 0.505837
0.382971 0.945953 0.503502
0.383169 0.945815 0.502327
0.384283 0.946517 0.503395
0.386725 0.948058 0.505684
0.407858 0.945037 0.458625
0.526726 0.975021 0.430777
0.64184 0.980606 0.40914
0.754559 0.965637 0.402609
0.846281 0.963211 0.425834
0.917433 0.975341 0.459922
0.961349 0.984298 0.485466
0.990127 0.988891 0.503197
1 0.991043 0.513176
1 0.991379 0.514488
1 0.991485 0.515023
1 0.991485 0.515038
1 0.99147 0.515053
1 0.99147 0.515053
1 0.991531 0.515023
1 0.991638 0.514946
1 0.991821 0.514763
1 0.991943 0.514519
1 0.99202 0.514122
1 0.992004 0.513787
0.391531 0.954833 0.523949
0.387564 0.951598 0.519799
0.383673 0.948592 0.515541
0.381796 0.947311 0.513283
0.381094 0.946715 0.51191
0.381308 0.946685 0.511147
0.381613 0.946609 0.509957
0.382132 0.946471 0.507958
0.382574 0.946288 0.505989
0.38291 0.946014 0.503853
0.383169 0.945815 0.502327
0.384298 0.946517 0.503395
0.386297 0.947768 0.505272
0.402396 0.945098 0.466209
0.513405 0.971176 0.431373
0.62858 0.980484 0.409857
0.744121 0.96643 0.401175
0.837736 0.962707 0.422644
0.911269 0.973953 0.45658
0.957137 0.983856 0.483146
0.987167 0.98854 0.50135
1 0.991196 0.512169
1 0.99176 0.513939
1 0.991989 0.514626
1 0.991989 0.514641
1 0.991974 0.514641
1 0.991974 0.514641
1 0.99202 0.514611
1 0.992126 0.514549
1 0.992279 0.514366
1 0.992401 0.514138
1 0.992462 0.513756
1 0.992477 0.51342
0.39144 0.954818 0.524269
0.387961 0.952026 0.520699
0.384054 0.949035 0.516503
0.382086 0.947631 0.513924
0.381048 0.946792 0.51223
0.381262 0.946715 0.51133
0.381567 0.946624 0.510124
0.382071 0.946487 0.508217
0.382559 0.946303 0.506127
0.382864 0.946044 0.504112
0.383169 0.945815 0.502327
0.384298 0.946517 0.503395
0.386206 0.947707 0.50518
0.399649 0.945388 0.471427
0.504601 0.968887 0.432456
0.621271 0.980758 0.410986
0.736797 0.967132 0.400473
0.83151 0.962264 0.420294
0.907057 0.973144 0.454459
0.954086 0.983291 0.481392
0.985351 0.988174 0.500237
1 0.991028 0.511498
1 0.991714 0.513817
1 0.991989 0.514626
1 0.991989 0.514611
1 0.991989 0.514611
1 0.991989 0.514611
1 0.992035 0.51458
1 0.992157 0.514504
1 0.992325 0.514382
1 0.992432 0.51429
1 0.992386 0.514153
1 0.992187 0.51397
0.393835 0.956863 0.526604
0.389456 0.953185 0.522026
0.385153 0.949706 0.517159
0.382666 0.947829 0.514183
0.381399 0.946822 0.512123
0.38117 0.946426 0.510781
0.381491 0.946319 0.509483
0.381979 0.946181 0.507668
0.382498 0.945968 0.505455
