bundles/resolve-cinematic-luts/Phantom Luts/Komodo Phantom ARRI LUTs G2/Komodo Phantom ARRI LUTs G2/33x/WB Offset - Green Boost/Neutral_Komodo_WBO_G2_33x.cube
TITLE "Generated by Resolve"
LUT_3D_SIZE 33
0.0201267 0.0201267 0.0201267
0.0201267 0.0201267 0.0201267
0.0225528 0.0202487 0.0202182
0.0470741 0.0204318 0.020798
0.0806592 0.0191958 0.0217288
0.119051 0.0168917 0.0231479
0.16286 0.0131838 0.0264897
0.212222 0.00943008 0.0329595
0.267933 0.00729381 0.0415961
0.331136 0.0075227 0.0556954
0.401572 0.0105592 0.0726024
0.478782 0.0111086 0.0964065
0.562402 0.00972 0.123095
0.64828 0.00355535 0.151888
0.731548 0 0.175937
0.802686 0 0.19028
0.83595 0 0.209125
0.839231 0 0.218814
0.842023 0 0.22678
0.844205 0 0.234272
0.846036 0 0.240894
0.847822 0 0.246555
0.849195 0 0.250721
0.85037 0 0.254627
0.851316 0 0.257771
0.852003 0 0.260121
0.852491 0 0.261875
0.852872 0 0.263188
0.853117 0 0.264179
0.853315 0 0.264897
0.853437 0 0.265415
0.853529 0 0.265782
0.853605 0 0.266041
0.0201267 0.0201267 0.0201267
0.0201267 0.0201267 0.0201267
0.0201267 0.0201267 0.0201267
0.0401007 0.020737 0.0207675
0.0744335 0.0197299 0.0214237
0.113909 0.01738 0.0228428
0.15874 0.0135958 0.0259251
0.208515 0.00909438 0.0303807
0.262806 0.00596628 0.0357061
0.324895 0.00415045 0.0462196
0.396612 0.00608835 0.0615244
0.474571 0.0069276 0.0852827
0.559457 0.00474556 0.112779
0.643931 0 0.141238
0.728161 0 0.16585
0.799863 0 0.180987
0.833768 0 0.201358
0.836805 0 0.211414
0.839811 0 0.220523
0.842237 0 0.22742
0.844068 0 0.233829
0.845563 0 0.239124
0.846845 0 0.24361
0.84799 0 0.247013
0.848829 0 0.249332
0.849424 0 0.251591
0.849958 0 0.253239
0.85034 0 0.25452
0.850629 0 0.255482
0.850843 0 0.256214
0.851011 0 0.256748
0.851102 0 0.257115
0.851194 0 0.25742
0.0201267 0.0201267 0.0201267
0.0201267 0.0201267 0.0201267
0.0201267 0.0201267 0.0201267
0.0278935 0.0218967 0.0206302
0.0607919 0.0221866 0.0212863
0.100984 0.0206455 0.0217594
0.148547 0.0170443 0.0244297
0.200168 0.0124208 0.0287785
0.256748 0.00827039 0.0343481
0.319646 0.00514229 0.0426184
0.389471 0.004654 0.0525368
0.466835 0.00201419 0.0675517
0.552361 0 0.0950332
0.638911 0 0.125521
0.723918 0 0.152102
0.79472 0 0.165408
0.828504 0 0.183795
0.833661 0 0.200839
0.836454 0 0.210422
0.839109 0 0.218433
0.84126 0 0.224765
0.842847 0 0.229496
0.844022 0 0.233677
0.844923 0 0.236912
0.84564 0 0.239475
0.846204 0 0.241489
0.846632 0 0.242985
0.847028 0 0.244144
0.847303 0 0.245045
0.847501 0 0.24567
0.847654 0 0.246113
0.847761 0 0.246372
0.847822 0 0.246555
0.0209812 0.0354772 0.0210422
0.0209964 0.0341955 0.0210422
0.0227665 0.031693 0.0211032
0.0276799 0.0284733 0.0211948
0.0475929 0.0307774 0.0231327
0.0851759 0.0281834 0.0222934
0.133272 0.0227665 0.0221561
0.187427 0.0187686 0.0257115
0.247181 0.0145418 0.0313878
0.311955 0.0115358 0.0388647
0.383841 0.0109255 0.0493782
0.461662 0.00569161 0.0635233
0.543587 0 0.0787366
0.627497 0 0.0983902
0.713726 0 0.126009
0.787457 0 0.140734
0.820859 0 0.158465
0.826612 0 0.176516
0.832135 0 0.193362
0.83447 0 0.203906
0.836652 0 0.210971
0.838483 0 0.216556
0.839948 0 0.220935
0.841016 0 0.224231
0.841794 0 0.226017
0.842359 0 0.227878
0.842786 0 0.229297
0.843107 0 0.230335
0.843351 0 0.231098
0.843503 0 0.231678
0.843626 0 0.232059
0.843702 0 0.232364
0.843763 0 0.232593
0.0217288 0.0670634 0.0215457
0.0217136 0.0657054 0.0215457
0.0220645 0.0638132 0.0214542
0.0300603 0.0589609 0.0222782
0.0501259 0.0567636 0.0225986
0.0856641 0.0572061 0.0271458
0.130495 0.0528572 0.0269322
0.180819 0.043473 0.0234073
0.237415 0.0285191 0.0255131
0.30132 0.0200351 0.0333104
0.375509 0.0182956 0.0454566
0.45452 0.0126802 0.059968
0.538598 0.00416571 0.0760815
0.622995 0 0.0936751
0.70399 0 0.108385
0.772198 0 0.118135
0.802731 0 0.12694
0.810681 0 0.137316
0.818433 0 0.151461
0.824002 0 0.167727
0.827634 0 0.180331
0.8318 0 0.19176
0.833158 0 0.198291
0.83418 0 0.202823
0.834928 0 0.205997
0.835569 0 0.208087
0.836088 0 0.209491
0.836469 0 0.210529
0.836759 0 0.211261
0.836957 0 0.211872
0.837095 0 0.212329
0.837201 0 0.21265
0.837278 0 0.212879
0.0217441 0.103807 0.0218967
0.0215152 0.102632 0.0208591
0.0215457 0.101045 0.0209049
0.0281224 0.0976425 0.0216068
0.0429694 0.0919051 0.0226749
0.0816968 0.0924392 0.0233768
0.130907 0.0924392 0.0296178
0.184558 0.0849775 0.0349584
0.242283 0.0718853 0.032166
0.303181 0.0555581 0.0286412
0.370565 0.0339818 0.0367742
0.444099 0.0218357 0.0543526
0.530175 0.0126955 0.0706645
0.616632 0 0.0890364
0.700923 0 0.105165
0.775372 0 0.117601
0.807584 0 0.120287
0.803204 0 0.119539
0.799359 0 0.118791
0.801114 0 0.122942
0.806088 0 0.129717
0.810407 0 0.136156
0.813809 0 0.14255
0.8168 0 0.148043
0.819059 0 0.153246
0.820691 0 0.158007
0.821591 0 0.160693
0.822263 0 0.162387
0.822766 0 0.163973
0.823194 0 0.165331
0.823484 0 0.166186
0.823713 0 0.166827
0.82385 0 0.167254
0.0202335 0.150103 0.0225681
0.0202792 0.148943 0.0196231
0.0203708 0.147646 0.0196994
0.0211337 0.145769 0.0198672
0.0376135 0.141497 0.0213474
0.0671702 0.13817 0.022797
0.120989 0.137118 0.0234684
0.18143 0.137819 0.0299077
0.248264 0.129671 0.043946
0.315175 0.114488 0.0458076
0.385122 0.0920272 0.0459297
0.451698 0.0595254 0.0439307
0.525231 0.0287327 0.0570993
0.606744 0.0102846 0.0800031
0.695125 0 0.0982223
0.775525 0 0.113252
0.82446 0 0.122057
0.821332 0 0.121736
0.818235 0 0.121584
0.815351 0 0.12137
0.812741 0 0.12105
0.810681 0 0.120714
0.808927 0 0.12047
0.807477 0 0.120272
0.806363 0 0.120089
0.805524 0 0.119966
0.804868 0 0.119829
0.804379 0 0.119768
0.804013 0 0.119692
0.803693 0 0.119631
0.803479 0 0.11957
0.803342 0 0.11957
0.803235 0 0.119539
0.0195926 0.202213 0.0256046
0.0195621 0.201175 0.0206302
0.019791 0.199802 0.0188754
0.0198978 0.197971 0.018967
0.0270695 0.195575 0.0198367
0.0520333 0.191669 0.0216831
0.0968948 0.191058 0.0229648
0.167956 0.189258 0.0229038
0.239643 0.190738 0.0317082
0.322515 0.182361 0.056733
0.397177 0.167742 0.063508
0.471534 0.14464 0.0673686
0.546731 0.115206 0.0658274
0.620874 0.0630961 0.0596017
0.694743 0.00849927 0.0761425
0.771862 0 0.100908
0.836103 0 0.117494
0.839124 0 0.119661
0.836927 0 0.120195
0.834653 0 0.120745
0.832746 0 0.121218
0.831052 0 0.121538
0.829664 0 0.121736
0.828779 0 0.121874
0.828122 0 0.12195
0.827512 0 0.121981
0.827176 0 0.122042
0.826932 0 0.122057
0.826734 0 0.122072
0.826596 0 0.122103
0.82649 0 0.122103
0.826429 0 0.122118
0.826383 0 0.122118
0.0214847 0.261479 0.0322728
0.0214694 0.260533 0.0261234
0.0213779 0.25922 0.0200046
0.0215152 0.257816 0.0199588
0.0214847 0.256001 0.0199588
0.0414893 0.254734 0.0214847
0.0758526 0.250034 0.0238804
0.139986 0.25153 0.0252995
0.222522 0.249744 0.025742
0.307607 0.253086 0.0366674
0.403967 0.246952 0.0748455
0.484123 0.236133 0.090425
0.563836 0.215473 0.0973831
0.646281 0.184909 0.0983597
0.72723 0.13901 0.0880751
0.801968 0.0526741 0.0659495
0.858793 0 0.0784924
0.860548 0 0.108202
0.858671 0 0.109804
0.857221 0 0.111131
0.855573 0 0.112261
0.854185 0 0.113161
0.85301 0 0.113848
0.852232 0 0.114412
0.851545 0 0.114809
0.851041 0 0.115145
0.850675 0 0.115373
0.850385 0 0.115541
0.850187 0 0.115663
0.850019 0 0.115755
0.849897 0 0.115816
0.849821 0 0.115862
0.849775 0 0.115877
0.0264439 0.329976 0.0453193
0.0265812 0.329442 0.0380713
0.026276 0.328801 0.0294499
0.0259861 0.327413 0.0241093
0.026276 0.325505 0.0239872
0.0281071 0.323232 0.0239261
0.0625162 0.322866 0.0261692
0.107012 0.318273 0.0294041
0.189593 0.322026 0.0319219
0.288319 0.321675 0.0332647
0.386206 0.327306 0.0468757
0.48603 0.328115 0.0925612
0.573983 0.320897 0.117586
0.65893 0.307271 0.124437
0.744869 0.275746 0.133944
0.825956 0.233188 0.12195
0.894255 0.173877 0.0937667
0.922057 0.0859846 0.0682994
0.913436 0.0177157 0.0556802
0.905287 0 0.0455329
0.892393 0 0.0722972
0.88278 0 0.0882124
0.881758 0 0.0894636
0.880858 0 0.0903639
0.880171 0 0.0911116
0.879652 0 0.0916762
0.879271 0 0.0920577
0.879011 0 0.0923934
0.878798 0 0.092607
0.87866 0 0.0927596
0.878569 0 0.0928664
0.878477 0 0.0929427
0.878416 0 0.0930037
0.0337224 0.40856 0.0620584
0.0338598 0.408087 0.0556497
0.0337835 0.407385 0.0463722
0.0326848 0.406332 0.0345617
0.0325933 0.404868 0.0309758
0.0323949 0.402548 0.0307622
0.0461585 0.401511 0.0315251
0.090135 0.400229 0.0350347
0.15433 0.397726 0.0404974
0.251743 0.402792 0.0445869
0.364813 0.404532 0.0449226
0.469917 0.411933 0.0601358
0.567254 0.422675 0.0943313
0.66244 0.418387 0.139483
0.747875 0.411978 0.153597
0.827817 0.396551 0.15021
0.898909 0.36405 0.142504
0.94464 0.308827 0.144045
0.942077 0.279667 0.130983
0.939666 0.253651 0.120089
0.937026 0.227192 0.109743
0.93431 0.204501 0.101488
0.932708 0.183825 0.0944991
0.930877 0.166735 0.0890974
0.929366 0.154513 0.0853742
0.928176 0.143938 0.0822614
0.927337 0.135302 0.0796216
0.926528 0.12871 0.0779126
0.925872 0.123827 0.0766918
0.925536 0.120272 0.0758373
0.925231 0.117571 0.0751965
0.924987 0.115526 0.0747082
0.924834 0.114031 0.0743725
0.0417945 0.492576 0.0799115
0.0418097 0.492256 0.0745403
0.0417945 0.492042 0.0654307
0.0406958 0.491691 0.0529335
0.0391394 0.491264 0.0374456
0.0390784 0.489464 0.0371099
0.0384222 0.486946 0.0366827
0.0721141 0.487144 0.0402991
0.12845 0.484016 0.0468147
0.215625 0.482826 0.0555123
0.328176 0.488579 0.0619364
0.446784 0.4925 0.0606088
0.553567 0.499901 0.078584
0.645396 0.516869 0.0833753
0.739376 0.515938 0.148409
0.818677 0.515114 0.163607
0.887831 0.511604 0.154879
0.938613 0.501976 0.143496
0.945098 0.480873 0.147494
0.94641 0.460548 0.143938
0.947814 0.442115 0.13959
0.948745 0.425788 0.134966
0.94847 0.412863 0.13695
0.947982 0.402945 0.13846
0.947387 0.394842 0.139544
0.94725 0.388724 0.140322
0.947402 0.384588 0.14081
0.947356 0.381308 0.141146
0.947295 0.378897 0.14139
0.947234 0.377111 0.141558
0.947173 0.375692 0.14168
0.947097 0.374685 0.141772
0.947066 0.373892 0.141848
0.0546426 0.580484 0.103838
0.0547951 0.580285 0.0983444
0.0550088 0.580224 0.0892348
0.0544442 0.580423 0.0770581
0.0531319 0.580957 0.061326
0.0561685 0.58233 0.049836
0.0558022 0.580301 0.0495308
0.0544747 0.577523 0.0488594
0.108415 0.574838 0.0519265
0.183658 0.56907 0.0626078
0.295155 0.570031 0.0759289
0.418326 0.575036 0.0824445
0.529122 0.580133 0.0783246
0.632624 0.585168 0.101534
0.721614 0.601892 0.0864424
0.80061 0.615076 0.115969
0.866438 0.622782 0.138155
0.914305 0.632151 0.113298
0.922576 0.622644 0.123384
0.924773 0.611215 0.129229
0.926833 0.601068 0.133165
0.928756 0.592157 0.135454
0.930175 0.585916 0.136812
0.931502 0.580118 0.137758
0.932509 0.57554 0.138155
0.93341 0.571939 0.138323
0.934112 0.569375 0.138491
0.934569 0.567361 0.138552
0.934874 0.565927 0.138567
0.935134 0.564813 0.138628
0.935347 0.564004 0.138613
0.935485 0.563424 0.138613
0.935592 0.562982 0.138613
0.0738689 0.667597 0.132876
0.0738537 0.667704 0.125917
0.0736858 0.667689 0.117601
0.0734722 0.668086 0.104845
0.0741741 0.669764 0.0888533
0.0780499 0.672175 0.0708019
0.0826429 0.672068 0.0658885
0.0817578 0.669474 0.0653391
0.0917678 0.665583 0.0628214
0.170642 0.659876 0.0697948
0.259388 0.651484 0.0854353
0.391211 0.653819 0.101076
0.510185 0.657847 0.107576
0.60885 0.665354 0.101579
0.707317 0.672404 0.12401
0.794553 0.688106 0.104601
0.859083 0.707057 0.0850233
0.903181 0.727626 0.0340887
0.913481 0.729534 0.0258946
0.913817 0.722423 0.0329747
0.914061 0.716213 0.0390631
0.914336 0.710735 0.0439612
0.914519 0.706371 0.047837
0.914611 0.702861 0.0508125
0.914839 0.700191 0.0529793
0.914946 0.698009 0.0546883
0.915022 0.696345 0.0559854
0.915053 0.695155 0.0568704
0.915068 0.694301 0.0575113
0.915099 0.693614 0.0580606
0.915129 0.693141 0.0584268
0.915145 0.69279 0.0587167
0.915145 0.692576 0.0588693
0.0947433 0.75108 0.158267
0.0948196 0.751324 0.153033
0.0959793 0.751827 0.14464
0.0972915 0.753033 0.131975
0.0981613 0.755077 0.115084
0.100969 0.757259 0.0959029
0.116457 0.760632 0.0832685
0.11516 0.758129 0.0830396
0.113939 0.755077 0.0824598
0.150668 0.748287 0.0751049
0.247013 0.739391 0.0914168
0.356741 0.729549 0.110979
0.487694 0.733715 0.126909
0.601953 0.739635 0.137774
0.690196 0.752438 0.132677
0.782422 0.763149 0.153155
0.859754 0.777768 0.141573
0.911208 0.799252 0.0834211
0.937057 0.805997 0.0701457
0.934859 0.798703 0.0618448
0.933654 0.794736 0.0575875
0.932616 0.791302 0.0542611
0.93167 0.788296 0.051545
0.930922 0.785855 0.0496681
0.930617 0.78468 0.0487526
0.930297 0.783642 0.0479744
0.929992 0.78262 0.0471962
0.929732 0.781888 0.0466316
0.929549 0.781323 0.0462501
0.929412 0.780896 0.0459449
0.92932 0.780606 0.0457465
0.929259 0.780377 0.045594
0.929198 0.780224 0.0454871
0.116518 0.828428 0.17998
0.117266 0.828962 0.173678
0.118425 0.829801 0.165164
0.119249 0.831281 0.153719
0.119799 0.83299 0.138323
0.125628 0.835386 0.117067
0.145968 0.839033 0.105486
0.154803 0.840894 0.0990005
0.153567 0.838422 0.0985885
0.151797 0.834974 0.0979629
0.234653 0.822629 0.0890211
0.347646 0.810666 0.114641
0.475471 0.804959 0.139071
0.590021 0.813596 0.157107
0.697627 0.822721 0.175601
0.776822 0.842206 0.172
0.854551 0.856077 0.188342
0.912093 0.872312 0.165164
0.947188 0.872068 0.177966
0.951156 0.866102 0.16524
0.950545 0.8636 0.161135
0.949935 0.861234 0.157305
0.949523 0.859586 0.154589
0.949065 0.857969 0.151858
0.94873 0.856687 0.149767
0.948486 0.855695 0.14815
0.948363 0.855009 0.147097
0.948257 0.85452 0.146334
0.948165 0.854109 0.145663
0.948089 0.853803 0.145159
0.948043 0.85359 0.144823
0.947997 0.853422 0.144533
0.947967 0.853315 0.144366
0.132662 0.898375 0.189319
0.133257 0.899031 0.183291
0.133761 0.900038 0.175113
0.13431 0.901396 0.163897
0.135744 0.904036 0.143923
0.148577 0.907164 0.130282
0.168246 0.91165 0.12221
0.1823 0.921843 0.114153
0.182757 0.919051 0.113542
0.184054 0.915312 0.112627
0.233158 0.907103 0.11014
0.345815 0.888365 0.12517
0.470176 0.874174 0.144503
0.595819 0.878309 0.164034
0.706905 0.889479 0.188922
0.799908 0.907897 0.196933
0.860441 0.922988 0.198764
0.908995 0.926513 0.22269
0.943023 0.927306 0.226413
0.958679 0.924483 0.233387
0.958282 0.921065 0.229389
0.958144 0.919783 0.227955
0.958007 0.91841 0.226429
0.957885 0.917235 0.225177
0.957778 0.916289 0.224231
0.957717 0.915572 0.223438
0.957656 0.915007 0.222812
0.95761 0.914611 0.222385
0.957595 0.914351 0.22208
0.957565 0.914153 0.221836
0.957549 0.914015 0.221653
0.957534 0.913909 0.221515
0.957534 0.913848 0.221439
0.114214 0.954849 0.209201
0.113954 0.95491 0.206577
0.113603 0.954986 0.203052
0.113466 0.955016 0.201602
0.113436 0.955032 0.201221
0.113176 0.955093 0.198474
0.112642 0.955184 0.193393
0.112047 0.955276 0.187396
0.111788 0.955398 0.180087
0.113695 0.955444 0.173571
0.11664 0.955535 0.162554
0.299001 0.950561 0.148287
0.450584 0.934936 0.178988
0.590845 0.92845 0.205951
0.704448 0.934264 0.236866
0.80473 0.941451 0.261631
0.862593 0.95584 0.252308
0.906218 0.963455 0.2589
0.943114 0.964599 0.290486
0.965087 0.964797 0.292988
0.964813 0.96257 0.288396
0.964645 0.961898 0.287098
0.964492 0.961212 0.285786
0.964355 0.960632 0.284642
0.964248 0.960143 0.283711
0.964172 0.959747 0.282979
0.964096 0.959457 0.282445
0.964065 0.959243 0.282078
0.964034 0.959106 0.281819
0.964004 0.959014 0.281651
0.963989 0.958938 0.281529
0.963973 0.958892 0.281422
0.963973 0.958846 0.281346
0.123339 0.953384 0.305913
0.123278 0.953399 0.305196
0.123201 0.953414 0.304204
0.123095 0.953445 0.302739
0.122942 0.953475 0.300755
0.122759 0.953521 0.298405
0.122637 0.953552 0.296849
0.122362 0.953597 0.293538
0.122057 0.953658 0.289616
0.122057 0.953658 0.289616
0.122057 0.953658 0.289616
0.11751 0.954345 0.241169
0.275822 0.95172 0.142336
0.496223 0.944625 0.201221
0.653513 0.944778 0.238895
0.766354 0.950134 0.274052
0.851865 0.962737 0.292332
0.899733 0.976135 0.288502
0.939757 0.980957 0.305989
0.965362 0.981964 0.338537
0.971252 0.982101 0.347662
0.970657 0.982162 0.339681
0.970626 0.982162 0.339361
0.970611 0.982162 0.339086
0.970581 0.982177 0.338872
0.970565 0.982177 0.338674
0.97055 0.982177 0.338491
0.97055 0.982177 0.338354
0.970535 0.982177 0.338247
0.970535 0.982177 0.33817
0.97052 0.982177 0.338094
0.97052 0.982177 0.338064
0.97052 0.982177 0.338018
0.123491 0.953353 0.307942
0.123445 0.953368 0.30724
0.123369 0.953384 0.306233
0.123247 0.953399 0.304891
0.123095 0.953445 0.302861
0.122896 0.95349 0.300099
0.122698 0.953536 0.297444
0.122515 0.953582 0.295186
0.122072 0.953658 0.289784
0.122057 0.953658 0.289616
0.122057 0.953658 0.289616
0.120546 0.953918 0.268925
0.143313 0.955352 0.128542
0.391043 0.947845 0.173358
0.573846 0.942962 0.220218
0.711421 0.947234 0.256519
0.812451 0.954986 0.286763
0.880629 0.97171 0.286213
0.925277 0.980011 0.298146
0.958465 0.981857 0.320562
0.97084 0.982147 0.342245
0.971496 0.982086 0.350835
0.971496 0.982086 0.350866
0.971511 0.982086 0.350942
0.971511 0.982071 0.351019
0.971511 0.982086 0.35108
0.971511 0.982071 0.35111
0.971527 0.982071 0.351125
0.971527 0.982071 0.351156
0.971527 0.982071 0.351171
0.971527 0.982071 0.351171
0.971527 0.982071 0.351171
0.971527 0.982071 0.351186
0.123598 0.953338 0.309331
0.123552 0.953338 0.308736
0.123491 0.953353 0.307942
0.123384 0.953384 0.306569
0.123232 0.953399 0.304723
0.123033 0.95346 0.3019
0.122774 0.953521 0.298558
0.122621 0.953552 0.296605
0.122194 0.953628 0.291234
0.122057 0.953658 0.289616
0.122057 0.953658 0.289616
0.122042 0.953658 0.289509
0.118944 0.955459 0.164416
0.355779 0.948974 0.163638
0.531014 0.943771 0.210025
0.688518 0.946151 0.249363
0.796109 0.953033 0.282017
0.870146 0.968704 0.287877
0.916503 0.979217 0.293843
0.952438 0.981598 0.315526
0.970596 0.982177 0.339025
0.971344 0.982086 0.348852
0.971466 0.982086 0.350317
0.971466 0.982086 0.350317
0.971466 0.982086 0.350317
0.971466 0.982086 0.350317
0.971466 0.982086 0.350317
0.971466 0.982086 0.350317
0.971466 0.982086 0.350317
0.971466 0.982086 0.350317
0.971466 0.982086 0.350317
0.971466 0.982086 0.350317
0.971466 0.982086 0.350317
0.12369 0.953323 0.310521
0.123644 0.953323 0.309941
0.123583 0.953338 0.309071
0.123491 0.953353 0.307973
0.123354 0.953384 0.30605
0.12314 0.953429 0.30341
0.122866 0.95349 0.299733
0.122652 0.953552 0.296941
0.122286 0.953613 0.29247
0.122057 0.953658 0.289616
0.122057 0.953658 0.289616
0.122057 0.953658 0.289616
0.113344 0.955047 0.200381
0.322499 0.950118 0.154803
0.505913 0.944396 0.203754
0.669261 0.945342 0.243473
0.78204 0.951354 0.278553
0.860777 0.965713 0.28986
0.909804 0.978088 0.291081
0.947188 0.981323 0.311406
0.970169 0.982177 0.336355
0.97116 0.982116 0.346441
0.971466 0.982086 0.350317
0.971466 0.982086 0.350317
0.971466 0.982086 0.350317
0.971466 0.982086 0.350317
0.971466 0.982086 0.350317
0.971466 0.982086 0.350317
0.971466 0.982086 0.350317
0.971466 0.982086 0.350317
0.971466 0.982086 0.350317
0.971466 0.982086 0.350317
0.971466 0.982086 0.350317
0.123766 0.953307 0.311467
0.12372 0.953323 0.310857
0.123644 0.953323 0.310018
0.123568 0.953338 0.308888
0.12343 0.953368 0.30721
0.123232 0.953414 0.304601
0.122942 0.953475 0.300786
0.122683 0.953536 0.297276
0.122362 0.953597 0.293355
0.122057 0.953658 0.289616
0.122057 0.953658 0.289616
0.122057 0.953658 0.289616
0.115282 0.954681 0.219593
0.294896 0.951095 0.147494
0.488167 0.944839 0.199115
0.651682 0.944701 0.238361
0.770932 0.950408 0.275471
0.852857 0.963073 0.292058
0.904158 0.97702 0.289464
0.942718 0.981094 0.307942
0.966674 0.982086 0.331075
0.971008 0.982132 0.344442
0.971466 0.982086 0.350317
0.971466 0.982086 0.350317
0.971466 0.982086 0.350317
0.971466 0.982086 0.350317
0.971466 0.982086 0.350317
0.971466 0.982086 0.350317
0.971466 0.982086 0.350317
0.971466 0.982086 0.350317
0.971466 0.982086 0.350317
0.971466 0.982086 0.350317
0.971466 0.982086 0.350317
0.123812 0.953307 0.312139
0.123766 0.953307 0.311574
0.123705 0.953323 0.310735
0.123629 0.953338 0.309621
0.123491 0.953353 0.308003
0.123308 0.953399 0.30544
0.123018 0.95346 0.301747
0.122698 0.953536 0.297459
0.122423 0.953597 0.294102
0.122057 0.953658 0.289616
0.122057 0.953658 0.289616
0.122057 0.953658 0.289616
0.116701 0.954467 0.233417
0.272831 0.951812 0.141543
0.475547 0.945235 0.195895
0.638544 0.944213 0.234409
0.759594 0.949737 0.271885
0.847303 0.961135 0.293965
0.899382 0.976059 0.288396
0.938659 0.980896 0.305425
0.963882 0.982025 0.327199
0.970886 0.982147 0.342794
0.971466 0.982086 0.350317
0.971466 0.982086 0.350317
0.971466 0.982086 0.350317
0.971466 0.982086 0.350317
0.971466 0.982086 0.350317
0.971466 0.982086 0.350317
0.971466 0.982086 0.350317
0.971466 0.982086 0.350317
0.971466 0.982086 0.350317
0.971466 0.982086 0.350317
0.971466 0.982086 0.350317
0.123857 0.953292 0.312688
0.123827 0.953307 0.312154
0.123751 0.953307 0.311269
0.123659 0.953323 0.310155
0.123537 0.953338 0.308598
0.123354 0.953384 0.306127
0.123064 0.953445 0.302434
0.122728 0.953536 0.298009
0.122469 0.953582 0.294636
0.122057 0.953658 0.289616
0.122057 0.953658 0.289616
0.122057 0.953658 0.289616
0.117723 0.954314 0.243244
0.25214 0.95256 0.13611
0.465766 0.945495 0.193393
0.627909 0.943908 0.231357
0.751049 0.949248 0.269139
0.842527 0.959426 0.295506
0.895598 0.975265 0.287633
0.935393 0.980713 0.303548
0.961456 0.981964 0.323842
0.970794 0.982147 0.34165
0.971389 0.982086 0.349462
0.971466 0.982086 0.350317
0.971466 0.982086 0.350317
0.971466 0.982086 0.350317
0.971466 0.982086 0.350317
0.971466 0.982086 0.350317
0.971466 0.982086 0.350317
0.971466 0.982086 0.350317
0.971466 0.982086 0.350317
0.971466 0.982086 0.350317
0.971466 0.982086 0.350317
0.123888 0.953292 0.313115
0.123842 0.953307 0.312505
0.123781 0.953307 0.311711
0.12369 0.953323 0.310552
0.123568 0.953338 0.308995
0.1234 0.953368 0.306554
0.12311 0.953445 0.302937
0.122759 0.953521 0.298405
0.122499 0.953582 0.295033
0.122057 0.953658 0.289616
0.122057 0.953658 0.289616
0.122057 0.953658 0.289616
0.118715 0.954192 0.250507
0.235584 0.953079 0.131762
0.459403 0.945663 0.19173
0.619211 0.943603 0.228855
0.745907 0.949004 0.267536
0.838315 0.958312 0.295598
0.893019 0.974716 0.28716
0.932601 0.980529 0.30193
0.959655 0.981903 0.321508
0.970733 0.982162 0.340719
0.971328 0.982086 0.348714
0.971466 0.982086 0.350317
0.971466 0.982086 0.350317
0.971466 0.982086 0.350317
0.971466 0.982086 0.350317
0.971466 0.982086 0.350317
0.971466 0.982086 0.350317
0.971466 0.982086 0.350317
0.971466 0.982086 0.350317
0.971466 0.982086 0.350317
0.971466 0.982086 0.350317
0.123919 0.953292 0.313405
0.123873 0.953292 0.312825
0.123812 0.953307 0.312032
0.12372 0.953323 0.310887
0.123598 0.953338 0.309285
0.123415 0.953368 0.306966
0.12314 0.953429 0.30338
0.122789 0.953521 0.29868
0.12253 0.953582 0.29543
0.122057 0.953658 0.289616
0.122057 0.953658 0.289616
0.122057 0.953658 0.289616
0.11928 0.954116 0.255833
0.221988 0.953521 0.128985
0.45301 0.945861 0.190005
0.612497 0.943328 0.227756
0.741054 0.948745 0.265965
0.834424 0.957794 0.294133
0.891096 0.974304 0.286854
0.930358 0.980392 0.30074
0.958328 0.981857 0.320439
0.970672 0.982162 0.339986
0.971283 0.982101 0.348013
0.971466 0.982086 0.350317
0.971466 0.982086 0.350317
0.971466 0.982086 0.350317
0.971466 0.982086 0.350317
0.971466 0.982086 0.350317
0.971466 0.982086 0.350317
0.971466 0.982086 0.350317
0.971466 0.982086 0.350317
0.971466 0.982086 0.350317
0.971466 0.982086 0.350317
0.123934 0.953292 0.313695
0.123888 0.953292 0.313039
0.123827 0.953307 0.312261
0.123735 0.953323 0.311086
0.123613 0.953338 0.309499
0.123445 0.953368 0.307317
0.123156 0.953429 0.303685
0.122805 0.953506 0.298939
0.122545 0.953567 0.295644
