bundles/resolve-cinematic-luts/Phantom Luts/Komodo Phantom ARRI LUTs G2/Komodo Phantom ARRI LUTs G2/33x/WB Offset - Green Boost/Neutral_Komodo_WBO_Legacy_G2_33x.cube
TITLE "Generated by Resolve"
LUT_3D_SIZE 33
0.0420081 0.0420081 0.0420081
0.0420081 0.0420081 0.0420081
0.0434424 0.0419928 0.0419776
0.0565499 0.0421759 0.0424048
0.0742046 0.0413672 0.0429541
0.0988937 0.0399329 0.0438392
0.12932 0.0376745 0.0459907
0.169253 0.0355077 0.0500496
0.214694 0.0343481 0.0540017
0.267948 0.0344701 0.0607004
0.330571 0.0363012 0.0697185
0.404746 0.0367132 0.0839704
0.489326 0.035874 0.101991
0.5776 0.0324712 0.121233
0.664988 0.0247349 0.140948
0.742 0.0305638 0.153002
0.780331 0.0305638 0.167422
0.784237 0.0305638 0.174914
0.787335 0.0305638 0.181353
0.790021 0.0305638 0.187594
0.79237 0.0305638 0.193088
0.794598 0.0305638 0.197757
0.796109 0.0305638 0.201068
0.79762 0.0305638 0.204303
0.798856 0.0305638 0.206912
0.799725 0.0163577 0.208865
0.800366 0.0165408 0.21033
0.800839 0.0166629 0.211414
0.80116 0.0167697 0.212253
0.801419 0.016846 0.212833
0.801587 0.016907 0.213275
0.801709 0.0169375 0.213581
0.801785 0.016968 0.213794
0.0420081 0.0420081 0.0420081
0.0420081 0.0420081 0.0420081
0.0420081 0.0420081 0.0420081
0.0532845 0.0423438 0.0423438
0.0706188 0.0416724 0.0427405
0.0953078 0.0402075 0.0436255
0.125826 0.0379339 0.0456245
0.166445 0.0353246 0.0486
0.210422 0.0335546 0.0512856
0.262547 0.032639 0.056199
0.326024 0.0336767 0.0635843
0.400412 0.0342107 0.0770581
0.486381 0.0330968 0.0948501
0.573129 0.029984 0.114199
0.661448 0.0223239 0.132403
0.738613 0.0305638 0.145159
0.7776 0.0305638 0.161364
0.781353 0.0305638 0.169192
0.784772 0.0305638 0.176226
0.787579 0.0305638 0.181888
0.789837 0.0305638 0.187213
0.79176 0.0305638 0.191608
0.793423 0.0305638 0.195361
0.794781 0.0305638 0.198108
0.795636 0.0305638 0.199908
0.796414 0.0305638 0.20177
0.797086 0.0305638 0.203159
0.797589 0.0305638 0.204211
0.79794 0.0305638 0.20502
0.798245 0.0305638 0.205615
0.798444 0.0305638 0.206073
0.798566 0.0305638 0.206378
0.798688 0.0305638 0.206622
0.0420081 0.0420081 0.0420081
0.0420081 0.0420081 0.0420081
0.0420081 0.0420081 0.0420081
0.0469062 0.0430304 0.042237
0.0631418 0.0431983 0.0426337
0.0866407 0.0422217 0.0429389
0.118669 0.0399939 0.0446326
0.160021 0.037232 0.0474861
0.205463 0.0348669 0.0506752
0.257908 0.0331884 0.0545052
0.319692 0.032929 0.059205
0.392813 0.0315099 0.0668956
0.479118 0.0297704 0.0830701
0.567864 0.0262303 0.103777
0.656962 0.0192874 0.121462
0.732769 0.0305638 0.131853
0.771527 0.0305638 0.147662
0.777447 0.0305638 0.160967
0.780911 0.0305638 0.168429
0.784115 0.0305638 0.174609
0.786404 0.0305638 0.179675
0.788312 0.0305638 0.183612
0.789776 0.0305638 0.187076
0.790936 0.0305638 0.189776
0.791867 0.0305638 0.191913
0.792599 0.0305638 0.193576
0.793149 0.0305638 0.194827
0.793652 0.0305638 0.195789
0.794003 0.0305638 0.196536
0.794263 0.0305638 0.19707
0.79443 0.0305638 0.197406
0.794537 0.0305638 0.19762
0.794598 0.0305638 0.197757
0.0424659 0.0511635 0.0425116
0.0424506 0.0505837 0.0424811
0.0435492 0.0494087 0.0424964
0.0468757 0.0474098 0.0426795
0.0567941 0.0489052 0.0438697
0.0768597 0.0471351 0.0433051
0.108537 0.0435798 0.043183
0.150286 0.0410925 0.0455024
0.197665 0.0385748 0.0493324
0.251118 0.0367895 0.0527504
0.31458 0.0364691 0.0576638
0.387839 0.0335546 0.0647135
0.469993 0.0287327 0.0732128
0.555825 0.022446 0.0852064
0.645991 0.0305638 0.104051
0.724666 0.0305638 0.113802
0.762341 0.0305638 0.125887
0.769207 0.0305638 0.14139
0.775769 0.0305638 0.155306
0.778485 0.0305638 0.163363
0.781155 0.0305638 0.168856
0.783368 0.0305638 0.173159
0.784909 0.0305638 0.176547
0.78613 0.0305638 0.179232
0.787045 0.0305638 0.180728
0.787732 0.0305638 0.182269
0.788251 0.0305638 0.183444
0.788647 0.0305638 0.184298
0.788937 0.0305638 0.184939
0.78912 0.0305638 0.185428
0.789273 0.0305638 0.185748
0.789364 0.0305638 0.185992
0.789441 0.0305638 0.186191
0.0429236 0.0664836 0.0428168
0.0429084 0.0657359 0.0428168
0.0432593 0.0648051 0.0428626
0.0484474 0.0623026 0.0433509
0.0579843 0.0611887 0.0435187
0.0771191 0.0613718 0.0464027
0.106828 0.0593576 0.0464179
0.144686 0.0548562 0.0440528
0.189639 0.0474098 0.0454261
0.242313 0.0419471 0.0502632
0.307118 0.0408942 0.0558175
0.380758 0.0374914 0.0628367
0.465049 0.0327611 0.0717632
0.551324 0.0256046 0.0822614
0.635615 0.0305638 0.0917983
0.707866 0.0305638 0.098436
0.741588 0.0305638 0.104555
0.750683 0.0305638 0.111513
0.75964 0.0305638 0.120912
0.766232 0.0305638 0.133944
0.770504 0.0305638 0.144701
0.775326 0.0305638 0.154055
0.776913 0.0305638 0.159045
0.778103 0.0305638 0.162524
0.779065 0.0305638 0.165011
0.779873 0.0305638 0.166629
0.780468 0.0305638 0.167697
0.780941 0.0305638 0.168505
0.781277 0.0305638 0.169085
0.781521 0.0305638 0.169558
0.781704 0.0305638 0.169909
0.781826 0.0305638 0.170153
0.781918 0.0305638 0.170321
0.0430304 0.0886091 0.043122
0.0428626 0.0878157 0.0424506
0.0428626 0.0867475 0.0424506
0.0471504 0.0845655 0.0429236
0.0547036 0.0810407 0.0436866
0.074876 0.0813001 0.0440681
0.107088 0.0813153 0.048188
0.147936 0.0768139 0.0509957
0.193744 0.0693065 0.0498054
0.243977 0.0607156 0.0476081
0.302846 0.0506142 0.0518654
0.370779 0.0431983 0.0601358
0.456336 0.037583 0.0686503
0.544747 0.0299687 0.0793927
0.632593 0.0195926 0.0897841
0.71133 0.0305638 0.0981155
0.747127 0.0305638 0.0999924
0.742123 0.0305638 0.0993973
0.737881 0.0305638 0.0989242
0.739712 0.0305638 0.101762
0.745403 0.0305638 0.106401
0.750362 0.0305638 0.110735
0.75407 0.0305638 0.114885
0.757656 0.0305638 0.118608
0.760418 0.0305638 0.122133
0.762142 0.0305638 0.12549
0.763256 0.0305638 0.127825
0.764065 0.0305638 0.129305
0.764706 0.0305638 0.130678
0.76524 0.0305638 0.131868
0.765606 0.0305638 0.132601
0.765866 0.0305638 0.133165
0.766049 0.0305638 0.133532
0.0421759 0.119921 0.0436408
0.0421759 0.119127 0.0417639
0.0422065 0.118242 0.0417945
0.0426642 0.11696 0.0418708
0.0522164 0.114137 0.0428168
0.0667277 0.112016 0.0438239
0.100435 0.111269 0.0442054
0.145586 0.111894 0.0486
0.198962 0.106584 0.0553292
0.254246 0.0960861 0.0561532
0.316014 0.081239 0.0561837
0.378317 0.0627604 0.0552529
0.451408 0.0477302 0.0615244
0.534661 0.0362249 0.0740368
0.626474 0.0250858 0.0852369
0.711574 0.0305638 0.0951705
0.766674 0.0305638 0.10132
0.762966 0.0305638 0.101061
0.759289 0.0305638 0.100893
0.755871 0.0305638 0.100694
0.752972 0.0305638 0.100557
0.750683 0.0305638 0.100343
0.748669 0.0305638 0.100145
0.747021 0.0305638 0.0999924
0.745739 0.0305638 0.0998398
0.744762 0.0305638 0.099733
0.744015 0.0305638 0.0996414
0.743465 0.0305638 0.0995804
0.743053 0.0305638 0.0995193
0.742687 0.0305638 0.0994888
0.742428 0.0305638 0.099443
0.742275 0.0305638 0.0994278
0.742153 0.0305638 0.0994125
0.0418708 0.161944 0.0457008
0.0419013 0.161227 0.0425727
0.0420996 0.160235 0.0415198
0.0421454 0.158801 0.0415503
0.0467384 0.156954 0.0420844
0.0591135 0.153933 0.0432136
0.0843519 0.153475 0.0440528
0.134432 0.152361 0.0442359
0.192187 0.153597 0.0499275
0.261402 0.147036 0.0617838
0.327626 0.134661 0.0652781
0.398489 0.116991 0.0673838
0.474296 0.0971237 0.0665141
0.549661 0.0648356 0.0630503
0.626062 0.0352789 0.0719005
0.707805 0.0184939 0.0869764
0.780118 0.0305638 0.0980697
0.78378 0.0305638 0.0996719
0.781155 0.0305638 0.100008
0.77847 0.0305638 0.100374
0.776211 0.0305638 0.100679
0.774212 0.0305638 0.100877
0.77258 0.0305638 0.101015
0.771679 0.0305638 0.101183
0.771023 0.0305638 0.101305
0.770306 0.0305638 0.10132
0.769894 0.0305638 0.10135
0.769604 0.0305638 0.101366
0.769375 0.0305638 0.101366
0.769207 0.0305638 0.101381
0.769085 0.0305638 0.101381
0.769009 0.0305638 0.101396
0.768948 0.0305638 0.101396
0.0434577 0.210178 0.0502174
0.0434119 0.209369 0.0464332
0.0433204 0.208225 0.0424353
0.0433661 0.207034 0.0423896
0.043473 0.205707 0.0424964
0.0543679 0.204593 0.0434272
0.0721141 0.2009 0.0450904
0.114 0.202365 0.0461891
0.178897 0.201266 0.0467842
0.249653 0.204623 0.0529335
0.335668 0.200244 0.0728466
0.413413 0.191653 0.0823377
0.494316 0.174655 0.0868086
0.578988 0.151293 0.0874342
0.663233 0.114504 0.0805219
0.742214 0.0599374 0.066743
0.807782 0.0305638 0.0732738
0.80975 0.0305638 0.0917372
0.80766 0.0305638 0.0929427
0.805875 0.0305638 0.093843
0.803815 0.0305638 0.0946059
0.802075 0.0305638 0.095201
0.80061 0.0305638 0.0956588
0.799619 0.0305638 0.096025
0.798749 0.0305638 0.0962997
0.798123 0.0305638 0.0965286
0.797665 0.0305638 0.0966812
0.797299 0.0305638 0.096788
0.79704 0.0305638 0.0968643
0.796841 0.0305638 0.0969253
0.796689 0.0305638 0.0969711
0.796597 0.0305638 0.0970016
0.796536 0.0305638 0.0970169
0.047715 0.269169 0.0569314
0.0477607 0.26865 0.0535286
0.0475013 0.267994 0.0495918
0.0472419 0.266682 0.0460059
0.0473793 0.264927 0.0458686
0.0485542 0.262867 0.0457771
0.0654612 0.262928 0.0475471
0.0926375 0.259129 0.0497749
0.154681 0.262959 0.0511635
0.234943 0.263294 0.0520943
0.320394 0.268238 0.0584421
0.415869 0.269078 0.084062
0.50544 0.262837 0.101045
0.592966 0.25095 0.105745
0.683391 0.224872 0.112108
0.773068 0.189731 0.104036
0.857008 0.142397 0.0847944
0.892287 0.0793469 0.0690471
0.878248 0.0413367 0.0613565
0.866423 0.0305638 0.0561074
0.849836 0.0305638 0.0697185
0.837736 0.0305638 0.0790417
0.836484 0.0305638 0.0798352
0.835325 0.0305638 0.0803693
0.83444 0.0305638 0.0808118
0.833783 0.0305638 0.0811627
0.833295 0.0305638 0.0813916
0.832944 0.0305638 0.08159
0.83267 0.0305638 0.0817121
0.832502 0.0305638 0.0818036
0.83238 0.0305638 0.0818799
0.832258 0.0305638 0.0819257
0.832181 0.0305638 0.0819562
0.0522621 0.340673 0.0660258
0.052369 0.340307 0.0627298
0.052369 0.339742 0.0582437
0.0518349 0.338659 0.0526894
0.0517739 0.337224 0.0510414
0.0516518 0.334981 0.0509194
0.0580911 0.334127 0.0513008
0.0824598 0.333043 0.0529335
0.125734 0.330755 0.055436
0.204929 0.335424 0.0574197
0.30164 0.337301 0.0576944
0.400671 0.344808 0.0655222
0.499718 0.355413 0.0860151
0.598001 0.351644 0.116625
0.688243 0.345846 0.126772
0.77763 0.331701 0.124147
0.865461 0.302434 0.118883
0.926452 0.253193 0.119448
0.922148 0.228504 0.11046
0.918486 0.206989 0.103151
0.914199 0.184955 0.0956436
0.910063 0.166751 0.0899367
0.907774 0.150896 0.0852979
0.905409 0.1364 0.0818647
0.903243 0.125917 0.0795453
0.901625 0.118471 0.0776532
0.900481 0.112734 0.0760967
0.899474 0.108385 0.0751049
0.89836 0.105043 0.0742809
0.897719 0.102556 0.0737163
0.897398 0.100694 0.0733654
0.897063 0.0992447 0.0730907
0.896757 0.0981613 0.0728466
0.05626 0.422705 0.0765545
0.05626 0.422354 0.0733959
0.0562448 0.42211 0.0681926
0.0556954 0.421714 0.0615702
0.0549325 0.42121 0.054139
0.0548867 0.419379 0.0539712
0.0546578 0.417044 0.0538491
0.0720073 0.417319 0.0555581
0.108446 0.414145 0.0586099
0.175753 0.413275 0.0630198
0.270191 0.419562 0.0667582
0.378943 0.423865 0.0662547
0.486656 0.431907 0.0768444
0.58175 0.449973 0.0801556
0.681071 0.449699 0.123919
0.769223 0.449287 0.137163
0.854566 0.446128 0.130068
0.922515 0.436362 0.121248
0.931167 0.414801 0.123644
0.93257 0.3944 0.121065
0.934218 0.376257 0.118013
0.934951 0.360113 0.114656
0.934188 0.347646 0.115816
0.933303 0.33814 0.116732
0.932342 0.330648 0.117403
0.931823 0.324926 0.117754
0.932158 0.321294 0.118135
0.931914 0.318257 0.118273
0.931701 0.315999 0.118379
0.931517 0.314336 0.118441
0.931395 0.313054 0.118517
0.931502 0.312276 0.118669
0.931456 0.311559 0.118715
0.0628977 0.513207 0.0923018
0.0629587 0.512978 0.0886091
0.0630503 0.512886 0.0826734
0.0627909 0.513115 0.0753643
0.062211 0.513802 0.0664836
0.0636759 0.515114 0.0605478
0.063508 0.513085 0.0604105
0.0627909 0.510124 0.060029
0.0955673 0.507637 0.0616464
0.151995 0.501884 0.0673228
0.242527 0.503471 0.0752728
0.352773 0.509255 0.07953
0.463127 0.515236 0.0775158
0.56994 0.521202 0.0928817
0.66389 0.538964 0.0833906
0.75024 0.553017 0.103807
0.829831 0.561776 0.118959
0.892271 0.571893 0.102678
0.903014 0.561776 0.109224
0.905653 0.549737 0.112978
0.908248 0.539269 0.115526
0.910826 0.530098 0.116991
0.912505 0.523522 0.117739
0.914458 0.517632 0.118395
0.915648 0.512779 0.118547
0.917021 0.509178 0.1187
0.917937 0.506493 0.118776
0.918486 0.504372 0.118776
0.918853 0.502846 0.118746
0.919158 0.501656 0.118746
0.919402 0.500801 0.11873
0.919585 0.500175 0.118715
0.919707 0.499718 0.1187
0.0744793 0.604746 0.11313
0.074464 0.604822 0.108476
0.074342 0.604776 0.102968
0.0741894 0.605142 0.0940414
0.0746166 0.606897 0.0834821
0.076936 0.609476 0.072694
0.0796979 0.6094 0.0699016
0.0791028 0.606577 0.0695354
0.0853132 0.602502 0.0680858
0.142229 0.596811 0.0721752
0.214069 0.588663 0.0817578
0.328832 0.591852 0.0924697
0.445121 0.596689 0.0973526
0.546593 0.605234 0.0937362
0.650217 0.613382 0.109575
0.7449 0.630518 0.0967575
0.822248 0.65124 0.084123
0.879179 0.673335 0.0562448
0.893034 0.675456 0.0525063
0.893507 0.667994 0.0557717
0.893553 0.661219 0.0585641
0.893812 0.655344 0.0608988
0.894057 0.650736 0.0628061
0.894026 0.646906 0.0642405
0.894194 0.643977 0.0653697
0.894499 0.641794 0.0663615
0.894606 0.640055 0.0670787
0.894591 0.638727 0.0675517
0.894575 0.637797 0.0678874
0.894575 0.637034 0.0681773
0.894591 0.63653 0.0683757
0.894591 0.636149 0.0685435
0.894591 0.63592 0.0686198
0.088426 0.69453 0.133028
0.0885023 0.694835 0.128618
0.0892805 0.695369 0.122057
0.0901198 0.69662 0.113603
0.0906386 0.698695 0.102312
0.0925154 0.701015 0.089128
0.103487 0.704921 0.0811627
0.10248 0.702129 0.0809644
0.101503 0.698695 0.0805066
0.126604 0.6916 0.0762036
0.205097 0.682506 0.0865339
0.299107 0.672663 0.10013
0.423697 0.677913 0.111406
0.540887 0.684825 0.119051
0.633402 0.699306 0.116152
0.732601 0.711299 0.131777
0.824399 0.728023 0.122774
0.891203 0.752453 0.0839704
0.927001 0.760479 0.0760052
0.923827 0.751995 0.0711681
0.921874 0.747372 0.0686656
0.920577 0.743664 0.0668803
0.919036 0.740139 0.0653239
0.917845 0.737301 0.0642405
0.917479 0.736034 0.0638132
0.917205 0.735012 0.0634775
0.916686 0.733822 0.0630808
0.916274 0.732952 0.0627756
0.915984 0.732296 0.0625772
0.915785 0.731807 0.0624247
0.915633 0.731456 0.0623178
0.915526 0.731197 0.0622263
0.91545 0.731014 0.0621805
0.104433 0.782956 0.152636
0.104921 0.783597 0.147494
0.105699 0.784588 0.140246
0.106249 0.786328 0.130541
0.106615 0.788327 0.118929
0.110536 0.791333 0.104875
0.124117 0.795941 0.0969253
0.131594 0.798199 0.0924544
0.130602 0.795239 0.0922255
0.128954 0.790768 0.0916915
0.196155 0.776577 0.0859236
0.292348 0.763226 0.103716
0.412818 0.75729 0.120302
0.530007 0.768124 0.135149
0.642405 0.779385 0.151293
0.727459 0.803342 0.148669
0.819089 0.820966 0.161715
0.893324 0.841535 0.143328
0.942184 0.841291 0.153903
0.947967 0.833844 0.143511
0.94699 0.830549 0.13994
0.945998 0.827436 0.136614
0.945327 0.825345 0.134264
0.944961 0.82359 0.132113
0.944442 0.821958 0.130297
0.944045 0.820691 0.128893
0.943816 0.819837 0.127962
0.943664 0.819211 0.127306
0.943511 0.818677 0.126726
0.943374 0.81828 0.126284
0.943297 0.818021 0.125994
0.943236 0.817807 0.12575
0.943191 0.81767 0.125597
0.115938 0.871885 0.160739
0.11635 0.87277 0.15613
0.116686 0.874128 0.149798
0.117067 0.875959 0.140261
0.118044 0.87953 0.123491
0.127398 0.88394 0.114534
0.144274 0.89012 0.10927
0.155688 0.903685 0.103975
0.156161 0.900191 0.103685
0.157046 0.895033 0.102953
0.196048 0.884062 0.101183
0.291844 0.859953 0.111482
0.408621 0.84242 0.124743
0.536843 0.848341 0.141802
0.653101 0.863188 0.162112
0.754192 0.887907 0.168475
0.826703 0.908049 0.169894
0.889326 0.912871 0.18912
0.936248 0.913924 0.192142
0.95787 0.909957 0.197894
0.957305 0.905257 0.194553
0.957122 0.903532 0.193362
0.956909 0.901671 0.192081
0.956863 0.900221 0.191135
0.956893 0.899123 0.190448
0.956786 0.898146 0.189792
0.956695 0.897383 0.189273
0.956649 0.896849 0.188907
0.956603 0.896498 0.188647
0.956573 0.896223 0.188449
0.956542 0.89604 0.188296
0.956527 0.895888 0.18819
0.956512 0.895811 0.188128
0.104341 0.950927 0.176761
0.104204 0.95108 0.174655
0.10399 0.951232 0.171984
0.103899 0.951278 0.170871
0.103868 0.951293 0.170565
0.1037 0.95137 0.168475
0.103334 0.951461 0.164569
0.102892 0.951568 0.15996
0.102693 0.95169 0.15436
0.10399 0.951766 0.149218
0.105913 0.951873 0.139849
0.251347 0.94583 0.128313
0.390082 0.924117 0.15433
0.532204 0.91516 0.175113
0.65069 0.923781 0.200702
0.759747 0.934127 0.221103
0.829038 0.954147 0.21326
0.885069 0.963272 0.218509
0.935699 0.964538 0.244556
0.964904 0.964538 0.246479
0.964813 0.962051 0.242832
0.964614 0.961227 0.241764
0.964416 0.960388 0.240665
0.964248 0.959655 0.239704
0.964111 0.959045 0.238926
0.964004 0.958556 0.238315
0.963928 0.958206 0.237873
0.963867 0.957946 0.237568
0.963836 0.957763 0.237354
0.963806 0.957641 0.237217
0.96379 0.957549 0.23711
0.96376 0.957504 0.237018
0.96376 0.957443 0.236957
0.110445 0.94905 0.256916
0.110414 0.949081 0.256291
0.110369 0.949126 0.255436
0.110307 0.949203 0.25417
0.110231 0.949294 0.252445
0.110124 0.949371 0.250477
0.110033 0.949401 0.24918
0.10985 0.949447 0.246418
0.109621 0.949508 0.243153
0.109621 0.949508 0.243153
0.109621 0.949508 0.243153
0.106493 0.950179 0.203006
0.231922 0.947143 0.123293
0.435477 0.937972 0.171359
0.597299 0.938811 0.202426
0.716487 0.94641 0.231327
0.81593 0.962783 0.246464
0.876249 0.978744 0.242908
0.930617 0.984405 0.257557
0.964691 0.985153 0.285878
0.971923 0.98529 0.293889
0.971176 0.985367 0.28687
0.971145 0.985382 0.28658
0.97113 0.985382 0.286336
0.971099 0.985382 0.286152
0.971084 0.985382 0.285969
0.971069 0.985382 0.285801
0.971054 0.985382 0.285679
0.971038 0.985382 0.285588
0.971038 0.985382 0.285527
0.971023 0.985382 0.285466
0.971023 0.985382 0.285435
0.971023 0.985382 0.285389
0.110521 0.948959 0.258671
0.110506 0.948989 0.258061
0.11046 0.949035 0.257206
0.110399 0.949096 0.256046
0.110323 0.949203 0.254276
0.110201 0.949325 0.251881
0.110079 0.949401 0.249668
0.109941 0.949432 0.247791
0.109636 0.949508 0.24329
0.109621 0.949508 0.243153
0.109621 0.949508 0.243153
0.108568 0.949767 0.225895
0.123552 0.951476 0.113725
0.333043 0.942214 0.149798
0.514916 0.935882 0.186892
0.658152 0.942336 0.216907
0.768536 0.95314 0.241794
0.851774 0.973495 0.241138
0.910063 0.983276 0.250751
0.956466 0.98529 0.270237
0.97142 0.985336 0.289113
0.972229 0.98526 0.296681
0.972229 0.98526 0.296727
0.972229 0.98526 0.296788
0.972244 0.98526 0.296849
0.972244 0.98526 0.296895
0.972244 0.98526 0.296941
0.972244 0.98526 0.296956
0.972259 0.98526 0.296971
0.972259 0.98526 0.296986
0.972259 0.98526 0.296986
0.972259 0.98526 0.296986
0.972259 0.98526 0.297002
0.110582 0.948898 0.259876
0.110552 0.948928 0.259358
0.110521 0.948959 0.258671
0.110475 0.94902 0.257481
0.110384 0.949096 0.255879
0.110277 0.949248 0.253437
0.110124 0.949371 0.250599
0.110018 0.949401 0.248966
0.109712 0.949477 0.244495
0.109621 0.949508 0.243153
0.109621 0.949508 0.243153
0.109621 0.949508 0.243061
0.107439 0.951812 0.141451
0.301411 0.943664 0.141436
0.471015 0.936858 0.178408
0.633997 0.940871 0.211078
0.749798 0.950515 0.237949
0.838666 0.970016 0.242679
0.898314 0.982284 0.247166
0.948394 0.98497 0.265797
0.971115 0.985382 0.28629
0.97203 0.985275 0.294942
0.972183 0.98526 0.296239
0.972183 0.98526 0.296239
0.972183 0.98526 0.296239
0.972183 0.98526 0.296239
0.972183 0.98526 0.296239
0.972183 0.98526 0.296239
0.972183 0.98526 0.296239
0.972183 0.98526 0.296239
0.972183 0.98526 0.296239
0.972183 0.98526 0.296239
0.972183 0.98526 0.296239
0.110628 0.948852 0.260914
0.110613 0.948867 0.26041
0.110567 0.948913 0.259648
0.110521 0.948943 0.258701
0.11046 0.94905 0.257038
0.110338 0.949172 0.254749
0.110201 0.94934 0.251575
0.110048 0.949401 0.249256
0.109789 0.949462 0.245533
0.109621 0.949508 0.243153
0.109621 0.949508 0.243153
0.109621 0.949508 0.243153
0.103822 0.951308 0.169924
0.272007 0.945205 0.133852
0.445441 0.937758 0.173358
0.613535 0.939467 0.206104
0.734096 0.948272 0.235142
0.826688 0.966247 0.244266
0.889693 0.981186 0.24506
0.940917 0.984634 0.262165
0.970596 0.985382 0.28394
0.971801 0.985306 0.292821
0.972183 0.98526 0.296239
0.972183 0.98526 0.296239
0.972183 0.98526 0.296239
0.972183 0.98526 0.296239
0.972183 0.98526 0.296239
0.972183 0.98526 0.296239
0.972183 0.98526 0.296239
0.972183 0.98526 0.296239
0.972183 0.98526 0.296239
0.972183 0.98526 0.296239
0.972183 0.98526 0.296239
0.110674 0.948806 0.261738
0.110643 0.948837 0.261189
0.110613 0.948867 0.260471
0.110567 0.948913 0.259495
0.110491 0.948989 0.258045
0.110384 0.949111 0.255772
0.110231 0.949294 0.252491
0.110063 0.949386 0.249531
0.109834 0.949462 0.246265
0.109621 0.949508 0.243153
0.109621 0.949508 0.243153
0.109621 0.949508 0.243153
0.104967 0.95053 0.185214
0.247929 0.946532 0.127611
0.427451 0.938506 0.169879
0.595376 0.938689 0.201968
0.721614 0.946868 0.232547
0.817105 0.963149 0.246204
0.88217 0.979843 0.243717
0.934539 0.984344 0.259113
0.966369 0.985351 0.279332
0.971618 0.985321 0.291066
0.972183 0.98526 0.296239
0.972183 0.98526 0.296239
0.972183 0.98526 0.296239
0.972183 0.98526 0.296239
0.972183 0.98526 0.296239
0.972183 0.98526 0.296239
0.972183 0.98526 0.296239
0.972183 0.98526 0.296239
0.972183 0.98526 0.296239
0.972183 0.98526 0.296239
0.972183 0.98526 0.296239
0.110689 0.948791 0.262318
0.110674 0.948806 0.261814
0.110628 0.948837 0.261082
0.110597 0.948882 0.260121
0.110521 0.948959 0.258732
0.11043 0.949081 0.256504
0.110277 0.949248 0.2533
0.110079 0.949386 0.249683
0.10988 0.949447 0.246876
0.109621 0.949508 0.243153
0.109621 0.949508 0.243153
0.109621 0.949508 0.243153
0.105943 0.950317 0.196612
0.229404 0.94725 0.122744
0.414801 0.938918 0.16733
0.581598 0.937804 0.198627
0.709194 0.945785 0.22948
0.810254 0.960754 0.247776
0.875792 0.978637 0.242802
0.929122 0.98439 0.257099
0.963149 0.985489 0.276081
0.971466 0.985336 0.289601
0.972183 0.98526 0.296239
0.972183 0.98526 0.296239
0.972183 0.98526 0.296239
0.972183 0.98526 0.296239
0.972183 0.98526 0.296239
0.972183 0.98526 0.296239
0.972183 0.98526 0.296239
0.972183 0.98526 0.296239
0.972183 0.98526 0.296239
0.972183 0.98526 0.296239
0.972183 0.98526 0.296239
0.110719 0.94876 0.262791
0.110704 0.948791 0.262318
0.110658 0.948821 0.261555
0.110613 0.948867 0.260594
0.110552 0.948928 0.259236
0.11046 0.949035 0.257099
0.110307 0.949218 0.25391
0.110109 0.949386 0.250141
0.109911 0.949432 0.247333
0.109621 0.949508 0.243153
0.109621 0.949508 0.243153
0.109621 0.949508 0.243153
0.10663 0.950149 0.204715
0.212421 0.948379 0.119158
0.405035 0.939147 0.165347
0.570687 0.937575 0.196246
0.700252 0.945327 0.227359
0.804318 0.958602 0.249012
0.870741 0.977646 0.242176
0.924483 0.984161 0.255451
0.960174 0.985428 0.273121
0.971359 0.985351 0.288594
0.972091 0.985275 0.295476
0.972183 0.98526 0.296239
0.972183 0.98526 0.296239
0.972183 0.98526 0.296239
0.972183 0.98526 0.296239
0.972183 0.98526 0.296239
0.972183 0.98526 0.296239
0.972183 0.98526 0.296239
0.972183 0.98526 0.296239
0.972183 0.98526 0.296239
0.972183 0.98526 0.296239
0.110735 0.94876 0.263172
0.110704 0.948775 0.262623
0.110674 0.948806 0.261936
0.110628 0.948852 0.260929
0.110567 0.948913 0.259586
0.110475 0.94902 0.257481
0.110323 0.949187 0.254337
0.110124 0.949371 0.250477
0.109941 0.949432 0.247669
0.109621 0.949508 0.243153
0.109621 0.949508 0.243153
0.109621 0.949508 0.243153
0.107301 0.950042 0.210697
0.198688 0.948867 0.116167
0.398672 0.939315 0.164034
0.561532 0.937026 0.19411
0.694713 0.94493 0.225986
0.799084 0.957198 0.249058
0.867582 0.977249 0.241947
0.920501 0.983932 0.254017
0.957946 0.985351 0.271077
0.971283 0.985351 0.28777
0.972015 0.985275 0.29482
0.972183 0.98526 0.296239
0.972183 0.98526 0.296239
0.972183 0.98526 0.296239
0.972183 0.98526 0.296239
0.972183 0.98526 0.296239
0.972183 0.98526 0.296239
0.972183 0.98526 0.296239
0.972183 0.98526 0.296239
0.972183 0.98526 0.296239
0.972183 0.98526 0.296239
0.11075 0.94876 0.263416
0.110719 0.94876 0.262913
0.110689 0.948791 0.262226
0.110643 0.948837 0.261219
0.110582 0.948898 0.259846
0.110491 0.949004 0.257832
0.110338 0.949172 0.254719
0.11014 0.949371 0.250706
0.109957 0.949432 0.24799
0.109621 0.949508 0.243153
0.109621 0.949508 0.243153
0.109621 0.949508 0.243153
0.107683 0.949966 0.215091
0.187427 0.949294 0.114229
0.392569 0.939818 0.16286
