bundles/resolve-cinematic-luts/Phantom Luts/Komodo Phantom ARRI LUTs G2/Komodo Phantom ARRI LUTs G2/33x/WB Offset - Green Boost/Neutral_Komodo_WBO_G2_33x.cube
TITLE "Generated by Resolve"
LUT_3D_SIZE 5
0.0201267 0.0201267 0.0201267
0.267933 0.00729381 0.0415961
0.83595 0 0.209125
0.851316 0 0.257771
0.853605 0 0.266041
0.0214847 0.261479 0.0322728
0.222522 0.249744 0.025742
0.858793 0 0.0784924
0.851545 0 0.114809
0.849775 0 0.115877
0.132662 0.898375 0.189319
0.182757 0.919051 0.113542
0.860441 0.922988 0.198764
0.957778 0.916289 0.224231
0.957534 0.913848 0.221439
0.123857 0.953292 0.312688
0.122469 0.953582 0.294636
0.751049 0.949248 0.269139
0.971466 0.982086 0.350317
0.971466 0.982086 0.350317
0.123964 0.953277 0.314153
0.122576 0.953567 0.296193
0.728573 0.948058 0.261936
0.971466 0.982086 0.350317
0.971466 0.982086 0.350317
0.0179599 0.0280461 0.227268
0.293599 0.0223239 0.257496
0.86807 0.0260014 0.389517
0.868421 0.0426795 0.413596
0.868452 0.0444495 0.415976
0.0202945 0.209552 0.195499
0.203082 0.210269 0.197009
0.836316 0 0.204227
0.850538 0 0.255131
0.852872 0 0.263233
0.107042 0.866453 0.363806
0.12459 0.873289 0.220676
0.849012 0.911391 0.195789
0.956313 0.900603 0.20737
0.955962 0.897368 0.204105
0.130663 0.952453 0.394186
0.124071 0.953277 0.315373
0.715953 0.947463 0.257954
0.971466 0.982086 0.350317
0.971466 0.982086 0.350317
0.131533 0.952331 0.404425
0.124193 0.953246 0.316945
0.689784 0.946181 0.249729
0.971466 0.982086 0.350317
0.971466 0.982086 0.350317
0.0452735 0.0211032 0.723095
0.292546 0.0164187 0.718822
0.918959 0.0389715 0.862654
0.917891 0.0407568 0.88188
0.917678 0.0409857 0.88365
0 0.160815 0.711604
0.0993973 0.00393683 0.693034
0.906188 0.0380713 0.83682
0.919417 0.0386206 0.856046
0.919295 0.0387121 0.857099
0.0124819 0.757183 0.723003
0.01738 0.749233 0.715068
0.724819 0.737545 0.713802
0.936034 0.708721 0.69929
0.935454 0.701839 0.694377
0.0227817 0.953735 0.731884
0.0257572 0.95462 0.708507
0.161746 0.951629 0.398718
0.970916 0.982132 0.343221
0.971206 0.982101 0.347173
0.0225986 0.953674 0.734554
0.025452 0.954559 0.710414
0.132052 0.952224 0.413687
0.970382 0.982193 0.336278
0.971252 0.982101 0.34757
0.157824 0 0.774105
0.332128 0.0149081 0.788785
0.914015 0.0443427 0.904234
0.914015 0.0443427 0.904234
0.914015 0.0443427 0.904234
0 0.127092 0.82385
0.170474 0 0.774319
0.910643 0.0446021 0.903197
0.914015 0.0443427 0.904234
0.914015 0.0443427 0.904234
0 0.673136 0.866194
0 0.661891 0.865965
0.625132 0.570275 0.902434
0.92813 0.552697 0.92163
0.927398 0.542962 0.92079
0.00753796 0.931365 0.935042
0.00753796 0.931365 0.935042
0.0251316 0.944503 0.929091
0.97319 0.977157 0.97557
0.989761 0.976761 0.97322
0.00753796 0.931365 0.935042
0.00753796 0.931365 0.935042
0.022385 0.943847 0.910597
0.958236 0.99118 0.960769
0.998856 0.997726 0.959365
0.17116 0 0.774334
0.340673 0.0152438 0.78996
0.914015 0.0443427 0.904234
0.914015 0.0443427 0.904234
0.914015 0.0443427 0.904234
0 0.113161 0.821942
0.185031 0 0.774807
0.914015 0.0443427 0.904234
0.914015 0.0443427 0.904234
0.914015 0.0443427 0.904234
0 0.667094 0.866026
0 0.65539 0.865782
0.621149 0.554513 0.900938
0.926757 0.53373 0.919829
0.926223 0.523934 0.919356
0.00753796 0.931365 0.935042
0.00753796 0.931365 0.935042
0.0105898 0.941161 0.941527
0.964294 0.961975 0.982742
0.987472 0.963958 0.986847
0.00753796 0.931365 0.935042
0.00753796 0.931365 0.935042
0.0093843 0.937758 0.939361
0.831296 0.979522 0.978103
1 1 1
