bundles/resolve-cinematic-luts/Phantom Luts/Komodo Phantom ARRI LUTs G2/Komodo Phantom ARRI LUTs G2/33x/WB Offset - Green Boost/Neutral_Komodo_WBO_G2_33x.cube
TITLE "Generated by Resolve"
LUT_3D_SIZE 9
0.0201267 0.0201267 0.0201267
0.0806592 0.0191958 0.0217288
0.267933 0.00729381 0.0415961
0.562402 0.00972 0.123095
0.83595 0 0.209125
0.846036 0 0.240894
0.851316 0 0.257771
0.853117 0 0.264179
0.853605 0 0.266041
0.0217288 0.0670634 0.0215457
0.0501259 0.0567636 0.0225986
0.237415 0.0285191 0.0255131
0.538598 0.00416571 0.0760815
0.802731 0 0.12694
0.827634 0 0.180331
0.834928 0 0.205997
0.836759 0 0.211261
0.837278 0 0.212879
0.0214847 0.261479 0.0322728
0.0214847 0.256001 0.0199588
0.222522 0.249744 0.025742
0.563836 0.215473 0.0973831
0.858793 0 0.0784924
0.855573 0 0.112261
0.851545 0 0.114809
0.850187 0 0.115663
0.849775 0 0.115877
0.0546426 0.580484 0.103838
0.0531319 0.580957 0.061326
0.108415 0.574838 0.0519265
0.529122 0.580133 0.0783246
0.866438 0.622782 0.138155
0.926833 0.601068 0.133165
0.932509 0.57554 0.138155
0.934874 0.565927 0.138567
0.935592 0.562982 0.138613
0.132662 0.898375 0.189319
0.135744 0.904036 0.143923
0.182757 0.919051 0.113542
0.470176 0.874174 0.144503
0.860441 0.922988 0.198764
0.958282 0.921065 0.229389
0.957778 0.916289 0.224231
0.957595 0.914351 0.22208
0.957534 0.913848 0.221439
0.123598 0.953338 0.309331
0.123232 0.953399 0.304723
0.122194 0.953628 0.291234
0.118944 0.955459 0.164416
0.796109 0.953033 0.282017
0.970596 0.982177 0.339025
0.971466 0.982086 0.350317
0.971466 0.982086 0.350317
0.971466 0.982086 0.350317
0.123857 0.953292 0.312688
0.123537 0.953338 0.308598
0.122469 0.953582 0.294636
0.117723 0.954314 0.243244
0.751049 0.949248 0.269139
0.961456 0.981964 0.323842
0.971466 0.982086 0.350317
0.971466 0.982086 0.350317
0.971466 0.982086 0.350317
0.123949 0.953292 0.313832
0.123629 0.953323 0.309728
0.12256 0.953567 0.295781
0.119982 0.954009 0.26276
0.734539 0.948379 0.263813
0.956497 0.981765 0.318822
0.971466 0.982086 0.350317
0.971466 0.982086 0.350317
0.971466 0.982086 0.350317
0.123964 0.953277 0.314153
0.123659 0.953323 0.310048
0.122576 0.953567 0.296193
0.120562 0.953918 0.269093
0.728573 0.948058 0.261936
0.954772 0.981689 0.317403
0.971466 0.982086 0.350317
0.971466 0.982086 0.350317
0.971466 0.982086 0.350317
0.0165408 0.0209964 0.0647288
0.0838331 0.0209506 0.0728618
0.277073 0.0220951 0.101427
0.572519 0.0183719 0.176806
0.853086 0 0.263996
0.859632 0 0.293858
0.861616 0 0.304982
0.862089 0 0.308888
0.862257 0 0.309941
0.0223545 0.0500191 0.0476844
0.0405432 0.04065 0.0384375
0.245167 0.010071 0.0413519
0.55024 0.0130312 0.125551
0.837125 0 0.212406
0.847379 0 0.245289
0.852842 0 0.263096
0.854459 0 0.269383
0.854826 0 0.271031
0.0201724 0.250706 0.0809339
0.0206912 0.246693 0.0395514
0.214527 0.240146 0.0253452
0.562417 0.186755 0.0916762
0.841611 0 0.104891
0.840406 0 0.119326
0.835981 0 0.120394
0.834379 0 0.120775
0.833906 0 0.120882
0.0529641 0.571786 0.149905
0.0532235 0.571221 0.108949
0.0793011 0.568063 0.0485389
0.524346 0.574868 0.0771496
0.868238 0.613474 0.143877
0.929808 0.58735 0.136461
0.936584 0.558892 0.138613
0.939178 0.548577 0.137896
0.939941 0.545693 0.137758
0.124666 0.889067 0.237217
0.130724 0.892836 0.196994
0.183734 0.915068 0.112566
0.448371 0.87155 0.13933
0.857755 0.920592 0.197452
0.957992 0.918242 0.22623
0.957427 0.912856 0.220325
0.957198 0.910643 0.217945
0.957137 0.909972 0.217243
0.123964 0.953277 0.314076
0.123644 0.953323 0.310018
0.122576 0.953567 0.296086
0.11339 0.955032 0.200778
0.790448 0.952331 0.280598
0.97055 0.982177 0.338521
0.971466 0.982086 0.350317
0.971466 0.982086 0.350317
0.971466 0.982086 0.350317
0.124239 0.953246 0.317433
0.123903 0.953292 0.313405
0.122698 0.953536 0.297536
0.120058 0.954009 0.263554
0.744442 0.948928 0.267063
0.95993 0.981918 0.321767
0.971466 0.982086 0.350317
0.971466 0.982086 0.350317
0.971466 0.982086 0.350317
0.124331 0.953231 0.318639
0.123995 0.953277 0.314458
0.122789 0.953521 0.29865
0.121569 0.953765 0.280598
0.726284 0.947936 0.261234
0.954772 0.981689 0.317403
0.971466 0.982086 0.350317
0.971466 0.982086 0.350317
0.971466 0.982086 0.350317
0.124346 0.953231 0.318914
0.124025 0.953277 0.314778
0.122805 0.953506 0.299016
0.121813 0.953689 0.286854
0.720043 0.947646 0.259266
0.95317 0.981628 0.316106
0.971466 0.982086 0.350317
0.971466 0.982086 0.350317
0.971466 0.982086 0.350317
0.0179599 0.0280461 0.227268
0.0975509 0.0188602 0.235721
0.293599 0.0223239 0.257496
0.579171 0.0453651 0.300786
0.86807 0.0260014 0.389517
0.868406 0.0372931 0.406195
0.868421 0.0426795 0.413596
0.868452 0.0440833 0.415488
0.868452 0.0444495 0.415976
0 0.0476844 0.192554
0.0301061 0.0235752 0.214893
0.269963 0.0218814 0.236164
0.565637 0.0465705 0.272251
0.867185 0.00953689 0.362646
0.867979 0.0195926 0.379568
0.868177 0.0246281 0.387472
0.868055 0.0262913 0.389914
0.868025 0.0267491 0.390616
0.0202945 0.209552 0.195499
0.0202945 0.204486 0.190341
0.203082 0.210269 0.197009
0.562921 0.128862 0.190097
0.836316 0 0.204227
0.845685 0 0.238224
0.850538 0 0.255131
0.852384 0 0.261479
0.852872 0 0.263233
0.0454871 0.545144 0.262531
0.0456397 0.544137 0.241306
0.0470436 0.540627 0.129702
0.508629 0.557244 0.0728161
0.876005 0.5794 0.155138
0.941497 0.531563 0.140276
0.943984 0.498482 0.145937
0.9449 0.485664 0.147692
0.945068 0.482139 0.147707
0.107042 0.866453 0.363806
0.108431 0.867048 0.336904
0.12459 0.873289 0.220676
0.365881 0.864851 0.119387
0.849012 0.911391 0.195789
0.956909 0.907256 0.214496
0.956313 0.900603 0.20737
0.956024 0.8981 0.204837
0.955962 0.897368 0.204105
0.128435 0.952697 0.368093
0.125673 0.953048 0.334798
0.123827 0.953307 0.312139
0.12105 0.953841 0.274601
0.770565 0.950378 0.275364
0.970413 0.982177 0.336751
0.971466 0.982086 0.350317
0.971466 0.982086 0.350317
0.971466 0.982086 0.350317
0.130663 0.952453 0.394186
0.127993 0.952758 0.362829
0.124071 0.953277 0.315373
0.122057 0.953658 0.289616
0.715953 0.947463 0.257954
0.954772 0.981689 0.317403
0.971466 0.982086 0.350317
0.971466 0.982086 0.350317
0.971466 0.982086 0.350317
0.131365 0.952346 0.402426
0.128908 0.952636 0.373846
0.124178 0.953262 0.316564
0.122057 0.953658 0.289616
0.696605 0.946502 0.251911
0.948974 0.981414 0.31281
0.971466 0.982086 0.350317
0.971466 0.982086 0.350317
0.971466 0.982086 0.350317
0.131533 0.952331 0.404425
0.129137 0.952621 0.376532
0.124193 0.953246 0.316945
0.122057 0.953658 0.289616
0.689784 0.946181 0.249729
0.947051 0.981323 0.311284
0.971466 0.982086 0.350317
0.971466 0.982086 0.350317
0.971466 0.982086 0.350317
0.0334783 0.0275425 0.464591
0.106737 0.0128786 0.466377
0.287892 0.0189364 0.488777
0.606256 0.0302434 0.548669
0.880858 0 0.604364
0.882597 0 0.621668
0.883345 0 0.62884
0.883574 0 0.631144
0.88365 0 0.631739
0 0.0736095 0.447898
0.0412451 0.0248264 0.456672
0.255543 0.0179751 0.478553
0.593652 0.0298924 0.537804
0.879316 0 0.588373
0.880858 0 0.604303
0.881239 0 0.610727
0.881559 0 0.613184
0.881651 0 0.613809
0 0.16939 0.383017
0 0.156573 0.387045
0.105104 0.0482643 0.455238
0.54786 0.0323796 0.494347
0.870436 0 0.535515
0.876295 0 0.547707
0.876631 0 0.55259
0.876722 0 0.553796
0.876738 0 0.554101
0.0318761 0.479225 0.453651
0.0318456 0.475898 0.449744
0.031693 0.465309 0.43592
0.467048 0.479774 0.454261
0.87071 0.421042 0.444373
0.924071 0.344579 0.425055
0.920302 0.304372 0.40882
0.91902 0.290318 0.403067
0.918944 0.286381 0.401495
0.0493477 0.833341 0.539239
0.054902 0.831647 0.529625
0.0702831 0.826535 0.496941
0.107942 0.820859 0.294728
0.792874 0.855726 0.226398
0.95288 0.87216 0.175448
0.949828 0.860838 0.156649
0.948882 0.857298 0.150774
0.948608 0.856153 0.148913
0.102571 0.950805 0.541558
0.109224 0.950652 0.535058
0.133639 0.951446 0.510994
0.124331 0.953231 0.318517
0.689326 0.946166 0.249607
0.961486 0.981964 0.323873
0.971557 0.982071 0.351583
0.971603 0.982071 0.352132
0.971618 0.982071 0.3523
0.0945602 0.951385 0.550408
0.101854 0.950851 0.542321
0.127657 0.950774 0.517891
0.124468 0.953216 0.32047
0.610697 0.943252 0.227466
0.937209 0.980819 0.304585
0.971466 0.982086 0.350317
0.971466 0.982086 0.350317
0.971466 0.982086 0.350317
0.0922255 0.951553 0.553109
0.0994125 0.951019 0.544976
0.125429 0.950637 0.519936
0.124559 0.953201 0.321553
0.580163 0.942885 0.221729
0.92665 0.980117 0.298848
0.971374 0.982086 0.34931
0.971466 0.982086 0.350317
0.971466 0.982086 0.350317
0.0916609 0.951598 0.55378
0.0987716 0.951064 0.545678
0.124804 0.950591 0.520516
0.124636 0.953185 0.322515
0.567727 0.943053 0.218769
0.923323 0.979858 0.297169
0.971298 0.982086 0.348379
0.971466 0.982086 0.350317
0.971466 0.982086 0.350317
0.0452735 0.0211032 0.723095
0.120577 0 0.708827
0.292546 0.0164187 0.718822
0.597375 0.0334783 0.775937
0.918959 0.0389715 0.862654
0.918379 0.0402686 0.877012
0.917891 0.0407568 0.88188
0.917739 0.04094 0.883314
0.917678 0.0409857 0.88365
0 0.0591287 0.734157
0.0551156 0.0173037 0.71516
0.259632 0.0159152 0.710628
0.580697 0.032166 0.768063
0.919234 0.0387274 0.85774
0.918761 0.0396735 0.871839
0.918471 0.040177 0.876265
0.918334 0.0403143 0.877531
0.918303 0.0403601 0.877897
0 0.160815 0.711604
0 0.145907 0.722499
0.0993973 0.00393683 0.693034
0.517311 0.0281071 0.741772
0.906188 0.0380713 0.83682
0.919554 0.0384222 0.85214
0.919417 0.0386206 0.856046
0.919326 0.0386969 0.856855
0.919295 0.0387121 0.857099
0 0.447623 0.682322
0 0.441733 0.684245
0 0.415229 0.693339
0.366354 0.295552 0.744915
0.858503 0.249088 0.793194
0.909422 0.103182 0.77319
0.903578 0.0394141 0.755779
0.90045 0.0198825 0.747616
0.899275 0.0143435 0.744991
0.0124819 0.757183 0.723003
0.013962 0.755276 0.721202
0.01738 0.749233 0.715068
0.0244602 0.733043 0.694713
0.724819 0.737545 0.713802
0.938064 0.726543 0.709682
0.936034 0.708721 0.69929
0.935714 0.703426 0.69575
0.935454 0.701839 0.694377
0.023621 0.954055 0.723568
0.0242466 0.954253 0.718822
0.0266728 0.954818 0.703212
0.0402228 0.955306 0.650462
0.449805 0.944808 0.515129
0.94992 0.980087 0.584756
0.978393 0.981537 0.444877
0.979736 0.981735 0.468818
0.980072 0.981796 0.475029
0.0227817 0.953735 0.731884
0.0232853 0.953933 0.726589
0.0257572 0.95462 0.708507
0.040528 0.955184 0.649287
0.161746 0.951629 0.398718
0.905852 0.977356 0.28986
0.970916 0.982132 0.343221
0.971206 0.982101 0.347158
0.971206 0.982101 0.347173
0.0226444 0.953719 0.733989
0.0230259 0.953826 0.728893
0.0255131 0.954574 0.710079
0.040528 0.955184 0.649271
0.131823 0.95227 0.408606
0.888441 0.973693 0.28658
0.970504 0.982177 0.337881
0.971237 0.982101 0.347509
0.971237 0.982101 0.347524
0.0225986 0.953674 0.734554
0.0229801 0.953811 0.729366
0.025452 0.954559 0.710414
0.0405432 0.955184 0.649241
0.132052 0.952224 0.413687
0.882933 0.97232 0.286137
0.970382 0.982193 0.336278
0.971237 0.982101 0.347555
0.971252 0.982101 0.34757
0.121935 0 0.776852
0.170092 0 0.774319
0.313451 0.0141604 0.786435
0.596887 0.0284886 0.835554
0.914015 0.0443427 0.904234
0.914015 0.0443427 0.904234
0.914015 0.0443427 0.904234
0.914015 0.0443427 0.904234
0.914015 0.0443427 0.904234
0.0556649 0.0125429 0.788434
0.125582 0 0.776501
0.283268 0.0130617 0.782818
0.577737 0.0273289 0.83151
0.914015 0.0443427 0.904234
0.914015 0.0443427 0.904234
0.914015 0.0443427 0.904234
0.914015 0.0443427 0.904234
0.914015 0.0443427 0.904234
0 0.143206 0.821927
0 0.113619 0.822003
0.140734 0 0.77499
0.509102 0.0234531 0.817929
0.903212 0.0451362 0.90103
0.914015 0.0443427 0.904234
0.914015 0.0443427 0.904234
0.914015 0.0443427 0.904234
0.914015 0.0443427 0.904234
0 0.345815 0.825132
0 0.336477 0.824872
0 0.300633 0.823941
0.270848 0.10074 0.812604
0.790005 0.0699931 0.881041
0.913527 0.0461585 0.903746
0.91368 0.0455787 0.903899
0.913725 0.0453956 0.90396
0.913741 0.0453346 0.903975
0 0.693614 0.840711
0 0.691096 0.840223
0 0.680827 0.837629
0 0.652873 0.849805
0.643961 0.615259 0.895628
0.937392 0.621897 0.91191
0.935775 0.603738 0.905776
0.935393 0.597513 0.903563
0.935241 0.596307 0.902907
0.00624094 0.914321 0.879438
0.00527962 0.912108 0.877028
0.00230411 0.904891 0.869154
0 0.873899 0.836225
0.175967 0.885527 0.852811
0.907225 0.912535 0.901839
0.970459 0.912413 0.900404
0.96968 0.907759 0.897337
0.969406 0.906645 0.896422
0.0187839 0.939116 0.899092
0.0188602 0.939666 0.895994
0.0189212 0.94107 0.886275
0.019089 0.944381 0.856001
0.0257267 0.959319 0.795468
0.825879 0.975219 0.831067
0.991608 0.991104 0.822278
0.993927 0.989288 0.77145
0.994629 0.990097 0.792706
0.0187991 0.938689 0.902525
0.0187839 0.93904 0.899641
0.0188449 0.940627 0.888579
0.0191196 0.944518 0.855116
0.0247044 0.957748 0.780362
0.787717 0.971908 0.808347
0.97586 0.988968 0.767514
0.97084 0.982147 0.342199
0.97084 0.982147 0.342214
0.0187839 0.938552 0.903471
0.0187839 0.938903 0.900542
0.0188449 0.940551 0.889204
0.0191348 0.944549 0.854887
0.0244144 0.95729 0.775692
0.774075 0.97081 0.800793
0.969635 0.988724 0.766552
0.970703 0.982162 0.340368
0.97084 0.982147 0.342321
0.157824 0 0.774105
0.201587 0 0.775479
0.332128 0.0149081 0.788785
0.611307 0.0293736 0.838743
0.914015 0.0443427 0.904234
0.914015 0.0443427 0.904234
0.914015 0.0443427 0.904234
0.914015 0.0443427 0.904234
0.914015 0.0443427 0.904234
0.107668 0 0.778729
0.161257 0 0.77406
0.301823 0.0137636 0.785214
0.592142 0.0281529 0.834424
0.914015 0.0443427 0.904234
0.914015 0.0443427 0.904234
0.914015 0.0443427 0.904234
0.914015 0.0443427 0.904234
0.914015 0.0443427 0.904234
0 0.127092 0.82385
0 0.078233 0.813596
0.170474 0 0.774319
0.522713 0.0242008 0.820432
0.910643 0.0446021 0.903197
0.914015 0.0443427 0.904234
0.914015 0.0443427 0.904234
0.914015 0.0443427 0.904234
0.914015 0.0443427 0.904234
0 0.299809 0.823972
0 0.289311 0.823514
0 0.255146 0.821942
0.246571 0.0285954 0.788968
0.787976 0.0429541 0.875135
0.913863 0.0449073 0.904082
0.914 0.044419 0.904219
0.914015 0.0443427 0.904234
0.914015 0.0443427 0.904234
0 0.673136 0.866194
0 0.670939 0.866255
0 0.661891 0.865965
0 0.629587 0.862806
0.625132 0.570275 0.902434
0.929976 0.573312 0.923552
0.92813 0.552697 0.92163
0.927535 0.545129 0.920928
0.927398 0.542962 0.92079
0 0.882063 0.920928
0 0.878813 0.920119
0 0.864958 0.915541
0 0.808118 0.897292
0 0.823529 0.92604
0.866407 0.858412 0.953185
0.967712 0.867338 0.965576
0.966918 0.862348 0.964263
0.966781 0.861143 0.963745
0.00753796 0.931365 0.935042
0.00753796 0.931365 0.935042
0.00753796 0.931365 0.935042
0.00753796 0.931365 0.935042
0.0251316 0.944503 0.929091
0.681102 0.95494 0.94258
0.97319 0.977157 0.97557
0.990127 0.977752 0.973999
0.989761 0.976761 0.97322
0.00753796 0.931365 0.935042
0.00753796 0.931365 0.935042
0.00753796 0.931365 0.935042
0.00753796 0.931365 0.935042
0.0229801 0.94406 0.914626
0.178622 0.973724 0.914351
0.96405 0.992203 0.964584
0.999115 0.998184 0.96611
0.999039 0.998032 0.963851
0.00753796 0.931365 0.935042
0.00753796 0.931365 0.935042
0.00753796 0.931365 0.935042
0.00753796 0.931365 0.935042
0.022385 0.943847 0.910597
0.165072 0.974838 0.910903
0.958236 0.99118 0.960769
0.995102 0.997681 0.962081
0.998856 0.997726 0.959365
0.168505 0 0.774227
0.210803 0.000595102 0.776104
0.338628 0.0151675 0.789685
0.616342 0.0296941 0.839826
0.914015 0.0443427 0.904234
0.914015 0.0443427 0.904234
0.914015 0.0443427 0.904234
0.914015 0.0443427 0.904234
0.914015 0.0443427 0.904234
0.122652 0 0.776791
0.17116 0 0.77435
0.308202 0.0139773 0.78587
0.595987 0.0284428 0.83537
0.914015 0.0443427 0.904234
0.914015 0.0443427 0.904234
0.914015 0.0443427 0.904234
0.914015 0.0443427 0.904234
0.914015 0.0443427 0.904234
0 0.116503 0.822431
0 0.0672465 0.810391
0.181735 0 0.774792
0.527474 0.0244755 0.821363
0.913436 0.0443885 0.904051
0.914015 0.0443427 0.904234
0.914015 0.0443427 0.904234
0.914015 0.0443427 0.904234
0.914015 0.0443427 0.904234
0 0.28455 0.822705
0 0.274678 0.822293
0 0.239872 0.821439
0.237171 0.0104829 0.778881
0.790555 0.0409247 0.875166
0.914015 0.0443427 0.904234
0.914015 0.0443427 0.904234
0.914015 0.0443427 0.904234
0.914015 0.0443427 0.904234
0 0.668574 0.866072
0 0.665858 0.866011
0 0.657176 0.865873
0 0.621912 0.862272
0.621408 0.558389 0.901137
0.92874 0.560311 0.922316
0.926802 0.538369 0.920165
0.926635 0.530709 0.919753
0.926497 0.528572 0.919661
0 0.87602 0.91931
0 0.872862 0.918593
0 0.84387 0.907454
0 0.802441 0.897185
0 0.81471 0.924926
0.862715 0.848249 0.952331
0.96585 0.856992 0.963684
0.965164 0.851698 0.962783
0.964904 0.850065 0.962509
0.00753796 0.931365 0.935042
0.00753796 0.931365 0.935042
0.00753796 0.931365 0.935042
0.00753796 0.931365 0.935042
0.0107271 0.94136 0.941619
0.615122 0.928817 0.950103
0.96553 0.964218 0.983444
0.988418 0.9673 0.987854
0.988052 0.966171 0.987518
0.00753796 0.931365 0.935042
0.00753796 0.931365 0.935042
0.00753796 0.931365 0.935042
0.00753796 0.931365 0.935042
0.00988785 0.93875 0.939849
0.01738 0.965805 0.958801
0.924834 0.986999 0.98381
0.994904 0.994812 0.995972
0.997986 0.994202 0.997574
0.00753796 0.931365 0.935042
0.00753796 0.931365 0.935042
0.00753796 0.931365 0.935042
0.00753796 0.931365 0.935042
0.00941482 0.937819 0.939391
0.0239567 0.966445 0.955535
0.899657 0.986694 0.979538
0.993194 0.998718 0.993423
1 1 0.994598
0.17116 0 0.774334
0.214084 0.00151064 0.776272
0.340673 0.0152438 0.78996
0.61796 0.0297856 0.840177
0.914015 0.0443427 0.904234
0.914015 0.0443427 0.904234
0.914015 0.0443427 0.904234
0.914015 0.0443427 0.904234
0.914015 0.0443427 0.904234
0.126253 0 0.77644
0.174578 0 0.774472
0.310155 0.0140383 0.786084
0.597589 0.0285344 0.835706
0.914015 0.0443427 0.904234
0.914015 0.0443427 0.904234
0.914015 0.0443427 0.904234
0.914015 0.0443427 0.904234
0.914015 0.0443427 0.904234
0 0.113161 0.821942
0 0.063798 0.809308
0.185031 0 0.774807
0.529015 0.0245518 0.821668
0.914015 0.0443427 0.904234
0.914015 0.0443427 0.904234
0.914015 0.0443427 0.904234
0.914015 0.0443427 0.904234
0.914015 0.0443427 0.904234
0 0.280415 0.822736
0 0.269947 0.822232
0 0.234943 0.821912
0.239719 0.0102235 0.778225
0.791562 0.041001 0.875364
0.914015 0.0443427 0.904234
0.914015 0.0443427 0.904234
0.914015 0.0443427 0.904234
0.914015 0.0443427 0.904234
0 0.667094 0.866026
0 0.664515 0.866102
0 0.65539 0.865782
0 0.619669 0.862211
0.621149 0.554513 0.900938
0.92842 0.556283 0.921965
0.926757 0.53373 0.919829
0.92636 0.526299 0.919524
0.926223 0.523934 0.919356
0 0.874144 0.918853
0 0.871321 0.918181
0 0.838758 0.905409
0 0.801328 0.897505
0 0.812085 0.924727
0.861799 0.844907 0.95198
0.96553 0.854109 0.963195
0.96463 0.848386 0.962264
0.964309 0.846708 0.961959
0.00753796 0.931365 0.935042
0.00753796 0.931365 0.935042
0.00753796 0.931365 0.935042
0.00753796 0.931365 0.935042
0.0105898 0.941161 0.941527
0.631083 0.927504 0.95021
0.964294 0.961975 0.982742
0.987778 0.965042 0.987182
0.987472 0.963958 0.986847
0.00753796 0.931365 0.935042
0.00753796 0.931365 0.935042
0.00753796 0.931365 0.935042
0.00753796 0.931365 0.935042
0.00984207 0.938674 0.939818
0.0173648 0.965698 0.958724
0.915618 0.981826 0.98439
0.993118 0.992905 0.996551
0.996582 0.993454 0.997574
0.00753796 0.931365 0.935042
0.00753796 0.931365 0.935042
0.00753796 0.931365 0.935042
0.00753796 0.931365 0.935042
0.0093843 0.937758 0.939361
0.0173037 0.964797 0.958053
0.831296 0.979522 0.978103
0.989914 0.997909 0.997864
1 1 1
