bundles/resolve-cinematic-luts/Phantom Luts/Komodo Phantom ARRI LUTs G2/Komodo Phantom ARRI LUTs G2/33x/WB Offset - Green Boost/Tungsten_Komodo_WBO_Legacy_G2_33x.cube
TITLE "Generated by Resolve"
LUT_3D_SIZE 33
0.0407874 0.0411688 0.0476692
0.0408026 0.0410773 0.0474861
0.0408331 0.0408789 0.0470436
0.0431373 0.04065 0.0464637
0.0555886 0.0407111 0.0468757
0.0739757 0.0405737 0.0484779
0.101183 0.0393378 0.0506447
0.137606 0.0380102 0.0546578
0.18175 0.0374914 0.0601053
0.236179 0.0389868 0.0684977
0.301564 0.0423438 0.0799725
0.378988 0.0455024 0.0967727
0.468254 0.0486152 0.118608
0.550408 0.0496223 0.138521
0.620569 0.0485847 0.158862
0.675578 0.0618906 0.175479
0.696284 0.0676432 0.188968
0.699153 0.0682231 0.195254
0.701625 0.0687114 0.200793
0.703746 0.0691234 0.206058
0.705638 0.0694896 0.210819
0.707027 0.06981 0.213962
0.708141 0.0699168 0.217227
0.702495 0.0616312 0.217441
0.700587 0.0585031 0.218387
0.701228 0.0587778 0.219852
0.701717 0.0589761 0.220935
0.702037 0.0590982 0.221698
0.702312 0.0592203 0.222232
0.702678 0.0593729 0.223041
0.70309 0.059556 0.223865
0.703746 0.0598611 0.22504
0.704387 0.0601816 0.22623
0.0408331 0.0408789 0.0470588
0.0408179 0.0409857 0.0472877
0.0408331 0.0408789 0.0470436
0.0415045 0.0405432 0.0462348
0.0526436 0.0409247 0.0467536
0.0709697 0.04065 0.0479286
0.0975814 0.0394446 0.0499123
0.134188 0.0375982 0.0530404
0.17789 0.036347 0.0573281
0.23125 0.0364691 0.0639506
0.296361 0.0391852 0.074052
0.374731 0.0425727 0.0900587
0.464164 0.0454414 0.111208
0.546807 0.0466163 0.132265
0.617899 0.0459907 0.152605
0.67303 0.0616159 0.169009
0.694392 0.0673381 0.184649
0.697383 0.0679484 0.191333
0.700038 0.068452 0.197223
0.702129 0.0688792 0.201953
0.703883 0.0692302 0.20621
0.705394 0.0695201 0.210086
0.706462 0.0697337 0.212528
0.707317 0.0699321 0.214603
0.707958 0.0700084 0.216449
0.708446 0.0700542 0.217838
0.701885 0.0612039 0.216495
0.702235 0.0613413 0.217212
0.702495 0.0614328 0.217807
0.702815 0.0615854 0.218402
0.703182 0.061799 0.218967
0.703822 0.0621042 0.220127
0.704494 0.0624552 0.221317
0.0410315 0.0419165 0.0474556
0.041001 0.0420996 0.0478676
0.04094 0.0415808 0.0475624
0.0409247 0.0409247 0.0470283
0.046891 0.0420233 0.0471504
0.0636912 0.0422217 0.0477455
0.0901045 0.0414282 0.0494545
0.126665 0.0397803 0.0528572
0.172381 0.0378424 0.0571756
0.225834 0.0367742 0.0617533
0.289418 0.0376287 0.0693675
0.366934 0.039292 0.0809644
0.456947 0.0411994 0.100252
0.540703 0.0425422 0.122789
0.611795 0.0426032 0.142031
0.668818 0.0611429 0.159136
0.690822 0.0669871 0.175814
0.694453 0.0673838 0.184741
0.697292 0.0679484 0.191119
0.699611 0.0684062 0.196139
0.701411 0.0687724 0.2
0.702785 0.0690166 0.203616
0.703883 0.0692607 0.206165
0.704738 0.0694285 0.208453
0.705486 0.0695659 0.210224
0.706004 0.0696574 0.211521
0.70631 0.0697185 0.212238
0.706538 0.0697795 0.212604
0.706676 0.0698253 0.212848
0.706905 0.0699168 0.21326
0.707195 0.0700389 0.21387
0.707744 0.0702983 0.214878
0.708324 0.0705882 0.215915
0.0436408 0.0523537 0.0510262
0.0436103 0.0525826 0.0514229
0.043534 0.0519417 0.0504463
0.0439307 0.0507057 0.0498665
0.0487373 0.0487373 0.049485
0.0601358 0.0496681 0.050721
0.0823377 0.0481727 0.0505837
0.116899 0.0441749 0.0517586
0.164172 0.0415503 0.05626
0.219257 0.0402686 0.0613413
0.284962 0.0410468 0.0686961
0.3617 0.0411078 0.0783551
0.447013 0.0395361 0.0904402
0.528481 0.0379492 0.10573
0.60766 0.0508583 0.128237
0.661234 0.0599069 0.143694
0.682414 0.0655222 0.157504
0.688426 0.0665293 0.170703
0.693202 0.0672465 0.181491
0.695674 0.0676127 0.187427
0.697719 0.0680552 0.191897
0.69926 0.0683299 0.195377
0.700404 0.0685435 0.197864
0.701259 0.0687572 0.199603
0.70193 0.0688792 0.201251
0.702373 0.0689555 0.202518
0.702708 0.0690166 0.203418
0.702953 0.0690471 0.204013
0.703105 0.0690776 0.20441
0.703334 0.0691539 0.204898
0.703609 0.069276 0.205417
0.704082 0.0695506 0.206165
0.704555 0.0698253 0.206958
0.0463111 0.0672465 0.0540322
0.0462654 0.0675212 0.0544137
0.0460365 0.0668193 0.0532235
0.0458381 0.0659342 0.052903
0.0507668 0.0634165 0.0528572
0.0636149 0.0627451 0.0531777
0.0844892 0.0635233 0.0557717
0.117723 0.0604105 0.0556802
0.162646 0.054612 0.0544289
0.213428 0.0476844 0.0601053
0.278111 0.0457771 0.0677043
0.355413 0.0447242 0.077348
0.442466 0.0431678 0.0892348
0.524742 0.0403449 0.102861
0.59617 0.044892 0.116228
0.650553 0.0580758 0.130388
0.668925 0.0626841 0.138415
0.675074 0.0639506 0.145724
0.681926 0.0654307 0.156649
0.687175 0.0663157 0.167742
0.691234 0.0670481 0.176761
0.69337 0.0672313 0.182208
0.694759 0.0674296 0.185489
0.695796 0.067628 0.187732
0.696559 0.0677958 0.189395
0.697139 0.0679026 0.190753
0.69749 0.0679942 0.191501
0.697795 0.0680552 0.192096
0.697978 0.068101 0.192447
0.698192 0.0681926 0.192798
0.698421 0.0682994 0.193194
0.698863 0.0685283 0.193942
0.699199 0.0687572 0.194476
0.0486 0.088838 0.0577859
0.0485542 0.0891585 0.0582589
0.0483711 0.0885023 0.0559243
0.0483406 0.08748 0.0555276
0.0522011 0.0854963 0.0558022
0.0616312 0.0827649 0.0557565
0.0875563 0.0825208 0.0573739
0.120409 0.0832685 0.0611429
0.16846 0.0775464 0.0628061
0.221393 0.068986 0.0626078
0.281025 0.0586557 0.0644541
0.349203 0.0514382 0.0758526
0.435172 0.0476692 0.0872358
0.520027 0.0440986 0.100816
0.591302 0.0399786 0.113573
0.651667 0.058381 0.129595
0.669581 0.0633097 0.134554
0.666819 0.0623941 0.133639
0.666056 0.0621347 0.134142
0.669841 0.0629435 0.138857
0.673762 0.063798 0.143618
0.677302 0.0644694 0.148821
0.680537 0.0651713 0.153857
0.683055 0.0656291 0.158801
0.684504 0.0658885 0.161913
0.685817 0.0661326 0.164569
0.686732 0.0662699 0.166567
0.687205 0.0663462 0.167636
0.68751 0.066392 0.168368
0.687739 0.066453 0.168826
0.68777 0.0665293 0.16878
0.687922 0.0667277 0.168765
0.687785 0.066865 0.168338
0.0498054 0.118029 0.0615396
0.0496376 0.118563 0.0619669
0.0498512 0.117906 0.0588388
0.0499123 0.116716 0.0574044
0.0504921 0.115007 0.0572366
0.0604715 0.112032 0.0572824
0.0800183 0.111482 0.0567483
0.12488 0.110445 0.0608988
0.174136 0.111955 0.0656291
0.232517 0.105013 0.0699474
0.298146 0.0919966 0.0728008
0.365042 0.076173 0.0750286
0.438834 0.0598306 0.0833295
0.51545 0.0505074 0.0970779
0.589212 0.0444495 0.110994
0.651682 0.0585794 0.127596
0.678767 0.066392 0.137804
0.676585 0.0655833 0.13698
0.674418 0.0648051 0.136141
0.672709 0.0643626 0.135668
0.670985 0.0637827 0.135012
0.669703 0.0633402 0.134691
0.669108 0.0631266 0.134737
0.668818 0.0629892 0.134966
0.668666 0.0629129 0.135241
0.66862 0.0628672 0.135546
0.668711 0.0628672 0.135836
0.668788 0.0628672 0.13608
0.668788 0.0628672 0.136172
0.66865 0.0628519 0.136065
0.668437 0.0628367 0.135897
0.668101 0.0628519 0.135592
0.667491 0.0627756 0.135058
0.0498054 0.154971 0.0637064
0.0496071 0.155596 0.0643473
0.0495766 0.155108 0.0610666
0.0496529 0.153811 0.0575723
0.0497292 0.1523 0.0574502
0.0564126 0.150546 0.0574502
0.0722362 0.148211 0.0581826
0.111223 0.150179 0.0566873
0.176928 0.148577 0.0647593
0.237705 0.152544 0.0703746
0.313893 0.143221 0.0809644
0.391775 0.129259 0.0868696
0.472206 0.110735 0.0915847
0.541039 0.082887 0.0921645
0.596201 0.0567178 0.103319
0.643153 0.0485389 0.119814
0.685649 0.0694896 0.139101
0.686275 0.0696422 0.140078
0.684749 0.0689403 0.139788
0.68333 0.0682994 0.139544
0.682033 0.0677348 0.139223
0.68101 0.0673228 0.13901
0.680293 0.0670329 0.138872
0.679591 0.066743 0.138613
0.679103 0.0665446 0.138445
0.678691 0.0663767 0.138293
0.678401 0.0662852 0.138231
0.678248 0.0662242 0.138201
0.678294 0.0662394 0.138262
0.67837 0.0662699 0.138323
0.67866 0.0663767 0.138506
0.679316 0.0666209 0.138933
0.680232 0.0670176 0.139651
0.0479591 0.196612 0.0646067
0.0476539 0.197314 0.0653544
0.0475013 0.196765 0.0624399
0.0475013 0.195605 0.0569924
0.0476844 0.194781 0.0556497
0.0486305 0.193256 0.0556802
0.0633402 0.192432 0.0562753
0.0911421 0.191608 0.0571756
0.157427 0.193698 0.0546578
0.240314 0.194842 0.0666056
0.317342 0.202945 0.076463
0.409766 0.197513 0.0953231
0.502068 0.185595 0.108278
0.587427 0.165438 0.116777
0.653239 0.1337 0.11751
0.679545 0.0893721 0.115389
0.69221 0.0751049 0.127947
0.695033 0.074403 0.138796
0.694194 0.0737774 0.139315
0.693141 0.0731518 0.139635
0.692195 0.0727092 0.139895
0.691569 0.0723888 0.139986
0.690959 0.0720684 0.140139
0.690425 0.0717784 0.140215
0.690013 0.0715648 0.140276
0.689647 0.0713664 0.140261
0.689418 0.0712291 0.14023
0.689372 0.0711986 0.14023
0.689342 0.0711833 0.140246
0.689418 0.0712291 0.140261
0.689616 0.0713512 0.140291
0.690196 0.0716411 0.14052
0.691157 0.0721141 0.140932
0.0429389 0.244602 0.0627604
0.0425727 0.245441 0.063508
0.0424201 0.245289 0.0608682
0.0423743 0.244999 0.0554665
0.0424506 0.243626 0.0507973
0.0429389 0.241978 0.0508583
0.0486458 0.241093 0.0512551
0.0714427 0.240589 0.0525521
0.122057 0.24419 0.0526131
0.217517 0.246754 0.0515755
0.31899 0.251789 0.0677958
0.406119 0.265904 0.082536
0.51339 0.2654 0.113176
0.609567 0.259861 0.128435
0.696925 0.239261 0.14641
0.755734 0.210864 0.153231
0.76701 0.172839 0.152483
0.738552 0.120226 0.141131
0.708888 0.0848554 0.127886
0.705272 0.0832074 0.12874
0.702678 0.0800946 0.134554
0.701473 0.0790723 0.135637
0.700893 0.0786297 0.135836
0.700435 0.0782788 0.13611
0.700084 0.0780041 0.136324
0.699901 0.0778668 0.136461
0.699733 0.0777447 0.136568
0.699641 0.0776684 0.136629
0.699657 0.0776684 0.136629
0.699763 0.07776 0.136568
0.700038 0.0779583 0.136431
0.700725 0.0784161 0.136324
0.701579 0.0790112 0.136385
0.0318456 0.29897 0.0576791
0.0312657 0.300252 0.0583505
0.0311284 0.300237 0.055314
0.0311589 0.299504 0.0499733
0.030808 0.298161 0.0431525
0.0309453 0.296757 0.0408637
0.0314183 0.295094 0.0411994
0.048188 0.296498 0.0411078
0.0856794 0.296223 0.0433204
0.164477 0.303029 0.0409247
0.289235 0.30695 0.0458228
0.408179 0.318303 0.0686046
0.501884 0.342504 0.0847486
0.608118 0.348577 0.12459
0.705333 0.350698 0.149554
0.787366 0.341863 0.165957
0.840208 0.32015 0.188113
0.845777 0.279973 0.198734
0.828153 0.250813 0.18764
0.810559 0.22298 0.177127
0.792248 0.195743 0.16672
0.776272 0.17293 0.158022
0.762188 0.153353 0.150759
0.751308 0.138903 0.145174
0.748791 0.13695 0.142779
0.744488 0.131395 0.141314
0.741939 0.128069 0.140642
0.740337 0.12604 0.140169
0.739773 0.125612 0.139742
0.740917 0.126604 0.140749
0.744335 0.130526 0.142504
0.749142 0.136263 0.144549
0.755795 0.14432 0.147524
0.0149233 0.357046 0.0488289
0.0143893 0.358083 0.0496681
0.0141299 0.358129 0.0464027
0.014023 0.357748 0.0404822
0.0135348 0.356985 0.0322423
0.012665 0.355947 0.0235142
0.0129702 0.355047 0.0233005
0.0140078 0.353521 0.0234379
0.0498207 0.355398 0.0248875
0.11249 0.356222 0.0284123
0.221805 0.367025 0.0272374
0.371756 0.376547 0.0412299
0.504448 0.393988 0.074052
0.594446 0.422583 0.0823377
0.687465 0.438239 0.130449
0.778531 0.444938 0.161486
0.850034 0.44892 0.182406
0.890181 0.441291 0.205295
0.889998 0.41796 0.20853
0.885679 0.394766 0.207843
0.880186 0.372915 0.206561
0.87483 0.354726 0.2056
0.870558 0.341772 0.204791
0.866545 0.331701 0.203372
0.863279 0.323613 0.202243
0.860975 0.318013 0.201419
0.859419 0.314321 0.200839
0.858732 0.312673 0.200626
0.859419 0.314199 0.200916
0.860822 0.317143 0.201602
0.863142 0.322316 0.20267
0.867262 0.331518 0.2047
0.872648 0.34435 0.207263
0 0.419974 0.0441138
0 0.421057 0.0452277
0 0.421317 0.0411383
0 0.421164 0.035111
0 0.421653 0.0261997
0 0.421927 0.0145266
0.000183108 0.422553 0.00886549
0.00030518 0.420661 0.00901808
0.0144808 0.41854 0.00787366
0.0687877 0.417868 0.00953689
0.161303 0.422187 0.0145724
0.303075 0.435462 0.0179294
0.461173 0.450965 0.0417029
0.590829 0.47013 0.0865644
0.68246 0.499031 0.0968185
0.755383 0.527321 0.129244
0.823819 0.546426 0.161318
0.866636 0.556542 0.178988
0.875456 0.544121 0.186038
0.879759 0.530602 0.189792
0.882994 0.518578 0.192889
0.884916 0.509346 0.194827
0.886748 0.502129 0.19678
0.888182 0.495827 0.198322
0.889052 0.490654 0.199329
0.889952 0.487434 0.20032
0.889937 0.485267 0.200412
0.889891 0.485313 0.200351
0.88986 0.486305 0.200198
0.889509 0.488624 0.19968
0.889021 0.493278 0.198917
0.888014 0.500572 0.19765
0.88629 0.510155 0.195712
0 0.488533 0.0518654
0 0.489662 0.0532845
0 0.490303 0.0487678
0 0.491188 0.0427863
0 0.491875 0.0333562
0.000640879 0.493538 0.0220951
0.00492866 0.496162 0.0105287
0.00621042 0.495155 0.00885023
0.00573739 0.492546 0.00843824
0.0400854 0.488182 0.0024567
0.114305 0.483055 0.00315862
0.237217 0.490043 0.00846876
0.40087 0.50544 0.0238346
0.544411 0.526436 0.0546883
0.670558 0.549813 0.107393
0.765118 0.579644 0.13167
0.825132 0.609842 0.156161
0.861769 0.633997 0.176013
0.865354 0.632013 0.177722
0.864057 0.625238 0.176318
0.863294 0.619562 0.175418
0.862654 0.61416 0.17464
0.862364 0.61001 0.174304
0.862226 0.606439 0.174014
0.862547 0.603922 0.174228
0.862547 0.602457 0.174166
0.862455 0.602029 0.174029
0.862394 0.602045 0.173938
0.862333 0.602991 0.173877
0.862043 0.604807 0.173602
0.861936 0.60827 0.173556
0.862119 0.613825 0.173846
0.86363 0.619959 0.175586
0.00820935 0.559121 0.0694285
0.00817884 0.560067 0.0709087
0.00894179 0.561288 0.0662547
0.0102083 0.561898 0.0601663
0.0126497 0.563027 0.0514687
0.0150454 0.564782 0.0402991
0.0206607 0.566827 0.0269932
0.0296178 0.569223 0.0204623
0.0288396 0.567269 0.0197604
0.0328985 0.563882 0.016907
0.0983597 0.556481 0.00538643
0.19028 0.550149 0.00750744
0.338399 0.560708 0.0149996
0.504417 0.582147 0.0487678
0.631128 0.609308 0.0865949
0.750607 0.636118 0.145006
0.841001 0.665385 0.186877
0.890745 0.693614 0.213977
0.905089 0.69839 0.223026
0.901198 0.692226 0.218189
0.898268 0.687709 0.214664
0.895552 0.683452 0.211398
0.893584 0.680385 0.209094
0.892439 0.678584 0.207767
0.891768 0.677485 0.206973
0.891386 0.676936 0.206546
0.891173 0.676646 0.206317
0.891432 0.677058 0.206607
0.89218 0.678187 0.207416
0.8934 0.680049 0.208789
0.895369 0.683162 0.211093
0.89836 0.687907 0.214908
0.902037 0.693568 0.219455
0.0299687 0.625238 0.0934005
0.0301213 0.62649 0.0951553
0.031693 0.627253 0.0911727
0.0341039 0.628214 0.0852979
0.0373693 0.629435 0.0772717
0.0413672 0.630854 0.0668956
0.0497444 0.633051 0.0546578
0.0656901 0.637766 0.0460517
0.0690776 0.637964 0.043595
0.0671702 0.635401 0.0424353
0.0989242 0.629419 0.0263676
0.178866 0.621927 0.0162203
0.302708 0.621317 0.0210269
0.458747 0.64094 0.0450294
0.611627 0.667277 0.0974441
0.722454 0.70045 0.142657
0.829572 0.731655 0.205432
0.902663 0.758068 0.25066
0.940124 0.766506 0.278202
0.939361 0.760311 0.274128
0.937514 0.756741 0.271046
0.936065 0.75375 0.268605
0.934905 0.751553 0.266667
0.934401 0.750607 0.265797
0.933913 0.749599 0.265034
0.933776 0.74931 0.264775
0.933852 0.749508 0.264912
0.934188 0.750271 0.265461
0.934813 0.751644 0.266514
0.93608 0.754192 0.26865
0.93753 0.757275 0.271153
0.939498 0.761318 0.274479
0.941878 0.766506 0.27866
0.0650339 0.686885 0.121736
0.065156 0.687739 0.123354
0.0672313 0.688655 0.120699
0.0697948 0.689647 0.116915
0.0732891 0.690639 0.11133
0.0809339 0.692592 0.100557
0.0926375 0.695903 0.0924544
0.11017 0.702434 0.0878004
0.121492 0.709377 0.0878767
0.121035 0.706889 0.0852216
0.123629 0.704311 0.0807507
0.192615 0.696422 0.052491
0.295506 0.689067 0.0420081
0.444358 0.700755 0.0575418
0.596643 0.726955 0.105455
0.730938 0.762066 0.167605
0.819333 0.792325 0.219196
0.890745 0.809827 0.268574
0.93962 0.819883 0.302342
0.953292 0.81883 0.310964
0.953048 0.816526 0.309621
0.952834 0.814817 0.308659
0.952819 0.813901 0.308232
0.95288 0.813077 0.307881
0.952804 0.812528 0.307576
0.952789 0.812512 0.307561
0.952865 0.812955 0.307836
0.952941 0.813916 0.308324
0.953109 0.815518 0.309209
0.953277 0.817243 0.310185
0.95346 0.819394 0.311391
0.95375 0.822644 0.313207
0.954025 0.826581 0.315404
0.0948806 0.738186 0.166812
0.0948653 0.738933 0.16849
0.0953536 0.739345 0.168093
0.0958877 0.739712 0.167559
0.0958724 0.739834 0.167849
0.0956893 0.73994 0.168566
0.0958877 0.739879 0.167941
0.0964065 0.739666 0.166171
0.0971847 0.739376 0.163668
0.0986496 0.739071 0.160418
0.100557 0.73872 0.156497
0.144167 0.738872 0.113619
0.265705 0.743877 0.0865797
0.402518 0.746471 0.0873426
0.555734 0.766094 0.122621
0.706401 0.793332 0.184604
0.805631 0.82298 0.235157
0.875349 0.843458 0.27892
0.932479 0.857328 0.322011
0.957275 0.862104 0.338735
0.957076 0.860349 0.336843
0.956985 0.859876 0.336461
0.956893 0.859373 0.336049
0.956786 0.859022 0.335775
0.956725 0.858885 0.335653
0.956771 0.858976 0.335744
0.956909 0.859525 0.336202
0.956985 0.860014 0.336599
0.957076 0.860731 0.337179
0.957229 0.861723 0.337987
0.957183 0.862898 0.338903
0.957427 0.86482 0.340398
0.957977 0.867445 0.342687
0.0833448 0.746471 0.224674
0.0833295 0.746593 0.225101
0.0834058 0.7467 0.225086
0.0835279 0.746761 0.224811
0.083711 0.746761 0.224079
0.0839551 0.746685 0.222919
0.0842756 0.746548 0.221241
0.0844739 0.746395 0.220005
0.0848707 0.74609 0.217578
0.0852216 0.745846 0.215564
0.0852216 0.74583 0.215518
0.0862135 0.745113 0.209903
0.1187 0.737697 0.131884
0.276295 0.750118 0.0919356
0.459571 0.763638 0.106661
0.624399 0.787045 0.156435
0.768429 0.819516 0.225422
0.854765 0.847745 0.273777
0.920607 0.866056 0.319829
0.957397 0.875853 0.3514
0.96083 0.876707 0.354971
0.960662 0.876539 0.354421
0.960647 0.876509 0.35436
0.960647 0.876493 0.35433
0.960647 0.876493 0.35433
0.960678 0.876524 0.354452
0.960708 0.876539 0.354543
0.960754 0.87657 0.354681
0.96083 0.876616 0.354849
0.960922 0.876677 0.355138
0.961074 0.876783 0.355505
0.961227 0.876875 0.356008
0.961212 0.876875 0.355993
0.0831464 0.746593 0.225864
0.0831464 0.7467 0.226154
0.0831769 0.746822 0.226368
0.0833143 0.746883 0.226078
0.0834516 0.746899 0.225483
0.0836805 0.746807 0.224308
0.0840467 0.74667 0.222538
0.0844282 0.746456 0.220386
0.0846876 0.746242 0.218677
0.0852064 0.745861 0.215671
0.0852216 0.745846 0.215564
0.0853742 0.745754 0.214771
0.0992905 0.739254 0.161181
0.215167 0.745937 0.0961776
0.363912 0.755489 0.094316
0.553918 0.775982 0.130877
0.712642 0.805112 0.19646
0.827405 0.838926 0.256809
0.900328 0.860914 0.305241
0.95024 0.87393 0.343587
0.960464 0.876875 0.354467
0.961059 0.877241 0.356085
0.961059 0.877226 0.356085
0.961059 0.877211 0.356069
0.961059 0.877195 0.356054
0.961059 0.87718 0.356039
0.961059 0.877165 0.356023
0.961059 0.877165 0.356008
0.961059 0.87715 0.355993
0.961059 0.87715 0.355962
0.961059 0.87715 0.355978
0.961059 0.877165 0.355978
0.961059 0.87718 0.355993
0.0829786 0.74696 0.227604
0.0829786 0.74699 0.227695
0.0830091 0.747005 0.227619
0.0831006 0.747021 0.227268
0.083238 0.747005 0.226658
0.0834821 0.746929 0.225483
0.0838026 0.746777 0.223758
0.0842756 0.746548 0.221271
0.084535 0.746334 0.219593
0.0851453 0.745907 0.216007
0.0852216 0.745846 0.215564
0.0852216 0.745846 0.215564
0.0925002 0.741405 0.180423
0.187366 0.743679 0.101579
0.33257 0.753582 0.0925154
0.522454 0.771756 0.121569
0.68864 0.799237 0.18471
0.811597 0.833844 0.248051
0.888136 0.857755 0.296651
0.942 0.871778 0.336721
0.960098 0.876707 0.353475
0.961028 0.877272 0.3561
0.961028 0.877272 0.3561
0.961028 0.877272 0.356085
0.961028 0.877272 0.356085
0.961028 0.877272 0.356085
0.961028 0.877272 0.356085
0.961028 0.877272 0.356085
0.961028 0.877272 0.356085
0.961028 0.877272 0.356085
0.961044 0.877256 0.356069
0.961044 0.877211 0.356023
0.961059 0.877134 0.355962
0.082826 0.746944 0.228153
0.0828107 0.746929 0.228138
0.0828412 0.746929 0.228031
0.0829328 0.746929 0.227665
0.0830701 0.746914 0.227085
0.083299 0.746868 0.226001
0.0836042 0.746715 0.224369
0.0841077 0.746487 0.221759
0.0844587 0.746242 0.219623
0.085069 0.745815 0.216083
0.0852216 0.745693 0.215152
0.0852216 0.745693 0.215152
0.089662 0.742748 0.19205
0.165255 0.741497 0.107851
0.312367 0.75227 0.091722
0.497002 0.768368 0.114794
0.670039 0.795285 0.175982
0.797971 0.828672 0.240314
0.87718 0.854276 0.288685
0.935058 0.869688 0.330846
0.959426 0.876265 0.352193
0.960937 0.876982 0.35555
0.961074 0.877058 0.355886
0.961074 0.877058 0.355886
0.961074 0.877058 0.355886
0.961074 0.877058 0.355886
0.961074 0.877058 0.355886
0.961074 0.877089 0.355917
0.961059 0.877134 0.355962
0.961044 0.877211 0.356023
0.961044 0.877241 0.356054
0.961044 0.877211 0.356023
0.961059 0.877134 0.355962
0.0827192 0.747005 0.228824
0.0827039 0.74699 0.228779
0.0827344 0.74699 0.228702
0.082826 0.74699 0.228305
0.082948 0.746975 0.22771
0.0831617 0.746929 0.226734
0.0834669 0.746792 0.225101
0.0839704 0.746548 0.222477
0.0844282 0.746273 0.219821
0.0849622 0.745876 0.216602
0.0852216 0.745693 0.215152
0.0852216 0.745693 0.215152
0.0881666 0.743679 0.199252
0.15256 0.740093 0.111757
0.300969 0.751568 0.0914931
0.478187 0.765972 0.110369
0.653056 0.791959 0.168536
0.787961 0.825452 0.235416
0.869291 0.85211 0.283467
0.92932 0.868269 0.326406
0.958663 0.876066 0.351293
0.960739 0.87686 0.355016
0.961074 0.877058 0.355886
0.961074 0.877058 0.355886
0.961074 0.877058 0.355886
0.961074 0.877058 0.355886
0.961074 0.877058 0.355886
0.961074 0.877089 0.355917
0.961059 0.877134 0.355962
0.961044 0.877211 0.356023
0.961044 0.877241 0.356069
0.961044 0.877241 0.356054
0.961044 0.877195 0.356023
0.0826276 0.747082 0.229358
0.0826276 0.747051 0.229297
0.0826429 0.747036 0.229191
0.0827344 0.747036 0.228779
0.0828717 0.747021 0.228199
0.0830854 0.74696 0.227176
0.0834058 0.746822 0.225483
0.0838788 0.746593 0.222934
0.0844129 0.746288 0.220005
0.0849012 0.745922 0.216953
0.0852216 0.745693 0.215152
0.0852216 0.745693 0.215152
0.0873121 0.744244 0.203616
0.146593 0.740047 0.116121
0.293507 0.750988 0.09131
0.466911 0.764736 0.107897
0.641611 0.790234 0.16379
0.780819 0.823011 0.232029
0.863951 0.850553 0.279927
0.925292 0.867262 0.323445
0.95819 0.875929 0.350622
0.960616 0.876768 0.35465
0.961074 0.877058 0.355886
0.961074 0.877058 0.355886
0.961074 0.877058 0.355886
0.961074 0.877058 0.355886
0.961074 0.877058 0.355886
0.961074 0.877089 0.355917
0.961059 0.877134 0.355962
0.961044 0.877211 0.356023
0.961044 0.877256 0.356069
0.961028 0.877287 0.3561
0.961044 0.877256 0.356069
0.0825971 0.747189 0.229847
0.0825971 0.747127 0.229694
0.0826123 0.747097 0.229511
0.0826734 0.747066 0.229129
0.0828107 0.747051 0.228534
0.0830243 0.74699 0.227497
0.0833448 0.746853 0.225834
0.0838026 0.746624 0.223255
0.0843977 0.746319 0.220111
0.0848707 0.745937 0.217136
0.0852216 0.745693 0.215152
0.0852216 0.745693 0.215152
0.0872816 0.744274 0.203876
0.141939 0.739803 0.119127
0.289403 0.750683 0.0912947
0.459663 0.763836 0.10631
0.635996 0.789227 0.161334
0.776455 0.821546 0.22974
0.860945 0.849867 0.278111
0.921843 0.866529 0.320974
0.956786 0.875669 0.349371
0.960479 0.876768 0.354376
0.961074 0.877089 0.355917
0.961074 0.877073 0.355901
0.961074 0.877058 0.355886
0.961074 0.877058 0.355886
0.961074 0.877058 0.355886
0.961074 0.877089 0.355917
0.961059 0.877134 0.355962
0.961044 0.877211 0.356023
0.961044 0.877256 0.356069
0.961028 0.877287 0.3561
0.961028 0.877287 0.3561
0.0825666 0.747265 0.230198
0.0825666 0.747234 0.230121
0.0825818 0.747173 0.229862
0.0826276 0.747112 0.229435
0.0827649 0.747066 0.228748
0.0829786 0.747005 0.22771
0.083299 0.746868 0.226062
0.0837873 0.746639 0.223392
0.0843824 0.746319 0.220172
0.0848402 0.745953 0.217258
0.0852216 0.745693 0.215152
0.0852216 0.745693 0.215152
0.0872358 0.74432 0.204181
0.139666 0.739773 0.120607
0.2878 0.750698 0.0914321
0.456123 0.763134 0.105608
0.633509 0.788815 0.160235
0.773022 0.820981 0.227802
0.859236 0.849378 0.276997
0.920058 0.866041 0.319615
0.955566 0.875349 0.348257
0.960403 0.876875 0.35433
0.961044 0.877256 0.356069
0.961044 0.877256 0.356069
0.961044 0.877241 0.356069
0.961044 0.877241 0.356054
0.961044 0.877226 0.356054
0.961044 0.877241 0.356069
0.961028 0.877287 0.3561
0.961013 0.877348 0.356161
0.961013 0.877394 0.356191
0.961013 0.877409 0.356222
0.961013 0.877409 0.356222
0.0825513 0.747417 0.230762
0.082536 0.747433 0.230884
0.0825818 0.747356 0.230457
0.0826276 0.74725 0.229892
0.0827497 0.747158 0.229099
0.082948 0.747036 0.227909
0.0832685 0.746883 0.226184
0.083772 0.746639 0.223468
0.0843977 0.746319 0.220142
0.0848554 0.745937 0.217197
0.0852216 0.745693 0.215152
0.0852216 0.745693 0.215152
0.0872816 0.744305 0.204044
