bundles/resolve-cinematic-luts/Phantom Luts/Komodo Phantom ARRI LUTs G2/Komodo Phantom ARRI LUTs G2/33x/WB Offset - Green Boost/Tungsten_Komodo_WBO_Legacy_G2_33x.cube
TITLE "Generated by Resolve"
LUT_3D_SIZE 9
0.0407874 0.0411688 0.0476692
0.0555886 0.0407111 0.0468757
0.18175 0.0374914 0.0601053
0.468254 0.0486152 0.118608
0.696284 0.0676432 0.188968
0.705638 0.0694896 0.210819
0.700587 0.0585031 0.218387
0.702312 0.0592203 0.222232
0.704387 0.0601816 0.22623
0.0463111 0.0672465 0.0540322
0.0507668 0.0634165 0.0528572
0.162646 0.054612 0.0544289
0.442466 0.0431678 0.0892348
0.668925 0.0626841 0.138415
0.691234 0.0670481 0.176761
0.696559 0.0677958 0.189395
0.697978 0.068101 0.192447
0.699199 0.0687572 0.194476
0.0479591 0.196612 0.0646067
0.0476844 0.194781 0.0556497
0.157427 0.193698 0.0546578
0.502068 0.185595 0.108278
0.69221 0.0751049 0.127947
0.692195 0.0727092 0.139895
0.690013 0.0715648 0.140276
0.689342 0.0711833 0.140246
0.691157 0.0721141 0.140932
0 0.419974 0.0441138
0 0.421653 0.0261997
0.0144808 0.41854 0.00787366
0.461173 0.450965 0.0417029
0.823819 0.546426 0.161318
0.882994 0.518578 0.192889
0.889052 0.490654 0.199329
0.88986 0.486305 0.200198
0.88629 0.510155 0.195712
0.0650339 0.686885 0.121736
0.0732891 0.690639 0.11133
0.121492 0.709377 0.0878767
0.295506 0.689067 0.0420081
0.819333 0.792325 0.219196
0.953048 0.816526 0.309621
0.952804 0.812528 0.307576
0.953109 0.815518 0.309209
0.954025 0.826581 0.315404
0.0829786 0.74696 0.227604
0.083238 0.747005 0.226658
0.084535 0.746334 0.219593
0.0925002 0.741405 0.180423
0.68864 0.799237 0.18471
0.960098 0.876707 0.353475
0.961028 0.877272 0.356085
0.961028 0.877272 0.356085
0.961059 0.877134 0.355962
0.0825971 0.747189 0.229847
0.0828107 0.747051 0.228534
0.0843977 0.746319 0.220111
0.0872816 0.744274 0.203876
0.635996 0.789227 0.161334
0.956786 0.875669 0.349371
0.961074 0.877058 0.355886
0.961059 0.877134 0.355962
0.961028 0.877287 0.3561
0.0825208 0.747387 0.230869
0.0827039 0.746914 0.22855
0.0843671 0.745892 0.218982
0.0875715 0.743709 0.201526
0.643091 0.789975 0.163516
0.954772 0.874739 0.347143
0.96112 0.876799 0.355642
0.961105 0.87689 0.355734
0.961013 0.877409 0.356207
0.0824903 0.747555 0.23154
0.0827802 0.747189 0.229053
0.0846418 0.745907 0.217945
0.10782 0.739071 0.151049
0.721477 0.806531 0.20032
0.95993 0.876097 0.352331
0.96112 0.876799 0.355642
0.961105 0.87689 0.355734
0.960998 0.877424 0.356237
0.0348363 0.0439002 0.0713817
0.0572671 0.0424811 0.0724956
0.185855 0.0485542 0.0919203
0.476127 0.0548867 0.155962
0.703868 0.0598917 0.225727
0.711757 0.0641489 0.245212
0.713954 0.0655375 0.251423
0.714717 0.0660716 0.253697
0.716457 0.0670939 0.257572
0.044831 0.0596933 0.06598
0.043122 0.0565805 0.0632029
0.16553 0.0430915 0.0653239
0.456367 0.0499886 0.120714
0.699229 0.0686503 0.194629
0.705776 0.0664225 0.216907
0.703914 0.059968 0.225483
0.705257 0.060502 0.22884
0.706538 0.0611124 0.231495
0.0483711 0.189517 0.092668
0.0476997 0.188434 0.079942
0.142077 0.187594 0.0552987
0.498604 0.163485 0.105821
0.687282 0.0710002 0.135805
0.685771 0.069398 0.140612
0.683055 0.0681926 0.140063
0.682246 0.0678569 0.139879
0.683848 0.0685435 0.140856
0.000808728 0.416602 0.0831769
0 0.417014 0.0650339
0.00225834 0.41413 0.00994888
0.457359 0.447333 0.041825
0.826703 0.538811 0.163775
0.885817 0.508385 0.195712
0.890913 0.478523 0.201312
0.891585 0.47425 0.20177
0.888975 0.499458 0.197757
0.05037 0.682918 0.151125
0.0579843 0.686076 0.137301
0.1075 0.698909 0.0851911
0.276585 0.686915 0.0408484
0.817609 0.790646 0.217624
0.953063 0.81532 0.309071
0.952407 0.811185 0.30663
0.952926 0.814084 0.3084
0.954131 0.825498 0.31487
0.0825055 0.74725 0.230488
0.0826581 0.747295 0.229862
0.0842603 0.746548 0.221317
0.090074 0.742626 0.190448
0.685313 0.798505 0.183246
0.960082 0.876692 0.353414
0.961028 0.877272 0.356085
0.961028 0.877272 0.356085
0.961028 0.877272 0.356085
0.0822614 0.7476 0.232975
0.0824292 0.747402 0.231418
0.0838178 0.746609 0.223239
0.0862898 0.744991 0.209415
0.629969 0.788113 0.15877
0.955917 0.875334 0.34847
0.961074 0.877058 0.355886
0.961059 0.877134 0.355962
0.961028 0.877287 0.3561
0.0821393 0.74789 0.234501
0.0823224 0.747448 0.232166
0.083772 0.746227 0.222293
0.0855421 0.745037 0.212146
0.63653 0.78883 0.160754
0.953674 0.874479 0.346212
0.96112 0.876799 0.355642
0.961105 0.87689 0.355734
0.960998 0.877424 0.356237
0.0820325 0.747997 0.235416
0.0822614 0.74757 0.232914
0.0841535 0.746242 0.220844
0.097322 0.739559 0.166323
0.711513 0.804288 0.19527
0.959854 0.876051 0.352117
0.96112 0.876799 0.355642
0.961105 0.87689 0.355734
0.960998 0.877424 0.356237
0.0210117 0.0563668 0.173098
0.0529335 0.0487831 0.1841
0.187594 0.050248 0.190738
0.467094 0.0731518 0.241245
0.73547 0.0874952 0.317113
0.738445 0.0916915 0.328084
0.7393 0.09308 0.331304
0.739528 0.0933242 0.331807
0.741207 0.0952926 0.338308
0.0137026 0.0636606 0.144244
0.0137331 0.0592355 0.155184
0.16788 0.0493477 0.178531
0.458915 0.0724651 0.22153
0.728817 0.0788128 0.296239
0.732616 0.0834211 0.307729
0.734188 0.0853895 0.312383
0.734447 0.0858778 0.313603
0.736156 0.0876936 0.318517
0.0496986 0.165057 0.162921
0.0495155 0.163729 0.162371
0.128954 0.170809 0.170489
0.489326 0.121981 0.176272
0.697551 0.067628 0.189761
0.706111 0.0691844 0.212482
0.708309 0.0676432 0.222187
0.703075 0.0596628 0.223545
0.703624 0.0599069 0.224674
0.0113832 0.406348 0.183932
0.00947585 0.407004 0.174319
0.00491341 0.398718 0.096788
0.440436 0.433158 0.0411994
0.83888 0.510262 0.17319
0.891859 0.460197 0.203479
0.890517 0.424872 0.207874
0.890593 0.420111 0.209171
0.892668 0.450065 0.206683
0.0277867 0.672602 0.23801
0.0292821 0.675227 0.228412
0.0427405 0.675334 0.157031
0.208301 0.678447 0.0378119
0.81004 0.782757 0.210559
0.952193 0.806897 0.304479
0.951736 0.802304 0.302007
0.951736 0.804196 0.302876
0.953063 0.815702 0.309255
0.0796368 0.750271 0.256535
0.0803693 0.749493 0.248997
0.0824292 0.747616 0.232029
0.0855421 0.745586 0.213733
0.658747 0.79321 0.171038
0.95993 0.876616 0.352972
0.961044 0.877272 0.356085
0.961044 0.877272 0.356085
0.961028 0.877272 0.356085
0.0784161 0.753262 0.279438
0.0787366 0.752316 0.271763
0.0821546 0.747738 0.234012
0.0852216 0.745693 0.215152
0.59791 0.782773 0.146227
0.950759 0.873991 0.343816
0.961074 0.877058 0.355886
0.961059 0.877134 0.355962
0.961028 0.877287 0.3561
0.0780346 0.755093 0.293965
0.0782635 0.753902 0.28426
0.0820478 0.747463 0.233845
0.0851911 0.745296 0.21416
0.600427 0.782742 0.146471
0.947845 0.87277 0.340887
0.96112 0.876799 0.355642
0.961105 0.87689 0.355734
0.960998 0.877424 0.356237
0.0780957 0.758724 0.322774
0.0778821 0.75671 0.307179
0.0820478 0.747631 0.234424
0.0862593 0.744579 0.208377
0.672862 0.795697 0.176684
0.955825 0.875044 0.348165
0.96112 0.876799 0.355642
0.961105 0.87689 0.355734
0.960998 0.87747 0.356268
0.0108339 0.0727245 0.362448
0.0373846 0.0618143 0.367147
0.178241 0.0588998 0.401663
0.480339 0.0672007 0.436439
0.719722 0.0724041 0.467872
0.720836 0.0738079 0.474601
0.722347 0.0758068 0.47509
0.722942 0.0766003 0.475227
0.72221 0.0752117 0.483787
0 0.0962844 0.343206
0 0.0777905 0.351583
0.147631 0.0599069 0.392065
0.469169 0.066804 0.42797
0.72047 0.0732738 0.458457
0.721447 0.0745708 0.465766
0.721004 0.0740826 0.465278
0.721416 0.0747082 0.465339
0.719875 0.0724041 0.473167
0.0135195 0.159075 0.294057
0.0118715 0.15346 0.297841
0.0162661 0.104616 0.354559
0.427451 0.0681468 0.388693
0.722057 0.0786908 0.418173
0.723354 0.0770886 0.42356
0.722927 0.0764477 0.424582
0.722683 0.0760967 0.425177
0.72166 0.074342 0.431769
0.0419623 0.395209 0.370672
0.0414588 0.395941 0.37145
0.0414893 0.387778 0.359548
0.392859 0.412299 0.379644
0.874449 0.375723 0.403342
0.895171 0.29192 0.366567
0.873762 0.254246 0.344854
0.8701 0.247959 0.341405
0.886519 0.275898 0.360769
0.0231479 0.668589 0.403998
0.0234531 0.670619 0.402152
0.0213321 0.664103 0.37052
0.0215 0.640223 0.173205
0.757717 0.736614 0.179416
0.94612 0.776944 0.286656
0.942519 0.768826 0.280201
0.943023 0.770108 0.281102
0.948409 0.782162 0.290867
0.0804761 0.767666 0.404288
0.0807507 0.768231 0.405905
0.082063 0.767254 0.385946
0.0821698 0.747845 0.23415
0.560906 0.777111 0.133196
0.957351 0.875578 0.34966
0.96112 0.876829 0.355688
0.96112 0.876829 0.355673
0.96112 0.876844 0.355688
0.0801404 0.76936 0.417197
0.0802167 0.769451 0.417395
0.0816052 0.767834 0.396017
0.0819715 0.747906 0.235676
0.476661 0.765621 0.110231
0.93106 0.868605 0.327672
0.961074 0.877058 0.355886
0.961059 0.877134 0.355962
0.961028 0.877287 0.3561
0.0802014 0.771176 0.430396
0.0801251 0.770932 0.428763
0.080827 0.767926 0.40296
0.0818189 0.747692 0.235828
0.470954 0.76466 0.108339
0.924971 0.866804 0.322805
0.96112 0.876799 0.355642
0.961105 0.87689 0.355734
0.960998 0.877424 0.356237
0.082826 0.776028 0.460761
0.0822766 0.775265 0.456168
0.0801556 0.770214 0.423239
0.081178 0.748211 0.240558
0.54052 0.773709 0.125902
0.933944 0.869062 0.329656
0.96112 0.876799 0.355642
0.961105 0.87689 0.355734
0.960998 0.877424 0.356237
0 0.0897841 0.574136
0.0262303 0.0761578 0.574609
0.15996 0.0822156 0.62121
0.458579 0.0800946 0.676417
0.736019 0.116808 0.692622
0.733166 0.117952 0.700877
0.732891 0.118105 0.701747
0.733059 0.118151 0.701732
0.731624 0.119661 0.708278
0 0.11249 0.576364
0 0.0959793 0.572213
0.131487 0.0823835 0.61004
0.443214 0.0791638 0.672984
0.736965 0.116503 0.689967
0.734142 0.117479 0.697917
0.733837 0.117647 0.698909
0.733852 0.117693 0.698985
0.732464 0.119265 0.705791
0 0.179019 0.588464
0 0.172778 0.593194
0 0.0921798 0.563394
0.383337 0.0767224 0.656016
0.732052 0.11194 0.676692
0.738689 0.115236 0.682445
0.738613 0.115434 0.683299
0.738521 0.11548 0.683589
0.737057 0.116884 0.691035
0.0273747 0.427314 0.603983
0.0270237 0.42768 0.608194
0.023621 0.409491 0.61561
0.272633 0.30634 0.730068
0.770733 0.223789 0.706859
0.757488 0.122972 0.627939
0.737148 0.0985885 0.60209
0.732387 0.0934462 0.596445
0.745846 0.110201 0.619287
0.0734417 0.669841 0.630304
0.0745403 0.67245 0.633707
0.0736095 0.670588 0.63064
0.0664836 0.655985 0.609506
0.679255 0.694331 0.655116
0.954864 0.708721 0.674022
0.954086 0.695125 0.667308
0.954208 0.696437 0.668956
0.954787 0.712306 0.683619
0.119722 0.802777 0.598245
0.12137 0.80383 0.60264
0.118364 0.802152 0.594354
0.101045 0.79144 0.541543
0.196445 0.760418 0.23267
0.947829 0.876814 0.36788
0.96141 0.877012 0.356664
0.961425 0.877028 0.356756
0.961334 0.876966 0.356435
0.124056 0.805173 0.609842
0.126085 0.806409 0.615122
0.121675 0.803983 0.60354
0.101656 0.791806 0.543755
0.10161 0.754513 0.250889
0.889189 0.857984 0.29723
0.960555 0.876677 0.354406
0.960723 0.876814 0.35491
0.960678 0.876921 0.354925
0.130571 0.808804 0.626505
0.131807 0.809476 0.629648
0.126116 0.806409 0.615259
0.103838 0.793225 0.550912
0.0957809 0.755322 0.267018
0.876204 0.853941 0.287892
0.960128 0.876143 0.352819
0.9608 0.876631 0.354803
0.960678 0.877043 0.355108
0.14757 0.817441 0.667277
0.147219 0.817288 0.666423
0.138643 0.81297 0.646403
0.110964 0.797757 0.573007
0.12755 0.761318 0.28719
0.893004 0.858854 0.299763
0.960052 0.87631 0.35285
0.960693 0.876814 0.354849
0.960616 0.877211 0.35523
0.0384222 0.076524 0.611551
0.0605631 0.0753796 0.620233
0.170397 0.088014 0.672007
0.440635 0.0871748 0.732418
0.720165 0.124666 0.736294
0.72015 0.124559 0.73608
0.72015 0.124559 0.73608
0.720165 0.12462 0.736187
0.720211 0.125109 0.737377
0.00344854 0.088838 0.603052
0.0280156 0.0783551 0.608011
0.144289 0.0877394 0.661692
0.423774 0.0868238 0.730755
0.72018 0.124666 0.736309
0.720134 0.124514 0.735988
0.720134 0.124514 0.735988
0.72015 0.12459 0.736126
0.720195 0.125109 0.737377
0 0.17261 0.643336
0 0.160296 0.638102
0.0268711 0.0787671 0.607782
0.359411 0.0862593 0.722011
0.713329 0.123079 0.737102
0.720119 0.124208 0.735225
0.720119 0.124208 0.73521
0.720119 0.124239 0.735317
0.720195 0.124834 0.736706
0.0223239 0.334844 0.702388
0.0219272 0.332586 0.70222
0.0172122 0.305837 0.694743
0.143389 0.135195 0.699855
0.631083 0.112276 0.749645
0.720363 0.124498 0.735286
0.720272 0.124315 0.735088
0.720256 0.124315 0.735088
0.720394 0.125063 0.736599
0.108156 0.653208 0.754543
0.109667 0.6551 0.75668
0.109056 0.65182 0.7579
0.107134 0.634195 0.76672
0.604288 0.638224 0.94754
0.910216 0.583261 0.895903
0.908339 0.569024 0.888502
0.908904 0.571725 0.889021
0.912322 0.592371 0.895781
0.203403 0.834455 0.795438
0.208103 0.839124 0.800931
0.206088 0.837049 0.79884
0.18677 0.817731 0.777615
0.199207 0.824948 0.783719
0.906783 0.913725 0.894453
0.973037 0.919066 0.89482
0.972824 0.917037 0.894499
0.973571 0.923201 0.901228
0.222553 0.852705 0.817182
0.224338 0.85362 0.820432
0.221042 0.852216 0.814404
0.204456 0.8448 0.783429
0.174533 0.836072 0.715419
0.784314 0.923964 0.777508
0.981094 0.937072 0.704143
0.960891 0.876646 0.355016
0.96968 0.885466 0.415427
0.228901 0.855497 0.828809
0.229725 0.855894 0.830335
0.225757 0.854307 0.82298
0.206516 0.845747 0.787243
0.171633 0.834287 0.709895
0.747524 0.91281 0.757351
0.976944 0.943023 0.732418
0.960174 0.876295 0.353109
0.96051 0.876921 0.354589
0.238376 0.85861 0.848188
0.23798 0.858534 0.847379
0.233524 0.857237 0.837797
0.212848 0.848661 0.799084
0.184375 0.842771 0.732067
0.785245 0.927932 0.797238
0.9794 0.9523 0.772976
0.962112 0.877958 0.360769
0.960311 0.876783 0.354025
0.0607462 0.075288 0.620142
0.0851911 0.0779278 0.632471
0.184298 0.088304 0.677394
0.450629 0.0876326 0.73344
0.72018 0.124651 0.736263
0.72015 0.124559 0.73608
0.72015 0.124559 0.73608
0.720119 0.124392 0.735698
0.720195 0.124941 0.736965
0.0284886 0.0781872 0.60798
0.0513313 0.0751049 0.616007
0.158511 0.0878767 0.667399
0.433936 0.0871901 0.731975
0.72018 0.124697 0.736355
0.72015 0.124559 0.736065
0.72015 0.124559 0.736065
0.720165 0.12462 0.736187
0.720195 0.125109 0.737377
0 0.158221 0.636774
0 0.136278 0.62356
0.0503548 0.0752117 0.615702
0.370336 0.086305 0.723796
0.718303 0.124407 0.73695
0.720119 0.124224 0.735256
0.720119 0.124208 0.735225
0.720119 0.124269 0.735363
0.720195 0.124834 0.736706
0.0146944 0.291539 0.689876
0.014374 0.289601 0.68957
0.0104219 0.26537 0.681514
0.119387 0.0940871 0.658976
0.628595 0.105394 0.741222
0.72018 0.1243 0.735286
0.720119 0.124041 0.734798
0.720119 0.124086 0.734905
0.720256 0.124804 0.736431
0.112902 0.642557 0.773709
0.114122 0.644984 0.774807
0.11281 0.641413 0.774456
0.103914 0.618723 0.770382
0.590143 0.603082 0.955154
0.898863 0.540185 0.905211
0.896223 0.5234 0.901122
0.896925 0.526726 0.901717
0.900984 0.551217 0.906981
0.214542 0.822919 0.839063
0.218189 0.827909 0.841718
0.216342 0.825376 0.84062
0.195697 0.796475 0.827146
0.199268 0.787655 0.841321
0.8598 0.87425 0.965545
0.961089 0.870649 0.961563
0.960937 0.868666 0.961273
0.962554 0.877424 0.96289
0.240177 0.858457 0.854246
0.240665 0.858915 0.855009
0.240696 0.858946 0.855055
0.24062 0.858885 0.854932
0.248478 0.870085 0.857481
0.580682 0.935988 0.91696
0.980514 0.982147 0.979355
0.990906 0.983398 0.977295
0.990799 0.983948 0.978546
0.240269 0.858534 0.854383
0.240665 0.858915 0.855009
0.240696 0.858946 0.855055
0.240574 0.858839 0.854841
0.243412 0.867399 0.847593
0.31577 0.912963 0.866392
0.97351 0.988495 0.971572
0.993011 0.989029 0.972976
0.992828 0.98941 0.974075
0.240604 0.858869 0.854887
0.240665 0.858915 0.855009
0.240696 0.858946 0.855055
0.240604 0.858869 0.854902
0.249622 0.873137 0.854597
0.377142 0.921553 0.879011
0.973739 0.988861 0.973785
0.992767 0.989593 0.973739
0.992737 0.989792 0.972854
0.0686046 0.0759442 0.624094
0.0922255 0.0791485 0.636118
0.187884 0.0884108 0.678767
0.452811 0.0878462 0.733852
0.72018 0.124651 0.736263
0.72015 0.124559 0.73608
0.72015 0.124559 0.73608
0.720134 0.124483 0.735927
0.720195 0.124987 0.737072
0.0368505 0.0766155 0.610697
0.0580148 0.0752422 0.619013
0.162219 0.087892 0.668833
0.4365 0.0871443 0.732128
0.72015 0.124681 0.736355
0.72015 0.124559 0.736065
0.72015 0.124559 0.736065
0.720165 0.124605 0.736171
0.720195 0.125017 0.737148
0 0.150652 0.632242
0 0.129046 0.618311
0.057023 0.0752575 0.618601
0.373571 0.0863813 0.724376
0.719951 0.124804 0.736797
0.720119 0.124224 0.735256
0.720119 0.124208 0.73521
0.720119 0.124269 0.735363
0.720195 0.124834 0.736706
0.0127413 0.279789 0.686015
0.0123903 0.27863 0.685802
0.00862135 0.254841 0.677897
0.114611 0.0854963 0.649424
0.630823 0.105516 0.74081
0.720119 0.124269 0.735378
0.720119 0.124056 0.734829
0.720119 0.124102 0.734966
0.720256 0.124788 0.736416
0.11162 0.639216 0.773251
0.112947 0.641871 0.774395
0.11162 0.638605 0.773831
0.102647 0.615076 0.769985
0.589136 0.595575 0.955337
0.897368 0.532418 0.90399
0.894392 0.515541 0.900038
0.895048 0.519234 0.900557
0.899565 0.544442 0.906004
0.211994 0.819303 0.837461
0.215503 0.824231 0.839948
0.213779 0.821759 0.839017
0.188327 0.783505 0.821622
0.19736 0.783764 0.840452
0.857649 0.866941 0.966751
0.959792 0.862119 0.959899
0.959411 0.859464 0.958785
0.960861 0.86894 0.961334
0.240253 0.858518 0.854353
0.240665 0.858915 0.855009
0.240696 0.858946 0.855055
0.24062 0.858885 0.854932
0.250202 0.870085 0.863249
0.55671 0.936843 0.946441
0.970932 0.973556 0.985351
0.988525 0.975784 0.987091
0.988464 0.976547 0.987427
0.240375 0.85864 0.854536
0.240665 0.858915 0.855009
0.240696 0.858946 0.855055
0.240574 0.858839 0.854841
0.249271 0.869078 0.862211
0.276265 0.899687 0.887129
0.941924 0.988235 0.985412
0.991455 0.990646 0.989807
0.991333 0.990967 0.990387
0.240421 0.858686 0.854612
0.240665 0.858915 0.855009
0.240696 0.858946 0.855055
0.240604 0.858869 0.854902
0.253544 0.874067 0.866026
0.278584 0.902419 0.889204
0.944091 0.988388 0.985428
0.991348 0.990921 0.990311
0.991318 0.990982 0.990417
0.0700084 0.0760204 0.624765
0.0945296 0.0796063 0.637369
0.190433 0.0882734 0.679515
0.457725 0.0880598 0.73434
0.72018 0.124651 0.736248
0.72015 0.124559 0.73608
0.72015 0.124559 0.73608
0.720134 0.124483 0.735927
0.720195 0.124987 0.737072
0.0378882 0.0764782 0.611063
0.0598917 0.0753033 0.619867
0.164553 0.0879835 0.669779
0.440864 0.0872206 0.732555
0.720195 0.124681 0.736339
0.72015 0.124559 0.736065
0.72015 0.124559 0.736065
0.720165 0.12462 0.736187
0.720195 0.125017 0.737163
0 0.150805 0.632395
0 0.128817 0.618509
0.0590829 0.0753338 0.619547
0.37792 0.0861982 0.724804
0.720195 0.124865 0.736767
0.720119 0.124224 0.735256
0.720119 0.124208 0.73521
0.720119 0.124269 0.735363
0.720195 0.124834 0.736706
0.0131685 0.282383 0.686854
0.0128023 0.28069 0.686458
0.00860609 0.255375 0.677867
0.118959 0.0866712 0.651881
0.633921 0.106188 0.740917
0.720104 0.124269 0.735378
0.720119 0.124056 0.734829
0.720119 0.124117 0.734981
0.720272 0.124834 0.736461
0.112535 0.641398 0.773678
0.113512 0.643473 0.774548
0.112581 0.640864 0.774319
0.103471 0.61738 0.770352
0.595682 0.60058 0.95613
0.89868 0.538354 0.905058
0.895766 0.522194 0.901152
0.89662 0.526253 0.901915
0.90071 0.549783 0.906828
0.213947 0.822049 0.838697
0.217472 0.827008 0.84123
0.215427 0.82414 0.839994
0.190402 0.786282 0.822919
0.198474 0.785046 0.841703
0.860151 0.867781 0.966842
0.959945 0.863249 0.960052
0.95993 0.861128 0.959182
0.961318 0.870619 0.961654
0.240269 0.858549 0.854398
0.240665 0.858915 0.855009
0.240696 0.858946 0.855055
0.240696 0.858946 0.855055
0.25098 0.87097 0.864012
0.587289 0.939055 0.949676
0.970565 0.972778 0.985321
0.988449 0.975174 0.987381
0.988403 0.975998 0.98761
0.240375 0.85864 0.854536
0.240665 0.858915 0.855009
0.240696 0.858946 0.855055
0.240696 0.858946 0.855055
0.250233 0.870085 0.86334
0.276982 0.900389 0.88809
0.934691 0.987091 0.986831
0.991348 0.990921 0.990295
0.991363 0.99089 0.990265
0.240375 0.85864 0.854536
0.240665 0.858915 0.855009
0.240696 0.858946 0.855055
0.240696 0.858946 0.855055
0.2542 0.874723 0.86688
0.279072 0.902754 0.88986
0.917372 0.986603 0.985336
0.991196 0.991302 0.990982
0.991363 0.99086 0.990219
