bundles/resolve-cinematic-luts/Phantom Luts/Komodo Phantom ARRI LUTs G2/Komodo Phantom ARRI LUTs G2/33x/WB Offset - Green Boost/Tungsten_Komodo_WBO_Legacy_G2_33x.cube
TITLE "Generated by Resolve"
LUT_3D_SIZE 5
0.0407874 0.0411688 0.0476692
0.18175 0.0374914 0.0601053
0.696284 0.0676432 0.188968
0.700587 0.0585031 0.218387
0.704387 0.0601816 0.22623
0.0479591 0.196612 0.0646067
0.157427 0.193698 0.0546578
0.69221 0.0751049 0.127947
0.690013 0.0715648 0.140276
0.691157 0.0721141 0.140932
0.0650339 0.686885 0.121736
0.121492 0.709377 0.0878767
0.819333 0.792325 0.219196
0.952804 0.812528 0.307576
0.954025 0.826581 0.315404
0.0825971 0.747189 0.229847
0.0843977 0.746319 0.220111
0.635996 0.789227 0.161334
0.961074 0.877058 0.355886
0.961028 0.877287 0.3561
0.0824903 0.747555 0.23154
0.0846418 0.745907 0.217945
0.721477 0.806531 0.20032
0.96112 0.876799 0.355642
0.960998 0.877424 0.356237
0.0210117 0.0563668 0.173098
0.187594 0.050248 0.190738
0.73547 0.0874952 0.317113
0.7393 0.09308 0.331304
0.741207 0.0952926 0.338308
0.0496986 0.165057 0.162921
0.128954 0.170809 0.170489
0.697551 0.067628 0.189761
0.708309 0.0676432 0.222187
0.703624 0.0599069 0.224674
0.0277867 0.672602 0.23801
0.0427405 0.675334 0.157031
0.81004 0.782757 0.210559
0.951736 0.802304 0.302007
0.953063 0.815702 0.309255
0.0784161 0.753262 0.279438
0.0821546 0.747738 0.234012
0.59791 0.782773 0.146227
0.961074 0.877058 0.355886
0.961028 0.877287 0.3561
0.0780957 0.758724 0.322774
0.0820478 0.747631 0.234424
0.672862 0.795697 0.176684
0.96112 0.876799 0.355642
0.960998 0.87747 0.356268
0 0.0897841 0.574136
0.15996 0.0822156 0.62121
0.736019 0.116808 0.692622
0.732891 0.118105 0.701747
0.731624 0.119661 0.708278
0 0.179019 0.588464
0 0.0921798 0.563394
0.732052 0.11194 0.676692
0.738613 0.115434 0.683299
0.737057 0.116884 0.691035
0.0734417 0.669841 0.630304
0.0736095 0.670588 0.63064
0.679255 0.694331 0.655116
0.954086 0.695125 0.667308
0.954787 0.712306 0.683619
0.124056 0.805173 0.609842
0.121675 0.803983 0.60354
0.10161 0.754513 0.250889
0.960555 0.876677 0.354406
0.960678 0.876921 0.354925
0.14757 0.817441 0.667277
0.138643 0.81297 0.646403
0.12755 0.761318 0.28719
0.960052 0.87631 0.35285
0.960616 0.877211 0.35523
0.0607462 0.075288 0.620142
0.184298 0.088304 0.677394
0.72018 0.124651 0.736263
0.72015 0.124559 0.73608
0.720195 0.124941 0.736965
0 0.158221 0.636774
0.0503548 0.0752117 0.615702
0.718303 0.124407 0.73695
0.720119 0.124208 0.735225
0.720195 0.124834 0.736706
0.112902 0.642557 0.773709
0.11281 0.641413 0.774456
0.590143 0.603082 0.955154
0.896223 0.5234 0.901122
0.900984 0.551217 0.906981
0.240177 0.858457 0.854246
0.240696 0.858946 0.855055
0.248478 0.870085 0.857481
0.980514 0.982147 0.979355
0.990799 0.983948 0.978546
0.240604 0.858869 0.854887
0.240696 0.858946 0.855055
0.249622 0.873137 0.854597
0.973739 0.988861 0.973785
0.992737 0.989792 0.972854
0.0700084 0.0760204 0.624765
0.190433 0.0882734 0.679515
0.72018 0.124651 0.736248
0.72015 0.124559 0.73608
0.720195 0.124987 0.737072
0 0.150805 0.632395
0.0590829 0.0753338 0.619547
0.720195 0.124865 0.736767
0.720119 0.124208 0.73521
0.720195 0.124834 0.736706
0.112535 0.641398 0.773678
0.112581 0.640864 0.774319
0.595682 0.60058 0.95613
0.895766 0.522194 0.901152
0.90071 0.549783 0.906828
0.240269 0.858549 0.854398
0.240696 0.858946 0.855055
0.25098 0.87097 0.864012
0.970565 0.972778 0.985321
0.988403 0.975998 0.98761
0.240375 0.85864 0.854536
0.240696 0.858946 0.855055
0.2542 0.874723 0.86688
0.917372 0.986603 0.985336
0.991363 0.99086 0.990219
