bundles/resolve-cinematic-luts/Phantom Luts/Komodo Phantom ARRI LUTs G2/Komodo Phantom ARRI LUTs G2/33x/WB Offset - Green Boost/Utopia_Komodo_WBO_G2_33x.cube
TITLE "Generated by Resolve"
LUT_3D_SIZE 5
0.00753796 0.0331579 0.041886
0.222446 0.0136568 0.0350958
0.722683 0.0248569 0.153536
0.733455 0.0271458 0.199893
0.743603 0.0251011 0.208865
0 0.261524 0.00314336
0.210239 0.239582 0.0413367
0.72903 0.0259556 0.0432593
0.733013 0.0254063 0.0743267
0.734615 0.0247349 0.0742504
0.158785 0.933913 0.15761
0.227695 0.950195 0.0825208
0.913909 0.8925 0.274891
0.995544 0.887358 0.306981
0.9953 0.88629 0.305943
0.132845 0.995483 0.291356
0.134936 0.995987 0.26978
0.825254 0.935454 0.315282
0.999969 0.954177 0.412085
0.999969 0.954269 0.411673
0.128573 0.996216 0.29044
0.137407 0.995499 0.272663
0.815885 0.935836 0.311269
0.999969 0.954009 0.413062
0.999969 0.95436 0.411261
0 0.0500649 0.216495
0.231907 0.0289311 0.234852
0.751217 0.0491646 0.32311
0.75819 0.0656138 0.353201
0.763363 0.0671397 0.359625
0 0.207019 0.198886
0.168353 0.208881 0.19794
0.72195 0.0224155 0.139452
0.738323 0.0249943 0.190402
0.741192 0.0246738 0.197681
0.084596 0.904448 0.347234
0.136095 0.916564 0.179202
0.902693 0.882033 0.270314
0.992462 0.872969 0.292744
0.991867 0.870985 0.291081
0.117082 0.994141 0.38378
0.130785 0.995789 0.292836
0.795911 0.937499 0.300877
0.999969 0.954116 0.412345
0.999969 0.954253 0.411749
0.112184 0.993622 0.399573
0.133211 0.995254 0.296513
0.78294 0.937926 0.294545
0.999969 0.954009 0.413062
0.999969 0.954406 0.411109
0 0.079118 0.634195
0.135866 0.0596475 0.657877
0.749813 0.0973678 0.716793
0.751553 0.101244 0.735958
0.759503 0.0980392 0.747936
0 0.206577 0.617243
0 0.0617838 0.62472
0.741054 0.0934615 0.700053
0.752667 0.0992599 0.71342
0.758892 0.096788 0.722271
0 0.772656 0.724346
0 0.76907 0.719524
0.723308 0.744915 0.702449
0.934066 0.716777 0.685924
0.932601 0.711772 0.682551
0.0157931 0.959396 0.731594
0.00924697 0.96347 0.707134
0.22089 0.997009 0.318715
0.999969 0.953841 0.406958
0.999969 0.95407 0.409583
0.00865187 0.960647 0.737575
0.00881971 0.962951 0.713039
0.176944 0.996231 0.330617
0.999969 0.953582 0.401846
0.999969 0.954284 0.40885
0 0.0612497 0.701625
0.162615 0.0628367 0.726757
0.747417 0.107271 0.771008
0.746746 0.107561 0.770199
0.751614 0.105455 0.775967
0 0.185306 0.722271
0 0.0603037 0.703914
0.740734 0.105821 0.772671
0.743038 0.109178 0.765591
0.750057 0.106096 0.774304
0 0.701656 0.840726
0 0.69485 0.84181
0.56463 0.619425 0.916777
0.901717 0.586114 0.905653
0.898863 0.58024 0.905867
0.0359197 0.929305 0.92047
0.0289921 0.930663 0.922591
0.0384527 0.947204 0.916045
0.975799 0.975738 0.969436
0.991958 0.975891 0.966735
0.0308537 0.930343 0.921889
0.0289311 0.930663 0.922621
0.0373541 0.946609 0.900801
0.95993 0.990753 0.949813
0.998184 0.993637 0.953643
0 0.0601816 0.703883
0.175631 0.0628214 0.728054
0.747341 0.107301 0.770932
0.746822 0.107515 0.770291
0.750027 0.106111 0.774289
0 0.170138 0.7187
0 0.0590066 0.705791
0.744183 0.106203 0.772732
0.743038 0.109178 0.765591
0.750057 0.106096 0.774304
0 0.696635 0.839002
0 0.689235 0.839963
0.561151 0.603861 0.915785
0.898222 0.568505 0.902968
0.895918 0.562325 0.90367
0.0349584 0.929503 0.920806
0.0289311 0.930663 0.922621
0.0353704 0.938979 0.928527
0.959121 0.961975 0.980682
0.987518 0.963424 0.982467
0.0345312 0.929595 0.920958
0.0289311 0.930663 0.922621
0.0347906 0.93843 0.927703
0.818418 0.985473 0.982345
0.996811 0.996796 0.996796
