bundles/resolve-cinematic-luts/Phantom Luts/Komodo Phantom ARRI LUTs G2/Komodo Phantom ARRI LUTs G2/33x/WB Offset - Green Boost/Utopia_Komodo_WBO_G2_33x.cube
TITLE "Generated by Resolve"
LUT_3D_SIZE 9
0.00753796 0.0331579 0.041886
0.051133 0.0300298 0.0418402
0.222446 0.0136568 0.0350958
0.50428 0.0124056 0.0803998
0.722683 0.0248569 0.153536
0.730251 0.0265812 0.183948
0.733455 0.0271458 0.199893
0.735164 0.0274357 0.206729
0.743603 0.0251011 0.208865
0.00526436 0.0666514 0.0390936
0.0274815 0.0590066 0.0422217
0.20029 0.0310674 0.0318608
0.48513 0.00762951 0.04065
0.695125 0.0213321 0.0815137
0.716655 0.0239567 0.126619
0.723064 0.0245212 0.151217
0.724468 0.0248112 0.156802
0.731945 0.0227817 0.15787
0 0.261524 0.00314336
0 0.256809 0
0.210239 0.239582 0.0413367
0.552056 0.205127 0.107118
0.72903 0.0259556 0.0432593
0.734966 0.0256199 0.0726787
0.733013 0.0254063 0.0743267
0.732418 0.0253605 0.0748455
0.734615 0.0247349 0.0742504
0.0350347 0.616068 0.0496834
0.0422522 0.615579 0.00761425
0.0994583 0.611246 0.00363165
0.56701 0.569894 0.107088
0.851713 0.616785 0.183062
0.90454 0.601267 0.185382
0.907713 0.578927 0.18854
0.90901 0.571771 0.188678
0.909209 0.569955 0.187549
0.158785 0.933913 0.15761
0.16936 0.938781 0.10869
0.227695 0.950195 0.0825208
0.545892 0.884504 0.146212
0.913909 0.8925 0.274891
0.996109 0.890944 0.310597
0.995544 0.887358 0.306981
0.995331 0.886397 0.30605
0.9953 0.88629 0.305943
0.131823 0.995819 0.286687
0.131289 0.996201 0.280079
0.133089 0.996384 0.264927
0.179232 0.99295 0.12871
0.86067 0.935012 0.331594
0.999969 0.953872 0.401862
0.999969 0.954253 0.411749
0.999969 0.954253 0.411749
0.999969 0.954116 0.412329
0.132845 0.995483 0.291356
0.132845 0.995682 0.286168
0.134936 0.995987 0.26978
0.149722 0.994751 0.194568
0.825254 0.935454 0.315282
0.999863 0.953597 0.390158
0.999969 0.954177 0.412085
0.999969 0.954192 0.411994
0.999969 0.954269 0.411673
0.130175 0.995941 0.291127
0.135149 0.995193 0.288731
0.139712 0.995056 0.274266
0.149523 0.993988 0.217517
0.817166 0.93579 0.311864
0.999466 0.953155 0.38819
0.999969 0.954009 0.413062
0.999969 0.95404 0.412848
0.999969 0.95433 0.411399
0.128573 0.996216 0.29044
0.131762 0.995804 0.287221
0.137407 0.995499 0.272663
0.148608 0.994141 0.220035
0.815885 0.935836 0.311269
0.999283 0.953109 0.387671
0.999969 0.954009 0.413062
0.999969 0.95404 0.412848
0.999969 0.95436 0.411261
0 0.0365301 0.0721752
0.0468452 0.0325322 0.0832227
0.231724 0.0253605 0.0895247
0.515038 0.0203708 0.133349
0.738613 0.0256046 0.201648
0.743114 0.0274968 0.232197
0.74403 0.0282139 0.2439
0.744549 0.028336 0.248005
0.750011 0.0266117 0.250034
0.00614939 0.0534524 0.0629892
0.0198825 0.0467536 0.0547341
0.203708 0.0167697 0.037995
0.498695 0.0141604 0.0839704
0.727153 0.0230411 0.155138
0.737011 0.0248722 0.186786
0.740383 0.0254826 0.203861
0.741588 0.0258335 0.210178
0.746426 0.0245212 0.212299
0 0.251804 0.0571603
0 0.247532 0.0123293
0.201434 0.230686 0.0409247
0.548943 0.178149 0.0993668
0.723262 0.0231632 0.0591135
0.728237 0.0237888 0.0772869
0.725444 0.0233463 0.0779889
0.724529 0.023209 0.0782025
0.726345 0.0225986 0.0777142
0.0213931 0.6094 0.0995499
0.0310063 0.608774 0.0549935
0.0692607 0.60473 0
0.562814 0.565728 0.105669
0.852094 0.608499 0.187427
0.90605 0.589136 0.187335
0.909773 0.564034 0.189044
0.91107 0.556374 0.188617
0.911391 0.554635 0.187335
0.13637 0.927657 0.207111
0.149935 0.93167 0.160693
0.227604 0.947219 0.0818494
0.523751 0.885023 0.137087
0.911345 0.890257 0.273442
0.995682 0.888472 0.30808
0.994934 0.884367 0.30396
0.994659 0.882933 0.302586
0.994614 0.882704 0.302403
0.130968 0.995789 0.291936
0.130068 0.996109 0.286351
0.132296 0.996399 0.269932
0.160739 0.994247 0.158343
0.856016 0.934859 0.329641
0.999969 0.953857 0.40148
0.999969 0.954253 0.411749
0.999969 0.954253 0.411749
0.999969 0.954223 0.411856
0.131075 0.995621 0.296483
0.131899 0.995636 0.291539
0.134279 0.995987 0.273762
0.143023 0.995361 0.220798
0.82002 0.935973 0.312963
0.999695 0.953521 0.388525
0.999969 0.954162 0.412161
0.999969 0.954177 0.412055
0.999969 0.954253 0.411734
0.127642 0.996201 0.295872
0.133928 0.995193 0.294301
0.138994 0.995026 0.277882
0.145769 0.994522 0.239307
0.810529 0.936019 0.308492
0.999115 0.953079 0.386892
0.999969 0.954009 0.413062
0.999969 0.95404 0.412848
0.999969 0.95436 0.411261
0.127565 0.996201 0.296208
0.131624 0.995636 0.293248
0.136767 0.995468 0.276417
0.145068 0.994598 0.241276
0.809323 0.936141 0.307988
0.998901 0.953048 0.386328
0.999969 0.954009 0.413062
0.999969 0.95404 0.412848
0.999969 0.95436 0.411261
0 0.0500649 0.216495
0.0210727 0.0398871 0.232792
0.231907 0.0289311 0.234852
0.518151 0.0493172 0.258839
0.751217 0.0491646 0.32311
0.75642 0.0599832 0.343572
0.75819 0.0656138 0.353201
0.75938 0.0677653 0.356909
0.763363 0.0671397 0.359625
0 0.0641794 0.180117
0 0.0455634 0.209613
0.213092 0.0289464 0.218173
0.513298 0.0460822 0.233967
0.745357 0.0356909 0.294179
0.751583 0.0444038 0.315145
0.754086 0.0497597 0.325902
0.754864 0.0518349 0.329747
0.758526 0.0512398 0.332067
0 0.207019 0.198886
0 0.202884 0.194064
0.168353 0.208881 0.19794
0.539757 0.123125 0.16051
0.72195 0.0224155 0.139452
0.735088 0.0243381 0.173281
0.738323 0.0249943 0.190402
0.739284 0.0250553 0.195911
0.741192 0.0246738 0.197681
0 0.577523 0.234882
0 0.579492 0.208743
0.0180362 0.58024 0.0709392
0.546273 0.550011 0.0999771
0.855695 0.578775 0.193896
0.912688 0.53814 0.19057
0.913466 0.508278 0.194873
0.913436 0.497261 0.195926
0.913466 0.496071 0.194583
0.084596 0.904448 0.347234
0.0894636 0.908492 0.314137
0.136095 0.916564 0.179202
0.435645 0.887816 0.104936
0.902693 0.882033 0.270314
0.993515 0.878355 0.298054
0.992462 0.872969 0.292744
0.991821 0.870909 0.290959
0.991867 0.870985 0.291081
0.122469 0.995026 0.350576
0.125872 0.995956 0.312917
0.129046 0.996231 0.287648
0.138491 0.996002 0.237613
0.839002 0.93489 0.322316
0.999969 0.95378 0.399939
0.999969 0.954253 0.411749
0.999969 0.954253 0.411765
0.999969 0.954253 0.411765
0.117082 0.994141 0.38378
0.12224 0.995285 0.345998
0.130785 0.995789 0.292836
0.135927 0.995956 0.263706
0.795911 0.937499 0.300877
0.998581 0.953216 0.384741
0.999969 0.954116 0.412345
0.999969 0.954147 0.412192
0.999969 0.954253 0.411749
0.113008 0.993866 0.394827
0.119158 0.995056 0.360861
0.135088 0.994919 0.297139
0.140658 0.994995 0.269078
0.784817 0.937804 0.295491
0.997086 0.952789 0.38233
0.999969 0.954009 0.413062
0.999969 0.95404 0.412848
0.999969 0.95436 0.411261
0.112184 0.993622 0.399573
0.117601 0.995071 0.365393
0.133211 0.995254 0.296513
0.140658 0.994995 0.269078
0.78294 0.937926 0.294545
0.996582 0.952728 0.381521
0.999969 0.954009 0.413062
0.999969 0.95404 0.412848
0.999969 0.954406 0.411109
0 0.0655375 0.437888
0 0.0511788 0.44802
0.181079 0.0416114 0.467597
0.511284 0.0457771 0.483818
0.725948 0.0448615 0.488594
0.727977 0.0462043 0.503014
0.727626 0.0466163 0.509987
0.728252 0.0466773 0.513527
0.734401 0.0445106 0.518624
0 0.104005 0.416159
0 0.0625772 0.436271
0.14609 0.0429541 0.463249
0.505135 0.045304 0.478706
0.726482 0.0432898 0.479881
0.729961 0.0449531 0.494209
0.729824 0.0454108 0.500206
0.729686 0.0455177 0.502892
0.734417 0.0437934 0.506798
0 0.194415 0.35201
0 0.183597 0.356466
0 0.0888685 0.45391
0.472099 0.044831 0.445396
0.724422 0.0464179 0.438865
0.732937 0.0469825 0.450294
0.731441 0.0458076 0.454078
0.730861 0.0452888 0.455558
0.733852 0.0438239 0.457786
0 0.498131 0.463905
0 0.496239 0.461006
0 0.487098 0.445289
0.457893 0.492271 0.446647
0.853925 0.433112 0.426261
0.899123 0.354421 0.390143
0.889509 0.314244 0.370764
0.886107 0.301137 0.364172
0.885786 0.299306 0.36376
0.00915541 0.852094 0.540536
0.00979629 0.853422 0.53077
0.0236973 0.853361 0.494636
0.103471 0.870008 0.233631
0.845823 0.835676 0.276936
0.984344 0.846372 0.265568
0.97998 0.836393 0.251423
0.978637 0.833326 0.247227
0.978424 0.832959 0.246754
0.0719158 0.977035 0.54342
0.0728466 0.979431 0.535317
0.0959945 0.985489 0.50576
0.128222 0.996216 0.29247
0.770062 0.939422 0.287541
0.999847 0.953475 0.390295
0.999969 0.954131 0.413489
0.999969 0.954147 0.41387
0.999969 0.954147 0.413931
0.0587015 0.976577 0.553979
0.0639353 0.977829 0.544961
0.0915694 0.98291 0.516808
0.130114 0.995773 0.29691
0.703517 0.945495 0.254124
0.988571 0.952697 0.37322
0.999969 0.954101 0.412406
0.999969 0.954147 0.412192
0.999969 0.954253 0.411749
0.0527504 0.976669 0.558251
0.0594644 0.977493 0.549416
0.0892805 0.981826 0.520638
0.134401 0.994888 0.301595
0.682124 0.948013 0.245594
0.98117 0.952102 0.368856
0.999969 0.953964 0.412131
0.999969 0.95404 0.412848
0.999969 0.95436 0.411261
0.0511482 0.97644 0.560708
0.0576944 0.977264 0.551797
0.0861372 0.98175 0.52224
0.134173 0.994888 0.302922
0.676295 0.948989 0.242679
0.979171 0.951995 0.367636
0.999969 0.953918 0.411383
0.999969 0.95404 0.412848
0.999969 0.95436 0.411261
0 0.079118 0.634195
0 0.0577859 0.632486
0.135866 0.0596475 0.657877
0.470893 0.0677653 0.68835
0.749813 0.0973678 0.716793
0.752651 0.100603 0.730816
0.751553 0.101244 0.735958
0.752071 0.101106 0.738643
0.759503 0.0980392 0.747936
0 0.112718 0.637629
0 0.0758831 0.632898
0.101045 0.0608225 0.654063
0.458183 0.0664683 0.686915
0.749462 0.0970779 0.714565
0.752834 0.100221 0.727626
0.752117 0.101015 0.732448
0.75259 0.100862 0.734722
0.760281 0.0976425 0.744259
0 0.206577 0.617243
0 0.193774 0.628855
0 0.0617838 0.62472
0.399405 0.0614176 0.672419
0.741054 0.0934615 0.700053
0.75259 0.0983749 0.708843
0.752667 0.0992599 0.71342
0.752529 0.0994125 0.714702
0.758892 0.096788 0.722271
0 0.486702 0.643412
0 0.483436 0.644709
0 0.463462 0.642512
0.274723 0.355749 0.747509
0.791165 0.29691 0.740917
0.794415 0.168185 0.680186
0.766461 0.112734 0.646845
0.75613 0.095613 0.634546
0.757046 0.0922103 0.63505
0 0.772656 0.724346
0 0.773068 0.725017
0 0.76907 0.719524
0 0.755581 0.697581
0.723308 0.744915 0.702449
0.937026 0.732967 0.696803
0.934066 0.716777 0.685924
0.933608 0.712245 0.68278
0.932601 0.711772 0.682551
0.0157015 0.960479 0.721111
0.00959792 0.962493 0.715816
0.00953689 0.964141 0.700236
0.016022 0.968185 0.646723
0.489128 0.994568 0.461463
0.984375 0.961975 0.573037
0.999969 0.956237 0.469718
0.999969 0.957 0.483909
0.999969 0.957214 0.487541
0.0157931 0.959396 0.731594
0.00946059 0.961501 0.725673
0.00924697 0.96347 0.707134
0.0179904 0.968536 0.64744
0.22089 0.997009 0.318715
0.962646 0.950515 0.357534
0.999969 0.953841 0.406958
0.999969 0.953994 0.409903
0.999969 0.95407 0.409583
0.0113069 0.960204 0.735348
0.00943008 0.961044 0.730358
0.00900282 0.963134 0.710872
0.0194553 0.967895 0.649638
0.180346 0.996353 0.326131
0.949523 0.948089 0.353658
0.999969 0.953521 0.403632
0.999969 0.953887 0.410819
0.999969 0.954131 0.409522
0.00865187 0.960647 0.737575
0.00852979 0.961013 0.732662
0.00881971 0.962951 0.713039
0.018967 0.967865 0.650629
0.176944 0.996231 0.330617
0.945846 0.947372 0.352468
0.999969 0.953582 0.401846
0.999969 0.953979 0.410208
0.999969 0.954284 0.40885
0 0.0643015 0.698772
0 0.0606851 0.703197
0.137881 0.0633097 0.724697
0.446632 0.0702831 0.753628
0.745052 0.106981 0.771145
0.746822 0.107515 0.770291
0.746822 0.107515 0.770291
0.747463 0.10724 0.771084
0.753445 0.104616 0.778576
0 0.0809949 0.698711
0 0.0639658 0.69929
0.105821 0.0639353 0.721553
0.431708 0.0690471 0.752621
0.743633 0.106828 0.771252
0.746502 0.107668 0.769879
0.746487 0.107668 0.769879
0.747143 0.107378 0.770687
0.753475 0.104601 0.778607
0 0.199939 0.719966
0 0.175265 0.723964
0 0.0627909 0.700648
0.363256 0.0655222 0.745571
0.733562 0.105287 0.771969
0.742931 0.109224 0.765454
0.742885 0.109255 0.765377
0.743328 0.109056 0.765942
0.750027 0.106111 0.774289
0 0.412451 0.725658
0 0.404746 0.727642
0 0.370428 0.724758
0.113237 0.162646 0.775982
0.66537 0.135729 0.798047
0.744045 0.111955 0.766461
0.743038 0.110933 0.765408
0.742962 0.110811 0.765362
0.748806 0.108248 0.772381
0 0.718639 0.822461
0 0.718532 0.825086
0 0.711009 0.822553
0 0.686091 0.820554
0.596521 0.66479 0.900679
0.917784 0.65008 0.890364
0.915373 0.63386 0.883101
0.914656 0.629236 0.881224
0.91371 0.629068 0.881331
0.0182803 0.915373 0.865827
0.00830091 0.916152 0.866102
0.00283818 0.909087 0.857984
0 0.885191 0.831067
0.161898 0.908812 0.856062
0.908171 0.913664 0.892958
0.973602 0.914076 0.889921
0.972992 0.91017 0.887526
0.972457 0.909651 0.887541
0.0313878 0.94049 0.886213
0.0253147 0.942199 0.885023
0.0230716 0.943877 0.876036
0.0202182 0.947601 0.846555
0.0186313 0.965087 0.787594
0.839231 0.986786 0.801205
0.999908 0.977081 0.767758
0.999969 0.969558 0.648295
0.999969 0.970916 0.663798
0.0301213 0.940185 0.890898
0.0261387 0.941329 0.889189
0.023621 0.943328 0.879271
0.0217441 0.947234 0.846647
0.0208286 0.963348 0.776913
0.805112 0.98822 0.780118
0.995514 0.976944 0.75584
0.999969 0.953704 0.406806
0.999969 0.953979 0.405509
0.028687 0.940185 0.893217
0.026566 0.940978 0.89099
0.0238499 0.943053 0.880873
0.0211643 0.947295 0.847395
0.0205234 0.963363 0.774868
0.795316 0.988907 0.776104
0.990707 0.977737 0.760311
0.999969 0.953643 0.405386
0.999969 0.953964 0.405646
0 0.0612497 0.701625
0.00697337 0.0582132 0.707317
0.162615 0.0628367 0.726757
0.463294 0.0713664 0.755138
0.747417 0.107271 0.771008
0.746822 0.107515 0.770291
0.746746 0.107561 0.770199
0.745113 0.108263 0.76817
0.751614 0.105455 0.775967
0 0.064744 0.696681
0 0.0610208 0.702617
0.130007 0.0634165 0.723964
0.448539 0.0702831 0.754543
0.746563 0.10692 0.771527
0.746807 0.10753 0.770245
0.746807 0.10753 0.770245
0.747433 0.107256 0.771038
0.753475 0.104601 0.778607
0 0.185306 0.722271
0 0.138125 0.715755
0 0.0603037 0.703914
0.379538 0.0662547 0.747311
0.740734 0.105821 0.772671
0.743114 0.109148 0.765667
0.743038 0.109178 0.765591
0.743587 0.108934 0.766262
0.750057 0.106096 0.774304
0 0.362661 0.721767
0 0.354223 0.72398
0 0.319448 0.722683
0.0773632 0.0874495 0.736706
0.643061 0.0958572 0.775219
0.743358 0.109865 0.765927
0.741283 0.110307 0.763378
0.741741 0.110002 0.763973
0.748379 0.107149 0.772061
0 0.701656 0.840726
0 0.702022 0.843595
0 0.69485 0.84181
0 0.667918 0.831708
0.56463 0.619425 0.916777
0.903212 0.60383 0.9093
0.901717 0.586114 0.905653
0.900847 0.580697 0.90486
0.898863 0.58024 0.905867
0.0138857 0.878981 0.904021
0.00477607 0.880003 0.907042
0.00134279 0.869154 0.903777
0 0.822477 0.887068
0.00947585 0.839963 0.913603
0.844541 0.870283 0.955749
0.96376 0.875013 0.957549
0.963668 0.871397 0.956039
0.963073 0.870787 0.955871
0.0359197 0.929305 0.92047
0.0292058 0.930632 0.922408
0.0289921 0.930663 0.922591
0.0298924 0.930526 0.922179
0.0384527 0.947204 0.916045
0.665049 0.967346 0.946166
0.975799 0.975738 0.969436
0.992782 0.976562 0.966735
0.991958 0.975891 0.966735
0.0346227 0.929564 0.920913
0.029221 0.930632 0.922408
0.0289616 0.930663 0.922621
0.03122 0.930266 0.921767
0.0381628 0.946426 0.903929
0.235264 0.98407 0.915084
0.966354 0.991073 0.953552
0.999191 0.993698 0.958587
0.998962 0.993606 0.956344
0.0308537 0.930343 0.921889
0.029221 0.930632 0.922393
0.0289311 0.930663 0.922621
0.0306401 0.930388 0.921935
0.0373541 0.946609 0.900801
0.23035 0.984726 0.912444
0.95993 0.990753 0.949813
0.997253 0.993606 0.956512
0.998184 0.993637 0.953643
0 0.0603799 0.703395
0.020798 0.0576333 0.708934
0.172412 0.0627909 0.727687
0.469627 0.071931 0.755932
0.747356 0.107286 0.770947
0.746822 0.107515 0.770291
0.746822 0.107515 0.770291
0.745373 0.108156 0.76849
0.749523 0.10634 0.773648
0 0.0636912 0.697551
0 0.0601968 0.704143
0.1393 0.0633097 0.724849
0.454505 0.0707561 0.755276
0.747311 0.107027 0.771481
0.746807 0.10753 0.770245
0.746792 0.10753 0.770245
0.747341 0.107301 0.770901
0.751827 0.105333 0.776394
0 0.173465 0.71899
0 0.125826 0.712001
0 0.0593118 0.705364
0.386038 0.0666209 0.748104
0.743145 0.106096 0.772732
0.743175 0.109117 0.765759
0.743038 0.109178 0.765591
0.743664 0.108904 0.766369
0.750057 0.106096 0.774304
0 0.345266 0.720623
0 0.337484 0.722988
0 0.301793 0.722652
0.0611276 0.0688487 0.720684
0.643275 0.0916915 0.772198
0.743603 0.109133 0.766247
0.741161 0.110185 0.763272
0.741756 0.109941 0.763989
0.748348 0.107088 0.77203
0 0.697658 0.83946
0 0.697429 0.842176
0 0.690471 0.84036
0 0.661143 0.829038
0.560525 0.607462 0.915969
0.900328 0.590967 0.907439
0.899199 0.572427 0.90367
0.898604 0.566934 0.902708
0.896544 0.566659 0.904051
0.0123598 0.874006 0.902632
0.00392157 0.874693 0.905608
0 0.851011 0.896269
0 0.817411 0.886732
0.0101778 0.832547 0.912459
0.839399 0.860059 0.955779
0.960647 0.863111 0.957671
0.961303 0.858656 0.955261
0.959091 0.857588 0.956481
0.0353552 0.929427 0.920684
0.0292058 0.930632 0.922408
0.0289921 0.930663 0.922591
0.0299077 0.930526 0.922179
0.0367895 0.939849 0.928542
0.58172 0.944091 0.960052
0.961395 0.96405 0.981048
0.98938 0.966293 0.982544
0.988388 0.965362 0.982651
0.037644 0.928954 0.919783
0.029221 0.930632 0.922408
0.0289616 0.930663 0.922606
0.031281 0.930251 0.921752
0.0386511 0.938201 0.926741
0.0556191 0.962905 0.942718
0.921416 0.988785 0.981918
0.995712 0.992264 0.991516
0.998657 0.99205 0.988876
0.0344701 0.92961 0.920958
0.029221 0.930632 0.922408
0.0289311 0.930663 0.922621
0.0307012 0.930373 0.921935
0.0383764 0.937774 0.926558
0.0605325 0.966644 0.942092
0.899565 0.989837 0.979248
0.994034 0.995087 0.988785
0.997665 0.995743 0.990906
0 0.0601816 0.703883
0.0256046 0.0580453 0.709636
0.175631 0.0628214 0.728054
0.472435 0.072221 0.756329
0.747341 0.107301 0.770932
0.746822 0.107515 0.770291
0.746822 0.107515 0.770291
0.745953 0.107897 0.769223
0.750027 0.106111 0.774289
0 0.063447 0.69807
0 0.0598154 0.704555
0.142397 0.0632334 0.725124
0.457176 0.0710002 0.755642
0.747585 0.107073 0.77145
0.746792 0.10753 0.770245
0.746792 0.10753 0.770245
0.747433 0.107256 0.771038
0.752209 0.10515 0.77702
0 0.170138 0.7187
0 0.122393 0.710689
0 0.0590066 0.705791
0.388602 0.0667887 0.74844
0.744183 0.106203 0.772732
0.743191 0.109117 0.765759
0.743038 0.109178 0.765591
0.743664 0.108904 0.766369
0.750057 0.106096 0.774304
0 0.341283 0.720485
0 0.332784 0.722896
0 0.29688 0.723262
0.064271 0.0679484 0.719768
0.644907 0.0919661 0.772274
0.743603 0.109102 0.766247
0.741192 0.11017 0.763272
0.741741 0.109941 0.763958
0.748348 0.107073 0.77203
0 0.696635 0.839002
0 0.696483 0.841886
0 0.689235 0.839963
0 0.659266 0.828321
0.561151 0.603861 0.915785
0.899657 0.587198 0.906859
0.898222 0.568505 0.902968
0.89778 0.563622 0.902861
0.895918 0.562325 0.90367
0.0121004 0.873091 0.902495
0.00337224 0.87335 0.905089
0 0.846784 0.894789
0 0.816312 0.886671
0.0110628 0.830289 0.912337
0.839124 0.857221 0.956024
0.959762 0.860365 0.957015
0.960021 0.855558 0.954864
0.958282 0.854643 0.955993
0.0349584 0.929503 0.920806
0.0292058 0.930632 0.922408
0.0289311 0.930663 0.922621
0.0289311 0.930663 0.922621
0.0353704 0.938979 0.928527
0.60087 0.942214 0.960204
0.959121 0.961975 0.980682
0.988342 0.964233 0.982452
0.987518 0.963424 0.982467
0.0368353 0.929137 0.920012
0.029221 0.930632 0.922408
0.0289311 0.930663 0.922621
0.0289311 0.930663 0.922621
0.035111 0.938842 0.927947
0.0543069 0.960937 0.943221
0.905318 0.983871 0.985458
0.99324 0.990814 0.992798
0.995865 0.99147 0.9935
0.0345312 0.929595 0.920958
0.029221 0.930632 0.922408
0.0289311 0.930663 0.922621
0.0289311 0.930663 0.922621
0.0347906 0.93843 0.927703
0.0537728 0.960403 0.94284
0.818418 0.985473 0.982345
0.987915 0.995331 0.99472
0.996811 0.996796 0.996796
