bundles/resolve-cinematic-luts/Phantom Luts/Komodo Phantom ARRI LUTs G2/Komodo Phantom ARRI LUTs G2/33x/WB Offset - Green Boost/Utopia_Komodo_WBO_G2_33x.cube
TITLE "Generated by Resolve"
LUT_3D_SIZE 33
0.00753796 0.0331579 0.041886
0.00753796 0.0331273 0.0418555
0.00915541 0.0329442 0.0415503
0.0248264 0.0323186 0.0428473
0.051133 0.0300298 0.0418402
0.0839857 0.0268254 0.0392004
0.123445 0.0227207 0.0366369
0.169345 0.0178531 0.0352636
0.222446 0.0136568 0.0350958
0.284718 0.0114595 0.0394751
0.354437 0.0116732 0.0470893
0.429038 0.0116732 0.0612497
0.50428 0.0124056 0.0803998
0.572045 0.0126802 0.102358
0.633524 0.014023 0.121523
0.688212 0.0202792 0.136477
0.722683 0.0248569 0.153536
0.725078 0.0253758 0.162493
0.727321 0.0258488 0.170459
0.728969 0.0262303 0.177478
0.730251 0.0265812 0.183948
0.731472 0.0269017 0.189288
0.732189 0.0268711 0.192996
0.732723 0.0269322 0.19675
0.733455 0.0271458 0.199893
0.733989 0.0272984 0.202213
0.734356 0.0274052 0.20415
0.734783 0.0274357 0.20557
0.735164 0.0274357 0.206729
0.736278 0.0271763 0.207431
0.737819 0.0267643 0.208042
0.740536 0.0259861 0.208423
0.743603 0.0251011 0.208865
0.00753796 0.0331273 0.0418555
0.00753796 0.0331426 0.0418708
0.00753796 0.0331273 0.0418555
0.0202487 0.0328069 0.0421454
0.0469368 0.0304875 0.0420996
0.0801556 0.0273594 0.0395972
0.120851 0.0231785 0.036759
0.167361 0.0178836 0.0340429
0.219028 0.0127565 0.0311589
0.279637 0.00914015 0.0320592
0.350042 0.00831617 0.0380255
0.425849 0.00836194 0.0511788
0.500862 0.00814832 0.069398
0.568536 0.00877394 0.0912032
0.632471 0.0137636 0.112612
0.687037 0.0198825 0.12752
0.721492 0.0242618 0.145739
0.724193 0.0247807 0.156146
0.72665 0.0251926 0.164477
0.728634 0.0255894 0.171527
0.730053 0.0259098 0.177508
0.731136 0.0261692 0.182742
0.732158 0.0264134 0.186908
0.732906 0.0265049 0.190555
0.733364 0.0265049 0.192462
0.733669 0.0265049 0.194461
0.733913 0.0265354 0.196262
0.734203 0.0265965 0.197559
0.734432 0.0266575 0.198581
0.735103 0.0265507 0.199283
0.736309 0.0262608 0.199924
0.739055 0.0254978 0.200259
0.742 0.0246433 0.200641
0.00753796 0.0331273 0.0418555
0.00753796 0.0331426 0.0418708
0.00753796 0.0331273 0.0418555
0.0128786 0.0335851 0.0416724
0.0364691 0.0323644 0.0434119
0.0697948 0.0300298 0.0403754
0.112322 0.0259098 0.0372015
0.160143 0.0205539 0.0343328
0.213855 0.0147555 0.0312657
0.275364 0.0100557 0.0302892
0.343557 0.00732433 0.0314488
0.417533 0.00440986 0.0365759
0.493721 0.00383001 0.0525368
0.564691 0.00796521 0.0766918
0.629191 0.0134127 0.0998703
0.684138 0.0194705 0.114946
0.717067 0.0240177 0.130175
0.721691 0.0242924 0.145403
0.72401 0.0247349 0.155245
0.726146 0.0251164 0.162631
0.727962 0.0254215 0.169192
0.729198 0.0256962 0.173709
0.730129 0.0259403 0.177722
0.73077 0.0260929 0.181018
0.73135 0.026215 0.183734
0.731838 0.0263523 0.185458
0.732174 0.0264134 0.187015
0.732448 0.0264744 0.18819
0.732647 0.0265049 0.189075
0.733318 0.0263371 0.189685
0.734524 0.0259861 0.190127
0.737041 0.0252232 0.190463
0.740032 0.0243229 0.190646
0.00875868 0.041474 0.0437629
0.00889601 0.0407263 0.0438544
0.0104219 0.0391394 0.0436561
0.0137331 0.037232 0.0432136
0.0261387 0.0386511 0.0440375
0.0573434 0.0355688 0.0427253
0.0990616 0.0303349 0.0377356
0.149157 0.0254215 0.0344244
0.205982 0.0198672 0.0317693
0.269444 0.0153201 0.0302281
0.340764 0.012604 0.0316014
0.415137 0.00759899 0.0349737
0.487251 0.00364691 0.0408484
0.555489 0.00717174 0.054963
0.620951 0.0128786 0.0770275
0.677501 0.018677 0.0928359
0.709056 0.0229038 0.106065
0.715557 0.0238041 0.122835
0.71931 0.0239567 0.137148
0.722499 0.024445 0.148913
0.724208 0.0247807 0.156191
0.72575 0.0250248 0.161654
0.727001 0.0252537 0.165774
0.727916 0.0254063 0.169085
0.728542 0.0255589 0.171084
0.728985 0.0256504 0.172885
0.72932 0.0257267 0.17435
0.729564 0.0257725 0.175357
0.729747 0.025803 0.17612
0.730297 0.0256962 0.176699
0.731533 0.0253758 0.17702
0.734218 0.0245975 0.176989
0.737087 0.0237278 0.177188
0.00526436 0.0666514 0.0390936
0.00543221 0.0659037 0.0394446
0.00610361 0.0643015 0.0398413
0.0126497 0.0603647 0.0416419
0.0274815 0.0590066 0.0422217
0.0594186 0.0578927 0.0480049
0.0991226 0.0534676 0.0461433
0.14641 0.0444343 0.0382696
0.20029 0.0310674 0.0318608
0.261372 0.0221866 0.0295567
0.334462 0.0187076 0.0313115
0.411002 0.0135348 0.0352026
0.48513 0.00762951 0.04065
0.552102 0.00686656 0.0511482
0.614054 0.0122072 0.0637522
0.667109 0.0177462 0.0741741
0.695125 0.0213321 0.0815137
0.701839 0.0221103 0.0901503
0.707774 0.0227359 0.101274
0.713054 0.0234531 0.11516
0.716655 0.0239567 0.126619
0.718914 0.0239719 0.135683
0.721172 0.0242161 0.143297
0.722164 0.0243992 0.147967
0.723064 0.0245212 0.151217
0.723629 0.0246128 0.153674
0.723964 0.0247196 0.154757
0.724239 0.0247807 0.155932
0.724468 0.0248112 0.156802
0.7252 0.0246738 0.157366
0.726421 0.0243687 0.157748
0.729046 0.023621 0.15787
0.731945 0.0227817 0.15787
0.00111391 0.099855 0.0293431
0.00114443 0.0990158 0.028687
0.00135805 0.0978408 0.029221
0.00708019 0.0950942 0.0306706
0.0191043 0.0901808 0.0335088
0.055024 0.0897536 0.0364843
0.101488 0.0876326 0.0492409
0.153643 0.0802014 0.0523384
0.211154 0.0675517 0.0461433
0.270756 0.0522774 0.0359655
0.335271 0.0326696 0.0303655
0.403662 0.0211643 0.0342412
0.480919 0.0144503 0.0397803
0.548791 0.00817884 0.0483558
0.612528 0.0119478 0.0610208
0.668498 0.0178988 0.0728771
0.69836 0.021912 0.0783856
0.697704 0.0218357 0.0778058
0.695201 0.0214084 0.0771344
0.695506 0.0214389 0.0793164
0.698909 0.0219272 0.0846418
0.701854 0.0221256 0.0894789
0.704417 0.0223239 0.0944228
0.706874 0.0226139 0.0994125
0.708812 0.0229038 0.103502
0.710048 0.0230564 0.106996
0.711009 0.023209 0.109819
0.711635 0.0233005 0.111345
0.712093 0.0233463 0.112657
0.713008 0.0232242 0.113649
0.714336 0.0229343 0.114137
0.716777 0.0222171 0.113909
0.71986 0.0213931 0.113909
0 0.144594 0.0183261
0 0.143999 0.0157015
0 0.142824 0.0158999
0 0.141176 0.0166323
0.0116884 0.137301 0.0197757
0.0376745 0.134401 0.0237736
0.0958267 0.130007 0.0361639
0.154894 0.129259 0.0494087
0.221241 0.120867 0.058854
0.290166 0.104707 0.0585184
0.35938 0.0834211 0.0512398
0.421347 0.0555276 0.0377966
0.484489 0.0286717 0.0348821
0.545419 0.0162661 0.0452277
0.60882 0.0115816 0.0554818
0.669566 0.0174258 0.0686198
0.708598 0.0222019 0.0784161
0.711421 0.0227665 0.0794232
0.709056 0.0225528 0.0792554
0.706996 0.0222782 0.0789807
0.705242 0.0222629 0.0789197
0.703822 0.0222782 0.0788586
0.702602 0.0221408 0.078584
0.701549 0.0219883 0.0783246
0.700801 0.021912 0.078172
0.70016 0.0218357 0.0780499
0.699657 0.0217746 0.0779126
0.699336 0.0217288 0.0778515
0.699077 0.0216983 0.0777905
0.699275 0.021622 0.0777142
0.699687 0.0214542 0.0775464
0.700969 0.0210422 0.0772106
0.702373 0.0206149 0.0768749
0 0.198367 0.00901808
0 0.197498 0.00469978
0 0.19617 0.00344854
0 0.194385 0.00390631
0.00117494 0.19205 0.00549325
0.0214084 0.189212 0.0103304
0.0667582 0.187762 0.0161898
0.148119 0.179736 0.0376287
0.218875 0.180011 0.0513771
0.300267 0.172244 0.0685588
0.379477 0.155581 0.0755016
0.453269 0.13402 0.074464
0.522789 0.107713 0.0655222
0.57586 0.0661784 0.0505989
0.615854 0.0224765 0.0415808
0.666911 0.0168765 0.0583505
0.715434 0.0227665 0.0734112
0.725139 0.0241855 0.0781109
0.723674 0.0239719 0.0785077
0.722164 0.023743 0.0788128
0.720958 0.0235142 0.0790723
0.71986 0.023331 0.0792248
0.71902 0.0232242 0.0792859
0.718395 0.0231327 0.0793469
0.717922 0.0230564 0.0793774
0.717571 0.0230106 0.0793774
0.717327 0.0229801 0.0793927
0.717159 0.0229648 0.0793927
0.717144 0.0229648 0.0793927
0.717067 0.0229496 0.0793927
0.717037 0.0229343 0.0793927
0.717662 0.0227512 0.0792554
0.718898 0.022385 0.0789654
0 0.261524 0.00314336
0 0.260716 0
0 0.259586 0
0 0.258244 0
0 0.256809 0
0.0115358 0.256168 0
0.0432898 0.252018 0.00294499
0.114977 0.249866 0.0143587
0.210239 0.239582 0.0413367
0.295048 0.241596 0.0562753
0.388205 0.238346 0.0836957
0.472862 0.225605 0.100694
0.552056 0.205127 0.107118
0.622477 0.17911 0.106905
0.678737 0.14345 0.0939193
0.714717 0.0763561 0.0627756
0.72903 0.0259556 0.0432593
0.739223 0.0264591 0.0682078
0.736843 0.0259709 0.0708476
0.735836 0.0257725 0.07187
0.734966 0.0256199 0.0726787
0.734249 0.0255436 0.0732128
0.733684 0.0254978 0.0736248
0.733318 0.0254368 0.0740215
0.733013 0.0254063 0.0743267
0.732754 0.0253758 0.0745861
0.73257 0.0253758 0.0747692
0.73254 0.0253605 0.0747539
0.732418 0.0253605 0.0748455
0.732357 0.0253605 0.0748913
0.732341 0.0253605 0.0749065
0.733104 0.0251469 0.0747082
0.734615 0.0247349 0.0742504
0 0.337423 0.00434882
0 0.337087 0
0 0.336217 0
0 0.335424 0
0 0.333547 0
0.00181582 0.331441 0
0.0304112 0.332555 0
0.0773785 0.326696 0.000137331
0.175036 0.323644 0.019379
0.287755 0.313054 0.0500191
0.385 0.31696 0.0670787
0.475319 0.322637 0.0999161
0.566461 0.313863 0.127672
0.648264 0.301045 0.139559
0.721569 0.275792 0.153353
0.779736 0.240101 0.146593
0.818219 0.193256 0.12134
0.812528 0.118624 0.0814069
0.780667 0.0581521 0.0533913
0.760967 0.0345159 0.0356756
0.757092 0.0332494 0.0462501
0.752361 0.0308537 0.0564431
0.750179 0.0290837 0.0570535
0.749416 0.0286564 0.0570687
0.748974 0.0285649 0.057145
0.748775 0.0285191 0.0571756
0.748608 0.0284581 0.057557
0.74844 0.0284276 0.0580301
0.748287 0.0283818 0.0583352
0.748211 0.0283665 0.0585489
0.74815 0.0283513 0.0586557
0.749249 0.0281071 0.0580606
0.751141 0.0276036 0.0574655
0.00358587 0.42649 0.0115816
0.0047303 0.426963 0.00547799
0.00601205 0.426017 0
0.00674449 0.424491 0
0.00698863 0.422782 0
0.00688182 0.420478 0
0.018967 0.420569 0
0.0615549 0.42034 0
0.134844 0.414725 0.00598154
0.253559 0.40882 0.0344854
0.377798 0.397147 0.0637675
0.480095 0.402197 0.0825818
0.564965 0.41735 0.106935
0.654429 0.416037 0.149874
0.734264 0.410132 0.171878
0.803113 0.397604 0.18085
0.859724 0.371069 0.182681
0.8916 0.325338 0.183673
0.886702 0.294667 0.172229
0.878614 0.270909 0.160235
0.870146 0.246509 0.14815
0.861753 0.225086 0.137377
0.854307 0.205753 0.127535
0.847517 0.189944 0.119356
0.842466 0.179019 0.113558
0.838865 0.170916 0.109255
0.835554 0.163516 0.105364
0.832654 0.15761 0.102174
0.830793 0.15349 0.100221
0.829297 0.150515 0.0987106
0.829465 0.150744 0.0990158
0.829633 0.14934 0.0979477
0.830777 0.147463 0.0965438
0.0141756 0.521645 0.0235752
0.0152895 0.521706 0.018265
0.0168002 0.521172 0.00958267
0.018265 0.520302 0
0.0195621 0.519081 0
0.0193637 0.517281 0
0.0189517 0.515618 0
0.0496681 0.518074 0
0.109712 0.513695 0.000381476
0.212985 0.50544 0.0217136
0.349111 0.494987 0.0595865
0.473304 0.484489 0.0823072
0.574594 0.489952 0.104112
0.652399 0.508797 0.112825
0.729244 0.514031 0.165499
0.801282 0.514122 0.189593
0.861158 0.511391 0.194217
0.904494 0.505409 0.192218
0.913817 0.486091 0.196368
0.913268 0.467491 0.19379
0.912276 0.449805 0.189807
0.911452 0.434882 0.186297
0.91043 0.422812 0.18674
0.909422 0.414374 0.187991
0.908156 0.406867 0.188296
0.907652 0.401511 0.188846
0.907271 0.397604 0.189044
0.907027 0.39498 0.189273
0.906935 0.393637 0.189548
0.906889 0.393256 0.189761
0.906859 0.392493 0.189944
0.90695 0.392081 0.189654
0.907256 0.391318 0.189014
0.0350347 0.616068 0.0496834
0.0361334 0.616144 0.0441596
0.0378882 0.615793 0.0349279
0.0397803 0.615427 0.0227359
0.0422522 0.615579 0.00761425
0.0467079 0.616602 0
0.0462043 0.614664 0
0.0471199 0.612238 0
0.0994583 0.611246 0.00363165
0.181125 0.60322 0.0178836
0.315557 0.593164 0.0488441
0.456794 0.577798 0.0901656
0.56701 0.569894 0.107088
0.658839 0.572534 0.135378
0.733349 0.589242 0.133394
0.796002 0.606119 0.159197
0.851713 0.616785 0.183062
0.89276 0.626474 0.174395
0.9028 0.620645 0.179171
0.903532 0.610651 0.182635
0.90454 0.601267 0.185382
0.905623 0.593469 0.186969
0.906188 0.588098 0.187366
0.907103 0.583261 0.188205
0.907713 0.578927 0.18854
0.908141 0.575677 0.188617
0.9084 0.573373 0.188556
0.908843 0.57232 0.188708
0.90901 0.571771 0.188678
0.909087 0.571023 0.188632
0.909148 0.57055 0.188586
0.909163 0.570397 0.188174
0.909209 0.569955 0.187549
0.0639506 0.705776 0.0836042
0.0653239 0.706111 0.076524
0.0668956 0.706096 0.0677348
0.0694438 0.706523 0.0553292
0.0733196 0.707424 0.0399176
0.0811627 0.70898 0.023743
0.0854658 0.708568 0.0202182
0.0845197 0.706249 0.0197757
0.0974136 0.70277 0.0179904
0.179751 0.697643 0.0273594
0.279927 0.684565 0.049073
0.435584 0.668223 0.092607
0.560403 0.652949 0.128618
0.652888 0.650217 0.140673
0.738094 0.654627 0.169207
0.811719 0.669947 0.167041
0.865766 0.688914 0.161257
0.904952 0.707256 0.140688
0.917006 0.712184 0.135241
0.915236 0.706447 0.13698
0.913832 0.701793 0.138643
0.912474 0.697337 0.140108
0.911864 0.69398 0.141573
0.911025 0.691157 0.142489
0.910445 0.688991 0.143053
0.910063 0.687327 0.143603
0.909957 0.686671 0.143877
0.909712 0.685817 0.144076
0.909697 0.685298 0.14432
0.909728 0.685039 0.144472
0.909712 0.684886 0.144564
0.909758 0.685054 0.144503
0.909773 0.685222 0.144427
0.0952926 0.789532 0.114977
0.0965744 0.790066 0.109178
0.0993973 0.791196 0.0999313
0.103288 0.791989 0.0870527
0.107439 0.793194 0.0704204
0.115145 0.794614 0.0522927
0.131868 0.796628 0.0423438
0.131243 0.795148 0.0423133
0.130098 0.792477 0.0418097
0.174334 0.784802 0.0368963
0.277272 0.772992 0.057023
0.402731 0.75314 0.089662
0.548028 0.736095 0.138109
0.658076 0.727153 0.171725
0.738781 0.732036 0.183001
0.817899 0.740001 0.211032
0.884153 0.753262 0.213733
0.930892 0.771801 0.185916
0.954299 0.780545 0.179675
0.952193 0.774762 0.173617
0.95024 0.770977 0.170199
0.94876 0.7682 0.167575
0.947234 0.765499 0.165377
0.945968 0.763363 0.163821
0.945312 0.762356 0.163012
0.945159 0.762127 0.162982
0.944778 0.76141 0.162493
0.944595 0.760967 0.162219
0.944442 0.760632 0.16202
0.94435 0.760449 0.161929
0.944381 0.76051 0.162051
0.944518 0.760861 0.162432
0.944457 0.760723 0.162325
0.128634 0.866239 0.142046
0.13077 0.867399 0.135271
0.133028 0.868193 0.125628
0.135729 0.869261 0.113298
0.139467 0.870329 0.0969406
0.150484 0.871809 0.0770428
0.174289 0.874876 0.0668956
0.184039 0.875914 0.0627604
0.182879 0.873533 0.062501
0.186786 0.86981 0.0616922
0.277317 0.85417 0.0593271
0.400549 0.834745 0.0934615
0.543923 0.813046 0.143328
0.657877 0.805112 0.186923
0.755077 0.803037 0.221759
0.827573 0.816083 0.233417
0.895354 0.826963 0.257359
0.948043 0.840833 0.252171
0.976822 0.843778 0.262791
0.981262 0.8392 0.255482
0.97995 0.836118 0.251362
0.979049 0.833967 0.248447
0.978302 0.832395 0.246387
0.977874 0.831556 0.244938
0.977661 0.830671 0.243626
0.97734 0.829831 0.242496
0.977142 0.829282 0.241779
0.976989 0.828885 0.241245
0.976883 0.828565 0.240818
0.97702 0.828931 0.241291
0.977005 0.828885 0.241215
0.97702 0.828901 0.24123
0.976959 0.828763 0.241047
0.158785 0.933913 0.15761
0.160143 0.934859 0.151354
0.16141 0.935912 0.142077
0.163912 0.937179 0.129107
0.16936 0.938781 0.10869
0.185977 0.941405 0.0959335
0.209308 0.945342 0.088304
0.226566 0.952575 0.0829938
0.227695 0.950195 0.0825208
0.228565 0.946883 0.0823987
0.287846 0.936492 0.0821088
0.409583 0.912169 0.104295
0.545892 0.884504 0.146212
0.672999 0.871275 0.195438
0.773785 0.870115 0.238376
0.857847 0.880232 0.262562
0.913909 0.8925 0.274891
0.955749 0.895842 0.299214
0.984588 0.896391 0.306172
0.996445 0.894514 0.313863
0.996109 0.890944 0.310597
0.995926 0.889799 0.309438
0.995758 0.888945 0.308537
0.995575 0.887999 0.307576
0.995544 0.887358 0.306981
0.995453 0.8869 0.306477
0.995331 0.886488 0.306096
0.995285 0.886183 0.305867
0.995331 0.886397 0.30605
0.995315 0.886336 0.305989
0.995315 0.886336 0.305989
0.995331 0.886381 0.30602
0.9953 0.88629 0.305943
0.157992 0.988922 0.180133
0.157351 0.989609 0.17612
0.156237 0.990387 0.170092
0.154879 0.991257 0.16614
0.153933 0.992309 0.162158
0.154086 0.993027 0.157458
0.156039 0.993484 0.152346
0.158297 0.993469 0.146914
0.160418 0.993042 0.141375
0.163897 0.992584 0.136889
0.18114 0.991547 0.125261
0.370871 0.979828 0.124483
0.531258 0.952834 0.169818
0.673869 0.929137 0.225437
0.778439 0.921706 0.276814
0.865995 0.91928 0.314031
0.919844 0.928328 0.317464
0.958785 0.933715 0.329702
0.989013 0.934676 0.358221
0.999924 0.934615 0.364752
0.999969 0.932464 0.361486
0.999969 0.931991 0.360662
0.999969 0.931365 0.359655
0.999954 0.930846 0.358816
0.999954 0.930434 0.358206
0.999939 0.930144 0.357809
0.999939 0.930129 0.357839
0.999939 0.930022 0.357717
0.999939 0.929931 0.357595
0.999939 0.929931 0.35758
0.999939 0.929931 0.35761
0.999939 0.929992 0.357687
0.999954 0.930312 0.358099
0.137469 0.995056 0.282704
0.136599 0.995285 0.281239
0.134905 0.995682 0.278782
0.133471 0.996017 0.276417
0.132662 0.996262 0.272953
0.132647 0.996338 0.269886
0.132708 0.996384 0.267521
0.13341 0.996368 0.263157
0.133913 0.996353 0.2598
0.134066 0.996353 0.258793
0.13463 0.996292 0.257206
0.152346 0.995087 0.189319
0.359228 0.983856 0.123247
0.584085 0.960998 0.200839
0.736156 0.94226 0.270085
0.835279 0.934981 0.320439
0.910079 0.939864 0.348928
0.953933 0.949081 0.353414
0.988251 0.952605 0.37229
0.999969 0.953689 0.400397
0.999969 0.953857 0.409476
0.999969 0.953536 0.403128
0.999969 0.953521 0.403067
0.999969 0.953521 0.403037
0.999969 0.953521 0.403037
0.999969 0.953643 0.403296
0.999969 0.953674 0.403342
0.999969 0.953658 0.403311
0.999969 0.953658 0.403296
0.999969 0.953643 0.403296
0.999969 0.953643 0.403326
0.999969 0.953658 0.403525
0.999969 0.953643 0.403571
0.135485 0.995178 0.287266
0.134798 0.995361 0.285954
0.133516 0.995682 0.283757
0.132418 0.995972 0.281285
0.131624 0.996216 0.278279
0.131823 0.996353 0.274815
0.132006 0.996399 0.27187
0.132418 0.996399 0.269108
0.133272 0.996384 0.263828
0.133318 0.996384 0.263569
0.133318 0.996384 0.263569
0.138537 0.996048 0.233112
0.212772 0.990921 0.103609
0.467155 0.97496 0.15668
0.661036 0.950774 0.234882
0.787869 0.937957 0.296635
0.875349 0.935531 0.338201
0.937041 0.946181 0.349126
0.976242 0.952163 0.364492
0.99913 0.953445 0.38613
0.999969 0.953994 0.40502
0.999969 0.954269 0.412024
0.999969 0.954269 0.412329
0.999969 0.954284 0.41236
0.999969 0.954269 0.412375
0.999969 0.954269 0.41239
0.999969 0.954269 0.412421
0.999969 0.954269 0.412436
0.999969 0.954269 0.412451
0.999969 0.954269 0.412451
0.999969 0.954269 0.412451
0.999969 0.954269 0.412451
0.999969 0.954269 0.412451
0.131823 0.995819 0.286687
0.13196 0.995834 0.28603
0.131868 0.995895 0.284871
0.131655 0.996033 0.282856
0.131289 0.996201 0.280079
0.131456 0.996323 0.276707
0.131823 0.996399 0.272877
0.13225 0.996399 0.270344
0.133089 0.996384 0.264927
0.133318 0.996384 0.263569
0.133318 0.996384 0.263569
0.134844 0.996323 0.253697
0.179232 0.99295 0.12871
0.430549 0.978454 0.144213
0.617807 0.956863 0.215488
0.766888 0.939666 0.285893
0.86067 0.935012 0.331594
0.92752 0.944198 0.348775
0.968902 0.951598 0.360265
0.997055 0.95317 0.381521
0.999969 0.953872 0.401862
0.999969 0.954177 0.41004
0.999969 0.954253 0.411749
0.999969 0.954253 0.411749
0.999969 0.954253 0.411749
0.999969 0.954253 0.411749
0.999969 0.954253 0.411749
0.999969 0.954253 0.411749
0.999969 0.954253 0.411749
0.999969 0.954223 0.411826
0.999969 0.954192 0.411978
0.999969 0.954147 0.412192
0.999969 0.954116 0.412329
0.134096 0.995331 0.289387
0.134218 0.995346 0.288716
0.134051 0.995392 0.2878
0.133776 0.995529 0.286076
0.13341 0.995727 0.283314
0.133455 0.99588 0.27985
0.133898 0.995972 0.275837
0.134432 0.995987 0.272908
0.135241 0.995972 0.26775
0.135622 0.995972 0.265461
0.135622 0.995972 0.265461
0.136492 0.995926 0.260258
0.164233 0.993606 0.15993
0.398535 0.980911 0.135271
0.592706 0.960281 0.204944
0.750652 0.94078 0.277775
0.84979 0.934462 0.327214
0.919783 0.941848 0.349355
0.964019 0.950774 0.358373
0.994766 0.952728 0.378622
0.999969 0.953628 0.400229
0.999969 0.953979 0.40882
0.999969 0.954101 0.412406
0.999969 0.954101 0.412406
0.999969 0.954101 0.412406
0.999969 0.954101 0.412406
0.999969 0.954101 0.412406
0.999969 0.954116 0.412329
0.999969 0.954147 0.412192
0.999969 0.954192 0.411978
0.999969 0.954208 0.411902
0.999969 0.954192 0.411978
0.999969 0.954147 0.412192
0.133623 0.995392 0.290303
0.134035 0.995331 0.289754
0.133928 0.995392 0.288609
0.133562 0.995514 0.28719
0.133165 0.995697 0.28455
0.133211 0.995865 0.281117
0.133684 0.995956 0.276936
0.13434 0.995987 0.273426
0.135088 0.995972 0.268666
0.135622 0.995972 0.265461
0.135622 0.995972 0.265461
0.136202 0.995956 0.262318
0.156634 0.994125 0.174319
0.372122 0.982818 0.127504
0.576379 0.96231 0.19794
0.736477 0.942351 0.270405
0.840833 0.934813 0.323247
0.912413 0.940215 0.34931
0.959335 0.949996 0.356176
0.991791 0.952575 0.375631
0.999969 0.953521 0.396323
0.999969 0.953902 0.407416
0.999969 0.954101 0.412284
0.999969 0.954101 0.412406
0.999969 0.954101 0.412406
0.999969 0.954101 0.412406
0.999969 0.954101 0.412406
0.999969 0.954116 0.412329
0.999969 0.954147 0.412192
0.999969 0.954192 0.411978
0.999969 0.954208 0.411902
0.999969 0.954192 0.411978
0.999969 0.954147 0.412192
0.133486 0.995392 0.291127
0.133883 0.995331 0.290623
0.133791 0.995392 0.289418
0.133425 0.995499 0.287922
0.132982 0.995682 0.285481
0.133028 0.99585 0.282094
0.133501 0.995956 0.277867
0.134295 0.995987 0.273701
0.134981 0.995972 0.269352
0.135622 0.995972 0.265461
0.135622 0.995972 0.265461
0.135714 0.995956 0.264927
0.151995 0.994476 0.185794
0.353979 0.984222 0.122423
0.564294 0.964141 0.193133
0.725505 0.943252 0.264607
0.831708 0.935195 0.318593
0.907485 0.939208 0.349676
0.955276 0.94934 0.354253
0.989212 0.952743 0.373388
0.999969 0.953643 0.393408
0.999969 0.953857 0.406271
0.999969 0.954101 0.412192
0.999969 0.954101 0.412406
0.999969 0.954101 0.412406
0.999969 0.954101 0.412406
0.999969 0.954101 0.412406
0.999969 0.954116 0.412329
0.999969 0.954147 0.412192
0.999969 0.954192 0.411978
0.999969 0.954223 0.411826
0.999969 0.954223 0.411826
0.999969 0.954192 0.411978
0.132845 0.995483 0.291356
0.133516 0.995392 0.291035
0.133684 0.995392 0.290043
0.133349 0.995499 0.28838
0.132845 0.995682 0.286168
0.132891 0.995834 0.282811
0.13341 0.995956 0.278477
0.134218 0.995987 0.274098
0.134936 0.995987 0.26978
0.135622 0.995972 0.265461
0.135622 0.995972 0.265461
0.135622 0.995972 0.265461
0.149722 0.994751 0.194568
0.33637 0.985168 0.117617
0.555764 0.965118 0.18967
0.716945 0.944045 0.260227
0.825254 0.935454 0.315282
0.903853 0.938201 0.349813
0.952209 0.948913 0.353002
0.986328 0.952773 0.37116
0.999863 0.953597 0.390158
0.999969 0.953933 0.404913
0.999969 0.954162 0.411078
0.999969 0.954177 0.412039
0.999969 0.954177 0.412085
0.999969 0.954162 0.412131
0.999969 0.954147 0.412161
0.999969 0.954162 0.412116
0.999969 0.954192 0.411994
0.999969 0.954238 0.411795
0.999969 0.954269 0.411658
0.999969 0.954284 0.411597
0.999969 0.954269 0.411673
0.13135 0.995758 0.290944
0.13228 0.995605 0.290806
0.132799 0.995529 0.290043
0.132891 0.99556 0.288563
0.13257 0.995712 0.286473
0.132723 0.995834 0.283299
0.133333 0.995941 0.278889
0.134188 0.995987 0.274403
0.13489 0.995987 0.270085
0.135622 0.995972 0.265461
0.135622 0.995972 0.265461
0.135622 0.995972 0.265461
0.147387 0.994949 0.202029
0.322835 0.985855 0.114015
0.550301 0.965698 0.187488
0.710597 0.944915 0.257084
0.822187 0.935927 0.314046
0.900587 0.937621 0.349142
0.950256 0.948638 0.352377
0.984131 0.952682 0.369696
0.999649 0.953552 0.388205
0.999969 0.953964 0.404059
0.999969 0.954192 0.41033
0.999969 0.954253 0.411749
0.999969 0.954253 0.411749
0.999969 0.954253 0.411749
0.999969 0.954253 0.411749
0.999969 0.954269 0.411688
0.999969 0.954299 0.411536
0.999969 0.954345 0.411322
0.999969 0.954391 0.411185
0.999969 0.954406 0.411109
0.999969 0.954406 0.411109
0.128832 0.996201 0.289662
0.129305 0.996139 0.289219
0.130144 0.996017 0.288701
0.130983 0.995895 0.287984
0.131746 0.99585 0.286351
0.132448 0.99588 0.283528
0.133272 0.995941 0.279255
0.134142 0.995987 0.274601
0.134859 0.995987 0.270359
0.135622 0.995972 0.265461
0.135622 0.995972 0.265461
0.135622 0.995972 0.265461
0.145418 0.995056 0.207355
0.312749 0.986664 0.112322
0.545419 0.966278 0.185687
0.706615 0.945327 0.255573
0.819364 0.936034 0.312581
0.897902 0.937469 0.347646
0.949157 0.948501 0.352087
0.982651 0.95256 0.36875
0.999466 0.953506 0.387503
0.999969 0.953933 0.403586
0.999969 0.954177 0.409842
