bundles/resolve-cinematic-luts/Gamut/X88/X88 - THETA.cube
TITLE "X88 THETA by Gamut"
# Version 1.0 - 06/25/2025 - Designed for Rec.709 Color Space. Copyright 2025 Gamut, LLC.
LUT_3D_SIZE 5
0.0000000000 0.0191475757 0.0127647133
0.2028508905 0.0000000000 0.0000000000
0.4857293602 0.0275245137 0.0000000000
0.7053543607 0.0374969143 0.0000000000
0.8637584123 0.0335077517 0.0000000000
0.0000000000 0.1942855221 0.0000000000
0.1854244821 0.1583549839 0.0000000000
0.5027042941 0.1444986382 0.0374217950
0.7192853197 0.1197747838 0.0000000000
0.8794725058 0.0821258605 0.0000000000
0.0000000000 0.4406001246 0.0000000000
0.1188086032 0.4116427803 0.0035905498
0.4612020299 0.3721100576 0.0291199764
0.7566714520 0.3620734135 0.0991708551
0.9709902997 0.3532341253 0.0880999931
0.0000000000 0.6640772014 0.0341061767
0.1020840668 0.6383957658 0.0337075639
0.3950535598 0.6135522769 0.0480786157
0.7084967241 0.5788486870 0.0710519633
0.9584767429 0.5632350055 0.1372844051
0.0263276637 0.8440574326 0.0670923932
0.1098233761 0.8282087820 0.0649020465
0.3426324426 0.8024069533 0.0702797776
0.6563151287 0.7916003998 0.0921718628
0.9226853145 0.7514133553 0.1149016418
0.0000000000 0.0000000000 0.2085996653
0.1812615588 0.0061833032 0.2110262457
0.4490286596 0.0207432914 0.2116327643
0.7140413869 0.0648916765 0.1865216789
0.9683474669 0.1182180189 0.0843366942
0.0000000000 0.2284109212 0.2197469113
0.2158584947 0.2478294975 0.2362311769
0.4939541373 0.2111920519 0.2011874435
0.7510772998 0.2167830099 0.1356360421
0.9593273359 0.2265003116 0.0697240973
0.0000000000 0.4648517646 0.1808110960
0.1464331968 0.4833493366 0.1858437383
0.4882007890 0.4639026846 0.1990436192
0.7702090571 0.4262899495 0.2200662799
0.9782766170 0.4153388006 0.1671889607
0.0163552631 0.6743584257 0.1687859409
0.1271141159 0.6893433444 0.1715649773
0.4043066041 0.6784140757 0.1768614325
0.7298748819 0.6487147068 0.1984599975
0.9794195935 0.6161667820 0.2499954473
0.0401989320 0.8492429393 0.1757566054
0.1237174078 0.8621245048 0.1749664619
0.3525408527 0.8527295362 0.1739380612
0.6623277062 0.8392432226 0.1909132481
0.9422884115 0.8051656266 0.2138489096
0.0000000000 0.0071805938 0.4304066659
0.1354013646 0.0173528067 0.4293142748
0.4596328716 0.0401931147 0.4413472706
0.7165140000 0.0615024564 0.4456548681
0.9202081487 0.0909089989 0.4521619177
0.0000000000 0.1858625514 0.4333385942
0.1671888943 0.2050240125 0.4526370549
0.4809423222 0.2214358782 0.4591030650
0.7322079437 0.2250594188 0.4583690912
0.9390898983 0.2379748449 0.4481854015
0.0366936186 0.5032880493 0.4619683983
0.1974240758 0.5066931029 0.4651578715
0.5113925653 0.5273436537 0.4839221952
0.7648890327 0.4904837533 0.4623329913
0.9740547617 0.4705223850 0.4126431060
0.0505815800 0.7189904070 0.4202572165
0.1795994776 0.7208457471 0.4207515491
0.4395575495 0.7354924067 0.4271996421
0.7572899798 0.7283673630 0.4384610367
0.9982962846 0.6867993926 0.4485351993
0.0637790512 0.8780654737 0.3825857827
0.1636881998 0.8818745523 0.3807803907
0.3829499974 0.8966530693 0.3826722837
0.6763401077 0.8985439506 0.3890958674
0.9705648768 0.8763501236 0.4102797574
0.0069812875 0.0347048546 0.6477914932
0.1288793923 0.0400079723 0.6449996864
0.4123750035 0.0552250644 0.6516663328
0.7200489059 0.0847810867 0.6684224850
0.9414054438 0.1182139721 0.6705898153
0.0211421570 0.1808611755 0.6479328793
0.1560281726 0.1969663628 0.6650253107
0.4306153977 0.2105813372 0.6664531472
0.7290629832 0.2404218941 0.6768719444
0.9507746138 0.2598353143 0.6780966848
0.0468774660 0.4580965938 0.6675053722
0.1842799030 0.4642277234 0.6719333063
0.4587382299 0.4808478185 0.6869937584
0.7493987127 0.4958895168 0.6946254203
0.9686636255 0.4908346890 0.6929647379
0.0806472500 0.7372266872 0.6820721894
0.2269169398 0.7382337444 0.6837885725
0.4833025251 0.7503902310 0.6957237011
0.7755930988 0.7710050352 0.7163370531
0.9937428422 0.7423330278 0.7023713412
0.1049300000 0.9160136095 0.6462911310
0.2282996334 0.9171138414 0.6470640755
0.4482192937 0.9244219103 0.6529102271
0.7133142222 0.9401623082 0.6637033755
0.9969605778 0.9429993889 0.6773659791
0.0382830110 0.0615108030 0.8425459416
0.1408855779 0.0658667096 0.8387350925
0.3927665950 0.0794787278 0.8411695136
0.6761443423 0.1079840919 0.8519601327
0.9381725325 0.1487705731 0.8644575022
0.0460162500 0.1944185616 0.8404883816
0.1589592262 0.2060309400 0.8557368367
0.4078142262 0.2171169777 0.8543535796
0.6863297074 0.2438313666 0.8611818463
0.9463524404 0.2791505805 0.8719871351
0.0629357930 0.4374633256 0.8513417265
0.1853217938 0.4437488112 0.8576800738
0.4332131425 0.4589626154 0.8713538062
0.7057150344 0.4739439797 0.8776835541
0.9606612722 0.4952232231 0.8846476425
0.0977888627 0.7011932078 0.8648642086
0.2274045252 0.7039050897 0.8677159591
0.4589034305 0.7137320574 0.8774549082
0.7295293638 0.7323118123 0.8947892512
0.9788429203 0.7423813368 0.9011164698
0.1514333872 0.9298522502 0.8810403995
0.2782681187 0.9312253902 0.8827979883
0.4943718713 0.9379934603 0.8913244060
0.7509909675 0.9502682542 0.9046817269
1.0000000000 0.9650475300 0.9218607729
