bundles/resolve-cinematic-luts/Gamut/X88/X88 - ZETA.cube
TITLE "X88 ZETA by Gamut"
# Version 1.0 - 06/25/2025 - Designed for Rec.709 Color Space. Copyright 2025 Gamut, LLC.
LUT_3D_SIZE 5
0.0000000000 0.0047572601 0.0118946585
0.1684546195 0.0087221462 0.0049556049
0.4588237069 0.0067402059 0.0000000000
0.7411471322 0.0196258346 0.0027755712
0.9281815622 0.0423095487 0.0198234253
0.0000000000 0.1600009553 0.0981734173
0.1830185122 0.1925506295 0.0493499115
0.4888494490 0.1897710361 0.0243830947
0.7965200406 0.2074043721 0.0344903869
0.9789822319 0.2234205313 0.0483898620
0.0047572601 0.3872641984 0.2501830102
0.1975967340 0.4208779965 0.1634904674
0.4948168892 0.4179068458 0.1077884925
0.7565725304 0.4180511423 0.1027225284
0.9449023610 0.4313505551 0.1063631244
0.0162559830 0.6032652743 0.3877169476
0.2227279583 0.6275297140 0.3041458853
0.5584152019 0.6859079619 0.2259866966
0.7629059911 0.6389349208 0.1886933372
0.9319737451 0.6394527793 0.1980165514
0.0570217601 0.7498330786 0.4814747406
0.2475492217 0.7700574672 0.4018298508
0.5756480774 0.8337714182 0.3287124930
0.8103564174 0.8421494148 0.2620123079
0.9286581932 0.7866332153 0.2588538734
0.0005950346 0.0403396750 0.2240384422
0.2354428948 0.0128856287 0.2492458370
0.5391305004 0.0111015304 0.1717671547
0.7994735942 0.0323128670 0.1518275883
0.9713247124 0.0523577649 0.1479061922
0.0000000000 0.2390799714 0.2937263696
0.2032389370 0.2344282403 0.2442490831
0.5112689883 0.1910208862 0.1707014865
0.7773042126 0.1898307115 0.1523902545
0.9599836095 0.2061014299 0.1554629052
0.0059473293 0.4641870626 0.4175672211
0.1814948381 0.4598707387 0.3755718822
0.5355679355 0.4732287472 0.2699067962
0.7979134779 0.4536059113 0.2206547306
0.9860995193 0.4579805527 0.2121264379
0.0224009030 0.6636599027 0.5281380722
0.2074763812 0.6671545390 0.4871477992
0.5632942862 0.7106639678 0.3776233290
0.7932602115 0.6807151705 0.3095203604
0.9646521298 0.6774180979 0.2934898138
0.0525146308 0.7988290363 0.6022418752
0.2336389369 0.8081811600 0.5701959818
0.5685996702 0.8516707224 0.4617646911
0.8314601601 0.8714421104 0.3732945861
0.9556504404 0.8227083501 0.3533414448
0.0190305486 0.0995490105 0.4572605784
0.2216814315 0.0564118937 0.4987470839
0.6280689406 0.0436931864 0.4745962714
0.8915679551 0.0679664247 0.3949511302
1.0000000000 0.0931154975 0.3654849771
0.0227973413 0.3077545551 0.5247297583
0.2163877640 0.2981439982 0.4769705381
0.5871650596 0.2459246806 0.4673686024
0.8403924238 0.2221219210 0.3848228763
0.9954403306 0.2277242881 0.3524545491
0.0352525943 0.5492302510 0.6159349610
0.2323739879 0.5335962414 0.5521534406
0.5790853300 0.5344964517 0.4970322542
0.8306491274 0.4779831051 0.4078470658
0.9978249940 0.4636679471 0.3709370726
0.0550805446 0.7347151275 0.6974934136
0.2288902532 0.7319907474 0.6610129365
0.5632406801 0.7517081993 0.6053323857
0.8366036189 0.7396296597 0.4955656047
0.9982779945 0.7269904875 0.4465962111
0.0883899123 0.8724906484 0.7741075738
0.2458154010 0.8692472448 0.7411410989
0.5571630400 0.8845964725 0.6762534189
0.8591361817 0.9108114291 0.5540367830
0.9930747727 0.8740231076 0.5062494972
0.0515772062 0.1716811801 0.6502493766
0.2474026627 0.1320521780 0.6886588971
0.6460230472 0.1027446505 0.7341728843
0.9404176052 0.1201766250 0.6288980171
1.0000000000 0.1404563189 0.5716603149
0.0681102184 0.3792529764 0.7047132672
0.2468317456 0.3540430363 0.6652414632
0.6090973558 0.3023542656 0.6987209912
0.9013688260 0.2757071153 0.6208763311
1.0000000000 0.2737767476 0.5624808945
0.0851832113 0.5992066205 0.7826826583
0.2817034629 0.5952897517 0.7224588232
0.5941903347 0.5863576294 0.6926874674
0.8711101014 0.5162519339 0.6257733941
1.0000000000 0.4831567754 0.5624346392
0.1083347579 0.7965479447 0.8360293822
0.2878368438 0.7891742171 0.7950245736
0.5801447023 0.7989445848 0.7634919847
0.8782668163 0.7917643719 0.6754735246
1.0000000000 0.7616701693 0.6096075336
0.1333005691 0.9238529181 0.9004253479
0.2977601360 0.9232234434 0.8743340741
0.5596211085 0.9270191457 0.8373546979
0.8961796617 0.9503026707 0.7334310393
0.9999457003 0.9241073224 0.6676295652
0.0854144880 0.2201995012 0.7655789961
0.2721985359 0.1852963358 0.8042434237
0.6431441557 0.1594994369 0.8656151959
0.9597726953 0.1675139269 0.8060229969
1.0000000000 0.1741543319 0.7172331269
0.1050418309 0.4290787648 0.8135548226
0.2722814938 0.3929875412 0.7836424564
0.6144743987 0.3432374206 0.8258469250
0.9326874346 0.3189526185 0.7884520051
1.0000000000 0.3055327910 0.7153248431
0.1202663704 0.6328739643 0.8821826482
0.3106505410 0.6360944916 0.8320996903
0.6085592470 0.6177484716 0.8069619299
0.9083523550 0.5581630601 0.7856492840
1.0000000000 0.5228883437 0.7187087724
0.1553631043 0.8405450587 0.9487795129
0.3383187696 0.8328068438 0.9017122014
0.6275297140 0.8345617810 0.8550453503
0.9070064255 0.8212279282 0.8020731940
1.0000000000 0.7755588348 0.7337653849
0.1789809750 0.9589946505 0.9748722951
0.3365972669 0.9531906122 0.9496470517
0.5887307940 0.9592510659 0.9228642104
0.9058922754 0.9707869942 0.8495246259
1.0000000000 0.9572821977 0.7838196847
