bundles/resolve-cinematic-luts/Gamut/X88/X88 - ZETA.cube
TITLE "X88 ZETA by Gamut"
# Version 1.0 - 06/25/2025 - Designed for Rec.709 Color Space. Copyright 2025 Gamut, LLC.
LUT_3D_SIZE 33
0.0000000000 0.0047572601 0.0118946585
0.0101592352 0.0039648862 0.0103574858
0.0233918731 0.0039648862 0.0080288819
0.0350772829 0.0039648862 0.0063440190
0.0505130822 0.0046582133 0.0063440190
0.0737557254 0.0047572601 0.0063440190
0.1046535627 0.0055506395 0.0055506395
0.1360129163 0.0075828888 0.0055506395
0.1684546195 0.0087221462 0.0049556049
0.2010000515 0.0092923877 0.0039648862
0.2356980533 0.0095155257 0.0026267497
0.2724300640 0.0095155257 0.0021308561
0.3095340027 0.0103078996 0.0002975173
0.3466061095 0.0103078996 0.0000000000
0.3840894236 0.0095155257 0.0000000000
0.4217339401 0.0083011976 0.0000000000
0.4588237069 0.0067402059 0.0000000000
0.4966141539 0.0051787429 0.0000000000
0.5336513806 0.0043115498 0.0000000000
0.5699536755 0.0058729499 0.0000000000
0.6061479366 0.0074339102 0.0000000000
0.6408035795 0.0100606284 0.0000000000
0.6744172206 0.0123902064 0.0000000000
0.7078224927 0.0157352963 0.0004459931
0.7411471322 0.0196258346 0.0027755712
0.7708386544 0.0233428211 0.0049308118
0.7949154960 0.0256715821 0.0064925891
0.8171347714 0.0280009716 0.0080535808
0.8397442633 0.0303305496 0.0104070720
0.8620609515 0.0333782165 0.0120433229
0.8843847413 0.0357665564 0.0143719582
0.9067310303 0.0387669938 0.0167014734
0.9281815622 0.0423095487 0.0198234253
0.0007685863 0.0179651049 0.0172966022
0.0062448780 0.0195508582 0.0150166104
0.0217813267 0.0203194446 0.0133812709
0.0357248889 0.0209889213 0.0096146667
0.0534102307 0.0194765732 0.0064183040
0.0781406803 0.0164784297 0.0055754326
0.1082402361 0.0142481498 0.0049060187
0.1392842868 0.0138764417 0.0047820532
0.1699766147 0.0133317161 0.0049556049
0.2017265304 0.0139260279 0.0041629796
0.2351173163 0.0141241214 0.0033946447
0.2695404571 0.0154133630 0.0026515113
0.3056538027 0.0174447638 0.0010905197
0.3419396318 0.0197495802 0.0000000000
0.3780476354 0.0216080892 0.0000000000
0.4144790179 0.0231690808 0.0000000000
0.4506602697 0.0254981875 0.0000000000
0.4876051115 0.0270348888 0.0000000000
0.5245811567 0.0285710874 0.0000000000
0.5619149266 0.0301073174 0.0000740337
0.5992177759 0.0324121023 0.0036422615
0.6343951424 0.0350261255 0.0064677017
0.6688062166 0.0372996440 0.0088214129
0.7028786087 0.0402057797 0.0106303043
0.7362630784 0.0430041642 0.0127367129
0.7655380199 0.0457049790 0.0143224348
0.7893254201 0.0482901554 0.0158842121
0.8121503198 0.0507925310 0.0174452038
0.8345085811 0.0532408269 0.0190061954
0.8571556555 0.0561678905 0.0213357735
0.8794219089 0.0590721721 0.0229711445
0.9015209896 0.0623625538 0.0252997798
0.9234752396 0.0660625402 0.0276292950
0.0000000000 0.0351760468 0.0259196389
0.0000000000 0.0359468013 0.0243586472
0.0163050036 0.0395872089 0.0211623788
0.0318919184 0.0415979959 0.0166271569
0.0480240930 0.0396819192 0.0120432915
0.0756153656 0.0389225713 0.0065669684
0.1112472096 0.0381562475 0.0049060187
0.1462819765 0.0372664609 0.0061208810
0.1809159058 0.0372168746 0.0055506395
0.2149273992 0.0364126227 0.0049803980
0.2488432397 0.0358892964 0.0041629796
0.2834862504 0.0356989960 0.0026515113
0.3187649576 0.0365117323 0.0010905197
0.3538248318 0.0373655704 0.0000000000
0.3887729643 0.0385778246 0.0000000000
0.4237102556 0.0399707636 0.0000000000
0.4584828880 0.0413874588 0.0000000000
0.4939012411 0.0428295127 0.0000000000
0.5294615025 0.0441956475 0.0000000000
0.5648600902 0.0458537691 0.0021804423
0.6003987008 0.0477593189 0.0053027713
0.6346106131 0.0496633291 0.0081525647
0.6682114648 0.0527218370 0.0105063073
0.7020211882 0.0557100507 0.0128606470
0.7349386111 0.0585544078 0.0146694755
0.7640257660 0.0613463192 0.0167759470
0.7875210537 0.0640134794 0.0183369072
0.8100416801 0.0666036207 0.0198978675
0.8324731267 0.0692197178 0.0214596447
0.8548935122 0.0722285139 0.0238131674
0.8772344592 0.0755318106 0.0254237139
0.8991823302 0.0791870186 0.0277532291
0.9212922206 0.0831559584 0.0308255948
0.0000000000 0.0507809986 0.0345178825
0.0000000000 0.0520342289 0.0344187729
0.0067894779 0.0549604442 0.0343196633
0.0264404513 0.0578468773 0.0251511154
0.0466605035 0.0606218199 0.0190557817
0.0716977717 0.0567771285 0.0136042517
0.1071588607 0.0561521159 0.0073594366
0.1412851126 0.0560903688 0.0069877285
0.1773710884 0.0560603594 0.0064678274
0.2161800011 0.0565705821 0.0056993982
0.2563453702 0.0570779453 0.0042125030
0.2961393769 0.0572046446 0.0026515113
0.3351380558 0.0572046446 0.0005946575
0.3725836618 0.0572046446 0.0000000000
0.4077993021 0.0575887964 0.0000000000
0.4417253866 0.0581503022 0.0000000000
0.4755656222 0.0587680559 0.0000000000
0.5092988610 0.0598309544 0.0000000000
0.5428465128 0.0606779737 0.0006193878
0.5766205391 0.0622536401 0.0037414340
0.6105813780 0.0643402519 0.0068642972
0.6437050645 0.0666653993 0.0096392399
0.6763611699 0.0696064149 0.0120678960
0.7092437442 0.0725592772 0.0144216387
0.7412497926 0.0753738763 0.0159832588
0.7695865553 0.0781566748 0.0175442505
0.7926727725 0.0808177075 0.0193283802
0.8147440434 0.0834548897 0.0214596133
0.8369657070 0.0860796597 0.0230206050
0.8587458395 0.0889942797 0.0247303553
0.8808042583 0.0925608421 0.0269855540
0.9024929800 0.0961071678 0.0293142207
0.9240159116 0.0998995392 0.0317180838
0.0000000000 0.0679490789 0.0438653869
0.0000000000 0.0707772844 0.0456400581
0.0000000000 0.0726771780 0.0467961271
0.0193526705 0.0755345130 0.0368617267
0.0432059971 0.0800227254 0.0291407318
0.0716102574 0.0826614160 0.0213357106
0.1048936379 0.0756459406 0.0166519186
0.1395282271 0.0759827372 0.0110269312
0.1754031001 0.0763773530 0.0079296466
0.2131776469 0.0767697063 0.0064678274
0.2534501699 0.0772254093 0.0050051912
0.2957749590 0.0776791011 0.0034442309
0.3393645423 0.0785940894 0.0010905197
0.3821242634 0.0793743338 0.0000000000
0.4217374281 0.0797549976 0.0000000000
0.4588293317 0.0805880963 0.0000000000
0.4938883889 0.0814150360 0.0000000000
0.5282641116 0.0826805529 0.0016602584
0.5623302505 0.0837408746 0.0043612617
0.5955114105 0.0853989334 0.0071613117
0.6288104085 0.0870904895 0.0099119640
0.6608175252 0.0893729009 0.0122414164
0.6923848393 0.0918082817 0.0143224977
0.7242774804 0.0945336696 0.0166768374
0.7550719974 0.0968584084 0.0182377976
0.7825511825 0.0991361063 0.0197987579
0.8052523052 0.1013684916 0.0214595819
0.8267990558 0.1039255440 0.0230205736
0.8482313621 0.1064237089 0.0252750181
0.8694314177 0.1092147718 0.0270103157
0.8907109746 0.1123064943 0.0291903181
0.9118471462 0.1159118962 0.0315446578
0.9326747396 0.1194171828 0.0339980442
0.0000000000 0.0880861418 0.0544797281
0.0000000000 0.0905457500 0.0562304232
0.0000000000 0.0923398723 0.0575764470
0.0129352149 0.0940044986 0.0497486438
0.0388785157 0.0985295079 0.0390587920
0.0735389663 0.1051674933 0.0315941183
0.1022793319 0.0991464132 0.0258452596
0.1389690781 0.0983751559 0.0218557060
0.1748617368 0.0990285752 0.0170487340
0.2116988904 0.0999254007 0.0124888761
0.2513230533 0.1012460972 0.0093915602
0.2927573958 0.1015444629 0.0074340673
0.3355646921 0.1026495945 0.0053524518
0.3794222860 0.1039575331 0.0029982692
0.4227910252 0.1055282346 0.0026759588
0.4645627300 0.1073374402 0.0030974416
0.5044950627 0.1089622215 0.0046584019
0.5430265692 0.1105646921 0.0067156014
0.5793965816 0.1118634864 0.0090443310
0.6146608341 0.1133424315 0.0113737519
0.6489689964 0.1149373919 0.0138272954
0.6810975334 0.1168427532 0.0157601837
0.7126121817 0.1186764691 0.0176930720
0.7438542002 0.1204150662 0.0197987893
0.7739721073 0.1225564491 0.0213603466
0.8006772069 0.1244599879 0.0229214954
0.8231213800 0.1262833340 0.0244824871
0.8440940869 0.1284295876 0.0261674443
0.8646354439 0.1307348124 0.0282738843
0.8851463830 0.1333696379 0.0299588416
0.9057134445 0.1362220708 0.0323130556
0.9261337898 0.1395039367 0.0340224288
0.9463692080 0.1427568616 0.0361978748
0.0000000000 0.1102933191 0.0667892391
0.0000000000 0.1128805381 0.0691497064
0.0000000000 0.1157233554 0.0727305979
0.0079788244 0.1164550506 0.0658354429
0.0349998240 0.1210381933 0.0527251679
0.0712001498 0.1286098011 0.0443112230
0.1101103718 0.1336417650 0.0358520910
0.1367491679 0.1242897042 0.0333538005
0.1747221538 0.1246054471 0.0295376101
0.2120852732 0.1255781916 0.0249282602
0.2511438139 0.1272344592 0.0201707802
0.2911931047 0.1281628338 0.0161562764
0.3321229436 0.1290423764 0.0131828946
0.3738456279 0.1301050863 0.0106801733
0.4164374849 0.1317308417 0.0091189617
0.4592928591 0.1340514012 0.0095646720
0.5013202880 0.1363935801 0.0109033113
0.5434959413 0.1387856593 0.0124642715
0.5843611737 0.1408619957 0.0141739904
0.6238210547 0.1427450778 0.0163795715
0.6609062022 0.1444450869 0.0180892904
0.6954539056 0.1463537163 0.0204434415
0.7282133628 0.1480452724 0.0220044018
0.7605893595 0.1495333302 0.0237141207
0.7907612521 0.1511973594 0.0252750809
0.8175526720 0.1527101161 0.0268366382
0.8401462950 0.1544088996 0.0285465771
0.8610352898 0.1561780403 0.0306027710
0.8815972292 0.1584038266 0.0321644226
0.9017313697 0.1608248783 0.0338741729
0.9216390727 0.1633711211 0.0360484248
0.9415770993 0.1661577847 0.0377160677
0.9609569197 0.1688979416 0.0398898168
0.0000000000 0.1347523329 0.0815246096
0.0000000000 0.1370097626 0.0836297927
0.0000000000 0.1413977342 0.0908747851
0.0036675260 0.1400664480 0.0829797042
0.0316684033 0.1446424262 0.0677407728
0.0677983720 0.1517848210 0.0562326228
0.1103808335 0.1601801633 0.0491370804
0.1465115249 0.1633313076 0.0429315446
0.1728237685 0.1511925516 0.0402895232
0.2125222478 0.1519803063 0.0372025770
0.2520808299 0.1530966875 0.0326584308
0.2911703227 0.1545907472 0.0274558689
0.3311185871 0.1560121873 0.0226735329
0.3711354175 0.1571729698 0.0194271755
0.4120056147 0.1585709051 0.0169246428
0.4529080839 0.1605650063 0.0165779792
0.4941031682 0.1630587719 0.0171474979
0.5362788530 0.1655520033 0.0179158015
0.5783640068 0.1680412753 0.0194767617
0.6195064255 0.1702485533 0.0212116508
0.6594340447 0.1726520078 0.0227726425
0.6965190665 0.1747987328 0.0246063583
0.7323697749 0.1765812598 0.0266880053
0.7667588526 0.1782514480 0.0282489970
0.7986447377 0.1799061130 0.0298099886
0.8264415825 0.1815443435 0.0313712003
0.8500297266 0.1831673023 0.0329321605
0.8718837357 0.1850169498 0.0344914553
0.8929237830 0.1870162673 0.0362901340
0.9133012667 0.1892634530 0.0382736769
0.9335106035 0.1916126078 0.0397708162
0.9532032130 0.1939782914 0.0418622986
0.9723993004 0.1961623788 0.0439380694
0.0000000000 0.1600009553 0.0981734173
0.0000000000 0.1625650466 0.1002463599
0.0000000000 0.1680088463 0.1096823214
0.0006941442 0.1649061256 0.0986949210
0.0300331580 0.1691624015 0.0844520503
0.0643011297 0.1759110603 0.0700416298
0.1071105628 0.1861099519 0.0631287834
0.1497869175 0.1922364577 0.0554340271
0.1830185122 0.1925506295 0.0493499115
0.2113145501 0.1792748786 0.0480935074
0.2521405031 0.1800833727 0.0443336593
0.2927072754 0.1812803236 0.0401645521
0.3321875503 0.1826416821 0.0349680235
0.3707294579 0.1841516735 0.0303054737
0.4097659078 0.1858263867 0.0270593049
0.4486032587 0.1876036974 0.0251516810
0.4888494490 0.1897710361 0.0243830947
0.5299330115 0.1919660275 0.0243830947
0.5709989769 0.1943569127 0.0253745676
0.6115230447 0.1966955721 0.0264895976
0.6516680828 0.1990676032 0.0280505893
0.6895649611 0.2014862353 0.0296118323
0.7268055290 0.2035536788 0.0313712317
0.7629339579 0.2056227564 0.0329321919
0.7965200406 0.2074043721 0.0344903869
0.8260165488 0.2092179456 0.0360209293
0.8511181723 0.2110005983 0.0375225620
0.8742386725 0.2128603642 0.0391038218
0.8963274777 0.2149277763 0.0411486405
0.9177871853 0.2170207671 0.0426098627
0.9386697696 0.2191737767 0.0446027069
0.9590561148 0.2213948496 0.0464342860
0.9789822319 0.2234205313 0.0483898620
0.0000000000 0.1866397200 0.1162682068
0.0000000000 0.1894090065 0.1182060285
0.0000000000 0.1946240120 0.1278923407
0.0019329511 0.1922286019 0.1179573119
0.0283482322 0.1948220741 0.1038676306
0.0611903960 0.2014109132 0.0855713224
0.1045804717 0.2110107795 0.0759708906
0.1481354263 0.2206031670 0.0697708539
0.1911579733 0.2255859532 0.0616455019
0.2201249334 0.2187042160 0.0570194034
0.2517775621 0.2080479245 0.0544488703
0.2928427419 0.2086024543 0.0501706922
0.3334359100 0.2095573817 0.0463197475
0.3719361186 0.2109548457 0.0422639218
0.4092792213 0.2125028281 0.0383838162
0.4469408007 0.2145408279 0.0356189604
0.4852478808 0.2163569466 0.0331554242
0.5252244892 0.2186091601 0.0323870578
0.5649917545 0.2206124997 0.0321887129
0.6048942978 0.2229364530 0.0329820924
0.6439679531 0.2252881531 0.0339976043
0.6819003085 0.2276671288 0.0350467393
0.7192041947 0.2297928314 0.0365633610
0.7554268625 0.2318035556 0.0380543726
0.7893485477 0.2337969655 0.0395117612
0.8197390847 0.2356584911 0.0409400202
0.8460823747 0.2375503404 0.0425441248
0.8703861880 0.2395371827 0.0444041107
0.8936623286 0.2415254392 0.0457414616
0.9161887997 0.2437354509 0.0477147919
0.9381506855 0.2458604937 0.0496395729
0.9596572455 0.2480274553 0.0515180358
0.9807674928 0.2501114276 0.0527395599
0.0000000000 0.2141655061 0.1350938430
0.0000000000 0.2163743238 0.1365050076
0.0000000000 0.2221678666 0.1462522499
0.0041379352 0.2205143957 0.1377680421
0.0274556804 0.2213187420 0.1244980417
0.0589774933 0.2275372871 0.1033543912
0.1013257557 0.2365669119 0.0899347523
0.1455377748 0.2480088212 0.0843137871
0.1926568408 0.2548415378 0.0748773228
0.2331774520 0.2584371041 0.0672388459
0.2584003072 0.2451731055 0.0632780448
0.2931201796 0.2371632348 0.0601845311
0.3333830243 0.2373220804 0.0558330736
0.3727540084 0.2379350578 0.0525784204
0.4104310796 0.2392901315 0.0492633085
0.4467551509 0.2409420627 0.0460182080
0.4840468134 0.2430198445 0.0436684876
0.5222221035 0.2449812025 0.0418156662
0.5612024626 0.2472296451 0.0409482845
0.5997846865 0.2493583330 0.0409482845
0.6379259135 0.2515307623 0.0412114874
0.6752329735 0.2536802839 0.0421328546
0.7119797532 0.2557623079 0.0428144608
0.7477875372 0.2577760802 0.0441808784
0.7815782494 0.2597248059 0.0455225344
0.8119503095 0.2616271506 0.0468409684
0.8389066397 0.2634322083 0.0481370917
0.8639355492 0.2654012650 0.0497161833
0.8878678430 0.2674678601 0.0512964062
0.9112208139 0.2697025707 0.0531369723
0.9340610797 0.2718240312 0.0549375050
0.9564851103 0.2740671004 0.0566988527
0.9786493318 0.2762803802 0.0584241262
0.0007933795 0.2426683732 0.1544670016
0.0007933795 0.2443392841 0.1553649897
0.0013133748 0.2503399390 0.1649031403
0.0062195821 0.2484419936 0.1563429192
0.0279763356 0.2486629005 0.1443309569
0.0579468353 0.2539846201 0.1222772203
0.0996490628 0.2631328999 0.1056852890
0.1440833086 0.2741336867 0.0971217370
0.1917467546 0.2842427387 0.0892370887
0.2386851671 0.2891848001 0.0791940574
0.2750372368 0.2893103054 0.0720854429
0.2980348398 0.2716507308 0.0686429089
0.3340885123 0.2659348039 0.0650475311
0.3729564069 0.2659467448 0.0616282819
0.4109894430 0.2665805245 0.0588111689
0.4476672168 0.2677375990 0.0565248610
0.4841172334 0.2695168895 0.0539589471
0.5210098494 0.2713409583 0.0521548636
0.5586743512 0.2734924596 0.0508085570
0.5965553920 0.2756785581 0.0504470930
0.6337843961 0.2779099064 0.0500386194
0.6702779656 0.2798712644 0.0502525818
0.7062767728 0.2818146167 0.0508664390
0.7412865581 0.2836649241 0.0516978408
0.7743878710 0.2854868562 0.0525475940
0.8045128484 0.2873149787 0.0535115085
0.8315392843 0.2891617981 0.0547046886
0.8568311140 0.2910590836 0.0561800828
0.8810778623 0.2930597523 0.0576227337
0.9047494042 0.2952305476 0.0590130332
0.9280508406 0.2974624615 0.0606758997
0.9509807575 0.2997183516 0.0623069343
0.9738200806 0.3019979663 0.0642580796
0.0015857534 0.2711730000 0.1741112189
0.0015857534 0.2731435650 0.1749928040
0.0020816155 0.2786030136 0.1831768236
0.0093415340 0.2766752159 0.1745698443
0.0288434659 0.2759760126 0.1631802550
0.0582989037 0.2813896144 0.1408680290
0.0985949944 0.2898651808 0.1218383602
0.1437434639 0.3007188430 0.1104615917
0.1909706580 0.3121258095 0.1035130169
0.2409170810 0.3192586515 0.0926545154
0.2838316884 0.3225925232 0.0830520724
0.3147869050 0.3170250721 0.0771362609
0.3383113537 0.2992443287 0.0741574743
0.3741577256 0.2948249651 0.0709485108
0.4115844461 0.2946626001 0.0682319529
0.4483547306 0.2953718275 0.0661805982
0.4848471060 0.2963345165 0.0643466937
0.5213012391 0.2979406323 0.0627352046
0.5578196017 0.2998508014 0.0614348705
0.5945965165 0.3020824640 0.0603334469
0.6311494449 0.3041775601 0.0602131265
0.6669086168 0.3061780403 0.0598680969
0.7020604361 0.3080468561 0.0600406117
0.7361745900 0.3097466452 0.0602131265
0.7684238245 0.3114812515 0.0609924282
0.7979872647 0.3132043568 0.0616671527
0.8249164765 0.3149374548 0.0624156594
0.8501583114 0.3167667399 0.0634909073
0.8743641149 0.3186889128 0.0646190723
0.8980228361 0.3207668518 0.0661323317
0.9213932784 0.3229388726 0.0676838649
0.9445563259 0.3252048495 0.0692097252
0.9676332103 0.3273850404 0.0707105724
0.0020568224 0.3004938196 0.1939702470
0.0020568224 0.3016634950 0.1939319418
0.0035930524 0.3066920652 0.2009328996
0.0123901122 0.3045017559 0.1916928948
0.0311977114 0.3036408475 0.1806954074
0.0598958752 0.3084553611 0.1584337732
0.0994310783 0.3171034423 0.1389480872
0.1442480618 0.3274367006 0.1251041688
0.1919495302 0.3393116566 0.1172336611
0.2421822209 0.3484347347 0.1075583785
0.2892458245 0.3532922356 0.0964130438
0.3267748283 0.3537726689 0.0882364716
0.3529685112 0.3425584539 0.0830629135
0.3781516471 0.3276782213 0.0808704675
0.4129442963 0.3238914433 0.0781648449
0.4492154191 0.3237356143 0.0761072998
0.4855865314 0.3242583436 0.0742214524
0.5219638655 0.3251759714 0.0730151687
0.5581218325 0.3266604155 0.0720461950
0.5939610714 0.3284862441 0.0710671972
0.6295906215 0.3304266111 0.0705813591
0.6646516270 0.3324607458 0.0702624110
0.6989755010 0.3342958757 0.0699692616
0.7322918133 0.3360476078 0.0699692616
0.7637759181 0.3377267517 0.0703042985
0.7927744588 0.3393292852 0.0705813591
0.8194322661 0.3410125141 0.0712763517
0.8443916670 0.3426945803 0.0720461950
0.8684128891 0.3445370005 0.0730151687
0.8918449215 0.3464870774 0.0741772396
0.9150085975 0.3485530755 0.0751253167
0.9380196497 0.3506666172 0.0765369527
0.9610342214 0.3528769118 0.0779286348
0.0028248431 0.3291409204 0.2130560067
0.0028248431 0.3304002783 0.2126033832
0.0051044264 0.3352935077 0.2189581490
0.0155120641 0.3325217702 0.2089345374
0.0333965364 0.3311936263 0.1971476928
0.0618674458 0.3361946382 0.1762935781
0.1006700110 0.3442982136 0.1559749819
0.1455028005 0.3547570087 0.1412091307
0.1936199069 0.3662802419 0.1313006546
0.2434288523 0.3768499618 0.1231107903
0.2921176771 0.3830839987 0.1117742438
0.3339450328 0.3856245852 0.1019807462
0.3664256697 0.3825278663 0.0949970085
0.3906634309 0.3687934586 0.0909031919
0.4170697877 0.3567922432 0.0888708798
0.4512643542 0.3536199195 0.0867830424
0.4868748617 0.3531818765 0.0848491800
0.5228175780 0.3534959853 0.0833654900
0.5585258125 0.3542992946 0.0824528271
0.5939570492 0.3555527449 0.0820202204
0.6290316924 0.3572043933 0.0813014088
0.6633729751 0.3589609959 0.0808504193
0.6970451894 0.3607818282 0.0808504193
0.7295984145 0.3624979575 0.0803969788
0.7603658445 0.3641708481 0.0805075894
0.7888238388 0.3658230621 0.0808504193
0.8151089640 0.3673940778 0.0811362471
0.8397658512 0.3690151826 0.0815722790
0.8633660305 0.3706739326 0.0821979200
0.8864504879 0.3725407059 0.0828827943
0.9092884598 0.3744962191 0.0841907957
0.9321162505 0.3765271486 0.0850485932
0.9548365100 0.3786411617 0.0863292877
0.0035929896 0.3582568277 0.2318156537
0.0039648862 0.3591727586 0.2309885568
0.0086725600 0.3641278922 0.2371050700
0.0198488783 0.3610022637 0.2264485900
0.0365183626 0.3594555383 0.2143864444
0.0648425873 0.3642221626 0.1945757142
0.1028837935 0.3722331960 0.1738030805
0.1472829079 0.3822955213 0.1581023185
0.1952792540 0.3932947998 0.1468305044
0.2449625998 0.4047420825 0.1389388487
0.2942485960 0.4124661255 0.1285653369
0.3384201417 0.4163923294 0.1178422077
0.3749204672 0.4164407530 0.1095254241
0.4041564121 0.4103270051 0.1032835942
0.4279420212 0.3965870669 0.0998647849
0.4560072538 0.3869723373 0.0979786547
0.4896161185 0.3838737959 0.0960590271
0.5243587101 0.3829841663 0.0945046029
0.5593892034 0.3829642125 0.0932935743
0.5943582010 0.3836030199 0.0924994721
0.6289597956 0.3846865322 0.0922549347
0.6627877132 0.3860548980 0.0918483780
0.6959323591 0.3876857126 0.0916368353
0.7278652537 0.3893681245 0.0914402816
0.7580206176 0.3909526838 0.0914402816
0.7860074800 0.3924827234 0.0914402816
0.8118883738 0.3940977320 0.0918483780
0.8362143407 0.3956591007 0.0921063646
0.8594140594 0.3972798598 0.0924994721
0.8820967051 0.3990028080 0.0932935743
0.9045540132 0.4008376237 0.0940819574
0.9270294526 0.4028318191 0.0948653756
0.9493574531 0.4047742602 0.0956425406
0.0047572601 0.3872641984 0.2501830102
0.0051539498 0.3883616626 0.2495024724
0.0127368072 0.3932198863 0.2554937002
0.0237389138 0.3899098335 0.2445822503
0.0401546537 0.3879180577 0.2320612280
0.0682874153 0.3926051177 0.2138916821
0.1058751810 0.4003910964 0.1925576055
0.1496086523 0.4100950685 0.1758181411
0.1975967340 0.4208779965 0.1634904674
0.2471580625 0.4321224095 0.1550737571
0.2959035124 0.4412244967 0.1461815471
0.3413675991 0.4463445406 0.1353681698
0.3804723323 0.4480173055 0.1258025551
0.4132558913 0.4456693762 0.1183508278
0.4406711296 0.4376916202 0.1130470824
0.4656764402 0.4257965218 0.1098626292
0.4948168892 0.4179068458 0.1077884925
0.5276727536 0.4146511242 0.1058610719
0.5614476284 0.4132385141 0.1044231659
0.5954336374 0.4128070700 0.1036811952
0.6292787437 0.4130994339 0.1030920682
0.6627524561 0.4139465474 0.1029679770
0.6954001086 0.4151610641 0.1027225284
0.7268345014 0.4165288643 0.1027225284
0.7565725304 0.4180511423 0.1027225284
0.7841736385 0.4195019948 0.1028014955
0.8097059519 0.4210113577 0.1029030247
0.8336151494 0.4225046632 0.1032715590
0.8564687073 0.4241396257 0.1036832063
0.8787798020 0.4258215663 0.1042256066
0.9008818679 0.4275535330 0.1047567573
0.9228963566 0.4294375578 0.1054701326
0.9449023610 0.4313505551 0.1063631244
0.0059225361 0.4166375895 0.2686350216
0.0066906511 0.4176741551 0.2681316806
0.0180148482 0.4225264083 0.2739522477
0.0284224230 0.4191680891 0.2629394885
0.0440576671 0.4167473202 0.2501347438
0.0722377524 0.4213243668 0.2332596558
0.1090069370 0.4288136136 0.2119449989
0.1522069637 0.4381067555 0.1942052002
0.1998793339 0.4484784133 0.1808699333
0.2490347028 0.4592685373 0.1713501026
0.2974093873 0.4689276682 0.1632685235
0.3430528392 0.4753356339 0.1532746071
0.3839953418 0.4783824838 0.1432562432
0.4193513507 0.4780398739 0.1347441942
0.4500374253 0.4738356981 0.1282027731
0.4772950751 0.4655604248 0.1232905639
0.5039289692 0.4557918774 0.1198915828
0.5335321286 0.4492796487 0.1176525357
0.5653203496 0.4456471598 0.1160265289
0.5978310901 0.4435392429 0.1148950959
0.6305447948 0.4425319639 0.1143379266
0.6632417821 0.4424172369 0.1140016328
0.6953362247 0.4429807223 0.1138184026
0.7264109761 0.4440521680 0.1138184026
0.7557824504 0.4453168679 0.1139006063
0.7830621279 0.4466438176 0.1142274732
0.8082910164 0.4481083707 0.1145528631
0.8318916670 0.4495914008 0.1148773103
0.8543634299 0.4511178267 0.1153535328
0.8763138148 0.4527364175 0.1156766287
0.8980868142 0.4544932402 0.1163295139
0.9197329886 0.4562773698 0.1169785340
0.9414384590 0.4581617717 0.1176250716
0.0066906826 0.4458257708 0.2869288472
0.0090196950 0.4473069783 0.2874913271
0.0225991850 0.4518663648 0.2925114758
0.0338190562 0.4481429994 0.2811143135
0.0489552957 0.4457079956 0.2683348961
0.0764360834 0.4500421074 0.2529342910
0.1126843300 0.4570520523 0.2313373572
0.1553951877 0.4659892921 0.2130018326
0.2021410059 0.4758474906 0.1987248989
0.2508808624 0.4860996450 0.1882677379
0.2988658017 0.4959846478 0.1800254907
0.3445991561 0.5034217946 0.1711157150
0.3865652150 0.5077716495 0.1611883220
0.4240142776 0.5091036270 0.1520789131
0.4571100600 0.5071384040 0.1444506803
0.4867949833 0.5018791228 0.1380731639
0.5144168309 0.4941783646 0.1333516008
0.5420763867 0.4862232021 0.1300549031
