bundles/resolve-cinematic-luts/Gamut/X88/X88 - THETA.cube
TITLE "X88 THETA by Gamut"
# Version 1.0 - 06/25/2025 - Designed for Rec.709 Color Space. Copyright 2025 Gamut, LLC.
LUT_3D_SIZE 33
0.0000000000 0.0191475757 0.0127647133
0.0212171499 0.0112939119 0.0104218833
0.0428544745 0.0049868326 0.0103720251
0.0561135965 0.0008729771 0.0044379813
0.0755512794 0.0000000000 0.0000000000
0.0998376652 0.0000000000 0.0000000000
0.1289076569 0.0000000000 0.0000000000
0.1642881108 0.0000000000 0.0000000000
0.2028508905 0.0000000000 0.0000000000
0.2413349151 0.0003495133 0.0000000000
0.2809440850 0.0048369102 0.0000000000
0.3201832860 0.0100723700 0.0000000000
0.3556160641 0.0145601146 0.0000000000
0.3893509125 0.0181751352 0.0000000000
0.4219650420 0.0216404862 0.0000000000
0.4539897886 0.0247825651 0.0000000000
0.4857293602 0.0275245137 0.0000000000
0.5165339559 0.0298933003 0.0000000000
0.5466602651 0.0314638497 0.0000000000
0.5760391753 0.0330343991 0.0000000000
0.6035896140 0.0346053279 0.0000000000
0.6303458307 0.0353782724 0.0000000000
0.6563775384 0.0361509007 0.0000000000
0.6812078750 0.0369239085 0.0000000000
0.7053543607 0.0374969143 0.0000000000
0.7284100992 0.0382830110 0.0000000000
0.7503258330 0.0382830110 0.0000000000
0.7712532236 0.0374969143 0.0000000000
0.7914377678 0.0374969143 0.0000000000
0.8102989039 0.0366996888 0.0000000000
0.8290471081 0.0358516250 0.0000000000
0.8463955202 0.0350792812 0.0000000000
0.8637584123 0.0335077517 0.0000000000
0.0000000000 0.0364254212 0.0025931643
0.0211922366 0.0340566662 0.0041138239
0.0436036123 0.0300924486 0.0009727567
0.0606553727 0.0245826264 0.0016204392
0.0797059510 0.0190229144 0.0016453841
0.1039264810 0.0173776567 0.0000000000
0.1331666925 0.0179014999 0.0000000000
0.1677749606 0.0194471044 0.0000000000
0.2054503148 0.0223888336 0.0000000000
0.2413822125 0.0247326437 0.0000000000
0.2775645393 0.0265772709 0.0000000000
0.3126460337 0.0289709708 0.0000000000
0.3473310967 0.0305664019 0.0000000000
0.3816562764 0.0324861485 0.0000000000
0.4153675394 0.0337822406 0.0000000000
0.4479556174 0.0353781459 0.0000000000
0.4799519414 0.0369736402 0.0000000000
0.5112173699 0.0384965761 0.0000000000
0.5416029607 0.0392685089 0.0000000000
0.5714929729 0.0404583402 0.0000000000
0.6000189505 0.0412095013 0.0000000000
0.6274594293 0.0419766602 0.0000000000
0.6537642347 0.0427111598 0.0000000000
0.6788056705 0.0427111598 0.0000000000
0.7030301524 0.0427348085 0.0000000000
0.7261561414 0.0427348085 0.0000000000
0.7483159497 0.0427348085 0.0000000000
0.7695772985 0.0426202010 0.0000000000
0.7900712672 0.0419078957 0.0000000000
0.8093005383 0.0411879709 0.0000000000
0.8280820657 0.0397747104 0.0000000000
0.8456580803 0.0389591161 0.0000000000
0.8630676375 0.0374470561 0.0000000000
0.0000000000 0.0525235526 0.0000000000
0.0125902253 0.0518999614 0.0000000000
0.0414858240 0.0479828197 0.0000000000
0.0573549616 0.0445887624 0.0000000000
0.0796713316 0.0402722176 0.0000000000
0.1097659933 0.0362995901 0.0014957779
0.1386263719 0.0339071232 0.0000000000
0.1734955973 0.0359018626 0.0000000000
0.2077844820 0.0369485688 0.0000000000
0.2421929379 0.0378848409 0.0000000000
0.2772751910 0.0392366718 0.0000000000
0.3116406177 0.0402373769 0.0000000000
0.3461361121 0.0414535125 0.0000000000
0.3799584416 0.0422204817 0.0000000000
0.4132436176 0.0432511270 0.0000000000
0.4456379536 0.0443517383 0.0000000000
0.4776900796 0.0450883246 0.0000000000
0.5093362579 0.0457713220 0.0000000000
0.5399372792 0.0467936208 0.0000000000
0.5696353515 0.0471180943 0.0000000000
0.5981279112 0.0475279939 0.0000000000
0.6258163847 0.0482098848 0.0000000000
0.6523973547 0.0482540205 0.0000000000
0.6777754045 0.0482540205 0.0000000000
0.7021463627 0.0482540205 0.0000000000
0.7255485162 0.0481052995 0.0000000000
0.7478938147 0.0476166448 0.0000000000
0.7692638273 0.0469284940 0.0000000000
0.7898135347 0.0461478352 0.0000000000
0.8091155539 0.0454686634 0.0000000000
0.8281020469 0.0440689028 0.0000000000
0.8460044320 0.0426423637 0.0000000000
0.8634464271 0.0411872438 0.0000000000
0.0000000000 0.0689841281 0.0000000000
0.0025183296 0.0679545576 0.0000000000
0.0368687704 0.0663869485 0.0000000000
0.0554962021 0.0603107282 0.0000000000
0.0737249893 0.0569055106 0.0000000000
0.1029803764 0.0531998474 0.0000000000
0.1392418694 0.0487644269 0.0018701413
0.1767795998 0.0472994113 0.0030671809
0.2113010191 0.0478993222 0.0000000000
0.2453264173 0.0484517145 0.0000000000
0.2797790089 0.0491052459 0.0000000000
0.3133457558 0.0497531813 0.0000000000
0.3472397585 0.0503954259 0.0000000000
0.3810724896 0.0510973612 0.0000000000
0.4141606672 0.0517290144 0.0000000000
0.4461900298 0.0523557356 0.0000000000
0.4776846101 0.0526594375 0.0000000000
0.5092569654 0.0532979198 0.0000000000
0.5397426520 0.0533600449 0.0000000000
0.5694914994 0.0539321655 0.0000000000
0.5981304721 0.0539937216 0.0000000000
0.6260887553 0.0539937216 0.0000000000
0.6527548352 0.0539937216 0.0000000000
0.6781069600 0.0539937216 0.0000000000
0.7023670414 0.0534216010 0.0000000000
0.7259741289 0.0532210616 0.0000000000
0.7485824714 0.0521408426 0.0000000000
0.7697992102 0.0513904718 0.0000000000
0.7905276421 0.0507565738 0.0000000000
0.8100212534 0.0494522300 0.0000000000
0.8290382557 0.0481479493 0.0000000000
0.8469463317 0.0461472029 0.0000000000
0.8643950925 0.0447599939 0.0000000000
0.0000000000 0.0887639262 0.0000000000
0.0000000000 0.0878033731 0.0000000000
0.0282227183 0.0857451807 0.0000000000
0.0524818196 0.0835816443 0.0000000000
0.0721667385 0.0748965782 0.0000000000
0.0970314416 0.0713946476 0.0000000000
0.1282073656 0.0673227463 0.0000000000
0.1731979024 0.0629890973 0.0026683785
0.2139245347 0.0606805706 0.0096739469
0.2494116289 0.0606087393 0.0053852873
0.2833721829 0.0610820920 0.0000000000
0.3172487652 0.0616419456 0.0000000000
0.3503138317 0.0618437812 0.0000000000
0.3832551536 0.0624169135 0.0000000000
0.4157470878 0.0624929180 0.0000000000
0.4477256436 0.0624929180 0.0000000000
0.4794266755 0.0625682903 0.0000000000
0.5107799961 0.0625682903 0.0000000000
0.5415345124 0.0623199793 0.0000000000
0.5712257241 0.0620716683 0.0000000000
0.5999145866 0.0620716683 0.0000000000
0.6272589215 0.0615723907 0.0000000000
0.6536389727 0.0610695721 0.0000000000
0.6794352054 0.0608317260 0.0000000000
0.7039109070 0.0599028204 0.0000000000
0.7272534646 0.0591845081 0.0000000000
0.7499043304 0.0580878172 0.0000000000
0.7714673894 0.0568975118 0.0000000000
0.7920846283 0.0556895646 0.0000000000
0.8117346433 0.0539157885 0.0000000000
0.8306366270 0.0526226367 0.0000000000
0.8485466949 0.0507142402 0.0000000000
0.8659849276 0.0488451106 0.0000000000
0.0000000000 0.1109749838 0.0000000000
0.0000000000 0.1096269468 0.0000000000
0.0210426303 0.1075323645 0.0000000000
0.0458222235 0.1060817657 0.0000000000
0.0696891617 0.1042339136 0.0000000000
0.0944233546 0.0927736391 0.0000000000
0.1228059859 0.0886542507 0.0000000000
0.1585488839 0.0848184883 0.0000000000
0.2068514664 0.0803210375 0.0033908641
0.2510860680 0.0783028708 0.0163303814
0.2887136506 0.0777617022 0.0173528699
0.3226108148 0.0773596433 0.0100228595
0.3554853957 0.0775457659 0.0011722844
0.3878228864 0.0774415284 0.0000000000
0.4193288800 0.0771717819 0.0000000000
0.4506947522 0.0767810731 0.0000000000
0.4821375457 0.0761406622 0.0000000000
0.5128850748 0.0754196626 0.0000000000
0.5434514451 0.0745235743 0.0000000000
0.5726626649 0.0736179380 0.0000000000
0.6011590184 0.0727044610 0.0000000000
0.6289433196 0.0717810883 0.0000000000
0.6555243528 0.0708485469 0.0000000000
0.6811808119 0.0698203359 0.0000000000
0.7058610680 0.0683354023 0.0000000000
0.7293814332 0.0671600511 0.0000000000
0.7518258475 0.0656472639 0.0000000000
0.7735672199 0.0641075400 0.0000000000
0.7943604327 0.0620406216 0.0000000000
0.8139536023 0.0602680785 0.0000000000
0.8328833448 0.0580677412 0.0000000000
0.8510893371 0.0562460986 0.0000000000
0.8682842541 0.0537933403 0.0000000000
0.0000000000 0.1360392462 0.0000000000
0.0000000000 0.1337685952 0.0000000000
0.0147596107 0.1316814427 0.0000000000
0.0392859925 0.1294510387 0.0000000000
0.0613564544 0.1276826056 0.0000000000
0.0926585889 0.1257385465 0.0000000000
0.1206160818 0.1123128721 0.0000000000
0.1530369751 0.1075648656 0.0000000000
0.1919700398 0.1041895565 0.0000000000
0.2392408387 0.1007672979 0.0039645971
0.2868002905 0.0993396206 0.0229371790
0.3268134161 0.0986422380 0.0291451426
0.3616158688 0.0985815355 0.0254304057
0.3940502937 0.0979532020 0.0163300969
0.4255691866 0.0973445967 0.0051364389
0.4566271203 0.0962429737 0.0000000000
0.4876694989 0.0951304116 0.0000000000
0.5179125655 0.0935923633 0.0000000000
0.5474135445 0.0920324369 0.0000000000
0.5763271642 0.0902777251 0.0000000000
0.6045848180 0.0884956340 0.0000000000
0.6318061988 0.0867080101 0.0000000000
0.6584074030 0.0848350234 0.0000000000
0.6836309777 0.0826793277 0.0000000000
0.7082891344 0.0805695382 0.0000000000
0.7316605888 0.0783189949 0.0000000000
0.7543974498 0.0760146414 0.0000000000
0.7758904480 0.0736543911 0.0000000000
0.7966872650 0.0711688155 0.0000000000
0.8166201787 0.0686978781 0.0000000000
0.8354090409 0.0661582710 0.0000000000
0.8536067498 0.0629967800 0.0000000000
0.8710251910 0.0602665293 0.0000000000
0.0000000000 0.1644262721 0.0000000000
0.0000000000 0.1615835005 0.0000000000
0.0091998987 0.1589824322 0.0000000000
0.0338821467 0.1567705867 0.0000000000
0.0549371388 0.1541824809 0.0000000000
0.0815972433 0.1521635554 0.0000000000
0.1187988022 0.1485671250 0.0000000000
0.1506554790 0.1339740666 0.0000000000
0.1876735711 0.1286355708 0.0000000000
0.2257892709 0.1253565953 0.0000000000
0.2720678694 0.1227020013 0.0041890064
0.3212164922 0.1220011410 0.0269761998
0.3635769689 0.1213571575 0.0383523130
0.3999419723 0.1209784628 0.0385832984
0.4326240758 0.1204673292 0.0318378969
0.4640008870 0.1197375719 0.0218150057
0.4950316943 0.1185038579 0.0104216620
0.5251261662 0.1167599587 0.0018949281
0.5544357429 0.1144702118 0.0000000000
0.5827937771 0.1120787250 0.0000000000
0.6104632811 0.1093491382 0.0000000000
0.6373346111 0.1065177168 0.0000000000
0.6631900288 0.1035834173 0.0000000000
0.6884209700 0.1005395373 0.0000000000
0.7123789618 0.0974215181 0.0000000000
0.7357596798 0.0940021365 0.0000000000
0.7581947673 0.0907994184 0.0000000000
0.7795719883 0.0872620780 0.0000000000
0.8003177141 0.0838447198 0.0000000000
0.8201850565 0.0804175924 0.0000000000
0.8391408188 0.0767552113 0.0000000000
0.8569235063 0.0730656406 0.0000000000
0.8742709383 0.0696326958 0.0000000000
0.0000000000 0.1942855221 0.0000000000
0.0000000000 0.1912576397 0.0000000000
0.0055348619 0.1883605837 0.0000000000
0.0290706556 0.1859281544 0.0000000000
0.0502951404 0.1835482706 0.0000000000
0.0735891360 0.1813106898 0.0000000000
0.1081284499 0.1790433901 0.0000000000
0.1492125312 0.1737010688 0.0000000000
0.1854244821 0.1583549839 0.0000000000
0.2223009036 0.1522698479 0.0000000000
0.2603759454 0.1487052547 0.0000000000
0.3047151639 0.1467599625 0.0055101699
0.3539525641 0.1466373879 0.0286217104
0.3987832826 0.1463332117 0.0440390575
0.4365619575 0.1455919779 0.0483155450
0.4707257382 0.1451926696 0.0451817495
0.5027042941 0.1444986382 0.0374217950
0.5334682003 0.1434781416 0.0272999146
0.5631097435 0.1418221661 0.0157568381
0.5915211136 0.1393445577 0.0057593029
0.6189516333 0.1361653302 0.0007981107
0.6454681069 0.1324091133 0.0000000000
0.6710329432 0.1284337984 0.0000000000
0.6956188893 0.1242475426 0.0000000000
0.7192853197 0.1197747838 0.0000000000
0.7421021688 0.1151363895 0.0000000000
0.7642203706 0.1105799436 0.0000000000
0.7855585460 0.1062166073 0.0000000000
0.8059313627 0.1013474173 0.0000000000
0.8254245630 0.0964950469 0.0000000000
0.8443047951 0.0918166270 0.0000000000
0.8622967796 0.0867874607 0.0000000000
0.8794725058 0.0821258605 0.0000000000
0.0000000000 0.2246123074 0.0000000000
0.0000000000 0.2207888119 0.0000000000
0.0031919055 0.2178417396 0.0000000000
0.0257292704 0.2155195232 0.0000000000
0.0463780935 0.2129223752 0.0000000000
0.0671565734 0.2103144463 0.0000000000
0.0981587999 0.2081135715 0.0000000000
0.1387006059 0.2059508255 0.0000000000
0.1841595000 0.1992727341 0.0000000000
0.2206462560 0.1848620992 0.0000000000
0.2572707306 0.1781995312 0.0000000000
0.2952863663 0.1749686118 0.0000000000
0.3374105461 0.1730225924 0.0070806877
0.3857770558 0.1730933803 0.0289206700
0.4319934659 0.1732141529 0.0473881254
0.4724139935 0.1727951480 0.0557549462
0.5082241069 0.1725022586 0.0565384504
0.5406449053 0.1718834731 0.0512857284
0.5708855374 0.1708603839 0.0433011117
0.6000922361 0.1696108935 0.0329982621
0.6282331326 0.1675158686 0.0217900924
0.6551038303 0.1643564010 0.0111945433
0.6808539039 0.1601653712 0.0043880283
0.7052717800 0.1550714240 0.0008230240
0.7287825972 0.1494297637 0.0000000000
0.7512430723 0.1435051099 0.0000000000
0.7729518488 0.1373382469 0.0000000000
0.7938469595 0.1311992376 0.0000000000
0.8139585028 0.1249654123 0.0000000000
0.8334276434 0.1187351595 0.0000000000
0.8519514067 0.1124073719 0.0000000000
0.8696948273 0.1060712376 0.0000000000
0.8868103570 0.1000418404 0.0000000000
0.0000000000 0.2551910078 0.0000000000
0.0000000000 0.2514527487 0.0000000000
0.0007981107 0.2480943857 0.0000000000
0.0225882032 0.2457154504 0.0000000000
0.0427458424 0.2428534881 0.0000000000
0.0622749899 0.2402488155 0.0000000000
0.0899246708 0.2377439227 0.0000000000
0.1270384009 0.2354061828 0.0000000000
0.1746119217 0.2335551376 0.0000000000
0.2192917061 0.2253849041 0.0000000000
0.2558041026 0.2113420881 0.0000000000
0.2927225731 0.2044772419 0.0000000000
0.3300289702 0.2012470180 0.0015459523
0.3704638198 0.1993163956 0.0101471099
0.4169687878 0.1995266094 0.0294694581
0.4641034805 0.2002402742 0.0491510889
0.5067441685 0.2003678442 0.0615248405
0.5437672559 0.2000572184 0.0658401839
0.5769912553 0.1996262626 0.0639016575
0.6075146280 0.1989477231 0.0575887609
0.6364732054 0.1978309245 0.0489731548
0.6639829545 0.1960485172 0.0388683470
0.6903626263 0.1933808659 0.0280732385
0.7156502864 0.1897366007 0.0173276405
0.7396035043 0.1849817969 0.0090253160
0.7622937634 0.1788757628 0.0041140452
0.7840744976 0.1718971311 0.0016459848
0.8048064705 0.1643382535 0.0000000000
0.8246867121 0.1564901541 0.0000000000
0.8437476604 0.1484261499 0.0000000000
0.8620648773 0.1403548741 0.0000000000
0.8795162622 0.1322844835 0.0000000000
0.8965647978 0.1242213014 0.0000000000
0.0000000000 0.2865548882 0.0000000000
0.0000000000 0.2823797295 0.0000000000
0.0000250714 0.2789536453 0.0000000000
0.0200450551 0.2762373372 0.0000000000
0.0398223872 0.2735059799 0.0000000000
0.0588381248 0.2706990924 0.0000000000
0.0831342483 0.2678081383 0.0000000000
0.1170934428 0.2654295191 0.0000000000
0.1608194401 0.2631654443 0.0000000000
0.2113256479 0.2609507534 0.0000000000
0.2546698836 0.2516932822 0.0000000000
0.2913714378 0.2380613143 0.0007729761
0.3278123192 0.2310308642 0.0036403132
0.3648324979 0.2276567249 0.0075297278
0.4036906014 0.2255753264 0.0146849973
0.4485265682 0.2258617977 0.0304415193
0.4956729903 0.2270528304 0.0500050016
0.5393851715 0.2276581792 0.0655183344
0.5777274938 0.2276592225 0.0734911268
0.6116707223 0.2273583976 0.0744420054
0.6425798718 0.2268332266 0.0703547072
0.6713577329 0.2259240177 0.0633118953
0.6985501852 0.2244325396 0.0545150987
0.7245405710 0.2221361217 0.0441730139
0.7491939853 0.2190123484 0.0338046562
0.7729799553 0.2147762976 0.0236356998
0.7955040415 0.2093197797 0.0148345719
0.8168452520 0.2024657461 0.0091253169
0.8370347284 0.1946095846 0.0053353342
0.8561617538 0.1858550585 0.0032665505
0.8743514007 0.1764789013 0.0015209757
0.8920199865 0.1669161158 0.0000000000
0.9089827800 0.1571947767 0.0000000000
0.0000000000 0.3179789019 0.0000000000
0.0000000000 0.3137635594 0.0000000000
0.0000000000 0.3102432600 0.0000000000
0.0184745373 0.3073990974 0.0000000000
0.0375725394 0.3042631836 0.0000000000
0.0558364519 0.3011645765 0.0000000000
0.0777945510 0.2981867420 0.0000000000
0.1093247624 0.2953912678 0.0000000000
0.1491880289 0.2928800833 0.0000000000
0.1977547935 0.2908115842 0.0000000000
0.2476990610 0.2879013444 0.0021445669
0.2898528332 0.2778175927 0.0047122805
0.3263461021 0.2648752615 0.0062828299
0.3626104089 0.2577105705 0.0091251905
0.3991768369 0.2543313726 0.0130146050
0.4370530466 0.2522456428 0.0194717964
0.4800565899 0.2521245857 0.0327103997
0.5264620311 0.2534850793 0.0513032120
0.5705923320 0.2546649832 0.0683507676
0.6097465180 0.2550785818 0.0793041135
0.6443013553 0.2549966968 0.0831922001
0.6755659934 0.2545901168 0.0814216488
0.7044352876 0.2538298819 0.0761148637
0.7314300144 0.2524253474 0.0685072977
0.7571130624 0.2505316523 0.0596644369
0.7816424793 0.2477165130 0.0500412966
0.8051673971 0.2439110385 0.0403014939
0.8274712473 0.2390348614 0.0308655512
0.8486757508 0.2329170663 0.0224387866
0.8687316502 0.2255280923 0.0156323349
0.8876618985 0.2169508047 0.0110197708
0.9057471814 0.2075072426 0.0074047503
0.9233698610 0.1976355385 0.0040886893
0.0000000000 0.3494633334 0.0000000000
0.0000000000 0.3451932956 0.0000000000
0.0000000000 0.3413620226 0.0000000000
0.0174528076 0.3384131798 0.0000000000
0.0358268382 0.3351538377 0.0000000000
0.0533676011 0.3317989841 0.0000000000
0.0734297604 0.3284651866 0.0000000000
0.1025125566 0.3253805222 0.0000000000
0.1393924241 0.3226375619 0.0000000000
0.1852197378 0.3203046909 0.0000000000
0.2344878054 0.3182710640 0.0037150847
0.2835536263 0.3146662238 0.0079038382
0.3245323951 0.3042024811 0.0106960876
0.3610778934 0.2918619578 0.0122666370
0.3967390645 0.2846568301 0.0149592649
0.4327913869 0.2810129759 0.0188736559
0.4703831488 0.2789494088 0.0242587535
0.5117902809 0.2785692597 0.0359512466
0.5566569783 0.2798930157 0.0529640247
0.6001657430 0.2813755466 0.0703248302
0.6396562585 0.2822160542 0.0828407899
0.6746718337 0.2822947777 0.0888937409
0.7062190860 0.2820631599 0.0896259958
0.7352506012 0.2813835454 0.0865721251
0.7624802338 0.2802303886 0.0808324557
0.7882359350 0.2783632192 0.0736082320
0.8127904549 0.2758428029 0.0650396703
0.8361332022 0.2724325899 0.0560746458
0.8583257961 0.2680285008 0.0470880277
0.8794543900 0.2625328426 0.0380674541
0.8996205970 0.2559832380 0.0299931115
0.9188816105 0.2484737444 0.0227876044
0.9377322185 0.2404746792 0.0159063811
0.0000000000 0.3804512696 0.0000000000
0.0000000000 0.3764511995 0.0000000000
0.0000000000 0.3725982697 0.0000000000
0.0167294052 0.3694049731 0.0000000000
0.0348045078 0.3659263118 0.0000000000
0.0514066275 0.3624334549 0.0000000000
0.0703893582 0.3588375936 0.0000000000
0.0969431701 0.3555080959 0.0000000000
0.1312404014 0.3524374057 0.0000000000
0.1742011052 0.3498078515 0.0012469611
0.2217790522 0.3477103922 0.0052859187
0.2709209093 0.3454441674 0.0094743560
0.3188447970 0.3412748577 0.0138620997
0.3588290574 0.3305143053 0.0161809965
0.3949623164 0.3187526051 0.0181003320
0.4303022704 0.3115115934 0.0208926131
0.4662022676 0.3077203145 0.0243834781
0.5034675009 0.3056126749 0.0297685757
0.5436102200 0.3051146619 0.0396566568
0.5865614074 0.3062286150 0.0552812142
0.6290292515 0.3078353962 0.0719511183
0.6679322179 0.3088704994 0.0851478939
0.7030071361 0.3092262411 0.0927962760
0.7348336513 0.3091141312 0.0956248837
0.7642413636 0.3085505469 0.0947413469
0.7919080537 0.3076159189 0.0912899700
0.8180361266 0.3060602290 0.0859049040
0.8428156881 0.3038287817 0.0794402197
0.8662435453 0.3007521792 0.0716359715
0.8885810031 0.2969595408 0.0633214432
0.9098316974 0.2921814993 0.0539422194
0.9303590841 0.2867382918 0.0453384060
0.9504365138 0.2809171482 0.0361625354
0.0000000000 0.4106299030 0.0000000000
0.0000000000 0.4074214940 0.0000000000
0.0005988044 0.4035831707 0.0000000000
0.0167294052 0.4001878488 0.0000000000
0.0340071558 0.3966103563 0.0000000000
0.0501109464 0.3927610623 0.0000000000
0.0678613541 0.3889462927 0.0000000000
0.0925136935 0.3854624780 0.0000000000
0.1244737224 0.3821817004 0.0004487239
0.1645290236 0.3792751596 0.0035905182
0.2101944325 0.3768752630 0.0075296329
0.2581236317 0.3746501073 0.0115681795
0.3070692175 0.3721932389 0.0154825389
0.3535275521 0.3674489632 0.0193470086
0.3923719027 0.3566225233 0.0216659054
0.4280979495 0.3454046792 0.0236101542
0.4636804919 0.3383197550 0.0263775219
0.4995277539 0.3345069140 0.0298933003
0.5363871028 0.3324450858 0.0357020188
0.5751646175 0.3318196292 0.0447451977
0.6161523968 0.3326602001 0.0585948091
0.6570981586 0.3341473785 0.0742203150
0.6952351360 0.3352160577 0.0870910046
0.7300108101 0.3357172007 0.0958271619
0.7621495319 0.3358275400 0.1003752297
0.7921864946 0.3355939937 0.1020597226
0.8205130394 0.3349404307 0.1013033448
0.8471475666 0.3337191100 0.0984330042
0.8723076883 0.3318848212 0.0934829408
0.8959138273 0.3293298804 0.0869005507
0.9185313384 0.3261579877 0.0791791676
0.9402376804 0.3225032577 0.0703188548
0.9615866368 0.3184624980 0.0613797553
0.0000000000 0.4406001246 0.0000000000
0.0000000000 0.4381319062 0.0000000000
0.0017453219 0.4340246583 0.0000000000
0.0168041451 0.4305289561 0.0000000000
0.0333086983 0.4266646129 0.0000000000
0.0489085004 0.4226483555 0.0000000000
0.0658323747 0.4188377277 0.0000000000
0.0888310466 0.4152196088 0.0010224569
0.1188086032 0.4116427803 0.0035905498
0.1561941032 0.4084248233 0.0061082471
0.2001782755 0.4056783853 0.0098729371
0.2464967415 0.4034153853 0.0134136288
0.2944988153 0.4012511533 0.0173529331
0.3424663013 0.3985380068 0.0212917317
0.3871643913 0.3929201216 0.0244333047
0.4251986171 0.3824390851 0.0267516956
0.4612020299 0.3721100576 0.0291199764
0.4967196333 0.3653110039 0.0318624308
0.5323236113 0.3614946536 0.0357519086
0.5686590222 0.3593661159 0.0417075460
0.6063728213 0.3586159032 0.0504976083
0.6458674468 0.3592234968 0.0629814463
0.6850595086 0.3603845576 0.0773803201
0.7221329601 0.3613906375 0.0896755694
0.7566714520 0.3620734135 0.0991708551
0.7891701836 0.3624105334 0.1059446161
0.8199015887 0.3624907429 0.1101886657
0.8488071463 0.3622069589 0.1120151455
0.8758513518 0.3613714150 0.1112563333
0.9013760676 0.3599981486 0.1080528564
0.9254617559 0.3581363539 0.1026308947
0.9484558751 0.3557686738 0.0958003833
0.9709902997 0.3532341253 0.0880999931
0.0000000000 0.4703938033 0.0011220468
0.0000000000 0.4686896453 0.0011220468
0.0032664241 0.4646625121 0.0003243471
0.0176023823 0.4609853664 0.0003243471
0.0333086983 0.4568645554 0.0011220468
0.0485661007 0.4526979014 0.0017955595
0.0643172163 0.4485293188 0.0029919036
0.0858830891 0.4445523283 0.0045626427
0.1142100449 0.4408355363 0.0067318699
0.1493346632 0.4374801136 0.0090754271
0.1911968740 0.4345318083 0.0122167788
0.2360231979 0.4319825268 0.0157819095
0.2826496341 0.4297468114 0.0194218749
0.3302629592 0.4275597527 0.0233362344
0.3770681830 0.4243970603 0.0268015854
0.4199589841 0.4179964613 0.0298933003
0.4578403789 0.4081915299 0.0322615494
0.4938544145 0.3987988693 0.0342062725
0.5291838404 0.3923337739 0.0373318479
0.5645642943 0.3886197958 0.0418253467
0.6005557246 0.3863548040 0.0476430757
0.6374765663 0.3854825541 0.0566343097
0.6753309611 0.3856944752 0.0684808352
0.7129415977 0.3865370695 0.0814381207
0.7490439997 0.3874273404 0.0937181944
0.7834918805 0.3882333868 0.1041737486
0.8163285856 0.3888541641 0.1130794302
0.8475314464 0.3893321959 0.1195433873
0.8767507598 0.3893381713 0.1234479143
0.9041672421 0.3888902378 0.1244588313
0.9300774184 0.3879878580 0.1228173992
0.9547193561 0.3867335620 0.1192927684
0.9786745658 0.3852573227 0.1146649022
0.0000000000 0.5000220046 0.0058342009
0.0000000000 0.4991273707 0.0058342009
0.0047871469 0.4950430127 0.0054350823
0.0188236713 0.4911454729 0.0050364063
0.0334084779 0.4870235869 0.0058342009
0.0480018524 0.4827241779 0.0058342009
0.0633772768 0.4782986849 0.0072804367
0.0836267917 0.4740291212 0.0085017257
0.1104814918 0.4701869408 0.0104217252
0.1437489314 0.4665590210 0.0127902273
0.1835963899 0.4633883930 0.0153578460
0.2267518790 0.4605681319 0.0184995771
0.2720316376 0.4581899870 0.0216409921
0.3185619299 0.4559835163 0.0252310677
0.3653696830 0.4535184910 0.0287213636
0.4107064766 0.4497064404 0.0323114392
0.4522782641 0.4429104851 0.0346547751
0.4898962671 0.4338340780 0.0369932420
