bundles/resolve-cinematic-luts/Phantom Luts/P4k & P6K Phntm Film LUTs - V6/P6k/Gen 4 Colour/P6k EastmanRM Gen4.cube
TITLE "Generated by Resolve"
LUT_3D_SIZE 5
0.0411231 0.0301671 0.0354467
0.210575 0.0268101 0.0395056
0.474464 0.030869 0.0535592
0.676005 0.0977188 0.13492
0.714702 0.153124 0.237903
0.0561379 0.189975 0.0737469
0.192798 0.205158 0.0502785
0.497658 0.138994 0.0581674
0.738521 0.186679 0.132052
0.757168 0.206165 0.187869
0.0478065 0.482048 0.160189
0.0473945 0.472084 0.054551
0.579049 0.607233 0.1243
0.839338 0.57966 0.25182
0.872755 0.586267 0.296483
0.230854 0.73164 0.474144
0.215579 0.722484 0.419364
0.42565 0.736629 0.308049
0.840101 0.887129 0.527123
0.912383 0.894392 0.646265
0.272862 0.7729 0.56408
0.270604 0.755169 0.482658
0.474907 0.769406 0.380118
0.837888 0.910079 0.594675
0.904921 0.927596 0.727489
0.0435035 0.0436408 0.116258
0.196994 0.037995 0.12137
0.461494 0.0347753 0.122499
0.647562 0.0962844 0.21294
0.700618 0.153903 0.313191
0.0510109 0.179583 0.135454
0.191424 0.205692 0.183948
0.541253 0.105165 0.121569
0.727489 0.14342 0.198062
0.733303 0.164355 0.251698
0.0497292 0.484855 0.261952
0.0456855 0.485969 0.197192
0.574792 0.599756 0.138338
0.848997 0.545144 0.261509
0.871687 0.555032 0.310552
0.2336 0.737102 0.522057
0.218372 0.73431 0.490547
0.372229 0.723217 0.298054
0.835904 0.88191 0.511284
0.914931 0.885756 0.631907
0.285115 0.780301 0.604868
0.283955 0.770291 0.550637
0.414389 0.757397 0.375296
0.820035 0.904784 0.584024
0.904692 0.928512 0.732158
0.0735485 0.0519265 0.324926
0.232151 0.0459907 0.349142
0.473548 0.0505379 0.324468
0.659998 0.127733 0.373098
0.71725 0.186542 0.470832
0.0417182 0.133318 0.275593
0.112139 0.0560006 0.377493
0.485084 0.0670176 0.351308
0.711177 0.1411 0.362768
0.746441 0.190845 0.452491
0.054902 0.485863 0.386481
0.0593729 0.497444 0.42501
0.582101 0.592706 0.561334
0.898482 0.496696 0.512795
0.908492 0.481453 0.519829
0.249226 0.74197 0.594217
0.235065 0.745998 0.600671
0.291264 0.749508 0.507958
0.834638 0.873396 0.577035
0.919158 0.866148 0.654566
0.328786 0.798245 0.671336
0.312337 0.793759 0.661845
0.306477 0.777508 0.553521
0.7514 0.878798 0.592203
0.906203 0.935195 0.767422
0.158694 0.0623331 0.486763
0.285435 0.0688487 0.500908
0.448203 0.0836347 0.504356
0.652399 0.154009 0.547402
0.696773 0.194873 0.614572
0.0441901 0.102953 0.414374
0.187106 0.0662394 0.498695
0.442893 0.0861372 0.512627
0.679591 0.168948 0.568444
0.715175 0.20766 0.629648
0.0453956 0.448127 0.541833
0.0454566 0.441993 0.563317
0.543984 0.441306 0.77734
0.922988 0.499809 0.830228
0.920821 0.490959 0.825727
0.289906 0.744717 0.662257
0.280003 0.750088 0.680674
0.416556 0.778408 0.715068
0.829374 0.857298 0.823789
0.909255 0.844511 0.811078
0.480095 0.839384 0.750988
0.457069 0.835813 0.753216
0.457374 0.834943 0.741558
0.797436 0.914488 0.833066
0.907652 0.947509 0.880568
0.277806 0.0861219 0.535271
0.353323 0.0943923 0.546746
0.487739 0.11426 0.567636
0.691722 0.210834 0.673793
0.751308 0.259205 0.725917
0.155871 0.0775158 0.516854
0.287251 0.0874037 0.537514
0.477958 0.111299 0.565011
0.715373 0.229999 0.696345
0.755886 0.271336 0.737316
0.0705272 0.421653 0.633036
0.0797436 0.40827 0.644511
0.613245 0.393637 0.840085
0.887282 0.464714 0.885588
0.891386 0.46273 0.881468
0.317098 0.744427 0.739376
0.323674 0.745754 0.747875
0.45478 0.76672 0.783642
0.836439 0.828214 0.891096
0.904692 0.838544 0.895323
0.546166 0.858183 0.795117
0.532052 0.856245 0.799039
0.555184 0.862364 0.806256
0.833387 0.932296 0.892866
0.925124 0.954452 0.913603
