bundles/resolve-cinematic-luts/Phantom Luts/P4k & P6K Phntm Film LUTs - V6/P6k/Gen 4 Colour/P6k EastmanRM Gen4.cube
TITLE "Generated by Resolve"
LUT_3D_SIZE 33
0.0411231 0.0301671 0.0354467
0.0412299 0.0300145 0.0352636
0.0433356 0.0298314 0.0355535
0.0547951 0.0292058 0.0361791
0.0797589 0.0286107 0.0366369
0.112337 0.0282444 0.0379797
0.145251 0.0276951 0.038819
0.179446 0.0271916 0.0391394
0.210575 0.0268101 0.0395056
0.240299 0.0267948 0.0406806
0.272312 0.0268559 0.0420081
0.307301 0.0269169 0.0433356
0.342596 0.0272984 0.0437934
0.377554 0.0278325 0.0453803
0.412039 0.0289921 0.0470893
0.443763 0.0297398 0.0501259
0.474464 0.030869 0.0535592
0.503731 0.0328679 0.0579538
0.527016 0.0363622 0.0635996
0.548928 0.0408637 0.0702068
0.572549 0.0459754 0.0777905
0.596429 0.0536355 0.0873274
0.621546 0.0652628 0.0994278
0.6477 0.0808118 0.115221
0.676005 0.0977188 0.13492
0.70547 0.115145 0.155795
0.733974 0.132311 0.176913
0.744656 0.138552 0.185199
0.745098 0.140185 0.189807
0.741894 0.142611 0.197925
0.736416 0.145418 0.207538
0.726055 0.149081 0.222461
0.714702 0.153124 0.237903
0.0412299 0.029984 0.0352483
0.0412451 0.0299535 0.0352483
0.0416876 0.0296483 0.0349584
0.0491951 0.0292363 0.0351873
0.0682689 0.0290379 0.0360113
0.0972763 0.0292668 0.0372473
0.129366 0.0291142 0.0385901
0.162631 0.0287022 0.0393225
0.19704 0.0281071 0.0394903
0.22974 0.0276799 0.0397345
0.263279 0.027451 0.0404974
0.297414 0.0273289 0.0417945
0.332204 0.0272984 0.0425727
0.368414 0.027985 0.0432746
0.403677 0.0294652 0.044419
0.439323 0.030045 0.0471351
0.471916 0.0313573 0.0503395
0.501915 0.033402 0.0544747
0.526192 0.03682 0.06009
0.548089 0.0415198 0.0664836
0.571786 0.0469825 0.0741436
0.596826 0.0555276 0.0835584
0.622095 0.0679332 0.0960098
0.648707 0.0829633 0.111727
0.677775 0.100816 0.131273
0.706981 0.11812 0.152071
0.73547 0.134951 0.172778
0.744671 0.140398 0.180285
0.746349 0.143023 0.185199
0.744366 0.14641 0.194568
0.740459 0.14995 0.205188
0.72987 0.154284 0.220661
0.718029 0.158007 0.23595
0.0416876 0.032578 0.0363775
0.0417029 0.0316625 0.0358282
0.041474 0.030808 0.0354467
0.0448768 0.0314794 0.0356298
0.0581521 0.0311284 0.0358282
0.0853437 0.0306401 0.0363928
0.118471 0.030518 0.0379187
0.149218 0.0301366 0.0393378
0.182025 0.0296025 0.0399939
0.218647 0.0289311 0.0402228
0.25539 0.0281224 0.0400397
0.291905 0.0276341 0.0404517
0.32694 0.0272831 0.0412757
0.361486 0.0276341 0.0418708
0.39617 0.0288548 0.0431983
0.430259 0.0294041 0.0442664
0.46537 0.0306249 0.0471962
0.497261 0.0324712 0.0507362
0.523247 0.0358587 0.0562142
0.54464 0.0401923 0.0622416
0.56791 0.0457313 0.0697337
0.59263 0.0538796 0.0787671
0.617853 0.0663615 0.0899367
0.644556 0.0820935 0.105562
0.672679 0.098909 0.123705
0.702205 0.11635 0.144488
0.732006 0.134035 0.165957
0.738842 0.138109 0.171328
0.741634 0.141207 0.177081
0.73994 0.144884 0.185962
0.736171 0.148974 0.197345
0.725887 0.153719 0.213107
0.714366 0.157992 0.229145
0.0428168 0.0529946 0.0413977
0.0425269 0.0525521 0.0394598
0.0432441 0.0509651 0.0388647
0.0475013 0.050782 0.0383764
0.0610666 0.0512703 0.0388495
0.0885176 0.0463874 0.0381323
0.122072 0.0425727 0.0379644
0.151217 0.0380407 0.0382086
0.178531 0.0352941 0.0385901
0.209995 0.0329442 0.0394751
0.248569 0.031281 0.0399939
0.287922 0.0299382 0.0398413
0.32607 0.028809 0.0399176
0.360021 0.0281987 0.0404212
0.392493 0.0282902 0.0413214
0.424826 0.0292515 0.0430304
0.457633 0.0298619 0.0446784
0.489876 0.0317998 0.048661
0.517189 0.0347143 0.0531319
0.540124 0.0388952 0.0582589
0.563821 0.0436866 0.0646677
0.587304 0.0515755 0.073518
0.611643 0.0630503 0.0834363
0.637934 0.078584 0.097612
0.666026 0.0961776 0.115221
0.695476 0.113863 0.135882
0.724865 0.13048 0.15584
0.731548 0.134844 0.161639
0.733883 0.137728 0.166796
0.732616 0.141466 0.175769
0.728084 0.145281 0.18613
0.717769 0.150042 0.202533
0.706401 0.154971 0.21912
0.044007 0.0840162 0.0475929
0.0434424 0.0838636 0.043122
0.0438239 0.0819867 0.0409857
0.0472572 0.0807965 0.0415351
0.0601663 0.0831464 0.0410315
0.0896162 0.0831159 0.0421607
0.124865 0.0758373 0.0430457
0.156069 0.0671397 0.0413825
0.184924 0.0595712 0.0411841
0.211368 0.0547341 0.0417487
0.245106 0.0501106 0.0415656
0.285588 0.0442206 0.0404517
0.327581 0.0371099 0.0387732
0.363378 0.0339208 0.0387579
0.396277 0.032517 0.0401465
0.426474 0.0315099 0.0415351
0.456657 0.0317082 0.0438392
0.485786 0.0326696 0.0467842
0.511635 0.0350195 0.0507515
0.533654 0.0381323 0.055436
0.55819 0.043061 0.0610666
0.581094 0.0496376 0.0682231
0.606073 0.0608835 0.0778515
0.631678 0.0762798 0.0903487
0.659571 0.0933547 0.106874
0.688746 0.111009 0.125536
0.715297 0.126238 0.144106
0.724819 0.131991 0.1514
0.726864 0.135088 0.156146
0.7252 0.138521 0.16466
0.720974 0.14229 0.174777
0.710323 0.147021 0.190753
0.698009 0.151812 0.206943
0.0462196 0.114687 0.0542763
0.0451362 0.115175 0.0473793
0.0452583 0.113878 0.0440223
0.0480201 0.11281 0.0436103
0.057023 0.114687 0.0451209
0.0841077 0.117296 0.0447547
0.118135 0.115724 0.0463111
0.15108 0.113649 0.0467536
0.187106 0.102663 0.0467689
0.221637 0.0889448 0.0448615
0.253437 0.0760052 0.0437781
0.286183 0.0668498 0.0441444
0.323217 0.0609598 0.0435035
0.36112 0.0551614 0.0432593
0.398337 0.0504158 0.0424811
0.43299 0.0450599 0.0420081
0.463355 0.0409857 0.0424659
0.490166 0.0403601 0.0448463
0.514855 0.04094 0.0496071
0.535317 0.0432136 0.0549477
0.558877 0.0476692 0.0604868
0.580072 0.0535286 0.0670787
0.601617 0.0623026 0.0751507
0.626596 0.0769207 0.0849928
0.655238 0.0939498 0.100557
0.684825 0.111818 0.118578
0.709819 0.126299 0.13576
0.721233 0.133669 0.145052
0.723491 0.136339 0.149126
0.721843 0.139452 0.15639
0.717586 0.14258 0.165255
0.706493 0.147143 0.180713
0.694057 0.151827 0.196536
0.0491646 0.141711 0.0621958
0.0479896 0.142596 0.0529183
0.0471656 0.141436 0.0471199
0.0504005 0.139681 0.045243
0.0607156 0.138567 0.0452277
0.0865492 0.141451 0.0464942
0.132006 0.142153 0.0448615
0.167452 0.138872 0.0462196
0.204471 0.135149 0.0465553
0.244343 0.12578 0.0456855
0.281209 0.112367 0.0457313
0.309712 0.0994888 0.0444343
0.339483 0.0876783 0.0447547
0.370977 0.0812085 0.044831
0.404654 0.0760357 0.0448615
0.438529 0.0727855 0.0451209
0.470512 0.0701152 0.0464179
0.499168 0.069337 0.0490883
0.526238 0.06804 0.0519722
0.550805 0.0660105 0.0552987
0.573541 0.0679637 0.0606241
0.594934 0.0735943 0.0681773
0.617044 0.0809033 0.078584
0.641245 0.0932784 0.0910658
0.666133 0.10692 0.105974
0.690455 0.120897 0.120623
0.714748 0.134722 0.136309
0.726848 0.142382 0.145068
0.72903 0.144717 0.147478
0.728389 0.147173 0.15227
0.726589 0.149828 0.158389
0.720073 0.153368 0.168963
0.712978 0.156817 0.179538
0.0553597 0.164523 0.0668498
0.0519112 0.166125 0.0576638
0.0500801 0.165927 0.0495918
0.0501106 0.164416 0.0466926
0.0568856 0.163577 0.0466621
0.079469 0.165042 0.0479286
0.114153 0.170199 0.0497292
0.161761 0.171191 0.0487373
0.201862 0.16614 0.0487373
0.248707 0.15938 0.0487831
0.291936 0.152255 0.0473487
0.327993 0.140871 0.0471962
0.359777 0.125826 0.0482185
0.384329 0.116243 0.0479286
0.412955 0.105974 0.0483406
0.445441 0.102846 0.049012
0.479896 0.100771 0.0503395
0.512657 0.10016 0.0525521
0.543267 0.10219 0.0566262
0.572992 0.10695 0.0632639
0.600916 0.112612 0.0714427
0.627161 0.119875 0.0816052
0.651545 0.122515 0.0895705
0.673915 0.126879 0.0982681
0.697536 0.137606 0.113344
0.720119 0.148623 0.128923
0.739925 0.158297 0.143282
0.74963 0.163577 0.151568
0.749783 0.164279 0.152255
0.747784 0.165286 0.154513
0.743511 0.166476 0.159335
0.734585 0.167956 0.167758
0.724468 0.169741 0.176669
0.0561379 0.189975 0.0737469
0.052369 0.191653 0.0644236
0.0497749 0.191684 0.052903
0.0493019 0.190448 0.0478523
0.0502632 0.189395 0.0473487
0.062974 0.189746 0.0476081
0.0973526 0.194919 0.049485
0.136492 0.202472 0.0501411
0.192798 0.205158 0.0502785
0.243305 0.199161 0.0507362
0.296483 0.191638 0.0514534
0.342504 0.185962 0.0504616
0.381033 0.174899 0.0509499
0.414313 0.158541 0.0534218
0.44033 0.148531 0.0538796
0.466178 0.141146 0.0550851
0.497658 0.138994 0.0581674
0.530907 0.138521 0.0615244
0.565866 0.141344 0.0655528
0.600839 0.145907 0.0720073
0.633433 0.151949 0.0801862
0.663294 0.158999 0.0909743
0.69041 0.167391 0.103517
0.715496 0.176898 0.117189
0.738521 0.186679 0.132052
0.759854 0.196414 0.147601
0.779187 0.203296 0.161181
0.786007 0.204364 0.165606
0.785092 0.203174 0.16524
0.782238 0.202655 0.166979
0.776974 0.20264 0.170413
0.767468 0.204028 0.178897
0.757168 0.206165 0.187869
0.0541848 0.217868 0.0780041
0.0507362 0.219532 0.0697948
0.0483711 0.219715 0.057496
0.0476234 0.218494 0.0475166
0.0475319 0.217487 0.0452277
0.0501411 0.217197 0.045182
0.069337 0.221134 0.0463569
0.110826 0.230564 0.0497444
0.159365 0.242832 0.0513619
0.232776 0.24686 0.0522927
0.28809 0.240879 0.0533761
0.344961 0.233387 0.0547951
0.394522 0.228046 0.0545663
0.436744 0.217899 0.0547494
0.473152 0.20264 0.0584421
0.503731 0.190494 0.0638437
0.529793 0.187274 0.0673686
0.558694 0.184878 0.0727398
0.591562 0.186862 0.0783093
0.627008 0.190326 0.0843824
0.661997 0.195361 0.0910048
0.694636 0.201556 0.0994125
0.722972 0.208942 0.109194
0.749096 0.217624 0.121843
0.770825 0.226764 0.134997
0.79086 0.236881 0.14966
0.808621 0.247257 0.165591
0.814633 0.250782 0.171618
0.814282 0.250141 0.171679
0.811612 0.250126 0.173754
0.806928 0.250858 0.178012
0.79704 0.253101 0.187442
0.786297 0.255802 0.197772
0.053315 0.250217 0.0831769
0.0499275 0.251774 0.0759136
0.0475776 0.25243 0.0649119
0.0467842 0.251179 0.0523995
0.0462348 0.247547 0.0433051
0.0462501 0.246525 0.0430457
0.0523995 0.250446 0.0438239
0.080827 0.259815 0.0471962
0.127749 0.27277 0.050782
0.189883 0.289097 0.0531472
0.280201 0.29366 0.0550088
0.336965 0.288304 0.0566262
0.396872 0.280598 0.0575875
0.447395 0.274311 0.0569924
0.492393 0.265812 0.0573892
0.529137 0.2542 0.0609751
0.563241 0.240558 0.0712596
0.59147 0.237232 0.0782635
0.620356 0.23772 0.084947
0.650339 0.239216 0.0921035
0.681926 0.242664 0.0984512
0.714153 0.248157 0.106233
0.743877 0.255131 0.114168
0.770748 0.263325 0.123873
0.793561 0.272084 0.135622
0.813138 0.281758 0.149294
0.830304 0.292119 0.165576
0.835523 0.295216 0.171267
0.836072 0.295354 0.171771
0.833616 0.295735 0.174243
0.82919 0.296818 0.178546
0.819135 0.299565 0.18819
0.808362 0.302632 0.19939
0.052903 0.285695 0.0899214
0.0497139 0.287297 0.0840162
0.0473487 0.287861 0.0740215
0.0463417 0.286656 0.0608072
0.0461738 0.284504 0.0488594
0.0459602 0.280888 0.0421912
0.0459297 0.28043 0.0420539
0.0579995 0.28867 0.0436561
0.0941787 0.301747 0.0476844
0.143511 0.31754 0.0511635
0.225391 0.337407 0.0540475
0.326726 0.343084 0.0569467
0.387884 0.337591 0.0595254
0.449775 0.330571 0.0600748
0.500999 0.324941 0.0593881
0.545037 0.319127 0.0604562
0.583413 0.310231 0.064683
0.619501 0.295415 0.0785077
0.649882 0.290776 0.087953
0.677531 0.2925 0.0965438
0.703777 0.296452 0.104616
0.731121 0.30074 0.113054
0.757656 0.306035 0.121172
0.782712 0.313359 0.130053
0.805859 0.322362 0.141268
0.824628 0.331121 0.154269
0.841398 0.340734 0.170703
0.846937 0.344228 0.176822
0.847623 0.345113 0.177707
0.846113 0.345724 0.179431
0.842649 0.346929 0.183398
0.834852 0.349386 0.192493
0.825025 0.352605 0.20296
0.051667 0.323186 0.0965744
0.0488899 0.324453 0.0924239
0.0466926 0.325292 0.0838331
0.0458991 0.324849 0.0712444
0.0454719 0.322484 0.0560464
0.0458534 0.318074 0.044358
0.0461585 0.315847 0.0402838
0.049012 0.317891 0.0402075
0.070985 0.329107 0.0416724
0.115557 0.344305 0.0451209
0.173373 0.36376 0.0487373
0.27393 0.388388 0.0545052
0.377997 0.394293 0.0591592
0.439994 0.39028 0.0643473
0.502403 0.384314 0.0661784
0.551095 0.380118 0.0670329
0.594736 0.375998 0.0697948
0.633677 0.369512 0.0763409
0.669459 0.3552 0.0881056
0.700313 0.349584 0.101442
0.726162 0.350622 0.111894
0.749584 0.354788 0.121691
0.772 0.361135 0.131731
0.792599 0.367895 0.141238
0.812299 0.37409 0.1523
0.830762 0.381567 0.166278
0.845991 0.390066 0.181079
0.853254 0.393988 0.189914
0.853895 0.394553 0.190707
0.852689 0.395117 0.192065
0.850828 0.395941 0.194034
0.844846 0.398093 0.201495
0.837125 0.400839 0.211582
0.0498207 0.360998 0.103273
0.0475929 0.362234 0.0984512
0.0460822 0.363119 0.0918593
0.0454719 0.362997 0.0804303
0.0450904 0.36173 0.0659037
0.0450752 0.358175 0.0506142
0.045594 0.353399 0.0404364
0.0458381 0.351904 0.0382544
0.0535439 0.35845 0.0381323
0.0847181 0.372076 0.0398108
0.135485 0.38909 0.0430915
0.211536 0.413657 0.0484321
0.324514 0.441505 0.0576486
0.430198 0.44802 0.0650034
0.491234 0.44509 0.0732433
0.55169 0.440772 0.0776532
0.59942 0.437675 0.0818341
0.639963 0.435004 0.0881514
0.677806 0.429679 0.0973373
0.711772 0.417197 0.108049
0.741253 0.410574 0.119814
0.76492 0.409827 0.132509
0.785443 0.412879 0.145464
0.80383 0.418128 0.157824
0.820859 0.42472 0.171481
0.836103 0.431739 0.184604
0.850202 0.437827 0.199084
0.858518 0.442206 0.208911
0.858824 0.442649 0.209064
0.858518 0.443381 0.210178
0.857618 0.444389 0.211627
0.853254 0.446235 0.217472
0.846571 0.44889 0.227039
0.0476692 0.399924 0.112016
0.0461738 0.401282 0.109422
0.0450904 0.402411 0.104524
0.0446784 0.402365 0.0928359
0.0443732 0.401541 0.0786755
0.0445563 0.399771 0.0625925
0.0446784 0.395514 0.0484779
0.0455177 0.390814 0.0386664
0.0460822 0.390188 0.0369726
0.0614328 0.401068 0.0366522
0.105364 0.417029 0.0390021
0.16585 0.436576 0.0432746
0.257923 0.466163 0.0531167
0.378897 0.495811 0.0661784
0.481956 0.502739 0.0771649
0.5402 0.501106 0.0882277
0.599283 0.497887 0.0957198
0.645457 0.496071 0.104402
0.681987 0.494713 0.116213
0.714855 0.489967 0.12781
0.745617 0.47953 0.137682
0.772168 0.471229 0.147448
0.794278 0.468696 0.160281
0.812345 0.469734 0.17583
0.828061 0.473381 0.193469
0.841535 0.478096 0.207141
0.853819 0.483894 0.220935
0.86305 0.488991 0.232059
0.863218 0.489357 0.232074
0.86305 0.489952 0.232242
0.863142 0.490776 0.233112
0.860075 0.492561 0.238071
0.85417 0.495186 0.247013
0.0467994 0.440665 0.130266
0.0456397 0.442344 0.129107
0.0449378 0.443458 0.124651
0.0446632 0.443503 0.11339
0.0445563 0.44303 0.0982376
0.0446784 0.441886 0.0803693
0.0447852 0.438743 0.0635386
0.045304 0.434195 0.0490425
0.0460822 0.429755 0.0391089
0.0508431 0.433127 0.0370794
0.0815442 0.447333 0.0379492
0.13817 0.463752 0.0420844
0.212436 0.486564 0.0505989
0.312825 0.520684 0.0660563
0.43621 0.549905 0.0837262
0.532494 0.556405 0.0971542
0.587457 0.55491 0.110414
0.644526 0.552132 0.12047
0.687831 0.550851 0.132799
0.720668 0.550301 0.149645
0.748791 0.546777 0.166384
0.775006 0.537682 0.18088
0.797711 0.529137 0.190219
0.818082 0.525338 0.201389
0.834592 0.524697 0.213413
0.849027 0.526741 0.22768
0.860792 0.529427 0.243015
0.868879 0.533242 0.254108
0.87042 0.534783 0.256794
0.870771 0.535348 0.257404
0.87126 0.536156 0.258106
0.868849 0.537881 0.262257
0.863371 0.54052 0.271153
0.0478065 0.482048 0.160189
0.0466163 0.483955 0.161135
0.0458076 0.485405 0.158541
0.0455024 0.485603 0.147967
0.0453651 0.484855 0.132296
0.0456855 0.483436 0.111208
0.0459449 0.481453 0.0896162
0.0463417 0.477623 0.0710155
0.0473945 0.472084 0.054551
0.0496681 0.468925 0.0439002
0.068864 0.478676 0.0419623
0.118624 0.493355 0.0438392
0.189548 0.511727 0.0513313
0.269093 0.538476 0.0651102
0.37705 0.575631 0.0895399
0.493233 0.600931 0.109331
0.579049 0.607233 0.1243
0.631525 0.606104 0.138354
0.684535 0.603632 0.148836
0.725643 0.603281 0.168017
0.75613 0.602838 0.193729
0.781018 0.599908 0.216648
0.803388 0.59234 0.235279
0.822583 0.584772 0.244282
0.839338 0.57966 0.25182
0.854139 0.57818 0.260029
0.866651 0.578119 0.270329
0.875837 0.57882 0.279271
0.879835 0.580377 0.282872
0.880186 0.581247 0.283009
0.880278 0.582391 0.283436
0.877989 0.583978 0.288228
0.872755 0.586267 0.296483
0.0514382 0.523598 0.19881
0.0500649 0.526009 0.202319
0.0491646 0.527749 0.202625
0.0485847 0.527855 0.194568
0.0479591 0.527108 0.180346
0.0480964 0.525383 0.158953
0.0485695 0.522667 0.132433
0.049424 0.518929 0.106294
0.0504921 0.513878 0.0835126
0.0524605 0.508492 0.0655222
0.0631418 0.510201 0.0543221
0.105058 0.524041 0.0526741
0.173556 0.538506 0.0569162
0.24921 0.559853 0.068513
0.334676 0.590906 0.0906233
0.442588 0.627817 0.120653
0.546609 0.649836 0.139925
0.62298 0.655756 0.15697
0.672038 0.655024 0.173541
0.721004 0.652415 0.187152
0.759167 0.652247 0.214603
0.787762 0.652827 0.246632
0.809506 0.650385 0.270436
0.828656 0.644724 0.290257
0.844312 0.636973 0.30219
0.858106 0.633036 0.308675
0.869825 0.631342 0.314031
0.879408 0.630945 0.320165
0.884321 0.63093 0.323796
0.884535 0.631632 0.323186
0.884947 0.632853 0.324056
0.883574 0.634623 0.328038
0.880232 0.637125 0.335256
0.0597696 0.563745 0.24538
0.0576181 0.566201 0.24892
0.05626 0.567926 0.250629
0.0552529 0.568154 0.244633
0.0543679 0.567254 0.233326
0.0538491 0.565011 0.214405
0.0540017 0.562158 0.190387
0.0551156 0.55816 0.161135
0.0567788 0.552789 0.131899
0.0593881 0.547265 0.103746
0.0679026 0.544732 0.0813001
0.100587 0.552422 0.0697032
0.162448 0.564569 0.0688029
0.236851 0.58201 0.0772869
0.314015 0.608072 0.096788
0.402457 0.642344 0.126543
0.506386 0.677119 0.157336
0.598642 0.695781 0.177539
0.664057 0.701122 0.199893
0.708659 0.700526 0.220737
0.752346 0.697993 0.238392
0.787884 0.69807 0.268482
0.814343 0.698222 0.299321
0.834897 0.697139 0.323964
0.851118 0.692546 0.343084
0.864744 0.685481 0.358724
0.875746 0.682094 0.366903
0.8851 0.680949 0.37293
0.889769 0.681285 0.375769
0.89073 0.682246 0.375952
0.891051 0.683604 0.376852
0.890517 0.685191 0.379904
0.888838 0.687083 0.384878
0.073518 0.599786 0.294377
0.0712749 0.601617 0.296773
0.0688334 0.603723 0.299367
0.0673381 0.60444 0.295308
0.066041 0.60412 0.286366
0.0658274 0.602274 0.271
0.0654459 0.598718 0.249683
0.0661021 0.593973 0.2224
0.0668956 0.58851 0.193072
0.0694285 0.582223 0.160967
0.0768444 0.576715 0.125673
0.104067 0.578622 0.098909
0.161563 0.588983 0.0899825
0.227649 0.603174 0.0935988
0.303181 0.625727 0.110521
0.379828 0.654902 0.137636
0.467887 0.69015 0.171252
0.564416 0.721096 0.202182
0.647486 0.736965 0.224506
0.702052 0.741817 0.249195
0.741421 0.741299 0.269749
0.779706 0.739559 0.292134
0.811994 0.738918 0.32224
0.836316 0.738933 0.350408
0.855222 0.739055 0.374777
0.870817 0.736217 0.395422
0.883009 0.730159 0.413367
0.892103 0.727565 0.424796
0.897246 0.727184 0.429694
0.899046 0.727642 0.431266
0.899596 0.72874 0.431922
0.899489 0.730175 0.433539
0.899046 0.731746 0.436088
0.097612 0.633982 0.340276
0.0955215 0.63537 0.341543
0.0918746 0.637324 0.344823
0.0896468 0.637888 0.342702
0.0874037 0.637522 0.336141
0.086183 0.635477 0.323018
0.0850233 0.632547 0.304707
0.0851453 0.628229 0.280797
0.0863355 0.622354 0.251575
0.0875563 0.615488 0.219928
0.0942245 0.60914 0.184237
0.116182 0.605097 0.145892
0.165209 0.610376 0.124498
0.226856 0.623285 0.122957
0.293919 0.641352 0.134218
0.366461 0.666789 0.156924
0.442512 0.69781 0.187411
0.531044 0.733806 0.222873
0.61912 0.760479 0.251179
0.688991 0.773449 0.273259
0.735759 0.777798 0.2981
0.769619 0.778012 0.320989
0.802518 0.776959 0.347799
0.831556 0.776257 0.377203
0.855024 0.776394 0.40351
0.873365 0.776318 0.426612
0.887953 0.774639 0.446784
0.899474 0.770199 0.466377
0.905837 0.76875 0.477989
0.908415 0.76907 0.480262
0.909514 0.770047 0.478264
0.911238 0.770825 0.475288
0.911986 0.771527 0.473442
0.133547 0.660807 0.368704
0.130892 0.662226 0.370504
0.127443 0.664195 0.374853
0.123903 0.665324 0.374945
0.121386 0.665171 0.37055
0.11989 0.663615 0.35906
0.118639 0.660761 0.34287
0.1178 0.656443 0.320912
0.118242 0.650401 0.293614
0.12018 0.644038 0.263066
0.125704 0.636728 0.229221
0.140139 0.630701 0.190173
0.183703 0.632837 0.16376
0.239185 0.643351 0.156313
0.299825 0.659052 0.162509
0.366293 0.680858 0.180209
0.437781 0.709377 0.20763
0.512489 0.741741 0.238972
0.597543 0.774563 0.270756
0.674113 0.796078 0.294102
0.730007 0.805798 0.314229
0.770794 0.809049 0.337514
0.799588 0.810025 0.367239
0.827573 0.809674 0.396857
0.853742 0.808927 0.423606
0.875471 0.808591 0.447211
0.892607 0.80853 0.468177
0.906065 0.807568 0.488365
0.91458 0.804791 0.510536
0.915816 0.805386 0.517891
0.916289 0.806485 0.5187
0.917556 0.807279 0.517754
0.918761 0.808026 0.515938
0.168963 0.686748 0.405463
0.166415 0.687922 0.4065
0.162539 0.689769 0.41088
0.15938 0.69073 0.412009
0.156435 0.690715 0.408392
0.15462 0.689082 0.398413
0.152605 0.686168 0.383566
0.151278 0.682307 0.363272
0.150362 0.677546 0.339284
0.152163 0.670695 0.310857
0.157076 0.6636 0.279744
0.169314 0.657816 0.244587
0.205325 0.657862 0.216419
0.251713 0.664485 0.203098
0.304616 0.676493 0.203754
0.3617 0.692958 0.216175
0.423896 0.715099 0.238041
0.488579 0.742504 0.265858
0.565332 0.77612 0.29897
0.646357 0.806653 0.328862
0.712489 0.825437 0.350515
0.759136 0.834455 0.370947
0.797345 0.838544 0.396414
0.82211 0.839719 0.429709
0.846113 0.839658 0.458808
0.868559 0.839384 0.483986
0.88777 0.8392 0.505821
0.903304 0.839094 0.525628
0.914458 0.839292 0.54493
0.918074 0.839231 0.556115
0.918578 0.840208 0.558587
0.918898 0.841199 0.55787
0.920073 0.841611 0.554955
0.202731 0.709575 0.438575
0.200946 0.710201 0.43856
0.19678 0.711772 0.442847
0.193561 0.712596 0.443366
0.190097 0.712871 0.440513
0.187961 0.711559 0.432303
0.186191 0.709148 0.419821
0.185122 0.705516 0.402564
0.18378 0.700801 0.38088
0.184131 0.695705 0.356603
0.188373 0.688975 0.32752
0.201251 0.683253 0.296239
0.232517 0.683314 0.26862
0.2701 0.686503 0.249561
0.316564 0.695155 0.245701
0.366903 0.707713 0.25388
0.420111 0.724544 0.271427
0.477333 0.746059 0.297444
0.538689 0.772824 0.327337
0.615381 0.807019 0.363134
0.688609 0.834806 0.391623
0.745983 0.851637 0.413077
0.785443 0.860456 0.434318
0.82002 0.864408 0.460868
0.842176 0.866529 0.494224
0.861967 0.866941 0.521553
0.88069 0.867109 0.544472
0.897017 0.86714 0.565042
0.909819 0.867674 0.583917
0.916075 0.867872 0.596902
0.915999 0.868742 0.599145
0.915816 0.869398 0.599313
0.916503 0.869902 0.598581
0.230854 0.73164 0.474144
0.230411 0.731624 0.472099
0.227756 0.732311 0.472877
0.224247 0.733013 0.47274
0.2215 0.732845 0.469688
0.219486 0.731624 0.462379
0.217899 0.729397 0.451591
0.216892 0.726513 0.437339
0.215579 0.722484 0.419364
0.215869 0.717708 0.398077
0.22005 0.712428 0.372747
0.233616 0.708003 0.344091
0.261326 0.707179 0.318212
0.292042 0.707729 0.296117
0.332601 0.713527 0.288151
0.378149 0.723659 0.293187
0.42565 0.736629 0.308049
0.475654 0.753735 0.330831
0.529961 0.775433 0.360372
0.59147 0.802991 0.393866
0.661814 0.834241 0.429084
0.726375 0.859251 0.456626
0.775433 0.874388 0.478248
0.809155 0.882506 0.499825
0.840101 0.887129 0.527123
0.859785 0.890043 0.558434
0.876509 0.891203 0.583658
0.89102 0.8916 0.606256
0.904067 0.891905 0.626078
0.912978 0.892119 0.642069
0.912627 0.892836 0.643809
0.912459 0.893568 0.645411
0.912383 0.894392 0.646265
0.253819 0.752209 0.510597
0.253941 0.751904 0.506996
0.253452 0.751644 0.503655
0.252308 0.751324 0.500465
0.250751 0.750973 0.497124
0.249302 0.749905 0.490898
0.248371 0.748379 0.48246
0.247272 0.745678 0.470298
0.245747 0.742016 0.454139
0.245289 0.737408 0.434989
0.25124 0.733715 0.412421
0.266941 0.731121 0.388098
0.289967 0.729793 0.364248
0.316304 0.729168 0.343145
0.350256 0.732128 0.331319
0.39263 0.739757 0.333837
0.437385 0.750957 0.347234
0.483635 0.765332 0.368475
0.533028 0.783246 0.396933
0.582956 0.80412 0.427512
0.643244 0.831205 0.462943
0.706523 0.859632 0.496757
0.763867 0.881651 0.524102
0.804059 0.894667 0.544961
0.831357 0.901839 0.566262
0.857496 0.906676 0.593027
0.87422 0.909911 0.622461
0.887984 0.912245 0.647684
0.899916 0.913481 0.670115
0.908583 0.914382 0.68751
0.909087 0.915236 0.690455
0.908873 0.915938 0.692195
0.908751 0.916503 0.693248
0.267964 0.763455 0.531075
0.267781 0.763088 0.528313
0.267292 0.76257 0.524865
0.266987 0.761776 0.520073
0.266224 0.761227 0.515404
0.265309 0.760037 0.509117
0.263874 0.758282 0.500359
0.262547 0.755688 0.488472
0.261448 0.752438 0.474052
0.262272 0.748516 0.455573
0.271229 0.746792 0.43621
0.290242 0.746914 0.417029
0.312917 0.746914 0.398245
0.338521 0.746685 0.382422
