bundles/resolve-cinematic-luts/Phantom Luts/P4k & P6K Phntm Film LUTs - V6/P6k/Gen 4 Colour/P6k Eterna Gen4.cube
TITLE "Generated by Resolve"
LUT_3D_SIZE 9
0 0.0286717 0.0283818
0.0794842 0.0324407 0.0434424
0.169986 0.0419318 0.063859
0.285145 0.061265 0.10045
0.448875 0.0938888 0.152956
0.61799 0.142809 0.207797
0.769497 0.195148 0.263432
0.802487 0.208347 0.285985
0.822293 0.209552 0.302937
0.0115969 0.0780957 0.0549477
0.0539101 0.0765087 0.0397345
0.166476 0.0597696 0.0479438
0.282216 0.0638743 0.0702983
0.443656 0.0956436 0.115984
0.628611 0.14757 0.18114
0.781018 0.204959 0.243046
0.800855 0.217365 0.258289
0.821515 0.222797 0.273274
0.0459144 0.210697 0.130404
0.0379339 0.229862 0.0648508
0.201282 0.222171 0.0648966
0.354681 0.196689 0.0862593
0.507149 0.192706 0.120958
0.68249 0.218341 0.164843
0.806149 0.256123 0.220417
0.814832 0.259922 0.225895
0.816922 0.25745 0.227192
0.0508736 0.37792 0.212894
0.0292058 0.412314 0.172213
0.0383307 0.418006 0.0593271
0.367163 0.415641 0.0632944
0.592844 0.41912 0.0918898
0.763195 0.43238 0.187533
0.874907 0.458274 0.249668
0.897322 0.463188 0.265248
0.895735 0.45771 0.2636
0.0526284 0.622202 0.354284
0.0378576 0.650538 0.337881
0.0421759 0.668971 0.273106
0.153094 0.65684 0.0976272
0.583352 0.657206 0.153933
0.771923 0.661189 0.228534
0.899336 0.663081 0.315541
0.935363 0.667491 0.338399
0.93431 0.658335 0.332494
0.170718 0.810819 0.526894
0.159121 0.82768 0.516609
0.153536 0.836698 0.47686
0.16463 0.831724 0.345815
0.446281 0.839597 0.241703
0.759518 0.831159 0.28246
0.884443 0.827848 0.405402
0.948257 0.819974 0.473655
0.948837 0.810117 0.463447
0.258671 0.913191 0.643778
0.257862 0.917494 0.631662
0.260227 0.920638 0.606134
0.268315 0.924681 0.537316
0.425147 0.936202 0.436667
0.682933 0.934279 0.467842
0.889265 0.932967 0.537438
0.954253 0.930694 0.646097
0.954849 0.925414 0.630976
0.257984 0.918257 0.670375
0.265492 0.916442 0.655329
0.272679 0.915892 0.630854
0.277745 0.919646 0.578012
0.389181 0.940902 0.494774
0.618692 0.944289 0.507668
0.853574 0.944823 0.583688
0.953765 0.952056 0.712245
0.960327 0.955276 0.749432
0.256641 0.919829 0.685634
0.257496 0.919829 0.671351
0.263645 0.918578 0.64921
0.268177 0.921202 0.60322
0.337163 0.93576 0.513527
0.54107 0.945541 0.490547
0.774716 0.944396 0.556344
0.940948 0.952056 0.674846
0.959411 0.955749 0.749523
0.0110781 0.0302892 0.0722667
0.0913863 0.0345617 0.0781415
0.178927 0.0423285 0.100862
0.290562 0.0524605 0.136995
0.455573 0.0771344 0.184405
0.620951 0.123888 0.238392
0.774304 0.176715 0.293645
0.814191 0.196384 0.318685
0.832395 0.199435 0.337209
0.00834669 0.0612802 0.0577096
0.0461433 0.0537118 0.060502
0.184909 0.0515297 0.0802014
0.306615 0.0629282 0.110796
0.470008 0.0921798 0.160632
0.651453 0.139513 0.222171
0.800626 0.197772 0.281376
0.818402 0.206043 0.298726
0.832807 0.208301 0.314977
0.0414893 0.19675 0.152377
0.03505 0.210376 0.127764
0.197543 0.216419 0.073579
0.356939 0.176761 0.0981613
0.507988 0.176562 0.130907
0.687495 0.200229 0.181598
0.807904 0.236393 0.238087
0.816251 0.238422 0.245472
0.819989 0.234104 0.249882
0.0455024 0.361257 0.239689
0.0310369 0.3888 0.218601
0.0361028 0.414176 0.101534
0.364736 0.411261 0.0765698
0.59501 0.406683 0.113451
0.759411 0.420996 0.195865
0.877333 0.445167 0.256031
0.90016 0.450523 0.271183
0.898238 0.443503 0.269642
0.0465248 0.601663 0.374502
0.0309148 0.624399 0.361181
0.0349737 0.646494 0.298466
0.115663 0.650538 0.118471
0.573495 0.649073 0.160739
0.768139 0.654185 0.229786
0.896132 0.657938 0.319158
0.935485 0.660746 0.344305
0.934295 0.650324 0.337819
0.162692 0.795483 0.543023
0.149569 0.810803 0.534066
0.142153 0.819608 0.491051
0.148333 0.819867 0.348089
0.423911 0.834699 0.240208
0.754208 0.826719 0.279957
0.882933 0.822965 0.401953
0.948043 0.815167 0.473808
0.948363 0.805692 0.464363
0.254108 0.908568 0.664408
0.254307 0.912184 0.652491
0.253758 0.916182 0.622797
0.260899 0.920165 0.543267
0.408957 0.933608 0.433326
0.670512 0.932845 0.461357
0.886122 0.930602 0.528344
0.953567 0.928038 0.63888
0.954513 0.92311 0.626001
0.261646 0.91722 0.695567
0.271992 0.914229 0.680476
0.275074 0.914 0.653666
0.276677 0.918898 0.592493
0.381399 0.940017 0.498314
0.607782 0.944427 0.507439
0.845533 0.944579 0.582025
0.95317 0.952163 0.71136
0.960235 0.955444 0.750423
0.262165 0.918395 0.710735
0.266743 0.917128 0.696773
0.268116 0.917067 0.674022
0.269795 0.919203 0.621912
0.328145 0.934157 0.518791
0.53608 0.945678 0.49369
0.762783 0.944381 0.554742
0.939483 0.952361 0.672358
0.959731 0.955779 0.750988
0.0450141 0.0336614 0.153201
0.115404 0.0387579 0.163241
0.199527 0.0455329 0.14963
0.303014 0.0546426 0.167315
0.449454 0.0737774 0.211444
0.610636 0.112001 0.267216
0.765469 0.162661 0.325216
0.818372 0.188556 0.35938
0.837079 0.19086 0.385412
0.0116732 0.0664836 0.11429
0.0245212 0.0378271 0.158495
0.201923 0.0496223 0.156619
0.314565 0.0599832 0.167773
0.466361 0.0782635 0.212009
0.6374 0.12192 0.270939
0.794476 0.177295 0.332708
0.826963 0.194705 0.362219
0.843153 0.196963 0.386908
0.04094 0.191531 0.172641
0.0379034 0.197711 0.183398
0.205051 0.206867 0.203738
0.394751 0.180987 0.202197
0.557046 0.165072 0.217823
0.702052 0.183383 0.257954
0.819654 0.217029 0.304189
0.830289 0.218585 0.319142
0.838727 0.214817 0.334768
0.0463111 0.347158 0.268101
0.0327764 0.367605 0.274372
0.0327611 0.38468 0.22707
0.362371 0.406363 0.114168
0.613092 0.382498 0.180484
0.765072 0.389792 0.231968
0.891493 0.415122 0.292149
0.911086 0.415473 0.307805
0.910323 0.404562 0.309636
0.0474098 0.573388 0.405661
0.0299229 0.592371 0.409201
0.0259709 0.610513 0.36878
0.0634623 0.639124 0.172091
0.562127 0.634302 0.175067
0.765484 0.633005 0.238224
0.894621 0.637995 0.330785
0.93669 0.639933 0.358328
0.935225 0.627207 0.352514
0.154223 0.771878 0.573175
0.140932 0.78265 0.569879
0.128771 0.786648 0.531823
0.122469 0.794461 0.397833
0.374487 0.82388 0.251194
0.739986 0.813687 0.282856
0.880659 0.808377 0.395819
0.948745 0.802182 0.475898
0.947997 0.792813 0.466575
0.246815 0.893782 0.694545
0.24802 0.896819 0.687099
0.245441 0.898161 0.658854
0.23592 0.902251 0.574624
0.358038 0.925063 0.42771
0.640589 0.927749 0.444739
0.878035 0.924346 0.507347
0.951705 0.921477 0.622232
0.953384 0.916365 0.614191
0.276051 0.913848 0.735576
0.273259 0.914717 0.72607
0.283604 0.911376 0.700359
0.275883 0.915282 0.641138
0.334829 0.933501 0.51632
0.583535 0.944472 0.508354
0.825879 0.944091 0.57792
0.951171 0.952422 0.706615
0.960815 0.955474 0.752697
0.271839 0.916487 0.750286
0.269368 0.91725 0.741314
0.27779 0.914702 0.720058
0.280842 0.914244 0.671427
0.290517 0.924941 0.555062
0.512566 0.945876 0.499702
0.739361 0.944564 0.552636
0.933822 0.952255 0.661723
0.96022 0.955932 0.753796
0.089601 0.0391852 0.251591
0.145113 0.043122 0.272709
0.22446 0.0480659 0.250385
0.332357 0.0605936 0.233875
0.471366 0.0764477 0.259785
0.621561 0.106935 0.312337
0.764736 0.153231 0.371664
0.819516 0.179706 0.415503
0.83653 0.179812 0.452537
0.0107881 0.057908 0.21091
0.0382239 0.0396582 0.254612
0.210391 0.0473945 0.281834
0.340978 0.0632639 0.24892
0.474876 0.0785534 0.267842
0.628748 0.109377 0.326375
0.779736 0.15964 0.393332
0.825238 0.181582 0.438499
0.841154 0.180941 0.478447
0.0408179 0.183108 0.221683
0.0323644 0.177218 0.256245
0.129778 0.150744 0.328389
0.394018 0.131334 0.304631
0.525048 0.130419 0.302663
0.646372 0.129 0.333837
0.793362 0.173434 0.393637
0.832944 0.193713 0.43386
0.84593 0.194217 0.465904
0.0471656 0.336843 0.296269
0.0352178 0.354086 0.316243
0.0587167 0.366644 0.331823
0.383642 0.390875 0.370169
0.639216 0.363653 0.369482
0.80972 0.354849 0.388922
0.920562 0.35761 0.416831
0.922896 0.347921 0.429175
0.921447 0.334585 0.437385
0.0559091 0.551614 0.439139
0.0541543 0.571237 0.459861
0.0740673 0.581872 0.456474
0.102007 0.603571 0.389059
0.551537 0.620111 0.294896
0.781186 0.601434 0.360159
0.907637 0.59971 0.389349
0.944137 0.593256 0.412482
0.943328 0.574151 0.408988
0.155749 0.750927 0.604166
0.145403 0.758877 0.61059
0.138384 0.75761 0.594369
0.119188 0.758785 0.522011
0.299611 0.814466 0.329519
0.724193 0.795514 0.31986
0.884215 0.784176 0.408118
0.947936 0.779828 0.487098
0.947188 0.770077 0.481437
0.255604 0.873259 0.725155
0.242817 0.879362 0.727275
0.240558 0.875715 0.708247
0.229587 0.872145 0.648188
0.249485 0.897597 0.490333
0.572122 0.920439 0.423941
0.859495 0.912917 0.468727
0.949584 0.907912 0.60119
0.953719 0.902281 0.604074
0.297505 0.913817 0.778668
0.285008 0.916259 0.776791
0.294987 0.912306 0.759548
0.295003 0.911833 0.716014
0.285664 0.91928 0.605936
0.519326 0.94493 0.518074
0.779675 0.943679 0.572381
0.949294 0.951934 0.696803
0.964279 0.954482 0.759258
0.295262 0.920027 0.794018
0.290593 0.9196 0.789578
0.285023 0.918044 0.776272
0.297871 0.912139 0.737102
0.283803 0.917754 0.652857
0.436439 0.944549 0.522362
0.69546 0.944335 0.551354
0.917144 0.950469 0.638926
0.960967 0.956313 0.760021
0.15967 0.0470588 0.384848
0.197162 0.0498665 0.410986
0.276783 0.0540169 0.408225
0.374609 0.0615854 0.36495
0.505882 0.0773327 0.359686
0.641825 0.10251 0.387488
0.768231 0.148943 0.434653
0.810117 0.168353 0.476265
0.831235 0.171954 0.517571
0.0269017 0.0492714 0.329366
0.0933394 0.0426795 0.371054
0.229557 0.0515755 0.409674
0.364935 0.0594186 0.390204
0.507698 0.0846265 0.365667
0.642542 0.101869 0.401526
0.78204 0.153674 0.4598
0.818998 0.173114 0.508293
0.8309 0.171252 0.554391
0.0367285 0.147066 0.301839
0.0275273 0.133532 0.338598
0.0606699 0.0758679 0.387961
0.345464 0.0583963 0.428183
0.5196 0.0927138 0.388388
0.641184 0.108125 0.408988
0.78114 0.158999 0.469001
0.821729 0.181384 0.517494
0.831571 0.179934 0.558419
0.0485084 0.323827 0.353277
0.0361639 0.334005 0.388403
0.0363012 0.334661 0.432792
0.284398 0.338689 0.551217
0.648661 0.306203 0.53286
0.799146 0.304158 0.524926
0.898604 0.288304 0.542931
0.910048 0.284749 0.561242
0.908705 0.273426 0.579355
0.0634623 0.537072 0.471489
0.0611887 0.552316 0.49456
0.0851453 0.56321 0.509102
0.175158 0.577234 0.526146
0.560449 0.582361 0.552178
0.786542 0.565362 0.554726
0.914504 0.563073 0.574823
0.948714 0.552728 0.58294
0.947799 0.530831 0.582406
0.184375 0.732509 0.632441
0.17261 0.742687 0.645823
0.182742 0.741802 0.643641
0.203662 0.738613 0.620813
0.39823 0.769299 0.594675
0.71017 0.768719 0.519738
0.883711 0.753765 0.571267
0.950866 0.756863 0.576638
0.950744 0.746075 0.56997
0.275776 0.863432 0.749844
0.266423 0.871046 0.757259
0.26508 0.869047 0.749004
0.268666 0.857496 0.713558
0.325368 0.879164 0.662409
0.564675 0.907225 0.568765
0.851637 0.896086 0.575128
0.954696 0.889464 0.640604
0.95761 0.884337 0.64828
0.347082 0.9243 0.818112
0.338003 0.92723 0.820554
0.318257 0.927489 0.813535
0.315022 0.919982 0.782971
0.317266 0.918669 0.720394
0.504005 0.943572 0.64181
0.744976 0.942641 0.612009
0.945815 0.95169 0.70016
0.966247 0.957504 0.795239
0.372717 0.92755 0.832013
0.363272 0.93019 0.833402
0.343359 0.931044 0.827298
0.329366 0.92517 0.80206
0.320806 0.918441 0.746395
0.422721 0.94081 0.664424
0.67425 0.946639 0.607736
0.899458 0.949264 0.644312
0.963394 0.958618 0.788602
0.229282 0.055024 0.508812
0.254551 0.0569009 0.53611
0.322683 0.0603952 0.549096
0.430365 0.0647135 0.531685
0.552987 0.0834669 0.499397
0.664393 0.100526 0.49041
0.765072 0.14139 0.518914
0.796109 0.159792 0.54229
0.809125 0.159136 0.576547
0.135271 0.0484016 0.465858
0.171923 0.0511635 0.500999
0.268025 0.057145 0.53254
0.403159 0.0637827 0.54226
0.547524 0.0813458 0.520974
0.670237 0.105211 0.505852
0.766674 0.142046 0.537346
0.793317 0.158022 0.569467
0.805173 0.155444 0.613535
0.0339513 0.102525 0.396963
0.0328222 0.0943923 0.440909
0.0945144 0.0471809 0.476997
0.341009 0.0609751 0.53959
0.540322 0.0810254 0.548882
0.671168 0.116243 0.510811
0.758328 0.144961 0.534981
0.793271 0.165164 0.574594
0.803098 0.162371 0.619501
0.0514687 0.303883 0.452201
0.0403296 0.30721 0.48838
0.0411688 0.30338 0.525551
0.198566 0.285985 0.629404
0.59823 0.220401 0.686961
0.786892 0.237781 0.622827
0.877317 0.252872 0.614496
0.886671 0.251423 0.624414
0.871031 0.22829 0.639353
0.053727 0.527184 0.529976
0.0313726 0.535988 0.554635
0.0401923 0.542321 0.580133
0.124025 0.54316 0.627451
0.481041 0.549935 0.712261
0.791745 0.519585 0.693202
0.910979 0.518944 0.682719
0.948913 0.496361 0.691341
0.94754 0.470771 0.707591
0.189822 0.722759 0.657481
0.171954 0.728084 0.668925
0.177752 0.725978 0.671138
0.203464 0.721645 0.666545
0.442176 0.740093 0.696452
0.710002 0.73286 0.703929
0.888197 0.721187 0.703578
0.953811 0.716823 0.716136
0.952926 0.709529 0.718013
0.303426 0.853513 0.772442
0.286702 0.85922 0.779904
0.284947 0.855772 0.77586
0.299458 0.846494 0.758724
0.427909 0.857343 0.755932
0.62388 0.869551 0.744793
0.844953 0.872694 0.702647
0.949722 0.867948 0.740185
0.957122 0.867491 0.745403
0.425116 0.924743 0.843488
0.397513 0.932326 0.852293
0.377981 0.932845 0.849271
0.361883 0.928008 0.830304
0.405829 0.925872 0.807248
0.595026 0.93637 0.796902
0.765499 0.947585 0.753628
0.949401 0.950301 0.786786
0.972839 0.952514 0.830884
0.432135 0.93257 0.863966
0.426657 0.935241 0.867964
0.415396 0.93698 0.866377
0.395804 0.935882 0.852293
0.401816 0.931136 0.823835
0.566461 0.937484 0.812833
0.737865 0.948837 0.786862
0.896712 0.94992 0.775296
0.968688 0.959747 0.839979
0.292607 0.0624857 0.604562
0.308797 0.0637217 0.627512
0.36405 0.0670481 0.644038
0.463752 0.0716716 0.647135
0.584817 0.0788434 0.633433
0.688472 0.110536 0.60293
0.760433 0.139879 0.600549
0.767025 0.147555 0.60647
0.78851 0.150103 0.637308
0.222049 0.0578164 0.568719
0.241413 0.0588846 0.600412
0.315557 0.0639353 0.628229
0.42623 0.0699474 0.647974
0.573587 0.0787213 0.647181
0.692866 0.115297 0.625299
0.774701 0.151019 0.618769
0.784741 0.157794 0.634745
0.8038 0.162371 0.667613
0.0630655 0.0913558 0.514061
0.073228 0.0844739 0.546761
0.179934 0.0548409 0.582696
0.354055 0.0655833 0.630411
0.543328 0.0765545 0.652476
0.691035 0.117876 0.645685
0.770016 0.152773 0.615763
0.7832 0.164004 0.632547
0.802945 0.170016 0.665843
0.0554055 0.288304 0.5523
0.047303 0.285771 0.587411
0.0548104 0.270878 0.610376
0.140002 0.232166 0.657832
0.514076 0.154421 0.722026
0.70901 0.156146 0.700252
0.800519 0.186984 0.630198
0.818479 0.19736 0.641505
0.830762 0.197498 0.673014
0.0628367 0.520989 0.619852
0.0504616 0.524605 0.648112
0.0566415 0.520638 0.668162
0.10193 0.511666 0.705409
0.401556 0.513375 0.804868
0.768643 0.462074 0.837186
0.917372 0.466407 0.768231
0.946792 0.467063 0.759319
0.944518 0.437766 0.780285
0.188418 0.714687 0.699504
0.157031 0.718059 0.713817
0.154925 0.710475 0.716167
0.180789 0.705348 0.727703
0.354971 0.716731 0.780148
0.652323 0.710185 0.8215
0.887144 0.685863 0.806271
0.953689 0.68159 0.798138
0.953307 0.665873 0.801953
0.316121 0.845167 0.789029
0.288243 0.850782 0.79733
0.281285 0.84448 0.793591
0.289906 0.834577 0.784146
0.381964 0.84242 0.791638
0.651194 0.846845 0.813352
0.840803 0.846235 0.823072
0.952209 0.840452 0.824491
0.959991 0.839109 0.832074
0.443275 0.921859 0.862409
0.409064 0.927855 0.869856
0.390234 0.926101 0.866743
0.389441 0.91989 0.854765
0.433951 0.921462 0.847852
0.661707 0.92697 0.862943
0.801114 0.934951 0.862745
0.947265 0.94168 0.854185
0.970703 0.941878 0.880186
0.496925 0.930907 0.882063
0.475303 0.938125 0.892363
0.46717 0.940276 0.894545
0.459068 0.939925 0.887556
0.454383 0.939254 0.874128
0.651362 0.941909 0.884337
0.794949 0.947753 0.890684
0.901122 0.955016 0.873213
0.970962 0.962478 0.91281
0.349355 0.0698405 0.67248
0.360601 0.0712749 0.689448
0.405295 0.0747387 0.702571
0.479912 0.0800336 0.710185
0.596582 0.090898 0.704051
0.70779 0.123232 0.710079
0.774166 0.144808 0.700801
0.777401 0.149004 0.700053
0.784512 0.15436 0.703197
0.294926 0.0654917 0.654459
0.305699 0.0669566 0.67129
0.364981 0.0715038 0.691371
0.446571 0.0774853 0.707134
0.578454 0.0890669 0.710307
0.709056 0.127916 0.726879
0.779706 0.152621 0.722698
0.785336 0.158083 0.726284
0.793667 0.162234 0.736171
0.12871 0.0704509 0.59736
0.149065 0.0686809 0.624186
0.254398 0.0637522 0.659297
0.373999 0.0719158 0.691173
0.539254 0.0848707 0.710765
0.697429 0.128145 0.735973
0.787411 0.16257 0.735286
0.788693 0.166659 0.727779
0.796399 0.167041 0.73959
0.0746471 0.269184 0.646311
0.0824903 0.265003 0.669154
0.102785 0.241291 0.685054
0.135988 0.179858 0.684123
0.442557 0.0940261 0.713466
0.652277 0.123812 0.73521
0.779812 0.160693 0.725551
0.790555 0.169696 0.698299
0.806317 0.174319 0.71487
0.0930037 0.52076 0.713054
0.0932784 0.522316 0.734539
0.102205 0.512383 0.751431
0.117205 0.491051 0.770962
0.337179 0.472175 0.873335
0.734844 0.412314 0.919524
0.907561 0.403113 0.892714
0.936675 0.39379 0.834165
0.937346 0.387198 0.836789
0.170443 0.706828 0.752605
0.156573 0.707698 0.768215
0.154681 0.697261 0.774151
0.168124 0.684047 0.788418
0.308507 0.681163 0.843763
0.599069 0.684062 0.896529
0.869596 0.646159 0.913878
0.953063 0.642237 0.860883
0.951415 0.644999 0.860456
0.316228 0.842283 0.821042
0.289769 0.845396 0.830777
0.281025 0.837217 0.828824
0.27982 0.824475 0.824369
0.323491 0.819532 0.835737
0.583658 0.831632 0.874601
0.790997 0.830198 0.903273
0.946593 0.815366 0.892195
0.957626 0.812634 0.887129
0.44686 0.914427 0.870573
0.40441 0.92372 0.883009
0.394568 0.920806 0.880644
0.38793 0.912612 0.869856
0.404868 0.906111 0.861173
0.623102 0.919219 0.886748
0.806073 0.926741 0.908354
0.931563 0.931273 0.919142
0.973312 0.928176 0.917556
0.527337 0.935119 0.90135
0.5066 0.941466 0.910246
0.501625 0.943221 0.912169
0.499489 0.942809 0.908843
0.495323 0.942245 0.902464
0.661677 0.947524 0.91809
0.827863 0.953628 0.934401
0.916304 0.959457 0.941588
0.978012 0.962692 0.945144
0.400671 0.0771191 0.716304
0.406821 0.0776226 0.717983
0.428855 0.0791028 0.720424
0.482643 0.0832532 0.725109
0.592355 0.0951553 0.728374
0.7037 0.121248 0.745113
0.808667 0.186023 0.804395
0.812238 0.189929 0.806592
0.81323 0.191562 0.803037
0.360052 0.0738231 0.707073
0.372824 0.0752728 0.712657
0.398611 0.0769665 0.716899
0.453391 0.0809033 0.722789
0.56817 0.0917372 0.72781
0.695781 0.119081 0.743404
0.810437 0.188586 0.807996
0.817502 0.19736 0.815229
0.820432 0.200778 0.81706
0.226612 0.0638437 0.669261
0.258122 0.0670329 0.684779
0.317479 0.0716106 0.702647
0.390372 0.076524 0.715831
0.526482 0.0873884 0.727138
0.673594 0.114 0.740063
0.810208 0.188281 0.80766
0.821515 0.202197 0.819074
0.824826 0.20679 0.822675
0.129046 0.243839 0.718227
0.145861 0.240818 0.733761
0.174411 0.213352 0.741665
0.208316 0.15111 0.726787
0.413275 0.0781109 0.719142
0.61355 0.104738 0.737148
0.797955 0.186069 0.806882
0.82501 0.206088 0.819821
0.826459 0.205661 0.813382
0.141833 0.524071 0.795438
0.154879 0.52398 0.809415
0.167452 0.513588 0.824887
0.178607 0.486946 0.839704
0.302678 0.431678 0.900771
0.691417 0.361868 0.936431
0.872251 0.342245 0.92314
0.913405 0.337819 0.912444
0.911803 0.327733 0.895369
0.202716 0.716167 0.830213
0.208865 0.712413 0.838575
0.214923 0.703151 0.846738
0.222553 0.684215 0.855222
0.283101 0.654582 0.885145
0.559472 0.652277 0.943526
0.842512 0.61146 0.948455
0.946944 0.601511 0.946426
0.947112 0.588937 0.933852
0.284459 0.843458 0.865599
0.280415 0.838087 0.868147
0.278401 0.830076 0.870085
0.283772 0.817578 0.873838
0.325399 0.800229 0.889036
0.536278 0.80766 0.925765
0.753643 0.808804 0.941802
0.933349 0.788113 0.948425
0.948669 0.785885 0.938643
0.416617 0.92256 0.903548
0.408057 0.921233 0.905486
0.402502 0.916655 0.903838
0.392874 0.908049 0.899016
0.393164 0.896315 0.89398
0.544381 0.906752 0.916686
0.758984 0.915221 0.935714
0.900374 0.922438 0.950118
0.959091 0.919264 0.949065
0.522194 0.945174 0.92665
0.524392 0.945403 0.927718
0.526131 0.94551 0.927749
0.526177 0.945403 0.925505
0.521553 0.944579 0.92018
0.608698 0.94815 0.928328
0.811414 0.954818 0.945022
0.927443 0.962203 0.958618
0.968154 0.968719 0.967559
