bundles/resolve-cinematic-luts/Phantom Luts/P4k & P6K Phntm Film LUTs - V6/P6k/Gen 4 Colour/P6k Eastman Gen4.cube
TITLE "Generated by Resolve"
LUT_3D_SIZE 5
0.0390021 0.0390021 0.0390021
0.179873 0.0390021 0.0390021
0.39826 0.0589303 0.0457771
0.594781 0.131914 0.116686
0.685191 0.170336 0.181476
0.0653544 0.182223 0.0906996
0.194491 0.199313 0.0683909
0.457404 0.173831 0.0830854
0.656504 0.242634 0.13254
0.725231 0.286168 0.171069
0.133242 0.53901 0.293797
0.124743 0.512261 0.151675
0.513634 0.552605 0.13959
0.735348 0.567437 0.221424
0.820615 0.575463 0.288457
0.257847 0.815869 0.538262
0.231556 0.772229 0.424796
0.47306 0.767559 0.325811
0.717311 0.772396 0.326253
0.827405 0.772625 0.431022
0.300923 0.871183 0.614939
0.285267 0.843351 0.530282
0.467872 0.82443 0.431449
0.701564 0.832517 0.431083
0.840452 0.843732 0.526329
0.0396277 0.0390021 0.118608
0.189593 0.0390021 0.130739
0.393957 0.0390021 0.146944
0.57319 0.087953 0.223606
0.663951 0.148882 0.294209
0.0560922 0.171542 0.138949
0.210697 0.206882 0.203906
0.497826 0.146624 0.152499
0.674571 0.183551 0.194339
0.720088 0.208209 0.221897
0.137407 0.545022 0.365301
0.12874 0.525048 0.293095
0.507698 0.544381 0.159625
0.755703 0.538079 0.263966
0.822675 0.537667 0.30985
0.263554 0.819776 0.588602
0.24538 0.794064 0.521843
0.412879 0.759777 0.323903
0.706584 0.760555 0.304799
0.830686 0.757 0.427497
0.312947 0.886381 0.663584
0.300526 0.871656 0.606912
0.410025 0.824338 0.44416
0.667445 0.833814 0.443687
0.830518 0.845884 0.527062
0.0813611 0.0452888 0.315465
0.239536 0.0390021 0.313939
0.403189 0.0390021 0.309499
0.559121 0.0754864 0.365072
0.644388 0.135256 0.432746
0.0390021 0.120134 0.28275
0.146456 0.0589151 0.362219
0.416846 0.0522774 0.326009
0.588724 0.0977188 0.368811
0.674601 0.154681 0.426657
0.13341 0.553368 0.455116
0.153887 0.555886 0.465537
0.56144 0.58201 0.562524
0.778912 0.492302 0.502068
0.823972 0.453559 0.471427
0.292821 0.829633 0.662989
0.294362 0.817029 0.643748
0.407858 0.789471 0.579721
0.71928 0.773251 0.506645
0.848081 0.745357 0.503227
0.358907 0.913725 0.739467
0.334142 0.902846 0.715618
0.326223 0.880644 0.624094
0.609873 0.844694 0.517891
0.830381 0.85774 0.552285
0.172625 0.0467384 0.44593
0.292821 0.0390021 0.445548
0.43328 0.0476387 0.432868
0.574075 0.0983597 0.470634
0.632227 0.133898 0.520012
0.0390021 0.0806744 0.386053
0.20618 0.0457618 0.460197
0.426307 0.0489662 0.442023
0.586938 0.108827 0.482948
0.650843 0.147768 0.52665
0.114366 0.532708 0.572106
0.126574 0.51902 0.587701
0.557671 0.487907 0.752407
0.787091 0.454734 0.693233
0.822599 0.419608 0.675166
0.307668 0.830137 0.717678
0.314565 0.81973 0.71191
0.491554 0.819867 0.740826
0.770123 0.798642 0.770672
0.87921 0.746426 0.731502
0.467063 0.942443 0.814282
0.452155 0.937835 0.801831
0.456138 0.932403 0.781521
0.683406 0.907622 0.786511
0.878187 0.917357 0.760174
0.273732 0.0553445 0.516808
0.354437 0.0558328 0.515328
0.478355 0.0734112 0.512612
0.627512 0.143175 0.576333
0.689937 0.185199 0.62591
0.134218 0.0640421 0.495827
0.292653 0.0556954 0.520272
0.465156 0.0704356 0.51397
0.64062 0.155474 0.593591
0.70132 0.194461 0.6365
0.144884 0.513085 0.661372
0.144442 0.483146 0.664363
0.6094 0.407584 0.823606
0.800778 0.40325 0.776547
0.826505 0.389914 0.762173
0.331395 0.824704 0.788052
0.335195 0.808804 0.78938
0.497856 0.795468 0.839872
0.789532 0.745663 0.879866
0.883543 0.724758 0.845762
0.494377 0.952239 0.853971
0.472435 0.942535 0.842481
0.50486 0.942519 0.847364
0.750179 0.929717 0.878691
0.907027 0.930449 0.899794
