bundles/resolve-cinematic-luts/Phantom Luts/P4k & P6K Phntm Film LUTs - V6/P6k/Gen 4 Colour/P6k Eterna Gen4.cube
TITLE "Generated by Resolve"
LUT_3D_SIZE 33
0 0.0286717 0.0283818
0 0.0285344 0.0277104
0.0187228 0.0287327 0.0307774
0.0499886 0.0303655 0.0377356
0.0794842 0.0324407 0.0434424
0.104814 0.0344091 0.0488594
0.127108 0.0366979 0.0538491
0.147707 0.0387732 0.0582437
0.169986 0.0419318 0.063859
0.194568 0.046128 0.0706645
0.221271 0.0506447 0.0788128
0.250721 0.0554208 0.0889906
0.285145 0.061265 0.10045
0.323781 0.0675059 0.112276
0.365515 0.0750286 0.125765
0.409506 0.0834821 0.139574
0.448875 0.0938888 0.152956
0.488914 0.106233 0.167346
0.530571 0.118135 0.181704
0.573892 0.129747 0.194553
0.61799 0.142809 0.207797
0.660761 0.154391 0.221805
0.702098 0.167178 0.237217
0.738277 0.180438 0.25127
0.769497 0.195148 0.263432
0.792294 0.205814 0.275196
0.794766 0.206348 0.278874
0.798428 0.207462 0.282155
0.802487 0.208347 0.285985
0.807233 0.208927 0.29012
0.811856 0.208957 0.294041
0.817014 0.209339 0.29836
0.822293 0.209552 0.302937
0 0.0285039 0.0276341
0 0.0285039 0.0276036
0.00794995 0.0285801 0.0278477
0.0367742 0.0297704 0.0306096
0.0683909 0.0320897 0.0354467
0.0970932 0.0347295 0.0412299
0.12256 0.037644 0.0469215
0.145541 0.0405127 0.0525826
0.16846 0.0439307 0.0577859
0.193347 0.0480354 0.063798
0.220127 0.052842 0.0702068
0.24979 0.0587167 0.0784161
0.283864 0.064683 0.0893263
0.322744 0.0720378 0.102647
0.36585 0.0802014 0.117113
0.412238 0.0894484 0.131945
0.457786 0.10042 0.14728
0.496956 0.113207 0.162448
0.539437 0.125536 0.177081
0.58352 0.136675 0.190951
0.62771 0.149569 0.204318
0.670176 0.16144 0.218296
0.709895 0.174075 0.232273
0.746151 0.188067 0.246677
0.776715 0.202014 0.260197
0.795651 0.211612 0.2701
0.798337 0.21265 0.272999
0.800763 0.21323 0.275303
0.804593 0.21387 0.278798
0.808743 0.214298 0.282429
0.813458 0.214511 0.28629
0.818173 0.214588 0.290105
0.823087 0.214496 0.294057
0 0.0292363 0.0286564
0 0.0294957 0.028687
0.00149538 0.0287327 0.0279088
0.0224918 0.0305486 0.0287327
0.0529793 0.0324559 0.0320745
0.0843061 0.0356146 0.0377356
0.112718 0.0389258 0.0438544
0.138537 0.0419165 0.0497902
0.163363 0.0449378 0.0550851
0.189425 0.0483864 0.0606546
0.21677 0.0525826 0.0657511
0.245563 0.0572061 0.0710918
0.279728 0.063798 0.07953
0.318379 0.0717937 0.0915999
0.362142 0.0809186 0.106569
0.410117 0.0912032 0.122728
0.457206 0.102754 0.138872
0.499504 0.115496 0.154986
0.543435 0.128389 0.170855
0.589822 0.140642 0.185595
0.635157 0.152804 0.200168
0.678721 0.165423 0.214923
0.718486 0.178378 0.228962
0.753491 0.19263 0.243519
0.784527 0.207279 0.258167
0.798337 0.214252 0.265843
0.801404 0.2159 0.268742
0.804623 0.217288 0.271794
0.807904 0.218357 0.274983
0.811597 0.218967 0.278248
0.815564 0.21886 0.281514
0.82005 0.218982 0.285176
0.824781 0.218936 0.289189
0.00364691 0.0430304 0.0363317
0.00340276 0.0446021 0.0328069
0.00636301 0.0413062 0.0311894
0.0187686 0.0407111 0.0307927
0.0436255 0.041474 0.0309758
0.0764477 0.0407263 0.0348363
0.106783 0.0417182 0.0399176
0.134997 0.043473 0.0457618
0.161456 0.0459449 0.0521401
0.188617 0.0493019 0.0588083
0.216846 0.0529946 0.0644541
0.246433 0.0569924 0.0688334
0.278813 0.0623484 0.0742199
0.315541 0.0691691 0.0827802
0.356939 0.0775311 0.0947433
0.403906 0.0880293 0.110414
0.450767 0.099855 0.127565
0.494408 0.112947 0.144717
0.539696 0.125994 0.161059
0.587625 0.138811 0.176684
0.634958 0.152132 0.192447
0.679561 0.165026 0.207645
0.719585 0.178302 0.222278
0.755138 0.193027 0.237598
0.786175 0.208301 0.252674
0.797177 0.214374 0.259419
0.801007 0.217075 0.262837
0.805447 0.219974 0.266438
0.809293 0.222217 0.26981
0.813962 0.223789 0.273503
0.817777 0.224094 0.276692
0.82211 0.224109 0.280217
0.82649 0.223987 0.283696
0.0115969 0.0780957 0.0549477
0.0110018 0.0808728 0.0468605
0.012665 0.0808576 0.0390631
0.0281987 0.0754559 0.0388495
0.0539101 0.0765087 0.0397345
0.0841077 0.0744793 0.042237
0.114733 0.067689 0.0442206
0.141512 0.0617533 0.0454719
0.166476 0.0597696 0.0479438
0.192844 0.0594644 0.0531319
0.220264 0.0591897 0.0583505
0.249836 0.0609751 0.0643015
0.282216 0.0638743 0.0702983
0.316762 0.0679789 0.0768444
0.355642 0.0749065 0.0873579
0.399435 0.0839246 0.100114
0.443656 0.0956436 0.115984
0.485283 0.107881 0.13193
0.532219 0.120989 0.149157
0.580377 0.134035 0.165133
0.628611 0.14757 0.18114
0.673472 0.161181 0.196872
0.713695 0.174868 0.212222
0.749554 0.189731 0.227863
0.781018 0.204959 0.243046
0.788525 0.209323 0.248127
0.792844 0.212528 0.251804
0.797116 0.215198 0.255116
0.800855 0.217365 0.258289
0.805692 0.219547 0.261799
0.810727 0.22092 0.265599
0.816068 0.221988 0.269154
0.821515 0.222797 0.273274
0.0196994 0.114092 0.0744793
0.0190585 0.118227 0.0639811
0.0190127 0.1205 0.0495155
0.0251011 0.117311 0.0461891
0.0530251 0.112703 0.0466163
0.0911879 0.11426 0.0484321
0.123033 0.113802 0.0510262
0.153964 0.105776 0.0541848
0.18088 0.0949722 0.0569467
0.206104 0.0877394 0.0583658
0.232471 0.0839857 0.0607309
0.261204 0.0819409 0.0642405
0.29192 0.0800336 0.0689097
0.325567 0.07953 0.0756085
0.362829 0.0826429 0.0852369
0.404135 0.0881208 0.0961166
0.445457 0.0960098 0.108766
0.481819 0.10573 0.123125
0.52546 0.117159 0.136751
0.573205 0.130266 0.152804
0.620539 0.143709 0.168444
0.665202 0.157443 0.183917
0.706294 0.171969 0.200122
0.741665 0.186725 0.215625
0.770626 0.200809 0.229969
0.781109 0.206607 0.236027
0.784863 0.209247 0.239048
0.787778 0.211063 0.241443
0.79176 0.213199 0.244358
0.795911 0.215122 0.247425
0.800824 0.216098 0.250813
0.806668 0.217182 0.254246
0.812421 0.218006 0.258152
0.0271305 0.148348 0.093431
0.0267796 0.153796 0.0817121
0.0265354 0.157549 0.0634318
0.0269932 0.157015 0.0532235
0.0417639 0.152529 0.0522621
0.0836957 0.150134 0.0532082
0.130358 0.149355 0.0544747
0.162051 0.150057 0.0561532
0.194629 0.142687 0.0605631
0.222843 0.130526 0.0646525
0.249012 0.119173 0.0682078
0.275578 0.11191 0.0712291
0.304677 0.10985 0.0754406
0.336828 0.109545 0.0806897
0.372503 0.110002 0.0876173
0.411399 0.111589 0.0962539
0.454231 0.116121 0.108064
0.49308 0.123247 0.122042
0.536324 0.131884 0.135424
0.577661 0.139452 0.148302
0.61767 0.147662 0.160754
0.659739 0.16051 0.173693
0.699535 0.174746 0.188647
0.734768 0.189334 0.203738
0.76231 0.202426 0.21738
0.775845 0.209522 0.224537
0.778759 0.211612 0.226871
0.78117 0.213062 0.228626
0.78436 0.214862 0.230793
0.787915 0.216358 0.233402
0.792035 0.217624 0.236042
0.795956 0.21825 0.238163
0.80058 0.218952 0.241138
0.0392462 0.178637 0.110491
0.0370947 0.185046 0.0996262
0.0350958 0.190875 0.0816052
0.0343175 0.193515 0.0648814
0.0349889 0.192142 0.0577859
0.0585184 0.187427 0.0579385
0.111498 0.186496 0.0594186
0.165209 0.185061 0.0610666
0.198489 0.184634 0.0619516
0.234791 0.18056 0.0644541
0.268482 0.169924 0.0706188
0.298894 0.15494 0.0785687
0.328328 0.147555 0.0841382
0.360159 0.144259 0.0902571
0.395163 0.145464 0.0961471
0.434485 0.148196 0.104204
0.477287 0.152514 0.114168
0.521798 0.158907 0.126421
0.5664 0.165408 0.13904
0.608759 0.17174 0.150561
0.649516 0.178836 0.163012
0.687373 0.186938 0.176165
0.720745 0.196582 0.189578
0.750332 0.207309 0.203387
0.773907 0.217365 0.215579
0.785641 0.223423 0.221897
0.78735 0.225483 0.222248
0.788647 0.226902 0.222507
0.790127 0.227466 0.223377
0.791775 0.227573 0.224765
0.793591 0.22742 0.226169
0.796628 0.227497 0.22771
0.800061 0.22771 0.229206
0.0459144 0.210697 0.130404
0.0430152 0.217609 0.120882
0.0394598 0.224292 0.104509
0.0379492 0.228702 0.082887
0.0379339 0.229862 0.0648508
0.0419013 0.226871 0.0618753
0.0772412 0.223484 0.0625772
0.140505 0.223545 0.0639048
0.201282 0.222171 0.0648966
0.237552 0.221317 0.0657511
0.276692 0.219165 0.0664073
0.31751 0.208743 0.0750591
0.354681 0.196689 0.0862593
0.388968 0.187472 0.0966201
0.424506 0.186099 0.10425
0.464317 0.187716 0.112306
0.507149 0.192706 0.120958
0.552163 0.198535 0.13167
0.597375 0.204852 0.142245
0.641001 0.211231 0.153384
0.68249 0.218341 0.164843
0.719982 0.226398 0.177401
0.753201 0.235645 0.191226
0.781979 0.245624 0.205966
0.806149 0.256123 0.220417
0.815518 0.260487 0.226169
0.815244 0.260304 0.226047
0.814954 0.260044 0.22594
0.814832 0.259922 0.225895
0.814542 0.259297 0.225818
0.814771 0.25861 0.226017
0.815534 0.257847 0.226459
0.816922 0.25745 0.227192
0.0511025 0.245563 0.149752
0.0471351 0.252476 0.141665
0.0428016 0.259937 0.128298
0.0403906 0.266056 0.107607
0.0400092 0.269459 0.0828412
0.0417334 0.268223 0.0647135
0.0476081 0.26421 0.0648508
0.0977798 0.263111 0.0653849
0.169085 0.263874 0.0656901
0.239811 0.26244 0.066453
0.279713 0.26128 0.0661173
0.323568 0.259159 0.0657054
0.370336 0.251423 0.0732433
0.41529 0.242222 0.0882429
0.457069 0.236057 0.103227
0.497505 0.233906 0.115816
0.539696 0.236072 0.126879
0.583535 0.241947 0.136538
0.627832 0.2486 0.14641
0.670466 0.255497 0.156695
0.710445 0.26273 0.168048
0.747417 0.270985 0.180865
0.77908 0.279835 0.194446
0.807172 0.289921 0.209537
0.831174 0.300298 0.224384
0.840482 0.30486 0.230426
0.840635 0.305028 0.230503
0.84062 0.305104 0.230472
0.840513 0.305043 0.230381
0.840192 0.304601 0.230213
0.84004 0.303883 0.230213
0.840162 0.303197 0.230335
0.840681 0.302724 0.230671
0.0536965 0.284611 0.169741
0.0487984 0.291798 0.162631
0.0434424 0.299626 0.151446
0.0404822 0.3066 0.135027
0.0386816 0.3122 0.111925
0.0392615 0.314168 0.0829175
0.0409094 0.312612 0.0651865
0.0432441 0.307668 0.0653849
0.116213 0.30869 0.0647593
0.196506 0.309346 0.0634775
0.279072 0.307362 0.0642252
0.325139 0.306142 0.0646372
0.375067 0.304265 0.0607309
0.426291 0.300969 0.0659037
0.47866 0.294942 0.0841993
0.528054 0.290669 0.1066
0.572198 0.290791 0.123644
0.614618 0.29308 0.138338
0.655741 0.296818 0.151186
0.695491 0.303716 0.162509
0.733791 0.311604 0.17435
0.768277 0.319982 0.187121
0.799023 0.32871 0.200855
0.825406 0.338293 0.215351
0.849348 0.34873 0.230472
0.860304 0.353948 0.238117
0.862028 0.355413 0.239307
0.862013 0.355383 0.239292
0.861875 0.355016 0.239216
0.861692 0.354437 0.239094
0.86154 0.353704 0.238987
0.861479 0.352804 0.238956
0.861631 0.352239 0.239048
0.0541543 0.328008 0.190387
0.0478218 0.335958 0.184192
0.0415656 0.344335 0.17464
0.0376287 0.35172 0.160815
0.0354467 0.358572 0.141833
0.0353857 0.363592 0.116915
0.0358129 0.365606 0.0853437
0.0375219 0.362875 0.0631418
0.0471504 0.358801 0.0630808
0.135882 0.360372 0.0602426
0.226184 0.360632 0.0573739
0.319844 0.358373 0.0607919
0.375128 0.357839 0.0648508
0.42974 0.356283 0.0541695
0.483711 0.356191 0.05832
0.539223 0.354376 0.0816815
0.59266 0.351415 0.112276
0.638071 0.353414 0.133089
0.677897 0.358068 0.149798
0.716182 0.363302 0.166094
0.751003 0.369024 0.18114
0.782925 0.376532 0.195331
0.812802 0.384451 0.210468
0.839536 0.392691 0.225116
0.863157 0.402075 0.238972
0.87689 0.408377 0.247974
0.880369 0.410513 0.250401
0.880339 0.410666 0.25034
0.88014 0.410178 0.250156
0.87985 0.409339 0.249912
0.879545 0.40824 0.249668
0.879377 0.407279 0.24947
0.879393 0.406683 0.249363
0.0508736 0.37792 0.212894
0.0433356 0.387167 0.207309
0.0361944 0.396277 0.198901
0.0324254 0.404547 0.187716
0.0292058 0.412314 0.172213
0.0298924 0.418463 0.152239
0.0316777 0.422812 0.125017
0.0348821 0.422919 0.0897383
0.0383307 0.418006 0.0593271
0.0673686 0.414786 0.0585336
0.166155 0.417624 0.0535286
0.264378 0.418143 0.0502785
0.367163 0.415641 0.0632944
0.428428 0.415915 0.075639
0.485466 0.415808 0.0589456
0.540246 0.417273 0.0648508
0.592844 0.41912 0.0918898
0.647272 0.418448 0.126909
0.691234 0.421454 0.151217
0.728283 0.426795 0.169802
0.763195 0.43238 0.187533
0.7944 0.438331 0.203754
0.823606 0.445045 0.219287
0.849592 0.451698 0.233753
0.874907 0.458274 0.249668
0.892226 0.462699 0.261204
0.897566 0.464225 0.265446
0.897536 0.464042 0.265431
0.897322 0.463188 0.265248
0.896819 0.461982 0.264729
0.896529 0.460639 0.264408
0.896132 0.459083 0.264012
0.895735 0.45771 0.2636
0.0469215 0.435889 0.238819
0.0408179 0.444633 0.233722
0.0352636 0.453162 0.226886
0.0299535 0.461616 0.217777
0.0261997 0.469841 0.205875
0.0241703 0.476875 0.189761
0.0246281 0.483299 0.167391
0.0271 0.487297 0.135836
0.0305486 0.485206 0.0953536
0.0348363 0.479255 0.0564584
0.0923323 0.478462 0.0523537
0.203586 0.480034 0.047303
0.309133 0.479957 0.05449
0.41796 0.477211 0.0757153
0.482979 0.477852 0.09514
0.539498 0.479347 0.0826429
0.593454 0.482216 0.0908827
0.64181 0.485801 0.11696
0.693431 0.485969 0.149203
0.736217 0.488334 0.175952
0.772381 0.492195 0.196063
0.804196 0.497551 0.213291
0.832853 0.503075 0.228824
0.859693 0.509194 0.244968
0.883421 0.515618 0.259312
0.90428 0.520851 0.273091
0.911086 0.522652 0.27805
0.910979 0.52195 0.277913
0.910719 0.520699 0.277623
0.910323 0.519142 0.277211
0.909957 0.517952 0.276814
0.909545 0.51632 0.276326
0.908858 0.514488 0.275471
0.0422217 0.498924 0.271595
0.0362249 0.507942 0.267948
0.0307622 0.515969 0.262043
0.0261997 0.523903 0.254459
0.0225376 0.531426 0.244968
0.020798 0.538689 0.23238
0.0212711 0.545022 0.214435
0.0238346 0.549905 0.187823
0.0276341 0.552056 0.151583
0.0321202 0.548135 0.104753
0.0439612 0.541314 0.0567178
0.140063 0.541955 0.0513161
0.254505 0.542504 0.0587472
0.364721 0.542092 0.0740978
0.472557 0.539391 0.0982223
0.537942 0.540429 0.121569
0.592096 0.542824 0.115633
0.643229 0.545724 0.126101
0.688914 0.548928 0.150835
0.735088 0.549645 0.179309
0.776425 0.550958 0.205829
0.811093 0.553674 0.226841
0.840742 0.558556 0.243778
0.866163 0.564034 0.257725
0.890394 0.568902 0.27219
0.910887 0.573816 0.285756
0.919997 0.57612 0.292988
0.921569 0.575799 0.293965
0.921218 0.57467 0.293431
0.92079 0.573022 0.292744
0.920363 0.570871 0.291905
0.920027 0.568963 0.291234
0.919493 0.567102 0.290288
0.0446784 0.561807 0.310735
0.0406653 0.569863 0.307561
0.0355383 0.577951 0.303456
0.0304723 0.585519 0.297658
0.0268406 0.592859 0.290089
0.0256199 0.599695 0.280232
0.0259709 0.605188 0.264912
0.0287327 0.609857 0.243107
0.0330053 0.613138 0.212726
0.0378424 0.612573 0.172259
0.0432593 0.605203 0.117922
0.0818952 0.599557 0.0698863
0.203861 0.602564 0.0717937
0.31516 0.603082 0.0841382
0.427924 0.602655 0.100633
0.529671 0.600137 0.125414
0.592386 0.600366 0.151003
0.643091 0.602319 0.150774
0.690394 0.605035 0.164446
0.733181 0.606973 0.188861
0.774594 0.607721 0.215366
0.812772 0.608347 0.24036
0.84622 0.609857 0.26215
0.873213 0.612848 0.279042
0.895827 0.617044 0.292271
0.915312 0.621027 0.30486
0.926375 0.623301 0.312444
0.929854 0.623484 0.31458
0.929549 0.622141 0.313802
0.929335 0.620203 0.312978
0.929229 0.618143 0.312337
0.928725 0.615793 0.311177
0.928145 0.613687 0.309834
0.0526284 0.622202 0.354284
0.0504311 0.62948 0.352117
0.0458381 0.636561 0.348547
0.0416571 0.644007 0.344106
0.0378576 0.650538 0.337881
0.0366522 0.656641 0.329686
0.0367437 0.661433 0.316701
0.038819 0.66566 0.298528
0.0421759 0.668971 0.273106
0.0475471 0.670451 0.237446
0.0538796 0.6654 0.193164
0.0656138 0.655009 0.132006
0.153094 0.65684 0.0976272
0.272969 0.659907 0.102296
0.380255 0.661128 0.113954
0.490608 0.659831 0.129778
0.583352 0.657206 0.153933
0.641398 0.656672 0.180621
0.688441 0.658061 0.186404
0.731746 0.65948 0.202457
0.771923 0.661189 0.228534
0.808988 0.661494 0.252567
0.843717 0.660807 0.277363
0.875395 0.660502 0.300893
0.899336 0.663081 0.315541
0.918273 0.666224 0.327886
0.931762 0.669017 0.337758
0.935714 0.669139 0.340032
0.935363 0.667491 0.338399
0.935058 0.665278 0.33666
0.93463 0.662898 0.335027
0.934447 0.660456 0.333669
0.93431 0.658335 0.332494
0.0723888 0.677028 0.399908
0.0703746 0.68368 0.398352
0.0663767 0.689921 0.395422
0.0618753 0.696406 0.391745
0.0580911 0.702296 0.386496
0.0568551 0.707393 0.379126
0.0576181 0.711833 0.368017
0.0592813 0.715297 0.352438
0.0610208 0.718044 0.330587
0.0641337 0.719844 0.300969
0.069688 0.717739 0.260609
0.0782025 0.709087 0.208942
0.121096 0.702739 0.14612
0.229175 0.710903 0.129351
0.343389 0.712886 0.134997
0.445029 0.713405 0.145876
0.551232 0.711711 0.160327
0.633402 0.709209 0.183505
0.68571 0.707942 0.2103
0.728908 0.708797 0.224308
0.769131 0.709346 0.244236
0.805234 0.709529 0.269398
0.838849 0.709148 0.292149
0.870756 0.707713 0.315831
0.899718 0.70573 0.340078
0.919615 0.707622 0.356054
0.934768 0.710903 0.367269
0.939574 0.711009 0.369985
0.939727 0.709575 0.368078
0.939452 0.707393 0.365942
0.939208 0.70489 0.363607
0.938918 0.702693 0.361547
0.938827 0.700496 0.35964
0.104829 0.726986 0.444907
0.103532 0.732677 0.443397
0.100206 0.738842 0.44126
0.0956741 0.744549 0.437934
0.0917525 0.749813 0.433417
0.0905623 0.754177 0.427268
0.0895552 0.757504 0.417288
0.0899977 0.75964 0.403342
0.0909743 0.761288 0.384268
0.0926986 0.762539 0.358572
0.0961471 0.761624 0.322698
0.102861 0.75668 0.277882
0.122057 0.747585 0.215793
0.198596 0.750439 0.16817
0.30634 0.758038 0.162173
0.411246 0.759319 0.168078
0.508537 0.759228 0.178653
0.60827 0.757061 0.191974
0.681102 0.754955 0.214008
0.727077 0.753658 0.239796
0.76556 0.753567 0.260212
0.801389 0.753277 0.286854
0.834165 0.75288 0.311757
0.864836 0.752239 0.334066
0.894316 0.750469 0.357153
0.919432 0.747784 0.382055
0.935531 0.748531 0.39884
0.943435 0.749447 0.405539
0.943664 0.747845 0.40322
0.943374 0.745693 0.400259
0.943008 0.743557 0.397498
0.942885 0.741253 0.395056
0.94284 0.739178 0.392691
0.139864 0.770794 0.486992
0.138903 0.77554 0.485603
0.135805 0.780941 0.483619
0.131716 0.786007 0.480751
0.127565 0.790967 0.476844
0.125231 0.794965 0.470909
0.123751 0.797848 0.462226
0.123461 0.800015 0.449912
0.12372 0.801541 0.433463
0.124514 0.802563 0.410224
0.125734 0.80206 0.377691
0.129549 0.799268 0.336141
0.140322 0.79237 0.283909
0.183093 0.788998 0.224643
0.277058 0.797269 0.199344
0.377798 0.800855 0.194522
0.47425 0.801175 0.200259
0.570047 0.799817 0.210803
0.659251 0.797894 0.223163
0.72221 0.795254 0.244236
0.764111 0.7935 0.271092
0.798657 0.793164 0.301015
0.830762 0.792844 0.331334
0.860319 0.792615 0.356207
0.887953 0.791928 0.378241
0.913558 0.789487 0.401343
0.934401 0.786191 0.426505
0.944976 0.785763 0.439445
0.946426 0.784146 0.438499
0.946242 0.782223 0.435966
0.946166 0.780072 0.433204
0.945983 0.777829 0.430411
0.945525 0.775616 0.427512
0.170718 0.810819 0.526894
0.169711 0.814466 0.524987
0.166964 0.818814 0.522896
0.163073 0.823301 0.520027
0.159121 0.82768 0.516609
0.156008 0.830961 0.510475
0.15462 0.833463 0.502708
0.153811 0.835355 0.491661
0.153536 0.836698 0.47686
0.153933 0.837674 0.456565
0.154711 0.837812 0.428382
0.157076 0.836133 0.391211
0.16463 0.831724 0.345815
0.190906 0.828107 0.291981
0.264134 0.833021 0.253346
0.352789 0.838926 0.241428
0.446281 0.839597 0.241703
0.534646 0.838346 0.24564
0.625681 0.83566 0.253422
0.703838 0.833509 0.263142
0.759518 0.831159 0.28246
0.79823 0.829023 0.31194
0.829831 0.828656 0.350469
0.858259 0.828244 0.380636
0.884443 0.827848 0.405402
0.908476 0.827344 0.426917
0.929442 0.824857 0.449454
0.945052 0.821836 0.471244
0.948257 0.819974 0.473655
0.948302 0.817609 0.470649
0.948318 0.815045 0.467903
0.948562 0.812421 0.465553
0.948837 0.810117 0.463447
0.203296 0.843793 0.56231
0.203891 0.84625 0.560113
0.202762 0.849271 0.557855
0.200839 0.852598 0.554955
0.198367 0.855787 0.551202
0.196521 0.858259 0.545769
0.194873 0.860365 0.538277
0.193957 0.861921 0.528313
0.193484 0.863279 0.515175
0.193362 0.864164 0.497459
0.193973 0.864195 0.473579
0.196658 0.863157 0.443458
0.202564 0.860395 0.404166
0.220142 0.857954 0.355474
0.278279 0.86276 0.3149
0.351431 0.866712 0.293095
0.434653 0.869062 0.291554
0.51902 0.867842 0.295949
0.600153 0.865766 0.301183
0.683375 0.863218 0.308797
0.751598 0.861891 0.318715
0.799771 0.860059 0.338293
0.836088 0.858198 0.372747
0.864042 0.857496 0.410132
0.889082 0.857252 0.439536
0.910964 0.857252 0.462989
0.928801 0.857023 0.482918
0.944732 0.855436 0.504753
0.950378 0.852811 0.511513
0.950103 0.850736 0.507591
0.949905 0.848737 0.503716
0.949905 0.846281 0.50071
0.950027 0.843824 0.498085
0.223987 0.874968 0.595331
0.22594 0.876951 0.593179
0.225986 0.87921 0.590661
0.224933 0.881544 0.587686
0.223041 0.883955 0.583658
0.221347 0.886015 0.578347
0.220401 0.887678 0.571618
0.220218 0.888914 0.562799
0.220203 0.890043 0.551278
0.220111 0.890822 0.535683
0.220874 0.891157 0.516442
0.222995 0.890913 0.491035
0.227268 0.889509 0.457298
0.242817 0.889235 0.415015
0.29131 0.894133 0.374838
0.348928 0.894759 0.342901
0.424033 0.897673 0.337301
0.49955 0.896895 0.341146
0.576226 0.895171 0.347906
0.653483 0.892943 0.355993
0.729091 0.891203 0.366186
0.788571 0.890608 0.378851
0.831907 0.888945 0.400061
0.865736 0.88687 0.434089
0.890776 0.886229 0.469963
0.912108 0.886091 0.498375
0.928832 0.886259 0.520806
0.942718 0.88658 0.54023
0.95021 0.885161 0.55024
0.950881 0.882994 0.547753
0.950332 0.880796 0.542824
0.950332 0.878462 0.539239
0.950515 0.875959 0.53608
0.245548 0.900725 0.624674
0.247776 0.902007 0.622507
0.248417 0.903838 0.619989
0.247257 0.905623 0.616983
0.244877 0.907317 0.613001
0.243244 0.908766 0.607645
0.242939 0.909834 0.601419
0.243839 0.910567 0.593896
0.245075 0.911299 0.584421
0.246296 0.911925 0.572091
0.247486 0.91249 0.555795
0.249012 0.912978 0.534371
0.252522 0.913436 0.506691
0.27039 0.916091 0.471717
0.309224 0.919646 0.435386
0.358007 0.91928 0.399954
0.42179 0.919738 0.38497
0.491753 0.91989 0.387411
0.560311 0.918639 0.395514
0.630732 0.917266 0.405158
0.703075 0.915892 0.416281
0.769726 0.914931 0.428626
0.822477 0.914717 0.444099
0.861631 0.913603 0.467002
0.893065 0.911757 0.499733
0.914168 0.911376 0.534356
0.930343 0.911376 0.561242
0.943145 0.911589 0.582467
0.951644 0.91107 0.595331
0.952972 0.909438 0.593774
0.9523 0.907561 0.588388
0.952163 0.905837 0.584054
0.952102 0.903853 0.580285
0.258671 0.913191 0.643778
0.260533 0.913603 0.64097
0.260914 0.914427 0.638178
0.259953 0.915801 0.635187
0.257862 0.917494 0.631662
0.255787 0.919081 0.62739
0.254841 0.920348 0.621988
0.254871 0.921401 0.615137
0.260227 0.920638 0.606134
0.261036 0.921431 0.594903
0.261723 0.922179 0.580285
0.262989 0.922942 0.561227
0.268315 0.924681 0.537316
0.288823 0.930037 0.511925
0.329397 0.936629 0.48806
0.375509 0.938308 0.462364
0.425147 0.936202 0.436667
0.491539 0.936492 0.43592
0.555978 0.935943 0.443793
0.619196 0.934997 0.455802
0.682933 0.934279 0.467842
0.748638 0.933471 0.480842
0.808377 0.93341 0.495323
0.854841 0.933547 0.513054
0.889265 0.932967 0.537438
0.916289 0.931487 0.569711
0.932708 0.930999 0.602182
0.944793 0.930877 0.627619
0.954253 0.930694 0.646097
0.956329 0.929793 0.647395
0.955642 0.928405 0.641001
0.955123 0.926955 0.635828
0.954849 0.925414 0.630976
0.261219 0.91632 0.6533
0.26244 0.916091 0.649927
0.262821 0.916197 0.646525
0.261494 0.916838 0.642817
0.259113 0.917937 0.638926
0.256901 0.919219 0.634379
0.255497 0.920302 0.628977
0.25536 0.921096 0.622065
0.256443 0.92166 0.613443
0.258366 0.922133 0.602594
0.260563 0.922728 0.588891
0.262745 0.923613 0.571328
0.267247 0.925139 0.549035
0.283085 0.929976 0.52491
0.32285 0.938384 0.503487
0.37438 0.943755 0.488365
0.425925 0.945235 0.474434
0.486076 0.945617 0.470008
0.551537 0.945876 0.479179
0.613367 0.945571 0.494408
0.672297 0.945525 0.511559
0.732311 0.945815 0.528832
0.793515 0.945983 0.547051
0.847852 0.947051 0.567086
0.888014 0.947829 0.587289
0.914931 0.947601 0.612024
0.934279 0.946471 0.643381
0.946441 0.946242 0.673533
0.955703 0.946059 0.697292
0.959548 0.945647 0.705257
0.958892 0.944625 0.699428
0.958373 0.943511 0.693568
0.958175 0.942367 0.688167
0.259327 0.91725 0.659678
0.259419 0.917418 0.656352
0.259419 0.917586 0.652949
0.258854 0.917937 0.649195
0.257572 0.918578 0.645228
0.256001 0.919387 0.640452
0.254887 0.920287 0.635172
0.254551 0.921096 0.628489
0.255039 0.921813 0.620066
0.256321 0.922454 0.609689
0.258137 0.92314 0.596658
0.260563 0.923934 0.580102
0.264027 0.925048 0.558816
0.275288 0.928359 0.534432
0.307256 0.93608 0.51104
0.358038 0.942885 0.494499
0.410971 0.945922 0.482841
0.468101 0.947585 0.478706
0.532647 0.94815 0.48632
0.5953 0.947616 0.500313
0.654536 0.946654 0.517754
0.710353 0.94641 0.535271
0.773175 0.946197 0.554055
0.829877 0.946914 0.572717
