bundles/resolve-cinematic-luts/Phantom Luts/P4k & P6K Phntm Film LUTs - V6/P6k/Gen 4 Colour/P6k EastmanRM Gen4-Legacy.cube
TITLE "Generated by Resolve"
LUT_3D_SIZE 5
0.0470893 0.0473793 0.0467079
0.172152 0.0389715 0.0405432
0.426856 0.0346838 0.0495613
0.614618 0.0584878 0.0924239
0.65478 0.115068 0.187259
0.058381 0.14641 0.0648661
0.141573 0.152529 0.0559091
0.424704 0.0960098 0.0525368
0.654551 0.112963 0.087541
0.676814 0.139223 0.140917
0.0466621 0.429435 0.109163
0.0450294 0.424949 0.0476387
0.531533 0.553841 0.100053
0.819242 0.519371 0.200488
0.859953 0.528588 0.262577
0.208453 0.713466 0.429191
0.196307 0.707591 0.384924
0.390631 0.72079 0.273671
0.820966 0.874205 0.47982
0.905974 0.879377 0.58645
0.253971 0.759396 0.524453
0.251606 0.741909 0.447639
0.434714 0.752987 0.336736
0.812161 0.892943 0.534142
0.891386 0.908888 0.65771
0.0481117 0.0543221 0.0942397
0.158831 0.0508125 0.0927291
0.41883 0.0393988 0.0923629
0.60322 0.0648966 0.160754
0.647913 0.11577 0.252354
0.0576791 0.137621 0.102403
0.135592 0.151064 0.131395
0.467796 0.0728771 0.0846113
0.662272 0.0995193 0.141222
0.673579 0.125109 0.197787
0.0540627 0.43183 0.213123
0.0444495 0.430854 0.140612
0.525948 0.546365 0.112352
0.830228 0.489662 0.221225
0.861402 0.50341 0.27155
0.205554 0.718227 0.479042
0.193576 0.717311 0.450996
0.34197 0.708827 0.268269
0.815946 0.868681 0.462898
0.909163 0.869215 0.575128
0.265782 0.767468 0.565026
0.263127 0.756558 0.510964
0.383566 0.743618 0.339757
0.784176 0.88539 0.522759
0.891402 0.909178 0.660716
0.0610513 0.0761425 0.26862
0.17261 0.0599069 0.303822
0.437263 0.0576638 0.282353
0.635142 0.104341 0.311269
0.677638 0.150332 0.390021
0.0417029 0.113344 0.230854
0.0803235 0.0833753 0.317952
0.441947 0.066453 0.300923
0.673182 0.110597 0.289219
0.698161 0.152285 0.370275
0.0604257 0.435721 0.33991
0.0573892 0.44506 0.374212
0.531777 0.540398 0.508385
0.892973 0.440665 0.459922
0.903304 0.426764 0.471107
0.211566 0.719738 0.551812
0.198077 0.72488 0.559945
0.248157 0.727779 0.461418
0.811109 0.856031 0.521431
0.912139 0.844388 0.59997
0.306188 0.787762 0.643229
0.289982 0.783291 0.63122
0.283543 0.762402 0.51281
0.692317 0.848753 0.518914
0.89247 0.911543 0.686885
0.118303 0.0797742 0.461357
0.24152 0.0714275 0.486625
0.428748 0.0840772 0.498863
0.655863 0.151858 0.516976
0.682597 0.18323 0.581308
0.0425574 0.108248 0.401785
0.136828 0.0695354 0.48603
0.422507 0.0870375 0.50985
0.677653 0.160861 0.532143
0.695735 0.189471 0.58819
0.0446632 0.395438 0.497139
0.0444648 0.388525 0.521019
0.471962 0.385321 0.737514
0.913298 0.453025 0.797757
0.910689 0.443931 0.791211
0.24921 0.719402 0.630671
0.236927 0.72604 0.652293
0.367468 0.75201 0.684627
0.806577 0.830854 0.796323
0.903227 0.811673 0.783017
0.442039 0.827939 0.731273
0.419028 0.825223 0.734752
0.417487 0.823758 0.718868
0.748486 0.891066 0.799374
0.886717 0.922484 0.830213
0.214008 0.0873579 0.530816
0.295583 0.0961318 0.544091
0.459037 0.120104 0.573938
0.672175 0.200488 0.655909
0.717098 0.23209 0.693217
0.124407 0.110201 0.497536
0.22414 0.0882887 0.533028
0.447501 0.116686 0.570993
0.689067 0.212726 0.671519
0.720577 0.240269 0.702693
0.0557412 0.366964 0.591806
0.0605631 0.353597 0.600443
0.518517 0.329351 0.792386
0.864088 0.422232 0.860258
0.867689 0.420783 0.855848
0.269352 0.715557 0.725963
0.276097 0.716609 0.734447
0.395865 0.730968 0.766903
0.815534 0.788983 0.881773
0.896239 0.804639 0.889036
0.494285 0.842008 0.779416
0.481193 0.840543 0.783566
0.499718 0.844724 0.789029
0.789639 0.909819 0.87042
0.900893 0.926711 0.885008
