bundles/resolve-cinematic-luts/Phantom Luts/P4k & P6K Phntm Film LUTs - V6/P6k/Gen 4 Colour/P6k EastmanRM Gen4-Legacy.cube
TITLE "Generated by Resolve"
LUT_3D_SIZE 33
0.0470893 0.0473793 0.0467079
0.0479896 0.0466316 0.0454719
0.0522316 0.0449531 0.0435492
0.0616922 0.0436866 0.0427558
0.0767376 0.0431525 0.0424201
0.0971084 0.0421912 0.0421454
0.121706 0.04094 0.0415351
0.147631 0.0398108 0.0406958
0.172152 0.0389715 0.0405432
0.196933 0.0388952 0.041474
0.222827 0.0385748 0.0425422
0.253788 0.038056 0.0434119
0.291295 0.0372931 0.0437171
0.328664 0.036286 0.0440375
0.362448 0.0361486 0.0453651
0.395132 0.0350958 0.0472725
0.426856 0.0346838 0.0495613
0.456947 0.0344701 0.0518502
0.485618 0.0346838 0.0547799
0.511574 0.0354009 0.0579995
0.531624 0.0373388 0.0622873
0.550118 0.0404669 0.0674449
0.571588 0.0438087 0.0737011
0.592691 0.0493019 0.0815137
0.614618 0.0584878 0.0924239
0.639521 0.0727398 0.106798
0.665629 0.0880446 0.124407
0.678279 0.0949416 0.132937
0.680064 0.0982681 0.137926
0.678737 0.101366 0.146136
0.674907 0.105745 0.156008
0.665766 0.110811 0.171756
0.65478 0.115068 0.187259
0.0479286 0.0466773 0.0455482
0.0476234 0.0469368 0.0459754
0.0487373 0.0463111 0.0450294
0.0558175 0.0455024 0.043595
0.0685893 0.0452583 0.0429847
0.0860456 0.0445106 0.0425879
0.108522 0.0436561 0.0425269
0.133318 0.0422827 0.0418097
0.160388 0.0408026 0.0407416
0.187335 0.0399634 0.0407721
0.214115 0.0392004 0.041413
0.243229 0.0386969 0.0428321
0.277195 0.0372015 0.0433509
0.315618 0.0357214 0.0433509
0.353246 0.0349432 0.0437018
0.389715 0.0341344 0.0450904
0.422217 0.0334783 0.0471962
0.453483 0.0332952 0.0494698
0.482551 0.0334478 0.0520943
0.509712 0.0341039 0.0556954
0.528832 0.0366522 0.0597696
0.548043 0.039292 0.0647288
0.568292 0.0426337 0.0709087
0.588998 0.0478676 0.0784924
0.610788 0.0564431 0.0890364
0.635142 0.0697948 0.102693
0.662196 0.085359 0.11986
0.671229 0.0911116 0.125917
0.673075 0.0940261 0.13051
0.671931 0.0978408 0.138811
0.668971 0.102235 0.149401
0.658259 0.106355 0.163775
0.647471 0.111498 0.179477
0.0479744 0.0482643 0.0459297
0.0474708 0.0481117 0.0461585
0.0482338 0.0471656 0.0455482
0.0533608 0.0469825 0.0437324
0.0626383 0.0474098 0.0428016
0.0784009 0.0472114 0.0425116
0.0979324 0.0470741 0.0429389
0.121813 0.0457618 0.0426795
0.148226 0.0438392 0.0421607
0.177783 0.0416724 0.0410925
0.206973 0.0400702 0.0411688
0.236744 0.0389105 0.0420691
0.269444 0.0372931 0.0428931
0.305943 0.0357977 0.0432746
0.343572 0.0347753 0.0435798
0.380041 0.0341039 0.0445869
0.41532 0.0327306 0.0453498
0.449287 0.0324102 0.0470283
0.479149 0.0326848 0.0498512
0.50634 0.033341 0.0531167
0.526146 0.0358434 0.0576028
0.546502 0.0386969 0.0632181
0.566094 0.0418402 0.0684977
0.586023 0.0465858 0.075761
0.607156 0.0548257 0.0856336
0.630076 0.0668956 0.0978714
0.656794 0.0825513 0.114214
0.663462 0.0865644 0.118776
0.665797 0.0899825 0.123262
0.665156 0.093904 0.132052
0.660639 0.0972915 0.140581
0.65069 0.102174 0.155886
0.639811 0.107256 0.171878
0.0490272 0.0599527 0.0493019
0.0477913 0.0603799 0.0488441
0.0484016 0.0600748 0.0488136
0.0513771 0.0600443 0.0482795
0.0585946 0.0601968 0.0481575
0.073579 0.0584573 0.0463874
0.095964 0.0565652 0.0445869
0.119142 0.0539254 0.0437018
0.142519 0.051667 0.0436103
0.169955 0.0470436 0.0422675
0.200732 0.0429541 0.0411994
0.232624 0.0409094 0.0417029
0.267369 0.0383459 0.0419013
0.302068 0.0361944 0.0425727
0.337758 0.0351415 0.0433509
0.372839 0.0343786 0.0443885
0.407782 0.0329137 0.0450599
0.442054 0.0321355 0.0461433
0.474617 0.0320439 0.0481575
0.503258 0.0325628 0.0505837
0.523003 0.0350195 0.0553292
0.543572 0.0378119 0.0603189
0.564095 0.0412909 0.0661021
0.583124 0.0458381 0.0734264
0.603677 0.0537118 0.0821241
0.626001 0.0648661 0.0941939
0.651148 0.0794537 0.108568
0.657038 0.0829023 0.112627
0.660075 0.0865492 0.117342
0.657481 0.0898604 0.124315
0.654261 0.093431 0.1337
0.64387 0.0984817 0.148653
0.631525 0.102678 0.163027
0.0496986 0.0750134 0.0523842
0.0483253 0.0754253 0.0508125
0.0489052 0.074815 0.0502785
0.0512856 0.0743572 0.050782
0.0573739 0.0755322 0.05037
0.0721447 0.075349 0.0503395
0.0965438 0.0714427 0.0485084
0.120363 0.0684367 0.046479
0.143435 0.0647288 0.0455482
0.16611 0.0605325 0.0451972
0.194263 0.0560159 0.044419
0.229129 0.0487221 0.0424201
0.266987 0.0435492 0.0411994
0.303929 0.0391699 0.0415961
0.338109 0.0369116 0.0423133
0.371115 0.0357061 0.0431983
0.404349 0.0335546 0.0444648
0.437034 0.032578 0.045716
0.46862 0.0322118 0.0472419
0.49781 0.0323796 0.0494698
0.51957 0.0344091 0.053193
0.540688 0.0369421 0.0574807
0.560708 0.0404212 0.0633555
0.580179 0.0450294 0.0704204
0.599832 0.0523995 0.0789349
0.621408 0.0626688 0.0894179
0.642847 0.0751507 0.101061
0.65211 0.0806897 0.106523
0.653864 0.0829938 0.110719
0.651896 0.0870222 0.117998
0.647349 0.0901198 0.125963
0.63621 0.094728 0.140169
0.624704 0.0992294 0.155001
0.0501869 0.0937362 0.055314
0.0485695 0.0947433 0.0535439
0.0492256 0.0943465 0.0517128
0.0514839 0.0935683 0.0512093
0.0558175 0.0949569 0.0523842
0.068101 0.0954147 0.0524605
0.0886244 0.0946822 0.0525063
0.113588 0.09131 0.0507973
0.141878 0.0858167 0.0499275
0.167575 0.0793469 0.0480201
0.19321 0.072343 0.047425
0.222553 0.0655833 0.0466011
0.260716 0.0579995 0.0452888
0.303731 0.0500343 0.0429999
0.342687 0.0442054 0.0420081
0.375631 0.0400549 0.0424964
0.40708 0.037171 0.0435798
0.436912 0.0347601 0.0442664
0.467124 0.033814 0.0463264
0.494926 0.0338903 0.0493324
0.516945 0.0351568 0.0519112
0.538582 0.0370489 0.0558938
0.558495 0.0398413 0.0602884
0.576333 0.0441749 0.0665293
0.594934 0.0508736 0.0744945
0.616358 0.0610819 0.084184
0.636271 0.0724804 0.0948043
0.647593 0.0790875 0.100938
0.64863 0.0814984 0.104479
0.646479 0.0840162 0.110918
0.641703 0.0882124 0.119402
0.631251 0.0927901 0.133288
0.618341 0.0967269 0.146334
0.0513313 0.111498 0.0590829
0.0495155 0.112856 0.0563363
0.0499886 0.112444 0.053315
0.0534676 0.110964 0.0508736
0.0610208 0.109972 0.0501869
0.0742199 0.110765 0.0506752
0.0999161 0.110475 0.0503395
0.123766 0.108049 0.049958
0.149554 0.104479 0.0488441
0.179065 0.098146 0.0484627
0.207248 0.0893263 0.0473945
0.237995 0.078172 0.0469825
0.26923 0.0712749 0.0467231
0.305074 0.0653086 0.0462501
0.343175 0.0594644 0.0458839
0.380133 0.0530556 0.0444648
0.413916 0.0464942 0.0435187
0.444327 0.0435035 0.0443275
0.47216 0.041062 0.0462043
0.499062 0.0401617 0.0487831
0.520714 0.0403754 0.0514839
0.541329 0.0419013 0.0556497
0.561776 0.0442512 0.0607156
0.579858 0.0481727 0.0659953
0.596597 0.0538033 0.0730755
0.614374 0.0617685 0.0811627
0.632059 0.0715343 0.0895399
0.642084 0.0778363 0.0957961
0.643168 0.0803082 0.0981765
0.641733 0.0829633 0.103502
0.638956 0.0856031 0.108583
0.632288 0.0893873 0.117861
0.625803 0.0927291 0.127459
0.0577249 0.127275 0.059205
0.0535592 0.129305 0.0572213
0.0511177 0.130114 0.0545357
0.0523995 0.129595 0.0522927
0.0577859 0.129198 0.0513771
0.0690623 0.129107 0.0514687
0.0876783 0.130236 0.053315
0.119585 0.130159 0.0526131
0.145235 0.12694 0.052018
0.175525 0.122683 0.051194
0.208225 0.115511 0.049897
0.243488 0.105074 0.0494545
0.280018 0.0922408 0.0485542
0.312795 0.0830701 0.0491188
0.346853 0.0785382 0.0484474
0.382376 0.074342 0.0485084
0.417075 0.0701457 0.0481727
0.450797 0.0668956 0.0488899
0.481544 0.0624247 0.0491798
0.509834 0.0588998 0.050248
0.535088 0.057084 0.0526894
0.557153 0.0596628 0.057084
0.578607 0.0634623 0.0619821
0.598672 0.0678111 0.069749
0.616526 0.0746319 0.0776989
0.636362 0.0839704 0.0886091
0.654368 0.0931106 0.098909
0.663172 0.0979629 0.10544
0.662669 0.0985733 0.106264
0.660029 0.100084 0.109499
0.65565 0.101152 0.113863
0.646265 0.102449 0.121187
0.636316 0.103929 0.128893
0.058381 0.14641 0.0648661
0.054078 0.148623 0.0620127
0.0511635 0.149828 0.0582895
0.051545 0.14934 0.0543984
0.0552529 0.148547 0.0522621
0.0650187 0.148287 0.0513619
0.0827039 0.150164 0.0535744
0.106386 0.152544 0.0560006
0.141573 0.152529 0.0559091
0.171054 0.148379 0.0554513
0.208942 0.142504 0.0534371
0.248325 0.134813 0.0508583
0.289342 0.12343 0.0517128
0.326497 0.111421 0.0505989
0.35938 0.10135 0.0510567
0.390967 0.0983139 0.0518349
0.424704 0.0960098 0.0525368
0.459663 0.0942702 0.0531319
0.493919 0.0939651 0.0543069
0.525521 0.0954147 0.0569619
0.554665 0.0989548 0.0615396
0.581903 0.103975 0.0675975
0.607858 0.107591 0.074052
0.631754 0.109728 0.0800183
0.654551 0.112963 0.087541
0.677607 0.123125 0.10042
0.697871 0.13283 0.11397
0.705867 0.137118 0.120043
0.704295 0.136278 0.120302
0.700923 0.136004 0.122103
0.695521 0.136141 0.125414
0.686519 0.137407 0.13286
0.676814 0.139223 0.140917
0.0584573 0.168002 0.0699931
0.0540322 0.170047 0.0669871
0.0510872 0.171435 0.0629129
0.0503548 0.171252 0.0582284
0.0514839 0.170733 0.0547494
0.0566567 0.170718 0.052781
0.0684672 0.172747 0.0544137
0.0918746 0.175036 0.0565957
0.120546 0.178714 0.058732
0.167605 0.180072 0.0584421
0.205921 0.175509 0.0581979
0.256107 0.1673 0.0558022
0.301747 0.160662 0.0535592
0.343252 0.150439 0.0542763
0.381765 0.139574 0.0560311
0.413306 0.131273 0.0565652
0.444923 0.129244 0.0581979
0.479088 0.129824 0.060914
0.513542 0.132418 0.0641184
0.548394 0.135424 0.0670024
0.582864 0.139803 0.071519
0.616083 0.145357 0.0780041
0.646403 0.151522 0.0858473
0.675196 0.159106 0.0971847
0.701717 0.167834 0.11017
0.725231 0.177386 0.12401
0.747082 0.18735 0.138857
0.754681 0.190707 0.144289
0.753964 0.18996 0.143984
0.751553 0.189685 0.145739
0.746761 0.190158 0.148775
0.737438 0.191974 0.156939
0.727428 0.1944 0.166247
0.0566873 0.191867 0.0732738
0.0525521 0.194141 0.0706188
0.0498512 0.195621 0.0658122
0.0489052 0.195468 0.0595254
0.0487831 0.194293 0.0543832
0.0507973 0.193835 0.0510567
0.0577249 0.196277 0.0509651
0.0734417 0.200717 0.0530556
0.102007 0.205509 0.0563363
0.136217 0.213397 0.0597391
0.199954 0.219013 0.0611124
0.252201 0.215549 0.0619516
0.313115 0.208286 0.0609598
0.364889 0.203372 0.0589609
0.408576 0.196231 0.0600748
0.44947 0.186557 0.0663615
0.48333 0.178882 0.0688182
0.512123 0.177142 0.0715648
0.543389 0.17882 0.0765393
0.576745 0.182559 0.0808118
0.612573 0.186801 0.084947
0.648219 0.19202 0.0896468
0.682506 0.198032 0.0962692
0.713848 0.205295 0.105653
0.741344 0.213169 0.11667
0.765072 0.222827 0.130617
0.785534 0.232731 0.144594
0.792523 0.236164 0.149889
0.792966 0.236271 0.150408
0.79089 0.236606 0.152636
0.786358 0.237659 0.156558
0.776638 0.240085 0.165469
0.766064 0.243015 0.175631
0.0542 0.221546 0.0747997
0.0506752 0.224063 0.0723583
0.0483864 0.22565 0.0675822
0.0475013 0.225727 0.0610056
0.0470436 0.224521 0.0540475
0.0469673 0.222034 0.0486
0.0499886 0.223529 0.0471809
0.0587167 0.229908 0.0484169
0.079057 0.238682 0.0521248
0.113054 0.248829 0.0573281
0.158877 0.262745 0.0631723
0.248936 0.272816 0.0652171
0.309239 0.270359 0.0668956
0.373953 0.264012 0.0672313
0.428122 0.259693 0.0658122
0.473976 0.254414 0.0652934
0.513741 0.246983 0.0699168
0.550484 0.236194 0.0786145
0.57969 0.235142 0.0830854
0.609033 0.238071 0.0885939
0.64004 0.240482 0.093431
0.67274 0.243702 0.0975967
0.706554 0.248829 0.10219
0.739452 0.254826 0.109346
0.768627 0.262257 0.118669
0.793164 0.270726 0.130983
0.812741 0.280262 0.144884
0.820249 0.284352 0.151812
0.821042 0.284733 0.152361
0.818769 0.285344 0.154635
0.814206 0.286625 0.158938
0.804227 0.289616 0.168612
0.793164 0.293019 0.179461
0.0529488 0.259083 0.0772717
0.049897 0.261418 0.075639
0.0476081 0.26305 0.071397
0.0467536 0.263676 0.0644846
0.0464179 0.262654 0.0567788
0.0466773 0.260166 0.0499123
0.0468452 0.25771 0.0448463
0.05243 0.262715 0.0443275
0.0670329 0.273228 0.0466773
0.0961013 0.285801 0.051667
0.135134 0.300099 0.0584421
0.196887 0.318776 0.065568
0.307088 0.330648 0.067216
0.369055 0.32845 0.06981
0.434424 0.322835 0.0720073
0.487419 0.319936 0.0710765
0.533639 0.31635 0.0706035
0.572824 0.310933 0.0727855
0.609583 0.299458 0.082887
0.641077 0.295583 0.0918288
0.66894 0.296986 0.0980392
0.696696 0.300618 0.10399
0.726162 0.304479 0.110201
0.75523 0.308278 0.116121
0.783886 0.313573 0.124575
0.809247 0.321508 0.136217
0.828489 0.329458 0.149096
0.837736 0.334234 0.157824
0.838651 0.335042 0.158785
0.836469 0.335912 0.160998
0.832486 0.337346 0.164721
0.823819 0.340215 0.17467
0.81355 0.343694 0.185794
0.0527199 0.301717 0.0811933
0.0498207 0.3037 0.0798657
0.0478523 0.305394 0.0764324
0.0468299 0.30605 0.0697337
0.0461433 0.305715 0.0614786
0.0460059 0.303761 0.0530861
0.0462196 0.30042 0.0466773
0.0472267 0.29958 0.04271
0.0553445 0.308492 0.0432898
0.0754559 0.321233 0.0460517
0.110903 0.334768 0.0512551
0.158541 0.35111 0.0580148
0.247608 0.376226 0.0661173
0.365957 0.388327 0.0688945
0.428183 0.386526 0.0735027
0.492561 0.382361 0.0771954
0.541207 0.38024 0.0788891
0.58439 0.378149 0.0809491
0.623865 0.37351 0.0841688
0.660578 0.362478 0.0916915
0.69221 0.357107 0.101915
0.719371 0.356481 0.111528
0.744808 0.35848 0.119844
0.770367 0.363073 0.128328
0.795102 0.368048 0.137453
0.81709 0.373953 0.147539
0.835904 0.380285 0.162432
0.847288 0.385855 0.173526
0.847547 0.386358 0.17351
0.846357 0.387289 0.17525
0.843473 0.388602 0.178042
0.836942 0.391119 0.186114
0.828855 0.394354 0.196536
0.0503395 0.344961 0.0865339
0.0482338 0.346777 0.0857252
0.0464942 0.348226 0.0823682
0.0457771 0.348867 0.0764172
0.0452277 0.348867 0.0682841
0.0450141 0.347723 0.0580453
0.0452125 0.34461 0.0498817
0.0458991 0.341436 0.0434119
0.0484321 0.343206 0.0406348
0.059617 0.354314 0.0412909
0.0858778 0.367254 0.0440833
0.129412 0.382315 0.0499275
0.195605 0.403418 0.0572824
0.309239 0.435004 0.0687266
0.424247 0.445228 0.0734264
0.484657 0.444144 0.080766
0.543999 0.441749 0.0864881
0.591119 0.440665 0.0923018
0.631113 0.439399 0.0986954
0.667475 0.435508 0.105379
0.70248 0.42501 0.111208
0.732845 0.416541 0.119188
0.759594 0.414176 0.130724
0.783475 0.414664 0.143496
0.80528 0.418585 0.155474
0.824842 0.424002 0.169406
0.841352 0.430365 0.182956
0.852903 0.435386 0.195117
0.853666 0.436088 0.195544
0.853086 0.43682 0.196567
0.851804 0.437583 0.198398
0.847196 0.439567 0.204486
0.839826 0.442344 0.213764
0.0478828 0.387076 0.0937209
0.0464485 0.388846 0.0942092
0.0453193 0.390372 0.0921492
0.0448463 0.39089 0.0856336
0.0445106 0.390906 0.0767834
0.0444343 0.39028 0.0659037
0.0445411 0.388602 0.0561837
0.0446479 0.385122 0.0478523
0.0454871 0.383032 0.0414893
0.0503548 0.38819 0.0395361
0.0669413 0.399634 0.0402991
0.103853 0.413474 0.0438087
0.161318 0.43122 0.050248
0.248997 0.45951 0.0608377
0.375494 0.492699 0.0750896
0.479973 0.501198 0.0829633
0.535073 0.500587 0.09308
0.59144 0.498787 0.101762
0.637339 0.49839 0.112367
0.673121 0.497826 0.123583
0.705531 0.49369 0.132235
0.737606 0.484123 0.139361
0.766339 0.473762 0.146914
0.79237 0.468193 0.159991
0.813626 0.467674 0.176287
0.831342 0.470222 0.192813
0.846937 0.47425 0.207904
0.857466 0.479072 0.21976
0.859007 0.480461 0.221942
0.858839 0.48098 0.222171
0.858976 0.481788 0.223041
0.856352 0.483421 0.228046
0.850523 0.486076 0.23682
0.0466621 0.429435 0.109163
0.045655 0.431083 0.110018
0.0449226 0.432624 0.108614
0.0446021 0.43328 0.101946
0.0444495 0.43328 0.0917372
0.0444343 0.432578 0.0795453
0.0446784 0.431403 0.0670481
0.0446174 0.428443 0.0564736
0.0450294 0.424949 0.0476387
0.0470893 0.424384 0.0415961
0.0570535 0.433295 0.0403449
0.0843671 0.445716 0.0421759
0.13637 0.460563 0.046952
0.210712 0.482094 0.0564584
0.316136 0.518212 0.0742657
0.440604 0.547723 0.0902266
0.531533 0.553841 0.100053
0.582361 0.553048 0.111971
0.635935 0.551369 0.122103
0.679469 0.55108 0.13611
0.7122 0.550332 0.152422
0.741115 0.546441 0.166537
0.769635 0.537377 0.17908
0.796292 0.525811 0.188647
0.819242 0.519371 0.200488
0.838102 0.517357 0.214115
0.853147 0.518532 0.229877
0.863951 0.521248 0.243992
0.867994 0.522972 0.249226
0.868086 0.523827 0.249409
0.867964 0.52459 0.249546
0.865187 0.526345 0.253468
0.859953 0.528588 0.262577
0.0478676 0.471809 0.13962
0.04654 0.473716 0.142229
0.0456703 0.475273 0.141329
0.0453346 0.475578 0.133272
0.0451057 0.47538 0.121202
0.0452735 0.474571 0.105562
0.0455024 0.473106 0.0879835
0.0457771 0.470542 0.0737011
0.0461891 0.466636 0.0615702
0.0475624 0.464042 0.0513466
0.0534981 0.466743 0.0454414
0.0738231 0.477943 0.0454261
0.119707 0.491279 0.0484321
0.189914 0.508431 0.0562448
0.274861 0.536599 0.0724804
0.387106 0.575296 0.097734
0.498054 0.598489 0.11191
0.576425 0.603433 0.123003
0.625315 0.602823 0.135637
0.675502 0.600504 0.14641
0.717433 0.600336 0.166842
0.748882 0.59968 0.193454
0.775158 0.595865 0.213931
0.80087 0.586877 0.230381
0.823072 0.575158 0.238224
0.842969 0.567697 0.246921
0.859434 0.564294 0.257313
0.871321 0.564385 0.267872
0.877424 0.565499 0.273762
0.877653 0.566461 0.273701
0.877638 0.567391 0.273838
0.875135 0.569284 0.278782
0.869932 0.571756 0.287739
0.0520638 0.51397 0.180789
0.0501869 0.516304 0.18471
0.0488136 0.518029 0.185458
0.0479591 0.518303 0.178836
0.0473335 0.517693 0.166537
0.0472725 0.515892 0.148333
0.0478065 0.513848 0.126848
0.0483864 0.511528 0.104891
0.0492409 0.508003 0.0863966
0.0506752 0.503777 0.0713817
0.055375 0.5028 0.0595865
0.0713207 0.510048 0.0550088
0.110033 0.522179 0.0555276
0.177508 0.536065 0.0602731
0.255512 0.558404 0.0736553
0.344869 0.591089 0.0975052
0.452506 0.627298 0.125353
0.549828 0.646738 0.140642
0.617914 0.651057 0.153079
0.663752 0.650462 0.167178
0.711116 0.64828 0.183932
0.751064 0.647807 0.213626
0.78172 0.646677 0.244053
0.806455 0.643168 0.267475
0.828107 0.635584 0.284443
0.84625 0.624125 0.293446
0.862394 0.617105 0.299413
0.875792 0.613169 0.305821
0.882567 0.61268 0.310216
0.884031 0.613809 0.310262
0.884443 0.615259 0.310842
0.882414 0.617441 0.31548
0.878904 0.62005 0.324086
0.0609445 0.554742 0.227268
0.05832 0.557244 0.232166
0.0563211 0.559396 0.235157
0.0550393 0.559792 0.229847
0.0537575 0.559152 0.219425
0.0530556 0.557229 0.202976
0.0529946 0.554543 0.181033
0.0539864 0.551537 0.155245
0.0554818 0.547509 0.129366
0.0576638 0.542718 0.105211
0.0623636 0.539193 0.0846876
0.0754253 0.541436 0.0730449
0.110658 0.551781 0.0695354
0.16997 0.563348 0.0705882
0.246296 0.582071 0.0810712
0.3252 0.609705 0.102358
0.414115 0.644541 0.131289
0.511971 0.676112 0.157717
0.596765 0.692164 0.174075
0.657465 0.696788 0.192172
0.699046 0.696086 0.209873
0.742687 0.693553 0.233341
0.781857 0.692409 0.267384
0.811368 0.691234 0.297963
0.834226 0.688136 0.321798
0.852216 0.682551 0.340002
0.867887 0.672419 0.352438
0.879499 0.667491 0.357671
0.887022 0.665812 0.3608
0.890043 0.666606 0.36202
0.890394 0.668055 0.362417
0.889143 0.669886 0.365484
0.887144 0.671687 0.371588
0.0754559 0.593591 0.275929
0.0724041 0.595941 0.279957
0.0691691 0.597971 0.283131
0.0675212 0.598764 0.280751
0.0661021 0.598825 0.273487
0.0657969 0.596948 0.259358
0.0651865 0.593545 0.2392
0.0656596 0.589868 0.214603
0.066865 0.585168 0.186816
0.0698253 0.580102 0.157778
0.0751507 0.57496 0.128847
0.0877394 0.572915 0.103731
0.120836 0.578729 0.0921798
0.174777 0.589792 0.0893568
0.241962 0.606012 0.0965744
0.317678 0.630289 0.115267
0.39295 0.659892 0.142702
0.476967 0.693355 0.172915
0.56463 0.720989 0.199771
0.640574 0.735439 0.219226
0.694392 0.73901 0.23946
0.731456 0.739361 0.262074
0.772107 0.737423 0.290791
0.809232 0.73637 0.32459
0.837781 0.735531 0.354818
0.858259 0.734066 0.378546
0.874418 0.730526 0.397147
0.887053 0.721813 0.412421
0.894774 0.718807 0.419089
0.898131 0.718898 0.419699
0.900664 0.719875 0.417639
0.902281 0.721202 0.415808
0.902708 0.722637 0.416083
0.103716 0.626459 0.309422
0.100679 0.628489 0.31342
0.0962234 0.63093 0.317998
0.0938277 0.632151 0.318669
0.0915236 0.632624 0.314733
0.0906691 0.63154 0.303029
0.0904402 0.629007 0.286854
0.0911574 0.624842 0.264469
0.0927596 0.619959 0.23769
0.0950637 0.614359 0.208682
0.101045 0.608591 0.178195
0.113802 0.603922 0.146197
0.146105 0.606134 0.125521
0.195895 0.616053 0.119142
0.256046 0.631037 0.122744
0.324987 0.652399 0.138918
0.396628 0.679759 0.163638
0.465995 0.709636 0.191775
0.542275 0.739864 0.220661
0.619394 0.76289 0.244495
0.687297 0.774945 0.263294
0.734905 0.778897 0.28397
0.767712 0.780041 0.312886
0.803937 0.778576 0.343206
0.837644 0.777462 0.373175
0.863859 0.77673 0.399741
0.883635 0.776089 0.421881
0.898573 0.77406 0.442649
0.907805 0.768368 0.463371
0.908751 0.76878 0.470039
0.909026 0.770459 0.471015
0.910063 0.77174 0.469673
0.910994 0.772519 0.467414
0.136431 0.660166 0.355016
0.134432 0.661509 0.356527
0.130938 0.66389 0.361685
0.128191 0.665339 0.363058
0.125994 0.665736 0.360113
0.125154 0.664332 0.350454
0.124575 0.662287 0.336172
0.124758 0.658747 0.316457
0.126101 0.653544 0.292287
0.128618 0.647715 0.265446
0.132021 0.640757 0.235065
0.142763 0.635584 0.204074
0.172366 0.635676 0.179873
0.216114 0.642542 0.168765
0.268574 0.654429 0.169085
0.325597 0.670817 0.178851
0.387976 0.692195 0.197635
0.450477 0.71809 0.221866
0.515373 0.746532 0.249836
0.588174 0.775753 0.278721
0.66006 0.798428 0.302708
0.722591 0.811032 0.323949
0.766308 0.815549 0.346471
0.796506 0.817594 0.379187
0.827909 0.816724 0.40763
0.856916 0.815274 0.433783
0.881437 0.814618 0.456886
0.899504 0.813596 0.477791
0.911681 0.812879 0.497917
0.913802 0.812619 0.509651
0.913664 0.813718 0.511803
0.914305 0.814847 0.511421
0.915831 0.815305 0.508751
0.174533 0.688197 0.39321
0.173114 0.689281 0.394003
0.169192 0.691341 0.398444
0.166033 0.692943 0.400366
0.163699 0.693462 0.398489
0.162768 0.692561 0.391058
0.161868 0.690105 0.378363
0.161089 0.686687 0.360449
0.161837 0.683024 0.341146
0.162875 0.677272 0.318013
0.166781 0.670665 0.290608
0.177371 0.665751 0.261021
0.204623 0.66537 0.23769
0.240146 0.668452 0.219532
0.286305 0.677699 0.215717
0.334249 0.69015 0.221469
0.38497 0.705638 0.234989
0.438941 0.725673 0.255756
0.494652 0.749355 0.279866
0.558312 0.777356 0.309224
0.629007 0.806699 0.340032
0.696132 0.829206 0.365133
0.752972 0.8421 0.388083
0.795071 0.84744 0.41297
0.822278 0.849744 0.444495
0.848737 0.849622 0.470863
0.873472 0.848249 0.493599
0.894011 0.84712 0.513893
0.909407 0.846983 0.533364
0.912734 0.847929 0.544594
0.912642 0.849119 0.547799
0.912566 0.850324 0.548852
0.912932 0.851362 0.547662
0.208453 0.713466 0.429191
0.208194 0.713878 0.42829
0.205188 0.715541 0.431662
0.202426 0.716579 0.432685
0.199268 0.71722 0.431449
0.197757 0.716289 0.424887
0.196536 0.714137 0.414542
0.196185 0.711238 0.401129
0.196307 0.707591 0.384924
0.196139 0.703624 0.365057
0.200015 0.697993 0.340749
0.212482 0.694102 0.315602
0.238773 0.693141 0.292409
0.266911 0.693294 0.27042
0.306218 0.699641 0.261997
0.348486 0.709102 0.263951
0.390631 0.72079 0.273671
0.435935 0.735729 0.290852
0.484169 0.753964 0.312734
0.535607 0.776486 0.339178
0.598459 0.804883 0.370657
0.667109 0.83386 0.402716
0.729778 0.855558 0.429191
0.781781 0.868574 0.452964
0.820966 0.874205 0.47982
0.844816 0.877012 0.509392
0.865995 0.876982 0.532479
0.885695 0.876326 0.552819
0.900938 0.875822 0.570504
0.906645 0.876646 0.583215
0.906386 0.877577 0.584527
0.906188 0.878523 0.586023
0.905974 0.879377 0.58645
0.236652 0.736049 0.463752
0.236454 0.736171 0.462531
0.234882 0.736858 0.462959
0.233204 0.737179 0.462242
0.231067 0.737316 0.460685
0.229862 0.736584 0.45568
0.228931 0.735073 0.447745
0.22829 0.732479 0.436622
0.226703 0.728908 0.421744
0.226688 0.725109 0.40444
0.232914 0.721553 0.384237
0.248676 0.719478 0.363455
0.270878 0.718364 0.340993
0.294469 0.717464 0.319234
0.325887 0.720104 0.305928
0.36376 0.727443 0.305058
0.402701 0.736919 0.3131
0.441505 0.748455 0.326162
0.483619 0.76228 0.346624
0.529564 0.780072 0.371801
0.579507 0.80148 0.400259
0.641459 0.82945 0.433661
0.706554 0.856901 0.465019
0.766323 0.87686 0.491035
0.808698 0.888029 0.514397
0.842496 0.89453 0.542199
0.863142 0.898024 0.569436
0.880369 0.899382 0.592447
0.893278 0.899947 0.611673
0.897887 0.900832 0.624781
0.897581 0.901747 0.626993
0.897215 0.902617 0.628046
0.896971 0.903426 0.629068
0.250706 0.749142 0.488304
0.249973 0.748974 0.486488
0.248676 0.748943 0.485527
0.247944 0.748577 0.482231
0.24686 0.748135 0.479011
0.245899 0.74699 0.472908
0.244846 0.745495 0.465705
