bundles/resolve-cinematic-luts/Phantom Luts/P4k & P6K Phntm Film LUTs - V6/P6k/Gen 4 Colour/P6k Eterna Gen4.cube
TITLE "Generated by Resolve"
LUT_3D_SIZE 5
0 0.0286717 0.0283818
0.169986 0.0419318 0.063859
0.448875 0.0938888 0.152956
0.769497 0.195148 0.263432
0.822293 0.209552 0.302937
0.0459144 0.210697 0.130404
0.201282 0.222171 0.0648966
0.507149 0.192706 0.120958
0.806149 0.256123 0.220417
0.816922 0.25745 0.227192
0.0526284 0.622202 0.354284
0.0421759 0.668971 0.273106
0.583352 0.657206 0.153933
0.899336 0.663081 0.315541
0.93431 0.658335 0.332494
0.258671 0.913191 0.643778
0.260227 0.920638 0.606134
0.425147 0.936202 0.436667
0.889265 0.932967 0.537438
0.954849 0.925414 0.630976
0.256641 0.919829 0.685634
0.263645 0.918578 0.64921
0.337163 0.93576 0.513527
0.774716 0.944396 0.556344
0.959411 0.955749 0.749523
0.0450141 0.0336614 0.153201
0.199527 0.0455329 0.14963
0.449454 0.0737774 0.211444
0.765469 0.162661 0.325216
0.837079 0.19086 0.385412
0.04094 0.191531 0.172641
0.205051 0.206867 0.203738
0.557046 0.165072 0.217823
0.819654 0.217029 0.304189
0.838727 0.214817 0.334768
0.0474098 0.573388 0.405661
0.0259709 0.610513 0.36878
0.562127 0.634302 0.175067
0.894621 0.637995 0.330785
0.935225 0.627207 0.352514
0.246815 0.893782 0.694545
0.245441 0.898161 0.658854
0.358038 0.925063 0.42771
0.878035 0.924346 0.507347
0.953384 0.916365 0.614191
0.271839 0.916487 0.750286
0.27779 0.914702 0.720058
0.290517 0.924941 0.555062
0.739361 0.944564 0.552636
0.96022 0.955932 0.753796
0.15967 0.0470588 0.384848
0.276783 0.0540169 0.408225
0.505882 0.0773327 0.359686
0.768231 0.148943 0.434653
0.831235 0.171954 0.517571
0.0367285 0.147066 0.301839
0.0606699 0.0758679 0.387961
0.5196 0.0927138 0.388388
0.78114 0.158999 0.469001
0.831571 0.179934 0.558419
0.0634623 0.537072 0.471489
0.0851453 0.56321 0.509102
0.560449 0.582361 0.552178
0.914504 0.563073 0.574823
0.947799 0.530831 0.582406
0.275776 0.863432 0.749844
0.26508 0.869047 0.749004
0.325368 0.879164 0.662409
0.851637 0.896086 0.575128
0.95761 0.884337 0.64828
0.372717 0.92755 0.832013
0.343359 0.931044 0.827298
0.320806 0.918441 0.746395
0.67425 0.946639 0.607736
0.963394 0.958618 0.788602
0.292607 0.0624857 0.604562
0.36405 0.0670481 0.644038
0.584817 0.0788434 0.633433
0.760433 0.139879 0.600549
0.78851 0.150103 0.637308
0.0630655 0.0913558 0.514061
0.179934 0.0548409 0.582696
0.543328 0.0765545 0.652476
0.770016 0.152773 0.615763
0.802945 0.170016 0.665843
0.0628367 0.520989 0.619852
0.0566415 0.520638 0.668162
0.401556 0.513375 0.804868
0.917372 0.466407 0.768231
0.944518 0.437766 0.780285
0.316121 0.845167 0.789029
0.281285 0.84448 0.793591
0.381964 0.84242 0.791638
0.840803 0.846235 0.823072
0.959991 0.839109 0.832074
0.496925 0.930907 0.882063
0.46717 0.940276 0.894545
0.454383 0.939254 0.874128
0.794949 0.947753 0.890684
0.970962 0.962478 0.91281
0.400671 0.0771191 0.716304
0.428855 0.0791028 0.720424
0.592355 0.0951553 0.728374
0.808667 0.186023 0.804395
0.81323 0.191562 0.803037
0.226612 0.0638437 0.669261
0.317479 0.0716106 0.702647
0.526482 0.0873884 0.727138
0.810208 0.188281 0.80766
0.824826 0.20679 0.822675
0.141833 0.524071 0.795438
0.167452 0.513588 0.824887
0.302678 0.431678 0.900771
0.872251 0.342245 0.92314
0.911803 0.327733 0.895369
0.284459 0.843458 0.865599
0.278401 0.830076 0.870085
0.325399 0.800229 0.889036
0.753643 0.808804 0.941802
0.948669 0.785885 0.938643
0.522194 0.945174 0.92665
0.526131 0.94551 0.927749
0.521553 0.944579 0.92018
0.811414 0.954818 0.945022
0.968154 0.968719 0.967559
