bundles/resolve-cinematic-luts/Phantom Luts/P4k & P6K Phntm Film LUTs - V6/P6k/Gen 4 Colour/P6k Eastman Gen4-Legacy.cube
TITLE "Generated by Resolve"
LUT_3D_SIZE 5
0.0462501 0.0390021 0.0390021
0.138781 0.0390021 0.0463264
0.353597 0.0557412 0.0443885
0.530663 0.11014 0.0698558
0.632456 0.15169 0.135134
0.0628977 0.130251 0.0763104
0.139742 0.138262 0.0660258
0.383398 0.123644 0.0657969
0.590448 0.194263 0.106828
0.676265 0.241886 0.143053
0.12163 0.476188 0.237736
0.114305 0.458976 0.135805
0.474189 0.50631 0.125643
0.707301 0.520058 0.191791
0.813931 0.521309 0.262715
0.238819 0.790066 0.496986
0.216983 0.749569 0.389441
0.441001 0.751125 0.296376
0.690791 0.755718 0.292638
0.817746 0.750896 0.391073
0.281666 0.852018 0.574929
0.265782 0.825986 0.493553
0.433936 0.814282 0.400122
0.655283 0.816236 0.397467
0.815915 0.81857 0.467399
0.0464637 0.0394446 0.0916304
0.148028 0.0415198 0.102708
0.361517 0.0390021 0.10161
0.528618 0.0619364 0.152789
0.622461 0.118395 0.230564
0.0603037 0.121202 0.104692
0.145785 0.138979 0.138827
0.417105 0.109606 0.0967422
0.614755 0.154376 0.144198
0.67335 0.177905 0.179431
0.134783 0.481636 0.317235
0.116793 0.46154 0.236164
0.467933 0.497734 0.140383
0.730068 0.488045 0.231952
0.814115 0.481895 0.284184
0.24448 0.789578 0.545327
0.225559 0.763622 0.480217
0.383703 0.74136 0.293584
0.677729 0.741222 0.270527
0.822019 0.73106 0.388342
0.295811 0.86862 0.624567
0.281102 0.852811 0.565484
0.381689 0.814527 0.413672
0.617899 0.818051 0.410117
0.810086 0.819501 0.469017
0.0564431 0.0532235 0.268574
0.192889 0.0390021 0.281071
0.366155 0.0390021 0.275639
0.541054 0.0740978 0.324544
0.616129 0.119936 0.37734
0.0390021 0.0930953 0.240299
0.0927901 0.0645914 0.312306
0.371527 0.0480354 0.284581
0.558572 0.0838636 0.316365
0.638285 0.131762 0.366888
0.128283 0.491035 0.403616
0.138933 0.492393 0.411337
0.514199 0.531365 0.513985
0.755749 0.443229 0.454444
0.813367 0.407919 0.425818
0.26424 0.794827 0.616831
0.263798 0.77937 0.596994
0.366598 0.755444 0.530831
0.681254 0.742657 0.459266
0.836271 0.709087 0.456168
0.335393 0.899535 0.707866
0.314412 0.887205 0.679988
0.300282 0.861448 0.58204
0.55903 0.825116 0.469368
0.812253 0.823682 0.488411
0.122698 0.055314 0.408606
0.250202 0.0424201 0.416464
0.398718 0.0479133 0.406851
0.563134 0.0959182 0.444434
0.615976 0.124193 0.489677
0.0390021 0.0767529 0.358282
0.158267 0.0530251 0.428504
0.391241 0.0496529 0.417792
0.568994 0.100603 0.449836
0.626383 0.130953 0.486625
0.109102 0.473548 0.520058
0.112917 0.457313 0.531319
0.500572 0.443229 0.708324
0.761669 0.411078 0.654002
0.807721 0.378622 0.639139
0.271778 0.795285 0.678843
0.276905 0.782055 0.671443
0.450248 0.781521 0.700298
0.732372 0.760174 0.733333
0.861265 0.692927 0.682704
0.436255 0.933013 0.79263
0.422782 0.927535 0.778683
0.425391 0.919982 0.751842
0.625834 0.889754 0.747097
0.855482 0.880491 0.701091
0.222904 0.0624857 0.507103
0.306279 0.0599069 0.511284
0.445548 0.0752422 0.513832
0.609644 0.134371 0.561791
0.656962 0.16408 0.596582
0.08748 0.0735637 0.474113
0.241199 0.0623026 0.512871
0.431022 0.0736858 0.516777
0.615579 0.141741 0.573388
0.664836 0.170474 0.604181
0.118761 0.453437 0.614908
0.115923 0.422782 0.615885
0.540261 0.369146 0.801602
0.77966 0.367163 0.759655
0.80911 0.355703 0.744884
0.292134 0.786999 0.766537
0.294804 0.766522 0.766537
0.446296 0.750896 0.822889
0.753246 0.695552 0.871946
0.868727 0.669261 0.827115
0.459495 0.941894 0.839673
0.439689 0.932372 0.827176
0.468971 0.932586 0.831815
0.700221 0.923232 0.864408
0.890837 0.913649 0.883207
