bundles/resolve-cinematic-luts/Phantom Luts/P4k & P6K Phntm Film LUTs - V6/P6k/Gen 4 Colour/P6k Bleach Gen4.cube
TITLE "Generated by Resolve"
LUT_3D_SIZE 33
0.0153353 0.0269474 0.0176242
0.0153353 0.0269474 0.0176242
0.0153353 0.0269474 0.0176242
0.0174563 0.0269322 0.0179904
0.0238193 0.0279698 0.0200656
0.0402228 0.0297398 0.0220188
0.0596323 0.0307012 0.0246128
0.0798962 0.0319829 0.0274052
0.101167 0.0333562 0.0294957
0.122591 0.0348211 0.031632
0.14551 0.0368353 0.033875
0.170886 0.0387732 0.0370642
0.198322 0.0411994 0.0401312
0.227253 0.0437171 0.043595
0.257252 0.0467842 0.0469368
0.289479 0.0498054 0.0510719
0.324941 0.0529183 0.0560616
0.364202 0.0558175 0.0618143
0.409476 0.0580453 0.0665141
0.458366 0.0603494 0.0702678
0.504372 0.0643626 0.0755016
0.542809 0.069688 0.0823377
0.572869 0.076997 0.0895247
0.600519 0.08542 0.0981765
0.628 0.0938888 0.107408
0.656046 0.102754 0.116503
0.682109 0.112551 0.12636
0.706569 0.122362 0.136294
0.730327 0.132845 0.146288
0.752926 0.143557 0.156832
0.775402 0.155032 0.168109
0.797879 0.167834 0.180728
0.818784 0.181308 0.192828
0.0153353 0.0269474 0.0176242
0.0153353 0.0269474 0.0176242
0.0153353 0.0269474 0.0176242
0.0172732 0.0268864 0.0178988
0.0254978 0.028397 0.0205692
0.044831 0.0301061 0.0227359
0.0665141 0.0311589 0.0256657
0.0890516 0.0325628 0.0281987
0.112734 0.0345617 0.0306706
0.137881 0.0364538 0.0332647
0.164782 0.038468 0.0361486
0.192935 0.0409705 0.0392615
0.222782 0.0434882 0.0429236
0.254032 0.0465248 0.0460365
0.286046 0.049546 0.0498817
0.322042 0.0526284 0.054902
0.361379 0.055787 0.0602579
0.407324 0.0582284 0.0653239
0.457328 0.0606241 0.0689708
0.503014 0.0646067 0.0741283
0.541634 0.0699779 0.0806134
0.57232 0.0769513 0.0877699
0.5991 0.0853437 0.0963912
0.626688 0.0937972 0.105135
0.654002 0.102495 0.114168
0.680171 0.112276 0.123598
0.703929 0.121904 0.132799
0.726864 0.132052 0.142519
0.748806 0.14229 0.152468
0.770748 0.153643 0.162982
0.791028 0.165042 0.173785
0.811643 0.177386 0.185321
0.83122 0.190845 0.197177
0.0153353 0.0269474 0.0176242
0.0153353 0.0269474 0.0176242
0.0153353 0.0269474 0.0176242
0.0157321 0.0268254 0.0175479
0.0249638 0.0284276 0.0204318
0.0449836 0.0304265 0.0225834
0.0691997 0.0320439 0.0260929
0.0940414 0.0337835 0.0292363
0.118822 0.0357824 0.0311589
0.145922 0.0379492 0.033753
0.173663 0.0401617 0.0363622
0.203861 0.0425269 0.0390631
0.234592 0.0447242 0.0420081
0.265354 0.0474861 0.0441138
0.298924 0.0506142 0.0480049
0.33611 0.0540475 0.052369
0.378622 0.0571756 0.0574044
0.42858 0.0597086 0.0615549
0.478645 0.0630961 0.066392
0.520211 0.0674601 0.0714885
0.554467 0.0734264 0.0784924
0.583322 0.0809644 0.0867781
0.609323 0.0893111 0.0954299
0.63772 0.0981003 0.103639
0.663478 0.107179 0.112413
0.6878 0.116686 0.121202
0.711208 0.126314 0.130495
0.732998 0.136141 0.139422
0.753857 0.145968 0.14876
0.77377 0.155749 0.158083
0.792828 0.166064 0.167498
0.811246 0.17731 0.177432
0.829801 0.189166 0.187945
0.0155795 0.0287022 0.0181125
0.0155489 0.0285496 0.0180209
0.0154116 0.0280003 0.0176699
0.01561 0.0272679 0.0176089
0.0221103 0.029221 0.0191196
0.0385748 0.0314946 0.0212406
0.0626688 0.0331273 0.0241093
0.0904707 0.0351873 0.0280461
0.117891 0.0367895 0.0302434
0.145815 0.0387274 0.0321965
0.174456 0.041001 0.0339055
0.20415 0.0429847 0.0366217
0.233356 0.0450446 0.0392004
0.264179 0.047364 0.0409705
0.298192 0.0503853 0.0436561
0.3355 0.0536355 0.0466011
0.376211 0.0560006 0.0497749
0.425376 0.0585489 0.0536355
0.472541 0.0609598 0.0568093
0.514794 0.0655375 0.0625925
0.550408 0.0713207 0.0695659
0.578424 0.0786297 0.0776989
0.605676 0.0866712 0.0858167
0.633448 0.0943618 0.0936904
0.659281 0.103059 0.101976
0.684153 0.1122 0.110658
0.706294 0.120821 0.118456
0.727962 0.130114 0.127123
0.748745 0.139544 0.135668
0.767193 0.148653 0.143679
0.786648 0.159213 0.153368
0.804318 0.16939 0.161929
0.822065 0.180529 0.171237
0.0192111 0.0418555 0.0233768
0.0203098 0.0466163 0.0245975
0.0210575 0.0492409 0.0240482
0.0233616 0.0489204 0.022797
0.034287 0.0501259 0.0237583
0.0493019 0.055375 0.0256046
0.075639 0.052491 0.0242008
0.102739 0.0514534 0.0262455
0.130251 0.0482032 0.028687
0.158556 0.0485084 0.0312352
0.187411 0.0491493 0.0339055
0.215549 0.0505226 0.0361028
0.243595 0.0512398 0.0372168
0.271595 0.0513466 0.0376135
0.302815 0.0529335 0.0390478
0.336507 0.0551003 0.0417639
0.374273 0.0565652 0.0446632
0.420172 0.0590982 0.0470588
0.466178 0.060441 0.0490883
0.506798 0.0633097 0.0530709
0.541588 0.0688029 0.0598764
0.569329 0.0749981 0.0672465
0.59762 0.0818647 0.0742351
0.624521 0.0884108 0.0802625
0.651514 0.0974136 0.0887312
0.675883 0.105592 0.0969406
0.698604 0.114443 0.104433
0.720058 0.123705 0.112596
0.740673 0.132906 0.120546
0.759335 0.142168 0.128618
0.77821 0.152148 0.137438
0.795773 0.163119 0.146334
0.812955 0.174472 0.155856
0.0247349 0.0726177 0.03505
0.02533 0.0785382 0.035584
0.026154 0.0820783 0.0318761
0.0287938 0.0818494 0.0267033
0.0410925 0.0810864 0.0280919
0.0642863 0.0847181 0.0302281
0.0846418 0.090425 0.0275273
0.116655 0.0876478 0.0274052
0.14815 0.0840314 0.0292668
0.178393 0.0786297 0.0332952
0.206775 0.0732128 0.0362707
0.234623 0.0721599 0.0381476
0.262348 0.070634 0.0406348
0.29221 0.0705272 0.0433814
0.322301 0.0704204 0.0452583
0.356252 0.0708324 0.0474098
0.393454 0.0712444 0.0488746
0.436652 0.0714122 0.0497292
0.47921 0.072694 0.0517128
0.516548 0.0758068 0.0547494
0.548455 0.0807202 0.0601511
0.576303 0.0869612 0.0663005
0.604044 0.0925307 0.0730602
0.62974 0.0981918 0.078996
0.654353 0.10544 0.085893
0.678614 0.114336 0.0938735
0.70135 0.124361 0.102205
0.722118 0.133394 0.110552
0.744091 0.145953 0.120668
0.762112 0.154818 0.128511
0.780163 0.164706 0.137621
0.797543 0.175204 0.146609
0.814328 0.187228 0.156741
0.0281682 0.10695 0.0442969
0.0289769 0.113283 0.044831
0.0294194 0.116548 0.0378729
0.0310521 0.11664 0.0301213
0.0393072 0.116258 0.0292363
0.0640116 0.1187 0.0316777
0.0972457 0.122469 0.0333715
0.119966 0.126726 0.0284428
0.149767 0.129625 0.0260471
0.190478 0.123476 0.0286412
0.225467 0.115343 0.0339971
0.2551 0.107759 0.0387884
0.285267 0.100908 0.043595
0.314656 0.0965744 0.0468605
0.346105 0.0964981 0.0493935
0.382849 0.0961013 0.0526589
0.425025 0.0958114 0.055375
0.467094 0.0959029 0.0579538
0.504768 0.0977188 0.0618296
0.53846 0.101579 0.0665751
0.57055 0.10695 0.0727245
0.59884 0.113878 0.0794232
0.625483 0.120928 0.0865187
0.650675 0.128481 0.0936141
0.675166 0.137072 0.101305
0.698314 0.146471 0.109743
0.720195 0.156359 0.118242
0.741314 0.167315 0.127459
0.76109 0.178805 0.13727
0.781262 0.191196 0.148425
0.80116 0.205005 0.160037
0.819608 0.21796 0.171878
0.836149 0.230716 0.183078
0.0303807 0.139361 0.0533913
0.0307012 0.145418 0.0533608
0.0314488 0.14931 0.0458076
0.0319829 0.149508 0.0338903
0.0362402 0.148547 0.0298619
0.0551614 0.150729 0.0310826
0.0903944 0.154147 0.0339361
0.129076 0.158541 0.0349889
0.154925 0.161883 0.0294347
0.187579 0.16408 0.0263981
0.228779 0.160082 0.0274662
0.266758 0.155688 0.0304112
0.303319 0.145754 0.0390478
0.337758 0.137377 0.0456855
0.373587 0.131487 0.0511177
0.413382 0.126452 0.0548257
0.456016 0.125139 0.0580606
0.494804 0.126574 0.0623789
0.528984 0.129335 0.067216
0.562081 0.133974 0.074464
0.591501 0.140276 0.0817578
0.619974 0.147509 0.0904707
0.646815 0.155886 0.0993515
0.672114 0.16492 0.108537
0.696193 0.174884 0.117647
0.71928 0.185916 0.12781
0.741238 0.197482 0.138521
0.763287 0.20972 0.150103
0.784009 0.223667 0.162036
0.804974 0.237507 0.175097
0.825483 0.252003 0.189364
0.845121 0.266728 0.203265
0.864103 0.282506 0.218265
0.0306859 0.170718 0.0639811
0.0307012 0.176226 0.063798
0.03122 0.180117 0.0542153
0.0320592 0.180621 0.037705
0.0324559 0.178973 0.0285649
0.0434424 0.180362 0.0295262
0.0773632 0.184604 0.0322423
0.117464 0.189166 0.0354467
0.161395 0.194446 0.0353246
0.191165 0.197772 0.0298314
0.225681 0.199573 0.0265202
0.266804 0.197345 0.0269627
0.307622 0.195956 0.0287938
0.353521 0.185595 0.0389258
0.398489 0.176181 0.0465553
0.444358 0.168704 0.0534676
0.484672 0.163439 0.0598611
0.5205 0.164019 0.065919
0.55314 0.16672 0.0734569
0.583169 0.172229 0.0808576
0.611673 0.179919 0.089662
0.639078 0.189319 0.0993973
0.665888 0.199405 0.109819
0.691356 0.209842 0.1205
0.716289 0.221469 0.132586
0.740169 0.233234 0.144808
0.76286 0.246326 0.157733
0.786786 0.261463 0.172869
0.807858 0.275822 0.18706
0.830594 0.292378 0.203693
0.852201 0.309773 0.22063
0.874205 0.327565 0.238041
0.893278 0.345342 0.254185
0.029633 0.20087 0.0741894
0.0295109 0.206775 0.0739605
0.0304112 0.21033 0.0649882
0.0315404 0.210727 0.0444648
0.0319829 0.208942 0.0282444
0.0340124 0.208698 0.0271763
0.0595407 0.212863 0.0290684
0.100511 0.218204 0.0324865
0.144594 0.223926 0.0363317
0.19498 0.230472 0.0361639
0.226688 0.234165 0.0316014
0.263676 0.236042 0.0276799
0.305959 0.235569 0.0263371
0.352285 0.233494 0.0274968
0.410727 0.224628 0.0379644
0.463752 0.217334 0.0466011
0.508217 0.213001 0.0574655
0.543648 0.212161 0.066804
0.575509 0.215015 0.0773175
0.604623 0.219944 0.088426
0.632776 0.228092 0.0995346
0.659388 0.237217 0.111208
0.685603 0.247898 0.122881
0.71191 0.260014 0.135958
0.736751 0.273289 0.14931
0.762615 0.288762 0.165179
0.78703 0.30454 0.181308
0.811749 0.322423 0.199329
0.834791 0.339803 0.2168
0.85687 0.357153 0.233524
0.876753 0.374395 0.248722
0.893965 0.391257 0.263416
0.907942 0.405921 0.275883
0.0277256 0.229679 0.0831769
0.0272984 0.235813 0.0830701
0.0277562 0.238804 0.0744335
0.0290837 0.239338 0.0547341
0.0302434 0.237324 0.0323339
0.0307164 0.235843 0.0249485
0.0419318 0.238712 0.0257115
0.0799878 0.244968 0.0279545
0.124788 0.251194 0.0317998
0.173541 0.258839 0.0370336
0.229191 0.267155 0.0374304
0.263874 0.271412 0.0341497
0.303609 0.273777 0.0298772
0.349889 0.273564 0.0267491
0.40589 0.270832 0.0263828
0.471107 0.265553 0.0370947
0.520745 0.264454 0.0510109
0.560754 0.264958 0.0653544
0.59469 0.269459 0.0796216
0.625849 0.27686 0.0943618
0.654871 0.284306 0.109361
0.682017 0.294759 0.124132
0.708888 0.306645 0.139712
0.736202 0.320989 0.156435
0.763409 0.337987 0.175143
0.788983 0.35407 0.193072
0.813367 0.372137 0.210483
0.835157 0.388998 0.226612
0.85565 0.406104 0.241077
0.87277 0.420966 0.253285
0.887419 0.436988 0.264454
0.898985 0.451255 0.272801
0.909163 0.465537 0.280552
0.0252537 0.257618 0.091722
0.0245823 0.262974 0.0911574
0.0247501 0.266239 0.0826276
0.0256962 0.266987 0.0640269
0.0273594 0.265644 0.0406653
0.0281834 0.262913 0.0240177
0.0318151 0.263752 0.0227817
0.0572519 0.269749 0.0234836
0.100954 0.277226 0.026566
0.150835 0.285115 0.0315251
0.204105 0.295018 0.0378119
0.264256 0.305577 0.0395361
0.302296 0.311376 0.0376898
0.34728 0.31519 0.0340734
0.401938 0.315358 0.0297398
0.463432 0.313603 0.0282902
0.520928 0.315297 0.0396429
0.568551 0.321859 0.0587625
0.609812 0.32874 0.0804608
0.644404 0.338155 0.100923
0.676585 0.350744 0.120455
0.706462 0.365209 0.14023
0.735454 0.38143 0.159426
0.761791 0.396506 0.178347
0.786603 0.412161 0.197345
0.807721 0.426947 0.211902
0.826368 0.442206 0.224689
0.843641 0.455589 0.236332
0.860105 0.469123 0.247715
0.87335 0.482124 0.25626
0.885939 0.495155 0.264576
0.897032 0.505486 0.274128
0.906783 0.515846 0.282139
0.021622 0.28484 0.0988022
0.021088 0.290303 0.0988022
0.0209812 0.29398 0.091371
0.0218967 0.294713 0.0738537
0.0231174 0.294011 0.0501411
0.0253147 0.291661 0.0282902
0.0259861 0.290288 0.0191348
0.0351568 0.293309 0.0190585
0.0766003 0.302007 0.0216068
0.124193 0.31078 0.0251011
0.178729 0.321798 0.0316777
0.236759 0.335363 0.0402838
0.302007 0.348562 0.0432898
0.34493 0.356741 0.0434119
0.397833 0.361486 0.0404669
0.459144 0.364843 0.0357977
0.516609 0.369589 0.0380255
0.569284 0.378912 0.0517586
0.614069 0.393866 0.0732738
0.65565 0.407645 0.101503
0.692348 0.422446 0.12961
0.721904 0.437613 0.1505
0.748211 0.451865 0.169696
0.770382 0.46569 0.185412
0.791592 0.479072 0.200809
0.810864 0.491142 0.213504
0.828626 0.502693 0.22504
0.844144 0.514763 0.236271
0.859327 0.525872 0.246571
0.873167 0.535927 0.256779
0.885664 0.545678 0.266789
0.897566 0.554589 0.276692
0.906874 0.562737 0.285603
0.0175937 0.313146 0.105928
0.0169375 0.318807 0.105715
0.0167544 0.322011 0.0988327
0.0174411 0.323156 0.0829175
0.0187533 0.323095 0.0602121
0.0206302 0.321233 0.0359655
0.0226596 0.318975 0.019379
0.024918 0.319677 0.0155795
0.050782 0.326101 0.0162966
0.0995346 0.336812 0.0191348
0.15024 0.34876 0.0248112
0.209293 0.363165 0.0345159
0.271473 0.381155 0.0440375
0.343801 0.399558 0.0492561
0.395163 0.410651 0.0504158
0.456092 0.420523 0.0495613
0.512444 0.431434 0.0484016
0.564843 0.443076 0.0545815
0.611429 0.457832 0.0697185
0.651453 0.473564 0.0926223
0.689845 0.487388 0.121172
0.724697 0.499352 0.150668
0.750378 0.511696 0.170489
0.774502 0.522332 0.190463
0.795453 0.533196 0.205081
0.813367 0.543343 0.218372
0.831662 0.553628 0.231418
0.848753 0.562936 0.243565
0.863661 0.57171 0.25388
0.877287 0.580591 0.264378
0.889723 0.589349 0.275044
0.900862 0.597284 0.285664
0.910506 0.605081 0.294896
0.0126345 0.342443 0.112886
0.0118868 0.348272 0.112902
0.0116732 0.35198 0.106264
0.0123445 0.35314 0.0908064
0.0139467 0.353277 0.0695048
0.0158541 0.352483 0.0462806
0.0178225 0.350011 0.0246586
0.0190738 0.348699 0.0135653
0.0332647 0.353826 0.0115816
0.0725567 0.363561 0.0134737
0.123919 0.376913 0.0193179
0.178058 0.392981 0.0274815
0.241611 0.413672 0.0392309
0.311299 0.438224 0.0507515
0.399802 0.461982 0.0599222
0.460044 0.476524 0.065919
0.516457 0.490227 0.0695506
0.565759 0.503578 0.0714427
0.609842 0.515496 0.0794995
0.649409 0.528069 0.092958
0.686076 0.540475 0.117281
0.719783 0.551263 0.143435
0.75201 0.560632 0.171801
0.777096 0.569574 0.193332
0.800504 0.579034 0.213901
0.820203 0.587472 0.229068
0.837507 0.596017 0.243107
0.85417 0.603876 0.255421
0.868711 0.611856 0.267308
0.882368 0.619745 0.278645
0.894377 0.627176 0.289418
0.905196 0.633951 0.300542
0.914717 0.640894 0.310613
0.00756847 0.374273 0.120378
0.00640879 0.381109 0.120012
0.0059968 0.384787 0.113283
0.00675975 0.385763 0.0987869
0.00820935 0.386206 0.0788586
0.00968948 0.386267 0.05626
0.0116579 0.385458 0.0338903
0.0144808 0.383719 0.0163424
0.0172274 0.384466 0.0087129
0.048188 0.393759 0.00869764
0.094789 0.40795 0.0134127
0.150011 0.425177 0.0222477
0.211032 0.446143 0.0339361
0.286046 0.474067 0.0517433
0.373816 0.503914 0.0697795
0.471229 0.524681 0.0810101
0.524071 0.538842 0.0902419
0.57052 0.551476 0.0957504
0.611887 0.563622 0.0985885
0.649592 0.574701 0.107454
0.685237 0.584604 0.12134
0.716899 0.593942 0.143923
0.747845 0.602869 0.1691
0.777874 0.611032 0.196307
0.803555 0.618585 0.220493
0.82472 0.625452 0.239536
0.843412 0.633188 0.256229
0.859968 0.640391 0.269886
0.874052 0.646891 0.283375
0.887221 0.65391 0.295415
0.898589 0.660594 0.306767
0.909117 0.666682 0.317998
0.918471 0.672251 0.329397
0.00128176 0.410544 0.126024
0.000488289 0.417517 0.125795
0.000656138 0.421363 0.120394
0.00134279 0.422263 0.106981
0.00233463 0.423163 0.0884718
0.00389105 0.424155 0.0663615
0.0059205 0.423957 0.0444648
0.00854505 0.422354 0.0246128
0.0133516 0.423682 0.0108186
0.0300603 0.428443 0.00683604
0.0724956 0.441154 0.0108492
0.126314 0.458167 0.019913
0.192142 0.480446 0.0343023
0.265476 0.508293 0.0541695
0.355337 0.539559 0.0783856
0.452567 0.561685 0.0934615
0.533883 0.578958 0.105791
0.577966 0.591684 0.116564
0.616449 0.602899 0.123949
0.65153 0.612879 0.125933
0.685664 0.622721 0.136187
0.717067 0.631861 0.152544
0.74638 0.640208 0.174899
0.772946 0.647517 0.197314
0.801205 0.654124 0.22417
0.825849 0.660212 0.248753
0.845685 0.666239 0.266407
0.864195 0.672328 0.284459
0.879286 0.678904 0.299733
0.891371 0.684627 0.312734
0.902525 0.690074 0.325078
0.91194 0.695781 0.336553
0.920241 0.701198 0.34789
0 0.448188 0.135958
0 0.455421 0.137163
0 0.459739 0.131884
0 0.46096 0.118608
0 0.461616 0.101076
0.00128176 0.462425 0.080354
0.00315862 0.463706 0.0589914
0.00538643 0.462806 0.0385748
0.00799573 0.46247 0.0190738
0.0234836 0.46659 0.0112459
0.0589914 0.476555 0.0136721
0.11136 0.493278 0.0233158
0.179217 0.516411 0.0392309
0.257374 0.543847 0.0612802
0.33698 0.571344 0.0855573
0.436255 0.594064 0.105837
0.522301 0.610315 0.118303
0.585595 0.624949 0.131228
0.62208 0.636057 0.143511
0.655818 0.646281 0.152331
0.68716 0.655192 0.154513
0.717357 0.664073 0.164691
0.745724 0.672358 0.185885
0.772503 0.679225 0.207385
0.796826 0.685679 0.227497
0.821408 0.691279 0.251072
0.844724 0.696971 0.274556
0.863066 0.702205 0.293751
0.879774 0.707286 0.312642
0.893141 0.71191 0.330129
0.904128 0.71725 0.343572
0.913634 0.722011 0.35668
0.92224 0.726894 0.370367
0 0.4869 0.153613
0 0.494469 0.156344
0 0.498512 0.152255
0 0.49955 0.138994
0.000213626 0.50013 0.121157
0.0018616 0.501411 0.100801
0.00352483 0.502632 0.0787518
0.00572213 0.502251 0.057435
0.00848402 0.501015 0.0364538
0.0184634 0.503426 0.0214237
0.0521706 0.513512 0.0224002
0.106416 0.530678 0.0321813
0.177066 0.553918 0.0501411
0.254643 0.579293 0.0721904
0.332326 0.602594 0.0953231
0.41912 0.621256 0.11664
0.513146 0.637568 0.130205
0.579736 0.652461 0.143343
0.62916 0.664881 0.157504
0.661433 0.6748 0.170428
0.691188 0.683772 0.180972
0.719417 0.692164 0.184466
0.745815 0.699672 0.197635
0.771221 0.7066 0.219074
0.795544 0.712871 0.239124
0.817777 0.718837 0.258381
0.839307 0.724224 0.27866
0.859525 0.728817 0.299626
0.876936 0.733379 0.319799
0.891417 0.737423 0.339788
0.904158 0.741695 0.360327
0.914504 0.746471 0.376959
0.923384 0.750622 0.392401
0.000503548 0.527581 0.181521
0.00173953 0.53579 0.185779
0.00236515 0.538949 0.181292
0.00294499 0.539849 0.16791
0.00384527 0.540185 0.149981
0.00537118 0.541085 0.128786
0.00758373 0.54226 0.105684
0.00988785 0.542733 0.0823224
0.0119326 0.540337 0.0594034
0.0182803 0.540124 0.0392767
0.0517128 0.550607 0.034287
0.109453 0.570397 0.0471199
0.178592 0.590692 0.0643931
0.254536 0.611978 0.0851911
0.326589 0.630991 0.106081
0.40824 0.647349 0.126177
0.499123 0.6598 0.141894
0.573007 0.675563 0.154147
0.625452 0.689342 0.168353
0.666621 0.699809 0.183307
0.694957 0.70837 0.195987
0.720913 0.716243 0.20763
0.747189 0.724041 0.213993
0.770367 0.730343 0.23061
0.794079 0.737072 0.251499
0.815564 0.742702 0.270863
0.834867 0.74789 0.288045
0.853315 0.752697 0.306142
0.871977 0.757046 0.326452
0.887266 0.761547 0.346105
0.900923 0.765286 0.367453
0.912551 0.769177 0.389914
0.923064 0.772747 0.413352
0.00869764 0.571359 0.219669
0.0112612 0.579278 0.224659
0.0121309 0.582773 0.220066
0.0124056 0.582803 0.206363
0.0127108 0.582635 0.187488
0.0133669 0.583444 0.165072
0.0144808 0.584283 0.140322
0.0167849 0.584527 0.114626
0.0198215 0.58143 0.0892805
0.0261234 0.580224 0.0642863
0.0545052 0.587991 0.0528267
0.115633 0.60705 0.0641337
0.183352 0.625177 0.080827
0.254276 0.641703 0.0990158
0.325185 0.657145 0.118379
0.396414 0.670222 0.135302
0.487251 0.680629 0.15108
0.561624 0.694606 0.16672
0.621073 0.709957 0.177996
0.663447 0.72108 0.191699
0.698741 0.730617 0.206577
0.723537 0.738048 0.219013
0.748211 0.745373 0.23212
0.771221 0.752041 0.246052
0.792966 0.758099 0.263767
0.813077 0.763912 0.282612
0.832258 0.769131 0.301396
0.850294 0.7738 0.318456
0.865934 0.77879 0.335729
0.882139 0.783215 0.355642
0.896071 0.787015 0.375311
0.908782 0.7906 0.397604
0.9196 0.794018 0.423362
0.023331 0.614801 0.260792
0.0257877 0.621225 0.264454
0.0263066 0.62385 0.259586
0.0256504 0.623911 0.24593
0.0247807 0.62385 0.228
0.0244297 0.623941 0.206043
0.0248417 0.62385 0.179446
0.0270542 0.623896 0.150774
0.03122 0.621347 0.123049
0.0394751 0.619303 0.0953994
0.0621653 0.623209 0.0746166
0.121477 0.639872 0.0825818
0.188235 0.654353 0.0970932
0.254307 0.66804 0.1131
0.32311 0.681025 0.13106
0.393866 0.691798 0.146624
0.474815 0.699672 0.159136
0.551522 0.711467 0.175906
0.61059 0.725811 0.190524
0.660334 0.739803 0.199832
0.696208 0.74966 0.212451
0.726635 0.757641 0.227161
0.749645 0.764538 0.239963
0.771557 0.770764 0.255268
0.792401 0.776974 0.275135
0.812924 0.782879 0.297063
0.83064 0.788251 0.31487
0.848173 0.793286 0.334524
0.864012 0.797772 0.351644
0.878309 0.802441 0.370016
0.891646 0.806531 0.389548
0.904402 0.81004 0.411307
0.915206 0.813336 0.433326
0.039765 0.652522 0.298878
0.0424201 0.658137 0.302037
0.042649 0.660014 0.295949
0.041825 0.659907 0.281773
0.0408026 0.659709 0.26392
0.0404364 0.659739 0.242252
0.0403449 0.659541 0.216693
0.0416114 0.659373 0.187182
0.0463722 0.657481 0.157824
0.0548562 0.655268 0.127382
0.080354 0.658183 0.107408
0.127459 0.667506 0.101152
0.194202 0.680522 0.114458
0.257313 0.691676 0.12874
0.32079 0.702129 0.14406
0.391836 0.711498 0.159091
0.470329 0.71754 0.169986
0.541161 0.726238 0.183627
0.601434 0.739544 0.200839
0.650538 0.753841 0.212467
0.693385 0.766552 0.219944
0.724056 0.775051 0.23331
0.752071 0.782223 0.247272
0.773205 0.788617 0.263188
0.792981 0.793774 0.28864
0.812787 0.799893 0.310399
0.831052 0.805325 0.331884
0.847364 0.810391 0.35053
0.86302 0.815 0.370504
0.876707 0.819318 0.388815
0.888716 0.823499 0.408347
0.900481 0.827176 0.429679
0.911406 0.830457 0.449683
0.055024 0.68394 0.332128
0.0570993 0.687846 0.333349
0.057084 0.689052 0.326177
0.0565194 0.689372 0.312688
0.0552987 0.688869 0.294408
0.05449 0.688426 0.272923
0.0543832 0.688334 0.247333
0.055787 0.688136 0.218647
0.0601816 0.686519 0.188327
0.0686809 0.683665 0.158312
0.0938735 0.685237 0.135225
0.141909 0.692714 0.129671
0.205097 0.7028 0.137667
0.264027 0.712474 0.149676
0.323171 0.721019 0.162692
0.38883 0.728374 0.17528
0.465156 0.733867 0.184649
0.536919 0.741085 0.196612
0.593988 0.752438 0.212222
0.643336 0.766217 0.226917
0.68423 0.778851 0.236698
0.721294 0.790295 0.244541
0.749035 0.797787 0.25919
0.77528 0.804578 0.274586
0.794903 0.810224 0.300328
0.813367 0.815396 0.326131
0.831357 0.820676 0.347509
0.846876 0.825574 0.369299
0.862455 0.830228 0.390021
0.875502 0.834165 0.411566
0.8878 0.838209 0.432868
0.898558 0.842191 0.451804
0.908232 0.845945 0.469734
0.0687572 0.709697 0.361196
0.0707103 0.712978 0.3617
0.0703441 0.713466 0.352789
0.0692302 0.712902 0.338277
0.0682078 0.712612 0.320165
0.0674907 0.712627 0.298817
0.0677653 0.712718 0.274037
0.0699474 0.712016 0.248081
0.0742809 0.71043 0.218524
0.084062 0.707637 0.188449
0.111086 0.709072 0.165789
0.159899 0.71397 0.159487
0.220554 0.72256 0.165942
0.275334 0.729946 0.175357
0.329778 0.737011 0.187045
0.391165 0.742916 0.198947
0.463798 0.74641 0.207355
0.531258 0.752651 0.218891
0.588174 0.762509 0.23447
0.637171 0.775189 0.250828
0.679118 0.788571 0.263828
0.714549 0.800259 0.274067
0.745434 0.810636 0.283024
0.771603 0.818311 0.299031
0.796597 0.824796 0.314565
0.814466 0.829847 0.339178
0.832181 0.834897 0.365805
0.84715 0.839612 0.387488
0.862699 0.844297 0.41323
0.87483 0.84828 0.434989
0.887282 0.851942 0.456062
0.897261 0.855726 0.475135
0.907271 0.859098 0.491981
0.0810712 0.731609 0.389319
0.0818494 0.733715 0.386557
0.0813306 0.734096 0.376349
0.0805219 0.733791 0.361196
0.0795605 0.733425 0.342687
0.0792248 0.733181 0.32166
0.0792096 0.733181 0.297032
0.0827344 0.731929 0.272007
0.0891585 0.730022 0.245548
0.10251 0.728756 0.219303
0.131838 0.729717 0.197589
0.182269 0.73312 0.191424
0.236759 0.739193 0.194522
0.287724 0.74548 0.202213
0.339971 0.75111 0.212268
0.396948 0.755489 0.222171
0.465614 0.758373 0.230579
0.530053 0.763394 0.240223
0.583535 0.772137 0.255207
0.632029 0.783734 0.273167
0.674052 0.796582 0.288975
0.711147 0.809476 0.301549
0.742748 0.820249 0.313115
0.768231 0.828977 0.323186
0.792874 0.835935 0.339986
0.81622 0.842298 0.356741
0.832593 0.847242 0.383047
0.848035 0.851469 0.409857
0.86244 0.856077 0.435767
0.874479 0.859876 0.457877
0.886641 0.863798 0.479545
0.896437 0.867536 0.496223
0.906538 0.870832 0.512474
0.0916457 0.749523 0.414145
0.0923934 0.751186 0.410925
0.0916609 0.750973 0.39826
0.0907454 0.750912 0.381933
0.0899977 0.750683 0.362814
0.0902266 0.75024 0.34168
0.0928969 0.749737 0.320394
0.0965591 0.748684 0.296757
0.103151 0.74699 0.270619
0.12108 0.746395 0.245716
0.157137 0.747402 0.229435
0.203922 0.749035 0.220264
