bundles/resolve-cinematic-luts/Phantom Luts/P4k & P6K Phntm Film LUTs - V6/P6k/Gen 4 Colour/P6k Eastman Gen4.cube
TITLE "Generated by Resolve"
LUT_3D_SIZE 33
0.0390021 0.0390021 0.0390021
0.0390021 0.0390021 0.0390021
0.0390021 0.0390021 0.0390021
0.0518502 0.0390021 0.0390021
0.0748455 0.0390021 0.0390021
0.0999924 0.0390021 0.0390021
0.125078 0.0390021 0.0390021
0.1514 0.0390021 0.0390021
0.179873 0.0390021 0.0390021
0.207828 0.0390021 0.0390021
0.234577 0.0390021 0.0390021
0.261479 0.0393835 0.0390021
0.288991 0.0418708 0.039826
0.317052 0.0434882 0.0416419
0.344732 0.0460365 0.0431983
0.372183 0.0516976 0.0447547
0.39826 0.0589303 0.0457771
0.423697 0.0675975 0.0474098
0.446265 0.0767681 0.0497139
0.469261 0.0857862 0.055787
0.493034 0.0956283 0.0645609
0.518395 0.10576 0.0751659
0.54345 0.115282 0.0876631
0.569085 0.123568 0.102037
0.594781 0.131914 0.116686
0.620768 0.140627 0.132326
0.647211 0.149676 0.148028
0.672587 0.15935 0.163699
0.689113 0.166155 0.173739
0.687892 0.166903 0.175509
0.685542 0.168597 0.177768
0.683436 0.170245 0.179583
0.685191 0.170336 0.181476
0.0390021 0.0390021 0.0390021
0.0390021 0.0390021 0.0390021
0.0390021 0.0390021 0.0390021
0.0428626 0.0390021 0.0390021
0.0621042 0.0390021 0.0390021
0.087541 0.0390021 0.0390021
0.11223 0.0390021 0.0390021
0.137316 0.0390021 0.0390021
0.166293 0.0390021 0.0390021
0.195682 0.0390021 0.0390021
0.223026 0.0390021 0.0390021
0.249607 0.0432441 0.0390021
0.277958 0.0471504 0.0390021
0.306844 0.0499123 0.0398108
0.336233 0.052491 0.0414282
0.364446 0.0569619 0.0430762
0.392294 0.0639353 0.0448768
0.418341 0.0730907 0.0461128
0.441825 0.0824292 0.0478218
0.463539 0.0908522 0.0527504
0.488334 0.101534 0.0612039
0.513909 0.112078 0.0716106
0.539559 0.122194 0.0836805
0.565408 0.131106 0.097322
0.59089 0.140002 0.112352
0.616983 0.149035 0.12755
0.642756 0.157885 0.143084
0.668376 0.167117 0.158358
0.685328 0.174258 0.169329
0.685725 0.17644 0.172366
0.684764 0.178698 0.175021
0.683864 0.180591 0.177539
0.686519 0.181338 0.179904
0.0390021 0.0390021 0.0390021
0.0390021 0.0390021 0.0390021
0.0390021 0.0390021 0.0390021
0.0425879 0.0390021 0.0390021
0.0579843 0.0390021 0.0390021
0.0820172 0.0390021 0.0390021
0.106554 0.0390021 0.0390021
0.130632 0.0390021 0.0390021
0.158785 0.0390021 0.0390021
0.188952 0.0390021 0.0390021
0.217197 0.0399634 0.0390021
0.244846 0.0443732 0.0390021
0.271931 0.0490578 0.0390021
0.300374 0.0527352 0.0390021
0.328801 0.0559548 0.0401923
0.355703 0.0595407 0.041062
0.384543 0.0657664 0.0429389
0.410468 0.0734722 0.0445716
0.434241 0.0826734 0.0460059
0.456352 0.091783 0.0489052
0.48069 0.101472 0.0546578
0.505699 0.112474 0.06392
0.531472 0.123476 0.0751049
0.556954 0.132967 0.0879988
0.582437 0.142947 0.103151
0.608499 0.152178 0.118151
0.634028 0.161486 0.133852
0.659342 0.171099 0.149081
0.674693 0.177295 0.159167
0.677043 0.180102 0.163531
0.676402 0.182376 0.166125
0.671702 0.185885 0.168368
0.667781 0.18941 0.171374
0.0428779 0.0474861 0.043473
0.0416114 0.0458991 0.0401465
0.0434272 0.0436561 0.0393835
0.0521553 0.0449531 0.0394446
0.0674754 0.047776 0.0403754
0.0909133 0.0438849 0.0417334
0.113588 0.0435035 0.0420691
0.135256 0.0436255 0.0408484
0.159823 0.0466468 0.0392767
0.186862 0.0492103 0.0390021
0.214527 0.0490883 0.0390021
0.242512 0.0504311 0.0390021
0.2701 0.0538338 0.0390021
0.297169 0.0561837 0.0390021
0.32372 0.0590982 0.0390021
0.351186 0.061387 0.0404822
0.378698 0.0675517 0.0419318
0.404105 0.0746014 0.0434119
0.427436 0.083299 0.0449378
0.448142 0.0924697 0.0463264
0.472145 0.101488 0.0496529
0.496742 0.111788 0.0564736
0.522072 0.123461 0.0666667
0.547677 0.134585 0.0792859
0.573114 0.144579 0.0934005
0.598215 0.154849 0.108522
0.623926 0.164675 0.12369
0.649653 0.174472 0.139452
0.664347 0.180713 0.149126
0.668208 0.184375 0.153979
0.666758 0.186465 0.155947
0.662852 0.18996 0.158633
0.65803 0.193896 0.160876
0.0508125 0.0760357 0.0557107
0.0496681 0.0750134 0.0496986
0.050309 0.0730907 0.0480964
0.0576181 0.0727398 0.0486458
0.0755016 0.0750286 0.0477607
0.095201 0.075349 0.0471504
0.119493 0.0723125 0.0480964
0.144533 0.0656291 0.047303
0.171527 0.0621958 0.0442817
0.195789 0.059968 0.0400244
0.221302 0.0607767 0.0390021
0.247333 0.0607309 0.0390021
0.274037 0.0629892 0.0390021
0.300069 0.0660563 0.0390021
0.325856 0.0702373 0.0392309
0.351766 0.0727855 0.0406653
0.376394 0.0771344 0.0416571
0.401007 0.0820478 0.0427405
0.424155 0.0887617 0.0441596
0.444923 0.0956893 0.0457008
0.46891 0.105562 0.0484321
0.492378 0.115496 0.0540627
0.516167 0.125948 0.0626993
0.540795 0.137026 0.0739147
0.565057 0.147799 0.0859541
0.590631 0.158785 0.101839
0.616098 0.169818 0.116518
0.641733 0.180102 0.13225
0.657267 0.18732 0.142153
0.662272 0.190967 0.147356
0.661433 0.193454 0.14931
0.656992 0.196887 0.151537
0.651667 0.200412 0.153185
0.05449 0.0998703 0.063508
0.0531014 0.0995956 0.0552529
0.0527199 0.0979477 0.052369
0.0570993 0.0972915 0.052491
0.0732128 0.098909 0.0536202
0.0990616 0.101045 0.051667
0.121324 0.100954 0.0518654
0.147707 0.100313 0.0517891
0.180224 0.0893568 0.0521859
0.210147 0.0822156 0.0488289
0.235386 0.0785077 0.0449836
0.259449 0.076524 0.0422827
0.284199 0.0773938 0.0406043
0.310628 0.0800946 0.0400244
0.337148 0.0838178 0.0409552
0.361563 0.0890211 0.0417182
0.384726 0.0947585 0.0424048
0.409339 0.101259 0.0443122
0.433127 0.108721 0.0474556
0.456718 0.116716 0.052018
0.481529 0.125612 0.0590982
0.504921 0.134813 0.0664073
0.527214 0.142687 0.0737011
0.550271 0.151934 0.0836347
0.573281 0.161715 0.0952163
0.596521 0.171557 0.108202
0.620691 0.182101 0.121614
0.641901 0.190585 0.133654
0.658289 0.198306 0.143587
0.663981 0.202441 0.148516
0.662989 0.205631 0.150454
0.658274 0.209415 0.152209
0.653468 0.21326 0.154086
0.0575265 0.124483 0.0724956
0.0561227 0.12462 0.0612802
0.0593423 0.122026 0.0555428
0.0606394 0.120684 0.0549477
0.072694 0.12192 0.0565499
0.099733 0.126085 0.0590372
0.130999 0.127733 0.0571908
0.157458 0.125795 0.0569009
0.188769 0.124147 0.0562753
0.224384 0.115846 0.0569924
0.25449 0.107042 0.0557259
0.282231 0.100877 0.0525826
0.305531 0.0980545 0.0502174
0.329259 0.0979629 0.0482643
0.355154 0.101335 0.0479591
0.380957 0.106065 0.0487068
0.405844 0.112001 0.0504616
0.430976 0.119371 0.0536965
0.456855 0.127825 0.0583352
0.482246 0.136995 0.0640879
0.508644 0.14667 0.0715953
0.533333 0.155901 0.0796368
0.556924 0.165042 0.0884871
0.580621 0.174929 0.09897
0.603403 0.18529 0.110155
0.625757 0.195361 0.12192
0.647044 0.20531 0.133898
0.667903 0.215717 0.145907
0.683711 0.223758 0.156359
0.686961 0.2271 0.159503
0.684382 0.228077 0.159594
0.679408 0.229374 0.159564
0.673701 0.230472 0.159472
0.0619364 0.151385 0.0803998
0.0606394 0.150973 0.0674144
0.0601053 0.149569 0.0589151
0.0606394 0.148302 0.0576944
0.065568 0.148089 0.0579995
0.0892348 0.152468 0.0609751
0.121691 0.159091 0.0641947
0.159319 0.16051 0.0614481
0.19144 0.157748 0.0614481
0.226444 0.15552 0.0610971
0.261204 0.15201 0.0618906
0.29572 0.141527 0.0647288
0.326925 0.132464 0.0635996
0.352712 0.129839 0.0628214
0.376822 0.128023 0.0617838
0.402899 0.13167 0.0628977
0.429755 0.137133 0.0655222
0.456535 0.144366 0.0690013
0.484245 0.153948 0.074815
0.510613 0.163439 0.0814527
0.535943 0.172961 0.0887312
0.560708 0.182422 0.0964065
0.584985 0.192599 0.104723
0.608972 0.202335 0.11342
0.631464 0.211887 0.121996
0.653025 0.222309 0.13167
0.673976 0.232258 0.142046
0.69369 0.241932 0.15227
0.711269 0.250813 0.162325
0.712352 0.253208 0.164385
0.710018 0.253941 0.164401
0.705364 0.255406 0.164492
0.700099 0.257084 0.164462
0.0653544 0.182223 0.0906996
0.0638285 0.181811 0.0776074
0.0624857 0.179782 0.0648508
0.0625162 0.178302 0.060441
0.0639353 0.177493 0.0598154
0.075227 0.180926 0.0621958
0.110506 0.188693 0.0680705
0.14757 0.19675 0.0711376
0.194491 0.199313 0.0683909
0.229831 0.195972 0.0682689
0.266514 0.194263 0.0683757
0.303365 0.193408 0.0695354
0.340215 0.185901 0.0733043
0.374563 0.174014 0.0773938
0.403677 0.170871 0.0776837
0.430106 0.170947 0.0796368
0.457404 0.173831 0.0830854
0.484581 0.178302 0.0877241
0.511727 0.186282 0.093019
0.538613 0.195743 0.0992905
0.562951 0.204669 0.104677
0.587152 0.213947 0.11075
0.611185 0.223865 0.117983
0.633509 0.233021 0.124697
0.656504 0.242634 0.13254
0.678172 0.252247 0.141009
0.698543 0.261494 0.150149
0.717891 0.270771 0.158984
0.73608 0.280278 0.169162
0.736156 0.282109 0.170687
0.734142 0.28304 0.170779
0.729992 0.284504 0.171099
0.725231 0.286168 0.171069
0.0704967 0.216632 0.104921
0.0683604 0.216846 0.0936446
0.0657206 0.216556 0.079408
0.0635386 0.214298 0.0697642
0.0628214 0.212421 0.0665293
0.0681315 0.213596 0.0673228
0.0928664 0.221515 0.0723735
0.135454 0.231708 0.0794232
0.181201 0.240818 0.0813611
0.235111 0.242649 0.0765393
0.272618 0.24007 0.0771038
0.310262 0.238895 0.0769207
0.347158 0.237903 0.0767681
0.385473 0.233402 0.0806134
0.421698 0.226642 0.0859693
0.455009 0.219013 0.0950484
0.483284 0.220584 0.0988022
0.510658 0.223209 0.103151
0.537499 0.227344 0.10898
0.563363 0.232532 0.113573
0.589105 0.240253 0.119036
0.613092 0.249226 0.12462
0.636347 0.25832 0.130892
0.65832 0.26685 0.137194
0.679896 0.275715 0.143648
0.701274 0.284901 0.151369
0.720729 0.293507 0.159075
0.739651 0.302388 0.168383
0.755352 0.310262 0.17818
0.756573 0.312551 0.180407
0.755184 0.313863 0.18114
0.751217 0.315511 0.181369
0.747021 0.31754 0.181888
0.0802319 0.25655 0.123201
0.0774548 0.25655 0.113283
0.075288 0.256611 0.10074
0.0726177 0.254643 0.085771
0.0707713 0.251637 0.0772869
0.0703136 0.250019 0.0755932
0.0819867 0.255222 0.0784161
0.119356 0.267887 0.0864424
0.165286 0.279774 0.0930037
0.220417 0.287053 0.0898756
0.277897 0.288045 0.0846113
0.315816 0.286091 0.0856947
0.354253 0.284199 0.0836347
0.391577 0.283284 0.0823072
0.430503 0.281651 0.0849928
0.46836 0.280491 0.0916762
0.504067 0.274403 0.103639
0.534371 0.271656 0.115572
0.562661 0.274128 0.122332
0.588693 0.279255 0.126925
0.614099 0.284352 0.132357
0.638132 0.289891 0.137865
0.660166 0.296605 0.143557
0.680735 0.304036 0.149462
0.700893 0.312154 0.15639
0.720439 0.320485 0.164431
0.737697 0.328145 0.172656
0.754788 0.336217 0.181796
0.768795 0.343084 0.190448
0.772824 0.346517 0.194324
0.771496 0.348013 0.194903
0.768002 0.349935 0.19556
0.76405 0.351492 0.196048
0.0914473 0.300145 0.144778
0.0889754 0.300191 0.135103
0.0860304 0.300084 0.123522
0.0834669 0.298711 0.108583
0.081651 0.295415 0.0933394
0.0803998 0.292882 0.0874495
0.0808881 0.292866 0.0867781
0.1037 0.303181 0.0920424
0.148623 0.316793 0.0996872
0.199191 0.327535 0.102327
0.262684 0.333364 0.0950027
0.319921 0.334066 0.0907759
0.358785 0.332204 0.0924239
0.398398 0.330602 0.0889143
0.436072 0.330159 0.0868391
0.474723 0.330709 0.0884565
0.511269 0.331945 0.0963302
0.54847 0.329229 0.110857
0.580713 0.328084 0.124605
0.608881 0.32871 0.135515
0.632731 0.330953 0.143755
0.656168 0.335668 0.150988
0.677989 0.34139 0.157809
0.697215 0.347402 0.164309
0.715602 0.354177 0.171923
0.733135 0.35993 0.179843
0.749432 0.366094 0.187655
0.76553 0.37171 0.196796
0.779644 0.377615 0.205112
0.786801 0.381308 0.210117
0.785687 0.382376 0.210849
0.782483 0.383734 0.211612
0.778759 0.385245 0.212299
0.100572 0.344915 0.167422
0.0978714 0.344427 0.157229
0.0955825 0.344579 0.146685
0.093431 0.343664 0.132708
0.0934615 0.341268 0.115068
0.0919051 0.336812 0.0998856
0.0914473 0.335424 0.0959487
0.0984512 0.339498 0.0974594
0.13312 0.352682 0.102968
0.182269 0.365896 0.109163
0.240513 0.374899 0.106813
0.306661 0.379995 0.0974441
0.361715 0.380423 0.0955978
0.401694 0.378912 0.0981155
0.440711 0.376944 0.0949111
0.477653 0.376867 0.0914168
0.514992 0.378576 0.0932174
0.551049 0.381445 0.10312
0.587045 0.381506 0.119341
0.619165 0.381598 0.135515
0.644785 0.383322 0.14728
0.667018 0.385931 0.157534
0.688563 0.389487 0.167178
0.709026 0.393194 0.176898
0.727565 0.396567 0.186572
0.744884 0.400351 0.196246
0.760861 0.4056 0.20441
0.776043 0.410483 0.212222
0.790295 0.414923 0.220844
0.798993 0.417777 0.226658
0.797818 0.418967 0.227268
0.794858 0.420447 0.228061
0.791821 0.421912 0.228534
0.108995 0.392172 0.193606
0.106889 0.390967 0.182605
0.104692 0.390433 0.171572
0.103182 0.389502 0.157031
0.10219 0.388403 0.140932
0.101198 0.384924 0.12256
0.100847 0.380743 0.108873
0.100938 0.379904 0.106233
0.118959 0.38883 0.108644
0.165438 0.40383 0.114443
0.218448 0.414847 0.116457
0.282322 0.422293 0.109087
0.348043 0.425116 0.0994583
0.401389 0.425345 0.100221
0.441398 0.424002 0.105364
0.479179 0.422354 0.103578
0.515618 0.423713 0.101503
0.550713 0.425895 0.104967
0.583963 0.429953 0.116503
0.617258 0.431739 0.13196
0.648722 0.432639 0.148684
0.672892 0.434836 0.161761
0.695399 0.437552 0.174487
0.715328 0.440787 0.184543
0.733944 0.443931 0.193851
0.751629 0.446662 0.203967
0.768399 0.449561 0.214023
0.784146 0.452705 0.22417
0.798016 0.455711 0.233829
0.808286 0.458122 0.24184
0.807858 0.459144 0.242557
0.805524 0.460563 0.243244
0.802472 0.46247 0.244312
0.116503 0.441016 0.224094
0.114519 0.439124 0.212833
0.112642 0.43769 0.200855
0.111254 0.436667 0.185733
0.110521 0.435706 0.168826
0.10959 0.432944 0.150256
0.109239 0.428931 0.131197
0.109468 0.425498 0.118395
0.112886 0.426642 0.116625
0.149248 0.441123 0.11989
0.200397 0.453086 0.12343
0.259434 0.461341 0.122545
0.323064 0.467704 0.114076
0.390402 0.4692 0.106386
0.440818 0.469673 0.111635
0.47985 0.468727 0.118746
0.516655 0.467384 0.118822
0.550561 0.469078 0.117647
0.5832 0.472221 0.122255
0.614282 0.476188 0.133333
0.643519 0.479591 0.146181
0.672938 0.480903 0.162966
0.697566 0.482856 0.178195
0.719158 0.484428 0.192569
0.737606 0.487175 0.204425
0.75613 0.490135 0.216007
0.772747 0.492973 0.225544
0.788525 0.494881 0.235325
0.803189 0.497169 0.245396
0.813962 0.499397 0.252964
0.814954 0.501106 0.254948
0.81297 0.502434 0.255314
0.810162 0.503578 0.255848
0.123781 0.490715 0.258244
0.122133 0.488731 0.248173
0.120211 0.486702 0.23624
0.117983 0.484245 0.219821
0.116625 0.482231 0.201083
0.115618 0.480186 0.181476
0.115099 0.47686 0.161746
0.115419 0.471794 0.141299
0.119219 0.470314 0.128359
0.14023 0.477653 0.128038
0.186969 0.490562 0.132097
0.245502 0.498665 0.13518
0.304372 0.505257 0.132021
0.367056 0.510765 0.1243
0.430304 0.511833 0.117067
0.478477 0.512261 0.125017
0.515679 0.511269 0.132631
0.550546 0.510582 0.134249
0.582589 0.512215 0.134356
0.613138 0.516442 0.141955
0.64123 0.519905 0.15256
0.666987 0.522896 0.164324
0.693935 0.525338 0.180591
0.717815 0.52697 0.198001
0.739803 0.528695 0.214435
0.757824 0.530571 0.228199
0.775174 0.53164 0.240543
0.790661 0.533593 0.25005
0.805524 0.535363 0.259922
0.816037 0.536568 0.267201
0.821057 0.53814 0.271214
0.819089 0.539132 0.271397
0.816938 0.540078 0.271885
0.133242 0.53901 0.293797
0.131243 0.536721 0.28484
0.129473 0.534524 0.274678
0.128008 0.531395 0.259449
0.126375 0.528115 0.239612
0.125429 0.525216 0.21648
0.124636 0.522011 0.194705
0.124025 0.51722 0.173037
0.124743 0.512261 0.151675
0.136034 0.514199 0.14342
0.176608 0.526772 0.146151
0.234119 0.535149 0.149248
0.295094 0.541527 0.148928
0.352529 0.548012 0.143389
0.412116 0.551431 0.136278
0.469184 0.552819 0.130556
0.513634 0.552605 0.13959
0.549844 0.552026 0.147677
0.582528 0.551888 0.151507
0.612116 0.553368 0.151965
0.638926 0.556741 0.161669
0.66479 0.560616 0.174411
0.688151 0.563897 0.186694
0.712932 0.565698 0.20383
0.735348 0.567437 0.221424
0.756374 0.56791 0.239719
0.774823 0.56875 0.254688
0.790921 0.57055 0.265568
0.80531 0.572 0.275029
0.817121 0.573037 0.282445
0.824063 0.573892 0.287449
0.822324 0.574731 0.287739
0.820615 0.575463 0.288457
0.145983 0.584512 0.33048
0.143847 0.581506 0.322362
0.141863 0.578973 0.312963
0.140002 0.576043 0.299596
0.138155 0.572061 0.281437
0.137041 0.567849 0.257801
0.1364 0.564294 0.231601
0.135943 0.559319 0.208408
0.13576 0.553491 0.184543
0.143038 0.551522 0.167041
0.173739 0.560555 0.163973
0.223774 0.571145 0.166781
0.287663 0.576318 0.166232
0.342733 0.58201 0.163668
0.398306 0.587762 0.157168
0.456886 0.589731 0.149035
0.506493 0.591211 0.145525
0.548547 0.590692 0.156115
0.581628 0.590387 0.165393
0.611978 0.590295 0.169955
0.638544 0.591165 0.171603
0.662913 0.595087 0.185885
0.685679 0.598093 0.20029
0.707607 0.600595 0.213611
0.72958 0.601999 0.229953
0.750301 0.602975 0.247364
0.770886 0.603632 0.265278
0.788815 0.604074 0.2804
0.803388 0.604944 0.29163
0.816632 0.606622 0.300343
0.824659 0.607446 0.305165
0.824262 0.608103 0.305592
0.822705 0.608621 0.305806
0.15848 0.626719 0.365255
0.156344 0.623743 0.357641
0.154833 0.621057 0.349722
0.15259 0.617609 0.337743
0.150591 0.614267 0.322087
0.148638 0.608911 0.299702
0.147906 0.603525 0.272633
0.147341 0.59823 0.244511
0.147234 0.592142 0.219806
0.149737 0.586465 0.194797
0.175128 0.592782 0.185183
0.217075 0.60354 0.186053
0.279683 0.609415 0.185092
0.338247 0.614527 0.183215
0.390021 0.620462 0.178058
0.443732 0.624369 0.171572
0.500877 0.625391 0.163256
0.542153 0.626215 0.162036
0.579828 0.626123 0.173968
0.609979 0.625574 0.183993
0.637858 0.625879 0.192142
0.66212 0.62652 0.19765
0.683299 0.628946 0.212985
0.703593 0.631342 0.228733
0.724071 0.633265 0.242863
0.744137 0.634958 0.257755
0.764446 0.635508 0.273487
0.784497 0.634943 0.291661
0.800855 0.635264 0.306249
0.814664 0.636545 0.317647
0.824338 0.637888 0.32398
0.825513 0.638041 0.32491
0.824308 0.638178 0.324834
0.173159 0.665965 0.398978
0.171267 0.663111 0.392142
0.169162 0.660166 0.384466
0.16669 0.656626 0.373449
0.163684 0.652308 0.359121
0.161349 0.647486 0.339437
0.159808 0.641184 0.314351
0.159152 0.63473 0.284688
0.158831 0.627268 0.254749
0.161028 0.620737 0.227375
0.177203 0.620874 0.207568
0.216983 0.633158 0.206287
0.273533 0.640055 0.205188
0.334295 0.64448 0.20267
0.385534 0.649714 0.19884
0.434928 0.654612 0.19202
0.487434 0.656901 0.185153
0.53901 0.657694 0.177218
0.57554 0.658183 0.17995
0.60853 0.657801 0.193027
0.635828 0.657359 0.202686
0.660273 0.657343 0.213153
0.682063 0.658091 0.227008
0.701991 0.659693 0.242939
0.720974 0.661692 0.259373
0.739254 0.663462 0.272602
0.758099 0.664134 0.285847
0.77734 0.6645 0.299916
0.796994 0.663874 0.318425
0.812634 0.663722 0.33257
0.823285 0.664698 0.342092
0.826398 0.664637 0.344289
0.825406 0.664652 0.344015
0.189761 0.70222 0.431098
0.187625 0.698955 0.424323
0.185458 0.695979 0.417075
0.182681 0.692073 0.407095
0.179416 0.687633 0.393301
0.175952 0.682139 0.375372
0.173083 0.676249 0.352743
0.171344 0.668727 0.323919
0.171267 0.660395 0.292195
0.173556 0.65272 0.259907
0.185565 0.649866 0.234073
0.220539 0.659373 0.227024
0.271382 0.667659 0.224552
0.331289 0.671992 0.221836
0.383566 0.676677 0.219547
0.431403 0.681254 0.213275
0.47892 0.684581 0.205829
0.530053 0.685481 0.198276
0.573526 0.686198 0.192157
0.6047 0.686503 0.19881
0.633982 0.685573 0.211704
0.658595 0.684916 0.223148
0.681407 0.68513 0.238254
0.701442 0.685924 0.256916
0.719631 0.686946 0.273701
0.737011 0.688304 0.288746
0.754025 0.689693 0.301289
0.772778 0.690349 0.313924
0.792401 0.689998 0.326329
0.813214 0.687831 0.342412
0.827344 0.6869 0.353109
0.834119 0.686778 0.358618
0.833005 0.686809 0.358373
0.207187 0.735439 0.457008
0.204685 0.732189 0.450599
0.202701 0.728923 0.443748
0.199619 0.72488 0.433783
0.19649 0.720333 0.421698
0.192828 0.714687 0.404501
0.188815 0.708247 0.382406
0.186328 0.700511 0.355489
0.185687 0.691829 0.324926
0.18793 0.683162 0.290623
0.198337 0.678645 0.25977
0.229679 0.684642 0.24622
0.275547 0.692744 0.24155
0.334157 0.696635 0.238148
0.384817 0.700557 0.236378
0.432242 0.70518 0.232822
0.478035 0.708766 0.225376
0.524605 0.710109 0.217731
0.572488 0.710033 0.210239
0.607095 0.710597 0.206546
0.633509 0.711086 0.215885
0.660395 0.709773 0.228855
0.682322 0.709331 0.244297
0.702831 0.709148 0.266163
0.72256 0.709773 0.284916
0.740383 0.710369 0.300801
0.756924 0.711116 0.315206
0.773373 0.711742 0.327626
0.790814 0.711803 0.33933
0.808591 0.711406 0.352026
0.826963 0.710063 0.368765
0.834669 0.70988 0.375418
0.834073 0.709484 0.375097
0.224353 0.765209 0.485206
0.222354 0.762051 0.479057
0.219638 0.758785 0.472282
0.217014 0.754894 0.462943
0.21326 0.749935 0.450843
0.209506 0.744381 0.435019
0.204776 0.737423 0.413748
0.201022 0.729717 0.387732
0.199557 0.72047 0.358419
0.201968 0.711299 0.325643
0.214328 0.706981 0.294743
0.241703 0.710185 0.276753
0.285039 0.717327 0.268711
0.339544 0.720378 0.264515
0.388022 0.724025 0.263722
0.431998 0.727581 0.261173
0.475181 0.730968 0.255222
0.518593 0.733303 0.247776
0.56257 0.732952 0.23888
0.603357 0.733135 0.232334
0.632166 0.733608 0.231128
0.65568 0.733608 0.242725
0.681056 0.732494 0.25626
0.700984 0.732387 0.279286
0.720775 0.732311 0.299336
0.739605 0.732235 0.316426
0.756527 0.732235 0.330953
0.772793 0.73228 0.344762
0.788632 0.732906 0.356588
0.804898 0.732998 0.367712
0.821622 0.732494 0.381094
0.83386 0.731136 0.391684
0.834073 0.730556 0.391501
0.241459 0.791897 0.51165
0.239124 0.788846 0.505714
0.236835 0.785458 0.498863
0.233951 0.781491 0.489601
0.229831 0.776181 0.477424
0.225391 0.770138 0.461707
0.220722 0.763363 0.441672
0.216983 0.756024 0.418479
0.215381 0.747555 0.392996
0.216831 0.738018 0.361898
0.230091 0.733791 0.333333
0.256489 0.734646 0.312566
0.297444 0.73872 0.29897
0.346716 0.74226 0.294926
0.390951 0.74464 0.294301
0.433112 0.747143 0.294255
0.472786 0.750423 0.291783
0.512276 0.752789 0.286275
0.553841 0.753887 0.279652
0.595102 0.75346 0.271565
0.62948 0.753674 0.266239
0.653452 0.754742 0.267964
0.675273 0.754757 0.279011
0.699901 0.753979 0.292638
0.718898 0.753246 0.312322
0.737499 0.752834 0.331167
0.755428 0.752575 0.347005
0.77171 0.752422 0.361501
0.786404 0.753063 0.375692
0.799619 0.754177 0.388785
0.813245 0.75462 0.40032
0.82356 0.754162 0.408957
0.828916 0.753094 0.411353
0.257847 0.815869 0.538262
0.255467 0.812696 0.530739
0.252354 0.809262 0.522927
0.250156 0.805325 0.514473
0.245686 0.800168 0.502235
0.242191 0.79472 0.488075
0.237766 0.787961 0.470039
0.234104 0.780301 0.448478
0.231556 0.772229 0.424796
0.232639 0.762951 0.39585
0.246662 0.758724 0.371221
0.270634 0.756786 0.348043
0.30927 0.758099 0.331518
0.352895 0.761624 0.325994
0.395621 0.763455 0.32491
0.434852 0.765469 0.325719
0.47306 0.767559 0.325811
0.510048 0.770321 0.322484
0.546777 0.771969 0.317723
0.584924 0.77229 0.311208
0.623285 0.772198 0.304433
0.651606 0.772961 0.300542
0.673411 0.773831 0.303456
0.69366 0.773465 0.313252
0.717311 0.772396 0.326253
0.735821 0.771984 0.345327
0.753964 0.771542 0.363195
0.770916 0.771603 0.379675
0.786007 0.771511 0.393439
0.799817 0.772213 0.406653
0.812512 0.773175 0.419333
0.822858 0.773312 0.428031
0.827405 0.772625 0.431022
0.273365 0.836973 0.563165
0.270848 0.833997 0.555657
0.268284 0.830976 0.547433
0.26598 0.826917 0.53817
0.26273 0.822599 0.527581
0.258717 0.817014 0.514076
0.255253 0.810483 0.498146
0.251225 0.803067 0.478279
0.248188 0.794797 0.455329
0.249668 0.786847 0.428977
0.264698 0.781964 0.405798
0.287877 0.77789 0.382177
0.320363 0.776135 0.363424
0.35903 0.778973 0.35584
0.400504 0.780758 0.354376
0.438041 0.781842 0.354406
0.473747 0.783597 0.355398
0.508156 0.78555 0.354925
0.543053 0.788113 0.351522
0.577234 0.78967 0.347753
0.612528 0.789837 0.342245
0.64683 0.7897 0.33611
0.671 0.790585 0.334066
0.691966 0.791287 0.33669
0.710933 0.791165 0.346807
0.734417 0.789868 0.359182
0.752789 0.789471 0.378653
0.769528 0.789441 0.396216
0.78526 0.789715 0.412741
0.800214 0.790463 0.427497
0.813184 0.790738 0.439063
0.824216 0.791333 0.448844
0.829618 0.791241 0.452338
0.286656 0.854704 0.583612
0.284733 0.852003 0.577188
0.283162 0.849287 0.570382
0.281529 0.846204 0.561776
0.279103 0.841993 0.551781
0.276005 0.837125 0.539467
0.272938 0.831174 0.524712
0.268742 0.823987 0.507027
0.26569 0.816297 0.485725
0.267155 0.809461 0.462318
0.284138 0.803647 0.439719
0.306691 0.796857 0.414755
0.334691 0.793576 0.395377
0.368032 0.794308 0.385168
0.405356 0.795972 0.381598
0.441382 0.796994 0.381537
0.475471 0.797879 0.382635
0.507912 0.79971 0.383749
0.539544 0.802182 0.383963
0.571908 0.804318 0.381338
0.603845 0.805661 0.377905
