bundles/resolve-cinematic-luts/Phantom Luts/P4k & P6K Phntm Film LUTs - V6/P6k/Gen 4 Colour/P6k VisionTeal Gen4.cube
TITLE "Generated by Resolve"
LUT_3D_SIZE 33
0.0224155 0.0224155 0.0224155
0.0224155 0.0224155 0.0224155
0.0224155 0.0224155 0.0224155
0.0265812 0.0242161 0.0256504
0.0488746 0.0244755 0.0273899
0.0770733 0.023331 0.0262913
0.106386 0.0223545 0.0246281
0.137392 0.0227359 0.0235447
0.175479 0.0220493 0.021622
0.210224 0.0229953 0.0209506
0.246418 0.0261692 0.0197604
0.280308 0.0271763 0.0203098
0.318791 0.0296025 0.0220493
0.356893 0.0321508 0.0244144
0.396506 0.0354925 0.0273899
0.436667 0.0412757 0.0303502
0.479286 0.0502174 0.038941
0.520226 0.0620127 0.049485
0.562539 0.0774853 0.0612192
0.602136 0.0911421 0.0705425
0.651118 0.112001 0.0957046
0.689982 0.126207 0.111925
0.723049 0.147372 0.128542
0.750927 0.168704 0.145205
0.770718 0.188739 0.159426
0.777127 0.198947 0.16582
0.775708 0.203738 0.161547
0.775174 0.207828 0.160098
0.775738 0.21146 0.16231
0.776837 0.215641 0.16495
0.778286 0.219165 0.167117
0.777935 0.222873 0.166613
0.779339 0.227527 0.168673
0.0224155 0.0224155 0.0224155
0.0224155 0.0224155 0.0224155
0.0224155 0.0224155 0.0224155
0.0278935 0.024445 0.0252995
0.0508736 0.0245212 0.0253147
0.0792248 0.0234989 0.0250095
0.107729 0.022797 0.0246586
0.13901 0.0234073 0.0241245
0.177203 0.0268101 0.0234379
0.213382 0.0279393 0.0202487
0.247379 0.0278935 0.019379
0.281437 0.0285496 0.0204013
0.319326 0.03122 0.0223239
0.356573 0.0336309 0.0244602
0.396201 0.0390631 0.0270848
0.437491 0.0432441 0.0311589
0.479347 0.0519112 0.0381628
0.520516 0.0640879 0.0490578
0.566888 0.0825818 0.0654002
0.609827 0.0990158 0.0802625
0.651469 0.115358 0.0958419
0.686397 0.132418 0.109102
0.72076 0.152422 0.12726
0.749874 0.171206 0.143908
0.767483 0.192065 0.152499
0.775204 0.202197 0.159808
0.77496 0.206775 0.159289
0.775479 0.210727 0.160433
0.775189 0.214755 0.16173
0.77705 0.218509 0.164645
0.777462 0.222416 0.165591
0.77847 0.226963 0.167407
0.779461 0.231174 0.169314
0.0224002 0.025742 0.0233921
0.0224155 0.0224155 0.0224155
0.0224155 0.0224155 0.0224155
0.0222324 0.0269169 0.0227665
0.0424353 0.0265354 0.0247349
0.075349 0.0276799 0.0250858
0.106828 0.0308995 0.0265812
0.139116 0.033051 0.0251774
0.176806 0.0325017 0.0220645
0.211383 0.0317845 0.0198367
0.24509 0.031281 0.0191501
0.28275 0.0348058 0.0235904
0.320409 0.0369268 0.0240635
0.357412 0.0399329 0.0256962
0.394293 0.0399786 0.0259098
0.43595 0.0440986 0.0301976
0.480751 0.0567941 0.0391546
0.522423 0.0708782 0.0512398
0.566964 0.0854963 0.0657359
0.610132 0.101534 0.0806744
0.651743 0.119982 0.0959487
0.687236 0.134508 0.110689
0.719692 0.154437 0.12639
0.745174 0.176791 0.138949
0.765881 0.193194 0.152071
0.775067 0.205692 0.159319
0.77554 0.209903 0.160235
0.774975 0.213764 0.160098
0.775814 0.2177 0.162722
0.776532 0.222583 0.164141
0.777783 0.227527 0.166552
0.778714 0.23183 0.167819
0.779767 0.234775 0.170092
0.0213626 0.0528573 0.0287022
0.0215763 0.0508278 0.0224155
0.0217288 0.0473182 0.0223239
0.0270085 0.0463722 0.0251316
0.0436103 0.049424 0.0265812
0.0741588 0.0437476 0.0261845
0.108156 0.0393988 0.0245518
0.140444 0.0389868 0.0236515
0.178668 0.0387732 0.0223087
0.213397 0.0386969 0.0209049
0.249012 0.0404517 0.0218662
0.283909 0.0420844 0.0225223
0.319417 0.04271 0.0226902
0.356161 0.043595 0.0245975
0.396582 0.0462959 0.0280919
0.437507 0.0532387 0.0326696
0.481224 0.0624247 0.0395666
0.522622 0.075288 0.052018
0.568338 0.090837 0.0665141
0.611383 0.108446 0.0814832
0.649989 0.126802 0.0945144
0.686671 0.137484 0.110719
0.718029 0.158251 0.123659
0.744366 0.183139 0.138994
0.765972 0.204135 0.153048
0.77557 0.209827 0.160235
0.774975 0.212909 0.159976
0.77554 0.217197 0.161501
0.775723 0.224079 0.163241
0.77702 0.230091 0.165789
0.777829 0.23386 0.16701
0.779171 0.236927 0.169131
0.779675 0.246174 0.17145
0.0202945 0.0834211 0.0351263
0.020325 0.0808423 0.024918
0.0204776 0.0772412 0.0230259
0.024506 0.0728618 0.0270848
0.0520943 0.073518 0.0286107
0.0705119 0.0751659 0.0267643
0.103319 0.0738994 0.0260319
0.142275 0.0622416 0.0280308
0.183536 0.0536507 0.0243229
0.218647 0.0509651 0.02327
0.253254 0.0509194 0.0231022
0.288975 0.0508125 0.0238193
0.323598 0.0514229 0.0246433
0.359228 0.0538491 0.0266423
0.397772 0.0577249 0.0293278
0.436805 0.0634623 0.0332647
0.48423 0.0743114 0.0411994
0.527718 0.0893263 0.0552987
0.571328 0.105196 0.0683604
0.612604 0.11899 0.0817578
0.650492 0.132326 0.0956588
0.685786 0.148806 0.109682
0.718364 0.169375 0.124315
0.74284 0.190555 0.138247
0.765408 0.210468 0.153246
0.775891 0.219089 0.162432
0.775753 0.221622 0.162219
0.775723 0.228595 0.163516
0.776028 0.234562 0.164691
0.776852 0.238544 0.166384
0.77818 0.243671 0.16817
0.779263 0.251804 0.170977
0.779522 0.260746 0.173754
0.0196078 0.114046 0.0422522
0.019501 0.112139 0.0295109
0.0196078 0.107576 0.0263676
0.0205539 0.104372 0.0278325
0.039765 0.104952 0.031693
0.0804913 0.104799 0.0293126
0.098024 0.103929 0.0284581
0.131395 0.104616 0.0253452
0.178347 0.0907301 0.0270695
0.221653 0.0765393 0.0273899
0.259495 0.0661326 0.0262608
0.294102 0.0636912 0.0263523
0.329885 0.0647288 0.0277104
0.367193 0.0683909 0.0298161
0.404578 0.0730755 0.0327611
0.445487 0.0808423 0.0382849
0.490974 0.0931563 0.047715
0.535134 0.107576 0.0603342
0.575936 0.120027 0.0717479
0.616129 0.133867 0.0857557
0.653727 0.149538 0.0986038
0.687343 0.165713 0.11104
0.717815 0.184451 0.124331
0.741772 0.203403 0.137942
0.765225 0.224048 0.154437
0.775738 0.237263 0.164187
0.775769 0.243793 0.164981
0.776043 0.243397 0.165408
0.776287 0.248356 0.166522
0.777005 0.254978 0.168154
0.777646 0.261784 0.170611
0.778592 0.269642 0.173846
0.778912 0.278248 0.175845
0.0193179 0.144884 0.0492256
0.0190585 0.142779 0.0329747
0.0188296 0.137102 0.0280156
0.0189517 0.1346 0.0281376
0.0296178 0.133593 0.02916
0.0618448 0.133562 0.0352789
0.107973 0.133928 0.0284428
0.128328 0.129946 0.0269017
0.173465 0.129274 0.0249027
0.217624 0.122744 0.0246738
0.265583 0.10309 0.0307469
0.30573 0.0931106 0.0318761
0.342489 0.0867628 0.0320745
0.377661 0.087541 0.033402
0.416083 0.0932784 0.0377813
0.457801 0.103334 0.0452277
0.50193 0.115358 0.0549477
0.543603 0.128222 0.0648814
0.582773 0.14139 0.076936
0.62092 0.15552 0.0883803
0.656641 0.171649 0.101244
0.687648 0.187854 0.111574
0.716289 0.205951 0.124025
0.741436 0.224353 0.139452
0.764996 0.244083 0.156176
0.775952 0.257099 0.167086
0.775662 0.262867 0.167559
0.77557 0.269215 0.168414
0.775525 0.269947 0.168688
0.776104 0.276097 0.170825
0.776562 0.282719 0.173251
0.776974 0.290486 0.17583
0.777676 0.298833 0.179477
0.0188449 0.179004 0.0539559
0.0187533 0.176745 0.0381323
0.0185092 0.169268 0.0265812
0.0185092 0.167269 0.0262608
0.0186618 0.164141 0.0267185
0.0406806 0.165545 0.0306096
0.0894484 0.165713 0.0354162
0.135851 0.166827 0.0251926
0.163043 0.161044 0.0251621
0.213062 0.162005 0.0260166
0.258045 0.161563 0.0288396
0.310384 0.142657 0.0367132
0.353902 0.130968 0.0419318
0.393103 0.123644 0.0448005
0.431449 0.125307 0.0487373
0.470024 0.130617 0.0534218
0.509621 0.140261 0.0608835
0.550042 0.152422 0.0706035
0.588006 0.166506 0.0805676
0.623133 0.182086 0.0913558
0.656214 0.197696 0.10164
0.687648 0.213657 0.113848
0.716808 0.230961 0.127275
0.74136 0.248569 0.142458
0.763638 0.266987 0.158694
0.774807 0.280415 0.170336
0.774929 0.28661 0.171511
0.775006 0.291554 0.173709
0.775311 0.297963 0.175784
0.775601 0.299382 0.176425
0.77644 0.306798 0.180072
0.77673 0.313405 0.183017
0.777279 0.321141 0.186618
0.0188602 0.217273 0.0663157
0.0184482 0.213672 0.0480049
0.0183413 0.206882 0.0355383
0.0183108 0.201099 0.0271611
0.0182345 0.198718 0.0268101
0.0218357 0.197131 0.0274205
0.0597238 0.201633 0.0339361
0.117891 0.205051 0.0389715
0.173846 0.205905 0.0267948
0.202869 0.19913 0.0267491
0.251728 0.199619 0.0280766
0.297581 0.199008 0.0305638
0.35021 0.188022 0.0391089
0.396323 0.174853 0.05066
0.439048 0.17113 0.0569924
0.478721 0.16907 0.063386
0.515785 0.175097 0.06804
0.554696 0.184237 0.0760815
0.590692 0.197284 0.0851453
0.626093 0.211597 0.0960098
0.65948 0.226703 0.107576
0.689662 0.241489 0.119387
0.717235 0.258427 0.133318
0.741726 0.275456 0.14847
0.762783 0.293156 0.165255
0.774395 0.306233 0.177462
0.774731 0.311879 0.179919
0.775311 0.318288 0.182879
0.775418 0.323598 0.184833
0.775738 0.330251 0.187533
0.776501 0.332097 0.189868
0.77731 0.339345 0.193866
0.777829 0.3467 0.197833
0.0189059 0.2598 0.0839399
0.0185702 0.257084 0.0670787
0.0185397 0.250599 0.0537423
0.0183261 0.241794 0.0357977
0.0181125 0.237842 0.0323339
0.0182498 0.23508 0.0322728
0.0400854 0.238224 0.0353246
0.0894789 0.242557 0.0420233
0.153231 0.243381 0.042359
0.211444 0.242329 0.0274968
0.241917 0.23534 0.0286259
0.290593 0.235706 0.0296178
0.33875 0.236133 0.0329747
0.387732 0.231693 0.0400854
0.438926 0.222782 0.0567788
0.478126 0.22002 0.0690013
0.520439 0.22118 0.078294
0.55877 0.225559 0.0871138
0.594675 0.235248 0.0954757
0.629877 0.244816 0.104738
0.662776 0.257679 0.11632
0.692088 0.273014 0.128145
0.718685 0.289174 0.142992
0.742657 0.305821 0.15845
0.763394 0.322286 0.176028
0.773342 0.333135 0.187716
0.776074 0.340291 0.192447
0.77554 0.345632 0.194354
0.776226 0.352148 0.198047
0.776791 0.358251 0.201343
0.777493 0.365011 0.205371
0.777935 0.366644 0.206607
0.779293 0.373373 0.211337
0.0187839 0.299611 0.0996262
0.0188296 0.297993 0.0845502
0.0201877 0.293568 0.0739605
0.0224155 0.286152 0.0550546
0.0226749 0.278065 0.0396429
0.0223239 0.275517 0.0384527
0.0234531 0.273396 0.0383459
0.0613413 0.277378 0.0419623
0.115633 0.280476 0.0486458
0.189654 0.279133 0.0445716
0.248295 0.279057 0.0286717
0.281437 0.273014 0.0319524
0.332998 0.274311 0.0330053
0.380011 0.275227 0.035935
0.42681 0.277378 0.0425574
0.481239 0.273274 0.0663615
0.52285 0.271992 0.0833906
0.560357 0.2757 0.0997635
0.598123 0.2804 0.110033
0.631678 0.288548 0.119081
0.663951 0.299107 0.130861
0.693889 0.310277 0.142779
0.720943 0.322744 0.156695
0.743496 0.337865 0.173602
0.763882 0.353429 0.191028
0.774319 0.364599 0.202991
0.776989 0.371771 0.20737
0.777234 0.376562 0.210254
0.777646 0.382208 0.213336
0.778134 0.387961 0.215976
0.779187 0.394034 0.22034
0.780041 0.397467 0.22211
0.781018 0.403403 0.225864
0.0191653 0.341619 0.120363
0.0191958 0.340368 0.105516
0.0248722 0.33695 0.0965438
0.0271458 0.33077 0.0783703
0.028336 0.322774 0.0597238
0.0280919 0.315419 0.0446479
0.0277104 0.312184 0.043473
0.0387121 0.312566 0.0448005
0.0846723 0.316609 0.0485695
0.146044 0.318654 0.0552682
0.225711 0.316686 0.0472725
0.287663 0.318074 0.0330663
0.324117 0.312566 0.0396124
0.374502 0.315099 0.0368658
0.421698 0.317876 0.0401007
0.468742 0.324392 0.0505989
0.524392 0.324178 0.0793164
0.56643 0.326787 0.100008
0.601053 0.332265 0.116732
0.634073 0.339193 0.133867
0.66421 0.346807 0.149752
0.694347 0.356176 0.164218
0.720348 0.365972 0.178653
0.743725 0.375937 0.193957
0.764691 0.387198 0.208698
0.776257 0.398779 0.220645
0.779446 0.404669 0.224277
0.780179 0.409354 0.227466
0.780163 0.414405 0.229633
0.780987 0.420264 0.232486
0.781796 0.425666 0.236591
0.783215 0.432364 0.240696
0.784009 0.433997 0.243076
0.0211643 0.385718 0.146639
0.0200046 0.385138 0.131746
0.0267338 0.381659 0.119753
0.0335088 0.377218 0.106126
0.0353552 0.370947 0.0868696
0.0361639 0.361898 0.0667887
0.0353246 0.354788 0.0517739
0.035172 0.351659 0.050721
0.0626535 0.353414 0.0522011
0.116335 0.3561 0.0576944
0.190021 0.355642 0.0620737
0.265949 0.354879 0.0496986
0.329809 0.358328 0.0410163
0.369284 0.35581 0.0520485
0.417548 0.358144 0.0450294
0.465736 0.363134 0.0489967
0.512856 0.371969 0.0652171
0.565682 0.376928 0.0946975
0.606928 0.382254 0.118029
0.639994 0.388678 0.138094
0.670726 0.396643 0.157824
0.697215 0.404089 0.177432
0.721645 0.413352 0.197482
0.744198 0.422354 0.21529
0.764538 0.431235 0.230945
0.779171 0.438346 0.241337
0.782757 0.440604 0.245121
0.783246 0.444129 0.247135
0.783764 0.448524 0.248722
0.784634 0.45388 0.251133
0.785992 0.458457 0.253819
0.788251 0.46392 0.256138
0.788998 0.469291 0.257939
0.0274662 0.431098 0.18085
0.0261997 0.431327 0.166567
0.0263981 0.428748 0.14757
0.0401923 0.425193 0.13901
0.0431373 0.420371 0.119951
0.0449989 0.412802 0.098146
0.0455787 0.403006 0.0760815
0.044419 0.395132 0.0601968
0.0464942 0.392172 0.0590982
0.0931563 0.394568 0.0609293
0.156146 0.39498 0.0666209
0.235157 0.394324 0.0715953
0.310933 0.396048 0.0573587
0.37406 0.401221 0.0545052
0.414893 0.400183 0.0698253
0.46331 0.403662 0.0617075
0.512108 0.411124 0.0690318
0.55697 0.420829 0.086305
0.605554 0.429343 0.113985
0.645182 0.435599 0.141817
0.677058 0.442985 0.166232
0.704738 0.451133 0.189395
0.729534 0.459617 0.208576
0.750744 0.467994 0.225422
0.770306 0.476402 0.241489
0.78674 0.484672 0.256229
0.791318 0.486763 0.261357
0.791409 0.487083 0.261418
0.79147 0.487556 0.26154
0.792126 0.490486 0.262379
0.793988 0.495384 0.264088
0.794903 0.499611 0.265461
0.796735 0.504952 0.268864
0.0351263 0.478828 0.219409
0.0335851 0.479149 0.207828
0.0325628 0.47805 0.192401
0.0395666 0.474571 0.178286
0.0507362 0.471046 0.162768
0.0551614 0.465034 0.137499
0.0567941 0.456306 0.113161
0.0566262 0.44567 0.0865339
0.0556497 0.438087 0.0697948
0.0761425 0.435889 0.0697185
0.127428 0.436545 0.0717784
0.207202 0.434028 0.078584
0.285084 0.434607 0.0868391
0.358526 0.439307 0.0704662
0.417945 0.44448 0.0748455
0.460212 0.446097 0.0912032
0.511101 0.451041 0.0846876
0.557885 0.459831 0.0954604
0.59971 0.470527 0.11342
0.643915 0.48072 0.137804
0.681926 0.487938 0.172549
0.712123 0.495354 0.199374
0.737697 0.503944 0.219669
0.758434 0.512093 0.238178
0.778058 0.520775 0.255283
0.794079 0.529427 0.270817
0.802136 0.534569 0.27866
0.80235 0.53492 0.278843
0.802365 0.534966 0.278782
0.802335 0.534646 0.27863
0.802182 0.533227 0.278279
0.802838 0.535653 0.279286
0.803937 0.539284 0.281498
0.0452735 0.528527 0.260777
0.0433814 0.528603 0.250248
0.0413519 0.528237 0.23827
0.0408331 0.526268 0.222065
0.0534218 0.522759 0.210254
0.0643778 0.517571 0.190539
0.0696269 0.510658 0.159319
0.0711833 0.500969 0.131044
0.0714885 0.489952 0.100969
0.0727092 0.482002 0.0819562
0.11194 0.479622 0.0814069
0.180575 0.476066 0.0862287
0.261006 0.474922 0.0964675
0.338033 0.476692 0.105211
0.409003 0.483543 0.0861219
0.462959 0.48809 0.0975662
0.50808 0.492699 0.112825
0.556802 0.498726 0.107408
0.601221 0.50901 0.124285
0.640986 0.519356 0.144305
0.680156 0.529671 0.172534
0.715724 0.538415 0.205081
0.743694 0.546456 0.231312
0.765103 0.554253 0.251408
0.784161 0.56321 0.270222
0.799786 0.571237 0.285756
0.810071 0.57644 0.295888
0.811383 0.577585 0.297993
0.811399 0.577508 0.298009
0.811612 0.576913 0.297871
0.811597 0.575616 0.296956
0.811353 0.573785 0.295689
0.81149 0.572671 0.295857
0.0569009 0.579126 0.305318
0.055314 0.579599 0.29691
0.0529793 0.579828 0.286885
0.0509346 0.579507 0.273152
0.0512093 0.576867 0.256703
0.0686656 0.572259 0.242435
0.0809796 0.565942 0.219272
0.086244 0.557778 0.18967
0.0879225 0.54728 0.15169
0.0881514 0.53521 0.116579
0.105058 0.526574 0.0964523
0.154284 0.523568 0.0978103
0.239658 0.518349 0.108659
0.31519 0.518349 0.12076
0.386282 0.52076 0.124559
0.458488 0.529564 0.102068
0.508385 0.534997 0.119249
0.551141 0.539651 0.138018
0.597498 0.546609 0.132204
0.6392 0.558373 0.157427
0.676951 0.567819 0.184024
0.711879 0.577829 0.212451
0.74403 0.587137 0.240467
0.768277 0.595087 0.264897
0.787991 0.603403 0.286213
0.803647 0.610971 0.302556
0.816083 0.616739 0.315938
0.819196 0.618036 0.319127
0.819181 0.618097 0.319203
0.819135 0.617639 0.318975
0.819196 0.616281 0.318441
0.818906 0.613703 0.317266
0.818143 0.608454 0.314321
0.0706951 0.630091 0.351202
0.0675059 0.630198 0.343313
0.0651102 0.630472 0.334676
0.0635996 0.630365 0.323384
0.0619364 0.630045 0.310018
0.062562 0.625864 0.289281
0.0863203 0.620676 0.273884
0.0976883 0.613489 0.247745
0.102022 0.603128 0.215763
0.104265 0.59147 0.174487
0.110048 0.580316 0.133944
0.145312 0.570901 0.117617
0.214511 0.565011 0.121691
0.296071 0.560616 0.134051
0.367773 0.560845 0.148318
0.436042 0.565545 0.143404
0.507698 0.575326 0.120058
0.552163 0.581399 0.143038
0.592126 0.585855 0.167651
0.633982 0.593378 0.167605
0.673304 0.605127 0.197406
0.707134 0.613886 0.223484
0.737377 0.62266 0.249363
0.765087 0.631083 0.277882
0.788098 0.638605 0.303319
0.804623 0.646082 0.319951
0.817975 0.652964 0.334478
0.825498 0.656321 0.342977
0.825559 0.656153 0.342596
0.825391 0.655512 0.341497
0.824369 0.653941 0.339284
0.824018 0.650538 0.337102
0.824063 0.64654 0.335546
0.0876173 0.679622 0.395956
0.084123 0.679942 0.38938
0.0806287 0.680385 0.381796
0.0780957 0.680186 0.371969
0.0752117 0.680232 0.360204
0.073106 0.679728 0.344427
0.0734112 0.67425 0.3205
0.102708 0.667872 0.30309
0.112902 0.659083 0.273426
0.118791 0.647013 0.238605
0.124743 0.634653 0.19472
0.147326 0.621698 0.153124
0.203326 0.6121 0.142443
0.278218 0.605158 0.150896
0.354788 0.601434 0.165225
0.422782 0.601923 0.181048
0.489464 0.608469 0.16286
0.55642 0.620462 0.143359
0.594354 0.624781 0.172183
0.628992 0.628733 0.198535
0.667124 0.636149 0.20943
0.70222 0.64622 0.23711
0.732433 0.655192 0.26247
0.757534 0.662486 0.286717
0.782116 0.67039 0.313649
0.802304 0.67686 0.33994
0.818357 0.684047 0.35874
0.827482 0.68835 0.368566
0.828763 0.688273 0.368338
0.82887 0.687449 0.367407
0.82884 0.686412 0.364965
0.828611 0.684047 0.362356
0.827832 0.67921 0.35845
0.111254 0.725582 0.439536
0.108186 0.726299 0.43386
0.104143 0.72726 0.427314
0.101091 0.727687 0.419669
0.0964065 0.727565 0.409003
0.0924849 0.727001 0.394186
0.0892958 0.726253 0.375631
0.0882124 0.720165 0.348119
0.120729 0.712398 0.327718
0.131395 0.701152 0.295293
0.142168 0.687144 0.255283
0.157961 0.67219 0.209033
0.201617 0.658198 0.176013
0.266972 0.649958 0.176318
0.342229 0.641978 0.187732
0.411749 0.638834 0.200046
0.477073 0.640406 0.205798
0.540703 0.649149 0.1841
0.599008 0.661067 0.171984
0.63209 0.664652 0.201511
0.661982 0.666499 0.227985
0.695247 0.673426 0.250996
0.725856 0.682383 0.277485
0.752041 0.692546 0.301747
0.774151 0.699153 0.324453
0.796338 0.706218 0.350774
0.815747 0.712016 0.377829
0.828534 0.717525 0.394858
0.83183 0.718318 0.398047
0.831754 0.717403 0.396109
0.831327 0.716014 0.393042
0.831571 0.71371 0.390753
0.830915 0.709194 0.385809
0.138781 0.768399 0.485039
0.134615 0.769528 0.479637
0.131167 0.77052 0.47364
0.127047 0.771008 0.466407
0.123476 0.77116 0.457053
0.118837 0.770947 0.444312
0.114626 0.770855 0.427634
0.112093 0.768643 0.405234
0.111101 0.762371 0.372869
0.14757 0.751141 0.350103
0.160189 0.736416 0.312032
0.177295 0.721019 0.267659
0.216266 0.70399 0.232105
0.269688 0.692195 0.218051
0.335653 0.682261 0.220249
0.403052 0.675715 0.226719
0.468452 0.673701 0.234363
0.527779 0.677531 0.227863
0.586679 0.686564 0.208972
0.635142 0.696071 0.205722
0.6663 0.700236 0.230259
0.690349 0.700832 0.266926
0.719966 0.707301 0.294423
0.74638 0.71574 0.319112
0.769787 0.724529 0.34313
0.789685 0.732906 0.364767
0.808698 0.738155 0.388159
0.827085 0.743511 0.415137
0.833967 0.745449 0.424826
0.833783 0.744457 0.422797
0.833661 0.74342 0.42063
0.833204 0.740307 0.416754
0.833036 0.736263 0.412024
0.171191 0.803449 0.524941
0.167346 0.804761 0.520302
0.163958 0.805417 0.515297
0.159716 0.80621 0.509224
0.15581 0.806714 0.501579
0.151217 0.807523 0.490623
0.145922 0.807797 0.476051
0.141054 0.807904 0.456107
0.138094 0.802625 0.427237
0.163668 0.792554 0.401007
0.183795 0.778286 0.366842
0.206012 0.761975 0.325917
0.242802 0.743877 0.290547
0.28893 0.727443 0.268101
0.344244 0.717586 0.263096
0.404837 0.709117 0.266072
0.465675 0.704585 0.272511
0.522774 0.704448 0.277516
0.574258 0.70901 0.263539
0.627558 0.717601 0.249683
0.666728 0.725444 0.25069
0.696361 0.730175 0.272526
0.718349 0.731075 0.313527
0.744549 0.737911 0.340383
0.767452 0.745861 0.365103
0.786694 0.75285 0.386114
0.804242 0.760159 0.40676
0.821561 0.766033 0.428946
0.834165 0.768536 0.446998
0.835035 0.767742 0.44683
0.835035 0.766354 0.444129
0.834745 0.764477 0.440803
0.83415 0.760388 0.435721
0.204074 0.834302 0.564157
0.200244 0.835218 0.559228
0.196353 0.836088 0.554833
0.191882 0.836973 0.549569
0.188144 0.837736 0.542672
0.183352 0.838468 0.532921
0.178882 0.838727 0.520195
0.172976 0.838132 0.502678
0.168582 0.836942 0.480339
0.169131 0.828992 0.449241
0.207156 0.813474 0.41976
0.231739 0.797757 0.382666
0.270817 0.779004 0.348119
0.312993 0.760769 0.32166
0.35903 0.748745 0.308766
0.41088 0.738949 0.307744
0.465339 0.733181 0.31194
0.516945 0.7308 0.317174
0.564935 0.732235 0.317082
0.613077 0.736416 0.307881
0.659693 0.744015 0.301457
0.693141 0.751049 0.305653
0.723262 0.756603 0.326162
0.741726 0.757885 0.362005
0.764523 0.764416 0.387518
0.784955 0.771389 0.411109
0.80174 0.77734 0.431189
0.81767 0.783215 0.450416
0.829465 0.787457 0.465614
0.834043 0.788266 0.469764
0.833799 0.786969 0.466743
0.833753 0.784787 0.46334
0.833906 0.781643 0.458579
0.232883 0.861326 0.599893
0.23093 0.861631 0.595544
0.228397 0.862028 0.591043
0.224369 0.862547 0.585443
0.220813 0.862394 0.578546
0.216907 0.862608 0.569802
0.213993 0.861631 0.558419
0.211093 0.861051 0.543999
0.206714 0.859007 0.524605
0.20618 0.856107 0.500999
0.207935 0.846174 0.465766
0.260334 0.827832 0.43621
0.302403 0.80795 0.403784
0.339101 0.78883 0.374716
0.379355 0.774517 0.35581
0.424567 0.764599 0.350912
0.471717 0.758282 0.352987
0.517708 0.75494 0.357061
0.562951 0.754833 0.363119
0.603922 0.755978 0.359548
0.648402 0.761654 0.356329
0.687373 0.767346 0.354055
0.717311 0.773526 0.360739
0.744976 0.779126 0.379065
0.763302 0.781353 0.411917
0.7832 0.787625 0.436942
0.800671 0.793423 0.458289
0.816663 0.798825 0.477501
0.829007 0.803021 0.491981
0.834516 0.804013 0.497353
0.834211 0.80296 0.494652
0.834165 0.801556 0.491371
0.833951 0.798611 0.485664
0.253529 0.878309 0.624369
0.252491 0.87808 0.620844
0.250675 0.878584 0.616571
0.248798 0.878996 0.613169
0.247227 0.879194 0.607401
0.246128 0.878782 0.599878
0.244572 0.877989 0.590829
0.24242 0.876493 0.577554
0.24065 0.875517 0.561715
0.239109 0.874006 0.54165
0.244038 0.868635 0.514961
0.285512 0.853742 0.487709
0.332891 0.833768 0.457527
0.370443 0.813886 0.428168
0.403876 0.79733 0.404196
0.444327 0.786145 0.394141
0.483024 0.778653 0.392248
0.523323 0.775357 0.396826
0.562951 0.774823 0.40325
0.601648 0.776516 0.408164
0.640284 0.779202 0.407477
0.678828 0.782712 0.406241
0.71339 0.7879 0.406363
0.739803 0.793683 0.413443
0.766064 0.799161 0.431067
0.781659 0.802228 0.462104
0.799664 0.808087 0.485588
0.815717 0.813214 0.505699
0.829648 0.817731 0.522835
0.836484 0.819379 0.529168
0.83621 0.818311 0.526726
0.835508 0.81651 0.521904
0.835187 0.813886 0.515877
0.261219 0.883406 0.63682
0.260716 0.883391 0.632807
0.259586 0.883497 0.629389
0.258305 0.88397 0.625101
0.257359 0.884153 0.620706
0.256382 0.884092 0.61387
0.255604 0.883345 0.60528
0.255146 0.882353 0.593271
0.254414 0.881239 0.579828
0.255146 0.880522 0.561913
0.262974 0.878874 0.541299
0.297261 0.867704 0.517525
0.351644 0.850965 0.498131
0.392142 0.835126 0.475853
0.423911 0.817899 0.449882
0.460883 0.804944 0.436377
0.498863 0.798169 0.434073
0.533852 0.794934 0.436408
0.567788 0.794324 0.44271
0.60293 0.795727 0.451377
0.639277 0.796979 0.453498
0.677012 0.799069 0.452384
0.712627 0.802335 0.450217
0.741283 0.80763 0.453574
0.763455 0.812818 0.463218
0.785733 0.818235 0.482841
0.800061 0.822034 0.512306
0.81593 0.827207 0.534829
0.831022 0.832273 0.55436
0.839857 0.834394 0.56379
0.839307 0.833387 0.560708
0.838773 0.831785 0.556985
0.838178 0.829206 0.550408
0.260502 0.884474 0.641245
0.259907 0.884367 0.638071
0.259052 0.884627 0.634424
0.257984 0.884962 0.630594
0.257252 0.884794 0.624964
0.25684 0.884703 0.618845
0.256306 0.884337 0.610697
0.255818 0.883268 0.599405
0.255253 0.88188 0.585275
0.254932 0.881102 0.568078
0.261707 0.879637 0.547082
0.29369 0.870909 0.524773
0.347738 0.855421 0.505867
0.391073 0.840208 0.486397
0.42858 0.827085 0.469627
0.464836 0.815274 0.456855
0.503212 0.807691 0.453895
0.537301 0.80444 0.45626
0.569924 0.803128 0.46305
