bundles/resolve-cinematic-luts/Phantom Luts/P4k & P6K Phntm Film LUTs - V6/P6k/Gen 4 Colour/P6k VisionTeal Gen4-Legacy.cube
TITLE "Generated by Resolve"
LUT_3D_SIZE 5
0.0224002 0.0405432 0.0387274
0.12575 0.0389868 0.0342107
0.417624 0.0378271 0.0332189
0.736645 0.117617 0.118837
0.759167 0.155489 0.135103
0.0192264 0.154421 0.0547341
0.117662 0.145892 0.0405127
0.452979 0.121401 0.0558022
0.74136 0.23064 0.129763
0.763638 0.289158 0.154925
0.0453651 0.521202 0.245457
0.0691844 0.489403 0.118791
0.462409 0.487465 0.101808
0.768399 0.550958 0.252857
0.807202 0.556848 0.283879
0.227298 0.875364 0.585748
0.209751 0.873808 0.526497
0.446952 0.772564 0.360952
0.746593 0.785626 0.389197
0.821775 0.797452 0.466117
0.239094 0.882414 0.622431
0.23125 0.882887 0.57937
0.422583 0.814893 0.43566
0.677455 0.7935 0.441825
0.820066 0.824308 0.530678
0.0242008 0.0532998 0.156802
0.173053 0.0363165 0.15314
0.482429 0.0340124 0.166461
0.773693 0.123323 0.249668
0.781918 0.13959 0.205493
0.0195315 0.138155 0.109987
0.126925 0.1505 0.139712
0.501976 0.079881 0.0772412
0.773419 0.181064 0.165713
0.781491 0.249714 0.174746
0.0477302 0.504128 0.314626
0.0361334 0.496681 0.228
0.452171 0.478096 0.110933
0.77435 0.531975 0.275044
0.806409 0.539132 0.297444
0.231525 0.864683 0.621317
0.207507 0.862226 0.570352
0.400137 0.773983 0.355718
0.735531 0.775387 0.366506
0.824186 0.789456 0.456992
0.241489 0.88394 0.655177
0.239078 0.882719 0.6215
0.374868 0.833921 0.459556
0.655802 0.793256 0.447395
0.820539 0.824613 0.533089
0.074403 0.0915541 0.459648
0.229557 0.0404822 0.436667
0.50071 0.0577401 0.459236
0.760845 0.110246 0.558831
0.769894 0.13167 0.510979
0.0192264 0.124666 0.384161
0.0895705 0.0877852 0.452232
0.475029 0.0562295 0.433677
0.765972 0.129168 0.51165
0.772839 0.14551 0.469673
0.0437629 0.500237 0.428824
0.0489204 0.494926 0.428031
0.533013 0.525643 0.495659
0.830533 0.490776 0.461036
0.822828 0.467994 0.391928
0.199084 0.850278 0.690303
0.1785 0.840055 0.666041
0.230091 0.819272 0.545007
0.719844 0.761563 0.40824
0.835981 0.770489 0.479789
0.235111 0.898253 0.736828
0.222248 0.896925 0.717678
0.246067 0.882231 0.618677
0.590143 0.795575 0.460929
0.822003 0.826413 0.542397
0.230793 0.101701 0.701808
0.339773 0.0714733 0.689952
0.572625 0.115694 0.721096
0.779202 0.14345 0.798276
0.785245 0.162127 0.823453
0.0196536 0.170016 0.661677
0.226566 0.0872053 0.688746
0.531685 0.102037 0.702281
0.777142 0.137362 0.777325
0.78378 0.152865 0.798184
0.0280003 0.49955 0.653849
0.0258488 0.481315 0.66453
0.531212 0.40116 0.806439
0.824094 0.401144 0.794232
0.816358 0.356603 0.762875
0.274861 0.83769 0.778332
0.263157 0.826062 0.764889
0.337484 0.806943 0.749783
0.793729 0.798489 0.776303
0.895247 0.762264 0.744427
0.42565 0.898848 0.813703
0.404349 0.90045 0.808316
0.360632 0.897353 0.782345
0.633875 0.881468 0.757763
0.858091 0.868254 0.718166
0.313161 0.0846571 0.764004
0.405722 0.0873732 0.764645
0.618021 0.133913 0.790372
0.784298 0.160204 0.8365
0.789364 0.178149 0.839307
0.202625 0.175845 0.765911
0.317189 0.0846876 0.764035
0.574777 0.11635 0.781582
0.785321 0.164309 0.837217
0.789258 0.182895 0.83888
0.0489815 0.502251 0.793271
0.0342107 0.472404 0.788739
0.533745 0.314107 0.842985
0.806241 0.335897 0.847288
0.806027 0.299458 0.846204
0.33167 0.833707 0.859159
0.311894 0.820325 0.856992
0.389288 0.789227 0.859266
0.810651 0.737896 0.91136
0.893126 0.717708 0.904463
0.488548 0.906691 0.855924
0.490684 0.906645 0.856107
0.497566 0.906523 0.856504
0.687083 0.90544 0.865217
0.907713 0.920653 0.898329
