bundles/resolve-cinematic-luts/Phantom Luts/P4k & P6K Phntm Film LUTs - V6/P6k/Gen 4 Colour/P6k EastmanRM Gen4-Legacy.cube
TITLE "Generated by Resolve"
LUT_3D_SIZE 9
0.0470893 0.0473793 0.0467079
0.0767376 0.0431525 0.0424201
0.172152 0.0389715 0.0405432
0.291295 0.0372931 0.0437171
0.426856 0.0346838 0.0495613
0.531624 0.0373388 0.0622873
0.614618 0.0584878 0.0924239
0.680064 0.0982681 0.137926
0.65478 0.115068 0.187259
0.0496986 0.0750134 0.0523842
0.0573739 0.0755322 0.05037
0.143435 0.0647288 0.0455482
0.266987 0.0435492 0.0411994
0.404349 0.0335546 0.0444648
0.51957 0.0344091 0.053193
0.599832 0.0523995 0.0789349
0.653864 0.0829938 0.110719
0.624704 0.0992294 0.155001
0.058381 0.14641 0.0648661
0.0552529 0.148547 0.0522621
0.141573 0.152529 0.0559091
0.289342 0.12343 0.0517128
0.424704 0.0960098 0.0525368
0.554665 0.0989548 0.0615396
0.654551 0.112963 0.087541
0.704295 0.136278 0.120302
0.676814 0.139223 0.140917
0.0529488 0.259083 0.0772717
0.0464179 0.262654 0.0567788
0.0670329 0.273228 0.0466773
0.307088 0.330648 0.067216
0.533639 0.31635 0.0706035
0.66894 0.296986 0.0980392
0.783886 0.313573 0.124575
0.838651 0.335042 0.158785
0.81355 0.343694 0.185794
0.0466621 0.429435 0.109163
0.0444495 0.43328 0.0917372
0.0450294 0.424949 0.0476387
0.13637 0.460563 0.046952
0.531533 0.553841 0.100053
0.7122 0.550332 0.152422
0.819242 0.519371 0.200488
0.867994 0.522972 0.249226
0.859953 0.528588 0.262577
0.0754559 0.593591 0.275929
0.0661021 0.598825 0.273487
0.066865 0.585168 0.186816
0.120836 0.578729 0.0921798
0.39295 0.659892 0.142702
0.694392 0.73901 0.23946
0.837781 0.735531 0.354818
0.894774 0.718807 0.419089
0.902708 0.722637 0.416083
0.208453 0.713466 0.429191
0.199268 0.71722 0.431449
0.196307 0.707591 0.384924
0.238773 0.693141 0.292409
0.390631 0.72079 0.273671
0.598459 0.804883 0.370657
0.820966 0.874205 0.47982
0.900938 0.875822 0.570504
0.905974 0.879377 0.58645
0.258747 0.753094 0.497841
0.256519 0.74818 0.476555
0.255222 0.737057 0.429984
0.306905 0.733288 0.358358
0.429877 0.751751 0.334401
0.597284 0.809842 0.41944
0.808087 0.891768 0.52932
0.895628 0.905272 0.618936
0.893462 0.90808 0.651164
0.253971 0.759396 0.524453
0.252064 0.755337 0.503685
0.251606 0.741909 0.447639
0.308385 0.734615 0.36112
0.434714 0.752987 0.336736
0.606485 0.813825 0.42591
0.812161 0.892943 0.534142
0.895445 0.905928 0.628336
0.891386 0.908888 0.65771
0.0473182 0.0483864 0.0569009
0.0682536 0.0475166 0.0561074
0.155261 0.045304 0.0576486
0.273915 0.0406653 0.0643626
0.406973 0.0361028 0.0720989
0.510658 0.0382849 0.0894026
0.596017 0.0605173 0.128588
0.656413 0.0980697 0.178912
0.640085 0.108721 0.213977
0.0490883 0.06804 0.057023
0.057023 0.0674144 0.0592203
0.145647 0.0558022 0.0574197
0.267124 0.0448768 0.0565805
0.395941 0.0390021 0.0644541
0.510292 0.0421607 0.0798047
0.599649 0.0676738 0.118074
0.658198 0.104997 0.163104
0.644999 0.11812 0.199039
0.0584115 0.14078 0.0844434
0.0509499 0.14519 0.0727703
0.132265 0.149844 0.0605783
0.291264 0.111467 0.0567025
0.422934 0.0823987 0.0569162
0.545769 0.069688 0.0632792
0.631678 0.0924849 0.0997024
0.67306 0.113863 0.128893
0.647318 0.11751 0.150942
0.0526436 0.252735 0.106508
0.0469215 0.259632 0.0890211
0.057023 0.268452 0.0498817
0.305791 0.326726 0.0712291
0.540413 0.299016 0.0768292
0.669551 0.283665 0.103243
0.791531 0.299184 0.131426
0.839628 0.319005 0.165713
0.813611 0.327352 0.193408
0.0486458 0.430274 0.151827
0.0444953 0.434592 0.137667
0.0446326 0.427405 0.0612039
0.116625 0.455909 0.0485695
0.530785 0.55108 0.103197
0.71632 0.543236 0.155673
0.823453 0.509148 0.205509
0.868269 0.515328 0.251865
0.860014 0.520729 0.266407
0.0783703 0.595819 0.304982
0.0682994 0.602838 0.311147
0.0648814 0.591302 0.230976
0.0990768 0.577539 0.103502
0.375326 0.65211 0.141726
0.693614 0.737392 0.239963
0.838956 0.731563 0.356115
0.894621 0.712215 0.41677
0.897475 0.716976 0.4215
0.207996 0.716197 0.449149
0.200031 0.719661 0.451759
0.194812 0.712093 0.41001
0.212863 0.691295 0.307729
0.37641 0.717296 0.271794
0.590555 0.800717 0.36495
0.819287 0.872465 0.474556
0.902083 0.873167 0.566339
0.907271 0.876143 0.581811
0.256092 0.75874 0.523903
0.260594 0.752392 0.494713
0.257557 0.742321 0.452094
0.28661 0.73225 0.374701
0.415091 0.748455 0.333791
0.586343 0.805203 0.414435
0.802441 0.890242 0.526528
0.89572 0.905119 0.617166
0.893004 0.908324 0.653361
0.258076 0.762798 0.540459
0.259205 0.757687 0.517113
0.255467 0.747768 0.471046
0.286595 0.733761 0.379919
0.418631 0.749401 0.335836
0.592752 0.807691 0.41973
0.803388 0.89073 0.529976
0.892027 0.906233 0.625162
0.891493 0.908949 0.658305
0.0481117 0.0543221 0.0942397
0.0748913 0.0516518 0.100633
0.158831 0.0508125 0.0927291
0.288914 0.0463874 0.0899367
0.41883 0.0393988 0.0923629
0.519371 0.0412909 0.114351
0.60322 0.0648966 0.160754
0.663432 0.103975 0.214557
0.647913 0.11577 0.252354
0.0456245 0.0666514 0.0823987
0.0505531 0.0582437 0.101228
0.139712 0.0568551 0.102266
0.281315 0.0478828 0.0827802
0.416098 0.0395514 0.0906996
0.522301 0.0415351 0.106233
0.610864 0.0682841 0.153628
0.664607 0.1037 0.20235
0.648081 0.115099 0.239918
0.0576791 0.137621 0.102403
0.0538338 0.139605 0.113787
0.135592 0.151064 0.131395
0.323674 0.111101 0.100343
0.467796 0.0728771 0.0846113
0.570672 0.0664988 0.0965591
0.662272 0.0995193 0.141222
0.697169 0.119768 0.170413
0.673579 0.125109 0.197787
0.0593881 0.251743 0.141314
0.0534371 0.257511 0.145144
0.0562905 0.272938 0.110445
0.31574 0.333562 0.116732
0.555123 0.274617 0.1122
0.67982 0.259571 0.121157
0.812039 0.273121 0.164721
0.84567 0.284916 0.19884
0.818647 0.292149 0.228183
0.0540627 0.43183 0.213123
0.0476844 0.437507 0.218631
0.0444495 0.430854 0.140612
0.0816358 0.449042 0.055375
0.525948 0.546365 0.112352
0.725139 0.52343 0.166842
0.830228 0.489662 0.221225
0.868833 0.498695 0.256321
0.861402 0.50341 0.27155
0.0831769 0.596323 0.346227
0.0713664 0.60351 0.360586
0.0663767 0.600153 0.311284
0.072282 0.575509 0.144686
0.334157 0.633509 0.138979
0.691951 0.732174 0.238865
0.841779 0.722026 0.359106
0.894575 0.697429 0.405982
0.893645 0.701595 0.414435
0.205554 0.718227 0.479042
0.195392 0.722408 0.485039
0.193576 0.717311 0.450996
0.188357 0.696422 0.35198
0.34197 0.708827 0.268269
0.569497 0.790539 0.349828
0.815946 0.868681 0.462898
0.904326 0.866911 0.556512
0.909163 0.869215 0.575128
0.263539 0.763836 0.548714
0.25803 0.762432 0.540368
0.26276 0.751858 0.491783
0.258427 0.734783 0.413993
0.38381 0.743282 0.337499
0.562585 0.795193 0.403403
0.787808 0.885954 0.519615
0.892638 0.90515 0.612207
0.892989 0.908507 0.655024
0.265782 0.767468 0.565026
0.260197 0.766308 0.555764
0.263127 0.756558 0.510964
0.259937 0.737133 0.423362
0.383566 0.743618 0.339757
0.566018 0.796353 0.406394
0.784176 0.88539 0.522759
0.886717 0.906142 0.617975
0.891402 0.909178 0.660716
0.0528115 0.0653391 0.16083
0.0844434 0.0571145 0.174426
0.1514 0.0569009 0.182925
0.300191 0.0516976 0.159579
0.427344 0.0497139 0.177722
0.532036 0.0512703 0.179309
0.61622 0.0786755 0.213642
0.675868 0.116289 0.260838
0.660121 0.12845 0.299565
0.0418555 0.0742351 0.146166
0.0548867 0.0657816 0.170489
0.135378 0.0582132 0.190753
0.291005 0.0552071 0.171649
0.433509 0.0503853 0.171603
0.538277 0.0514534 0.171176
0.62594 0.0835279 0.2112
0.680247 0.118791 0.258717
0.662379 0.130449 0.296757
0.0489967 0.129625 0.147616
0.0448463 0.125399 0.166552
0.106462 0.11725 0.233036
0.299763 0.102983 0.217288
0.471153 0.0716259 0.156207
0.565469 0.0585489 0.151766
0.657954 0.0915236 0.19585
0.699153 0.11696 0.232136
0.680903 0.128313 0.269566
0.057847 0.247944 0.183856
0.0533608 0.253758 0.201083
0.0729534 0.275395 0.226307
0.328786 0.33727 0.310353
0.581476 0.27953 0.269764
0.732113 0.214206 0.249256
0.835981 0.215442 0.271122
0.844816 0.219287 0.281239
0.818952 0.224826 0.308782
0.0623636 0.438224 0.279911
0.0542153 0.444068 0.303578
0.0574044 0.446555 0.287968
0.112703 0.476783 0.254093
0.52285 0.54757 0.270191
0.732677 0.491325 0.261784
0.851957 0.457862 0.267185
0.882689 0.460807 0.294118
0.874891 0.464286 0.310887
0.0904402 0.595804 0.394339
0.0766766 0.603082 0.419471
0.0746319 0.603586 0.400168
0.0665141 0.596841 0.312413
0.272343 0.613275 0.181552
0.68748 0.726268 0.278843
0.849653 0.70074 0.376226
0.893111 0.671962 0.396612
0.890501 0.674968 0.407034
0.203906 0.717876 0.513817
0.192248 0.72311 0.526574
0.191608 0.721157 0.505776
0.185061 0.71133 0.445151
0.269795 0.700328 0.291417
0.527001 0.770779 0.329076
0.814298 0.862852 0.442222
0.908537 0.856748 0.550988
0.911269 0.857572 0.570565
0.276112 0.770138 0.582284
0.267521 0.770489 0.582559
0.265797 0.766979 0.560128
0.265019 0.752331 0.491524
0.319341 0.738674 0.368139
0.519539 0.779126 0.385214
0.760632 0.877241 0.507027
0.887053 0.90518 0.606958
0.893095 0.908812 0.657832
0.276875 0.773617 0.599527
0.271473 0.77319 0.595132
0.267887 0.769818 0.574334
0.269154 0.755795 0.504341
0.314336 0.739361 0.375219
0.51606 0.778073 0.385946
0.742687 0.871199 0.51046
0.877577 0.905562 0.605097
0.892317 0.909239 0.662043
0.0610513 0.0761425 0.26862
0.0919509 0.0572671 0.292821
0.17261 0.0599069 0.303822
0.285298 0.0576638 0.306218
0.437263 0.0576638 0.282353
0.541466 0.069398 0.294255
0.635142 0.104341 0.311269
0.690745 0.13698 0.34934
0.677638 0.150332 0.390021
0.0420081 0.0835431 0.250889
0.061387 0.0774395 0.283955
0.147311 0.0598764 0.31458
0.278782 0.0593271 0.3205
0.442969 0.0603189 0.291447
0.548531 0.072694 0.300618
0.646906 0.110704 0.315343
0.696361 0.141375 0.353613
0.679011 0.155016 0.396841
0.0417029 0.113344 0.230854
0.0415808 0.105409 0.253819
0.0803235 0.0833753 0.317952
0.263539 0.0693217 0.338293
0.441947 0.066453 0.300923
0.566995 0.0724804 0.279408
0.673182 0.110597 0.289219
0.717968 0.138582 0.327016
0.698161 0.152285 0.370275
0.0454108 0.222126 0.262211
0.0433661 0.218921 0.281514
0.0501869 0.224552 0.316503
0.278004 0.244602 0.447501
0.550408 0.260075 0.462165
0.737499 0.215213 0.404685
0.815549 0.199542 0.381506
0.828214 0.206592 0.386587
0.803922 0.21471 0.413733
0.0604257 0.435721 0.33991
0.0536507 0.440421 0.366445
0.0573892 0.44506 0.374212
0.165255 0.487785 0.430167
0.531777 0.540398 0.508385
0.75462 0.489921 0.469642
0.892973 0.440665 0.459922
0.916762 0.425101 0.45449
0.903304 0.426764 0.471107
0.10898 0.600397 0.451164
0.0949722 0.607095 0.477897
0.100923 0.609964 0.476005
0.114351 0.611536 0.459815
0.348577 0.648615 0.462394
0.676555 0.713008 0.489708
0.841688 0.668879 0.476326
0.892821 0.647272 0.447959
0.887526 0.64892 0.457801
0.211566 0.719738 0.551812
0.200015 0.724697 0.566369
0.198077 0.72488 0.559945
0.193194 0.719982 0.532265
0.248157 0.727779 0.461418
0.508278 0.754772 0.42295
0.811109 0.856031 0.521431
0.911528 0.846326 0.582467
0.912139 0.844388 0.59997
0.303426 0.779934 0.619776
0.285771 0.780514 0.628595
0.279591 0.778561 0.619608
0.276753 0.774136 0.589517
0.283528 0.76022 0.501671
0.476417 0.770779 0.41355
0.723049 0.861677 0.522164
0.887358 0.906081 0.61767
0.894026 0.910811 0.679942
0.306188 0.787762 0.643229
0.29865 0.78613 0.640925
0.289982 0.783291 0.63122
0.282353 0.777234 0.600504
0.283543 0.762402 0.51281
0.463447 0.769589 0.418418
0.692317 0.848753 0.518914
0.870054 0.905333 0.60293
0.89247 0.911543 0.686885
0.0838483 0.0865034 0.373373
0.116106 0.0604715 0.400122
0.207095 0.0633097 0.411002
0.317754 0.0637369 0.417594
0.418143 0.0679637 0.414939
0.553521 0.0858778 0.393027
0.649317 0.129564 0.411582
0.694148 0.152621 0.447761
0.675441 0.16582 0.490455
0.0502785 0.0915389 0.361166
0.0847181 0.086305 0.388876
0.175418 0.0630503 0.419181
0.313497 0.0640574 0.426871
0.418997 0.0708171 0.427283
0.55877 0.0921035 0.407568
0.659449 0.135882 0.422126
0.692439 0.157778 0.462715
0.671733 0.170169 0.503212
0.0419471 0.109117 0.324575
0.0421607 0.0991836 0.350835
0.0997024 0.073518 0.411612
0.281254 0.0660716 0.434302
0.412573 0.0747234 0.439277
0.568032 0.0960555 0.410056
0.679805 0.134676 0.409064
0.715496 0.15758 0.447807
0.694682 0.171313 0.490547
0.0424811 0.193912 0.341512
0.0425727 0.188174 0.361715
0.0428168 0.177417 0.388388
0.224582 0.143832 0.508278
0.500969 0.182849 0.560327
0.678569 0.191806 0.544381
0.76965 0.192935 0.495521
0.789639 0.203952 0.500221
0.765332 0.21268 0.524453
0.0480964 0.415808 0.422721
0.0454261 0.415854 0.446021
0.0460212 0.414069 0.459968
0.118639 0.443565 0.52697
0.496178 0.465522 0.64596
0.749935 0.489082 0.659281
0.91014 0.447135 0.613138
0.926894 0.431861 0.610422
0.905394 0.438712 0.630243
0.109529 0.596033 0.500343
0.095613 0.602869 0.526436
0.102602 0.606668 0.532097
0.119448 0.609827 0.536477
0.419913 0.663767 0.61088
0.684657 0.699672 0.665934
0.857649 0.6598 0.634501
0.911894 0.63682 0.628702
0.906828 0.638025 0.6365
0.244633 0.723796 0.588769
0.226917 0.728359 0.609552
0.23209 0.729702 0.609476
0.240635 0.729152 0.601434
0.356909 0.751339 0.609842
0.571603 0.787396 0.631815
0.806104 0.84155 0.662089
0.902678 0.828458 0.681529
0.903365 0.828748 0.684932
0.361212 0.802502 0.6692
0.341497 0.802258 0.678859
0.331731 0.799329 0.672602
0.320836 0.794522 0.657526
0.343801 0.798535 0.635569
0.526009 0.821775 0.622538
0.726787 0.859388 0.644633
0.888197 0.911513 0.697581
0.896406 0.914275 0.724971
0.370047 0.810468 0.694881
0.364126 0.809628 0.694362
0.354238 0.80737 0.686976
0.338735 0.802304 0.670832
0.347768 0.801022 0.642618
0.52192 0.823941 0.631067
0.709758 0.854719 0.645426
0.858076 0.90837 0.702159
0.889387 0.916014 0.74258
0.118303 0.0797742 0.461357
0.157046 0.0679332 0.478004
0.24152 0.0714275 0.486625
0.341619 0.0759594 0.494179
0.428748 0.0840772 0.498863
0.527871 0.108324 0.502449
0.655863 0.151858 0.516976
0.698421 0.171389 0.546426
0.682597 0.18323 0.581308
0.0913863 0.100298 0.440528
0.119631 0.0780194 0.472801
0.213931 0.0707561 0.489738
0.333013 0.0775769 0.499733
0.429877 0.0864576 0.505287
0.534966 0.115221 0.514977
0.666117 0.157748 0.528878
0.694347 0.176699 0.56141
0.681544 0.187778 0.592065
0.0425574 0.108248 0.401785
0.0561379 0.103365 0.433829
0.136828 0.0695354 0.48603
0.300328 0.0775616 0.502037
0.422507 0.0870375 0.50985
0.537865 0.122454 0.529183
0.677653 0.160861 0.532143
0.714961 0.176623 0.554528
0.695735 0.189471 0.58819
0.0424964 0.162448 0.407218
0.0425879 0.15555 0.419791
0.0429694 0.141482 0.436957
0.202472 0.0973831 0.526406
0.434669 0.120989 0.55964
0.569436 0.154986 0.580056
0.702953 0.177478 0.554757
0.741924 0.183139 0.549264
0.716457 0.194034 0.576242
0.0446632 0.395438 0.497139
0.0442664 0.395987 0.513039
0.0444648 0.388525 0.521019
0.0951705 0.406317 0.602838
0.471962 0.385321 0.737514
0.754223 0.45626 0.811032
0.913298 0.453025 0.797757
0.931029 0.437705 0.783627
0.910689 0.443931 0.791211
0.0888991 0.581781 0.565469
0.0773327 0.585901 0.585672
0.0829786 0.588342 0.596216
0.12253 0.593942 0.623606
0.376791 0.627115 0.695155
0.66128 0.648249 0.780056
0.856764 0.668132 0.790112
0.914076 0.654017 0.776806
0.90901 0.656031 0.783047
0.24921 0.719402 0.630671
0.231724 0.724041 0.649592
0.236927 0.72604 0.652293
0.247044 0.726589 0.652888
0.367468 0.75201 0.684627
0.626749 0.804532 0.755337
0.806577 0.830854 0.796323
0.903746 0.811994 0.774609
0.903227 0.811673 0.783017
0.375662 0.804349 0.700832
0.363317 0.805158 0.710414
0.365118 0.805081 0.709957
0.36405 0.803174 0.704036
0.407874 0.813993 0.710613
0.613687 0.858366 0.764187
0.762158 0.886748 0.791897
0.879713 0.912932 0.805783
0.895872 0.914763 0.817655
0.442039 0.827939 0.731273
0.422782 0.826169 0.737102
0.419028 0.825223 0.734752
0.410956 0.822934 0.726223
0.417487 0.823758 0.718868
0.603555 0.86508 0.767376
0.748486 0.891066 0.799374
0.848676 0.909941 0.813214
0.886717 0.922484 0.830213
0.162631 0.0783856 0.509865
0.200397 0.0797589 0.51577
0.265476 0.0843671 0.524727
0.350423 0.0937972 0.535653
0.441901 0.106249 0.549386
0.532479 0.133745 0.568215
0.665949 0.191684 0.629801
0.699306 0.214389 0.665446
0.71104 0.227436 0.687419
0.132769 0.0908064 0.499397
0.1673 0.0798352 0.514229
0.244175 0.0835126 0.523781
0.342519 0.0944228 0.537469
0.442451 0.107668 0.552056
0.540551 0.139391 0.577234
0.678981 0.200076 0.643168
0.703914 0.219348 0.672694
0.711955 0.229633 0.689143
0.0751202 0.111131 0.464012
0.112688 0.109239 0.486229
0.184115 0.0809796 0.518547
0.314366 0.0924086 0.535729
0.433585 0.106828 0.553307
0.5449 0.144976 0.58645
0.683711 0.204318 0.649943
0.712413 0.222538 0.67628
0.716793 0.235309 0.695842
0.0430457 0.138094 0.443793
0.0433509 0.130282 0.444373
0.0496529 0.117281 0.452155
0.215778 0.0878157 0.528359
0.401923 0.110475 0.559091
0.543084 0.152041 0.599344
0.683909 0.208255 0.654307
0.717189 0.221653 0.669093
0.719127 0.232197 0.684352
0.0467842 0.380484 0.556786
0.0471046 0.379873 0.563973
0.0483253 0.36968 0.569711
0.140429 0.373388 0.663767
0.509026 0.354253 0.797635
0.770123 0.421286 0.869459
0.878218 0.44593 0.870497
0.888411 0.435966 0.865843
0.880049 0.440208 0.865797
0.0982528 0.581125 0.637232
0.0979171 0.583871 0.646113
0.100664 0.582437 0.652918
0.141985 0.583062 0.681971
0.347723 0.597848 0.744503
0.666346 0.605173 0.841749
0.867506 0.659541 0.890486
0.92398 0.659068 0.888945
0.91162 0.661921 0.889326
0.230961 0.710033 0.680003
0.228504 0.713924 0.690745
0.240696 0.716976 0.698177
0.2645 0.718181 0.709392
0.380041 0.738582 0.749599
0.613016 0.784985 0.812665
0.804746 0.805692 0.866087
0.899947 0.811566 0.863294
0.899702 0.811444 0.865583
0.388998 0.803189 0.72546
0.368154 0.803082 0.734615
0.370382 0.80322 0.734798
0.37409 0.802152 0.733867
0.421485 0.81474 0.748272
0.622843 0.860792 0.806363
0.786999 0.894591 0.854032
0.874968 0.908644 0.874311
0.893614 0.909758 0.874372
0.463462 0.834958 0.761471
0.449073 0.833234 0.764843
0.449226 0.833387 0.763272
0.450156 0.833646 0.759579
0.461555 0.836103 0.76022
0.638544 0.877104 0.81474
0.785611 0.90779 0.859998
0.861967 0.921355 0.877531
0.896422 0.925673 0.873564
0.214008 0.0873579 0.530816
0.243992 0.0897536 0.535576
0.295583 0.0961318 0.544091
0.370138 0.106386 0.557321
0.459037 0.120104 0.573938
0.551125 0.147677 0.596109
0.672175 0.200488 0.655909
0.711345 0.228534 0.689677
0.717098 0.23209 0.693217
0.180896 0.085771 0.525582
0.215549 0.0875868 0.53164
0.275853 0.0933242 0.540673
0.362066 0.105287 0.555611
0.458579 0.11989 0.573693
0.555062 0.149279 0.597711
0.683726 0.207263 0.664271
0.712902 0.231357 0.692714
0.716823 0.236027 0.698207
0.124407 0.110201 0.497536
0.145769 0.0883497 0.519036
0.22414 0.0882887 0.533028
0.335073 0.101427 0.550927
0.447501 0.116686 0.570993
0.554482 0.151583 0.60174
0.689067 0.212726 0.671519
0.719631 0.234806 0.696391
0.720577 0.240269 0.702693
0.0507057 0.131746 0.468299
0.0505989 0.125292 0.465019
0.0836347 0.116884 0.481041
0.246128 0.0912947 0.537469
0.406851 0.113359 0.5664
0.550271 0.157733 0.614038
0.695399 0.222339 0.684215
0.72726 0.240635 0.7028
0.729564 0.2477 0.710582
0.0557412 0.366964 0.591806
0.0574197 0.366339 0.599039
0.0605631 0.353597 0.600443
0.161715 0.34284 0.666194
0.518517 0.329351 0.792386
0.759579 0.390082 0.856291
0.864088 0.422232 0.860258
0.870665 0.418112 0.855406
0.867689 0.420783 0.855848
0.122789 0.581094 0.680415
0.123919 0.582803 0.686488
0.127016 0.580179 0.692363
0.160571 0.574029 0.707835
0.349142 0.582925 0.752163
0.68513 0.594446 0.855055
0.873701 0.647669 0.902937
0.920974 0.650721 0.903273
0.910689 0.653529 0.903502
0.269352 0.715557 0.725963
0.268498 0.717327 0.730236
0.276097 0.716609 0.734447
0.303044 0.714672 0.743175
0.395865 0.730968 0.766903
0.602029 0.770871 0.82536
0.815534 0.788983 0.881773
0.896788 0.803464 0.888945
0.896239 0.804639 0.889036
0.430793 0.810773 0.76257
0.415259 0.809766 0.767285
0.419196 0.809537 0.769299
0.425666 0.807752 0.772686
0.461341 0.816754 0.783154
0.631449 0.857328 0.831189
0.787549 0.890578 0.872602
0.882689 0.903395 0.891768
0.894438 0.904997 0.892699
0.494285 0.842008 0.779416
0.478843 0.839933 0.782849
0.481193 0.840543 0.783566
0.485451 0.841459 0.784909
0.499718 0.844724 0.789029
0.644312 0.878737 0.83006
0.789639 0.909819 0.87042
0.868666 0.924331 0.889723
0.900893 0.926711 0.885008
