bundles/resolve-cinematic-luts/Phantom Luts/P4k & P6K Phntm Film LUTs - V6/P6k/Gen 4 Colour/P6k Bleach Gen4.cube
TITLE "Generated by Resolve"
LUT_3D_SIZE 9
0.0153353 0.0269474 0.0176242
0.0238193 0.0279698 0.0200656
0.101167 0.0333562 0.0294957
0.198322 0.0411994 0.0401312
0.324941 0.0529183 0.0560616
0.504372 0.0643626 0.0755016
0.628 0.0938888 0.107408
0.730327 0.132845 0.146288
0.818784 0.181308 0.192828
0.0192111 0.0418555 0.0233768
0.034287 0.0501259 0.0237583
0.130251 0.0482032 0.028687
0.243595 0.0512398 0.0372168
0.374273 0.0565652 0.0446632
0.541588 0.0688029 0.0598764
0.651514 0.0974136 0.0887312
0.740673 0.132906 0.120546
0.812955 0.174472 0.155856
0.0306859 0.170718 0.0639811
0.0324559 0.178973 0.0285649
0.161395 0.194446 0.0353246
0.307622 0.195956 0.0287938
0.484672 0.163439 0.0598611
0.611673 0.179919 0.089662
0.716289 0.221469 0.132586
0.807858 0.275822 0.18706
0.893278 0.345342 0.254185
0.021622 0.28484 0.0988022
0.0231174 0.294011 0.0501411
0.0766003 0.302007 0.0216068
0.302007 0.348562 0.0432898
0.516609 0.369589 0.0380255
0.692348 0.422446 0.12961
0.791592 0.479072 0.200809
0.859327 0.525872 0.246571
0.906874 0.562737 0.285603
0.00128176 0.410544 0.126024
0.00233463 0.423163 0.0884718
0.0133516 0.423682 0.0108186
0.192142 0.480446 0.0343023
0.533883 0.578958 0.105791
0.685664 0.622721 0.136187
0.801205 0.654124 0.22417
0.879286 0.678904 0.299733
0.920241 0.701198 0.34789
0.00869764 0.571359 0.219669
0.0127108 0.582635 0.187488
0.0198215 0.58143 0.0892805
0.183352 0.625177 0.080827
0.487251 0.680629 0.15108
0.698741 0.730617 0.206577
0.792966 0.758099 0.263767
0.865934 0.77879 0.335729
0.9196 0.794018 0.423362
0.0687572 0.709697 0.361196
0.0682078 0.712612 0.320165
0.0742809 0.71043 0.218524
0.220554 0.72256 0.165942
0.463798 0.74641 0.207355
0.679118 0.788571 0.263828
0.796597 0.824796 0.314565
0.862699 0.844297 0.41323
0.907271 0.859098 0.491981
0.108354 0.77438 0.4589
0.113375 0.774166 0.403265
0.142824 0.773602 0.318944
0.289647 0.776562 0.273411
0.496559 0.786542 0.297841
0.669581 0.818967 0.365576
0.791394 0.861448 0.43682
0.865843 0.883177 0.502312
0.909163 0.897322 0.570184
0.114687 0.780835 0.489448
0.123674 0.781415 0.425254
0.176471 0.784604 0.340307
0.333608 0.792111 0.318502
0.536858 0.801282 0.349508
0.68394 0.832074 0.432715
0.799954 0.8719 0.50071
0.86772 0.893935 0.541421
0.91252 0.907271 0.596384
0.0162661 0.0272221 0.0219577
0.024445 0.0285191 0.0245212
0.110491 0.0336919 0.0509194
0.219867 0.038468 0.0712902
0.351888 0.0464637 0.0908675
0.529335 0.0560159 0.107683
0.642466 0.0841535 0.139239
0.741283 0.119493 0.180484
0.826337 0.163287 0.228077
0.0178988 0.0368505 0.0248569
0.0320287 0.0449989 0.0335241
0.149096 0.0489052 0.0429999
0.267948 0.0534829 0.0518654
0.41883 0.0610513 0.0681621
0.576959 0.078584 0.0906844
0.679973 0.112657 0.126009
0.767071 0.151827 0.164691
0.838193 0.195651 0.20621
0.0274052 0.164935 0.0974289
0.0303197 0.178347 0.0683146
0.163455 0.195163 0.0450294
0.336675 0.182071 0.0572366
0.503014 0.157259 0.0740826
0.629664 0.170901 0.106035
0.731716 0.207187 0.148714
0.82005 0.257633 0.201587
0.896086 0.318318 0.262165
0.0197299 0.282216 0.134569
0.0203708 0.294041 0.10219
0.0544747 0.302403 0.0242008
0.306127 0.351858 0.0531014
0.54078 0.370932 0.0643168
0.707424 0.419074 0.156497
0.803952 0.471382 0.224659
0.872129 0.513436 0.27068
0.915908 0.547814 0.308248
0.000213626 0.408392 0.158846
0.000335698 0.421012 0.129366
0.00743114 0.424201 0.0310063
0.173785 0.479622 0.0417029
0.536553 0.580591 0.115251
0.693889 0.623194 0.151186
0.811765 0.651957 0.243153
0.885328 0.675288 0.315816
0.925155 0.69543 0.365682
0.0105745 0.568689 0.251667
0.0120241 0.579355 0.228092
0.0155184 0.582757 0.124117
0.153185 0.619577 0.0868696
0.469795 0.67863 0.159777
0.698085 0.729656 0.214481
0.795895 0.756817 0.267674
0.870588 0.776059 0.343191
0.923842 0.789776 0.439429
0.0700999 0.704555 0.396887
0.0688792 0.707759 0.360006
0.0668193 0.708064 0.259937
0.175708 0.716716 0.165347
0.433585 0.744686 0.207599
0.669718 0.785016 0.262531
0.794507 0.822538 0.310185
0.862196 0.841505 0.409537
0.908217 0.856153 0.490501
0.108003 0.77026 0.501915
0.106889 0.770367 0.451209
0.116289 0.770062 0.352819
0.244892 0.772351 0.274479
0.461112 0.784283 0.292302
0.653895 0.81326 0.354726
0.78378 0.857435 0.425574
0.861616 0.879973 0.490303
0.906142 0.893706 0.560952
0.118441 0.780041 0.538613
0.116014 0.780957 0.48629
0.132845 0.782193 0.382467
0.286015 0.789487 0.323857
0.500023 0.798398 0.343603
0.660441 0.825803 0.420523
0.786374 0.867445 0.497856
0.859403 0.891218 0.535775
0.908629 0.906142 0.591562
0.0285191 0.0317845 0.0824598
0.0569314 0.0321202 0.0781872
0.124681 0.0338445 0.09691
0.241382 0.0391394 0.139345
0.384375 0.0446174 0.159106
0.554406 0.0508125 0.182589
0.664591 0.076173 0.214557
0.759899 0.11078 0.256718
0.844572 0.154711 0.307027
0.0158236 0.0403906 0.076051
0.0396735 0.0356909 0.108309
0.166003 0.0398718 0.128099
0.300237 0.0458076 0.153292
0.47097 0.0489052 0.160861
0.605493 0.0669108 0.181552
0.705074 0.0978103 0.212924
0.788159 0.133898 0.249668
0.855436 0.17438 0.288701
0.0246586 0.160128 0.136187
0.028748 0.17026 0.145815
0.184192 0.192691 0.178668
0.370779 0.182361 0.168917
0.548913 0.163439 0.152407
0.671946 0.166842 0.162799
0.75613 0.201633 0.200961
0.838972 0.25008 0.249042
0.898024 0.299519 0.296452
0.0170596 0.277974 0.190494
0.0168917 0.288075 0.185901
0.0495918 0.310704 0.140276
0.333715 0.371038 0.156313
0.596185 0.370413 0.17821
0.732586 0.396857 0.226413
0.834577 0.440391 0.286397
0.902281 0.483879 0.336141
0.932616 0.515618 0.37203
0 0.400305 0.217884
0 0.410849 0.204837
0.000427253 0.415717 0.131594
0.121889 0.471092 0.0654459
0.537224 0.578836 0.145724
0.71606 0.617456 0.205554
0.83183 0.64036 0.289143
0.895872 0.661753 0.353384
0.933623 0.680903 0.407767
0.0120699 0.558343 0.30338
0.0145418 0.568536 0.291249
0.0108949 0.569497 0.221027
0.0792248 0.598337 0.104265
0.409094 0.670497 0.176623
0.692256 0.723156 0.230076
0.800839 0.750195 0.276234
0.88397 0.767468 0.370108
0.931334 0.780407 0.471458
0.071809 0.694759 0.457511
0.0712139 0.697078 0.428153
0.0659342 0.69662 0.349325
0.0861524 0.70248 0.197421
0.360037 0.737362 0.210681
0.642115 0.773144 0.261036
0.787305 0.815808 0.300633
0.86154 0.834806 0.402518
0.911299 0.849012 0.490394
0.111147 0.762402 0.551736
0.107912 0.761044 0.520134
0.103182 0.761059 0.437003
0.136431 0.764096 0.295018
0.38114 0.780514 0.284276
0.61445 0.801007 0.331258
0.765316 0.84828 0.402731
0.852995 0.873335 0.465293
0.901884 0.887053 0.544442
0.126772 0.78024 0.589883
0.123033 0.779965 0.558724
0.118486 0.781353 0.483665
0.18587 0.785657 0.349889
0.415259 0.796262 0.339864
0.620829 0.816236 0.401572
0.758129 0.857588 0.490623
0.843931 0.886625 0.526192
0.900587 0.903975 0.581521
0.0479744 0.0347601 0.160006
0.0896468 0.0346685 0.159808
0.15935 0.0360723 0.173159
0.26656 0.0419013 0.203647
0.414267 0.0456245 0.248188
0.573434 0.0512398 0.280995
0.685679 0.0735332 0.322881
0.776196 0.100435 0.387488
0.860243 0.141802 0.453971
0.0143893 0.0434272 0.162661
0.0669261 0.0363775 0.204211
0.190066 0.0387884 0.227298
0.329671 0.0478218 0.251164
0.498802 0.0497749 0.282643
0.629175 0.0621347 0.313436
0.726757 0.0877699 0.353216
0.807691 0.119661 0.404349
0.872557 0.157992 0.450111
0.0218967 0.143084 0.211566
0.0224308 0.144579 0.232731
0.19089 0.147143 0.312963
0.4009 0.144274 0.314855
0.571939 0.128222 0.314626
0.685084 0.132052 0.324239
0.76878 0.152728 0.339208
0.845258 0.1944 0.372656
0.901045 0.240131 0.418006
0.016434 0.27335 0.242634
0.0181582 0.283528 0.252049
0.0844892 0.312123 0.281239
0.37818 0.375723 0.356695
0.622827 0.380301 0.361059
0.761486 0.405982 0.385534
0.868299 0.42855 0.408911
0.923064 0.451225 0.43093
0.933959 0.474098 0.453666
0.00677501 0.401587 0.278828
0.0122377 0.41474 0.280827
0.0254978 0.420966 0.26331
0.202625 0.524254 0.296681
0.577768 0.600656 0.352163
0.746868 0.618296 0.398001
0.846311 0.63357 0.430991
0.913603 0.641245 0.461631
0.941512 0.654963 0.502495
0.023209 0.558099 0.369177
0.0305486 0.567681 0.369436
0.0281224 0.563561 0.331472
0.0641184 0.588098 0.259846
0.403555 0.678462 0.299504
0.701259 0.725292 0.361929
0.823682 0.746441 0.401099
0.905135 0.758297 0.471916
0.940169 0.773083 0.528603
0.0807813 0.688563 0.519677
0.080354 0.689006 0.507836
0.0742809 0.685191 0.45861
0.073518 0.691691 0.349996
0.310674 0.728923 0.281697
0.612696 0.762615 0.332097
0.786267 0.81088 0.385138
0.868894 0.830961 0.431815
0.92491 0.844312 0.531319
0.120516 0.756313 0.59855
0.116899 0.753994 0.581628
0.111406 0.750561 0.539681
0.107729 0.753353 0.431327
0.287419 0.772549 0.309804
0.56228 0.791012 0.332586
0.743725 0.839384 0.398825
0.84828 0.869673 0.453498
0.904173 0.884245 0.548928
0.142626 0.782757 0.635584
0.137102 0.781323 0.6177
0.13106 0.779721 0.579858
0.126787 0.781537 0.48574
0.304753 0.790204 0.362524
0.568139 0.807477 0.395071
0.725872 0.846845 0.487877
0.832105 0.882933 0.527901
0.896056 0.903212 0.578683
0.0806134 0.0380255 0.252415
0.124819 0.0382544 0.256947
0.200198 0.0404974 0.272023
0.300664 0.0439002 0.295888
0.454902 0.0479133 0.327214
0.59826 0.0563821 0.391196
0.695781 0.064271 0.466377
0.787854 0.093843 0.523415
0.869825 0.137682 0.576257
0.0270848 0.0407263 0.26453
0.107805 0.0405127 0.316518
0.22974 0.0433204 0.341375
0.359701 0.0462654 0.36199
0.532891 0.0535592 0.393668
0.649287 0.0652018 0.457435
0.735195 0.0752117 0.510109
0.818555 0.110475 0.550301
0.879469 0.148959 0.58819
0.016434 0.114336 0.291371
0.0157626 0.110002 0.314061
0.186435 0.0803235 0.426978
0.390921 0.0875563 0.441535
0.567025 0.0866102 0.444221
0.671794 0.0903029 0.477668
0.756802 0.100862 0.509178
0.832456 0.132265 0.539101
0.893263 0.180072 0.583993
0.0164492 0.255039 0.335882
0.0158389 0.260319 0.353918
0.083238 0.276814 0.428779
0.403052 0.316625 0.555032
0.652186 0.344732 0.577722
0.789929 0.36492 0.608179
0.891905 0.381552 0.621256
0.944244 0.396841 0.634226
0.953216 0.414328 0.648737
0.00737011 0.398505 0.343999
0.0124971 0.411383 0.353979
0.0276799 0.418067 0.360037
0.266819 0.541634 0.501442
0.608103 0.593408 0.572564
0.754925 0.602792 0.585122
0.854246 0.616251 0.596445
0.916503 0.627787 0.607935
0.938216 0.636683 0.616922
0.0469825 0.56527 0.45156
0.0596017 0.575723 0.461769
0.0755627 0.577752 0.452537
0.168551 0.617151 0.481071
0.4963 0.693874 0.557977
0.723674 0.730266 0.581399
0.84477 0.741756 0.610895
0.910369 0.755688 0.62472
0.947417 0.766201 0.636805
0.116533 0.689448 0.574487
0.121798 0.689433 0.568338
0.124727 0.68455 0.546914
0.140414 0.685847 0.514412
0.356802 0.73666 0.526604
0.639292 0.77528 0.548516
0.804242 0.816938 0.592782
0.892683 0.831952 0.615534
0.940169 0.843366 0.642725
0.157809 0.754665 0.634348
0.156725 0.751644 0.624567
0.15111 0.746288 0.60415
0.146715 0.743175 0.566415
0.303075 0.765835 0.527352
0.588861 0.799619 0.528405
0.749813 0.842039 0.587945
0.863584 0.874205 0.611414
0.916197 0.886809 0.627894
0.204059 0.787945 0.670451
0.183352 0.785458 0.660227
0.163851 0.781903 0.640772
0.151385 0.778561 0.601389
0.282536 0.787533 0.54696
0.556573 0.814786 0.53109
0.719875 0.85452 0.583886
0.834119 0.888762 0.614435
0.902724 0.908812 0.631464
0.118532 0.0415808 0.351904
0.165362 0.0423896 0.365133
0.243885 0.04448 0.387228
0.345632 0.046952 0.417563
0.492576 0.0469825 0.447013
0.621866 0.06009 0.50135
0.723766 0.0766461 0.557183
0.793805 0.0826886 0.608545
0.869474 0.12221 0.656489
0.0792096 0.0424506 0.394675
0.153841 0.0440681 0.45182
0.272831 0.0466621 0.482231
0.409247 0.0479286 0.496986
0.555459 0.0507668 0.51667
0.670588 0.0699321 0.555642
0.761288 0.0871748 0.594781
0.821637 0.0953384 0.634119
0.875502 0.129351 0.668421
0.0137179 0.0787823 0.374533
0.0172427 0.0643626 0.39585
0.196551 0.0457008 0.505196
0.378561 0.0491798 0.522011
0.561517 0.0575875 0.538216
0.680262 0.0770886 0.56614
0.769543 0.0967117 0.598367
0.829694 0.106828 0.633494
0.884337 0.147448 0.665522
0.0151675 0.23537 0.448951
0.0149691 0.238941 0.473594
0.0762646 0.243351 0.540139
0.42414 0.255055 0.658671
0.672663 0.294636 0.682048
0.810346 0.332952 0.713848
0.90222 0.347112 0.741451
0.951293 0.361089 0.753567
0.960204 0.380346 0.765911
0.00268559 0.38851 0.461738
0.00202945 0.396597 0.476005
0.0310216 0.399573 0.505364
0.262455 0.508446 0.615244
0.63299 0.565637 0.695781
0.778729 0.585916 0.70927
0.876356 0.594858 0.716686
0.931884 0.604395 0.71841
0.94931 0.611124 0.726085
0.0509346 0.567117 0.518013
0.062623 0.577279 0.528618
0.0776226 0.579232 0.530953
0.17258 0.616831 0.57322
0.553414 0.698619 0.667674
0.742168 0.723873 0.701869
0.851164 0.729747 0.712902
0.917006 0.739605 0.721553
0.949401 0.747845 0.729183
0.133806 0.691386 0.609857
0.141649 0.691737 0.608713
0.154162 0.688212 0.601465
0.19353 0.693202 0.600595
0.483894 0.748653 0.661585
0.692576 0.797208 0.701686
0.829389 0.824125 0.710887
0.907317 0.832441 0.728618
0.945861 0.84184 0.737133
0.196445 0.753826 0.664912
0.198749 0.750607 0.659052
0.203204 0.7458 0.64744
0.21706 0.743465 0.631525
0.41297 0.779004 0.659983
0.640681 0.822187 0.685542
0.782116 0.860578 0.706401
0.885222 0.88336 0.721828
0.934997 0.890822 0.736202
0.248569 0.789532 0.696635
0.233921 0.785351 0.687861
0.228275 0.779782 0.673899
0.228748 0.775326 0.654475
0.369177 0.797238 0.661967
0.60473 0.834623 0.678782
0.752544 0.876554 0.697536
0.852995 0.90193 0.72726
0.920317 0.917006 0.73463
0.160601 0.0444495 0.47245
0.210681 0.0456245 0.494285
0.288243 0.047837 0.516426
0.403067 0.049073 0.535485
0.537438 0.0499428 0.553414
0.642618 0.0601968 0.582116
0.742275 0.0804913 0.624994
0.823423 0.0962387 0.663569
0.879286 0.127077 0.707881
0.13756 0.0457771 0.52871
0.207355 0.0479896 0.561944
0.320531 0.0505989 0.581384
0.467048 0.0500954 0.586618
0.587533 0.0536355 0.599298
0.687099 0.0706493 0.625162
0.777432 0.0911421 0.656992
0.848737 0.109377 0.686824
0.885039 0.1355 0.718532
0.0234073 0.0693828 0.491768
0.053315 0.0516976 0.520592
0.251514 0.0504311 0.596155
0.433951 0.0513008 0.605371
0.585168 0.0556344 0.612558
0.695338 0.0784772 0.638926
0.78555 0.0996872 0.664775
0.854673 0.118074 0.68983
0.88986 0.146471 0.720821
0.0144198 0.218204 0.541039
0.0155947 0.221057 0.559045
0.0831159 0.214267 0.616403
0.44831 0.197894 0.71632
0.676844 0.233631 0.738064
0.808881 0.278645 0.767376
0.903578 0.310491 0.78883
0.953994 0.339101 0.806821
0.961181 0.347524 0.824613
0.0104067 0.383474 0.554086
0.0120241 0.391562 0.564965
0.0443732 0.390555 0.590143
0.251942 0.480629 0.684459
0.66302 0.542443 0.785992
0.81088 0.575402 0.794339
0.896788 0.5906 0.804135
0.944991 0.597726 0.813565
0.95819 0.603708 0.819272
0.0285191 0.563378 0.576471
0.0380407 0.572351 0.588769
0.0720378 0.576135 0.604074
0.196109 0.613367 0.660349
0.556588 0.684627 0.73666
0.76289 0.708263 0.780926
0.864225 0.718471 0.790661
0.925673 0.72636 0.792615
0.954269 0.733303 0.797848
0.141497 0.692409 0.647059
0.148699 0.69279 0.647639
0.158511 0.689296 0.644297
0.194736 0.693935 0.649577
0.488548 0.747875 0.709041
0.726299 0.804044 0.772488
0.841031 0.818296 0.791211
0.911315 0.82324 0.800412
0.949371 0.828916 0.807675
0.207828 0.754238 0.686061
0.210895 0.751644 0.681849
0.218418 0.747448 0.675303
0.240314 0.74609 0.6701
0.475517 0.783505 0.710002
0.70515 0.842161 0.77258
0.818967 0.873289 0.80148
0.899519 0.885084 0.798535
0.941497 0.889097 0.808957
0.267704 0.789868 0.71458
0.262119 0.785672 0.708476
0.262684 0.781064 0.700145
0.273213 0.777691 0.690913
0.45713 0.804944 0.714046
0.676081 0.857893 0.766766
0.791272 0.893339 0.795346
0.875288 0.910628 0.80444
0.932036 0.920684 0.80734
0.206714 0.0479896 0.562188
0.257481 0.0497444 0.581643
0.337118 0.051667 0.597574
0.462333 0.0510414 0.607172
0.578256 0.0539559 0.621134
0.667964 0.0620584 0.643198
0.761257 0.0866102 0.67776
0.840864 0.103136 0.71194
0.886732 0.128985 0.745205
0.19472 0.0503853 0.60766
0.258335 0.0524453 0.629175
0.370367 0.0538796 0.642405
0.512764 0.0528725 0.645274
0.619104 0.0579538 0.655467
0.704433 0.0692607 0.674983
0.793851 0.0987716 0.705715
0.862013 0.112505 0.730205
0.891768 0.136584 0.755459
0.0464637 0.0599374 0.568353
0.117769 0.0492409 0.605859
0.301686 0.0544747 0.654063
0.484199 0.0533303 0.658671
0.612696 0.0580301 0.664836
0.712306 0.0805524 0.689647
0.800992 0.106996 0.715038
0.867399 0.122408 0.735683
0.896757 0.148379 0.757824
0.0221561 0.203265 0.601099
0.0260929 0.205081 0.616373
0.108629 0.185031 0.670558
0.471397 0.155566 0.74612
0.673945 0.186755 0.765545
0.798276 0.237263 0.792462
0.895659 0.274922 0.816007
0.952102 0.309026 0.836805
0.962448 0.332723 0.848783
0.022797 0.385962 0.612589
0.0255131 0.393133 0.621408
0.0564736 0.389761 0.64506
0.271519 0.469413 0.744381
0.693919 0.527001 0.84329
0.840604 0.563912 0.850889
0.913909 0.584283 0.852659
0.954147 0.595483 0.858457
0.962386 0.602197 0.860395
0.0496071 0.572335 0.635218
0.0546731 0.577539 0.643687
0.094255 0.579629 0.659831
0.238148 0.617395 0.716701
0.550439 0.674586 0.781781
0.786938 0.700496 0.839399
0.885954 0.716731 0.844953
0.936385 0.726146 0.852003
0.961654 0.731853 0.856626
0.123568 0.693584 0.680232
0.13727 0.694026 0.683131
0.159243 0.690257 0.684642
0.220295 0.696406 0.701717
0.504967 0.743099 0.758877
0.728801 0.796963 0.816068
0.853117 0.807782 0.83595
0.914504 0.814755 0.838437
0.950057 0.820325 0.840391
0.217685 0.755245 0.708598
0.219455 0.7523 0.705409
0.225544 0.748226 0.701946
0.245777 0.747341 0.701503
0.474891 0.782422 0.738979
0.708156 0.843076 0.802777
0.841382 0.875334 0.840055
0.905074 0.880934 0.845624
0.942535 0.883833 0.85037
0.277852 0.790661 0.728435
0.272892 0.786603 0.723415
0.273793 0.782147 0.717418
0.286152 0.779675 0.712322
0.488106 0.80766 0.740795
0.705058 0.867399 0.803388
0.833082 0.902586 0.844724
0.894667 0.914015 0.855726
0.938277 0.920195 0.851286
0.255146 0.0521401 0.626123
0.305882 0.0536965 0.642252
0.391302 0.0542 0.652827
0.512001 0.0536355 0.65951
0.613489 0.0584878 0.671962
0.696025 0.067216 0.690944
0.780713 0.0892958 0.72015
0.864469 0.122667 0.757702
0.899474 0.143847 0.786801
0.248737 0.0542916 0.661219
0.307103 0.0559091 0.676616
0.423651 0.0552682 0.683711
0.548363 0.0560922 0.688197
0.646174 0.0624704 0.697429
0.725399 0.0746624 0.714794
0.811795 0.106416 0.746456
0.885603 0.138048 0.776364
0.906035 0.156283 0.797772
0.102861 0.0541238 0.632471
0.182361 0.0538796 0.663859
0.348424 0.0570077 0.693858
0.522164 0.0556191 0.696605
0.637934 0.0621805 0.704677
0.72987 0.0831159 0.725734
0.818784 0.117891 0.756512
0.889311 0.146944 0.781445
0.90837 0.16173 0.797299
0.0416419 0.187228 0.648356
0.0497444 0.184878 0.66157
0.14287 0.151446 0.709026
0.489708 0.122286 0.761013
0.673014 0.151598 0.781079
0.792706 0.199207 0.805951
0.890181 0.251164 0.834241
0.951141 0.294514 0.857298
0.962554 0.316838 0.869123
0.041062 0.392386 0.655375
0.0464485 0.398016 0.663798
0.0741894 0.391974 0.686488
0.322301 0.471427 0.799649
0.726635 0.51928 0.880308
0.86453 0.555352 0.885908
0.92845 0.578073 0.884367
0.961364 0.592889 0.887083
0.962234 0.600229 0.888884
0.0802014 0.584634 0.678279
0.0865339 0.587747 0.685283
0.118791 0.586496 0.69868
0.267597 0.622553 0.756771
0.565896 0.670207 0.819608
0.811749 0.696971 0.876967
0.907835 0.714626 0.879942
0.946502 0.728099 0.885222
0.961975 0.734829 0.889021
0.131411 0.696376 0.710201
0.146685 0.695857 0.713909
0.181323 0.692607 0.72015
0.260563 0.700755 0.74345
0.531609 0.741604 0.794369
0.725765 0.790692 0.842924
0.873091 0.803037 0.86949
0.92546 0.811551 0.87631
0.955688 0.817441 0.877867
0.219059 0.756664 0.729305
0.223377 0.753658 0.728466
0.23444 0.749676 0.727916
0.266819 0.749523 0.733959
0.495232 0.781338 0.773754
0.715053 0.840467 0.834028
0.843488 0.872145 0.864179
0.909804 0.87451 0.868925
0.942306 0.879179 0.869825
0.286137 0.791074 0.742947
0.28275 0.787366 0.739116
0.283131 0.783032 0.735622
0.294575 0.780728 0.733211
0.493965 0.807599 0.761456
0.704662 0.866972 0.821561
0.837461 0.903883 0.862013
0.905928 0.914366 0.876951
0.940078 0.917632 0.878035
