bundles/resolve-cinematic-luts/Phantom Luts/P4k & P6K Phntm Film LUTs - V6/P6k/Gen 4 Colour/P6k VisionTeal Gen4.cube
TITLE "Generated by Resolve"
LUT_3D_SIZE 5
0.0224155 0.0224155 0.0224155
0.175479 0.0220493 0.021622
0.479286 0.0502174 0.038941
0.770718 0.188739 0.159426
0.779339 0.227527 0.168673
0.0188602 0.217273 0.0663157
0.173846 0.205905 0.0267948
0.515785 0.175097 0.06804
0.762783 0.293156 0.165255
0.777829 0.3467 0.197833
0.0569009 0.579126 0.305318
0.0879225 0.54728 0.15169
0.508385 0.534997 0.119249
0.787991 0.603403 0.286213
0.818143 0.608454 0.314321
0.253529 0.878309 0.624369
0.24065 0.875517 0.561715
0.483024 0.778653 0.392248
0.766064 0.799161 0.431067
0.835187 0.813886 0.515877
0.255802 0.889326 0.662486
0.26154 0.883894 0.61619
0.452201 0.821286 0.46746
0.724132 0.812192 0.480522
0.843305 0.846174 0.59205
0.0221103 0.0431373 0.219059
0.218341 0.0174563 0.203113
0.525689 0.0375067 0.234348
0.794171 0.162951 0.307805
0.800275 0.191592 0.252186
0.0191348 0.19617 0.146181
0.201923 0.22208 0.205371
0.581918 0.136522 0.125322
0.787884 0.248173 0.210681
0.793042 0.312032 0.221302
0.0429389 0.56199 0.367636
0.0463722 0.555505 0.289006
0.498192 0.525628 0.134325
0.793408 0.583902 0.310353
0.819135 0.591333 0.330953
0.23769 0.87776 0.662745
0.235325 0.870039 0.612192
0.435843 0.780484 0.38616
0.757198 0.790402 0.407767
0.835904 0.806821 0.50547
0.245747 0.894301 0.694713
0.258518 0.888808 0.660777
0.400687 0.839368 0.49102
0.702617 0.811032 0.485954
0.843824 0.84683 0.595071
0.11873 0.0776074 0.513146
0.282765 0.029984 0.484993
0.555245 0.051606 0.524285
0.783642 0.127077 0.633402
0.792828 0.152865 0.57467
0.0192111 0.154437 0.431495
0.124956 0.0564736 0.503716
0.532631 0.0541238 0.498817
0.786831 0.147097 0.576242
0.793088 0.170291 0.526177
0.0487831 0.558267 0.486198
0.0640269 0.553124 0.486229
0.586084 0.578408 0.549889
0.845472 0.539132 0.512917
0.83563 0.520485 0.439002
0.232792 0.868132 0.734691
0.214069 0.860594 0.713756
0.27126 0.835294 0.591333
0.748867 0.783154 0.455543
0.848157 0.794141 0.52668
0.262379 0.90396 0.76788
0.243824 0.904418 0.753079
0.270665 0.887098 0.657328
0.636011 0.813184 0.508797
0.846555 0.850477 0.605829
0.277852 0.0610666 0.726558
0.403052 0.0632639 0.724727
0.631357 0.114122 0.762234
0.79733 0.155352 0.822461
0.80325 0.183337 0.840528
0.0417334 0.171801 0.708873
0.283116 0.0598459 0.719615
0.596017 0.106981 0.748821
0.795346 0.14815 0.807141
0.802625 0.171038 0.822766
0.0324102 0.559533 0.70631
0.0346838 0.53933 0.715541
0.593179 0.448234 0.827878
0.8392 0.444434 0.817929
0.832898 0.398489 0.794018
0.319951 0.856718 0.802152
0.311711 0.84831 0.79324
0.38674 0.833143 0.781933
0.818738 0.825849 0.8047
0.905959 0.796048 0.779095
0.464973 0.901366 0.824247
0.4439 0.902449 0.819043
0.397589 0.901106 0.800153
0.685588 0.897871 0.785199
0.892119 0.902815 0.771832
0.386023 0.0766155 0.780514
0.472068 0.0766918 0.780819
0.67602 0.141421 0.816403
0.802976 0.178256 0.852659
0.805158 0.206714 0.853315
0.262867 0.134829 0.786465
0.388952 0.0767529 0.780667
0.639353 0.124163 0.808301
0.803937 0.185122 0.853254
0.805478 0.213962 0.853178
0.107866 0.548852 0.815137
0.0895094 0.520073 0.813443
0.600458 0.361517 0.855039
0.821729 0.38027 0.861189
0.821027 0.345678 0.859663
0.378836 0.851331 0.864439
0.361456 0.841367 0.863279
0.438911 0.818463 0.86595
0.830076 0.777325 0.915801
0.902907 0.759213 0.910246
0.531395 0.911009 0.857435
0.533654 0.911238 0.857679
0.541619 0.911604 0.858228
0.738842 0.924575 0.882872
0.941497 0.951263 0.933135
