bundles/resolve-cinematic-luts/Phantom Luts/P4k & P6K Phntm Film LUTs - V6/P6k/Gen 4 Colour/P6k Bleach Gen4.cube
TITLE "Generated by Resolve"
LUT_3D_SIZE 5
0.0153353 0.0269474 0.0176242
0.101167 0.0333562 0.0294957
0.324941 0.0529183 0.0560616
0.628 0.0938888 0.107408
0.818784 0.181308 0.192828
0.0306859 0.170718 0.0639811
0.161395 0.194446 0.0353246
0.484672 0.163439 0.0598611
0.716289 0.221469 0.132586
0.893278 0.345342 0.254185
0.00128176 0.410544 0.126024
0.0133516 0.423682 0.0108186
0.533883 0.578958 0.105791
0.801205 0.654124 0.22417
0.920241 0.701198 0.34789
0.0687572 0.709697 0.361196
0.0742809 0.71043 0.218524
0.463798 0.74641 0.207355
0.796597 0.824796 0.314565
0.907271 0.859098 0.491981
0.114687 0.780835 0.489448
0.176471 0.784604 0.340307
0.536858 0.801282 0.349508
0.799954 0.8719 0.50071
0.91252 0.907271 0.596384
0.0285191 0.0317845 0.0824598
0.124681 0.0338445 0.09691
0.384375 0.0446174 0.159106
0.664591 0.076173 0.214557
0.844572 0.154711 0.307027
0.0246586 0.160128 0.136187
0.184192 0.192691 0.178668
0.548913 0.163439 0.152407
0.75613 0.201633 0.200961
0.898024 0.299519 0.296452
0 0.400305 0.217884
0.000427253 0.415717 0.131594
0.537224 0.578836 0.145724
0.83183 0.64036 0.289143
0.933623 0.680903 0.407767
0.071809 0.694759 0.457511
0.0659342 0.69662 0.349325
0.360037 0.737362 0.210681
0.787305 0.815808 0.300633
0.911299 0.849012 0.490394
0.126772 0.78024 0.589883
0.118486 0.781353 0.483665
0.415259 0.796262 0.339864
0.758129 0.857588 0.490623
0.900587 0.903975 0.581521
0.0806134 0.0380255 0.252415
0.200198 0.0404974 0.272023
0.454902 0.0479133 0.327214
0.695781 0.064271 0.466377
0.869825 0.137682 0.576257
0.016434 0.114336 0.291371
0.186435 0.0803235 0.426978
0.567025 0.0866102 0.444221
0.756802 0.100862 0.509178
0.893263 0.180072 0.583993
0.00737011 0.398505 0.343999
0.0276799 0.418067 0.360037
0.608103 0.593408 0.572564
0.854246 0.616251 0.596445
0.938216 0.636683 0.616922
0.116533 0.689448 0.574487
0.124727 0.68455 0.546914
0.356802 0.73666 0.526604
0.804242 0.816938 0.592782
0.940169 0.843366 0.642725
0.204059 0.787945 0.670451
0.163851 0.781903 0.640772
0.282536 0.787533 0.54696
0.719875 0.85452 0.583886
0.902724 0.908812 0.631464
0.160601 0.0444495 0.47245
0.288243 0.047837 0.516426
0.537438 0.0499428 0.553414
0.742275 0.0804913 0.624994
0.879286 0.127077 0.707881
0.0234073 0.0693828 0.491768
0.251514 0.0504311 0.596155
0.585168 0.0556344 0.612558
0.78555 0.0996872 0.664775
0.88986 0.146471 0.720821
0.0104067 0.383474 0.554086
0.0443732 0.390555 0.590143
0.66302 0.542443 0.785992
0.896788 0.5906 0.804135
0.95819 0.603708 0.819272
0.141497 0.692409 0.647059
0.158511 0.689296 0.644297
0.488548 0.747875 0.709041
0.841031 0.818296 0.791211
0.949371 0.828916 0.807675
0.267704 0.789868 0.71458
0.262684 0.781064 0.700145
0.45713 0.804944 0.714046
0.791272 0.893339 0.795346
0.932036 0.920684 0.80734
0.255146 0.0521401 0.626123
0.391302 0.0542 0.652827
0.613489 0.0584878 0.671962
0.780713 0.0892958 0.72015
0.899474 0.143847 0.786801
0.102861 0.0541238 0.632471
0.348424 0.0570077 0.693858
0.637934 0.0621805 0.704677
0.818784 0.117891 0.756512
0.90837 0.16173 0.797299
0.041062 0.392386 0.655375
0.0741894 0.391974 0.686488
0.726635 0.51928 0.880308
0.92845 0.578073 0.884367
0.962234 0.600229 0.888884
0.131411 0.696376 0.710201
0.181323 0.692607 0.72015
0.531609 0.741604 0.794369
0.873091 0.803037 0.86949
0.955688 0.817441 0.877867
0.286137 0.791074 0.742947
0.283131 0.783032 0.735622
0.493965 0.807599 0.761456
0.837461 0.903883 0.862013
0.940078 0.917632 0.878035
