bundles/resolve-cinematic-luts/Phantom Luts/P4k & P6K Phntm Film LUTs - V6/P6k/Gen 4 Colour/P6k VisionTeal Gen4-Legacy.cube
TITLE "Generated by Resolve"
LUT_3D_SIZE 33
0.0224002 0.0405432 0.0387274
0.0224002 0.0405432 0.0387274
0.0235447 0.0403601 0.0388495
0.0310674 0.0409552 0.0397498
0.0408637 0.0417487 0.040238
0.0555734 0.0417029 0.0397803
0.0767987 0.0413367 0.0386053
0.0995193 0.0407111 0.0368963
0.12575 0.0389868 0.0342107
0.158618 0.0383001 0.033341
0.195697 0.0372473 0.0314183
0.230579 0.0358892 0.0305333
0.267796 0.0358892 0.0301823
0.305394 0.0358587 0.0308537
0.34197 0.0354314 0.0315251
0.377005 0.0360571 0.0312047
0.417624 0.0378271 0.0332189
0.459007 0.0411078 0.0375677
0.491218 0.0462959 0.0420691
0.525399 0.0533913 0.0485237
0.573816 0.0652781 0.0643015
0.620951 0.0770733 0.0795758
0.66421 0.0905776 0.0934005
0.703517 0.103716 0.106416
0.736645 0.117617 0.118837
0.750088 0.126101 0.125505
0.750912 0.130236 0.125872
0.751156 0.134615 0.125811
0.752956 0.138216 0.12723
0.755062 0.142473 0.129061
0.757259 0.146304 0.131579
0.757443 0.150454 0.132204
0.759167 0.155489 0.135103
0.0224002 0.040528 0.0386969
0.0224002 0.0405432 0.0387274
0.0224002 0.0403601 0.0384527
0.0313878 0.0416571 0.0398108
0.0410925 0.0423438 0.0402838
0.0560922 0.0425879 0.0402686
0.0762188 0.0419471 0.038941
0.0997787 0.0417792 0.0377356
0.127443 0.0405432 0.0352636
0.160113 0.0399481 0.0336461
0.196307 0.037644 0.0312505
0.230976 0.036408 0.0307622
0.267582 0.0366064 0.0302739
0.304509 0.036347 0.0309453
0.340658 0.0368658 0.0309606
0.377798 0.0371099 0.0315251
0.418006 0.0390326 0.033402
0.458976 0.0420081 0.0374456
0.492973 0.0475624 0.0429389
0.529824 0.0552224 0.0515297
0.573587 0.0671244 0.0639658
0.616403 0.0824292 0.0769665
0.661265 0.0953231 0.0916152
0.70251 0.106279 0.105272
0.735531 0.119707 0.118227
0.750134 0.128527 0.124514
0.749874 0.132647 0.123888
0.752071 0.13727 0.126284
0.753399 0.141787 0.12755
0.755642 0.145388 0.12961
0.756664 0.149599 0.131151
0.758328 0.154818 0.133944
0.759716 0.159442 0.135653
0.0222782 0.0430457 0.0389715
0.0222324 0.0424353 0.0379339
0.0221866 0.0417487 0.0385595
0.0280766 0.0433204 0.0394293
0.0379492 0.0435798 0.0401923
0.0542153 0.0447852 0.0404669
0.075227 0.0450446 0.0394141
0.0981308 0.0450446 0.0377661
0.125109 0.043595 0.0359808
0.156771 0.0412299 0.0332341
0.19292 0.0383001 0.03093
0.229984 0.039292 0.0314488
0.26688 0.0400092 0.0310979
0.30312 0.0387121 0.0302434
0.338872 0.0380865 0.0308843
0.37586 0.0382086 0.0315557
0.417456 0.042237 0.0336004
0.457679 0.0452125 0.0370794
0.49279 0.0487831 0.0427558
0.529427 0.0568093 0.0514229
0.57554 0.0730144 0.0650034
0.617563 0.0839857 0.0778058
0.660014 0.0973678 0.0914015
0.700633 0.111711 0.104723
0.733532 0.121614 0.116793
0.750011 0.132082 0.124407
0.751659 0.135973 0.125856
0.752468 0.14049 0.12665
0.754116 0.144579 0.127993
0.755901 0.149645 0.1299
0.757992 0.155459 0.133043
0.75935 0.160067 0.13492
0.759747 0.162905 0.136065
0.0215 0.0561074 0.0419471
0.0213321 0.0551461 0.0383001
0.0249332 0.0535592 0.0390173
0.0324407 0.0529488 0.0403754
0.0393072 0.0532692 0.0411231
0.0543984 0.0532235 0.0404364
0.0741894 0.0509804 0.0403296
0.0968185 0.049546 0.0391089
0.12372 0.0481575 0.0367437
0.155657 0.0462654 0.0345159
0.193286 0.0439155 0.0319524
0.228473 0.0433661 0.0307012
0.264363 0.0420844 0.028748
0.30193 0.0407263 0.0301823
0.339605 0.0414282 0.0320287
0.37705 0.043595 0.0326543
0.414603 0.0444038 0.033051
0.456413 0.0470283 0.0366674
0.494728 0.0539254 0.0446021
0.532876 0.0648966 0.054139
0.575402 0.0762341 0.0650187
0.616724 0.0856641 0.0779431
0.659403 0.0998093 0.0913863
0.701991 0.118959 0.107881
0.737819 0.134081 0.120607
0.751858 0.13666 0.12636
0.752255 0.139498 0.126482
0.753155 0.14374 0.127047
0.755749 0.151385 0.12958
0.757656 0.157916 0.132006
0.758511 0.162127 0.134035
0.759594 0.165667 0.13547
0.759808 0.176516 0.134783
0.0208286 0.0709697 0.0437934
0.020737 0.0693828 0.0388342
0.024033 0.0673533 0.0389105
0.0308537 0.065507 0.0402228
0.0433967 0.0656748 0.0424048
0.0548562 0.0665599 0.043061
0.0756542 0.0652171 0.0392309
0.0975204 0.0617227 0.0401007
0.124269 0.0571145 0.0389715
0.156329 0.0531472 0.0353399
0.19469 0.0505226 0.032929
0.230991 0.048661 0.031693
0.26717 0.0475013 0.0309606
0.302876 0.0466621 0.0309606
0.338857 0.0466773 0.0309758
0.37525 0.0462501 0.032166
0.415656 0.0487984 0.0341039
0.458076 0.0540017 0.0389868
0.49781 0.0615244 0.0455177
0.533455 0.069337 0.0534218
0.575174 0.0798352 0.0647288
0.619913 0.0968032 0.0811017
0.663371 0.1122 0.0949111
0.703166 0.125582 0.109117
0.737179 0.139284 0.120775
0.754009 0.145602 0.127672
0.754635 0.148165 0.128084
0.756588 0.1561 0.130282
0.757671 0.162539 0.131868
0.758022 0.168276 0.130724
0.758053 0.173617 0.132021
0.759731 0.18378 0.134722
0.760296 0.194049 0.136233
0.0203708 0.0890974 0.0460517
0.0204166 0.0888228 0.0400854
0.0209964 0.0865034 0.0369116
0.0268711 0.0846876 0.0380102
0.0375525 0.0840009 0.0413519
0.0595865 0.0829328 0.0430304
0.0727245 0.0839094 0.0425269
0.0919966 0.0820783 0.0368963
0.121416 0.0760052 0.0395972
0.157488 0.066041 0.0386206
0.196201 0.0598459 0.0343023
0.232761 0.0558175 0.0328527
0.269947 0.0538796 0.0320897
0.306386 0.0531777 0.0322423
0.342077 0.0538796 0.0323644
0.378958 0.054902 0.0331731
0.417502 0.0580453 0.0354009
0.460563 0.0617075 0.0396429
0.501472 0.0718242 0.0478218
0.541711 0.0844892 0.0590219
0.583215 0.097322 0.0709087
0.624186 0.10988 0.0838026
0.666133 0.123293 0.0967727
0.704402 0.135958 0.110185
0.740414 0.152621 0.123445
0.755856 0.165896 0.127764
0.756909 0.173632 0.129244
0.757321 0.173342 0.129656
0.757748 0.17908 0.130999
0.757992 0.186374 0.132555
0.758938 0.195056 0.134539
0.759335 0.203159 0.135622
0.759854 0.213611 0.138094
0.0200504 0.107576 0.0492103
0.019913 0.107362 0.0417945
0.0197757 0.10428 0.0357824
0.0233921 0.103044 0.0364385
0.0331426 0.101717 0.0393378
0.0486763 0.101762 0.0429847
0.0779583 0.100343 0.0430304
0.0918441 0.100191 0.0392462
0.116884 0.0969863 0.0350042
0.153536 0.0902266 0.0364538
0.202792 0.0747997 0.0361028
0.24033 0.0675364 0.0340429
0.277195 0.0640879 0.0336156
0.313481 0.0624552 0.0336156
0.349523 0.0636301 0.033814
0.386252 0.0664988 0.0358892
0.426078 0.0713054 0.0388342
0.467018 0.0787823 0.0442512
0.510491 0.0903334 0.0529793
0.550011 0.103487 0.0639963
0.591424 0.115618 0.075288
0.630701 0.129335 0.0870375
0.669642 0.143328 0.0994736
0.706691 0.158679 0.111559
0.741543 0.176043 0.124178
0.75668 0.188495 0.13048
0.757641 0.196155 0.13225
0.757229 0.202319 0.132296
0.757229 0.20296 0.132372
0.75758 0.210025 0.133623
0.758663 0.217853 0.135424
0.759838 0.227268 0.138918
0.760678 0.236942 0.141833
0.0196689 0.128298 0.0529488
0.0195468 0.128298 0.0442206
0.0192721 0.125383 0.0369726
0.0213779 0.12314 0.0368048
0.027512 0.121691 0.036408
0.0393835 0.121691 0.0393378
0.0617685 0.12105 0.0442206
0.0961624 0.120516 0.0420996
0.111254 0.117601 0.0380407
0.145205 0.114733 0.0332341
0.189273 0.108019 0.0345464
0.241443 0.0908522 0.0379034
0.284855 0.0820172 0.0372473
0.32253 0.0813306 0.0375219
0.358648 0.0816052 0.0383154
0.396078 0.0830854 0.0398871
0.436942 0.0894942 0.0446021
0.479591 0.100206 0.0525978
0.522179 0.112764 0.0619821
0.560525 0.125322 0.071519
0.599725 0.138521 0.0816968
0.637583 0.152392 0.0933852
0.675425 0.16759 0.104067
0.70927 0.183612 0.113909
0.740581 0.20177 0.125856
0.756344 0.215534 0.133257
0.757382 0.221988 0.134096
0.758724 0.228351 0.135973
0.759258 0.235126 0.138323
0.759243 0.237186 0.13904
0.759808 0.245121 0.141543
0.760449 0.252766 0.143267
0.761471 0.261921 0.146822
0.0192264 0.154421 0.0547341
0.0191958 0.153979 0.0461738
0.018967 0.15172 0.0379797
0.0191958 0.147051 0.0364233
0.0212558 0.145205 0.0336461
0.0295109 0.144533 0.0341802
0.0460517 0.14583 0.0390784
0.0784924 0.145968 0.0451362
0.117662 0.145892 0.0405127
0.136828 0.141421 0.0381476
0.182605 0.137789 0.0314031
0.228855 0.133974 0.0355535
0.284993 0.118257 0.0428321
0.334203 0.108186 0.0444648
0.374411 0.11017 0.0475929
0.413779 0.115099 0.0512856
0.452979 0.121401 0.0558022
0.494575 0.129397 0.0628519
0.533104 0.140505 0.0703899
0.570703 0.152804 0.0796063
0.606439 0.16672 0.088014
0.640894 0.181613 0.0962539
0.676707 0.197208 0.106996
0.710323 0.212787 0.117205
0.74136 0.23064 0.129763
0.757656 0.243885 0.138781
0.759411 0.251072 0.141405
0.759579 0.257908 0.142748
0.760052 0.264805 0.14461
0.760525 0.271702 0.147036
0.76109 0.274083 0.148196
0.762417 0.281285 0.15108
0.763638 0.289158 0.154925
0.0190585 0.186526 0.0565652
0.018967 0.186618 0.0482948
0.0185245 0.18291 0.0390021
0.0186618 0.178408 0.0364996
0.0185245 0.175006 0.0316014
0.0187076 0.172778 0.0295262
0.0310979 0.174228 0.0312352
0.0530098 0.177584 0.0374456
0.093019 0.179767 0.0447242
0.146059 0.182269 0.0399939
0.174121 0.176242 0.03682
0.225345 0.174212 0.0319371
0.277928 0.175235 0.0380407
0.335164 0.167788 0.05066
0.386404 0.156481 0.0588388
0.427909 0.155276 0.063386
0.46746 0.16083 0.0677195
0.502861 0.168017 0.0714885
0.538842 0.177356 0.0776226
0.574624 0.187182 0.0845197
0.609735 0.199802 0.092668
0.644648 0.214206 0.101686
0.679408 0.230015 0.112215
0.713069 0.245762 0.124132
0.742489 0.263325 0.137575
0.757641 0.275029 0.146502
0.760464 0.282475 0.149676
0.761486 0.288991 0.151873
0.761501 0.295033 0.153735
0.7626 0.3019 0.156619
0.764004 0.308995 0.159991
0.764294 0.311086 0.1617
0.76524 0.317769 0.165698
0.0186618 0.22536 0.0656138
0.018555 0.224262 0.0566262
0.0185092 0.221958 0.0483101
0.0185245 0.217624 0.0442054
0.0185397 0.211078 0.0361944
0.0182193 0.207645 0.0312657
0.0218204 0.206683 0.0294347
0.0402838 0.213184 0.0347601
0.0733959 0.218631 0.0429847
0.120333 0.224002 0.0526741
0.18996 0.225055 0.0411078
0.220752 0.220081 0.041062
0.274723 0.219348 0.0357214
0.326116 0.220844 0.0409552
0.375174 0.219928 0.052079
0.427924 0.212604 0.0661936
0.47068 0.211444 0.0750744
0.509102 0.21445 0.0823072
0.545129 0.222477 0.0890364
0.579339 0.231861 0.0959335
0.615228 0.242496 0.103944
0.649378 0.253223 0.112566
0.684688 0.265354 0.122637
0.716243 0.280735 0.134752
0.743816 0.296818 0.148455
0.75903 0.308141 0.15758
0.763348 0.315236 0.162158
0.763699 0.321019 0.164858
0.764385 0.326665 0.167239
0.765515 0.332631 0.171954
0.765576 0.338704 0.17499
0.766674 0.342306 0.177951
0.76762 0.347814 0.182223
0.0189517 0.273701 0.0809033
0.0187533 0.271611 0.0720684
0.0186465 0.268803 0.0680247
0.0188144 0.264714 0.0586404
0.0190585 0.259907 0.0504463
0.0185397 0.253407 0.0408484
0.0205692 0.249332 0.0355535
0.0327459 0.252232 0.0364233
0.0580758 0.260105 0.0422522
0.0975357 0.265339 0.0519112
0.156329 0.268986 0.0598611
0.234333 0.269993 0.0428016
0.269871 0.26537 0.0457313
0.323873 0.26598 0.0413825
0.372793 0.269444 0.0458991
0.418006 0.273182 0.0560464
0.472663 0.270634 0.0744793
0.514214 0.271885 0.0889143
0.547936 0.276387 0.101595
0.584939 0.283558 0.112093
0.61854 0.290654 0.119875
0.653162 0.300206 0.129213
0.686046 0.309667 0.139422
0.718105 0.320058 0.150179
0.747097 0.331853 0.164324
0.762814 0.343771 0.175387
0.765881 0.349325 0.180499
0.766674 0.354894 0.183307
0.767208 0.359823 0.186313
0.768612 0.365484 0.190509
0.768933 0.371298 0.193759
0.770291 0.377768 0.198749
0.771252 0.379889 0.201266
0.0189517 0.320531 0.097322
0.0193332 0.319371 0.0902571
0.022446 0.317357 0.0873426
0.0240787 0.314092 0.0779126
0.024918 0.309468 0.0664225
0.0255436 0.303517 0.0565499
0.0252842 0.297139 0.0464179
0.0296025 0.294423 0.0414282
0.0470436 0.299901 0.0436103
0.0799725 0.306493 0.0505226
0.129122 0.311513 0.0621958
0.205844 0.311604 0.0664073
0.280735 0.313573 0.0464179
0.318898 0.311162 0.0525216
0.370703 0.313359 0.0492866
0.417075 0.317693 0.0529183
0.46305 0.325246 0.0631113
0.513664 0.326863 0.0841077
0.55491 0.33051 0.10164
0.590494 0.336431 0.116503
0.622614 0.34284 0.130251
0.654215 0.350027 0.145785
0.687633 0.358434 0.160647
0.71902 0.367346 0.173892
0.74725 0.376623 0.189227
0.765652 0.384894 0.199786
0.770031 0.386999 0.202853
0.770733 0.390341 0.205005
0.77142 0.395514 0.207736
0.772412 0.400702 0.21149
0.773266 0.406256 0.214664
0.773693 0.411307 0.217578
0.775296 0.416342 0.221683
0.0197604 0.370581 0.121157
0.0226902 0.368719 0.11429
0.0295262 0.366629 0.109438
0.0312047 0.363684 0.0997635
0.0328374 0.360052 0.0894789
0.0332952 0.35584 0.0772869
0.0326085 0.347723 0.0643473
0.0326085 0.34168 0.0534524
0.0408331 0.339834 0.049073
0.0691386 0.346548 0.0538643
0.10695 0.351934 0.0623178
0.173358 0.353552 0.073167
0.254643 0.35378 0.0716716
0.326879 0.357122 0.0530098
0.366552 0.35584 0.0635996
0.416571 0.360174 0.0607462
0.463508 0.365805 0.0647135
0.506035 0.374258 0.076524
0.554101 0.380453 0.0970169
0.594995 0.385367 0.117418
0.630152 0.392126 0.135073
0.662867 0.400015 0.152956
0.693477 0.406744 0.171618
0.722133 0.414435 0.192004
0.74789 0.422599 0.210666
0.769314 0.430625 0.225513
0.775998 0.433951 0.229953
0.776028 0.434318 0.229984
0.776181 0.434913 0.230152
0.776654 0.437659 0.231266
0.777905 0.441901 0.234089
0.779568 0.446387 0.236347
0.78056 0.450782 0.238636
0.0254673 0.420447 0.154284
0.0254215 0.418708 0.142901
0.035996 0.417014 0.140368
0.0387274 0.413642 0.129015
0.04094 0.411017 0.117174
0.0417792 0.406134 0.102663
0.0429999 0.400534 0.0901503
0.0423285 0.391913 0.0746014
0.0441749 0.386755 0.0633097
0.061677 0.386481 0.0612345
0.0955215 0.391485 0.0661784
0.146624 0.394858 0.0768902
0.226215 0.394614 0.0869764
0.306249 0.396658 0.0770428
0.37351 0.401602 0.0648356
0.412634 0.40087 0.0792096
0.462165 0.405386 0.0741283
0.507897 0.413306 0.0822919
0.548821 0.422431 0.0955825
0.592493 0.431785 0.113252
0.634226 0.437613 0.13962
0.669993 0.444648 0.162814
0.701976 0.452125 0.184482
0.730282 0.459617 0.20473
0.755245 0.466987 0.221592
0.776745 0.475486 0.238697
0.786404 0.479789 0.246632
0.786801 0.480278 0.246738
0.786831 0.480278 0.246708
0.786801 0.479759 0.246662
0.786648 0.478416 0.246494
0.788006 0.481361 0.247532
0.789563 0.485634 0.249775
0.0335699 0.470298 0.197665
0.0321813 0.469596 0.187045
0.0322118 0.467124 0.173526
0.0466468 0.465064 0.170474
0.049012 0.461753 0.154299
0.0519265 0.457084 0.13669
0.0542306 0.452247 0.11931
0.0542763 0.444358 0.103105
0.0541085 0.436149 0.0852979
0.0618296 0.43122 0.0744335
0.0890974 0.43267 0.0746777
0.127779 0.435538 0.0816968
0.202609 0.434211 0.0912947
0.282994 0.435264 0.101839
0.359747 0.439307 0.0835279
0.417746 0.443671 0.0828565
0.459571 0.445716 0.0957961
0.507668 0.451911 0.0936904
0.551415 0.460533 0.105531
0.590875 0.470359 0.119341
0.632624 0.479805 0.138949
0.673732 0.487709 0.167773
0.708751 0.494102 0.196262
0.738216 0.502266 0.217823
0.762387 0.509896 0.236393
0.784283 0.518654 0.254429
0.796674 0.523964 0.264714
0.798672 0.52546 0.266728
0.798657 0.525353 0.266697
0.798566 0.524544 0.266407
0.798032 0.522866 0.265415
0.797787 0.520241 0.264836
0.797909 0.518975 0.264836
0.0453651 0.521202 0.245457
0.0426642 0.521675 0.236103
0.0408942 0.520409 0.223987
0.040238 0.517525 0.21091
0.0561532 0.514778 0.205554
0.0621653 0.510018 0.186816
0.0658427 0.504677 0.162692
0.0680247 0.498054 0.139239
0.0691844 0.489403 0.118791
0.0713512 0.480812 0.0992905
0.0870985 0.475624 0.0879072
0.119158 0.478294 0.0905165
0.180606 0.476387 0.0982528
0.260853 0.475654 0.109926
0.340352 0.477073 0.117464
0.411139 0.483345 0.0942092
0.462409 0.487465 0.101808
0.504097 0.491371 0.115358
0.549157 0.497978 0.112306
0.591867 0.508385 0.130159
0.631174 0.518044 0.148226
0.670527 0.52755 0.172747
0.710552 0.537026 0.202945
0.743816 0.544244 0.230442
0.768399 0.550958 0.252857
0.789425 0.558877 0.271489
0.804349 0.565133 0.28455
0.808927 0.56672 0.288334
0.808896 0.56672 0.288411
0.808972 0.566491 0.288258
0.808728 0.565011 0.287602
0.808591 0.561791 0.286931
0.807202 0.556848 0.283879
0.0627298 0.572137 0.294987
0.0584878 0.572198 0.286244
0.0554971 0.571878 0.275853
0.0527199 0.571313 0.26363
0.0512551 0.568063 0.24828
0.0664073 0.563912 0.237766
0.0777905 0.558541 0.218158
0.0823529 0.551522 0.191531
0.0847334 0.54287 0.162463
0.0874189 0.533639 0.135805
0.0946059 0.525231 0.11339
0.118471 0.521737 0.106355
0.161776 0.521523 0.109789
0.242847 0.517571 0.1196
0.320348 0.516945 0.132448
0.391836 0.520088 0.13225
0.462196 0.528176 0.1066
0.50573 0.532219 0.119799
0.544549 0.537148 0.136599
0.588251 0.544472 0.13756
0.630045 0.555352 0.161761
0.66804 0.564141 0.186343
0.705058 0.573495 0.21149
0.741329 0.582803 0.239109
0.770962 0.59057 0.266987
0.79176 0.596613 0.287694
0.809934 0.603235 0.305791
0.817807 0.606485 0.312688
0.817823 0.606302 0.312398
0.817548 0.605661 0.311772
0.816846 0.603571 0.310903
0.816526 0.600427 0.309026
0.816083 0.595987 0.306264
0.0804608 0.622629 0.343099
0.0772259 0.622766 0.335836
0.0730297 0.623178 0.327214
0.0698558 0.622751 0.316533
0.0661479 0.62182 0.303517
0.0654765 0.618158 0.284886
0.0853742 0.613016 0.271
0.0960403 0.606332 0.248157
0.101579 0.598184 0.219944
0.105226 0.587243 0.187381
0.110491 0.577066 0.15256
0.123919 0.56878 0.130861
0.159579 0.565927 0.126604
0.226047 0.561807 0.132067
0.306569 0.558663 0.144396
0.378836 0.559243 0.157809
0.444968 0.564416 0.144625
0.509163 0.573327 0.122042
0.548821 0.577798 0.140352
0.582406 0.581125 0.160174
0.624186 0.589075 0.171633
0.66392 0.599084 0.198047
0.701839 0.607965 0.224735
0.734768 0.616327 0.249424
0.765942 0.625254 0.277943
0.792691 0.633234 0.305165
0.812161 0.640009 0.326421
0.823209 0.644312 0.337377
0.824598 0.644022 0.337316
0.824186 0.642725 0.33576
0.823835 0.640467 0.334249
0.823178 0.637583 0.331701
0.822873 0.632929 0.328634
0.0999313 0.673365 0.387579
0.095964 0.673777 0.381781
0.0927749 0.674281 0.374624
0.0889906 0.674678 0.366522
0.0866255 0.674586 0.355825
0.0828107 0.67332 0.340276
0.0815747 0.668437 0.318715
0.108431 0.662257 0.302953
0.116625 0.654398 0.274296
0.122911 0.644068 0.243259
0.127825 0.631952 0.208087
0.13756 0.621118 0.170611
0.16434 0.612772 0.151308
0.220478 0.608713 0.15053
0.294759 0.603052 0.15967
0.368887 0.599756 0.173251
0.435279 0.6009 0.183963
0.494728 0.607523 0.159792
0.553246 0.617365 0.14107
0.589654 0.622171 0.160052
0.619089 0.622751 0.189563
0.657984 0.63032 0.211826
0.6963 0.640513 0.23827
0.729946 0.64976 0.263172
0.759533 0.658518 0.289036
0.785412 0.665888 0.316167
0.809735 0.672816 0.344701
0.825437 0.678401 0.360815
0.829648 0.67982 0.363989
0.829267 0.678279 0.361913
0.829023 0.676585 0.35935
0.828977 0.674022 0.356802
0.827237 0.668132 0.351461
0.11957 0.725658 0.432319
0.116625 0.726589 0.427329
0.112993 0.727489 0.421439
0.110323 0.727901 0.414176
0.10724 0.728481 0.405554
0.103365 0.728099 0.393133
0.100542 0.725444 0.373938
0.100557 0.721004 0.35021
0.130343 0.713741 0.331609
0.139834 0.702998 0.300038
0.147021 0.689296 0.264027
0.156374 0.67628 0.225605
0.18352 0.664042 0.198566
0.230381 0.656504 0.187625
0.291951 0.649821 0.190372
0.361364 0.643397 0.197635
0.427543 0.641779 0.207172
0.484535 0.643977 0.205982
0.540047 0.651286 0.185779
0.594217 0.661326 0.169299
0.628092 0.664485 0.189151
0.652338 0.664134 0.227909
0.689067 0.671687 0.254734
0.723949 0.681315 0.28014
0.753552 0.691676 0.305318
0.778881 0.698848 0.32871
0.802274 0.705638 0.354833
0.823606 0.710842 0.382773
0.831998 0.713588 0.391897
0.831937 0.712154 0.390051
0.831373 0.710109 0.387564
0.8309 0.70695 0.383917
0.831342 0.702129 0.380179
0.147524 0.774502 0.475715
0.143877 0.775952 0.471885
0.140276 0.776684 0.466606
0.136324 0.777401 0.46006
0.132815 0.777356 0.451362
0.128405 0.777325 0.440238
0.125628 0.778363 0.426123
0.124025 0.774212 0.403769
0.13669 0.767681 0.380667
0.158648 0.757046 0.355062
0.169024 0.743038 0.321309
0.183185 0.728817 0.28426
0.211826 0.713741 0.254017
0.251682 0.701167 0.23505
0.30338 0.692332 0.229953
0.366079 0.684581 0.233738
0.428382 0.68043 0.240818
0.483543 0.679469 0.247349
0.531884 0.682704 0.239963
0.582589 0.689601 0.223941
0.631525 0.697963 0.214115
0.66392 0.702953 0.23154
0.686137 0.702403 0.273732
0.719371 0.709819 0.300374
0.74905 0.717937 0.324102
0.774014 0.726894 0.347311
0.796353 0.734783 0.368643
0.817105 0.74049 0.392905
0.830442 0.743099 0.411612
0.83032 0.741787 0.410666
0.830106 0.739895 0.408942
0.830457 0.737469 0.406394
0.830671 0.732601 0.401663
0.175769 0.817487 0.519219
0.172107 0.818662 0.515084
0.168185 0.819532 0.510277
0.164279 0.820066 0.504356
0.160052 0.820462 0.497124
0.157015 0.82121 0.487892
0.153231 0.821576 0.475608
0.149813 0.819089 0.456657
0.149035 0.813779 0.4318
0.176211 0.803159 0.411124
0.192645 0.790005 0.379629
0.210727 0.775006 0.343587
0.240452 0.759228 0.313207
0.278019 0.743023 0.28867
0.322408 0.731945 0.276036
0.37467 0.722347 0.275074
0.428244 0.716106 0.278859
0.479179 0.713024 0.284352
0.527535 0.712734 0.289708
0.569665 0.716518 0.281254
0.61767 0.72285 0.27155
0.662242 0.730327 0.26717
0.694682 0.735271 0.284932
0.715312 0.735714 0.32285
0.744564 0.742748 0.34699
0.769589 0.749676 0.368597
0.791791 0.757443 0.389548
0.811231 0.764691 0.409522
0.824674 0.768322 0.423911
0.827619 0.768032 0.428428
0.827832 0.766384 0.425986
0.827848 0.763363 0.423133
0.828672 0.759441 0.419974
0.205798 0.852583 0.558633
0.202914 0.85333 0.554513
0.199573 0.853895 0.550454
0.196384 0.854368 0.545663
0.192035 0.854963 0.539315
0.188159 0.855024 0.530312
0.183841 0.854109 0.518868
0.181109 0.853483 0.505257
0.17821 0.848264 0.484413
0.17818 0.841978 0.458518
0.21561 0.828687 0.434745
0.239826 0.81445 0.40351
0.272404 0.797177 0.373037
0.30518 0.778698 0.343435
0.343771 0.764614 0.324346
0.389197 0.754986 0.319356
0.434592 0.747433 0.31957
0.479637 0.742199 0.323583
0.522469 0.740597 0.327901
0.563806 0.741314 0.331701
0.60589 0.745312 0.327794
0.649195 0.751064 0.322988
0.689082 0.757076 0.322606
0.72314 0.763226 0.338293
0.741299 0.764309 0.371038
0.766079 0.76994 0.392752
0.787869 0.775814 0.413336
0.807126 0.782193 0.43209
0.819486 0.786038 0.44538
0.824002 0.787106 0.45037
0.824201 0.786023 0.448234
0.824094 0.784009 0.445121
0.824567 0.781003 0.440452
0.227298 0.875364 0.585748
0.225605 0.87541 0.582315
0.223377 0.875837 0.578775
0.221759 0.875959 0.574502
0.218952 0.876081 0.569284
0.216617 0.8757 0.562081
0.214267 0.875364 0.552819
0.211856 0.874479 0.540764
0.209751 0.873808 0.526497
0.20853 0.868544 0.504753
0.21442 0.861143 0.477592
0.267536 0.845457 0.456062
0.306874 0.826917 0.427893
0.337667 0.808286 0.398871
0.369818 0.791485 0.374685
0.40766 0.78024 0.36318
0.446952 0.772564 0.360952
0.485313 0.767285 0.363058
0.524712 0.765423 0.368582
0.561791 0.765164 0.374289
0.598413 0.766186 0.376028
0.637522 0.769299 0.374197
0.677821 0.774334 0.373007
0.713619 0.779797 0.374762
0.746593 0.785626 0.389197
0.764721 0.788312 0.416876
0.785504 0.79237 0.438514
0.803723 0.797162 0.456306
0.816938 0.801343 0.471656
0.821271 0.802335 0.476814
0.82121 0.801297 0.47422
0.821408 0.799908 0.471015
0.821775 0.797452 0.466117
0.234607 0.880949 0.59794
0.233661 0.881132 0.593973
0.231861 0.88159 0.591241
0.230243 0.882063 0.587274
0.228931 0.882231 0.582208
0.227268 0.882277 0.575936
0.225895 0.881926 0.567864
0.224582 0.882048 0.557977
0.223468 0.881498 0.544533
0.223728 0.880232 0.527764
0.231388 0.874418 0.504616
0.282246 0.861906 0.488319
0.32874 0.846983 0.468132
0.366827 0.830777 0.446159
0.394553 0.814099 0.420813
0.427298 0.801831 0.406195
0.463493 0.792889 0.401587
0.496498 0.787564 0.401831
0.528618 0.783566 0.405097
0.562554 0.782391 0.411017
0.596674 0.783123 0.41735
0.630655 0.783749 0.417166
0.667536 0.785855 0.415351
0.707057 0.790433 0.416083
0.73785 0.796185 0.419059
0.767269 0.802838 0.434821
0.783749 0.805707 0.46215
0.80206 0.810376 0.481086
0.815335 0.814527 0.498802
0.819654 0.816129 0.506371
0.819806 0.815198 0.504173
0.819562 0.81355 0.500084
0.819348 0.811368 0.494469
0.235203 0.881758 0.602564
0.233799 0.882063 0.599268
0.231754 0.882643 0.596262
0.230488 0.883055 0.592447
0.229664 0.883131 0.587655
0.228321 0.883009 0.581537
0.226871 0.882628 0.572992
0.225376 0.88217 0.562371
0.224323 0.882002 0.549935
0.223255 0.881422 0.533791
0.230289 0.876051 0.51107
0.268574 0.865904 0.491188
0.325139 0.850721 0.474998
0.367056 0.835798 0.456168
0.401404 0.822202 0.43949
