bundles/resolve-cinematic-luts/Phantom Luts/P4k & P6K Phntm Film LUTs - V6/P6k/Gen 4 Colour/P6k Vision Gen4.cube
TITLE "Generated by Resolve"
LUT_3D_SIZE 5
0.0224155 0.0224155 0.0224155
0.16492 0.0321355 0.0188144
0.472587 0.059205 0.0395514
0.778103 0.185458 0.154452
0.781079 0.213703 0.155886
0.0256199 0.212497 0.0836652
0.155612 0.213886 0.0297704
0.495781 0.163012 0.0753033
0.749798 0.269474 0.167269
0.759976 0.309285 0.191257
0.0882277 0.564218 0.345876
0.0944991 0.545785 0.212604
0.516365 0.569924 0.129656
0.773419 0.576333 0.295277
0.796551 0.578592 0.31284
0.271656 0.83621 0.638514
0.296132 0.83241 0.583276
0.493004 0.816083 0.49752
0.768902 0.83534 0.480476
0.845411 0.833921 0.538598
0.264012 0.84419 0.672343
0.290394 0.840711 0.630259
0.473594 0.837888 0.555489
0.709102 0.856825 0.557519
0.850141 0.874693 0.618662
0.0463569 0.0276799 0.197574
0.22388 0.0206455 0.160372
0.535027 0.0517128 0.216541
0.808316 0.158846 0.295171
0.81796 0.176822 0.236866
0.0192569 0.185199 0.169238
0.203906 0.22182 0.198962
0.592355 0.14107 0.125551
0.797833 0.23267 0.204974
0.78854 0.275669 0.205371
0.0500801 0.540459 0.401892
0.0798047 0.539879 0.324346
0.504173 0.559228 0.148302
0.772366 0.558892 0.310216
0.793454 0.56112 0.321569
0.235721 0.833417 0.675715
0.260517 0.826154 0.622217
0.446738 0.809812 0.485451
0.759686 0.826383 0.456489
0.845808 0.823682 0.52517
0.239414 0.847913 0.709194
0.267964 0.843793 0.67013
0.432059 0.837812 0.562554
0.692287 0.854948 0.569467
0.850065 0.875471 0.621622
0.184405 0.0391699 0.462089
0.3178 0.0422065 0.425422
0.567193 0.0581979 0.466163
0.790845 0.141039 0.572961
0.804639 0.170596 0.533425
0.0433967 0.106554 0.468528
0.197925 0.0383612 0.448325
0.544915 0.0610513 0.446006
0.798215 0.163958 0.537316
0.807019 0.193942 0.491051
0.0327916 0.528603 0.536019
0.048249 0.525338 0.529091
0.56791 0.583062 0.55996
0.851453 0.532341 0.514733
0.8309 0.494209 0.440284
0.202243 0.823087 0.758053
0.190066 0.815244 0.731991
0.293294 0.801633 0.605966
0.750225 0.818418 0.507393
0.853071 0.80206 0.536095
0.239292 0.856474 0.791074
0.221378 0.854948 0.772412
0.2804 0.844022 0.668467
0.649012 0.849546 0.60354
0.852064 0.880262 0.633371
0.371847 0.0762951 0.669612
0.462104 0.0831159 0.660624
0.653712 0.121218 0.685573
0.804044 0.169299 0.745525
0.810483 0.193225 0.768368
0.187045 0.0964218 0.679408
0.373938 0.0751202 0.661845
0.622065 0.118944 0.672862
0.80325 0.158663 0.731228
0.807492 0.185702 0.747677
0.0881666 0.503731 0.771603
0.109606 0.482689 0.781033
0.626169 0.444755 0.817166
0.850294 0.464347 0.790219
0.844312 0.422965 0.762264
0.288548 0.814298 0.825666
0.283787 0.805524 0.815717
0.371344 0.799512 0.804639
0.807157 0.828855 0.81323
0.885176 0.801282 0.784894
0.443442 0.873945 0.857176
0.426246 0.872679 0.849897
0.380835 0.868193 0.828855
0.686824 0.892119 0.803464
0.878523 0.924392 0.79472
0.458595 0.091783 0.719661
0.525963 0.0957961 0.715541
0.696651 0.146883 0.741848
0.811185 0.184848 0.778836
0.814755 0.213489 0.784619
0.346731 0.0817426 0.723217
0.461051 0.0918746 0.719524
0.666575 0.13608 0.735378
0.812329 0.191653 0.780652
0.816052 0.22118 0.786664
0.252384 0.471458 0.864073
0.249424 0.43827 0.860929
0.643732 0.362112 0.830549
0.839506 0.393652 0.821927
0.837674 0.357382 0.81593
0.366583 0.80763 0.896345
0.351659 0.794629 0.895384
0.433387 0.776638 0.897978
0.825727 0.779095 0.911849
0.896071 0.768948 0.897368
0.510231 0.886809 0.898116
0.512581 0.886992 0.898283
0.520546 0.888045 0.89839
0.721645 0.915068 0.908751
0.921828 0.955444 0.939498
