bundles/resolve-cinematic-luts/Phantom Luts/P4k & P6K Phntm Film LUTs - V6/P6k/Gen 4 Colour/P6k Eastman Gen4-Legacy.cube
TITLE "Generated by Resolve"
LUT_3D_SIZE 9
0.0462501 0.0390021 0.0390021
0.0684367 0.0390021 0.0425269
0.138781 0.0390021 0.0463264
0.246601 0.0444495 0.0401617
0.353597 0.0557412 0.0443885
0.443519 0.0794232 0.0484474
0.530663 0.11014 0.0698558
0.632441 0.143633 0.123445
0.632456 0.15169 0.135134
0.0542916 0.0639811 0.0567941
0.0673838 0.0639658 0.052842
0.127825 0.058793 0.0534676
0.224201 0.0563668 0.0413062
0.329259 0.0618753 0.0405585
0.420279 0.080293 0.0445716
0.502907 0.109483 0.0525521
0.592859 0.145556 0.0901198
0.588281 0.159503 0.101717
0.0628977 0.130251 0.0763104
0.0654917 0.128313 0.0593271
0.139742 0.138262 0.0660258
0.267582 0.119585 0.0657054
0.383398 0.123644 0.0657969
0.489998 0.156268 0.0811475
0.590448 0.194263 0.106828
0.688045 0.235386 0.141924
0.676265 0.241886 0.143053
0.0847181 0.274159 0.123247
0.078645 0.273869 0.0943923
0.109133 0.291142 0.0918593
0.3122 0.328252 0.0987716
0.46453 0.331609 0.0970932
0.59382 0.336156 0.134249
0.68954 0.348898 0.161593
0.76907 0.369558 0.190524
0.771649 0.378012 0.198108
0.12163 0.476188 0.237736
0.11458 0.469963 0.192294
0.114305 0.458976 0.135805
0.248463 0.493965 0.141909
0.474189 0.50631 0.125643
0.597162 0.51133 0.141726
0.707301 0.520058 0.191791
0.796201 0.518608 0.24828
0.813931 0.521309 0.262715
0.173816 0.653391 0.385412
0.163226 0.640681 0.346792
0.158419 0.617716 0.247486
0.231952 0.627939 0.202609
0.44036 0.647913 0.18616
0.594934 0.649012 0.182055
0.693538 0.649775 0.238575
0.785336 0.651682 0.296895
0.832792 0.646311 0.330144
0.238819 0.790066 0.496986
0.228199 0.775357 0.463401
0.216983 0.749569 0.389441
0.282277 0.739406 0.304433
0.441001 0.751125 0.296376
0.577142 0.757626 0.280171
0.690791 0.755718 0.292638
0.772839 0.751431 0.356222
0.817746 0.750896 0.391073
0.276722 0.849653 0.551766
0.271504 0.839399 0.527214
0.264744 0.821393 0.471901
0.334798 0.811444 0.410285
0.448631 0.812543 0.389441
0.553979 0.814343 0.396002
0.671733 0.81442 0.38349
0.770687 0.814878 0.407202
0.819974 0.816052 0.456413
0.281666 0.852018 0.574929
0.275471 0.843549 0.548714
0.265782 0.825986 0.493553
0.324071 0.815351 0.426246
0.433936 0.814282 0.400122
0.54078 0.815213 0.407065
0.655283 0.816236 0.397467
0.759182 0.816678 0.411383
0.815915 0.81857 0.467399
0.0443275 0.0390021 0.0527199
0.0699016 0.0390021 0.0580453
0.14107 0.0390021 0.0703746
0.253376 0.0390021 0.0552682
0.35259 0.0398413 0.0473793
0.435142 0.0611276 0.0520485
0.520882 0.087602 0.0817426
0.619913 0.114122 0.138582
0.615274 0.116075 0.147829
0.0514687 0.0567788 0.0593423
0.0658885 0.0561685 0.0623026
0.139132 0.0514076 0.0603494
0.244678 0.0510872 0.0436713
0.340536 0.0608682 0.0435187
0.427909 0.0851759 0.047715
0.516823 0.117937 0.0719005
0.610971 0.149645 0.122698
0.615915 0.158022 0.136355
0.0638285 0.123461 0.0908217
0.0597391 0.124788 0.0771496
0.134859 0.135622 0.0705882
0.275761 0.109255 0.0691997
0.379431 0.115938 0.0625772
0.481956 0.144808 0.0753948
0.583246 0.181918 0.108644
0.670024 0.218799 0.150835
0.657313 0.223178 0.151797
0.0825971 0.263447 0.143908
0.0777142 0.267308 0.122728
0.0936141 0.282872 0.0924849
0.308659 0.323659 0.102678
0.473716 0.321004 0.109178
0.597833 0.318929 0.144427
0.694286 0.334676 0.165255
0.774411 0.355428 0.194873
0.772061 0.362829 0.200595
0.127962 0.478126 0.275105
0.117876 0.470665 0.239231
0.113207 0.458183 0.154101
0.22501 0.491035 0.148425
0.471229 0.502358 0.129366
0.601038 0.504417 0.145861
0.716182 0.508873 0.205035
0.800549 0.506218 0.256992
0.813855 0.5075 0.26949
0.179126 0.655879 0.411505
0.170489 0.645182 0.385061
0.155673 0.621042 0.29015
0.210269 0.622492 0.210666
0.426963 0.644068 0.194736
0.590463 0.643473 0.18468
0.693248 0.642527 0.237232
0.788128 0.642557 0.303838
0.82739 0.63859 0.334432
0.241962 0.790448 0.518608
0.233097 0.778958 0.491356
0.215778 0.754452 0.421042
0.249363 0.731899 0.311818
0.421836 0.747036 0.294179
0.565286 0.753124 0.274678
0.685466 0.749874 0.283604
0.771328 0.744671 0.35111
0.818723 0.743114 0.388739
0.283589 0.855604 0.582956
0.276936 0.84863 0.552941
0.266941 0.83125 0.501564
0.306844 0.812406 0.425025
0.428992 0.811261 0.388693
0.540749 0.813626 0.393881
0.659556 0.814267 0.38175
0.766415 0.814374 0.400473
0.814008 0.815534 0.461372
0.287694 0.859068 0.595224
0.281147 0.852537 0.568795
0.27129 0.836927 0.522332
0.298009 0.819089 0.445304
0.414343 0.81474 0.403769
0.528023 0.814954 0.408896
0.641489 0.817197 0.402808
0.750668 0.816739 0.408255
0.812573 0.819562 0.47158
0.0464637 0.0394446 0.0916304
0.0846876 0.0395972 0.0974746
0.148028 0.0415198 0.102708
0.258808 0.0390021 0.107622
0.361517 0.0390021 0.10161
0.442924 0.0390021 0.11873
0.528618 0.0619364 0.152789
0.625681 0.108293 0.213794
0.622461 0.118395 0.230564
0.0441291 0.0533303 0.0829786
0.0554055 0.0455177 0.101442
0.139223 0.0463722 0.102953
0.256107 0.0390021 0.0875105
0.360418 0.0390021 0.0708782
0.440421 0.0390021 0.0734875
0.530739 0.0660258 0.116472
0.623774 0.110613 0.18172
0.623987 0.121828 0.199542
0.0603037 0.121202 0.104692
0.0606088 0.120882 0.106233
0.145785 0.138979 0.138827
0.302235 0.111971 0.120134
0.417105 0.109606 0.0967422
0.514366 0.126986 0.103548
0.614755 0.154376 0.144198
0.686824 0.177279 0.179507
0.67335 0.177905 0.179431
0.0872511 0.265156 0.176501
0.0874342 0.266178 0.17023
0.0970932 0.285985 0.148821
0.321675 0.336202 0.154055
0.501457 0.303471 0.158358
0.60734 0.292485 0.161715
0.709834 0.312261 0.186633
0.783612 0.334066 0.221576
0.772671 0.338399 0.224903
0.134783 0.481636 0.317235
0.129992 0.476692 0.303517
0.116793 0.46154 0.236164
0.181521 0.487541 0.163806
0.467933 0.497734 0.140383
0.612192 0.494072 0.164965
0.730068 0.488045 0.231952
0.8094 0.481575 0.276417
0.814115 0.481895 0.284184
0.183597 0.656626 0.444068
0.179477 0.64921 0.42916
0.166644 0.633143 0.377615
0.173358 0.610224 0.230442
0.399481 0.638148 0.214405
0.584894 0.635493 0.191333
0.695491 0.631479 0.238636
0.797436 0.626596 0.316869
0.828595 0.62269 0.337453
0.24448 0.789578 0.545327
0.2383 0.779873 0.527276
0.225559 0.763622 0.480217
0.209689 0.722911 0.344121
0.383703 0.74136 0.293584
0.545434 0.747555 0.270237
0.677729 0.741222 0.270527
0.770108 0.73434 0.345312
0.822019 0.73106 0.388342
0.291203 0.864881 0.612894
0.286549 0.857923 0.595773
0.274006 0.844739 0.546441
0.265324 0.814389 0.456336
0.392889 0.808927 0.391165
0.519448 0.81239 0.390906
0.640604 0.814069 0.379767
0.758556 0.810742 0.390097
0.81416 0.810529 0.4551
0.295811 0.86862 0.624567
0.291463 0.863035 0.607706
0.281102 0.852811 0.565484
0.269398 0.825727 0.482582
0.381689 0.814527 0.413672
0.506264 0.815366 0.411383
0.617899 0.818051 0.410117
0.737819 0.816373 0.402365
0.810086 0.819501 0.469017
0.0492561 0.0475013 0.1738
0.0894942 0.0459754 0.184314
0.162936 0.0390936 0.186618
0.261158 0.0390021 0.183246
0.360479 0.0390021 0.201312
0.447105 0.0452888 0.214939
0.537896 0.0729839 0.246296
0.625223 0.112413 0.299504
0.620584 0.122469 0.312917
0.0390021 0.0541085 0.152697
0.0530709 0.0476539 0.183474
0.142794 0.0420539 0.195361
0.257877 0.0390021 0.18294
0.359792 0.0390021 0.193362
0.449317 0.0484016 0.203662
0.539025 0.0746166 0.239277
0.627146 0.115434 0.289021
0.625864 0.125811 0.303029
0.0440375 0.110323 0.162768
0.0401465 0.103761 0.174075
0.114473 0.101305 0.24181
0.284352 0.0863355 0.224613
0.400458 0.0730602 0.211948
0.495476 0.0769513 0.216831
0.590097 0.102724 0.247089
0.664958 0.133623 0.280415
0.651423 0.135683 0.281804
0.0771496 0.265248 0.214954
0.0776989 0.268055 0.218936
0.110613 0.297353 0.25124
0.347265 0.351461 0.343297
0.515068 0.311757 0.325872
0.635584 0.269856 0.298695
0.740993 0.260609 0.280171
0.783871 0.268589 0.286595
0.77026 0.266361 0.28249
0.137377 0.489632 0.361898
0.139559 0.488975 0.362371
0.147295 0.486412 0.349737
0.235126 0.513329 0.355062
0.487694 0.521965 0.328634
0.643778 0.493278 0.327031
0.747524 0.457557 0.312444
0.821561 0.438849 0.320409
0.815854 0.435935 0.319142
0.188159 0.659556 0.480415
0.187259 0.654536 0.475471
0.18558 0.646479 0.455329
0.178241 0.632898 0.388037
0.375296 0.641947 0.324956
0.583871 0.636316 0.291417
0.712749 0.621118 0.298436
0.81651 0.605692 0.347463
0.831159 0.598672 0.355001
0.246464 0.789059 0.577523
0.242542 0.780652 0.567819
0.236942 0.770031 0.542412
0.219959 0.747585 0.470771
0.323674 0.740627 0.349203
0.512108 0.744366 0.318349
0.669749 0.733532 0.287373
0.776516 0.722072 0.350759
0.82678 0.716106 0.397436
0.298344 0.872908 0.64976
0.294972 0.866087 0.637476
0.288228 0.855726 0.610513
0.268482 0.832929 0.54049
0.323934 0.809491 0.422004
0.481178 0.810391 0.393164
0.613123 0.812558 0.380575
0.751171 0.806104 0.377523
0.815259 0.803754 0.448493
0.30457 0.879911 0.661463
0.302586 0.876219 0.650095
0.297871 0.869596 0.626642
0.28275 0.853346 0.56643
0.314534 0.821973 0.454459
0.464546 0.816587 0.418601
0.584054 0.818845 0.421759
0.720317 0.817029 0.401282
0.80827 0.819272 0.465812
0.0564431 0.0532235 0.268574
0.103029 0.0483864 0.281071
0.192889 0.0390021 0.281071
0.276524 0.0390021 0.272663
0.366155 0.0390021 0.275639
0.457267 0.048249 0.293446
0.541054 0.0740978 0.324544
0.622293 0.113146 0.365637
0.616129 0.119936 0.37734
0.0390021 0.0578164 0.24947
0.059968 0.0534066 0.278645
0.164828 0.0403143 0.291325
0.271366 0.0390021 0.278676
0.366964 0.039765 0.277302
0.457435 0.0495613 0.294072
0.544533 0.077821 0.322194
0.625727 0.117723 0.363317
0.621866 0.125429 0.375677
0.0390021 0.0930953 0.240299
0.0390021 0.0840467 0.250889
0.0927901 0.0645914 0.312306
0.268177 0.0485847 0.301671
0.371527 0.0480354 0.284581
0.466636 0.0567941 0.294682
0.558572 0.0838636 0.316365
0.64184 0.123507 0.357855
0.638285 0.131762 0.366888
0.0565805 0.244007 0.282795
0.0528573 0.237232 0.287022
0.0771954 0.25275 0.328588
0.319966 0.278202 0.449393
0.500755 0.272725 0.438788
0.618616 0.240574 0.430945
0.724407 0.226154 0.42858
0.760922 0.226215 0.430411
0.750362 0.228946 0.428183
0.128283 0.491035 0.403616
0.130465 0.491264 0.407904
0.138933 0.492393 0.411337
0.275868 0.525612 0.464958
0.514199 0.531365 0.513985
0.653178 0.492271 0.491661
0.755749 0.443229 0.454444
0.820554 0.412757 0.429999
0.813367 0.407919 0.425818
0.198596 0.665797 0.521263
0.202304 0.662501 0.521813
0.209857 0.658732 0.516457
0.243702 0.662013 0.512306
0.433158 0.6542 0.520348
0.610773 0.656229 0.493217
0.740154 0.629389 0.482353
0.82208 0.59234 0.447242
0.837629 0.575219 0.433051
0.26424 0.794827 0.616831
0.264012 0.787915 0.611261
0.263798 0.77937 0.596994
0.261158 0.766461 0.568933
0.366598 0.755444 0.530831
0.520668 0.749294 0.484642
0.681254 0.742657 0.459266
0.798459 0.718563 0.453529
0.836271 0.709087 0.456168
0.311269 0.879454 0.684749
0.306203 0.871138 0.674876
0.299168 0.861204 0.656168
0.287404 0.845533 0.620127
0.314183 0.840543 0.564401
0.458015 0.812131 0.472251
0.59826 0.817731 0.464042
0.751949 0.808118 0.428779
0.821515 0.802106 0.479088
0.335393 0.899535 0.707866
0.324331 0.893904 0.697704
0.314412 0.887205 0.679988
0.307088 0.877638 0.648081
0.300282 0.861448 0.58204
0.41825 0.823972 0.47805
0.55903 0.825116 0.469368
0.706569 0.82208 0.43444
0.812253 0.823682 0.488411
0.0794232 0.055848 0.346334
0.137514 0.0475013 0.357275
0.223117 0.0390021 0.357733
0.30399 0.0390021 0.347631
0.377691 0.0408026 0.345846
0.464164 0.057969 0.359899
0.558068 0.0816052 0.385855
0.610239 0.103899 0.425742
0.608194 0.111574 0.437125
0.0390021 0.0601663 0.331106
0.0854658 0.0550851 0.354421
0.196078 0.0412451 0.366552
0.297566 0.0390021 0.353796
0.377768 0.0420691 0.350973
0.466865 0.0607004 0.362951
0.560052 0.0834821 0.387289
0.613138 0.106081 0.426383
0.611139 0.114626 0.437217
0.0390021 0.0773327 0.304219
0.0390021 0.0676738 0.314839
0.111925 0.0530404 0.371023
0.275319 0.0390021 0.36643
0.376272 0.0455787 0.360235
0.468803 0.0634318 0.365988
0.562661 0.085832 0.387442
0.627085 0.111833 0.426886
0.623102 0.117998 0.43476
0.0445869 0.222705 0.342184
0.0420233 0.212482 0.345892
0.0537728 0.20676 0.376455
0.300404 0.194751 0.505623
0.488655 0.201358 0.506111
0.601495 0.20119 0.498726
0.700618 0.19733 0.505821
0.733928 0.197559 0.509041
0.725475 0.200443 0.505119
0.11075 0.483452 0.464439
0.109087 0.478035 0.467384
0.120119 0.475105 0.48101
0.249088 0.501045 0.550896
0.504417 0.486336 0.624323
0.657099 0.46894 0.597299
0.753628 0.425895 0.572976
0.815259 0.392981 0.55613
0.809537 0.386816 0.551507
0.192065 0.664988 0.556619
0.194995 0.661906 0.55848
0.201648 0.659175 0.558053
0.23624 0.666514 0.570535
0.470253 0.664378 0.610513
0.634775 0.659297 0.636149
0.751537 0.622415 0.613291
0.826795 0.569146 0.5682
0.835813 0.549584 0.55314
0.274601 0.79765 0.647471
0.27631 0.790814 0.644404
0.281971 0.783948 0.637552
0.29604 0.77351 0.625269
0.451713 0.773602 0.645365
0.569162 0.75465 0.637354
0.710826 0.757382 0.614359
0.820432 0.730175 0.596277
0.85481 0.706004 0.570794
0.34667 0.885191 0.721736
0.343633 0.877668 0.713939
0.340795 0.869322 0.699809
0.33756 0.856977 0.676585
0.401358 0.859434 0.670604
0.502586 0.828809 0.634318
0.625422 0.829267 0.602487
0.772976 0.825925 0.581643
0.844862 0.809964 0.580377
0.3935 0.918807 0.754269
0.384146 0.915648 0.746548
0.370031 0.910719 0.734127
0.35172 0.902647 0.712428
0.366018 0.896803 0.684871
0.466743 0.87216 0.648234
0.575647 0.850523 0.600076
0.717189 0.856428 0.596735
0.828229 0.843656 0.571038
0.122698 0.055314 0.408606
0.176684 0.0488441 0.415839
0.250202 0.0424201 0.416464
0.329656 0.0416724 0.408988
0.398718 0.0479133 0.406851
0.474769 0.067216 0.419074
0.563134 0.0959182 0.444434
0.613108 0.118746 0.473884
0.615976 0.124193 0.489677
0.0645609 0.0625772 0.39556
0.128389 0.054902 0.415198
0.227237 0.0446632 0.423941
0.321874 0.0419928 0.414878
0.397253 0.0482948 0.410986
0.478569 0.0698711 0.424079
0.56669 0.0978714 0.447242
0.617304 0.12137 0.476417
0.61976 0.126864 0.490623
0.0390021 0.0767529 0.358282
0.0390021 0.0674144 0.376745
0.158267 0.0530251 0.428504
0.297749 0.0430152 0.425711
0.391241 0.0496529 0.417792
0.479545 0.0729229 0.430503
0.568994 0.100603 0.449836
0.624155 0.124407 0.476661
0.626383 0.130953 0.486625
0.0390021 0.198795 0.388205
0.0390021 0.186023 0.390814
0.0467079 0.169924 0.418631
0.288914 0.139971 0.532113
0.470176 0.150164 0.53962
0.577325 0.168139 0.544884
0.669001 0.181979 0.544701
0.699367 0.183551 0.540047
0.695857 0.184756 0.537423
0.109102 0.473548 0.520058
0.10753 0.466499 0.521401
0.112917 0.457313 0.531319
0.22269 0.47451 0.61088
0.500572 0.443229 0.708324
0.665034 0.42977 0.683375
0.761669 0.411078 0.654002
0.81384 0.386114 0.645731
0.807721 0.378622 0.639139
0.167117 0.654414 0.595224
0.167544 0.649531 0.596918
0.181689 0.649165 0.608072
0.241596 0.655711 0.644068
0.452461 0.650187 0.69099
0.631067 0.627649 0.732525
0.75671 0.608026 0.703822
0.829099 0.556161 0.670863
0.834455 0.538491 0.657191
0.271778 0.795285 0.678843
0.272404 0.788388 0.675639
0.276905 0.782055 0.671443
0.289113 0.774243 0.666972
0.450248 0.781521 0.700298
0.60296 0.763531 0.714778
0.732372 0.760174 0.733333
0.832242 0.723354 0.707469
0.861265 0.692927 0.682704
0.359319 0.885725 0.744076
0.356909 0.878325 0.738445
0.357305 0.870832 0.729229
0.36231 0.861402 0.716625
0.441199 0.867979 0.728954
0.580331 0.853513 0.741436
0.668391 0.839445 0.735393
0.800168 0.843976 0.714183
0.875364 0.828016 0.702113
0.436255 0.933013 0.79263
0.430518 0.930343 0.787335
0.422782 0.927535 0.778683
0.405554 0.92079 0.76109
0.425391 0.919982 0.751842
0.545373 0.918669 0.765789
0.625834 0.889754 0.747097
0.74641 0.886778 0.727291
0.855482 0.880491 0.701091
0.172763 0.0569314 0.464271
0.214343 0.0529641 0.46775
0.277028 0.0501869 0.469993
0.351141 0.051545 0.466102
0.421271 0.060441 0.464698
0.493416 0.0787823 0.477287
0.585946 0.11722 0.512856
0.62591 0.136339 0.539818
0.63946 0.147585 0.563897
0.124117 0.062501 0.45684
0.177508 0.0574197 0.468696
0.256046 0.0514687 0.474327
0.341573 0.0515602 0.470161
0.418769 0.0606088 0.467628
0.496544 0.0822156 0.482795
0.589563 0.119631 0.517327
0.628092 0.138064 0.541604
0.640238 0.148379 0.562295
0.0390021 0.0749523 0.409598
0.0738079 0.0679332 0.442023
0.198642 0.0566262 0.476555
0.317678 0.0518044 0.477287
0.409766 0.0601968 0.472435
0.49807 0.0865644 0.491646
0.591546 0.122637 0.521798
0.629694 0.13872 0.538537
0.639796 0.147387 0.554864
0.0390021 0.169436 0.427375
0.0390021 0.155489 0.428733
0.0470893 0.132372 0.450752
0.27776 0.103182 0.537255
0.43946 0.114626 0.548898
0.550942 0.142138 0.564446
0.637385 0.164584 0.574548
0.667536 0.167819 0.568978
0.667536 0.168292 0.568856
0.111131 0.464012 0.570977
0.108965 0.454673 0.571145
0.108949 0.439796 0.576699
0.230381 0.447395 0.67631
0.514275 0.403754 0.778714
0.680858 0.389364 0.756176
0.770489 0.390906 0.732479
0.814176 0.378515 0.71548
0.809781 0.369741 0.708354
0.180301 0.653284 0.657526
0.178286 0.64567 0.656611
0.1841 0.637995 0.662425
0.258579 0.637507 0.705867
0.42446 0.628504 0.756024
0.634409 0.593408 0.812787
0.769131 0.574166 0.78117
0.837324 0.548302 0.74583
0.839933 0.533455 0.732525
0.251438 0.786191 0.713207
0.252872 0.779812 0.712398
0.263859 0.773678 0.716518
0.297154 0.765377 0.729839
0.445823 0.768856 0.775235
0.584329 0.749386 0.787274
0.735866 0.729198 0.819562
0.837156 0.709117 0.790539
0.863996 0.680812 0.771511
0.361517 0.882811 0.769802
0.358175 0.875685 0.764843
0.357641 0.869032 0.758999
0.360616 0.860639 0.752148
0.439048 0.871595 0.774105
0.586801 0.862455 0.79266
0.70428 0.850629 0.8047
0.821393 0.849104 0.820127
0.890974 0.827787 0.8065
0.458656 0.941375 0.818555
0.451575 0.938308 0.813596
0.441337 0.933272 0.805219
0.432197 0.926192 0.794308
0.46276 0.930373 0.799039
0.58706 0.931319 0.820371
0.690181 0.917998 0.830549
0.777844 0.90605 0.830533
0.876112 0.90898 0.812284
0.222904 0.0624857 0.507103
0.253056 0.0601968 0.508553
0.306279 0.0599069 0.511284
0.373297 0.0639506 0.511742
0.445548 0.0752422 0.513832
0.518135 0.0940414 0.523445
0.609644 0.134371 0.561791
0.651484 0.160098 0.591409
0.656962 0.16408 0.596582
0.189593 0.0655528 0.505104
0.226535 0.0628214 0.509438
0.288334 0.0603494 0.513268
0.364111 0.0636606 0.513634
0.442252 0.0750896 0.514916
0.517784 0.094728 0.525414
0.61355 0.138003 0.567132
0.654597 0.162142 0.594446
0.659831 0.166644 0.599496
0.08748 0.0735637 0.474113
0.151843 0.0681621 0.496849
0.241199 0.0623026 0.512871
0.341741 0.0624704 0.516304
0.431022 0.0736858 0.516777
0.517952 0.0986038 0.532891
0.615579 0.141741 0.573388
0.65893 0.165881 0.59852
0.664836 0.170474 0.604181
0.0416876 0.140368 0.458656
0.0410468 0.12639 0.457893
0.0656748 0.0975204 0.475578
0.272663 0.0714427 0.527504
0.407385 0.0826886 0.534936
0.526329 0.119951 0.563149
0.628031 0.160082 0.59826
0.671229 0.175158 0.608225
0.670924 0.175006 0.608545
0.118761 0.453437 0.614908
0.116823 0.442405 0.614435
0.115923 0.422782 0.615885
0.268956 0.411109 0.721416
0.540261 0.369146 0.801602
0.693217 0.359457 0.780407
0.77966 0.367163 0.759655
0.81236 0.364645 0.748089
0.80911 0.355703 0.744884
0.208804 0.651835 0.707988
0.206607 0.643107 0.707927
0.20705 0.631312 0.711315
0.275319 0.619455 0.749828
0.434302 0.604761 0.806714
0.661128 0.560876 0.856825
0.786526 0.540566 0.823957
0.846937 0.530022 0.798093
0.849638 0.519097 0.796231
0.292134 0.786999 0.766537
0.286244 0.77702 0.763241
0.294804 0.766522 0.766537
0.332265 0.751873 0.78172
0.446296 0.750896 0.822889
0.569223 0.727047 0.83505
0.753246 0.695552 0.871946
0.848051 0.678721 0.839979
0.868727 0.669261 0.827115
0.373465 0.882948 0.79826
0.36434 0.87483 0.793027
0.361624 0.866758 0.790295
0.372244 0.856901 0.793317
0.452369 0.864256 0.828824
0.587655 0.853788 0.846906
0.697948 0.841276 0.856855
0.832959 0.827207 0.88217
0.89279 0.82005 0.867903
0.459495 0.941894 0.839673
0.447456 0.937545 0.833112
0.439689 0.932372 0.827176
0.434745 0.925811 0.820615
0.468971 0.932586 0.831815
0.591501 0.935409 0.854704
0.700221 0.923232 0.864408
0.807004 0.913314 0.875502
0.890837 0.913649 0.883207
