bundles/resolve-cinematic-luts/Phantom Luts/P4k & P6K Phntm Film LUTs - V6/P6k/Gen 4 Colour/P6k Bleach Gen4-Legacy.cube
TITLE "Generated by Resolve"
LUT_3D_SIZE 33
0.031754 0.0446632 0.0332494
0.031754 0.0446632 0.0332494
0.031754 0.0446632 0.0332494
0.0331579 0.0447852 0.033463
0.0367895 0.0450752 0.0340429
0.0430915 0.0464485 0.0355688
0.0542611 0.0475013 0.0359808
0.0661631 0.0485847 0.0377508
0.0796674 0.0492714 0.0391241
0.0941024 0.0502327 0.0414282
0.11046 0.0510872 0.0432136
0.13051 0.0524453 0.045182
0.153796 0.0537118 0.0469673
0.178897 0.0554208 0.0482032
0.207279 0.0576944 0.0500496
0.237919 0.0598611 0.0528573
0.269291 0.0617227 0.054963
0.301152 0.0635386 0.0582589
0.335027 0.0654154 0.0620584
0.371954 0.066743 0.0650034
0.415686 0.0673686 0.0674601
0.460029 0.0676738 0.06981
0.500008 0.0691081 0.0728008
0.536217 0.0715953 0.0769055
0.564065 0.0755932 0.0820478
0.585519 0.0807202 0.0884718
0.61326 0.0856947 0.0945144
0.639719 0.0907607 0.100923
0.665736 0.096437 0.107988
0.692866 0.103212 0.115984
0.720272 0.110796 0.124773
0.747051 0.119524 0.133928
0.77232 0.128908 0.143755
0.031754 0.0446632 0.0332494
0.031754 0.0446632 0.0332494
0.031754 0.0446632 0.0332494
0.0330053 0.0447547 0.0334173
0.0375982 0.0452888 0.0342565
0.0451514 0.0470588 0.0356451
0.0580453 0.0480354 0.0365148
0.0716259 0.0489509 0.0382849
0.0874495 0.0500954 0.0404364
0.104921 0.0510567 0.0425727
0.12549 0.0521859 0.0445258
0.148882 0.0535134 0.0466621
0.175067 0.0553445 0.0480354
0.203922 0.0574655 0.0498512
0.234531 0.0593881 0.0520943
0.266026 0.061387 0.0543984
0.298405 0.0632792 0.0576638
0.333043 0.0650187 0.0612345
0.370947 0.0663157 0.06421
0.414206 0.0669413 0.0664073
0.45864 0.0674144 0.0688334
0.498329 0.0686046 0.0716259
0.534768 0.0709239 0.0755169
0.561944 0.0749218 0.0803998
0.582925 0.0797589 0.0867628
0.610224 0.0845655 0.0922255
0.636637 0.0894942 0.0988327
0.661524 0.0948501 0.104875
0.687968 0.100908 0.112383
0.713176 0.107698 0.119753
0.738628 0.115892 0.128481
0.763073 0.124117 0.137453
0.785443 0.132876 0.146319
0.031754 0.0446632 0.0332494
0.031754 0.0446632 0.0332494
0.031754 0.0446632 0.0332494
0.0320592 0.0446937 0.0332799
0.0373083 0.0456245 0.0343023
0.045716 0.0479286 0.0360418
0.0594492 0.0492866 0.0369116
0.0745708 0.0501717 0.0384833
0.0910811 0.0512551 0.0404364
0.110491 0.0518807 0.0423285
0.132982 0.0531014 0.0447395
0.157961 0.0542916 0.0465248
0.185595 0.0555428 0.0474861
0.214679 0.0574197 0.0489967
0.245579 0.0593576 0.0513466
0.277974 0.0610361 0.0537118
0.311788 0.0628519 0.0563668
0.34818 0.0643168 0.0594034
0.387945 0.0652628 0.0622568
0.431464 0.0657664 0.0641184
0.474296 0.0663157 0.0661936
0.513115 0.0680552 0.0695506
0.546593 0.0706798 0.0742962
0.56788 0.0756695 0.07953
0.592645 0.0798657 0.0855573
0.617761 0.0841535 0.0906233
0.643549 0.0892195 0.0970626
0.667964 0.0943465 0.102968
0.69276 0.0999771 0.109529
0.716503 0.106401 0.116518
0.739879 0.113573 0.124056
0.761959 0.120943 0.131502
0.783932 0.129274 0.139483
0.0319219 0.045655 0.0335699
0.0319219 0.045594 0.0335241
0.0318914 0.045304 0.0333715
0.0320134 0.0449836 0.033341
0.035584 0.0465248 0.0340276
0.0431525 0.049134 0.0363012
0.0541695 0.0513924 0.0365454
0.0713359 0.0525063 0.0382239
0.0896925 0.0535286 0.0396887
0.109133 0.0536202 0.0413367
0.13283 0.0540017 0.0433356
0.157198 0.0542458 0.0448005
0.183551 0.0552224 0.0463111
0.212802 0.0567788 0.0475624
0.243702 0.0583505 0.0488136
0.276066 0.0598306 0.0508278
0.308736 0.0610971 0.0529488
0.343496 0.0623789 0.0549783
0.381155 0.0631876 0.0566873
0.425895 0.0634928 0.0586709
0.469841 0.0642863 0.0610208
0.509575 0.0657511 0.064271
0.539818 0.0687877 0.0687419
0.562448 0.0732891 0.0741894
0.588937 0.0774701 0.0793011
0.614939 0.0816052 0.0851759
0.639155 0.0863661 0.0900893
0.664103 0.0912947 0.0965744
0.688121 0.0967727 0.102266
0.71133 0.102663 0.109133
0.734462 0.109422 0.115572
0.755123 0.116106 0.122103
0.775952 0.123461 0.129
0.0334478 0.0523995 0.0366827
0.0343175 0.0546273 0.0379034
0.0347906 0.0559854 0.0375982
0.0368963 0.0561532 0.0365911
0.0426947 0.0568704 0.0377203
0.0489357 0.0590524 0.0396582
0.0588235 0.0614176 0.0396735
0.0768292 0.0616617 0.0391394
0.0937972 0.061799 0.040238
0.112947 0.0614328 0.0411536
0.135286 0.0601968 0.0424201
0.160784 0.0590372 0.0441444
0.187716 0.0586709 0.0455177
0.214694 0.0580606 0.0458228
0.244282 0.059205 0.0472725
0.274174 0.0601511 0.0482948
0.305272 0.0611887 0.049546
0.3393 0.0620279 0.0514076
0.375418 0.0624857 0.0525826
0.417533 0.0624704 0.0539712
0.461143 0.0629892 0.05626
0.500389 0.0638437 0.0585336
0.530175 0.0670634 0.0626993
0.55462 0.0704356 0.0675059
0.581994 0.0745861 0.0720378
0.607675 0.0789197 0.0774395
0.632563 0.0835431 0.0827192
0.656336 0.0883955 0.088014
0.680461 0.0935836 0.0942245
0.702953 0.0996414 0.100069
0.725322 0.105455 0.106157
0.745892 0.112078 0.1122
0.764675 0.118685 0.118013
0.0365606 0.0670176 0.0433661
0.03682 0.0700084 0.0439155
0.0377508 0.0714275 0.0423743
0.040238 0.0716106 0.0400854
0.0464485 0.0714122 0.0406958
0.0572976 0.0734417 0.0425879
0.0669566 0.0762493 0.0428321
0.0816052 0.0780194 0.0408331
0.102953 0.0772106 0.0406958
0.123415 0.0747387 0.042237
0.145617 0.0723125 0.0436866
0.170199 0.0709544 0.0449073
0.197024 0.0693828 0.0465553
0.224933 0.0681315 0.0481575
0.253498 0.0673686 0.0497444
0.283192 0.0670176 0.0506294
0.313451 0.0668803 0.0510109
0.345937 0.0669108 0.0514076
0.38117 0.0672618 0.052079
0.421012 0.0662394 0.0513924
0.462638 0.0662852 0.0528878
0.500267 0.0662089 0.0536812
0.529046 0.0688029 0.0579385
0.554955 0.0716411 0.0619974
0.58088 0.0762951 0.0670634
0.607477 0.0810254 0.0725261
0.631891 0.0864729 0.0775311
0.655039 0.0899672 0.0817731
0.678859 0.0961624 0.0873274
0.699565 0.100511 0.0923934
0.720134 0.105623 0.0977035
0.740932 0.112551 0.103944
0.759915 0.120455 0.110552
0.0383154 0.0859388 0.0484169
0.0386664 0.0898604 0.0488594
0.0389868 0.0918746 0.0464332
0.0411841 0.092195 0.042359
0.0473182 0.0921798 0.0418097
0.0578164 0.0934768 0.0432288
0.0758068 0.0951858 0.046479
0.08748 0.097612 0.0442359
0.103853 0.0990463 0.0406043
0.130358 0.0962081 0.0399481
0.158587 0.0906233 0.0436561
0.185138 0.0848859 0.0462043
0.212421 0.0823224 0.0484169
0.239872 0.0807507 0.0507515
0.267796 0.0798962 0.0527657
0.298482 0.079942 0.0546731
0.330007 0.0797742 0.0563363
0.363058 0.0796368 0.0573587
0.400763 0.0789044 0.0573281
0.440574 0.0784161 0.057557
0.479789 0.0786908 0.0580911
0.514473 0.0802014 0.0593271
0.544884 0.082887 0.0619364
0.571542 0.0867933 0.0656901
0.596735 0.0928206 0.0711223
0.622141 0.0987411 0.0764477
0.64625 0.105165 0.0815137
0.670268 0.11165 0.0890516
0.693614 0.118807 0.0955825
0.716609 0.126894 0.102205
0.739071 0.13579 0.109606
0.760586 0.144472 0.117266
0.778836 0.153765 0.124819
0.0387579 0.106142 0.0526894
0.0387579 0.109667 0.0528878
0.0384833 0.112428 0.0501564
0.0399481 0.112917 0.0440528
0.0449073 0.112642 0.0412604
0.0552529 0.114107 0.0423896
0.0722667 0.11577 0.0455024
0.0948653 0.117266 0.0485695
0.108873 0.119219 0.0450599
0.129458 0.120424 0.0404364
0.162585 0.116655 0.0393225
0.19498 0.111818 0.0433814
0.227436 0.102968 0.0487984
0.257465 0.0987869 0.0523842
0.287755 0.0977188 0.0551308
0.319646 0.0975662 0.0579843
0.353216 0.0978714 0.0610056
0.389914 0.098024 0.0629892
0.430426 0.0973678 0.0645609
0.469886 0.0977951 0.0657054
0.505867 0.10042 0.0682841
0.538674 0.103929 0.0719615
0.568994 0.109285 0.0768444
0.596338 0.115373 0.0822461
0.622126 0.122377 0.0879377
0.646769 0.129854 0.0944991
0.670192 0.137728 0.100954
0.694133 0.146181 0.108309
0.71722 0.155383 0.116014
0.74052 0.16553 0.124315
0.762448 0.175784 0.132479
0.784619 0.187259 0.141634
0.803754 0.19884 0.150912
0.0375372 0.127245 0.0578317
0.0373846 0.131563 0.0581064
0.0370336 0.134707 0.0538033
0.0373846 0.1355 0.0462959
0.0410925 0.134981 0.0408942
0.0498817 0.135714 0.0398871
0.0662089 0.138491 0.043183
0.0886397 0.140368 0.0471046
0.116045 0.142397 0.0495155
0.135149 0.145083 0.0454261
0.161166 0.145861 0.0406043
0.198718 0.142275 0.0393835
0.233738 0.139223 0.0431373
0.272267 0.129793 0.050782
0.308812 0.124788 0.0563973
0.34461 0.121065 0.0613718
0.381613 0.121691 0.0640726
0.423651 0.12166 0.0662242
0.464912 0.123278 0.068574
0.501427 0.125322 0.072343
0.53431 0.130144 0.0766613
0.565301 0.136034 0.0827344
0.593973 0.142809 0.0892195
0.620356 0.150546 0.0958267
0.646067 0.159091 0.103563
0.670115 0.167941 0.111147
0.694026 0.178027 0.119829
0.718379 0.189181 0.129137
0.742504 0.200946 0.138933
0.765576 0.212848 0.148638
0.788266 0.225238 0.159579
0.812253 0.239368 0.17203
0.835462 0.254688 0.185748
0.0355688 0.150759 0.063035
0.0354925 0.15613 0.0635996
0.0350652 0.159579 0.0589303
0.0350652 0.160647 0.0495308
0.0370336 0.15964 0.0415351
0.0446632 0.160067 0.0383154
0.0584115 0.163546 0.0396582
0.0792706 0.166522 0.043595
0.106172 0.169619 0.0480964
0.142214 0.173175 0.0508278
0.165713 0.176318 0.0460975
0.197498 0.178225 0.0415198
0.238163 0.176272 0.0402686
0.278477 0.173785 0.0432136
0.323018 0.167132 0.0520485
0.367956 0.160876 0.0601205
0.415656 0.154971 0.0654002
0.458473 0.155764 0.0682078
0.496269 0.156878 0.0729534
0.530465 0.161822 0.0783551
0.560937 0.168063 0.0842145
0.589136 0.176562 0.0910506
0.616266 0.184863 0.0986191
0.642069 0.194812 0.106828
0.66714 0.204685 0.115648
0.693111 0.216938 0.126406
0.71751 0.228748 0.136721
0.741344 0.240955 0.147234
0.766567 0.254536 0.160235
0.791562 0.26862 0.173877
0.816434 0.284932 0.188357
0.842618 0.302617 0.205676
0.867811 0.319997 0.222339
0.0328679 0.177203 0.068986
0.0325322 0.183062 0.0692302
0.0322118 0.186679 0.0638743
0.0323644 0.18761 0.0536049
0.0334478 0.186725 0.0430304
0.0375372 0.185977 0.0363317
0.049424 0.189792 0.0358434
0.0692149 0.194659 0.0392004
0.0945907 0.199268 0.0438392
0.127489 0.203571 0.0495918
0.173571 0.209445 0.0514229
0.203113 0.214099 0.047364
0.239231 0.216663 0.0425116
0.28394 0.216709 0.0412451
0.33051 0.215946 0.0435035
0.383093 0.211688 0.0523537
0.438788 0.206424 0.0604562
0.485924 0.203037 0.0674907
0.52343 0.204303 0.0753338
0.555932 0.209262 0.08365
0.585611 0.216953 0.0918593
0.612589 0.224628 0.100908
0.639063 0.235065 0.110063
0.664836 0.245747 0.120333
0.690517 0.258045 0.131197
0.715694 0.271794 0.143008
0.741466 0.285588 0.15613
0.767514 0.300908 0.170306
0.794644 0.318334 0.186755
0.821149 0.335668 0.204501
0.846693 0.353017 0.221042
0.870268 0.369635 0.236408
0.891218 0.386038 0.250813
0.0297093 0.206027 0.0737316
0.0296788 0.212055 0.0737469
0.0295109 0.215564 0.0687877
0.0301213 0.21677 0.0582437
0.030869 0.2159 0.0459297
0.0332799 0.214389 0.0365759
0.0399786 0.216083 0.0322271
0.0563211 0.222339 0.0339055
0.0819562 0.228977 0.0387579
0.113054 0.235264 0.0441444
0.154116 0.241718 0.0509194
0.211261 0.250721 0.0520333
0.245441 0.256718 0.0488289
0.286488 0.261143 0.0447852
0.334844 0.261997 0.0432288
0.387732 0.26099 0.043946
0.447684 0.258839 0.0509346
0.499565 0.259541 0.0610513
0.541588 0.26157 0.072694
0.576944 0.267109 0.0852216
0.606531 0.274266 0.096437
0.634638 0.284153 0.108522
0.662669 0.296208 0.121431
0.689769 0.308949 0.134737
0.716136 0.322393 0.149859
0.743435 0.338003 0.166171
0.770474 0.353902 0.183886
0.796658 0.370535 0.199893
0.822263 0.388006 0.215244
0.84509 0.403357 0.230182
0.866682 0.419043 0.243442
0.883986 0.432975 0.254246
0.898695 0.445945 0.263615
0.0275883 0.236133 0.0779889
0.0270237 0.242161 0.0776989
0.0273136 0.24622 0.0736095
0.027924 0.247089 0.0635233
0.0285954 0.246998 0.0497292
0.0290379 0.245045 0.0369268
0.0323949 0.244831 0.0298619
0.0445716 0.249989 0.0292668
0.0668498 0.258167 0.0319371
0.0981003 0.265812 0.0379187
0.13637 0.274113 0.0448005
0.187015 0.283574 0.0526436
0.252018 0.295262 0.0529641
0.289494 0.302251 0.0509651
0.333867 0.307698 0.0483711
0.38677 0.309941 0.0446326
0.449241 0.310765 0.0454871
0.505104 0.312963 0.0530709
0.547921 0.320668 0.0644999
0.588388 0.327794 0.0819562
0.625132 0.337972 0.100847
0.65626 0.350835 0.117128
0.68687 0.366674 0.134829
0.714214 0.382239 0.151308
0.741817 0.398245 0.168338
0.76762 0.413367 0.185183
0.791455 0.428138 0.200351
0.812772 0.442496 0.212818
0.833051 0.456641 0.225513
0.852384 0.468086 0.237339
0.869459 0.479271 0.247181
0.884871 0.491447 0.256382
0.896864 0.502037 0.263691
0.0245823 0.267979 0.0823377
0.0240787 0.274311 0.0825971
0.0234989 0.277729 0.0776989
0.0239261 0.278813 0.0673686
0.0248875 0.278737 0.0535744
0.0260471 0.277684 0.0395972
0.0267185 0.27541 0.0297398
0.0334325 0.278202 0.0256657
0.0520485 0.28574 0.0263981
0.0811017 0.295033 0.030518
0.118166 0.303975 0.0373846
0.164981 0.313954 0.0454108
0.224643 0.327001 0.0543679
0.294072 0.341527 0.0550698
0.336263 0.351034 0.0546273
0.386282 0.357748 0.0521859
0.445212 0.362234 0.048661
0.502144 0.367437 0.0510872
0.550454 0.377646 0.0603799
0.593011 0.392004 0.0767834
0.633539 0.406821 0.0992142
0.671199 0.42153 0.123842
0.700557 0.437095 0.141955
0.728252 0.451392 0.161059
0.751293 0.46479 0.175006
0.774273 0.478248 0.189837
0.796719 0.490776 0.203449
0.817136 0.502525 0.215503
0.83595 0.51313 0.226642
0.855055 0.523247 0.238376
0.871275 0.532906 0.249058
0.88632 0.54197 0.259464
0.899092 0.550683 0.268681
0.0207065 0.299779 0.088716
0.019501 0.306004 0.0884108
0.0195315 0.309834 0.0839704
0.0199435 0.310735 0.0732738
0.0208591 0.310445 0.0589456
0.0218662 0.309346 0.0441749
0.0225834 0.307149 0.0306706
0.0239719 0.306691 0.0228122
0.0382544 0.313512 0.0221714
0.0636454 0.321981 0.0243687
0.0985428 0.332006 0.0298009
0.143542 0.34313 0.0381781
0.200763 0.357305 0.047776
0.265339 0.37586 0.0573587
0.338704 0.394446 0.0580911
0.386557 0.406149 0.0588998
0.443793 0.41651 0.0581674
0.499916 0.428519 0.0580911
0.548272 0.441291 0.0641337
0.592371 0.455451 0.0756237
0.631434 0.471382 0.0945907
0.667872 0.484657 0.116396
0.701976 0.496635 0.139452
0.730571 0.508553 0.159609
0.756207 0.519814 0.178561
0.780224 0.530632 0.195377
0.801419 0.540612 0.209476
0.822202 0.54992 0.223011
0.841581 0.559014 0.235935
0.859678 0.567803 0.247776
0.87512 0.575448 0.258061
0.890135 0.583047 0.269505
0.902907 0.590509 0.280034
0.0153964 0.331548 0.0958572
0.0146792 0.337911 0.096025
0.0140078 0.341238 0.0910811
0.0146029 0.341863 0.0794232
0.0156863 0.341863 0.0649271
0.0169223 0.341665 0.0491188
0.0181888 0.340627 0.0352178
0.0200961 0.339025 0.0238651
0.0268711 0.341314 0.0187991
0.0472114 0.349966 0.0192264
0.0789502 0.359976 0.0233158
0.121431 0.372457 0.0302586
0.173663 0.388037 0.0392309
0.237659 0.408118 0.0507515
0.308812 0.432822 0.0609445
0.393744 0.456382 0.0654154
0.450752 0.471061 0.071107
0.5037 0.484611 0.0742504
0.551003 0.49897 0.0775769
0.592615 0.511849 0.0851911
0.630747 0.523674 0.0964828
0.665263 0.535454 0.114961
0.697734 0.546212 0.135317
0.731441 0.556176 0.15935
0.759426 0.564965 0.181659
0.784527 0.573678 0.201923
0.808087 0.582116 0.220295
0.828641 0.59028 0.234974
0.847761 0.597467 0.248447
0.865385 0.605188 0.261036
0.880934 0.61268 0.272541
0.894362 0.61915 0.283421
0.906462 0.62504 0.294804
0.00976577 0.364706 0.10454
0.00880446 0.371084 0.104753
0.00859083 0.374334 0.0999161
0.0091249 0.374914 0.0880446
0.0100862 0.375204 0.0724498
0.0113832 0.375769 0.0556802
0.0128786 0.374929 0.0402991
0.0145266 0.372839 0.0275578
0.0194247 0.374121 0.0185397
0.0343481 0.379675 0.0161135
0.0608072 0.39057 0.0178073
0.0994278 0.403098 0.023331
0.149767 0.420111 0.0322881
0.211353 0.441016 0.0441138
0.287709 0.468803 0.0613565
0.373724 0.498146 0.0766918
0.464424 0.518349 0.0834669
0.514885 0.532448 0.0915847
0.556939 0.544915 0.0969863
0.59585 0.556588 0.0999161
0.631846 0.56733 0.107515
0.665324 0.577722 0.120302
0.697292 0.58706 0.139162
0.726436 0.59588 0.158663
0.758556 0.603922 0.184527
0.786557 0.611154 0.208423
0.811536 0.618326 0.228122
0.833799 0.624598 0.246799
0.853635 0.632059 0.262272
0.870741 0.637797 0.276204
0.885847 0.64329 0.289281
0.898741 0.649134 0.300816
0.910185 0.654749 0.311833
0.0041352 0.399786 0.11313
0.00315862 0.406668 0.113512
0.00267033 0.410498 0.10779
0.00303655 0.41117 0.0958267
0.00407416 0.411322 0.0802319
0.00538643 0.411383 0.0629892
0.0068513 0.411688 0.045716
0.00851453 0.410117 0.0315404
0.0116121 0.409171 0.0192721
0.0241245 0.413642 0.0141909
0.0476387 0.422873 0.0146487
0.0807355 0.435477 0.0191043
0.131136 0.45272 0.0287938
0.194751 0.474464 0.0421912
0.270283 0.502922 0.0627909
0.361685 0.535073 0.0855879
0.452232 0.555764 0.0970474
0.525856 0.571038 0.104448
0.565087 0.582528 0.112917
0.601221 0.593759 0.120302
0.63505 0.604059 0.122911
0.667018 0.613611 0.131136
0.697627 0.622507 0.148119
0.727077 0.630091 0.167285
0.75462 0.63769 0.18793
0.783536 0.643961 0.21117
0.811582 0.650584 0.235706
0.834501 0.656428 0.255543
0.855879 0.661936 0.273457
0.874342 0.667369 0.291157
0.889586 0.672587 0.30518
0.902403 0.677317 0.319326
0.913954 0.682445 0.332235
0.000946059 0.436683 0.123995
0.000732433 0.443839 0.125368
0.000747692 0.447379 0.119966
0.000579843 0.447807 0.107469
0.000839246 0.447761 0.0918135
0.0016022 0.448447 0.0738842
0.00311284 0.448829 0.0556954
0.00495918 0.448112 0.0396582
0.00799573 0.44683 0.0255741
0.016907 0.449714 0.0163577
0.0382849 0.457404 0.0156863
0.071809 0.469276 0.0202945
0.120729 0.486076 0.0298772
0.189425 0.510475 0.046891
0.268055 0.539101 0.0688945
0.349996 0.566552 0.0931563
0.444083 0.587472 0.108064
0.520424 0.602625 0.116457
0.575433 0.615305 0.125795
0.609232 0.625574 0.136065
0.64062 0.635523 0.14493
0.670512 0.644495 0.148028
0.698787 0.652644 0.159274
0.727199 0.66006 0.178286
0.754757 0.667445 0.198917
0.781308 0.673793 0.218799
0.807843 0.679652 0.240238
0.83238 0.685176 0.262257
0.854398 0.690135 0.282734
0.873259 0.695003 0.300664
0.891112 0.699702 0.319432
0.90428 0.704555 0.336492
0.915984 0.708873 0.351751
0.00143435 0.473976 0.141985
0.00205997 0.481437 0.144259
0.00169375 0.484245 0.139101
0.00148013 0.484993 0.12639
0.00163272 0.485176 0.10988
0.00204471 0.485573 0.0912947
0.00325017 0.486809 0.0714885
0.00540169 0.487297 0.0532845
0.00854505 0.485573 0.0376745
0.0152743 0.485939 0.0246128
0.0350958 0.492714 0.0210117
0.0693828 0.505455 0.0261082
0.119036 0.522515 0.0366369
0.189639 0.547143 0.055314
0.267094 0.573251 0.0775769
0.345235 0.596689 0.100465
0.430335 0.614679 0.118166
0.514275 0.629709 0.127108
0.572442 0.643091 0.13753
0.616938 0.653834 0.14757
0.646082 0.663005 0.158846
0.673091 0.671092 0.169146
0.700786 0.679271 0.17464
0.727764 0.687007 0.191348
0.754726 0.693996 0.210544
0.780911 0.700557 0.230716
0.805463 0.706233 0.249592
0.828138 0.711208 0.267948
0.851179 0.716411 0.289525
0.871153 0.721309 0.310185
0.888579 0.725795 0.330465
0.903822 0.730159 0.351598
0.91693 0.734203 0.371847
0.00570687 0.513466 0.168414
0.00668345 0.520867 0.171542
0.00695811 0.523934 0.166354
0.00653086 0.524132 0.153109
0.00650034 0.524346 0.136355
0.00680552 0.52517 0.116579
0.00776684 0.526253 0.09514
0.00962844 0.526711 0.0740215
0.0130007 0.524254 0.0552834
0.0192264 0.523659 0.038819
0.0353094 0.528405 0.030457
0.0730144 0.543755 0.0361181
0.125383 0.562463 0.0489967
0.194644 0.583474 0.0670329
0.27126 0.606165 0.088838
0.339727 0.624887 0.107988
0.420462 0.640467 0.125994
0.50312 0.653056 0.138842
0.567666 0.666926 0.147265
0.613428 0.678187 0.157366
0.652033 0.687968 0.169375
0.677272 0.69575 0.180346
0.702983 0.703456 0.19295
0.729107 0.711086 0.206546
0.754467 0.718074 0.223484
0.77998 0.724865 0.242481
0.80351 0.730938 0.261845
0.82623 0.736446 0.279774
0.846433 0.741756 0.297581
0.867063 0.746807 0.318029
0.884993 0.75111 0.338781
0.90016 0.755291 0.359396
0.914168 0.759121 0.382712
0.0139467 0.556268 0.203006
0.0160525 0.564141 0.207034
0.0163424 0.567178 0.201907
0.0159609 0.567483 0.188922
0.015671 0.56788 0.17142
0.0155795 0.567727 0.149905
0.0164492 0.5682 0.126513
0.0184482 0.56846 0.102342
0.0220645 0.56585 0.0801099
0.0280308 0.563745 0.0594186
0.042237 0.567086 0.0455482
0.0813306 0.5832 0.0516365
0.135912 0.601068 0.0647288
0.201404 0.619242 0.0808881
0.273365 0.636759 0.100374
0.340917 0.652476 0.118273
0.409064 0.665019 0.132738
0.492103 0.675227 0.14696
0.556634 0.687739 0.158801
0.609995 0.700908 0.166751
0.648875 0.71104 0.177783
0.683177 0.719341 0.189899
0.706661 0.726665 0.202014
0.729732 0.73341 0.216785
0.755093 0.740826 0.235813
0.779461 0.747433 0.256107
0.802152 0.753887 0.274754
0.824353 0.760311 0.294362
0.844358 0.765377 0.311681
0.863157 0.770474 0.329152
0.88014 0.775402 0.347707
0.896666 0.779644 0.369116
0.910018 0.783642 0.389502
0.0278782 0.602548 0.243351
0.0301976 0.609812 0.247272
0.0306554 0.612268 0.241672
0.0300145 0.612222 0.228183
0.0291905 0.611658 0.210132
0.0291752 0.611627 0.189151
0.0296635 0.611582 0.163699
0.0315709 0.611856 0.137118
0.0353704 0.610025 0.111986
0.0415351 0.607248 0.0874189
0.0585794 0.609842 0.0721904
0.0920272 0.620371 0.06981
0.147951 0.637339 0.0824598
0.210605 0.651865 0.0968795
0.275425 0.665827 0.11342
0.343069 0.679545 0.130831
0.407813 0.689219 0.143297
0.479484 0.696376 0.15346
0.546578 0.706798 0.167544
0.599161 0.719326 0.179339
0.646113 0.732525 0.187137
0.680354 0.741253 0.198215
0.711482 0.749218 0.209964
0.733654 0.755901 0.225025
0.755688 0.761883 0.249729
0.779568 0.769192 0.270085
0.801892 0.775708 0.290776
0.822965 0.78201 0.309026
0.841886 0.787549 0.32694
0.860044 0.792844 0.344182
0.876539 0.797879 0.3617
0.891203 0.802335 0.379416
0.905272 0.805829 0.400473
0.0433814 0.646006 0.280568
0.0457313 0.652018 0.282826
0.0458076 0.653819 0.276616
0.0450752 0.653727 0.263737
0.0444648 0.653284 0.24712
0.0441138 0.652857 0.226154
0.0446326 0.653101 0.201312
0.0463874 0.652689 0.173266
0.05037 0.650629 0.145174
0.0559548 0.646723 0.118715
0.0736095 0.648188 0.100328
0.110872 0.65687 0.0981613
0.163928 0.66952 0.106371
0.22359 0.682185 0.118334
0.282918 0.693278 0.132616
0.34345 0.703258 0.145739
0.407965 0.712169 0.15758
0.476951 0.717662 0.165743
0.538308 0.725673 0.177188
0.590478 0.736782 0.191882
0.636088 0.749081 0.203159
0.678294 0.760967 0.211002
0.709453 0.769329 0.223621
0.738628 0.776883 0.236759
0.759823 0.782788 0.261616
0.780423 0.788693 0.285573
0.802136 0.795316 0.305653
0.821881 0.801144 0.325109
0.84126 0.806668 0.343755
0.858259 0.811704 0.36141
0.87396 0.816815 0.379278
0.888457 0.820996 0.397574
0.900954 0.824811 0.41561
0.057908 0.682353 0.312779
0.0597086 0.687221 0.313497
0.0596628 0.687907 0.305806
0.0584268 0.687327 0.292409
0.0576486 0.686976 0.275944
0.0572976 0.686488 0.256046
0.0578775 0.68661 0.232517
0.0601663 0.685954 0.207874
0.0641947 0.683818 0.178882
0.0709544 0.680125 0.150744
0.0903334 0.68101 0.131655
0.130434 0.687053 0.127596
0.184039 0.697383 0.134356
0.23946 0.707485 0.144366
0.292607 0.715709 0.156344
0.347768 0.723705 0.168673
0.408515 0.730358 0.179339
0.474617 0.734432 0.187549
0.532677 0.74078 0.198199
0.583032 0.749935 0.212222
0.627131 0.761608 0.226993
0.668177 0.773678 0.238285
0.706874 0.785916 0.247105
0.736202 0.794278 0.261692
0.764218 0.801953 0.275273
0.783581 0.807202 0.298299
0.803632 0.812909 0.322423
0.821576 0.818494 0.340749
0.840803 0.824247 0.361242
0.85716 0.82887 0.37995
0.872541 0.833402 0.398291
0.886137 0.837613 0.41828
0.898634 0.841428 0.436377
0.0702831 0.712505 0.340063
0.0710918 0.715526 0.338491
0.0707713 0.716014 0.329885
0.0700084 0.715328 0.316411
0.0693065 0.714916 0.300084
0.0692149 0.714839 0.281331
0.0697948 0.714839 0.258701
0.0727703 0.713542 0.235828
0.0769207 0.710918 0.209812
0.087129 0.70901 0.183566
0.109499 0.710124 0.164096
0.152331 0.713771 0.159747
0.203922 0.721187 0.163027
0.253941 0.728725 0.170977
0.304524 0.735821 0.181689
0.354269 0.74168 0.192309
0.409705 0.746365 0.202487
0.473503 0.749447 0.209461
0.528634 0.754421 0.218967
0.576913 0.762234 0.231952
0.620295 0.772534 0.247166
0.659434 0.784115 0.261936
0.698054 0.796597 0.274525
0.733242 0.808255 0.285283
0.760113 0.815747 0.299962
0.786999 0.823026 0.314305
0.805524 0.828428 0.337224
0.822812 0.833616 0.358892
0.840436 0.839078 0.379461
0.855985 0.843717 0.398474
0.870878 0.848203 0.420294
0.883955 0.852079 0.438575
0.896223 0.855726 0.456535
0.0804761 0.737331 0.363714
0.0808881 0.739544 0.360647
