bundles/resolve-cinematic-luts/Phantom Luts/P4k & P6K Phntm Film LUTs - V6/P6k/Gen 4 Colour/P6k VisionTeal Gen4-Legacy.cube
TITLE "Generated by Resolve"
LUT_3D_SIZE 9
0.0224002 0.0405432 0.0387274
0.0408637 0.0417487 0.040238
0.12575 0.0389868 0.0342107
0.267796 0.0358892 0.0301823
0.417624 0.0378271 0.0332189
0.573816 0.0652781 0.0643015
0.736645 0.117617 0.118837
0.752956 0.138216 0.12723
0.759167 0.155489 0.135103
0.0208286 0.0709697 0.0437934
0.0433967 0.0656748 0.0424048
0.124269 0.0571145 0.0389715
0.26717 0.0475013 0.0309606
0.415656 0.0487984 0.0341039
0.575174 0.0798352 0.0647288
0.737179 0.139284 0.120775
0.757671 0.162539 0.131868
0.760296 0.194049 0.136233
0.0192264 0.154421 0.0547341
0.0212558 0.145205 0.0336461
0.117662 0.145892 0.0405127
0.284993 0.118257 0.0428321
0.452979 0.121401 0.0558022
0.606439 0.16672 0.088014
0.74136 0.23064 0.129763
0.760052 0.264805 0.14461
0.763638 0.289158 0.154925
0.0189517 0.320531 0.097322
0.024918 0.309468 0.0664225
0.0470436 0.299901 0.0436103
0.280735 0.313573 0.0464179
0.46305 0.325246 0.0631113
0.622614 0.34284 0.130251
0.74725 0.376623 0.189227
0.77142 0.395514 0.207736
0.775296 0.416342 0.221683
0.0453651 0.521202 0.245457
0.0561532 0.514778 0.205554
0.0691844 0.489403 0.118791
0.180606 0.476387 0.0982528
0.462409 0.487465 0.101808
0.631174 0.518044 0.148226
0.768399 0.550958 0.252857
0.808896 0.56672 0.288411
0.807202 0.556848 0.283879
0.11957 0.725658 0.432319
0.10724 0.728481 0.405554
0.130343 0.713741 0.331609
0.18352 0.664042 0.198566
0.427543 0.641779 0.207172
0.628092 0.664485 0.189151
0.753552 0.691676 0.305318
0.831998 0.713588 0.391897
0.831342 0.702129 0.380179
0.227298 0.875364 0.585748
0.218952 0.876081 0.569284
0.209751 0.873808 0.526497
0.306874 0.826917 0.427893
0.446952 0.772564 0.360952
0.598413 0.766186 0.376028
0.746593 0.785626 0.389197
0.816938 0.801343 0.471656
0.821775 0.797452 0.466117
0.238743 0.880766 0.609796
0.233936 0.881895 0.593637
0.229648 0.880003 0.557168
0.312917 0.854185 0.481895
0.463493 0.801801 0.423529
0.585321 0.790204 0.438239
0.724269 0.798611 0.440803
0.812299 0.819821 0.510018
0.820096 0.824231 0.530373
0.239094 0.882414 0.622431
0.233524 0.884123 0.60798
0.23125 0.882887 0.57937
0.247059 0.872786 0.508125
0.422583 0.814893 0.43566
0.546151 0.791211 0.430396
0.677455 0.7935 0.441825
0.793393 0.814298 0.487556
0.820066 0.824308 0.530678
0.0219883 0.0430304 0.0649424
0.0593423 0.0384985 0.0718395
0.164126 0.0337835 0.0781415
0.317494 0.0282139 0.06215
0.468666 0.0322576 0.0593118
0.611841 0.0572824 0.0874495
0.754055 0.107149 0.13724
0.760616 0.123964 0.140871
0.760662 0.145251 0.138308
0.0210117 0.061799 0.0549935
0.0380255 0.0602426 0.0571298
0.148455 0.0455634 0.0446174
0.286213 0.0348211 0.0358434
0.426612 0.0358587 0.038529
0.578027 0.0606851 0.069688
0.734691 0.111559 0.120012
0.75819 0.146654 0.135027
0.761242 0.184649 0.137148
0.0193637 0.143328 0.0793011
0.019501 0.141955 0.0558633
0.111513 0.139696 0.0475776
0.295491 0.0963607 0.0439765
0.451438 0.103105 0.053193
0.610208 0.149599 0.0897536
0.745708 0.214313 0.131716
0.760235 0.246738 0.142458
0.764172 0.281712 0.153872
0.0190585 0.309834 0.128298
0.0187533 0.308705 0.0943923
0.0335546 0.29427 0.0488746
0.27541 0.309377 0.049958
0.472709 0.31191 0.0737621
0.624994 0.326741 0.134707
0.752438 0.363088 0.184665
0.771221 0.386801 0.203967
0.774731 0.408347 0.217868
0.0503853 0.515023 0.277913
0.0393835 0.513146 0.240101
0.0642863 0.493416 0.1467
0.150805 0.477424 0.102266
0.457816 0.484199 0.104265
0.632944 0.512642 0.152468
0.770932 0.544564 0.260151
0.807416 0.557656 0.290883
0.805325 0.546777 0.283467
0.125689 0.718425 0.451362
0.112001 0.71989 0.42948
0.0973831 0.716106 0.360998
0.159976 0.665202 0.212482
0.411322 0.638102 0.208347
0.622141 0.658488 0.1897
0.752392 0.684993 0.303029
0.832166 0.707408 0.391394
0.831937 0.695323 0.380209
0.227558 0.87245 0.599908
0.217639 0.873426 0.582452
0.20795 0.870466 0.542809
0.268284 0.835523 0.439246
0.431174 0.772183 0.357717
0.590143 0.762798 0.369726
0.741436 0.781338 0.379568
0.816831 0.797803 0.465324
0.822385 0.794293 0.461997
0.243 0.879805 0.624155
0.235096 0.882994 0.610468
0.231952 0.880674 0.575967
0.256489 0.867491 0.493843
0.450141 0.805646 0.427924
0.576226 0.790433 0.43769
0.717189 0.797696 0.441886
0.810178 0.819196 0.50753
0.820172 0.824292 0.53106
0.244388 0.881895 0.635355
0.239048 0.882506 0.621958
0.234104 0.883177 0.595239
0.232303 0.87982 0.531594
0.406622 0.821408 0.443778
0.53753 0.792035 0.430488
0.669047 0.793072 0.443931
0.790936 0.814267 0.48307
0.820218 0.824399 0.531655
0.0242008 0.0532998 0.156802
0.0695811 0.0410315 0.15021
0.173053 0.0363165 0.15314
0.326467 0.0276341 0.166812
0.482429 0.0340124 0.166461
0.649348 0.0719768 0.203708
0.773693 0.123323 0.249668
0.778851 0.130694 0.239826
0.781918 0.13959 0.205493
0.0208438 0.0644083 0.114809
0.0274205 0.0529946 0.146334
0.147204 0.0396735 0.13901
0.315831 0.0319524 0.125948
0.480659 0.0339361 0.117388
0.644221 0.0720989 0.155581
0.773053 0.125826 0.204105
0.777829 0.135836 0.191821
0.771969 0.125551 0.157748
0.0195315 0.138155 0.109987
0.0198215 0.136156 0.110704
0.126925 0.1505 0.139712
0.345708 0.103243 0.0974441
0.501976 0.079881 0.0772412
0.648798 0.118334 0.115099
0.773419 0.181064 0.165713
0.780484 0.21004 0.167712
0.781491 0.249714 0.174746
0.0188754 0.302464 0.170962
0.0191196 0.299901 0.157122
0.0188754 0.297063 0.0948806
0.277104 0.311177 0.0793622
0.49691 0.290425 0.108568
0.643183 0.301167 0.144778
0.770016 0.347341 0.199039
0.780926 0.370993 0.213046
0.782177 0.393362 0.22327
0.0477302 0.504128 0.314626
0.047013 0.502266 0.296483
0.0361334 0.496681 0.228
0.118715 0.477623 0.115953
0.452171 0.478096 0.110933
0.643153 0.504067 0.16968
0.77435 0.531975 0.275044
0.805951 0.542046 0.30103
0.806409 0.539132 0.297444
0.125963 0.706432 0.47747
0.119982 0.707042 0.463539
0.1066 0.705013 0.418448
0.13666 0.670909 0.261753
0.381964 0.63476 0.21622
0.614328 0.649622 0.195941
0.75433 0.675914 0.303456
0.833097 0.697627 0.391913
0.832135 0.68542 0.381506
0.231525 0.864683 0.621317
0.220447 0.864897 0.606638
0.207507 0.862226 0.570352
0.188632 0.848707 0.4663
0.400137 0.773983 0.355718
0.576303 0.757763 0.362615
0.735531 0.775387 0.366506
0.816327 0.792477 0.456886
0.824186 0.789456 0.456992
0.245808 0.880385 0.647196
0.242039 0.882933 0.637842
0.235538 0.882979 0.608316
0.230732 0.879332 0.53669
0.423621 0.815015 0.438529
0.563043 0.791424 0.437201
0.704402 0.796201 0.443122
0.806348 0.818021 0.503105
0.820386 0.824399 0.532586
0.241489 0.88394 0.655177
0.243839 0.883192 0.64387
0.239078 0.882719 0.6215
0.232502 0.880583 0.56321
0.374868 0.833921 0.459556
0.524926 0.793759 0.430945
0.655802 0.793256 0.447395
0.787228 0.814206 0.476493
0.820539 0.824613 0.533089
0.0380102 0.0693828 0.313359
0.0831006 0.0453346 0.308324
0.18587 0.0383154 0.294881
0.335439 0.0310369 0.292073
0.479179 0.0323033 0.32546
0.649134 0.0822461 0.368414
0.769635 0.134737 0.406241
0.774884 0.140078 0.390219
0.780636 0.141802 0.362219
0.019791 0.0842145 0.272053
0.0395361 0.0682536 0.30631
0.147143 0.0399786 0.292576
0.321782 0.032929 0.281376
0.472511 0.0345922 0.303288
0.643931 0.0851148 0.348043
0.774762 0.135241 0.373419
0.77847 0.14081 0.363409
0.783062 0.142061 0.332357
0.0195468 0.132433 0.233906
0.0193027 0.12755 0.250645
0.101686 0.103914 0.335851
0.330617 0.0661784 0.293629
0.47866 0.059266 0.271305
0.653803 0.0860151 0.280888
0.778698 0.136217 0.311147
0.781445 0.140307 0.289525
0.784207 0.143587 0.248814
0.0189517 0.29691 0.234516
0.0189517 0.295216 0.236362
0.0189975 0.298253 0.241077
0.334356 0.343648 0.315892
0.555856 0.287617 0.270314
0.709255 0.270741 0.24329
0.79707 0.306828 0.265095
0.79765 0.323476 0.261738
0.79765 0.353628 0.26276
0.0379644 0.501793 0.362371
0.0366674 0.499489 0.357076
0.0426337 0.492775 0.335958
0.0957046 0.506371 0.283909
0.468193 0.494774 0.231373
0.676051 0.494972 0.266712
0.793256 0.505699 0.323598
0.808103 0.509178 0.334508
0.808835 0.515694 0.326726
0.103319 0.696452 0.511009
0.100374 0.695094 0.504997
0.105516 0.688304 0.482185
0.100893 0.679072 0.400778
0.31754 0.640635 0.250141
0.604501 0.638239 0.217868
0.766552 0.664546 0.323583
0.834424 0.681697 0.399603
0.833234 0.66775 0.391928
0.206668 0.856321 0.651286
0.202014 0.854704 0.640375
0.206271 0.845792 0.613489
0.18967 0.838911 0.547265
0.324041 0.791348 0.377646
0.544259 0.75024 0.351736
0.724926 0.764874 0.343587
0.81796 0.78436 0.448508
0.827741 0.781003 0.454276
0.233448 0.886458 0.686687
0.229938 0.888594 0.678859
0.238819 0.885542 0.658305
0.236744 0.882963 0.60618
0.343618 0.84654 0.478874
0.535775 0.794339 0.438499
0.67921 0.794629 0.448737
0.79942 0.816175 0.496498
0.821118 0.824872 0.534798
0.229129 0.889265 0.688304
0.230991 0.888655 0.678737
0.23798 0.886213 0.662028
0.241123 0.882231 0.618906
0.262684 0.869932 0.50341
0.497841 0.798779 0.435264
0.630884 0.793057 0.452735
0.773892 0.810803 0.464836
0.821118 0.825193 0.535683
0.074403 0.0915541 0.459648
0.121935 0.0581064 0.455192
0.229557 0.0404822 0.436667
0.352148 0.0468452 0.437125
0.50071 0.0577401 0.459236
0.660929 0.072343 0.517922
0.760845 0.110246 0.558831
0.764767 0.11751 0.553109
0.769894 0.13167 0.510979
0.0193484 0.101274 0.437705
0.072221 0.091371 0.455467
0.18706 0.0435798 0.44184
0.334844 0.0474861 0.432792
0.492256 0.0571298 0.450538
0.652064 0.0702525 0.503426
0.764218 0.115541 0.545647
0.767529 0.125933 0.535256
0.770642 0.134768 0.496818
0.0192264 0.124666 0.384161
0.0194553 0.115801 0.400961
0.0895705 0.0877852 0.452232
0.294347 0.0457313 0.426291
0.475029 0.0562295 0.433677
0.633631 0.0670939 0.47422
0.765972 0.129168 0.51165
0.768688 0.137667 0.497627
0.772839 0.14551 0.469673
0.0188907 0.282307 0.373342
0.0190585 0.273381 0.38175
0.0191348 0.264775 0.406531
0.311162 0.234104 0.52694
0.549722 0.220645 0.500328
0.699565 0.200488 0.488823
0.782681 0.218326 0.482933
0.781094 0.213519 0.456641
0.78793 0.214801 0.410101
0.0437629 0.500237 0.428824
0.0427863 0.498695 0.431052
0.0489204 0.494926 0.428031
0.12372 0.511894 0.452705
0.533013 0.525643 0.495659
0.724468 0.495567 0.474037
0.830533 0.490776 0.461036
0.828977 0.481636 0.436576
0.822828 0.467994 0.391928
0.11548 0.693904 0.563592
0.112245 0.693034 0.561791
0.117479 0.686305 0.550286
0.126192 0.673396 0.520638
0.352255 0.681498 0.494575
0.626703 0.661753 0.430091
0.795621 0.668299 0.46183
0.843412 0.668482 0.462745
0.839353 0.648981 0.439292
0.199084 0.850278 0.690303
0.185748 0.847929 0.683558
0.1785 0.840055 0.666041
0.177081 0.823682 0.627268
0.230091 0.819272 0.545007
0.515541 0.761776 0.436149
0.719844 0.761563 0.40824
0.831083 0.780499 0.480919
0.835981 0.770489 0.479789
0.247211 0.895567 0.738918
0.23003 0.899199 0.734951
0.222278 0.897795 0.721904
0.232715 0.890211 0.688411
0.245838 0.88246 0.608118
0.485954 0.810254 0.466575
0.643397 0.79733 0.472679
0.793835 0.815473 0.496605
0.822812 0.826001 0.542
0.235111 0.898253 0.736828
0.225422 0.898528 0.730068
0.222248 0.896925 0.717678
0.232578 0.890166 0.687343
0.246067 0.882231 0.618677
0.422843 0.823957 0.468467
0.590143 0.795575 0.460929
0.750057 0.805203 0.457099
0.822003 0.826413 0.542397
0.15874 0.113222 0.593729
0.186877 0.0558633 0.582269
0.284016 0.0516976 0.572015
0.402716 0.0637522 0.576196
0.524544 0.0750439 0.596536
0.688396 0.110582 0.641947
0.778744 0.15198 0.68957
0.780377 0.155657 0.709056
0.785107 0.161624 0.700572
0.0702983 0.127382 0.584939
0.154253 0.113176 0.59086
0.245869 0.0530556 0.573892
0.382071 0.0586404 0.570565
0.513649 0.0761883 0.591455
0.680217 0.109453 0.633524
0.777691 0.147616 0.680308
0.78262 0.161349 0.699062
0.784024 0.154879 0.685954
0.0192874 0.145556 0.5299
0.019379 0.13138 0.551995
0.162615 0.0975204 0.583215
0.333639 0.0503243 0.560098
0.494926 0.0797284 0.584054
0.663645 0.10605 0.617166
0.773724 0.140368 0.665461
0.778775 0.153094 0.679042
0.77789 0.142885 0.664393
0.0193637 0.275822 0.511681
0.0190738 0.265522 0.517311
0.019089 0.242176 0.535851
0.278264 0.138445 0.640818
0.51252 0.153719 0.629007
0.678492 0.151141 0.630106
0.775723 0.15877 0.650736
0.779431 0.159655 0.653452
0.774197 0.133104 0.608316
0.0202029 0.501945 0.542504
0.0203861 0.497719 0.546914
0.0202792 0.487709 0.551431
0.102663 0.494041 0.610559
0.527367 0.451057 0.694926
0.725429 0.4477 0.669734
0.824262 0.438025 0.655329
0.822629 0.417182 0.63386
0.81387 0.370123 0.591287
0.130083 0.692592 0.622431
0.127855 0.691142 0.622446
0.132753 0.685618 0.616846
0.145373 0.675227 0.608652
0.392248 0.683101 0.631189
0.684169 0.68014 0.652293
0.829877 0.664027 0.64509
0.872663 0.647745 0.628443
0.864057 0.632166 0.592508
0.253697 0.840772 0.733776
0.243244 0.838117 0.729671
0.241642 0.829206 0.716152
0.246891 0.815152 0.693874
0.320989 0.805188 0.669612
0.568689 0.800504 0.653986
0.755413 0.788159 0.603403
0.861524 0.788235 0.618128
0.861067 0.776165 0.599252
0.359838 0.894789 0.784756
0.341787 0.897505 0.78175
0.323842 0.897627 0.774151
0.291722 0.896193 0.75819
0.28278 0.887892 0.721355
0.496849 0.86772 0.673701
0.659144 0.83624 0.60531
0.805798 0.83505 0.585046
0.830854 0.835538 0.589609
0.346426 0.89543 0.780667
0.328908 0.897215 0.77641
0.31165 0.897993 0.769528
0.28249 0.898268 0.755108
0.259922 0.894774 0.719524
0.380468 0.872923 0.646296
0.588083 0.827482 0.560555
0.747585 0.819745 0.540307
0.831296 0.838148 0.597391
0.230793 0.101701 0.701808
0.257939 0.0691691 0.691081
0.339773 0.0714733 0.689952
0.445167 0.0770886 0.692683
0.572625 0.115694 0.721096
0.709377 0.114076 0.758053
0.779202 0.14345 0.798276
0.782696 0.156451 0.81677
0.785245 0.162127 0.823453
0.191699 0.151461 0.70576
0.228717 0.103304 0.698665
0.305501 0.0698558 0.687938
0.423011 0.0731365 0.687541
0.558526 0.110475 0.714122
0.700648 0.112978 0.752544
0.778637 0.141207 0.791318
0.783078 0.154147 0.809857
0.78439 0.15874 0.814664
0.0196536 0.170016 0.661677
0.103365 0.163638 0.691569
0.226566 0.0872053 0.688746
0.380499 0.0706798 0.681712
0.531685 0.102037 0.702281
0.682475 0.113405 0.741299
0.777142 0.137362 0.777325
0.780758 0.147723 0.792645
0.78378 0.152865 0.798184
0.0194553 0.25417 0.618982
0.0195315 0.239933 0.625803
0.0194858 0.213565 0.641917
0.26865 0.0916609 0.704768
0.489357 0.103059 0.700511
0.657893 0.128664 0.732738
0.774136 0.139651 0.752712
0.77882 0.147509 0.761059
0.782025 0.151186 0.762783
0.0280003 0.49955 0.653849
0.0266117 0.493187 0.656733
0.0258488 0.481315 0.66453
0.107195 0.48629 0.729259
0.531212 0.40116 0.806439
0.713298 0.406348 0.791699
0.824094 0.401144 0.794232
0.821485 0.385473 0.785153
0.816358 0.356603 0.762875
0.0718242 0.695171 0.705242
0.0666819 0.691432 0.70547
0.0653697 0.684718 0.705852
0.114565 0.677897 0.720363
0.384054 0.670741 0.77171
0.690349 0.63212 0.813489
0.83595 0.630823 0.799619
0.87396 0.619471 0.785306
0.868315 0.586908 0.749477
0.274861 0.83769 0.778332
0.266148 0.834379 0.773617
0.263157 0.826062 0.764889
0.266835 0.813947 0.75201
0.337484 0.806943 0.749783
0.598154 0.803204 0.763607
0.793729 0.798489 0.776303
0.893904 0.780941 0.765255
0.895247 0.762264 0.744427
0.422492 0.89749 0.814923
0.399405 0.898756 0.813352
0.380529 0.895796 0.80763
0.363104 0.88986 0.79765
0.366629 0.878965 0.780285
0.55201 0.872724 0.778866
0.70959 0.870924 0.772839
0.837293 0.864973 0.743389
0.875425 0.858122 0.73904
0.42565 0.898848 0.813703
0.414115 0.900603 0.812314
0.404349 0.90045 0.808316
0.38854 0.899519 0.799741
0.360632 0.897353 0.782345
0.4477 0.887114 0.762387
0.633875 0.881468 0.757763
0.776745 0.866423 0.724712
0.858091 0.868254 0.718166
0.291157 0.0838178 0.763241
0.330007 0.0849928 0.76434
0.393591 0.0868849 0.764538
0.482643 0.0890516 0.764828
0.609842 0.130144 0.788891
0.73901 0.145022 0.816892
0.786206 0.167559 0.837705
0.787686 0.172229 0.838666
0.787549 0.175708 0.83801
0.267445 0.122957 0.770626
0.289693 0.083711 0.76321
0.367269 0.0865492 0.76492
0.464683 0.0877699 0.764126
0.596002 0.124468 0.78529
0.731975 0.14902 0.81593
0.786496 0.168124 0.837888
0.787701 0.174044 0.838437
0.789181 0.177615 0.839139
0.144778 0.187045 0.762158
0.241611 0.168185 0.769772
0.294392 0.0833295 0.761074
0.42707 0.0870527 0.762585
0.568063 0.114 0.779492
0.718242 0.156191 0.815885
0.787396 0.170184 0.838621
0.789242 0.177447 0.839231
0.789548 0.181109 0.839231
0.0195163 0.239231 0.710903
0.0195163 0.225772 0.717876
0.0318914 0.202243 0.732647
0.312352 0.0858778 0.759609
0.502083 0.0955215 0.763516
0.686061 0.167605 0.808835
0.787625 0.172168 0.835859
0.789273 0.182696 0.83827
0.790295 0.188388 0.839612
0.0412757 0.506661 0.741711
0.0375677 0.498985 0.7458
0.0314336 0.486 0.753887
0.157595 0.47042 0.812604
0.550149 0.363821 0.851392
0.724575 0.375097 0.842863
0.81651 0.373953 0.851926
0.814786 0.361212 0.850034
0.810987 0.335943 0.847715
0.117357 0.71223 0.789868
0.117281 0.706981 0.790616
0.119966 0.695644 0.79115
0.170153 0.675608 0.801511
0.403983 0.665187 0.85153
0.710353 0.602045 0.89543
0.833936 0.60238 0.882261
0.871275 0.59559 0.878935
0.867643 0.571298 0.86981
0.259541 0.838972 0.828428
0.249897 0.833387 0.824994
0.243061 0.826093 0.822431
0.257359 0.812406 0.820005
0.36286 0.803479 0.835721
0.591806 0.790738 0.856275
0.802396 0.764172 0.884718
0.899199 0.756695 0.87068
0.89987 0.740856 0.859236
0.412284 0.899199 0.840131
0.39675 0.898421 0.838407
0.390234 0.894072 0.834806
0.385595 0.88751 0.829099
0.391714 0.877867 0.821988
0.566461 0.87602 0.828305
0.734401 0.874327 0.837461
0.868101 0.879515 0.856733
0.905898 0.864881 0.847761
0.459937 0.904906 0.841123
0.455161 0.905577 0.837674
0.452918 0.905028 0.834333
0.449348 0.904158 0.828946
0.443412 0.902388 0.820905
0.505837 0.899413 0.817853
0.672511 0.90042 0.829099
0.805264 0.905501 0.845335
0.892836 0.9066 0.837263
0.313161 0.0846571 0.764004
0.347021 0.08542 0.764248
0.405722 0.0873732 0.764645
0.492073 0.0912184 0.76585
0.618021 0.133913 0.790372
0.738918 0.137041 0.813748
0.784298 0.160204 0.8365
0.787762 0.17499 0.838361
0.789364 0.178149 0.839307
0.27245 0.0910353 0.76466
0.311711 0.0846418 0.763973
0.378912 0.0863813 0.764462
0.472572 0.0876631 0.764019
0.603571 0.127443 0.787717
0.732189 0.14197 0.813794
0.785138 0.161563 0.837278
0.788754 0.176577 0.838926
0.78938 0.179324 0.8392
0.202625 0.175845 0.765911
0.260136 0.142489 0.771237
0.317189 0.0846876 0.764035
0.437705 0.0879072 0.764599
0.574777 0.11635 0.781582
0.718135 0.150607 0.813504
0.785321 0.164309 0.837217
0.78941 0.17911 0.839246
0.789258 0.182895 0.83888
0.0255741 0.232013 0.746777
0.0278935 0.217258 0.742245
0.0909133 0.195071 0.751904
0.336873 0.0864576 0.765179
0.512291 0.0975052 0.771115
0.688624 0.166934 0.813291
0.787793 0.171603 0.83888
0.789746 0.18436 0.839261
0.790341 0.189593 0.839551
0.0489815 0.502251 0.793271
0.0430304 0.491173 0.791592
0.0342107 0.472404 0.788739
0.156634 0.431113 0.816312
0.533745 0.314107 0.842985
0.708034 0.33196 0.837507
0.806241 0.335897 0.847288
0.808759 0.322377 0.84712
0.806027 0.299458 0.846204
0.198505 0.703548 0.833219
0.192325 0.695933 0.831418
0.183536 0.683131 0.829038
0.196048 0.659648 0.827375
0.396201 0.642527 0.853758
0.708614 0.572473 0.892226
0.830289 0.575387 0.886976
0.864668 0.568627 0.887739
0.858961 0.544259 0.882887
0.33167 0.833707 0.859159
0.324254 0.82887 0.858717
0.311894 0.820325 0.856992
0.31902 0.806073 0.855192
0.389288 0.789227 0.859266
0.584726 0.775189 0.884382
0.810651 0.737896 0.91136
0.894499 0.733608 0.904372
0.893126 0.717708 0.904463
0.447471 0.894499 0.859403
0.441245 0.890898 0.860227
0.436774 0.886076 0.861021
0.43447 0.878126 0.862257
0.436393 0.868147 0.865507
0.564584 0.868254 0.872831
0.727275 0.863478 0.882353
0.87744 0.851514 0.897337
0.905501 0.843534 0.898253
0.488548 0.906691 0.855924
0.489265 0.906706 0.856062
0.490684 0.906645 0.856107
0.493492 0.906493 0.856184
0.497566 0.906523 0.856504
0.534142 0.904967 0.857176
0.687083 0.90544 0.865217
0.823484 0.913039 0.883314
0.907713 0.920653 0.898329
