bundles/resolve-cinematic-luts/Phantom Luts/P4k & P6K Phntm Film LUTs - V6/P6k/Gen 4 Colour/P6k Eterna Gen4-Legacy.cube
TITLE "Generated by Resolve"
LUT_3D_SIZE 5
0.0264286 0.053254 0.0532235
0.13695 0.0616617 0.0645151
0.392233 0.0948196 0.129046
0.713817 0.164691 0.225727
0.775708 0.175952 0.262592
0.0477302 0.160403 0.103243
0.145464 0.168505 0.075761
0.421775 0.148684 0.111192
0.739345 0.200381 0.189624
0.756848 0.200427 0.196735
0.0564279 0.565087 0.303487
0.0299687 0.611872 0.221561
0.530953 0.599008 0.131029
0.87776 0.602045 0.278523
0.924376 0.596918 0.299077
0.238972 0.907759 0.59762
0.241901 0.914214 0.562448
0.389838 0.929274 0.399878
0.859922 0.923476 0.480186
0.94519 0.911223 0.566247
0.236652 0.913329 0.6365
0.244724 0.912581 0.602808
0.312947 0.928313 0.478889
0.706584 0.935393 0.492546
0.945006 0.942275 0.659998
0.048249 0.0565499 0.122927
0.15964 0.0645151 0.120836
0.396201 0.0856947 0.173068
0.715007 0.140032 0.277256
0.797086 0.162875 0.336828
0.0511025 0.1458 0.131487
0.147173 0.155993 0.153185
0.465553 0.133989 0.17322
0.768841 0.182208 0.262928
0.793194 0.18056 0.291279
0.0629282 0.515846 0.355047
0.0357061 0.553216 0.318563
0.509529 0.576699 0.14609
0.87187 0.576486 0.294087
0.925551 0.566033 0.318593
0.227436 0.879423 0.642771
0.223651 0.886915 0.609049
0.327733 0.913817 0.394537
0.846754 0.912963 0.451667
0.944808 0.898756 0.550912
0.247578 0.908736 0.702083
0.256092 0.907088 0.671092
0.270573 0.917479 0.517311
0.672847 0.936233 0.490471
0.944884 0.942397 0.66276
0.121401 0.0629282 0.336492
0.227237 0.0695964 0.35758
0.452003 0.0925154 0.314656
0.736492 0.136873 0.381033
0.80293 0.153689 0.45745
0.0489815 0.117464 0.24921
0.0604257 0.0792096 0.33962
0.457938 0.0999466 0.335515
0.744778 0.144518 0.409064
0.802563 0.159945 0.495842
0.0740826 0.479927 0.417929
0.0769818 0.50515 0.45449
0.507729 0.527443 0.499535
0.89662 0.512245 0.522194
0.939941 0.482719 0.529732
0.239933 0.840665 0.699306
0.226719 0.844221 0.696178
0.28072 0.857496 0.60647
0.809064 0.875273 0.51574
0.948714 0.856229 0.583719
0.336706 0.920668 0.796185
0.308293 0.9243 0.788998
0.29247 0.910811 0.698116
0.610178 0.939116 0.5449
0.948775 0.940948 0.688182
0.24416 0.0742046 0.552132
0.31606 0.0779583 0.598367
0.534691 0.0923323 0.587274
0.754543 0.13846 0.555611
0.776577 0.142138 0.586542
0.0635386 0.0879683 0.459144
0.139315 0.0689555 0.532769
0.491966 0.0903334 0.609354
0.757092 0.146761 0.567041
0.782925 0.155291 0.614633
0.0767376 0.466972 0.561196
0.0664378 0.466407 0.609094
0.354467 0.461021 0.752117
0.899214 0.42092 0.716503
0.93312 0.393637 0.730327
0.273899 0.816342 0.744625
0.238743 0.811673 0.746899
0.337957 0.807584 0.742626
0.797467 0.810086 0.778805
0.952361 0.798581 0.790127
0.454887 0.925765 0.861143
0.423087 0.935927 0.873442
0.412177 0.934524 0.847395
0.728206 0.936355 0.857542
0.952621 0.942367 0.831662
0.355062 0.0865797 0.704158
0.3823 0.0882429 0.709972
0.55407 0.105272 0.731762
0.783551 0.170184 0.782925
0.787518 0.173602 0.779736
0.18323 0.0776989 0.648646
0.272999 0.0822003 0.688136
0.480644 0.0968032 0.724056
0.78471 0.171557 0.78471
0.795666 0.184085 0.795651
0.119783 0.469917 0.752804
0.13994 0.459586 0.787396
0.256046 0.38024 0.865034
0.837018 0.301549 0.899229
0.881148 0.289494 0.865553
0.248173 0.810803 0.83978
0.242908 0.793332 0.84506
0.2851 0.753658 0.86717
0.696941 0.761944 0.939757
0.944015 0.732616 0.935119
0.472908 0.940169 0.91725
0.476631 0.940215 0.918502
0.472694 0.939879 0.90837
0.740139 0.941985 0.935058
0.947829 0.947814 0.947784
