bundles/resolve-cinematic-luts/Phantom Luts/P4k & P6K Phntm Film LUTs - V6/P6k/Gen 4 Colour/P6k VisionTeal Gen4.cube
TITLE "Generated by Resolve"
LUT_3D_SIZE 9
0.0224155 0.0224155 0.0224155
0.0488746 0.0244755 0.0273899
0.175479 0.0220493 0.021622
0.318791 0.0296025 0.0220493
0.479286 0.0502174 0.038941
0.651118 0.112001 0.0957046
0.770718 0.188739 0.159426
0.775738 0.21146 0.16231
0.779339 0.227527 0.168673
0.0202945 0.0834211 0.0351263
0.0520943 0.073518 0.0286107
0.183536 0.0536507 0.0243229
0.323598 0.0514229 0.0246433
0.48423 0.0743114 0.0411994
0.650492 0.132326 0.0956588
0.765408 0.210468 0.153246
0.776028 0.234562 0.164691
0.779522 0.260746 0.173754
0.0188602 0.217273 0.0663157
0.0182345 0.198718 0.0268101
0.173846 0.205905 0.0267948
0.35021 0.188022 0.0391089
0.515785 0.175097 0.06804
0.65948 0.226703 0.107576
0.762783 0.293156 0.165255
0.775418 0.323598 0.184833
0.777829 0.3467 0.197833
0.0211643 0.385718 0.146639
0.0353552 0.370947 0.0868696
0.0626535 0.353414 0.0522011
0.329809 0.358328 0.0410163
0.512856 0.371969 0.0652171
0.670726 0.396643 0.157824
0.764538 0.431235 0.230945
0.783764 0.448524 0.248722
0.788998 0.469291 0.257939
0.0569009 0.579126 0.305318
0.0512093 0.576867 0.256703
0.0879225 0.54728 0.15169
0.239658 0.518349 0.108659
0.508385 0.534997 0.119249
0.676951 0.567819 0.184024
0.787991 0.603403 0.286213
0.819181 0.618097 0.319203
0.818143 0.608454 0.314321
0.138781 0.768399 0.485039
0.123476 0.77116 0.457053
0.111101 0.762371 0.372869
0.216266 0.70399 0.232105
0.468452 0.673701 0.234363
0.6663 0.700236 0.230259
0.769787 0.724529 0.34313
0.833967 0.745449 0.424826
0.833036 0.736263 0.412024
0.253529 0.878309 0.624369
0.247227 0.879194 0.607401
0.24065 0.875517 0.561715
0.332891 0.833768 0.457527
0.483024 0.778653 0.392248
0.640284 0.779202 0.407477
0.766064 0.799161 0.431067
0.829648 0.817731 0.522835
0.835187 0.813886 0.515877
0.261906 0.884718 0.648432
0.262074 0.883635 0.631632
0.261189 0.880385 0.592798
0.335225 0.859205 0.513146
0.497398 0.810086 0.45684
0.626673 0.806058 0.482734
0.756985 0.81828 0.484688
0.826307 0.840818 0.56791
0.843305 0.846036 0.591516
0.255802 0.889326 0.662486
0.260563 0.887022 0.646525
0.26154 0.883894 0.61619
0.280049 0.876188 0.544518
0.452201 0.821286 0.46746
0.586542 0.804425 0.471244
0.724132 0.812192 0.480522
0.810208 0.835309 0.541741
0.843305 0.846174 0.59205
0.0216373 0.0314488 0.0785229
0.0772106 0.0214694 0.0859541
0.212512 0.0159457 0.0941939
0.362921 0.0165255 0.0835737
0.527382 0.0404822 0.0894026
0.686229 0.10631 0.132494
0.784146 0.182986 0.192035
0.785016 0.200488 0.189487
0.782361 0.218479 0.176257
0.0213016 0.0660258 0.0555428
0.0401007 0.062562 0.0598917
0.208911 0.0312352 0.0342565
0.341024 0.031693 0.0324254
0.493858 0.0491646 0.0486305
0.656519 0.109621 0.104707
0.770489 0.184939 0.162951
0.77998 0.218647 0.169986
0.780682 0.252705 0.174746
0.019028 0.203143 0.0988479
0.0187991 0.199176 0.061387
0.16408 0.199145 0.035462
0.365438 0.157168 0.0555886
0.521935 0.157321 0.071397
0.664515 0.210163 0.109743
0.767559 0.27921 0.168109
0.777554 0.308095 0.18294
0.779034 0.339406 0.196979
0.019913 0.375586 0.194095
0.0195773 0.374884 0.14342
0.0363165 0.34786 0.0500038
0.326848 0.3552 0.0495766
0.524834 0.361837 0.0810559
0.672114 0.381003 0.162158
0.769223 0.417075 0.229572
0.783795 0.438972 0.246632
0.788357 0.461387 0.256916
0.0570382 0.572686 0.335592
0.0500801 0.571679 0.302007
0.0807202 0.553796 0.200946
0.206668 0.520165 0.116899
0.504112 0.531685 0.124361
0.678706 0.562936 0.191455
0.789059 0.596384 0.292622
0.818799 0.609751 0.321813
0.817365 0.599145 0.315007
0.14345 0.762982 0.503853
0.128634 0.764691 0.481163
0.109957 0.764355 0.414954
0.186023 0.709941 0.252018
0.452781 0.671199 0.238468
0.661936 0.695415 0.231418
0.769192 0.719814 0.340658
0.83476 0.741192 0.424704
0.833295 0.731594 0.412528
0.251026 0.87834 0.639506
0.244251 0.878141 0.62269
0.23769 0.874205 0.579858
0.28716 0.844709 0.470512
0.467231 0.779156 0.389502
0.631525 0.775113 0.400931
0.762798 0.795743 0.421714
0.828855 0.814176 0.515816
0.835325 0.811185 0.511238
0.255421 0.888075 0.663767
0.259617 0.886381 0.649119
0.262791 0.882383 0.613962
0.290272 0.871824 0.529717
0.482765 0.813596 0.460945
0.617777 0.80592 0.481651
0.751858 0.817243 0.484398
0.824231 0.840009 0.565682
0.843397 0.846159 0.592065
0.251972 0.890974 0.675074
0.257389 0.888731 0.66128
0.261982 0.884886 0.633585
0.265599 0.878904 0.566186
0.434104 0.827298 0.475395
0.577798 0.80502 0.471046
0.715969 0.811566 0.482139
0.807797 0.834989 0.537423
0.843458 0.846357 0.593057
0.0221103 0.0431373 0.219059
0.0979782 0.0257877 0.207263
0.218341 0.0174563 0.203113
0.365362 0.0123445 0.222019
0.525689 0.0375067 0.234348
0.702571 0.10164 0.278828
0.794171 0.162951 0.307805
0.797879 0.173754 0.293645
0.800275 0.191592 0.252186
0.020264 0.068513 0.159747
0.0279393 0.0423133 0.208988
0.195132 0.0219577 0.187488
0.356634 0.0177615 0.179339
0.530968 0.0404974 0.185687
0.701701 0.10425 0.229358
0.796292 0.170214 0.258549
0.798215 0.185336 0.240162
0.79292 0.201282 0.211215
0.0191348 0.19617 0.146181
0.019028 0.192309 0.146242
0.201923 0.22208 0.205371
0.427176 0.162783 0.149981
0.581918 0.136522 0.125322
0.705684 0.18117 0.159808
0.787884 0.248173 0.210681
0.793881 0.2757 0.218677
0.793042 0.312032 0.221302
0.0196994 0.369589 0.231754
0.0192721 0.36553 0.217273
0.0193637 0.363684 0.142626
0.330922 0.362127 0.0977188
0.552239 0.345708 0.136263
0.688029 0.355947 0.191577
0.783413 0.400412 0.245762
0.791043 0.421347 0.255985
0.793866 0.443595 0.266499
0.0429389 0.56199 0.367636
0.0460822 0.559686 0.350988
0.0463722 0.555505 0.289006
0.152972 0.527123 0.140566
0.498192 0.525628 0.134325
0.689006 0.554742 0.211933
0.793408 0.583902 0.310353
0.818479 0.593973 0.334783
0.819135 0.591333 0.330953
0.135119 0.755413 0.528786
0.134463 0.755337 0.514565
0.122454 0.752789 0.470619
0.149462 0.723461 0.311818
0.422187 0.669963 0.248905
0.654826 0.688228 0.236606
0.770642 0.714473 0.339864
0.835294 0.733959 0.425834
0.834684 0.72433 0.415244
0.23769 0.87776 0.662745
0.237171 0.876097 0.648249
0.235325 0.870039 0.612192
0.216999 0.860792 0.507195
0.435843 0.780484 0.38616
0.615961 0.770184 0.392844
0.757198 0.790402 0.407767
0.827298 0.809339 0.505898
0.835904 0.806821 0.50547
0.248173 0.89189 0.688762
0.248066 0.892012 0.677394
0.261585 0.886061 0.647089
0.262913 0.87895 0.571588
0.453361 0.821881 0.47097
0.604135 0.806241 0.480949
0.742931 0.815579 0.484977
0.820523 0.83917 0.561273
0.843565 0.846387 0.593606
0.245747 0.894301 0.694713
0.248127 0.893309 0.684062
0.258518 0.888808 0.660777
0.264118 0.88159 0.600534
0.400687 0.839368 0.49102
0.564355 0.805951 0.470893
0.702617 0.811032 0.485954
0.803296 0.833829 0.531456
0.843824 0.84683 0.595071
0.0591135 0.0591135 0.366613
0.12697 0.0293278 0.353109
0.239216 0.0256962 0.33901
0.372839 0.0191196 0.338003
0.527565 0.0232548 0.385382
0.694835 0.0910201 0.435874
0.786618 0.161303 0.464408
0.790295 0.173709 0.447089
0.795392 0.179583 0.416663
0.0193332 0.0871443 0.321859
0.0622873 0.0575265 0.359319
0.205173 0.0250706 0.336034
0.36083 0.0205081 0.327352
0.521813 0.0249943 0.3635
0.69163 0.0955062 0.41352
0.790646 0.168582 0.431342
0.793851 0.177981 0.418799
0.797482 0.182757 0.384726
0.019028 0.182589 0.281895
0.0192874 0.171984 0.298573
0.166369 0.124361 0.4056
0.407111 0.0965896 0.368322
0.549737 0.0801709 0.34583
0.701946 0.11751 0.35613
0.794324 0.175769 0.365362
0.798032 0.184497 0.343343
0.800275 0.190921 0.297276
0.0195773 0.365057 0.29662
0.0195621 0.362249 0.296727
0.0209506 0.365621 0.303807
0.39884 0.400992 0.369436
0.614069 0.346242 0.326024
0.747692 0.326726 0.297536
0.807599 0.358373 0.312413
0.806958 0.373983 0.307729
0.807279 0.401923 0.308034
0.0376593 0.559884 0.417548
0.0387732 0.557412 0.411276
0.0474098 0.550576 0.390372
0.128679 0.56257 0.339834
0.517128 0.544366 0.274922
0.720775 0.54725 0.311208
0.810269 0.560342 0.361471
0.822339 0.56408 0.372152
0.821454 0.568856 0.362524
0.113497 0.749966 0.567391
0.110002 0.748974 0.560082
0.115816 0.741482 0.535058
0.116838 0.731655 0.453178
0.359945 0.678584 0.288396
0.646555 0.67982 0.259709
0.780713 0.704906 0.357015
0.837034 0.722637 0.435157
0.836805 0.711223 0.425452
0.217044 0.875883 0.69781
0.211551 0.873411 0.68658
0.215717 0.864591 0.659358
0.220157 0.851942 0.59089
0.35787 0.799481 0.407675
0.584863 0.763821 0.385901
0.748272 0.781247 0.385443
0.827054 0.801907 0.495735
0.838697 0.800031 0.502022
0.239887 0.898894 0.72752
0.235996 0.900038 0.719295
0.242802 0.89575 0.697917
0.263249 0.885786 0.645518
0.367361 0.852628 0.512032
0.575418 0.80766 0.479896
0.725277 0.813718 0.488518
0.815061 0.838422 0.553948
0.844373 0.847242 0.597269
0.236927 0.901091 0.729213
0.237995 0.900053 0.719219
0.243122 0.896559 0.701244
0.262837 0.887663 0.657664
0.295521 0.873426 0.539879
0.534554 0.809476 0.472267
0.67808 0.810285 0.493034
0.79353 0.830594 0.518273
0.844633 0.847715 0.597955
0.11873 0.0776074 0.513146
0.177646 0.035874 0.500725
0.282765 0.029984 0.484993
0.40264 0.038468 0.49218
0.555245 0.051606 0.524285
0.701717 0.0784466 0.590585
0.783642 0.127077 0.633402
0.787305 0.135164 0.626429
0.792828 0.152865 0.57467
0.0193179 0.0982681 0.492561
0.116808 0.0773175 0.509178
0.243 0.0306706 0.486366
0.385611 0.0403143 0.487678
0.548028 0.0526741 0.515953
0.694713 0.0762646 0.577356
0.784833 0.128511 0.617502
0.789242 0.143038 0.602823
0.792966 0.157137 0.558007
0.0192111 0.154437 0.431495
0.0192874 0.130114 0.448936
0.124956 0.0564736 0.503716
0.343297 0.0355383 0.476783
0.532631 0.0541238 0.498817
0.680964 0.0751202 0.54931
0.786831 0.147097 0.576242
0.791058 0.160616 0.560708
0.793088 0.170291 0.526177
0.0193637 0.35584 0.432868
0.0194858 0.347631 0.441138
0.0195773 0.335332 0.469688
0.378515 0.296895 0.593439
0.612161 0.280705 0.561379
0.739971 0.25565 0.547585
0.800931 0.266194 0.536065
0.798779 0.257755 0.507958
0.802289 0.263737 0.459556
0.0487831 0.558267 0.486198
0.0507362 0.55726 0.48867
0.0640269 0.553124 0.486229
0.175189 0.567422 0.509697
0.586084 0.578408 0.549889
0.767163 0.547601 0.529427
0.845472 0.539132 0.512917
0.842206 0.532372 0.487098
0.83563 0.520485 0.439002
0.142535 0.748837 0.621805
0.141344 0.747875 0.620127
0.148333 0.741115 0.607187
0.161303 0.72784 0.575799
0.399634 0.728588 0.543709
0.674266 0.70869 0.476753
0.812055 0.716045 0.50576
0.849912 0.716045 0.50251
0.845197 0.699519 0.475456
0.232792 0.868132 0.734691
0.221378 0.866621 0.728679
0.214069 0.860594 0.713756
0.200061 0.850645 0.679072
0.27126 0.835294 0.591333
0.559487 0.78146 0.480781
0.748867 0.783154 0.455543
0.841535 0.801526 0.530282
0.848157 0.794141 0.52668
0.275837 0.900801 0.768948
0.257176 0.905135 0.767025
0.246113 0.90486 0.756802
0.24361 0.901564 0.728878
0.27657 0.885664 0.647349
0.523354 0.821759 0.507713
0.692653 0.816052 0.51606
0.810819 0.839811 0.554162
0.846845 0.849607 0.605768
0.262379 0.90396 0.76788
0.252018 0.904631 0.763088
0.243824 0.904418 0.753079
0.243412 0.901473 0.727794
0.270665 0.887098 0.657328
0.453941 0.833249 0.505867
0.636011 0.813184 0.508797
0.775631 0.82565 0.508461
0.846555 0.850477 0.605829
0.19292 0.0650339 0.640116
0.247944 0.0462043 0.63154
0.3393 0.0432593 0.623972
0.462577 0.0638132 0.637537
0.57937 0.0685435 0.657145
0.71902 0.0950027 0.700969
0.790036 0.162676 0.738796
0.791272 0.160418 0.75404
0.79559 0.172549 0.746883
0.128191 0.126879 0.644968
0.191302 0.066804 0.63743
0.302251 0.0442817 0.624857
0.440284 0.0582132 0.631815
0.569314 0.0698558 0.653269
0.714656 0.0964675 0.694865
0.79086 0.168383 0.732387
0.792966 0.170428 0.745403
0.797208 0.180407 0.735836
0.0193484 0.166476 0.585412
0.0193027 0.134447 0.610132
0.198444 0.0475013 0.629969
0.390738 0.0462196 0.618585
0.55201 0.0760815 0.646113
0.703166 0.0990311 0.681712
0.79617 0.163851 0.727214
0.792676 0.178058 0.731044
0.800809 0.17583 0.725505
0.019791 0.345968 0.575952
0.0198825 0.335836 0.582788
0.0193484 0.314382 0.603647
0.353262 0.187808 0.709285
0.578363 0.203967 0.693828
0.725872 0.182193 0.696132
0.796033 0.203601 0.707057
0.798123 0.205341 0.70869
0.799359 0.175158 0.67364
0.0205539 0.561181 0.601923
0.0204471 0.557641 0.605051
0.020325 0.548714 0.610224
0.152132 0.550454 0.672404
0.58378 0.501915 0.747845
0.770977 0.497078 0.728542
0.839612 0.485664 0.71017
0.838682 0.464012 0.690028
0.830014 0.41677 0.646662
0.163134 0.747219 0.678599
0.161715 0.745495 0.677882
0.169268 0.740139 0.672587
0.18999 0.72903 0.663493
0.440848 0.734615 0.684352
0.731334 0.731945 0.70489
0.848005 0.716243 0.69723
0.887678 0.70016 0.681971
0.879438 0.685664 0.647059
0.302724 0.857893 0.768597
0.292561 0.857389 0.766735
0.29102 0.851102 0.75761
0.294118 0.840452 0.739864
0.367681 0.830671 0.718013
0.626749 0.826017 0.708247
0.789059 0.816342 0.662181
0.87599 0.81503 0.672053
0.878279 0.804211 0.653376
0.397604 0.898726 0.801907
0.377981 0.901427 0.799771
0.359915 0.902113 0.794293
0.327047 0.900862 0.782879
0.315709 0.893858 0.755215
0.543435 0.877867 0.71899
0.714611 0.858061 0.664179
0.827665 0.859312 0.651057
0.861234 0.857908 0.654795
0.382879 0.899413 0.798489
0.365881 0.901457 0.795804
0.347463 0.902098 0.790494
0.316732 0.90251 0.780499
0.286809 0.900511 0.753475
0.416861 0.878965 0.688304
0.63772 0.84828 0.614679
0.780652 0.844968 0.596994
0.859602 0.867491 0.664683
0.277852 0.0610666 0.726558
0.32546 0.0612345 0.723827
0.403052 0.0632639 0.724727
0.51162 0.078706 0.735897
0.631357 0.114122 0.762234
0.740795 0.119234 0.791592
0.79733 0.155352 0.822461
0.801648 0.174762 0.83711
0.80325 0.183337 0.840528
0.238025 0.10724 0.735988
0.273701 0.0607004 0.724041
0.370275 0.0621805 0.722835
0.490455 0.0729534 0.730861
0.620844 0.11458 0.758022
0.733669 0.118364 0.787625
0.79704 0.15317 0.817456
0.801602 0.171099 0.831601
0.803479 0.178714 0.83534
0.0417334 0.171801 0.708873
0.176715 0.154971 0.733013
0.283116 0.0598459 0.719615
0.441978 0.0623941 0.719402
0.596017 0.106981 0.748821
0.721096 0.119936 0.780941
0.795346 0.14815 0.807141
0.79968 0.164752 0.81915
0.802625 0.171038 0.822766
0.0197452 0.320897 0.684413
0.0196384 0.300816 0.69012
0.0198672 0.257313 0.7037
0.34464 0.0959945 0.745922
0.559716 0.11986 0.750042
0.70663 0.144015 0.77586
0.791897 0.143435 0.788586
0.798886 0.161059 0.796399
0.801572 0.166796 0.797391
0.0324102 0.559533 0.70631
0.0341039 0.551781 0.709102
0.0346838 0.53933 0.715541
0.169833 0.536492 0.768841
0.593179 0.448234 0.827878
0.756237 0.45098 0.816373
0.8392 0.444434 0.817929
0.8374 0.427955 0.81181
0.832898 0.398489 0.794018
0.0978561 0.749874 0.750332
0.0926375 0.745602 0.750042
0.0942397 0.740017 0.750988
0.160143 0.73106 0.761913
0.433921 0.722286 0.798337
0.740948 0.686534 0.835187
0.855726 0.684398 0.825055
0.888624 0.671092 0.812604
0.884123 0.639292 0.786374
0.319951 0.856718 0.802152
0.312764 0.8542 0.799222
0.311711 0.84831 0.79324
0.316838 0.839246 0.784405
0.38674 0.833143 0.781933
0.65359 0.827848 0.792264
0.818738 0.825849 0.8047
0.902205 0.811276 0.795438
0.905959 0.796048 0.779095
0.462135 0.899886 0.824262
0.43859 0.901411 0.823056
0.420249 0.898817 0.818723
0.40325 0.894057 0.811719
0.407889 0.886046 0.798825
0.601144 0.883772 0.80029
0.756283 0.885863 0.801022
0.860426 0.887755 0.787259
0.903792 0.880735 0.780987
0.464973 0.901366 0.824247
0.453483 0.902953 0.822171
0.4439 0.902449 0.819043
0.428824 0.901869 0.812482
0.397589 0.901106 0.800153
0.486992 0.893141 0.785275
0.685588 0.897871 0.785199
0.810376 0.894331 0.77261
0.892119 0.902815 0.771832
0.365225 0.0758068 0.779904
0.400671 0.0766461 0.780392
0.461448 0.0764935 0.780438
0.555383 0.092195 0.790875
0.670741 0.139605 0.815732
0.763272 0.145037 0.83653
0.804379 0.190265 0.8533
0.804883 0.198352 0.853498
0.804486 0.202747 0.852888
0.315648 0.0738231 0.778408
0.363668 0.075761 0.779934
0.435737 0.0770581 0.780804
0.536324 0.0863661 0.787839
0.658228 0.133486 0.813031
0.75787 0.149065 0.835416
0.804456 0.191791 0.853346
0.805035 0.200549 0.853468
0.805066 0.206119 0.853223
0.230686 0.167056 0.783169
0.272908 0.0948806 0.78175
0.367819 0.0754864 0.778256
0.49398 0.0767987 0.779568
0.633097 0.121187 0.806363
0.74873 0.157687 0.835279
0.804669 0.194873 0.853452
0.805127 0.20589 0.853315
0.80557 0.211231 0.853376
0.0317693 0.283726 0.763043
0.0443732 0.258793 0.767056
0.0906844 0.202884 0.768658
0.383124 0.0755474 0.776104
0.571633 0.099733 0.790356
0.725811 0.172564 0.829602
0.804517 0.19855 0.849958
0.805417 0.213687 0.85211
0.806455 0.221088 0.85304
0.0693675 0.558755 0.774441
0.0676127 0.550759 0.777462
0.0663615 0.53753 0.783963
0.235218 0.509987 0.829602
0.615351 0.409064 0.861738
0.760647 0.418616 0.857557
0.830732 0.416632 0.865644
0.82977 0.404334 0.864134
0.826596 0.37998 0.85864
0.160098 0.762066 0.813062
0.159548 0.757137 0.812833
0.160845 0.747814 0.814069
0.223239 0.727138 0.821363
0.455848 0.711574 0.86334
0.75729 0.653513 0.905333
0.851987 0.653651 0.895155
0.884596 0.64538 0.890349
0.880781 0.619791 0.882414
0.308904 0.857496 0.839658
0.300877 0.853529 0.837568
0.301396 0.846754 0.835325
0.314473 0.837156 0.834867
0.411994 0.828519 0.84683
0.647349 0.819013 0.865202
0.824903 0.798444 0.889097
0.905806 0.791653 0.877226
0.908858 0.778576 0.867338
0.448218 0.901976 0.844633
0.432929 0.901274 0.843565
0.426795 0.898009 0.84123
0.42356 0.893019 0.836851
0.430045 0.885298 0.831235
0.616495 0.886015 0.839368
0.775647 0.888457 0.85272
0.885054 0.898161 0.874876
0.924849 0.88603 0.866285
0.499535 0.90837 0.844358
0.494835 0.908721 0.842145
0.492439 0.907851 0.83917
0.489937 0.90724 0.835813
0.484016 0.904997 0.829145
0.55053 0.903822 0.827924
0.725032 0.914275 0.843091
0.834836 0.931594 0.866804
0.925917 0.937331 0.865827
0.386023 0.0766155 0.780514
0.417594 0.0768597 0.780652
0.472068 0.0766918 0.780819
0.564416 0.0956436 0.793317
0.67602 0.141421 0.816403
0.760342 0.131594 0.831312
0.802976 0.178256 0.852659
0.805035 0.201877 0.853391
0.805158 0.206714 0.853315
0.343069 0.0751354 0.779461
0.384527 0.0766461 0.780591
0.447059 0.0765698 0.780301
0.545663 0.0895094 0.789425
0.664454 0.136004 0.814435
0.757046 0.137453 0.832135
0.803006 0.180407 0.852674
0.805097 0.204669 0.853346
0.805768 0.209354 0.853697
0.262867 0.134829 0.786465
0.294881 0.0733501 0.778088
0.388952 0.0767529 0.780667
0.505486 0.0798657 0.78294
0.639353 0.124163 0.808301
0.747631 0.147326 0.832349
0.803937 0.185122 0.853254
0.805905 0.208988 0.853864
0.805478 0.213962 0.853178
0.0867628 0.259815 0.790249
0.0881514 0.231098 0.781979
0.165179 0.180484 0.778439
0.406897 0.0766613 0.780545
0.581979 0.102068 0.797192
0.728679 0.169192 0.834195
0.804379 0.196979 0.853223
0.806409 0.216632 0.853803
0.806409 0.222629 0.85333
0.107866 0.548852 0.815137
0.100633 0.538079 0.814115
0.0895094 0.520073 0.813443
0.237278 0.471351 0.835004
0.600458 0.361517 0.855039
0.746746 0.378256 0.851026
0.821729 0.38027 0.861189
0.823972 0.367681 0.860761
0.821027 0.345678 0.859663
0.248463 0.75285 0.846647
0.242939 0.745724 0.845029
0.232837 0.733333 0.842283
0.247517 0.708812 0.84065
0.447471 0.687175 0.864866
0.755688 0.622538 0.904219
0.84741 0.624521 0.899718
0.877333 0.617227 0.898894
0.871748 0.590249 0.894331
0.378836 0.851331 0.864439
0.372274 0.847761 0.864637
0.361456 0.841367 0.863279
0.369574 0.830289 0.862394
0.438911 0.818463 0.86595
0.640009 0.80766 0.88957
0.830076 0.777325 0.915801
0.902144 0.771756 0.910842
0.902907 0.759213 0.910246
0.487312 0.898207 0.860838
0.481865 0.895262 0.861799
0.478019 0.891615 0.862852
0.476692 0.885573 0.864256
0.483345 0.876524 0.866224
0.617197 0.879515 0.877913
0.768841 0.879377 0.895933
0.890303 0.87422 0.917144
0.924254 0.866728 0.9178
0.531395 0.911009 0.857435
0.532296 0.911086 0.857481
0.533654 0.911238 0.857679
0.536629 0.911559 0.858183
0.541619 0.911604 0.858228
0.581384 0.913359 0.861097
0.738842 0.924575 0.882872
0.851148 0.940993 0.912291
0.941497 0.951263 0.933135
