bundles/resolve-cinematic-luts/Phantom Luts/P4k & P6K Phntm Film LUTs - V6/P6k/Gen 4 Colour/P6k Eterna Gen4-Legacy.cube
TITLE "Generated by Resolve"
LUT_3D_SIZE 33
0.0264286 0.053254 0.0532235
0.0265812 0.0531624 0.0529183
0.035523 0.0538796 0.0543984
0.0489967 0.0547494 0.057084
0.0678569 0.0555581 0.0586404
0.0855421 0.0567178 0.0596017
0.102037 0.057908 0.0602426
0.118349 0.0594644 0.0616617
0.13695 0.0616617 0.0645151
0.159197 0.0644236 0.0692302
0.184329 0.0676127 0.0751812
0.212543 0.0712596 0.0820935
0.245411 0.0754406 0.0906844
0.28043 0.0803082 0.0999771
0.317037 0.0850843 0.109758
0.354665 0.090013 0.1196
0.392233 0.0948196 0.129046
0.429984 0.100267 0.139132
0.468513 0.106966 0.149645
0.497963 0.116625 0.160662
0.538338 0.124865 0.171328
0.583505 0.134142 0.18468
0.628962 0.140948 0.198077
0.67483 0.151614 0.212192
0.713817 0.164691 0.225727
0.740642 0.174456 0.237964
0.743267 0.175113 0.240894
0.746258 0.176074 0.24387
0.750973 0.176715 0.246845
0.756069 0.176608 0.250401
0.762539 0.176562 0.254337
0.768963 0.176303 0.258488
0.775708 0.175952 0.262592
0.0271 0.052903 0.0519265
0.026688 0.0531167 0.0527352
0.0302434 0.0532845 0.0526436
0.0433356 0.054963 0.0537118
0.0601511 0.0563973 0.0543526
0.0799115 0.057969 0.0554208
0.0983444 0.0593576 0.0567025
0.11545 0.0609598 0.0585946
0.134417 0.0630655 0.0615244
0.15668 0.0657511 0.0654307
0.182712 0.0690166 0.0709697
0.211017 0.0728466 0.0772106
0.243397 0.0767376 0.084596
0.278477 0.0812085 0.0937362
0.316381 0.085832 0.10425
0.355245 0.0908827 0.114687
0.394278 0.0957046 0.124773
0.433478 0.100801 0.134722
0.469841 0.107637 0.145281
0.500084 0.116243 0.156481
0.540291 0.124147 0.167041
0.584192 0.132509 0.179522
0.631861 0.142306 0.1935
0.678019 0.153841 0.207965
0.717189 0.166857 0.222736
0.739025 0.175723 0.232242
0.742779 0.177752 0.23508
0.746548 0.179339 0.237934
0.751278 0.179934 0.240848
0.756802 0.180316 0.244434
0.76321 0.180209 0.248051
0.769711 0.179873 0.251896
0.776059 0.179538 0.255375
0.0273289 0.0536049 0.0524147
0.0268559 0.0538643 0.0532235
0.0273289 0.0534524 0.0529183
0.0369421 0.0561532 0.0541695
0.0510719 0.058381 0.0547341
0.0705119 0.0600443 0.0554971
0.0907301 0.0614328 0.05626
0.109499 0.0624552 0.0575113
0.129366 0.0638895 0.0597238
0.151781 0.0658732 0.0628214
0.177188 0.068101 0.0670939
0.205188 0.0709697 0.0724193
0.237385 0.0746319 0.0789197
0.272679 0.078233 0.0869612
0.310857 0.0829938 0.0970779
0.351034 0.0878309 0.107668
0.392065 0.092958 0.118486
0.433677 0.0986648 0.129549
0.469657 0.105715 0.140597
0.502022 0.114122 0.151965
0.542672 0.121691 0.163348
0.586206 0.129976 0.175372
0.6336 0.139788 0.189059
0.677913 0.151232 0.203113
0.716121 0.164736 0.21796
0.734173 0.172656 0.226261
0.738918 0.175494 0.229511
0.744625 0.178363 0.232624
0.750957 0.180438 0.236515
0.75819 0.182544 0.240467
0.765423 0.183734 0.244572
0.771252 0.183368 0.247791
0.777203 0.182834 0.251347
0.0297398 0.0602731 0.0568551
0.0290227 0.0611582 0.0560464
0.0304875 0.059678 0.0552834
0.035935 0.0605173 0.0557565
0.0463111 0.0625925 0.0562295
0.0641947 0.0641642 0.056611
0.0849622 0.0654765 0.0572824
0.105806 0.0663005 0.0586099
0.126513 0.0668345 0.0607462
0.149523 0.0668193 0.0628367
0.175265 0.0683452 0.0670176
0.203647 0.0705272 0.0713054
0.23418 0.0733806 0.076051
0.268589 0.0768139 0.0827344
0.304906 0.0800946 0.090486
0.345052 0.0846113 0.100282
0.386664 0.0896773 0.111299
0.429038 0.0949264 0.12224
0.465156 0.102495 0.134447
0.501076 0.110918 0.146624
0.542992 0.118456 0.158511
0.587488 0.126543 0.170916
0.634058 0.135943 0.184466
0.678798 0.148074 0.199176
0.715724 0.161563 0.213703
0.728374 0.167636 0.219806
0.73344 0.170794 0.222858
0.738643 0.173159 0.225879
0.744411 0.175586 0.229297
0.75108 0.177325 0.2327
0.758114 0.178347 0.236271
0.765682 0.179385 0.240223
0.772992 0.180056 0.244205
0.0340124 0.0765087 0.0665599
0.0328527 0.0782025 0.0638895
0.0347906 0.0784161 0.060441
0.0423133 0.0760662 0.0604562
0.0527657 0.0766155 0.0612345
0.0683604 0.077348 0.0611276
0.0885023 0.0770275 0.0607919
0.107729 0.0762188 0.0608988
0.127489 0.0752422 0.061799
0.150011 0.0734112 0.063508
0.175921 0.0725719 0.0669413
0.203922 0.0722515 0.0700694
0.234257 0.0734875 0.0746014
0.267369 0.0762951 0.080415
0.30219 0.0792554 0.0871901
0.340337 0.0829328 0.095079
0.380896 0.0873426 0.104524
0.423148 0.0923781 0.11519
0.459327 0.100114 0.127733
0.496941 0.108019 0.140368
0.5411 0.115587 0.152911
0.586465 0.123705 0.165591
0.633295 0.133242 0.1794
0.676799 0.144244 0.193606
0.714275 0.158145 0.208621
0.722118 0.162463 0.212497
0.727535 0.165606 0.215869
0.731609 0.167956 0.218204
0.736568 0.170504 0.221088
0.742794 0.171954 0.224033
0.749966 0.173312 0.227649
0.757488 0.174273 0.231006
0.765148 0.174853 0.234714
0.0363317 0.0958419 0.0754406
0.0352636 0.0984054 0.0718395
0.0353857 0.099855 0.0655375
0.0417945 0.0982528 0.0633249
0.053666 0.0955978 0.0640116
0.0724651 0.0961318 0.0651713
0.0922866 0.0965286 0.0654307
0.113512 0.0946212 0.0655222
0.134844 0.0911574 0.0666514
0.157168 0.0875868 0.067628
0.181796 0.0847639 0.0688792
0.209598 0.0827039 0.0713207
0.239521 0.0806287 0.0745403
0.271992 0.0804761 0.0796521
0.305974 0.0814374 0.0856336
0.341695 0.0831464 0.0918135
0.37998 0.0869306 0.100175
0.41912 0.0909285 0.109804
0.453147 0.0977798 0.120394
0.49192 0.105547 0.133043
0.535103 0.113024 0.145144
0.581643 0.121279 0.158175
0.628733 0.130877 0.172061
0.671839 0.142016 0.186404
0.705455 0.153903 0.199496
0.717571 0.159609 0.205341
0.720485 0.161593 0.206973
0.724392 0.163897 0.209094
0.728618 0.165942 0.211749
0.733761 0.16733 0.214023
0.740642 0.16846 0.216938
0.748089 0.169055 0.220279
0.755795 0.169055 0.223178
0.038941 0.117388 0.0844587
0.0370031 0.120577 0.0793011
0.0358282 0.123095 0.0726177
0.0392615 0.123033 0.0659342
0.049546 0.120485 0.064622
0.0682078 0.118822 0.0656748
0.096376 0.117693 0.0669566
0.117418 0.117342 0.0663462
0.142428 0.113756 0.0675975
0.167346 0.107088 0.0698558
0.192035 0.10074 0.0714275
0.217975 0.0973526 0.0733196
0.246509 0.0955062 0.0763104
0.277989 0.0944991 0.0805829
0.310994 0.0934768 0.0851301
0.345525 0.0923934 0.0900893
0.383001 0.0940108 0.0977035
0.421408 0.0961471 0.105653
0.45478 0.100938 0.115312
0.489891 0.106844 0.126802
0.529259 0.113405 0.138628
0.57232 0.120897 0.149554
0.616785 0.129458 0.162051
0.659083 0.139925 0.175113
0.691356 0.150851 0.187198
0.706691 0.157748 0.193774
0.710369 0.159899 0.195773
0.71368 0.161761 0.197543
0.717372 0.163546 0.199405
0.721965 0.164996 0.201556
0.727352 0.166079 0.20383
0.732723 0.166506 0.206012
0.739193 0.166918 0.20856
0.0450294 0.137041 0.0917525
0.0417639 0.141329 0.0866865
0.03888 0.145357 0.0803693
0.0384222 0.147372 0.0721752
0.0432898 0.147005 0.0666514
0.0573739 0.144152 0.0657359
0.0841077 0.142657 0.0683757
0.119173 0.14078 0.070634
0.143084 0.139925 0.0698253
0.172808 0.135897 0.0708782
0.203052 0.126802 0.0754559
0.232258 0.118318 0.0793469
0.261341 0.114748 0.0825666
0.292729 0.114153 0.086305
0.325139 0.114199 0.0910506
0.360143 0.114275 0.0962234
0.397375 0.115145 0.102052
0.436881 0.11754 0.10927
0.475837 0.121202 0.118059
0.511269 0.127062 0.12842
0.550912 0.131762 0.138079
0.590921 0.136767 0.148791
0.630167 0.142275 0.159121
0.667185 0.150118 0.171069
0.696147 0.159014 0.181994
0.710475 0.164828 0.187701
0.712184 0.166323 0.187793
0.71429 0.168017 0.188388
0.716472 0.168658 0.189456
0.71928 0.168978 0.190875
0.722713 0.16878 0.19237
0.727489 0.168658 0.193622
0.733455 0.168917 0.195422
0.0477302 0.160403 0.103243
0.0439002 0.16556 0.098558
0.039826 0.170397 0.0911269
0.0380713 0.173739 0.0822614
0.0388037 0.175051 0.0730449
0.0466011 0.173617 0.0671855
0.0670329 0.171374 0.0671244
0.101884 0.17052 0.0716564
0.145464 0.168505 0.075761
0.173754 0.167285 0.0747082
0.207904 0.164019 0.0744945
0.245472 0.153841 0.0827039
0.281056 0.144274 0.0896925
0.313787 0.141283 0.0945449
0.347616 0.142855 0.0995651
0.383749 0.145464 0.105226
0.421775 0.148684 0.111192
0.462638 0.153796 0.119203
0.504585 0.159579 0.127703
0.546349 0.16527 0.136568
0.588113 0.170977 0.145632
0.630426 0.177203 0.155337
0.671992 0.183612 0.165774
0.709606 0.191531 0.177554
0.739345 0.200381 0.189624
0.750408 0.204425 0.194812
0.749905 0.204211 0.194705
0.749691 0.204044 0.194675
0.749737 0.203876 0.19469
0.750225 0.203235 0.194995
0.751614 0.202426 0.195499
0.753628 0.201312 0.196124
0.756848 0.200427 0.196735
0.0503395 0.188907 0.116045
0.0458381 0.1944 0.112001
0.0407721 0.200107 0.104723
0.0377508 0.204715 0.0948501
0.0362097 0.207538 0.0832837
0.0384833 0.20708 0.0729686
0.0506752 0.205173 0.0671397
0.0796674 0.204547 0.0688334
0.122332 0.204547 0.0754711
0.178058 0.202716 0.0811017
0.211734 0.202045 0.0802472
0.25156 0.199771 0.0786297
0.296849 0.192142 0.0891737
0.338872 0.182971 0.100099
0.377295 0.181155 0.108171
0.41503 0.184039 0.114611
0.454627 0.189395 0.120882
0.495796 0.196017 0.128237
0.538186 0.202487 0.135775
0.58117 0.209033 0.143526
0.624125 0.215305 0.151522
0.668162 0.22182 0.160708
0.710399 0.228565 0.170809
0.747845 0.236652 0.18265
0.778653 0.246403 0.196216
0.790249 0.250996 0.201907
0.790295 0.251255 0.201968
0.790326 0.251469 0.201953
0.790234 0.251392 0.201892
0.790249 0.250874 0.201877
0.7906 0.25008 0.201999
0.79144 0.249241 0.202274
0.792691 0.248539 0.202747
0.0522164 0.22295 0.130587
0.0467842 0.22884 0.12636
0.041825 0.235401 0.120287
0.0389258 0.240848 0.110933
0.0375372 0.245258 0.0985428
0.0375982 0.246799 0.086183
0.0387579 0.245426 0.0734417
0.0542 0.24271 0.0661784
0.0943618 0.245029 0.0708019
0.145388 0.246098 0.0784772
0.216938 0.245716 0.0852064
0.258366 0.246326 0.08542
0.306752 0.245655 0.0809186
0.356512 0.242924 0.0908217
0.405768 0.237781 0.105562
0.450385 0.234958 0.117494
0.491112 0.237476 0.127031
0.53164 0.242451 0.134844
0.573327 0.249149 0.14197
0.615061 0.256794 0.148989
0.658335 0.264103 0.156939
0.700755 0.271336 0.165866
0.741909 0.278614 0.176699
0.778103 0.286534 0.188739
0.808225 0.295598 0.202686
0.821469 0.300618 0.210117
0.823713 0.302052 0.211322
0.823667 0.302083 0.211292
0.823453 0.301747 0.211215
0.823301 0.301259 0.21117
0.823148 0.300542 0.211139
0.823163 0.299596 0.21117
0.82359 0.298939 0.211368
0.0540169 0.263951 0.146487
0.0487526 0.271473 0.142458
0.0434424 0.278874 0.136629
0.0407111 0.285374 0.12842
0.0389563 0.291249 0.117662
0.0387121 0.29546 0.10396
0.0388952 0.297124 0.0890211
0.0404669 0.294743 0.0742962
0.0591135 0.292912 0.0664073
0.110018 0.297688 0.071458
0.173342 0.300114 0.0799268
0.261189 0.300771 0.085832
0.314824 0.302098 0.08748
0.367514 0.302022 0.0801556
0.418753 0.303136 0.085771
0.471 0.301854 0.100221
0.522057 0.300267 0.117494
0.565423 0.302831 0.129976
0.606226 0.307836 0.141451
0.646708 0.312276 0.152148
0.685908 0.318242 0.161685
0.72546 0.324361 0.172366
0.764233 0.330526 0.184421
0.799237 0.337865 0.197116
0.828855 0.346532 0.211383
0.844739 0.35227 0.220462
0.848646 0.35404 0.222675
0.848585 0.354025 0.222614
0.84831 0.353491 0.222461
0.848051 0.352728 0.222354
0.847761 0.35172 0.222202
0.847745 0.351003 0.222217
0.847883 0.350439 0.222263
0.055436 0.315526 0.165835
0.0487984 0.324285 0.161715
0.042649 0.33254 0.155734
0.0392309 0.340078 0.148486
0.0361639 0.346883 0.13875
0.0361791 0.352361 0.126421
0.0368658 0.356252 0.110109
0.0387274 0.355962 0.0910506
0.0426184 0.3514 0.0728771
0.0700999 0.351583 0.0655222
0.132357 0.357763 0.0702983
0.21033 0.360052 0.0787671
0.311513 0.359838 0.0829633
0.372747 0.361776 0.0877699
0.427482 0.362966 0.0785229
0.479576 0.365393 0.0808728
0.530083 0.368048 0.0959182
0.582742 0.367453 0.118685
0.62742 0.370581 0.135393
0.667277 0.375296 0.149477
0.705303 0.379568 0.163073
0.74258 0.384421 0.177417
0.778698 0.389349 0.191836
0.812955 0.394858 0.207034
0.843534 0.4009 0.222293
0.864042 0.406744 0.233478
0.870481 0.409079 0.237385
0.870436 0.408911 0.237339
0.8701 0.408118 0.23714
0.869657 0.406928 0.236835
0.869154 0.405844 0.236408
0.868574 0.404456 0.235935
0.868177 0.403098 0.235554
0.053727 0.374838 0.191135
0.0476539 0.383337 0.186526
0.0423285 0.391653 0.180514
0.037171 0.399786 0.173053
0.0331121 0.407431 0.163973
0.0306554 0.414099 0.152041
0.0299229 0.419974 0.136049
0.0313573 0.423163 0.115831
0.0340124 0.420615 0.0915389
0.0402075 0.415137 0.0688487
0.0843214 0.417517 0.0632486
0.161151 0.421683 0.0688792
0.25507 0.422827 0.0766766
0.365591 0.42208 0.0830549
0.429847 0.424033 0.0930648
0.483589 0.426703 0.0843366
0.535225 0.430014 0.0885328
0.581552 0.433936 0.105501
0.632609 0.434531 0.129641
0.676677 0.436423 0.150164
0.717342 0.43975 0.167971
0.754726 0.443961 0.183505
0.791562 0.448096 0.199405
0.825238 0.452689 0.215702
0.855222 0.458183 0.230869
0.8804 0.462364 0.245548
0.889082 0.46389 0.251438
0.888991 0.463294 0.251362
0.888457 0.462135 0.250843
0.887922 0.460609 0.25034
0.887663 0.459388 0.250095
0.887175 0.457755 0.249653
0.886442 0.455909 0.248936
0.0475319 0.439567 0.221973
0.0403906 0.448402 0.217914
0.0348821 0.456626 0.21265
0.0297398 0.464332 0.205585
0.0260014 0.47158 0.196933
0.0234684 0.478355 0.185962
0.0227054 0.484443 0.170153
0.0239414 0.48867 0.149248
0.026276 0.490211 0.123308
0.0294652 0.485863 0.0936141
0.0456092 0.480949 0.0663462
0.111376 0.483513 0.0633097
0.205203 0.485222 0.0713512
0.311666 0.485481 0.0805066
0.421454 0.483757 0.0928664
0.484703 0.485588 0.1084
0.535973 0.48896 0.104585
0.584695 0.491981 0.110704
0.629847 0.495033 0.128466
0.677272 0.496147 0.150591
0.72224 0.496681 0.173449
0.763622 0.498436 0.193957
0.801282 0.501762 0.211383
0.834424 0.505653 0.226322
0.865049 0.509163 0.24213
0.891432 0.513313 0.257542
0.903319 0.515175 0.264897
0.905135 0.514839 0.266194
0.904891 0.513558 0.265797
0.904433 0.511803 0.265202
0.903548 0.509804 0.264256
0.903151 0.508186 0.263783
0.902342 0.50631 0.262852
0.0486152 0.503227 0.259434
0.0421607 0.511467 0.255955
0.0352026 0.51989 0.251667
0.028275 0.527443 0.245609
0.0227817 0.534539 0.238071
0.0204929 0.540948 0.228031
0.0204318 0.54638 0.214145
0.0214694 0.550958 0.194247
0.024094 0.553796 0.167529
0.0273442 0.552911 0.135683
0.0321965 0.545922 0.0985122
0.0686809 0.542184 0.0696269
0.158068 0.545068 0.0722362
0.264561 0.545113 0.0835737
0.377508 0.545007 0.095552
0.478279 0.542641 0.111254
0.53814 0.543465 0.129046
0.586374 0.546288 0.128969
0.632425 0.548928 0.138048
0.67599 0.551125 0.156954
0.720592 0.551568 0.179461
0.765835 0.551644 0.203693
0.808392 0.552132 0.226139
0.842802 0.554269 0.243992
0.871565 0.557687 0.258152
0.898238 0.560967 0.272648
0.913191 0.562829 0.281498
0.91783 0.562753 0.284062
0.917693 0.561303 0.283742
0.917433 0.559548 0.283207
0.916762 0.557458 0.282277
0.916014 0.5552 0.281209
0.915175 0.553246 0.279911
0.0564279 0.565087 0.303487
0.0515145 0.572641 0.300984
0.0453803 0.580118 0.297322
0.039353 0.587457 0.292454
0.0344396 0.594202 0.286076
0.0311131 0.600076 0.277134
0.0291905 0.604944 0.26421
0.0286107 0.608881 0.246036
0.0299687 0.611872 0.221561
0.0333257 0.613123 0.18854
0.038529 0.608118 0.150393
0.0516365 0.599664 0.104616
0.116823 0.599832 0.0852369
0.221927 0.602152 0.0916304
0.331991 0.602808 0.103593
0.440406 0.601526 0.114931
0.530953 0.599008 0.131029
0.586404 0.598672 0.150942
0.632227 0.600443 0.155612
0.676173 0.602045 0.167956
0.719097 0.603662 0.190265
0.761501 0.603601 0.212802
0.805264 0.602625 0.23711
0.846494 0.601419 0.260014
0.87776 0.602045 0.278523
0.90341 0.60473 0.29218
0.921523 0.607187 0.303395
0.926741 0.607248 0.305989
0.926116 0.605661 0.304555
0.925689 0.60351 0.302998
0.925322 0.601236 0.301656
0.924956 0.599145 0.30042
0.924376 0.596918 0.299077
0.0702983 0.622538 0.349081
0.0671397 0.629496 0.347265
0.0621042 0.636667 0.344244
0.0566873 0.643427 0.340307
0.0519417 0.649836 0.335088
0.0489662 0.655238 0.327031
0.0474098 0.659739 0.315526
0.0465553 0.663264 0.29926
0.0463874 0.666026 0.276921
0.0477302 0.667796 0.246586
0.0520943 0.665537 0.208316
0.0616465 0.656962 0.162173
0.0928206 0.649943 0.116197
0.180423 0.655192 0.108186
0.293309 0.656626 0.11577
0.396521 0.65687 0.125383
0.498451 0.655528 0.135927
0.578408 0.652354 0.152087
0.630304 0.651057 0.174273
0.674098 0.651987 0.186587
0.717266 0.652445 0.203586
0.758816 0.65272 0.226749
0.800183 0.651881 0.249271
0.841001 0.650187 0.273655
0.878523 0.647684 0.297581
0.906798 0.648127 0.314672
0.927245 0.650034 0.328283
0.933669 0.649866 0.331746
0.933669 0.648325 0.330098
0.933059 0.646204 0.327916
0.932662 0.643626 0.325887
0.932326 0.641443 0.324163
0.93196 0.639307 0.32253
0.08925 0.67718 0.392844
0.0873426 0.683558 0.39115
0.0834974 0.690318 0.3888
0.0786145 0.696681 0.385214
0.0743267 0.702602 0.380407
0.0723583 0.707744 0.373999
0.0707103 0.711788 0.364141
0.0706645 0.714611 0.350179
0.0708629 0.716915 0.3308
0.0724041 0.718517 0.304479
0.075639 0.717296 0.26807
0.0828107 0.710826 0.22472
0.0984207 0.699992 0.17113
0.155779 0.700008 0.13695
0.255528 0.706401 0.134264
0.363729 0.707179 0.141146
0.457237 0.707378 0.149844
0.551995 0.705089 0.159548
0.624445 0.702388 0.176074
0.671824 0.700328 0.198459
0.712886 0.699992 0.217258
0.754879 0.699443 0.241764
0.795911 0.69865 0.266209
0.835157 0.696941 0.28896
0.872221 0.694911 0.3131
0.9066 0.691783 0.338674
0.928847 0.692119 0.354055
0.93904 0.692058 0.360525
0.939422 0.690349 0.35877
0.939162 0.688258 0.356527
0.938766 0.685832 0.35407
0.93843 0.683207 0.351751
0.938064 0.68069 0.349798
0.115572 0.728756 0.435096
0.114763 0.734554 0.433539
0.111711 0.740536 0.431281
0.107927 0.746654 0.42884
0.104143 0.752377 0.424796
0.10161 0.756863 0.418814
0.100359 0.760327 0.410254
0.100221 0.76318 0.398138
0.100435 0.765255 0.381537
0.101701 0.766506 0.358801
0.104097 0.765698 0.327047
0.109178 0.761532 0.286259
0.118929 0.751797 0.236515
0.152071 0.744991 0.186481
0.231891 0.751965 0.16643
0.332448 0.756481 0.163165
0.426627 0.757122 0.168109
0.514778 0.756603 0.176776
0.601343 0.753933 0.186313
0.668025 0.749737 0.202274
0.712337 0.746899 0.225788
0.750759 0.745983 0.254337
0.790997 0.744717 0.283619
0.829664 0.74377 0.308919
0.865415 0.742397 0.332067
0.899611 0.739223 0.356252
0.927596 0.735241 0.380835
0.941451 0.734218 0.392355
0.94345 0.732235 0.391318
0.943328 0.73019 0.388922
0.943084 0.72781 0.385992
0.942779 0.725078 0.383032
0.942458 0.722408 0.380484
0.146426 0.77879 0.475761
0.145495 0.783368 0.474037
0.142962 0.788525 0.47216
0.139513 0.793576 0.469871
0.135668 0.798566 0.466163
0.13344 0.802579 0.46099
0.132311 0.805676 0.453422
0.132067 0.80795 0.442741
0.132357 0.809537 0.428748
0.133165 0.810788 0.409277
0.134646 0.810544 0.38143
0.137758 0.807858 0.345449
0.144274 0.800565 0.301961
0.165347 0.7935 0.251926
0.226368 0.79556 0.218555
0.312093 0.802762 0.207553
0.403677 0.804639 0.206958
0.48571 0.804105 0.209613
0.566979 0.801816 0.215503
0.646372 0.798474 0.222507
0.709606 0.794018 0.237629
0.751431 0.791104 0.264012
0.788617 0.789899 0.301839
0.825833 0.788739 0.331746
0.860685 0.787503 0.356161
0.892775 0.785885 0.377997
0.921599 0.781994 0.401877
0.942 0.77731 0.424201
0.94548 0.774868 0.426307
0.945586 0.771984 0.423499
0.945815 0.769192 0.421317
0.94583 0.766171 0.418875
0.945937 0.763287 0.416739
0.183856 0.819654 0.512413
0.184115 0.823041 0.510567
0.182559 0.826871 0.508766
0.180255 0.831189 0.506477
0.177737 0.834989 0.503075
0.175448 0.837995 0.497963
0.174304 0.840558 0.491112
0.174304 0.842405 0.482109
0.174609 0.843915 0.469825
0.174807 0.84477 0.453193
0.175647 0.844541 0.430457
0.178058 0.842817 0.401907
0.182071 0.837797 0.363546
0.196262 0.832486 0.317845
0.245914 0.834318 0.281361
0.314488 0.838468 0.259007
0.39469 0.8421 0.254902
0.474052 0.841718 0.257145
0.547158 0.84033 0.260456
0.622599 0.837552 0.266743
0.696162 0.834775 0.274647
0.755093 0.831556 0.290318
0.79588 0.828595 0.322133
0.829831 0.827192 0.358694
0.862745 0.826169 0.387472
0.892714 0.825437 0.410727
0.918914 0.824216 0.430732
0.940536 0.820539 0.453742
0.946883 0.816587 0.460975
0.946624 0.813779 0.457496
0.946624 0.811124 0.454551
0.946471 0.808255 0.45153
0.946548 0.805341 0.448905
0.208286 0.857816 0.546792
0.209491 0.860731 0.544991
0.208774 0.863874 0.54284
0.207202 0.867216 0.540764
0.204761 0.870024 0.53695
0.203189 0.872404 0.532113
0.202518 0.874266 0.526238
0.20238 0.875685 0.518181
0.202701 0.877012 0.507485
0.202838 0.877653 0.493126
0.203479 0.877333 0.475151
0.20502 0.876204 0.451682
0.208164 0.873365 0.420035
0.220493 0.871122 0.380606
0.262654 0.873533 0.343923
0.315328 0.873503 0.311238
0.386236 0.878233 0.301976
0.456291 0.878447 0.30251
0.527276 0.876829 0.306645
0.595407 0.874937 0.31252
0.667567 0.872602 0.320912
0.736217 0.870283 0.330831
0.79266 0.867399 0.349111
0.83267 0.864561 0.381079
0.863386 0.863157 0.416236
0.892195 0.862181 0.443671
0.916884 0.861295 0.465248
0.936568 0.860212 0.483879
0.945113 0.857374 0.493172
0.94583 0.854353 0.490867
0.945663 0.851575 0.486839
0.94548 0.8486 0.483162
0.945693 0.845701 0.4804
0.228672 0.890791 0.577646
0.23032 0.892485 0.575494
0.231037 0.894881 0.573541
0.230411 0.897231 0.570993
0.228626 0.899062 0.567117
0.227054 0.900618 0.562432
0.226535 0.901671 0.55671
0.226947 0.902342 0.549905
0.227848 0.902907 0.541314
0.228626 0.903288 0.529854
0.229297 0.903517 0.515053
0.23061 0.903456 0.495323
0.233753 0.902983 0.470115
0.249592 0.90428 0.43856
0.284215 0.9066 0.404334
0.327047 0.906081 0.368292
0.385382 0.907759 0.350134
0.448493 0.908919 0.348318
0.511299 0.908293 0.352636
0.57583 0.906828 0.359457
0.640421 0.905241 0.368048
0.709209 0.903181 0.379202
0.77377 0.901381 0.392554
0.82797 0.898939 0.41355
0.866041 0.895979 0.444678
0.893706 0.894804 0.477699
0.91696 0.893996 0.503059
0.934783 0.893309 0.522988
0.94432 0.892332 0.534661
0.945296 0.889876 0.532891
0.944762 0.887221 0.527352
0.944732 0.88481 0.523384
0.944869 0.882307 0.519829
0.238972 0.907759 0.59762
0.240894 0.90837 0.595102
0.241733 0.908995 0.592096
0.241398 0.910063 0.589441
0.24004 0.911482 0.586099
0.238758 0.912749 0.582071
0.238224 0.913802 0.57673
0.238575 0.914626 0.570443
0.241901 0.914214 0.562448
0.242664 0.914794 0.552148
0.243427 0.915145 0.538918
0.244526 0.915434 0.521859
0.249226 0.916579 0.500298
0.268498 0.921538 0.477714
0.304646 0.928649 0.45478
0.345266 0.931182 0.427619
0.389838 0.929274 0.399878
0.448997 0.930526 0.395422
0.506279 0.930037 0.398856
0.563806 0.928786 0.406928
0.622919 0.927687 0.41648
0.683818 0.92668 0.427329
0.749187 0.925628 0.440803
0.809491 0.924819 0.456916
0.859922 0.923476 0.480186
0.89601 0.920989 0.511009
0.918196 0.919402 0.54136
0.935027 0.918563 0.564691
0.944732 0.917845 0.580636
0.946197 0.916518 0.581033
0.945556 0.914702 0.575113
0.945235 0.912917 0.570413
0.94519 0.911223 0.566247
0.241505 0.910979 0.606516
0.242512 0.910918 0.603494
0.243107 0.911025 0.600076
0.242405 0.911559 0.59675
0.240757 0.912428 0.593057
0.238941 0.913405 0.58883
0.237781 0.914229 0.583444
0.237964 0.914778 0.576867
0.239185 0.915007 0.568933
0.241016 0.915236 0.55906
0.242863 0.915602 0.546624
0.244678 0.916197 0.530953
0.248707 0.91751 0.510979
0.263188 0.92192 0.489525
0.29926 0.930922 0.469947
0.344717 0.93785 0.452232
0.3906 0.939956 0.435615
0.443824 0.940566 0.427787
0.50222 0.941482 0.433021
0.556741 0.940459 0.442863
0.610986 0.939147 0.455406
0.666407 0.937819 0.468376
0.726162 0.936751 0.482658
0.788266 0.935973 0.498909
0.844663 0.935729 0.51667
0.887526 0.93611 0.541695
0.918395 0.936294 0.575021
0.935637 0.93611 0.604776
0.945586 0.935714 0.62591
0.947509 0.934966 0.631525
0.947097 0.93402 0.626551
0.946624 0.932784 0.621378
0.94641 0.931487 0.61651
0.241321 0.910994 0.612131
0.241413 0.911208 0.609079
0.241352 0.911498 0.605951
0.240833 0.911986 0.602396
0.239704 0.912673 0.598856
0.238071 0.913603 0.594385
0.236851 0.914427 0.589258
0.236545 0.915068 0.583062
0.237018 0.915602 0.57499
0.238392 0.915923 0.565667
0.240345 0.916274 0.553613
0.242756 0.916655 0.53875
0.246021 0.917403 0.519722
0.256367 0.920424 0.498161
0.285206 0.928084 0.477119
0.329564 0.936416 0.458747
0.376898 0.940475 0.444038
0.427161 0.941924 0.436423
0.484306 0.942245 0.439445
0.539284 0.941329 0.448356
0.593149 0.940017 0.461387
0.646372 0.938735 0.475135
0.703456 0.937484 0.489357
