bundles/resolve-cinematic-luts/Phantom Luts/P4k & P6K Phntm Film LUTs - V6/P6k/Gen 4 Colour/P6k Bleach Gen4-Legacy.cube
TITLE "Generated by Resolve"
LUT_3D_SIZE 9
0.031754 0.0446632 0.0332494
0.0367895 0.0450752 0.0340429
0.0796674 0.0492714 0.0391241
0.153796 0.0537118 0.0469673
0.269291 0.0617227 0.054963
0.415686 0.0673686 0.0674601
0.564065 0.0755932 0.0820478
0.665736 0.096437 0.107988
0.77232 0.128908 0.143755
0.0334478 0.0523995 0.0366827
0.0426947 0.0568704 0.0377203
0.0937972 0.061799 0.040238
0.187716 0.0586709 0.0455177
0.305272 0.0611887 0.049546
0.461143 0.0629892 0.05626
0.581994 0.0745861 0.0720378
0.680461 0.0935836 0.0942245
0.764675 0.118685 0.118013
0.0375372 0.127245 0.0578317
0.0410925 0.134981 0.0408942
0.116045 0.142397 0.0495155
0.233738 0.139223 0.0431373
0.381613 0.121691 0.0640726
0.53431 0.130144 0.0766613
0.646067 0.159091 0.103563
0.742504 0.200946 0.138933
0.835462 0.254688 0.185748
0.0275883 0.236133 0.0779889
0.0285954 0.246998 0.0497292
0.0668498 0.258167 0.0319371
0.252018 0.295262 0.0529641
0.449241 0.310765 0.0454871
0.625132 0.337972 0.100847
0.741817 0.398245 0.168338
0.833051 0.456641 0.225513
0.896864 0.502037 0.263691
0.00976577 0.364706 0.10454
0.0100862 0.375204 0.0724498
0.0194247 0.374121 0.0185397
0.149767 0.420111 0.0322881
0.464424 0.518349 0.0834669
0.631846 0.56733 0.107515
0.758556 0.603922 0.184527
0.853635 0.632059 0.262272
0.910185 0.654749 0.311833
0.00570687 0.513466 0.168414
0.00650034 0.524346 0.136355
0.0130007 0.524254 0.0552834
0.125383 0.562463 0.0489967
0.420462 0.640467 0.125994
0.652033 0.687968 0.169375
0.754467 0.718074 0.223484
0.846433 0.741756 0.297581
0.914168 0.759121 0.382712
0.057908 0.682353 0.312779
0.0576486 0.686976 0.275944
0.0641947 0.683818 0.178882
0.184039 0.697383 0.134356
0.408515 0.730358 0.179339
0.627131 0.761608 0.226993
0.764218 0.801953 0.275273
0.840803 0.824247 0.361242
0.898634 0.841428 0.436377
0.0958114 0.770169 0.400656
0.0987411 0.769177 0.357443
0.123354 0.767895 0.28661
0.259907 0.770565 0.244739
0.432471 0.781674 0.265263
0.608942 0.79884 0.306676
0.747021 0.841123 0.37557
0.843397 0.871153 0.440528
0.893645 0.8851 0.513375
0.100755 0.778378 0.427985
0.106996 0.778714 0.375952
0.152834 0.781659 0.30692
0.300801 0.787762 0.286961
0.468315 0.791409 0.304921
0.622415 0.808804 0.353826
0.752071 0.847517 0.43183
0.841535 0.875731 0.480827
0.898558 0.890959 0.53904
0.0322728 0.0448005 0.0356909
0.0369421 0.0451972 0.0374151
0.0826734 0.0488899 0.0484169
0.167834 0.052781 0.058854
0.289677 0.0597696 0.0725261
0.443061 0.0639811 0.0838331
0.578561 0.0737926 0.101503
0.680598 0.0957961 0.132525
0.785657 0.128344 0.175677
0.03299 0.050309 0.0377661
0.0414282 0.054139 0.0424353
0.110307 0.0569314 0.047837
0.215579 0.0609293 0.052842
0.341207 0.0671244 0.0636912
0.502358 0.0700389 0.0736095
0.61059 0.0857252 0.0940871
0.709484 0.108598 0.12137
0.794888 0.139437 0.154269
0.040238 0.12282 0.0765698
0.0379034 0.133257 0.060441
0.116945 0.142306 0.0536965
0.257481 0.128862 0.0582284
0.400458 0.115618 0.0691539
0.55053 0.119966 0.0826429
0.659495 0.144793 0.10753
0.755688 0.18027 0.138857
0.837613 0.225238 0.179614
0.0272221 0.233188 0.102495
0.0268406 0.246418 0.0807965
0.0545052 0.259831 0.0362707
0.254795 0.297078 0.0575113
0.472099 0.307958 0.0589914
0.637217 0.332769 0.116732
0.752392 0.389899 0.185321
0.848737 0.443351 0.245838
0.909331 0.487327 0.283803
0.00973526 0.3635 0.13521
0.00833143 0.374243 0.107988
0.0152895 0.375311 0.0317235
0.135454 0.420142 0.0359503
0.467781 0.520592 0.0899977
0.640452 0.567926 0.118486
0.769726 0.601877 0.202411
0.861921 0.627787 0.278492
0.915984 0.648508 0.328298
0.00671397 0.510674 0.199054
0.00709545 0.520775 0.174533
0.00891127 0.524865 0.0815442
0.102968 0.55671 0.0519112
0.404547 0.638407 0.131746
0.651164 0.686854 0.175875
0.757946 0.716503 0.227481
0.852064 0.738643 0.30602
0.919005 0.754391 0.396811
0.057969 0.675196 0.341405
0.0573892 0.679652 0.311131
0.0568551 0.6804 0.21825
0.143862 0.690654 0.133394
0.383093 0.727733 0.178408
0.617121 0.757946 0.224353
0.761181 0.799084 0.271183
0.840421 0.820844 0.358923
0.900359 0.83743 0.435645
0.0950637 0.76437 0.439719
0.0938888 0.764706 0.394293
0.100923 0.763745 0.31545
0.216342 0.765896 0.245914
0.401541 0.780041 0.261555
0.593225 0.794995 0.298772
0.737469 0.836851 0.366079
0.839094 0.868208 0.428519
0.89134 0.881712 0.504646
0.102953 0.775708 0.480095
0.101534 0.778592 0.424598
0.114183 0.779065 0.342061
0.258579 0.786221 0.292454
0.431174 0.791165 0.303548
0.600946 0.804364 0.347173
0.736294 0.841917 0.426276
0.831235 0.872709 0.4748
0.893507 0.889586 0.534173
0.0387427 0.0476387 0.0675669
0.0505379 0.0483711 0.0638285
0.0914778 0.0497749 0.075761
0.187472 0.0525826 0.100954
0.318105 0.0586099 0.111986
0.478691 0.0601511 0.128557
0.601877 0.0715496 0.15349
0.703822 0.0930495 0.192279
0.806729 0.124804 0.243442
0.0327916 0.0523232 0.06421
0.0428931 0.0503853 0.082063
0.119158 0.053193 0.0955825
0.242451 0.0577096 0.107057
0.383932 0.0622568 0.115938
0.541283 0.0659648 0.128466
0.639353 0.0831311 0.154025
0.737346 0.107637 0.189319
0.818814 0.137102 0.228763
0.0408789 0.119982 0.0998398
0.043595 0.127275 0.106584
0.127337 0.138094 0.12491
0.284672 0.134112 0.121981
0.454078 0.122271 0.111879
0.593591 0.12079 0.115648
0.690547 0.146441 0.145983
0.787655 0.186038 0.187732
0.854414 0.226627 0.227863
0.0355077 0.229847 0.148928
0.0369573 0.241917 0.146456
0.0525368 0.263157 0.110124
0.274907 0.308949 0.122576
0.521828 0.296544 0.128466
0.656306 0.310704 0.160449
0.77702 0.359075 0.228824
0.884321 0.416815 0.299214
0.929763 0.457374 0.337697
0.014786 0.357671 0.193561
0.0132906 0.367544 0.182452
0.0093843 0.369757 0.110323
0.0971847 0.414054 0.0519875
0.467704 0.518059 0.110582
0.664088 0.561578 0.161181
0.792981 0.590143 0.246372
0.875975 0.613474 0.312886
0.926482 0.632715 0.364935
0.00885023 0.501274 0.251102
0.00943008 0.510262 0.238025
0.00636301 0.511803 0.169863
0.0496529 0.536019 0.0649882
0.353536 0.627405 0.142687
0.644709 0.67982 0.190478
0.763485 0.708904 0.235233
0.866712 0.728542 0.332708
0.927367 0.742885 0.426429
0.0576638 0.660471 0.38822
0.0576791 0.663874 0.364981
0.0529183 0.663996 0.299489
0.0700694 0.672038 0.156619
0.32018 0.71667 0.177951
0.588785 0.746487 0.221408
0.752544 0.790646 0.261372
0.839704 0.812436 0.353292
0.904341 0.828351 0.43743
0.0963455 0.752239 0.494942
0.0938735 0.751614 0.45864
0.0898909 0.752438 0.382284
0.117494 0.755627 0.263386
0.340963 0.774685 0.254505
0.556023 0.78648 0.283497
0.717006 0.827146 0.34728
0.829664 0.860883 0.404425
0.887373 0.87454 0.488334
0.108965 0.774121 0.54049
0.106172 0.775174 0.503365
0.103304 0.779095 0.422812
0.160601 0.783001 0.314992
0.364492 0.789715 0.302632
0.559167 0.797803 0.336553
0.702693 0.830732 0.409934
0.812039 0.867048 0.463813
0.884184 0.88716 0.523186
0.0454719 0.0495613 0.119753
0.0677806 0.050248 0.117449
0.112902 0.0509194 0.129
0.208835 0.054902 0.156603
0.342687 0.0594949 0.196567
0.508034 0.0607004 0.219654
0.627619 0.0735637 0.251255
0.728954 0.0908064 0.30428
0.828107 0.120012 0.35758
0.0298314 0.0551308 0.12752
0.0549935 0.0508736 0.156619
0.13576 0.0529335 0.176913
0.266804 0.0595254 0.200717
0.420157 0.0619974 0.228824
0.568612 0.0665141 0.246082
0.669337 0.0814832 0.275761
0.765057 0.102586 0.316457
0.840345 0.130373 0.354894
0.0364385 0.109895 0.157031
0.0362097 0.110979 0.176013
0.128893 0.110201 0.234943
0.306157 0.110765 0.243153
0.482704 0.0989853 0.239612
0.611307 0.100786 0.244999
0.706249 0.117708 0.262821
0.798901 0.148333 0.295155
0.860761 0.181628 0.331884
0.0339666 0.226093 0.196338
0.0370336 0.237598 0.207904
0.0729534 0.260578 0.232288
0.305898 0.309346 0.2934
0.544472 0.299275 0.284367
0.684291 0.317342 0.301091
0.816617 0.352895 0.338247
0.908919 0.389731 0.374365
0.928176 0.417533 0.400717
0.0222782 0.359472 0.255207
0.0247959 0.370306 0.256687
0.0336004 0.374945 0.240681
0.149142 0.451179 0.241947
0.517098 0.544366 0.299748
0.697078 0.565087 0.338491
0.811032 0.582986 0.372534
0.901411 0.590341 0.411231
0.936629 0.601587 0.458228
0.0156863 0.50016 0.308934
0.0192416 0.508476 0.307332
0.0183719 0.505501 0.277089
0.0399329 0.528374 0.208728
0.353735 0.637293 0.263554
0.65449 0.682094 0.315953
0.789044 0.705028 0.351385
0.892424 0.718212 0.421302
0.936355 0.732311 0.486717
0.062562 0.651164 0.451362
0.0624094 0.652033 0.438025
0.0575113 0.647501 0.387991
0.0566415 0.656138 0.299458
0.271946 0.703731 0.245655
0.554894 0.735698 0.286488
0.749126 0.783307 0.337331
0.84918 0.807431 0.377371
0.91989 0.820249 0.486244
0.101167 0.742275 0.54992
0.0983597 0.739651 0.528817
0.0941329 0.736645 0.479683
0.0918746 0.742275 0.377798
0.258167 0.766491 0.278279
0.49723 0.779507 0.287648
0.692592 0.81738 0.34107
0.824506 0.856718 0.393744
0.889815 0.870466 0.492973
0.120775 0.775662 0.595651
0.116564 0.774456 0.574029
0.112001 0.773892 0.528695
0.109163 0.779049 0.424338
0.274662 0.78558 0.324987
0.499916 0.793179 0.335042
0.666651 0.820249 0.399481
0.796048 0.862181 0.465003
0.879179 0.885893 0.520516
0.0620584 0.0517891 0.201801
0.0880598 0.0521248 0.203784
0.144259 0.0528725 0.219608
0.239643 0.0550393 0.244724
0.375082 0.0628519 0.27776
0.535973 0.0648203 0.32108
0.645411 0.0722362 0.384039
0.74844 0.0913252 0.440436
0.840848 0.119692 0.498253
0.0346838 0.0543374 0.226642
0.0777905 0.0530709 0.262654
0.169512 0.0544289 0.285893
0.294682 0.0592355 0.306218
0.458595 0.0644999 0.327962
0.591165 0.0708324 0.373938
0.6878 0.0797589 0.431403
0.783123 0.100954 0.470848
0.850355 0.12639 0.510811
0.0287175 0.0934157 0.237613
0.0275578 0.091249 0.260288
0.128222 0.0760967 0.336736
0.304921 0.0817273 0.353902
0.486442 0.0790265 0.352682
0.606882 0.0817426 0.383078
0.705531 0.0919356 0.421378
0.794583 0.113191 0.45127
0.859174 0.144869 0.500206
0.0298466 0.206378 0.281163
0.0297551 0.211994 0.298543
0.0698558 0.225254 0.351141
0.320577 0.254612 0.478202
0.5691 0.260578 0.485756
0.704387 0.273442 0.514824
0.832792 0.300984 0.534554
0.920073 0.330739 0.556573
0.93518 0.351461 0.579644
0.0220493 0.355901 0.313191
0.0245212 0.366705 0.321508
0.0340887 0.370916 0.325628
0.203922 0.465126 0.420325
0.550607 0.536645 0.514244
0.705699 0.549493 0.530922
0.819028 0.568902 0.545846
0.904433 0.584985 0.561532
0.930465 0.594934 0.571511
0.0294499 0.504768 0.376944
0.0370642 0.514656 0.386679
0.0477607 0.516075 0.378088
0.122423 0.558572 0.407477
0.437385 0.654612 0.509667
0.67454 0.684657 0.531441
0.804807 0.696361 0.563119
0.892317 0.712139 0.582345
0.940627 0.723552 0.596613
0.0870985 0.650172 0.516075
0.0912795 0.65095 0.50988
0.0935531 0.644892 0.485405
0.106981 0.647929 0.447715
0.311986 0.707729 0.462394
0.5841 0.742504 0.483818
0.761303 0.782696 0.542733
0.871839 0.800519 0.569009
0.933043 0.813153 0.60148
0.130327 0.739315 0.593759
0.128832 0.735134 0.581201
0.124147 0.728756 0.556771
0.1205 0.726101 0.512291
0.261158 0.749325 0.453925
0.518502 0.777203 0.445701
0.690959 0.811826 0.514275
0.830137 0.852567 0.556359
0.900801 0.868894 0.575067
0.17377 0.781811 0.641566
0.155306 0.77882 0.627482
0.138323 0.774716 0.602716
0.127565 0.771756 0.554803
0.244816 0.780224 0.480827
0.478202 0.797513 0.448188
0.65449 0.823545 0.502083
0.78996 0.863828 0.554208
0.880842 0.889189 0.574197
0.0842451 0.0537728 0.293675
0.115526 0.054078 0.303807
0.182177 0.055436 0.324742
0.279927 0.0589914 0.351034
0.415595 0.0610361 0.377172
0.561944 0.0680095 0.428275
0.671534 0.0798657 0.490211
0.761166 0.0888533 0.552926
0.846433 0.113985 0.598703
0.0612802 0.05449 0.333104
0.108156 0.0552834 0.372045
0.21001 0.057145 0.40589
0.333257 0.0607309 0.428855
0.489937 0.0624399 0.450477
0.612482 0.0740215 0.489647
0.714031 0.0873579 0.533242
0.79266 0.0977188 0.579339
0.850462 0.117937 0.610758
0.0268559 0.0744488 0.321431
0.0284581 0.0686656 0.343282
0.140505 0.0571603 0.427497
0.30901 0.0624857 0.456641
0.493172 0.0659342 0.472969
0.620371 0.077821 0.499535
0.720348 0.0914626 0.533776
0.797909 0.102693 0.574319
0.855283 0.127031 0.603403
0.0278782 0.188022 0.372168
0.0278935 0.191684 0.394903
0.0607614 0.190295 0.459281
0.327718 0.195804 0.588342
0.584482 0.211536 0.596689
0.717449 0.238483 0.621225
0.834211 0.260517 0.657237
0.919036 0.286381 0.678386
0.935332 0.309575 0.697459
0.0178531 0.34406 0.412665
0.0182803 0.351217 0.428946
0.037583 0.351888 0.459083
0.202029 0.428412 0.552254
0.576135 0.504753 0.646403
0.729473 0.530587 0.662257
0.844373 0.545296 0.670604
0.920851 0.559701 0.671382
0.9411 0.568078 0.678599
0.0312352 0.504067 0.449012
0.0388037 0.514046 0.46041
0.0483406 0.515724 0.46186
0.125628 0.557153 0.51014
0.497734 0.654582 0.623728
0.69218 0.675441 0.654688
0.810559 0.682795 0.666178
0.898283 0.694713 0.676097
0.940871 0.70428 0.684459
0.101122 0.652003 0.559594
0.107988 0.652873 0.558846
0.117968 0.648112 0.549752
0.154253 0.654734 0.54992
0.423362 0.718563 0.62356
0.637919 0.756939 0.652415
0.784787 0.785702 0.664881
0.886244 0.795789 0.684794
0.937179 0.807172 0.694667
0.163851 0.737362 0.632532
0.165621 0.733043 0.624659
0.169009 0.726467 0.609506
0.18143 0.722713 0.588754
0.353506 0.757992 0.615763
0.570001 0.788891 0.626062
0.722469 0.826535 0.645441
0.851926 0.858656 0.671717
0.92108 0.868894 0.687144
0.216785 0.783139 0.67541
0.202487 0.778149 0.66389
0.196597 0.771267 0.645701
0.196399 0.76524 0.619852
0.315908 0.782147 0.617212
0.519173 0.806806 0.616175
0.680797 0.843046 0.625864
0.80322 0.876432 0.667277
0.896025 0.899519 0.679545
0.113115 0.0554971 0.390509
0.151537 0.0561074 0.414054
0.224109 0.0577096 0.443931
0.327871 0.0611124 0.473045
0.467063 0.0605173 0.494514
0.585458 0.0685435 0.524651
0.691188 0.0839399 0.570413
0.79321 0.0999313 0.615549
0.855238 0.120211 0.661082
0.096788 0.05626 0.453666
0.148653 0.0574655 0.493324
0.25507 0.0598764 0.522087
0.38233 0.0625772 0.536065
0.524742 0.0632639 0.546304
0.631189 0.0757916 0.571054
0.731441 0.0923934 0.605905
0.822156 0.108675 0.64004
0.859602 0.124956 0.671977
0.03093 0.071107 0.425742
0.0464332 0.0623941 0.459327
0.188083 0.0589456 0.535164
0.352956 0.063386 0.556008
0.521721 0.0658732 0.562036
0.637369 0.0801862 0.584161
0.738293 0.0964828 0.612421
0.825406 0.112688 0.64062
0.862135 0.130236 0.67068
0.0270542 0.169894 0.47042
0.0273442 0.171725 0.491539
0.0622721 0.161242 0.545022
0.342626 0.150988 0.651255
0.589731 0.16495 0.661173
0.718044 0.193729 0.683253
0.833677 0.227649 0.708675
0.919387 0.266499 0.737316
0.930785 0.276555 0.762478
0.0270848 0.336294 0.513466
0.0274052 0.34255 0.526116
0.0454871 0.340124 0.550195
0.196399 0.400412 0.632654
0.607645 0.478065 0.744427
0.764157 0.519478 0.75642
0.869459 0.541817 0.768627
0.93611 0.552438 0.780179
0.951736 0.559625 0.787961
0.0185092 0.497963 0.517235
0.023743 0.506477 0.529274
0.0447852 0.509712 0.544747
0.146471 0.553292 0.609567
0.498451 0.639612 0.698421
0.711025 0.659831 0.741695
0.825727 0.671901 0.75256
0.90985 0.681727 0.754635
0.947341 0.689494 0.761517
0.108003 0.653086 0.60502
0.114122 0.653376 0.605478
0.122362 0.649058 0.601267
0.155184 0.654902 0.608377
0.428275 0.717327 0.678599
0.673091 0.761959 0.73164
0.798398 0.777844 0.753674
0.891157 0.783597 0.764187
0.941512 0.791104 0.77261
0.174411 0.737896 0.660151
0.177096 0.733394 0.654093
0.183017 0.727764 0.64445
0.204562 0.724834 0.636851
0.404578 0.763378 0.679408
0.643137 0.807385 0.728801
0.766049 0.843336 0.759243
0.872084 0.861494 0.760571
0.930007 0.866331 0.772992
0.235035 0.782498 0.697643
0.229404 0.777157 0.689708
0.228992 0.77055 0.678035
0.237781 0.765423 0.664302
0.38233 0.790127 0.684779
0.603418 0.826337 0.720836
0.724071 0.864561 0.744869
0.831891 0.890074 0.759182
0.912322 0.905165 0.766629
0.148211 0.0574807 0.493812
0.193286 0.0583352 0.518624
0.269947 0.0606241 0.541131
0.377798 0.0631723 0.559152
0.512963 0.0635233 0.572244
0.613336 0.0714275 0.595956
0.712871 0.0895094 0.629694
0.814008 0.107347 0.674311
0.865095 0.124941 0.711269
0.139086 0.0588998 0.547601
0.194278 0.060914 0.574365
0.299062 0.0630655 0.594415
0.433417 0.0640421 0.602152
0.559045 0.067216 0.611231
0.65185 0.077348 0.631388
0.751431 0.0988785 0.662516
0.839323 0.114687 0.696315
0.869291 0.12961 0.721569
0.041001 0.0674449 0.51545
0.0831617 0.059678 0.551339
0.23621 0.0626688 0.604807
0.399558 0.0650339 0.618402
0.55198 0.0679332 0.62295
0.656504 0.0830549 0.6448
0.756268 0.102846 0.670039
0.841443 0.11899 0.699245
0.871855 0.134936 0.720577
0.030045 0.154177 0.537957
0.0321202 0.155215 0.555261
0.0748913 0.137957 0.60296
0.360952 0.12488 0.691341
0.591134 0.1364 0.703319
0.716411 0.16875 0.725872
0.829252 0.202655 0.749996
0.918837 0.242634 0.782345
0.932509 0.265644 0.799725
0.0335241 0.33518 0.577081
0.0346685 0.341604 0.588327
0.0526436 0.336492 0.611063
0.214527 0.389822 0.703334
0.638956 0.460975 0.819287
0.795636 0.509499 0.831312
0.891875 0.538155 0.834348
0.947127 0.552895 0.840925
0.957763 0.560555 0.843275
0.0338903 0.506889 0.584466
0.0373999 0.511482 0.593637
0.0628519 0.513069 0.610224
0.187427 0.559838 0.679347
0.488487 0.629252 0.755322
0.733166 0.652674 0.816709
0.854887 0.672496 0.823423
0.924956 0.684199 0.833356
0.957412 0.690364 0.839536
0.0962081 0.654368 0.647562
0.106477 0.654643 0.651057
0.12459 0.650309 0.653407
0.182147 0.658015 0.674891
0.447288 0.709865 0.738949
0.673701 0.752422 0.787762
0.816373 0.765911 0.815
0.897917 0.774441 0.821576
0.944793 0.781018 0.822049
0.184665 0.738537 0.689143
0.186816 0.734585 0.685405
0.191531 0.728786 0.67982
0.210529 0.726146 0.677836
0.404791 0.762219 0.717571
0.64593 0.807919 0.768292
0.793118 0.847776 0.813672
0.880446 0.856443 0.824308
0.932448 0.859022 0.829923
0.244572 0.782742 0.714565
0.239857 0.777981 0.708431
0.239506 0.771679 0.699611
0.249821 0.767025 0.69102
0.408179 0.792752 0.718318
0.634256 0.835264 0.765393
0.774884 0.879286 0.814389
0.86128 0.897993 0.832593
0.922621 0.906096 0.827649
0.191806 0.0606088 0.570901
0.239704 0.0619059 0.590997
0.316655 0.0639353 0.607462
0.432242 0.0644694 0.618982
0.552056 0.0675059 0.630716
0.643351 0.0763561 0.652857
0.738781 0.0941482 0.684672
0.839094 0.120195 0.727077
0.879026 0.136019 0.760266
0.18529 0.0624247 0.612131
0.241154 0.0643168 0.632547
0.340948 0.0661021 0.646784
0.475425 0.0658427 0.652338
0.587091 0.0714885 0.662287
0.674998 0.0825208 0.682261
0.773587 0.105837 0.713848
0.862608 0.130953 0.747372
0.883314 0.142641 0.770565
0.0739757 0.0639353 0.586892
0.130266 0.0626078 0.618341
0.278614 0.0661936 0.656428
0.442466 0.0664836 0.66508
0.577707 0.0717174 0.672312
0.676509 0.0870069 0.692638
0.777432 0.111192 0.722362
0.864591 0.135271 0.751095
0.884184 0.145586 0.76762
0.0383917 0.140307 0.588464
0.042359 0.140032 0.603738
0.095552 0.117266 0.648737
0.381048 0.10779 0.720073
0.592462 0.117372 0.732006
0.718944 0.149889 0.75642
0.829358 0.189899 0.783902
0.919631 0.232074 0.814298
0.934722 0.256001 0.83183
0.0433051 0.339208 0.625193
0.0467231 0.344396 0.636362
0.0642557 0.337331 0.658991
0.260899 0.391424 0.768719
0.670787 0.452354 0.867414
0.82153 0.501671 0.878035
0.911528 0.533486 0.87657
0.955901 0.551659 0.878264
0.962768 0.55993 0.880964
0.0569619 0.520439 0.636744
0.0616159 0.524544 0.645502
0.0836805 0.522881 0.660502
0.217777 0.567544 0.73019
0.504753 0.623743 0.803937
0.757458 0.650004 0.864668
0.883543 0.672526 0.871
0.938476 0.688075 0.875822
0.961852 0.695216 0.880842
0.105257 0.658732 0.687205
0.117006 0.657679 0.691356
0.147524 0.654017 0.699657
0.226856 0.663478 0.726741
0.473716 0.705898 0.781567
0.668986 0.744823 0.823957
0.839506 0.7617 0.861616
0.913832 0.773312 0.867918
0.952651 0.780438 0.872114
0.1879 0.740963 0.71693
0.191592 0.736446 0.714855
0.201236 0.730266 0.712993
0.232486 0.728344 0.719036
0.426184 0.759747 0.761196
0.653941 0.803433 0.810086
0.795239 0.842283 0.847944
0.888655 0.84741 0.859266
0.933989 0.852842 0.858412
0.252888 0.783261 0.733181
0.249653 0.778531 0.728511
0.248981 0.772595 0.722667
0.258549 0.767956 0.718303
0.414069 0.792767 0.744854
0.633692 0.834287 0.789792
0.779416 0.881025 0.838468
0.879515 0.899321 0.862501
0.92665 0.903288 0.864942
