bundles/resolve-cinematic-luts/Phantom Luts/P4k & P6K Phntm Film LUTs - V6/P6k/Gen 4 Colour/P6k Vision Gen4.cube
TITLE "Generated by Resolve"
LUT_3D_SIZE 9
0.0224155 0.0224155 0.0224155
0.0487831 0.0270848 0.0222934
0.16492 0.0321355 0.0188144
0.307301 0.0378882 0.0241245
0.472587 0.059205 0.0395514
0.650355 0.116442 0.0884871
0.778103 0.185458 0.154452
0.780728 0.202457 0.157259
0.781079 0.213703 0.155886
0.0212863 0.0791791 0.0356146
0.0432746 0.0752422 0.0242771
0.175128 0.0510414 0.02121
0.307103 0.0515908 0.0247196
0.472602 0.0755169 0.042359
0.649561 0.133257 0.0950179
0.768032 0.201709 0.149355
0.775372 0.217716 0.157488
0.776486 0.233188 0.159976
0.0256199 0.212497 0.0836652
0.0240024 0.196307 0.0420386
0.155612 0.213886 0.0297704
0.344488 0.170565 0.0399329
0.495781 0.163012 0.0753033
0.641611 0.20943 0.11191
0.749798 0.269474 0.167269
0.758679 0.293431 0.184268
0.759976 0.309285 0.191257
0.0472572 0.378882 0.186297
0.0523079 0.371725 0.120073
0.0682536 0.36257 0.0867628
0.327993 0.378729 0.0504463
0.520058 0.349432 0.0752422
0.650233 0.368292 0.156497
0.740368 0.401755 0.229053
0.759197 0.417151 0.245609
0.762646 0.430014 0.250141
0.0882277 0.564218 0.345876
0.0988479 0.563729 0.304829
0.0944991 0.545785 0.212604
0.220737 0.550729 0.17348
0.516365 0.569924 0.129656
0.689357 0.562295 0.165393
0.773419 0.576333 0.295277
0.797894 0.589364 0.319722
0.796551 0.578592 0.31284
0.176028 0.735302 0.512428
0.180209 0.735653 0.485786
0.175937 0.731136 0.419654
0.220859 0.708263 0.313359
0.420935 0.720913 0.329107
0.667048 0.735485 0.261494
0.785473 0.738308 0.347463
0.836622 0.744152 0.428168
0.833616 0.7337 0.415076
0.271656 0.83621 0.638514
0.278691 0.835004 0.620508
0.296132 0.83241 0.583276
0.361501 0.820188 0.517266
0.493004 0.816083 0.49752
0.619562 0.827176 0.501762
0.768902 0.83534 0.480476
0.839261 0.841337 0.549615
0.845411 0.833921 0.538598
0.271763 0.842481 0.662028
0.281361 0.841321 0.645396
0.299016 0.839292 0.613169
0.379934 0.836851 0.56527
0.513832 0.839948 0.556725
0.634821 0.845502 0.581994
0.743755 0.859403 0.551568
0.833188 0.872435 0.604135
0.850141 0.87454 0.618936
0.264012 0.84419 0.672343
0.276829 0.842527 0.656229
0.290394 0.840711 0.630259
0.339742 0.839445 0.580606
0.473594 0.837888 0.555489
0.599771 0.843442 0.574624
0.709102 0.856825 0.557519
0.814313 0.869123 0.582574
0.850141 0.874693 0.618662
0.0256962 0.0261387 0.0648203
0.0808423 0.02327 0.0624247
0.212696 0.0229343 0.0752422
0.361959 0.0234989 0.0715801
0.53547 0.0462959 0.0822919
0.703182 0.11574 0.131121
0.797894 0.178943 0.183261
0.79646 0.193576 0.177768
0.789044 0.208362 0.161242
0.0209812 0.0614023 0.0471504
0.047303 0.0608377 0.0509499
0.206668 0.0406958 0.0312657
0.338598 0.0413672 0.0326085
0.498543 0.0622721 0.0497749
0.667445 0.11931 0.101411
0.782773 0.186053 0.155016
0.783261 0.205737 0.156283
0.780102 0.224201 0.15729
0.0191196 0.19472 0.110674
0.0226444 0.193301 0.0753643
0.148882 0.206226 0.0356451
0.352209 0.144427 0.0540627
0.504173 0.146868 0.075227
0.652583 0.195193 0.111315
0.75906 0.25565 0.165469
0.76376 0.277317 0.176654
0.762707 0.300496 0.186297
0.033753 0.36614 0.219913
0.0444953 0.367956 0.178454
0.0486763 0.352529 0.0845808
0.323613 0.374929 0.0591135
0.527016 0.337621 0.0914321
0.652171 0.354177 0.161868
0.74583 0.388388 0.227543
0.759625 0.40679 0.241413
0.762661 0.422858 0.247745
0.0755169 0.555032 0.369131
0.0848096 0.555291 0.337484
0.0944076 0.548119 0.247868
0.202884 0.54815 0.188418
0.511818 0.566155 0.135805
0.690303 0.55523 0.179889
0.772808 0.569253 0.298299
0.796109 0.580163 0.319356
0.794812 0.568673 0.309972
0.16788 0.731106 0.529549
0.170855 0.730648 0.505821
0.182315 0.73022 0.45272
0.193896 0.705119 0.321355
0.411154 0.717678 0.333364
0.662425 0.732464 0.26302
0.786496 0.732982 0.343389
0.835081 0.738705 0.428046
0.83209 0.72726 0.415305
0.262837 0.83537 0.652613
0.267521 0.833936 0.632563
0.281468 0.830091 0.596292
0.325231 0.81915 0.517403
0.476509 0.813153 0.492348
0.610193 0.824247 0.497475
0.76524 0.831693 0.470695
0.839139 0.836789 0.541985
0.846021 0.82977 0.533455
0.259617 0.844373 0.677455
0.272831 0.842481 0.660594
0.290364 0.840253 0.629709
0.348013 0.83859 0.571969
0.50103 0.839612 0.557702
0.628351 0.845365 0.582391
0.738003 0.859144 0.552941
0.830549 0.872145 0.601907
0.850111 0.874693 0.619562
0.254459 0.845518 0.686732
0.265583 0.843976 0.671275
0.282689 0.841688 0.645472
0.317372 0.838636 0.592203
0.457694 0.83769 0.557305
0.593057 0.843427 0.574441
0.701915 0.856397 0.561639
0.811292 0.869139 0.581186
0.85005 0.874891 0.619791
0.0463569 0.0276799 0.197574
0.115053 0.030045 0.157137
0.22388 0.0206455 0.160372
0.361181 0.0248569 0.191028
0.535027 0.0517128 0.216541
0.717098 0.106584 0.26067
0.808316 0.158846 0.295171
0.813382 0.166629 0.282811
0.81796 0.176822 0.236866
0.0243229 0.0509957 0.162493
0.0508583 0.0286717 0.183383
0.203281 0.0246738 0.14406
0.355947 0.0310369 0.15407
0.536492 0.05037 0.157519
0.716716 0.105211 0.208423
0.809903 0.160128 0.240772
0.813352 0.173419 0.225345
0.806928 0.197864 0.199954
0.0192569 0.185199 0.169238
0.0190738 0.181888 0.165896
0.203906 0.22182 0.198962
0.428138 0.168643 0.148043
0.592355 0.14107 0.125551
0.71931 0.177295 0.156283
0.797833 0.23267 0.204974
0.796597 0.250904 0.206012
0.78854 0.275669 0.205371
0.019501 0.355383 0.264698
0.0216068 0.352972 0.245029
0.0406043 0.356268 0.175647
0.323476 0.379843 0.103639
0.53994 0.328679 0.139513
0.66775 0.33611 0.19585
0.764904 0.373342 0.24596
0.770611 0.389532 0.252659
0.770596 0.404868 0.253315
0.0500801 0.540459 0.401892
0.0608225 0.538811 0.379232
0.0798047 0.539879 0.324346
0.16231 0.544015 0.213428
0.504173 0.559228 0.148302
0.693431 0.541192 0.212909
0.772366 0.558892 0.310216
0.794034 0.566888 0.32874
0.793454 0.56112 0.321569
0.143557 0.723278 0.556191
0.156146 0.721492 0.53637
0.16379 0.719783 0.49546
0.16347 0.70602 0.360052
0.395987 0.713634 0.34432
0.655009 0.725551 0.271092
0.786526 0.72343 0.33843
0.833249 0.730556 0.43122
0.829877 0.718425 0.418982
0.235721 0.833417 0.675715
0.245991 0.830579 0.657343
0.260517 0.826154 0.622217
0.286687 0.818936 0.538079
0.446738 0.809812 0.485451
0.595605 0.819074 0.493462
0.759686 0.826383 0.456489
0.837537 0.830869 0.531319
0.845808 0.823682 0.52517
0.241108 0.847227 0.704448
0.251545 0.845899 0.688258
0.2757 0.842176 0.657755
0.311513 0.838285 0.59559
0.475166 0.838422 0.558999
0.616571 0.845075 0.582605
0.728374 0.858549 0.557214
0.826215 0.871992 0.599084
0.850004 0.874907 0.621027
0.239414 0.847913 0.709194
0.2486 0.846677 0.694942
0.267964 0.843793 0.67013
0.298939 0.839887 0.618189
0.432059 0.837812 0.562554
0.581964 0.843061 0.574121
0.692287 0.854948 0.569467
0.805692 0.868971 0.577188
0.850065 0.875471 0.621622
0.100999 0.0315251 0.331731
0.171084 0.0311742 0.30016
0.254047 0.0323033 0.281544
0.378317 0.0234989 0.292027
0.534813 0.0455329 0.345525
0.70779 0.114275 0.413962
0.801801 0.173816 0.444663
0.806912 0.180713 0.427024
0.813306 0.181323 0.396307
0.0320134 0.0514229 0.329473
0.102632 0.0315099 0.323476
0.226337 0.0325322 0.279606
0.367407 0.0251164 0.282322
0.529732 0.0478981 0.328847
0.702235 0.117693 0.393118
0.807279 0.174823 0.403937
0.810407 0.181308 0.39649
0.815579 0.181292 0.362905
0.0192569 0.15848 0.32578
0.0261082 0.141451 0.34107
0.210697 0.115328 0.380194
0.413565 0.104753 0.33344
0.560204 0.0993057 0.327657
0.722042 0.126452 0.328252
0.811002 0.177493 0.348043
0.813016 0.182406 0.329519
0.818357 0.181872 0.281544
0.0194247 0.346777 0.340551
0.0193942 0.343801 0.33785
0.0255589 0.349722 0.341619
0.387655 0.403784 0.376272
0.616754 0.34757 0.327932
0.761318 0.323339 0.30341
0.820737 0.34818 0.320577
0.814511 0.352728 0.312383
0.805997 0.371496 0.306111
0.0392767 0.53402 0.46186
0.043183 0.532464 0.449256
0.0509499 0.529107 0.423575
0.161563 0.54992 0.367666
0.509316 0.57023 0.296422
0.703731 0.53669 0.31725
0.783093 0.540413 0.356252
0.794278 0.540932 0.365362
0.794202 0.53991 0.352392
0.100816 0.713512 0.600122
0.106126 0.711635 0.587991
0.121706 0.707149 0.559762
0.155749 0.701167 0.479438
0.366064 0.711528 0.378378
0.646143 0.717937 0.297398
0.791806 0.709377 0.357748
0.829267 0.716533 0.441871
0.826352 0.703258 0.431327
0.191897 0.830259 0.716335
0.198276 0.827131 0.700404
0.21384 0.819104 0.668894
0.248051 0.810193 0.602136
0.371756 0.803906 0.482383
0.568093 0.81033 0.491005
0.74992 0.817746 0.434348
0.837446 0.82034 0.517998
0.847913 0.812345 0.516487
0.213306 0.852171 0.749294
0.22002 0.851423 0.734813
0.237827 0.84831 0.710262
0.279255 0.842191 0.655207
0.409644 0.8383 0.570977
0.594629 0.844419 0.582757
0.710994 0.857481 0.567773
0.819196 0.871809 0.594781
0.85037 0.876448 0.623865
0.214221 0.852796 0.748043
0.222507 0.851514 0.734569
0.237507 0.84892 0.713863
0.271977 0.843549 0.668757
0.353613 0.840375 0.579293
0.555047 0.843381 0.575082
0.674342 0.85275 0.583841
0.791516 0.866926 0.569528
0.850584 0.877119 0.624964
0.184405 0.0391699 0.462089
0.240223 0.0391394 0.442512
0.3178 0.0422065 0.425422
0.419364 0.0470436 0.429023
0.567193 0.0581979 0.466163
0.708247 0.096788 0.526741
0.790845 0.141039 0.572961
0.795026 0.149096 0.568475
0.804639 0.170596 0.533425
0.0913405 0.0546578 0.478462
0.182498 0.0390021 0.457938
0.286061 0.0393072 0.428061
0.402792 0.0501869 0.423804
0.560372 0.0599069 0.460014
0.701778 0.0949264 0.514351
0.792523 0.142489 0.561975
0.79968 0.160723 0.552972
0.806699 0.177768 0.518776
0.0433967 0.106554 0.468528
0.0449683 0.0838331 0.468925
0.197925 0.0383612 0.448325
0.365515 0.0476692 0.414588
0.544915 0.0610513 0.446006
0.689723 0.0932631 0.490517
0.798215 0.163958 0.537316
0.80209 0.179614 0.52224
0.807019 0.193942 0.491051
0.0195621 0.319448 0.498482
0.0195163 0.310643 0.503899
0.0525521 0.302861 0.533974
0.407309 0.292775 0.5823
0.617304 0.294926 0.53434
0.754345 0.268894 0.532036
0.820554 0.284413 0.527108
0.819577 0.276219 0.497627
0.824384 0.270542 0.450248
0.0327916 0.528603 0.536019
0.037232 0.527382 0.533791
0.048249 0.525338 0.529091
0.174716 0.546914 0.542901
0.56791 0.583062 0.55996
0.766247 0.543954 0.531548
0.851453 0.532341 0.514733
0.845853 0.52163 0.492546
0.8309 0.494209 0.440284
0.123186 0.711482 0.65948
0.128496 0.709712 0.652796
0.142077 0.705119 0.638453
0.156252 0.696223 0.603387
0.424231 0.719066 0.57174
0.66775 0.732891 0.513222
0.802747 0.714305 0.516609
0.829313 0.707683 0.507851
0.823636 0.688212 0.478569
0.202243 0.823087 0.758053
0.197452 0.82031 0.747646
0.190066 0.815244 0.731991
0.180041 0.806287 0.694545
0.293294 0.801633 0.605966
0.584772 0.815045 0.575311
0.750225 0.818418 0.507393
0.84831 0.813855 0.546273
0.853071 0.80206 0.536095
0.248997 0.857252 0.796307
0.23563 0.856046 0.788388
0.224033 0.855573 0.776074
0.22501 0.853147 0.744686
0.291264 0.843137 0.657374
0.550423 0.846342 0.598947
0.68983 0.856168 0.601755
0.812833 0.874037 0.597574
0.852262 0.878874 0.634012
0.239292 0.856474 0.791074
0.230549 0.85594 0.784009
0.221378 0.854948 0.772412
0.225284 0.85304 0.743358
0.2804 0.844022 0.668467
0.485801 0.842756 0.583413
0.649012 0.849546 0.60354
0.767269 0.863874 0.567163
0.852064 0.880262 0.633371
0.279438 0.0538491 0.580194
0.323201 0.0557259 0.570748
0.392737 0.0616312 0.563699
0.49427 0.0844129 0.569619
0.597971 0.0796826 0.582589
0.730587 0.101106 0.626825
0.800168 0.161547 0.674159
0.800732 0.162661 0.686046
0.804685 0.174548 0.680354
0.209445 0.0502174 0.587381
0.277012 0.0531624 0.576562
0.362936 0.0587472 0.564508
0.475929 0.0811017 0.565744
0.587961 0.0786145 0.578225
0.726253 0.102937 0.622614
0.799558 0.16701 0.668681
0.802884 0.17113 0.680873
0.804898 0.183185 0.670405
0.0851301 0.10695 0.605829
0.126619 0.0772412 0.591852
0.287999 0.0534829 0.570626
0.433783 0.0697185 0.557137
0.571527 0.0819257 0.574258
0.716503 0.105531 0.612238
0.79826 0.173861 0.658824
0.800916 0.17995 0.669123
0.801801 0.189425 0.652583
0.0689403 0.291157 0.64918
0.0717174 0.277699 0.654215
0.0948348 0.251713 0.668681
0.41883 0.190021 0.677119
0.599451 0.212253 0.639918
0.738689 0.195651 0.639857
0.799359 0.216587 0.649271
0.80174 0.219226 0.650385
0.806424 0.202579 0.604562
0.0204013 0.507103 0.666224
0.0202792 0.501472 0.667765
0.0204166 0.492348 0.674617
0.203967 0.505013 0.720378
0.599069 0.500526 0.741421
0.770932 0.512779 0.709484
0.847562 0.502174 0.703182
0.84947 0.481819 0.683055
0.847257 0.4336 0.633478
0.132662 0.706432 0.71873
0.134707 0.704234 0.71487
0.144762 0.700145 0.709697
0.168322 0.692927 0.700526
0.434012 0.717327 0.708873
0.716579 0.735592 0.716411
0.8383 0.713451 0.700816
0.879057 0.698558 0.682963
0.866484 0.679042 0.64921
0.270344 0.819593 0.795422
0.26508 0.816892 0.789609
0.265705 0.811475 0.78027
0.272511 0.802945 0.762234
0.351949 0.803418 0.738445
0.640681 0.821332 0.733516
0.782162 0.829206 0.700923
0.866239 0.81915 0.68278
0.866697 0.805844 0.662226
0.375341 0.866148 0.832532
0.359945 0.86656 0.828656
0.342596 0.864836 0.821134
0.308522 0.860838 0.807858
0.297215 0.854963 0.77615
0.552789 0.865187 0.742809
0.735073 0.876463 0.731853
0.820233 0.889143 0.692317
0.861341 0.883101 0.67921
0.360861 0.866194 0.828779
0.346792 0.865232 0.82388
0.329473 0.864012 0.816846
0.298939 0.861204 0.804883
0.266865 0.85745 0.773571
0.422889 0.854948 0.70869
0.671397 0.866178 0.692729
0.771206 0.877577 0.657923
0.859831 0.896819 0.690806
0.371847 0.0762951 0.669612
0.404501 0.0788891 0.665309
0.462104 0.0831159 0.660624
0.550607 0.1019 0.665965
0.653712 0.121218 0.685573
0.752773 0.130373 0.712276
0.804044 0.169299 0.745525
0.808209 0.185 0.762951
0.810483 0.193225 0.768368
0.322499 0.0702678 0.669932
0.367926 0.0755169 0.666987
0.436942 0.0810864 0.660838
0.532326 0.0963912 0.661891
0.643839 0.122988 0.681285
0.74847 0.130114 0.709743
0.802853 0.168048 0.740093
0.807507 0.183703 0.756817
0.808911 0.190784 0.761166
0.187045 0.0964218 0.679408
0.25951 0.0629587 0.66714
0.373938 0.0751202 0.661845
0.492546 0.0851911 0.653742
0.622065 0.118944 0.672862
0.737011 0.131518 0.703929
0.80325 0.158663 0.731228
0.8056 0.17911 0.743099
0.807492 0.185702 0.747677
0.124544 0.250767 0.740353
0.131579 0.231052 0.739513
0.15108 0.188067 0.733745
0.420081 0.107362 0.691691
0.592782 0.137896 0.683299
0.723171 0.151507 0.703716
0.799924 0.151278 0.713283
0.807294 0.169345 0.72369
0.809216 0.176089 0.725872
0.0881666 0.503731 0.771603
0.0952163 0.496284 0.774273
0.109606 0.482689 0.781033
0.277958 0.47512 0.811643
0.626169 0.444755 0.817166
0.771695 0.46215 0.789151
0.850294 0.464347 0.790219
0.849912 0.448203 0.784131
0.844312 0.422965 0.762264
0.0912642 0.692638 0.793423
0.0887922 0.687663 0.792874
0.0950027 0.681239 0.794461
0.173022 0.675517 0.80177
0.445197 0.687434 0.826078
0.740215 0.686244 0.831617
0.84828 0.695994 0.814252
0.882795 0.684916 0.806134
0.882643 0.655238 0.777935
0.288548 0.814298 0.825666
0.28481 0.811734 0.821973
0.283787 0.805524 0.815717
0.291997 0.798672 0.807904
0.371344 0.799512 0.804639
0.640848 0.821363 0.809842
0.807157 0.828855 0.81323
0.883116 0.814435 0.802457
0.885176 0.801282 0.784894
0.436377 0.873152 0.858503
0.419745 0.869932 0.854719
0.401465 0.865629 0.848951
0.384848 0.860029 0.840146
0.390249 0.853941 0.825116
0.58674 0.870756 0.819791
0.756176 0.884978 0.817426
0.846372 0.900908 0.812116
0.89099 0.894347 0.792309
0.443442 0.873945 0.857176
0.435264 0.873976 0.854276
0.426246 0.872679 0.849897
0.411414 0.871015 0.842908
0.380835 0.868193 0.828855
0.472419 0.871244 0.809461
0.686824 0.892119 0.803464
0.81622 0.9084 0.8112
0.878523 0.924392 0.79472
0.444556 0.09131 0.721202
0.471031 0.0930495 0.719539
0.518059 0.0960861 0.716823
0.595178 0.114168 0.722454
0.691524 0.145449 0.740749
0.774838 0.14667 0.759533
0.81297 0.196933 0.781643
0.813611 0.204456 0.78291
0.814252 0.209812 0.783978
0.410803 0.0885786 0.723079
0.443717 0.091249 0.721218
0.497307 0.0944228 0.717525
0.579446 0.10959 0.720516
0.681437 0.142229 0.738277
0.771588 0.150301 0.760525
0.813214 0.198871 0.782101
0.813657 0.207477 0.783169
0.814664 0.212848 0.784512
0.31107 0.0775616 0.722805
0.372396 0.0844434 0.723308
0.446311 0.0910658 0.718929
0.544198 0.09897 0.714427
0.660929 0.134096 0.733333
0.763699 0.15584 0.76173
0.813596 0.201495 0.782788
0.81474 0.212573 0.784558
0.815717 0.218097 0.786023
0.208087 0.207523 0.780453
0.221073 0.181537 0.773266
0.247761 0.125063 0.741878
0.455833 0.0909133 0.715206
0.608972 0.120592 0.721767
0.743923 0.173251 0.760281
0.812665 0.205615 0.779873
0.815961 0.221302 0.78526
0.816892 0.228244 0.78761
0.18471 0.491554 0.829664
0.192935 0.481956 0.832944
0.205753 0.465431 0.83859
0.353124 0.441123 0.863035
0.655009 0.406531 0.843015
0.781598 0.426032 0.822461
0.848966 0.432197 0.830427
0.848203 0.419211 0.827955
0.843671 0.393576 0.819745
0.178912 0.695369 0.849805
0.178988 0.68986 0.850187
0.1841 0.680674 0.852888
0.25153 0.664942 0.859144
0.488121 0.671092 0.898009
0.767773 0.654002 0.892119
0.856718 0.66627 0.872633
0.888655 0.662058 0.868528
0.886351 0.63827 0.859968
0.285344 0.809995 0.866102
0.278935 0.805936 0.864424
0.280171 0.799908 0.862119
0.300694 0.791455 0.861799
0.40795 0.78938 0.875593
0.644373 0.802075 0.889006
0.816785 0.799817 0.8925
0.893385 0.800626 0.874693
0.896071 0.788006 0.862943
0.423728 0.869947 0.881376
0.411765 0.86685 0.877668
0.406088 0.862013 0.872862
0.404166 0.856764 0.866697
0.413596 0.849836 0.858869
0.604807 0.868528 0.86482
0.761303 0.885542 0.868681
0.867597 0.902312 0.882658
0.906004 0.89247 0.873457
0.477119 0.88217 0.882475
0.474556 0.881697 0.879759
0.473014 0.880858 0.875257
0.470466 0.880003 0.869841
0.465751 0.878233 0.862364
0.534539 0.884047 0.857725
0.708827 0.907057 0.861143
0.82327 0.93225 0.879332
0.90724 0.945052 0.890867
0.458595 0.091783 0.719661
0.483223 0.0937362 0.718517
0.525963 0.0957961 0.715541
0.602106 0.116075 0.723415
0.696651 0.146883 0.741848
0.772229 0.134508 0.752224
0.811185 0.184848 0.778836
0.814343 0.209003 0.783978
0.814755 0.213489 0.784619
0.42858 0.0894026 0.721248
0.457603 0.0917372 0.719692
0.507057 0.0955825 0.71751
0.586236 0.111284 0.72105
0.68751 0.144472 0.740734
0.769268 0.139055 0.754635
0.811902 0.187152 0.779858
0.81474 0.211261 0.784482
0.814954 0.215839 0.784848
0.346731 0.0817426 0.723217
0.39617 0.0864576 0.722652
0.461051 0.0918746 0.719524
0.553506 0.101259 0.717052
0.666575 0.13608 0.735378
0.761318 0.145876 0.757427
0.812329 0.191653 0.780652
0.814679 0.215274 0.784588
0.816052 0.22118 0.786664
0.256107 0.180392 0.785916
0.255512 0.152605 0.769848
0.268757 0.0736706 0.721859
0.475563 0.093492 0.719631
0.617288 0.122332 0.726787
0.746517 0.169268 0.76347
0.813352 0.203342 0.782712
0.816297 0.223575 0.787091
0.817197 0.230091 0.788663
0.252384 0.471458 0.864073
0.251026 0.459052 0.86305
0.249424 0.43827 0.860929
0.357488 0.402106 0.860761
0.643732 0.362112 0.830549
0.769024 0.383795 0.813092
0.839506 0.393652 0.821927
0.842115 0.380163 0.820584
0.837674 0.357382 0.81593
0.274434 0.688014 0.886244
0.27216 0.681132 0.885359
0.267796 0.669123 0.883787
0.291585 0.648081 0.884153
0.490837 0.645869 0.900664
0.770123 0.6262 0.888533
0.85507 0.637781 0.873198
0.885481 0.634653 0.872679
0.882292 0.60911 0.867109
0.366583 0.80763 0.896345
0.360143 0.802731 0.896132
0.351659 0.794629 0.895384
0.361578 0.782605 0.894713
0.433387 0.776638 0.897978
0.641733 0.78706 0.915709
0.825727 0.779095 0.911849
0.894591 0.780957 0.900298
0.896071 0.768948 0.897368
0.467048 0.868727 0.899367
0.46244 0.864958 0.89897
0.458564 0.860517 0.899321
0.45861 0.854002 0.899794
0.468788 0.845792 0.901122
0.608545 0.858625 0.909331
0.758083 0.87158 0.918029
0.87216 0.877729 0.927413
0.905715 0.874342 0.921141
0.510231 0.886809 0.898116
0.511177 0.886915 0.898222
0.512581 0.886992 0.898283
0.516243 0.887205 0.898436
0.520546 0.888045 0.89839
0.562478 0.892744 0.900114
0.721645 0.915068 0.908751
0.833173 0.940414 0.925597
0.921828 0.955444 0.939498
