bundles/resolve-cinematic-luts/Phantom Luts/P4k & P6K Phntm Film LUTs - V6/P6k/Gen 4 Colour/P6k Eastman Gen4-Legacy.cube
TITLE "Generated by Resolve"
LUT_3D_SIZE 33
0.0462501 0.0390021 0.0390021
0.0462501 0.0390021 0.0390021
0.0494698 0.0390021 0.0390021
0.0568551 0.0390021 0.040589
0.0684367 0.0390021 0.0425269
0.0833753 0.0390021 0.0442664
0.0999313 0.0390021 0.0457465
0.117571 0.0390021 0.0461585
0.138781 0.0390021 0.0463264
0.16318 0.0390021 0.0461433
0.190051 0.0401465 0.0441901
0.21828 0.0422522 0.041886
0.246601 0.0444495 0.0401617
0.274311 0.0468147 0.0407874
0.301411 0.0485084 0.0423438
0.328267 0.0513924 0.0433661
0.353597 0.0557412 0.0443885
0.378485 0.0604715 0.0453498
0.402441 0.0667277 0.0462196
0.425971 0.0736553 0.046952
0.443519 0.0794232 0.0484474
0.461311 0.0854047 0.051194
0.48304 0.0930953 0.0554055
0.505653 0.101106 0.0612345
0.530663 0.11014 0.0698558
0.557809 0.119615 0.0812543
0.586007 0.128603 0.0958572
0.613703 0.13727 0.111574
0.632441 0.143633 0.123445
0.632746 0.145632 0.126467
0.631403 0.14789 0.129412
0.629816 0.150393 0.132052
0.632456 0.15169 0.135134
0.0456092 0.0390021 0.0390021
0.0460365 0.0390021 0.0390021
0.0471809 0.0390021 0.0390021
0.0535744 0.0390021 0.0401007
0.0617533 0.0390021 0.0419623
0.0753948 0.0390021 0.044007
0.0912795 0.0390021 0.0451209
0.109148 0.0390021 0.0458534
0.128893 0.0390021 0.0461891
0.151675 0.0396582 0.0457008
0.177859 0.041413 0.0438697
0.205692 0.0431525 0.0411231
0.233814 0.0453498 0.0390021
0.26276 0.0480201 0.0390021
0.291478 0.0501411 0.0405127
0.319615 0.0521553 0.0420996
0.346212 0.0557412 0.0430762
0.372015 0.0605325 0.0444038
0.395346 0.0661326 0.0449226
0.41976 0.0728771 0.0459754
0.437217 0.0796368 0.0470436
0.454871 0.085481 0.0488136
0.475914 0.0922103 0.051606
0.498589 0.100359 0.0562905
0.523201 0.10956 0.0640574
0.548898 0.118791 0.0743725
0.57612 0.128496 0.0876783
0.603738 0.137331 0.103166
0.621897 0.143709 0.114351
0.623499 0.146593 0.117983
0.622766 0.149111 0.121019
0.621744 0.151339 0.123751
0.624033 0.152712 0.126436
0.0475624 0.0390021 0.0406043
0.047776 0.0390021 0.0397345
0.0487373 0.0390021 0.0396277
0.0529183 0.0390021 0.0409247
0.0602884 0.0390021 0.0430304
0.0721599 0.0390021 0.0445106
0.0873121 0.0401923 0.04654
0.103655 0.0406653 0.0475013
0.122515 0.0418555 0.0478065
0.145861 0.0415351 0.0462043
0.172 0.0422522 0.0441444
0.199817 0.0438849 0.0413977
0.227329 0.0461585 0.0390021
0.255619 0.0487831 0.0390021
0.283589 0.0509957 0.0395819
0.310811 0.0536812 0.0407721
0.338399 0.0564431 0.0417792
0.365087 0.060853 0.0432593
0.389624 0.0662089 0.0442206
0.413687 0.0723125 0.0451667
0.431205 0.0791791 0.0462043
0.450034 0.0862898 0.0475929
0.470665 0.0921645 0.0492256
0.493172 0.100298 0.0531777
0.516503 0.108949 0.0591897
0.541604 0.118212 0.0688487
0.568353 0.128557 0.0812085
0.595193 0.137758 0.0954299
0.611475 0.143938 0.10576
0.613642 0.146273 0.109453
0.613199 0.149294 0.112352
0.609003 0.15288 0.115129
0.603784 0.156542 0.11725
0.0497902 0.0486152 0.0497902
0.0490578 0.0482032 0.0477455
0.0507057 0.0473793 0.0474403
0.0552682 0.0478828 0.0472572
0.0631113 0.0491493 0.0477607
0.0754253 0.0491798 0.0484932
0.0911879 0.0486305 0.0494545
0.105837 0.0485084 0.0504311
0.121981 0.0484627 0.0502327
0.142855 0.0486305 0.049073
0.167987 0.0489052 0.0463264
0.195956 0.0480507 0.0420386
0.224125 0.0491798 0.0390021
0.251377 0.0508888 0.0390021
0.278492 0.052903 0.0390021
0.305592 0.0549935 0.0401617
0.332448 0.0577401 0.04094
0.359411 0.0618296 0.0423896
0.384024 0.0669718 0.0433814
0.407019 0.0725261 0.0441138
0.424216 0.078645 0.045304
0.444312 0.0860609 0.04654
0.465064 0.093019 0.0477455
0.487007 0.100374 0.050721
0.509697 0.108644 0.055314
0.534661 0.118776 0.0641642
0.55964 0.128405 0.0746624
0.586191 0.138109 0.087953
0.601923 0.144518 0.0977951
0.605493 0.147707 0.101946
0.604395 0.150072 0.104265
0.600427 0.153826 0.106935
0.595361 0.157443 0.108888
0.0542916 0.0639811 0.0567941
0.0531319 0.0634928 0.0534676
0.0546578 0.062501 0.0523537
0.0587167 0.0628977 0.0530251
0.0673838 0.0639658 0.052842
0.0791791 0.0648356 0.0528725
0.0948348 0.0637675 0.0530404
0.110353 0.0612497 0.0532845
0.127825 0.058793 0.0534676
0.146548 0.0563973 0.0514839
0.17026 0.0559243 0.0486763
0.196918 0.0552682 0.0444953
0.224201 0.0563668 0.0413062
0.251591 0.0578622 0.0390021
0.278202 0.0582742 0.0390021
0.303899 0.0600443 0.0399329
0.329259 0.0618753 0.0405585
0.354681 0.0649271 0.041474
0.379721 0.0691386 0.0428016
0.402014 0.0738079 0.0435035
0.420279 0.080293 0.0445716
0.440299 0.0870832 0.0457618
0.459907 0.0943465 0.0466773
0.48098 0.101015 0.0482948
0.502907 0.109483 0.0525521
0.526162 0.11873 0.0592355
0.550729 0.128878 0.068864
0.57612 0.138918 0.0806744
0.592859 0.145556 0.0901198
0.598993 0.149874 0.0956436
0.597742 0.152071 0.0976272
0.593149 0.155779 0.0994583
0.588281 0.159503 0.101717
0.0571908 0.0798352 0.0621347
0.0559854 0.0797894 0.0584878
0.0569924 0.0789349 0.0564584
0.0606546 0.078645 0.0563668
0.067689 0.0797131 0.0572213
0.0818189 0.0799725 0.0560769
0.0944991 0.0802167 0.0553292
0.110185 0.077821 0.0540627
0.130098 0.0733654 0.0544137
0.153201 0.068101 0.0543069
0.176822 0.0643168 0.051194
0.201755 0.0636301 0.0475319
0.228916 0.0635996 0.0444648
0.256153 0.0648814 0.0420844
0.282475 0.0673533 0.0404212
0.307622 0.0708476 0.0410163
0.331395 0.0745403 0.0409247
0.355703 0.0755932 0.0416419
0.379568 0.0789654 0.0423743
0.402029 0.0837568 0.0431373
0.422492 0.0891737 0.044358
0.442573 0.0957046 0.0455634
0.462074 0.101564 0.046891
0.482765 0.10898 0.0501106
0.504356 0.116793 0.0538186
0.525536 0.124758 0.0595712
0.548455 0.133837 0.0677195
0.569162 0.141192 0.0759442
0.586709 0.148318 0.0847639
0.592874 0.152422 0.0895552
0.5906 0.154665 0.090425
0.586404 0.158465 0.0924849
0.581384 0.162722 0.0945754
0.057847 0.0937819 0.0661173
0.0563211 0.0940871 0.0612955
0.060502 0.0924392 0.0573892
0.0631418 0.0917525 0.0563211
0.0701762 0.0924239 0.0570993
0.0819257 0.094255 0.058732
0.100145 0.0938125 0.0574807
0.115434 0.0931716 0.0568093
0.13434 0.0911879 0.055787
0.160006 0.0850843 0.0560006
0.188281 0.0777295 0.0551919
0.216358 0.0737469 0.0518807
0.241932 0.0733349 0.0488441
0.267994 0.0747692 0.047425
0.294682 0.0773327 0.0460365
0.319478 0.0806439 0.0447242
0.343755 0.0840772 0.0443275
0.36701 0.0890516 0.0442206
0.390356 0.0945449 0.0449683
0.414359 0.100923 0.0465248
0.437598 0.107622 0.0486
0.458564 0.115084 0.052369
0.481239 0.123125 0.0582742
0.503594 0.131502 0.0636759
0.527153 0.139956 0.0702983
0.549935 0.147646 0.0770733
0.573526 0.155718 0.0860914
0.596048 0.164019 0.0962844
0.614313 0.171298 0.105608
0.617472 0.173434 0.108476
0.614679 0.174243 0.108293
0.609735 0.175586 0.108049
0.603784 0.176913 0.107561
0.0617838 0.109987 0.0711223
0.0609293 0.110063 0.065507
0.0615396 0.109483 0.0609445
0.0633707 0.108659 0.0586099
0.067277 0.108659 0.0582437
0.0789654 0.110719 0.0603037
0.0958267 0.113207 0.0625467
0.117739 0.112902 0.0616159
0.136629 0.11165 0.0611276
0.16083 0.108721 0.0592203
0.191852 0.102922 0.0591287
0.224765 0.0943923 0.0589761
0.256245 0.0895857 0.0559854
0.283177 0.0896315 0.0544137
0.309194 0.0927138 0.0531777
0.334279 0.0958877 0.0521096
0.36025 0.100114 0.0521706
0.385412 0.105715 0.052903
0.410544 0.112734 0.0549325
0.434913 0.120073 0.057908
0.459907 0.129046 0.0623636
0.484611 0.137469 0.0673075
0.509483 0.146548 0.0734264
0.534493 0.155795 0.0805524
0.558526 0.164782 0.0880446
0.583047 0.174594 0.0970626
0.607202 0.184878 0.107515
0.631235 0.194797 0.118059
0.65156 0.203967 0.128389
0.65333 0.20647 0.130282
0.650431 0.207324 0.13022
0.645945 0.208759 0.13048
0.64065 0.210376 0.130312
0.0628977 0.130251 0.0763104
0.0616617 0.130266 0.0703288
0.0611582 0.129656 0.0648051
0.062211 0.12871 0.0613413
0.0654917 0.128313 0.0593271
0.07364 0.130526 0.0614023
0.0903944 0.134203 0.0640879
0.11075 0.137865 0.0673381
0.139742 0.138262 0.0660258
0.164355 0.136843 0.0655985
0.196475 0.133272 0.0632181
0.231128 0.128511 0.063508
0.267582 0.119585 0.0657054
0.301335 0.115694 0.0650645
0.329442 0.114488 0.0643168
0.356115 0.118593 0.0649882
0.383398 0.123644 0.0657969
0.411551 0.130465 0.0677195
0.437842 0.138369 0.0711833
0.464714 0.147158 0.0756237
0.489998 0.156268 0.0811475
0.515099 0.165499 0.0866865
0.54052 0.175509 0.0934615
0.565499 0.184848 0.0999008
0.590448 0.194263 0.106828
0.616068 0.204181 0.114351
0.64123 0.21471 0.122911
0.665171 0.224918 0.132189
0.688045 0.235386 0.141924
0.688167 0.237339 0.14255
0.685756 0.238422 0.142885
0.681361 0.240085 0.143023
0.676265 0.241886 0.143053
0.0630198 0.155917 0.0827344
0.0607614 0.156268 0.0760815
0.0590524 0.156497 0.0701457
0.0579995 0.155367 0.0651408
0.0591897 0.154604 0.0623026
0.0643626 0.155932 0.0620127
0.0769207 0.160189 0.0643778
0.100999 0.165408 0.0690166
0.127413 0.170581 0.0726329
0.169055 0.173861 0.0718547
0.20029 0.17203 0.0716259
0.237888 0.169665 0.0695811
0.276661 0.168215 0.0715648
0.316381 0.163073 0.0756237
0.352087 0.158083 0.0802472
0.384176 0.157916 0.08159
0.412512 0.161517 0.0841077
0.440116 0.166796 0.0871595
0.467308 0.173205 0.0917372
0.494148 0.181689 0.0957351
0.520119 0.191058 0.100786
0.545449 0.200702 0.10576
0.569253 0.209674 0.110048
0.594461 0.219394 0.115724
0.619501 0.228779 0.121141
0.645716 0.238361 0.12784
0.670726 0.24828 0.134798
0.694606 0.257832 0.142458
0.715709 0.267063 0.150927
0.718425 0.269871 0.153017
0.716442 0.271107 0.15314
0.712047 0.272908 0.153384
0.707652 0.274968 0.15407
0.0655985 0.186557 0.0903792
0.0636301 0.187274 0.0843671
0.0614633 0.187869 0.0775616
0.0601663 0.187167 0.0714885
0.0592966 0.185199 0.0662852
0.0613107 0.184726 0.0641947
0.0689708 0.189502 0.0654459
0.0894484 0.198154 0.0708782
0.118486 0.206668 0.0772717
0.154971 0.216342 0.0838636
0.211673 0.220951 0.0809033
0.248753 0.22118 0.0824903
0.289738 0.220752 0.0812238
0.329641 0.221424 0.0819562
0.369024 0.220172 0.086656
0.405692 0.219135 0.0936599
0.439628 0.213947 0.101884
0.468956 0.216541 0.104814
0.49601 0.220859 0.108339
0.522576 0.227161 0.112871
0.548745 0.233463 0.117021
0.573648 0.239979 0.120912
0.598016 0.249287 0.125383
0.622095 0.257511 0.129747
0.646601 0.265751 0.134874
0.672236 0.274357 0.140597
0.697047 0.282872 0.146517
0.720088 0.291554 0.153674
0.738964 0.299016 0.161089
0.744274 0.303166 0.164462
0.743267 0.304494 0.165148
0.739223 0.306447 0.165469
0.734447 0.308278 0.165606
0.0728771 0.225895 0.10338
0.0708629 0.226642 0.0982834
0.0688487 0.227451 0.0919051
0.0673838 0.227253 0.0841535
0.0661631 0.225208 0.0770581
0.0647593 0.222827 0.0718242
0.0694438 0.225467 0.0717937
0.083772 0.235676 0.0760204
0.112474 0.248432 0.0845808
0.148394 0.260258 0.0931563
0.197375 0.271672 0.0979477
0.262501 0.275029 0.0913405
0.300969 0.275746 0.0933852
0.342336 0.276097 0.0917525
0.380163 0.276905 0.0906844
0.418036 0.277684 0.0931411
0.455192 0.279881 0.100023
0.490425 0.277195 0.109468
0.521324 0.276509 0.11931
0.54934 0.277836 0.127123
0.575082 0.283146 0.130694
0.600351 0.288411 0.134661
0.624353 0.293568 0.137865
0.648051 0.299504 0.142611
0.671183 0.305776 0.147448
0.694881 0.312673 0.152682
0.717433 0.319615 0.159655
0.738094 0.32636 0.167407
0.755734 0.333028 0.174517
0.76437 0.337942 0.179599
0.762707 0.339193 0.180179
0.758938 0.340932 0.180514
0.75465 0.342687 0.181247
0.0847181 0.274159 0.123247
0.0825666 0.274769 0.117815
0.0799573 0.275593 0.111864
0.0784772 0.275822 0.104372
0.078645 0.273869 0.0943923
0.0771801 0.270283 0.0865949
0.0770275 0.26952 0.0818952
0.0865034 0.277089 0.0846723
0.109133 0.291142 0.0918593
0.143481 0.304265 0.100694
0.185977 0.316121 0.108461
0.24625 0.325399 0.106828
0.3122 0.328252 0.0987716
0.351171 0.328481 0.101213
0.390646 0.328176 0.0986038
0.427359 0.329168 0.0959335
0.46453 0.331609 0.0970932
0.499733 0.334783 0.103944
0.534951 0.334478 0.114977
0.566903 0.334401 0.126116
0.59382 0.336156 0.134249
0.619181 0.338216 0.141222
0.643778 0.340887 0.14876
0.66743 0.34403 0.156329
0.68954 0.348898 0.161593
0.711254 0.354284 0.168231
0.731731 0.358999 0.175235
0.751202 0.364294 0.182666
0.76907 0.369558 0.190524
0.78027 0.373602 0.195972
0.778836 0.374716 0.196719
0.775509 0.376318 0.197314
0.771649 0.378012 0.198108
0.0965286 0.32517 0.146471
0.0943923 0.325292 0.140352
0.0927901 0.325887 0.133867
0.0914778 0.325917 0.125612
0.0902571 0.325353 0.115969
0.0895857 0.3234 0.106096
0.0888838 0.320165 0.0979934
0.0907607 0.320623 0.0946212
0.105715 0.331563 0.0987259
0.13489 0.345922 0.106432
0.175158 0.358541 0.114336
0.229358 0.369406 0.118029
0.296132 0.376196 0.110262
0.357824 0.377737 0.103319
0.395941 0.377508 0.106035
0.433448 0.376974 0.103944
0.469383 0.379065 0.100969
0.504219 0.381003 0.101854
0.537057 0.384543 0.108919
0.570108 0.38613 0.120226
0.60206 0.386847 0.13315
0.628412 0.388693 0.14406
0.653483 0.390356 0.153582
0.676936 0.39263 0.162432
0.700786 0.3944 0.171389
0.723217 0.396231 0.181048
0.744091 0.398047 0.191379
0.763165 0.402502 0.199115
0.780148 0.40647 0.206241
0.792706 0.409445 0.212604
0.792065 0.410529 0.213275
0.789044 0.412039 0.214023
0.786007 0.41387 0.214832
0.105501 0.375586 0.171695
0.103456 0.375128 0.164569
0.102007 0.375372 0.157275
0.101015 0.375631 0.148882
0.100069 0.375158 0.138262
0.0991684 0.373144 0.126558
0.0985275 0.370184 0.115846
0.0989853 0.368261 0.108202
0.105669 0.37174 0.106859
0.128618 0.385718 0.112093
0.164492 0.398871 0.119173
0.213245 0.410025 0.12459
0.277684 0.418585 0.120607
0.344656 0.422568 0.109957
0.399237 0.423651 0.106798
0.436652 0.423224 0.111147
0.472602 0.42295 0.111055
0.505959 0.424628 0.109819
0.538308 0.427146 0.11284
0.569375 0.430945 0.120409
0.599664 0.434028 0.1308
0.630732 0.435065 0.144015
0.657176 0.436347 0.156374
0.683375 0.437247 0.169421
0.707317 0.438621 0.179416
0.730251 0.440131 0.190265
0.751293 0.44152 0.200076
0.771344 0.442573 0.210849
0.78912 0.443809 0.221088
0.802197 0.444968 0.229313
0.803571 0.44625 0.231373
0.800748 0.447791 0.232013
0.797894 0.449119 0.232486
0.113405 0.425818 0.20177
0.111788 0.424933 0.193545
0.110124 0.424704 0.185672
0.108873 0.424475 0.175647
0.107332 0.423575 0.163775
0.106172 0.422354 0.151003
0.105806 0.419577 0.139071
0.105638 0.416419 0.126757
0.109499 0.416693 0.119783
0.126162 0.424857 0.120912
0.155184 0.437613 0.124834
0.200671 0.448829 0.130968
0.25861 0.456901 0.131197
0.32488 0.464179 0.122637
0.390753 0.466102 0.113497
0.437888 0.466011 0.114794
0.473915 0.465965 0.120928
0.507546 0.465507 0.122515
0.538811 0.467292 0.121904
0.569268 0.471 0.126543
0.597864 0.473854 0.134234
0.625605 0.476997 0.143908
0.655314 0.479118 0.157137
0.683009 0.480003 0.171695
0.710353 0.480323 0.187366
0.73402 0.480873 0.200198
0.755901 0.48127 0.212284
0.775738 0.482338 0.222858
0.793347 0.48307 0.233234
0.806897 0.483742 0.241428
0.812558 0.484535 0.245869
0.809873 0.485695 0.246159
0.807095 0.486763 0.246632
0.12163 0.476188 0.237736
0.119356 0.473899 0.228489
0.117937 0.472847 0.219135
0.116136 0.471229 0.206195
0.11458 0.469963 0.192294
0.113466 0.468208 0.176852
0.113283 0.466224 0.162875
0.112673 0.461921 0.148684
0.114305 0.458976 0.135805
0.125048 0.46273 0.131624
0.151324 0.474403 0.133577
0.190875 0.485786 0.138201
0.248463 0.493965 0.141909
0.30898 0.500969 0.13872
0.371618 0.505531 0.129732
0.430472 0.506584 0.120684
0.474189 0.50631 0.125643
0.508385 0.506401 0.132128
0.540002 0.506401 0.134936
0.569116 0.507683 0.134752
0.597162 0.51133 0.141726
0.624384 0.514488 0.151217
0.650568 0.517342 0.161257
0.679255 0.519173 0.175174
0.707301 0.520058 0.191791
0.733928 0.519585 0.209476
0.757458 0.518746 0.224628
0.778042 0.518059 0.23801
0.796201 0.518608 0.24828
0.810056 0.518578 0.256321
0.818647 0.51928 0.262211
0.816419 0.520287 0.262287
0.813931 0.521309 0.262715
0.131411 0.524956 0.276707
0.128786 0.522332 0.267338
0.126772 0.519661 0.25687
0.124498 0.516945 0.243122
0.122713 0.514534 0.226398
0.121645 0.512306 0.20795
0.121035 0.50985 0.189868
0.120729 0.505928 0.173709
0.121248 0.501427 0.157458
0.128145 0.501198 0.146777
0.150027 0.509636 0.146014
0.185992 0.521157 0.15053
0.241184 0.529152 0.153964
0.301442 0.535256 0.153582
0.359228 0.541573 0.14725
0.416617 0.544442 0.138201
0.466941 0.545419 0.130724
0.507393 0.54519 0.137713
0.539422 0.544671 0.144457
0.569116 0.544427 0.147814
0.596704 0.54551 0.149691
0.623529 0.549355 0.160311
0.649042 0.552636 0.171527
0.674861 0.554589 0.182925
0.702251 0.5561 0.197711
0.728161 0.556786 0.215106
0.754772 0.555581 0.234241
0.777905 0.554223 0.251453
0.79646 0.552865 0.263691
0.812665 0.552987 0.273487
0.822156 0.55288 0.27921
0.821195 0.553643 0.279866
0.819165 0.554376 0.28014
0.145068 0.57023 0.315892
0.142504 0.567315 0.307515
0.140215 0.564767 0.298024
0.137713 0.561791 0.285145
0.135317 0.558022 0.267643
0.133806 0.553994 0.245838
0.132906 0.550576 0.223682
0.132311 0.546883 0.2038
0.13283 0.541787 0.185092
0.135866 0.538552 0.168261
0.153979 0.544198 0.164019
0.185412 0.555184 0.166522
0.234485 0.563226 0.168765
0.296498 0.56849 0.168154
0.351339 0.574777 0.163882
0.404746 0.580133 0.156756
0.46006 0.581338 0.147509
0.502373 0.582101 0.143053
0.538689 0.581582 0.151019
0.56846 0.581201 0.158892
0.59707 0.581567 0.165377
0.623316 0.582345 0.170642
0.647807 0.585016 0.182132
0.672648 0.587442 0.195239
0.697948 0.589334 0.208713
0.723293 0.590066 0.224506
0.748012 0.59028 0.242466
0.773205 0.589059 0.26183
0.794308 0.58732 0.278294
0.811429 0.586816 0.289631
0.823102 0.58703 0.297093
0.824384 0.586999 0.297993
0.822858 0.587243 0.297978
0.159152 0.612589 0.352071
0.156771 0.609964 0.344854
0.154253 0.607477 0.336675
0.151766 0.60444 0.325216
0.148852 0.600519 0.309316
0.146578 0.5953 0.287617
0.145556 0.5906 0.262196
0.145022 0.586145 0.236912
0.145647 0.580774 0.215534
0.146944 0.57554 0.194949
0.158099 0.575525 0.181415
0.188693 0.586999 0.183566
0.231327 0.596475 0.185229
0.293233 0.601282 0.183551
0.348424 0.606668 0.180407
0.398459 0.612497 0.173953
0.447196 0.615473 0.167163
0.498695 0.616312 0.158328
0.535134 0.617533 0.157305
0.567727 0.616861 0.166491
0.595605 0.616083 0.1738
0.621637 0.615991 0.182544
0.646922 0.616587 0.194186
0.671427 0.618204 0.208484
0.69514 0.619959 0.223896
0.719158 0.621241 0.237888
0.742962 0.621881 0.253361
0.765942 0.621973 0.27039
0.790021 0.620584 0.289708
0.809232 0.619303 0.304509
0.822187 0.618936 0.313085
0.826963 0.619028 0.316182
0.825757 0.618952 0.315892
0.173816 0.653391 0.385412
0.171557 0.650584 0.379049
0.169345 0.647837 0.371572
0.166445 0.644419 0.361028
0.163226 0.640681 0.346792
0.160815 0.635721 0.327886
0.158465 0.629984 0.302724
0.157809 0.624186 0.27364
0.158419 0.617716 0.247486
0.160037 0.611246 0.223667
0.167468 0.608545 0.205295
0.193378 0.617105 0.201129
0.231952 0.627939 0.202609
0.291569 0.633249 0.200717
0.347967 0.638163 0.198566
0.395117 0.643534 0.193332
0.44036 0.647913 0.18616
0.487922 0.649882 0.179355
0.533089 0.650217 0.171237
0.56524 0.650645 0.172961
0.594934 0.649012 0.182055
0.620523 0.648829 0.191623
0.645869 0.648859 0.204471
0.670192 0.648936 0.221622
0.693538 0.649775 0.238575
0.715953 0.651316 0.254795
0.738201 0.652216 0.268299
0.762036 0.652628 0.282307
0.785336 0.651682 0.296895
0.8094 0.648692 0.314015
0.826322 0.647044 0.325032
0.834211 0.64625 0.330358
0.832792 0.646311 0.330144
0.189654 0.692531 0.412482
0.187289 0.689281 0.406394
0.184802 0.686229 0.399374
0.182162 0.68278 0.389731
0.179309 0.678737 0.377279
0.176516 0.674281 0.360388
0.173785 0.667903 0.337438
0.17258 0.660883 0.308888
0.172549 0.653254 0.278294
0.17467 0.646067 0.250843
0.181674 0.641978 0.228611
0.204257 0.647486 0.219669
0.239948 0.657847 0.21912
0.296422 0.663569 0.216403
0.350591 0.667994 0.214359
0.39826 0.673335 0.211048
0.441917 0.677623 0.203449
0.483665 0.680156 0.196597
0.528618 0.680522 0.18967
0.568292 0.680629 0.183047
0.596902 0.680385 0.18677
0.62414 0.678935 0.196735
0.647883 0.678553 0.210178
0.672236 0.678141 0.231724
0.696284 0.678233 0.250446
0.719219 0.678904 0.26775
0.739742 0.679164 0.282094
0.760906 0.679606 0.294438
0.783078 0.679683 0.307591
0.804181 0.678294 0.321187
0.824201 0.675578 0.338659
0.832364 0.675044 0.345113
0.831144 0.674647 0.344839
0.205936 0.729 0.44213
0.203616 0.725811 0.436133
0.201343 0.722454 0.429465
0.198993 0.719188 0.420783
0.195605 0.714702 0.408789
0.192416 0.709773 0.393103
0.18967 0.704128 0.372992
0.187381 0.69688 0.346136
0.187198 0.688563 0.315969
0.188861 0.679744 0.284398
0.197681 0.675547 0.260395
0.21883 0.67892 0.248157
0.253574 0.68809 0.245304
0.305028 0.693187 0.240711
0.355764 0.697322 0.238758
0.39971 0.701473 0.236118
0.440848 0.705608 0.230945
0.48014 0.708431 0.223209
0.520165 0.709514 0.216327
0.561425 0.709285 0.209766
0.596658 0.7093 0.204318
0.622553 0.708782 0.209796
0.648096 0.707744 0.222293
0.670497 0.707607 0.244282
0.693614 0.706722 0.265248
0.717235 0.706233 0.283055
0.738277 0.705684 0.29778
0.758724 0.70576 0.31133
0.77818 0.705577 0.322271
0.798795 0.705287 0.334508
0.817761 0.703593 0.347372
0.830488 0.701701 0.35877
0.82974 0.701152 0.358785
0.222629 0.761425 0.46952
0.220233 0.75816 0.463462
0.218235 0.755169 0.457252
0.215427 0.751263 0.448249
0.211872 0.746715 0.437034
0.208621 0.741573 0.422034
0.20502 0.735653 0.403159
0.202838 0.729168 0.380697
0.201587 0.720668 0.354925
0.203204 0.711131 0.323293
0.213977 0.707317 0.297047
0.234989 0.709072 0.281193
0.268528 0.715129 0.273152
0.316335 0.71986 0.267369
0.362066 0.723232 0.265766
0.403189 0.726452 0.265385
0.440513 0.729488 0.26334
0.477852 0.732708 0.258228
0.51313 0.734829 0.25272
0.55079 0.734813 0.245899
0.589273 0.734462 0.240162
0.620951 0.734844 0.236637
0.645624 0.734539 0.244388
0.669917 0.73341 0.258106
0.691508 0.733196 0.278843
0.714076 0.732036 0.297826
0.736553 0.730663 0.313176
0.75642 0.730114 0.327398
0.774929 0.730327 0.340795
0.791196 0.730373 0.352483
0.807752 0.729686 0.363638
0.819074 0.728664 0.371832
0.822889 0.72752 0.373938
0.238819 0.790066 0.496986
0.236362 0.786847 0.48957
0.234043 0.783337 0.482628
0.231113 0.779767 0.474235
0.228199 0.775357 0.463401
0.224826 0.770123 0.449775
0.221485 0.764248 0.432883
0.218738 0.757733 0.412894
0.216983 0.749569 0.389441
0.218296 0.740917 0.361761
0.230426 0.737255 0.337758
0.249805 0.736278 0.317586
0.282277 0.739406 0.304433
0.325521 0.74342 0.29688
0.367895 0.74609 0.295781
0.405417 0.748806 0.296223
0.441001 0.751125 0.296376
0.474769 0.753384 0.293904
0.508354 0.755993 0.289845
0.541451 0.757671 0.285725
0.577142 0.757626 0.280171
0.613169 0.757351 0.27509
0.642298 0.757702 0.272862
0.66659 0.757168 0.280598
0.690791 0.755718 0.292638
0.712383 0.75523 0.311864
0.734218 0.753704 0.328832
0.754345 0.752422 0.343359
0.772839 0.751431 0.356222
0.789776 0.751278 0.368688
0.804273 0.751598 0.380285
0.814237 0.751659 0.388418
0.817746 0.750896 0.391073
0.253971 0.814572 0.522545
0.251743 0.811551 0.515221
0.249531 0.808484 0.507485
0.246998 0.804669 0.499138
0.244388 0.800763 0.48893
0.240848 0.795636 0.47631
0.238025 0.789792 0.461936
0.235386 0.783368 0.443839
0.232959 0.776165 0.422614
0.234485 0.768322 0.397482
0.247486 0.765133 0.376776
0.266163 0.762676 0.356695
0.295125 0.761181 0.337636
0.333089 0.764691 0.328298
0.372869 0.767224 0.326848
0.408484 0.768917 0.326787
0.441199 0.770611 0.327047
0.473045 0.772641 0.327214
0.503807 0.774884 0.325643
0.53492 0.777188 0.32256
0.566903 0.77847 0.319448
0.600336 0.778424 0.31368
0.634104 0.778332 0.310033
0.662043 0.778378 0.306874
0.686122 0.777874 0.313649
0.71075 0.776272 0.326055
0.73167 0.775479 0.343359
0.75172 0.77348 0.358602
0.770718 0.772549 0.3729
0.788098 0.771923 0.385565
0.802655 0.771679 0.396902
0.811429 0.772045 0.405356
0.815259 0.771954 0.408408
0.267277 0.834592 0.543542
0.266072 0.832212 0.537408
0.264271 0.829557 0.53106
0.262058 0.826352 0.522774
0.259648 0.822644 0.513558
0.257099 0.8177 0.50164
0.253956 0.812268 0.488273
0.251026 0.806332 0.471992
0.249149 0.799954 0.453117
0.250492 0.793912 0.431739
0.265309 0.790234 0.412604
0.283757 0.785595 0.391226
0.310399 0.782345 0.371756
0.342657 0.783459 0.359731
0.377493 0.785473 0.355627
0.410636 0.786816 0.355123
0.442359 0.788327 0.355795
