bundles/resolve-cinematic-luts/Phantom Luts/P4k & P6K Phntm Film LUTs - V6/P6k/Gen 4 Colour/P6k Vision Gen4.cube
TITLE "Generated by Resolve"
LUT_3D_SIZE 33
0.0224155 0.0224155 0.0224155
0.0224155 0.0224155 0.0224155
0.0224155 0.0224155 0.0224155
0.0292821 0.0234379 0.0223239
0.0487831 0.0270848 0.0222934
0.0738994 0.0285649 0.0210269
0.100206 0.0288548 0.019791
0.129107 0.03093 0.0188907
0.16492 0.0321355 0.0188144
0.201282 0.0328985 0.019791
0.236225 0.0343481 0.0208591
0.271824 0.0362402 0.0221103
0.307301 0.0378882 0.0241245
0.347738 0.0406195 0.0276951
0.389105 0.0449683 0.0302892
0.431296 0.0505837 0.0336767
0.472587 0.059205 0.0395514
0.521416 0.0749981 0.0539864
0.566888 0.0896315 0.0656901
0.608179 0.102266 0.0760052
0.650355 0.116442 0.0884871
0.694224 0.136767 0.110323
0.725948 0.15285 0.121401
0.752026 0.171221 0.133089
0.778103 0.185458 0.154452
0.783856 0.193011 0.159762
0.783551 0.196765 0.160067
0.780941 0.199466 0.157321
0.780728 0.202457 0.157259
0.781186 0.205539 0.15729
0.781781 0.20856 0.158038
0.781704 0.210758 0.157626
0.781079 0.213703 0.155886
0.0224155 0.0224155 0.0224155
0.0224155 0.0224155 0.0224155
0.0224155 0.0224155 0.0224155
0.0291295 0.0236667 0.0222782
0.0484932 0.0272831 0.0222629
0.0757153 0.0291447 0.0209354
0.102037 0.0290227 0.0197299
0.131792 0.0313878 0.0189364
0.168414 0.0324254 0.0189517
0.203723 0.0330968 0.0179904
0.237812 0.0343633 0.0184634
0.272175 0.0362707 0.0206149
0.307637 0.0379339 0.0226749
0.346502 0.0411536 0.0261082
0.386252 0.0458534 0.028809
0.431662 0.0518044 0.0337682
0.476997 0.0616922 0.041413
0.520455 0.0756237 0.0529488
0.564721 0.0893263 0.0632334
0.612696 0.107362 0.0810712
0.656214 0.122744 0.0961471
0.691371 0.138521 0.108415
0.720256 0.155276 0.11812
0.752651 0.173297 0.134966
0.776059 0.18703 0.152178
0.779904 0.195575 0.153658
0.779416 0.198962 0.154452
0.778012 0.201297 0.153735
0.778317 0.204913 0.154894
0.779583 0.20824 0.156329
0.780346 0.210483 0.156725
0.780026 0.213077 0.155596
0.779736 0.216419 0.155245
0.0224308 0.0250706 0.0224308
0.0224155 0.0224155 0.0224155
0.0224155 0.0224155 0.0224155
0.022797 0.0255894 0.022446
0.041886 0.0272221 0.0225071
0.072221 0.030396 0.0212558
0.102754 0.031754 0.019913
0.133745 0.0341039 0.0195468
0.168505 0.033814 0.0188144
0.202884 0.0334478 0.0180667
0.235401 0.0342565 0.0175784
0.271199 0.037644 0.0202029
0.306737 0.0402686 0.022385
0.344625 0.0443885 0.0260777
0.383688 0.0464637 0.0277104
0.428977 0.0516213 0.0324407
0.475074 0.0620584 0.0401923
0.521324 0.0802014 0.0548714
0.568032 0.0945754 0.0681926
0.612284 0.109087 0.0813916
0.65481 0.12462 0.0958267
0.688533 0.141299 0.106996
0.722576 0.157382 0.12047
0.750729 0.174746 0.134371
0.770855 0.19202 0.14728
0.778561 0.198001 0.152438
0.777554 0.200626 0.15285
0.776806 0.204089 0.15346
0.777111 0.207599 0.15465
0.77847 0.210407 0.155932
0.778363 0.212634 0.155245
0.778698 0.216434 0.155596
0.779934 0.219928 0.157031
0.0218357 0.0494087 0.0255741
0.0217899 0.0471199 0.0218814
0.0220493 0.0448005 0.0220493
0.0276341 0.0461433 0.0219272
0.0405127 0.0496681 0.0222171
0.0754711 0.0418555 0.0217441
0.104662 0.0379034 0.0203861
0.134646 0.0381018 0.0196689
0.169207 0.0382696 0.018967
0.203815 0.0384985 0.0183413
0.23711 0.0402228 0.0184176
0.270436 0.0424201 0.0198062
0.306004 0.0438087 0.0217899
0.340551 0.0453193 0.0243534
0.383001 0.0500496 0.0286717
0.426871 0.057969 0.0335546
0.473167 0.0689555 0.0409705
0.517754 0.0832074 0.0539101
0.565728 0.0971695 0.0668956
0.609735 0.113527 0.0805371
0.651179 0.129656 0.0948653
0.68806 0.142885 0.10782
0.721096 0.159152 0.121004
0.749004 0.175982 0.134005
0.76846 0.196185 0.147417
0.777691 0.200412 0.152865
0.776776 0.2038 0.153338
0.776089 0.207324 0.154116
0.776898 0.210346 0.155505
0.776516 0.213901 0.155749
0.777356 0.217624 0.156741
0.778775 0.221073 0.15787
0.778912 0.223209 0.157748
0.0212863 0.0791791 0.0356146
0.0210117 0.0763561 0.0281682
0.0222171 0.0725872 0.026566
0.0281834 0.0715038 0.0262608
0.0432746 0.0752422 0.0242771
0.072694 0.0753185 0.021912
0.108904 0.0673991 0.0213626
0.1393 0.0580301 0.0239261
0.175128 0.0510414 0.02121
0.207858 0.0487984 0.0201572
0.239811 0.0493477 0.0209506
0.273259 0.0499886 0.0226444
0.307103 0.0515908 0.0247196
0.342672 0.0546578 0.0278325
0.381506 0.0588388 0.0306249
0.423758 0.0653086 0.03505
0.472602 0.0755169 0.042359
0.519341 0.0914626 0.0562448
0.565728 0.106416 0.0690166
0.60914 0.120409 0.0825208
0.649561 0.133257 0.0950179
0.685924 0.146044 0.10779
0.71873 0.165072 0.121035
0.746456 0.183612 0.134707
0.768032 0.201709 0.149355
0.776272 0.208942 0.155108
0.776013 0.20766 0.154238
0.775326 0.212482 0.155886
0.775372 0.217716 0.157488
0.775555 0.222202 0.158602
0.775921 0.224628 0.158663
0.776852 0.226246 0.158694
0.776486 0.233188 0.159976
0.0242161 0.109178 0.0467384
0.0246433 0.10724 0.0373693
0.0234226 0.103334 0.0322881
0.0280308 0.101793 0.0322576
0.0405127 0.104845 0.033402
0.0680705 0.107134 0.0271763
0.102144 0.103532 0.0215457
0.140291 0.0977035 0.0216983
0.180072 0.0831006 0.0235904
0.213794 0.0712749 0.0266575
0.247272 0.0628672 0.026566
0.278721 0.0613718 0.0273594
0.312261 0.0632181 0.0294347
0.347127 0.0669261 0.0316472
0.385595 0.0719463 0.0347295
0.427832 0.0790112 0.0398871
0.475517 0.0916304 0.0489509
0.522316 0.105501 0.0609598
0.567452 0.118364 0.073579
0.609125 0.131456 0.0859083
0.648325 0.145235 0.098024
0.684489 0.160662 0.111177
0.715541 0.176242 0.12221
0.741985 0.192233 0.134798
0.764355 0.209094 0.149523
0.774533 0.22063 0.158389
0.774777 0.220539 0.158495
0.77351 0.225299 0.159335
0.773404 0.228519 0.159792
0.77351 0.231922 0.160464
0.773648 0.236576 0.162295
0.773083 0.241886 0.163104
0.77261 0.247822 0.164508
0.0247807 0.13959 0.0576028
0.0257572 0.137438 0.0447852
0.0255741 0.133425 0.037705
0.0261997 0.131044 0.0375067
0.0348974 0.132769 0.0369726
0.0543526 0.135286 0.0388647
0.0925917 0.136889 0.0269932
0.133303 0.130663 0.0214694
0.180804 0.12256 0.0223087
0.220447 0.110704 0.0242161
0.25388 0.0958267 0.0287785
0.287343 0.0874952 0.0327001
0.321324 0.0825666 0.0345464
0.355612 0.0837873 0.036408
0.393332 0.088777 0.0404669
0.435065 0.0975204 0.0476997
0.481041 0.109834 0.0572366
0.526467 0.12256 0.0681163
0.568612 0.13521 0.0791791
0.608896 0.14847 0.0908064
0.646647 0.163119 0.10251
0.680186 0.177615 0.113191
0.710475 0.193545 0.124285
0.736522 0.21059 0.138231
0.761028 0.227802 0.154925
0.770199 0.238056 0.16318
0.769039 0.241505 0.164416
0.768933 0.241367 0.164202
0.768307 0.245823 0.166064
0.767651 0.250004 0.166781
0.767224 0.254841 0.167712
0.76672 0.259312 0.168414
0.766827 0.266041 0.172015
0.0224002 0.173297 0.0667582
0.0241245 0.171572 0.0533913
0.0239261 0.165927 0.0392309
0.0241855 0.163577 0.0388647
0.0265354 0.161791 0.0389868
0.0419318 0.166705 0.0398566
0.0685893 0.170336 0.0399634
0.116335 0.172107 0.0262608
0.17084 0.162966 0.0212406
0.220844 0.153536 0.0236973
0.262974 0.14406 0.0299077
0.298466 0.128359 0.033875
0.334279 0.119295 0.0423896
0.370703 0.114916 0.0469215
0.407889 0.116976 0.052079
0.447639 0.12282 0.0578317
0.489311 0.13254 0.0661326
0.530541 0.143587 0.0759594
0.571237 0.156435 0.0866865
0.608743 0.169955 0.0960708
0.644373 0.184451 0.106889
0.675761 0.199191 0.116777
0.704387 0.214191 0.128359
0.731426 0.230472 0.143557
0.753948 0.246845 0.159014
0.765393 0.257771 0.169787
0.76463 0.261631 0.171267
0.763409 0.265995 0.173022
0.763806 0.265721 0.172671
0.76318 0.270375 0.174533
0.763561 0.27538 0.176303
0.763165 0.280171 0.177966
0.762997 0.286076 0.180148
0.0256199 0.212497 0.0836652
0.0267033 0.210422 0.0696269
0.0259861 0.204211 0.0507515
0.0242161 0.199008 0.0424048
0.0240024 0.196307 0.0420386
0.0310216 0.197253 0.0427405
0.0579843 0.206683 0.0465095
0.0902876 0.212497 0.0458686
0.155612 0.213886 0.0297704
0.213382 0.202335 0.0222171
0.262242 0.19324 0.0255131
0.304524 0.182406 0.0337072
0.344488 0.170565 0.0399329
0.382544 0.160464 0.0517433
0.419684 0.158114 0.0630198
0.457847 0.156939 0.0689555
0.495781 0.163012 0.0753033
0.534585 0.170809 0.0831769
0.571939 0.18262 0.092195
0.607126 0.195773 0.10135
0.641611 0.20943 0.11191
0.672953 0.223392 0.12343
0.701289 0.238254 0.136202
0.727077 0.254032 0.151415
0.749798 0.269474 0.167269
0.759884 0.280003 0.178393
0.75967 0.284398 0.181048
0.759609 0.289021 0.183536
0.758679 0.293431 0.184268
0.758785 0.294026 0.18407
0.759426 0.298619 0.18674
0.758892 0.303487 0.188281
0.759976 0.309285 0.191257
0.0312657 0.254414 0.104265
0.03299 0.254108 0.0924849
0.0330205 0.248585 0.0739452
0.0311589 0.241642 0.0566415
0.029984 0.238376 0.0529183
0.0293431 0.234974 0.0519112
0.0467994 0.242023 0.0549477
0.0785382 0.249683 0.0571298
0.115663 0.255558 0.0537575
0.198123 0.251652 0.0307774
0.2551 0.240314 0.0240482
0.303365 0.230137 0.0266728
0.346258 0.219501 0.0361791
0.387427 0.212573 0.0433509
0.424582 0.204898 0.0572213
0.460121 0.203479 0.072694
0.499138 0.205097 0.0838026
0.537545 0.209705 0.0929732
0.573556 0.217762 0.101503
0.608515 0.226535 0.110201
0.640986 0.23798 0.120043
0.671763 0.25127 0.133333
0.699214 0.265827 0.146502
0.723995 0.280354 0.161837
0.745418 0.295293 0.178851
0.755657 0.304326 0.188556
0.757259 0.310262 0.192065
0.757 0.314504 0.194476
0.756893 0.32018 0.197177
0.756939 0.325032 0.19913
0.75729 0.325658 0.199054
0.758114 0.330282 0.201587
0.758129 0.335119 0.203159
0.0357977 0.295171 0.126604
0.0376898 0.294453 0.113619
0.0380102 0.290471 0.0973526
0.0381323 0.286091 0.0802319
0.0361486 0.279301 0.0648966
0.0354162 0.277028 0.062974
0.0354314 0.274022 0.0621195
0.0640879 0.284306 0.0654917
0.0992905 0.291218 0.0674754
0.143008 0.296391 0.0606851
0.238865 0.291722 0.0344244
0.297032 0.279408 0.0261082
0.346105 0.270619 0.0271611
0.389578 0.260243 0.0394598
0.430549 0.254856 0.0487678
0.470649 0.251804 0.0687419
0.507149 0.25153 0.0860914
0.541085 0.255085 0.103136
0.576608 0.260014 0.114855
0.60972 0.267292 0.124392
0.642084 0.276967 0.135256
0.671336 0.286519 0.146975
0.698329 0.29752 0.15993
0.721416 0.311284 0.175219
0.74255 0.325277 0.19266
0.753552 0.334981 0.203006
0.756054 0.340475 0.206714
0.756008 0.34464 0.20824
0.75584 0.348989 0.210803
0.756512 0.354437 0.213321
0.757168 0.359091 0.215351
0.757687 0.360327 0.215488
0.758556 0.365621 0.218204
0.0407416 0.336004 0.15256
0.0434424 0.33579 0.139437
0.0439612 0.333928 0.123079
0.0448768 0.330327 0.106859
0.0432898 0.324086 0.0885328
0.0406348 0.317891 0.0741131
0.0404212 0.315663 0.073167
0.0485542 0.317464 0.0740978
0.0856794 0.327413 0.0771649
0.123171 0.334188 0.0793927
0.179004 0.337621 0.0668803
0.282856 0.334874 0.0407874
0.341924 0.321874 0.0318303
0.390936 0.31368 0.0279545
0.433677 0.303655 0.0422065
0.474617 0.300114 0.0598154
0.516762 0.299794 0.0844282
0.55111 0.302708 0.101854
0.583062 0.307332 0.117403
0.613718 0.314015 0.135348
0.642222 0.322103 0.152575
0.670237 0.330251 0.166354
0.696544 0.339559 0.181491
0.72018 0.348135 0.195407
0.741482 0.358572 0.208911
0.753368 0.368582 0.219059
0.756756 0.373953 0.222629
0.756786 0.377829 0.22417
0.756817 0.382055 0.226764
0.757137 0.386908 0.228931
0.757778 0.391592 0.231037
0.758801 0.393301 0.2318
0.760067 0.397253 0.233997
0.0472572 0.378882 0.186297
0.0503548 0.379431 0.173663
0.0513466 0.377829 0.155932
0.051667 0.374884 0.13753
0.0523079 0.371725 0.120073
0.0502937 0.364843 0.0999771
0.0480354 0.358862 0.0859693
0.0473793 0.356313 0.0846113
0.0682536 0.36257 0.0867628
0.109331 0.371756 0.0882734
0.153231 0.378012 0.0925154
0.217731 0.380865 0.0743572
0.327993 0.378729 0.0504463
0.38674 0.368536 0.0418097
0.436149 0.359579 0.0281376
0.47863 0.351614 0.0467842
0.520058 0.349432 0.0752422
0.561486 0.350607 0.102342
0.593835 0.355413 0.121141
0.62298 0.361242 0.13872
0.650233 0.368292 0.156497
0.675212 0.375357 0.175448
0.698314 0.384421 0.196262
0.719554 0.393133 0.214389
0.740368 0.401755 0.229053
0.755444 0.408377 0.23946
0.758312 0.410254 0.241367
0.758312 0.413138 0.242832
0.759197 0.417151 0.245609
0.759091 0.421195 0.247181
0.760449 0.425803 0.249348
0.761624 0.429648 0.250065
0.762646 0.430014 0.250141
0.0552071 0.423194 0.22121
0.0587472 0.423865 0.211444
0.0591135 0.422263 0.196094
0.0599527 0.420798 0.179065
0.0610666 0.418036 0.158022
0.060914 0.414435 0.137362
0.0589151 0.406851 0.113573
0.0562142 0.40119 0.0988632
0.057023 0.39855 0.0976272
0.0951858 0.40972 0.101518
0.140505 0.417655 0.103441
0.191974 0.421744 0.106264
0.262821 0.426368 0.0870375
0.375128 0.425025 0.0652018
0.434119 0.416464 0.0565042
0.485557 0.408957 0.031342
0.527047 0.402701 0.0580911
0.565972 0.401785 0.0912032
0.605066 0.40174 0.124453
0.634882 0.407416 0.147463
0.661341 0.414099 0.166995
0.685802 0.421073 0.18732
0.708247 0.428717 0.20499
0.727871 0.436606 0.221012
0.746197 0.444083 0.236515
0.761456 0.45153 0.250523
0.765713 0.454124 0.255344
0.765789 0.454383 0.255421
0.766171 0.454902 0.25565
0.767086 0.457069 0.255985
0.767803 0.460594 0.256153
0.7691 0.46421 0.257221
0.771023 0.467765 0.258335
0.064271 0.469718 0.259785
0.0681773 0.470451 0.250111
0.0706951 0.470008 0.238972
0.0704967 0.467628 0.223209
0.0705272 0.465553 0.205661
0.0710155 0.462409 0.183703
0.071107 0.457679 0.159319
0.068925 0.450431 0.130816
0.0661479 0.44506 0.113848
0.0815747 0.447639 0.115358
0.127886 0.457267 0.11754
0.180179 0.462181 0.119936
0.233951 0.467094 0.124926
0.311345 0.47361 0.102571
0.422415 0.472496 0.0841535
0.480232 0.465415 0.0781567
0.534722 0.459068 0.0398566
0.575174 0.455085 0.0720684
0.610468 0.455177 0.109606
0.645457 0.45478 0.149172
0.674372 0.459251 0.181277
0.69781 0.466133 0.202731
0.718761 0.473259 0.218662
0.737896 0.480888 0.234852
0.755093 0.488243 0.248997
0.769802 0.496269 0.263386
0.776516 0.500572 0.270954
0.776791 0.501274 0.271351
0.776715 0.501335 0.271397
0.776608 0.500755 0.271183
0.776654 0.499413 0.270863
0.777417 0.501411 0.271214
0.77847 0.503578 0.271794
0.0759747 0.516365 0.302266
0.0788739 0.516854 0.293111
0.0826123 0.517235 0.282689
0.0840925 0.516335 0.271275
0.0829023 0.513817 0.253742
0.0826581 0.510872 0.233387
0.0837415 0.508034 0.211246
0.0825818 0.501839 0.186419
0.0806439 0.494987 0.151812
0.0800488 0.489967 0.131731
0.115831 0.497627 0.134554
0.170489 0.504189 0.136934
0.226596 0.508522 0.148165
0.280446 0.515023 0.153674
0.3617 0.521324 0.12221
0.470146 0.520775 0.104402
0.527276 0.514458 0.102083
0.580423 0.509117 0.0644846
0.619821 0.507942 0.0962387
0.652506 0.508385 0.133181
0.682795 0.508965 0.178332
0.709743 0.511147 0.218189
0.73106 0.517235 0.239185
0.747799 0.524254 0.253925
0.763577 0.53196 0.269032
0.777737 0.539956 0.282902
0.786191 0.544121 0.291432
0.787915 0.545769 0.293492
0.787869 0.545663 0.293431
0.787655 0.544778 0.292775
0.787167 0.542748 0.291539
0.786755 0.540871 0.290257
0.787228 0.539223 0.289158
0.0882277 0.564218 0.345876
0.0915389 0.564706 0.337911
0.0944228 0.564965 0.328634
0.0983444 0.564996 0.3187
0.0988479 0.563729 0.304829
0.0968032 0.560693 0.285908
0.096437 0.558022 0.263783
0.0961929 0.552911 0.239612
0.0944991 0.545785 0.212604
0.092607 0.538964 0.177798
0.106615 0.538125 0.155993
0.156619 0.546166 0.160296
0.220737 0.550729 0.17348
0.273396 0.55668 0.18999
0.327535 0.562982 0.188769
0.411795 0.569879 0.14583
0.516365 0.569924 0.129656
0.570947 0.565072 0.131212
0.621302 0.560174 0.100267
0.659937 0.561212 0.124559
0.689357 0.562295 0.165393
0.716976 0.563409 0.210452
0.740566 0.565988 0.24799
0.758923 0.569986 0.279026
0.773419 0.576333 0.295277
0.785885 0.582345 0.307698
0.79585 0.587808 0.317815
0.797864 0.589349 0.319738
0.797894 0.589364 0.319722
0.797955 0.588983 0.319631
0.797879 0.587274 0.318944
0.79733 0.583795 0.316701
0.796551 0.578592 0.31284
0.101579 0.611109 0.390112
0.103441 0.611337 0.3823
0.106889 0.611231 0.37348
0.110124 0.61146 0.364233
0.114519 0.611658 0.354269
0.113146 0.609293 0.33753
0.111131 0.606332 0.316396
0.109911 0.602869 0.291707
0.109697 0.596567 0.266224
0.108186 0.58938 0.237522
0.109911 0.583413 0.205325
0.147799 0.587381 0.193729
0.211322 0.592706 0.202655
0.270024 0.597757 0.216526
0.320546 0.603464 0.229236
0.37615 0.610117 0.217823
0.463539 0.615595 0.175128
0.560021 0.617914 0.160678
0.610758 0.614755 0.166613
0.656504 0.610651 0.144518
0.695842 0.613138 0.159274
0.721904 0.613275 0.205509
0.745144 0.614969 0.243442
0.765225 0.617258 0.279789
0.781125 0.620203 0.310155
0.794095 0.624628 0.329717
0.803586 0.62974 0.344381
0.808667 0.631708 0.351354
0.808576 0.631388 0.350988
0.808286 0.630472 0.349798
0.807446 0.628672 0.347189
0.807965 0.625742 0.34551
0.805692 0.619837 0.340597
0.119493 0.656229 0.433478
0.120317 0.656184 0.425681
0.122591 0.656229 0.417975
0.125261 0.656306 0.409598
0.128298 0.656565 0.400397
0.133059 0.656245 0.38761
0.128252 0.652934 0.367468
0.12549 0.649577 0.344381
0.123339 0.645029 0.318013
0.12372 0.638056 0.290745
0.124651 0.631006 0.259648
0.148684 0.629389 0.236271
0.204944 0.632578 0.233188
0.26656 0.637888 0.243626
0.32015 0.642359 0.255344
0.368826 0.647349 0.264088
0.429374 0.655741 0.240162
0.515114 0.659831 0.205936
0.598749 0.661311 0.19646
0.64509 0.659785 0.20383
0.687434 0.656687 0.201755
0.723262 0.657954 0.220127
0.748852 0.659663 0.246082
0.76762 0.661387 0.278935
0.785336 0.662776 0.312261
0.799558 0.665812 0.343862
0.811368 0.670039 0.365087
0.81883 0.674235 0.375769
0.819638 0.673671 0.375601
0.819348 0.672068 0.374228
0.818219 0.669429 0.370947
0.817838 0.666438 0.368612
0.816175 0.660945 0.363989
0.146563 0.698222 0.474571
0.146792 0.698131 0.468284
0.147738 0.698299 0.461295
0.149294 0.698528 0.453742
0.150851 0.69839 0.444556
0.152941 0.698024 0.433173
0.153094 0.696757 0.417365
0.148089 0.694072 0.395254
0.142535 0.689723 0.368795
0.141909 0.683925 0.341756
0.14551 0.676799 0.311696
0.160418 0.672084 0.282841
0.203525 0.67013 0.267597
0.264622 0.675334 0.273899
0.321431 0.679515 0.282872
0.370275 0.684382 0.291768
0.417853 0.689662 0.291646
0.481483 0.697063 0.26125
0.563424 0.699702 0.233204
0.635966 0.701564 0.228946
0.677348 0.700603 0.237049
0.714488 0.698726 0.254582
0.745007 0.699062 0.274952
0.769512 0.701228 0.294133
0.788373 0.703365 0.319265
0.80351 0.705577 0.349325
0.817212 0.70808 0.38024
0.825772 0.71075 0.398688
0.828504 0.711498 0.402365
0.82797 0.709743 0.400381
0.826871 0.707424 0.39733
0.827085 0.704601 0.394568
0.825086 0.698756 0.388815
0.176028 0.735302 0.512428
0.176516 0.735622 0.50721
0.177478 0.736034 0.501457
0.178683 0.735698 0.494347
0.180209 0.735653 0.485786
0.182712 0.735546 0.475486
0.186191 0.73521 0.462486
0.183536 0.734813 0.444739
0.175937 0.731136 0.419654
0.171511 0.726207 0.392035
0.173297 0.719051 0.361578
0.185946 0.71252 0.332174
0.220859 0.708263 0.313359
0.273991 0.711437 0.313497
0.328557 0.714672 0.318044
0.375036 0.717144 0.323262
0.420935 0.720913 0.329107
0.466453 0.726513 0.317388
0.530221 0.733608 0.284153
0.601129 0.73431 0.263264
0.667048 0.735485 0.261494
0.70692 0.737423 0.283253
0.737957 0.735851 0.309545
0.764187 0.736599 0.329625
0.785473 0.738308 0.347463
0.804562 0.740398 0.363836
0.819425 0.742123 0.389059
0.831907 0.743725 0.417517
0.836622 0.744152 0.428168
0.836042 0.743069 0.425483
0.835859 0.741665 0.423575
0.834577 0.738338 0.420172
0.833616 0.7337 0.415076
0.206119 0.767773 0.549233
0.207523 0.768109 0.54406
0.20824 0.767987 0.538033
0.209522 0.767773 0.531838
0.210971 0.767529 0.524147
0.213367 0.76759 0.514382
0.216175 0.767819 0.503288
0.218494 0.767849 0.488075
0.214176 0.765011 0.465431
0.209277 0.76083 0.44033
0.209033 0.754025 0.412268
0.217594 0.747204 0.382269
0.249516 0.743053 0.364218
0.294804 0.741909 0.358358
0.344808 0.74464 0.362188
0.392264 0.747936 0.368017
0.434638 0.749996 0.374472
0.474388 0.753735 0.376516
0.518349 0.75935 0.354742
0.576791 0.765316 0.326497
0.637858 0.765194 0.311391
0.697627 0.766293 0.311604
0.734874 0.769848 0.339864
0.760357 0.767788 0.365286
0.782544 0.768658 0.385016
0.80119 0.770001 0.402274
0.818143 0.771572 0.417975
0.833494 0.772778 0.43505
0.842756 0.77258 0.452995
0.843275 0.771603 0.452186
0.843091 0.769848 0.449439
0.842054 0.766735 0.44538
0.841291 0.762554 0.440513
0.23125 0.796902 0.583841
0.232059 0.79704 0.57911
0.233265 0.796918 0.573556
0.234592 0.796674 0.567346
0.236225 0.796399 0.560296
0.239322 0.796277 0.551247
0.242618 0.796017 0.540597
0.247349 0.795193 0.527169
0.247242 0.793301 0.509026
0.246036 0.789395 0.487144
0.243717 0.783398 0.460456
0.248493 0.77789 0.432471
0.281178 0.7729 0.41474
0.321294 0.770031 0.405173
0.365866 0.771695 0.4056
0.411215 0.773251 0.410773
0.452461 0.775311 0.417044
0.490471 0.778164 0.422843
0.525307 0.782071 0.418494
0.566262 0.788159 0.39791
0.618708 0.79205 0.37554
0.669215 0.792248 0.368215
0.724468 0.793378 0.371191
0.756588 0.79556 0.395575
0.779156 0.795285 0.41828
0.79852 0.796109 0.437644
0.815137 0.796933 0.453101
0.829709 0.798535 0.468666
0.841154 0.798505 0.478798
0.845365 0.797848 0.481041
0.845151 0.796155 0.477012
0.845182 0.793469 0.47187
0.845365 0.78912 0.465171
0.254948 0.820844 0.615259
0.255756 0.820783 0.611017
0.256626 0.820676 0.606149
0.25803 0.820401 0.60032
0.259434 0.819944 0.593301
0.261616 0.819303 0.58526
0.264469 0.818326 0.575494
0.270054 0.816983 0.563699
0.275975 0.815396 0.549828
0.276707 0.81326 0.531014
0.27657 0.808164 0.506218
0.28864 0.802777 0.482765
0.317021 0.798199 0.464912
0.351446 0.794903 0.452964
0.389059 0.794232 0.448341
0.432044 0.795926 0.453269
0.472709 0.797269 0.458015
0.508232 0.798993 0.4645
0.542535 0.801419 0.469459
0.574014 0.806378 0.460792
0.614008 0.812345 0.441184
0.656611 0.814878 0.425559
0.698573 0.815473 0.422782
0.747662 0.815473 0.426841
0.775784 0.817807 0.449287
0.795743 0.818799 0.470344
0.813016 0.819623 0.48777
0.82797 0.820569 0.502708
0.839948 0.820951 0.513283
0.845075 0.820157 0.51696
0.845243 0.818662 0.512901
0.844984 0.816495 0.508659
0.844984 0.812558 0.501625
0.271656 0.83621 0.638514
0.272847 0.835996 0.634913
0.274617 0.835676 0.630777
0.276524 0.83537 0.625528
0.278691 0.835004 0.620508
0.281437 0.834653 0.613825
0.285512 0.833951 0.605707
0.289967 0.833326 0.595483
0.296132 0.83241 0.583276
0.304143 0.831022 0.568658
0.309102 0.829099 0.549676
0.330419 0.824979 0.531518
0.361501 0.820188 0.517266
0.384848 0.815976 0.50013
0.416358 0.813657 0.491875
0.454734 0.815106 0.493202
0.493004 0.816083 0.49752
0.527092 0.817365 0.50399
0.558923 0.819364 0.510155
0.590005 0.822354 0.511666
0.619562 0.827176 0.501762
0.655177 0.832471 0.485176
0.692851 0.833921 0.474266
0.727672 0.834714 0.47425
0.768902 0.83534 0.480476
0.792599 0.83772 0.502434
0.810956 0.83975 0.519982
0.825666 0.840543 0.535897
0.839261 0.841337 0.549615
0.845762 0.840909 0.553185
0.846082 0.83949 0.550393
0.84654 0.837232 0.545846
0.845411 0.833921 0.538598
0.277272 0.841062 0.649729
0.279057 0.840864 0.646204
0.280522 0.840833 0.6421
0.282643 0.84062 0.638041
0.285176 0.840528 0.632685
0.288045 0.840345 0.626947
0.29247 0.839933 0.619608
0.2972 0.839506 0.610574
0.304051 0.838788 0.599496
0.312673 0.838102 0.586221
0.326055 0.837751 0.57258
0.356405 0.837018 0.562234
0.391791 0.834852 0.554757
0.417456 0.833768 0.544045
0.44271 0.829969 0.532799
0.476081 0.830411 0.530983
0.513039 0.831968 0.535393
0.547311 0.833249 0.540825
0.57644 0.834989 0.548043
0.605966 0.837156 0.553887
0.633082 0.840986 0.550958
0.661631 0.845106 0.540673
0.694163 0.849088 0.525734
0.725475 0.850523 0.520165
0.755108 0.852186 0.52285
0.787854 0.85362 0.532265
0.80795 0.856443 0.55201
0.824247 0.858137 0.568399
0.839811 0.859342 0.583154
0.848661 0.858869 0.590112
0.848356 0.858 0.587167
0.847913 0.856001 0.582361
0.847776 0.853086 0.575753
0.275547 0.841764 0.654429
0.277577 0.84155 0.650324
0.279225 0.841428 0.646677
0.281041 0.841321 0.642176
0.283436 0.841031 0.637644
0.286976 0.840635 0.631098
0.290761 0.840314 0.623865
0.295735 0.839841 0.615
0.302312 0.839139 0.603967
0.310231 0.838315 0.590631
0.325444 0.837751 0.57641
0.352728 0.838163 0.566659
0.391043 0.836835 0.560159
0.419501 0.836393 0.552209
0.451331 0.836255 0.549264
0.484123 0.836927 0.548302
0.5205 0.838788 0.552651
0.554452 0.839887 0.558724
0.584222 0.841627 0.566079
0.612055 0.843427 0.573053
0.639094 0.846098 0.575235
