bundles/resolve-cinematic-luts/Phantom Luts/P4k & P6K Phntm Film LUTs - V6/P6k/Gen 4 Colour/P6k Bleach Gen4-Legacy.cube
TITLE "Generated by Resolve"
LUT_3D_SIZE 5
0.031754 0.0446632 0.0332494
0.0796674 0.0492714 0.0391241
0.269291 0.0617227 0.054963
0.564065 0.0755932 0.0820478
0.77232 0.128908 0.143755
0.0375372 0.127245 0.0578317
0.116045 0.142397 0.0495155
0.381613 0.121691 0.0640726
0.646067 0.159091 0.103563
0.835462 0.254688 0.185748
0.00976577 0.364706 0.10454
0.0194247 0.374121 0.0185397
0.464424 0.518349 0.0834669
0.758556 0.603922 0.184527
0.910185 0.654749 0.311833
0.057908 0.682353 0.312779
0.0641947 0.683818 0.178882
0.408515 0.730358 0.179339
0.764218 0.801953 0.275273
0.898634 0.841428 0.436377
0.100755 0.778378 0.427985
0.152834 0.781659 0.30692
0.468315 0.791409 0.304921
0.752071 0.847517 0.43183
0.898558 0.890959 0.53904
0.0387427 0.0476387 0.0675669
0.0914778 0.0497749 0.075761
0.318105 0.0586099 0.111986
0.601877 0.0715496 0.15349
0.806729 0.124804 0.243442
0.0408789 0.119982 0.0998398
0.127337 0.138094 0.12491
0.454078 0.122271 0.111879
0.690547 0.146441 0.145983
0.854414 0.226627 0.227863
0.014786 0.357671 0.193561
0.0093843 0.369757 0.110323
0.467704 0.518059 0.110582
0.792981 0.590143 0.246372
0.926482 0.632715 0.364935
0.0576638 0.660471 0.38822
0.0529183 0.663996 0.299489
0.32018 0.71667 0.177951
0.752544 0.790646 0.261372
0.904341 0.828351 0.43743
0.108965 0.774121 0.54049
0.103304 0.779095 0.422812
0.364492 0.789715 0.302632
0.702693 0.830732 0.409934
0.884184 0.88716 0.523186
0.0620584 0.0517891 0.201801
0.144259 0.0528725 0.219608
0.375082 0.0628519 0.27776
0.645411 0.0722362 0.384039
0.840848 0.119692 0.498253
0.0287175 0.0934157 0.237613
0.128222 0.0760967 0.336736
0.486442 0.0790265 0.352682
0.705531 0.0919356 0.421378
0.859174 0.144869 0.500206
0.0220493 0.355901 0.313191
0.0340887 0.370916 0.325628
0.550607 0.536645 0.514244
0.819028 0.568902 0.545846
0.930465 0.594934 0.571511
0.0870985 0.650172 0.516075
0.0935531 0.644892 0.485405
0.311986 0.707729 0.462394
0.761303 0.782696 0.542733
0.933043 0.813153 0.60148
0.17377 0.781811 0.641566
0.138323 0.774716 0.602716
0.244816 0.780224 0.480827
0.65449 0.823545 0.502083
0.880842 0.889189 0.574197
0.113115 0.0554971 0.390509
0.224109 0.0577096 0.443931
0.467063 0.0605173 0.494514
0.691188 0.0839399 0.570413
0.855238 0.120211 0.661082
0.03093 0.071107 0.425742
0.188083 0.0589456 0.535164
0.521721 0.0658732 0.562036
0.738293 0.0964828 0.612421
0.862135 0.130236 0.67068
0.0270848 0.336294 0.513466
0.0454871 0.340124 0.550195
0.607645 0.478065 0.744427
0.869459 0.541817 0.768627
0.951736 0.559625 0.787961
0.108003 0.653086 0.60502
0.122362 0.649058 0.601267
0.428275 0.717327 0.678599
0.798398 0.777844 0.753674
0.941512 0.791104 0.77261
0.235035 0.782498 0.697643
0.228992 0.77055 0.678035
0.38233 0.790127 0.684779
0.724071 0.864561 0.744869
0.912322 0.905165 0.766629
0.191806 0.0606088 0.570901
0.316655 0.0639353 0.607462
0.552056 0.0675059 0.630716
0.738781 0.0941482 0.684672
0.879026 0.136019 0.760266
0.0739757 0.0639353 0.586892
0.278614 0.0661936 0.656428
0.577707 0.0717174 0.672312
0.777432 0.111192 0.722362
0.884184 0.145586 0.76762
0.0433051 0.339208 0.625193
0.0642557 0.337331 0.658991
0.670787 0.452354 0.867414
0.911528 0.533486 0.87657
0.962768 0.55993 0.880964
0.105257 0.658732 0.687205
0.147524 0.654017 0.699657
0.473716 0.705898 0.781567
0.839506 0.7617 0.861616
0.952651 0.780438 0.872114
0.252888 0.783261 0.733181
0.248981 0.772595 0.722667
0.414069 0.792767 0.744854
0.779416 0.881025 0.838468
0.92665 0.903288 0.864942
