bundles/resolve-cinematic-luts/Phantom Luts/P4k & P6K Phntm Film LUTs - V6/P6k/Gen 4 Colour/P6k Eastman Gen4.cube
TITLE "Generated by Resolve"
LUT_3D_SIZE 9
0.0390021 0.0390021 0.0390021
0.0748455 0.0390021 0.0390021
0.179873 0.0390021 0.0390021
0.288991 0.0418708 0.039826
0.39826 0.0589303 0.0457771
0.493034 0.0956283 0.0645609
0.594781 0.131914 0.116686
0.689113 0.166155 0.173739
0.685191 0.170336 0.181476
0.0508125 0.0760357 0.0557107
0.0755016 0.0750286 0.0477607
0.171527 0.0621958 0.0442817
0.274037 0.0629892 0.0390021
0.376394 0.0771344 0.0416571
0.46891 0.105562 0.0484321
0.565057 0.147799 0.0859541
0.657267 0.18732 0.142153
0.651667 0.200412 0.153185
0.0653544 0.182223 0.0906996
0.0639353 0.177493 0.0598154
0.194491 0.199313 0.0683909
0.340215 0.185901 0.0733043
0.457404 0.173831 0.0830854
0.562951 0.204669 0.104677
0.656504 0.242634 0.13254
0.73608 0.280278 0.169162
0.725231 0.286168 0.171069
0.100572 0.344915 0.167422
0.0934615 0.341268 0.115068
0.13312 0.352682 0.102968
0.361715 0.380423 0.0955978
0.514992 0.378576 0.0932174
0.644785 0.383322 0.14728
0.727565 0.396567 0.186572
0.790295 0.414923 0.220844
0.791821 0.421912 0.228534
0.133242 0.53901 0.293797
0.126375 0.528115 0.239612
0.124743 0.512261 0.151675
0.295094 0.541527 0.148928
0.513634 0.552605 0.13959
0.638926 0.556741 0.161669
0.735348 0.567437 0.221424
0.80531 0.572 0.275029
0.820615 0.575463 0.288457
0.189761 0.70222 0.431098
0.179416 0.687633 0.393301
0.171267 0.660395 0.292195
0.271382 0.667659 0.224552
0.47892 0.684581 0.205829
0.633982 0.685573 0.211704
0.719631 0.686946 0.273701
0.792401 0.689998 0.326329
0.833005 0.686809 0.358373
0.257847 0.815869 0.538262
0.245686 0.800168 0.502235
0.231556 0.772229 0.424796
0.30927 0.758099 0.331518
0.47306 0.767559 0.325811
0.623285 0.772198 0.304433
0.717311 0.772396 0.326253
0.786007 0.771511 0.393439
0.827405 0.772625 0.431022
0.295888 0.868452 0.59176
0.291768 0.858503 0.566903
0.283024 0.837339 0.506981
0.358892 0.819455 0.43772
0.483238 0.820493 0.419837
0.597986 0.828397 0.429404
0.711757 0.830304 0.41709
0.788815 0.833722 0.455085
0.845685 0.837491 0.514733
0.300923 0.871183 0.614939
0.296513 0.862623 0.588647
0.285267 0.843351 0.530282
0.348363 0.823499 0.454276
0.467872 0.82443 0.431449
0.585275 0.829969 0.443061
0.701564 0.832517 0.431083
0.780407 0.838788 0.459144
0.840452 0.843732 0.526329
0.0390021 0.0390021 0.0500343
0.0801099 0.0390021 0.0617838
0.184054 0.0390021 0.0770733
0.292576 0.0390021 0.0713664
0.394965 0.0390021 0.0628519
0.476417 0.0425574 0.0754864
0.571939 0.0886244 0.13875
0.665721 0.139483 0.203906
0.661646 0.14931 0.217166
0.0452125 0.0634012 0.0623789
0.0709697 0.0629587 0.0698558
0.185657 0.0504005 0.0574044
0.288411 0.0482643 0.0420386
0.385992 0.0658274 0.0451057
0.480674 0.103822 0.0678721
0.580926 0.139574 0.120195
0.668757 0.172076 0.172885
0.66807 0.176242 0.181521
0.0626688 0.173175 0.113573
0.0601053 0.173495 0.0904402
0.187152 0.195102 0.076112
0.348028 0.16347 0.0888838
0.454276 0.162661 0.0872663
0.559396 0.192554 0.109285
0.653269 0.23006 0.146105
0.726345 0.264195 0.188922
0.714321 0.268254 0.190677
0.100496 0.340948 0.203372
0.0953536 0.339162 0.168368
0.106706 0.344182 0.103227
0.359762 0.377707 0.104128
0.526467 0.369741 0.111849
0.650187 0.366552 0.161517
0.732494 0.379629 0.195239
0.794965 0.39707 0.227924
0.792554 0.403525 0.233433
0.137316 0.542641 0.327962
0.130388 0.533623 0.296208
0.122805 0.513924 0.182452
0.271916 0.539895 0.16231
0.511666 0.548516 0.145098
0.64268 0.550301 0.167163
0.74313 0.556588 0.236942
0.809689 0.560296 0.284062
0.821515 0.562081 0.295338
0.194186 0.705135 0.455817
0.186419 0.694591 0.430076
0.170199 0.668223 0.341115
0.240223 0.664729 0.23769
0.463249 0.681971 0.218524
0.629984 0.681407 0.215641
0.719478 0.681285 0.272541
0.795163 0.682811 0.332326
0.828153 0.681651 0.363607
0.261372 0.818677 0.561227
0.25243 0.806638 0.532082
0.231464 0.778927 0.45832
0.271275 0.75317 0.342443
0.452628 0.764126 0.323598
0.611139 0.768521 0.299062
0.712993 0.767544 0.317235
0.784573 0.765606 0.387442
0.827955 0.766384 0.42797
0.301732 0.874403 0.622797
0.296407 0.867445 0.593271
0.287297 0.849241 0.539513
0.330404 0.821363 0.450965
0.462486 0.818982 0.418189
0.584115 0.825742 0.426902
0.703349 0.828199 0.412833
0.784344 0.83064 0.446494
0.838163 0.83653 0.517952
0.306432 0.877943 0.635493
0.30016 0.871702 0.609216
0.29192 0.855695 0.561532
0.321645 0.828687 0.472831
0.446311 0.824765 0.434592
0.571115 0.829068 0.445075
0.689784 0.832929 0.435645
0.773541 0.838437 0.454734
0.836576 0.845273 0.530465
0.0396277 0.0390021 0.118608
0.106096 0.0390021 0.128023
0.189593 0.0390021 0.130739
0.293645 0.0390021 0.143008
0.393957 0.0390021 0.146944
0.479133 0.0429694 0.173892
0.57319 0.087953 0.223606
0.666087 0.137682 0.279026
0.663951 0.148882 0.294209
0.0390021 0.0551461 0.10309
0.055787 0.0393378 0.135958
0.182239 0.0390021 0.131441
0.291707 0.0390021 0.119493
0.396811 0.0390021 0.119829
0.483787 0.0493324 0.142168
0.580697 0.0962844 0.195392
0.667796 0.142748 0.249149
0.669001 0.154208 0.264149
0.0560922 0.171542 0.138949
0.0561685 0.170306 0.140673
0.210697 0.206882 0.203906
0.377798 0.173037 0.188434
0.497826 0.146624 0.152499
0.588174 0.154894 0.159258
0.674571 0.183551 0.194339
0.733013 0.209735 0.22266
0.720088 0.208209 0.221897
0.0960708 0.344442 0.239948
0.0960708 0.344076 0.232151
0.116152 0.35639 0.202411
0.374746 0.395117 0.186587
0.560372 0.354314 0.187839
0.663859 0.336996 0.192981
0.745266 0.352193 0.226505
0.802396 0.369848 0.259464
0.792996 0.373175 0.262516
0.137407 0.545022 0.365301
0.135973 0.540337 0.35285
0.12874 0.525048 0.293095
0.215763 0.540383 0.189685
0.507698 0.544381 0.159625
0.654337 0.539666 0.193225
0.755703 0.538079 0.263966
0.818952 0.537514 0.30312
0.822675 0.537667 0.30985
0.197177 0.707118 0.488411
0.194202 0.700175 0.473289
0.182681 0.684077 0.423163
0.192859 0.654948 0.26772
0.434043 0.677653 0.243351
0.624018 0.674586 0.224781
0.720958 0.671351 0.273777
0.803967 0.669932 0.345205
0.829389 0.669459 0.368032
0.263554 0.819776 0.588602
0.258442 0.810834 0.570611
0.24538 0.794064 0.521843
0.224323 0.748592 0.381231
0.412879 0.759777 0.323903
0.589395 0.763882 0.296071
0.706584 0.760555 0.304799
0.783612 0.757015 0.381628
0.830686 0.757 0.427497
0.309117 0.88333 0.653391
0.305165 0.876768 0.636271
0.293721 0.863951 0.589136
0.283787 0.829313 0.489586
0.421363 0.816831 0.419532
0.560647 0.822065 0.424216
0.688457 0.824826 0.409064
0.777691 0.826825 0.434348
0.836637 0.83125 0.510704
0.312947 0.886381 0.663584
0.309865 0.881849 0.647395
0.300526 0.871656 0.606912
0.289311 0.841764 0.518242
0.410025 0.824338 0.44416
0.548394 0.828626 0.447852
0.667445 0.833814 0.443687
0.762905 0.837476 0.447822
0.830518 0.845884 0.527062
0.0551156 0.0398566 0.219715
0.127306 0.0390021 0.229923
0.209232 0.0390021 0.221592
0.298482 0.0390021 0.218967
0.395727 0.0390021 0.235996
0.481575 0.0459449 0.252903
0.571542 0.0899977 0.298695
0.657023 0.135317 0.355459
0.653956 0.145068 0.368597
0.0390021 0.05037 0.189624
0.0624247 0.0403143 0.230213
0.191272 0.0390021 0.229587
0.296162 0.0390021 0.218677
0.395987 0.0390021 0.228916
0.486229 0.052491 0.244541
0.576074 0.0955062 0.294484
0.663539 0.14229 0.34699
0.664118 0.153246 0.360571
0.0398566 0.152453 0.211124
0.0390021 0.140688 0.220661
0.181338 0.137484 0.310842
0.355734 0.127871 0.293889
0.469566 0.108202 0.279667
0.560281 0.11252 0.285115
0.642252 0.13753 0.312276
0.710491 0.167697 0.341405
0.696651 0.16936 0.342245
0.0852216 0.344198 0.279728
0.0856336 0.346258 0.283467
0.137179 0.37496 0.318547
0.405402 0.414069 0.402914
0.572732 0.36231 0.373693
0.688533 0.312749 0.339513
0.772457 0.295277 0.320775
0.803677 0.299123 0.325048
0.79173 0.298756 0.323491
0.142672 0.552377 0.411582
0.148913 0.552041 0.412894
0.161105 0.550256 0.400717
0.277485 0.566323 0.39939
0.528283 0.570367 0.36582
0.686198 0.539544 0.361593
0.771038 0.513252 0.343694
0.831708 0.492897 0.352026
0.826871 0.489021 0.351019
0.204608 0.711574 0.527306
0.205051 0.707179 0.521935
0.202899 0.699092 0.500847
0.198657 0.684688 0.432883
0.408423 0.683345 0.359152
0.623011 0.676432 0.32369
0.735958 0.662791 0.329671
0.819837 0.656199 0.379919
0.833112 0.652079 0.387228
0.266682 0.821347 0.622095
0.263523 0.81445 0.612573
0.258335 0.804868 0.58703
0.241703 0.781491 0.51397
0.352697 0.760876 0.379217
0.552193 0.764019 0.347768
0.700923 0.754726 0.321431
0.788663 0.747524 0.387442
0.835981 0.745403 0.435828
0.31632 0.89044 0.688731
0.312856 0.884398 0.676432
0.306859 0.875578 0.650996
0.289326 0.853864 0.582971
0.349035 0.818189 0.450721
0.519829 0.81915 0.425681
0.661311 0.822583 0.409476
0.770367 0.820157 0.419226
0.835966 0.822049 0.501381
0.322148 0.896391 0.699336
0.320378 0.893324 0.688441
0.31635 0.88806 0.666255
0.303471 0.872114 0.608347
0.340414 0.832685 0.484855
0.503182 0.828199 0.453071
0.632166 0.835554 0.459632
0.748608 0.836988 0.444953
0.82475 0.847196 0.523934
0.0813611 0.0452888 0.315465
0.157549 0.0390021 0.322454
0.239536 0.0390021 0.313939
0.315541 0.0390021 0.306355
0.403189 0.0390021 0.309499
0.488228 0.0487678 0.330419
0.559121 0.0754864 0.365072
0.647517 0.12723 0.419776
0.644388 0.135256 0.432746
0.0390021 0.0511635 0.27982
0.0909133 0.0447395 0.325643
0.216617 0.0390021 0.325109
0.309957 0.0390021 0.311986
0.405142 0.0390021 0.311818
0.490471 0.0513771 0.332357
0.566262 0.0827802 0.3664
0.65359 0.134401 0.419272
0.652827 0.143572 0.432013
0.0390021 0.120134 0.28275
0.0390021 0.102281 0.289097
0.146456 0.0589151 0.362219
0.315022 0.0502785 0.343603
0.416846 0.0522774 0.326009
0.506493 0.0648508 0.340154
0.588724 0.0977188 0.368811
0.675029 0.144915 0.416831
0.674601 0.154681 0.426657
0.066392 0.325231 0.351339
0.0628367 0.318166 0.355032
0.107088 0.333715 0.403052
0.381186 0.344762 0.524025
0.567788 0.326802 0.501106
0.676875 0.287236 0.485466
0.75697 0.268742 0.481559
0.789044 0.266423 0.482444
0.780255 0.268574 0.480262
0.13341 0.553368 0.455116
0.13904 0.553475 0.460044
0.153887 0.555886 0.465537
0.323369 0.58146 0.517922
0.56144 0.58201 0.562524
0.698299 0.537743 0.535729
0.778912 0.492302 0.502068
0.829526 0.460212 0.476631
0.823972 0.453559 0.471427
0.222705 0.720058 0.571603
0.228748 0.717342 0.572686
0.239414 0.71429 0.56762
0.283192 0.715953 0.562249
0.470542 0.701198 0.564034
0.654948 0.701671 0.534661
0.76849 0.679545 0.52668
0.833082 0.650889 0.493965
0.845914 0.634165 0.47837
0.292821 0.829633 0.662989
0.293217 0.82388 0.657206
0.294362 0.817029 0.643748
0.292988 0.805875 0.616434
0.407858 0.789471 0.579721
0.568292 0.779339 0.532815
0.71928 0.773251 0.506645
0.812497 0.753414 0.501122
0.848081 0.745357 0.503227
0.332647 0.89604 0.720439
0.327871 0.88954 0.71133
0.320882 0.881636 0.695399
0.309163 0.868208 0.661753
0.350545 0.860258 0.608331
0.500832 0.826169 0.51986
0.648386 0.835126 0.512062
0.776745 0.825666 0.48101
0.846265 0.824277 0.537789
0.358907 0.913725 0.739467
0.346197 0.908629 0.731182
0.334142 0.902846 0.715618
0.326711 0.895216 0.686717
0.326223 0.880644 0.624094
0.453986 0.836759 0.520775
0.609873 0.844694 0.517891
0.742809 0.843915 0.481697
0.830381 0.85774 0.552285
0.126955 0.0450599 0.391043
0.190936 0.0390021 0.395315
0.266346 0.0390021 0.390143
0.342214 0.0390021 0.379797
0.414588 0.0390021 0.379187
0.496086 0.062211 0.3953
0.568139 0.0873121 0.420127
0.616144 0.112566 0.460624
0.620966 0.121584 0.474739
0.0483864 0.0551614 0.370748
0.134936 0.0445869 0.398642
0.24271 0.0390021 0.40029
0.336339 0.0390021 0.386267
0.414633 0.0392615 0.383551
0.500023 0.0663767 0.400061
0.572381 0.0897841 0.422858
0.623117 0.11722 0.46453
0.628199 0.12697 0.478004
0.0390021 0.0879988 0.337346
0.0390021 0.0654612 0.342718
0.163439 0.0425269 0.411475
0.314549 0.0390021 0.397818
0.414313 0.0441138 0.393439
0.506325 0.0719005 0.406561
0.580804 0.0969253 0.428565
0.641505 0.127535 0.471061
0.644053 0.136416 0.481056
0.0526131 0.300328 0.407721
0.0498817 0.289677 0.409445
0.0788891 0.287526 0.450217
0.365942 0.263172 0.589837
0.562341 0.258946 0.58085
0.668086 0.250263 0.565026
0.742428 0.241337 0.565194
0.769955 0.238636 0.566812
0.763348 0.241001 0.563058
0.112261 0.543618 0.517464
0.111727 0.538369 0.520195
0.130114 0.53727 0.537926
0.295766 0.556588 0.61001
0.555184 0.534646 0.678553
0.703716 0.513146 0.645182
0.778347 0.473884 0.622614
0.823651 0.440833 0.605966
0.820294 0.432761 0.601068
0.216632 0.718639 0.606973
0.221729 0.716213 0.609094
0.230945 0.714382 0.609247
0.276326 0.720729 0.622492
0.512367 0.715221 0.659678
0.68217 0.708598 0.68368
0.784298 0.676768 0.664012
0.841108 0.632898 0.627756
0.848096 0.612711 0.610742
0.307607 0.832044 0.690913
0.310719 0.826535 0.688319
0.318746 0.821164 0.682734
0.335363 0.813367 0.672511
0.492897 0.812833 0.693339
0.620417 0.791409 0.687907
0.751598 0.794858 0.667216
0.839765 0.774868 0.65362
0.871489 0.753262 0.628687
0.377188 0.901518 0.753155
0.374121 0.895186 0.746532
0.372549 0.889128 0.736309
0.370977 0.879835 0.717144
0.438132 0.883635 0.715221
0.55964 0.852857 0.690074
0.683848 0.854597 0.666484
0.80441 0.853193 0.648417
0.872648 0.839704 0.645808
0.421805 0.930159 0.781201
0.412451 0.927474 0.774563
0.397879 0.923476 0.763378
0.378729 0.916732 0.744488
0.396506 0.912718 0.723491
0.519768 0.894575 0.702602
0.63592 0.876967 0.662913
0.765164 0.886351 0.661326
0.850874 0.884031 0.643763
0.172625 0.0467384 0.44593
0.223789 0.0419013 0.448692
0.292821 0.0390021 0.445548
0.367376 0.0390326 0.436072
0.43328 0.0476387 0.432868
0.505043 0.0712902 0.447303
0.574075 0.0983597 0.470634
0.626139 0.127855 0.505074
0.632227 0.133898 0.520012
0.10631 0.0543221 0.435554
0.178012 0.046891 0.451301
0.270802 0.0391546 0.452399
0.359945 0.0391852 0.441352
0.431327 0.0478981 0.436103
0.508766 0.0747234 0.452735
0.579858 0.102327 0.476143
0.633173 0.132906 0.51017
0.639094 0.139559 0.523995
0.0390021 0.0806744 0.386053
0.0417182 0.0632334 0.408835
0.20618 0.0457618 0.460197
0.337377 0.0394903 0.451209
0.426307 0.0489662 0.442023
0.514244 0.0808423 0.462501
0.586938 0.108827 0.482948
0.644022 0.140383 0.515175
0.650843 0.147768 0.52665
0.0473335 0.273365 0.447227
0.0451209 0.25861 0.447044
0.0721752 0.2421 0.485954
0.36849 0.195453 0.611765
0.550134 0.201007 0.610483
0.648386 0.213596 0.608499
0.717067 0.219959 0.602396
0.741436 0.219883 0.594888
0.739086 0.221302 0.593378
0.114366 0.532708 0.572106
0.113542 0.525734 0.573663
0.126574 0.51902 0.587701
0.269291 0.527947 0.664988
0.557671 0.487907 0.752407
0.7122 0.471962 0.719707
0.787091 0.454734 0.693233
0.82739 0.427863 0.680812
0.822599 0.419608 0.675166
0.186664 0.705547 0.638575
0.187594 0.701991 0.640665
0.207935 0.703716 0.654108
0.285252 0.710109 0.69163
0.497566 0.701656 0.732784
0.683345 0.67718 0.770306
0.788373 0.660777 0.743877
0.844114 0.617594 0.716258
0.848112 0.599069 0.70338
0.307668 0.830137 0.717678
0.308675 0.824979 0.715206
0.314565 0.81973 0.71191
0.329137 0.813855 0.709239
0.491554 0.819867 0.740826
0.652567 0.800381 0.754528
0.770123 0.798642 0.770672
0.852293 0.772732 0.753506
0.87921 0.746426 0.731502
0.390906 0.90222 0.772366
0.388861 0.896254 0.7673
0.389578 0.89044 0.760143
0.395529 0.883131 0.750744
0.476875 0.889601 0.764035
0.630243 0.873045 0.777218
0.721736 0.863493 0.777462
0.829221 0.869322 0.762264
0.896361 0.856764 0.75259
0.467063 0.942443 0.814282
0.460639 0.940002 0.80911
0.452155 0.937835 0.801831
0.434607 0.93196 0.787274
0.456138 0.932403 0.781521
0.591943 0.930037 0.797208
0.683406 0.907622 0.786511
0.79089 0.914733 0.775708
0.878187 0.917357 0.760174
0.219913 0.0502174 0.486336
0.261067 0.047776 0.487633
0.320745 0.0460822 0.485725
0.390311 0.0501564 0.479408
0.454704 0.0602121 0.476921
0.517205 0.0797589 0.489311
0.603037 0.124208 0.532784
0.644663 0.146899 0.561639
0.664576 0.162905 0.588586
0.172045 0.0549172 0.483131
0.225071 0.0506752 0.48954
0.301534 0.046891 0.489906
0.382147 0.0501869 0.483177
0.452537 0.0602579 0.478996
0.521889 0.0845502 0.495964
0.608881 0.128603 0.538964
0.648249 0.149737 0.565011
0.666423 0.164584 0.588586
0.0396429 0.0702678 0.433005
0.119127 0.0601511 0.471656
0.246708 0.0506752 0.494942
0.36025 0.0491035 0.488945
0.444144 0.0591287 0.481849
0.530144 0.0935988 0.509346
0.614954 0.134554 0.546868
0.65066 0.151141 0.56376
0.666056 0.163806 0.58262
0.0499123 0.23772 0.481331
0.0498817 0.217884 0.481407
0.082887 0.181369 0.510475
0.356344 0.13521 0.589517
0.51487 0.149264 0.596445
0.615808 0.176806 0.611078
0.681804 0.193851 0.617426
0.705211 0.193713 0.609064
0.706554 0.195102 0.609689
0.12726 0.523995 0.621637
0.126467 0.515023 0.622827
0.129503 0.500877 0.62887
0.277989 0.497978 0.718196
0.579873 0.443275 0.805707
0.726345 0.428305 0.772976
0.79353 0.42916 0.752392
0.829709 0.415229 0.736034
0.826291 0.405783 0.730297
0.2065 0.707073 0.693889
0.204608 0.700587 0.693965
0.21326 0.694118 0.700908
0.304784 0.691905 0.742184
0.474907 0.680446 0.782925
0.691081 0.641413 0.831586
0.797696 0.626795 0.801831
0.850278 0.604059 0.773007
0.85211 0.588464 0.759945
0.282811 0.822202 0.742214
0.286839 0.817655 0.742596
0.302113 0.813336 0.747143
0.338689 0.807157 0.759808
0.48954 0.810239 0.800641
0.639384 0.790387 0.811704
0.77612 0.773877 0.838224
0.855314 0.760128 0.817914
0.880522 0.73518 0.802304
0.394232 0.900236 0.792981
0.390829 0.894194 0.788678
0.390845 0.889021 0.783871
0.394797 0.882445 0.778439
0.475837 0.891966 0.799725
0.635737 0.879469 0.816144
0.750652 0.870008 0.829496
0.844755 0.871916 0.842725
0.907256 0.855589 0.832486
0.492119 0.950179 0.836408
0.48455 0.947387 0.831693
0.473304 0.94345 0.825071
0.463386 0.936843 0.815122
0.496635 0.940475 0.820829
0.635416 0.937621 0.840894
0.740154 0.925261 0.851789
0.816434 0.923598 0.857221
0.896712 0.930236 0.845899
0.273732 0.0553445 0.516808
0.303471 0.0541848 0.516152
0.354437 0.0558328 0.515328
0.415854 0.0616007 0.512459
0.478355 0.0734112 0.512612
0.536049 0.0919509 0.523186
0.627512 0.143175 0.576333
0.682414 0.179461 0.618631
0.689937 0.185199 0.62591
0.240238 0.0576944 0.517296
0.277501 0.0557259 0.518395
0.338033 0.0554971 0.517723
0.407843 0.0611429 0.514168
0.474998 0.0727245 0.51313
0.537194 0.0935531 0.526146
0.634302 0.148714 0.584054
0.686656 0.182376 0.622553
0.693782 0.188266 0.629313
0.134218 0.0640421 0.495827
0.202487 0.06009 0.513603
0.292653 0.0556954 0.520272
0.387945 0.0594339 0.51722
0.465156 0.0704356 0.51397
0.541985 0.100175 0.536126
0.64062 0.155474 0.593591
0.692821 0.187488 0.628138
0.70132 0.194461 0.6365
0.069337 0.192996 0.513497
0.0697337 0.167025 0.50808
0.114794 0.106142 0.512673
0.324208 0.063859 0.531075
0.452262 0.0837415 0.537453
0.574762 0.138888 0.586831
0.66891 0.185397 0.631144
0.709377 0.200748 0.641688
0.70927 0.20058 0.641382
0.144884 0.513085 0.661372
0.143023 0.502495 0.66125
0.144442 0.483146 0.664363
0.317906 0.45948 0.758663
0.6094 0.407584 0.823606
0.736477 0.397116 0.794156
0.800778 0.40325 0.776547
0.828779 0.39913 0.765408
0.826505 0.389914 0.762173
0.247791 0.706935 0.740734
0.246204 0.698451 0.740658
0.248539 0.686595 0.743664
0.321675 0.673899 0.778164
0.487434 0.653925 0.82266
0.715602 0.60705 0.865171
0.810224 0.591302 0.834394
0.857038 0.582986 0.813275
0.859815 0.57055 0.810925
0.331395 0.824704 0.788052
0.325734 0.816999 0.785672
0.335195 0.808804 0.78938
0.373419 0.798077 0.803922
0.497856 0.795468 0.839872
0.629328 0.771221 0.849836
0.789532 0.745663 0.879866
0.864195 0.733577 0.857069
0.883543 0.724758 0.845762
0.406638 0.901015 0.814527
0.398398 0.894575 0.810101
0.396262 0.888045 0.807492
0.407889 0.880888 0.811154
0.492836 0.886488 0.842618
0.639536 0.873487 0.859174
0.747433 0.863661 0.869917
0.856306 0.855726 0.891661
0.908873 0.849546 0.881437
0.494377 0.952239 0.853971
0.481071 0.947204 0.847913
0.472435 0.942535 0.842481
0.46688 0.93669 0.836652
0.50486 0.942519 0.847364
0.640574 0.940047 0.86743
0.750179 0.929717 0.878691
0.839612 0.926268 0.892912
0.907027 0.930449 0.899794
