bundles/resolve-cinematic-luts/Phantom Luts/P4k & P6K Phntm Film LUTs - V6/P6k/Gen 4 Colour/P6k EastmanRM Gen4.cube
TITLE "Generated by Resolve"
LUT_3D_SIZE 9
0.0411231 0.0301671 0.0354467
0.0797589 0.0286107 0.0366369
0.210575 0.0268101 0.0395056
0.342596 0.0272984 0.0437934
0.474464 0.030869 0.0535592
0.572549 0.0459754 0.0777905
0.676005 0.0977188 0.13492
0.745098 0.140185 0.189807
0.714702 0.153124 0.237903
0.044007 0.0840162 0.0475929
0.0601663 0.0831464 0.0410315
0.184924 0.0595712 0.0411841
0.327581 0.0371099 0.0387732
0.456657 0.0317082 0.0438392
0.55819 0.043061 0.0610666
0.659571 0.0933547 0.106874
0.726864 0.135088 0.156146
0.698009 0.151812 0.206943
0.0561379 0.189975 0.0737469
0.0502632 0.189395 0.0473487
0.192798 0.205158 0.0502785
0.381033 0.174899 0.0509499
0.497658 0.138994 0.0581674
0.633433 0.151949 0.0801862
0.738521 0.186679 0.132052
0.785092 0.203174 0.16524
0.757168 0.206165 0.187869
0.051667 0.323186 0.0965744
0.0454719 0.322484 0.0560464
0.070985 0.329107 0.0416724
0.377997 0.394293 0.0591592
0.594736 0.375998 0.0697948
0.726162 0.350622 0.111894
0.812299 0.37409 0.1523
0.853895 0.394553 0.190707
0.837125 0.400839 0.211582
0.0478065 0.482048 0.160189
0.0453651 0.484855 0.132296
0.0473945 0.472084 0.054551
0.189548 0.511727 0.0513313
0.579049 0.607233 0.1243
0.75613 0.602838 0.193729
0.839338 0.57966 0.25182
0.879835 0.580377 0.282872
0.872755 0.586267 0.296483
0.097612 0.633982 0.340276
0.0874037 0.637522 0.336141
0.0863355 0.622354 0.251575
0.165209 0.610376 0.124498
0.442512 0.69781 0.187411
0.735759 0.777798 0.2981
0.855024 0.776394 0.40351
0.905837 0.76875 0.477989
0.911986 0.771527 0.473442
0.230854 0.73164 0.474144
0.2215 0.732845 0.469688
0.215579 0.722484 0.419364
0.261326 0.707179 0.318212
0.42565 0.736629 0.308049
0.661814 0.834241 0.429084
0.840101 0.887129 0.527123
0.904067 0.891905 0.626078
0.912383 0.894392 0.646265
0.27866 0.766155 0.536126
0.276844 0.761334 0.514321
0.274022 0.749889 0.463325
0.324773 0.744503 0.383932
0.469398 0.767987 0.376501
0.660197 0.839612 0.487633
0.834699 0.909041 0.590112
0.900969 0.923842 0.687327
0.907393 0.926711 0.721294
0.272862 0.7729 0.56408
0.270573 0.768338 0.542107
0.270604 0.755169 0.482658
0.325917 0.746044 0.388602
0.474907 0.769406 0.380118
0.669352 0.843915 0.494697
0.837888 0.910079 0.594675
0.900023 0.924468 0.693904
0.904921 0.927596 0.727489
0.0415808 0.0339818 0.0530861
0.07364 0.0333562 0.0583352
0.192096 0.0331731 0.0668193
0.323735 0.0304112 0.0716106
0.453605 0.0307317 0.0834363
0.547967 0.0436713 0.115358
0.643809 0.0909133 0.177172
0.710643 0.134112 0.234241
0.69572 0.147051 0.273625
0.042771 0.0691081 0.0561685
0.0572671 0.0677501 0.0608835
0.184131 0.049546 0.0616465
0.319249 0.0368353 0.0605478
0.446189 0.0356298 0.0731365
0.555169 0.0525063 0.101289
0.66331 0.109392 0.165942
0.722164 0.14696 0.217304
0.703502 0.157153 0.252888
0.0531319 0.1832 0.108751
0.0492256 0.187182 0.0840314
0.181476 0.201007 0.0596323
0.37528 0.15349 0.0643473
0.493034 0.12282 0.0655222
0.622507 0.132403 0.0931411
0.717144 0.155947 0.143511
0.757671 0.176181 0.178134
0.731273 0.178943 0.204623
0.0509194 0.32079 0.141787
0.0462348 0.324117 0.114382
0.0549935 0.323095 0.0423285
0.376959 0.391119 0.0671702
0.603815 0.358694 0.0816205
0.728008 0.337987 0.120272
0.819791 0.359548 0.161013
0.857359 0.377798 0.197284
0.838453 0.384192 0.219242
0.0488136 0.484657 0.204944
0.0458076 0.488914 0.194018
0.0460365 0.477195 0.0787518
0.160754 0.504509 0.0540322
0.578637 0.605158 0.127245
0.759365 0.596277 0.20032
0.842557 0.568673 0.252476
0.879667 0.570428 0.285664
0.872984 0.576272 0.30071
0.100649 0.636866 0.367163
0.0897536 0.642145 0.370703
0.0842298 0.630655 0.297002
0.134203 0.609354 0.145235
0.421927 0.688655 0.186877
0.735088 0.776501 0.298878
0.857313 0.773419 0.405203
0.905104 0.764584 0.478111
0.907851 0.767498 0.481651
0.232319 0.734966 0.495033
0.224048 0.736156 0.4916
0.215564 0.727703 0.446174
0.234409 0.705608 0.336309
0.409125 0.73228 0.303731
0.652232 0.830045 0.421683
0.838773 0.885542 0.522866
0.905013 0.889738 0.621897
0.913069 0.891768 0.641001
0.275944 0.772045 0.563256
0.280842 0.765789 0.534234
0.276936 0.755734 0.488151
0.303273 0.743664 0.400748
0.451972 0.76379 0.373754
0.647837 0.833967 0.48217
0.830625 0.908064 0.58761
0.899992 0.923873 0.68481
0.90695 0.927199 0.72343
0.276814 0.775601 0.579995
0.279133 0.771405 0.556619
0.275319 0.760937 0.509285
0.303014 0.745113 0.406119
0.45568 0.764935 0.376623
0.653193 0.836561 0.48658
0.832639 0.908629 0.591012
0.897002 0.924483 0.690776
0.904967 0.927947 0.729168
0.0435035 0.0436408 0.116258
0.0968032 0.0373083 0.128481
0.196994 0.037995 0.12137
0.33753 0.0356603 0.120668
0.461494 0.0347753 0.122499
0.552178 0.0460212 0.145541
0.647562 0.0962844 0.21294
0.715297 0.139712 0.272801
0.700618 0.153903 0.313191
0.0406043 0.0659037 0.0998703
0.047364 0.0445869 0.129046
0.176211 0.0455787 0.133028
0.332692 0.0386511 0.109804
0.462119 0.035462 0.112276
0.561715 0.049836 0.139055
0.660716 0.103349 0.209384
0.719326 0.141299 0.261234
0.703792 0.154528 0.301106
0.0510109 0.179583 0.135454
0.0489815 0.18114 0.14728
0.191424 0.205692 0.183948
0.408652 0.158465 0.149844
0.541253 0.105165 0.121569
0.63946 0.104585 0.141115
0.727489 0.14342 0.198062
0.758801 0.160494 0.224811
0.733303 0.164355 0.251698
0.0513313 0.320089 0.190814
0.0472877 0.324178 0.192248
0.0560006 0.337636 0.142779
0.381033 0.399954 0.141375
0.620081 0.330678 0.134081
0.739254 0.313252 0.146365
0.841596 0.329686 0.202701
0.870939 0.339178 0.234882
0.849714 0.344747 0.260853
0.0497292 0.484855 0.261952
0.0467842 0.490883 0.27219
0.0456855 0.485969 0.197192
0.104234 0.4972 0.0666514
0.574792 0.599756 0.138338
0.766415 0.576165 0.216327
0.848997 0.545144 0.261509
0.878325 0.550256 0.295048
0.871687 0.555032 0.310552
0.104402 0.637324 0.404822
0.0921035 0.643931 0.415381
0.0868696 0.639811 0.370596
0.0918593 0.61178 0.203616
0.378408 0.668971 0.184131
0.73431 0.772519 0.298085
0.860014 0.765698 0.408606
0.904021 0.753475 0.474449
0.904463 0.756069 0.47982
0.2336 0.737102 0.522057
0.223026 0.739971 0.526619
0.218372 0.73431 0.490547
0.208606 0.711818 0.38613
0.372229 0.723217 0.298054
0.630304 0.819745 0.406455
0.835904 0.88191 0.511284
0.906828 0.883711 0.611154
0.914931 0.885756 0.631907
0.282872 0.776623 0.588525
0.278508 0.774884 0.578027
0.283192 0.76553 0.531777
0.276219 0.746731 0.445411
0.414359 0.756924 0.373007
0.622492 0.822599 0.469032
0.822889 0.905303 0.581842
0.897795 0.923919 0.679774
0.906981 0.927764 0.726009
0.285115 0.780301 0.604868
0.281041 0.778607 0.594003
0.283955 0.770291 0.550637
0.277775 0.749706 0.455467
0.414389 0.757397 0.375296
0.625589 0.823789 0.472618
0.820035 0.904784 0.584024
0.891722 0.924361 0.684138
0.904692 0.928512 0.732158
0.0529793 0.0476081 0.207767
0.119738 0.043122 0.223285
0.196872 0.0430915 0.231571
0.346807 0.0391241 0.206958
0.466331 0.041413 0.222049
0.561181 0.0559548 0.22652
0.654566 0.107179 0.274037
0.723033 0.150072 0.325353
0.708629 0.165011 0.369131
0.0404974 0.0701762 0.174563
0.05626 0.0446326 0.222354
0.178286 0.0432898 0.240574
0.339345 0.0425727 0.220951
0.472938 0.0440528 0.218891
0.570718 0.0596933 0.220783
0.670207 0.115343 0.272786
0.730098 0.153918 0.320928
0.714183 0.1682 0.362875
0.0433967 0.164538 0.194537
0.0421759 0.156069 0.21529
0.150149 0.142275 0.306523
0.372885 0.133028 0.289647
0.537942 0.0977188 0.224277
0.617365 0.0844129 0.211551
0.709239 0.128985 0.257908
0.751644 0.153979 0.293187
0.736263 0.167102 0.331472
0.0496529 0.31606 0.241901
0.0467536 0.319829 0.258961
0.0785687 0.343938 0.289708
0.396307 0.402853 0.374197
0.649012 0.339376 0.329122
0.793545 0.270695 0.308904
0.877836 0.261143 0.317601
0.886015 0.263874 0.325444
0.860227 0.270207 0.354742
0.0549935 0.488807 0.325292
0.0522316 0.495918 0.352071
0.0570382 0.498772 0.336217
0.142947 0.528283 0.301854
0.570611 0.600732 0.321721
0.771084 0.543175 0.308888
0.862287 0.515297 0.306218
0.886976 0.514382 0.328298
0.879637 0.518975 0.343557
0.111757 0.637949 0.448066
0.0982223 0.645212 0.469505
0.0958877 0.645197 0.451377
0.0878462 0.638315 0.37055
0.316014 0.648432 0.226734
0.731441 0.768292 0.335607
0.867979 0.750881 0.430884
0.900053 0.734844 0.471672
0.899397 0.73669 0.478111
0.236561 0.738506 0.55787
0.223041 0.74226 0.567452
0.221149 0.74052 0.547265
0.21236 0.729809 0.485679
0.294377 0.714107 0.317235
0.581353 0.796857 0.382437
0.833234 0.877012 0.493477
0.911879 0.874815 0.600366
0.918105 0.875563 0.621881
0.294697 0.782589 0.621805
0.288396 0.782391 0.618875
0.286534 0.779583 0.598459
0.285237 0.766445 0.531594
0.341512 0.751293 0.397925
0.577783 0.804425 0.447578
0.805768 0.899367 0.570153
0.893126 0.924208 0.675669
0.906935 0.928664 0.730266
0.297139 0.785336 0.635904
0.292943 0.784878 0.630732
0.289311 0.782147 0.611139
0.290288 0.76968 0.544503
0.334951 0.751827 0.4047
0.573816 0.802884 0.447562
0.793683 0.896254 0.574884
0.884138 0.92398 0.673411
0.905547 0.929458 0.73611
0.0735485 0.0519265 0.324926
0.138064 0.0468757 0.342885
0.232151 0.0459907 0.349142
0.33257 0.0462043 0.350378
0.473548 0.0505379 0.324468
0.558984 0.0704356 0.326574
0.659998 0.127733 0.373098
0.728557 0.169574 0.427039
0.71725 0.186542 0.470832
0.0416114 0.0746471 0.281987
0.0768292 0.0506752 0.341665
0.203861 0.0478828 0.359884
0.325673 0.0471504 0.363455
0.479042 0.0541848 0.334371
0.566384 0.0750134 0.333959
0.677714 0.137682 0.382956
0.738094 0.17525 0.432578
0.722652 0.192309 0.476967
0.0417182 0.133318 0.275593
0.0417029 0.118105 0.293629
0.112139 0.0560006 0.377493
0.31603 0.060853 0.384741
0.485084 0.0670176 0.351308
0.588586 0.0799573 0.32221
0.711177 0.1411 0.362768
0.763684 0.173434 0.408347
0.746441 0.190845 0.452491
0.0429694 0.289128 0.321355
0.0425116 0.283482 0.338567
0.0522011 0.291905 0.382864
0.344152 0.3084 0.522652
0.628977 0.326497 0.540764
0.805447 0.275517 0.484932
0.867613 0.251469 0.461402
0.877836 0.25832 0.463844
0.853284 0.267475 0.489891
0.054902 0.485863 0.386481
0.0523384 0.491768 0.415198
0.0593729 0.497444 0.42501
0.214023 0.54136 0.48513
0.582101 0.592706 0.561334
0.79324 0.540841 0.52221
0.898482 0.496696 0.512795
0.918761 0.480674 0.507225
0.908492 0.481453 0.519829
0.137911 0.644587 0.49929
0.125414 0.651606 0.524544
0.134936 0.654246 0.522362
0.154208 0.655756 0.505089
0.395438 0.691173 0.508537
0.721996 0.759518 0.54287
0.858091 0.727962 0.545907
0.898772 0.705684 0.507836
0.894835 0.706523 0.515999
0.249226 0.74197 0.594217
0.236744 0.745556 0.606317
0.235065 0.745998 0.600671
0.229541 0.742321 0.575341
0.291264 0.749508 0.507958
0.571115 0.784375 0.489769
0.834638 0.873396 0.577035
0.915892 0.86804 0.635279
0.919158 0.866148 0.654566
0.321096 0.791241 0.654612
0.307805 0.790631 0.659022
0.301411 0.789105 0.651026
0.299153 0.785962 0.625193
0.305959 0.775448 0.542626
0.533715 0.795163 0.47538
0.777417 0.889036 0.593057
0.89279 0.926635 0.693431
0.907317 0.934874 0.763836
0.328786 0.798245 0.671336
0.320943 0.796582 0.669947
0.312337 0.793759 0.661845
0.304753 0.789364 0.635813
0.306477 0.777508 0.553521
0.519371 0.793469 0.479362
0.7514 0.878798 0.592203
0.880034 0.923766 0.674556
0.906203 0.935195 0.767422
0.108736 0.0516365 0.429145
0.166644 0.0528878 0.441306
0.260456 0.0547646 0.448005
0.356481 0.0549477 0.44979
0.445396 0.0627604 0.442283
0.568292 0.0939956 0.425452
0.656703 0.134142 0.453437
0.710033 0.164416 0.503212
0.693736 0.179553 0.542504
0.0633249 0.0848554 0.398154
0.111467 0.052018 0.441978
0.2309 0.0552987 0.45481
0.351843 0.0558022 0.457908
0.444511 0.0649729 0.45127
0.574243 0.102785 0.442863
0.670161 0.14284 0.467857
0.710323 0.17084 0.517327
0.693233 0.186038 0.555917
0.0420996 0.114946 0.354131
0.0421912 0.0930343 0.373907
0.139315 0.0541848 0.454963
0.32462 0.057435 0.465309
0.441718 0.0712291 0.465431
0.587564 0.110414 0.452308
0.693401 0.144549 0.4607
0.741619 0.175631 0.511818
0.72195 0.192172 0.551415
0.043473 0.253773 0.392401
0.0433661 0.245304 0.408148
0.0436866 0.235142 0.445655
0.306249 0.197787 0.591852
0.594018 0.244297 0.655055
0.753857 0.245762 0.635431
0.816342 0.232258 0.581872
0.83856 0.246128 0.586038
0.812528 0.255436 0.604593
0.0455787 0.465843 0.469047
0.0451362 0.466636 0.491478
0.0462654 0.467063 0.507561
0.156909 0.495781 0.582284
0.54815 0.515801 0.696117
0.79057 0.541146 0.711666
0.915404 0.506294 0.676738
0.934417 0.490715 0.673777
0.915236 0.496834 0.691508
0.140917 0.640055 0.546807
0.128359 0.647547 0.572549
0.137987 0.651026 0.577035
0.162661 0.653849 0.581598
0.467674 0.710506 0.657465
0.729778 0.748257 0.714305
0.869764 0.717052 0.68751
0.91281 0.697688 0.683482
0.90866 0.698741 0.69041
0.286397 0.747707 0.628977
0.26891 0.751324 0.646143
0.274952 0.752895 0.646708
0.285496 0.753399 0.641001
0.406394 0.778164 0.657008
0.638651 0.821271 0.694789
0.830259 0.864378 0.71812
0.909804 0.857939 0.737102
0.913405 0.857328 0.739483
0.390066 0.813291 0.694728
0.370123 0.812299 0.702876
0.359365 0.80943 0.697444
0.349081 0.805493 0.685481
0.377798 0.81146 0.672435
0.596536 0.849958 0.689342
0.780896 0.889082 0.719661
0.897444 0.931777 0.772045
0.912657 0.938338 0.802426
0.40116 0.820111 0.716533
0.39472 0.819242 0.715801
0.38526 0.817182 0.710887
0.367605 0.812421 0.696742
0.380774 0.81323 0.677104
0.590723 0.851331 0.694408
0.769162 0.88719 0.720439
0.876524 0.928374 0.772366
0.905791 0.940719 0.818936
0.158694 0.0623331 0.486763
0.208408 0.0641794 0.494453
0.285435 0.0688487 0.500908
0.374044 0.0720989 0.504601
0.448203 0.0836347 0.504356
0.538598 0.111788 0.515267
0.652399 0.154009 0.547402
0.706065 0.182925 0.586603
0.696773 0.194873 0.614572
0.116838 0.0795605 0.469398
0.1626 0.0642863 0.493568
0.26247 0.0692607 0.503014
0.367086 0.0742199 0.508812
0.449516 0.0861067 0.5093
0.549172 0.12079 0.529595
0.664027 0.161395 0.559701
0.704356 0.189151 0.600412
0.697658 0.201099 0.625879
0.0441901 0.102953 0.414374
0.0796368 0.0981003 0.451652
0.187106 0.0662394 0.498695
0.338827 0.0749218 0.510124
0.442893 0.0861372 0.512627
0.559548 0.132601 0.548791
0.679591 0.168948 0.568444
0.727108 0.193912 0.601144
0.715175 0.20766 0.629648
0.042771 0.205249 0.444663
0.0427558 0.194125 0.453422
0.0459449 0.169589 0.477516
0.274952 0.115297 0.561639
0.502815 0.152255 0.606683
0.624506 0.188449 0.628779
0.72343 0.19968 0.607645
0.762737 0.209003 0.609659
0.741909 0.219974 0.631479
0.0453956 0.448127 0.541833
0.0449378 0.448508 0.55494
0.0454566 0.441993 0.563317
0.130983 0.457984 0.647211
0.543984 0.441306 0.77734
0.79762 0.505974 0.838819
0.922988 0.499809 0.830228
0.939956 0.485588 0.820188
0.920821 0.490959 0.825727
0.123873 0.624155 0.603693
0.107607 0.628565 0.620844
0.115145 0.632395 0.63212
0.170138 0.638987 0.658824
0.437644 0.678645 0.728939
0.717098 0.704799 0.809735
0.867308 0.717586 0.813046
0.91281 0.704662 0.801801
0.907744 0.706569 0.807141
0.289906 0.744717 0.662257
0.273411 0.748226 0.67776
0.280003 0.750088 0.680674
0.292027 0.751324 0.681987
0.416556 0.778408 0.715068
0.683299 0.834775 0.790051
0.829374 0.857298 0.823789
0.908782 0.844175 0.804273
0.909255 0.844511 0.811078
0.406195 0.815564 0.721019
0.395407 0.815808 0.729381
0.398154 0.816022 0.729259
0.398428 0.814649 0.725063
0.449516 0.827146 0.735088
0.675868 0.878248 0.798566
0.805035 0.904707 0.826459
0.890272 0.925917 0.8392
0.912566 0.931563 0.852064
0.480095 0.839384 0.750988
0.461112 0.836805 0.755367
0.457069 0.835813 0.753216
0.448447 0.833234 0.746456
0.457374 0.834943 0.741558
0.66598 0.884733 0.800122
0.797436 0.914488 0.833066
0.873915 0.93312 0.852674
0.907652 0.947509 0.880568
0.22089 0.0754711 0.514397
0.256977 0.0784161 0.520027
0.316976 0.0837568 0.527749
0.392264 0.0894179 0.535149
0.467155 0.102617 0.54432
0.548959 0.130861 0.568719
0.685924 0.203387 0.652781
0.72726 0.233402 0.693278
0.741817 0.252064 0.717815
0.179965 0.0744488 0.512215
0.226169 0.0771496 0.518807
0.299351 0.0831922 0.527749
0.386908 0.0906081 0.537377
0.468894 0.103731 0.547051
0.558495 0.137987 0.57966
0.700496 0.214237 0.667796
0.733944 0.241062 0.702937
0.74432 0.255711 0.720668
0.10837 0.104173 0.476707
0.13875 0.0735332 0.508568
0.243107 0.078996 0.522606
0.363561 0.0904707 0.537423
0.462074 0.10309 0.548516
0.569253 0.148959 0.594705
0.709941 0.221561 0.67744
0.743648 0.246067 0.708003
0.750423 0.263478 0.727642
0.0473487 0.159991 0.477928
0.0481422 0.143343 0.473487
0.0658427 0.114351 0.467887
0.276967 0.0880751 0.534493
0.444648 0.108827 0.56054
0.584878 0.169299 0.622644
0.713741 0.228931 0.685725
0.748806 0.246555 0.703273
0.75317 0.26128 0.719646
0.0517891 0.434287 0.59617
0.0525063 0.433814 0.602884
0.0547799 0.424048 0.608484
0.188052 0.419089 0.696941
0.601022 0.416617 0.838575
0.813809 0.47097 0.890394
0.897337 0.487449 0.890715
0.910094 0.477119 0.88777
0.900313 0.481498 0.886625
0.136873 0.626581 0.665187
0.13724 0.629007 0.67248
0.142412 0.627832 0.678279
0.196292 0.627115 0.703319
0.419532 0.651392 0.766705
0.728466 0.667506 0.860395
0.871962 0.705135 0.891493
0.922469 0.703441 0.887419
0.910094 0.706157 0.888945
0.271763 0.736248 0.699565
0.26836 0.740047 0.708919
0.282506 0.743252 0.716014
0.309148 0.745937 0.726757
0.435737 0.770809 0.767956
0.67776 0.822431 0.834669
0.830976 0.84152 0.876219
0.905043 0.843732 0.869413
0.905791 0.843915 0.872267
0.415396 0.815061 0.742107
0.400854 0.814527 0.748562
0.404547 0.814969 0.749218
0.409552 0.814618 0.748913
0.463966 0.828641 0.765209
0.687327 0.881254 0.831205
0.822232 0.909377 0.870771
0.887602 0.922545 0.886839
0.911131 0.925734 0.887572
0.507271 0.848386 0.776989
0.493339 0.846387 0.779828
0.493675 0.84651 0.778683
0.494545 0.846616 0.77586
0.508614 0.850156 0.778286
0.705043 0.899138 0.838544
0.828 0.92784 0.877684
0.885573 0.94403 0.897658
0.919875 0.951858 0.904326
0.277806 0.0861219 0.535271
0.306157 0.0893263 0.540352
0.353323 0.0943923 0.546746
0.417746 0.100038 0.555795
0.487739 0.11426 0.567636
0.565332 0.141253 0.592523
0.691722 0.210834 0.673793
0.743038 0.25359 0.720638
0.751308 0.259205 0.725917
0.244541 0.0825818 0.530037
0.278721 0.0864424 0.536156
0.33637 0.0931563 0.544839
0.410742 0.099443 0.554726
0.487007 0.11368 0.566918
0.568887 0.143114 0.594873
0.707225 0.221149 0.685634
0.745464 0.257939 0.725063
0.750469 0.264897 0.73135
0.155871 0.0775158 0.516854
0.20499 0.0800336 0.52639
0.287251 0.0874037 0.537514
0.387518 0.0973068 0.551141
0.477958 0.111299 0.565011
0.572259 0.148531 0.602029
0.715373 0.229999 0.696345
0.753109 0.263203 0.729778
0.755886 0.271336 0.737316
0.0752422 0.144152 0.499367
0.071519 0.126635 0.486198
0.116625 0.107256 0.49543
0.307195 0.0894484 0.540673
0.446479 0.105013 0.560815
0.585748 0.168276 0.628824
0.726726 0.245411 0.714412
0.763073 0.272435 0.738445
0.766293 0.282139 0.74728
0.0705272 0.421653 0.633036
0.0735485 0.420844 0.640375
0.0797436 0.40827 0.644511
0.213474 0.388235 0.703288
0.613245 0.393637 0.840085
0.807431 0.442283 0.883879
0.887282 0.464714 0.885588
0.895766 0.459831 0.881727
0.891386 0.46273 0.881468
0.171405 0.625742 0.70135
0.17319 0.627619 0.707225
0.17702 0.624765 0.711559
0.214893 0.617578 0.724346
0.420661 0.636271 0.772503
0.743816 0.655833 0.872892
0.87837 0.692409 0.902739
0.919326 0.694743 0.901274
0.909346 0.69752 0.902068
0.317098 0.744427 0.739376
0.315404 0.745754 0.744076
0.323674 0.745754 0.747875
0.351949 0.746319 0.756237
0.45478 0.76672 0.783642
0.671321 0.812955 0.846265
0.836439 0.828214 0.891096
0.903029 0.837446 0.895018
0.904692 0.838544 0.895323
0.471794 0.825422 0.774762
0.456916 0.823987 0.779416
0.461738 0.824323 0.781537
0.470558 0.82388 0.784909
0.511315 0.834699 0.797879
0.695857 0.879194 0.853651
0.822538 0.906981 0.889281
0.893111 0.918608 0.905776
0.911116 0.922179 0.908598
0.546166 0.858183 0.795117
0.529686 0.855711 0.798566
0.532052 0.856245 0.799039
0.537652 0.857664 0.800671
0.555184 0.862364 0.806256
0.713344 0.903471 0.855207
0.833387 0.932296 0.892866
0.893523 0.947692 0.911543
0.925124 0.954452 0.913603
