bundles/resolve-cinematic-luts/Phantom Luts/P4k & P6K Phntm Film LUTs - V6/P6k/Gen 4 Colour/P6k Eterna Gen4-Legacy.cube
TITLE "Generated by Resolve"
LUT_3D_SIZE 9
0.0264286 0.053254 0.0532235
0.0678569 0.0555581 0.0586404
0.13695 0.0616617 0.0645151
0.245411 0.0754406 0.0906844
0.392233 0.0948196 0.129046
0.538338 0.124865 0.171328
0.713817 0.164691 0.225727
0.750973 0.176715 0.246845
0.775708 0.175952 0.262592
0.0340124 0.0765087 0.0665599
0.0527657 0.0766155 0.0612345
0.127489 0.0752422 0.061799
0.234257 0.0734875 0.0746014
0.380896 0.0873426 0.104524
0.5411 0.115587 0.152911
0.714275 0.158145 0.208621
0.736568 0.170504 0.221088
0.765148 0.174853 0.234714
0.0477302 0.160403 0.103243
0.0388037 0.175051 0.0730449
0.145464 0.168505 0.075761
0.281056 0.144274 0.0896925
0.421775 0.148684 0.111192
0.588113 0.170977 0.145632
0.739345 0.200381 0.189624
0.749737 0.203876 0.19469
0.756848 0.200427 0.196735
0.055436 0.315526 0.165835
0.0361639 0.346883 0.13875
0.0426184 0.3514 0.0728771
0.311513 0.359838 0.0829633
0.530083 0.368048 0.0959182
0.705303 0.379568 0.163073
0.843534 0.4009 0.222293
0.8701 0.408118 0.23714
0.868177 0.403098 0.235554
0.0564279 0.565087 0.303487
0.0344396 0.594202 0.286076
0.0299687 0.611872 0.221561
0.116823 0.599832 0.0852369
0.530953 0.599008 0.131029
0.719097 0.603662 0.190265
0.87776 0.602045 0.278523
0.926116 0.605661 0.304555
0.924376 0.596918 0.299077
0.146426 0.77879 0.475761
0.135668 0.798566 0.466163
0.132357 0.809537 0.428748
0.144274 0.800565 0.301961
0.403677 0.804639 0.206958
0.709606 0.794018 0.237629
0.860685 0.787503 0.356161
0.94548 0.774868 0.426307
0.945937 0.763287 0.416739
0.238972 0.907759 0.59762
0.24004 0.911482 0.586099
0.241901 0.914214 0.562448
0.249226 0.916579 0.500298
0.389838 0.929274 0.399878
0.622919 0.927687 0.41648
0.859922 0.923476 0.480186
0.944732 0.917845 0.580636
0.94519 0.911223 0.566247
0.242481 0.910826 0.621851
0.248188 0.909804 0.608042
0.254612 0.909422 0.585458
0.258686 0.912337 0.537118
0.359091 0.934661 0.458106
0.562417 0.93756 0.455283
0.792691 0.933318 0.515068
0.942245 0.938872 0.631189
0.945922 0.941833 0.660304
0.236652 0.913329 0.6365
0.23772 0.913649 0.62324
0.244724 0.912581 0.602808
0.251575 0.91397 0.559945
0.312947 0.928313 0.478889
0.492287 0.939513 0.443793
0.706584 0.935393 0.492546
0.922774 0.938231 0.594232
0.945006 0.942275 0.659998
0.0325475 0.0545205 0.0724804
0.0752422 0.0568551 0.0750896
0.140902 0.0615549 0.0876936
0.248432 0.071046 0.115694
0.396109 0.0873884 0.150973
0.544915 0.111315 0.193957
0.722667 0.149569 0.249836
0.76878 0.166903 0.2757
0.789502 0.168185 0.292638
0.0333867 0.0694438 0.0674144
0.0485237 0.066453 0.0687877
0.144442 0.0675975 0.0775311
0.259846 0.0764324 0.09897
0.406561 0.0919051 0.135531
0.570718 0.119219 0.182864
0.750835 0.16585 0.241917
0.770947 0.173251 0.258488
0.789075 0.174075 0.273564
0.0497139 0.149813 0.117952
0.0404974 0.16025 0.104082
0.142535 0.163745 0.0807355
0.285069 0.132967 0.0935988
0.422156 0.13135 0.113649
0.59089 0.149798 0.153689
0.739956 0.180545 0.202319
0.751156 0.184039 0.209644
0.760296 0.179477 0.214603
0.0518654 0.297826 0.18732
0.0372778 0.325414 0.170779
0.0415351 0.346929 0.0981765
0.309392 0.355657 0.089189
0.530495 0.355795 0.110079
0.699763 0.369085 0.168917
0.846036 0.390463 0.226276
0.872724 0.396811 0.241672
0.870375 0.389548 0.240024
0.0582284 0.543664 0.324102
0.035874 0.567742 0.310887
0.0264439 0.589487 0.246143
0.0912642 0.592325 0.0987106
0.521111 0.590951 0.135592
0.714565 0.596689 0.191409
0.873564 0.597025 0.281834
0.926879 0.598672 0.31078
0.924773 0.588663 0.304646
0.136416 0.758938 0.490578
0.124544 0.776562 0.481941
0.118669 0.787564 0.440528
0.129107 0.786358 0.301381
0.380728 0.798611 0.204562
0.702968 0.788327 0.23476
0.859007 0.781216 0.353063
0.945464 0.769238 0.426566
0.945632 0.757702 0.417288
0.235294 0.900282 0.615808
0.236255 0.905165 0.605051
0.236423 0.909606 0.577432
0.242084 0.911849 0.504845
0.37467 0.925689 0.397543
0.611505 0.926238 0.410956
0.85626 0.920501 0.471534
0.944259 0.914366 0.573831
0.944991 0.907759 0.561273
0.24715 0.908522 0.645716
0.25391 0.906966 0.631952
0.255665 0.90779 0.606973
0.257649 0.911925 0.550546
0.351888 0.933577 0.461982
0.552285 0.937758 0.455589
0.783185 0.933349 0.513726
0.94139 0.938796 0.629999
0.946365 0.941619 0.661265
0.240269 0.91162 0.661372
0.243885 0.910964 0.647959
0.247807 0.910689 0.625925
0.253452 0.912276 0.577142
0.304982 0.926696 0.484199
0.487709 0.939635 0.446601
0.695918 0.935683 0.491783
0.919921 0.938079 0.59089
0.945205 0.942199 0.661021
0.048249 0.0565499 0.122927
0.0892653 0.0599832 0.129747
0.15964 0.0645151 0.120836
0.26157 0.0731975 0.136736
0.396201 0.0856947 0.173068
0.540063 0.106218 0.219455
0.715007 0.140032 0.277256
0.776089 0.162142 0.313085
0.797086 0.162875 0.336828
0.0347295 0.0715343 0.0961776
0.039292 0.0589914 0.127214
0.15903 0.0671092 0.125689
0.27013 0.0756542 0.136736
0.405554 0.0877699 0.172015
0.560082 0.110597 0.220371
0.744884 0.151827 0.284733
0.782498 0.166567 0.314809
0.803006 0.167163 0.338567
0.0511025 0.1458 0.131487
0.0510262 0.15082 0.140398
0.147173 0.155993 0.153185
0.320821 0.141375 0.155428
0.465553 0.133989 0.17322
0.613474 0.151369 0.211643
0.768841 0.182208 0.262928
0.78204 0.184421 0.277089
0.793194 0.18056 0.291279
0.0607309 0.28368 0.211658
0.0518807 0.304814 0.218448
0.0424964 0.321599 0.178058
0.307897 0.350759 0.109743
0.544762 0.333227 0.155993
0.702831 0.340597 0.197086
0.860655 0.365866 0.255802
0.884184 0.366796 0.272679
0.88275 0.35613 0.274266
0.0629282 0.515846 0.355047
0.0442664 0.534829 0.358557
0.0357061 0.553216 0.318563
0.0534524 0.579461 0.135805
0.509529 0.576699 0.14609
0.710811 0.576104 0.199481
0.87187 0.576486 0.294087
0.928298 0.577493 0.324208
0.925551 0.566033 0.318593
0.128725 0.728313 0.519219
0.115785 0.739757 0.516136
0.104784 0.744747 0.479301
0.0992905 0.755367 0.346105
0.3308 0.783886 0.212894
0.685374 0.771725 0.2374
0.855055 0.763607 0.347372
0.945418 0.754452 0.426627
0.944854 0.742901 0.417395
0.227436 0.879423 0.642771
0.225483 0.884657 0.636393
0.223651 0.886915 0.609049
0.217823 0.891691 0.530999
0.327733 0.913817 0.394537
0.584237 0.921035 0.39675
0.846754 0.912963 0.451667
0.942946 0.905852 0.558801
0.944808 0.898756 0.550912
0.256062 0.905409 0.686656
0.252033 0.907027 0.677089
0.261646 0.904479 0.651896
0.256901 0.909209 0.595544
0.311223 0.925917 0.481758
0.530343 0.938155 0.458091
0.761105 0.933623 0.510979
0.938827 0.938308 0.624811
0.948028 0.94081 0.663523
0.247578 0.908736 0.702083
0.245808 0.909514 0.692378
0.256092 0.907088 0.671092
0.260288 0.907759 0.623835
0.270573 0.917479 0.517311
0.466499 0.939834 0.453529
0.672847 0.936233 0.490471
0.910246 0.937789 0.57998
0.944884 0.942397 0.66276
0.073167 0.0593423 0.208942
0.110216 0.0620584 0.228641
0.179171 0.0659495 0.207889
0.289845 0.0775921 0.194507
0.420172 0.0889601 0.217166
0.55555 0.106508 0.262638
0.719722 0.135592 0.321813
0.781689 0.157549 0.364004
0.801266 0.15668 0.397726
0.0350195 0.0697337 0.171344
0.046952 0.0605478 0.213489
0.164416 0.0656596 0.236835
0.296117 0.0794537 0.207416
0.420905 0.0898299 0.222843
0.560449 0.107851 0.275059
0.737545 0.140475 0.342275
0.788251 0.159121 0.384726
0.807385 0.157992 0.42121
0.0518807 0.140093 0.169375
0.0464637 0.136675 0.201465
0.0962539 0.119036 0.268513
0.328054 0.112139 0.245197
0.448493 0.115114 0.245457
0.571038 0.11812 0.279866
0.749157 0.150744 0.342611
0.79144 0.167834 0.379843
0.806882 0.167636 0.409064
0.064622 0.273701 0.235691
0.0603647 0.291524 0.25597
0.071107 0.304967 0.272282
0.329458 0.337972 0.318975
0.5682 0.315435 0.320378
0.75172 0.308141 0.341573
0.894652 0.314473 0.370993
0.894835 0.305028 0.380728
0.892699 0.291524 0.390066
0.0697642 0.494469 0.387411
0.0588083 0.512856 0.407401
0.0691691 0.523247 0.405249
0.0852369 0.544305 0.341253
0.500023 0.563012 0.253315
0.727977 0.545235 0.317922
0.888426 0.536629 0.351568
0.937224 0.52723 0.376272
0.935409 0.511101 0.372381
0.131258 0.701244 0.548592
0.118776 0.709697 0.55552
0.112398 0.707057 0.539727
0.0971237 0.709255 0.470008
0.255802 0.769314 0.288167
0.667552 0.750103 0.272847
0.858625 0.734554 0.360204
0.945159 0.727031 0.436744
0.944823 0.715251 0.431647
0.229953 0.853712 0.673106
0.213764 0.861112 0.675608
0.212055 0.856855 0.655695
0.202609 0.852857 0.596246
0.228061 0.881926 0.452476
0.521385 0.911864 0.379446
0.824475 0.898466 0.414755
0.943938 0.886259 0.541405
0.947311 0.877607 0.54342
0.271397 0.905455 0.734188
0.259403 0.908034 0.731182
0.272084 0.903181 0.712169
0.271519 0.903944 0.667277
0.266514 0.912718 0.563226
0.472847 0.938689 0.47013
0.713344 0.933883 0.50808
0.934264 0.936645 0.614038
0.949493 0.940154 0.66833
0.269062 0.911467 0.750332
0.26424 0.911192 0.74493
0.25951 0.909865 0.729992
0.27277 0.904158 0.68896
0.262852 0.911391 0.606439
0.397955 0.938109 0.47808
0.631983 0.936736 0.491615
0.884215 0.936858 0.5608
0.945449 0.942199 0.667109
0.121401 0.0629282 0.336492
0.152087 0.0647746 0.359884
0.227237 0.0695964 0.35758
0.326452 0.0789807 0.318807
0.452003 0.0925154 0.314656
0.587579 0.108156 0.337758
0.736492 0.136873 0.381033
0.781552 0.152667 0.41973
0.80293 0.153689 0.45745
0.0447242 0.0674754 0.289799
0.0775464 0.0617227 0.32665
0.181323 0.0665141 0.358633
0.316258 0.0766766 0.341787
0.450217 0.0958267 0.317556
0.587335 0.107576 0.350408
0.751217 0.140429 0.403967
0.789868 0.15584 0.448814
0.804379 0.153109 0.492531
0.0489815 0.117464 0.24921
0.0424811 0.109636 0.28629
0.0604257 0.0792096 0.33962
0.297475 0.0776532 0.376944
0.457938 0.0999466 0.335515
0.581353 0.110674 0.354452
0.744778 0.144518 0.409064
0.788281 0.162493 0.454932
0.802563 0.159945 0.495842
0.0590829 0.260243 0.287388
0.0505684 0.269673 0.319615
0.0590372 0.272526 0.36112
0.230549 0.284276 0.473335
0.570504 0.25948 0.465202
0.732906 0.259205 0.462028
0.861173 0.247654 0.481193
0.872648 0.244495 0.497475
0.87126 0.23386 0.513603
0.0740826 0.479927 0.417929
0.0641947 0.494469 0.439948
0.0769818 0.50515 0.45449
0.139818 0.519234 0.471839
0.507729 0.527443 0.499535
0.732113 0.512718 0.502464
0.89662 0.512245 0.522194
0.940948 0.503609 0.530282
0.939941 0.482719 0.529732
0.152239 0.679011 0.575936
0.139315 0.68835 0.589059
0.146609 0.686687 0.586801
0.16437 0.682551 0.564981
0.353384 0.716731 0.539986
0.652873 0.717571 0.467658
0.85803 0.700114 0.516854
0.948501 0.702296 0.522515
0.948196 0.690623 0.516533
0.239933 0.840665 0.699306
0.229175 0.847639 0.705776
0.226719 0.844221 0.696178
0.228611 0.830167 0.658534
0.28072 0.857496 0.60647
0.509758 0.89221 0.512337
0.809064 0.875273 0.51574
0.947845 0.863432 0.5776
0.948714 0.856229 0.583719
0.316533 0.915953 0.779156
0.305119 0.91986 0.78172
0.287343 0.92015 0.772808
0.286976 0.911711 0.737346
0.290379 0.911131 0.671214
0.45452 0.938079 0.584344
0.679805 0.933761 0.546365
0.92578 0.935988 0.615305
0.949798 0.940551 0.695354
0.336706 0.920668 0.796185
0.326726 0.923674 0.797406
0.308293 0.9243 0.788998
0.297978 0.917525 0.759274
0.29247 0.910811 0.698116
0.377874 0.936141 0.609018
0.610178 0.939116 0.5449
0.856596 0.935821 0.56788
0.948775 0.940948 0.688182
0.181598 0.0684215 0.45185
0.2056 0.0698711 0.478798
0.273732 0.0735027 0.491386
0.378164 0.0802319 0.473884
0.493828 0.0957961 0.440909
0.628336 0.108309 0.441794
0.74966 0.135607 0.466606
0.774395 0.148043 0.483894
0.788678 0.145708 0.516884
0.105348 0.0643931 0.413931
0.131746 0.0657054 0.445899
0.218662 0.0702831 0.475303
0.351888 0.0783703 0.484062
0.48809 0.0941787 0.461616
0.630121 0.110536 0.453849
0.752148 0.135973 0.484611
0.774914 0.146609 0.512428
0.789181 0.143374 0.556893
0.0505837 0.092134 0.347021
0.0483558 0.0886549 0.38732
0.0797131 0.0679942 0.427955
0.291859 0.0746166 0.481712
0.480735 0.0933089 0.488319
0.622599 0.116396 0.453422
0.741756 0.138033 0.482551
0.772244 0.151934 0.517433
0.784649 0.148791 0.562936
0.0680858 0.242985 0.376349
0.0593881 0.245655 0.410269
0.0612345 0.242771 0.444434
0.153246 0.228672 0.53228
0.514458 0.181628 0.596277
0.715328 0.200473 0.545251
0.836698 0.216831 0.5449
0.846433 0.215244 0.554772
0.833997 0.196048 0.570153
0.0688029 0.471229 0.473426
0.0496681 0.480079 0.497612
0.0531014 0.486671 0.522362
0.103487 0.486351 0.565118
0.43238 0.496513 0.651621
0.737804 0.469413 0.633417
0.889845 0.470283 0.624125
0.940505 0.449699 0.634592
0.938979 0.42475 0.649897
0.156054 0.668025 0.600259
0.138293 0.672404 0.611536
0.142061 0.669444 0.613336
0.16405 0.664332 0.608576
0.397147 0.684627 0.639384
0.653162 0.677424 0.647105
0.860868 0.665278 0.646754
0.949767 0.661418 0.660227
0.949065 0.653834 0.662501
0.263447 0.826276 0.723873
0.245274 0.831418 0.731151
0.242924 0.826322 0.725917
0.25539 0.813779 0.705531
0.380804 0.828031 0.702144
0.561502 0.843397 0.686427
0.79942 0.845365 0.638895
0.943435 0.835737 0.678828
0.94818 0.834302 0.682887
0.38677 0.918532 0.812909
0.358434 0.926329 0.821134
0.339544 0.926604 0.816724
0.323766 0.920363 0.792218
0.366674 0.918975 0.76379
0.537301 0.932357 0.746456
0.695933 0.937865 0.686076
0.927749 0.934874 0.706111
0.957336 0.936996 0.745281
0.392233 0.927062 0.836652
0.38616 0.930068 0.840879
0.375036 0.93193 0.838193
0.356344 0.930648 0.819959
0.363622 0.925078 0.784527
0.513039 0.933822 0.767971
0.666072 0.939239 0.72491
0.845685 0.935332 0.697734
0.951171 0.940887 0.737057
0.24416 0.0742046 0.552132
0.260746 0.0752422 0.579568
0.31606 0.0779583 0.598367
0.412451 0.084184 0.599786
0.534691 0.0923323 0.587274
0.665339 0.114 0.559167
0.754543 0.13846 0.555611
0.757855 0.142992 0.559411
0.776577 0.142138 0.586542
0.176684 0.0704662 0.515969
0.194263 0.071397 0.549584
0.267628 0.0754253 0.580102
0.376074 0.0819409 0.601282
0.523751 0.0921492 0.604166
0.667399 0.116411 0.581872
0.762814 0.144579 0.570214
0.769772 0.148394 0.584939
0.786847 0.149111 0.616739
0.0635386 0.0879683 0.459144
0.0676432 0.0855268 0.492683
0.139315 0.0689555 0.532769
0.306249 0.0770123 0.581537
0.491966 0.0903334 0.609354
0.659403 0.116472 0.600641
0.757092 0.146761 0.567041
0.765621 0.153048 0.58323
0.782925 0.155291 0.614633
0.0740826 0.229328 0.467308
0.0664225 0.2271 0.501915
0.068864 0.213703 0.523949
0.109133 0.180789 0.565225
0.441001 0.13283 0.647044
0.64889 0.136843 0.638376
0.769955 0.167803 0.567346
0.788342 0.17554 0.582666
0.801053 0.173754 0.612848
0.0767376 0.466972 0.561196
0.0631266 0.470329 0.589502
0.0664378 0.466407 0.609094
0.0927596 0.456657 0.643442
0.354467 0.461021 0.752117
0.711742 0.414374 0.794934
0.899214 0.42092 0.716503
0.936294 0.422309 0.708324
0.93312 0.393637 0.730327
0.155459 0.66038 0.644205
0.126131 0.66331 0.658976
0.124056 0.655146 0.661326
0.144686 0.647974 0.67126
0.311681 0.659342 0.728313
0.596017 0.653574 0.780514
0.862272 0.62887 0.762554
0.949889 0.624994 0.754467
0.949783 0.610025 0.760113
0.273899 0.816342 0.744625
0.246479 0.820249 0.752117
0.238743 0.811673 0.746899
0.24538 0.79826 0.734691
0.337957 0.807584 0.742626
0.592004 0.812558 0.768627
0.797467 0.810086 0.778805
0.946166 0.801373 0.781109
0.952361 0.798581 0.790127
0.40415 0.91458 0.836942
0.369528 0.920485 0.843473
0.350332 0.917876 0.838911
0.348211 0.909773 0.823178
0.391485 0.91133 0.813077
0.604196 0.917311 0.829572
0.739681 0.925704 0.824125
0.926879 0.928145 0.798779
0.957122 0.927138 0.82858
0.454887 0.925765 0.861143
0.431708 0.933394 0.871794
0.423087 0.935927 0.873442
0.415503 0.935531 0.86453
0.412177 0.934524 0.847395
0.595254 0.93579 0.856916
0.728206 0.936355 0.857542
0.850721 0.938842 0.816953
0.952621 0.942367 0.831662
0.303059 0.0804608 0.641016
0.314702 0.0815442 0.664576
0.358663 0.0843824 0.682445
0.431937 0.0899062 0.694316
0.558572 0.100465 0.696071
0.686885 0.12314 0.689281
0.762219 0.144457 0.66598
0.763821 0.14609 0.663737
0.769055 0.148486 0.665919
0.247868 0.0768292 0.616114
0.259556 0.0780804 0.641901
0.318791 0.0817426 0.667399
0.398962 0.0872816 0.68867
0.538033 0.0994278 0.704692
0.685725 0.126726 0.709407
0.765057 0.149065 0.692683
0.768139 0.15172 0.694286
0.775921 0.152941 0.704982
0.103777 0.0813306 0.551675
0.116899 0.0807355 0.587198
0.207889 0.0753948 0.628763
0.327535 0.0819562 0.666255
0.493568 0.0950027 0.699733
0.669215 0.125719 0.72076
0.767987 0.155016 0.703746
0.767468 0.157855 0.692836
0.776013 0.156588 0.706081
0.0814527 0.212802 0.556664
0.08159 0.209308 0.583856
0.0886549 0.188434 0.601541
0.104295 0.142901 0.614786
0.389517 0.0975662 0.681651
0.60679 0.117769 0.715129
0.760601 0.1523 0.690089
0.767681 0.158785 0.655207
0.782895 0.159945 0.669673
0.0918135 0.466468 0.65626
0.087068 0.468879 0.681788
0.0920272 0.45893 0.700847
0.10312 0.437675 0.722225
0.289281 0.420356 0.836423
0.672587 0.366293 0.900893
0.885573 0.360464 0.866941
0.919615 0.352071 0.795605
0.921202 0.345495 0.795499
0.142687 0.654108 0.705837
0.127062 0.654917 0.724086
0.124926 0.643641 0.731456
0.137453 0.627939 0.745235
0.265568 0.622446 0.806027
0.545434 0.627024 0.876997
0.841474 0.590402 0.901427
0.949279 0.587259 0.836179
0.948272 0.589868 0.833555
0.277028 0.811002 0.783886
0.249882 0.812589 0.793576
0.240024 0.802014 0.791363
0.237583 0.785489 0.785306
0.278767 0.778302 0.799466
0.529152 0.792493 0.84889
0.738689 0.788846 0.887037
0.941497 0.768811 0.872282
0.951614 0.765469 0.865248
0.410193 0.904707 0.847578
0.36582 0.914427 0.859953
0.354498 0.910613 0.856504
0.346716 0.899535 0.842664
0.361776 0.890852 0.831724
0.56405 0.906905 0.861601
0.748745 0.913375 0.885634
0.9122 0.914931 0.895659
0.961425 0.908278 0.891447
0.483055 0.930312 0.885054
0.461433 0.937301 0.894942
0.455299 0.939391 0.897459
0.453025 0.938827 0.892439
0.448997 0.938262 0.883619
0.598245 0.941115 0.90219
0.761334 0.940841 0.91812
0.870375 0.94226 0.920027
0.960815 0.940688 0.899855
0.355062 0.0865797 0.704158
0.360876 0.0867323 0.70602
0.3823 0.0882429 0.709972
0.435767 0.0924697 0.718181
0.55407 0.105272 0.731762
0.686244 0.12781 0.741756
0.783551 0.170184 0.782925
0.786191 0.172641 0.783825
0.787518 0.173602 0.779736
0.315236 0.0837415 0.691966
0.327962 0.0852064 0.700374
0.353109 0.0864424 0.704921
0.406394 0.0900587 0.713588
0.526421 0.101701 0.728939
0.676982 0.126055 0.740795
0.784878 0.171756 0.784878
0.790005 0.177615 0.790005
0.792233 0.179904 0.791867
0.18323 0.0776989 0.648646
0.213123 0.0795605 0.667918
0.272999 0.0822003 0.688136
0.344778 0.0859541 0.703517
0.480644 0.0968032 0.724056
0.648859 0.120943 0.738857
0.78471 0.171557 0.78471
0.792889 0.180911 0.792889
0.795666 0.184085 0.795651
0.103441 0.191592 0.639246
0.113802 0.188754 0.658198
0.130129 0.165362 0.670527
0.155184 0.125414 0.67509
0.368048 0.0896773 0.709743
0.574228 0.111101 0.737331
0.774227 0.16994 0.784558
0.795651 0.183536 0.793637
0.797177 0.182849 0.786068
0.119783 0.469917 0.752804
0.129839 0.469841 0.769589
0.13994 0.459586 0.787396
0.149248 0.433326 0.803189
0.256046 0.38024 0.865034
0.624506 0.316747 0.917388
0.837018 0.301549 0.899229
0.883497 0.299214 0.883436
0.881148 0.289494 0.865553
0.169329 0.660716 0.796841
0.175189 0.656168 0.806577
0.181277 0.64596 0.815763
0.188052 0.62562 0.824765
0.242481 0.596216 0.859663
0.508705 0.595651 0.938537
0.806577 0.557427 0.944884
0.942992 0.548775 0.94284
0.943038 0.537072 0.928435
0.248173 0.810803 0.83978
0.245243 0.803861 0.842741
0.242908 0.793332 0.84506
0.245594 0.776608 0.849088
0.2851 0.753658 0.86717
0.486748 0.762478 0.918318
0.696941 0.761944 0.939757
0.927932 0.734997 0.944198
0.944015 0.732616 0.935119
0.371542 0.91487 0.889372
0.368368 0.910979 0.889082
0.362676 0.904768 0.886915
0.352712 0.893019 0.880735
0.352087 0.87747 0.874311
0.491234 0.890532 0.904723
0.695613 0.898634 0.928084
0.869062 0.903395 0.939925
0.942245 0.896956 0.940993
0.472908 0.940169 0.91725
0.475105 0.940185 0.918532
0.476631 0.940215 0.918502
0.476722 0.940276 0.915312
0.472694 0.939879 0.90837
0.548699 0.941161 0.918029
0.740139 0.941985 0.935058
0.883177 0.944244 0.944228
0.947829 0.947814 0.947784
