bundles/resolve-cinematic-luts/Phantom Luts/DJI/DJI Phntm ARRI LUTs - G3/Mavic 3 D-Log/Jamaica Mavic 3.cube
TITLE "Generated by Resolve"
LUT_3D_SIZE 9
0.0175021 0.0343938 0.0175021
0.0798505 0.0348974 0.0149844
0.212863 0.0394141 0.0187533
0.41738 0.0482338 0.0340124
0.611261 0.085481 0.0900893
0.704738 0.165698 0.171374
0.705013 0.165621 0.171527
0.705379 0.16553 0.171527
0.704433 0.165774 0.17145
0.0264439 0.0606241 0.0289158
0.0365301 0.0560922 0.025864
0.191897 0.0549477 0.0194858
0.404807 0.0482185 0.0328374
0.60618 0.083711 0.0872053
0.705119 0.165606 0.171252
0.704143 0.16585 0.171481
0.705043 0.165621 0.171481
0.705119 0.165591 0.17145
0.0466163 0.181903 0.0556039
0.0454261 0.176745 0.054612
0.162814 0.173953 0.0331273
0.443763 0.15523 0.0486152
0.627039 0.142046 0.0992752
0.703426 0.166049 0.171145
0.704967 0.165637 0.171069
0.703578 0.165988 0.171588
0.704814 0.165682 0.171038
0.1037 0.400275 0.122499
0.103029 0.39382 0.120851
0.101518 0.387762 0.11902
0.386755 0.37612 0.054551
0.714 0.380575 0.139712
0.844999 0.3673 0.263005
0.825162 0.335348 0.252567
0.812558 0.317601 0.244358
0.806043 0.309255 0.238727
0.227909 0.672511 0.256962
0.225956 0.671244 0.255344
0.223453 0.66453 0.252018
0.270176 0.659358 0.245182
0.664088 0.642664 0.16672
0.910704 0.6813 0.302068
0.945174 0.681865 0.334157
0.945281 0.671321 0.332403
0.94493 0.665873 0.331212
0.444907 0.943496 0.48986
0.444755 0.941909 0.488304
0.444144 0.941711 0.487877
0.436362 0.933577 0.478111
0.666331 0.899199 0.42118
0.900954 0.892332 0.404334
0.979187 0.892119 0.443793
0.977188 0.885771 0.439246
0.975219 0.883299 0.4365
0.530556 0.998932 0.588434
0.527062 0.998932 0.584298
0.526757 0.998932 0.583474
0.529198 0.998932 0.586267
0.557778 0.998932 0.584131
0.886687 0.963958 0.490669
1 0.981842 0.541054
1 0.981384 0.537438
1 0.981994 0.53698
0.525292 0.998932 0.582071
0.52932 0.998932 0.587228
0.530419 0.998932 0.587762
0.531823 0.998932 0.58912
0.529427 0.998932 0.586938
0.859556 0.962509 0.497108
0.98117 0.977829 0.522927
1 0.981933 0.537026
1 0.981384 0.537453
0.527138 0.998932 0.583871
0.523919 0.998932 0.581109
0.52491 0.998932 0.582361
0.524498 0.998932 0.581369
0.523644 0.998932 0.57998
0.853254 0.963653 0.500664
0.975921 0.977111 0.51725
1 0.982071 0.536934
1 0.982086 0.536904
0.0166171 0.0349126 0.0391394
0.0751507 0.0340124 0.0421607
0.219623 0.0400397 0.0398871
0.423468 0.0507973 0.0479133
0.610346 0.0855573 0.0894942
0.704067 0.165881 0.170932
0.704555 0.165743 0.171023
0.704448 0.165789 0.171038
0.703685 0.165988 0.171069
0.0218814 0.0512551 0.0331273
0.0286412 0.0462196 0.0293126
0.190814 0.0418555 0.0207828
0.402258 0.047715 0.0327611
0.605692 0.0836805 0.0870375
0.70428 0.165835 0.171084
0.703593 0.166003 0.171237
0.704463 0.165774 0.171221
0.70457 0.165743 0.17113
0.0441596 0.170565 0.0530556
0.0431983 0.165331 0.0521706
0.156939 0.16231 0.031342
0.434012 0.142611 0.0480659
0.620752 0.130648 0.0953689
0.703777 0.165957 0.170871
0.70428 0.165835 0.170886
0.70338 0.166049 0.171344
0.704219 0.16585 0.170977
0.10135 0.393362 0.119661
0.10013 0.387625 0.118257
0.0988479 0.381872 0.116182
0.383261 0.369787 0.0530098
0.710796 0.371878 0.137804
0.839551 0.359518 0.259083
0.81973 0.327779 0.248753
0.806226 0.309483 0.239521
0.800046 0.301137 0.234379
0.225269 0.668864 0.254337
0.223224 0.667338 0.252613
0.220233 0.660639 0.249454
0.262455 0.655161 0.242573
0.662562 0.638148 0.16466
0.909773 0.677317 0.300298
0.944961 0.677714 0.333028
0.945052 0.667063 0.331456
0.944442 0.661707 0.330098
0.442206 0.941024 0.486809
0.44184 0.939284 0.485023
0.441032 0.93875 0.484138
0.43331 0.930892 0.47512
0.662425 0.896757 0.418326
0.899794 0.889403 0.401602
0.978134 0.889677 0.44181
0.976303 0.883055 0.437232
0.974609 0.880537 0.434684
0.530587 0.998932 0.588464
0.526528 0.998932 0.584146
0.526619 0.998932 0.583352
0.529061 0.998932 0.58613
0.555566 0.998932 0.584024
0.886168 0.963943 0.4907
1 0.981735 0.540932
1 0.981384 0.537438
1 0.981994 0.53698
0.525292 0.998932 0.582071
0.529335 0.998932 0.587243
0.530678 0.998932 0.587777
0.531838 0.998932 0.589136
0.529397 0.998932 0.586908
0.857847 0.962997 0.497322
0.980621 0.977722 0.522332
1 0.981933 0.537026
1 0.981369 0.537453
0.527031 0.998932 0.583749
0.523919 0.998932 0.581109
0.524849 0.998932 0.582284
0.524544 0.998932 0.581308
0.523629 0.998932 0.579965
0.852735 0.963668 0.501015
0.975616 0.976989 0.516747
1 0.982055 0.53695
1 0.982071 0.536904
0.0133974 0.0378729 0.128679
0.0482032 0.0356909 0.143816
0.232288 0.0350042 0.148516
0.468452 0.0486152 0.142855
0.6757 0.122545 0.197696
0.749676 0.192737 0.239475
0.733928 0.184894 0.213397
0.725628 0.181018 0.20032
0.719722 0.177356 0.192874
0.0146944 0.0405127 0.118975
0.0158694 0.0371405 0.118853
0.202686 0.0348516 0.138033
0.451652 0.0484474 0.131594
0.667384 0.121523 0.187762
0.739498 0.186969 0.223606
0.724071 0.180026 0.19852
0.711818 0.170916 0.181094
0.707942 0.168246 0.175341
0.032166 0.165454 0.141085
0.0313878 0.159564 0.137179
0.143908 0.154498 0.135454
0.437491 0.130327 0.10927
0.648981 0.127749 0.148608
0.726192 0.182025 0.201587
0.704356 0.165866 0.170977
0.703456 0.166033 0.171267
0.70428 0.165835 0.170962
0.109606 0.383917 0.153079
0.10753 0.378378 0.148562
0.105058 0.372412 0.142184
0.37763 0.361013 0.0569162
0.707057 0.358221 0.135393
0.831632 0.347997 0.253788
0.811337 0.316304 0.243015
0.797513 0.297887 0.233219
0.791409 0.289387 0.228443
0.220722 0.66183 0.250095
0.218936 0.659617 0.248356
0.216739 0.654292 0.245258
0.251484 0.648585 0.239399
0.659876 0.632181 0.161654
0.908751 0.671977 0.298161
0.944991 0.67155 0.332021
0.944854 0.660182 0.330266
0.944167 0.655344 0.328969
0.436835 0.93669 0.481209
0.437156 0.935149 0.479835
0.436149 0.934569 0.478904
0.428199 0.926574 0.469749
0.657404 0.893355 0.414359
0.898054 0.8851 0.397711
0.976913 0.886564 0.439323
0.975158 0.879454 0.434592
0.973358 0.876951 0.431998
0.530663 0.998932 0.58854
0.526329 0.998932 0.583917
0.525368 0.998932 0.583062
0.528725 0.998932 0.585763
0.551888 0.998932 0.58378
0.885283 0.963851 0.490791
1 0.98172 0.540429
1 0.981476 0.537362
1 0.981994 0.53698
0.525246 0.998932 0.58201
0.529107 0.998932 0.587015
0.529732 0.998932 0.587686
0.531838 0.998932 0.589136
0.529213 0.998932 0.586725
0.856474 0.963088 0.497871
0.979004 0.978027 0.521202
1 0.981842 0.537087
1 0.981353 0.537484
0.526802 0.998932 0.583459
0.523812 0.998932 0.581003
0.524498 0.998932 0.581933
0.524651 0.998932 0.581079
0.523552 0.998932 0.579904
0.851408 0.963714 0.50164
0.973617 0.977478 0.515526
1 0.98204 0.536965
1 0.982055 0.536919
0.00276188 0.0451057 0.289265
0.0123445 0.0412604 0.296818
0.172976 0.0370336 0.337484
0.461723 0.0408942 0.32636
0.68397 0.0787518 0.307362
0.787381 0.190295 0.354467
0.788632 0.194202 0.34815
0.789044 0.196216 0.344732
0.788998 0.197299 0.342519
0.00331121 0.0447395 0.282628
0.0034638 0.0447089 0.280262
0.136812 0.0348058 0.323491
0.448402 0.0403754 0.319814
0.679942 0.0773785 0.301045
0.787915 0.192325 0.351293
0.7888 0.196155 0.344701
0.789349 0.198093 0.341497
0.789548 0.199115 0.339315
0.00637827 0.120928 0.281498
0.00703441 0.115373 0.277531
0.0900282 0.092668 0.307164
0.438849 0.0679484 0.326177
0.672526 0.075227 0.289509
0.788571 0.195605 0.345464
0.789288 0.199313 0.33872
0.78938 0.2009 0.335225
0.789334 0.201846 0.333059
0.0574502 0.371344 0.327749
0.0562753 0.366918 0.324193
0.0558785 0.360815 0.320974
0.354559 0.359823 0.325307
0.716899 0.3393 0.28896
0.873991 0.336294 0.334188
0.853956 0.305623 0.327306
0.846784 0.293706 0.326833
0.842741 0.288487 0.324102
0.238163 0.64921 0.365332
0.235584 0.647227 0.361776
0.233173 0.642344 0.356435
0.248127 0.633295 0.348424
0.645823 0.622477 0.227939
0.917189 0.660182 0.307988
0.955062 0.660288 0.340063
0.953307 0.647715 0.336828
0.951415 0.642954 0.334462
0.425238 0.926024 0.470634
0.42565 0.92491 0.469093
0.422644 0.922301 0.46511
0.416724 0.915831 0.457176
0.642466 0.883879 0.403632
0.893446 0.874784 0.388113
0.974121 0.876921 0.432486
0.972045 0.870329 0.427802
0.970794 0.867674 0.425635
0.530495 0.998932 0.588403
0.525429 0.998932 0.583307
0.524681 0.998932 0.582483
0.526848 0.998932 0.584787
0.542702 0.998932 0.583383
0.882704 0.963577 0.490837
0.999146 0.981384 0.539452
1 0.981765 0.537133
1 0.98204 0.536934
0.525093 0.998932 0.581872
0.529015 0.998932 0.586831
0.529778 0.998932 0.587671
0.530831 0.998932 0.588861
0.528496 0.998932 0.585977
0.854139 0.963073 0.499962
0.976532 0.97792 0.518761
1 0.98233 0.536706
1 0.981353 0.537469
0.526238 0.998932 0.582513
0.523781 0.998932 0.580987
0.523857 0.998932 0.581353
0.52369 0.998932 0.581003
0.523339 0.998932 0.579705
0.848371 0.963943 0.50338
0.97145 0.977295 0.51339
1 0.982422 0.536782
1 0.981888 0.537057
0 0.0665599 0.472297
0 0.0663462 0.470726
0.0868391 0.0305943 0.500725
0.387717 0.0449989 0.56257
0.663172 0.0810254 0.517968
0.768536 0.152499 0.488701
0.769451 0.152926 0.481483
0.76997 0.153246 0.477302
0.770336 0.153552 0.474296
0 0.06598 0.469871
0 0.0658427 0.468071
0.0570382 0.0391699 0.491142
0.369406 0.0448463 0.557946
0.658305 0.0789807 0.515465
0.768856 0.152697 0.485283
0.769741 0.153277 0.477943
0.770291 0.153552 0.473991
0.770703 0.153735 0.471809
0 0.0650034 0.465415
0 0.0648661 0.463844
0.00640879 0.0552529 0.472511
0.338308 0.0446479 0.547494
0.649989 0.075761 0.511589
0.767422 0.151293 0.479149
0.770336 0.153628 0.472892
0.770855 0.153918 0.468452
0.771099 0.154116 0.466331
0.00178531 0.289555 0.483497
0.00173953 0.285283 0.481544
0.00149538 0.279408 0.47863
0.270344 0.262242 0.534798
0.69337 0.235523 0.563928
0.869703 0.250263 0.520623
0.827878 0.210376 0.488945
0.802502 0.186175 0.470527
0.794629 0.178485 0.463172
0.137362 0.612772 0.568185
0.135409 0.610483 0.565286
0.133745 0.606989 0.562051
0.132372 0.59765 0.555993
0.598306 0.599222 0.557656
0.966674 0.632349 0.547539
1 0.613413 0.547066
1 0.59997 0.540627
1 0.59443 0.536965
0.390463 0.91223 0.652338
0.389609 0.910124 0.650111
0.388571 0.908751 0.647593
0.38407 0.90219 0.640162
0.573541 0.876188 0.635889
0.870039 0.859312 0.544717
0.997055 0.870054 0.530983
0.997452 0.863645 0.521737
0.997452 0.860563 0.517006
0.540856 0.998932 0.711833
0.536477 0.998932 0.705531
0.538628 0.998932 0.70576
0.538796 0.998932 0.702678
0.540703 0.998932 0.696757
0.869749 0.96228 0.677287
0.991958 0.982132 0.580224
1 0.983276 0.566155
1 0.983429 0.564309
0.5355 0.998932 0.686412
0.539544 0.998932 0.689784
0.541665 0.998932 0.69041
0.541299 0.998932 0.687648
0.537667 0.998932 0.678492
0.845335 0.96466 0.643854
0.969818 0.978332 0.536233
1 0.98349 0.553567
1 0.982818 0.553445
0.536477 0.998932 0.685878
0.537743 0.998932 0.686061
0.537148 0.998932 0.683635
0.536919 0.998932 0.680369
0.532311 0.998932 0.670146
0.839582 0.966873 0.642161
0.965545 0.977691 0.530312
1 0.983673 0.553033
1 0.983124 0.551354
0.0115816 0.121675 0.587213
0.0115053 0.121004 0.586831
0.011902 0.105699 0.584924
0.258717 0.0482643 0.645487
0.572244 0.101228 0.684413
0.745769 0.164233 0.636835
0.745876 0.162524 0.631922
0.74583 0.161608 0.629099
0.745861 0.160906 0.626825
0.0112917 0.120546 0.586389
0.0109407 0.120012 0.585672
0.0108492 0.114672 0.584817
0.241352 0.04448 0.637919
0.56582 0.098909 0.684138
0.745342 0.163928 0.63534
0.745876 0.162127 0.629633
0.74583 0.16112 0.626734
0.745983 0.16054 0.62565
0.0105745 0.118273 0.58436
0.0104677 0.11783 0.584024
0.0103151 0.117235 0.583535
0.212055 0.0391852 0.625666
0.555413 0.095613 0.684001
0.744427 0.162844 0.632776
0.745953 0.161166 0.626505
0.746044 0.160357 0.623911
0.74612 0.159808 0.622812
0.0158236 0.22031 0.601068
0.0152438 0.215183 0.599786
0.014725 0.207309 0.598169
0.147951 0.135775 0.654505
0.542916 0.114015 0.70927
0.739742 0.158251 0.626795
0.74583 0.158602 0.619226
0.745861 0.157839 0.617029
0.746029 0.157473 0.615274
0.0658885 0.504128 0.660029
0.0647288 0.501793 0.658701
0.0636149 0.498299 0.657771
0.0594339 0.489876 0.653223
0.52668 0.515084 0.770459
0.946075 0.514916 0.810147
1 0.501839 0.808118
1 0.488319 0.801862
1 0.482414 0.797208
0.290639 0.835492 0.788373
0.289097 0.833188 0.7879
0.287098 0.830304 0.786023
0.2813 0.824079 0.780987
0.450675 0.845518 0.79617
0.820981 0.819684 0.779721
1 0.852415 0.772198
1 0.845899 0.767086
1 0.843503 0.763226
0.453666 0.998352 0.848203
0.453223 0.996963 0.847868
0.455177 0.997772 0.847776
0.455024 0.99733 0.844755
0.452338 0.994766 0.836591
0.820096 0.969268 0.844221
0.968078 0.969268 0.817273
0.992889 0.969375 0.814145
0.992309 0.968139 0.81001
0.459876 0.998932 0.837659
0.459632 0.998932 0.835966
0.462058 0.998932 0.836378
0.46302 0.998932 0.834623
0.463981 0.998932 0.830716
0.802457 0.987137 0.844129
0.949279 0.973785 0.840055
0.996231 0.983063 0.81799
0.995483 0.98349 0.813153
0.46038 0.998932 0.837003
0.4607 0.998932 0.836179
0.462669 0.998932 0.836408
0.463478 0.998932 0.834379
0.463188 0.998932 0.828946
0.795209 0.990921 0.84271
0.942046 0.974075 0.841428
0.994675 0.983719 0.817075
0.99556 0.983459 0.811246
0.0454566 0.202899 0.640833
0.0454108 0.202914 0.640818
0.0457618 0.202655 0.640955
0.18323 0.126345 0.687251
0.519112 0.186343 0.804349
0.73933 0.211658 0.760067
0.743282 0.211627 0.758328
0.742504 0.210361 0.756878
0.742016 0.209583 0.755703
0.0456245 0.202823 0.640925
0.0451972 0.203006 0.640696
0.0456092 0.202823 0.640909
0.167071 0.135058 0.685145
0.509529 0.184054 0.802243
0.737041 0.211139 0.760571
0.741863 0.210758 0.756497
0.7411 0.2094 0.754818
0.741344 0.208301 0.754055
0.045594 0.202838 0.640909
0.0455024 0.202884 0.640864
0.0458686 0.202716 0.641047
0.138384 0.148501 0.678019
0.49192 0.178286 0.796765
0.732082 0.208972 0.759823
0.741161 0.209171 0.754498
0.740429 0.207843 0.752743
0.740719 0.20679 0.751904
0.0456397 0.205264 0.641672
0.0453498 0.203708 0.641032
0.0454871 0.202243 0.640681
0.0585641 0.174914 0.640375
0.444205 0.159304 0.777325
0.715969 0.202075 0.75787
0.738735 0.203204 0.747021
0.737926 0.201053 0.744366
0.737438 0.199954 0.742382
0.0999161 0.464256 0.715953
0.0987106 0.461967 0.7149
0.0980087 0.458488 0.714534
0.0942397 0.450156 0.711345
0.432532 0.446632 0.879988
0.869245 0.447105 0.964996
0.944595 0.421744 0.94049
0.936706 0.407141 0.929961
0.932723 0.400656 0.924132
0.235355 0.709224 0.819745
0.23386 0.70695 0.818372
0.231479 0.70367 0.816693
0.225986 0.696315 0.812329
0.312947 0.732555 0.878935
0.767727 0.762112 0.917128
0.986114 0.767407 0.951339
0.986603 0.758022 0.950378
0.985534 0.755123 0.94754
0.421759 0.940078 0.916655
0.420935 0.939391 0.915663
0.419211 0.937362 0.915358
0.414618 0.933852 0.912016
0.404746 0.926452 0.903578
0.761273 0.96051 0.935561
0.948531 0.951995 0.938079
0.988693 0.958373 0.930236
0.986725 0.957366 0.92575
0.439506 0.961242 0.921553
0.439445 0.961471 0.920821
0.439628 0.961105 0.921889
0.439384 0.961639 0.920851
0.438865 0.963088 0.917418
0.761242 0.998764 0.948943
0.955322 0.981552 0.958007
0.99205 0.985138 0.951812
0.991028 0.985824 0.949203
0.439338 0.961685 0.920516
0.439323 0.961685 0.920333
0.439277 0.961807 0.920302
0.43917 0.962341 0.91928
0.438865 0.963302 0.917021
0.751095 0.998932 0.946975
0.950774 0.981628 0.955886
0.986923 0.983993 0.951171
0.991226 0.985611 0.947662
0.0453803 0.20293 0.640803
0.0452583 0.202976 0.640726
0.0456092 0.202838 0.640909
0.167178 0.134859 0.685084
0.508705 0.18381 0.801999
0.736614 0.211048 0.760616
0.743786 0.212436 0.759365
0.743801 0.212436 0.759411
0.743694 0.212375 0.75903
0.0455482 0.202869 0.640879
0.0451514 0.203037 0.640681
0.0455634 0.202853 0.640879
0.149798 0.143191 0.681239
0.49807 0.180316 0.798688
0.734066 0.210483 0.761074
0.743542 0.212451 0.759091
0.742992 0.21265 0.75877
0.743694 0.212375 0.759014
0.0454261 0.202914 0.640818
0.0454414 0.202899 0.640833
0.0457923 0.202762 0.641001
0.119478 0.156085 0.671275
0.480415 0.17438 0.792889
0.729397 0.209598 0.762234
0.743633 0.212406 0.75903
0.743038 0.212619 0.758755
0.743679 0.21236 0.758968
0.0453346 0.202945 0.640772
0.0454108 0.20293 0.640803
0.0456855 0.202808 0.640955
0.0486152 0.181994 0.635752
0.431128 0.157733 0.775067
0.714412 0.207065 0.766751
0.743633 0.212421 0.759075
0.743725 0.212421 0.759228
0.743633 0.212345 0.758907
0.0991226 0.447333 0.716472
0.0983139 0.445136 0.71574
0.0971084 0.441413 0.714717
0.0946365 0.433967 0.712627
0.398978 0.422217 0.881285
0.82887 0.427985 0.970352
0.917571 0.395987 0.941176
0.906111 0.381247 0.929747
0.900328 0.374319 0.924102
0.211917 0.677821 0.802258
0.210315 0.676326 0.801984
0.208865 0.673381 0.801099
0.206165 0.668025 0.799176
0.237781 0.687114 0.833738
0.720455 0.723125 0.952316
0.977859 0.73637 0.991409
0.979065 0.724407 0.993301
0.978546 0.720256 0.993103
0.384924 0.882612 0.921218
0.383902 0.881758 0.919982
0.381964 0.879133 0.919646
0.377066 0.874098 0.917205
0.366247 0.863218 0.911208
0.690608 0.902968 0.962631
0.934997 0.935012 0.97232
0.985168 0.936965 0.983902
0.983017 0.934905 0.981735
0.434913 0.936767 0.942107
0.434989 0.937057 0.941817
0.435248 0.937194 0.942184
0.435798 0.937606 0.94284
0.435889 0.939483 0.941772
0.662791 0.992035 0.987839
0.943725 0.984375 0.983001
0.990066 0.988083 0.988708
0.992294 0.988373 0.986236
0.435294 0.938018 0.941985
0.435706 0.938247 0.941787
0.436027 0.938308 0.942397
0.436347 0.938994 0.942351
0.43711 0.940551 0.941848
0.655161 0.993347 0.987045
0.940383 0.984497 0.982223
0.989792 0.987915 0.990066
0.992706 0.988998 0.987045
0.0453803 0.20293 0.640803
0.0452583 0.202991 0.640726
0.0456092 0.202838 0.640909
0.159869 0.138582 0.683696
0.503624 0.181994 0.800305
0.735348 0.210788 0.760861
0.743755 0.212406 0.759228
0.74377 0.212421 0.759319
0.743709 0.212375 0.75903
0.0455482 0.202869 0.640879
0.0451362 0.203037 0.640665
0.0455024 0.202884 0.640848
0.142046 0.14667 0.679072
0.493416 0.178805 0.797253
0.732662 0.210208 0.761395
0.743725 0.21239 0.759136
0.743725 0.21239 0.759136
0.743694 0.212375 0.759014
0.0454566 0.202899 0.640833
0.0454566 0.202899 0.640833
0.0457923 0.202747 0.641001
0.111482 0.158892 0.667918
0.475456 0.172793 0.791287
0.727886 0.209308 0.762585
0.743694 0.212375 0.759014
0.743709 0.21239 0.759091
0.743664 0.21236 0.758953
0.0453346 0.202945 0.640772
0.0454108 0.20293 0.640803
0.0456855 0.202808 0.640955
0.0466011 0.183703 0.634913
0.426047 0.155871 0.772976
0.712489 0.206699 0.767285
0.743725 0.21239 0.759136
0.743755 0.212406 0.759243
0.743633 0.212345 0.758907
0.095491 0.438621 0.713191
0.0951095 0.436393 0.712963
0.0939651 0.432441 0.712016
0.0916609 0.42504 0.710002
0.39086 0.408469 0.876509
0.819471 0.412726 0.96434
0.905913 0.38114 0.929595
0.892622 0.365698 0.916472
0.885191 0.357626 0.908919
0.206775 0.671473 0.798764
0.205737 0.669352 0.798077
0.204639 0.667048 0.797345
0.201465 0.661845 0.794705
0.228916 0.677363 0.825193
0.713939 0.713909 0.951385
0.978164 0.727031 0.992554
0.979431 0.714748 0.994278
0.9785 0.709865 0.993698
0.375875 0.872236 0.916579
0.374166 0.870359 0.915709
0.372137 0.867506 0.915297
0.366857 0.861265 0.912779
0.354635 0.847196 0.906035
0.662089 0.893233 0.961288
0.922591 0.924514 0.971908
0.980987 0.928679 0.983536
0.979629 0.92604 0.982528
0.431434 0.931014 0.942504
0.431434 0.931029 0.942519
0.431464 0.930968 0.942626
0.431556 0.930816 0.943008
0.431403 0.93106 0.942412
0.598321 0.979858 0.990555
0.921401 0.975341 0.983276
0.987472 0.985229 0.989944
0.989471 0.985748 0.989975
0.431357 0.931151 0.942199
0.431403 0.931075 0.942397
0.431418 0.931044 0.942443
0.431449 0.930999 0.942565
0.431388 0.93109 0.942351
0.569909 0.98352 0.991791
0.906813 0.982147 0.985977
0.987213 0.988617 0.991623
0.99205 0.990433 0.99205
