bundles/resolve-cinematic-luts/Phantom Luts/DJI/DJI Phntm ARRI LUTs - G3/Mavic 3 D-Log/Jamaica Mavic 3.cube
TITLE "Generated by Resolve"
LUT_3D_SIZE 65
0.0175021 0.0343938 0.0175021
0.0174868 0.0343786 0.0174868
0.0174716 0.0343481 0.0174716
0.0174716 0.0343328 0.0174716
0.0192569 0.0343481 0.0174105
0.0283513 0.0345006 0.0171969
0.0442817 0.0346838 0.0166171
0.061799 0.0348669 0.0159152
0.0798505 0.0348974 0.0149844
0.0966201 0.035111 0.0146181
0.110597 0.0352636 0.0144198
0.124666 0.0358129 0.0149691
0.139513 0.0361944 0.0155642
0.155993 0.0368658 0.0162356
0.173449 0.0375219 0.0167544
0.192477 0.038468 0.0177462
0.212863 0.0394141 0.0187533
0.234302 0.0403754 0.0198062
0.257877 0.0414893 0.0212558
0.282979 0.0425422 0.0225223
0.309392 0.0433509 0.0236667
0.336172 0.0443427 0.0247959
0.363577 0.0453193 0.028397
0.390631 0.0467231 0.0311284
0.41738 0.0482338 0.0340124
0.444816 0.0502022 0.0373541
0.471626 0.0526436 0.0419623
0.498207 0.055848 0.0473182
0.523461 0.0597848 0.0539559
0.547402 0.0645151 0.0617533
0.570214 0.0702373 0.0703136
0.591363 0.0770733 0.0798199
0.611261 0.085481 0.0900893
0.62829 0.0941634 0.100969
0.642374 0.103136 0.112383
0.654017 0.112947 0.124361
0.664622 0.124239 0.136873
0.677638 0.139223 0.149874
0.690593 0.152651 0.160983
0.703044 0.164141 0.16997
0.704738 0.165698 0.171374
0.70454 0.165743 0.171405
0.704387 0.165789 0.171435
0.704265 0.16582 0.171481
0.704189 0.165835 0.171527
0.70425 0.16582 0.171557
0.704509 0.165759 0.171542
0.704768 0.165682 0.171542
0.705013 0.165621 0.171527
0.705226 0.16556 0.171511
0.705364 0.16553 0.171511
0.705379 0.16553 0.171511
0.705379 0.16553 0.171511
0.705379 0.16553 0.171511
0.705379 0.16553 0.171511
0.705379 0.16553 0.171511
0.705379 0.16553 0.171527
0.705348 0.165545 0.171527
0.705272 0.165545 0.171542
0.70518 0.165576 0.171572
0.705058 0.165606 0.171618
0.704875 0.165652 0.171633
0.704707 0.165698 0.171618
0.704555 0.165743 0.171557
0.704433 0.165774 0.17145
0.0174563 0.0343328 0.0174563
0.0174716 0.0343481 0.0174716
0.0174716 0.0343481 0.0174716
0.0174716 0.0343328 0.0174716
0.017731 0.0343328 0.0174563
0.0239414 0.0344701 0.0173495
0.0390021 0.0345922 0.0167544
0.0564584 0.0347753 0.0160372
0.0745556 0.0348058 0.0150759
0.0918898 0.0350805 0.014725
0.106706 0.0351873 0.0143893
0.12105 0.0356603 0.014786
0.136202 0.0361181 0.0154574
0.152529 0.0367285 0.016144
0.170397 0.0374304 0.0166323
0.190066 0.0383612 0.0176547
0.210315 0.0392767 0.0185855
0.232197 0.040238 0.0195773
0.255802 0.0414588 0.0212863
0.281346 0.0424353 0.022385
0.307866 0.0432746 0.0234989
0.334539 0.0442664 0.0247196
0.3626 0.0453193 0.0283818
0.389288 0.0466926 0.0310063
0.416632 0.048188 0.0339208
0.443778 0.0501106 0.0372168
0.471107 0.0526131 0.0419013
0.497765 0.0558022 0.0472114
0.522927 0.0596628 0.0537575
0.547204 0.0644999 0.0616922
0.569818 0.0701762 0.0702068
0.591394 0.0770275 0.0798199
0.611307 0.085481 0.0901198
0.628122 0.0940566 0.100801
0.64239 0.103151 0.112398
0.653849 0.112779 0.124193
0.664607 0.124178 0.136934
0.677806 0.139391 0.150057
0.690654 0.152712 0.161013
0.702922 0.163989 0.169818
0.704799 0.165682 0.171359
0.704601 0.165728 0.171389
0.704372 0.165789 0.171435
0.704173 0.16585 0.171481
0.704005 0.165881 0.171542
0.703975 0.165896 0.171572
0.704112 0.165866 0.171588
0.704372 0.165789 0.171557
0.704692 0.165713 0.171542
0.705013 0.165621 0.171527
0.705226 0.16556 0.171511
0.705364 0.16553 0.171496
0.705364 0.16553 0.171511
0.705379 0.16553 0.171511
0.705379 0.16553 0.171511
0.705379 0.16553 0.171511
0.705379 0.16553 0.171511
0.705379 0.16553 0.171511
0.705333 0.165545 0.171527
0.705257 0.16556 0.171542
0.70515 0.165591 0.171572
0.704997 0.165621 0.171588
0.704799 0.165682 0.171572
0.704601 0.165728 0.171527
0.704433 0.165774 0.171435
0.0174716 0.0343328 0.0174563
0.0174868 0.0343633 0.0174868
0.0174868 0.0343633 0.0174868
0.0174868 0.0343633 0.0174868
0.0174716 0.0343481 0.0174716
0.0210117 0.0344244 0.0174105
0.033463 0.0345159 0.0168612
0.0506752 0.0347448 0.0163577
0.0682994 0.0347448 0.0153506
0.0860456 0.0349889 0.0148165
0.101946 0.0352178 0.0145724
0.116899 0.0354925 0.0146181
0.132387 0.0360113 0.015259
0.149126 0.0365454 0.0158846
0.167056 0.0372473 0.016495
0.186511 0.0381781 0.0174411
0.207309 0.0390936 0.0184024
0.229084 0.0401007 0.0193637
0.253315 0.0413977 0.0212253
0.27892 0.0423438 0.0222629
0.305425 0.0431678 0.02327
0.332586 0.0441444 0.0245823
0.360555 0.0451972 0.0281529
0.387854 0.0466011 0.0307927
0.415076 0.0480964 0.033753
0.442603 0.049958 0.0369879
0.469932 0.0524147 0.0416114
0.496284 0.0556191 0.0468147
0.522042 0.0595102 0.0534676
0.546014 0.064271 0.0612192
0.569116 0.0700084 0.0698711
0.590829 0.0768749 0.079469
0.610666 0.0851911 0.0898299
0.627802 0.0939193 0.100557
0.641794 0.102647 0.111879
0.653666 0.112657 0.123919
0.664347 0.123857 0.13669
0.677348 0.138903 0.149584
0.690364 0.152407 0.160754
0.702632 0.163684 0.169574
0.704906 0.165652 0.171328
0.704768 0.165682 0.171344
0.704585 0.165743 0.171374
0.704341 0.165805 0.171435
0.704143 0.16585 0.171481
0.70396 0.165911 0.171542
0.703929 0.165911 0.171572
0.704067 0.165866 0.171572
0.704341 0.165805 0.171557
0.704662 0.165713 0.171542
0.704997 0.165621 0.171511
0.705226 0.16556 0.171496
0.705348 0.16553 0.171496
0.705364 0.16553 0.171511
0.705379 0.16553 0.171511
0.705379 0.16553 0.171511
0.705379 0.16553 0.171511
0.705379 0.16553 0.171511
0.705364 0.16553 0.171511
0.705318 0.165545 0.171527
0.705226 0.16556 0.171557
0.705089 0.165591 0.171557
0.704921 0.165652 0.171542
0.704692 0.165698 0.171496
0.704494 0.165759 0.17142
0.0174716 0.0343328 0.0174563
0.0174868 0.0343633 0.0174868
0.0174868 0.0343633 0.0174868
0.0174868 0.0343633 0.0174868
0.0174716 0.0343481 0.0174716
0.0193179 0.0343938 0.0174258
0.0284123 0.0345464 0.0171969
0.04448 0.0347143 0.0165866
0.0621653 0.0348821 0.0158694
0.0802014 0.0349279 0.0149996
0.0972457 0.0351415 0.0146181
0.112779 0.0353399 0.0144808
0.128557 0.0359197 0.0151827
0.145418 0.0364385 0.0158389
0.163668 0.037171 0.0164797
0.183368 0.0380255 0.0172274
0.204059 0.0389105 0.0181582
0.226566 0.0401312 0.0194858
0.250553 0.0412909 0.0211032
0.276005 0.042237 0.0221408
0.302968 0.043061 0.023209
0.330236 0.0439918 0.0244144
0.358633 0.0450599 0.0279698
0.386404 0.0464179 0.0305028
0.413382 0.0479591 0.0334936
0.441367 0.0498665 0.03682
0.468437 0.0523079 0.0412757
0.495277 0.0554818 0.0465248
0.520684 0.0593423 0.053193
0.545144 0.0641489 0.0608988
0.568414 0.0697185 0.0695201
0.589868 0.076524 0.0790112
0.610193 0.0850385 0.0895705
0.6271 0.093492 0.100069
0.641566 0.10248 0.111666
0.653391 0.112322 0.123705
0.663874 0.123323 0.136172
0.677043 0.138598 0.14931
0.689906 0.151919 0.160357
0.702342 0.163378 0.169345
0.704952 0.165637 0.171313
0.70489 0.165652 0.171313
0.704753 0.165698 0.171328
0.70454 0.165743 0.171374
0.704295 0.16582 0.171435
0.704082 0.165866 0.171496
0.703914 0.165911 0.171557
0.703914 0.165911 0.171588
0.704067 0.165881 0.171588
0.704341 0.165805 0.171557
0.704677 0.165713 0.171527
0.705013 0.165621 0.171511
0.705226 0.16556 0.171496
0.705348 0.16553 0.171496
0.705364 0.16553 0.171511
0.705379 0.16553 0.171511
0.705379 0.16553 0.171511
0.705379 0.16553 0.171511
0.705379 0.16553 0.171511
0.705348 0.16553 0.171527
0.705303 0.165545 0.171542
0.70518 0.165576 0.171542
0.705028 0.165621 0.171511
0.704814 0.165682 0.171466
0.70457 0.165743 0.171405
0.0178683 0.0354467 0.0180362
0.0177462 0.035111 0.0178531
0.0177462 0.0350805 0.0178225
0.0177005 0.0349889 0.0177768
0.0176852 0.0348974 0.017731
0.0178836 0.0347906 0.0177157
0.0235447 0.0348058 0.0175326
0.0389258 0.0346838 0.0167849
0.0560616 0.0347906 0.0160525
0.0741436 0.0348058 0.0151064
0.0919814 0.035111 0.0147707
0.108354 0.0352483 0.014435
0.12459 0.0357977 0.0149691
0.141497 0.0363012 0.0157168
0.160052 0.0370794 0.0164645
0.179843 0.0378576 0.0171206
0.200992 0.0387274 0.0179294
0.223774 0.0400244 0.0194247
0.247684 0.0411536 0.0209506
0.273396 0.0421454 0.0219577
0.300084 0.0429541 0.0230716
0.328145 0.0439307 0.0243687
0.356634 0.0450141 0.0278019
0.384283 0.0462806 0.0302434
0.411963 0.047837 0.0332341
0.439704 0.0497292 0.0365911
0.467308 0.0521859 0.0410163
0.494148 0.0553292 0.0462501
0.519738 0.0591592 0.0529335
0.544289 0.0640269 0.0606394
0.567346 0.0695354 0.0690776
0.589212 0.0763104 0.0787213
0.609354 0.0846571 0.0890516
0.626795 0.0934157 0.0998245
0.641321 0.102434 0.11136
0.653147 0.112154 0.123323
0.663508 0.122911 0.135836
0.676539 0.138079 0.148775
0.689647 0.151659 0.160128
0.702068 0.163088 0.169131
0.704997 0.165637 0.171313
0.704952 0.165637 0.171283
0.704845 0.165667 0.171298
0.704662 0.165728 0.171344
0.704402 0.165789 0.171405
0.704143 0.16585 0.171481
0.703899 0.165911 0.171557
0.703777 0.165942 0.171588
0.703822 0.165942 0.171618
0.704005 0.165881 0.171603
0.704326 0.165805 0.171557
0.704707 0.165713 0.171527
0.705013 0.165621 0.171511
0.705226 0.16556 0.171496
0.705333 0.165545 0.171496
0.705348 0.16553 0.171511
0.705364 0.16553 0.171527
0.705364 0.16553 0.171511
0.705364 0.16553 0.171511
0.705364 0.16553 0.171511
0.705333 0.16553 0.171527
0.705242 0.16556 0.171511
0.705104 0.165591 0.171481
0.704921 0.165637 0.171435
0.704677 0.165713 0.171374
0.019089 0.0385138 0.0196078
0.0189517 0.0381323 0.0194095
0.0187533 0.037644 0.0191501
0.0185397 0.037232 0.0188754
0.0183566 0.0367285 0.018616
0.0183719 0.036347 0.0185702
0.0212558 0.0360113 0.0182803
0.0336767 0.0359197 0.0175021
0.0498665 0.0360266 0.0167697
0.0666209 0.0360723 0.0156863
0.085359 0.0363775 0.0153964
0.103685 0.0361944 0.0148775
0.120912 0.0361486 0.0148928
0.138155 0.0367437 0.0156405
0.156786 0.0373999 0.0163272
0.176593 0.0381933 0.0170596
0.197833 0.0386206 0.0177462
0.220478 0.039826 0.0191958
0.244785 0.0410315 0.020737
0.270497 0.0419776 0.0217746
0.297765 0.0427863 0.0228428
0.325719 0.0438849 0.0243839
0.353491 0.045243 0.0256962
0.382406 0.0462196 0.0301061
0.410056 0.047715 0.0330053
0.438193 0.0496223 0.0363317
0.465919 0.0519875 0.0407416
0.492821 0.0551156 0.0459144
0.5187 0.0589914 0.0526131
0.54287 0.0637064 0.0600595
0.566629 0.0693675 0.0687572
0.588235 0.0760357 0.0782025
0.608637 0.0843366 0.0886702
0.6262 0.0930495 0.099443
0.640711 0.101946 0.110796
0.652857 0.111925 0.122972
0.662974 0.122286 0.135241
0.67628 0.137774 0.148547
0.689219 0.151217 0.159792
0.701793 0.162814 0.168917
0.705028 0.165621 0.171298
0.704982 0.165637 0.171283
0.704952 0.165637 0.171267
0.704845 0.165667 0.171283
0.704646 0.165713 0.171328
0.704402 0.165789 0.171405
0.704128 0.165866 0.171481
0.703868 0.165927 0.171557
0.703761 0.165957 0.171588
0.703807 0.165927 0.171603
0.704021 0.165881 0.171588
0.704341 0.165805 0.171557
0.704723 0.165698 0.171511
0.705013 0.165621 0.171496
0.705211 0.16556 0.171496
0.705318 0.165545 0.171496
0.705333 0.16553 0.171511
0.705348 0.16553 0.171527
0.705348 0.16553 0.171527
0.705348 0.16553 0.171527
0.705333 0.165545 0.171527
0.705272 0.165545 0.171511
0.70515 0.165591 0.171466
0.704997 0.165637 0.17142
0.704768 0.165682 0.171344
0.0214084 0.0447089 0.0225528
0.0211337 0.0442359 0.0222629
0.0209354 0.0437018 0.0219577
0.0206455 0.0431067 0.0216678
0.0205844 0.0426032 0.0214847
0.0206149 0.0422217 0.0214542
0.0214542 0.0417334 0.02121
0.0289616 0.0415503 0.0201267
0.0430457 0.0423743 0.0177462
0.0584878 0.0429541 0.0165866
0.0775464 0.0427863 0.0162356
0.0980392 0.0417334 0.016022
0.116793 0.0407416 0.0158999
0.135012 0.0403143 0.0163119
0.153475 0.0401465 0.0165408
0.174289 0.0395972 0.0171511
0.195087 0.0396277 0.0177615
0.217823 0.0403601 0.019089
0.24181 0.0413977 0.0205386
0.267842 0.0424353 0.0217594
0.295369 0.0429084 0.0226444
0.323491 0.0438087 0.0243229
0.351644 0.045182 0.0256504
0.380316 0.0462196 0.0300755
0.408606 0.0476997 0.0329595
0.436835 0.0495155 0.0361028
0.464652 0.0518654 0.0405585
0.491844 0.0549325 0.0456855
0.517464 0.0587625 0.0522621
0.542321 0.0635386 0.0597238
0.565835 0.0692149 0.068513
0.587625 0.0758984 0.0779889
0.608133 0.0841382 0.0883955
0.625528 0.0927596 0.0990158
0.640314 0.10164 0.110445
0.652476 0.111589 0.122515
0.662654 0.121904 0.134905
0.676005 0.137453 0.148302
0.688731 0.150744 0.159396
0.701564 0.16257 0.168765
0.705074 0.165606 0.171283
0.705028 0.165621 0.171267
0.704982 0.165637 0.171252
0.704936 0.165652 0.171267
0.704784 0.165682 0.171298
0.70457 0.165743 0.171359
0.70428 0.16582 0.171435
0.70399 0.165896 0.171527
0.703777 0.165957 0.171588
0.703716 0.165957 0.171618
0.703777 0.165942 0.171603
0.704021 0.165881 0.171588
0.704372 0.165789 0.171542
0.704723 0.165698 0.171496
0.705028 0.165621 0.171496
0.705211 0.165576 0.171496
0.705303 0.165545 0.171511
0.705318 0.165545 0.171527
0.705333 0.165545 0.171527
0.705333 0.165545 0.171527
0.705333 0.165545 0.171527
0.705287 0.165545 0.171496
0.705196 0.165576 0.171466
0.705043 0.165621 0.171405
0.704845 0.165667 0.171313
0.0239719 0.0520638 0.025864
0.023682 0.0515602 0.0255283
0.0234073 0.0511025 0.0252384
0.0232548 0.0504005 0.0250401
0.0231632 0.0498817 0.0249027
0.0227665 0.0491646 0.0244755
0.022797 0.0487068 0.024445
0.0268101 0.0484627 0.023621
0.0398413 0.048661 0.0219883
0.0559548 0.0493477 0.0193179
0.0699016 0.0505989 0.0170138
0.0861982 0.0517891 0.0159609
0.106447 0.0516976 0.016083
0.128862 0.0503853 0.0172732
0.150195 0.0482185 0.0177157
0.172732 0.0461738 0.0180819
0.194537 0.0454871 0.0188754
0.216846 0.0447089 0.0194553
0.240253 0.0447395 0.0205844
0.26569 0.0446784 0.0218357
0.29276 0.0443275 0.0229038
0.32137 0.0445258 0.0242924
0.349538 0.0455024 0.0261692
0.378759 0.0461891 0.029984
0.406714 0.0476997 0.0329137
0.435233 0.0494545 0.0359655
0.463371 0.0518044 0.0404059
0.490211 0.0547799 0.0453498
0.516396 0.0585641 0.0519265
0.541192 0.0632334 0.0592813
0.564828 0.068986 0.068101
0.586923 0.075761 0.0777447
0.607156 0.0838178 0.0878157
0.624979 0.092546 0.0986343
0.639704 0.101228 0.109926
0.652079 0.111192 0.122103
0.662364 0.121553 0.134585
0.675517 0.136904 0.147814
0.688411 0.150408 0.159152
0.701228 0.16228 0.168536
0.705104 0.165606 0.171267
0.705058 0.165621 0.171252
0.705013 0.165621 0.171252
0.704997 0.165637 0.171237
0.704906 0.165652 0.171252
0.704738 0.165698 0.171313
0.704479 0.165759 0.171374
0.704173 0.165835 0.171466
0.703853 0.165927 0.171557
0.703685 0.165972 0.171633
0.703655 0.165972 0.171664
0.703746 0.165957 0.171618
0.704005 0.165881 0.171572
0.704387 0.165789 0.171527
0.704738 0.165698 0.171496
0.705028 0.165621 0.171481
0.705211 0.165576 0.171481
0.705303 0.165545 0.171496
0.705318 0.165545 0.171527
0.705318 0.165545 0.171527
0.705333 0.165545 0.171527
0.705303 0.165545 0.171496
0.705226 0.16556 0.17145
0.705089 0.165606 0.171389
0.704921 0.165652 0.171298
0.0264439 0.0606241 0.0289158
0.0262455 0.0600595 0.0286717
0.0259861 0.0592966 0.0284276
0.0257725 0.0586252 0.0282292
0.0254978 0.0578012 0.0279545
0.0252537 0.0572671 0.0277562
0.0249332 0.0566262 0.0274052
0.0276188 0.0559854 0.0273442
0.0365301 0.0560922 0.025864
0.0514839 0.056672 0.0233158
0.0702678 0.0572061 0.0205997
0.087129 0.0586557 0.0185855
0.102937 0.0601968 0.0176547
0.122362 0.0608072 0.0181735
0.142397 0.0602121 0.0183108
0.167452 0.057908 0.0191196
0.191897 0.0549477 0.0194858
0.216632 0.0522164 0.0201724
0.241184 0.050782 0.0213779
0.265446 0.0502785 0.0225986
0.291981 0.049897 0.0237583
0.319631 0.049073 0.0249332
0.348013 0.0483406 0.0264439
0.37615 0.0475319 0.0280766
0.404807 0.0482185 0.0328374
0.433707 0.0496071 0.0358434
0.461646 0.0516976 0.0401617
0.48896 0.0545815 0.0450904
0.515251 0.058381 0.0514992
0.54023 0.0630808 0.0589609
0.563409 0.0690013 0.0675822
0.585397 0.075639 0.0768597
0.60618 0.083711 0.0872053
0.62414 0.0922866 0.098024
0.639155 0.101045 0.109316
0.651682 0.110903 0.121584
0.662013 0.121141 0.134142
0.675196 0.136584 0.147478
0.687846 0.149859 0.158679
0.700969 0.162051 0.168368
0.705119 0.165606 0.171252
0.705089 0.165606 0.171237
0.705058 0.165621 0.171237
0.705028 0.165621 0.171237
0.705013 0.165621 0.171237
0.704921 0.165652 0.171267
0.704723 0.165698 0.171313
0.704463 0.165774 0.171389
0.704143 0.16585 0.171481
0.703807 0.165942 0.171572
0.70367 0.165972 0.171664
0.703655 0.165972 0.171679
0.703746 0.165957 0.171618
0.704021 0.165881 0.171572
0.704402 0.165774 0.171511
0.704768 0.165682 0.171481
0.705043 0.165621 0.171481
0.705226 0.16556 0.171481
0.705318 0.165545 0.171496
0.705318 0.165545 0.171527
0.705333 0.165545 0.171527
0.705318 0.165545 0.171511
0.705287 0.165545 0.171496
0.705226 0.16556 0.171466
0.705119 0.165591 0.17145
0.0289616 0.0703746 0.0323949
0.028748 0.0694591 0.0321202
0.0286107 0.0687572 0.0319066
0.0284123 0.067628 0.0316014
0.0282444 0.066865 0.0313268
0.0280003 0.0662394 0.0310216
0.0278019 0.0653697 0.0307012
0.0285496 0.0648203 0.0307164
0.0351415 0.0644694 0.0302434
0.0473945 0.0651102 0.0280461
0.0649271 0.0659342 0.0245365
0.0880293 0.0662699 0.0219425
0.105989 0.0679789 0.0195773
0.122225 0.0696727 0.0190738
0.142672 0.0696727 0.0197452
0.164675 0.0691234 0.0201267
0.188342 0.0677348 0.0199741
0.214817 0.0641489 0.0209201
0.240574 0.0597848 0.0222324
0.266835 0.0576028 0.0239109
0.293339 0.0565042 0.0254673
0.320867 0.0557259 0.026566
0.348531 0.054612 0.0277867
0.375982 0.0534524 0.0295109
0.403555 0.0523232 0.0315099
0.431983 0.0508888 0.0356909
0.460609 0.05243 0.0401007
0.487694 0.0544594 0.0448157
0.513832 0.0582284 0.0511177
0.538964 0.0629892 0.0586099
0.562615 0.0686809 0.0673075
0.584939 0.0754253 0.0766308
0.6056 0.0834363 0.0870375
0.623652 0.0921645 0.0975967
0.638834 0.100954 0.108995
0.651377 0.110765 0.12108
0.661784 0.120867 0.133837
0.674601 0.135973 0.146822
0.687572 0.14963 0.158434
0.700572 0.16173 0.168048
0.705104 0.165606 0.171221
0.705104 0.165606 0.171221
0.705074 0.165606 0.171221
0.705058 0.165621 0.171221
0.705043 0.165621 0.171221
0.705013 0.165621 0.171237
0.704906 0.165652 0.171267
0.704692 0.165713 0.171328
0.704402 0.165789 0.171405
0.704067 0.165866 0.171496
0.703761 0.165957 0.171588
0.703639 0.165972 0.171679
0.703639 0.165972 0.171695
0.703746 0.165957 0.171618
0.704036 0.165881 0.171572
0.704433 0.165774 0.171511
0.704784 0.165682 0.171466
0.705058 0.165606 0.171466
0.705242 0.16556 0.171466
0.705333 0.165545 0.171496
0.705348 0.165545 0.171511
0.705348 0.16553 0.171511
0.705318 0.165545 0.171496
0.705257 0.16556 0.171466
0.705165 0.165576 0.171435
0.0319066 0.0812848 0.0361181
0.0317693 0.0807355 0.035935
0.0315251 0.0794385 0.0355993
0.0312505 0.0786603 0.0353552
0.0310216 0.077821 0.0351568
0.0307012 0.0770581 0.0347906
0.0304112 0.0763409 0.0345006
0.0301366 0.0754406 0.034165
0.0342107 0.0749218 0.034165
0.0451514 0.0754253 0.0330816
0.0593881 0.0764782 0.0292821
0.0806744 0.0772869 0.025391
0.106157 0.0771954 0.0229038
0.124804 0.0792248 0.0208743
0.143526 0.0805219 0.0205386
0.166232 0.0803235 0.021561
0.190311 0.0794842 0.0221256
0.215244 0.0771954 0.0219883
0.240208 0.0747539 0.0222782
0.267033 0.0705272 0.0243992
0.294789 0.0662852 0.0263676
0.322896 0.0641642 0.0285039
0.349905 0.0629587 0.0299992
0.377523 0.061677 0.031632
0.404364 0.0602579 0.0335393
0.431968 0.0588235 0.035996
0.459571 0.0575723 0.0392462
0.486503 0.0560159 0.0448463
0.513161 0.0588083 0.0512551
0.537621 0.0627451 0.0579995
0.561761 0.0684672 0.0669566
0.583978 0.0751354 0.0761273
0.604822 0.0831922 0.0865949
0.623117 0.0919966 0.0973373
0.638209 0.100679 0.10837
0.650889 0.110338 0.120577
0.661448 0.120516 0.133349
0.674296 0.135668 0.146456
0.687205 0.149294 0.158114
0.700099 0.161364 0.167712
0.705089 0.165606 0.171191
0.705104 0.165606 0.171206
0.705089 0.165606 0.171206
0.705074 0.165606 0.171221
0.705074 0.165606 0.171221
0.705058 0.165621 0.171221
0.705013 0.165621 0.171237
0.704875 0.165667 0.171267
0.704646 0.165713 0.171344
0.704341 0.165805 0.171435
0.70399 0.165896 0.171527
0.7037 0.165957 0.171618
0.703609 0.165988 0.171695
0.703609 0.165988 0.171695
0.703731 0.165957 0.171618
0.704067 0.165866 0.171557
0.704448 0.165774 0.171496
0.704814 0.165682 0.17145
0.705089 0.165606 0.17145
0.705272 0.16556 0.17145
0.705348 0.16553 0.171481
0.705348 0.16553 0.171496
0.705348 0.165545 0.171481
0.705303 0.165545 0.17145
0.705226 0.16556 0.171405
0.0339818 0.0940414 0.0393225
0.033753 0.0932479 0.0390478
0.0337682 0.0927749 0.0389868
0.0337072 0.0919356 0.03888
0.0333715 0.0910506 0.0384527
0.0332799 0.0905165 0.0383459
0.0332036 0.089601 0.0381628
0.0330358 0.088716 0.0379187
0.0348669 0.0879377 0.0378882
0.0433356 0.0878157 0.0378882
0.0555581 0.0887617 0.0347906
0.0733043 0.0901045 0.0299077
0.0969863 0.0903639 0.0259556
0.124208 0.0902876 0.0238346
0.145006 0.0920424 0.022034
0.16759 0.0932937 0.0222324
0.191638 0.0926833 0.0229496
0.218204 0.0913405 0.0239109
0.244465 0.0885786 0.0241093
0.271443 0.0852064 0.0251774
0.297749 0.0822156 0.027039
0.325505 0.0768292 0.0298924
0.353185 0.0742199 0.0323186
0.379812 0.0723735 0.0341955
0.406867 0.0709087 0.0365148
0.434058 0.0691386 0.0389868
0.461021 0.0675364 0.0421912
0.487724 0.0657816 0.0457008
0.513436 0.0639658 0.052491
0.536843 0.0632486 0.057908
0.560739 0.0680858 0.0665141
0.583124 0.0747845 0.0757916
0.604135 0.0829023 0.0863203
0.622324 0.0915236 0.09691
0.637766 0.100374 0.108049
0.650538 0.110155 0.120058
0.661265 0.120211 0.132998
0.673915 0.135225 0.146029
0.686549 0.148684 0.157549
0.699718 0.161059 0.167452
0.705074 0.165606 0.171145
0.705089 0.165606 0.171176
0.705089 0.165606 0.171206
0.705089 0.165606 0.171206
0.705089 0.165606 0.171221
0.705089 0.165606 0.171221
0.705074 0.165606 0.171221
0.705013 0.165621 0.171237
0.70486 0.165667 0.171283
0.704601 0.165743 0.171359
0.70428 0.16582 0.17145
0.703914 0.165911 0.171542
0.70367 0.165972 0.171649
0.703578 0.165988 0.171695
0.703593 0.165988 0.171695
0.703731 0.165957 0.171618
0.704082 0.165866 0.171542
0.704463 0.165774 0.171481
0.704829 0.165667 0.171435
0.705089 0.165591 0.17142
0.705287 0.165545 0.171435
0.705333 0.165545 0.171466
0.705333 0.165545 0.171466
0.705318 0.165545 0.171435
0.705272 0.16556 0.171405
0.0357366 0.108659 0.0424201
0.0355993 0.108064 0.042237
0.0352789 0.107408 0.0419013
0.035172 0.106538 0.0416724
0.0350347 0.105745 0.0415045
0.0349126 0.104768 0.0413519
0.0348211 0.104051 0.0411688
0.0347448 0.103319 0.0410163
0.0349432 0.102495 0.0410468
0.0396277 0.1019 0.041062
0.0526284 0.102251 0.0395819
0.0688945 0.103731 0.0356298
0.0890516 0.10454 0.0304417
0.114885 0.104387 0.0263371
0.143679 0.10428 0.0247501
0.168154 0.105394 0.0230411
0.193149 0.106722 0.0232395
0.218814 0.105806 0.0243687
0.247578 0.103899 0.0258946
0.276722 0.100542 0.0267185
0.304646 0.0964981 0.0285039
0.332662 0.0927596 0.0318456
0.358633 0.088838 0.0346532
0.385107 0.0864576 0.037705
0.411124 0.0849317 0.040238
0.437247 0.082887 0.0427253
0.464164 0.0807355 0.045716
0.490471 0.0784466 0.0495918
0.515557 0.0767681 0.0535744
0.53962 0.075639 0.0594339
0.562341 0.0740978 0.0680552
0.582498 0.0751202 0.0754406
0.602991 0.0823682 0.0857252
0.621668 0.0914321 0.0964828
0.636866 0.0998856 0.107347
0.649973 0.109697 0.119493
0.66096 0.11989 0.132494
0.67332 0.134493 0.145281
0.685985 0.148394 0.157137
0.698924 0.16054 0.166979
0.705028 0.165621 0.171115
0.705058 0.165621 0.171145
0.705074 0.165606 0.17116
0.705089 0.165606 0.171191
0.705089 0.165606 0.171206
0.705089 0.165606 0.171206
0.705089 0.165606 0.171221
0.705089 0.165606 0.171221
0.704997 0.165637 0.171237
0.704845 0.165667 0.171283
0.70457 0.165743 0.171359
0.704234 0.165835 0.17145
0.703853 0.165927 0.171557
0.703639 0.165972 0.171679
0.703548 0.166003 0.17171
0.703578 0.165988 0.171695
0.703716 0.165957 0.171618
0.704067 0.165866 0.171542
0.704463 0.165774 0.171466
0.704829 0.165682 0.17142
0.705089 0.165606 0.17142
0.705287 0.16556 0.17142
0.705303 0.165545 0.171435
0.705303 0.165545 0.17142
0.705272 0.16556 0.171389
0.0375219 0.124468 0.0451514
0.0373693 0.124071 0.0450294
0.0371862 0.123384 0.0448463
0.0370794 0.122744 0.0447547
0.0369726 0.121752 0.0445869
0.0368658 0.121019 0.04448
0.036759 0.120272 0.0443732
0.0366674 0.119265 0.0441444
0.0364996 0.118395 0.043946
0.0378271 0.117556 0.0439612
0.0482795 0.117708 0.0439918
0.0644999 0.118349 0.0407111
0.08365 0.119417 0.0359503
0.105592 0.119875 0.0306096
