bundles/resolve-cinematic-luts/Phantom Luts/DJI/DJI Phntm ARRI LUTs - G3/Mavic 3 D-Log/Jamaica Mavic 3.cube
TITLE "Generated by Resolve"
LUT_3D_SIZE 5
0.0175021 0.0343938 0.0175021
0.212863 0.0394141 0.0187533
0.611261 0.085481 0.0900893
0.705013 0.165621 0.171527
0.704433 0.165774 0.17145
0.0466163 0.181903 0.0556039
0.162814 0.173953 0.0331273
0.627039 0.142046 0.0992752
0.704967 0.165637 0.171069
0.704814 0.165682 0.171038
0.227909 0.672511 0.256962
0.223453 0.66453 0.252018
0.664088 0.642664 0.16672
0.945174 0.681865 0.334157
0.94493 0.665873 0.331212
0.530556 0.998932 0.588434
0.526757 0.998932 0.583474
0.557778 0.998932 0.584131
1 0.981842 0.541054
1 0.981994 0.53698
0.527138 0.998932 0.583871
0.52491 0.998932 0.582361
0.523644 0.998932 0.57998
0.975921 0.977111 0.51725
1 0.982086 0.536904
0.0133974 0.0378729 0.128679
0.232288 0.0350042 0.148516
0.6757 0.122545 0.197696
0.733928 0.184894 0.213397
0.719722 0.177356 0.192874
0.032166 0.165454 0.141085
0.143908 0.154498 0.135454
0.648981 0.127749 0.148608
0.704356 0.165866 0.170977
0.70428 0.165835 0.170962
0.220722 0.66183 0.250095
0.216739 0.654292 0.245258
0.659876 0.632181 0.161654
0.944991 0.67155 0.332021
0.944167 0.655344 0.328969
0.530663 0.998932 0.58854
0.525368 0.998932 0.583062
0.551888 0.998932 0.58378
1 0.98172 0.540429
1 0.981994 0.53698
0.526802 0.998932 0.583459
0.524498 0.998932 0.581933
0.523552 0.998932 0.579904
0.973617 0.977478 0.515526
1 0.982055 0.536919
0 0.0665599 0.472297
0.0868391 0.0305943 0.500725
0.663172 0.0810254 0.517968
0.769451 0.152926 0.481483
0.770336 0.153552 0.474296
0 0.0650034 0.465415
0.00640879 0.0552529 0.472511
0.649989 0.075761 0.511589
0.770336 0.153628 0.472892
0.771099 0.154116 0.466331
0.137362 0.612772 0.568185
0.133745 0.606989 0.562051
0.598306 0.599222 0.557656
1 0.613413 0.547066
1 0.59443 0.536965
0.540856 0.998932 0.711833
0.538628 0.998932 0.70576
0.540703 0.998932 0.696757
0.991958 0.982132 0.580224
1 0.983429 0.564309
0.536477 0.998932 0.685878
0.537148 0.998932 0.683635
0.532311 0.998932 0.670146
0.965545 0.977691 0.530312
1 0.983124 0.551354
0.0454566 0.202899 0.640833
0.0457618 0.202655 0.640955
0.519112 0.186343 0.804349
0.743282 0.211627 0.758328
0.742016 0.209583 0.755703
0.045594 0.202838 0.640909
0.0458686 0.202716 0.641047
0.49192 0.178286 0.796765
0.741161 0.209171 0.754498
0.740719 0.20679 0.751904
0.0999161 0.464256 0.715953
0.0980087 0.458488 0.714534
0.432532 0.446632 0.879988
0.944595 0.421744 0.94049
0.932723 0.400656 0.924132
0.421759 0.940078 0.916655
0.419211 0.937362 0.915358
0.404746 0.926452 0.903578
0.948531 0.951995 0.938079
0.986725 0.957366 0.92575
0.439338 0.961685 0.920516
0.439277 0.961807 0.920302
0.438865 0.963302 0.917021
0.950774 0.981628 0.955886
0.991226 0.985611 0.947662
0.0453803 0.20293 0.640803
0.0456092 0.202838 0.640909
0.503624 0.181994 0.800305
0.743755 0.212406 0.759228
0.743709 0.212375 0.75903
0.0454566 0.202899 0.640833
0.0457923 0.202747 0.641001
0.475456 0.172793 0.791287
0.743694 0.212375 0.759014
0.743664 0.21236 0.758953
0.095491 0.438621 0.713191
0.0939651 0.432441 0.712016
0.39086 0.408469 0.876509
0.905913 0.38114 0.929595
0.885191 0.357626 0.908919
0.375875 0.872236 0.916579
0.372137 0.867506 0.915297
0.354635 0.847196 0.906035
0.922591 0.924514 0.971908
0.979629 0.92604 0.982528
0.431357 0.931151 0.942199
0.431418 0.931044 0.942443
0.431388 0.93109 0.942351
0.906813 0.982147 0.985977
0.99205 0.990433 0.99205
