bundles/resolve-cinematic-luts/Phantom Luts/DJI/DJI Phntm ARRI LUTs - G3/Mavic 3 D-Log/Neutral Mavic 3.cube
TITLE "Generated by Resolve"
LUT_3D_SIZE 65
0.0179751 0.0179751 0.0180056
0.0179751 0.0179751 0.0180056
0.0179751 0.0179751 0.0180056
0.0179751 0.0179751 0.0180056
0.0233616 0.0180362 0.0178836
0.038468 0.0184634 0.0178073
0.055314 0.0186465 0.0173037
0.073228 0.0185855 0.0166781
0.0907607 0.0188602 0.0164492
0.105394 0.0189822 0.0163882
0.118486 0.0195163 0.016968
0.132296 0.0204929 0.0179294
0.147326 0.0211795 0.0187839
0.163699 0.0223392 0.019791
0.181231 0.0234531 0.0207828
0.199985 0.0249332 0.0221866
0.220111 0.0265049 0.0237888
0.241413 0.0280613 0.0256504
0.264317 0.0298619 0.0274968
0.288731 0.0309911 0.0290837
0.313756 0.0321355 0.0309758
0.339178 0.0335393 0.0331884
0.36492 0.0353246 0.035874
0.390951 0.0371252 0.0387274
0.417746 0.0389105 0.0420233
0.44538 0.0411536 0.0456855
0.473365 0.0439307 0.0501259
0.502434 0.0470893 0.0552834
0.531746 0.0508125 0.0612497
0.562219 0.0548867 0.0681315
0.593133 0.0595102 0.075227
0.624598 0.06421 0.082826
0.657435 0.0695048 0.0898604
0.691325 0.0733654 0.0970932
0.727535 0.075639 0.104112
0.76762 0.0767681 0.110521
0.81146 0.0786603 0.11635
0.854002 0.0850996 0.120836
0.892989 0.090547 0.12398
0.927352 0.0955978 0.125368
0.931197 0.0963149 0.126024
0.931197 0.0963149 0.126024
0.931197 0.0963149 0.126024
0.931197 0.0963149 0.126024
0.931197 0.0963149 0.126024
0.931197 0.0963149 0.126024
0.931197 0.0963149 0.126024
0.931197 0.0963149 0.126024
0.931197 0.0963149 0.126024
0.931197 0.0963149 0.126024
0.931197 0.0963149 0.126024
0.931197 0.0963149 0.126024
0.931197 0.0963149 0.126024
0.931197 0.0963149 0.126024
0.931197 0.0963149 0.126024
0.931197 0.0963149 0.126024
0.931197 0.0963149 0.126024
0.931197 0.0963149 0.126024
0.931197 0.0963149 0.126024
0.931197 0.0963149 0.126024
0.931197 0.0963149 0.126024
0.931197 0.0963149 0.126024
0.931197 0.0963149 0.126024
0.931197 0.0963149 0.126024
0.931197 0.0963149 0.126024
0.0179751 0.0179751 0.0180056
0.0179751 0.0179751 0.0180056
0.0179751 0.0179751 0.0180056
0.0179751 0.0179751 0.0180056
0.0189212 0.0180514 0.0180209
0.0330816 0.0183261 0.0178378
0.0496376 0.0185855 0.0174411
0.0671702 0.0185245 0.0167239
0.0853742 0.0187533 0.016495
0.100633 0.0190433 0.0164645
0.114458 0.0193332 0.0167391
0.128695 0.0202029 0.0176547
0.143664 0.0209049 0.018555
0.16025 0.0221561 0.0195926
0.177981 0.0233005 0.0205539
0.197208 0.0247807 0.0220493
0.217395 0.0262455 0.0234989
0.238743 0.0278325 0.0254063
0.261723 0.0297398 0.027451
0.286397 0.0308232 0.0288396
0.311696 0.0320134 0.0307774
0.33727 0.033463 0.0329595
0.363256 0.0353094 0.0358282
0.389319 0.0370184 0.0385138
0.416281 0.0388342 0.0418402
0.444022 0.0409857 0.0455177
0.472099 0.0438087 0.049958
0.501183 0.0469368 0.0550393
0.530724 0.0506142 0.0609598
0.561059 0.0547646 0.0678874
0.592096 0.0594492 0.0750591
0.623713 0.0639811 0.0825818
0.656535 0.0693217 0.0896925
0.690471 0.0732586 0.0968338
0.726452 0.0755627 0.103899
0.766384 0.0767071 0.110353
0.810254 0.0784772 0.116243
0.852964 0.0850233 0.120836
0.891981 0.0904097 0.123873
0.926482 0.0954604 0.125277
0.931197 0.0963149 0.126024
0.931197 0.0963149 0.126024
0.931197 0.0963149 0.126024
0.931197 0.0963149 0.126024
0.931197 0.0963149 0.126024
0.931197 0.0963149 0.126024
0.931197 0.0963149 0.126024
0.931197 0.0963149 0.126024
0.931197 0.0963149 0.126024
0.931197 0.0963149 0.126024
0.931197 0.0963149 0.126024
0.931197 0.0963149 0.126024
0.931197 0.0963149 0.126024
0.931197 0.0963149 0.126024
0.931197 0.0963149 0.126024
0.931197 0.0963149 0.126024
0.931197 0.0963149 0.126024
0.931197 0.0963149 0.126024
0.931197 0.0963149 0.126024
0.931197 0.0963149 0.126024
0.931197 0.0963149 0.126024
0.931197 0.0963149 0.126024
0.931197 0.0963149 0.126024
0.931197 0.0963149 0.126024
0.931197 0.0963149 0.126024
0.0179751 0.0179751 0.0180056
0.0179751 0.0179751 0.0180056
0.0179751 0.0179751 0.0180056
0.0179751 0.0179751 0.0180056
0.0179751 0.0179751 0.0180056
0.0275731 0.0182345 0.0178531
0.0439307 0.0185245 0.0176699
0.0612039 0.0185397 0.0170291
0.0791791 0.0186618 0.0165713
0.0954604 0.018967 0.0164187
0.110445 0.019089 0.0164492
0.124697 0.0199435 0.0174411
0.140078 0.020676 0.0182193
0.156863 0.0218357 0.0194095
0.174731 0.0229953 0.0202945
0.194064 0.0245212 0.0218357
0.214511 0.0259861 0.0232548
0.236057 0.0276493 0.0251164
0.259342 0.0295109 0.0272374
0.284092 0.0307012 0.0286412
0.30956 0.0318914 0.0305333
0.335485 0.0332341 0.0327459
0.3617 0.0351568 0.0355993
0.387732 0.0369421 0.0383001
0.414755 0.0386969 0.0417029
0.442588 0.0408484 0.0453498
0.470939 0.0435645 0.0496834
0.499977 0.0467842 0.0547951
0.529595 0.0504616 0.0606546
0.55996 0.0546273 0.0675975
0.591012 0.0592813 0.0747845
0.622736 0.063859 0.0822766
0.655528 0.0691691 0.0895399
0.689464 0.0731518 0.0966201
0.725383 0.0754406 0.103685
0.765454 0.0767376 0.110109
0.809125 0.0783246 0.116167
0.85185 0.0849012 0.12076
0.890929 0.0902571 0.123796
0.925658 0.0953384 0.125246
0.931197 0.0963149 0.126024
0.931197 0.0963149 0.126024
0.931197 0.0963149 0.126024
0.931197 0.0963149 0.126024
0.931197 0.0963149 0.126024
0.931197 0.0963149 0.126024
0.931197 0.0963149 0.126024
0.931197 0.0963149 0.126024
0.931197 0.0963149 0.126024
0.931197 0.0963149 0.126024
0.931197 0.0963149 0.126024
0.931197 0.0963149 0.126024
0.931197 0.0963149 0.126024
0.931197 0.0963149 0.126024
0.931197 0.0963149 0.126024
0.931197 0.0963149 0.126024
0.931197 0.0963149 0.126024
0.931197 0.0963149 0.126024
0.931197 0.0963149 0.126024
0.931197 0.0963149 0.126024
0.931197 0.0963149 0.126024
0.931197 0.0963149 0.126024
0.931197 0.0963149 0.126024
0.931197 0.0963149 0.126024
0.931197 0.0963149 0.126024
0.0179751 0.0179751 0.0180056
0.0179751 0.0179751 0.0180056
0.0179751 0.0179751 0.0180056
0.0179751 0.0179751 0.0180056
0.0179751 0.0179751 0.0180056
0.0230716 0.0180514 0.0178836
0.0381933 0.0184634 0.017792
0.055024 0.0186465 0.0173037
0.0728161 0.0186007 0.0166781
0.0903029 0.0188754 0.0164492
0.106004 0.0189822 0.0163882
0.120958 0.0196689 0.0171511
0.136522 0.0206302 0.0181888
0.153307 0.0216373 0.0191958
0.171481 0.0227359 0.0200656
0.191119 0.0242771 0.0215305
0.211566 0.0257572 0.0230259
0.233631 0.0275883 0.024979
0.256748 0.0294041 0.0270848
0.281666 0.0305791 0.0284886
0.307286 0.0317693 0.0303655
0.333486 0.0331121 0.032578
0.359915 0.0350195 0.0354162
0.386236 0.0367285 0.038056
0.413291 0.0385748 0.0414893
0.441169 0.0407568 0.0451667
0.469657 0.0434577 0.0494392
0.498726 0.0466316 0.0545815
0.528405 0.0503395 0.0604562
0.558801 0.0544594 0.0672923
0.590112 0.0589914 0.0744793
0.621698 0.0636759 0.082063
0.654521 0.0690471 0.0893263
0.68838 0.0730297 0.0963912
0.724453 0.0754101 0.103487
0.764416 0.0766613 0.110048
0.807874 0.0781415 0.116045
0.850721 0.0847334 0.120668
0.890105 0.0900587 0.12369
0.924743 0.095201 0.125246
0.931197 0.0963149 0.126024
0.931197 0.0963149 0.126024
0.931197 0.0963149 0.126024
0.931197 0.0963149 0.126024
0.931197 0.0963149 0.126024
0.931197 0.0963149 0.126024
0.931197 0.0963149 0.126024
0.931197 0.0963149 0.126024
0.931197 0.0963149 0.126024
0.931197 0.0963149 0.126024
0.931197 0.0963149 0.126024
0.931197 0.0963149 0.126024
0.931197 0.0963149 0.126024
0.931197 0.0963149 0.126024
0.931197 0.0963149 0.126024
0.931197 0.0963149 0.126024
0.931197 0.0963149 0.126024
0.931197 0.0963149 0.126024
0.931197 0.0963149 0.126024
0.931197 0.0963149 0.126024
0.931197 0.0963149 0.126024
0.931197 0.0963149 0.126024
0.931197 0.0963149 0.126024
0.931197 0.0963149 0.126024
0.931197 0.0963149 0.126024
0.0179751 0.0179751 0.0180056
0.0179751 0.0179751 0.0180056
0.0179751 0.0179751 0.0180056
0.0179751 0.0179751 0.0180056
0.0179751 0.0179751 0.0180056
0.0186618 0.0180667 0.0180209
0.0327306 0.0183261 0.0178378
0.0492561 0.018555 0.0174563
0.0666514 0.0184787 0.0167239
0.0848096 0.0187533 0.0165103
0.101411 0.0190738 0.0164645
0.11696 0.0194705 0.016907
0.132784 0.0204623 0.0179599
0.149691 0.0213779 0.0190127
0.168154 0.0226596 0.0200351
0.187945 0.0240482 0.0213016
0.208743 0.0254673 0.0227207
0.23093 0.0274205 0.0248112
0.254002 0.0292058 0.0269017
0.279179 0.0304875 0.028275
0.305013 0.031632 0.0302129
0.331563 0.0330816 0.0323949
0.358038 0.0348669 0.0351873
0.384527 0.0365911 0.0377966
0.411841 0.038407 0.0412604
0.43975 0.0406348 0.0450294
0.468315 0.0433204 0.0491951
0.497475 0.0465095 0.0543984
0.527245 0.0501411 0.0602121
0.557656 0.0543374 0.0670481
0.589075 0.0588846 0.0742351
0.62063 0.0635233 0.0818341
0.653513 0.0688792 0.0890669
0.687404 0.0730449 0.0961776
0.72343 0.0754559 0.103243
0.763333 0.0767987 0.109926
0.806806 0.0778821 0.115877
0.849683 0.0845197 0.120485
0.889113 0.0899062 0.123598
0.923888 0.0950484 0.125231
0.931197 0.0963149 0.126024
0.931197 0.0963149 0.126024
0.931197 0.0963149 0.126024
0.931197 0.0963149 0.126024
0.931197 0.0963149 0.126024
0.931197 0.0963149 0.126024
0.931197 0.0963149 0.126024
0.931197 0.0963149 0.126024
0.931197 0.0963149 0.126024
0.931197 0.0963149 0.126024
0.931197 0.0963149 0.126024
0.931197 0.0963149 0.126024
0.931197 0.0963149 0.126024
0.931197 0.0963149 0.126024
0.931197 0.0963149 0.126024
0.931197 0.0963149 0.126024
0.931197 0.0963149 0.126024
0.931197 0.0963149 0.126024
0.931197 0.0963149 0.126024
0.931197 0.0963149 0.126024
0.931197 0.0963149 0.126024
0.931197 0.0963149 0.126024
0.931197 0.0963149 0.126024
0.931197 0.0963149 0.126024
0.931197 0.0963149 0.126024
0.0190433 0.0222629 0.0192111
0.0188754 0.021622 0.0189975
0.0187228 0.0210422 0.0188144
0.0185855 0.0203403 0.0186465
0.0184482 0.0197299 0.0184787
0.0183108 0.019089 0.0183413
0.0272984 0.0190585 0.0179294
0.0435798 0.0186313 0.0176547
0.0607462 0.0185855 0.0170291
0.0784924 0.0186465 0.0165713
0.0961471 0.018967 0.016434
0.112963 0.0191958 0.0166171
0.129076 0.0201724 0.0176699
0.146242 0.021088 0.0187381
0.164889 0.0224308 0.0198215
0.184604 0.0237736 0.0211032
0.205707 0.0252232 0.0224918
0.228061 0.0272374 0.024506
0.251575 0.0290227 0.026688
0.276829 0.0302892 0.0280613
0.30277 0.0314488 0.0299992
0.329641 0.0330816 0.0323949
0.356237 0.0347601 0.0350195
0.382849 0.0365148 0.0376135
0.410315 0.0383001 0.041062
0.438239 0.0405127 0.0448005
0.466972 0.043183 0.0489662
0.496406 0.0463417 0.0541848
0.526055 0.0500191 0.0599527
0.556527 0.0541238 0.0667277
0.587991 0.0586862 0.0739605
0.619638 0.063447 0.0816815
0.652445 0.0686809 0.0888685
0.68632 0.0729229 0.0959487
0.722362 0.0753338 0.103044
0.762188 0.0768597 0.109773
0.80557 0.0776989 0.115755
0.848646 0.0843366 0.120363
0.888029 0.0897688 0.123552
0.923064 0.0948806 0.125154
0.931197 0.0963149 0.126024
0.931197 0.0963149 0.126024
0.931197 0.0963149 0.126024
0.931197 0.0963149 0.126024
0.931197 0.0963149 0.126024
0.931197 0.0963149 0.126024
0.931197 0.0963149 0.126024
0.931197 0.0963149 0.126024
0.931197 0.0963149 0.126024
0.931197 0.0963149 0.126024
0.931197 0.0963149 0.126024
0.931197 0.0963149 0.126024
0.931197 0.0963149 0.126024
0.931197 0.0963149 0.126024
0.931197 0.0963149 0.126024
0.931197 0.0963149 0.126024
0.931197 0.0963149 0.126024
0.931197 0.0963149 0.126024
0.931197 0.0963149 0.126024
0.931197 0.0963149 0.126024
0.931197 0.0963149 0.126024
0.931197 0.0963149 0.126024
0.931197 0.0963149 0.126024
0.931197 0.0963149 0.126024
0.931197 0.0963149 0.126024
0.021622 0.0315557 0.0220188
0.0214542 0.0308385 0.0218051
0.0212406 0.0300755 0.0215915
0.0210727 0.0293584 0.0213779
0.0208743 0.0286412 0.0211795
0.0207523 0.0279393 0.0210269
0.0236362 0.0275578 0.0206912
0.0368658 0.028809 0.0174563
0.0495766 0.0304417 0.0158846
0.0677806 0.0303349 0.0155184
0.0895094 0.0288853 0.0157321
0.109758 0.0263676 0.0162661
0.126528 0.0250248 0.0169833
0.143709 0.0250248 0.0181888
0.162097 0.0249485 0.0193637
0.181872 0.0250248 0.0206149
0.20267 0.0251774 0.0222477
0.22536 0.0269322 0.0242313
0.248829 0.028809 0.0263981
0.274235 0.0301671 0.0279088
0.300587 0.0313573 0.0297704
0.327825 0.0329747 0.0322576
0.35436 0.0346685 0.0348516
0.381155 0.036408 0.0374304
0.408728 0.0381933 0.0408789
0.437003 0.0403601 0.0445106
0.465553 0.0430152 0.0487984
0.495125 0.0461433 0.0540017
0.524849 0.0498665 0.0597543
0.55555 0.0539712 0.0664073
0.586847 0.0585336 0.0737316
0.618662 0.0633555 0.0815442
0.651438 0.0685283 0.0886702
0.685252 0.0728618 0.0957198
0.721279 0.0751965 0.102831
0.760998 0.0768902 0.109621
0.804318 0.0775006 0.115633
0.847425 0.0841535 0.120256
0.886946 0.089601 0.123445
0.922118 0.0947433 0.125139
0.931197 0.0963149 0.126024
0.931197 0.0963149 0.126024
0.931197 0.0963149 0.126024
0.931197 0.0963149 0.126024
0.931197 0.0963149 0.126024
0.931197 0.0963149 0.126024
0.931197 0.0963149 0.126024
0.931197 0.0963149 0.126024
0.931197 0.0963149 0.126024
0.931197 0.0963149 0.126024
0.931197 0.0963149 0.126024
0.931197 0.0963149 0.126024
0.931197 0.0963149 0.126024
0.931197 0.0963149 0.126024
0.931197 0.0963149 0.126024
0.931197 0.0963149 0.126024
0.931197 0.0963149 0.126024
0.931197 0.0963149 0.126024
0.931197 0.0963149 0.126024
0.931197 0.0963149 0.126024
0.931197 0.0963149 0.126024
0.931197 0.0963149 0.126024
0.931197 0.0963149 0.126024
0.931197 0.0963149 0.126024
0.931197 0.0963149 0.126024
0.0244297 0.0419013 0.0250706
0.024094 0.0411841 0.0247349
0.0238804 0.0404212 0.0244755
0.023682 0.0395819 0.0242771
0.0234836 0.038819 0.024033
0.0234226 0.0381781 0.0239719
0.0234989 0.0374914 0.0238956
0.032517 0.0383001 0.0220798
0.0498512 0.038941 0.0187381
0.0614786 0.0411078 0.0160678
0.0763104 0.0429389 0.0146487
0.0944991 0.0438849 0.0141299
0.116747 0.0425269 0.0152743
0.138674 0.0394446 0.0165713
0.160357 0.0357366 0.0182345
0.181415 0.0332341 0.0196536
0.201892 0.0332189 0.0212406
0.223606 0.0329595 0.0229648
0.246693 0.0331426 0.0254368
0.271778 0.0328527 0.0274968
0.298344 0.0318303 0.0295109
0.325643 0.0328679 0.0320439
0.352682 0.0344549 0.0345617
0.379461 0.0363012 0.0372473
0.407126 0.0380713 0.0406806
0.435492 0.0402228 0.0442969
0.46421 0.0428626 0.0485695
0.493828 0.0460365 0.0537881
0.523598 0.0496834 0.0594949
0.554421 0.0537423 0.0661326
0.585748 0.0583352 0.0734569
0.617639 0.0632944 0.0814374
0.650385 0.0684215 0.0883955
0.684199 0.0728008 0.095491
0.720211 0.0751507 0.102678
0.759854 0.0767834 0.109468
0.803067 0.0773175 0.115496
0.846281 0.0840009 0.120165
0.885939 0.0894484 0.1234
0.921187 0.0946059 0.125093
0.931197 0.0963149 0.126024
0.931197 0.0963149 0.126024
0.931197 0.0963149 0.126024
0.931197 0.0963149 0.126024
0.931197 0.0963149 0.126024
0.931197 0.0963149 0.126024
0.931197 0.0963149 0.126024
0.931197 0.0963149 0.126024
0.931197 0.0963149 0.126024
0.931197 0.0963149 0.126024
0.931197 0.0963149 0.126024
0.931197 0.0963149 0.126024
0.931197 0.0963149 0.126024
0.931197 0.0963149 0.126024
0.931197 0.0963149 0.126024
0.931197 0.0963149 0.126024
0.931197 0.0963149 0.126024
0.931197 0.0963149 0.126024
0.931197 0.0963149 0.126024
0.931197 0.0963149 0.126024
0.931197 0.0963149 0.126024
0.931197 0.0963149 0.126024
0.931197 0.0963149 0.126024
0.931197 0.0963149 0.126024
0.931197 0.0963149 0.126024
0.027039 0.0531624 0.0279698
0.0268559 0.0522774 0.0277562
0.0266423 0.0514839 0.0275273
0.0264134 0.0505531 0.0272984
0.0261997 0.0496681 0.027039
0.025803 0.0488441 0.0266575
0.0257115 0.0480201 0.0265049
0.0324559 0.0476081 0.0268406
0.042771 0.0498054 0.0231022
0.0624552 0.0497139 0.0200046
0.0776837 0.0518502 0.0168917
0.0922713 0.0544442 0.0153658
0.110384 0.0553292 0.0157473
0.128374 0.0559854 0.0159915
0.150668 0.0541695 0.016495
0.175662 0.0498817 0.0177157
0.200198 0.0451667 0.0197147
0.224262 0.0419318 0.0220188
0.246662 0.041474 0.0239414
0.270665 0.0411994 0.0263981
0.296666 0.0402533 0.028397
0.323293 0.0386511 0.0307012
0.350607 0.0374762 0.0338598
0.377935 0.0361334 0.0370642
0.405524 0.0379644 0.0404974
0.434043 0.0400549 0.0440833
0.462974 0.0426947 0.0482948
0.492531 0.0458686 0.0535744
0.522499 0.0495308 0.0591897
0.553292 0.053666 0.065919
0.584665 0.0581826 0.0731975
0.616617 0.0631571 0.0809339
0.649393 0.0682078 0.0881666
0.683177 0.0726787 0.0952773
0.719081 0.0750744 0.102449
0.758648 0.0766918 0.109255
0.801831 0.0771344 0.115404
0.845136 0.0838331 0.120058
0.884855 0.0892805 0.123293
0.920317 0.0944839 0.125109
0.931197 0.0963149 0.126024
0.931197 0.0963149 0.126024
0.931197 0.0963149 0.126024
0.931197 0.0963149 0.126024
0.931197 0.0963149 0.126024
0.931197 0.0963149 0.126024
0.931197 0.0963149 0.126024
0.931197 0.0963149 0.126024
0.931197 0.0963149 0.126024
0.931197 0.0963149 0.126024
0.931197 0.0963149 0.126024
0.931197 0.0963149 0.126024
0.931197 0.0963149 0.126024
0.931197 0.0963149 0.126024
0.931197 0.0963149 0.126024
0.931197 0.0963149 0.126024
0.931197 0.0963149 0.126024
0.931197 0.0963149 0.126024
0.931197 0.0963149 0.126024
0.931197 0.0963149 0.126024
0.931197 0.0963149 0.126024
0.931197 0.0963149 0.126024
0.931197 0.0963149 0.126024
0.931197 0.0963149 0.126024
0.931197 0.0963149 0.126024
0.0298772 0.0647898 0.0312047
0.0296788 0.06392 0.0309606
0.0294499 0.0631113 0.0307164
0.0292668 0.0621958 0.0304723
0.0290532 0.0612955 0.0302281
0.0288243 0.0603799 0.029984
0.0286107 0.0595407 0.0297398
0.0319829 0.058854 0.0301671
0.041886 0.059678 0.0292973
0.0535134 0.0619211 0.0238346
0.0773785 0.0618601 0.0207828
0.0967727 0.0635691 0.0174105
0.110109 0.0666209 0.0160372
0.129137 0.0671702 0.016968
0.148928 0.066804 0.0173953
0.170748 0.0661021 0.0177462
0.194736 0.0636149 0.0180514
0.220188 0.0577401 0.0199283
0.246952 0.0512398 0.0232548
0.271366 0.0503548 0.025864
0.296712 0.0496834 0.0283055
0.323384 0.0481117 0.0307012
0.349859 0.0463874 0.0332189
0.376135 0.0444648 0.0359808
0.403723 0.0424201 0.0396429
0.432486 0.0404822 0.0437781
0.461707 0.0425727 0.0480507
0.491234 0.0456855 0.0532387
0.521385 0.0493324 0.0588998
0.552148 0.0534829 0.0656443
0.583566 0.0580453 0.0730297
0.615686 0.0630045 0.0806592
0.648524 0.0680552 0.0881971
0.682383 0.0726177 0.0949569
0.718013 0.0750744 0.102235
0.757687 0.0767376 0.109041
0.800717 0.0770123 0.115312
0.843915 0.08365 0.119905
0.883833 0.0891432 0.123247
0.919387 0.0943465 0.125063
0.931197 0.0963149 0.126024
0.931197 0.0963149 0.126024
0.931197 0.0963149 0.126024
0.931197 0.0963149 0.126024
0.931197 0.0963149 0.126024
0.931197 0.0963149 0.126024
0.931197 0.0963149 0.126024
0.931197 0.0963149 0.126024
0.931197 0.0963149 0.126024
0.931197 0.0963149 0.126024
0.931197 0.0963149 0.126024
0.931197 0.0963149 0.126024
0.931197 0.0963149 0.126024
0.931197 0.0963149 0.126024
0.931197 0.0963149 0.126024
0.931197 0.0963149 0.126024
0.931197 0.0963149 0.126024
0.931197 0.0963149 0.126024
0.931197 0.0963149 0.126024
0.931197 0.0963149 0.126024
0.931197 0.0963149 0.126024
0.931197 0.0963149 0.126024
0.931197 0.0963149 0.126024
0.931197 0.0963149 0.126024
0.931197 0.0963149 0.126024
0.0331884 0.0777142 0.0345769
0.03299 0.0765393 0.0343175
0.0327764 0.0757305 0.034165
0.0325322 0.0745861 0.0339818
0.0323033 0.0737469 0.0337682
0.0319982 0.0731212 0.0335088
0.0317388 0.0722362 0.0332341
0.0315404 0.0713664 0.03299
0.0420691 0.071397 0.0339055
0.051545 0.0730449 0.0309148
0.0664073 0.0757305 0.024033
0.0946822 0.0750134 0.0211185
0.114626 0.0768749 0.0180362
0.128573 0.0799573 0.0166781
0.150561 0.0799878 0.0181582
0.172351 0.0796368 0.0191348
0.195727 0.0779278 0.0193027
0.220401 0.0751812 0.0196384
0.243259 0.0720684 0.0204776
0.27039 0.0655833 0.0241398
0.297734 0.0607156 0.0278325
0.323964 0.0597238 0.0306401
0.350149 0.0576181 0.0330205
0.376715 0.0556802 0.0362097
0.403372 0.0533913 0.0391394
0.431067 0.0508736 0.0430915
0.460151 0.0481575 0.0476234
0.489799 0.045716 0.0530251
0.520073 0.0491493 0.0586404
0.550866 0.053315 0.0650645
0.582391 0.057847 0.0728008
0.614618 0.0628061 0.0803235
0.64741 0.0679026 0.0879072
0.681239 0.0724804 0.094789
0.716884 0.0749981 0.102007
0.756436 0.076585 0.108858
0.799451 0.0770275 0.115206
0.842695 0.0834821 0.119799
0.882734 0.0889601 0.123171
0.918364 0.0942092 0.125048
0.931197 0.0963149 0.126024
0.931197 0.0963149 0.126024
0.931197 0.0963149 0.126024
0.931197 0.0963149 0.126024
0.931197 0.0963149 0.126024
0.931197 0.0963149 0.126024
0.931197 0.0963149 0.126024
0.931197 0.0963149 0.126024
0.931197 0.0963149 0.126024
0.931197 0.0963149 0.126024
0.931197 0.0963149 0.126024
0.931197 0.0963149 0.126024
0.931197 0.0963149 0.126024
0.931197 0.0963149 0.126024
0.931197 0.0963149 0.126024
0.931197 0.0963149 0.126024
0.931197 0.0963149 0.126024
0.931197 0.0963149 0.126024
0.931197 0.0963149 0.126024
0.931197 0.0963149 0.126024
0.931197 0.0963149 0.126024
0.931197 0.0963149 0.126024
0.931197 0.0963149 0.126024
0.931197 0.0963149 0.126024
0.931197 0.0963149 0.126024
0.0357824 0.0914015 0.0378576
0.0356603 0.0906691 0.0376898
0.0355535 0.0897383 0.0375677
0.0353552 0.0889906 0.0373236
0.0352178 0.0883803 0.0371862
0.0351873 0.0877089 0.0371099
0.03505 0.0867781 0.0369268
0.0348363 0.0859693 0.0367132
0.0408179 0.0854505 0.037583
0.0509499 0.0861982 0.0368353
0.0627451 0.0889296 0.0313726
0.0816663 0.0910506 0.0237736
0.111223 0.0898451 0.0216068
0.132143 0.0914015 0.0184176
0.150118 0.0942397 0.0178836
0.173159 0.0941939 0.0190738
0.197879 0.0931868 0.020264
0.22266 0.0913252 0.0208896
0.248295 0.088014 0.0212406
0.272953 0.0843214 0.02327
0.297627 0.0804303 0.0256504
0.325795 0.0735027 0.0301671
0.351553 0.0718853 0.0331579
0.377447 0.069398 0.0361181
0.404028 0.0669718 0.0396429
0.431327 0.0642405 0.0436866
0.459861 0.0614328 0.0478828
0.489021 0.0581216 0.0528725
0.518929 0.0548409 0.0585794
0.549447 0.0530556 0.0647746
0.581247 0.057557 0.0725109
0.613306 0.0625772 0.0800793
0.646097 0.0677043 0.0876631
0.679957 0.0722362 0.0945144
0.715755 0.0749065 0.101747
0.755016 0.0766766 0.108583
0.798184 0.0770581 0.115053
0.841215 0.0832685 0.119661
0.881544 0.088716 0.122988
0.917205 0.0940414 0.125017
0.931197 0.0963149 0.126024
0.931197 0.0963149 0.126024
0.931197 0.0963149 0.126024
0.931197 0.0963149 0.126024
0.931197 0.0963149 0.126024
0.931197 0.0963149 0.126024
0.931197 0.0963149 0.126024
0.931197 0.0963149 0.126024
0.931197 0.0963149 0.126024
0.931197 0.0963149 0.126024
0.931197 0.0963149 0.126024
0.931197 0.0963149 0.126024
0.931197 0.0963149 0.126024
0.931197 0.0963149 0.126024
0.931197 0.0963149 0.126024
0.931197 0.0963149 0.126024
0.931197 0.0963149 0.126024
0.931197 0.0963149 0.126024
0.931197 0.0963149 0.126024
0.931197 0.0963149 0.126024
0.931197 0.0963149 0.126024
0.931197 0.0963149 0.126024
0.931197 0.0963149 0.126024
0.931197 0.0963149 0.126024
0.931197 0.0963149 0.126024
0.0379797 0.105852 0.0407721
0.0377356 0.105043 0.0404822
0.0376745 0.104433 0.0403296
0.0375525 0.103639 0.0401923
0.0374456 0.102876 0.0400397
0.0373846 0.10222 0.0399329
0.0372625 0.101457 0.039765
0.0371557 0.10071 0.0396429
0.037583 0.0999466 0.0396277
0.0492561 0.100206 0.0405585
0.0617227 0.101808 0.037583
0.0763867 0.104097 0.0316014
0.097734 0.105791 0.0233921
0.128649 0.104311 0.0215152
0.151308 0.105776 0.0187839
0.175799 0.107591 0.0189059
0.197299 0.108202 0.0196384
0.224567 0.106538 0.0215457
0.251423 0.104036 0.0226902
0.277958 0.100359 0.0234531
0.30428 0.0963149 0.0265049
0.330602 0.0921798 0.0301061
0.355459 0.087953 0.034287
0.379705 0.0863813 0.0370642
0.4056 0.0840925 0.0405737
0.432395 0.0809339 0.0443275
0.460487 0.0778058 0.0486458
0.489174 0.0739452 0.0534981
0.5187 0.0706188 0.0588846
0.549004 0.0669108 0.0653239
0.580209 0.0632181 0.0725261
0.611811 0.0623484 0.0796674
0.644633 0.0674449 0.0873426
0.678569 0.0721599 0.0941787
0.71426 0.0747539 0.101427
0.753368 0.0766003 0.108339
0.796475 0.0770275 0.114855
0.83975 0.0829786 0.119432
0.88014 0.0885786 0.122942
0.915908 0.0938125 0.124956
0.931197 0.0963149 0.126024
0.931197 0.0963149 0.126024
0.931197 0.0963149 0.126024
0.931197 0.0963149 0.126024
0.931197 0.0963149 0.126024
0.931197 0.0963149 0.126024
0.931197 0.0963149 0.126024
0.931197 0.0963149 0.126024
0.931197 0.0963149 0.126024
0.931197 0.0963149 0.126024
0.931197 0.0963149 0.126024
0.931197 0.0963149 0.126024
0.931197 0.0963149 0.126024
0.931197 0.0963149 0.126024
0.931197 0.0963149 0.126024
0.931197 0.0963149 0.126024
0.931197 0.0963149 0.126024
0.931197 0.0963149 0.126024
0.931197 0.0963149 0.126024
0.931197 0.0963149 0.126024
