bundles/resolve-cinematic-luts/Phantom Luts/DJI/DJI Phntm ARRI LUTs - G3/Mavic 3 D-Log/Neutral Mavic 3.cube
TITLE "Generated by Resolve"
LUT_3D_SIZE 9
0.0179751 0.0179751 0.0180056
0.0907607 0.0188602 0.0164492
0.220111 0.0265049 0.0237888
0.417746 0.0389105 0.0420233
0.657435 0.0695048 0.0898604
0.931197 0.0963149 0.126024
0.931197 0.0963149 0.126024
0.931197 0.0963149 0.126024
0.931197 0.0963149 0.126024
0.027039 0.0531624 0.0279698
0.042771 0.0498054 0.0231022
0.200198 0.0451667 0.0197147
0.405524 0.0379644 0.0404974
0.649393 0.0682078 0.0881666
0.931197 0.0963149 0.126024
0.931197 0.0963149 0.126024
0.931197 0.0963149 0.126024
0.931197 0.0963149 0.126024
0.0506142 0.175967 0.0525978
0.0497749 0.171283 0.0519112
0.172793 0.17464 0.0228428
0.43238 0.155291 0.0444343
0.646876 0.132113 0.0902419
0.931197 0.0963149 0.126024
0.931197 0.0963149 0.126024
0.931197 0.0963149 0.126024
0.931197 0.0963149 0.126024
0.108461 0.37409 0.110567
0.107362 0.371496 0.109453
0.105867 0.367346 0.107973
0.382269 0.373938 0.038407
0.697963 0.373983 0.10071
0.964065 0.323903 0.166644
0.970718 0.288609 0.159945
0.964553 0.271489 0.156054
0.961593 0.264622 0.154086
0.208865 0.608301 0.213962
0.208042 0.606607 0.213077
0.20676 0.604303 0.211749
0.284962 0.601572 0.215778
0.633188 0.62533 0.118181
0.927169 0.652827 0.139452
0.990311 0.647395 0.152026
0.992142 0.638086 0.154208
0.992859 0.634485 0.155169
0.351003 0.862577 0.367926
0.350195 0.86128 0.366934
0.348943 0.859541 0.365499
0.345571 0.854047 0.361608
0.610025 0.843214 0.345495
0.862898 0.873167 0.256382
0.970016 0.868391 0.239658
0.970611 0.862669 0.232502
0.970825 0.860395 0.229801
0.40676 0.938582 0.437018
0.40676 0.938582 0.437018
0.40676 0.938582 0.437018
0.40676 0.938582 0.437018
0.530968 0.934386 0.461799
0.835904 0.948135 0.38468
0.967086 0.966384 0.419577
0.967041 0.966384 0.40763
0.967041 0.966384 0.40763
0.40676 0.938582 0.437018
0.40676 0.938582 0.437018
0.40676 0.938582 0.437018
0.40676 0.938582 0.437018
0.427924 0.938109 0.440864
0.81149 0.942992 0.39321
0.945983 0.964477 0.410971
0.967041 0.966384 0.40763
0.967041 0.966384 0.40763
0.40676 0.938582 0.437018
0.40676 0.938582 0.437018
0.40676 0.938582 0.437018
0.40676 0.938582 0.437018
0.40676 0.938582 0.437018
0.80177 0.941161 0.396567
0.934401 0.963409 0.399603
0.967041 0.966384 0.40763
0.967041 0.966384 0.40763
0.0171817 0.0186313 0.0462196
0.0848402 0.0174411 0.0507057
0.230808 0.0260166 0.0535286
0.431388 0.0475166 0.0751049
0.656229 0.0693065 0.0896468
0.931197 0.0963149 0.126024
0.931197 0.0963149 0.126024
0.931197 0.0963149 0.126024
0.931197 0.0963149 0.126024
0.0210269 0.0414282 0.0376593
0.0350195 0.0350195 0.0350195
0.206928 0.0268559 0.0322881
0.404883 0.0379034 0.041825
0.648234 0.0680247 0.0880903
0.931197 0.0963149 0.126024
0.931197 0.0963149 0.126024
0.931197 0.0963149 0.126024
0.931197 0.0963149 0.126024
0.0483101 0.164263 0.0504005
0.0473487 0.159503 0.049546
0.170184 0.162005 0.0224765
0.424475 0.142138 0.0445716
0.642863 0.119615 0.0887312
0.931197 0.0963149 0.126024
0.931197 0.0963149 0.126024
0.931197 0.0963149 0.126024
0.931197 0.0963149 0.126024
0.106065 0.367834 0.108156
0.105348 0.365286 0.107347
0.103929 0.361242 0.10573
0.380713 0.366796 0.0374456
0.696086 0.365133 0.0999161
0.960418 0.315877 0.165209
0.967987 0.280369 0.158328
0.961166 0.263081 0.153903
0.958312 0.255985 0.151858
0.207019 0.604639 0.212009
0.206058 0.602975 0.211017
0.204639 0.60032 0.209796
0.277928 0.597482 0.213245
0.632059 0.62121 0.116976
0.925963 0.648844 0.140078
0.991211 0.643076 0.153246
0.993027 0.6336 0.155367
0.993652 0.629709 0.156283
0.349126 0.859785 0.365743
0.348363 0.858473 0.364843
0.347143 0.856474 0.363394
0.343603 0.85127 0.359411
0.607004 0.840467 0.343328
0.862226 0.869947 0.253285
0.97026 0.865492 0.236286
0.970871 0.85977 0.229206
0.971023 0.857511 0.226368
0.40676 0.938582 0.437018
0.40676 0.938582 0.437018
0.40676 0.938582 0.437018
0.40676 0.938582 0.437018
0.527474 0.934615 0.461189
0.835279 0.947936 0.384924
0.967086 0.966384 0.419638
0.967041 0.966384 0.40763
0.967041 0.966384 0.40763
0.40676 0.938582 0.437018
0.40676 0.938582 0.437018
0.40676 0.938582 0.437018
0.40676 0.938582 0.437018
0.424857 0.938201 0.440284
0.810788 0.942794 0.393439
0.944854 0.96437 0.410574
0.967041 0.966384 0.40763
0.967041 0.966384 0.40763
0.40676 0.938582 0.437018
0.40676 0.938582 0.437018
0.40676 0.938582 0.437018
0.40676 0.938582 0.437018
0.40676 0.938582 0.437018
0.8009 0.941009 0.396841
0.933471 0.963333 0.398291
0.967041 0.966384 0.40763
0.967041 0.966384 0.40763
0.0155489 0.0237736 0.14696
0.0609293 0.0184787 0.164614
0.238849 0.0213016 0.159136
0.462638 0.0385595 0.170504
0.717266 0.104036 0.225757
0.987137 0.138598 0.260212
0.980285 0.1149 0.219257
0.969741 0.113298 0.201541
0.966033 0.11339 0.195575
0.01561 0.0230564 0.136828
0.0206149 0.0205539 0.140993
0.211322 0.0204776 0.149126
0.447944 0.0381781 0.15938
0.70515 0.103883 0.215305
0.986419 0.13106 0.240681
0.96791 0.113298 0.19855
0.958419 0.113542 0.183825
0.954147 0.113558 0.177478
0.0283513 0.159945 0.151461
0.0276951 0.153979 0.148379
0.15349 0.15349 0.15349
0.445457 0.125948 0.138293
0.695567 0.12668 0.194232
0.968994 0.113329 0.200443
0.948928 0.110964 0.167041
0.939391 0.101762 0.14168
0.935836 0.0986648 0.132403
0.118334 0.362173 0.158404
0.117067 0.359258 0.155596
0.114855 0.354726 0.151293
0.375784 0.360265 0.0721447
0.689342 0.352819 0.107118
0.953948 0.302815 0.162509
0.962615 0.267094 0.154742
0.955505 0.24918 0.150179
0.952712 0.2421 0.148425
0.203647 0.598306 0.208743
0.202762 0.596674 0.207752
0.201648 0.594156 0.206485
0.26659 0.590982 0.209415
0.630167 0.61445 0.115114
0.924208 0.642313 0.140993
0.992584 0.635889 0.154849
0.994339 0.626139 0.15697
0.995041 0.622248 0.157671
0.346044 0.854826 0.362188
0.34522 0.853452 0.361196
0.343908 0.851728 0.359777
0.340475 0.846143 0.355978
0.602213 0.835752 0.339712
0.861067 0.865003 0.248798
0.970764 0.861204 0.230686
0.97113 0.855268 0.223514
0.971557 0.853178 0.221073
0.40676 0.938582 0.437018
0.40676 0.938582 0.437018
0.40676 0.938582 0.437018
0.40676 0.938582 0.437018
0.52195 0.934829 0.460197
0.83415 0.947616 0.385336
0.967102 0.9664 0.419715
0.967041 0.966384 0.40763
0.967041 0.966384 0.40763
0.40676 0.938582 0.437018
0.40676 0.938582 0.437018
0.40676 0.938582 0.437018
0.40676 0.938582 0.437018
0.420066 0.938308 0.439307
0.809445 0.94258 0.393973
0.943053 0.964218 0.409979
0.967041 0.966384 0.40763
0.967041 0.966384 0.40763
0.40676 0.938582 0.437018
0.40676 0.938582 0.437018
0.40676 0.938582 0.437018
0.40676 0.938582 0.437018
0.40676 0.938582 0.437018
0.799466 0.940749 0.397421
0.932082 0.963211 0.396719
0.967041 0.966384 0.40763
0.967041 0.966384 0.40763
0.00654612 0.0366674 0.324025
0.0202792 0.0282444 0.333745
0.191226 0.0179294 0.364614
0.460716 0.0339208 0.34168
0.728847 0.0562905 0.364096
0.997894 0.105455 0.411032
0.998337 0.108873 0.403067
0.99855 0.110491 0.39884
0.998611 0.111177 0.397375
0.00703441 0.0360571 0.317571
0.00708019 0.0359503 0.316594
0.155901 0.0138552 0.354833
0.447532 0.0324865 0.335714
0.720577 0.0553445 0.356939
0.998215 0.107546 0.406241
0.998596 0.110842 0.398047
0.998825 0.112688 0.393973
0.998932 0.11342 0.392325
0.0101778 0.11516 0.307759
0.0115358 0.110033 0.305638
0.103304 0.0738689 0.346441
0.433646 0.0552377 0.338415
0.706523 0.0536355 0.3449
0.998566 0.110628 0.39852
0.999069 0.114336 0.390143
0.999313 0.116243 0.38587
0.99942 0.11696 0.384146
0.0457923 0.352132 0.338964
0.0451057 0.349004 0.337255
0.0437476 0.343481 0.334249
0.357336 0.357336 0.357336
0.701762 0.336233 0.339178
0.987762 0.308141 0.370108
0.985382 0.276539 0.371252
0.985 0.262684 0.37203
0.984985 0.25835 0.372854
0.220172 0.596872 0.354421
0.219776 0.595148 0.352697
0.218982 0.592355 0.350286
0.259693 0.586496 0.35082
0.615457 0.603632 0.267277
0.916579 0.630549 0.23183
0.98819 0.629053 0.228595
0.989349 0.618784 0.224002
0.989761 0.614801 0.222263
0.346868 0.843122 0.393469
0.345724 0.841688 0.391135
0.343893 0.839445 0.387655
0.339254 0.833631 0.377768
0.589029 0.823346 0.354162
0.857847 0.85124 0.237125
0.971786 0.849287 0.216495
0.97261 0.843427 0.210285
0.972656 0.841169 0.207538
0.40676 0.938582 0.437018
0.40676 0.938582 0.437018
0.40676 0.938582 0.437018
0.40676 0.938582 0.437018
0.506798 0.935546 0.457145
0.830991 0.947036 0.386831
0.966522 0.966339 0.419654
0.967041 0.966384 0.40763
0.967041 0.966384 0.407187
0.40676 0.938582 0.437018
0.40676 0.938582 0.437018
0.40676 0.938582 0.437018
0.40676 0.938582 0.437018
0.40676 0.938582 0.437018
0.80592 0.942077 0.395438
0.938857 0.96379 0.405646
0.967041 0.966384 0.40763
0.967041 0.966384 0.40763
0.40676 0.938582 0.437018
0.40676 0.938582 0.437018
0.40676 0.938582 0.437018
0.40676 0.938582 0.437018
0.40676 0.938582 0.437018
0.795773 0.939941 0.399786
0.928801 0.963012 0.392828
0.967041 0.966384 0.40763
0.967041 0.966384 0.40763
0 0.0705577 0.527565
0 0.0704509 0.527016
0.106477 0.0114443 0.559213
0.417716 0.033875 0.59173
0.715541 0.0677043 0.559899
0.967803 0.0775464 0.596353
0.969253 0.0775464 0.590768
0.969985 0.0775616 0.587839
0.97023 0.0775616 0.586954
0 0.0698253 0.524239
0 0.0696727 0.523644
0.0725872 0.0279545 0.549279
0.398978 0.0344091 0.58558
0.707225 0.0662547 0.556603
0.968612 0.0775464 0.593118
0.970092 0.0776226 0.587411
0.970855 0.0776837 0.584558
0.97113 0.0776989 0.583413
0 0.0686961 0.519188
0 0.0685588 0.518685
0.0153964 0.0531624 0.532021
0.367941 0.0354009 0.575082
0.693736 0.0637217 0.551354
0.962478 0.0766461 0.586221
0.971527 0.0776226 0.581949
0.972183 0.0777905 0.57911
0.972519 0.0777447 0.577966
0 0.28629 0.510246
0 0.28304 0.509071
0 0.277455 0.507118
0.285664 0.246448 0.57203
0.678386 0.22118 0.571283
0.954528 0.179217 0.579767
0.975158 0.125704 0.569284
0.976287 0.0937209 0.5635
0.976638 0.0791791 0.561456
0.103334 0.574746 0.558663
0.102556 0.572808 0.557549
0.101656 0.569818 0.555932
0.0985733 0.56141 0.551095
0.584421 0.584405 0.584466
0.93785 0.599603 0.581552
1 0.590417 0.580713
1 0.579431 0.576715
1 0.575021 0.575143
0.281041 0.839918 0.578683
0.280324 0.838544 0.57763
0.279393 0.836484 0.575982
0.276371 0.830411 0.57171
0.542824 0.81706 0.603174
0.831861 0.829099 0.553079
0.977859 0.833341 0.522637
0.978973 0.82771 0.515465
0.979416 0.825345 0.512779
0.409537 0.954681 0.619715
0.409827 0.954604 0.619318
0.410513 0.954437 0.618647
0.412253 0.953933 0.616754
0.494316 0.94876 0.626612
0.825071 0.940169 0.682414
0.960693 0.967758 0.609705
0.969467 0.964446 0.578653
0.969299 0.963073 0.574426
0.421164 0.951263 0.60679
0.421561 0.951095 0.606271
0.422232 0.950957 0.605585
0.423941 0.950408 0.603586
0.427222 0.94931 0.599542
0.80827 0.939086 0.67126
0.929274 0.963653 0.571267
0.968658 0.967376 0.532464
0.968597 0.96733 0.52932
0.42562 0.949889 0.601709
0.425925 0.949752 0.601221
0.426505 0.949615 0.600488
0.428138 0.949081 0.598459
0.431693 0.947921 0.594278
0.795819 0.937163 0.664591
0.921569 0.962493 0.561288
0.968429 0.967208 0.521859
0.968185 0.967025 0.510414
0 0.137453 0.714702
0 0.137209 0.714275
0 0.120684 0.729458
0.318608 0.0154879 0.788754
0.679133 0.0749065 0.8177
0.96997 0.0911269 0.79089
0.97084 0.0906081 0.784115
0.970642 0.0904555 0.781033
0.970581 0.0903487 0.779812
0 0.136202 0.71191
0 0.136004 0.711437
0 0.129793 0.71574
0.299657 0.00956741 0.784115
0.669047 0.0742351 0.814466
0.965347 0.0917067 0.78735
0.970611 0.0904097 0.780377
0.970443 0.0902113 0.777203
0.970367 0.0901045 0.775921
0 0.134035 0.707347
0 0.133791 0.706844
0 0.133425 0.706188
0.266331 0.000106813 0.776547
0.652979 0.0732586 0.809369
0.957534 0.0919966 0.781567
0.970275 0.0899977 0.774472
0.970108 0.0897383 0.771405
0.970047 0.0896315 0.770184
0 0.214618 0.687449
0 0.209873 0.687602
0 0.202121 0.68751
0.166308 0.109682 0.752605
0.609171 0.0777142 0.797116
0.933761 0.0915236 0.76611
0.969543 0.0883955 0.759365
0.969299 0.0879988 0.756741
0.969146 0.087892 0.755581
0 0.510964 0.7084
0 0.509148 0.707469
0 0.506279 0.705913
0 0.498741 0.70219
0.529915 0.505562 0.799924
0.913115 0.49485 0.805447
0.98407 0.469413 0.810498
0.983474 0.45655 0.805982
0.983185 0.45127 0.80441
0.177157 0.795209 0.771649
0.176577 0.793652 0.770748
0.175402 0.791074 0.769177
0.172946 0.784207 0.765774
0.42121 0.79118 0.779599
0.798047 0.798047 0.798047
0.991943 0.818051 0.798154
0.99234 0.810346 0.794873
0.992737 0.807401 0.79382
0.278035 0.961303 0.783047
0.27776 0.960555 0.782284
0.277287 0.959243 0.781094
0.275608 0.955978 0.777264
0.312596 0.949096 0.772244
0.794446 0.94284 0.827405
0.951614 0.953613 0.817563
0.97644 0.953536 0.808545
0.97644 0.952071 0.805737
0.28542 0.967254 0.7729
0.285618 0.9673 0.772381
0.285832 0.967269 0.771618
0.286458 0.967239 0.769635
0.287755 0.967346 0.765469
0.779568 0.967163 0.830304
0.928023 0.96994 0.861585
0.979919 0.979095 0.829328
0.979782 0.978958 0.826658
0.287129 0.96733 0.767468
0.287282 0.967285 0.766949
0.287526 0.96733 0.766201
0.287968 0.967346 0.764416
0.289189 0.967361 0.760128
0.76405 0.96698 0.822492
0.92018 0.968765 0.860014
0.97969 0.978866 0.825483
0.979461 0.978607 0.821073
0 0.212879 0.816449
0 0.212879 0.816449
0 0.212879 0.816449
0.22594 0.105547 0.881651
0.608896 0.16527 0.918944
0.967376 0.128099 0.94641
0.977508 0.126925 0.945571
0.977508 0.126925 0.945571
0.977508 0.126925 0.945571
0 0.212879 0.816449
0 0.212879 0.816449
0 0.212879 0.816449
0.201709 0.117922 0.877089
0.597711 0.16289 0.917937
0.961898 0.128542 0.946578
0.977508 0.126925 0.945571
0.977508 0.126925 0.945571
0.977508 0.126925 0.945571
0 0.212879 0.816449
0 0.212879 0.816449
0 0.212879 0.816449
0.16054 0.136004 0.86952
0.579538 0.157015 0.916533
0.952575 0.12932 0.946853
0.977508 0.126925 0.945571
0.977508 0.126925 0.945571
0.977508 0.126925 0.945571
0 0.212879 0.816449
0 0.212879 0.816449
0 0.212879 0.816449
0.0272068 0.177996 0.850904
0.530068 0.139925 0.9131
0.921508 0.132708 0.946471
0.977508 0.126925 0.945571
0.977508 0.126925 0.945571
0.977508 0.126925 0.945571
0 0.490532 0.834653
0 0.48893 0.834363
0 0.486427 0.833585
0 0.479316 0.830594
0.451499 0.456016 0.923079
0.866056 0.44419 0.970382
0.978882 0.401816 0.955947
0.978058 0.387137 0.951904
0.977386 0.381109 0.950057
0.0145876 0.72108 0.881163
0.0132753 0.719707 0.880308
0.0112917 0.717494 0.878965
0.00598154 0.711818 0.875547
0.274067 0.726986 0.894041
0.757778 0.743008 0.937301
0.980804 0.73872 0.943832
0.98117 0.731319 0.940291
0.981308 0.728145 0.939254
0.209232 0.92932 0.907134
0.209003 0.92813 0.906661
0.208347 0.926299 0.905547
0.20647 0.921355 0.902464
0.202564 0.910201 0.8963
0.725155 0.928435 0.922744
0.938628 0.938613 0.938659
0.982406 0.944274 0.939162
0.9823 0.942443 0.93817
0.226658 0.967865 0.90779
0.226825 0.96791 0.907362
0.227054 0.967926 0.906706
0.227695 0.967971 0.904952
0.228977 0.967742 0.901167
0.725734 0.975769 0.923888
0.947768 0.982849 0.956237
0.988205 0.988067 0.956481
0.988113 0.987976 0.955779
0.228321 0.967803 0.902922
0.228489 0.967834 0.902434
0.228702 0.967819 0.901839
0.229343 0.967712 0.900069
0.230564 0.967544 0.895949
0.708476 0.975692 0.918486
0.939605 0.982651 0.952255
0.979324 0.985687 0.955947
0.987762 0.987594 0.951385
0 0.212879 0.816449
0 0.212879 0.816449
0 0.212879 0.816449
0.20647 0.115541 0.878019
0.599847 0.1635 0.91809
0.962997 0.128481 0.946563
0.977508 0.126925 0.945571
0.977508 0.126925 0.945571
0.977508 0.126925 0.945571
0 0.212879 0.816449
0 0.212879 0.816449
0 0.212879 0.816449
0.180606 0.127184 0.872694
0.588098 0.159716 0.917021
0.957229 0.128939 0.9467
0.977508 0.126925 0.945571
0.977508 0.126925 0.945571
0.977508 0.126925 0.945571
0 0.212879 0.816449
0 0.212879 0.816449
0 0.212879 0.816449
0.137774 0.14493 0.866819
0.569986 0.153719 0.915862
0.947112 0.129671 0.946899
0.977508 0.126925 0.945571
0.977508 0.126925 0.945571
0.977508 0.126925 0.945571
0 0.212879 0.816449
0 0.212879 0.816449
0 0.212879 0.816449
0.00274662 0.1841 0.844923
0.520485 0.136584 0.912581
0.914672 0.133562 0.946136
0.977508 0.126925 0.945571
0.977508 0.126925 0.945571
0.977508 0.126925 0.945571
0 0.471641 0.830121
0 0.470008 0.829725
0 0.467323 0.829068
0 0.46041 0.827283
0.432578 0.430152 0.923995
0.848142 0.421134 0.975219
0.976532 0.3729 0.966949
0.975143 0.357305 0.965194
0.974701 0.351186 0.964599
0 0.710567 0.896086
0 0.709407 0.895689
0 0.707469 0.894804
0 0.702525 0.89218
0.146441 0.711696 0.909575
0.728252 0.718425 0.966461
0.981247 0.71574 0.981247
0.981689 0.705745 0.981689
0.981811 0.702571 0.981811
0.18146 0.888914 0.945769
0.181201 0.887434 0.945678
0.180468 0.884825 0.945174
0.178241 0.877821 0.943664
0.173449 0.863249 0.940871
0.676844 0.886366 0.956542
0.921874 0.917845 0.974044
0.977905 0.916869 0.977905
0.977661 0.914488 0.977661
0.194614 0.956115 0.95819
0.19501 0.956268 0.957885
0.195758 0.95639 0.957351
0.196185 0.957 0.95613
0.196628 0.958083 0.953414
0.632578 0.967239 0.961151
0.924636 0.979843 0.978607
0.9879 0.9879 0.9879
0.988724 0.98703 0.98938
0.196429 0.957473 0.954711
0.19649 0.957671 0.954421
0.196582 0.95787 0.953948
0.196689 0.958282 0.952819
0.198169 0.959258 0.950149
0.613931 0.969009 0.958099
0.920531 0.982406 0.977234
0.987579 0.989029 0.990356
0.993667 0.989212 0.991135
0 0.212879 0.816449
0 0.212879 0.816449
0 0.212879 0.816449
0.19852 0.119295 0.876341
0.59617 0.162341 0.917815
0.961151 0.128603 0.946624
0.977508 0.126925 0.945571
0.977508 0.126925 0.945571
0.977508 0.126925 0.945571
0 0.212879 0.816449
0 0.212879 0.816449
0 0.212879 0.816449
0.172473 0.130755 0.871275
0.584924 0.158755 0.91696
0.955322 0.129061 0.946761
0.977508 0.126925 0.945571
0.977508 0.126925 0.945571
0.977508 0.126925 0.945571
0 0.212879 0.816449
0 0.212879 0.816449
0 0.212879 0.816449
0.128649 0.148074 0.86569
0.566705 0.152743 0.915785
0.944823 0.129931 0.946838
0.977508 0.126925 0.945571
0.977508 0.126925 0.945571
0.977508 0.126925 0.945571
0 0.212879 0.816449
0 0.212879 0.816449
0 0.212879 0.816449
0 0.186099 0.843183
0.51667 0.135134 0.912276
0.91194 0.133944 0.946044
0.977508 0.126925 0.945571
0.977508 0.126925 0.945571
0.977508 0.126925 0.945571
0 0.464012 0.828077
0 0.462318 0.827665
0 0.459815 0.827237
0 0.452735 0.825574
0.426581 0.418662 0.922896
0.844266 0.408789 0.9738
0.975235 0.35848 0.965286
0.974182 0.342245 0.963592
0.973571 0.3355 0.962676
0 0.705135 0.893477
0 0.704005 0.892897
0 0.702129 0.891966
0 0.697292 0.889708
0.132372 0.704616 0.908049
0.7243 0.711666 0.96611
0.981262 0.708522 0.981765
0.98204 0.69839 0.98204
0.982147 0.695216 0.982147
0.179385 0.881575 0.944411
0.178836 0.87982 0.944045
0.178058 0.877165 0.943542
0.17586 0.87042 0.94226
0.170855 0.855299 0.939239
0.669917 0.880858 0.9561
0.916197 0.910887 0.97348
0.977661 0.909865 0.977661
0.977371 0.907256 0.977371
0.193042 0.955779 0.959274
0.193042 0.955779 0.959274
0.193042 0.955779 0.959274
0.193042 0.955779 0.959274
0.193042 0.955779 0.959274
0.612116 0.957305 0.964569
0.913924 0.969726 0.977569
0.984314 0.983551 0.987869
0.987991 0.982422 0.987991
0.193042 0.955779 0.959274
0.193042 0.955779 0.959274
0.193042 0.955779 0.959274
0.193042 0.955779 0.959274
0.193042 0.955779 0.959274
0.55993 0.965148 0.965103
0.891783 0.978927 0.978912
0.982727 0.989609 0.989609
0.991394 0.991394 0.991394
