bundles/resolve-cinematic-luts/Phantom Luts/DJI/DJI Phntm ARRI LUTs - G3/Mavic 3 D-Log/Neutral Mavic 3.cube
TITLE "Generated by Resolve"
LUT_3D_SIZE 5
0.0179751 0.0179751 0.0180056
0.220111 0.0265049 0.0237888
0.657435 0.0695048 0.0898604
0.931197 0.0963149 0.126024
0.931197 0.0963149 0.126024
0.0506142 0.175967 0.0525978
0.172793 0.17464 0.0228428
0.646876 0.132113 0.0902419
0.931197 0.0963149 0.126024
0.931197 0.0963149 0.126024
0.208865 0.608301 0.213962
0.20676 0.604303 0.211749
0.633188 0.62533 0.118181
0.990311 0.647395 0.152026
0.992859 0.634485 0.155169
0.40676 0.938582 0.437018
0.40676 0.938582 0.437018
0.530968 0.934386 0.461799
0.967086 0.966384 0.419577
0.967041 0.966384 0.40763
0.40676 0.938582 0.437018
0.40676 0.938582 0.437018
0.40676 0.938582 0.437018
0.934401 0.963409 0.399603
0.967041 0.966384 0.40763
0.0155489 0.0237736 0.14696
0.238849 0.0213016 0.159136
0.717266 0.104036 0.225757
0.980285 0.1149 0.219257
0.966033 0.11339 0.195575
0.0283513 0.159945 0.151461
0.15349 0.15349 0.15349
0.695567 0.12668 0.194232
0.948928 0.110964 0.167041
0.935836 0.0986648 0.132403
0.203647 0.598306 0.208743
0.201648 0.594156 0.206485
0.630167 0.61445 0.115114
0.992584 0.635889 0.154849
0.995041 0.622248 0.157671
0.40676 0.938582 0.437018
0.40676 0.938582 0.437018
0.52195 0.934829 0.460197
0.967102 0.9664 0.419715
0.967041 0.966384 0.40763
0.40676 0.938582 0.437018
0.40676 0.938582 0.437018
0.40676 0.938582 0.437018
0.932082 0.963211 0.396719
0.967041 0.966384 0.40763
0 0.0705577 0.527565
0.106477 0.0114443 0.559213
0.715541 0.0677043 0.559899
0.969253 0.0775464 0.590768
0.97023 0.0775616 0.586954
0 0.0686961 0.519188
0.0153964 0.0531624 0.532021
0.693736 0.0637217 0.551354
0.971527 0.0776226 0.581949
0.972519 0.0777447 0.577966
0.103334 0.574746 0.558663
0.101656 0.569818 0.555932
0.584421 0.584405 0.584466
1 0.590417 0.580713
1 0.575021 0.575143
0.409537 0.954681 0.619715
0.410513 0.954437 0.618647
0.494316 0.94876 0.626612
0.960693 0.967758 0.609705
0.969299 0.963073 0.574426
0.42562 0.949889 0.601709
0.426505 0.949615 0.600488
0.431693 0.947921 0.594278
0.921569 0.962493 0.561288
0.968185 0.967025 0.510414
0 0.212879 0.816449
0 0.212879 0.816449
0.608896 0.16527 0.918944
0.977508 0.126925 0.945571
0.977508 0.126925 0.945571
0 0.212879 0.816449
0 0.212879 0.816449
0.579538 0.157015 0.916533
0.977508 0.126925 0.945571
0.977508 0.126925 0.945571
0 0.490532 0.834653
0 0.486427 0.833585
0.451499 0.456016 0.923079
0.978882 0.401816 0.955947
0.977386 0.381109 0.950057
0.209232 0.92932 0.907134
0.208347 0.926299 0.905547
0.202564 0.910201 0.8963
0.938628 0.938613 0.938659
0.9823 0.942443 0.93817
0.228321 0.967803 0.902922
0.228702 0.967819 0.901839
0.230564 0.967544 0.895949
0.939605 0.982651 0.952255
0.987762 0.987594 0.951385
0 0.212879 0.816449
0 0.212879 0.816449
0.59617 0.162341 0.917815
0.977508 0.126925 0.945571
0.977508 0.126925 0.945571
0 0.212879 0.816449
0 0.212879 0.816449
0.566705 0.152743 0.915785
0.977508 0.126925 0.945571
0.977508 0.126925 0.945571
0 0.464012 0.828077
0 0.459815 0.827237
0.426581 0.418662 0.922896
0.975235 0.35848 0.965286
0.973571 0.3355 0.962676
0.179385 0.881575 0.944411
0.178058 0.877165 0.943542
0.170855 0.855299 0.939239
0.916197 0.910887 0.97348
0.977371 0.907256 0.977371
0.193042 0.955779 0.959274
0.193042 0.955779 0.959274
0.193042 0.955779 0.959274
0.891783 0.978927 0.978912
0.991394 0.991394 0.991394
