bundles/resolve-cinematic-luts/Phantom Luts/DJI/DJI Phntm ARRI LUTs - G3/Mavic 3 D-Log/Utopia Mavic 3.cube
TITLE "Generated by Resolve"
LUT_3D_SIZE 5
0.00598154 0.0318456 0.0403754
0.182162 0.0292973 0.0315862
0.599557 0.0659953 0.0681773
0.820935 0.11931 0.120333
0.82417 0.118502 0.119371
0.0159609 0.173526 0.043473
0.153506 0.164935 0.0415351
0.612192 0.128283 0.0872358
0.826856 0.117815 0.118608
0.828504 0.117403 0.118227
0.183001 0.650172 0.167956
0.181933 0.648249 0.166781
0.667704 0.612497 0.153445
0.963699 0.646082 0.210773
0.964477 0.636042 0.21239
0.417197 0.988922 0.40589
0.41825 0.988861 0.405753
0.572686 0.975982 0.433814
0.999207 0.941543 0.46334
0.999512 0.9411 0.454322
0.418067 0.988876 0.405783
0.417517 0.988907 0.405844
0.444312 0.987854 0.409888
0.978317 0.939651 0.445624
0.999481 0.941131 0.454276
0 0.0423438 0.143465
0.188052 0.0282902 0.145281
0.660334 0.103243 0.191089
0.875807 0.140383 0.192096
0.862852 0.136004 0.171099
0 0.156344 0.156558
0.118761 0.151095 0.159258
0.652064 0.126192 0.164477
0.851514 0.13225 0.151492
0.835843 0.119234 0.122667
0.177356 0.640833 0.163378
0.176318 0.638392 0.162127
0.664302 0.603174 0.150149
0.964599 0.636454 0.211582
0.965743 0.625696 0.213169
0.417182 0.988922 0.405905
0.417411 0.988907 0.405859
0.56553 0.976852 0.43212
0.999222 0.941573 0.463447
0.999512 0.9411 0.454322
0.418143 0.988876 0.405768
0.417517 0.988907 0.405844
0.442725 0.98793 0.409644
0.976059 0.939635 0.443381
0.999481 0.941131 0.454276
0 0.103578 0.485725
0 0.0512551 0.52604
0.620066 0.0856489 0.49369
0.844556 0.118334 0.505837
0.845045 0.118364 0.503426
0 0.102525 0.482475
0 0.0864271 0.500496
0.607141 0.0822309 0.491829
0.846998 0.117647 0.503166
0.845121 0.118563 0.499535
0.0307012 0.602823 0.573541
0.0294652 0.600076 0.572946
0.580865 0.594797 0.585931
0.988388 0.593851 0.560006
0.987518 0.581537 0.554086
0.379034 0.996109 0.601938
0.379797 0.996201 0.601633
0.49427 0.992981 0.607736
0.986938 0.950851 0.624475
0.995132 0.9449 0.595346
0.398596 0.995392 0.584527
0.398993 0.995377 0.584787
0.414252 0.99498 0.579385
0.95494 0.947509 0.587961
0.997406 0.946517 0.549615
0 0.272114 0.717586
0 0.271626 0.716136
0.481468 0.206271 0.866697
0.834211 0.188388 0.833127
0.836973 0.186892 0.836561
0 0.272053 0.717098
0 0.27187 0.715587
0.458335 0.200793 0.865095
0.836683 0.187396 0.8365
0.837537 0.186999 0.837583
0 0.542763 0.757931
0 0.540795 0.7561
0.358389 0.524392 0.918212
0.921736 0.450874 0.906615
0.917464 0.435019 0.899184
0.161532 0.947341 0.908858
0.163088 0.944579 0.907317
0.162814 0.93225 0.901839
0.939742 0.938399 0.932174
0.983322 0.942412 0.927459
0.179706 0.982574 0.90483
0.181903 0.982147 0.903944
0.181933 0.982208 0.898894
0.937591 0.983047 0.943542
0.989868 0.984237 0.94757
0 0.272129 0.717708
0 0.271946 0.716213
0.466819 0.203098 0.865644
0.835157 0.188113 0.834546
0.837217 0.187152 0.837171
0 0.272084 0.717281
0 0.271839 0.715358
0.443412 0.196704 0.863767
0.837156 0.187182 0.83711
0.837873 0.186847 0.838026
0 0.522103 0.753048
0 0.519875 0.751171
0.31693 0.490501 0.918227
0.906264 0.413504 0.918639
0.900954 0.396307 0.913893
0.129915 0.900816 0.947127
0.130816 0.897612 0.94548
0.129061 0.879484 0.941619
0.900969 0.917388 0.973999
0.972183 0.911223 0.97351
0.147707 0.971511 0.964202
0.14902 0.971267 0.963668
0.148501 0.971359 0.963882
0.882124 0.981796 0.98024
0.989258 0.989548 0.989639
