bundles/resolve-cinematic-luts/Phantom Luts/DJI/DJI Phntm ARRI LUTs - G3/Mavic 3 D-Log/Utopia Mavic 3.cube
TITLE "Generated by Resolve"
LUT_3D_SIZE 65
0.00598154 0.0318456 0.0403754
0.00598154 0.0318456 0.0403601
0.00596628 0.0318303 0.0403449
0.00595102 0.0318151 0.0403296
0.0100862 0.0315404 0.039765
0.0196078 0.0311589 0.0398108
0.0323491 0.0304417 0.0406806
0.0461585 0.0295415 0.0384375
0.0609903 0.0290379 0.0369726
0.0741131 0.0286564 0.0355688
0.0857404 0.0283055 0.0344854
0.0986038 0.0285496 0.034165
0.112245 0.028336 0.0334936
0.127794 0.0286564 0.0331273
0.144335 0.0285801 0.0322423
0.162478 0.0289311 0.0318456
0.182162 0.0292973 0.0315862
0.203128 0.0296635 0.0311742
0.22594 0.0303044 0.0311894
0.250568 0.0307774 0.030869
0.275731 0.030808 0.0302586
0.301442 0.0310826 0.0298924
0.327718 0.0317235 0.0301976
0.354192 0.0328069 0.030808
0.381216 0.0341497 0.0319371
0.408759 0.0355993 0.033341
0.436698 0.0376135 0.0354467
0.465248 0.0403143 0.038407
0.491936 0.0439765 0.0424659
0.518608 0.0483406 0.0479133
0.545678 0.0537728 0.0542458
0.572869 0.0597543 0.0612345
0.599557 0.0659953 0.0681773
0.626978 0.0725567 0.0755932
0.65481 0.0781109 0.0829175
0.684413 0.0827497 0.0895705
0.715892 0.0872663 0.0959487
0.748791 0.0946059 0.103075
0.779507 0.103609 0.109636
0.806378 0.112322 0.115587
0.822202 0.117815 0.118822
0.824277 0.118471 0.119356
0.824414 0.118425 0.119295
0.824308 0.118456 0.119341
0.823926 0.118563 0.119448
0.82327 0.118715 0.119646
0.822431 0.118929 0.11989
0.821607 0.119142 0.120134
0.820935 0.11931 0.120333
0.820478 0.119417 0.12047
0.820127 0.119509 0.120562
0.819959 0.119539 0.120623
0.819898 0.11957 0.120638
0.819883 0.11957 0.120638
0.819867 0.11957 0.120638
0.819852 0.11957 0.120653
0.819852 0.119585 0.120653
0.819837 0.119585 0.120653
0.819837 0.119585 0.120653
0.819837 0.119585 0.120653
0.819913 0.119554 0.120638
0.820356 0.119448 0.1205
0.821103 0.119265 0.120272
0.822385 0.118944 0.11989
0.82417 0.118502 0.119371
0.00595102 0.0317998 0.0403143
0.00596628 0.0318151 0.0403296
0.00596628 0.0318151 0.0403296
0.00595102 0.0318151 0.0403296
0.00669871 0.0317845 0.040238
0.0160372 0.0313115 0.0395361
0.0280156 0.0306859 0.0407111
0.0418708 0.0298466 0.0391241
0.0565499 0.0291295 0.0373999
0.0700694 0.028809 0.0360113
0.0821393 0.0283055 0.0346685
0.095079 0.0285039 0.0342565
0.108873 0.0282444 0.0335241
0.124514 0.0286412 0.0332494
0.141176 0.0286107 0.0323796
0.160067 0.0290074 0.0320439
0.179675 0.0291905 0.0315404
0.200626 0.0295567 0.0311284
0.22388 0.0304112 0.0314183
0.248478 0.0306859 0.0308385
0.273747 0.0307622 0.0302434
0.299687 0.0310521 0.0299077
0.326192 0.031754 0.0302434
0.352956 0.0328985 0.03093
0.380026 0.034165 0.0319524
0.407553 0.0355535 0.0333104
0.435615 0.0375677 0.0354314
0.464347 0.040238 0.0383459
0.491279 0.0439612 0.0424353
0.517922 0.048249 0.0477607
0.545129 0.0536965 0.0541238
0.572366 0.0596475 0.0611429
0.599191 0.0658885 0.068101
0.626566 0.0724041 0.0754711
0.65449 0.0780041 0.0827497
0.683955 0.0826581 0.0894484
0.71545 0.0872053 0.0959335
0.748348 0.0944839 0.102998
0.779156 0.103517 0.109575
0.806043 0.1122 0.115465
0.821897 0.117662 0.118715
0.824308 0.118456 0.119326
0.824567 0.118395 0.119265
0.824643 0.118379 0.119234
0.824491 0.11841 0.11928
0.824094 0.118517 0.119387
0.823468 0.118669 0.11957
0.822675 0.118868 0.119814
0.821851 0.119081 0.120058
0.821103 0.119265 0.120287
0.82063 0.119387 0.120409
0.820233 0.119478 0.120531
0.820035 0.119539 0.120592
0.819944 0.119554 0.120607
0.819928 0.119554 0.120623
0.819928 0.119554 0.120623
0.819928 0.119554 0.120623
0.819928 0.119554 0.120623
0.819928 0.119554 0.120623
0.819928 0.119554 0.120623
0.82002 0.119539 0.120592
0.820462 0.119432 0.12047
0.82121 0.119234 0.120256
0.822507 0.118914 0.119875
0.824384 0.118441 0.11931
0.00595102 0.0318151 0.0403296
0.00596628 0.0318303 0.0403449
0.00596628 0.0318303 0.0403601
0.00596628 0.0318303 0.0403601
0.00596628 0.0318303 0.0403449
0.0129549 0.0315557 0.0396735
0.0238041 0.0309606 0.0403754
0.0375525 0.0300755 0.0400244
0.0513161 0.0293736 0.0379797
0.0653391 0.0289921 0.0365454
0.0785229 0.0283055 0.0348821
0.0916609 0.0283818 0.0343175
0.10576 0.028336 0.0336767
0.121492 0.0284886 0.0332647
0.13817 0.0284733 0.0324102
0.156985 0.0289616 0.032105
0.176822 0.0291142 0.0315709
0.198123 0.0294652 0.0310826
0.221744 0.030396 0.0314641
0.246448 0.0305943 0.030808
0.272023 0.0306554 0.0301518
0.297963 0.0309453 0.0298772
0.324804 0.0317082 0.0302281
0.351736 0.0329595 0.0309911
0.378851 0.0340887 0.0319066
0.406317 0.0355077 0.0333104
0.434546 0.0374762 0.0353399
0.463416 0.0401312 0.0382391
0.490517 0.043946 0.042359
0.517174 0.0481575 0.0476081
0.544564 0.0535592 0.0539254
0.571801 0.0595407 0.0609751
0.598749 0.0658274 0.0680095
0.626093 0.0722972 0.0753796
0.654078 0.0778821 0.0826123
0.683604 0.0825666 0.0892958
0.715145 0.0871748 0.0959029
0.747921 0.094377 0.102937
0.778759 0.103395 0.109499
0.805722 0.112062 0.115343
0.821622 0.117556 0.118639
0.824338 0.118456 0.119326
0.824598 0.118379 0.119249
0.824765 0.118349 0.119188
0.824781 0.118334 0.119188
0.824613 0.118379 0.119249
0.824247 0.118486 0.119356
0.823667 0.118624 0.119509
0.822919 0.118807 0.119753
0.82208 0.11902 0.119982
0.821286 0.119219 0.120226
0.820737 0.119356 0.120378
0.820325 0.119463 0.120516
0.820081 0.119524 0.120577
0.819959 0.119539 0.120623
0.819928 0.119554 0.120607
0.819944 0.119554 0.120623
0.819944 0.119554 0.120623
0.819944 0.119554 0.120623
0.819928 0.119554 0.120607
0.820035 0.119539 0.120592
0.820478 0.119417 0.12047
0.821225 0.119234 0.120241
0.822522 0.118914 0.11986
0.824399 0.118441 0.11931
0.00595102 0.0318151 0.0403296
0.00596628 0.0318303 0.0403449
0.00596628 0.0318303 0.0403601
0.00596628 0.0318303 0.0403601
0.00596628 0.0318303 0.0403449
0.00999466 0.0315709 0.0397955
0.0196994 0.0312047 0.0398413
0.0324865 0.0304723 0.0406958
0.0462348 0.029572 0.038468
0.0609903 0.0290837 0.0369879
0.0749065 0.0286107 0.035462
0.0880903 0.0283665 0.0344701
0.102602 0.0285954 0.0341344
0.11809 0.0285039 0.0334325
0.135286 0.0284886 0.0325475
0.154208 0.0288701 0.0320439
0.174197 0.0289921 0.0315404
0.195972 0.029572 0.031281
0.219364 0.030396 0.0315251
0.244114 0.0305791 0.0308995
0.269947 0.0306096 0.0301518
0.296437 0.0308232 0.0298009
0.323308 0.0317693 0.0303197
0.350423 0.0329137 0.0309911
0.377752 0.0339513 0.0318151
0.405142 0.035462 0.0332647
0.433585 0.0373999 0.0352636
0.46247 0.0400549 0.0381628
0.489693 0.0439307 0.042359
0.516472 0.0480507 0.0474708
0.543923 0.0534218 0.0537423
0.571267 0.0593576 0.0608072
0.598383 0.0657816 0.0679484
0.625589 0.0721904 0.0752728
0.65362 0.0777905 0.082475
0.683284 0.0824903 0.0892195
0.714794 0.0871138 0.0959029
0.747509 0.0942092 0.102815
0.778378 0.103243 0.109377
0.805432 0.11191 0.115206
0.821317 0.117433 0.118578
0.824353 0.118456 0.11931
0.824613 0.118379 0.119234
0.824781 0.118334 0.119188
0.824857 0.118318 0.119173
0.824826 0.118334 0.119173
0.824643 0.118379 0.119249
0.824277 0.118471 0.119356
0.823713 0.118608 0.119509
0.822965 0.118791 0.119738
0.82211 0.11902 0.119982
0.821302 0.119203 0.120226
0.820752 0.119356 0.120378
0.820325 0.119463 0.1205
0.820081 0.119524 0.120577
0.819974 0.119539 0.120623
0.819928 0.119554 0.120607
0.819944 0.119554 0.120623
0.819944 0.119554 0.120623
0.819928 0.119554 0.120607
0.820035 0.119539 0.120592
0.820478 0.119417 0.12047
0.821225 0.119234 0.120241
0.822507 0.118914 0.11986
0.824399 0.118441 0.119295
0.00595102 0.0318151 0.0403296
0.00596628 0.0318303 0.0403449
0.00596628 0.0318303 0.0403601
0.00596628 0.0318303 0.0403601
0.00596628 0.0318303 0.0403449
0.00650034 0.0318303 0.0402838
0.0160678 0.0313268 0.0395514
0.0280613 0.0306859 0.0407568
0.0418402 0.0298466 0.0391394
0.0564736 0.02916 0.0374456
0.0710307 0.028809 0.035935
0.0846418 0.028336 0.0345922
0.0993515 0.0285344 0.034165
0.114778 0.0284428 0.0335241
0.132479 0.0287327 0.0329595
0.151308 0.0288243 0.0321202
0.171542 0.0288548 0.0314794
0.193576 0.0297246 0.0315251
0.216922 0.0302892 0.0315099
0.241733 0.0305638 0.03093
0.267796 0.0305943 0.0301823
0.294621 0.0308385 0.0298619
0.321965 0.0318303 0.030396
0.348898 0.0328222 0.0309453
0.376471 0.0338445 0.031754
0.404135 0.0353552 0.0331579
0.432547 0.0373236 0.035172
0.461616 0.0399634 0.0380407
0.488853 0.0438392 0.0422675
0.51577 0.0479591 0.0473335
0.543236 0.0533608 0.0536355
0.570764 0.059266 0.0606699
0.598001 0.0657359 0.0679026
0.625193 0.0721141 0.0751354
0.653223 0.0777752 0.0823682
0.682918 0.082536 0.0891432
0.714488 0.087068 0.0958572
0.747173 0.0939956 0.102647
0.777996 0.103075 0.109224
0.805097 0.111772 0.115084
0.821057 0.117311 0.118517
0.824369 0.118441 0.11931
0.824628 0.118379 0.119249
0.824796 0.118334 0.119188
0.824887 0.118318 0.119158
0.824887 0.118303 0.119158
0.824842 0.118318 0.119173
0.824659 0.118379 0.119219
0.824292 0.118456 0.119341
0.823728 0.118608 0.119493
0.82298 0.118791 0.119738
0.822126 0.119005 0.119982
0.821317 0.119219 0.120211
0.820752 0.119356 0.120378
0.820325 0.119463 0.1205
0.820081 0.119524 0.120577
0.819974 0.119539 0.120623
0.819928 0.119554 0.120607
0.819944 0.119554 0.120623
0.819928 0.119554 0.120607
0.820035 0.119539 0.120592
0.820478 0.119417 0.12047
0.821225 0.119234 0.120241
0.822507 0.118914 0.11986
0.824414 0.118425 0.119295
0.00698863 0.033814 0.0414435
0.00691234 0.0336004 0.0413672
0.0068513 0.0333867 0.0412757
0.00666819 0.033051 0.0410773
0.0065156 0.0327306 0.0408789
0.00631724 0.0323949 0.0406958
0.0129702 0.0319066 0.039704
0.0238651 0.0310674 0.0403601
0.0375372 0.0301671 0.0400397
0.0511635 0.0294652 0.0380102
0.0662699 0.0290379 0.0364691
0.0809796 0.0283665 0.0347448
0.0958419 0.0285649 0.0342565
0.111681 0.0283818 0.0335393
0.129595 0.0287327 0.0330663
0.148211 0.0287633 0.0322271
0.168673 0.0287785 0.0315099
0.191058 0.0296635 0.0315557
0.214466 0.0302434 0.0314946
0.239704 0.0304265 0.0308537
0.26569 0.030518 0.0301823
0.292836 0.030869 0.0299687
0.320623 0.0318303 0.0304265
0.347417 0.0327916 0.03093
0.375158 0.0337987 0.0317235
0.40293 0.0352789 0.0330816
0.431449 0.0372473 0.0350805
0.460746 0.0398718 0.0379339
0.48809 0.0437476 0.0421607
0.515053 0.0479286 0.0472419
0.54255 0.0532235 0.0534524
0.570199 0.0591897 0.0605936
0.597543 0.0657054 0.0679026
0.62475 0.0719768 0.0749676
0.65275 0.0776532 0.0822156
0.682506 0.0824598 0.0890516
0.714122 0.0869764 0.0957809
0.746761 0.093843 0.102525
0.77763 0.102922 0.109117
0.804746 0.111635 0.114977
0.820813 0.117174 0.118441
0.824399 0.118441 0.11931
0.824643 0.118379 0.119219
0.824811 0.118334 0.119188
0.824903 0.118303 0.119158
0.824918 0.118303 0.119158
0.824903 0.118303 0.119158
0.824857 0.118318 0.119173
0.824689 0.118364 0.119219
0.824338 0.118456 0.119326
0.823789 0.118593 0.119478
0.823056 0.118776 0.119692
0.822202 0.11899 0.119951
0.821393 0.119188 0.120195
0.820798 0.119341 0.120363
0.820371 0.119448 0.1205
0.820096 0.119524 0.120577
0.819974 0.119554 0.120607
0.819928 0.119554 0.120607
0.819928 0.119554 0.120607
0.820035 0.119539 0.120592
0.820493 0.119417 0.12047
0.821225 0.119234 0.120241
0.822522 0.118914 0.11986
0.824445 0.118425 0.119295
0.00923171 0.0391241 0.0441444
0.00921645 0.0387884 0.0440833
0.00907912 0.0383612 0.0439307
0.0089723 0.0379492 0.0437629
0.00880446 0.0375525 0.0435798
0.00868238 0.0371405 0.0433967
0.0111696 0.0367285 0.0428779
0.0206149 0.0369268 0.0405127
0.0298161 0.0378424 0.0395972
0.0442817 0.0373541 0.0390021
0.0614328 0.0358587 0.0374609
0.0790265 0.0337835 0.0360113
0.0940414 0.032166 0.0347906
0.110124 0.0315251 0.0342412
0.127321 0.0306859 0.0334173
0.146075 0.029984 0.0325933
0.166064 0.0292058 0.0316472
0.188556 0.0297093 0.0315862
0.212024 0.0302434 0.0314488
0.237369 0.0304417 0.0308843
0.263859 0.030457 0.0301213
0.291112 0.0308537 0.029984
0.31899 0.0318151 0.0304417
0.346227 0.0326696 0.030808
0.373754 0.033753 0.0317082
0.401892 0.0351873 0.0329595
0.430365 0.0371557 0.0349889
0.459709 0.0397498 0.0378424
0.487358 0.043595 0.0420081
0.514412 0.0478981 0.0471809
0.541955 0.0531167 0.0532845
0.569604 0.059144 0.0605325
0.597086 0.0656901 0.0678721
0.624292 0.0719005 0.0748455
0.652354 0.0775464 0.0820783
0.682139 0.0823529 0.0888991
0.713817 0.0868238 0.0956741
0.746426 0.0936294 0.102388
0.777325 0.102708 0.108949
0.804471 0.111452 0.114809
0.820661 0.117052 0.118349
0.824475 0.11841 0.11928
0.824689 0.118364 0.119219
0.824842 0.118318 0.119173
0.824903 0.118303 0.119158
0.824933 0.118303 0.119158
0.824933 0.118303 0.119158
0.824918 0.118303 0.119158
0.824872 0.118318 0.119173
0.82472 0.118349 0.119203
0.824399 0.118441 0.11931
0.82388 0.118578 0.119463
0.823163 0.118746 0.119677
0.822309 0.118959 0.119921
0.821469 0.119173 0.12018
0.820859 0.119326 0.120348
0.820417 0.119448 0.120485
0.820111 0.119509 0.120577
0.819974 0.119539 0.120607
0.819944 0.119554 0.120623
0.820035 0.119539 0.120592
0.820493 0.119417 0.12047
0.821241 0.119234 0.120241
0.822538 0.118898 0.11986
0.824475 0.11841 0.11928
0.010956 0.0462501 0.0462043
0.0106661 0.0457923 0.0459449
0.010544 0.0452888 0.0457923
0.0104829 0.0447089 0.0457465
0.0103914 0.0441749 0.045655
0.0104067 0.0437171 0.045655
0.0105287 0.0432441 0.0456092
0.0169528 0.0438392 0.0443275
0.0291752 0.0442512 0.041474
0.038941 0.0458839 0.0383764
0.0514534 0.0465553 0.0384375
0.0670481 0.0470436 0.0380255
0.0867323 0.0452277 0.0375219
0.106615 0.0425727 0.0362554
0.126604 0.0392309 0.0348211
0.146654 0.036408 0.033753
0.166979 0.0355077 0.0330816
0.188113 0.0344854 0.0322881
0.211048 0.0340887 0.032166
0.235782 0.0331273 0.0315709
0.262074 0.0315557 0.0304112
0.289342 0.0311589 0.0300603
0.317357 0.0318151 0.030396
0.344762 0.0326085 0.0307469
0.372335 0.0337224 0.031693
0.400732 0.0350958 0.0328679
0.429313 0.0370642 0.0348974
0.458671 0.039704 0.0377661
0.486488 0.0434882 0.0419165
0.513741 0.0478523 0.0471351
0.541238 0.0529946 0.0531319
0.568994 0.0590829 0.0604715
0.596597 0.0656748 0.0678569
0.62385 0.0718395 0.0747082
0.652003 0.0774701 0.0819409
0.681895 0.0822309 0.0887617
0.713619 0.0865644 0.0954604
0.746303 0.0934157 0.10219
0.777264 0.102495 0.108766
0.80441 0.111254 0.114626
0.82063 0.116899 0.118242
0.824613 0.118379 0.119234
0.824765 0.118349 0.119188
0.824872 0.118318 0.119158
0.824933 0.118303 0.119158
0.824933 0.118303 0.119142
0.824933 0.118303 0.119142
0.824933 0.118303 0.119158
0.824918 0.118303 0.119158
0.824887 0.118318 0.119158
0.82475 0.118349 0.119203
0.82446 0.118425 0.11928
0.823972 0.118547 0.119448
0.82327 0.118715 0.119646
0.822431 0.118929 0.11989
0.821576 0.119142 0.12015
0.82092 0.11931 0.120333
0.820462 0.119432 0.12047
0.820127 0.119509 0.120562
0.819974 0.119539 0.120607
0.820035 0.119539 0.120592
0.820493 0.119417 0.12047
0.821256 0.119219 0.120241
0.822568 0.118898 0.11986
0.824521 0.11841 0.11928
0.0111238 0.0551766 0.0474556
0.0112306 0.0546426 0.0475624
0.0111696 0.0540169 0.0474861
0.0111238 0.0532998 0.047425
0.0110933 0.0526131 0.0473335
0.0108186 0.052018 0.0469978
0.0108644 0.0513924 0.0469215
0.0156863 0.0512245 0.0474403
0.0228733 0.0529946 0.0438697
0.0387427 0.0530861 0.0404669
0.0532845 0.0535134 0.0399176
0.0653849 0.0556039 0.0387579
0.0813611 0.0556802 0.0384527
0.0985275 0.0557717 0.0384527
0.119493 0.0535592 0.0376898
0.142992 0.049836 0.0364996
0.166644 0.0456092 0.0349584
0.189685 0.0421454 0.0333562
0.212375 0.04094 0.0326696
0.236408 0.039765 0.032929
0.262226 0.0384222 0.032166
0.288945 0.0364843 0.03122
0.315862 0.0347448 0.0307317
0.343526 0.0335699 0.0309606
0.37116 0.0337987 0.0316625
0.399481 0.0350347 0.0328222
0.428336 0.0369573 0.0347753
0.457801 0.0395819 0.0376135
0.485679 0.0433814 0.0417945
0.513207 0.0478523 0.0470741
0.540276 0.0531472 0.053315
0.56817 0.0591592 0.0604105
0.596048 0.0656443 0.0677501
0.623529 0.0717784 0.0745861
0.651835 0.0773327 0.0817578
0.681773 0.0820325 0.0885481
0.713481 0.0862745 0.0952316
0.746151 0.0931868 0.102007
0.777005 0.102342 0.108644
0.804028 0.111116 0.114504
0.820294 0.116854 0.118227
0.824338 0.118456 0.119326
0.824399 0.118441 0.11931
0.824445 0.118425 0.119295
0.82446 0.11841 0.11928
0.824475 0.11841 0.11928
0.824475 0.11841 0.11928
0.824475 0.11841 0.11928
0.824475 0.11841 0.11928
0.824475 0.11841 0.11928
0.824445 0.118425 0.119295
0.824338 0.118456 0.119326
0.824063 0.118517 0.119402
0.823621 0.118639 0.119539
0.82295 0.118791 0.119738
0.822141 0.119005 0.119982
0.821286 0.119219 0.120226
0.820661 0.119371 0.120409
0.820111 0.119509 0.120577
0.81976 0.1196 0.120668
0.819638 0.119646 0.120714
0.819776 0.1196 0.120668
0.820157 0.119493 0.120562
0.820722 0.119371 0.120394
0.821424 0.119188 0.12018
0.0113069 0.0648356 0.0483253
0.0113375 0.0641184 0.0482948
0.0114748 0.0635996 0.0483864
0.0116274 0.0630045 0.0485084
0.0115663 0.0622873 0.0484016
0.01149 0.0615396 0.0482795
0.0115358 0.060853 0.048249
0.0140688 0.0603799 0.0488594
0.0209964 0.0611429 0.0477607
0.0296788 0.0634318 0.0417792
0.052781 0.0618448 0.0404212
0.0699779 0.0628824 0.0403449
0.0817121 0.0651408 0.0386053
0.0995346 0.0654154 0.0390784
0.118761 0.0642405 0.0391089
0.140276 0.0632486 0.0389105
0.163607 0.0602579 0.0376135
0.188449 0.0551919 0.0364538
0.21384 0.0496529 0.0349889
0.238422 0.0473182 0.0340276
0.264149 0.0462806 0.0337072
0.290486 0.04448 0.0325933
0.317662 0.0425422 0.0331426
0.343984 0.0403906 0.0326085
0.37084 0.0382239 0.0324254
0.39881 0.0366827 0.0331121
0.427512 0.0371557 0.0346838
0.456947 0.0394293 0.0373999
0.484886 0.0432441 0.0416571
0.512489 0.0478218 0.0470283
0.539757 0.0529183 0.0530556
0.567712 0.0589914 0.0602274
0.595621 0.0655222 0.0677043
0.623194 0.0717021 0.0745251
0.651545 0.0772564 0.08159
0.681514 0.0819715 0.0883803
0.713405 0.0861372 0.095079
0.746151 0.092958 0.101778
0.777111 0.102113 0.108431
0.804196 0.110872 0.114275
0.820462 0.11667 0.118105
0.824582 0.118395 0.119265
0.824506 0.11841 0.11928
0.824475 0.11841 0.11928
0.824475 0.11841 0.11928
0.824475 0.11841 0.11928
0.824475 0.11841 0.11928
0.824475 0.11841 0.11928
0.824475 0.11841 0.11928
0.824475 0.11841 0.11928
0.824475 0.11841 0.11928
0.82446 0.118425 0.119295
0.824369 0.118441 0.11931
0.824125 0.118502 0.119387
0.823697 0.118608 0.119509
0.823072 0.118776 0.119692
0.822278 0.118975 0.119936
0.821408 0.119188 0.12018
0.820752 0.119356 0.120378
0.820203 0.119493 0.120546
0.819852 0.11957 0.120653
0.819852 0.11957 0.120653
0.820172 0.119493 0.120562
0.820722 0.119356 0.120394
0.821424 0.119188 0.12018
0.0117647 0.0762341 0.0487068
0.0117952 0.0752422 0.0487526
0.0117494 0.0745556 0.0487984
0.0117189 0.0736095 0.0488746
0.0115511 0.0729229 0.0487221
0.0115358 0.0724956 0.0487373
0.0116579 0.0719158 0.0488746
0.0119326 0.0712139 0.0489052
0.0193332 0.0712596 0.0496376
0.0264897 0.0731823 0.0462043
0.0407874 0.0751659 0.0384375
0.0692454 0.072755 0.0422522
0.0867323 0.074052 0.0403449
0.0996414 0.0767224 0.0387732
0.120378 0.076173 0.0393683
0.142153 0.0747997 0.0397498
0.166049 0.0727855 0.0397803
0.190616 0.0699931 0.0389868
0.213779 0.0664378 0.0377508
0.24004 0.0608377 0.0373236
0.267216 0.0563516 0.0366217
0.293523 0.0541848 0.0359045
0.319936 0.0523079 0.0352331
0.346273 0.0501869 0.0346075
0.373053 0.0475929 0.0354467
0.400015 0.045594 0.0357671
0.427543 0.0431373 0.0363012
0.456413 0.0415198 0.0380865
0.484062 0.0433967 0.0416266
0.511681 0.0477302 0.0467842
0.538979 0.0527657 0.0528573
0.56701 0.0588693 0.0600748
0.594995 0.0654002 0.0675364
0.62266 0.0716259 0.0743877
0.651164 0.0771191 0.0814374
0.68127 0.0817884 0.0881819
0.713359 0.0859083 0.0948653
0.746303 0.0927291 0.101534
0.777432 0.101823 0.108156
0.804364 0.110567 0.114015
0.820722 0.116457 0.117937
0.824948 0.118303 0.119158
0.824735 0.118349 0.119203
0.824598 0.118379 0.119249
0.824521 0.118395 0.119265
0.824491 0.11841 0.11928
0.824475 0.11841 0.11928
0.824475 0.11841 0.11928
0.824475 0.11841 0.11928
0.824475 0.11841 0.11928
0.824475 0.11841 0.11928
0.824475 0.11841 0.11928
0.82446 0.118425 0.11928
0.824399 0.118441 0.11931
0.824186 0.118486 0.119371
0.823804 0.118593 0.119478
0.823209 0.11873 0.119661
0.822446 0.118929 0.119875
0.821591 0.119142 0.120134
0.820874 0.119326 0.120348
0.82034 0.119448 0.1205
0.820127 0.119509 0.120562
0.820279 0.119463 0.120531
0.820737 0.119356 0.120378
0.821439 0.119188 0.12018
0.012253 0.0890364 0.0490578
0.0122377 0.0883803 0.0491493
0.0121004 0.0876173 0.0490883
0.0120089 0.0869306 0.0490578
0.0119783 0.0863661 0.0491035
0.0120089 0.0857557 0.0491798
0.0120089 0.0849317 0.0492256
0.0120699 0.0842145 0.0491798
0.0166018 0.0841077 0.0502174
0.0245518 0.0852674 0.0493782
0.0350958 0.0876478 0.0423743
0.0556497 0.0885634 0.0369573
0.0855421 0.0853742 0.0428931
0.104067 0.0865644 0.0403449
0.120745 0.0892958 0.0393072
0.143328 0.0885481 0.0397345
0.16878 0.0867933 0.0407568
0.194202 0.0842908 0.0407874
0.220615 0.0808728 0.0402991
0.245335 0.0767529 0.0397955
0.270558 0.0728771 0.0394446
0.297826 0.067216 0.0394446
0.323919 0.064271 0.0388037
0.350164 0.0622416 0.0387427
0.375921 0.0597696 0.0383612
0.402686 0.0577554 0.0387579
0.430457 0.0548104 0.04065
0.45864 0.0525063 0.0419165
0.485252 0.0501411 0.0437476
0.511162 0.0494545 0.0470893
0.538369 0.0528267 0.0527657
0.566354 0.0586252 0.0598459
0.594308 0.0651713 0.0673381
0.621927 0.071458 0.0742046
0.650523 0.0769665 0.081239
0.680766 0.0816815 0.0879835
0.712902 0.0858473 0.0946975
0.745892 0.0925612 0.10135
0.777295 0.101625 0.108003
0.804334 0.110216 0.11371
0.821042 0.116228 0.117769
0.825467 0.118166 0.11899
0.825116 0.118257 0.119081
0.824857 0.118318 0.119173
0.824689 0.118364 0.119219
0.824582 0.118395 0.119265
0.824521 0.11841 0.11928
0.824491 0.11841 0.11928
0.824475 0.11841 0.11928
0.824475 0.11841 0.11928
0.824475 0.11841 0.11928
0.824475 0.11841 0.11928
0.824475 0.11841 0.11928
0.824475 0.11841 0.11928
0.824414 0.118425 0.119295
0.824262 0.118471 0.119356
0.823911 0.118563 0.119448
0.823377 0.1187 0.1196
0.822644 0.118883 0.119829
0.821805 0.119081 0.120073
0.821057 0.11928 0.120287
0.820676 0.119371 0.120394
0.820615 0.119387 0.120424
0.820859 0.119326 0.120348
0.821485 0.119173 0.120165
0.0117189 0.102739 0.0479744
0.011841 0.10219 0.0481575
0.0119783 0.101762 0.0483406
0.0119936 0.101076 0.0484627
0.0119783 0.100389 0.0485084
0.0119783 0.099794 0.0485542
0.0119783 0.0990768 0.0486305
0.0120241 0.0984054 0.0487221
0.0127565 0.0978256 0.049012
0.0217899 0.0986191 0.0496529
0.0325475 0.100069 0.0456245
0.0483406 0.101656 0.0397803
0.0722972 0.101259 0.0369726
0.102953 0.0980697 0.0428016
0.123354 0.0999771 0.0406348
0.146136 0.101411 0.0395514
0.168582 0.101076 0.0398566
0.196521 0.0987869 0.0411994
0.224628 0.0953689 0.0417639
0.252308 0.0915847 0.0419623
0.279149 0.0871138 0.0421759
0.305882 0.0830854 0.0427558
0.331044 0.0792706 0.0435035
0.355398 0.0769055 0.0436408
0.381003 0.0751507 0.0439765
0.40679 0.072343 0.0438392
0.43389 0.0699321 0.0445869
0.460975 0.066804 0.0451209
0.489052 0.06421 0.0486152
0.514534 0.0620584 0.051545
0.540383 0.0606851 0.0555734
0.566369 0.0610056 0.0605325
0.59353 0.0652323 0.0671702
0.621256 0.0713207 0.0740215
0.649683 0.0768139 0.0810254
0.679927 0.0815442 0.0877699
0.712032 0.0856947 0.0945144
0.74519 0.0923476 0.101152
0.776944 0.101457 0.107897
0.804135 0.109895 0.113466
0.821332 0.115953 0.117556
0.826093 0.118013 0.118807
0.825711 0.118105 0.118914
0.82536 0.118196 0.11902
0.825071 0.118273 0.119097
0.824842 0.118318 0.119173
0.824689 0.118364 0.119219
0.824582 0.118395 0.119265
0.824521 0.118395 0.119265
0.824491 0.11841 0.11928
0.824491 0.11841 0.11928
0.824475 0.11841 0.11928
0.824475 0.11841 0.11928
0.824475 0.11841 0.11928
0.824475 0.11841 0.11928
0.824445 0.118425 0.119295
0.824308 0.118456 0.119341
0.824018 0.118532 0.119417
0.823545 0.118654 0.11957
0.822873 0.118822 0.119768
0.82208 0.11902 0.119982
0.821454 0.119173 0.12018
0.821149 0.119249 0.120272
0.82121 0.119234 0.120256
0.821698 0.119112 0.120104
0.0118868 0.117525 0.0466163
0.011902 0.117037 0.0467231
0.0119173 0.116472 0.0468605
0.011902 0.115846 0.0469062
0.0118257 0.115221 0.046891
0.0117952 0.114565 0.0469673
0.01178 0.113909 0.0469978
0.0117647 0.113207 0.0470741
0.0120241 0.112612 0.0472572
0.0165408 0.112673 0.0483406
