bundles/resolve-cinematic-luts/Phantom Luts/DJI/DJI Phntm ARRI LUTs - G3/Mavic 3 D-Log/Utopia Mavic 3.cube
TITLE "Generated by Resolve"
LUT_3D_SIZE 9
0.00598154 0.0318456 0.0403754
0.0609903 0.0290379 0.0369726
0.182162 0.0292973 0.0315862
0.381216 0.0341497 0.0319371
0.599557 0.0659953 0.0681773
0.822202 0.117815 0.118822
0.820935 0.11931 0.120333
0.819852 0.119585 0.120653
0.82417 0.118502 0.119371
0.0111238 0.0551766 0.0474556
0.0228733 0.0529946 0.0438697
0.166644 0.0456092 0.0349584
0.37116 0.0337987 0.0316625
0.596048 0.0656443 0.0677501
0.820294 0.116854 0.118227
0.824475 0.11841 0.11928
0.821286 0.119219 0.120226
0.821424 0.119188 0.12018
0.0159609 0.173526 0.043473
0.0153353 0.169207 0.0435492
0.153506 0.164935 0.0415351
0.418326 0.142855 0.0581216
0.612192 0.128283 0.0872358
0.824994 0.114443 0.116106
0.826856 0.117815 0.118608
0.826581 0.117891 0.118669
0.828504 0.117403 0.118227
0.0656443 0.392065 0.0716411
0.0654917 0.390387 0.0710765
0.0655222 0.386572 0.0700999
0.394003 0.365087 0.062211
0.68513 0.372229 0.121111
0.909163 0.335653 0.203281
0.913909 0.304585 0.195178
0.904692 0.288746 0.189975
0.904799 0.282353 0.185046
0.183001 0.650172 0.167956
0.182422 0.649516 0.167803
0.181933 0.648249 0.166781
0.287114 0.637995 0.17586
0.667704 0.612497 0.153445
0.908232 0.646952 0.194217
0.963699 0.646082 0.210773
0.964355 0.638361 0.212222
0.964477 0.636042 0.21239
0.352193 0.907301 0.32987
0.352682 0.906996 0.329473
0.351843 0.905928 0.328557
0.348745 0.901122 0.324956
0.663783 0.853742 0.340551
0.903853 0.847944 0.31223
0.992905 0.843992 0.310765
0.992355 0.839567 0.304814
0.991913 0.837949 0.30222
0.417197 0.988922 0.40589
0.417762 0.988891 0.405814
0.41825 0.988861 0.405753
0.417929 0.988891 0.405798
0.572686 0.975982 0.433814
0.888808 0.932265 0.419074
0.999207 0.941543 0.46334
0.999634 0.940993 0.45449
0.999512 0.9411 0.454322
0.417975 0.988876 0.405783
0.417136 0.988922 0.405905
0.417685 0.988907 0.405829
0.417853 0.988891 0.405814
0.46804 0.986282 0.413504
0.867582 0.930907 0.422141
0.98735 0.940398 0.454826
0.999527 0.941085 0.454353
0.999649 0.940993 0.454505
0.418067 0.988876 0.405783
0.417685 0.988907 0.405829
0.417517 0.988907 0.405844
0.417975 0.988876 0.405798
0.444312 0.987854 0.409888
0.8598 0.931243 0.423468
0.978317 0.939651 0.445624
0.999481 0.941115 0.454292
0.999481 0.941131 0.454276
0 0.0342718 0.0586862
0.052781 0.0291752 0.0637675
0.191806 0.0291752 0.05243
0.39469 0.041886 0.0568246
0.5991 0.0660716 0.0682383
0.829511 0.115694 0.116564
0.828748 0.117342 0.118166
0.829038 0.117266 0.11809
0.831067 0.116747 0.117479
0.00653086 0.0468299 0.0551003
0.0163272 0.042771 0.051957
0.170718 0.0311742 0.0388037
0.370565 0.0340887 0.0331121
0.595483 0.065568 0.0677195
0.825055 0.11548 0.116854
0.829526 0.117128 0.117952
0.826825 0.11783 0.118624
0.827298 0.117708 0.118517
0.0148318 0.161883 0.0439307
0.0142977 0.157595 0.0440833
0.150042 0.153033 0.0425116
0.409033 0.131197 0.0572213
0.606516 0.117281 0.0827802
0.826261 0.113802 0.115328
0.831846 0.116564 0.11725
0.83154 0.116625 0.117357
0.831464 0.11664 0.117372
0.0634775 0.385687 0.0699931
0.0630045 0.38378 0.0694133
0.0623636 0.380041 0.0685435
0.391348 0.358175 0.0614176
0.683131 0.364187 0.120226
0.906493 0.328527 0.200153
0.912062 0.297246 0.191928
0.902068 0.281025 0.185672
0.901366 0.274815 0.181582
0.18117 0.647089 0.166613
0.180362 0.646448 0.166293
0.179507 0.644709 0.165225
0.279713 0.634989 0.173571
0.666545 0.609033 0.152132
0.906889 0.643763 0.19353
0.963973 0.642542 0.21059
0.964706 0.634775 0.212131
0.964935 0.632105 0.212177
0.350362 0.904875 0.328023
0.35082 0.904433 0.327733
0.349844 0.903212 0.326894
0.347082 0.898955 0.323018
0.661707 0.851621 0.338598
0.903151 0.845136 0.309957
0.99266 0.842008 0.307958
0.991913 0.837171 0.302281
0.99147 0.83566 0.299458
0.417182 0.988922 0.405905
0.417411 0.988922 0.405875
0.41825 0.988861 0.405753
0.417929 0.988891 0.405798
0.570199 0.976318 0.433219
0.888548 0.932204 0.419165
0.999237 0.941527 0.463386
0.999634 0.940993 0.454505
0.999512 0.9411 0.454322
0.41799 0.988891 0.405783
0.417136 0.988922 0.405905
0.417884 0.988891 0.405798
0.417868 0.988891 0.405798
0.466041 0.986404 0.41326
0.866743 0.930983 0.422232
0.986557 0.940337 0.454536
0.999527 0.941085 0.454337
0.999649 0.940993 0.454505
0.418082 0.988876 0.405768
0.4177 0.988891 0.405829
0.417517 0.988907 0.405844
0.418051 0.988876 0.405783
0.443717 0.9879 0.409766
0.859403 0.931228 0.423499
0.977874 0.93959 0.44477
0.999481 0.941115 0.454292
0.999481 0.941131 0.454292
0 0.0423438 0.143465
0.00367742 0.0378271 0.165347
0.188052 0.0282902 0.145281
0.421195 0.0360418 0.140261
0.660334 0.103243 0.191089
0.889677 0.159243 0.229175
0.875807 0.140383 0.192096
0.86421 0.137713 0.17702
0.862852 0.136004 0.171099
0 0.0422675 0.135439
0 0.0395056 0.141451
0.1635 0.0283207 0.139757
0.409766 0.0360571 0.132403
0.653651 0.103136 0.183322
0.884276 0.151766 0.213199
0.864637 0.137484 0.176944
0.852811 0.136416 0.164172
0.851057 0.135531 0.159106
0 0.156344 0.156558
0 0.151003 0.154223
0.118761 0.151095 0.159258
0.422873 0.120836 0.124315
0.652064 0.126192 0.164477
0.866514 0.133272 0.17705
0.851514 0.13225 0.151492
0.839597 0.12256 0.129809
0.835843 0.119234 0.122667
0.0668193 0.380102 0.128588
0.0661021 0.377874 0.126299
0.0648661 0.373541 0.121599
0.384253 0.353872 0.0891432
0.677943 0.352407 0.126101
0.899702 0.316472 0.195941
0.904677 0.284962 0.187076
0.895277 0.268406 0.17998
0.894438 0.262028 0.176257
0.177356 0.640833 0.163378
0.176898 0.640116 0.163027
0.176318 0.638392 0.162127
0.267079 0.629664 0.169314
0.664302 0.603174 0.150149
0.904692 0.638224 0.192981
0.964599 0.636454 0.211582
0.965331 0.628305 0.213153
0.965743 0.625696 0.213169
0.346654 0.900206 0.324453
0.347143 0.899794 0.323934
0.346609 0.898985 0.323232
0.343679 0.894179 0.319615
0.657221 0.847288 0.334966
0.901915 0.840589 0.30602
0.99202 0.838071 0.30277
0.990982 0.833127 0.297124
0.990921 0.831952 0.294774
0.417182 0.988922 0.405905
0.417411 0.988922 0.405875
0.417411 0.988907 0.405859
0.417929 0.988891 0.405798
0.56553 0.976852 0.43212
0.887831 0.932174 0.419394
0.999222 0.941573 0.463447
0.999619 0.941009 0.454475
0.999512 0.9411 0.454322
0.418021 0.988876 0.405783
0.417151 0.988922 0.405905
0.417136 0.988922 0.405905
0.417853 0.988891 0.405814
0.461479 0.986664 0.412634
0.865675 0.931075 0.422492
0.984451 0.940368 0.453803
0.999542 0.94107 0.454383
0.999649 0.940993 0.45452
0.418143 0.988876 0.405768
0.417716 0.988891 0.405829
0.417517 0.988907 0.405844
0.418372 0.988861 0.405737
0.442725 0.98793 0.409644
0.858412 0.931121 0.423606
0.976059 0.939635 0.443381
0.999481 0.941115 0.454292
0.999481 0.941131 0.454276
0 0.062562 0.304509
0 0.0552224 0.31841
0.100862 0.0401923 0.354894
0.398413 0.0387732 0.302007
0.646632 0.0664073 0.311849
0.891127 0.138506 0.362676
0.896742 0.141543 0.357092
0.896391 0.143389 0.353506
0.89691 0.14374 0.352529
0 0.0618906 0.300786
0 0.0619516 0.30071
0.0612345 0.0395666 0.34902
0.388235 0.0380255 0.299184
0.642954 0.0653544 0.307958
0.891661 0.138994 0.360006
0.897841 0.142443 0.354528
0.895079 0.145174 0.350942
0.894942 0.145785 0.349935
0 0.134844 0.2851
0 0.130358 0.28455
0.00982681 0.100816 0.346807
0.385733 0.0656901 0.313787
0.634913 0.063386 0.299489
0.893858 0.139986 0.354894
0.900847 0.144305 0.349355
0.89897 0.146761 0.3458
0.897719 0.147753 0.344823
0 0.363638 0.34583
0 0.361166 0.345144
0 0.356146 0.342596
0.340291 0.363745 0.363256
0.686564 0.342184 0.325582
0.931624 0.325383 0.344915
0.92932 0.293812 0.341955
0.926528 0.282353 0.342992
0.926879 0.278172 0.343709
0.165789 0.633844 0.336934
0.16556 0.633188 0.336248
0.16492 0.631342 0.334264
0.223728 0.624964 0.334615
0.639597 0.599298 0.280873
0.898299 0.629068 0.259678
0.965576 0.630121 0.268284
0.96553 0.621485 0.26566
0.965438 0.618677 0.263249
0.338796 0.890349 0.356954
0.339147 0.889891 0.355688
0.338354 0.888395 0.353094
0.335409 0.883452 0.34342
0.64094 0.838087 0.346639
0.897475 0.827817 0.295689
0.990066 0.827543 0.290288
0.989364 0.822782 0.284993
0.98909 0.821408 0.282811
0.417166 0.988922 0.405905
0.417197 0.988922 0.405905
0.417258 0.988922 0.40589
0.417151 0.988922 0.405905
0.550698 0.978683 0.429007
0.885252 0.93225 0.420157
0.99913 0.941466 0.46331
0.999573 0.941054 0.454337
0.999512 0.9411 0.45391
0.418097 0.988876 0.405768
0.417243 0.988922 0.40589
0.417151 0.988922 0.405905
0.41706 0.988922 0.405905
0.446921 0.987457 0.410498
0.862913 0.93138 0.423438
0.980743 0.940047 0.449821
0.999435 0.941176 0.454215
0.999649 0.940978 0.45452
0.41854 0.988846 0.405707
0.417792 0.988891 0.405814
0.417517 0.988907 0.405844
0.417716 0.988891 0.405829
0.438148 0.988113 0.408698
0.854826 0.931075 0.424674
0.973373 0.939696 0.440345
0.99939 0.941192 0.45417
0.999512 0.9411 0.454337
0 0.103578 0.485725
0 0.103685 0.485924
0 0.0512551 0.52604
0.322896 0.0522927 0.552483
0.620066 0.0856489 0.49369
0.835187 0.116899 0.5093
0.844556 0.118334 0.505837
0.845548 0.118105 0.504158
0.845045 0.118364 0.503426
0 0.103349 0.484886
0 0.103502 0.485222
0 0.0651865 0.519249
0.305791 0.0535286 0.552743
0.615732 0.0843977 0.493324
0.835325 0.116335 0.508736
0.845777 0.117922 0.505562
0.845472 0.118166 0.503334
0.843168 0.119066 0.501823
0 0.102525 0.482475
0 0.102678 0.48275
0 0.0864271 0.500496
0.274083 0.0547799 0.549203
0.607141 0.0822309 0.491829
0.831952 0.114488 0.505623
0.846998 0.117647 0.503166
0.846662 0.117998 0.500725
0.845121 0.118563 0.499535
0 0.320287 0.477623
0 0.318013 0.476722
0 0.313939 0.474922
0.201312 0.286946 0.578561
0.639475 0.247471 0.549599
0.874113 0.224781 0.532998
0.877226 0.17998 0.514107
0.866423 0.152621 0.502022
0.862776 0.140932 0.498085
0.0307012 0.602823 0.573541
0.0300145 0.601831 0.573404
0.0294652 0.600076 0.572946
0.0381628 0.594339 0.570947
0.580865 0.594797 0.585931
0.921263 0.605951 0.566766
0.988388 0.593851 0.560006
0.988037 0.584665 0.555276
0.987518 0.581537 0.554086
0.223575 0.870634 0.57113
0.223255 0.870039 0.570871
0.222309 0.868681 0.570169
0.219486 0.863691 0.567041
0.536309 0.845548 0.586664
0.850813 0.820356 0.564736
0.977752 0.823499 0.529824
0.978256 0.818631 0.523278
0.978485 0.816983 0.521767
0.379034 0.996109 0.601938
0.379568 0.996185 0.601846
0.379797 0.996201 0.601633
0.381796 0.996139 0.599878
0.49427 0.992981 0.607736
0.853254 0.944045 0.677607
0.986938 0.950851 0.624475
0.995789 0.946044 0.597436
0.995132 0.9449 0.595346
0.393698 0.995621 0.588144
0.393118 0.995605 0.588479
0.393286 0.995621 0.588357
0.395285 0.995499 0.586694
0.420752 0.995285 0.584421
0.837415 0.946212 0.666896
0.961181 0.948028 0.593179
0.997024 0.94725 0.560815
0.997452 0.947066 0.559426
0.398596 0.995392 0.584527
0.398856 0.995392 0.584787
0.398993 0.995377 0.584787
0.400717 0.995224 0.583047
0.414252 0.99498 0.579385
0.827802 0.946593 0.66157
0.95494 0.947509 0.587961
0.996857 0.947112 0.557458
0.997406 0.946517 0.549615
0 0.173663 0.62504
0 0.173739 0.624887
0 0.156008 0.637934
0.160632 0.0622568 0.706264
0.561318 0.103273 0.723812
0.823346 0.139956 0.670542
0.831617 0.138399 0.664393
0.831632 0.137804 0.662638
0.83267 0.13727 0.663417
0 0.173388 0.624674
0 0.173556 0.625193
0 0.16582 0.630442
0.140185 0.0590677 0.703395
0.555352 0.103258 0.724819
0.821866 0.139788 0.670802
0.831891 0.137987 0.664302
0.831617 0.137484 0.662593
0.831342 0.137499 0.662089
0 0.172244 0.622492
0 0.172351 0.622644
0 0.17229 0.622492
0.103258 0.0543374 0.695171
0.543053 0.102449 0.724178
0.818738 0.138903 0.670298
0.832349 0.137011 0.662776
0.83209 0.136461 0.660838
0.831708 0.136492 0.660288
0 0.269154 0.605112
0 0.265919 0.605478
0 0.259037 0.605692
0.0155489 0.171023 0.706065
0.513664 0.126101 0.733272
0.801297 0.136889 0.660914
0.829923 0.134615 0.651728
0.829343 0.134142 0.649729
0.83093 0.133547 0.650889
0 0.545525 0.682933
0 0.544945 0.682795
0 0.54316 0.681254
0 0.537118 0.677577
0.475608 0.553643 0.801038
0.879088 0.524727 0.771969
0.948516 0.504402 0.770596
0.946517 0.493782 0.766339
0.945373 0.490227 0.765286
0.117891 0.820203 0.777813
0.118593 0.819455 0.777356
0.1178 0.817838 0.776608
0.115343 0.812284 0.774563
0.385092 0.815076 0.785382
0.798505 0.802106 0.789242
0.991669 0.818845 0.778332
0.992004 0.812985 0.77528
0.991623 0.811322 0.775509
0.221271 0.980331 0.778119
0.223239 0.979629 0.777768
0.223331 0.978698 0.777386
0.221805 0.975616 0.774334
0.286717 0.971252 0.769619
0.789578 0.954574 0.808881
0.96286 0.947707 0.814893
0.985153 0.946578 0.807431
0.984909 0.945647 0.80592
0.231174 0.987228 0.769345
0.230045 0.98735 0.769711
0.23035 0.987335 0.769619
0.230762 0.987381 0.768185
0.238819 0.988083 0.764416
0.776547 0.982483 0.812634
0.939223 0.967483 0.851926
0.991684 0.970977 0.828229
0.991241 0.970886 0.826703
0.232425 0.987488 0.766018
0.232807 0.987427 0.766094
0.233112 0.987366 0.765911
0.233082 0.987518 0.764614
0.233707 0.987793 0.760998
0.762661 0.984192 0.80798
0.930282 0.967666 0.851347
0.990906 0.970993 0.827314
0.99115 0.970565 0.823972
0 0.272114 0.717586
0 0.272084 0.717311
0 0.271626 0.716136
0.0341955 0.168734 0.810193
0.481468 0.206271 0.866697
0.819013 0.187366 0.843046
0.834211 0.188388 0.833127
0.834043 0.188205 0.832776
0.836973 0.186892 0.836561
0 0.272038 0.716915
0 0.272175 0.718044
0 0.271977 0.716442
0.013138 0.178958 0.80621
0.474144 0.204959 0.866346
0.816587 0.187411 0.844038
0.836072 0.187564 0.83563
0.836118 0.187671 0.835782
0.837095 0.187213 0.837034
0 0.272053 0.717098
0 0.272023 0.716899
0 0.27187 0.715587
0 0.196597 0.794903
0.458335 0.200793 0.865095
0.810956 0.187304 0.846052
0.836683 0.187396 0.8365
0.8365 0.187488 0.836271
0.837537 0.186999 0.837583
0 0.272084 0.717433
0 0.272175 0.717418
0 0.272084 0.715618
0 0.237278 0.750759
0.405432 0.18587 0.859236
0.786206 0.188769 0.849393
0.834913 0.183597 0.830289
0.83328 0.182574 0.826139
0.836332 0.180941 0.829282
0 0.542763 0.757931
0 0.542153 0.757702
0 0.540795 0.7561
0 0.534447 0.75169
0.358389 0.524392 0.918212
0.820874 0.488212 0.949432
0.921736 0.450874 0.906615
0.918593 0.438773 0.900313
0.917464 0.435019 0.899184
0.000335698 0.749142 0.862562
0.00030518 0.748501 0.86183
0.000534066 0.747005 0.860258
0 0.741329 0.854932
0.243427 0.772396 0.893355
0.722866 0.773434 0.938613
0.96556 0.755566 0.922866
0.965209 0.748989 0.920714
0.964019 0.746838 0.920455
0.161532 0.947341 0.908858
0.1608 0.946654 0.908812
0.163088 0.944579 0.907317
0.160616 0.940261 0.904875
0.162814 0.93225 0.901839
0.705638 0.939452 0.923873
0.939742 0.938399 0.932174
0.984833 0.943771 0.927184
0.983322 0.942412 0.927459
0.17937 0.982528 0.908141
0.178271 0.982727 0.908385
0.1823 0.981979 0.907103
0.182559 0.98201 0.905776
0.179767 0.982544 0.903136
0.705791 0.985092 0.920501
0.945373 0.982376 0.947097
0.990616 0.984588 0.951064
0.989837 0.984665 0.950957
0.179706 0.982574 0.90483
0.180301 0.982467 0.904662
0.181903 0.982147 0.903944
0.181872 0.982147 0.902525
0.181933 0.982208 0.898894
0.690639 0.985412 0.916442
0.937591 0.983047 0.943542
0.982193 0.98262 0.950423
0.989868 0.984237 0.94757
0 0.272129 0.717708
0 0.272129 0.717739
0 0.271931 0.716197
0.0104067 0.180117 0.805371
0.47068 0.20412 0.86598
0.814923 0.187442 0.844388
0.834852 0.188251 0.834134
0.834485 0.188449 0.833463
0.837217 0.187152 0.837171
0 0.272038 0.717006
0 0.272221 0.718471
0 0.272007 0.716731
0 0.189914 0.799802
0.463111 0.202045 0.865614
0.812619 0.187366 0.845441
0.83624 0.18761 0.835935
0.836378 0.187549 0.836103
0.837278 0.187121 0.837263
0 0.272084 0.717311
0 0.272038 0.717021
0 0.271809 0.715023
0 0.20705 0.787564
0.447395 0.197726 0.864073
0.806409 0.187198 0.847654
0.837125 0.187198 0.837049
0.836576 0.187442 0.836378
0.837873 0.186831 0.838026
0 0.272129 0.717769
0 0.272114 0.717601
0 0.271901 0.715877
0 0.242527 0.739544
0.393454 0.182452 0.85803
0.780346 0.189532 0.851072
0.836118 0.187655 0.835782
0.835294 0.188052 0.83473
0.838285 0.186664 0.838437
0 0.529198 0.756466
0 0.528801 0.756161
0 0.527169 0.754955
0 0.52166 0.751842
0.325002 0.502708 0.920409
0.789914 0.472892 0.961959
0.910735 0.42707 0.922835
0.906737 0.414771 0.918669
0.905379 0.410636 0.917937
0 0.736873 0.869413
0 0.736904 0.870222
0 0.735515 0.868879
0 0.731517 0.865538
0.104448 0.757534 0.899931
0.679118 0.75816 0.975769
0.959518 0.736706 0.970474
0.961196 0.728313 0.96965
0.961089 0.726268 0.969604
0.135454 0.907515 0.947784
0.132509 0.907057 0.948638
0.134737 0.904692 0.947112
0.132708 0.898741 0.945418
0.136095 0.886458 0.94197
0.656535 0.907942 0.962814
0.910582 0.924269 0.973632
0.974899 0.920394 0.973022
0.973602 0.918532 0.973434
0.155642 0.971618 0.958618
0.152193 0.972427 0.959686
0.15433 0.972168 0.958648
0.156069 0.972244 0.957076
0.158801 0.972793 0.954192
0.611536 0.980484 0.966812
0.920256 0.981735 0.977188
0.989273 0.985306 0.985351
0.99025 0.985702 0.98294
0.156115 0.972732 0.956054
0.154086 0.973251 0.956558
0.156405 0.972946 0.95552
0.160922 0.972503 0.953399
0.15819 0.974136 0.952483
0.59678 0.98201 0.963897
0.91635 0.984115 0.97615
0.987137 0.98677 0.987015
0.992706 0.987472 0.98555
0 0.272129 0.717708
0 0.272129 0.717769
0 0.271946 0.716213
0.00117494 0.184482 0.803113
0.466819 0.203098 0.865644
0.813489 0.187503 0.844785
0.835157 0.188113 0.834546
0.834638 0.188373 0.833692
0.837217 0.187152 0.837171
0 0.272038 0.717006
0 0.272221 0.718502
0 0.272007 0.716793
0 0.19408 0.797696
0.459312 0.201099 0.865339
0.811032 0.187427 0.845808
0.836362 0.187564 0.836088
0.836011 0.187716 0.83566
0.837278 0.187121 0.837263
0 0.272084 0.717281
0 0.272038 0.717037
0 0.271839 0.715358
0 0.210956 0.78471
0.443412 0.196704 0.863767
0.804883 0.187243 0.847959
0.837156 0.187182 0.83711
0.83682 0.187335 0.836667
0.837873 0.186847 0.838026
0 0.272129 0.717739
0 0.272114 0.717586
0 0.271916 0.715969
0 0.244602 0.736812
0.389242 0.181155 0.857511
0.778485 0.189578 0.85156
0.836255 0.187594 0.835966
0.83534 0.188037 0.834775
0.838285 0.186664 0.838437
0 0.522103 0.753048
0 0.521492 0.752529
0 0.519875 0.751171
0 0.514031 0.748089
0.31693 0.490501 0.918227
0.783886 0.460655 0.958831
0.906264 0.413504 0.918639
0.902174 0.400458 0.914641
0.900954 0.396307 0.913893
0 0.73254 0.867826
0 0.732189 0.867628
0 0.730983 0.866651
0 0.726818 0.863111
0.0911269 0.750881 0.896803
0.674556 0.751888 0.976043
0.958831 0.730037 0.970596
0.960891 0.721523 0.969848
0.959747 0.719585 0.970428
0.129915 0.900816 0.947127
0.129076 0.900114 0.947143
0.130816 0.897612 0.94548
0.127901 0.892012 0.944305
0.129061 0.879484 0.941619
0.641047 0.903075 0.962097
0.900969 0.917388 0.973999
0.973816 0.913115 0.972854
0.972183 0.911223 0.97351
0.14966 0.97113 0.963455
0.148989 0.971267 0.963684
0.150362 0.970993 0.963241
0.152285 0.970611 0.962631
0.148577 0.971283 0.963836
0.582055 0.971206 0.973495
0.905165 0.971954 0.978225
0.982666 0.982284 0.986068
0.986603 0.981308 0.985824
0.147707 0.971511 0.964202
0.148836 0.971298 0.963745
0.14902 0.971267 0.963668
0.151614 0.970733 0.962829
0.148501 0.971359 0.963882
0.533349 0.980072 0.974517
0.882124 0.981796 0.98024
0.981674 0.987793 0.987518
0.989258 0.989548 0.989639
