bundles/resolve-cinematic-luts/Phantom Luts/Apple Log Phantom LUTS/iPhone 15 Phantom ARRI LUTs/65x/IceBlue_Legacy Iphone15_65x.cube
TITLE "Generated by Resolve"
LUT_3D_SIZE 65
0.0390631 0.0509499 0.051667
0.0390631 0.0509499 0.051667
0.0390631 0.0509499 0.0516518
0.0390631 0.0509499 0.0516518
0.0390631 0.0509499 0.0516518
0.0390631 0.0509499 0.0516518
0.0390784 0.0509499 0.0516518
0.0390784 0.0509499 0.0516518
0.0390784 0.0509499 0.0516365
0.0390936 0.0509346 0.0515908
0.0393683 0.0509346 0.0516213
0.0436561 0.0508125 0.052018
0.0526284 0.0514229 0.0525826
0.0639811 0.0518959 0.0524453
0.0779126 0.0525826 0.052903
0.093904 0.0529793 0.052842
0.112596 0.053315 0.0529641
0.132906 0.0530251 0.0523995
0.155825 0.0523995 0.0515908
0.179858 0.0515908 0.0504463
0.204318 0.0510567 0.0495918
0.229572 0.0504158 0.0483406
0.255009 0.0496834 0.0469825
0.281727 0.0493477 0.0462043
0.307774 0.0489357 0.0451362
0.334325 0.0486915 0.0441749
0.361517 0.0485542 0.043595
0.387778 0.0483101 0.0433204
0.41442 0.0480659 0.0432593
0.439002 0.047715 0.0430762
0.462257 0.0481117 0.0449378
0.485084 0.0504616 0.0523384
0.507134 0.0538033 0.0627604
0.528099 0.0571603 0.0720989
0.547829 0.0606851 0.0814984
0.568902 0.0652934 0.0925002
0.589395 0.0703746 0.103639
0.609018 0.0760052 0.115023
0.629602 0.0830243 0.128054
0.649378 0.0910048 0.141619
0.668864 0.100191 0.155993
0.678096 0.106538 0.166415
0.683528 0.109499 0.173785
0.688655 0.111818 0.181506
0.695003 0.114733 0.191043
0.701411 0.117464 0.201221
0.709148 0.122072 0.212985
0.714565 0.123079 0.222965
0.711604 0.112734 0.226246
0.715984 0.112612 0.237659
0.721553 0.114366 0.250645
0.727398 0.116777 0.264515
0.733608 0.120226 0.280064
0.740185 0.125017 0.297475
0.747463 0.131044 0.317311
0.753323 0.133913 0.33991
0.756359 0.131807 0.364645
0.758358 0.129595 0.388083
0.75845 0.126757 0.409216
0.758022 0.124483 0.428382
0.757259 0.122683 0.446616
0.756481 0.121553 0.462058
0.75494 0.120333 0.477562
0.753079 0.11931 0.490791
0.750591 0.117861 0.502251
0.0391699 0.0508583 0.0514076
0.0391394 0.0508888 0.0514839
0.0391089 0.0509041 0.0515602
0.0390936 0.0509346 0.0515908
0.0390784 0.0509499 0.0516365
0.0390631 0.0509499 0.051667
0.0390631 0.0509651 0.0516823
0.0390631 0.0509651 0.051667
0.0390784 0.0509499 0.0516518
0.0390784 0.0509499 0.0516213
0.0391241 0.0509346 0.0515908
0.0409247 0.0508431 0.0516823
0.0475319 0.0509804 0.0526284
0.0566415 0.0519265 0.0526741
0.0690013 0.0520485 0.0524758
0.0849622 0.0528878 0.0527504
0.102724 0.0534371 0.0528725
0.122759 0.053315 0.052369
0.145983 0.0529335 0.0518807
0.171267 0.0519417 0.0504921
0.197253 0.0511635 0.0492409
0.223789 0.0503243 0.0477302
0.25333 0.0496986 0.0471351
0.280415 0.0491493 0.0460975
0.307469 0.0486152 0.0448615
0.334951 0.0483558 0.0437781
0.362448 0.0480812 0.0428321
0.390036 0.0476844 0.0421302
0.417014 0.0473487 0.0416876
0.442222 0.0468605 0.0413214
0.464744 0.0468757 0.0419928
0.485084 0.0477302 0.0448615
0.504448 0.0493782 0.0506294
0.521874 0.0510719 0.0560311
0.539849 0.0536812 0.0641947
0.559594 0.0575875 0.075349
0.580697 0.0629282 0.0886549
0.601617 0.0688792 0.1028
0.621897 0.0755932 0.116258
0.642344 0.0832837 0.130861
0.664286 0.0958877 0.14905
0.674205 0.104265 0.161334
0.68043 0.107988 0.169467
0.68603 0.110613 0.177584
0.692683 0.113649 0.187518
0.699062 0.116243 0.197681
0.707698 0.121569 0.210452
0.715709 0.126162 0.222675
0.710552 0.112169 0.224247
0.715389 0.112352 0.236469
0.721187 0.114107 0.249928
0.727337 0.116579 0.264683
0.733654 0.120073 0.280278
0.740307 0.125017 0.298329
0.748409 0.132387 0.318181
0.753628 0.1337 0.342428
0.756741 0.131563 0.36791
0.758389 0.129152 0.391287
0.758373 0.126268 0.412924
0.757855 0.124025 0.432273
0.757122 0.122438 0.449638
0.756176 0.121248 0.466224
0.754437 0.120027 0.481651
0.752239 0.118746 0.495155
0.749554 0.117128 0.506218
0.0391699 0.0508583 0.0514229
0.0391394 0.0508888 0.0514992
0.0391089 0.0509194 0.0515755
0.0390784 0.0509499 0.0516213
0.0390631 0.0509651 0.051667
0.0390478 0.0509651 0.0516976
0.0390478 0.0509804 0.0517128
0.0390478 0.0509804 0.0516976
0.0390631 0.0509804 0.0516976
0.0390784 0.0509651 0.051667
0.0390936 0.0509499 0.0516213
0.0399786 0.0509194 0.051667
0.04448 0.0508278 0.0521248
0.051667 0.0514076 0.0525826
0.0616465 0.0519722 0.0525521
0.0753185 0.0526589 0.0527352
0.0918441 0.0532845 0.0526589
0.110201 0.0538796 0.0528573
0.130953 0.0535744 0.0521706
0.155108 0.0527047 0.0509804
0.181506 0.0519417 0.0498207
0.209308 0.0509041 0.048249
0.239002 0.0502785 0.0472419
0.269245 0.0493935 0.0459754
0.299214 0.0486763 0.0446632
0.329335 0.0485389 0.0437476
0.359976 0.0480812 0.0425422
0.389975 0.0476844 0.0426947
0.417639 0.0474708 0.0425727
0.444572 0.047364 0.0430457
0.467781 0.0476081 0.0441749
0.487846 0.0480049 0.0458076
0.505394 0.0485084 0.0479438
0.521157 0.0490578 0.0504921
0.53695 0.0503548 0.0554208
0.554116 0.0528115 0.0632334
0.572824 0.0565957 0.0752728
0.593698 0.0624247 0.0904097
0.614923 0.0691691 0.105989
0.634852 0.0764172 0.120363
0.652979 0.0853742 0.135973
0.666484 0.097261 0.152193
0.677043 0.106004 0.165209
0.683436 0.109331 0.173907
0.689708 0.112215 0.183185
0.696986 0.115419 0.194324
0.704662 0.119081 0.206302
0.71342 0.12459 0.219471
0.712215 0.115724 0.224643
0.714458 0.112154 0.234424
0.720699 0.11397 0.248829
0.726787 0.116274 0.263676
0.733532 0.119951 0.280247
0.74049 0.125063 0.299092
0.748425 0.132052 0.319356
0.753796 0.133532 0.34403
0.756771 0.131243 0.37023
0.758358 0.128801 0.393927
0.758328 0.126009 0.415381
0.757717 0.123751 0.435019
0.756924 0.122179 0.453056
0.75581 0.120943 0.469245
0.754025 0.119768 0.485145
0.751461 0.118166 0.498177
0.748898 0.116701 0.508736
0.0391699 0.0508583 0.0514229
0.0391241 0.0508888 0.0515145
0.0391089 0.0509194 0.0515908
0.0390784 0.0509499 0.0516518
0.0390631 0.0509651 0.0516823
0.0390478 0.0509804 0.0517281
0.0390326 0.0509957 0.0517433
0.0390326 0.0509957 0.0517433
0.0390478 0.0509957 0.0517281
0.0390478 0.0509804 0.0516976
0.0390784 0.0509651 0.051667
0.0394293 0.0509651 0.0516823
0.0427558 0.050782 0.0518044
0.0485847 0.0510719 0.0526894
0.0566873 0.0518196 0.0525521
0.0686503 0.0524605 0.0525216
0.0828565 0.0534676 0.0529946
0.0992294 0.0542611 0.0531624
0.117006 0.0543526 0.0526436
0.137636 0.054139 0.0522164
0.162539 0.0531167 0.050782
0.189807 0.0524147 0.0496681
0.219287 0.0512856 0.0480964
0.250401 0.0501564 0.0461891
0.282811 0.0493019 0.04477
0.315831 0.0487221 0.043473
0.351492 0.0482185 0.042237
0.385794 0.0476539 0.0421912
0.416663 0.0474098 0.0429999
0.443671 0.0472725 0.0433661
0.467811 0.0475776 0.0446021
0.488167 0.0481575 0.0466621
0.50663 0.0490272 0.0498512
0.523537 0.0501717 0.0537728
0.539193 0.0509804 0.0569162
0.553903 0.0518502 0.0605478
0.568689 0.0537575 0.0667735
0.58761 0.0581064 0.0800946
0.608286 0.0642252 0.0963302
0.629389 0.0719463 0.112779
0.646128 0.0799268 0.127703
0.658625 0.0898604 0.143084
0.672511 0.102281 0.159777
0.680812 0.107927 0.170489
0.687312 0.111025 0.179858
0.694835 0.114534 0.190997
0.702144 0.117784 0.202457
0.71107 0.122972 0.216098
0.713237 0.118532 0.224201
0.71371 0.112093 0.232578
0.719936 0.113573 0.24741
0.726009 0.11574 0.262516
0.733104 0.119448 0.279973
0.73994 0.124346 0.298634
0.748074 0.131319 0.320195
0.753567 0.13315 0.344884
0.756695 0.131106 0.371267
0.758129 0.128618 0.395087
0.75819 0.125917 0.416739
0.75758 0.123644 0.436606
0.756741 0.122072 0.454566
0.755474 0.12079 0.471519
0.75375 0.119722 0.487129
0.751141 0.118029 0.499413
0.748531 0.116548 0.510323
0.0391699 0.0508583 0.0514382
0.0391241 0.0509041 0.0515145
0.0390936 0.0509346 0.0515908
0.0390784 0.0509651 0.0516518
0.0390478 0.0509804 0.0517128
0.0390326 0.0509957 0.0517433
0.0390326 0.0510109 0.0517739
0.0390326 0.0510109 0.0517739
0.0390326 0.0510109 0.0517586
0.0390326 0.0509957 0.0517433
0.0390478 0.0509804 0.0517128
0.0391699 0.0509651 0.0516823
0.0415503 0.0508125 0.0517433
0.0460212 0.0509041 0.0524453
0.0530404 0.0515908 0.0525826
0.0629129 0.0523537 0.0524758
0.076051 0.0537881 0.0533761
0.090486 0.0546426 0.0533913
0.105715 0.0552071 0.0532998
0.124239 0.0553902 0.0529793
0.145968 0.0546883 0.0518349
0.172763 0.0538338 0.05066
0.201953 0.0526741 0.0489357
0.232822 0.0516213 0.0477302
0.266758 0.0502174 0.0456092
0.302419 0.0490272 0.0437476
0.339971 0.0486 0.0428016
0.377386 0.0478981 0.0420539
0.411582 0.0473793 0.0426642
0.442542 0.0471962 0.0437171
0.467155 0.0475319 0.0449683
0.487999 0.0480812 0.046952
0.506447 0.0489662 0.0500801
0.523629 0.0502022 0.0541543
0.540124 0.051545 0.0586099
0.555657 0.0527352 0.0629435
0.570504 0.0542458 0.0676127
0.585245 0.057145 0.0738231
0.603174 0.0610056 0.0877089
0.623423 0.0675364 0.104799
0.640421 0.0756237 0.120912
0.652537 0.0846876 0.135897
0.666255 0.0964218 0.152407
0.67834 0.106493 0.167208
0.6851 0.109941 0.176532
0.692241 0.113329 0.187045
0.699931 0.116716 0.1991
0.708293 0.121019 0.212085
0.713191 0.120165 0.222705
0.713573 0.113115 0.230823
0.718791 0.113191 0.244724
0.725216 0.115358 0.26067
0.732311 0.118959 0.278065
0.7393 0.123766 0.297215
0.747265 0.13048 0.318563
0.753079 0.132784 0.343755
0.756573 0.131151 0.370626
0.757992 0.128679 0.394461
0.758129 0.125948 0.416846
0.757504 0.123644 0.437095
0.756542 0.122011 0.455329
0.755215 0.120729 0.472938
0.753506 0.119692 0.488121
0.75079 0.117952 0.50074
0.748363 0.11664 0.511269
0.0391546 0.0508736 0.0514534
0.0391241 0.0509041 0.051545
0.0390936 0.0509346 0.051606
0.0390631 0.0509651 0.0516823
0.0390478 0.0509957 0.0517281
0.0390326 0.0510109 0.0517739
0.0390173 0.0510262 0.0518044
0.0390173 0.0510262 0.0518044
0.0390173 0.0510262 0.0518044
0.0390326 0.0510109 0.0517739
0.0390478 0.0509957 0.0517433
0.0390784 0.0509804 0.0516823
0.0405127 0.0509194 0.0517739
0.0441138 0.0508278 0.052079
0.0501869 0.0513619 0.0527352
0.0588998 0.0526284 0.0528115
0.0703288 0.0539559 0.053254
0.0825055 0.055024 0.0534981
0.0971847 0.0560769 0.0539712
0.113008 0.0563668 0.0536965
0.133364 0.0562905 0.0530404
0.158282 0.0554665 0.0517281
0.185824 0.0544594 0.05037
0.216327 0.0531472 0.0485542
0.250507 0.0514992 0.0466316
0.29073 0.0499275 0.0445563
0.329549 0.0491035 0.0431525
0.366201 0.0483864 0.0424811
0.402502 0.0474556 0.0420081
0.438544 0.047013 0.0433509
0.466011 0.0472419 0.0448615
0.487358 0.0479744 0.0472725
0.506218 0.0488746 0.05037
0.52343 0.0501106 0.0543679
0.540063 0.0515297 0.0589151
0.556069 0.0529793 0.0637064
0.57142 0.0547341 0.0690166
0.586862 0.0578012 0.0747082
0.602335 0.0614786 0.0829786
0.619348 0.0654459 0.0977035
0.634714 0.0715496 0.113985
0.646616 0.0800946 0.128695
0.66041 0.0911269 0.14551
0.673823 0.102739 0.16173
0.68278 0.108812 0.173342
0.689998 0.112215 0.18381
0.697993 0.115862 0.195819
0.706584 0.12018 0.209277
0.713161 0.12166 0.221256
0.71284 0.113542 0.228504
0.717906 0.112978 0.24242
0.724193 0.114931 0.25803
0.731594 0.118624 0.275837
0.738643 0.123232 0.295247
0.746456 0.129732 0.316472
0.752773 0.132662 0.342229
0.756436 0.131319 0.368673
0.757961 0.128786 0.393393
0.75819 0.126101 0.415824
0.757549 0.12372 0.436637
0.756512 0.122011 0.455192
0.755261 0.120806 0.472221
0.753384 0.119631 0.487953
0.750683 0.117968 0.500999
0.74815 0.116655 0.512261
0.0391546 0.0508888 0.0514839
0.0391089 0.0509194 0.0515602
0.0390784 0.0509499 0.0516365
0.0390631 0.0509804 0.0516976
0.0390326 0.0509957 0.0517586
0.0390173 0.0510262 0.0517891
0.0390021 0.0510262 0.0518196
0.0390021 0.0510414 0.0518349
0.0390021 0.0510414 0.0518349
0.0390021 0.0510414 0.0518196
0.0390173 0.0510262 0.0518044
0.0390326 0.0510109 0.0517586
0.0397955 0.0509957 0.0518196
0.0426947 0.0508125 0.0518502
0.0476539 0.0513161 0.0528267
0.0556191 0.0527504 0.0530556
0.0652781 0.0542 0.0532692
0.076524 0.0554818 0.0537423
0.0895857 0.0565957 0.054551
0.104585 0.057145 0.0543374
0.123491 0.0576181 0.0541695
0.14609 0.0570535 0.0530709
0.173602 0.0560769 0.0515908
0.202655 0.0546731 0.0494392
0.238437 0.0527962 0.0473793
0.277211 0.0513771 0.0458686
0.317433 0.0498817 0.0439002
0.356634 0.0489204 0.0426642
0.394293 0.0478828 0.0423438
0.430838 0.0469825 0.0424353
0.462425 0.0466011 0.0430915
0.487098 0.0478981 0.047776
0.50602 0.0487526 0.0507362
0.523262 0.0500038 0.0546731
0.540169 0.0514839 0.0592355
0.556054 0.0529335 0.0639353
0.571527 0.0547646 0.069337
0.587167 0.0578927 0.0754406
0.602731 0.0618753 0.0821851
0.617609 0.0655985 0.0924544
0.630198 0.0691081 0.107256
0.641642 0.0762341 0.122698
0.654566 0.0862287 0.138537
0.669017 0.0985733 0.156008
0.680491 0.107561 0.170382
0.687694 0.111086 0.180621
0.696071 0.115068 0.192844
0.704692 0.119188 0.206165
0.713024 0.123217 0.219776
0.712062 0.113863 0.226108
0.716762 0.112764 0.239506
0.723217 0.114656 0.255375
0.730755 0.118349 0.273213
0.737728 0.122667 0.292058
0.745754 0.129198 0.314305
0.752407 0.13286 0.339223
0.756283 0.131487 0.366873
0.757931 0.128985 0.391501
0.758221 0.126223 0.414755
0.75761 0.123857 0.435462
0.756527 0.122057 0.454261
0.755291 0.120836 0.472084
0.753445 0.119631 0.487221
0.750774 0.118029 0.500648
0.748348 0.116808 0.511681
0.0391394 0.0508888 0.0514839
0.0391089 0.0509194 0.0515755
0.0390784 0.0509499 0.0516365
0.0390478 0.0509804 0.0517128
0.0390326 0.0510109 0.0517586
0.0390173 0.0510262 0.0518044
0.0390021 0.0510414 0.0518349
0.0390021 0.0510414 0.0518502
0.0390021 0.0510414 0.0518502
0.0390021 0.0510414 0.0518502
0.0390021 0.0510414 0.0518196
0.0390326 0.0510262 0.0517891
0.0393988 0.0510109 0.0517891
0.0414893 0.0508431 0.0517739
0.0457465 0.0512703 0.0525521
0.0521859 0.0527199 0.0532845
0.0610513 0.0544442 0.0532235
0.0716259 0.0561379 0.0540932
0.0835126 0.0571908 0.0546883
0.0977035 0.0578927 0.0547189
0.1149 0.0587778 0.054902
0.136522 0.0585489 0.0539254
0.162737 0.0575723 0.0527352
0.192355 0.0559548 0.0504616
0.226764 0.0542306 0.0481727
0.265507 0.0523842 0.0464179
0.306676 0.0505684 0.04448
0.347814 0.0493019 0.0428321
0.387671 0.0481575 0.0423438
0.423957 0.0472572 0.0426642
0.456947 0.0467536 0.0435798
0.485786 0.047776 0.0478218
0.50547 0.048661 0.0512551
0.523079 0.049897 0.0551003
0.539712 0.0513924 0.0594492
0.555886 0.0528573 0.06421
0.571344 0.0547341 0.0694743
0.586923 0.0578012 0.0753185
0.602701 0.0618296 0.0822461
0.616648 0.0655375 0.0897993
0.626444 0.0679026 0.100725
0.635569 0.0719463 0.115267
0.648997 0.081651 0.13193
0.663615 0.0936141 0.149584
0.676768 0.104616 0.165743
0.68571 0.110124 0.177691
0.694057 0.114153 0.18999
0.702495 0.117983 0.203006
0.711894 0.122942 0.217762
0.712108 0.115068 0.225177
0.715938 0.112566 0.237949
0.72256 0.11429 0.254307
0.729885 0.117617 0.272007
0.737179 0.122011 0.291371
0.744747 0.128161 0.312596
0.752194 0.133013 0.337804
0.756085 0.131579 0.36585
0.757885 0.129168 0.390311
0.758236 0.126421 0.413321
0.757656 0.12401 0.434028
0.756588 0.122133 0.453117
0.755474 0.120989 0.470497
0.753613 0.119738 0.485939
0.751003 0.118196 0.499809
0.748867 0.117159 0.509926
0.0391394 0.0508888 0.0514839
0.0391089 0.0509194 0.0515755
0.0390784 0.0509499 0.0516518
0.0390478 0.0509804 0.0517128
0.0390326 0.0510109 0.0517739
0.0390021 0.0510262 0.0518196
0.0390021 0.0510414 0.0518502
0.0389868 0.0510414 0.0518654
0.0389868 0.0510567 0.0518654
0.0389868 0.0510567 0.0518654
0.0390021 0.0510414 0.0518502
0.0390173 0.0510262 0.0518044
0.0391852 0.0510109 0.0517739
0.0406806 0.0509499 0.0518502
0.0440986 0.0513008 0.0523232
0.049958 0.0527047 0.0534218
0.0576944 0.0545968 0.0532998
0.0677195 0.0565957 0.0544289
0.0787671 0.0578012 0.0547799
0.0920882 0.0586099 0.0549325
0.109178 0.0597086 0.0553902
0.129091 0.0597696 0.0545663
0.155734 0.0586557 0.0533608
0.186282 0.0566873 0.051194
0.219425 0.0552224 0.0488899
0.25716 0.053193 0.0468605
0.298741 0.051133 0.0447852
0.340627 0.0497749 0.0431983
0.383093 0.0483711 0.0426642
0.419577 0.0472572 0.0428016
0.458091 0.0452277 0.0522316
0.485557 0.0454414 0.0552224
0.510033 0.046952 0.0614786
0.527657 0.0482185 0.0657206
0.544335 0.0497139 0.0703288
0.560433 0.051133 0.0754559
0.575708 0.0529946 0.0805982
0.591058 0.0561379 0.0859998
0.606317 0.0601358 0.0922408
0.619425 0.0638437 0.0981003
0.62681 0.0661173 0.104463
0.633677 0.0688029 0.115663
0.645289 0.0767529 0.130724
0.659586 0.088838 0.14699
0.673976 0.101823 0.163363
0.68397 0.109255 0.175433
0.691691 0.113237 0.185962
0.700236 0.117327 0.198749
0.709499 0.122194 0.212955
0.712413 0.117678 0.222477
0.714855 0.112871 0.234104
0.721386 0.114382 0.250004
0.728817 0.117449 0.268025
0.736141 0.121645 0.287144
0.743786 0.127672 0.308858
0.751919 0.133669 0.333379
0.755779 0.132067 0.360754
0.757946 0.129595 0.386191
0.758465 0.126848 0.40885
0.758022 0.124376 0.429709
0.757214 0.122499 0.448112
0.756374 0.12134 0.46511
0.754772 0.120027 0.480049
0.752651 0.118593 0.492943
0.750988 0.117632 0.501671
0.0392615 0.0507515 0.0511635
0.0392462 0.0507668 0.051194
0.0392309 0.050782 0.0512398
0.0392309 0.0507973 0.0512551
0.0392157 0.0508125 0.0512856
0.0392004 0.0508278 0.0513161
0.0392004 0.0508278 0.0513466
0.0392004 0.0508431 0.0513619
0.0391852 0.0508431 0.0513771
0.0391852 0.0508583 0.0513771
0.0391852 0.0508583 0.0513771
0.0391852 0.0508583 0.0513771
0.0392157 0.0508431 0.0513924
0.0401617 0.0508736 0.0514839
0.0430304 0.0511788 0.0517433
0.0479744 0.0526589 0.0529793
0.0549477 0.0545357 0.0532387
0.0644999 0.0568704 0.0543526
0.0745708 0.0583352 0.0547494
0.0877699 0.0594492 0.0551766
0.104372 0.0604868 0.0556802
0.123751 0.060502 0.055024
0.149981 0.0594339 0.0538338
0.179431 0.057557 0.0518196
0.213748 0.0560006 0.0498512
0.249485 0.0539559 0.0476234
0.291859 0.051606 0.0457923
0.334157 0.0499428 0.0446937
0.37792 0.0481727 0.0447547
0.41735 0.0467689 0.0462654
0.453101 0.0458228 0.0486152
0.482734 0.0458839 0.0528573
0.508141 0.0470436 0.0597391
0.526726 0.0482643 0.0650797
0.543877 0.0497139 0.0703746
0.560189 0.0510719 0.075761
0.57586 0.0529335 0.0812085
0.59089 0.0559548 0.0864424
0.606287 0.060029 0.0924544
0.619165 0.0636759 0.0980087
0.625223 0.0654459 0.101991
0.630167 0.0672465 0.11014
0.64036 0.0730297 0.124819
0.654612 0.0845045 0.141421
0.669902 0.0981308 0.158953
0.681468 0.107454 0.172656
0.689815 0.112215 0.183627
0.698421 0.116365 0.196124
0.707958 0.121401 0.210544
0.712871 0.11957 0.221836
0.713924 0.112673 0.231846
0.720745 0.114122 0.248569
0.727977 0.116854 0.266484
0.735485 0.121019 0.285817
0.743114 0.126909 0.30808
0.751583 0.133898 0.331243
0.75555 0.132097 0.360128
0.757855 0.129809 0.384848
0.758404 0.127001 0.408026
0.758007 0.124498 0.428763
0.757214 0.122591 0.447242
0.756451 0.121431 0.464073
0.754971 0.12015 0.478447
0.752926 0.118791 0.49163
0.751415 0.117906 0.499855
0.0392615 0.0507515 0.0511635
0.0392462 0.0507668 0.051194
0.0392309 0.050782 0.0512245
0.0392309 0.0507973 0.0512551
0.0392157 0.0508125 0.0512856
0.0392004 0.0508278 0.0513161
0.0392004 0.0508278 0.0513466
0.0392004 0.0508431 0.0513619
0.0391852 0.0508431 0.0513771
0.0391852 0.0508583 0.0513771
0.0391852 0.0508583 0.0513924
0.0391852 0.0508583 0.0513771
0.0391852 0.0508431 0.0513771
0.0397345 0.0509041 0.0514839
0.0420233 0.0511788 0.0515908
0.0464485 0.0526894 0.0528115
0.0528115 0.0546578 0.0538186
0.0614939 0.057145 0.0547189
0.0715038 0.0588235 0.0550698
0.0844129 0.0601511 0.0555276
0.100374 0.0610971 0.0559548
0.119844 0.0610056 0.055375
0.144381 0.0602426 0.0543221
0.174334 0.0583047 0.0522774
0.207767 0.0566873 0.0504616
0.244221 0.0545663 0.0478676
0.284337 0.0523079 0.0461128
0.327581 0.0504616 0.0450904
0.371267 0.0487221 0.0449378
0.41352 0.0468299 0.0462348
0.450034 0.0457923 0.0484321
0.480812 0.0457465 0.0527504
0.505348 0.0464179 0.0577554
0.526299 0.0481117 0.0654765
0.543725 0.0495766 0.0710002
0.560342 0.0509346 0.076463
0.575921 0.052842 0.0819409
0.591058 0.0558022 0.0872358
0.606409 0.0598764 0.0931258
0.619013 0.0634775 0.098146
0.62504 0.0652323 0.101946
0.628428 0.0666056 0.107317
0.636927 0.0707561 0.120241
0.650431 0.0806439 0.136995
0.665766 0.0940414 0.154467
0.67895 0.105364 0.169818
0.68806 0.111192 0.181491
0.696925 0.115602 0.194034
0.706676 0.120729 0.208576
0.713497 0.12192 0.22118
0.712886 0.112245 0.229694
0.719951 0.113802 0.246769
0.727092 0.116365 0.264607
0.734829 0.120485 0.28484
0.742153 0.125963 0.30602
0.7514 0.134005 0.330159
0.755245 0.132204 0.358572
0.757794 0.129915 0.38439
0.758328 0.127092 0.407492
0.757992 0.12462 0.427817
0.757229 0.122698 0.44651
0.756558 0.121553 0.462425
0.755032 0.120211 0.477684
0.753094 0.118929 0.490913
0.751659 0.11809 0.498711
0.0392615 0.0507515 0.0511635
0.0392462 0.0507668 0.051194
0.0392309 0.050782 0.0512245
0.0392309 0.0507973 0.0512551
0.0392157 0.0508125 0.0512856
0.0392004 0.0508278 0.0513161
0.0392004 0.0508278 0.0513466
0.0392004 0.0508431 0.0513619
0.0391852 0.0508431 0.0513771
0.0391852 0.0508583 0.0513771
0.0391852 0.0508583 0.0513924
0.0391852 0.0508583 0.0513924
0.0391852 0.0508583 0.0513771
0.0394903 0.0509194 0.0514534
0.0413519 0.0512093 0.0515755
0.0453498 0.0527504 0.0527199
0.0511177 0.0548257 0.054078
0.059266 0.0573587 0.0550393
0.0688487 0.0592508 0.0553445
0.0813916 0.0607614 0.0560311
0.0973831 0.0615244 0.0564431
0.115755 0.0614481 0.055848
0.140337 0.0608377 0.0547646
0.170123 0.0589151 0.0527504
0.203372 0.0572366 0.0508888
0.239521 0.0551461 0.0482185
0.279362 0.0528115 0.0463569
0.323186 0.0509499 0.0453193
0.366308 0.0491798 0.0450599
0.410361 0.0470741 0.0461738
0.447196 0.0458228 0.0483253
0.478706 0.045655 0.0526436
0.504295 0.0463722 0.0580606
0.525887 0.0480201 0.0657969
0.54377 0.0494698 0.0715343
0.56025 0.0507973 0.0770886
0.575906 0.0526741 0.0826581
0.59115 0.0556344 0.088014
0.606531 0.0597238 0.0937057
0.619242 0.0633707 0.0986496
0.624796 0.0650797 0.101518
0.626703 0.0656748 0.104997
0.633616 0.0688792 0.115526
0.645777 0.0768902 0.131701
0.661982 0.0906996 0.15024
0.67689 0.103792 0.167452
0.686564 0.110338 0.179583
0.695659 0.115038 0.192142
0.704906 0.119631 0.206073
0.714092 0.123735 0.220981
0.711818 0.111971 0.227329
0.719097 0.113558 0.244633
0.726452 0.116075 0.263188
0.733959 0.119921 0.282704
0.741878 0.125673 0.305043
0.750652 0.133333 0.328725
0.755001 0.132174 0.357839
0.757671 0.130007 0.383948
0.758206 0.127214 0.406668
0.757946 0.124727 0.427192
0.757229 0.12282 0.445548
0.756542 0.121614 0.461936
0.755047 0.120241 0.477287
0.753201 0.119051 0.490517
0.751873 0.118242 0.497673
0.0392615 0.0508888 0.0512245
0.0392462 0.050782 0.0512093
0.0392462 0.0508888 0.0512703
0.0392309 0.0508888 0.0513008
0.0392309 0.0508888 0.0513313
0.0392157 0.0508736 0.0513466
0.0392004 0.0508736 0.0513619
0.0392004 0.0508736 0.0513771
0.0392004 0.0508583 0.0513924
0.0391852 0.0508583 0.0513924
0.0391852 0.0508583 0.0513924
0.0391852 0.0508583 0.0513924
0.039292 0.0509651 0.0514534
0.0396887 0.0511177 0.0515755
0.0414282 0.051667 0.0517433
0.0449531 0.053315 0.0529488
0.050248 0.0554208 0.0542916
0.0577249 0.0579538 0.0556344
0.0668193 0.0600443 0.055848
0.0792554 0.0614176 0.0567483
0.0944991 0.06215 0.0569924
0.112947 0.0618143 0.05626
0.136584 0.0613718 0.0555428
0.165576 0.059556 0.0534371
0.199573 0.0576944 0.0515297
0.234775 0.0556649 0.0491035
0.275227 0.0532692 0.046952
0.317021 0.0514534 0.0458991
0.361532 0.0495613 0.0455024
0.405493 0.0473487 0.0464179
0.444511 0.0458381 0.0483253
0.476509 0.0454871 0.0522164
0.502861 0.0462501 0.0579232
0.525551 0.0478981 0.0658579
0.543496 0.0493629 0.0718853
0.560098 0.0507057 0.0776684
0.575784 0.0525216 0.0832532
0.591165 0.055436 0.0887465
0.606958 0.0596017 0.0948043
0.619623 0.0632181 0.0996872
0.62475 0.0648661 0.101884
0.626047 0.0651255 0.104341
0.631067 0.0674449 0.112047
0.642725 0.0744182 0.128206
0.658274 0.0869764 0.14667
0.674525 0.10164 0.165118
0.685191 0.109361 0.178073
0.693965 0.114061 0.190097
0.703609 0.118791 0.204334
0.713375 0.123705 0.219883
0.711437 0.112367 0.226047
0.718425 0.113375 0.243153
0.725505 0.115648 0.260975
0.733471 0.119646 0.281361
0.74139 0.125246 0.303593
0.749722 0.132265 0.327214
0.754772 0.13228 0.35642
0.757473 0.130129 0.382391
0.758068 0.127337 0.405783
0.7579 0.124849 0.426398
0.757183 0.122896 0.44509
0.756497 0.12163 0.461341
0.755154 0.120378 0.476005
0.753429 0.11928 0.489616
0.752285 0.118532 0.49572
0.0392767 0.0510262 0.0514382
0.0392462 0.0511025 0.0513161
