bundles/resolve-cinematic-luts/Phantom Luts/Apple Log Phantom LUTS/iPhone 15 Phantom ARRI LUTs/65x/IceBlue_Legacy Iphone15_65x.cube
TITLE "Generated by Resolve"
LUT_3D_SIZE 5
0.0390631 0.0509499 0.051667
0.112596 0.053315 0.0529641
0.507134 0.0538033 0.0627604
0.711604 0.112734 0.226246
0.750591 0.117861 0.502251
0.0394446 0.0747845 0.064271
0.0620584 0.0713359 0.0598459
0.491569 0.0457923 0.0569009
0.694865 0.114534 0.191302
0.751095 0.11902 0.499046
0.0238193 0.448066 0.171283
0.0289616 0.487037 0.0838178
0.435538 0.486656 0.0396429
0.837324 0.393881 0.244434
0.689708 0.110246 0.186557
0.23386 0.858869 0.68748
0.230686 0.859937 0.67657
0.220203 0.86389 0.547707
0.921508 0.914855 0.393149
0.974472 0.929732 0.452552
0.258946 0.852995 0.819226
0.257755 0.853025 0.815167
0.248051 0.85153 0.771588
0.913527 0.953155 0.592859
0.987274 0.959381 0.623652
0.0364385 0.0521248 0.0871443
0.14931 0.0510567 0.139864
0.570199 0.0652781 0.185641
0.734508 0.117861 0.293004
0.740673 0.112596 0.535683
0.0328832 0.108461 0.117372
0.0657206 0.0887007 0.100877
0.548058 0.0689555 0.124285
0.717678 0.111086 0.24831
0.743557 0.114717 0.527382
0.0239261 0.433738 0.237064
0.0248569 0.467109 0.18378
0.419379 0.483925 0.0379797
0.83624 0.384192 0.248249
0.71664 0.116732 0.237903
0.236408 0.857496 0.701167
0.234592 0.858351 0.692576
0.218738 0.860105 0.575082
0.921553 0.921904 0.415396
0.977691 0.935866 0.474861
0.261021 0.852842 0.823499
0.260441 0.852735 0.819547
0.250538 0.851774 0.780865
0.881804 0.95256 0.607263
0.988602 0.961181 0.64303
0.0141451 0.0514992 0.45362
0.180972 0.0442969 0.507958
0.566903 0.0507668 0.457053
0.749599 0.118196 0.503532
0.725063 0.102174 0.601389
0.0102998 0.125994 0.382147
0.00968948 0.0738079 0.427665
0.52517 0.0454261 0.44004
0.748241 0.11809 0.510018
0.725063 0.102876 0.606424
0.0237736 0.423087 0.409461
0.0248722 0.432273 0.419654
0.420233 0.490562 0.494774
0.944427 0.438911 0.516243
0.739116 0.111696 0.539544
0.245563 0.851682 0.748089
0.244694 0.851362 0.745586
0.238621 0.856565 0.703578
0.893645 0.943191 0.549355
0.984955 0.952575 0.633417
0.271748 0.853864 0.845579
0.270451 0.853574 0.843809
0.266224 0.852033 0.827619
0.83856 0.956832 0.763958
0.992569 0.971435 0.769253
0.0511025 0.357214 0.701228
0.049134 0.344366 0.698619
0.361517 0.331884 0.852811
0.807233 0.238239 0.783551
0.710674 0.116381 0.704463
0.0683452 0.440848 0.719722
0.0656596 0.428275 0.71722
0.373693 0.448829 0.886992
0.864332 0.322942 0.837095
0.730861 0.145205 0.728267
0.119173 0.604746 0.749081
0.119646 0.605692 0.749432
0.288319 0.617151 0.839933
0.93077 0.481041 0.905394
0.902998 0.400519 0.875074
0.278508 0.854551 0.85391
0.279011 0.854246 0.853941
0.277562 0.854871 0.853941
0.910079 0.945251 0.954009
0.987274 0.944686 0.969924
0.278386 0.854627 0.85391
0.27834 0.85449 0.854047
0.279728 0.854124 0.853681
0.871427 0.967102 0.972778
0.991638 0.989013 0.976822
0.181506 0.710475 0.778653
0.27686 0.739803 0.824704
0.515923 0.761059 0.891249
0.96144 0.732006 0.950698
0.956115 0.683574 0.93991
0.226429 0.742184 0.803586
0.303716 0.764675 0.837995
0.554299 0.784894 0.897261
0.965957 0.768261 0.956283
0.955932 0.696895 0.941405
0.214664 0.764828 0.805722
0.273533 0.784451 0.831128
0.514382 0.812329 0.892302
0.96463 0.822644 0.960555
0.966003 0.778058 0.954482
0.277272 0.855222 0.853895
0.282811 0.853147 0.853056
0.293873 0.857374 0.851774
0.927794 0.970275 0.98024
0.988922 0.974273 0.988464
0.280339 0.854566 0.852979
0.283558 0.853239 0.852598
0.284123 0.853544 0.852049
0.889296 0.970443 0.976974
0.990875 0.990341 0.994659
