bundles/resolve-cinematic-luts/Phantom Luts/Apple Log Phantom LUTS/iPhone 15 Phantom ARRI LUTs/65x/IceBlue Iphone15_65x.cube
TITLE "Generated by Resolve"
LUT_3D_SIZE 65
0.0285954 0.0409094 0.0389105
0.0285954 0.0409094 0.0389105
0.0285954 0.0409094 0.0389105
0.0285954 0.0409094 0.0388952
0.0285954 0.0409094 0.0388952
0.0285954 0.0409094 0.0388952
0.0286107 0.0409094 0.03888
0.0286107 0.0408942 0.0388495
0.0286259 0.0408942 0.0388037
0.0286564 0.0408789 0.0387427
0.0290227 0.0408789 0.0387732
0.0361181 0.0406958 0.0401617
0.0511635 0.0408179 0.0401007
0.0707408 0.0412909 0.0403143
0.0927749 0.0418402 0.0407111
0.117235 0.0422522 0.0409705
0.145556 0.0424201 0.0410773
0.174182 0.0424811 0.0410163
0.201648 0.0421607 0.0404059
0.228702 0.0418708 0.0398108
0.255772 0.0420233 0.0396887
0.282856 0.0420844 0.0393683
0.308858 0.042298 0.0392462
0.335317 0.0426947 0.0392767
0.361181 0.0432441 0.0393835
0.385901 0.0437934 0.0393988
0.41059 0.0446326 0.0405432
0.433997 0.0452277 0.0417945
0.455802 0.0458686 0.0431373
0.474525 0.04654 0.0449683
0.494057 0.049012 0.0522774
0.51812 0.0550851 0.0688182
0.542794 0.0629435 0.0865644
0.567025 0.0711681 0.101717
0.589502 0.0783551 0.115175
0.611551 0.0849165 0.128283
0.63267 0.0915847 0.141451
0.653117 0.0989853 0.155077
0.67335 0.106889 0.168811
0.692882 0.114916 0.183078
0.71133 0.12256 0.197543
0.719997 0.12668 0.208606
0.724697 0.129152 0.21825
0.730343 0.133715 0.230152
0.724529 0.121553 0.231876
0.723583 0.116442 0.240406
0.726635 0.116915 0.253056
0.730388 0.118303 0.267124
0.734203 0.120195 0.281147
0.739605 0.124071 0.297536
0.74583 0.12929 0.315007
0.752361 0.134218 0.33463
0.755413 0.132219 0.359228
0.757809 0.130098 0.383276
0.759594 0.128054 0.4065
0.7608 0.126345 0.428626
0.761654 0.125246 0.449256
0.762387 0.124758 0.469306
0.76141 0.123659 0.490043
0.759441 0.122087 0.507485
0.756451 0.119799 0.523171
0.752804 0.117205 0.535225
0.748608 0.114153 0.545007
0.745174 0.111772 0.553399
0.74107 0.10898 0.560174
0.0287022 0.0408331 0.0385748
0.0286717 0.0408484 0.0386816
0.0286412 0.0408789 0.0387579
0.0286259 0.0408942 0.0388342
0.0285954 0.0409094 0.03888
0.0285954 0.0409094 0.0389105
0.0285801 0.0409247 0.0389258
0.0285954 0.0409247 0.0389258
0.0285954 0.0409094 0.03888
0.0286107 0.0408942 0.0388342
0.0286717 0.0408942 0.0387884
0.0310826 0.04094 0.0392462
0.04271 0.0405737 0.0399481
0.0586862 0.0407721 0.0398871
0.0796521 0.041474 0.0405127
0.10399 0.0421607 0.0409857
0.130983 0.0426032 0.0412909
0.161547 0.0425269 0.0408026
0.190204 0.0422065 0.0401007
0.219791 0.0420233 0.0395056
0.248341 0.0417792 0.0388342
0.277378 0.0416724 0.0381933
0.306813 0.0420539 0.038941
0.333806 0.0423896 0.0389258
0.360693 0.0426795 0.0384527
0.385962 0.0430762 0.0382849
0.410544 0.0435492 0.0384833
0.434684 0.0439307 0.0389563
0.455573 0.0440833 0.0389715
0.47393 0.0444953 0.0399176
0.491127 0.0454108 0.0424201
0.508812 0.047776 0.0487068
0.528161 0.0515602 0.0583352
0.546548 0.0552377 0.0669108
0.567712 0.060914 0.0803998
0.594965 0.0710155 0.103471
0.619913 0.0808881 0.122454
0.644892 0.0922713 0.141695
0.668788 0.104265 0.160067
0.689281 0.112718 0.175296
0.708064 0.120912 0.190616
0.716579 0.124605 0.20206
0.723064 0.128679 0.213489
0.733425 0.140444 0.229496
0.723888 0.122057 0.228016
0.722637 0.116274 0.236591
0.725704 0.116564 0.249653
0.72932 0.117662 0.263798
0.733562 0.119707 0.278996
0.738888 0.123369 0.295857
0.745068 0.128496 0.313664
0.752377 0.134279 0.33492
0.755383 0.132189 0.359731
0.757824 0.129961 0.384848
0.759594 0.127871 0.408621
0.760754 0.126146 0.431296
0.761624 0.125109 0.452598
0.762264 0.124651 0.47277
0.761196 0.123644 0.494194
0.758892 0.121736 0.51133
0.755703 0.119326 0.525765
0.751797 0.116442 0.538048
0.747433 0.113191 0.547433
0.74374 0.110628 0.555795
0.73933 0.107591 0.562341
0.0287022 0.0408331 0.0385901
0.0286717 0.0408637 0.0386969
0.0286412 0.0408789 0.0387884
0.0286107 0.0409094 0.0388647
0.0285954 0.0409094 0.0389105
0.0285801 0.0409247 0.0389563
0.0285649 0.04094 0.0389715
0.0285801 0.0409247 0.0389563
0.0285954 0.0409247 0.0389258
0.0286107 0.0409094 0.0388647
0.0286259 0.0408942 0.0388037
0.0297704 0.04094 0.0389868
0.0371099 0.0406348 0.0401617
0.0500191 0.0407416 0.0400092
0.0673991 0.0411231 0.0400397
0.0893263 0.041886 0.0404517
0.114427 0.0425574 0.0407568
0.142123 0.0428931 0.0405585
0.171954 0.0428779 0.0402686
0.201297 0.0424048 0.0391852
0.230594 0.0420386 0.0383917
0.262272 0.0419928 0.0379187
0.29279 0.0420691 0.0378119
0.322713 0.0423133 0.037995
0.352453 0.0424353 0.037644
0.380438 0.0428473 0.0375525
0.408331 0.0432288 0.0380255
0.434775 0.044007 0.0396429
0.456916 0.0447395 0.0409247
0.477089 0.0457771 0.0429847
0.494438 0.0467536 0.0450752
0.510399 0.0476692 0.0474556
0.524422 0.0483101 0.0493172
0.537621 0.0487068 0.0508431
0.553994 0.0510109 0.0582742
0.576623 0.0572213 0.0758068
0.604425 0.0683452 0.100359
0.633371 0.0824903 0.125292
0.662181 0.0987411 0.149386
0.685252 0.110262 0.167788
0.702174 0.117968 0.182544
0.710201 0.121752 0.194018
0.719066 0.125841 0.2065
0.726345 0.131411 0.219913
0.730343 0.133104 0.230961
0.722622 0.117647 0.233082
0.724895 0.116533 0.245991
0.728466 0.117449 0.260197
0.732754 0.119295 0.275959
0.738003 0.122667 0.293172
0.744411 0.127825 0.312169
0.751339 0.133028 0.333761
0.755261 0.132204 0.35938
0.757763 0.12987 0.385611
0.759518 0.127794 0.409812
0.760678 0.12604 0.433463
0.761456 0.125017 0.455192
0.761852 0.124392 0.476173
0.760601 0.123278 0.496941
0.758404 0.121538 0.514046
0.754742 0.118776 0.528771
0.750744 0.115724 0.540368
0.746487 0.112596 0.54995
0.742275 0.10956 0.557824
0.738125 0.106691 0.564034
0.0287022 0.0408331 0.0386053
0.0286717 0.0408637 0.0387121
0.0286259 0.0408789 0.0388037
0.0286107 0.0409094 0.03888
0.0285801 0.0409247 0.038941
0.0285649 0.04094 0.0389868
0.0285649 0.04094 0.0390021
0.0285496 0.04094 0.0390173
0.0285649 0.04094 0.0389868
0.0285801 0.04094 0.038941
0.0285954 0.0409094 0.03888
0.0290684 0.04094 0.0389258
0.0339971 0.0409552 0.0400549
0.0445716 0.0406195 0.0399329
0.0586099 0.0408331 0.0398413
0.0787671 0.041825 0.0404822
0.101564 0.0431067 0.0413825
0.125719 0.0439155 0.0412451
0.152651 0.0440528 0.0405737
0.179553 0.0437781 0.0396735
0.2094 0.0436713 0.0390173
0.239643 0.0432746 0.0380255
0.271611 0.0429084 0.037171
0.303899 0.0426184 0.0366369
0.335973 0.0426947 0.0365911
0.368215 0.0430457 0.0366522
0.400824 0.043183 0.0372625
0.430716 0.0435798 0.0386969
0.45626 0.0445716 0.0412299
0.476509 0.045655 0.0432136
0.494667 0.0467842 0.0457771
0.511513 0.0482338 0.0495308
0.527611 0.049897 0.0540932
0.54316 0.0514534 0.05832
0.555673 0.051545 0.0589303
0.568689 0.0526131 0.0621653
0.587213 0.0568093 0.0754711
0.61883 0.0700389 0.106447
0.647196 0.0842451 0.130938
0.677424 0.1028 0.157473
0.697734 0.115511 0.176654
0.705776 0.1196 0.18793
0.714473 0.123613 0.200595
0.722606 0.127733 0.213718
0.729259 0.132845 0.227665
0.725658 0.123049 0.233021
0.723934 0.116487 0.241779
0.72755 0.117189 0.256519
0.731884 0.118929 0.272557
0.736965 0.121874 0.290181
0.743343 0.126848 0.309621
0.750774 0.132921 0.3308
0.755032 0.132372 0.357488
0.75758 0.130022 0.383917
0.759426 0.127825 0.409537
0.760571 0.126055 0.433295
0.761334 0.125002 0.455467
0.761608 0.1243 0.476921
0.760372 0.123186 0.497581
0.758099 0.121462 0.515175
0.754345 0.118685 0.530068
0.750195 0.115465 0.541543
0.745968 0.112459 0.551507
0.741695 0.109346 0.558862
0.737377 0.106386 0.565454
0.028687 0.0408331 0.0386206
0.0286564 0.0408637 0.0387274
0.0286259 0.0408942 0.038819
0.0285954 0.0409094 0.0388952
0.0285801 0.0409247 0.0389563
0.0285496 0.04094 0.0390173
0.0285496 0.0409552 0.0390478
0.0285496 0.0409552 0.0390478
0.0285496 0.0409552 0.0390326
0.0285649 0.04094 0.0389868
0.0285801 0.0409247 0.0389258
0.0287175 0.0409094 0.03888
0.0319829 0.041001 0.0395666
0.0398413 0.040528 0.040177
0.0523232 0.0409247 0.0401007
0.0696269 0.0419623 0.0405737
0.0907301 0.0436255 0.041474
0.112642 0.0451362 0.0416724
0.135363 0.0459449 0.0413367
0.161715 0.0460517 0.0405737
0.18967 0.0462348 0.0402075
0.219913 0.0458076 0.0389258
0.252338 0.0451514 0.037705
0.285176 0.0446021 0.0371099
0.319814 0.0441749 0.0367895
0.354864 0.0439002 0.0366217
0.390616 0.0437476 0.0370336
0.423285 0.0435035 0.0379339
0.452064 0.0441901 0.0403143
0.475792 0.0455177 0.043595
0.494347 0.0466773 0.046128
0.511437 0.048127 0.0498665
0.52752 0.049836 0.0543984
0.543542 0.0515908 0.0590982
0.558679 0.0531777 0.063447
0.572686 0.0546578 0.067216
0.587213 0.0575418 0.0720226
0.603708 0.060914 0.0831159
0.635569 0.0743877 0.116228
0.664683 0.0903029 0.14226
0.690303 0.109087 0.167636
0.701717 0.117296 0.182559
0.710567 0.121782 0.195224
0.719829 0.126268 0.209049
0.726864 0.130831 0.222766
0.727275 0.127062 0.231357
0.723796 0.11751 0.238483
0.726558 0.11693 0.252552
0.730892 0.118486 0.268971
0.735912 0.121202 0.286748
0.742107 0.125841 0.305852
0.750179 0.132753 0.327886
0.754681 0.132692 0.353964
0.757412 0.130205 0.381613
0.759304 0.127977 0.407492
0.760525 0.126146 0.431739
0.761288 0.125017 0.454734
0.761593 0.124331 0.47599
0.760357 0.123171 0.497078
0.758053 0.121431 0.515023
0.75436 0.118776 0.530221
0.749935 0.115373 0.542153
0.745815 0.11249 0.551919
0.741375 0.109285 0.559548
0.73724 0.106523 0.566125
0.028687 0.0408484 0.0386511
0.0286412 0.0408789 0.0387579
0.0286107 0.0408942 0.0388495
0.0285801 0.0409247 0.0389258
0.0285649 0.04094 0.0389868
0.0285496 0.0409552 0.0390478
0.0285344 0.0409705 0.0390784
0.0285344 0.0409705 0.0390784
0.0285344 0.0409705 0.0390784
0.0285344 0.0409705 0.0390631
0.0285649 0.0409552 0.0390021
0.0285954 0.04094 0.038941
0.0305028 0.041001 0.0393072
0.0364233 0.0407111 0.0402533
0.0471351 0.0409247 0.0401465
0.0626688 0.0420081 0.0407263
0.0819104 0.0441138 0.0418097
0.101381 0.0462043 0.0423438
0.122408 0.0475013 0.0425116
0.146014 0.048249 0.0419928
0.173739 0.0486458 0.0412146
0.203372 0.0484016 0.040116
0.233646 0.0478523 0.0389258
0.267704 0.0471809 0.0381323
0.303288 0.0462196 0.0373541
0.34316 0.0452125 0.0367132
0.380194 0.0445563 0.03682
0.413642 0.0442359 0.037644
0.444541 0.0439918 0.0389105
0.472755 0.0450904 0.0427863
0.493568 0.0464332 0.0461891
0.510994 0.0479744 0.0502174
0.527428 0.0497444 0.0547799
0.543359 0.0514229 0.0592355
0.558907 0.053315 0.0640574
0.573938 0.0551919 0.069398
0.589456 0.0585946 0.0751812
0.604761 0.0624399 0.0814984
0.623407 0.067216 0.0966506
0.653971 0.0811627 0.128969
0.679744 0.0988785 0.155398
0.69749 0.114733 0.177081
0.707195 0.120043 0.190387
0.716228 0.124361 0.203891
0.724041 0.128557 0.217548
0.728252 0.129778 0.229664
0.72462 0.119814 0.23624
0.725704 0.116823 0.248844
0.729961 0.118166 0.265187
0.734707 0.120531 0.282383
0.741558 0.125551 0.302846
0.749218 0.132204 0.323659
0.754223 0.132799 0.350271
0.757259 0.130495 0.378332
0.759258 0.128191 0.404578
0.76054 0.126238 0.43003
0.761334 0.125078 0.452934
0.761685 0.124392 0.474876
0.760479 0.123232 0.49601
0.758114 0.121477 0.514519
0.754574 0.118944 0.529809
0.750256 0.115648 0.541604
0.745876 0.11252 0.551644
0.741482 0.109392 0.559457
0.73724 0.1066 0.566384
0.028687 0.0408484 0.0386664
0.0286412 0.0408789 0.0387732
0.0286107 0.0409094 0.0388647
0.0285801 0.0409247 0.038941
0.0285649 0.04094 0.0390021
0.0285344 0.0409552 0.0390631
0.0285344 0.0409705 0.0390936
0.0285191 0.0409705 0.0391089
0.0285191 0.0409857 0.0391089
0.0285344 0.0409705 0.0390784
0.0285496 0.0409705 0.0390326
0.0285801 0.04094 0.0389715
0.0296025 0.0409857 0.0391394
0.033814 0.041001 0.0400549
0.0429084 0.0409094 0.0401923
0.0567178 0.0420691 0.0407263
0.0739605 0.0444648 0.0418097
0.0930495 0.0469825 0.0428473
0.111528 0.0488289 0.0431067
0.133791 0.0501869 0.0429694
0.161181 0.0507973 0.0422675
0.189288 0.0509041 0.0411688
0.219944 0.05037 0.0399176
0.252537 0.0498207 0.0387884
0.290211 0.0484016 0.0377661
0.328893 0.0472572 0.037232
0.368582 0.0458534 0.0368963
0.405035 0.0450294 0.0374762
0.437827 0.04448 0.0388037
0.466636 0.0447089 0.041062
0.490593 0.0457618 0.0446632
0.51075 0.047837 0.0507515
0.527306 0.0495918 0.0552224
0.543221 0.0513161 0.0596475
0.559045 0.053254 0.0644388
0.57406 0.0551766 0.0697948
0.589822 0.0586404 0.0760204
0.60592 0.0630503 0.0833295
0.6215 0.067277 0.0911879
0.642847 0.0737163 0.112917
0.669413 0.0896315 0.143313
0.689845 0.107485 0.167849
0.70312 0.117845 0.185046
0.712505 0.122469 0.198535
0.721813 0.127337 0.213169
0.728283 0.131151 0.227298
0.725124 0.12163 0.234241
0.725002 0.116655 0.246159
0.729122 0.117723 0.262455
0.734051 0.119966 0.280766
0.74049 0.124529 0.300725
0.748257 0.131029 0.322744
0.753841 0.132708 0.349325
0.756954 0.130617 0.376837
0.759045 0.128252 0.404028
0.760327 0.126314 0.428931
0.761212 0.125078 0.452232
0.761639 0.124453 0.473838
0.76054 0.123293 0.495155
0.758267 0.121569 0.513466
0.754879 0.119173 0.528969
0.750286 0.115679 0.541482
0.745983 0.112612 0.551308
0.741665 0.109545 0.559213
0.737575 0.106889 0.56611
0.028687 0.0408484 0.0386664
0.0286412 0.0408789 0.0387732
0.0286107 0.0409094 0.0388647
0.0285801 0.0409247 0.038941
0.0285496 0.04094 0.0390173
0.0285344 0.0409705 0.0390631
0.0285191 0.0409705 0.0391089
0.0285191 0.0409705 0.0391241
0.0285191 0.0409857 0.0391241
0.0285191 0.0409857 0.0391089
0.0285344 0.0409705 0.0390631
0.0285649 0.0409552 0.0390021
0.0290532 0.0409552 0.0390326
0.0319219 0.0410163 0.0395819
0.0392462 0.0409857 0.0405127
0.0509957 0.042298 0.0410315
0.0673075 0.0448157 0.0417945
0.0853285 0.0476997 0.043122
0.103319 0.0499275 0.0436713
0.124819 0.051667 0.0441138
0.149874 0.0528115 0.0434272
0.178439 0.0531472 0.0421302
0.207736 0.0527657 0.0407263
0.241367 0.0518807 0.0396887
0.278523 0.0504005 0.0383612
0.316869 0.0489204 0.0374151
0.357671 0.0473487 0.0371557
0.397024 0.045716 0.0374456
0.432242 0.0448615 0.0386816
0.461631 0.0449226 0.0406806
0.485985 0.045594 0.044007
0.509422 0.0475624 0.0506142
0.526741 0.0493935 0.0556954
0.543038 0.0512093 0.0601205
0.558587 0.0530861 0.0647898
0.573831 0.0551003 0.070161
0.589487 0.0585489 0.0761273
0.605402 0.0627756 0.0831159
0.621515 0.0675059 0.091249
0.637659 0.0722057 0.102892
0.65771 0.0803845 0.12932
0.679973 0.0986343 0.156344
0.698329 0.114504 0.178866
0.709255 0.12105 0.193927
0.719112 0.125902 0.208591
0.726604 0.130083 0.22356
0.725811 0.123751 0.232578
0.724559 0.117266 0.242878
0.728267 0.117418 0.259602
0.733135 0.119432 0.277867
0.739376 0.123568 0.29807
0.747127 0.129961 0.320531
0.753384 0.132921 0.346517
0.756664 0.13077 0.375189
0.75877 0.128435 0.402075
0.760128 0.126406 0.427695
0.76109 0.125078 0.451209
0.761593 0.124514 0.472541
0.760616 0.123354 0.493904
0.758419 0.121706 0.512169
0.755123 0.119326 0.528054
0.750683 0.115999 0.540536
0.746273 0.112825 0.5505
0.742 0.10985 0.558892
0.738399 0.107576 0.565072
0.028687 0.0408484 0.0386664
0.0286412 0.0408789 0.0387732
0.0286107 0.0409094 0.0388647
0.0285801 0.0409247 0.038941
0.0285496 0.04094 0.0390173
0.0285344 0.0409705 0.0390631
0.0285191 0.0409705 0.0391089
0.0285191 0.0409705 0.0391241
0.0285191 0.0409857 0.0391394
0.0285191 0.0409857 0.0391241
0.0285191 0.0409857 0.0391089
0.0285344 0.0409705 0.0390631
0.0287327 0.0409705 0.0390478
0.0307469 0.0410468 0.0394446
0.0363012 0.0411688 0.0404059
0.0472572 0.0425727 0.0413977
0.062089 0.0452735 0.0423438
0.0792248 0.0484627 0.0437171
0.0972305 0.0509346 0.0447089
0.117357 0.0529488 0.0451362
0.142275 0.0544137 0.0445411
0.169665 0.0550088 0.0426337
0.200244 0.0543679 0.0407263
0.234028 0.0531777 0.0393225
0.270527 0.0516518 0.0387121
0.308614 0.0501106 0.0377661
0.349569 0.0484169 0.037171
0.390631 0.046479 0.0374304
0.428275 0.0450599 0.0384375
0.458137 0.0448768 0.0403906
0.488167 0.0437781 0.0525826
0.510384 0.0453651 0.058381
0.531395 0.0476692 0.0661936
0.547555 0.0494698 0.0711833
0.56321 0.0512703 0.0763104
0.578164 0.053315 0.0814679
0.593561 0.0567483 0.0871138
0.609262 0.0610513 0.0933852
0.624399 0.0654154 0.10016
0.638972 0.0704509 0.108003
0.652201 0.0760815 0.122866
0.67155 0.0889601 0.149767
0.692393 0.107759 0.1738
0.706233 0.118822 0.190753
0.716091 0.124163 0.204547
0.724422 0.129061 0.218753
0.726635 0.127153 0.229206
0.724208 0.118639 0.238285
0.727031 0.117525 0.253727
0.732052 0.119402 0.272435
0.738186 0.123156 0.29279
0.745617 0.12903 0.314778
0.753033 0.133639 0.34107
0.756359 0.131273 0.369787
0.758724 0.128786 0.398077
0.760235 0.12668 0.423865
0.761303 0.125277 0.447242
0.762036 0.124697 0.468757
0.761227 0.123568 0.489998
0.759182 0.121889 0.508721
0.756252 0.1196 0.524239
0.752102 0.116289 0.536446
0.747845 0.112993 0.546075
0.744137 0.11014 0.553597
0.741085 0.107958 0.55877
0.0288243 0.0407416 0.0382544
0.028809 0.0407568 0.0382849
0.0287938 0.0407568 0.0383307
0.0287938 0.0407721 0.0383764
0.0287785 0.0407874 0.038407
0.0287633 0.0408026 0.0384527
0.028748 0.0408026 0.0384833
0.028748 0.0408179 0.0384985
0.0287327 0.0408179 0.0385138
0.0287327 0.0408179 0.038529
0.0287327 0.0408179 0.0385138
0.0287327 0.0408179 0.0385138
0.0287785 0.0408179 0.0384985
0.0300145 0.04094 0.038819
0.0342412 0.0413672 0.0398718
0.0438697 0.0426032 0.0412146
0.0572519 0.0456245 0.0422217
0.0738842 0.0493477 0.0438239
0.0912337 0.0520485 0.0451972
0.111467 0.0542 0.045716
0.135485 0.055848 0.0450141
0.163516 0.0561227 0.0435492
0.194064 0.0554665 0.0412909
0.226886 0.0544442 0.0398718
0.26389 0.0529641 0.0382849
0.301122 0.0513008 0.0383459
0.342779 0.049424 0.0379797
0.384741 0.0470893 0.03888
0.423957 0.0451209 0.0404212
0.456748 0.0442206 0.0435187
0.484016 0.0443275 0.0485389
0.507805 0.0457313 0.0554971
0.529641 0.0477607 0.0641184
0.546685 0.0495155 0.0704356
0.562722 0.051194 0.0762951
0.577935 0.0531624 0.0819409
0.59382 0.0565805 0.0880903
0.609232 0.0607767 0.0942092
0.624292 0.0651713 0.100282
0.63827 0.0693065 0.108263
0.647547 0.0733654 0.116258
0.663005 0.0823529 0.138903
0.685603 0.101076 0.166735
0.702525 0.115892 0.186831
0.713405 0.122316 0.201251
0.722759 0.127779 0.215763
0.727947 0.129686 0.229068
0.724117 0.11928 0.236118
0.726268 0.117281 0.250813
0.731258 0.119066 0.269474
0.737102 0.122301 0.289738
0.744579 0.128099 0.312245
0.752697 0.134035 0.337896
0.756054 0.131441 0.367758
0.758526 0.128908 0.396811
0.760006 0.126818 0.422171
0.76112 0.125292 0.446342
0.761929 0.124773 0.467185
0.761196 0.123629 0.489281
0.759258 0.122026 0.507881
0.756405 0.119768 0.523598
0.752346 0.116548 0.535912
0.748302 0.113359 0.545007
0.74464 0.110552 0.553048
0.741863 0.108583 0.557717
0.0288243 0.0407416 0.0382544
0.028809 0.0407568 0.0382849
0.0287938 0.0407568 0.0383307
0.0287938 0.0407721 0.0383764
0.0287785 0.0407874 0.038407
0.0287633 0.0408026 0.0384527
0.028748 0.0408026 0.0384833
0.0287327 0.0408179 0.0384985
0.0287327 0.0408179 0.0385138
0.0287327 0.0408179 0.038529
0.0287327 0.0408179 0.038529
0.0287327 0.0408179 0.0385138
0.028748 0.0408179 0.0385138
0.0294957 0.04094 0.0387274
0.0328527 0.0415656 0.0396735
0.0409857 0.0428016 0.0415808
0.0534524 0.0459297 0.0425574
0.0688945 0.0502785 0.0442206
0.0862898 0.0533913 0.0457465
0.106416 0.0554513 0.0463111
0.130251 0.0567025 0.0460975
0.158663 0.0569467 0.0444648
0.188251 0.0565805 0.0413214
0.221744 0.055436 0.0402228
0.257481 0.054078 0.0388037
0.295613 0.0524605 0.0375219
0.335729 0.0505379 0.0383764
0.377935 0.048127 0.0389563
0.418112 0.0457923 0.0402991
0.453666 0.0443275 0.0432593
0.48188 0.0443732 0.048188
0.506096 0.0455024 0.0550851
0.527276 0.0471656 0.0625162
0.546334 0.0493935 0.0708476
0.562432 0.0510262 0.0767224
0.578134 0.0530556 0.0827649
0.593866 0.0563821 0.0889448
0.609354 0.0606088 0.0948959
0.624308 0.0650034 0.100771
0.637339 0.0690166 0.10663
0.64596 0.0725719 0.113771
0.656291 0.0784924 0.128801
0.67747 0.0937514 0.157107
0.697368 0.111528 0.180255
0.710536 0.121004 0.197009
0.721172 0.126909 0.212436
0.727672 0.130449 0.226719
0.723461 0.119356 0.233082
0.725582 0.117113 0.248157
0.730358 0.118654 0.266316
0.736217 0.121706 0.286992
0.743481 0.127153 0.309606
0.752422 0.134493 0.334707
0.755795 0.131609 0.365713
0.758251 0.129137 0.394263
0.759854 0.126894 0.421103
0.760906 0.125353 0.444984
0.761761 0.124773 0.466728
0.761166 0.12369 0.488457
0.759274 0.122133 0.507057
0.756512 0.11989 0.522881
0.752667 0.116884 0.535027
0.748486 0.113558 0.54461
0.744976 0.110826 0.552621
0.74229 0.108934 0.557244
0.0288396 0.0407416 0.0382696
0.028809 0.0407568 0.0382849
0.0287938 0.0407568 0.0383307
0.0287938 0.0407721 0.0383764
0.0287785 0.0407874 0.038407
0.0287633 0.0408026 0.0384527
0.028748 0.0408026 0.0384833
0.0287327 0.0408179 0.0384985
0.0287327 0.0408179 0.0385138
0.0287327 0.0408179 0.038529
0.0287327 0.0408179 0.038529
0.0287327 0.0408179 0.038529
0.0287327 0.0408179 0.0385138
0.0291752 0.0409247 0.0386664
0.0317998 0.0416571 0.0395666
0.0386053 0.0431983 0.0415808
0.0502632 0.0463264 0.0430762
0.0648814 0.0511025 0.0449073
0.0815442 0.0547189 0.0462348
0.101442 0.0568246 0.0469978
0.125795 0.057557 0.0468452
0.153353 0.0577707 0.0447242
0.18407 0.0572824 0.0423896
0.21706 0.0563211 0.0402075
0.2533 0.0548562 0.0394141
0.291203 0.0532845 0.0382086
0.330785 0.0513771 0.0387732
0.373617 0.0488899 0.0392767
0.413581 0.0463417 0.0404669
0.451301 0.044419 0.0432593
0.47982 0.0443885 0.0479591
0.504295 0.0453193 0.0546883
0.526482 0.0471046 0.0627451
0.545998 0.0492866 0.0711528
0.562509 0.0509499 0.0772564
0.578088 0.0529335 0.0833143
0.593866 0.056199 0.0896315
0.609506 0.0603647 0.0959487
0.624598 0.064744 0.102068
0.6374 0.0687114 0.107073
0.644404 0.0707256 0.113024
0.651621 0.0750896 0.123003
0.670497 0.0879377 0.148974
0.692851 0.107134 0.175998
0.708171 0.119295 0.194568
0.719036 0.125338 0.209964
0.726726 0.1299 0.22472
0.72462 0.121523 0.232792
0.725139 0.117235 0.245762
0.729717 0.118334 0.264042
0.735286 0.12108 0.284215
0.742504 0.126314 0.306783
0.751476 0.133639 0.332586
0.755428 0.131899 0.362371
0.758068 0.129244 0.392874
0.759701 0.127016 0.419577
0.760723 0.125368 0.444343
0.761517 0.124727 0.466316
0.76109 0.123751 0.487541
0.759258 0.12224 0.506416
0.756634 0.120089 0.522164
0.752773 0.117067 0.53489
0.748592 0.11371 0.544396
0.745159 0.111055 0.552621
0.742687 0.109285 0.55668
0.0288701 0.0409705 0.0384222
0.0288243 0.0407721 0.0383154
0.0288243 0.0409094 0.0384375
0.028809 0.0409094 0.038468
0.0287938 0.0408942 0.0384833
0.0287938 0.0408637 0.0384985
0.0287938 0.0408484 0.0385138
0.0287785 0.0408484 0.038529
0.028748 0.0408331 0.038529
0.0287327 0.0408179 0.0385443
0.0287327 0.0408179 0.0385443
0.0287327 0.0408331 0.0385443
0.0289006 0.0409705 0.0386664
0.0294957 0.0412909 0.0389715
0.0320287 0.0421912 0.0398108
0.0379339 0.0445106 0.0419013
0.0489052 0.0480507 0.0439002
0.0621805 0.0525978 0.045243
0.0784619 0.0565042 0.0470741
0.0977798 0.0585489 0.0472572
0.121141 0.0587472 0.0470588
0.149325 0.0585184 0.0454566
0.179904 0.057969 0.043122
0.212787 0.057084 0.0409094
0.249683 0.0555734 0.0400702
0.286458 0.0541238 0.0388037
0.326452 0.0522774 0.0382391
0.367498 0.0498512 0.039765
0.409323 0.0469825 0.0410925
0.447486 0.04477 0.0435798
0.477882 0.0443275 0.0482948
0.502708 0.0449989 0.0543526
0.525414 0.0469062 0.0628519
0.545846 0.049134 0.0715648
0.562417 0.0508125 0.0778515
0.577996 0.052781 0.0839551
0.593805 0.0560311 0.0902571
0.609583 0.0601511 0.0967422
0.62501 0.0646067 0.103059
0.63772 0.0685588 0.107912
0.643336 0.0703441 0.111055
0.649134 0.0737316 0.119265
0.663676 0.0831464 0.139376
0.687205 0.1019 0.169314
0.704448 0.116411 0.18999
0.716564 0.123919 0.206104
0.725643 0.129473 0.222004
0.726009 0.124514 0.23183
0.724636 0.11725 0.243442
0.729015 0.118044 0.261509
0.734462 0.120577 0.281453
0.741939 0.125887 0.304738
0.750225 0.132479 0.329473
0.755184 0.132082 0.360296
0.75787 0.129458 0.390417
0.759564 0.127123 0.418112
0.760555 0.125399 0.443458
0.761303 0.124697 0.465049
0.760983 0.123812 0.4869
0.759213 0.122377 0.50576
0.756634 0.120226 0.521859
0.75288 0.117327 0.534783
0.748943 0.114137 0.543816
0.745556 0.111452 0.552132
0.743435 0.109895 0.55555
0.0289311 0.0412451 0.0388037
0.0288701 0.0414282 0.0386664
0.0289158 0.0420844 0.0390173
0.0289769 0.0425116 0.0393072
0.0289311 0.0422675 0.0392004
0.0288701 0.0422522 0.0392004
0.0288396 0.0421302 0.0391546
