bundles/resolve-cinematic-luts/Phantom Luts/Apple Log Phantom LUTS/iPhone 15 Phantom ARRI LUTs/65x/IceBlue_Legacy Iphone15_65x.cube
TITLE "Generated by Resolve"
LUT_3D_SIZE 9
0.0390631 0.0509499 0.051667
0.0390784 0.0509499 0.0516365
0.112596 0.053315 0.0529641
0.307774 0.0489357 0.0451362
0.507134 0.0538033 0.0627604
0.668864 0.100191 0.155993
0.711604 0.112734 0.226246
0.756359 0.131807 0.364645
0.750591 0.117861 0.502251
0.0391394 0.0508888 0.0514839
0.0389868 0.0510567 0.0518654
0.0576944 0.0545968 0.0532998
0.219425 0.0552224 0.0488899
0.510033 0.046952 0.0614786
0.62681 0.0661173 0.104463
0.709499 0.122194 0.212955
0.755779 0.132067 0.360754
0.750988 0.117632 0.501671
0.0394446 0.0747845 0.064271
0.04065 0.0675822 0.0586252
0.0620584 0.0713359 0.0598459
0.193698 0.0742504 0.0577859
0.491569 0.0457923 0.0569009
0.625727 0.0642252 0.105074
0.694865 0.114534 0.191302
0.753124 0.133639 0.341543
0.751095 0.11902 0.499046
0.0249943 0.219593 0.104326
0.0247501 0.230274 0.0648661
0.0276646 0.208423 0.0675822
0.206439 0.218753 0.0510872
0.528695 0.198566 0.0938277
0.642969 0.0991073 0.110201
0.622354 0.0659495 0.0952163
0.731456 0.1178 0.278798
0.754635 0.122301 0.458076
0.0238193 0.448066 0.171283
0.0258793 0.477226 0.140764
0.0289616 0.487037 0.0838178
0.02916 0.484901 0.0734569
0.435538 0.486656 0.0396429
0.796902 0.482689 0.212253
0.837324 0.393881 0.244434
0.677501 0.121019 0.126284
0.689708 0.110246 0.186557
0.11931 0.733837 0.438087
0.129122 0.748699 0.432151
0.135821 0.757565 0.424735
0.170047 0.786023 0.396429
0.218341 0.784955 0.241077
0.724544 0.783368 0.229374
0.926696 0.779812 0.331502
0.915724 0.749889 0.316899
0.91281 0.743633 0.313161
0.23386 0.858869 0.68748
0.233341 0.859007 0.683848
0.230686 0.859937 0.67657
0.228 0.860441 0.652811
0.220203 0.86389 0.547707
0.37435 0.869062 0.299321
0.921508 0.914855 0.393149
0.972168 0.925826 0.437217
0.974472 0.929732 0.452552
0.255283 0.851987 0.800488
0.25478 0.852369 0.799878
0.251911 0.852827 0.795987
0.249912 0.852613 0.786679
0.244724 0.851896 0.75845
0.229847 0.869291 0.609659
0.791714 0.935637 0.47013
0.985428 0.952895 0.544717
0.988342 0.954345 0.562173
0.258946 0.852995 0.819226
0.258122 0.853178 0.818067
0.257755 0.853025 0.815167
0.255467 0.852506 0.806256
0.248051 0.85153 0.771588
0.390539 0.919219 0.635843
0.913527 0.953155 0.592859
0.98822 0.959609 0.617899
0.987274 0.959381 0.623652
0.0390936 0.0509499 0.051606
0.0390936 0.0509499 0.051606
0.146014 0.0522774 0.112367
0.354055 0.0528267 0.139528
0.562371 0.0734569 0.155657
0.706416 0.117556 0.215702
0.726177 0.114183 0.268605
0.75758 0.12726 0.41146
0.74432 0.114992 0.525017
0.0390936 0.0509499 0.0516213
0.0390478 0.0510262 0.0517586
0.117769 0.0530556 0.0551156
0.322957 0.0510262 0.0619059
0.537972 0.0628214 0.10251
0.684108 0.106661 0.181109
0.717174 0.11104 0.24686
0.757519 0.128115 0.404578
0.74461 0.115007 0.523949
0.0349432 0.10132 0.100053
0.0363622 0.10135 0.0766155
0.0738994 0.0895552 0.0635691
0.249027 0.0661784 0.0537728
0.512352 0.046479 0.0626535
0.647593 0.0754711 0.138872
0.715572 0.119844 0.231754
0.756344 0.129488 0.388586
0.747448 0.117067 0.514412
0.0241398 0.226566 0.155642
0.0251011 0.235386 0.105943
0.0244907 0.244007 0.0636149
0.20415 0.231708 0.046891
0.548806 0.189685 0.0996567
0.643275 0.0936599 0.114
0.653376 0.08159 0.143069
0.741726 0.123293 0.313313
0.752941 0.120882 0.47541
0.0239109 0.439673 0.209369
0.0246738 0.46453 0.177798
0.0260624 0.480705 0.156954
0.0323186 0.501274 0.0790417
0.429023 0.49012 0.039704
0.800168 0.479927 0.215015
0.837888 0.392401 0.246525
0.680934 0.122866 0.131273
0.703075 0.113771 0.211048
0.118837 0.73228 0.458427
0.126787 0.744625 0.449729
0.131289 0.750942 0.440635
0.149508 0.772168 0.414618
0.216983 0.7832 0.240253
0.72195 0.782559 0.228626
0.92491 0.778561 0.332418
0.91519 0.748562 0.316579
0.913039 0.742351 0.311452
0.235447 0.858076 0.695262
0.235508 0.858076 0.692134
0.233616 0.858976 0.685893
0.229557 0.860304 0.663844
0.218875 0.862318 0.561685
0.361669 0.873686 0.327062
0.922652 0.918761 0.406409
0.975326 0.929198 0.450828
0.97583 0.932448 0.46331
0.255711 0.852033 0.80264
0.255421 0.852369 0.801816
0.252628 0.852735 0.797879
0.25095 0.852491 0.78854
0.245823 0.851652 0.760494
0.232395 0.869825 0.617288
0.784253 0.934936 0.481773
0.985885 0.953475 0.549081
0.988907 0.954681 0.564935
0.259983 0.852781 0.82034
0.259693 0.852842 0.819074
0.258457 0.852964 0.816464
0.255756 0.852598 0.807675
0.248646 0.851621 0.774395
0.375402 0.918379 0.645472
0.902144 0.95227 0.596124
0.988602 0.960174 0.626032
0.987503 0.959838 0.631785
0.0364385 0.0521248 0.0871443
0.0719615 0.0500343 0.0890669
0.14931 0.0510567 0.139864
0.350256 0.0470436 0.196231
0.570199 0.0652781 0.185641
0.716381 0.119066 0.235492
0.734508 0.117861 0.293004
0.756939 0.12491 0.430488
0.740673 0.112596 0.535683
0.0386969 0.055314 0.0615702
0.0354925 0.0522621 0.101869
0.137026 0.0505989 0.136004
0.352605 0.0538338 0.122988
0.56321 0.0728161 0.141756
0.700618 0.114534 0.206104
0.725643 0.113558 0.268269
0.757107 0.125551 0.424826
0.740902 0.112474 0.534859
0.0328832 0.108461 0.117372
0.0330053 0.105882 0.115434
0.0657206 0.0887007 0.100877
0.255543 0.0730907 0.0903029
0.548058 0.0689555 0.124285
0.685145 0.105776 0.18584
0.717678 0.111086 0.24831
0.757214 0.127367 0.412177
0.743557 0.114717 0.527382
0.0229191 0.227237 0.181506
0.0244907 0.233036 0.151537
0.0251774 0.235355 0.118807
0.188983 0.230564 0.0791638
0.548653 0.183978 0.119631
0.64564 0.0925002 0.122728
0.687526 0.108415 0.18584
0.749676 0.129641 0.339193
0.751553 0.120012 0.491524
0.0239261 0.433738 0.237064
0.0240787 0.454246 0.205463
0.0248569 0.467109 0.18378
0.0292515 0.487816 0.0816205
0.419379 0.483925 0.0379797
0.796368 0.472419 0.214267
0.83624 0.384192 0.248249
0.69073 0.126848 0.148455
0.71664 0.116732 0.237903
0.118807 0.730358 0.473198
0.12549 0.741512 0.464958
0.128252 0.745983 0.454566
0.139315 0.761517 0.425406
0.195712 0.771176 0.24213
0.714595 0.775372 0.222538
0.923873 0.77171 0.332326
0.915343 0.740826 0.321401
0.920241 0.735958 0.331518
0.236408 0.857496 0.701167
0.23621 0.857603 0.698543
0.234592 0.858351 0.692576
0.231556 0.8598 0.672526
0.218738 0.860105 0.575082
0.349706 0.876844 0.351415
0.921553 0.921904 0.415396
0.977127 0.932296 0.461128
0.977691 0.935866 0.474861
0.256519 0.852018 0.804517
0.256123 0.852338 0.80351
0.253178 0.852781 0.799588
0.251377 0.852537 0.790204
0.246509 0.851545 0.762478
0.231846 0.869627 0.623728
0.770886 0.934005 0.491203
0.986007 0.953796 0.558541
0.989044 0.955169 0.570947
0.261021 0.852842 0.823499
0.261036 0.852811 0.822461
0.260441 0.852735 0.819547
0.257221 0.852598 0.811719
0.250538 0.851774 0.780865
0.350164 0.914717 0.661906
0.881804 0.95256 0.607263
0.989273 0.961486 0.64065
0.988602 0.961181 0.64303
0.0242008 0.0466316 0.242039
0.156313 0.0395361 0.269642
0.242176 0.0374914 0.269657
0.341665 0.0373236 0.271168
0.574517 0.058732 0.281605
0.729274 0.11487 0.280842
0.751034 0.130266 0.346029
0.753811 0.120806 0.475013
0.731121 0.105455 0.556909
0.0289006 0.0777295 0.178775
0.0214389 0.0454719 0.269169
0.112764 0.0396429 0.300877
0.344427 0.0370947 0.28333
0.58761 0.0667277 0.242725
0.722377 0.112062 0.261173
0.747097 0.127749 0.33051
0.753994 0.120897 0.474098
0.730526 0.104555 0.55787
0.0241245 0.139269 0.184665
0.0211337 0.107668 0.223896
0.0348974 0.0836957 0.23328
0.267445 0.0557259 0.239918
0.581353 0.065568 0.238514
0.716442 0.10956 0.249088
0.741268 0.122026 0.315282
0.754559 0.121675 0.4645
0.732097 0.106172 0.553826
0.0199588 0.228351 0.226398
0.0197604 0.229648 0.228794
0.0198367 0.227527 0.228458
0.18967 0.236576 0.245136
0.581628 0.216068 0.238468
0.724849 0.163729 0.232822
0.720653 0.111284 0.257694
0.756954 0.127077 0.413733
0.741176 0.114168 0.535088
0.023682 0.423148 0.302937
0.0241245 0.43827 0.290532
0.0244297 0.443915 0.274159
0.0241703 0.451972 0.215427
0.392309 0.493599 0.174487
0.838376 0.49012 0.307744
0.882536 0.405432 0.336721
0.77026 0.200412 0.260166
0.743374 0.124376 0.319448
0.121202 0.727703 0.512474
0.126604 0.73724 0.507652
0.127031 0.739116 0.498604
0.12639 0.742046 0.46421
0.149676 0.76083 0.358144
0.704753 0.778943 0.25388
0.948531 0.763989 0.395361
0.948287 0.734096 0.396307
0.956832 0.729397 0.41471
0.240085 0.855406 0.716793
0.239841 0.85568 0.715145
0.237995 0.856504 0.710857
0.235294 0.857877 0.69546
0.222385 0.858671 0.616342
0.324819 0.884291 0.424857
0.916259 0.93022 0.442786
0.980957 0.94107 0.493828
0.979889 0.944152 0.511406
0.258473 0.852247 0.810788
0.259373 0.852033 0.809812
0.255741 0.852674 0.806043
0.254261 0.852232 0.796933
0.25008 0.851118 0.771099
0.234577 0.866682 0.650935
0.750927 0.933791 0.530755
0.987366 0.956069 0.588922
0.989364 0.957519 0.602747
0.26537 0.852598 0.831693
0.264973 0.852567 0.831113
0.264378 0.852522 0.828733
0.260563 0.852888 0.821744
0.254719 0.851835 0.796658
0.308095 0.898451 0.696315
0.853681 0.952728 0.654292
0.988556 0.96466 0.684825
0.989288 0.96376 0.684779
0.0141451 0.0514992 0.45362
0.0734569 0.0475624 0.492454
0.180972 0.0442969 0.507958
0.37113 0.04271 0.499687
0.566903 0.0507668 0.457053
0.752483 0.120348 0.462684
0.749599 0.118196 0.503532
0.728893 0.10396 0.561929
0.725063 0.102174 0.601389
0.0099031 0.0783703 0.388968
0.0101625 0.0505379 0.428504
0.0272679 0.0493324 0.456367
0.276585 0.0438239 0.522622
0.568978 0.0523079 0.474006
0.752544 0.1205 0.467765
0.747143 0.117235 0.514397
0.725124 0.101091 0.568414
0.725719 0.102953 0.606424
0.0102998 0.125994 0.382147
0.00968948 0.0882277 0.424231
0.00968948 0.0738079 0.427665
0.165026 0.0463417 0.468101
0.52517 0.0454261 0.44004
0.751354 0.119936 0.471305
0.748241 0.11809 0.510018
0.725567 0.102159 0.56817
0.725063 0.102876 0.606424
0.0128023 0.240391 0.355947
0.0111849 0.221073 0.38674
0.0106203 0.206607 0.405875
0.0638437 0.202762 0.436866
0.534874 0.134646 0.480293
0.768582 0.158587 0.434638
0.752316 0.12018 0.484398
0.733532 0.107759 0.551705
0.72462 0.101061 0.594995
0.0237736 0.423087 0.409461
0.0246128 0.431479 0.418311
0.0248722 0.432273 0.419654
0.0244907 0.428046 0.417639
0.420233 0.490562 0.494774
0.904936 0.510369 0.53019
0.944427 0.438911 0.516243
0.804364 0.190723 0.457328
0.739116 0.111696 0.539544
0.125399 0.710689 0.593408
0.131212 0.71902 0.598733
0.131868 0.720745 0.596765
0.12987 0.721981 0.583413
0.109087 0.707683 0.500572
0.651225 0.780835 0.458946
0.989715 0.779629 0.56849
0.992676 0.761486 0.581125
0.994049 0.763424 0.621988
0.245563 0.851682 0.748089
0.246799 0.850935 0.748318
0.244694 0.851362 0.745586
0.242878 0.851957 0.738125
0.238621 0.856565 0.703578
0.375799 0.909651 0.588556
0.893645 0.943191 0.549355
0.985611 0.949798 0.605447
0.984955 0.952575 0.633417
0.266819 0.851926 0.827497
0.266957 0.851987 0.827054
0.26421 0.852415 0.824247
0.261738 0.852384 0.817502
0.258122 0.851423 0.797864
0.245762 0.861646 0.719066
0.752483 0.939773 0.651881
0.989288 0.963928 0.688167
0.99057 0.965423 0.707271
0.271748 0.853864 0.845579
0.271626 0.85359 0.845289
0.270451 0.853574 0.843809
0.269215 0.853284 0.839857
0.266224 0.852033 0.827619
0.275547 0.869963 0.758526
0.83856 0.956832 0.763958
0.992111 0.97229 0.772793
0.992569 0.971435 0.769253
0.0113527 0.0586099 0.520928
0.0111086 0.0516365 0.52134
0.0296483 0.0570382 0.548592
0.145785 0.0591592 0.612833
0.488624 0.0682078 0.653284
0.715038 0.103563 0.62826
0.721782 0.107622 0.641871
0.717189 0.112047 0.674571
0.711345 0.116243 0.702983
0.0183719 0.165179 0.581765
0.0180209 0.142977 0.587823
0.0171969 0.129198 0.580758
0.0855726 0.106859 0.620752
0.442451 0.0744335 0.65861
0.688045 0.0927749 0.606287
0.720455 0.109071 0.652079
0.714397 0.114122 0.688624
0.711437 0.116243 0.70277
0.0209049 0.209461 0.5906
0.0216068 0.189868 0.601221
0.0218357 0.186557 0.602487
0.0693675 0.160861 0.63154
0.437064 0.1122 0.692927
0.688396 0.0964981 0.617792
0.719356 0.109331 0.655116
0.713634 0.114275 0.69015
0.710857 0.11632 0.703532
0.0263676 0.300267 0.598352
0.0281682 0.290379 0.612268
0.0288701 0.282567 0.61767
0.0311589 0.263645 0.611673
0.394491 0.216724 0.738079
0.743954 0.181308 0.677928
0.723476 0.104234 0.618936
0.716976 0.112032 0.674571
0.710079 0.116411 0.704646
0.0522469 0.493263 0.605737
0.0550546 0.495521 0.617975
0.0560311 0.493355 0.623835
0.0556344 0.481743 0.633066
0.269566 0.492302 0.705974
0.79762 0.401633 0.765896
0.909606 0.351629 0.755978
0.815274 0.22034 0.69897
0.722805 0.111192 0.649271
0.154025 0.711421 0.705867
0.159777 0.717861 0.712795
0.159014 0.716884 0.712291
0.15697 0.714 0.710231
0.13611 0.687312 0.683619
0.697566 0.766003 0.77879
0.990326 0.78648 0.818067
0.996506 0.736614 0.820294
0.997589 0.705806 0.845624
0.26363 0.851514 0.812573
0.264927 0.851102 0.814298
0.262989 0.851331 0.813001
0.260945 0.851514 0.809033
0.256748 0.851331 0.78941
0.341787 0.883146 0.76556
0.882063 0.952926 0.796689
0.992615 0.943053 0.82298
0.991012 0.947753 0.84712
0.276661 0.853941 0.850217
0.276448 0.85417 0.850385
0.273762 0.854551 0.849424
0.271763 0.854322 0.846754
0.271946 0.852934 0.839734
0.255161 0.851911 0.781811
0.80853 0.959823 0.846586
0.99144 0.979782 0.845029
0.98999 0.980743 0.856718
0.276173 0.855116 0.854566
0.276616 0.854856 0.854566
0.276555 0.854749 0.854719
0.27628 0.854871 0.854734
0.277043 0.854719 0.85449
0.306142 0.864103 0.81912
0.864317 0.972244 0.905074
0.989441 0.983886 0.891203
0.988846 0.983276 0.883726
0.0511025 0.357214 0.701228
0.0504005 0.353567 0.700664
0.049134 0.344366 0.698619
0.114412 0.357519 0.753094
0.361517 0.331884 0.852811
0.72343 0.276753 0.841352
0.807233 0.238239 0.783551
0.710979 0.116838 0.707317
0.710674 0.116381 0.704463
0.063035 0.417304 0.714672
0.0632944 0.420493 0.715251
0.0608377 0.406699 0.712764
0.118578 0.424033 0.760189
0.376654 0.415595 0.882307
0.754818 0.335988 0.876204
0.851026 0.30013 0.823102
0.763058 0.185351 0.752743
0.71313 0.12108 0.710887
0.0683452 0.440848 0.719722
0.0689708 0.445289 0.720272
0.0656596 0.428275 0.71722
0.113558 0.44715 0.757153
0.373693 0.448829 0.886992
0.757107 0.360922 0.891783
0.864332 0.322942 0.837095
0.794476 0.224384 0.777005
0.730861 0.145205 0.728267
0.081529 0.49543 0.729168
0.0822309 0.499382 0.729381
0.0788128 0.484688 0.727123
0.0869917 0.484794 0.735698
0.354879 0.508965 0.881163
0.759869 0.417456 0.918883
0.88777 0.366888 0.860151
0.847257 0.292866 0.81767
0.808026 0.242756 0.789364
0.119173 0.604746 0.749081
0.119966 0.607034 0.749416
0.119646 0.605692 0.749432
0.110246 0.583856 0.742596
0.288319 0.617151 0.839933
0.722805 0.566812 0.956847
0.93077 0.481041 0.905394
0.911223 0.417243 0.881056
0.902998 0.400519 0.875074
0.201968 0.751675 0.798154
0.204135 0.754635 0.800549
0.203464 0.752865 0.800137
0.200168 0.747997 0.798718
0.184604 0.726223 0.783169
0.654353 0.775845 0.912795
0.956115 0.737469 0.942565
0.962631 0.696956 0.937591
0.960037 0.701274 0.947066
0.278508 0.854551 0.85391
0.278431 0.854612 0.853895
0.279011 0.854246 0.853941
0.278202 0.854429 0.85417
0.277562 0.854871 0.853941
0.402686 0.869352 0.867262
0.910079 0.945251 0.954009
0.990555 0.942443 0.95819
0.987274 0.944686 0.969924
0.279347 0.854337 0.853697
0.280797 0.853971 0.8533
0.279789 0.854093 0.853681
0.278035 0.854414 0.854261
0.278721 0.854536 0.853819
0.276005 0.854215 0.8448
0.83473 0.958083 0.951614
0.992096 0.988495 0.969192
0.991516 0.988891 0.973053
0.278386 0.854627 0.85391
0.278477 0.854597 0.853895
0.27834 0.85449 0.854047
0.278004 0.854551 0.85417
0.279728 0.854124 0.853681
0.350652 0.872557 0.869566
0.871427 0.967102 0.972778
0.99321 0.989013 0.981842
0.991638 0.989013 0.976822
0.126085 0.620386 0.752255
0.128328 0.626245 0.752499
0.157778 0.634638 0.768277
0.237644 0.652598 0.8112
0.416068 0.672343 0.876539
0.732448 0.636393 0.961685
0.946105 0.5673 0.922881
0.94255 0.524529 0.913558
0.939803 0.529183 0.915785
0.141222 0.649805 0.759945
0.143404 0.655802 0.759441
0.171939 0.664942 0.773983
0.258503 0.685359 0.818311
0.455146 0.704646 0.882048
0.758099 0.680507 0.963378
0.94931 0.618097 0.931517
0.946273 0.576928 0.924086
0.946258 0.583551 0.925124
0.146288 0.659953 0.762371
0.148577 0.665629 0.762356
0.168902 0.672129 0.771969
0.259663 0.694286 0.817945
0.458869 0.713664 0.881331
0.756741 0.694987 0.963363
0.950408 0.632517 0.933684
0.947631 0.594232 0.926818
0.947814 0.602914 0.928054
0.155016 0.676219 0.765866
0.158099 0.682399 0.767727
0.159686 0.6822 0.767773
0.247959 0.706432 0.811994
0.451835 0.728298 0.879683
0.755901 0.720684 0.96408
0.954498 0.660533 0.937819
0.951858 0.62475 0.930282
0.949264 0.633143 0.932342
0.173754 0.70898 0.775372
0.179309 0.716869 0.780407
0.180148 0.717968 0.781735
0.192935 0.720424 0.785885
0.409964 0.759441 0.870878
0.743053 0.772717 0.950256
0.959579 0.723033 0.949142
0.960296 0.692851 0.942519
0.961151 0.702831 0.944823
0.237369 0.799329 0.824247
0.233921 0.794446 0.821714
0.226261 0.784268 0.816266
0.223941 0.781521 0.814069
0.305882 0.80206 0.846067
0.706813 0.838239 0.931563
0.945998 0.845014 0.965759
0.971923 0.823362 0.961135
0.971023 0.834134 0.96463
0.279545 0.854368 0.853559
0.280293 0.854154 0.853391
0.28011 0.854032 0.85359
0.279988 0.854002 0.853666
0.276844 0.852003 0.848936
0.520088 0.896498 0.905013
0.914519 0.955856 0.975326
0.98909 0.95494 0.981857
0.988403 0.960159 0.984482
0.279957 0.854185 0.853513
0.281743 0.853742 0.85304
0.280888 0.853941 0.853269
0.279454 0.854154 0.853803
0.279896 0.854261 0.853483
0.357626 0.874083 0.871153
0.855146 0.963653 0.971252
0.993347 0.989731 0.992416
0.992752 0.989868 0.992966
0.280186 0.854154 0.853437
0.280003 0.854261 0.853422
0.279835 0.8542 0.853559
0.279179 0.854246 0.853849
0.280461 0.853925 0.853498
0.462394 0.89308 0.893935
0.880659 0.968933 0.975769
0.993454 0.98967 0.992325
0.992691 0.989883 0.993011
0.181506 0.710475 0.778653
0.249256 0.733562 0.81207
0.27686 0.739803 0.824704
0.337652 0.749554 0.84828
0.515923 0.761059 0.891249
0.765316 0.774273 0.95671
0.96144 0.732006 0.950698
0.963699 0.711116 0.94464
0.956115 0.683574 0.93991
0.21825 0.734859 0.798672
0.27483 0.753872 0.825391
0.300435 0.759319 0.835721
0.36611 0.769985 0.859602
0.551247 0.780438 0.897597
0.789837 0.800824 0.95581
0.966064 0.763836 0.955795
0.962798 0.725887 0.948302
0.956436 0.689097 0.940993
0.226429 0.742184 0.803586
0.279774 0.760327 0.828626
0.303716 0.764675 0.837995
0.369223 0.775021 0.860716
0.554299 0.784894 0.897261
0.789837 0.806271 0.953765
0.965957 0.768261 0.956283
0.962722 0.73341 0.948821
0.955932 0.696895 0.941405
0.225391 0.749828 0.804685
0.274647 0.766644 0.827558
0.299077 0.771939 0.837674
0.3626 0.781765 0.85864
0.549966 0.793072 0.897002
0.790448 0.818112 0.949325
0.966949 0.784024 0.957397
0.965362 0.749844 0.950118
0.957244 0.720287 0.944976
0.214664 0.764828 0.805722
0.24593 0.776089 0.818387
0.273533 0.784451 0.831128
0.333272 0.795666 0.852216
0.514382 0.812329 0.892302
0.782147 0.840711 0.941772
0.96463 0.822644 0.960555
0.968093 0.797406 0.955825
0.966003 0.778058 0.954482
0.248463 0.811658 0.827741
0.250904 0.814893 0.83035
0.250751 0.814496 0.830533
0.259846 0.813474 0.831434
0.409171 0.842008 0.875471
0.754025 0.877012 0.940597
0.950759 0.897017 0.970581
0.975036 0.881514 0.966659
0.971923 0.880217 0.969406
0.277272 0.855222 0.853895
0.281834 0.85391 0.852934
0.282811 0.853147 0.853056
0.283513 0.854032 0.852216
0.293873 0.857374 0.851774
0.612467 0.91458 0.920104
0.927794 0.970275 0.98024
0.991348 0.971878 0.985687
0.988922 0.974273 0.988464
0.283757 0.853635 0.85214
0.283482 0.853498 0.852399
0.282429 0.853544 0.852872
0.278248 0.854643 0.853956
0.277745 0.855192 0.853697
0.436225 0.887221 0.887236
0.8822 0.966735 0.972641
0.993484 0.98967 0.99234
0.990921 0.990326 0.99469
0.280339 0.854566 0.852979
0.283635 0.853437 0.852384
0.283558 0.853239 0.852598
0.283314 0.853574 0.852415
0.284123 0.853544 0.852049
0.489097 0.895949 0.897734
0.889296 0.970443 0.976974
0.992569 0.989929 0.993103
0.990875 0.990341 0.994659
