bundles/resolve-cinematic-luts/Phantom Luts/Apple Log Phantom LUTS/iPhone 15 Phantom ARRI LUTs/65x/Jamaica Iphone15_65x.cube
TITLE "Generated by Resolve"
LUT_3D_SIZE 65
0.00874342 0.0295262 0.00872816
0.00874342 0.0295262 0.00872816
0.00874342 0.0295262 0.00872816
0.00874342 0.0295415 0.00872816
0.00875868 0.0295415 0.00874342
0.00875868 0.0295567 0.00874342
0.00875868 0.0295567 0.00875868
0.00875868 0.0295415 0.00874342
0.00874342 0.0295262 0.00872816
0.00869764 0.0295109 0.0087129
0.0115969 0.0296025 0.00862135
0.033341 0.0297398 0.00830091
0.0620432 0.029984 0.00886549
0.0935988 0.0306249 0.00994888
0.123598 0.031342 0.0110781
0.153704 0.0318914 0.0123293
0.183841 0.0319524 0.0123903
0.212299 0.0317388 0.0119783
0.240665 0.0314946 0.0115816
0.268284 0.0314946 0.0116579
0.297002 0.0315099 0.0118563
0.325109 0.0319219 0.0140841
0.351583 0.0320287 0.0146639
0.378485 0.0324102 0.0155032
0.403418 0.0327001 0.0166934
0.428519 0.033051 0.0189059
0.452201 0.0331579 0.020325
0.47512 0.0328527 0.0210422
0.494667 0.032578 0.0217594
0.513649 0.0335393 0.0265354
0.534554 0.0372168 0.0395819
0.553719 0.0415961 0.0518196
0.572183 0.0467689 0.0633097
0.590906 0.0533761 0.0789044
0.612757 0.0638895 0.102068
0.631067 0.0751507 0.122042
0.647791 0.0882582 0.141451
0.663935 0.103059 0.161013
0.675959 0.114122 0.176974
0.688472 0.124361 0.192752
0.69659 0.129 0.205112
0.703395 0.133074 0.216434
0.716777 0.144869 0.232959
0.703929 0.12575 0.230365
0.702663 0.11902 0.239338
0.706554 0.118425 0.253193
0.711025 0.118547 0.268391
0.716442 0.119875 0.285664
0.722759 0.122271 0.304143
0.730846 0.126574 0.325307
0.740841 0.132921 0.349508
0.742748 0.129946 0.379889
0.742748 0.127153 0.411368
0.740917 0.124834 0.440223
0.737758 0.123049 0.467247
0.734493 0.122164 0.491096
0.730709 0.122026 0.514672
0.724514 0.120943 0.538216
0.71696 0.118578 0.55761
0.707591 0.114061 0.573343
0.697429 0.107622 0.585397
0.689525 0.101656 0.591897
0.687266 0.100175 0.592767
0.686931 0.100252 0.592233
0.686732 0.100298 0.59173
0.00868238 0.0294804 0.00866712
0.0087129 0.0295109 0.00869764
0.00872816 0.0295262 0.0087129
0.00874342 0.0295415 0.00872816
0.00875868 0.0295567 0.00874342
0.00877394 0.0295567 0.00875868
0.00877394 0.0295567 0.00875868
0.00877394 0.0295567 0.00877394
0.00875868 0.0295567 0.00875868
0.00874342 0.0295415 0.00872816
0.00579843 0.0295262 0.0087129
0.013077 0.0296941 0.00849927
0.0332494 0.0295872 0.00799573
0.0601205 0.0299382 0.00862135
0.0918288 0.0307927 0.00941482
0.121706 0.0319524 0.0101167
0.151278 0.0324407 0.0113527
0.181918 0.0323033 0.0107118
0.210697 0.0319371 0.00978103
0.241321 0.0316167 0.00923171
0.272999 0.0315251 0.00907912
0.304326 0.0317388 0.0108797
0.334142 0.0319829 0.0121309
0.363455 0.0320439 0.0128634
0.392599 0.0323644 0.013962
0.424369 0.0315862 0.0128634
0.448249 0.0309758 0.0121614
0.47158 0.0299382 0.0102235
0.48954 0.0284276 0.0068513
0.505486 0.0274662 0.00508125
0.518227 0.0267948 0.00482185
0.529686 0.0271305 0.00747692
0.538643 0.0278172 0.0106661
0.552682 0.0323033 0.0252384
0.582406 0.0453651 0.0627146
0.606073 0.0593118 0.0902419
0.630533 0.0772259 0.118303
0.653452 0.097322 0.144259
0.666743 0.109194 0.161898
0.6804 0.120165 0.179324
0.688365 0.124712 0.191302
0.696986 0.129915 0.204746
0.712306 0.14374 0.223117
0.709072 0.135485 0.228077
0.70132 0.121004 0.231418
0.70396 0.118547 0.244419
0.708156 0.118044 0.25948
0.713314 0.118761 0.276417
0.719966 0.121065 0.296254
0.727672 0.124681 0.317556
0.738338 0.131762 0.341299
0.742489 0.130755 0.371847
0.742947 0.127794 0.403906
0.74136 0.125231 0.434882
0.738323 0.123278 0.462867
0.73489 0.12221 0.488243
0.731197 0.122072 0.512245
0.725231 0.121126 0.53611
0.71751 0.118776 0.556527
0.708309 0.114366 0.572641
0.69807 0.107805 0.585367
0.69073 0.102159 0.591562
0.688853 0.101015 0.592538
0.688411 0.101122 0.591852
0.688075 0.101228 0.591119
0.00868238 0.0294804 0.00866712
0.0087129 0.0295109 0.00869764
0.00872816 0.0295262 0.0087129
0.00874342 0.0295415 0.00874342
0.00875868 0.0295567 0.00875868
0.00877394 0.0295567 0.00875868
0.00877394 0.029572 0.00877394
0.0087892 0.029572 0.00877394
0.00877394 0.029572 0.00877394
0.00877394 0.0295567 0.00875868
0.00672923 0.0294957 0.00880446
0.00834669 0.0296635 0.00859083
0.021622 0.0297551 0.00839246
0.0432898 0.0297704 0.0080415
0.071809 0.030808 0.00891127
0.0994888 0.0323186 0.0101625
0.124804 0.0337377 0.011017
0.14992 0.0343328 0.0107881
0.177508 0.0343786 0.00987259
0.205936 0.0341344 0.00866712
0.235019 0.0335546 0.00637827
0.268437 0.0332189 0.00584421
0.300679 0.0328679 0.0059968
0.335821 0.0324559 0.00869764
0.370199 0.0326848 0.00994888
0.41146 0.0319982 0.0123903
0.443549 0.0328832 0.0187991
0.468544 0.0333715 0.0219577
0.492012 0.0338903 0.0252995
0.512078 0.0343328 0.0278325
0.528817 0.0342107 0.0280461
0.540825 0.0334173 0.0263523
0.547326 0.0323186 0.0226596
0.550958 0.0316167 0.0220188
0.551339 0.0310674 0.0231327
0.565408 0.0371252 0.0428016
0.598688 0.0547951 0.0845197
0.623758 0.0728008 0.113649
0.652445 0.0970779 0.145449
0.672984 0.115511 0.168353
0.681163 0.120638 0.180453
0.689998 0.125658 0.193774
0.702007 0.134432 0.210681
0.712428 0.142107 0.226047
0.70547 0.129061 0.228824
0.701823 0.119005 0.236744
0.706081 0.118318 0.251865
0.71107 0.118349 0.269139
0.71722 0.119982 0.288441
0.724681 0.123079 0.309819
0.735775 0.130617 0.333059
0.742016 0.131685 0.362814
0.743008 0.128359 0.397208
0.741787 0.125643 0.429557
0.738872 0.123537 0.458671
0.735271 0.12221 0.48484
0.731853 0.122103 0.508614
0.72607 0.121324 0.533349
0.718425 0.119051 0.554208
0.709163 0.114809 0.571527
0.699168 0.108446 0.584543
0.692149 0.103044 0.590967
0.690333 0.101778 0.591806
0.689876 0.101884 0.591226
0.689464 0.102022 0.590417
0.00868238 0.0294804 0.00865187
0.0087129 0.0295109 0.00869764
0.00872816 0.0295262 0.00872816
0.00875868 0.0295415 0.00874342
0.00877394 0.0295567 0.00875868
0.00877394 0.029572 0.00877394
0.0087892 0.029572 0.00877394
0.0087892 0.029572 0.0087892
0.0087892 0.029572 0.00877394
0.00877394 0.0295567 0.00875868
0.00790417 0.0294957 0.00872816
0.00703441 0.0296178 0.00866712
0.01561 0.0296941 0.00843824
0.0322423 0.0297856 0.00817884
0.0566262 0.0307317 0.00886549
0.0846723 0.0330205 0.0108339
0.108064 0.035523 0.012253
0.130709 0.0373388 0.0130159
0.154513 0.0382391 0.0125429
0.179873 0.0385748 0.0115511
0.208347 0.0382086 0.00996414
0.239231 0.0375219 0.00856031
0.27274 0.0363165 0.00740063
0.306538 0.0354772 0.00770581
0.346716 0.0343175 0.00663767
0.387854 0.0335851 0.0103609
0.429557 0.0321965 0.0132753
0.463584 0.0331731 0.0207828
0.4878 0.033753 0.0245365
0.509697 0.0345922 0.0286259
0.529091 0.0356603 0.0331121
0.545037 0.0370947 0.0381476
0.558404 0.0383612 0.0415351
0.563775 0.0378119 0.0393683
0.561913 0.0363317 0.0348211
0.562493 0.0380102 0.0356146
0.566369 0.0391852 0.0440833
0.599344 0.0556802 0.0872206
0.626413 0.0745556 0.117937
0.662531 0.106554 0.155764
0.675273 0.116991 0.171649
0.684489 0.122393 0.185397
0.693858 0.127535 0.20032
0.709697 0.141344 0.220081
0.709194 0.135821 0.227802
0.701656 0.121477 0.231403
0.704433 0.118517 0.246006
0.709133 0.118074 0.262867
0.714916 0.119219 0.281621
0.722286 0.121935 0.303227
0.733364 0.12958 0.325628
0.741558 0.132464 0.355688
0.742992 0.128985 0.390341
0.742153 0.126101 0.423896
0.739422 0.123827 0.45391
0.735759 0.122362 0.480781
0.732311 0.122087 0.505577
0.72697 0.121492 0.530129
0.719142 0.119265 0.5523
0.710201 0.115404 0.56997
0.700298 0.109209 0.583444
0.693111 0.103655 0.590417
0.691417 0.102403 0.591363
0.691005 0.102403 0.59089
0.690562 0.10251 0.590188
0.00868238 0.0294804 0.00865187
0.0087129 0.0295109 0.00869764
0.00872816 0.0295262 0.0087129
0.00875868 0.0295415 0.00874342
0.00877394 0.0295567 0.00875868
0.00877394 0.029572 0.00877394
0.0087892 0.029572 0.0087892
0.0087892 0.0295872 0.0087892
0.0087892 0.0295872 0.0087892
0.00877394 0.029572 0.00877394
0.0084535 0.0295415 0.00875868
0.00724804 0.0295262 0.0087892
0.0120394 0.0296941 0.00856031
0.0247807 0.0299077 0.00839246
0.0462959 0.0310063 0.00933852
0.0721294 0.0334325 0.0113069
0.0964981 0.0366217 0.0132906
0.117144 0.0393378 0.0145113
0.137957 0.041062 0.0147402
0.162661 0.0421149 0.0140536
0.18793 0.0427405 0.0129244
0.216266 0.0425422 0.0115663
0.24799 0.0412451 0.00988785
0.283574 0.0395666 0.0087129
0.32726 0.0374609 0.00848402
0.371649 0.0348821 0.00743114
0.41236 0.0337072 0.0113527
0.448173 0.0325628 0.0142061
0.48452 0.0337224 0.023682
0.507912 0.0345312 0.028275
0.526635 0.0355077 0.032517
0.543801 0.0369879 0.037705
0.558267 0.0388952 0.0433509
0.57052 0.0412757 0.0499886
0.57525 0.0424964 0.0518349
0.572503 0.0430457 0.0466468
0.571435 0.0445106 0.0453803
0.575982 0.0453346 0.0533455
0.606714 0.0593271 0.0956436
0.646632 0.0916915 0.13817
0.669566 0.113039 0.163699
0.67921 0.119371 0.177569
0.688914 0.124956 0.192126
0.701228 0.133623 0.209842
0.711482 0.140917 0.225452
0.70486 0.127352 0.230045
0.702846 0.1187 0.240482
0.707424 0.118013 0.257038
0.713191 0.11873 0.276173
0.720363 0.121202 0.29749
0.730785 0.127626 0.320974
0.740581 0.132555 0.349599
0.74287 0.129549 0.383963
0.742443 0.126528 0.418631
0.73994 0.124132 0.449409
0.736263 0.122515 0.477577
0.732738 0.122072 0.502739
0.727596 0.121599 0.527749
0.720088 0.119631 0.550179
0.711254 0.115923 0.568215
0.701137 0.109804 0.582345
0.694194 0.104509 0.589609
0.6925 0.103151 0.590677
0.69218 0.10312 0.590341
0.691798 0.103197 0.589868
0.00868238 0.0294804 0.00866712
0.0087129 0.0295109 0.00869764
0.00872816 0.0295262 0.0087129
0.00875868 0.0295415 0.00874342
0.00877394 0.0295567 0.00875868
0.0087892 0.029572 0.00877394
0.0087892 0.0295872 0.0087892
0.00880446 0.0295872 0.0087892
0.0087892 0.0295872 0.0087892
0.0087892 0.029572 0.00877394
0.00874342 0.0295415 0.00874342
0.00759899 0.0295109 0.00875868
0.00953689 0.0296483 0.00859083
0.0203098 0.0299992 0.00866712
0.037171 0.0310674 0.00921645
0.0623636 0.0335851 0.0113527
0.0870832 0.0369879 0.0135348
0.107713 0.0401617 0.0149996
0.128252 0.0427558 0.0158694
0.150439 0.0446479 0.0155642
0.175921 0.0457771 0.0146639
0.201785 0.0460822 0.0133364
0.230488 0.0457008 0.0117037
0.266789 0.0436713 0.0103609
0.305837 0.0413672 0.00987259
0.351141 0.0386816 0.009308
0.392355 0.0365301 0.0100252
0.432441 0.0339971 0.012192
0.47013 0.0328679 0.0164645
0.500832 0.0332647 0.0222019
0.525017 0.0353094 0.031754
0.542412 0.0368658 0.037232
0.557412 0.0387732 0.0429694
0.570016 0.0411536 0.0496223
0.578378 0.0439002 0.0564126
0.584024 0.0483864 0.0610971
0.58053 0.0495613 0.0554665
0.579278 0.0502327 0.0526436
0.588617 0.0508583 0.0673991
0.627436 0.0742962 0.117205
0.656443 0.100755 0.14902
0.673564 0.115908 0.169116
0.683558 0.121874 0.183932
0.693645 0.127382 0.199954
0.711879 0.143359 0.222614
0.707561 0.132952 0.228305
0.701137 0.119127 0.234684
0.705943 0.118318 0.251865
0.711192 0.118425 0.270329
0.718669 0.120592 0.292576
0.727535 0.124895 0.315969
0.73875 0.131762 0.342977
0.742718 0.130129 0.377615
0.742687 0.127016 0.412467
0.740383 0.124422 0.445289
0.736767 0.122683 0.474037
0.733242 0.122118 0.499702
0.728359 0.121767 0.525002
0.72105 0.119921 0.547784
0.7122 0.116396 0.566644
0.702098 0.110445 0.580896
0.695033 0.10518 0.588785
0.693339 0.103777 0.590097
0.693126 0.103746 0.589822
0.692851 0.103777 0.589319
0.00868238 0.0294804 0.00866712
0.0087129 0.0295109 0.00869764
0.00874342 0.0295262 0.00872816
0.00875868 0.0295415 0.00874342
0.00877394 0.0295567 0.00875868
0.0087892 0.029572 0.00877394
0.00880446 0.0295872 0.0087892
0.00880446 0.0295872 0.0087892
0.00880446 0.0295872 0.00880446
0.00880446 0.0295872 0.0087892
0.0087892 0.029572 0.00877394
0.00813306 0.0295262 0.00874342
0.0089723 0.0296178 0.0087129
0.0163882 0.0299992 0.00877394
0.03122 0.0310674 0.00918593
0.053727 0.0336614 0.0112001
0.0787976 0.0373846 0.0138094
0.100999 0.0408179 0.0157473
0.121462 0.0438087 0.0167849
0.144717 0.0462501 0.0167544
0.169665 0.0477607 0.016144
0.195499 0.0481422 0.0146487
0.225162 0.0476387 0.0130007
0.257664 0.0461128 0.0113375
0.295308 0.0438392 0.0106508
0.33875 0.041062 0.0102235
0.381933 0.0376287 0.00959792
0.421195 0.0350805 0.0115206
0.456092 0.033875 0.014023
0.49099 0.0334173 0.0195621
0.522927 0.0352483 0.0311284
0.541512 0.0368353 0.0369879
0.557046 0.0387732 0.0429389
0.569131 0.04094 0.049073
0.578119 0.0437934 0.0561379
0.58526 0.0482032 0.0637369
0.590982 0.0543984 0.0690013
0.587808 0.0556954 0.0624552
0.588769 0.0556497 0.0602274
0.606653 0.0578164 0.0927596
0.639567 0.085359 0.130312
0.666224 0.110155 0.159792
0.678416 0.11899 0.176333
0.689723 0.125628 0.193362
0.705318 0.137896 0.21442
0.708476 0.136202 0.225498
0.701381 0.12192 0.231327
0.704173 0.118608 0.246601
0.709804 0.118303 0.265949
0.716793 0.119875 0.287266
0.725155 0.123278 0.310643
0.73727 0.130968 0.338018
0.74255 0.130739 0.37116
0.74287 0.127398 0.407675
0.740795 0.124712 0.440803
0.737224 0.12282 0.470527
0.733684 0.122133 0.496666
0.729107 0.121859 0.521782
0.721721 0.120119 0.545892
0.713024 0.116793 0.565179
0.702739 0.110842 0.57995
0.695796 0.105791 0.588006
0.694072 0.104356 0.589441
0.693889 0.104265 0.589273
0.69369 0.104265 0.588846
0.00868238 0.0294804 0.00866712
0.0087129 0.0295109 0.0087129
0.00874342 0.0295262 0.00872816
0.00875868 0.0295567 0.00874342
0.00877394 0.029572 0.00875868
0.0087892 0.029572 0.00877394
0.0087892 0.0295872 0.0087892
0.00880446 0.0295872 0.0087892
0.00880446 0.0295872 0.00880446
0.00880446 0.0295872 0.00880446
0.0087892 0.029572 0.0087892
0.00839246 0.0295415 0.00875868
0.00865187 0.029572 0.00880446
0.0137484 0.0300145 0.00880446
0.0266728 0.0309453 0.00917067
0.0459907 0.0336767 0.0112306
0.071519 0.0379034 0.0140993
0.0944381 0.0415961 0.0167391
0.116518 0.0446174 0.0179751
0.139742 0.0473793 0.0184634
0.164675 0.0488594 0.0173495
0.192859 0.0487678 0.0154879
0.223163 0.0478218 0.0136263
0.256504 0.0463874 0.0116579
0.29015 0.0448005 0.0108034
0.331319 0.0425879 0.0107424
0.376272 0.0391546 0.0107271
0.4159 0.0360418 0.0130617
0.449973 0.0343023 0.0132906
0.483925 0.0334173 0.0175174
0.514092 0.0343328 0.0250858
0.539986 0.0366979 0.0362402
0.555428 0.0385595 0.0422827
0.56846 0.0408637 0.0487526
0.577478 0.043534 0.0555276
0.585061 0.0480659 0.0634928
0.592386 0.054139 0.0721447
0.59736 0.0602121 0.0757458
0.595453 0.0610056 0.0675212
0.594293 0.0574044 0.0651408
0.620691 0.0687572 0.109438
0.65275 0.0975662 0.144701
0.673762 0.116106 0.169375
0.684855 0.122866 0.186038
0.69778 0.131563 0.20502
0.710735 0.140627 0.224109
0.704372 0.127367 0.229801
0.702785 0.118791 0.241917
0.708186 0.118135 0.260838
0.714855 0.119249 0.281636
0.723445 0.122438 0.305913
0.735409 0.130175 0.331502
0.742351 0.131334 0.36524
0.743053 0.127886 0.401617
0.741253 0.125078 0.435813
0.737774 0.123018 0.466453
0.734234 0.122179 0.492683
0.729717 0.12192 0.518883
0.722667 0.120439 0.543374
0.714 0.117296 0.563424
0.70396 0.11165 0.578454
0.696864 0.106706 0.587015
0.694896 0.105089 0.588617
0.694743 0.104982 0.58851
0.694606 0.104921 0.58819
0.00868238 0.0294804 0.00866712
0.0087129 0.0295109 0.00869764
0.00874342 0.0295262 0.00872816
0.00875868 0.0295567 0.00874342
0.00877394 0.029572 0.00877394
0.0087892 0.029572 0.0087892
0.00880446 0.0295872 0.0087892
0.00880446 0.0295872 0.00880446
0.00881972 0.0296025 0.00880446
0.00880446 0.0295872 0.00880446
0.0087892 0.0295872 0.0087892
0.00860609 0.0295567 0.00877394
0.00852979 0.0295262 0.0087892
0.0122683 0.0299992 0.0087892
0.0227359 0.0310063 0.00929274
0.0408637 0.0337835 0.0112917
0.0643168 0.0385443 0.0141756
0.0886854 0.0428931 0.0169985
0.11191 0.0457313 0.0187381
0.135348 0.0479744 0.0196994
0.162219 0.0489357 0.0183261
0.190188 0.0487678 0.016022
0.221729 0.0477607 0.0140383
0.255482 0.0464179 0.0120851
0.289281 0.0450141 0.0109102
0.328069 0.0431525 0.0108186
0.367071 0.0404669 0.0109407
0.413642 0.0368505 0.013489
0.447868 0.0350347 0.0151217
0.479637 0.033463 0.0164187
0.510124 0.0342412 0.0237736
0.537621 0.0365759 0.0353704
0.554437 0.0385138 0.0418555
0.567422 0.0407263 0.0480964
0.577081 0.0434577 0.0550698
0.584894 0.0480049 0.0631418
0.591867 0.053727 0.0713359
0.599176 0.060029 0.0797589
0.603876 0.0660105 0.0796216
0.598138 0.0623636 0.0674449
0.60209 0.0565042 0.0843366
0.638804 0.0849317 0.129244
0.667796 0.111635 0.161501
0.680247 0.120226 0.178882
0.692149 0.126833 0.197528
0.71165 0.143465 0.221881
0.707073 0.132113 0.228748
0.701564 0.119005 0.237613
0.706783 0.118135 0.256184
0.713512 0.118914 0.277577
0.721584 0.12163 0.300725
0.733974 0.129458 0.32726
0.742138 0.131884 0.359884
0.743175 0.128283 0.396597
0.741634 0.125353 0.431891
0.738293 0.123232 0.462486
0.734524 0.122271 0.489845
0.730327 0.122026 0.515999
0.723369 0.120638 0.541238
0.714885 0.117693 0.561624
0.704875 0.112306 0.577249
0.69749 0.107225 0.586374
0.695384 0.105562 0.58822
0.695277 0.10547 0.58822
0.695201 0.105425 0.588113
0.00862135 0.0294347 0.00860609
0.00863661 0.0294347 0.00862135
0.00865187 0.0294499 0.00863661
0.00866712 0.0294652 0.00863661
0.00866712 0.0294652 0.00865187
0.00868238 0.0294804 0.00866712
0.00869764 0.0294804 0.00866712
0.00869764 0.0294957 0.00868238
0.00869764 0.0294957 0.00868238
0.00869764 0.0294957 0.00868238
0.00868238 0.0294804 0.00866712
0.00866712 0.0294652 0.00865187
0.00860609 0.0294041 0.00862135
0.0110323 0.0297856 0.00872816
0.0198062 0.0311437 0.00941482
0.0361181 0.0339208 0.0112764
0.0578164 0.0390478 0.0139773
0.0823682 0.044419 0.0167239
0.10602 0.0475471 0.0189822
0.131304 0.0482338 0.0198367
0.157839 0.0488594 0.0189517
0.187289 0.0486 0.0164645
0.218006 0.0481727 0.0145266
0.250889 0.0470741 0.0127413
0.285634 0.0458534 0.0112459
0.320531 0.0444038 0.0109407
0.3635 0.0416114 0.011368
0.403876 0.0382544 0.0115511
0.446067 0.0352178 0.0154879
0.478843 0.0341344 0.0183566
0.506065 0.0340124 0.0223545
0.532708 0.035462 0.0300603
0.552865 0.0382391 0.0409705
0.56669 0.040589 0.0476997
0.576883 0.0433967 0.0548867
0.584436 0.0476539 0.0625925
0.591699 0.0535897 0.0711223
0.598718 0.0596475 0.0792248
0.606775 0.06598 0.086244
0.593362 0.0583505 0.0623178
0.592798 0.0527962 0.0685283
0.622263 0.0702678 0.111131
0.655741 0.100374 0.147951
0.675944 0.11754 0.172503
0.688594 0.125017 0.191394
0.70692 0.139666 0.215702
0.706859 0.133577 0.225528
0.700313 0.119295 0.23299
0.705745 0.118349 0.252232
0.712001 0.118608 0.272923
0.720546 0.121324 0.29752
0.73254 0.129076 0.321935
0.741756 0.13257 0.353536
0.743252 0.12871 0.39173
0.742046 0.125704 0.4271
0.738735 0.123415 0.459129
0.73489 0.122301 0.486503
0.730877 0.122087 0.512718
0.724102 0.120867 0.538643
0.715846 0.118135 0.559548
0.70576 0.112871 0.575936
0.698344 0.107942 0.585412
0.695994 0.106126 0.587549
0.695857 0.10602 0.587564
0.695796 0.105989 0.587442
0.00863661 0.0294347 0.00862135
0.00863661 0.0294347 0.00862135
0.00865187 0.0294499 0.00863661
0.00866712 0.0294652 0.00863661
0.00866712 0.0294652 0.00865187
0.00868238 0.0294804 0.00866712
0.00868238 0.0294804 0.00866712
0.00869764 0.0294957 0.00868238
0.00869764 0.0294957 0.00868238
0.00869764 0.0294957 0.00868238
0.00868238 0.0294804 0.00866712
0.00868238 0.0294804 0.00865187
0.00859083 0.0293889 0.00859083
0.0104982 0.0297093 0.00869764
0.0173495 0.0311742 0.00944533
0.0328985 0.0343023 0.0115053
0.052842 0.0394446 0.014023
0.0760967 0.0453498 0.0167697
0.100572 0.049073 0.0186923
0.126207 0.0488899 0.0196994
0.153903 0.049012 0.0192874
0.182834 0.0492866 0.0174105
0.213016 0.0490425 0.0151522
0.246632 0.0479438 0.0132601
0.280842 0.0467994 0.0118105
0.316976 0.0452888 0.0110781
0.357061 0.0429084 0.0115969
0.397299 0.0398108 0.0120089
0.442145 0.0357824 0.0155795
0.476326 0.0345006 0.0187533
0.505226 0.034287 0.0232395
0.529885 0.0353552 0.0293736
0.55198 0.0381628 0.0406195
0.566415 0.0405585 0.0475929
0.576272 0.0432136 0.0543832
0.584237 0.0475013 0.0623484
0.591302 0.0532235 0.0706035
0.598581 0.059556 0.079057
0.607172 0.0659495 0.0872206
0.612039 0.0700236 0.0881056
0.589837 0.0529641 0.0619669
0.604944 0.0583352 0.0883955
0.645365 0.0910353 0.136263
0.671916 0.115084 0.166445
0.684672 0.122728 0.185321
0.700816 0.134203 0.20827
0.707958 0.136553 0.223392
0.701823 0.122423 0.231037
0.704631 0.118532 0.248142
0.710903 0.118502 0.269368
0.718898 0.120638 0.293095
0.730205 0.127306 0.317998
0.740932 0.132509 0.34905
0.743221 0.129183 0.386145
0.742306 0.125948 0.423758
0.739162 0.123598 0.455894
0.735164 0.122271 0.483818
0.731197 0.122072 0.510079
0.72488 0.121111 0.535805
0.716548 0.118486 0.557809
0.706645 0.113451 0.574639
0.699184 0.108614 0.584588
0.696727 0.106722 0.587091
0.696574 0.10663 0.587182
0.696513 0.1066 0.587213
0.00883497 0.0284428 0.0083772
0.00889601 0.027924 0.00827039
0.00885023 0.0281987 0.00833143
0.0087892 0.0286412 0.00843824
0.00868238 0.0289464 0.0084535
0.00833143 0.0292668 0.00862135
0.00848402 0.0293584 0.00865187
0.00862135 0.0294347 0.00866712
0.00866712 0.0294804 0.00865187
0.00868238 0.0294957 0.00866712
0.00865187 0.0294652 0.00863661
0.00796521 0.0290684 0.00851453
0.00624094 0.0284581 0.0081178
0.005066 0.0279698 0.00776684
0.010193 0.0288701 0.00827039
0.0252384 0.032105 0.0104372
0.0451209 0.0380102 0.0134432
0.0690929 0.0447242 0.0163882
0.0939345 0.0481727 0.0182803
0.120668 0.0490883 0.0192416
0.148684 0.0493935 0.0195773
0.177768 0.0500496 0.0184329
0.209064 0.049836 0.0159457
0.241779 0.0489204 0.0137331
0.277653 0.0476692 0.0122377
0.313512 0.0462196 0.01149
0.350668 0.0441596 0.0117342
0.391241 0.0409247 0.0122225
0.434989 0.036759 0.0153201
0.473091 0.0348211 0.0184634
0.502388 0.0342107 0.0225681
0.527596 0.0352331 0.0286259
0.551644 0.0381781 0.040589
0.565499 0.0404517 0.0471351
0.575982 0.0431373 0.0541543
0.583688 0.0471351 0.0617227
0.591134 0.0530556 0.0703288
0.598535 0.0594949 0.0789654
0.606653 0.0656291 0.0867781
0.61413 0.0704051 0.092195
0.591699 0.0568704 0.0606546
0.595087 0.053727 0.0722667
0.632166 0.079057 0.121889
0.664195 0.108354 0.157443
0.681025 0.120623 0.179843
0.694606 0.128862 0.200397
0.709941 0.1402 0.222629
0.70454 0.127047 0.230091
0.703838 0.118593 0.244816
0.709621 0.118227 0.265492
0.717311 0.120073 0.288746
0.727565 0.125063 0.314504
0.739467 0.131746 0.34464
0.743175 0.129519 0.382513
0.742611 0.126268 0.419455
0.739666 0.123812 0.452094
0.7355 0.122301 0.481209
0.73167 0.122118 0.507057
0.725338 0.121279 0.533669
0.71722 0.118853 0.555718
0.707469 0.114046 0.573022
0.699794 0.109071 0.583734
0.69723 0.107103 0.586511
0.697108 0.107027 0.586664
0.697032 0.107012 0.586679
0.0087892 0.0248722 0.00831617
0.0093843 0.0232853 0.00758373
0.00956741 0.0228885 0.00753796
0.00999466 0.0231785 0.00743114
0.00918593 0.0243534 0.00724804
0.00941482 0.025391 0.00794995
0.00910964 0.0262913 0.00791943
0.00883497 0.0268711 0.0078584
0.00880446 0.0272221 0.00807202
0.00860609 0.0277104 0.00831617
0.0078584 0.0273136 0.00819409
0.00605783 0.0266117 0.00805676
0.00241093 0.0255436 0.00753796
0 0.0249943 0.00714122
0.00436408 0.0262303 0.00822461
0.0174258 0.0298924 0.00947585
0.036347 0.0360571 0.0124666
0.0594492 0.0421912 0.0155337
0.0846876 0.0454566 0.0169375
0.111818 0.0458076 0.0176852
0.139681 0.0464485 0.0180972
0.17023 0.0475776 0.0172274
0.201877 0.0478523 0.0153353
0.237415 0.0475929 0.0133822
0.274113 0.0473335 0.0123445
0.30956 0.0467079 0.0117342
0.345846 0.0452583 0.011902
0.38378 0.0422065 0.012253
0.426215 0.0386664 0.0126955
0.469566 0.0352331 0.0181735
0.49984 0.034165 0.0218204
0.526787 0.035462 0.029633
0.546014 0.0368963 0.0348516
0.564889 0.0402991 0.0466163
0.575494 0.0429999 0.0537728
0.583444 0.0469673 0.0614481
0.591043 0.0529488 0.070161
0.598001 0.0590372 0.0783551
0.606439 0.0655222 0.0866102
0.614252 0.0704204 0.0926375
0.597375 0.0619821 0.0664836
0.590387 0.0519722 0.0645914
0.615152 0.0649729 0.10248
0.654658 0.0993973 0.146685
0.676509 0.117876 0.173312
0.690532 0.125872 0.194537
0.710994 0.143023 0.220798
0.706813 0.131014 0.229145
0.702815 0.1187 0.240803
0.708217 0.118029 0.260884
0.715877 0.11957 0.284672
0.725216 0.123308 0.310719
0.738094 0.131075 0.340703
0.743038 0.130037 0.377264
0.742901 0.126665 0.414694
0.740124 0.124056 0.448554
0.736019 0.122408 0.477791
0.731853 0.122148 0.504738
