bundles/resolve-cinematic-luts/Phantom Luts/Apple Log Phantom LUTS/iPhone 15 Phantom ARRI LUTs/65x/Jamaica Iphone15_65x.cube
TITLE "Generated by Resolve"
LUT_3D_SIZE 9
0.00874342 0.0295262 0.00872816
0.00874342 0.0295262 0.00872816
0.183841 0.0319524 0.0123903
0.403418 0.0327001 0.0166934
0.572183 0.0467689 0.0633097
0.69659 0.129 0.205112
0.722759 0.122271 0.304143
0.730709 0.122026 0.514672
0.686732 0.100298 0.59173
0.00868238 0.0294804 0.00866712
0.00881972 0.0296025 0.00880446
0.0643168 0.0385443 0.0141756
0.289281 0.0450141 0.0109102
0.554437 0.0385138 0.0418555
0.60209 0.0565042 0.0843366
0.706783 0.118135 0.256184
0.734524 0.122271 0.489845
0.695201 0.105425 0.588113
0 0.104021 0.0349279
0.0188602 0.0658579 0.0153048
0.0771801 0.0759289 0.0180972
0.269871 0.0711833 0.026688
0.539742 0.036759 0.0336004
0.613947 0.0705577 0.0926833
0.707332 0.132662 0.227573
0.73846 0.123232 0.461372
0.701076 0.110353 0.579431
0 0.298451 0.101472
0 0.309926 0.0075227
0 0.272953 0.00521859
0.284352 0.275959 0.00791943
0.606241 0.251011 0.101244
0.674418 0.152224 0.129793
0.610483 0.0700999 0.0864881
0.7411 0.131579 0.357504
0.71873 0.119509 0.548409
0.0238956 0.576623 0.261219
0.0457465 0.623285 0.209934
0.0797894 0.621134 0.0897993
0.0498817 0.590524 0.0792859
0.556283 0.549264 0.0673686
0.853071 0.536843 0.231022
0.871702 0.430488 0.269566
0.621805 0.0794842 0.0970474
0.72961 0.125109 0.325078
0.22977 0.839658 0.585061
0.235355 0.846662 0.555749
0.247944 0.85832 0.539803
0.312856 0.904295 0.506523
0.381811 0.894102 0.350271
0.812268 0.815778 0.295079
0.938186 0.809552 0.375051
0.927337 0.76495 0.345434
0.921782 0.697444 0.316457
0.36701 0.932097 0.799512
0.361868 0.937041 0.792233
0.366323 0.941268 0.78471
0.374289 0.94963 0.765408
0.376043 0.964569 0.670771
0.581186 0.980926 0.41709
0.95819 0.960723 0.469444
1 0.971038 0.499748
0.996963 0.963378 0.493431
0.343496 0.888975 0.8589
0.346334 0.890333 0.853819
0.34728 0.892744 0.849622
0.351492 0.896345 0.841917
0.354391 0.908309 0.826093
0.367453 0.960952 0.713039
0.829282 0.998932 0.525826
1 0.997925 0.564416
1 0.998383 0.572625
0.345144 0.876143 0.877989
0.337087 0.878782 0.87895
0.346716 0.876661 0.87538
0.346197 0.878508 0.873014
0.340352 0.886748 0.864607
0.356847 0.919997 0.814191
0.788266 0.998932 0.72015
1 0.998932 0.692073
1 0.998932 0.689113
0.00877394 0.0295567 0.00875868
0.0090486 0.0295567 0.00874342
0.236789 0.030045 0.153948
0.463416 0.0371405 0.178195
0.639872 0.0642405 0.193225
0.707118 0.118624 0.255085
0.741802 0.132097 0.358694
0.723934 0.120562 0.537499
0.682322 0.0979934 0.596521
0.00834669 0.0302739 0.0099031
0.00880446 0.0295872 0.00880446
0.182727 0.0321355 0.013611
0.402258 0.0364233 0.0288243
0.600305 0.066331 0.112245
0.702968 0.132235 0.216632
0.725048 0.123659 0.309224
0.729809 0.121813 0.515816
0.687861 0.0992752 0.592935
0.00047303 0.137591 0.120485
0 0.141146 0.0421454
0.10901 0.115923 0.0173495
0.335958 0.0670176 0.0251011
0.55288 0.0381323 0.0389258
0.666178 0.10782 0.162814
0.712657 0.11931 0.273106
0.733898 0.122103 0.491829
0.693507 0.104555 0.58735
0 0.287861 0.195773
0 0.309224 0.0998856
0 0.329564 0.00894179
0.290959 0.291951 0.00796521
0.624765 0.244587 0.107195
0.671 0.147784 0.128176
0.669795 0.110018 0.168399
0.74255 0.126848 0.412894
0.710643 0.116396 0.5635
0.0199893 0.552865 0.318151
0.0245212 0.579477 0.258946
0.0323796 0.599878 0.222797
0.0661936 0.613687 0.0958877
0.555093 0.549813 0.067216
0.855756 0.523491 0.233967
0.866621 0.420737 0.266606
0.625208 0.0776684 0.106462
0.742672 0.129793 0.379965
0.224216 0.831601 0.603113
0.224643 0.835157 0.577569
0.227268 0.839902 0.557946
0.259449 0.866651 0.521172
0.366979 0.888685 0.348165
0.807126 0.810147 0.288197
0.93637 0.803006 0.370382
0.926024 0.758129 0.341527
0.921614 0.686839 0.313527
0.365393 0.929473 0.802731
0.360464 0.934417 0.796719
0.364446 0.938201 0.790249
0.373068 0.946715 0.773251
0.376394 0.964065 0.689128
0.569589 0.993545 0.445808
0.960433 0.965194 0.474571
1 0.970428 0.501305
1 0.964523 0.496345
0.343328 0.888518 0.859724
0.346288 0.889891 0.854612
0.347005 0.89218 0.850813
0.351202 0.895735 0.842939
0.35375 0.907271 0.827268
0.367315 0.959991 0.721599
0.82031 0.998932 0.542641
1 0.998627 0.57351
1 0.998932 0.580835
0.344945 0.875837 0.878859
0.336583 0.878584 0.87982
0.345907 0.876463 0.87657
0.346136 0.877882 0.87422
0.33991 0.885878 0.866056
0.355169 0.917037 0.817304
0.777981 0.998932 0.732631
1 0.998932 0.699962
1 0.998932 0.696605
0.00880446 0.0288396 0.0615091
0.11014 0.0285039 0.11693
0.236774 0.0275425 0.202243
0.456626 0.027863 0.267247
0.652949 0.0647288 0.239872
0.716381 0.12018 0.284764
0.742931 0.12842 0.394553
0.718944 0.119097 0.550866
0.682094 0.0987869 0.602075
0.00619516 0.0506142 0.0487526
0.00941482 0.0272526 0.0997177
0.206332 0.0289921 0.172442
0.448417 0.0383764 0.133455
0.630152 0.0694591 0.165072
0.702663 0.120256 0.236789
0.736858 0.1299 0.340932
0.725521 0.121126 0.53225
0.684901 0.0971695 0.598459
0.000839246 0.140444 0.14313
0.00135805 0.134188 0.128328
0.0935531 0.111849 0.0967269
0.336721 0.0773785 0.0783703
0.607996 0.0685588 0.131518
0.699077 0.130449 0.210101
0.722881 0.122606 0.303548
0.730968 0.121828 0.509239
0.688136 0.0996872 0.592264
0 0.280293 0.221164
0 0.294392 0.165316
0 0.304265 0.102541
0.279393 0.284153 0.0490425
0.623514 0.238575 0.13344
0.674281 0.143511 0.137575
0.702007 0.13167 0.215641
0.740673 0.124605 0.441138
0.704707 0.113115 0.572366
0.01944 0.541176 0.34638
0.0201267 0.560342 0.293034
0.0225681 0.572457 0.251377
0.0658122 0.613184 0.0955062
0.551324 0.545007 0.0652171
0.853788 0.51725 0.232456
0.862409 0.412406 0.264347
0.664469 0.106722 0.158511
0.742275 0.126329 0.419165
0.220447 0.826062 0.611826
0.219821 0.829099 0.588296
0.219516 0.831754 0.56968
0.238941 0.850156 0.524285
0.358465 0.882872 0.343084
0.804227 0.806134 0.283711
0.93489 0.798672 0.367102
0.925231 0.752743 0.338659
0.929061 0.670192 0.316304
0.364172 0.92755 0.804883
0.35938 0.932403 0.79971
0.363104 0.936248 0.793545
0.372427 0.944717 0.778683
0.377249 0.963882 0.700816
0.551919 0.998932 0.470207
0.962158 0.969711 0.477607
1 0.970886 0.502098
1 0.962493 0.495033
0.343206 0.888258 0.860227
0.345892 0.889738 0.855253
0.34641 0.892287 0.850706
0.351019 0.895476 0.843427
0.353429 0.906676 0.827955
0.367559 0.959472 0.727733
0.811994 0.998932 0.553567
1 0.998932 0.578851
1 0.998932 0.585534
0.344594 0.875349 0.87985
0.336217 0.878248 0.880751
0.34583 0.876097 0.877455
0.34583 0.877379 0.875303
0.339284 0.885084 0.867536
0.353185 0.913649 0.82089
0.762112 0.998932 0.743618
1 0.998932 0.706691
1 0.998932 0.703059
0.00297551 0.0257115 0.264057
0.209735 0.0257877 0.340398
0.315572 0.0246586 0.354284
0.441733 0.0239719 0.372091
0.656001 0.0549325 0.370489
0.741573 0.131609 0.359762
0.738369 0.123217 0.46096
0.705104 0.112337 0.574609
0.682399 0.100374 0.615686
0.00334173 0.088838 0.190997
0.00120546 0.0258946 0.30193
0.198718 0.0260166 0.352148
0.424689 0.0238041 0.354116
0.658122 0.0630808 0.296681
0.725063 0.123644 0.309514
0.742168 0.126024 0.42269
0.712566 0.116747 0.562921
0.684291 0.0991989 0.612375
0.000976577 0.16408 0.201999
0.000549325 0.123995 0.234272
0.0585031 0.0930343 0.238193
0.342199 0.0550393 0.281163
0.649378 0.0620737 0.274311
0.713512 0.119463 0.275944
0.742809 0.129488 0.382879
0.720211 0.119509 0.546838
0.684474 0.0983749 0.606699
0.000381476 0.27039 0.26894
0.000381476 0.268605 0.258534
0.000534066 0.265599 0.249226
0.269917 0.289006 0.257008
0.651591 0.267567 0.26331
0.767575 0.207279 0.258549
0.715862 0.120165 0.282795
0.734112 0.122042 0.492302
0.690517 0.10248 0.588403
0.0174105 0.512352 0.395148
0.0174105 0.525109 0.36968
0.0169985 0.530678 0.341421
0.0176699 0.553445 0.252796
0.535103 0.537636 0.202289
0.891737 0.525231 0.328252
0.919829 0.423713 0.354879
0.722301 0.139498 0.258442
0.735348 0.122225 0.482582
0.213291 0.811978 0.636454
0.213336 0.816999 0.616358
0.210163 0.818128 0.598627
0.210834 0.824765 0.554757
0.266819 0.854109 0.411048
0.799466 0.801816 0.286458
0.974456 0.780911 0.397696
0.975753 0.734371 0.392569
0.976837 0.668406 0.395102
0.3608 0.922652 0.810895
0.355581 0.927214 0.806775
0.359686 0.930709 0.801877
0.369268 0.938704 0.789914
0.37702 0.961044 0.726665
0.521706 0.998932 0.518624
0.96527 0.978836 0.482902
1 0.97145 0.506218
1 0.960708 0.502998
0.342733 0.886671 0.862699
0.345205 0.888426 0.858274
0.345586 0.89099 0.853284
0.350042 0.894331 0.845304
0.352178 0.904387 0.830777
0.365042 0.954681 0.742794
0.799573 0.998932 0.585214
1 0.998932 0.596078
1 0.998932 0.603037
0.343435 0.874128 0.882597
0.335698 0.876814 0.883513
0.34548 0.874876 0.879988
0.345434 0.876371 0.877317
0.338338 0.883345 0.870771
0.350607 0.909056 0.826368
0.753307 0.998932 0.769818
1 0.998932 0.721386
1 0.998932 0.718547
0 0.0271305 0.483543
0.143832 0.0282292 0.530846
0.275776 0.0287175 0.550347
0.472251 0.0309758 0.55639
0.610437 0.0476539 0.525612
0.723827 0.120455 0.537087
0.706676 0.113283 0.571725
0.68394 0.099382 0.613642
0.681117 0.104219 0.644938
0 0.0815595 0.386435
0 0.0269169 0.469642
0.0946059 0.0275883 0.505653
0.4159 0.0296941 0.558572
0.6056 0.043946 0.518318
0.729976 0.121614 0.5149
0.71458 0.117556 0.558068
0.683406 0.0988174 0.606546
0.682475 0.103395 0.642191
0 0.143893 0.374441
0 0.0863661 0.418967
0 0.0607767 0.420706
0.285313 0.0341955 0.478279
0.588937 0.0364385 0.500664
0.732891 0.12195 0.499489
0.721813 0.11989 0.541741
0.686091 0.0988327 0.598703
0.682658 0.102586 0.636667
0 0.26949 0.369207
0 0.246586 0.383093
0 0.230396 0.39202
0.194034 0.249012 0.42977
0.615183 0.179049 0.520821
0.810712 0.196139 0.433326
0.732448 0.121904 0.501747
0.701274 0.109743 0.579522
0.683268 0.100649 0.623392
0.019028 0.484565 0.486824
0.0175326 0.481422 0.477302
0.0161898 0.474434 0.467643
0.0141756 0.46508 0.447974
0.518288 0.527764 0.482307
0.936141 0.552865 0.522942
0.969162 0.462516 0.50396
0.748623 0.132586 0.456443
0.702327 0.110506 0.578088
0.19762 0.777523 0.673487
0.195346 0.778622 0.664302
0.190631 0.777768 0.654444
0.18761 0.782589 0.633417
0.179217 0.796353 0.536049
0.782193 0.796262 0.452155
1 0.78703 0.553948
1 0.755306 0.558511
1 0.693904 0.572015
0.351873 0.911498 0.823484
0.348226 0.914351 0.822477
0.351125 0.917128 0.818906
0.360006 0.92285 0.811307
0.370657 0.94548 0.776089
0.499306 0.998932 0.656428
0.958358 0.98764 0.528969
1 0.965759 0.574029
1 0.952331 0.583963
0.341558 0.882124 0.870115
0.342184 0.884001 0.866697
0.342336 0.886824 0.862287
0.346944 0.889601 0.854551
0.349081 0.898253 0.840146
0.360372 0.941482 0.780316
0.792111 0.998932 0.665431
1 0.998932 0.650233
1 0.998932 0.657176
0.343099 0.872587 0.887449
0.334676 0.875013 0.889021
0.34522 0.872511 0.885115
0.345266 0.873091 0.883024
0.336675 0.879515 0.877775
0.346258 0.900603 0.83859
0.751949 0.998932 0.816709
1 0.998932 0.759365
1 0.998718 0.756436
0.00526436 0.0462196 0.553903
0.0189212 0.0378576 0.553292
0.14258 0.0418708 0.609812
0.34934 0.0490578 0.656977
0.575463 0.0775464 0.64062
0.681758 0.10428 0.647898
0.681071 0.106691 0.665293
0.679484 0.109651 0.688167
0.677882 0.112474 0.705486
0.0133974 0.149172 0.594354
0.0161898 0.103273 0.588891
0.0108034 0.0773022 0.574685
0.217975 0.0612192 0.630991
0.524926 0.0530709 0.62208
0.681834 0.10396 0.64564
0.679713 0.106096 0.655772
0.678004 0.109789 0.683223
0.678614 0.112032 0.704051
0.0147097 0.196429 0.598566
0.0186923 0.156451 0.605325
0.018616 0.144503 0.602945
0.172793 0.101015 0.62562
0.533913 0.07364 0.654948
0.677989 0.0980087 0.614649
0.680964 0.104768 0.649119
0.678965 0.10869 0.678126
0.678874 0.111482 0.699565
0.0193637 0.307134 0.604257
0.0217136 0.272114 0.615656
0.0226139 0.255238 0.619074
0.0916915 0.226551 0.6
0.517357 0.191638 0.695949
0.743328 0.172503 0.662974
0.68188 0.103075 0.638178
0.680873 0.107027 0.66775
0.679194 0.110201 0.691402
0.0537118 0.508125 0.631907
0.0506905 0.496086 0.631098
0.0483253 0.485771 0.630121
0.0457618 0.465522 0.633585
0.441932 0.489281 0.678874
0.866239 0.411475 0.760632
0.957137 0.371252 0.745037
0.710246 0.133684 0.632212
0.680903 0.1066 0.664561
0.205875 0.737713 0.745769
0.201266 0.733364 0.741268
0.194339 0.727825 0.734325
0.185519 0.721675 0.723644
0.134066 0.683345 0.66424
0.758511 0.769451 0.719631
1 0.795468 0.771435
1 0.737469 0.765316
1 0.627665 0.769589
0.344396 0.892256 0.851972
0.339879 0.894972 0.850843
0.34049 0.896971 0.847257
0.349203 0.898268 0.840406
0.350607 0.90808 0.824308
0.487922 0.998932 0.802426
0.935882 0.966171 0.714473
1 0.940307 0.74287
1 0.923598 0.752667
0.340734 0.874144 0.885344
0.336263 0.876265 0.884001
0.335653 0.877791 0.881514
0.343755 0.878096 0.874907
0.345312 0.884153 0.864256
0.344656 0.911192 0.823133
0.790417 0.998932 0.807111
1 0.99823 0.76701
1 0.998642 0.769482
0.342641 0.870665 0.895598
0.334188 0.872908 0.897414
0.344884 0.870146 0.894316
0.346532 0.870314 0.891829
0.335729 0.87451 0.88986
0.34023 0.886458 0.864057
0.757733 0.998932 0.891402
1 0.996612 0.830839
1 0.997208 0.826642
0.0822156 0.297932 0.689464
0.0805982 0.284688 0.685512
0.071809 0.260075 0.673381
0.20531 0.26566 0.761151
0.487373 0.235248 0.824582
0.73901 0.224903 0.779263
0.693599 0.137942 0.712062
0.677897 0.113069 0.712917
0.677607 0.113085 0.712139
0.0914015 0.344289 0.704524
0.0904707 0.330434 0.701701
0.0795758 0.303853 0.688746
0.181094 0.312139 0.763104
0.467109 0.280949 0.830808
0.76614 0.254108 0.814908
0.73138 0.192035 0.739635
0.677806 0.113069 0.712688
0.677577 0.113085 0.712062
0.0959029 0.366445 0.710948
0.0951858 0.351171 0.708522
0.0881971 0.332876 0.700359
0.16376 0.330755 0.757977
0.451377 0.303563 0.828412
0.774029 0.266651 0.829023
0.754635 0.216419 0.754452
0.677791 0.113085 0.712627
0.677699 0.113085 0.712398
0.108614 0.432303 0.725841
0.107652 0.409796 0.724468
0.106203 0.401541 0.722774
0.120867 0.376761 0.73698
0.421958 0.368231 0.82536
0.786847 0.310323 0.858808
0.820493 0.273243 0.798703
0.679301 0.114031 0.706325
0.677607 0.113085 0.712154
0.147738 0.567102 0.752407
0.144472 0.552773 0.751858
0.141741 0.541222 0.751019
0.125902 0.511269 0.738033
0.352926 0.518517 0.800595
0.785901 0.469886 0.899016
0.924178 0.387594 0.877974
0.855024 0.30135 0.825025
0.702037 0.152331 0.718853
0.241825 0.738308 0.813092
0.235157 0.730709 0.80972
0.230137 0.722927 0.805615
0.223468 0.711406 0.801831
0.181689 0.66453 0.7608
0.717494 0.741924 0.876127
1 0.686915 0.937362
0.988373 0.611551 0.927611
0.965957 0.52256 0.913085
0.341466 0.872557 0.890028
0.333715 0.874189 0.89044
0.332525 0.872938 0.88867
0.339742 0.868147 0.882383
0.335058 0.864652 0.872633
0.424155 0.887785 0.866438
0.908721 0.942428 0.895766
1 0.932494 0.911009
1 0.920928 0.911315
0.348486 0.877302 0.910948
0.339071 0.878645 0.911635
0.33846 0.876936 0.908644
0.341085 0.872908 0.900313
0.344381 0.871 0.89218
0.329061 0.877882 0.859922
0.810819 0.998932 0.942931
1 0.995315 0.900893
0.999176 0.996094 0.899458
0.349493 0.87718 0.911513
0.340261 0.879561 0.9149
0.346059 0.877745 0.913848
0.355123 0.875456 0.91046
0.342565 0.878935 0.914076
0.333379 0.87451 0.893156
0.726864 0.982727 0.947524
0.984985 0.994965 0.922484
0.997421 0.995529 0.918639
0.156664 0.554681 0.766567
0.154299 0.552865 0.764004
0.179553 0.561517 0.796185
0.26659 0.568795 0.843458
0.490379 0.585367 0.879316
0.798856 0.547707 0.952514
0.943542 0.483848 0.9467
0.924605 0.416938 0.928298
0.909438 0.385061 0.913069
0.164538 0.573831 0.77258
0.161059 0.570352 0.768688
0.172213 0.573388 0.782895
0.256657 0.585473 0.84332
0.48452 0.601175 0.877729
0.794797 0.567193 0.953063
0.946258 0.499763 0.949172
0.928954 0.430426 0.932372
0.913725 0.393347 0.917266
0.171283 0.588159 0.777951
0.164309 0.577676 0.771282
0.167269 0.575509 0.77528
0.246342 0.590158 0.84181
0.472862 0.604959 0.875731
0.785885 0.572625 0.952239
0.946609 0.501869 0.949493
0.929702 0.432471 0.933104
0.910704 0.387396 0.914321
0.193454 0.630838 0.796368
0.172869 0.598566 0.776944
0.170916 0.593103 0.775814
0.223651 0.607706 0.833783
0.449241 0.620539 0.873137
0.770901 0.596689 0.951156
0.950729 0.522393 0.95375
0.936599 0.453925 0.940017
0.91693 0.400565 0.920272
0.217472 0.683894 0.810636
0.207233 0.665934 0.802716
0.195178 0.645487 0.792416
0.189975 0.636316 0.787808
0.399084 0.662028 0.872602
0.741817 0.668864 0.946456
0.962051 0.595239 0.964462
0.953109 0.533211 0.9561
0.94168 0.476875 0.944778
0.276799 0.777188 0.853559
0.269398 0.771023 0.851148
0.265354 0.763745 0.848447
0.256001 0.747784 0.840833
0.274128 0.740429 0.861067
0.700206 0.771939 0.928679
0.962386 0.755428 0.980697
0.977646 0.70753 0.979004
0.971023 0.667613 0.972869
0.345174 0.878294 0.913039
0.340566 0.879545 0.914565
0.340124 0.878645 0.914992
0.341283 0.874968 0.912108
0.341588 0.865995 0.902708
0.466697 0.866316 0.92784
0.908003 0.927016 0.977661
0.998871 0.911864 0.997467
0.994736 0.89659 0.994644
0.345983 0.878019 0.912993
0.340124 0.879667 0.914717
0.340291 0.87953 0.914961
0.340795 0.879088 0.91574
0.34902 0.877333 0.91162
0.3234 0.859968 0.885344
0.805463 0.966278 0.982483
0.99733 0.992691 0.990448
0.99649 0.992981 0.989944
0.346624 0.877852 0.912795
0.340032 0.879728 0.914595
0.340566 0.879362 0.91519
0.351446 0.876326 0.912047
0.341833 0.878981 0.914839
0.337896 0.877409 0.910796
0.723751 0.95079 0.973556
0.982406 0.992584 0.994797
0.996368 0.993088 0.990433
0.304707 0.756863 0.879667
0.34226 0.759548 0.888045
0.367361 0.759503 0.892409
0.440055 0.759182 0.901366
0.613291 0.771801 0.918837
0.819577 0.815106 0.956771
0.985306 0.784588 0.985992
0.982086 0.739223 0.983078
0.976074 0.700542 0.977539
0.305669 0.761944 0.881285
0.34052 0.765255 0.888869
0.364385 0.764874 0.893202
0.435523 0.764385 0.902281
0.610544 0.775433 0.919585
0.818875 0.81976 0.955566
0.98497 0.789868 0.985656
0.981765 0.746319 0.982742
0.976898 0.70782 0.978286
0.302495 0.763607 0.880049
0.334951 0.766613 0.888304
0.357595 0.765545 0.893278
0.426535 0.764401 0.902296
0.601556 0.774746 0.9187
0.81355 0.819547 0.953597
0.984344 0.789136 0.985473
0.982788 0.753948 0.983658
0.977508 0.713985 0.978851
0.298497 0.769467 0.877684
0.324239 0.772366 0.887236
0.343435 0.770397 0.892241
0.407446 0.769238 0.901381
0.584588 0.776226 0.917662
0.806287 0.822065 0.950561
0.981674 0.796887 0.985855
0.984833 0.764706 0.985611
0.979263 0.731487 0.980346
0.293141 0.77702 0.863111
0.308232 0.786618 0.881926
0.318471 0.785626 0.889418
0.369574 0.785733 0.9019
0.546197 0.789471 0.917144
0.794141 0.834485 0.947463
0.975814 0.823789 0.985962
0.986954 0.794186 0.987488
0.984573 0.773098 0.985351
0.287495 0.804532 0.859251
0.284901 0.799786 0.855924
0.291875 0.797818 0.857893
0.321614 0.811627 0.88394
0.442512 0.827085 0.918517
0.761105 0.855406 0.951171
0.957321 0.884565 0.987427
0.992599 0.859907 0.99263
0.989227 0.847532 0.989548
0.340017 0.879744 0.91458
0.335775 0.874922 0.906767
0.333974 0.871244 0.904509
0.320912 0.854597 0.886046
0.343603 0.854658 0.886076
0.593088 0.907454 0.948241
0.919173 0.952148 0.985077
0.999619 0.949325 0.999527
0.996658 0.942489 0.996811
0.339712 0.879988 0.914153
0.339879 0.87985 0.914382
0.340215 0.879591 0.914839
0.340658 0.87924 0.915465
0.339803 0.879911 0.914275
0.401358 0.896513 0.9243
0.838727 0.971817 0.988327
0.996796 0.993011 0.996521
0.995254 0.993652 0.995254
0.339712 0.879988 0.914153
0.339803 0.879896 0.91429
0.340032 0.879728 0.914595
0.339895 0.879835 0.914412
0.339712 0.879988 0.914153
0.339101 0.862608 0.887861
0.778958 0.960037 0.981262
0.983322 0.99237 0.997177
0.995254 0.993652 0.995254
