bundles/resolve-cinematic-luts/Phantom Luts/Apple Log Phantom LUTS/iPhone 15 Phantom ARRI LUTs/65x/Neutral Iphone15_65x_G1.cube
TITLE "Generated by Resolve"
LUT_3D_SIZE 9
0.00932326 0.00932326 0.00932326
0.00932326 0.00932326 0.00932326
0.206424 0.0129854 0.0180514
0.408194 0.0148165 0.0304875
0.631998 0.0452888 0.11577
0.906126 0.0639658 0.22092
0.906538 0.0585794 0.350439
0.935302 0.0501564 0.592966
0.958694 0.0037232 0.74583
0.00932326 0.00932326 0.00932326
0.00932326 0.00932326 0.00932326
0.0848402 0.0264134 0.0150759
0.30782 0.0304723 0.0152132
0.607477 0.00672923 0.0475166
0.84625 0 0.090135
0.908125 0.0505531 0.290883
0.928893 0.053315 0.562036
0.95613 0.0130159 0.729625
0 0.107301 0.0254063
0.0161135 0.0683909 0.0156558
0.0867628 0.0858778 0.0152895
0.284062 0.0714885 0.026276
0.581369 0.00740063 0.040177
0.838788 0 0.0674144
0.908003 0.0699321 0.247074
0.921813 0.0580758 0.525612
0.953475 0.0212863 0.712657
0 0.286107 0.0828412
0 0.294057 0
0 0.266026 0
0.281666 0.282017 3.0518e-05
0.594522 0.250507 0.0871748
0.835569 0.109895 0.0878462
0.838804 0 0.0674296
0.906493 0.0713664 0.395483
0.944595 0.0403754 0.655177
0 0.538064 0.206744
0 0.576638 0.142351
0 0.598749 0
0 0.563424 0
0.530816 0.538781 0.0297398
0.862577 0.512657 0.129854
0.947997 0.398932 0.166629
0.856474 0.0180972 0.0676738
0.905959 0.063386 0.369268
0 0.832883 0.448112
0 0.840177 0.405997
0 0.850935 0.372564
0.00326543 0.902876 0.254231
0.127398 0.902083 0
0.77612 0.805264 0.0496529
0.969253 0.782391 0.0754559
0.963012 0.737819 0.0805524
0.95729 0.667613 0.120089
0 0.977111 0.682734
0 0.981521 0.663203
0 0.984985 0.64268
0 0.990906 0.5897
0.0175479 0.995132 0.382773
0.413138 0.988144 0.00779736
0.940429 0.973617 0.0730602
0.987869 0.973007 0.0835584
0.989242 0.960342 0.0845197
0 0.940856 0.838071
0 0.942473 0.827588
0 0.944167 0.816785
0 0.947738 0.797406
0 0.959426 0.749935
0.0918288 0.996963 0.490578
0.795346 0.987167 0.386908
0.983001 0.986374 0.426734
0.983307 0.986938 0.44213
0 0.930556 0.904112
0 0.930907 0.901793
0 0.931395 0.898482
0 0.93283 0.88864
0 0.937957 0.856397
0 0.970825 0.708751
0.732509 0.993622 0.607431
0.989303 0.991379 0.613184
0.989166 0.991318 0.609827
0.00932326 0.00932326 0.00932326
0.0102083 0.0093843 0.00935378
0.241856 0.0115663 0.158648
0.452857 0.0237888 0.198642
0.685618 0.0421759 0.222019
0.908171 0.0504311 0.288975
0.90724 0.0719005 0.409308
0.9402 0.0460365 0.6262
0.961013 0 0.760021
0.00932326 0.00932326 0.00932326
0.00932326 0.00932326 0.00932326
0.198138 0.0142672 0.0208591
0.406958 0.0316777 0.0651102
0.641413 0.0498512 0.133974
0.907713 0.0656596 0.229145
0.906462 0.059144 0.352972
0.935439 0.0500496 0.593942
0.958755 0.00352483 0.746181
0.000335698 0.136828 0.111757
0 0.138781 0.0393683
0.118624 0.118547 0.0152285
0.338476 0.0624399 0.0246586
0.606394 0.00581369 0.0441291
0.872908 0.0533303 0.169131
0.907683 0.0518654 0.308217
0.929244 0.0531014 0.563729
0.956374 0.0121767 0.731182
0 0.280552 0.171023
0 0.29427 0.0874189
0 0.30956 0
0.292424 0.292729 0
0.611292 0.242161 0.0896315
0.837186 0.10074 0.0857099
0.872084 0.0509194 0.166445
0.911757 0.0664683 0.460182
0.948516 0.033402 0.680705
0 0.518929 0.267872
0 0.53724 0.207431
0 0.560037 0.164706
0 0.577157 0
0.530419 0.537346 0.0291905
0.865919 0.501045 0.133913
0.946288 0.390784 0.16582
0.85301 0.00953689 0.0650797
0.908766 0.0696269 0.431159
0 0.825437 0.477897
0 0.827924 0.443809
0 0.830991 0.412619
0 0.866758 0.328313
0.0887007 0.896681 0
0.771786 0.798993 0.0521706
0.968444 0.77612 0.0757916
0.962066 0.730587 0.0834211
0.956939 0.656626 0.125261
0 0.974517 0.693858
0 0.978561 0.676722
0 0.982391 0.658839
0 0.988983 0.609949
0 0.996078 0.424704
0.419272 0.988693 0.0842145
0.939712 0.974716 0.128527
0.99028 0.963149 0.158556
0.988556 0.952499 0.178073
0 0.940475 0.840421
0 0.942138 0.829892
0 0.943725 0.819409
0 0.947112 0.800473
0 0.95816 0.75433
0.0842451 0.997086 0.507378
0.78529 0.987991 0.409781
0.983368 0.987076 0.445487
0.983581 0.987533 0.457847
0 0.930236 0.906386
0 0.930587 0.90396
0 0.930983 0.901152
0 0.932342 0.891829
0 0.937163 0.861463
0 0.968231 0.718593
0.72105 0.993698 0.620859
0.989807 0.991547 0.624353
0.989609 0.991485 0.620447
0.0128328 0.00236515 0.117922
0.145846 0.00590524 0.141848
0.248356 0.00537118 0.200717
0.447288 0.00842298 0.27129
0.693751 0.0445106 0.274113
0.907118 0.0545357 0.329686
0.911177 0.0670176 0.455268
0.94374 0.0416419 0.649668
0.962768 0 0.770184
0.00846876 0.0438544 0.059678
0.0135195 0.000808728 0.135103
0.219364 0.00779736 0.177478
0.44271 0.024445 0.163714
0.674144 0.0435492 0.192233
0.908812 0.0499275 0.265644
0.906233 0.0697032 0.390417
0.939269 0.046952 0.62002
0.960952 0 0.759625
0 0.13991 0.139559
0 0.13286 0.132372
0.110674 0.110674 0.110674
0.342855 0.0817121 0.101991
0.647532 0.0529335 0.161578
0.907652 0.0647135 0.224964
0.9066 0.0580911 0.348196
0.93431 0.0506142 0.587716
0.958801 0.00332647 0.746487
0 0.274708 0.20502
0 0.28278 0.158511
0 0.289281 0.0981765
0.286702 0.285115 0.0729686
0.612512 0.239277 0.13962
0.835737 0.109758 0.12195
0.907652 0.0648203 0.225422
0.917113 0.0617685 0.498177
0.951568 0.0264134 0.700404
0 0.509392 0.30219
0 0.520821 0.250324
0 0.532036 0.205966
0 0.575158 0.00480659
0.523064 0.528725 0.0281834
0.858961 0.492027 0.137285
0.943587 0.38143 0.176089
0.874357 0.0340276 0.126543
0.914717 0.063798 0.482399
0 0.819989 0.495918
0 0.82153 0.465492
0 0.821836 0.438331
0 0.844068 0.354879
0.077821 0.885023 0
0.768475 0.793637 0.0550393
0.967712 0.770672 0.0758526
0.960998 0.721202 0.0931106
0.957961 0.640925 0.187335
0 0.972549 0.7019
0 0.976379 0.685847
0 0.98027 0.669337
0 0.987518 0.623072
0 0.996536 0.44892
0.409979 0.989914 0.14287
0.939132 0.975998 0.176837
0.988922 0.958038 0.214084
0.986725 0.945632 0.236988
0 0.940078 0.842878
0 0.941802 0.831968
0 0.943465 0.821164
0 0.946792 0.802289
0 0.957412 0.757244
0.0684977 0.997604 0.51751
0.774487 0.988602 0.423301
0.983566 0.987488 0.456413
0.983734 0.987915 0.467674
0 0.929793 0.909438
0 0.930144 0.90695
0 0.930617 0.903761
0 0.931899 0.894942
0 0.936324 0.866255
0 0.964096 0.733516
0.705486 0.993912 0.633356
0.990265 0.991684 0.633661
0.990066 0.991623 0.629526
0.00892653 0 0.334569
0.240406 0 0.360388
0.338155 0 0.36289
0.456718 0 0.370581
0.699367 0.0289158 0.415808
0.909392 0.068864 0.438102
0.925902 0.0551766 0.547189
0.952056 0.0251621 0.703593
0.966781 0 0.795209
0 0.0792401 0.224704
0.00833143 0 0.350103
0.222126 0 0.374029
0.4392 0 0.356695
0.689876 0.0381476 0.359762
0.905898 0.0653086 0.376043
0.918135 0.0609293 0.504463
0.948394 0.0336461 0.679911
0.965408 0 0.786343
0 0.160433 0.220844
0 0.114778 0.263096
0.0688487 0.0876631 0.271183
0.346471 0.0433967 0.287587
0.675624 0.0386206 0.341573
0.906828 0.0564736 0.340459
0.911833 0.0664073 0.460731
0.944137 0.041062 0.652216
0.963882 0 0.776959
0 0.264118 0.265644
0 0.260533 0.261845
0 0.256428 0.258259
0.28748 0.28748 0.28748
0.640711 0.271046 0.292378
0.891264 0.172976 0.282689
0.906661 0.0576333 0.34609
0.93164 0.0518044 0.57528
0.958526 0.00436408 0.744778
0 0.486717 0.365942
0 0.491859 0.346151
0 0.494789 0.323156
0 0.506844 0.239261
0.517418 0.525078 0.235447
0.86923 0.512749 0.319432
0.954238 0.407095 0.338277
0.910552 0.0941176 0.269581
0.930907 0.0521859 0.571771
0 0.805966 0.546593
0 0.809125 0.521157
0 0.808377 0.497887
0 0.810971 0.434424
0.0300755 0.851347 0.232319
0.759793 0.778805 0.21799
0.975402 0.74342 0.320378
0.972549 0.701946 0.336599
0.971542 0.643503 0.361517
0 0.966735 0.724086
0 0.970321 0.710643
0 0.973754 0.697063
0 0.981872 0.661509
0 0.998276 0.511482
0.38854 0.993332 0.274861
0.933165 0.972015 0.291783
0.986267 0.949172 0.337652
0.989364 0.934234 0.364324
0 0.93846 0.853223
0 0.940108 0.84268
0 0.942031 0.83064
0 0.944945 0.812207
0 0.954131 0.768872
0.0413367 0.999496 0.548241
0.755428 0.990768 0.471382
0.984192 0.988922 0.495109
0.984527 0.989181 0.505394
0 0.928557 0.917876
0 0.928939 0.915221
0 0.929458 0.911788
0 0.930694 0.903212
0 0.934539 0.877256
0 0.957916 0.755291
0.692805 0.994415 0.662593
0.991318 0.99202 0.657359
0.991073 0.991958 0.652979
0.0124819 0 0.617182
0.175631 0 0.597894
0.312413 0 0.602396
0.524422 0 0.602106
0.741543 0 0.60882
0.948074 0.034287 0.677806
0.956054 0.0133059 0.729076
0.967437 0 0.799588
0.975006 0 0.858595
0 0.0720531 0.44535
0 0 0.54197
0.0988632 0 0.550515
0.460044 0 0.600885
0.723186 0 0.594705
0.943618 0.0418097 0.648859
0.952728 0.0234073 0.70782
0.96582 0 0.788968
0.97409 0 0.850248
0 0.139635 0.421698
0 0.0870985 0.47245
0 0.0548562 0.471794
0.307897 0.0155337 0.504952
0.64831 0 0.532235
0.941115 0.0449989 0.632319
0.949065 0.0322728 0.684245
0.963699 0 0.77583
0.972915 0 0.840146
0 0.271 0.396002
0 0.248005 0.415793
0 0.231449 0.430579
0.199954 0.245609 0.465126
0.597147 0.175753 0.516899
0.92047 0.147555 0.522835
0.941695 0.0443275 0.636179
0.957275 0.00903334 0.736904
0.969863 0 0.81648
0 0.474891 0.482139
0 0.47013 0.477363
0 0.46392 0.471031
0 0.453101 0.4607
0.51838 0.51838 0.51838
0.908476 0.525154 0.542504
0.964965 0.437919 0.532067
0.922347 0.0798505 0.53077
0.957473 0.00833143 0.738125
0 0.774044 0.626123
0 0.772457 0.614801
0 0.769085 0.604059
0 0.768063 0.578424
0.000808728 0.759258 0.467781
0.754253 0.764309 0.477043
0.998367 0.759213 0.54229
0.99794 0.729473 0.556146
0.995392 0.665919 0.574685
0 0.953948 0.769635
0 0.956283 0.761303
0 0.958465 0.753155
0 0.963897 0.734188
0 0.98436 0.647089
0.426856 0.993698 0.533486
0.925597 0.958267 0.488533
0.998901 0.930297 0.527871
1 0.916259 0.543725
0 0.933822 0.881956
0 0.935286 0.872435
0 0.937118 0.861662
0 0.939925 0.843839
0 0.94641 0.804211
0 0.985412 0.624186
0.744305 0.993408 0.582101
0.988266 0.991028 0.591836
0.988724 0.99118 0.600717
0 0.92781 0.933379
0 0.927932 0.931014
0 0.928038 0.928466
0 0.928328 0.922637
0 0.930785 0.902571
0 0.94844 0.793957
0.706447 0.992782 0.740719
0.994797 0.992508 0.714168
0.994507 0.992477 0.709545
0 0.0388495 0.776349
0 0 0.809949
0.102068 0 0.769406
0.36112 0 0.778653
0.786191 0 0.863447
0.97734 0 0.882902
0.979309 0 0.909407
0.981277 0 0.959411
0.981369 0 0.981582
0 0.170352 0.728374
0 0.132952 0.766583
0 0.102205 0.752453
0.24593 0.0736248 0.724041
0.642359 0.0194705 0.763012
0.976043 0 0.868788
0.978378 0 0.895842
0.98117 0 0.952895
0.981369 0 0.981582
0 0.218967 0.710536
0 0.18468 0.747234
0 0.174624 0.751202
0.196826 0.13193 0.701244
0.604501 0.0805829 0.745708
0.937102 0 0.784909
0.97763 0 0.886397
0.980865 0 0.941955
0.981369 0 0.981582
0 0.327138 0.687694
0 0.299886 0.711879
0 0.285542 0.722438
0.107393 0.254246 0.663798
0.530831 0.213764 0.721004
0.887022 0.142336 0.758816
0.969085 0 0.81091
0.979538 0 0.91313
0.981384 0 0.968154
0 0.525872 0.677882
0 0.514336 0.683146
0 0.50518 0.685679
0 0.486976 0.6963
0.438239 0.490196 0.701289
0.817456 0.402365 0.737224
0.968215 0.345281 0.759487
0.969528 0.10837 0.805936
0.979355 0 0.910185
0 0.754223 0.770703
0 0.749111 0.765805
0 0.742107 0.758389
0 0.733745 0.74966
0 0.67628 0.682673
0.748287 0.748287 0.748287
1 0.754543 0.778485
1 0.692439 0.782223
0.99707 0.576761 0.779599
0 0.937453 0.859571
0 0.938659 0.851835
0 0.940002 0.843381
0 0.939895 0.830594
0 0.940124 0.790021
0.445029 0.934112 0.735531
0.92491 0.932601 0.725582
1 0.906233 0.749538
1 0.896178 0.763561
0 0.927871 0.932189
0 0.92813 0.926894
0 0.928435 0.920546
0 0.929778 0.909514
0 0.933379 0.884855
0 0.945037 0.765469
0.762646 0.994247 0.761852
0.994736 0.993545 0.751415
0.994476 0.993744 0.755245
0 0.934554 0.979126
0 0.929671 0.965484
0 0.926833 0.956497
0 0.927031 0.951766
0 0.927474 0.941238
0 0.935241 0.872709
0.725307 0.993271 0.842832
0.99115 0.996063 0.810071
0.992355 0.995956 0.805508
0 0.36257 0.919661
0 0.347402 0.914977
0 0.334249 0.902464
0.219471 0.334829 0.880842
0.515999 0.30219 0.893812
0.867918 0.241856 0.91136
0.988327 0.155413 0.946059
0.981369 0 0.981582
0.981369 0 0.981582
0 0.405554 0.91577
0 0.39826 0.920119
0 0.371481 0.896361
0.187259 0.373678 0.877531
0.495262 0.345129 0.886961
0.848524 0.277104 0.901564
0.989731 0.196902 0.936507
0.981369 0 0.981582
0.981369 0 0.981582
0 0.427832 0.912428
0 0.417655 0.918166
0 0.388296 0.893538
0.163394 0.390158 0.874052
0.480949 0.364782 0.880964
0.834348 0.293538 0.895109
0.988998 0.216327 0.926726
0.981643 0 0.981888
0.981369 0 0.981582
0 0.491218 0.899428
0 0.475959 0.909407
0 0.46923 0.909422
0.0927443 0.434485 0.871092
0.448966 0.426352 0.867414
0.808469 0.347723 0.887877
0.970886 0.274022 0.905333
0.986618 0.115312 0.951934
0.981369 0 0.981582
0 0.615213 0.882017
0 0.603449 0.88864
0 0.593042 0.891981
0 0.553353 0.860426
0.374624 0.548592 0.832135
0.775219 0.499214 0.901656
0.944091 0.407019 0.877699
0.958862 0.313863 0.893233
0.988891 0.170596 0.94287
0 0.779324 0.900877
0 0.77203 0.898741
0 0.764614 0.895354
0 0.753445 0.893965
0.0134432 0.701381 0.838483
0.707439 0.73167 0.895811
0.973648 0.66479 0.914031
0.966476 0.606043 0.90132
0.952743 0.535058 0.891707
0 0.926986 0.953521
0 0.924956 0.950362
0 0.921843 0.945907
0 0.915618 0.939208
0 0.906661 0.930022
0.468025 0.85304 0.861112
0.917647 0.917647 0.917647
1 0.907027 0.919997
1 0.888136 0.926482
0 0.936019 0.98909
0 0.936019 0.98909
0 0.936019 0.98909
0 0.936019 0.98909
0 0.92726 0.959319
0.0643168 0.912337 0.874983
0.79263 0.987518 0.924239
0.991241 0.997818 0.907393
0.991287 0.997803 0.908843
0 0.936019 0.98909
0 0.936019 0.98909
0 0.936019 0.98909
0 0.936019 0.98909
0 0.936019 0.98909
0 0.927031 0.951629
0.720455 0.957565 0.927123
0.977874 0.998703 0.923781
0.991608 0.997757 0.920882
0 0.632914 0.895552
0.0349584 0.629221 0.886503
0.134203 0.62739 0.879637
0.289967 0.620554 0.86421
0.523308 0.638621 0.89099
0.804242 0.613138 0.952972
0.950729 0.549462 0.925063
0.945556 0.498283 0.916899
0.944259 0.47747 0.914321
0 0.646647 0.89546
0 0.643168 0.888212
0.101747 0.641001 0.882017
0.276387 0.632517 0.865202
0.515999 0.648722 0.889784
0.799908 0.626947 0.955367
0.952346 0.560632 0.927291
0.946227 0.508064 0.918166
0.94432 0.481209 0.914626
0 0.653056 0.895003
0 0.648951 0.889494
0.0706645 0.645884 0.884016
0.261311 0.636362 0.866178
0.504143 0.650187 0.88748
0.791836 0.629984 0.955856
0.952316 0.560388 0.927245
0.94612 0.50663 0.917967
0.943954 0.470634 0.913588
0 0.669856 0.892515
0 0.667308 0.892897
0 0.661891 0.887938
0.221225 0.651865 0.87068
0.484443 0.659251 0.884627
0.776486 0.648829 0.957855
0.954635 0.575982 0.930404
0.947662 0.523171 0.920485
0.944228 0.479622 0.914443
0 0.746227 0.914427
0 0.71104 0.891569
0 0.707668 0.894667
0.0550393 0.698543 0.885771
0.43566 0.689128 0.879896
0.75079 0.704021 0.959274
0.964462 0.634531 0.943328
0.956497 0.588464 0.932952
0.950378 0.545419 0.924468
0 0.832975 0.943069
0 0.826871 0.941421
0 0.82121 0.939849
0 0.781079 0.912505
0.269978 0.757763 0.88687
0.710643 0.784985 0.940597
0.961639 0.767926 0.975875
0.983597 0.728191 0.96701
0.977142 0.698314 0.959152
0 0.936019 0.98909
0 0.936019 0.98909
0 0.936019 0.98909
0 0.932525 0.987228
0 0.877607 0.932097
0.535531 0.8607 0.920684
0.906081 0.922805 0.983902
0.999786 0.901488 0.993194
0.999481 0.888411 0.99202
0 0.936019 0.98909
0 0.936019 0.98909
0 0.936019 0.98909
0 0.936019 0.98909
0 0.936019 0.98909
0.216709 0.893721 0.916869
0.814664 0.96733 0.981628
0.995911 0.995911 0.995911
0.995911 0.995911 0.995911
0 0.936019 0.98909
0 0.936019 0.98909
0 0.936019 0.98909
0 0.936019 0.98909
0 0.936019 0.98909
0 0.909606 0.940185
0.738033 0.94789 0.968597
0.981155 0.996017 0.99675
0.995911 0.995911 0.995911
0.284932 0.762142 0.887541
0.337758 0.760708 0.887144
0.370062 0.760143 0.887968
0.452018 0.761242 0.895186
0.61944 0.776898 0.922316
0.815671 0.811154 0.968505
0.989914 0.764492 0.975113
0.982361 0.72285 0.96553
0.974289 0.684291 0.955627
0.274083 0.765881 0.888975
0.328069 0.763958 0.887648
0.361288 0.763455 0.888457
0.444907 0.764355 0.895064
0.615015 0.779141 0.921736
0.81384 0.815351 0.96701
0.990509 0.770367 0.976028
0.983749 0.729381 0.967239
0.975677 0.691035 0.957336
0.265705 0.768734 0.890288
0.32079 0.766201 0.887984
0.35436 0.765759 0.888655
0.437613 0.766476 0.894621
0.608148 0.780316 0.920806
0.80795 0.818082 0.96376
0.990387 0.776028 0.977005
0.985153 0.73666 0.968994
0.977005 0.697047 0.958938
0.241398 0.776989 0.894423
0.301244 0.772839 0.88983
0.335714 0.771847 0.889586
0.42005 0.771847 0.893874
0.595148 0.784405 0.919692
0.800214 0.824384 0.959487
0.984482 0.790692 0.978698
0.988464 0.75227 0.973037
0.980331 0.713893 0.963088
0.163439 0.800519 0.907149
0.235904 0.793683 0.899092
0.279271 0.790051 0.894972
0.371649 0.786892 0.893675
0.560769 0.797208 0.91603
0.788403 0.838819 0.958221
0.976501 0.82324 0.983536
0.992264 0.788739 0.97879
0.989075 0.754726 0.973739
0 0.851469 0.928145
0.0176547 0.846296 0.923766
0.0914778 0.841703 0.919539
0.233433 0.828092 0.905058
0.462409 0.826017 0.906905
0.759731 0.862638 0.960632
0.954452 0.885649 0.992981
0.997818 0.858076 0.988434
0.996139 0.836347 0.985443
0 0.936019 0.98909
0 0.917082 0.954604
0 0.90956 0.945098
0 0.906218 0.939895
0.238682 0.879576 0.911986
0.632197 0.906203 0.942184
0.917098 0.954406 0.989776
0.999329 0.947463 0.996612
0.999588 0.938033 0.996201
0 0.936019 0.98909
0 0.936019 0.98909
0 0.936019 0.98909
0 0.936019 0.98909
0 0.911482 0.943114
0.448997 0.895079 0.914931
0.845075 0.974594 0.986511
0.995911 0.995911 0.995911
0.995911 0.995911 0.995911
0 0.936019 0.98909
0 0.936019 0.98909
0 0.936019 0.98909
0 0.936019 0.98909
0 0.936019 0.98909
0.18265 0.897002 0.920867
0.782849 0.959396 0.976318
0.983703 0.996094 0.996704
0.995911 0.995911 0.995911
