bundles/resolve-cinematic-luts/Phantom Luts/Apple Log Phantom LUTS/iPhone 15 Phantom ARRI LUTs/65x/Neutral Iphone15_65x_G1.cube
TITLE "Generated by Resolve"
LUT_3D_SIZE 65
0.00932326 0.00932326 0.00932326
0.00932326 0.00932326 0.00932326
0.00932326 0.00932326 0.00932326
0.00932326 0.00932326 0.00932326
0.00932326 0.00932326 0.00932326
0.00932326 0.00932326 0.00932326
0.00932326 0.00932326 0.00932326
0.00932326 0.00932326 0.00932326
0.00932326 0.00932326 0.00932326
0.0102998 0.00939956 0.00932326
0.0318151 0.00970474 0.00947585
0.0636301 0.010071 0.0105898
0.0949722 0.0111238 0.0122988
0.123552 0.0121157 0.0141451
0.151461 0.0130617 0.0161593
0.180209 0.0131838 0.01738
0.206424 0.0129854 0.0180514
0.232471 0.0127413 0.0186618
0.257557 0.0125734 0.0193484
0.282551 0.0128481 0.020676
0.307897 0.013138 0.0222934
0.332509 0.0135805 0.0241398
0.357824 0.0138399 0.0257115
0.383322 0.0143435 0.0274662
0.408194 0.0148165 0.0304875
0.433936 0.01561 0.035111
0.459312 0.0164187 0.0401617
0.485634 0.017731 0.0466621
0.511894 0.0194705 0.0542153
0.539757 0.0239567 0.0673686
0.569482 0.0320592 0.0865949
0.599649 0.0392157 0.102235
0.631998 0.0452888 0.11577
0.667109 0.0492256 0.128313
0.704356 0.0517891 0.140536
0.743221 0.0540932 0.153216
0.781872 0.0563668 0.165728
0.822095 0.058381 0.179263
0.862242 0.0601053 0.193484
0.898421 0.0617227 0.207858
0.906126 0.0639658 0.22092
0.907774 0.0667124 0.233722
0.908019 0.0700847 0.247623
0.908873 0.0561685 0.255985
0.908675 0.0499428 0.270619
0.908186 0.0504311 0.288899
0.907668 0.0518807 0.308385
0.907134 0.0544289 0.32903
0.906538 0.0585794 0.350439
0.905898 0.064622 0.373648
0.906691 0.0723735 0.398535
0.909026 0.0692912 0.434195
0.913024 0.0652934 0.470222
0.917967 0.0610666 0.503471
0.923568 0.0567941 0.535027
0.929366 0.0530251 0.56437
0.935302 0.0501564 0.592966
0.940017 0.0462196 0.624964
0.944656 0.0402838 0.655573
0.949203 0.0319524 0.685191
0.953429 0.0214084 0.712383
0.957473 0.00830091 0.73817
0.958694 0.00373846 0.745815
0.958694 0.0037232 0.74583
0.958694 0.0037232 0.74583
0.00932326 0.00932326 0.00932326
0.00932326 0.00932326 0.00932326
0.00932326 0.00932326 0.00932326
0.00932326 0.00932326 0.00932326
0.00932326 0.00932326 0.00932326
0.00932326 0.00932326 0.00932326
0.00932326 0.00932326 0.00932326
0.00932326 0.00932326 0.00932326
0.00932326 0.00932326 0.00932326
0.00932326 0.00932326 0.00932326
0.0157321 0.00962844 0.00923171
0.0386053 0.00973526 0.00958267
0.0657206 0.010132 0.0106966
0.095964 0.0111696 0.0123598
0.126253 0.0122377 0.0137484
0.155734 0.0132296 0.0155337
0.185107 0.0133211 0.0162509
0.213245 0.0130007 0.0165103
0.240513 0.0125887 0.0168917
0.268162 0.012314 0.0175479
0.296269 0.0122225 0.0184482
0.324727 0.0129244 0.0223087
0.350912 0.0129091 0.0234226
0.377249 0.0129091 0.0239109
0.403326 0.0129244 0.0255894
0.429053 0.0126192 0.0275425
0.455451 0.0121157 0.0301671
0.482658 0.0114595 0.0328832
0.508873 0.0106508 0.0356603
0.536126 0.00972 0.0387427
0.562905 0.00880446 0.0420386
0.590631 0.00772107 0.0456092
0.619699 0.00619516 0.0492561
0.652399 0.00920119 0.0629892
0.689784 0.0218357 0.0932326
0.728008 0.0318761 0.115145
0.768124 0.0427863 0.136767
0.808362 0.0534066 0.157122
0.850019 0.0559854 0.172686
0.885878 0.0583963 0.188312
0.894652 0.0607614 0.201816
0.903868 0.0632639 0.216968
0.907744 0.0663615 0.232166
0.908019 0.0702525 0.248188
0.908965 0.0523842 0.257664
0.908537 0.0499886 0.275669
0.908003 0.0508583 0.295689
0.907469 0.0526436 0.316289
0.906844 0.0562905 0.339483
0.906142 0.0617838 0.363439
0.906172 0.0691997 0.388846
0.908095 0.0705119 0.422675
0.911696 0.0665446 0.459586
0.916671 0.0621347 0.495354
0.922255 0.0577401 0.528054
0.928328 0.0536355 0.559335
0.934508 0.0505226 0.588693
0.939345 0.046891 0.620508
0.944183 0.0409857 0.652552
0.948714 0.03299 0.682002
0.953155 0.0221866 0.710597
0.957214 0.00929274 0.736461
0.958236 0.00543221 0.742977
0.958251 0.00537118 0.743084
0.958267 0.00534066 0.743145
0.00932326 0.00932326 0.00932326
0.00932326 0.00932326 0.00932326
0.00932326 0.00932326 0.00932326
0.00932326 0.00932326 0.00932326
0.00932326 0.00932326 0.00932326
0.00932326 0.00932326 0.00932326
0.00932326 0.00932326 0.00932326
0.00932326 0.00932326 0.00932326
0.00932326 0.00932326 0.00932326
0.00932326 0.00932326 0.00932326
0.0110323 0.00947585 0.00933852
0.025391 0.00968948 0.00936904
0.0473793 0.00987259 0.0099031
0.0745251 0.0104219 0.0108797
0.105104 0.0121004 0.0124971
0.132723 0.0137636 0.0138399
0.159457 0.0146334 0.0146029
0.186618 0.014435 0.0147402
0.213565 0.013901 0.0146487
0.242222 0.0134585 0.0150454
0.271275 0.0131685 0.0155184
0.300191 0.0129702 0.0164034
0.329 0.0129397 0.0179446
0.359548 0.0126955 0.0196231
0.389868 0.0128328 0.0215457
0.420829 0.0118868 0.0237125
0.451575 0.0121309 0.0297398
0.47834 0.0115663 0.0324407
0.506096 0.0107118 0.0353246
0.533135 0.00981155 0.0383764
0.561135 0.00886549 0.0418097
0.589075 0.00775158 0.0453956
0.618875 0.00616464 0.049012
0.651423 0.00350958 0.0519265
0.684001 0.000488289 0.0549172
0.719692 0.00529488 0.0737774
0.759609 0.0208286 0.107454
0.800214 0.0324712 0.131029
0.842054 0.0466011 0.155779
0.876967 0.0554055 0.175189
0.886488 0.0586404 0.189334
0.896239 0.0611734 0.204349
0.906371 0.0640421 0.221347
0.907851 0.0677348 0.238331
0.908492 0.0640574 0.252125
0.908843 0.0499733 0.265217
0.908278 0.0502785 0.285389
0.907698 0.0517891 0.307378
0.907088 0.0546578 0.330419
0.906401 0.0596475 0.355093
0.905943 0.0668193 0.381079
0.907393 0.0716259 0.411963
0.910719 0.0674754 0.451102
0.915587 0.0630503 0.488319
0.921294 0.0584726 0.522713
0.927413 0.0542 0.554788
0.933532 0.0509194 0.584131
0.938735 0.0474861 0.616449
0.943542 0.0419165 0.648356
0.948257 0.0339055 0.679057
0.952758 0.0233005 0.708049
0.956847 0.0105745 0.734127
0.957824 0.00703441 0.740307
0.957839 0.00694286 0.740444
0.95787 0.00686656 0.740581
0.00932326 0.00932326 0.00932326
0.00932326 0.00932326 0.00932326
0.00932326 0.00932326 0.00932326
0.00932326 0.00932326 0.00932326
0.00932326 0.00932326 0.00932326
0.00932326 0.00932326 0.00932326
0.00932326 0.00932326 0.00932326
0.00932326 0.00932326 0.00932326
0.00932326 0.00932326 0.00932326
0.00932326 0.00932326 0.00932326
0.00967422 0.00935378 0.00932326
0.0180819 0.00972 0.00921645
0.0355383 0.00970474 0.00952163
0.0590524 0.010071 0.0101778
0.0881208 0.012192 0.0116732
0.115602 0.0152438 0.0134279
0.139803 0.0175784 0.0144503
0.164263 0.0187076 0.0147402
0.189868 0.0188296 0.0144808
0.216938 0.0186923 0.0142519
0.246036 0.0180667 0.0142519
0.276646 0.0169833 0.0145876
0.307744 0.0158083 0.0157473
0.339498 0.0149996 0.0174868
0.371221 0.0149233 0.0191501
0.409201 0.0131991 0.022446
0.441566 0.0115663 0.0254978
0.474968 0.0116121 0.0320592
0.502327 0.0108339 0.0349126
0.530541 0.00985733 0.0380407
0.558724 0.00891127 0.0414893
0.586664 0.0078584 0.0450904
0.617151 0.00628672 0.0488289
0.649241 0.00369268 0.0517281
0.683299 0.000518807 0.0547951
0.717311 0 0.0577096
0.752468 0 0.06981
0.793683 0.0151217 0.107973
0.834607 0.027863 0.133196
0.870222 0.045594 0.160418
0.879347 0.0562448 0.178576
0.88983 0.0595407 0.194293
0.900801 0.0623636 0.211597
0.907698 0.0655528 0.228672
0.907988 0.0697337 0.246372
0.908949 0.0532235 0.257267
0.908492 0.0500343 0.276997
0.907912 0.0510872 0.299153
0.907301 0.0534829 0.322606
0.9066 0.0580148 0.34786
0.905898 0.0646525 0.373754
0.906935 0.0725109 0.403235
0.90988 0.0683299 0.443122
0.914595 0.0639048 0.481559
0.920363 0.0591745 0.517479
0.92636 0.0548714 0.549508
0.932738 0.0512703 0.580468
0.938064 0.0480659 0.611917
0.943053 0.0425879 0.645075
0.947829 0.0347448 0.67631
0.952285 0.0245823 0.705089
0.956497 0.01178 0.731899
0.957488 0.00825513 0.738247
0.957519 0.00814832 0.738415
0.957549 0.00805676 0.738582
0.00932326 0.00932326 0.00932326
0.00932326 0.00932326 0.00932326
0.00932326 0.00932326 0.00932326
0.00932326 0.00932326 0.00932326
0.00932326 0.00932326 0.00932326
0.00932326 0.00932326 0.00932326
0.00932326 0.00932326 0.00932326
0.00932326 0.00932326 0.00932326
0.00932326 0.00932326 0.00932326
0.00932326 0.00932326 0.00932326
0.00932326 0.00932326 0.00932326
0.0140688 0.00961318 0.009308
0.0272068 0.00968948 0.0093843
0.0471962 0.0103304 0.0099031
0.0746929 0.012604 0.01149
0.10103 0.0166323 0.0132448
0.124086 0.0203403 0.0144961
0.14638 0.0225681 0.0149691
0.170382 0.0234684 0.014847
0.196506 0.0240482 0.0145571
0.224308 0.0238346 0.0142519
0.253941 0.0228122 0.0142214
0.285176 0.021149 0.014725
0.318471 0.0195926 0.0159609
0.360204 0.0165255 0.0180056
0.392737 0.0156405 0.0203861
0.428672 0.0135195 0.0233921
0.462577 0.0111391 0.0267033
0.499687 0.0108949 0.0346227
0.527977 0.00994888 0.0377508
0.555932 0.00901808 0.0411383
0.584863 0.00793469 0.0448615
0.614694 0.00628672 0.0483253
0.647623 0.0037995 0.051545
0.681224 0.000717174 0.0545968
0.716014 0 0.0575875
0.751141 0 0.0604715
0.786435 0 0.0729076
0.828916 0.0132296 0.114214
0.863539 0.0292363 0.141283
0.872755 0.0528725 0.168612
0.883955 0.0577859 0.185306
0.894499 0.0607156 0.201587
0.905547 0.0637827 0.219898
0.907835 0.0676432 0.237919
0.908614 0.0619516 0.253193
0.908705 0.0499275 0.269642
0.908095 0.0505989 0.291752
0.907485 0.0525826 0.315801
0.906813 0.0565347 0.340795
0.906004 0.0630045 0.367941
0.906538 0.0716259 0.396307
0.909163 0.0691386 0.435554
0.913741 0.0646525 0.475471
0.919371 0.0599374 0.511833
0.925582 0.0553902 0.545525
0.931899 0.0516823 0.576455
0.937545 0.0485084 0.608301
0.94258 0.0432288 0.641947
0.947295 0.0358282 0.672786
0.951934 0.0254978 0.70277
0.956085 0.0131685 0.729335
0.957153 0.00949111 0.73611
0.957183 0.0093843 0.736309
0.957214 0.00927749 0.736492
0.00932326 0.00932326 0.00932326
0.00932326 0.00932326 0.00932326
0.00932326 0.00932326 0.00932326
0.00932326 0.00932326 0.00932326
0.00932326 0.00932326 0.00932326
0.00932326 0.00932326 0.00932326
0.00932326 0.00932326 0.00932326
0.00932326 0.00932326 0.00932326
0.00932326 0.00932326 0.00932326
0.00932326 0.00932326 0.00932326
0.00932326 0.00932326 0.00932326
0.0115969 0.00950637 0.00935378
0.0210575 0.00972 0.00920119
0.0387732 0.0103914 0.00968948
0.0625925 0.0129549 0.0111391
0.088838 0.0175784 0.0130159
0.111879 0.0222171 0.0145724
0.132677 0.0253605 0.015198
0.155077 0.0275425 0.0152132
0.18056 0.0286107 0.0148775
0.207538 0.0290227 0.0145724
0.235935 0.0283818 0.0142061
0.2663 0.0270237 0.0140841
0.302678 0.0241703 0.0151522
0.337758 0.0223239 0.016907
0.379461 0.0183108 0.018967
0.414435 0.016083 0.0216983
0.451041 0.0132143 0.0250553
0.487984 0.0104372 0.0291142
0.522927 0.00892653 0.0336461
0.554101 0.0090486 0.0408789
0.582589 0.00802625 0.0445716
0.613062 0.00639353 0.0481422
0.645975 0.00393683 0.0513924
0.679713 0.000854505 0.0544747
0.714717 0 0.0574807
0.749294 0 0.0603342
0.784665 0 0.0631266
0.821744 0 0.0834974
0.857282 0.0152895 0.123735
0.867613 0.0389105 0.152712
0.87718 0.0554971 0.175494
0.88867 0.059266 0.192554
0.900328 0.0621653 0.210834
0.907729 0.0659342 0.230365
0.908141 0.0691234 0.249409
0.908934 0.0499886 0.261921
0.908278 0.0502785 0.285176
0.907652 0.0519265 0.308965
0.906966 0.0554513 0.33492
0.906172 0.0614633 0.362173
0.906233 0.0696727 0.390311
0.908583 0.0698405 0.428992
0.912871 0.0654307 0.468986
0.918547 0.0605936 0.506966
0.924697 0.0560006 0.540978
0.931136 0.0520638 0.572885
0.937026 0.0489357 0.604837
0.94197 0.044007 0.638025
0.946853 0.0366064 0.669932
0.951446 0.0267338 0.699626
0.955734 0.0143587 0.727108
0.956878 0.0104677 0.73431
0.956893 0.0103914 0.734462
0.956924 0.0102998 0.73463
0.00932326 0.00932326 0.00932326
0.00932326 0.00932326 0.00932326
0.00932326 0.00932326 0.00932326
0.00932326 0.00932326 0.00932326
0.00932326 0.00932326 0.00932326
0.00932326 0.00932326 0.00932326
0.00932326 0.00932326 0.00932326
0.00932326 0.00932326 0.00932326
0.00932326 0.00932326 0.00932326
0.00932326 0.00932326 0.00932326
0.00932326 0.00932326 0.00932326
0.0103304 0.00939956 0.00932326
0.0166323 0.00968948 0.00918593
0.0315251 0.010544 0.0096437
0.0522316 0.0134432 0.0108034
0.0783093 0.0184329 0.0128023
0.101427 0.0235752 0.0146029
0.122484 0.0275425 0.0154574
0.144183 0.030457 0.0157778
0.168948 0.0324102 0.0154421
0.1953 0.0333104 0.0149691
0.222889 0.0330205 0.0144503
0.253498 0.031632 0.014023
0.287434 0.0289616 0.0144961
0.325643 0.0257115 0.0161593
0.364416 0.0223087 0.0181277
0.405371 0.0176394 0.0207065
0.441901 0.0147402 0.0241855
0.476616 0.0122225 0.0271916
0.513771 0.00978103 0.0319371
0.551705 0.00920119 0.0406348
0.580896 0.00807202 0.0443427
0.611566 0.00650034 0.0479896
0.64387 0.00410468 0.051194
0.678325 0.000991836 0.0543374
0.712779 0 0.0573281
0.748287 0 0.0602274
0.783093 0 0.0630045
0.818433 0 0.0670329
0.849882 0 0.102434
0.86099 0.0233921 0.134081
0.87158 0.049485 0.164828
0.882902 0.0574502 0.183749
0.895171 0.0608988 0.20264
0.907469 0.0643778 0.22327
0.907927 0.0688029 0.242817
0.908919 0.0539254 0.256947
0.908461 0.0500649 0.278279
0.907805 0.0513924 0.303197
0.907118 0.0544747 0.329305
0.906355 0.0599222 0.356161
0.90605 0.0681315 0.385367
0.908034 0.0706035 0.42179
0.912123 0.0661326 0.463081
0.917708 0.0612802 0.501839
0.923873 0.0565652 0.53669
0.930449 0.0524147 0.569619
0.9364 0.0493935 0.600595
0.941512 0.0445411 0.634913
0.94638 0.0374456 0.666835
0.951095 0.0276188 0.697322
0.955428 0.0153658 0.725109
0.956573 0.01149 0.732433
0.956619 0.011368 0.732662
0.956649 0.0112459 0.732891
0.00932326 0.00932326 0.00932326
0.00932326 0.00932326 0.00932326
0.00932326 0.00932326 0.00932326
0.00932326 0.00932326 0.00932326
0.00932326 0.00932326 0.00932326
0.00932326 0.00932326 0.00932326
0.00932326 0.00932326 0.00932326
0.00932326 0.00932326 0.00932326
0.00932326 0.00932326 0.00932326
0.00932326 0.00932326 0.00932326
0.00932326 0.00932326 0.00932326
0.00968948 0.00935378 0.00932326
0.0139315 0.00965896 0.009308
0.0256962 0.0107424 0.00961318
0.044419 0.0136568 0.0105898
0.0684825 0.019028 0.0125734
0.0928206 0.0250706 0.0148318
0.113863 0.0292668 0.0161593
0.135866 0.0327764 0.016556
0.160342 0.0353704 0.0163424
0.186328 0.0366369 0.0157473
0.215259 0.0356298 0.0148013
0.246052 0.0335088 0.0140993
0.279728 0.0311894 0.0142672
0.314717 0.0284276 0.0156252
0.354925 0.0247959 0.0175937
0.396506 0.0196536 0.0201724
0.435187 0.0154726 0.023209
0.471397 0.0128786 0.0265507
0.507134 0.0100404 0.0303807
0.54342 0.00872816 0.036286
0.578943 0.00814832 0.0440833
0.608988 0.00666819 0.047715
0.642145 0.00427253 0.0510414
0.676051 0.0011902 0.0541238
0.711467 0 0.0572061
0.746822 0 0.0601053
0.781888 0 0.0629129
0.817212 0 0.0656748
0.841001 0 0.0728466
0.854826 0.0100862 0.116838
0.865858 0.034638 0.147677
0.877165 0.0554818 0.175463
0.89012 0.0596017 0.194766
0.902647 0.0629129 0.214862
0.907805 0.0672618 0.236225
0.908614 0.0619059 0.253223
0.908644 0.0499428 0.271748
0.907958 0.0509499 0.297032
0.907286 0.0535134 0.32285
0.906523 0.0586557 0.35079
0.905913 0.066331 0.379492
0.907546 0.0713512 0.414603
0.91136 0.0668498 0.456748
0.916793 0.0620279 0.496193
0.923079 0.057145 0.532433
0.929549 0.0529335 0.56524
0.935836 0.0497902 0.596613
0.940917 0.0452277 0.630976
0.945861 0.0383612 0.663447
0.950637 0.0287327 0.694423
0.95491 0.0169833 0.721813
0.956283 0.0124971 0.730587
0.956329 0.0123598 0.730816
0.956359 0.0122377 0.73106
0.00932326 0.00932326 0.00932326
0.00932326 0.00932326 0.00932326
0.00932326 0.00932326 0.00932326
0.00932326 0.00932326 0.00932326
0.00932326 0.00932326 0.00932326
0.00932326 0.00932326 0.00932326
0.00932326 0.00932326 0.00932326
0.00932326 0.00932326 0.00932326
0.00932326 0.00932326 0.00932326
0.00932326 0.00932326 0.00932326
0.00932326 0.00932326 0.00932326
0.00933852 0.00933852 0.00933852
0.0120851 0.00961318 0.00936904
0.0214084 0.010956 0.00953689
0.0381323 0.0137789 0.0104829
0.0607614 0.019791 0.0127108
0.0848402 0.0264134 0.0150759
0.106828 0.0312352 0.0166781
0.129564 0.0347143 0.0174105
0.153521 0.037705 0.0175937
0.180499 0.0382086 0.0163882
0.209018 0.037232 0.0151217
0.240146 0.0352483 0.0143435
0.273548 0.0330663 0.0141299
0.30782 0.0304723 0.0152132
0.347875 0.0268406 0.0171969
0.38735 0.0220035 0.0195468
0.429587 0.0167544 0.0225223
0.465934 0.0135348 0.0259098
0.503258 0.0103456 0.029633
0.539712 0.00883497 0.0353552
0.576715 0.00823987 0.0438087
0.607477 0.00672923 0.0475166
0.640101 0.00440986 0.0508431
0.674739 0.00132753 0.0540169
0.710292 0 0.0571145
0.745235 0 0.0599832
0.78085 0 0.0628367
0.815656 0 0.0655528
0.838773 0 0.0674144
0.84625 0 0.090135
0.860349 0.0219272 0.13225
0.872099 0.0509499 0.166476
0.88481 0.0580453 0.186587
0.898329 0.0617075 0.207691
0.907713 0.0657206 0.229419
0.908232 0.0679637 0.250034
0.908812 0.049958 0.266087
0.908125 0.0505531 0.290883
0.907423 0.0528115 0.317647
0.906676 0.0574655 0.345281
0.905898 0.0649119 0.374655
0.907195 0.0719615 0.408667
0.910674 0.0675212 0.450645
0.916136 0.0625772 0.491966
0.922194 0.0577859 0.527718
0.928893 0.053315 0.562036
0.935271 0.0501717 0.592721
0.940414 0.0458076 0.627695
0.945434 0.0390631 0.660731
0.950179 0.0297704 0.691478
0.954604 0.0179446 0.71986
0.956069 0.0132448 0.729198
0.9561 0.0131228 0.729412
0.95613 0.0130159 0.729625
0.00932326 0.00932326 0.00932326
0.00932326 0.00932326 0.00932326
0.00932326 0.00932326 0.00932326
0.00932326 0.00932326 0.00932326
0.00932326 0.00932326 0.00932326
0.00932326 0.00932326 0.00932326
0.00932326 0.00932326 0.00932326
0.00932326 0.00932326 0.00932326
0.00932326 0.00932326 0.00932326
0.00932326 0.00932326 0.00932326
0.00932326 0.00932326 0.00932326
0.00932326 0.00932326 0.00932326
0.0109255 0.00955215 0.00936904
0.0176699 0.0110933 0.00953689
0.03299 0.0141909 0.0106355
0.0534524 0.0203098 0.012665
0.0772259 0.028336 0.0149691
0.100175 0.0338293 0.0166781
0.123339 0.0369726 0.0178836
0.147982 0.0389563 0.0182193
0.175021 0.0393072 0.0170443
0.203662 0.0386511 0.0155184
0.234318 0.0369573 0.0145266
0.267674 0.0348058 0.0142672
0.302007 0.0324102 0.0148775
0.337606 0.0295415 0.0166323
0.379629 0.0241398 0.019028
0.420142 0.0189059 0.0218814
0.461967 0.0140383 0.0254826
0.499123 0.0109102 0.0291142
0.535409 0.00900282 0.0344091
0.572061 0.00738537 0.0398566
0.605051 0.00686656 0.0472419
0.638407 0.00454719 0.0506752
0.673304 0.00148013 0.0538949
0.70837 0 0.0569467
0.744106 0 0.0599069
0.779156 0 0.0626993
0.814679 0 0.0654765
0.838773 0 0.0674144
0.840345 0 0.0710613
0.854948 0.0103761 0.11722
0.867048 0.0375219 0.151095
0.879881 0.0564279 0.179324
0.893568 0.0604868 0.200092
0.907332 0.064332 0.223026
0.907973 0.0694896 0.245411
0.90901 0.0500038 0.259541
0.908263 0.0502785 0.285512
0.907591 0.0521859 0.311727
0.906828 0.0564431 0.340276
0.905943 0.0636301 0.370138
0.906813 0.0727703 0.400671
0.910094 0.0681163 0.445243
0.915236 0.0633555 0.485985
0.921523 0.0582895 0.523995
0.928069 0.0538033 0.558022
0.934646 0.0504768 0.589288
0.939925 0.0463111 0.624384
0.944884 0.0399176 0.657115
0.949752 0.0307469 0.688655
0.954162 0.0193027 0.717037
0.955795 0.0141604 0.727474
0.95584 0.0139925 0.727794
0.955886 0.0138705 0.728023
0.00932326 0.00932326 0.00932326
0.00932326 0.00932326 0.00932326
0.00932326 0.00932326 0.00932326
0.00932326 0.00932326 0.00932326
0.00932326 0.00932326 0.00932326
0.00932326 0.00932326 0.00932326
0.00932326 0.00932326 0.00932326
0.00932326 0.00932326 0.00932326
0.00932326 0.00932326 0.00932326
0.00932326 0.00932326 0.00932326
0.00932326 0.00932326 0.00932326
0.00932326 0.00932326 0.00932326
0.0102083 0.00949111 0.00933852
0.0155184 0.0110475 0.00958267
0.028687 0.014725 0.0107881
0.0479896 0.02121 0.0126955
0.0702678 0.0297398 0.0149996
0.0933394 0.0362707 0.0166781
0.117403 0.0398871 0.0179599
0.14287 0.0397498 0.0185397
0.17023 0.0403296 0.0176547
0.198886 0.0398871 0.016022
0.229191 0.0384527 0.014786
0.262409 0.0363775 0.0143587
0.296407 0.0341344 0.0147707
0.332372 0.03122 0.0162661
0.373556 0.0260014 0.0186618
0.414099 0.0205386 0.0214237
0.457954 0.0146181 0.0250553
0.494285 0.0115663 0.0285344
0.531884 0.00915541 0.0336004
0.568368 0.00772107 0.0395361
0.603616 0.00698863 0.0471046
0.637125 0.00468452 0.0505837
0.671412 0.00166323 0.053727
0.707256 0 0.0568551
0.742382 0 0.0597696
0.778332 0 0.062623
0.81384 0 0.0654154
0.838788 0 0.0674144
0.838788 0 0.0674296
0.847181 0 0.0933242
0.862379 0.0265507 0.137987
0.874647 0.0545815 0.171939
0.889235 0.0593881 0.193378
0.903761 0.0632334 0.216815
0.907866 0.0679484 0.239231
0.908873 0.0551919 0.256367
0.908431 0.0501106 0.279576
0.907713 0.0517586 0.307012
0.90695 0.0555886 0.335622
0.906096 0.0621347 0.364752
0.906554 0.0717021 0.396506
0.909422 0.0688334 0.438468
0.914611 0.0638743 0.481712
0.920836 0.0588083 0.52015
0.927398 0.0542153 0.554681
0.934035 0.050721 0.586435
0.939361 0.0468605 0.62063
0.944457 0.040589 0.654292
0.94931 0.0317235 0.685847
0.953796 0.0203555 0.714748
0.95555 0.0149538 0.725963
0.955581 0.014847 0.726177
0.955627 0.0147097 0.726436
0.00932326 0.00932326 0.00932326
0.00932326 0.00932326 0.00932326
0.00932326 0.00932326 0.00932326
0.00932326 0.00932326 0.00932326
0.00932326 0.00932326 0.00932326
0.00932326 0.00932326 0.00932326
0.00932326 0.00932326 0.00932326
0.00932326 0.00932326 0.00932326
0.00932326 0.00932326 0.00932326
0.00932326 0.00932326 0.00932326
0.00932326 0.00932326 0.00932326
0.00932326 0.00932326 0.00932326
0.00979629 0.00947585 0.00935378
0.0137179 0.0109865 0.00967422
0.0248569 0.0152285 0.0108186
0.0430457 0.0222477 0.0127565
0.06421 0.0309911 0.0149386
0.0878462 0.0383459 0.0167849
0.111803 0.0413672 0.0179141
0.138064 0.0409705 0.0187228
0.165454 0.0413214 0.0182193
0.194049 0.0410773 0.0166781
0.224842 0.0398413 0.0150912
0.257511 0.0378729 0.0144503
0.291951 0.0356909 0.0146792
0.327703 0.0328069 0.0159457
0.365835 0.0283513 0.0181888
0.407843 0.0223392 0.0209506
0.450141 0.0164034 0.0242771
0.490776 0.0120546 0.0281071
0.527733 0.009308 0.032639
0.565515 0.00794995 0.0391699
0.602472 0.00714122 0.0470436
0.635142 0.00492866 0.0504463
0.670069 0.00178531 0.0536049
0.705287 0 0.056672
0.741466 0 0.059678
0.777462 0 0.062562
0.812634 0 0.0653239
0.838788 0 0.0674144
0.838788 0 0.0674144
0.841398 0 0.0738689
0.857633 0.0159609 0.12462
0.870558 0.0465553 0.161486
0.8851 0.0581369 0.18703
0.899641 0.0619821 0.209705
0.907774 0.0667735 0.234012
0.908629 0.061738 0.2533
0.908568 0.0499733 0.274693
0.907835 0.0513161 0.302281
0.907088 0.0546578 0.330449
0.906218 0.0610971 0.360739
0.906279 0.0700236 0.391379
0.908995 0.069337 0.433768
0.91397 0.0644388 0.47718
0.920027 0.0594339 0.515602
0.926741 0.0546273 0.551446
0.933288 0.0510262 0.583001
0.938903 0.0473182 0.617578
0.943999 0.0412757 0.651316
0.948913 0.0326085 0.683253
0.95346 0.0213474 0.712535
0.955337 0.015671 0.724514
0.955367 0.0155184 0.724804
0.955413 0.0154116 0.725048
0.00932326 0.00932326 0.00932326
0.00932326 0.00932326 0.00932326
0.00932326 0.00932326 0.00932326
0.00932326 0.00932326 0.00932326
0.00932326 0.00932326 0.00932326
0.00932326 0.00932326 0.00932326
0.00932326 0.00932326 0.00932326
0.00932326 0.00932326 0.00932326
0.00932326 0.00932326 0.00932326
0.00932326 0.00932326 0.00932326
0.00932326 0.00932326 0.00932326
0.00932326 0.00932326 0.00932326
0.00956741 0.00946059 0.00936904
0.0124208 0.0109255 0.00975052
0.0221103 0.0154879 0.0108492
0.0389105 0.0228733 0.0127413
0.0594186 0.0324102 0.0149844
0.0824598 0.0401312 0.0168154
0.10692 0.0425422 0.0178988
0.133074 0.0425422 0.0187686
0.160403 0.042298 0.0187533
0.189731 0.0422065 0.0173342
0.220005 0.0411994 0.0155337
0.253422 0.0392767 0.0145571
0.287648 0.0372168 0.0146487
0.322438 0.0345769 0.0157778
0.360876 0.0299077 0.0178531
0.400381 0.024567 0.0204166
0.444343 0.0179446 0.0238804
0.487251 0.0125582 0.0276951
0.524498 0.00947585 0.0319219
0.562615 0.00802625 0.038407
0.596811 0.00640879 0.0430457
0.633936 0.00502022 0.0503395
0.668193 0.00196841 0.0534371
0.704189 0 0.0565652
0.740398 0 0.0595865
0.775845 0 0.0624399
0.811841 0 0.0652628
0.838773 0 0.0674144
0.838788 0 0.0674144
0.838788 0 0.0674296
0.851316 0.00291447 0.10692
0.866361 0.0358434 0.149111
0.880156 0.0565194 0.179721
0.895735 0.0610361 0.203525
0.907683 0.0653544 0.227848
0.908293 0.0670176 0.250553
0.908705 0.0499275 0.269596
0.907973 0.0509194 0.296681
0.907225 0.0538949 0.325444
0.906386 0.0597391 0.355444
