bundles/resolve-cinematic-luts/Phantom Luts/Apple Log Phantom LUTS/iPhone 15 Phantom ARRI LUTs/65x/Neutral Iphone15_65x_G1.cube
TITLE "Generated by Resolve"
LUT_3D_SIZE 5
0.00932326 0.00932326 0.00932326
0.206424 0.0129854 0.0180514
0.631998 0.0452888 0.11577
0.906538 0.0585794 0.350439
0.958694 0.0037232 0.74583
0 0.107301 0.0254063
0.0867628 0.0858778 0.0152895
0.581369 0.00740063 0.040177
0.908003 0.0699321 0.247074
0.953475 0.0212863 0.712657
0 0.538064 0.206744
0 0.598749 0
0.530816 0.538781 0.0297398
0.947997 0.398932 0.166629
0.905959 0.063386 0.369268
0 0.977111 0.682734
0 0.984985 0.64268
0.0175479 0.995132 0.382773
0.940429 0.973617 0.0730602
0.989242 0.960342 0.0845197
0 0.930556 0.904112
0 0.931395 0.898482
0 0.937957 0.856397
0.732509 0.993622 0.607431
0.989166 0.991318 0.609827
0.0128328 0.00236515 0.117922
0.248356 0.00537118 0.200717
0.693751 0.0445106 0.274113
0.911177 0.0670176 0.455268
0.962768 0 0.770184
0 0.13991 0.139559
0.110674 0.110674 0.110674
0.647532 0.0529335 0.161578
0.9066 0.0580911 0.348196
0.958801 0.00332647 0.746487
0 0.509392 0.30219
0 0.532036 0.205966
0.523064 0.528725 0.0281834
0.943587 0.38143 0.176089
0.914717 0.063798 0.482399
0 0.972549 0.7019
0 0.98027 0.669337
0 0.996536 0.44892
0.939132 0.975998 0.176837
0.986725 0.945632 0.236988
0 0.929793 0.909438
0 0.930617 0.903761
0 0.936324 0.866255
0.705486 0.993912 0.633356
0.990066 0.991623 0.629526
0.0124819 0 0.617182
0.312413 0 0.602396
0.741543 0 0.60882
0.956054 0.0133059 0.729076
0.975006 0 0.858595
0 0.139635 0.421698
0 0.0548562 0.471794
0.64831 0 0.532235
0.949065 0.0322728 0.684245
0.972915 0 0.840146
0 0.474891 0.482139
0 0.46392 0.471031
0.51838 0.51838 0.51838
0.964965 0.437919 0.532067
0.957473 0.00833143 0.738125
0 0.953948 0.769635
0 0.958465 0.753155
0 0.98436 0.647089
0.925597 0.958267 0.488533
1 0.916259 0.543725
0 0.92781 0.933379
0 0.928038 0.928466
0 0.930785 0.902571
0.706447 0.992782 0.740719
0.994507 0.992477 0.709545
0 0.36257 0.919661
0 0.334249 0.902464
0.515999 0.30219 0.893812
0.988327 0.155413 0.946059
0.981369 0 0.981582
0 0.427832 0.912428
0 0.388296 0.893538
0.480949 0.364782 0.880964
0.988998 0.216327 0.926726
0.981369 0 0.981582
0 0.615213 0.882017
0 0.593042 0.891981
0.374624 0.548592 0.832135
0.944091 0.407019 0.877699
0.988891 0.170596 0.94287
0 0.926986 0.953521
0 0.921843 0.945907
0 0.906661 0.930022
0.917647 0.917647 0.917647
1 0.888136 0.926482
0 0.936019 0.98909
0 0.936019 0.98909
0 0.936019 0.98909
0.720455 0.957565 0.927123
0.991608 0.997757 0.920882
0.284932 0.762142 0.887541
0.370062 0.760143 0.887968
0.61944 0.776898 0.922316
0.989914 0.764492 0.975113
0.974289 0.684291 0.955627
0.265705 0.768734 0.890288
0.35436 0.765759 0.888655
0.608148 0.780316 0.920806
0.990387 0.776028 0.977005
0.977005 0.697047 0.958938
0.163439 0.800519 0.907149
0.279271 0.790051 0.894972
0.560769 0.797208 0.91603
0.976501 0.82324 0.983536
0.989075 0.754726 0.973739
0 0.936019 0.98909
0 0.90956 0.945098
0.238682 0.879576 0.911986
0.917098 0.954406 0.989776
0.999588 0.938033 0.996201
0 0.936019 0.98909
0 0.936019 0.98909
0 0.936019 0.98909
0.782849 0.959396 0.976318
0.995911 0.995911 0.995911
