bundles/resolve-cinematic-luts/Phantom Luts/Apple Log Phantom LUTS/iPhone 15 Phantom ARRI LUTs/65x/Neutral Legacy Iphone15_65x_G1.cube
TITLE "Generated by Resolve"
LUT_3D_SIZE 9
0.0277104 0.0277104 0.0277104
0.0277104 0.0277104 0.0277104
0.162158 0.0315862 0.031632
0.355276 0.0239872 0.0330053
0.581506 0.0274815 0.0782177
0.832074 0.0543374 0.166171
0.889754 0.0482185 0.266972
0.915328 0.0628977 0.488853
0.928008 0.0352483 0.654566
0.0277104 0.0277104 0.0277104
0.0277104 0.0277104 0.0277104
0.0673228 0.0390631 0.0302434
0.259297 0.0344091 0.0289158
0.567346 0.0107576 0.0443427
0.797055 0 0.0683452
0.868193 0.0651255 0.226535
0.910506 0.0676738 0.449195
0.926665 0.0403449 0.635416
0.0195926 0.0828107 0.0382544
0.0308385 0.0577401 0.031632
0.0701457 0.0679179 0.0336461
0.228656 0.0628061 0.0360113
0.541054 0.0112917 0.0381781
0.794385 0 0.0631113
0.844068 0.0581064 0.184634
0.906813 0.072343 0.400931
0.925628 0.0445869 0.615122
0 0.237858 0.0664073
0 0.239872 0.0204013
0.0099031 0.217655 0.0210575
0.232639 0.23032 0.0249332
0.541848 0.19588 0.08542
0.78323 0.0503243 0.070985
0.7944 0 0.0631113
0.900481 0.0501717 0.304891
0.920577 0.0530861 0.552544
0 0.482506 0.14226
0 0.507683 0.0744793
0 0.516045 0
0 0.488197 0
0.477913 0.483421 0.0231327
0.836835 0.450324 0.15021
0.925963 0.334859 0.169741
0.813886 0 0.05832
0.894682 0.0486 0.282811
0 0.803647 0.368338
0 0.817594 0.333974
0 0.830854 0.306661
0 0.867613 0.139483
0.0648051 0.8645 0
0.751049 0.780514 0.0450904
0.966262 0.758938 0.0978866
0.959564 0.708278 0.113069
0.956649 0.623713 0.1514
0 0.965194 0.62826
0 0.968643 0.604181
0 0.970657 0.582223
0 0.97705 0.526146
0.0538033 0.993713 0.330037
0.35021 0.99086 0
0.935637 0.973693 0.0631723
0.982116 0.965927 0.0822156
0.983383 0.953887 0.0808118
0 0.924117 0.807965
0 0.925734 0.797559
0 0.927733 0.78613
0 0.931701 0.765682
0 0.946441 0.712322
0.0142672 0.99678 0.446326
0.790509 0.984985 0.328634
0.982376 0.984512 0.378698
0.982315 0.985245 0.394873
0 0.913588 0.879896
0 0.913939 0.877317
0 0.914412 0.873838
0 0.915938 0.863035
0 0.92134 0.827451
0 0.959075 0.661692
0.711406 0.993774 0.568643
0.986954 0.990723 0.577081
0.986831 0.990646 0.57351
0.0277104 0.0277104 0.0277104
0.028336 0.0277562 0.0277256
0.190936 0.0297093 0.1178
0.390921 0.0329747 0.141543
0.621057 0.0544289 0.166232
0.867369 0.0648051 0.225025
0.902525 0.0511788 0.314122
0.917891 0.0575875 0.52343
0.930114 0.0296025 0.672526
0.0277104 0.0277104 0.0277104
0.0277104 0.0277104 0.0277104
0.155093 0.0321508 0.032639
0.350698 0.0315099 0.0478523
0.585229 0.0388647 0.0972457
0.835859 0.0556497 0.171603
0.890471 0.048249 0.269184
0.915404 0.0627451 0.489967
0.928038 0.0351263 0.655009
0.0160678 0.108721 0.0887617
0.0146944 0.108812 0.0459602
0.0938277 0.0914168 0.0356451
0.280751 0.0542458 0.0317082
0.566201 0.00941482 0.0404517
0.811566 0.0157473 0.11397
0.875395 0.0666209 0.239979
0.910719 0.0674601 0.451148
0.926772 0.0399023 0.637324
0 0.237644 0.135103
0 0.245731 0.0694285
0 0.25388 0.0179294
0.242542 0.240269 0.0231479
0.5626 0.182757 0.0878462
0.785107 0.0427253 0.0690471
0.810987 0.0144503 0.1122
0.906538 0.057023 0.347616
0.923186 0.0496529 0.577981
0 0.461967 0.190051
0 0.481666 0.142885
0 0.496559 0.107027
0 0.493996 0
0.477638 0.481971 0.0225071
0.840299 0.437461 0.15285
0.924636 0.324193 0.168048
0.810971 0 0.0590066
0.904784 0.0531472 0.327871
0 0.791043 0.397772
0 0.798474 0.363882
0 0.805859 0.337697
0.023621 0.842741 0.266087
0.0536812 0.859007 0
0.746044 0.773281 0.0478828
0.965347 0.752346 0.0986191
0.958907 0.69894 0.1196
0.956603 0.611124 0.153353
0 0.963012 0.642344
0 0.9664 0.620829
0 0.969146 0.599252
0 0.973999 0.548806
0.0250248 0.994842 0.37113
0.35668 0.991028 0.0474861
0.934646 0.974289 0.0941787
0.986358 0.958633 0.129351
0.984985 0.947829 0.144686
0 0.923842 0.810086
0 0.925322 0.800031
0 0.92726 0.78883
0 0.930999 0.768933
0 0.944518 0.718441
0.0114137 0.996933 0.463371
0.77937 0.986053 0.352483
0.982391 0.985367 0.398535
0.982681 0.985824 0.411582
0 0.913222 0.882506
0 0.913603 0.879728
0 0.914046 0.876585
0 0.915419 0.866621
0 0.920485 0.833219
0 0.956313 0.674144
0.699733 0.993851 0.583261
0.987442 0.990936 0.589456
0.987243 0.99086 0.585031
0.0280766 0.026688 0.0914626
0.107897 0.0240787 0.106996
0.191989 0.0253605 0.156176
0.391836 0.0239567 0.204608
0.635798 0.0417792 0.201923
0.883482 0.0500496 0.250095
0.90663 0.0562448 0.344091
0.920058 0.0538796 0.547189
0.932479 0.0242008 0.687404
0.0270237 0.0446632 0.0539712
0.0282902 0.025742 0.105272
0.167498 0.0273289 0.137636
0.376211 0.035111 0.119417
0.608454 0.0523842 0.144518
0.857145 0.0614481 0.206302
0.899458 0.0497597 0.300511
0.917311 0.0585794 0.517082
0.930022 0.0298161 0.671885
0.0156252 0.112947 0.11162
0.0169528 0.106569 0.105058
0.0869154 0.0869154 0.0869154
0.283803 0.0645914 0.0775769
0.585977 0.0490578 0.120317
0.833906 0.0549783 0.168765
0.889128 0.0482185 0.265019
0.914748 0.0637675 0.482597
0.928069 0.0350195 0.655375
0 0.233478 0.169131
0 0.238773 0.12549
0 0.241978 0.078294
0.235874 0.233631 0.0637369
0.558358 0.176059 0.110246
0.782849 0.0387732 0.0818647
0.83415 0.0550546 0.1691
0.905852 0.0647593 0.37644
0.924727 0.0469673 0.600122
0 0.450889 0.221775
0 0.465003 0.175525
0 0.476249 0.141711
0 0.495247 0
0.469871 0.473289 0.0226902
0.833387 0.4271 0.153689
0.923735 0.309667 0.170657
0.819944 0.00332647 0.0903182
0.90605 0.0610666 0.363867
0 0.783062 0.417182
0 0.787793 0.384894
0 0.791592 0.358358
0 0.822431 0.290379
0.0491951 0.847028 0
0.742458 0.767346 0.0511635
0.964553 0.746395 0.0994583
0.958312 0.68658 0.130495
0.95729 0.594247 0.180209
0 0.960937 0.652827
0 0.96466 0.632074
0 0.967788 0.611734
0 0.972488 0.562509
0.0106203 0.995422 0.394476
0.347677 0.991897 0.0954757
0.93489 0.975128 0.134676
0.986282 0.954116 0.174014
0.984298 0.94168 0.192782
0 0.923522 0.812589
0 0.924971 0.80206
0 0.926955 0.790753
0 0.930663 0.770748
0 0.943236 0.722408
0.00741588 0.99704 0.473243
0.767727 0.986831 0.366735
0.982666 0.985763 0.410025
0.982803 0.986191 0.421866
0 0.912779 0.88574
0 0.91313 0.883131
0 0.913649 0.879499
0 0.914992 0.869841
0 0.919615 0.838407
0 0.951827 0.692515
0.682872 0.994049 0.597299
0.987915 0.991089 0.599542
0.987716 0.991028 0.595071
0.0204623 0.00537118 0.271901
0.180545 0 0.300237
0.270222 0 0.301762
0.38584 0 0.308995
0.64268 0.0361181 0.321828
0.905425 0.0539712 0.332586
0.908614 0.069688 0.429328
0.924987 0.0464027 0.604135
0.94136 0.00943008 0.722484
0.0220493 0.0673838 0.185153
0.0193484 0.0033875 0.286168
0.165209 0 0.312688
0.368765 0 0.295933
0.636835 0.0418555 0.261128
0.8963 0.0489204 0.288487
0.905928 0.0664378 0.381811
0.92311 0.0497597 0.577173
0.937713 0.0147707 0.710445
0.00779736 0.135348 0.186938
0.0132601 0.0960861 0.223987
0.0584268 0.0713512 0.22916
0.289906 0.0399786 0.238041
0.623896 0.0399786 0.24744
0.88687 0.048249 0.258412
0.906523 0.0570993 0.347982
0.920287 0.0534981 0.549767
0.934447 0.0202945 0.697276
0 0.226444 0.225574
0 0.223163 0.22211
0 0.219226 0.218631
0.236301 0.236301 0.236301
0.582193 0.209232 0.235218
0.824781 0.118746 0.21413
0.888579 0.0482185 0.263386
0.912535 0.0657359 0.466423
0.927886 0.0356298 0.653284
0 0.428672 0.296712
0 0.435447 0.270207
0 0.438285 0.243076
0 0.451179 0.167468
0.467948 0.473655 0.184817
0.848737 0.438102 0.280293
0.935103 0.335698 0.280919
0.869535 0.0717479 0.209552
0.911986 0.0662547 0.462028
0 0.771069 0.467552
0 0.771588 0.44097
0 0.769909 0.418128
0 0.77911 0.353506
0 0.819211 0.146838
0.737209 0.755978 0.175341
0.969253 0.727321 0.276814
0.966217 0.676844 0.294041
0.964767 0.599985 0.322133
0 0.954696 0.680995
0 0.958602 0.663966
0 0.962203 0.646586
0 0.968872 0.602136
0 0.996551 0.449561
0.332006 0.993957 0.222065
0.930938 0.969039 0.241138
0.985092 0.945418 0.287724
0.986099 0.9299 0.314321
0 0.921843 0.824048
0 0.923552 0.81239
0 0.925185 0.800793
0 0.928588 0.781292
0 0.938857 0.736324
0.00125124 0.998154 0.508705
0.748104 0.989059 0.417609
0.98323 0.987243 0.45066
0.983352 0.987655 0.461311
0 0.911528 0.894835
0 0.911879 0.892103
0 0.912413 0.888334
0 0.913725 0.878889
0 0.917723 0.850477
0 0.944106 0.719738
0.668544 0.994553 0.630289
0.988998 0.991501 0.625727
0.988754 0.991424 0.620981
0.0134279 0 0.550179
0.113527 0 0.550134
0.23122 0 0.542992
0.437675 0 0.538354
0.666255 0 0.535515
0.922881 0.0500038 0.575021
0.926635 0.0404974 0.634791
0.943297 0.00682078 0.72813
0.966293 0 0.792065
0 0.0497139 0.404211
0.000198367 0 0.489113
0.0652018 0 0.492683
0.371786 0 0.539345
0.64715 0 0.520836
0.919982 0.0540169 0.546349
0.925307 0.0456092 0.609125
0.938735 0.0131838 0.714092
0.964904 0 0.783276
0 0.105974 0.382986
0 0.0585184 0.432731
0 0.0336156 0.434592
0.253101 0 0.461585
0.576349 0 0.462898
0.918441 0.0565805 0.529809
0.923583 0.0492866 0.581308
0.934066 0.0209506 0.695644
0.962661 0 0.772717
0 0.22298 0.35137
0 0.198993 0.374441
0 0.180835 0.391028
0.154055 0.192157 0.422141
0.550973 0.128176 0.467658
0.87393 0.114702 0.435126
0.918822 0.0560159 0.533532
0.927138 0.0381781 0.643992
0.951431 0 0.74902
0 0.406546 0.409552
0 0.402029 0.405249
0 0.396109 0.399054
0 0.38613 0.389731
0.470069 0.470069 0.470069
0.88893 0.474693 0.490562
0.949981 0.379705 0.472206
0.908293 0.0783246 0.424033
0.92723 0.0377813 0.645457
0 0.734798 0.568627
0 0.73341 0.557244
0 0.730694 0.544701
0 0.731182 0.512795
0 0.734371 0.411414
0.730465 0.743206 0.425803
0.992157 0.739956 0.49749
0.991043 0.70486 0.510216
0.987778 0.628412 0.527993
0 0.938643 0.737118
0 0.941497 0.727947
0 0.944961 0.716976
0 0.951598 0.693339
0 0.97023 0.586969
0.37528 0.993423 0.492149
0.921248 0.955718 0.441642
0.995727 0.925856 0.487373
1 0.91191 0.503395
0 0.916976 0.855695
0 0.918517 0.845151
0 0.920455 0.833417
0 0.9234 0.813611
0 0.93022 0.772824
0 0.987839 0.593591
0.725567 0.993423 0.540719
0.986053 0.990219 0.553826
0.98645 0.990433 0.563531
0 0.909728 0.912398
0 0.90988 0.910002
0 0.910079 0.907286
0 0.910658 0.901259
0 0.913832 0.878157
0 0.932479 0.762173
0.682597 0.992767 0.717998
0.992111 0.992218 0.688609
0.991806 0.992172 0.683299
0 0.00302129 0.754467
0.00424201 0 0.786969
0.075349 0 0.752026
0.285801 0 0.745693
0.70985 0 0.812833
0.970047 0 0.817777
0.973678 0 0.846662
0.97879 0 0.901625
0.980941 0 0.944427
0 0.11223 0.710018
0 0.0774548 0.751858
0 0.0532692 0.737316
0.192813 0.019501 0.713848
0.591196 0 0.735027
0.967987 0 0.803326
0.971908 0 0.831922
0.978271 0 0.894469
0.980758 0 0.938933
0 0.156741 0.68687
0 0.124437 0.730694
0 0.115221 0.735759
0.152102 0.0814679 0.691539
0.562173 0.0312963 0.726024
0.890288 0 0.734188
0.970565 0 0.821653
0.977279 0 0.882338
0.980407 0 0.929854
0 0.253605 0.652781
0 0.232212 0.679515
0 0.218372 0.693477
0.065095 0.196002 0.657069
0.48307 0.152132 0.698512
0.875288 0.0854353 0.737438
0.959838 0 0.752926
0.974151 0 0.850843
0.979431 0 0.91133
0 0.459174 0.62739
0 0.446632 0.633906
0 0.43682 0.637263
0 0.416724 0.651087
0.371832 0.435462 0.665965
0.800061 0.342779 0.711543
0.961349 0.292485 0.7402
0.964202 0.0526741 0.778729
0.973785 0 0.847532
0 0.711086 0.723735
0 0.70547 0.718303
0 0.697368 0.709728
0 0.687907 0.69984
0 0.648646 0.654536
0.725475 0.725475 0.725475
1 0.734234 0.759564
1 0.663737 0.763058
0.990616 0.534249 0.758816
0 0.92079 0.831067
0 0.922072 0.822461
0 0.923461 0.813077
0 0.922881 0.800458
0 0.923049 0.756786
0.386572 0.930663 0.710994
0.920821 0.927535 0.701473
1 0.899519 0.727382
1 0.888273 0.743404
0 0.909789 0.911284
0 0.910216 0.905776
0 0.910964 0.898802
0 0.912764 0.885832
0 0.916487 0.858991
0 0.946868 0.755535
0.744457 0.9944 0.740688
0.994354 0.992508 0.731182
0.994202 0.99266 0.735622
0 0.908125 0.942138
0 0.908263 0.939483
0 0.908446 0.936538
0 0.908675 0.93167
0 0.909239 0.920729
0 0.918471 0.845472
0.702907 0.993454 0.830625
0.989899 0.995392 0.795575
0.991089 0.995254 0.790692
0 0.29099 0.903944
0 0.276066 0.900694
0 0.269108 0.897856
0.165225 0.273045 0.890196
0.477974 0.245609 0.890776
0.868666 0.185092 0.912612
0.98526 0.0958114 0.943572
0.981064 0 0.948608
0.981064 0 0.948608
0 0.335256 0.896513
0 0.327535 0.901625
0 0.306279 0.887282
0.131991 0.313573 0.888014
0.453788 0.288762 0.881224
0.849531 0.222492 0.903639
0.986954 0.138613 0.937591
0.981262 0 0.958221
0.981064 0 0.948608
0 0.357443 0.89163
0 0.347768 0.898253
0 0.322576 0.881178
0.108461 0.331029 0.882979
0.437079 0.308049 0.873411
0.834577 0.239567 0.897261
0.987274 0.159045 0.928679
0.98117 0 0.953552
0.981064 0 0.948608
0 0.41384 0.880278
0 0.398947 0.890654
0 0.393042 0.890379
0.0414282 0.377829 0.874159
0.39707 0.367514 0.857771
0.80116 0.2916 0.884123
0.980011 0.221408 0.909712
0.983566 0.055436 0.945678
0.981064 0 0.948608
0 0.556481 0.853925
0 0.543023 0.861616
0 0.531029 0.86595
0 0.496117 0.84651
0.316899 0.499016 0.824048
0.755093 0.447837 0.890501
0.946715 0.359762 0.876066
0.969146 0.264836 0.898756
0.985885 0.111223 0.941604
0 0.742687 0.869032
0 0.734539 0.866377
0 0.726101 0.862211
0 0.713893 0.860182
0 0.680095 0.828
0.677974 0.707668 0.884733
0.967025 0.634745 0.90399
0.960174 0.570474 0.891081
0.94786 0.493889 0.883177
0 0.908614 0.933532
0 0.906325 0.929946
0 0.902953 0.925307
0 0.895964 0.917784
0 0.88603 0.907347
0.408301 0.842512 0.85037
0.911604 0.911604 0.911604
1 0.900496 0.914794
1 0.879988 0.921691
0 0.907973 0.9458
0 0.907973 0.9458
0 0.907973 0.9458
0 0.907973 0.9458
0 0.908339 0.938384
0.00570687 0.915312 0.877592
0.778195 0.983963 0.919051
0.988174 0.995331 0.90071
0.988205 0.995346 0.902068
0 0.907973 0.9458
0 0.907973 0.9458
0 0.907973 0.9458
0 0.907973 0.9458
0 0.907973 0.9458
0 0.90869 0.931517
0.694453 0.952026 0.91902
0.974823 0.996796 0.918105
0.98851 0.9953 0.915038
0 0.592508 0.883741
0 0.594553 0.884123
0.0537728 0.595209 0.880751
0.226322 0.592096 0.865278
0.469841 0.609232 0.877821
0.788663 0.576867 0.945571
0.946502 0.510735 0.918593
0.943771 0.456336 0.912474
0.943465 0.434256 0.910735
0 0.607019 0.881498
0 0.610636 0.88481
0.0160067 0.609689 0.881163
0.209262 0.6065 0.867155
0.461265 0.620844 0.876661
0.78352 0.592172 0.948074
0.947707 0.522744 0.920501
0.94374 0.466697 0.91313
0.94345 0.438148 0.910979
0 0.613443 0.880201
0 0.616617 0.88452
0 0.614618 0.881926
0.190875 0.610849 0.869123
0.447364 0.622675 0.874128
0.774868 0.595361 0.94873
0.947692 0.522484 0.92047
0.943709 0.465126 0.912993
0.943618 0.427176 0.91043
0 0.632517 0.879789
0 0.635782 0.884138
0 0.63241 0.883925
0.14287 0.628092 0.873716
0.424979 0.633188 0.871153
0.757671 0.616373 0.950881
0.949554 0.539467 0.923308
0.944488 0.482673 0.91487
0.943297 0.436576 0.910735
0 0.707042 0.885344
0 0.680873 0.879805
0 0.678691 0.881224
0 0.675975 0.882506
0.373083 0.666896 0.868696
0.728374 0.678111 0.952514
0.958633 0.603311 0.935897
0.951186 0.552834 0.925704
0.946181 0.506447 0.918013
0 0.80354 0.916732
0 0.796872 0.914733
0 0.790478 0.912673
0 0.761837 0.900175
0.173007 0.753277 0.890303
0.681376 0.768261 0.931426
0.957732 0.748959 0.971817
0.978393 0.706508 0.960815
0.971557 0.673625 0.952407
0 0.907973 0.9458
0 0.907973 0.9458
0 0.907973 0.9458
0 0.903563 0.944411
0 0.873686 0.930434
0.482506 0.851835 0.912016
0.899229 0.916976 0.980713
0.997528 0.894621 0.990616
0.997223 0.880674 0.989395
0 0.907973 0.9458
0 0.907973 0.9458
0 0.907973 0.9458
0 0.907973 0.9458
0 0.907973 0.9458
0.133501 0.902647 0.92755
0.800702 0.962722 0.977996
0.993469 0.993469 0.993469
0.993469 0.993469 0.993469
0 0.907973 0.9458
0 0.907973 0.9458
0 0.907973 0.9458
0 0.907973 0.9458
0 0.907973 0.9458
0 0.909056 0.941268
0.714168 0.941939 0.962814
0.978012 0.993515 0.994278
0.993469 0.993469 0.993469
0.191959 0.758251 0.890867
0.259144 0.753231 0.884749
0.296208 0.751003 0.882658
0.386526 0.750103 0.885664
0.575799 0.761181 0.910994
0.801282 0.795972 0.964019
0.986252 0.746166 0.970596
0.976928 0.700664 0.959091
0.968643 0.658106 0.948714
0.177829 0.762539 0.893111
0.246799 0.757702 0.8869
0.287022 0.755016 0.884108
0.378729 0.753719 0.886213
0.570642 0.763684 0.910552
0.799222 0.800397 0.962325
0.987442 0.752255 0.972076
0.978561 0.707881 0.961059
0.969894 0.665553 0.950332
0.167407 0.76585 0.894865
0.237491 0.760601 0.888121
0.278569 0.758068 0.885267
0.370748 0.756237 0.886336
0.562829 0.765179 0.909606
0.792767 0.803403 0.958755
0.987671 0.758434 0.973251
0.979919 0.715801 0.962829
0.971405 0.672206 0.952178
0.136553 0.774975 0.89987
0.212085 0.76968 0.893126
0.255756 0.766094 0.888838
0.351598 0.762417 0.886748
0.547799 0.770016 0.908492
0.784375 0.810285 0.954269
0.98143 0.774212 0.974945
0.98349 0.732998 0.967208
0.974853 0.690898 0.956558
0.0333257 0.797513 0.910979
0.131319 0.793729 0.905943
0.18529 0.789868 0.901167
0.298726 0.780713 0.890684
0.508232 0.784573 0.905135
0.771038 0.825635 0.952819
0.973373 0.809796 0.98024
0.989456 0.772442 0.975158
0.984161 0.73579 0.968002
0 0.846983 0.92694
0 0.84416 0.925521
0 0.841306 0.923552
0.134691 0.832624 0.914656
0.400031 0.817609 0.899977
0.738079 0.85098 0.955444
0.950347 0.877272 0.990127
0.995438 0.848066 0.985565
0.993622 0.824384 0.982315
0 0.907973 0.9458
0 0.906569 0.944579
0 0.905058 0.941817
0 0.902068 0.936477
0.153597 0.888594 0.922896
0.593744 0.897993 0.93402
0.911009 0.950286 0.986984
0.997726 0.943023 0.994079
0.998047 0.933196 0.993729
0 0.907973 0.9458
0 0.907973 0.9458
0 0.907973 0.9458
0 0.907973 0.9458
0 0.909407 0.942504
0.391974 0.890364 0.910704
0.83386 0.970611 0.98323
0.993469 0.993469 0.993469
0.993469 0.993469 0.993469
0 0.907973 0.9458
0 0.907973 0.9458
0 0.907973 0.9458
0 0.907973 0.9458
0 0.907973 0.9458
0.0946517 0.905409 0.930999
0.765469 0.953994 0.972213
0.980728 0.993606 0.994232
0.993469 0.993469 0.993469
