bundles/resolve-cinematic-luts/Phantom Luts/Apple Log Phantom LUTS/iPhone 15 Phantom ARRI LUTs/65x/Neutral Legacy Iphone15_65x_G1.cube
TITLE "Generated by Resolve"
LUT_3D_SIZE 65
0.0277104 0.0277104 0.0277104
0.0277104 0.0277104 0.0277104
0.0277104 0.0277104 0.0277104
0.0277104 0.0277104 0.0277104
0.0277104 0.0277104 0.0277104
0.0277104 0.0277104 0.0277104
0.0277104 0.0277104 0.0277104
0.0277104 0.0277104 0.0277104
0.0277104 0.0277104 0.0277104
0.028397 0.0277562 0.0277104
0.0397192 0.0286412 0.0278325
0.0560769 0.0302281 0.028397
0.0759136 0.0306859 0.0292363
0.0973526 0.031632 0.0301671
0.118685 0.032166 0.0307927
0.140398 0.0321965 0.0312657
0.162158 0.0315862 0.031632
0.18497 0.0302281 0.0314031
0.207568 0.0291142 0.0310979
0.231144 0.0284276 0.0313573
0.25568 0.0273594 0.0314336
0.280095 0.026276 0.0315709
0.304997 0.0255283 0.0320439
0.330114 0.0247044 0.0326085
0.355276 0.0239872 0.0330053
0.382086 0.0230716 0.0346075
0.40882 0.0223087 0.0369116
0.436286 0.0214542 0.0395819
0.46389 0.020737 0.0429389
0.492546 0.0210117 0.0487984
0.521798 0.0233616 0.0590524
0.55108 0.0257725 0.0692149
0.581506 0.0274815 0.0782177
0.612757 0.0294804 0.0878614
0.646738 0.0317235 0.0979477
0.682933 0.0338598 0.108232
0.719051 0.0362554 0.118761
0.756725 0.0397498 0.130892
0.793774 0.0439002 0.143404
0.826535 0.0497139 0.156497
0.832074 0.0543374 0.166171
0.837919 0.0562905 0.174731
0.844343 0.0581826 0.185077
0.851606 0.06009 0.196857
0.859358 0.0620737 0.210193
0.867353 0.0648051 0.224979
0.875456 0.0664988 0.24007
0.883238 0.0505989 0.249775
0.889754 0.0482185 0.266972
0.895735 0.0487984 0.286427
0.901061 0.0504311 0.307347
0.905074 0.0534829 0.329854
0.906325 0.0586557 0.354711
0.905913 0.0661631 0.380941
0.907469 0.0711986 0.413367
0.910811 0.0673686 0.452003
0.915328 0.0628977 0.488853
0.917784 0.0577554 0.522332
0.920623 0.0530251 0.552941
0.92369 0.0491798 0.582238
0.925612 0.0446479 0.614816
0.92723 0.0377813 0.645518
0.927993 0.0352483 0.654566
0.928008 0.0352483 0.654566
0.928008 0.0352483 0.654566
0.0277104 0.0277104 0.0277104
0.0277104 0.0277104 0.0277104
0.0277104 0.0277104 0.0277104
0.0277104 0.0277104 0.0277104
0.0277104 0.0277104 0.0277104
0.0277104 0.0277104 0.0277104
0.0277104 0.0277104 0.0277104
0.0277104 0.0277104 0.0277104
0.0277104 0.0277104 0.0277104
0.0277104 0.0277104 0.0277104
0.0318761 0.0279545 0.0276188
0.0429541 0.0289158 0.0278935
0.0572976 0.0303349 0.0284428
0.0766308 0.0307317 0.0292668
0.0993057 0.031754 0.0297704
0.121828 0.0325628 0.0304875
0.144305 0.0324407 0.0308385
0.167849 0.0313115 0.0307164
0.192111 0.0301823 0.0305028
0.217411 0.0288243 0.0298619
0.244266 0.0273442 0.0292668
0.272633 0.0264897 0.0310826
0.29836 0.0253147 0.0310369
0.324208 0.0242466 0.0310826
0.350545 0.0234531 0.0310369
0.377844 0.0222019 0.0317082
0.405768 0.0206912 0.0325933
0.434852 0.0190738 0.0342107
0.463127 0.0174868 0.0358892
0.492638 0.0156863 0.0378882
0.521218 0.0137636 0.0400244
0.550347 0.0118105 0.0425727
0.578943 0.00993362 0.0455177
0.608103 0.00972 0.0521248
0.640833 0.0115358 0.0636606
0.67538 0.0144198 0.0774853
0.712398 0.0178988 0.092546
0.749554 0.0214237 0.106249
0.787381 0.0253605 0.120073
0.819104 0.0318608 0.135042
0.824231 0.0440528 0.14992
0.830304 0.0536812 0.163607
0.837263 0.0560922 0.173739
0.844648 0.0582589 0.18555
0.853071 0.0604562 0.199298
0.861555 0.0627298 0.214176
0.870237 0.0659648 0.230503
0.878599 0.0607919 0.243824
0.88661 0.0482643 0.257679
0.893187 0.0484474 0.27779
0.899123 0.0496376 0.299168
0.904021 0.0523537 0.322545
0.906554 0.0569162 0.347158
0.905852 0.0640879 0.374228
0.90695 0.0720684 0.403815
0.910124 0.0680705 0.445502
0.9149 0.0636301 0.48368
0.917357 0.0584878 0.517601
0.920317 0.0534371 0.550088
0.923339 0.049546 0.579034
0.92549 0.0450294 0.612573
0.927108 0.0383154 0.643458
0.927672 0.0362554 0.651102
0.927687 0.0362097 0.651225
0.927703 0.0361944 0.651301
0.0277104 0.0277104 0.0277104
0.0277104 0.0277104 0.0277104
0.0277104 0.0277104 0.0277104
0.0277104 0.0277104 0.0277104
0.0277104 0.0277104 0.0277104
0.0277104 0.0277104 0.0277104
0.0277104 0.0277104 0.0277104
0.0277104 0.0277104 0.0277104
0.0277104 0.0277104 0.0277104
0.0277104 0.0277104 0.0277104
0.0289006 0.0278172 0.0277256
0.036759 0.0283818 0.0277714
0.0471656 0.0294347 0.0279545
0.0624094 0.030396 0.028336
0.0830854 0.0316014 0.0295262
0.104067 0.0327001 0.0301671
0.124819 0.0336461 0.0307164
0.145708 0.0333562 0.0308385
0.16817 0.032105 0.0305486
0.193591 0.0308843 0.0302739
0.220264 0.029633 0.0298009
0.248081 0.0280461 0.0292363
0.276661 0.0263676 0.0288396
0.306767 0.0248722 0.0287938
0.336889 0.0243076 0.0290684
0.3691 0.0226902 0.0291142
0.401709 0.0208286 0.0323644
0.43006 0.0193332 0.0339513
0.460182 0.0175937 0.0356451
0.489433 0.0158389 0.0376287
0.519402 0.0138399 0.0398413
0.548852 0.0118563 0.0423896
0.578225 0.00993362 0.0453651
0.609125 0.00772107 0.0485237
0.641199 0.00476081 0.0512551
0.673472 0.00358587 0.0580301
0.708446 0.00601205 0.072282
0.745083 0.00982681 0.0889601
0.783093 0.0143893 0.105135
0.813901 0.0203403 0.120195
0.819486 0.0328069 0.136217
0.825177 0.0463569 0.152636
0.832273 0.0543984 0.166445
0.839933 0.0568856 0.178042
0.848142 0.0591287 0.191073
0.856977 0.0614023 0.205966
0.865843 0.0642405 0.22211
0.875029 0.067216 0.239582
0.883741 0.0494698 0.250446
0.891005 0.0482948 0.270909
0.897444 0.0491798 0.292653
0.902876 0.0514076 0.315847
0.90663 0.0556191 0.341299
0.905928 0.0623789 0.368399
0.90663 0.0717632 0.397894
0.909514 0.0686961 0.439399
0.914061 0.0643626 0.477852
0.917006 0.0591287 0.513512
0.919936 0.0540932 0.545846
0.923018 0.0498512 0.576288
0.925322 0.0455634 0.60943
0.926955 0.0390631 0.64062
0.927413 0.037171 0.647852
0.927428 0.0371252 0.648005
0.927443 0.0370794 0.648188
0.0277104 0.0277104 0.0277104
0.0277104 0.0277104 0.0277104
0.0277104 0.0277104 0.0277104
0.0277104 0.0277104 0.0277104
0.0277104 0.0277104 0.0277104
0.0277104 0.0277104 0.0277104
0.0277104 0.0277104 0.0277104
0.0277104 0.0277104 0.0277104
0.0277104 0.0277104 0.0277104
0.0277104 0.0277104 0.0277104
0.0279698 0.0277256 0.0277104
0.0332189 0.0280461 0.0276036
0.0414588 0.0287785 0.027863
0.0534371 0.0301671 0.0281987
0.0711681 0.0314641 0.0290074
0.0911116 0.0333562 0.0301976
0.109957 0.0345617 0.0306706
0.128771 0.0352178 0.0308232
0.149203 0.035111 0.0310826
0.172457 0.0337072 0.0306401
0.198199 0.0322271 0.030045
0.226627 0.0307317 0.0295109
0.256413 0.0286259 0.028748
0.287861 0.0265507 0.0283818
0.318868 0.0251316 0.0284886
0.356985 0.0236973 0.0291752
0.390753 0.0214389 0.0296178
0.426505 0.0194705 0.0337072
0.455955 0.0178378 0.0353857
0.48658 0.0160067 0.0373999
0.516808 0.0139925 0.0396277
0.546288 0.0120241 0.0421454
0.576532 0.0100404 0.045182
0.607034 0.00787366 0.0482948
0.640528 0.00480659 0.0511788
0.674281 0.00125124 0.0538949
0.707118 0 0.058732
0.74229 0.00062562 0.0730907
0.778805 0.00466926 0.0905928
0.809873 0.0117494 0.108431
0.81529 0.0232395 0.12401
0.821393 0.0372168 0.141665
0.82797 0.0528267 0.160342
0.835645 0.0555734 0.171267
0.843717 0.0579995 0.18407
0.85272 0.0603647 0.198703
0.862165 0.0629435 0.215274
0.871672 0.0665599 0.233265
0.880919 0.0559091 0.246738
0.889036 0.0482185 0.264759
0.89575 0.0487984 0.286503
0.901778 0.0507668 0.310582
0.905882 0.054551 0.33576
0.906081 0.0608835 0.363195
0.906355 0.0701305 0.393118
0.908888 0.0693828 0.432517
0.91342 0.0649424 0.473121
0.916594 0.0598764 0.508675
0.919646 0.0545815 0.542657
0.922744 0.0501869 0.57351
0.925109 0.046128 0.606027
0.926818 0.0397498 0.63798
0.92723 0.0377508 0.645624
0.927245 0.0376898 0.645823
0.92726 0.037644 0.646006
0.0277104 0.0277104 0.0277104
0.0277104 0.0277104 0.0277104
0.0277104 0.0277104 0.0277104
0.0277104 0.0277104 0.0277104
0.0277104 0.0277104 0.0277104
0.0277104 0.0277104 0.0277104
0.0277104 0.0277104 0.0277104
0.0277104 0.0277104 0.0277104
0.0277104 0.0277104 0.0277104
0.0277104 0.0277104 0.0277104
0.0277104 0.0277104 0.0277104
0.0308843 0.027924 0.0276951
0.0375525 0.0284733 0.0277104
0.0471656 0.0297246 0.0280613
0.0622416 0.0317845 0.0286717
0.0799878 0.0338903 0.0300298
0.097734 0.035523 0.0306096
0.115526 0.0368048 0.0311437
0.134081 0.0373846 0.0311894
0.155352 0.0368048 0.0311131
0.17995 0.0352789 0.0306706
0.206714 0.0337987 0.0300603
0.235737 0.031693 0.0292515
0.267933 0.0292668 0.0285039
0.308431 0.0259709 0.0281071
0.340505 0.0251164 0.0284428
0.377737 0.0226749 0.029221
0.413367 0.0200961 0.0303044
0.453162 0.0179446 0.0351568
0.483848 0.0161288 0.0371862
0.513878 0.0141604 0.0393683
0.54435 0.0121614 0.0419776
0.574075 0.010193 0.0449226
0.605478 0.00798047 0.0481422
0.638422 0.00502022 0.0510109
0.672953 0.00138857 0.0537881
0.707942 0 0.0565042
0.740734 0 0.0612497
0.776272 0 0.0774395
0.806088 0.00335698 0.0962387
0.81146 0.0155032 0.113634
0.817975 0.029221 0.131716
0.824155 0.0438544 0.149691
0.831617 0.0541695 0.165499
0.839765 0.0568246 0.177752
0.849119 0.0594644 0.192691
0.858915 0.0619364 0.2094
0.868559 0.0652781 0.227253
0.878431 0.0611734 0.24358
0.886976 0.0482643 0.258671
0.894347 0.0485542 0.281682
0.900618 0.0502327 0.30544
0.905196 0.0536507 0.330816
0.906203 0.059678 0.358709
0.906126 0.068452 0.388113
0.908446 0.0698863 0.427314
0.912749 0.0655528 0.468009
0.91635 0.0604868 0.504814
0.919356 0.0550698 0.539544
0.922362 0.0506447 0.569924
0.92491 0.04654 0.603128
0.926635 0.0404212 0.635065
0.927092 0.0384375 0.64303
0.927108 0.0383612 0.643259
0.927123 0.0383154 0.643488
0.0277104 0.0277104 0.0277104
0.0277104 0.0277104 0.0277104
0.0277104 0.0277104 0.0277104
0.0277104 0.0277104 0.0277104
0.0277104 0.0277104 0.0277104
0.0277104 0.0277104 0.0277104
0.0277104 0.0277104 0.0277104
0.0277104 0.0277104 0.0277104
0.0277104 0.0277104 0.0277104
0.0277104 0.0277104 0.0277104
0.0277104 0.0277104 0.0277104
0.0292668 0.0278477 0.0277256
0.0348058 0.0281682 0.0276036
0.0429999 0.0294347 0.027924
0.0552071 0.032105 0.0286564
0.0713054 0.0344701 0.0296025
0.0876478 0.036408 0.030518
0.104402 0.0380255 0.0311742
0.122042 0.0390936 0.0313115
0.14197 0.0395209 0.031281
0.165301 0.0386511 0.0312963
0.190829 0.0367285 0.0306859
0.21886 0.0348974 0.0297093
0.253407 0.0319524 0.0288701
0.287846 0.0294347 0.0285039
0.328054 0.0263676 0.028275
0.363394 0.0246281 0.0287938
0.401816 0.0216526 0.0300603
0.440818 0.018204 0.0315099
0.47863 0.0150149 0.0328985
0.511894 0.0142977 0.0392157
0.542062 0.0122683 0.0417334
0.57258 0.0102541 0.0447395
0.60383 0.0081178 0.0479896
0.636881 0.00515755 0.0508736
0.671626 0.00154116 0.0536812
0.706065 0 0.0563516
0.741207 0 0.0590219
0.774243 0 0.0655528
0.802533 0 0.0842451
0.808423 0.0083772 0.103609
0.814054 0.0206149 0.120562
0.820768 0.0357671 0.139895
0.827634 0.0525368 0.159762
0.836469 0.055848 0.172488
0.845609 0.0584878 0.187045
0.855528 0.0609903 0.203281
0.865751 0.0641947 0.221912
0.8757 0.0660868 0.240345
0.885176 0.0483253 0.253651
0.892882 0.0484169 0.27686
0.899428 0.0497444 0.30042
0.904585 0.0529488 0.326604
0.906355 0.0584268 0.353811
0.905974 0.067155 0.384054
0.907988 0.0704509 0.42121
0.912139 0.0661173 0.463203
0.916121 0.0610208 0.501396
0.91899 0.0556954 0.535485
0.922072 0.0509957 0.567285
0.924666 0.0471046 0.599115
0.926513 0.0410468 0.632395
0.92697 0.0390173 0.640833
0.926986 0.0389715 0.641016
0.926986 0.0389105 0.64123
0.0277104 0.0277104 0.0277104
0.0277104 0.0277104 0.0277104
0.0277104 0.0277104 0.0277104
0.0277104 0.0277104 0.0277104
0.0277104 0.0277104 0.0277104
0.0277104 0.0277104 0.0277104
0.0277104 0.0277104 0.0277104
0.0277104 0.0277104 0.0277104
0.0277104 0.0277104 0.0277104
0.0277104 0.0277104 0.0277104
0.0277104 0.0277104 0.0277104
0.0284123 0.0277562 0.0277104
0.0324254 0.027985 0.0276188
0.0395666 0.0292821 0.027924
0.0497444 0.0319982 0.0285191
0.0640879 0.0351263 0.0292515
0.0793774 0.0376287 0.0305486
0.0958114 0.0390631 0.0310979
0.113085 0.0404822 0.0316014
0.132586 0.0416114 0.0318303
0.15433 0.0414435 0.0317998
0.17908 0.0395972 0.0312352
0.207019 0.0374762 0.0301823
0.239338 0.0349126 0.0294194
0.276555 0.0313573 0.0285801
0.314046 0.0282597 0.0283055
0.35436 0.0255436 0.0284581
0.392386 0.0227054 0.0295415
0.429068 0.0196078 0.0310216
0.468833 0.0162051 0.0328069
0.509453 0.0146334 0.0391852
0.540337 0.0124514 0.0416419
0.571084 0.0103456 0.0445869
0.601862 0.00823987 0.047776
0.635508 0.00531014 0.050782
0.669642 0.00177005 0.0535286
0.705074 0 0.0562753
0.739742 0 0.0588998
0.774472 0 0.0619516
0.798718 0 0.0722972
0.804654 0.000335698 0.0915084
0.810666 0.0137026 0.111147
0.817365 0.0278019 0.1299
0.824567 0.044831 0.150835
0.833112 0.0546883 0.167605
0.841856 0.0575113 0.181353
0.852476 0.0603037 0.198291
0.86273 0.0631266 0.216312
0.873274 0.0672923 0.236469
0.88333 0.0503853 0.249912
0.891279 0.0483101 0.271717
0.898405 0.0494087 0.296345
0.903929 0.0522774 0.321981
0.906477 0.0574807 0.349706
0.905882 0.0657206 0.379507
0.907607 0.0710002 0.415595
0.911635 0.0665904 0.459144
0.915831 0.0617075 0.496849
0.9187 0.0561837 0.532403
0.921736 0.0514229 0.564141
0.924498 0.0474861 0.596536
0.926406 0.0416114 0.629969
0.926848 0.0396124 0.63856
0.926863 0.0395361 0.638834
0.926879 0.0394751 0.639109
0.0277104 0.0277104 0.0277104
0.0277104 0.0277104 0.0277104
0.0277104 0.0277104 0.0277104
0.0277104 0.0277104 0.0277104
0.0277104 0.0277104 0.0277104
0.0277104 0.0277104 0.0277104
0.0277104 0.0277104 0.0277104
0.0277104 0.0277104 0.0277104
0.0277104 0.0277104 0.0277104
0.0277104 0.0277104 0.0277104
0.0277104 0.0277104 0.0277104
0.0279698 0.0277256 0.0277104
0.0307927 0.0279545 0.0276951
0.0368658 0.0291752 0.0279088
0.0455482 0.0318914 0.0284428
0.0577096 0.0355688 0.0290227
0.0728313 0.0384833 0.0302586
0.0882277 0.0403296 0.0311284
0.105898 0.0417487 0.0317082
0.125399 0.0432593 0.032166
0.14609 0.0438087 0.0321202
0.171725 0.041474 0.0315862
0.200397 0.0387427 0.0307774
0.231937 0.036286 0.0296178
0.266072 0.0330968 0.028748
0.305409 0.0295262 0.0283207
0.345403 0.0267033 0.0283818
0.385412 0.0233005 0.029221
0.423606 0.0201114 0.0307012
0.461707 0.016907 0.0323796
0.500511 0.0139773 0.0347601
0.538415 0.0126802 0.0415503
0.568689 0.0106203 0.0444343
0.600153 0.0083772 0.0476081
0.633539 0.00555428 0.0506447
0.668528 0.00189212 0.0534371
0.703716 0 0.0561532
0.738552 0 0.0588083
0.773648 0 0.0615549
0.795071 0 0.0643626
0.801221 0 0.0798962
0.807416 0.00613413 0.100328
0.814038 0.0205844 0.120516
0.821576 0.0376593 0.142199
0.829389 0.0533608 0.162356
0.839017 0.056611 0.176501
0.849134 0.0594644 0.192721
0.859861 0.062211 0.211109
0.870771 0.0661784 0.23151
0.88101 0.0556954 0.24686
0.88986 0.0482338 0.267277
0.897078 0.0490883 0.291402
0.903197 0.0516365 0.317525
0.9066 0.0564736 0.345113
0.905852 0.0643015 0.374914
0.907256 0.0715343 0.409751
0.910948 0.0672465 0.453193
0.915587 0.0623026 0.492897
0.918334 0.0568093 0.528405
0.921401 0.0518959 0.560723
0.924331 0.0479438 0.592996
0.926192 0.0424353 0.626169
0.926741 0.0400702 0.636606
0.926757 0.0400092 0.636881
0.926772 0.0399329 0.637201
0.0277104 0.0277104 0.0277104
0.0277104 0.0277104 0.0277104
0.0277104 0.0277104 0.0277104
0.0277104 0.0277104 0.0277104
0.0277104 0.0277104 0.0277104
0.0277104 0.0277104 0.0277104
0.0277104 0.0277104 0.0277104
0.0277104 0.0277104 0.0277104
0.0277104 0.0277104 0.0277104
0.0277104 0.0277104 0.0277104
0.0277104 0.0277104 0.0277104
0.0277256 0.0277104 0.0277562
0.0296025 0.0279088 0.0277409
0.0349432 0.0290532 0.0278477
0.0425269 0.031754 0.0283513
0.0532692 0.035584 0.0291295
0.0673228 0.0390631 0.0302434
0.0823987 0.0414435 0.0311589
0.100252 0.0431525 0.031632
0.119402 0.0445411 0.0324559
0.140902 0.0447852 0.0322576
0.165866 0.04271 0.0317693
0.194675 0.0399329 0.0311589
0.226123 0.0374304 0.0298772
0.259297 0.0344091 0.0289158
0.298909 0.0306096 0.0283207
0.336645 0.0279393 0.0282444
0.379782 0.0238956 0.0289616
0.417868 0.0206302 0.0303807
0.457618 0.0172885 0.0320897
0.496635 0.0143282 0.0345617
0.53611 0.0128176 0.0413214
0.567346 0.0107576 0.0443427
0.598321 0.00860609 0.0474861
0.632319 0.00573739 0.0505989
0.66743 0.00205997 0.0533761
0.702205 0 0.0560769
0.737591 0 0.0587625
0.772091 0 0.0614328
0.794385 0 0.0631113
0.797055 0 0.0683452
0.804273 0 0.0901961
0.810987 0.0144656 0.112215
0.818463 0.0304112 0.133211
0.826474 0.049546 0.156298
0.836011 0.0556954 0.171801
0.846204 0.0586252 0.187991
0.857359 0.0615091 0.206653
0.868193 0.0651255 0.226535
0.879088 0.0598306 0.244404
0.888334 0.0482185 0.262654
0.895964 0.0488441 0.287266
0.902449 0.051133 0.313726
0.906569 0.0555428 0.340948
0.905867 0.0632486 0.371389
0.90692 0.0721141 0.403342
0.910506 0.0676738 0.449195
0.915297 0.0629435 0.488579
0.918029 0.0573587 0.524941
0.921126 0.0522469 0.55819
0.924132 0.0483711 0.589349
0.926055 0.0429084 0.623819
0.926635 0.0404669 0.634913
0.92665 0.0404059 0.635172
0.926665 0.0403449 0.635416
0.0277104 0.0277104 0.0277104
0.0277104 0.0277104 0.0277104
0.0277104 0.0277104 0.0277104
0.0277104 0.0277104 0.0277104
0.0277104 0.0277104 0.0277104
0.0277104 0.0277104 0.0277104
0.0277104 0.0277104 0.0277104
0.0277104 0.0277104 0.0277104
0.0277104 0.0277104 0.0277104
0.0277104 0.0277104 0.0277104
0.0277104 0.0277104 0.0277104
0.0277104 0.0277104 0.0277104
0.0288243 0.0278782 0.0277562
0.0330053 0.0289616 0.027863
0.0401007 0.0317388 0.0285344
0.0495918 0.0354009 0.029221
0.0627451 0.0397498 0.0304723
0.0779278 0.0422065 0.0313268
0.0953078 0.0443275 0.0319066
0.114794 0.0455177 0.0324254
0.136172 0.0453803 0.0323491
0.16083 0.0438392 0.0319066
0.189075 0.0411688 0.031342
0.220432 0.0385138 0.0302281
0.253605 0.0355535 0.0290227
0.289052 0.0322271 0.028397
0.329656 0.0289769 0.0283055
0.369955 0.0252232 0.0287175
0.413794 0.0208743 0.0301671
0.453239 0.0177157 0.0318608
0.492195 0.0146792 0.0343023
0.531273 0.0117342 0.0370642
0.565011 0.0108644 0.0440833
0.596902 0.00875868 0.0473945
0.630838 0.00588998 0.0504768
0.665629 0.00233463 0.0532845
0.701152 0 0.0560311
0.736004 0 0.0586709
0.771176 0 0.0613565
0.794385 0 0.0631113
0.794903 0 0.0640421
0.801297 0 0.0801556
0.808103 0.00766003 0.102556
0.81561 0.0238956 0.12488
0.82359 0.0424506 0.147997
0.83299 0.0546578 0.167437
0.843244 0.0578775 0.183398
0.854459 0.0607309 0.201495
0.865904 0.0642557 0.222202
0.876829 0.064271 0.241627
0.886839 0.0482643 0.258305
0.894896 0.0486305 0.283558
0.901427 0.0505989 0.309026
0.906065 0.0548104 0.337194
0.905959 0.0618906 0.366751
0.906722 0.0721752 0.3991
0.909941 0.0682536 0.443748
0.914977 0.0635386 0.484398
0.917723 0.0578622 0.521706
0.92076 0.052781 0.554498
0.923964 0.0487526 0.586221
0.925887 0.0436103 0.62031
0.926543 0.04094 0.632853
0.926558 0.0408637 0.633204
0.926574 0.0407874 0.633494
0.0277104 0.0277104 0.0277104
0.0277104 0.0277104 0.0277104
0.0277104 0.0277104 0.0277104
0.0277104 0.0277104 0.0277104
0.0277104 0.0277104 0.0277104
0.0277104 0.0277104 0.0277104
0.0277104 0.0277104 0.0277104
0.0277104 0.0277104 0.0277104
0.0277104 0.0277104 0.0277104
0.0277104 0.0277104 0.0277104
0.0277104 0.0277104 0.0277104
0.0277104 0.0277104 0.0277104
0.028336 0.0278325 0.0277256
0.0317693 0.0289006 0.0278782
0.0382239 0.0317235 0.028687
0.0467994 0.0355383 0.0293889
0.0587778 0.0401007 0.0306401
0.073518 0.0429694 0.0315251
0.0912642 0.0454414 0.0323339
0.110719 0.0460975 0.0324102
0.132006 0.0459754 0.0325017
0.156298 0.0448615 0.0320439
0.184176 0.0422827 0.0315099
0.215091 0.0395666 0.0304723
0.248112 0.0366674 0.0292973
0.284047 0.0332036 0.0284276
0.324025 0.0299382 0.0282597
0.364126 0.0263523 0.0286259
0.409476 0.0216373 0.0299229
0.448142 0.0182193 0.0316167
0.488563 0.0149538 0.0340581
0.527077 0.0120699 0.036759
0.563516 0.0109865 0.043946
0.595636 0.00886549 0.0472725
0.628962 0.00605783 0.0503243
0.6645 0.0024567 0.0532082
0.699504 0 0.0559396
0.735256 0 0.0586404
0.770397 0 0.0612955
0.794385 0 0.0631113
0.7944 0 0.0631113
0.797498 0 0.0692454
0.805417 0.00192264 0.0940108
0.812589 0.0176547 0.116579
0.821057 0.0364385 0.140719
0.830228 0.053666 0.163516
0.840314 0.0570077 0.178729
0.851957 0.0601663 0.197436
0.863325 0.0633249 0.217411
0.874876 0.0674601 0.239399
0.885405 0.0483101 0.254261
0.893538 0.0484779 0.278935
0.900649 0.050248 0.305562
0.905455 0.0540169 0.332845
0.906065 0.060914 0.363333
0.906477 0.0709544 0.395499
0.909499 0.0687114 0.439323
0.914504 0.0639811 0.480949
0.917372 0.0584726 0.517754
0.920501 0.053193 0.551736
0.923751 0.0491188 0.582925
0.92575 0.0441138 0.617761
0.926452 0.0413672 0.631022
0.926452 0.0413062 0.631281
0.926482 0.0412451 0.631586
0.0277104 0.0277104 0.0277104
0.0277104 0.0277104 0.0277104
0.0277104 0.0277104 0.0277104
0.0277104 0.0277104 0.0277104
0.0277104 0.0277104 0.0277104
0.0277104 0.0277104 0.0277104
0.0277104 0.0277104 0.0277104
0.0277104 0.0277104 0.0277104
0.0277104 0.0277104 0.0277104
0.0277104 0.0277104 0.0277104
0.0277104 0.0277104 0.0277104
0.0277104 0.0277104 0.0277104
0.0280461 0.0278172 0.0277256
0.0306554 0.0288548 0.0279545
0.0364843 0.0317388 0.0287785
0.0445563 0.0357366 0.029633
0.0553292 0.0401923 0.0307774
0.0698253 0.0438392 0.0316014
0.0871901 0.0460517 0.0325475
0.10695 0.0466773 0.0325322
0.128145 0.0464942 0.0326238
0.151507 0.0459754 0.0322423
0.179843 0.0433661 0.031693
0.210254 0.0404974 0.0306706
0.243595 0.0376745 0.0295262
0.279332 0.0342107 0.0284886
0.316854 0.0311589 0.0282139
0.358175 0.0274968 0.0286564
0.401709 0.022797 0.0296635
0.444511 0.018555 0.0313726
0.484047 0.0152438 0.0335699
0.523964 0.0123293 0.0365301
0.56231 0.0110933 0.0438544
0.593591 0.0090486 0.0471046
0.627634 0.00628672 0.0504463
0.662516 0.00265507 0.0530404
0.698573 0 0.0558633
0.734401 0 0.0585794
0.769177 0 0.0611887
0.794385 0 0.0631113
0.794385 0 0.0631113
0.795209 0 0.0645609
0.802747 0 0.0848707
0.810071 0.012253 0.109133
0.818647 0.030808 0.13373
0.827222 0.0514839 0.158541
0.838041 0.0563363 0.174929
0.84921 0.0594797 0.192828
0.861158 0.0626078 0.213489
0.872969 0.0671397 0.235874
0.883757 0.0494392 0.250477
0.8925 0.0483864 0.275624
0.899657 0.049836 0.301366
0.905028 0.0534371 0.329564
0.906172 0.059968 0.359762
0.906279 0.0695964 0.391531
0.909117 0.0691234 0.435126
0.913863 0.0645457 0.476356
0.917098 0.0589914 0.514458
0.920195 0.0536355 0.548821
0.923476 0.0494087 0.580301
0.925628 0.0446174 0.615
0.92636 0.0417792 0.629221
0.926375 0.0417029 0.629587
0.92639 0.0416419 0.629877
0.0277104 0.0277104 0.0277104
0.0277104 0.0277104 0.0277104
0.0277104 0.0277104 0.0277104
0.0277104 0.0277104 0.0277104
0.0277104 0.0277104 0.0277104
0.0277104 0.0277104 0.0277104
0.0277104 0.0277104 0.0277104
0.0277104 0.0277104 0.0277104
0.0277104 0.0277104 0.0277104
0.0277104 0.0277104 0.0277104
0.0277104 0.0277104 0.0277104
0.0277104 0.0277104 0.0277104
0.0278935 0.0277562 0.0278325
0.0298161 0.0288243 0.0280003
0.0353704 0.0316777 0.0287785
0.042771 0.0357977 0.0298619
0.0528115 0.0402686 0.0309758
0.0659495 0.0446021 0.0317082
0.0835584 0.0464942 0.032517
0.10341 0.0471046 0.0326848
0.124147 0.0471504 0.0327306
0.147509 0.046952 0.0323796
0.175189 0.0444495 0.0318608
0.206271 0.0413214 0.0307927
0.239124 0.0386816 0.0296483
0.273945 0.0353552 0.0286259
0.312474 0.0318303 0.0283207
0.351186 0.0287022 0.0287327
0.395743 0.0238651 0.0296483
0.440696 0.0189517 0.0311589
0.480598 0.0154574 0.0331579
0.521004 0.0125887 0.0363317
0.556817 0.0100252 0.0395056
0.592416 0.00914015 0.0469825
0.625727 0.00646983 0.0502785
0.661524 0.00273136 0.0529335
0.697505 0 0.0557717
0.732876 0 0.0584573
0.768383 0 0.0611276
0.794385 0 0.0631113
0.794385 0 0.0631113
0.7944 0 0.0631113
0.79942 0 0.0742962
0.807721 0.00677501 0.101274
0.815763 0.0242466 0.125338
0.824903 0.0456703 0.151827
0.835264 0.0554513 0.170748
0.846632 0.0587472 0.188663
0.8589 0.0619364 0.209369
0.870619 0.0661173 0.231205
0.88188 0.0535897 0.248005
0.891096 0.0482948 0.271138
0.898787 0.0495155 0.297887
0.904494 0.0528573 0.326009
0.90631 0.0588693 0.35555
0.906111 0.0683757 0.387869
0.908614 0.0697032 0.429267
0.913344 0.0650034 0.472587
0.916823 0.0594797 0.51133
0.919921 0.054139 0.545525
0.923171 0.0496834 0.577737
0.925429 0.0452583 0.611246
0.926238 0.0422217 0.627222
0.926268 0.0421607 0.627512
0.926268 0.0420996 0.627817
0.0270695 0.0317845 0.0283207
0.0273594 0.0297856 0.0280003
0.0276188 0.028748 0.0279088
0.0276341 0.0281987 0.0277867
