bundles/resolve-cinematic-luts/Phantom Luts/Apple Log Phantom LUTS/iPhone 15 Phantom ARRI LUTs/65x/Tungsten_Legacy Iphone15_65x.cube
TITLE "Generated by Resolve"
LUT_3D_SIZE 65
0.0266728 0.026276 0.0320745
0.0266728 0.0262608 0.0320592
0.0266728 0.0262608 0.0320439
0.026688 0.0262608 0.0320287
0.026688 0.0262303 0.0319829
0.026688 0.026215 0.0319371
0.026688 0.0261692 0.0318303
0.0267033 0.0260929 0.031693
0.0267185 0.0260166 0.0314946
0.0267338 0.0258946 0.0312505
0.0272831 0.0259098 0.0310674
0.0353857 0.0267491 0.0315709
0.0502937 0.0289616 0.0331579
0.0691997 0.0301213 0.0351568
0.0902113 0.0318151 0.0377508
0.112367 0.0334173 0.0412604
0.1337 0.0345312 0.0442054
0.156024 0.0350652 0.0465095
0.179553 0.0354314 0.0491951
0.203525 0.035874 0.052079
0.229328 0.0362707 0.0546578
0.256077 0.0367895 0.0576638
0.282811 0.0372473 0.0605173
0.310033 0.0377813 0.0635996
0.337026 0.0384985 0.0670329
0.365286 0.0393378 0.0712291
0.392859 0.040238 0.076112
0.421057 0.0419623 0.0821088
0.450614 0.0441749 0.0895247
0.480766 0.0471199 0.0981003
0.510445 0.0499123 0.105989
0.539681 0.0526894 0.114168
0.569116 0.0560159 0.122957
0.599145 0.0603647 0.133257
0.62948 0.0654002 0.144244
0.658412 0.070985 0.155688
0.684733 0.0781415 0.168368
0.708598 0.0865797 0.18175
0.72813 0.0954147 0.19501
0.737301 0.099855 0.203952
0.742245 0.102235 0.211597
0.747982 0.104967 0.220661
0.75378 0.107561 0.230671
0.760311 0.110811 0.241657
0.767254 0.114427 0.25388
0.766476 0.108568 0.261265
0.764355 0.101656 0.269276
0.768627 0.102342 0.283772
0.773175 0.103822 0.299199
0.778332 0.106462 0.316701
0.783459 0.109972 0.335836
0.788495 0.114748 0.357397
0.793683 0.120577 0.381826
0.794278 0.12134 0.409552
0.792187 0.118532 0.436698
0.789746 0.115312 0.46099
0.786297 0.111681 0.482933
0.7832 0.108675 0.50312
0.780652 0.106691 0.52166
0.776364 0.104097 0.541436
0.770779 0.10071 0.557687
0.767941 0.0991379 0.565591
0.766873 0.0985428 0.568261
0.766934 0.0986343 0.56849
0.76701 0.0987259 0.568826
0.0267338 0.025864 0.0311742
0.0267185 0.0260014 0.0314946
0.0267033 0.0261082 0.0317235
0.026688 0.0261845 0.0318914
0.026688 0.0262303 0.0319677
0.026688 0.0262303 0.0319829
0.026688 0.0261997 0.0319066
0.0267033 0.0261234 0.031754
0.0267185 0.0260319 0.0315404
0.0267338 0.0259098 0.031281
0.0269322 0.025803 0.0309911
0.0336767 0.0264134 0.0312352
0.0473487 0.0284123 0.0327001
0.0653697 0.0297856 0.0344091
0.0867475 0.0314336 0.0365148
0.109056 0.032578 0.0380255
0.131518 0.0328527 0.0392767
0.154757 0.0325475 0.0412299
0.177798 0.031754 0.0420691
0.202441 0.0314488 0.0433661
0.227924 0.0310674 0.0446937
0.254368 0.0304417 0.0458991
0.281575 0.0304112 0.047364
0.308003 0.0302434 0.0490578
0.335103 0.0303807 0.0511025
0.362585 0.0307469 0.0543069
0.389776 0.0312352 0.05832
0.41735 0.0321508 0.0633707
0.445228 0.0336004 0.0699474
0.474006 0.0357214 0.0775616
0.502373 0.0378576 0.0853895
0.530907 0.0402533 0.0938125
0.559411 0.0440375 0.104021
0.588937 0.0487984 0.115587
0.618875 0.0540627 0.127504
0.647364 0.0603647 0.1402
0.674266 0.0683299 0.154131
0.69865 0.0781262 0.169131
0.719768 0.0888533 0.184207
0.731884 0.0969558 0.196246
0.737362 0.0998856 0.204013
0.742947 0.102617 0.212589
0.749477 0.105684 0.223194
0.755856 0.108568 0.234073
0.763043 0.112123 0.246616
0.768399 0.113405 0.258244
0.763821 0.10312 0.264149
0.76669 0.101823 0.277699
0.771496 0.103212 0.293355
0.776776 0.105592 0.311162
0.781994 0.108858 0.330617
0.787625 0.113787 0.352377
0.792691 0.119493 0.376852
0.79472 0.121843 0.404303
0.792523 0.119005 0.432685
0.790082 0.115709 0.458625
0.786633 0.112016 0.480873
0.78349 0.108934 0.501244
0.780911 0.106844 0.519951
0.776745 0.104326 0.540093
0.771069 0.100877 0.556848
0.768475 0.0994888 0.564523
0.767636 0.0990005 0.566552
0.767681 0.0990921 0.566857
0.767742 0.0991836 0.567254
0.0267338 0.0258946 0.0312505
0.0267033 0.0260471 0.0315709
0.026688 0.026154 0.0318151
0.026688 0.0262455 0.0320134
0.0266728 0.0262913 0.0321202
0.0266728 0.0263066 0.0321508
0.0266728 0.026276 0.0320897
0.026688 0.026215 0.0319371
0.0267033 0.0261234 0.0317388
0.0267185 0.0260014 0.0314794
0.0267491 0.025864 0.0311742
0.03122 0.026154 0.0311437
0.0424811 0.0277562 0.0322881
0.0590982 0.0293736 0.0337682
0.0797284 0.0310521 0.035996
0.102174 0.0322576 0.0374762
0.12491 0.0328832 0.0388342
0.14786 0.0329137 0.0399634
0.172076 0.0318761 0.0415045
0.197162 0.0315557 0.0427405
0.22388 0.030869 0.0437934
0.251774 0.0302281 0.0451514
0.278981 0.0300145 0.0465095
0.30634 0.0296178 0.047715
0.333898 0.0294804 0.0490578
0.361761 0.0291905 0.0512093
0.389242 0.0286564 0.0535286
0.416403 0.0284123 0.0563668
0.443641 0.0282292 0.0600137
0.470558 0.0285801 0.064622
0.497902 0.0296178 0.070985
0.525261 0.0318456 0.0793469
0.552651 0.0351263 0.0892195
0.581323 0.0394903 0.100847
0.609903 0.0448463 0.113664
0.638651 0.051545 0.127947
0.664439 0.0594186 0.142031
0.688655 0.0690166 0.157336
0.710109 0.0800793 0.173541
0.724697 0.0911116 0.187686
0.733562 0.0979171 0.198398
0.739223 0.100786 0.206912
0.745876 0.104005 0.217334
0.752483 0.106966 0.228367
0.759777 0.110521 0.240742
0.767147 0.114107 0.254047
0.766339 0.10782 0.262211
0.76527 0.10164 0.272663
0.770382 0.102922 0.289204
0.775494 0.104936 0.306569
0.780896 0.108095 0.326314
0.786572 0.112734 0.34789
0.791913 0.118563 0.372305
0.795041 0.122179 0.399847
0.792844 0.119417 0.429252
0.790524 0.116213 0.455268
0.78703 0.112444 0.478416
0.783825 0.109255 0.499138
0.781155 0.107012 0.518013
0.777203 0.104616 0.53843
0.771527 0.101152 0.555673
0.76907 0.0998398 0.563043
0.768353 0.0994583 0.565118
0.768383 0.0995193 0.565469
0.768444 0.0996262 0.565896
0.0267338 0.0259098 0.0312963
0.0267033 0.0260777 0.0316472
0.026688 0.0261997 0.0319066
0.0266728 0.0262913 0.0321202
0.0266575 0.0263676 0.0322728
0.0266575 0.0263981 0.0323339
0.0266575 0.0263828 0.0323033
0.0266728 0.0263218 0.032166
0.026688 0.0262303 0.0319829
0.0267033 0.0261234 0.031754
0.0267185 0.0259861 0.0314641
0.0286717 0.0260471 0.0311894
0.0373083 0.0270085 0.0318456
0.0499123 0.0289464 0.0331426
0.0682078 0.0300145 0.0346075
0.0908522 0.0317388 0.0364691
0.113649 0.0330816 0.0380713
0.136767 0.0331884 0.0391241
0.161135 0.0325628 0.039826
0.187869 0.0318608 0.0421454
0.215442 0.0310216 0.0429847
0.244862 0.0305791 0.0447242
0.273152 0.0300145 0.0458076
0.301885 0.0295262 0.0470283
0.330236 0.0296178 0.0489509
0.359274 0.0293278 0.0511025
0.386603 0.0287327 0.0533761
0.414847 0.0283513 0.0561837
0.442191 0.0278325 0.0590219
0.469734 0.0272831 0.0622721
0.496925 0.0271 0.0662547
0.522591 0.0274052 0.0713664
0.54873 0.0292821 0.0790417
0.575051 0.0323491 0.0886549
0.603067 0.0372625 0.101198
0.63035 0.0437781 0.115877
0.656291 0.0519112 0.131609
0.680385 0.0616617 0.147692
0.701167 0.0723125 0.1635
0.716701 0.0841077 0.178775
0.728496 0.0942245 0.192187
0.736355 0.099382 0.202502
0.742473 0.102388 0.211872
0.749569 0.105715 0.223362
0.756664 0.108949 0.235508
0.76463 0.112993 0.249256
0.767742 0.11107 0.260334
0.764294 0.101823 0.268635
0.769162 0.102556 0.285267
0.774334 0.104402 0.30277
0.780118 0.107637 0.322591
0.785657 0.111894 0.344045
0.791379 0.117906 0.368414
0.795209 0.122332 0.395575
0.793256 0.119875 0.425483
0.79089 0.116686 0.452323
0.787472 0.112932 0.475868
0.784161 0.10959 0.497353
0.781338 0.107164 0.516747
0.777646 0.104921 0.536965
0.772168 0.101564 0.554238
0.76968 0.100206 0.561578
0.768994 0.099855 0.563775
0.769009 0.0999161 0.564126
0.769055 0.100008 0.564553
0.0267338 0.0259251 0.0313268
0.0267033 0.0260929 0.031693
0.026688 0.0262303 0.0319677
0.0266728 0.0263218 0.0321813
0.0266575 0.0263981 0.0323491
0.0266575 0.0264439 0.0324407
0.0266575 0.0264286 0.0324102
0.0266575 0.0263676 0.0322881
0.0266728 0.0262913 0.032105
0.026688 0.0261692 0.0318456
0.0267185 0.0260319 0.0315404
0.0274052 0.0260166 0.031281
0.0337072 0.0264286 0.0313726
0.0432746 0.0278935 0.0323796
0.0587167 0.0294652 0.0334936
0.0793622 0.0316472 0.035935
0.101076 0.0330663 0.0373541
0.123064 0.0337987 0.0384985
0.146075 0.0336614 0.0395666
0.171878 0.0327459 0.0401312
0.200717 0.0319066 0.0419776
0.231739 0.0309148 0.0429389
0.263554 0.0301976 0.0449073
0.294377 0.0295415 0.0462043
0.324865 0.0297093 0.0482948
0.354589 0.0294347 0.0504463
0.383291 0.028687 0.0529793
0.411292 0.0284428 0.0559396
0.439826 0.027863 0.0588235
0.468055 0.0272679 0.0620127
0.495415 0.0269169 0.0657054
0.521721 0.0265354 0.0697032
0.54667 0.0269017 0.0748608
0.572549 0.0287022 0.0823682
0.597787 0.0316625 0.0915694
0.622751 0.0367437 0.104463
0.649027 0.0454261 0.121691
0.672175 0.0548104 0.138048
0.693706 0.0658122 0.154955
0.708629 0.0768749 0.169741
0.72256 0.0893111 0.185245
0.73286 0.0973678 0.197604
0.739391 0.100847 0.207141
0.746593 0.104326 0.218433
0.753918 0.107622 0.230915
0.762158 0.111742 0.244907
0.769116 0.114183 0.258961
0.764294 0.103044 0.265919
0.767971 0.102266 0.2813
0.773236 0.103929 0.299062
0.779141 0.106996 0.318929
0.784772 0.111086 0.340551
0.790539 0.116915 0.364797
0.794675 0.121675 0.392248
0.793561 0.120272 0.422141
0.79115 0.117067 0.449561
0.787839 0.113313 0.473838
0.784512 0.109911 0.495521
0.781567 0.107362 0.515251
0.778088 0.105211 0.535439
0.772747 0.101976 0.553063
0.770275 0.100572 0.560174
0.769512 0.100175 0.562554
0.769512 0.100237 0.562921
0.769574 0.100328 0.563333
0.0267185 0.0259709 0.0314031
0.0267033 0.0261234 0.031754
0.0266728 0.0262455 0.0320287
0.0266575 0.0263523 0.0322423
0.0266575 0.0264286 0.0324254
0.0266423 0.0264744 0.0325017
0.0266423 0.0264744 0.0325017
0.0266575 0.0264134 0.0323796
0.0266728 0.0263371 0.0322118
0.026688 0.026215 0.0319524
0.0267033 0.0260777 0.031632
0.0269627 0.0259251 0.0312657
0.0308537 0.0260777 0.0310369
0.0386969 0.0271 0.031754
0.0511635 0.0292973 0.0330968
0.0696574 0.03122 0.0349584
0.0899214 0.033341 0.0369268
0.109834 0.0348058 0.0382391
0.131823 0.0349126 0.0391241
0.15642 0.0343175 0.0399329
0.185061 0.0333257 0.0406806
0.216205 0.0319219 0.042237
0.248615 0.0306096 0.0432136
0.282826 0.0299382 0.04477
0.315999 0.0297704 0.0465705
0.348791 0.0295415 0.0492714
0.378637 0.0289006 0.05243
0.408484 0.0284276 0.0556191
0.437491 0.0278477 0.0585336
0.46566 0.0273289 0.0618143
0.493736 0.0269474 0.0655375
0.519905 0.0264897 0.0693523
0.545876 0.0265354 0.0740063
0.57084 0.0272679 0.0796826
0.595315 0.0289158 0.0869459
0.618402 0.0324102 0.0967117
0.641352 0.0391241 0.111162
0.664973 0.0486763 0.129168
0.686244 0.0595865 0.146441
0.701076 0.0703746 0.161349
0.715328 0.0827802 0.177203
0.728801 0.0945754 0.192477
0.737011 0.099733 0.203433
0.743816 0.103044 0.213947
0.751461 0.106538 0.226642
0.759838 0.110567 0.240833
0.767178 0.11342 0.255161
0.766033 0.106264 0.264607
0.766796 0.101961 0.277729
0.772183 0.103517 0.295521
0.77818 0.106462 0.31574
0.783871 0.110353 0.337301
0.789807 0.116075 0.361547
0.794202 0.121096 0.388449
0.793851 0.120653 0.418585
0.791379 0.117403 0.447105
0.788235 0.113741 0.471489
0.784817 0.110216 0.49369
0.781888 0.107591 0.513283
0.778546 0.105501 0.533578
0.773327 0.102312 0.551476
0.770733 0.100847 0.55906
0.770001 0.100481 0.561379
0.770016 0.100526 0.561776
0.770047 0.100618 0.562264
0.0267185 0.0260014 0.0314946
0.026688 0.026154 0.0318303
0.0266728 0.0262913 0.032105
0.0266575 0.0263828 0.0323186
0.0266423 0.0264744 0.0325017
0.0266423 0.0265354 0.032639
0.0266423 0.0265507 0.0326848
0.0266423 0.0265202 0.0326238
0.0266423 0.0264744 0.0325017
0.0266575 0.0263828 0.0323339
0.0266728 0.026276 0.0320592
0.0267033 0.0261082 0.0317388
0.0288853 0.026154 0.0314183
0.0349432 0.0267643 0.0316777
0.045304 0.0287175 0.0327001
0.0612955 0.0312963 0.0343481
0.0794232 0.0337377 0.0364691
0.0987869 0.0355383 0.0378424
0.118532 0.0363928 0.038941
0.141817 0.036347 0.0398871
0.169451 0.035111 0.0403601
0.199802 0.0337987 0.0408637
0.234485 0.0321813 0.0428473
0.268864 0.0307317 0.0440375
0.303746 0.0299992 0.0457771
0.337926 0.0298466 0.0476081
0.372686 0.0291142 0.051194
0.404929 0.0284581 0.0551766
0.434653 0.0279088 0.0582742
0.463523 0.0274662 0.061677
0.491524 0.0269932 0.0652781
0.518578 0.0265049 0.0692149
0.544686 0.0265812 0.0738384
0.569589 0.0268864 0.0789044
0.593729 0.0276341 0.0846265
0.615335 0.0298619 0.0922408
0.636545 0.0352483 0.103593
0.657786 0.0430152 0.120073
0.678752 0.0534371 0.137743
0.694133 0.0644388 0.153613
0.708064 0.0763714 0.169116
0.723445 0.090074 0.186252
0.734096 0.0981155 0.199207
0.741131 0.101701 0.209964
0.749477 0.105699 0.223148
0.757458 0.109331 0.236851
0.765362 0.112627 0.251499
0.76701 0.10869 0.262684
0.765866 0.101854 0.274311
0.771496 0.103319 0.292851
0.777279 0.105943 0.312551
0.783078 0.109697 0.334295
0.788937 0.115114 0.358099
0.793759 0.120531 0.385687
0.79411 0.120943 0.415991
0.791684 0.1178 0.444297
0.788586 0.114092 0.469596
0.785122 0.110521 0.491875
0.782116 0.10779 0.511604
0.778866 0.105699 0.532052
0.773785 0.102602 0.550256
0.771237 0.101167 0.557885
0.770489 0.100771 0.560174
0.770489 0.100832 0.560586
0.770535 0.100908 0.561059
0.0267185 0.0260319 0.0315404
0.026688 0.0261845 0.0318761
0.0266728 0.0263066 0.0321508
0.0266575 0.0264134 0.0323796
0.0266423 0.0265049 0.0325628
0.0266423 0.026566 0.0327153
0.026627 0.0265812 0.0327611
0.0266423 0.026566 0.0327153
0.0266423 0.0265202 0.0326085
0.0266575 0.0264439 0.0324407
0.0266728 0.0263218 0.0321965
0.026688 0.0261692 0.0318456
0.0275578 0.0261692 0.0315557
0.0324865 0.0263981 0.0313726
0.0409247 0.0283513 0.0323339
0.0537423 0.0314946 0.033753
0.071107 0.0343938 0.0360266
0.0886702 0.0362402 0.037583
0.107836 0.0375067 0.0387884
0.129976 0.0380713 0.0399176
0.154955 0.0372168 0.0404212
0.184909 0.0361486 0.0411078
0.217472 0.034287 0.0413825
0.253086 0.0324254 0.041413
0.290532 0.0305943 0.0447089
0.326635 0.0305333 0.046952
0.361959 0.0296178 0.0494545
0.39794 0.0284581 0.0534066
0.432044 0.0279393 0.0579843
0.461265 0.0275578 0.0614633
0.489876 0.0269932 0.0650492
0.517174 0.0265049 0.0690776
0.543313 0.0266423 0.0737011
0.568658 0.0268711 0.0787366
0.592309 0.0272374 0.0839094
0.614023 0.0290684 0.0901961
0.633982 0.0339055 0.0988632
0.653498 0.0407111 0.112367
0.672496 0.0486305 0.12987
0.686931 0.0585031 0.145464
0.700908 0.0702068 0.161181
0.716625 0.0839704 0.178775
0.731075 0.0963149 0.195331
0.738796 0.100587 0.206149
0.746883 0.104463 0.218906
0.755093 0.108263 0.232776
0.763668 0.112154 0.24802
0.768017 0.111086 0.261219
0.764889 0.101625 0.271305
0.770565 0.103075 0.289494
0.776364 0.105425 0.3093
0.782147 0.10898 0.330846
0.788479 0.114519 0.355184
0.793439 0.120134 0.382239
0.79443 0.121355 0.412238
0.791959 0.118151 0.441749
0.789105 0.114595 0.466804
0.785519 0.110918 0.48954
0.782345 0.108003 0.510124
0.77937 0.10602 0.529778
0.774365 0.102983 0.548684
0.771817 0.101518 0.556435
0.770901 0.101015 0.559045
0.770932 0.101076 0.559426
0.770962 0.101167 0.55993
0.0267185 0.0260319 0.0315557
0.026688 0.0261997 0.0318914
0.0266728 0.0263218 0.032166
0.0266575 0.0264286 0.0323949
0.0266423 0.0265049 0.0325933
0.026627 0.0265812 0.0327306
0.026627 0.0265965 0.0327916
0.026627 0.0265965 0.0327611
0.0266423 0.0265507 0.0326696
0.0266423 0.0264744 0.032517
0.0266575 0.0263676 0.0322881
0.026688 0.026215 0.0319677
0.0271153 0.0261234 0.0316167
0.0302129 0.0262455 0.0313115
0.0373236 0.0281682 0.0321965
0.0487678 0.0316777 0.0335699
0.0637522 0.0349279 0.0354314
0.0801251 0.0370642 0.0373388
0.0988327 0.0385748 0.0385443
0.119295 0.039704 0.0397192
0.143572 0.0395514 0.040589
0.171908 0.0382239 0.0412604
0.20325 0.0363775 0.0413062
0.23856 0.0343786 0.0418555
0.277211 0.0323491 0.044419
0.315862 0.0312657 0.0463874
0.351553 0.030457 0.0485542
0.388174 0.0290532 0.0517281
0.42472 0.0277714 0.0559548
0.459602 0.0276951 0.0614328
0.48957 0.0276493 0.0669108
0.516823 0.0270848 0.0708629
0.543648 0.0271763 0.0755169
0.568536 0.0273594 0.080415
0.593027 0.0277409 0.0854658
0.614679 0.0295109 0.0914168
0.634256 0.034287 0.098436
0.652461 0.0406806 0.108843
0.66891 0.046952 0.1234
0.681437 0.054139 0.138842
0.694835 0.0648508 0.154589
0.710643 0.0784924 0.172183
0.727169 0.093431 0.190387
0.736782 0.0996109 0.203113
0.744396 0.103319 0.214939
0.75285 0.107134 0.228992
0.76202 0.111681 0.244663
0.768017 0.112291 0.259174
0.764019 0.101808 0.267796
0.769467 0.102708 0.286076
0.775296 0.10486 0.305943
0.781292 0.108385 0.327764
0.787717 0.113802 0.352224
0.792844 0.119539 0.37879
0.794583 0.121569 0.408865
0.792157 0.118456 0.438407
0.789334 0.114855 0.464561
0.785687 0.111086 0.487434
0.782559 0.108156 0.507652
0.779583 0.106081 0.52784
0.774716 0.10312 0.546761
0.772137 0.101625 0.55465
0.771237 0.101091 0.557107
0.771206 0.101091 0.557351
0.77116 0.101091 0.557641
0.0267948 0.025391 0.0301671
0.0267948 0.0254673 0.0303197
0.0267796 0.0255436 0.0304723
0.0267796 0.0256046 0.0306249
0.0267643 0.0256809 0.0307774
0.0267491 0.025742 0.03093
0.0267491 0.0257877 0.0310216
0.0267491 0.0258183 0.0310674
0.0267338 0.0258183 0.0310826
0.0267491 0.025803 0.0310521
0.0267491 0.0257725 0.0309758
0.0267643 0.0257115 0.0308537
0.0269017 0.0256504 0.0307469
0.0287327 0.0259556 0.0307164
0.0347753 0.0277714 0.0315709
0.0441749 0.0315404 0.0331121
0.0573892 0.0354162 0.0350042
0.073518 0.0379492 0.0370031
0.0912337 0.039765 0.0385443
0.111376 0.0411383 0.0398871
0.134051 0.0415198 0.0407721
0.161028 0.0404517 0.041413
0.191546 0.0384985 0.0415503
0.225238 0.0367437 0.041886
0.263218 0.0346075 0.0428626
0.302388 0.0324865 0.0458076
0.340826 0.0314183 0.0478981
0.377859 0.0299077 0.0510109
0.416526 0.0283818 0.0550393
0.454002 0.0274052 0.059678
0.487098 0.0275731 0.0660105
0.515114 0.027039 0.0702831
0.541695 0.0271 0.0749218
0.567452 0.0273442 0.0801099
0.59205 0.0277562 0.0852522
0.61384 0.0294194 0.0911421
0.633707 0.0342107 0.0977951
0.651255 0.0405127 0.106462
0.666224 0.0464485 0.117449
0.675761 0.0501259 0.131472
0.688563 0.059678 0.147509
0.704128 0.0727703 0.165042
0.721187 0.087953 0.183871
0.734203 0.0982376 0.199344
0.74197 0.102129 0.211215
0.750668 0.106142 0.225299
0.760082 0.110689 0.241215
0.767071 0.112535 0.25626
0.765164 0.104097 0.266514
0.76846 0.102373 0.283009
0.77438 0.104448 0.302861
0.780697 0.108003 0.325093
0.786862 0.112978 0.348684
0.792401 0.119036 0.375235
0.794934 0.122011 0.404669
0.792447 0.118822 0.435569
0.789761 0.115297 0.462181
0.786038 0.111452 0.485435
0.782849 0.1084 0.505959
0.780056 0.106355 0.525429
0.775357 0.103517 0.544808
0.772595 0.1019 0.553414
0.771649 0.101335 0.556039
0.771603 0.10132 0.556283
0.771572 0.101335 0.556573
0.0268406 0.0260014 0.030396
0.0268254 0.0260777 0.0305486
0.0268254 0.0261234 0.0306706
0.0268101 0.025864 0.0306859
0.0267948 0.0258183 0.0307622
0.0267948 0.0257572 0.0308537
0.0267643 0.025742 0.0308995
0.0267491 0.0257725 0.0309758
0.0267491 0.0257725 0.0310063
0.0267491 0.0257725 0.0309911
0.0267491 0.0257572 0.0309453
0.0267491 0.0257115 0.0308537
0.0269474 0.025803 0.0308232
0.0283818 0.0262913 0.0309606
0.0336614 0.0281987 0.0317235
0.0419928 0.0319066 0.0332799
0.0536812 0.0357824 0.035172
0.0681621 0.0387427 0.0369268
0.0854963 0.0408331 0.0383917
0.105257 0.042359 0.0397955
0.127214 0.043183 0.0408789
0.153445 0.0424811 0.0415961
0.182513 0.0404974 0.041825
0.21651 0.0385443 0.0422065
0.253071 0.0361486 0.0426184
0.292195 0.0339513 0.0437324
0.331731 0.0322118 0.0474098
0.37113 0.0306554 0.0505837
0.409323 0.0288396 0.0542153
0.446784 0.0274357 0.0581979
0.482673 0.0268559 0.0635386
0.513558 0.0271 0.0701152
0.540963 0.0271611 0.0748913
0.56669 0.0273747 0.0800488
0.591348 0.0277867 0.0852064
0.613626 0.0294499 0.0912184
0.633249 0.0341039 0.0975967
0.650813 0.040528 0.105455
0.664439 0.0460517 0.114046
0.672419 0.0488136 0.125338
0.683101 0.0554513 0.14081
0.698436 0.0679026 0.15874
0.715785 0.0831006 0.177844
0.731929 0.0969711 0.196399
0.740185 0.101228 0.208362
0.749126 0.105531 0.222583
0.758129 0.109697 0.237903
0.765911 0.112245 0.253666
0.766094 0.106142 0.265126
0.767559 0.102159 0.280018
0.773648 0.104143 0.300328
0.780026 0.107591 0.322042
0.786236 0.112398 0.345937
0.792035 0.118593 0.371939
0.795209 0.122286 0.401846
0.792706 0.119142 0.433326
0.790143 0.115709 0.459953
0.786389 0.111772 0.483604
0.783108 0.108629 0.504524
0.780407 0.106569 0.52372
0.775769 0.103761 0.543679
0.772992 0.102144 0.552407
0.772015 0.101564 0.555077
0.772 0.101549 0.555276
0.771969 0.101564 0.555535
0.0272526 0.0292515 0.0318151
0.0272526 0.0293278 0.0319677
0.0272526 0.0294804 0.0321508
0.0269322 0.0284886 0.0315709
0.0268711 0.0281682 0.0315862
0.0268559 0.0278782 0.031632
0.0267796 0.0271458 0.0314946
0.0267948 0.026688 0.0314641
0.0267643 0.0264591 0.0314031
0.0267643 0.0263066 0.0313573
0.0267948 0.0261997 0.0313115
0.0269627 0.0263371 0.0312657
0.0275425 0.0269932 0.0313726
0.0299077 0.0281376 0.0318303
0.0346838 0.030396 0.0327764
0.0420691 0.0338445 0.034287
0.0520485 0.037644 0.035996
0.0660563 0.0411078 0.0376898
0.0823224 0.0430152 0.0389868
0.101686 0.0443275 0.0402686
0.123079 0.0452888 0.0414282
0.147875 0.0445258 0.0419471
0.176608 0.0421912 0.0420844
0.209644 0.0399634 0.0423438
0.246036 0.0373083 0.0425116
0.284688 0.0348821 0.0436713
0.323873 0.03299 0.047013
0.365545 0.0310216 0.0499733
0.403235 0.0292058 0.0535439
0.441901 0.027512 0.0572061
0.478264 0.0267796 0.0625315
0.512535 0.0271458 0.0700542
0.5402 0.0272221 0.0748608
0.565728 0.0274357 0.079942
0.591028 0.0278325 0.0852064
0.613046 0.0294652 0.0912032
0.633082 0.0340734 0.097673
0.650553 0.0404974 0.105013
0.663478 0.0458686 0.112352
0.669566 0.0479133 0.119966
0.677821 0.0514076 0.134371
0.692638 0.0630045 0.152392
0.710445 0.0782788 0.171984
0.728771 0.0946059 0.192432
0.738277 0.100359 0.205371
0.747082 0.104555 0.219181
0.756298 0.108812 0.234806
0.764889 0.112169 0.25095
0.766812 0.107912 0.263706
0.766796 0.101946 0.277836
0.772778 0.103731 0.297704
0.779324 0.107118 0.319615
0.785412 0.111666 0.342931
0.791791 0.118318 0.369284
0.795346 0.122438 0.399405
0.792996 0.119493 0.430625
0.790402 0.116014 0.458259
0.78674 0.112123 0.481682
0.783429 0.108888 0.502953
0.780667 0.106737 0.522362
0.776196 0.104021 0.542412
0.773388 0.102388 0.551354
0.772412 0.101808 0.554162
0.772366 0.101793 0.55436
0.772335 0.101793 0.554604
0.0282292 0.0365911 0.0357519
0.0282444 0.0368811 0.0359808
0.0282444 0.0370947 0.0361944
0.0276493 0.0350805 0.0342565
0.0275425 0.0348669 0.0340734
0.0273136 0.0340276 0.0337224
0.0272221 0.032639 0.0333257
0.0270085 0.0307469 0.0327153
0.027039 0.0297093 0.0325017
0.0271458 0.0290227 0.0323033
0.0271763 0.0284733 0.0320592
0.0277409 0.0290379 0.032166
0.0294347 0.0302586 0.0323796
0.0333257 0.0319677 0.0331273
0.0385595 0.0348821 0.0347295
0.0451209 0.0381628 0.036408
0.0544289 0.0418555 0.0377508
0.0666361 0.0454566 0.0393988
0.0823987 0.0469825 0.040589
0.100938 0.0482185 0.0417945
0.120668 0.0486763 0.0424964
0.14493 0.0474556 0.0428779
0.172198 0.044831 0.0427253
0.204242 0.0422522 0.0426947
0.239506 0.0394903 0.0429389
0.276814 0.0365759 0.0435645
0.315572 0.0345769 0.0449073
0.358206 0.031693 0.049424
0.399145 0.0293584 0.0531472
0.437324 0.0277409 0.0567788
0.475181 0.0266423 0.0615549
0.509712 0.0263218 0.0676127
0.538766 0.0272221 0.0746014
0.565164 0.0274662 0.0798962
0.589975 0.0278477 0.0850538
0.612757 0.0294652 0.0912184
0.632822 0.0340276 0.0977035
0.650217 0.0403906 0.104768
0.662959 0.0458228 0.111192
0.667277 0.0472267 0.115816
0.673854 0.0493019 0.127993
0.687495 0.058732 0.146334
0.704967 0.0734569 0.166049
0.723705 0.0900282 0.186816
0.73637 0.0993668 0.202594
0.745037 0.103593 0.216068
0.754406 0.107912 0.231632
0.763806 0.112032 0.248478
0.767269 0.109346 0.262287
0.765911 0.101762 0.27483
0.772 0.103441 0.295018
0.778408 0.106584 0.31664
0.784695 0.111055 0.340414
0.79115 0.117571 0.366659
0.795117 0.122164 0.396017
0.79321 0.119768 0.428092
0.790722 0.116411 0.455558
0.78706 0.112459 0.479789
0.783688 0.109133 0.501503
0.780941 0.10692 0.520714
0.77673 0.104372 0.540871
0.773907 0.102693 0.549996
0.772869 0.102113 0.553033
0.772839 0.102098 0.553201
0.772824 0.102098 0.553384
0.0289464 0.0476081 0.0418097
0.0289006 0.0479133 0.0420844
0.0289006 0.0479133 0.0422675
0.0283207 0.0465858 0.0386969
0.0280919 0.0466926 0.038056
0.0280308 0.0462654 0.0379339
