bundles/resolve-cinematic-luts/Phantom Luts/Apple Log Phantom LUTS/iPhone 15 Phantom ARRI LUTs/65x/Tungsten_Legacy Iphone15_65x.cube
TITLE "Generated by Resolve"
LUT_3D_SIZE 9
0.0266728 0.026276 0.0320745
0.0267185 0.0260166 0.0314946
0.1337 0.0345312 0.0442054
0.337026 0.0384985 0.0670329
0.569116 0.0560159 0.122957
0.742245 0.102235 0.211597
0.773175 0.103822 0.299199
0.786297 0.111681 0.482933
0.76701 0.0987259 0.568826
0.0267185 0.0260319 0.0315557
0.0266423 0.0265507 0.0326696
0.0637522 0.0349279 0.0354314
0.277211 0.0323491 0.044419
0.543648 0.0271763 0.0755169
0.694835 0.0648508 0.154589
0.764019 0.101808 0.267796
0.789334 0.114855 0.464561
0.77116 0.101091 0.557641
0.028748 0.0885023 0.0649577
0.0265354 0.0819867 0.0475929
0.0752728 0.0750439 0.0438849
0.236301 0.0700542 0.0521706
0.521996 0.026215 0.0690929
0.665736 0.0472572 0.112276
0.764324 0.111955 0.249882
0.791913 0.118074 0.442603
0.775738 0.104158 0.547906
0.00393683 0.214954 0.100572
0 0.221042 0.030045
0.0040589 0.201862 0.0319371
0.250828 0.216754 0.0328374
0.572045 0.199237 0.113237
0.68069 0.0646677 0.117433
0.686702 0.059266 0.143557
0.791577 0.117952 0.367864
0.784024 0.109545 0.506142
0 0.397971 0.118074
0 0.412589 0.0744945
0 0.422278 0
0 0.408698 0
0.500496 0.433509 0.00660716
0.866575 0.450263 0.212146
0.881941 0.334874 0.237919
0.664652 0.046952 0.110018
0.771389 0.112444 0.269963
0 0.666209 0.334386
0 0.672847 0.317662
0 0.679744 0.300084
0.0146334 0.70016 0.238621
0.0938582 0.691615 0.051606
0.77586 0.707591 0.140719
0.942901 0.732738 0.261112
0.930159 0.704158 0.245731
0.92604 0.692454 0.241321
0.116121 0.804578 0.612299
0.114321 0.803891 0.607065
0.110094 0.802121 0.59469
0.0979171 0.796689 0.556786
0.0710613 0.783093 0.405264
0.347143 0.775647 0.0789349
0.945724 0.857267 0.310384
0.967041 0.863539 0.328389
0.969223 0.866545 0.335714
0.18851 0.830472 0.782025
0.187625 0.830167 0.780285
0.184115 0.828687 0.773388
0.17557 0.824933 0.756649
0.154711 0.816556 0.712902
0.108797 0.806394 0.469917
0.791135 0.847517 0.336782
0.967361 0.889006 0.442237
0.966064 0.890257 0.457053
0.204898 0.837629 0.813169
0.203784 0.837125 0.811109
0.202274 0.8365 0.80824
0.196399 0.833875 0.797116
0.176089 0.825162 0.757656
0.1402 0.826108 0.552392
0.804395 0.86627 0.469627
0.966003 0.903212 0.544549
0.965957 0.90312 0.544076
0.0266728 0.0262913 0.0321202
0.0266728 0.0262455 0.0320287
0.146883 0.0369573 0.0990005
0.36141 0.0447852 0.131914
0.600519 0.0720226 0.175235
0.765164 0.113283 0.250294
0.782391 0.10901 0.330846
0.784161 0.109606 0.502388
0.76289 0.0963302 0.578363
0.0267185 0.0271305 0.0329442
0.0266423 0.0265202 0.0326238
0.125856 0.0347295 0.0446937
0.333516 0.0405585 0.0700694
0.570397 0.0577554 0.126558
0.741909 0.102083 0.211307
0.773648 0.104189 0.299748
0.786755 0.112139 0.485512
0.767391 0.0991379 0.569329
0.0257877 0.105089 0.0969711
0.0261997 0.102312 0.0724346
0.0758831 0.0921035 0.0449226
0.267781 0.0594949 0.0495766
0.541192 0.0272068 0.0749523
0.709117 0.0768139 0.17084
0.765911 0.101976 0.274083
0.789975 0.115419 0.467094
0.771786 0.101808 0.559243
0.00573739 0.217975 0.145327
0.0028687 0.220676 0.0946975
0 0.224582 0.0286564
0.25507 0.222034 0.0317998
0.582971 0.187289 0.116396
0.676707 0.0592203 0.115557
0.737285 0.0991836 0.204822
0.795224 0.122042 0.399588
0.782208 0.108095 0.519509
0 0.391775 0.160861
0 0.401953 0.118044
0 0.413443 0.0787366
0 0.422309 0
0.499962 0.432746 0.00631724
0.868177 0.44686 0.214099
0.880461 0.331456 0.237415
0.687404 0.0612345 0.141085
0.770642 0.103502 0.288731
0 0.664973 0.360433
0 0.669566 0.342153
0 0.674495 0.324117
0.0021973 0.692485 0.272709
0.0921798 0.69041 0.051133
0.775067 0.705837 0.140185
0.942016 0.730709 0.260029
0.929183 0.701671 0.244663
0.924987 0.689265 0.240131
0.120272 0.806073 0.624155
0.11841 0.805371 0.618967
0.114305 0.8038 0.607141
0.102464 0.798871 0.571221
0.072755 0.785199 0.423987
0.324971 0.780453 0.0982223
0.946517 0.860471 0.318105
0.970459 0.867384 0.338293
0.971435 0.869612 0.343725
0.189715 0.831006 0.784298
0.188815 0.830671 0.782589
0.185046 0.829053 0.775235
0.176501 0.82536 0.75848
0.155795 0.816968 0.715297
0.109041 0.807538 0.480278
0.7794 0.845426 0.341146
0.966766 0.889616 0.448539
0.965637 0.890669 0.461936
0.205997 0.838071 0.815274
0.2047 0.837552 0.812772
0.203098 0.836851 0.809796
0.197543 0.834363 0.799344
0.178195 0.826093 0.761791
0.130465 0.821576 0.56672
0.781476 0.863951 0.472557
0.966613 0.905013 0.554147
0.966522 0.904784 0.552895
0.0218051 0.0283665 0.067216
0.0712596 0.0272679 0.104677
0.149905 0.0328374 0.134371
0.350622 0.0426184 0.180362
0.608057 0.0642557 0.202121
0.765286 0.104341 0.266087
0.78851 0.114336 0.35491
0.782162 0.107973 0.515724
0.758618 0.0934768 0.585275
0.0272221 0.0482948 0.0600443
0.0205081 0.0312505 0.0825513
0.135332 0.03093 0.128191
0.352789 0.0445869 0.127932
0.593988 0.0704051 0.164904
0.758236 0.109758 0.238315
0.780529 0.107836 0.323033
0.784451 0.10988 0.500343
0.762936 0.0962997 0.577813
0.0234379 0.110246 0.114244
0.0242618 0.105669 0.11014
0.0676127 0.0886397 0.0948348
0.270848 0.0710918 0.0933547
0.574594 0.0660563 0.145083
0.740536 0.101442 0.20911
0.773068 0.103944 0.29778
0.787274 0.112657 0.484031
0.767437 0.0992294 0.569696
0.00668345 0.218067 0.173587
0.00543221 0.219303 0.141833
0.00344854 0.219425 0.0991989
0.244373 0.221317 0.0770428
0.579858 0.184955 0.139055
0.678492 0.0571298 0.124575
0.755062 0.108248 0.232822
0.794125 0.120714 0.425666
0.779629 0.106554 0.534493
0 0.388632 0.194339
0 0.395575 0.153048
0 0.403113 0.115068
0 0.41706 0
0.493996 0.427268 0.00746166
0.865278 0.439841 0.214694
0.879896 0.324147 0.241337
0.721645 0.0862135 0.185046
0.778347 0.106615 0.315587
0 0.665049 0.379324
0 0.669215 0.362371
0 0.672129 0.343023
0 0.685313 0.291905
0.080827 0.683207 0.0493477
0.771435 0.701442 0.136889
0.940871 0.727214 0.259083
0.929442 0.697047 0.247471
0.931243 0.68603 0.255024
0.123445 0.807126 0.633265
0.121584 0.80647 0.627985
0.11783 0.805127 0.617288
0.106172 0.800519 0.582589
0.0738231 0.78558 0.437903
0.304891 0.783795 0.11632
0.945174 0.862486 0.322866
0.97232 0.870207 0.345846
0.973877 0.87274 0.351995
0.191165 0.831617 0.787137
0.190005 0.831174 0.784909
0.18616 0.829587 0.777356
0.177584 0.825849 0.760586
0.156878 0.817365 0.717723
0.10901 0.808606 0.490211
0.7673 0.843381 0.344259
0.966293 0.890105 0.454139
0.965362 0.891157 0.466819
0.207385 0.838697 0.817838
0.206287 0.838224 0.815824
0.204669 0.837552 0.812726
0.199298 0.835142 0.802655
0.181292 0.827436 0.767865
0.129458 0.820325 0.581491
0.756588 0.862821 0.47985
0.967529 0.907256 0.565652
0.967437 0.90695 0.56408
0 0.0246433 0.211337
0.081529 0.0175479 0.277455
0.203372 0.012253 0.280217
0.330861 0.0172274 0.275776
0.598703 0.0680858 0.293462
0.78027 0.107637 0.322087
0.794781 0.121584 0.416602
0.775448 0.10396 0.548684
0.748653 0.0868238 0.599054
0.0105135 0.0782788 0.165667
0 0.0275883 0.229999
0.110414 0.0139773 0.291341
0.318074 0.017731 0.266041
0.602991 0.0652476 0.254353
0.771527 0.103532 0.291783
0.794263 0.120836 0.384009
0.778851 0.105852 0.534859
0.751965 0.0890669 0.594675
0.0083772 0.137819 0.173175
0.00448615 0.114488 0.197177
0.0261845 0.0854658 0.205844
0.255818 0.0547646 0.218891
0.593378 0.0633707 0.244816
0.766217 0.104204 0.269551
0.789441 0.115267 0.358007
0.781674 0.107698 0.520424
0.755688 0.0914778 0.589364
0.00578317 0.220447 0.221103
0.00595102 0.218936 0.218769
0.00637827 0.215885 0.214801
0.230564 0.235355 0.234699
0.608576 0.217533 0.254292
0.768322 0.132784 0.234699
0.770871 0.103426 0.289372
0.788373 0.113771 0.477363
0.768978 0.100282 0.567605
0 0.387167 0.273014
0 0.390631 0.248371
0 0.390768 0.219394
0 0.394263 0.131746
0.484916 0.445411 0.156481
0.904341 0.463828 0.323964
0.923491 0.355077 0.330114
0.769146 0.109499 0.267689
0.795651 0.12256 0.391089
0 0.667094 0.423804
0 0.670695 0.411826
0 0.671656 0.395697
0 0.67274 0.34139
0.00828565 0.679088 0.155871
0.769711 0.703243 0.172168
0.959915 0.731685 0.317403
0.958572 0.702998 0.328893
0.965255 0.690715 0.353536
0.130999 0.809598 0.65362
0.129458 0.809003 0.649714
0.126009 0.807843 0.640497
0.116289 0.804562 0.612863
0.0784314 0.786847 0.480247
0.263462 0.791455 0.174746
0.940826 0.867933 0.337484
0.976989 0.878019 0.369009
0.97731 0.88043 0.378149
0.195254 0.833432 0.794903
0.193988 0.832868 0.792538
0.189975 0.831174 0.784817
0.181918 0.827741 0.769116
0.161395 0.819074 0.72752
0.110048 0.81146 0.518547
0.742458 0.841825 0.368002
0.96463 0.892576 0.477791
0.964599 0.89427 0.491585
0.211841 0.840635 0.826093
0.210605 0.840101 0.823819
0.209018 0.839414 0.82089
0.203967 0.837217 0.81146
0.187961 0.830243 0.780957
0.132143 0.819181 0.616876
0.728313 0.866529 0.511223
0.969329 0.913268 0.595026
0.969207 0.912612 0.592416
0 0.028687 0.420157
0 0.0342565 0.483009
0.123125 0.0316167 0.511833
0.362158 0.0220035 0.501701
0.580499 0.0324712 0.478141
0.78436 0.109819 0.503151
0.775631 0.104036 0.548028
0.746242 0.0851911 0.602594
0.743191 0.087129 0.631739
0 0.0789502 0.36585
0 0.0280461 0.412039
0 0.0293889 0.435065
0.309865 0.0224613 0.505684
0.569162 0.03122 0.469429
0.787076 0.112444 0.486
0.779171 0.106065 0.534356
0.748791 0.0868696 0.599222
0.743191 0.0862593 0.627771
0 0.133455 0.35433
0 0.0941939 0.390326
0 0.0687572 0.396048
0.205478 0.0233768 0.444511
0.520287 0.0271611 0.429465
0.788952 0.114351 0.475303
0.781659 0.10779 0.521798
0.752697 0.0896162 0.594858
0.743236 0.085481 0.623835
0 0.240787 0.334737
0 0.226612 0.354025
0 0.212329 0.369894
0.128695 0.220264 0.424506
0.530587 0.141588 0.454932
0.809125 0.144152 0.406561
0.787167 0.11252 0.486061
0.763104 0.0963607 0.57789
0.741375 0.082475 0.61265
0 0.399802 0.396094
0 0.400778 0.396353
0 0.398413 0.392905
0 0.391073 0.383139
0.475288 0.479713 0.468803
0.963958 0.516777 0.536156
0.964034 0.396674 0.50428
0.790524 0.116274 0.45922
0.773281 0.102602 0.554864
0.0237125 0.670359 0.531197
0.0246738 0.674968 0.528923
0.0240177 0.677241 0.523827
0.0158999 0.675593 0.495766
0 0.65565 0.377005
0.746517 0.71487 0.376287
0.998123 0.759747 0.507744
1 0.742 0.532708
1 0.738582 0.574716
0.147295 0.813962 0.696132
0.146502 0.813581 0.694331
0.144183 0.812833 0.688716
0.138857 0.811475 0.674968
0.109682 0.80209 0.593149
0.24831 0.80415 0.372198
0.917082 0.876493 0.414466
0.974594 0.883101 0.46424
0.973846 0.884657 0.484825
0.206149 0.838193 0.815534
0.205158 0.837797 0.813611
0.201602 0.836271 0.806973
0.194965 0.833356 0.794354
0.176638 0.825513 0.758679
0.118868 0.813581 0.590875
0.702205 0.853559 0.464332
0.967132 0.906218 0.560388
0.968231 0.909346 0.576074
0.220218 0.84477 0.841093
0.219287 0.844221 0.839521
0.217975 0.84358 0.837186
0.214954 0.842084 0.831785
0.20325 0.836912 0.810101
0.149676 0.821912 0.688792
0.721706 0.887572 0.611826
0.978424 0.930663 0.672206
0.977981 0.92961 0.667994
0 0.101305 0.587579
0 0.0758984 0.576394
0 0.0583963 0.569772
0.165927 0.0514382 0.656962
0.540825 0.0494698 0.684901
0.739849 0.0911421 0.65565
0.737041 0.0942702 0.672938
0.73022 0.099794 0.703334
0.724376 0.104112 0.725399
0 0.180529 0.619638
0 0.151141 0.617365
0 0.131838 0.605875
0.11249 0.0968948 0.657465
0.494102 0.0462959 0.675013
0.740597 0.0894179 0.646967
0.73817 0.0931716 0.666712
0.730495 0.0996719 0.702495
0.724758 0.103807 0.72398
0 0.22359 0.627665
0 0.19794 0.632456
0 0.188022 0.630777
0.0886854 0.154345 0.665904
0.489189 0.0784772 0.697871
0.723674 0.0768597 0.618891
0.738918 0.0924086 0.662333
0.731136 0.0991989 0.699931
0.724895 0.103777 0.723674
0 0.317739 0.633539
0 0.302083 0.645151
0 0.288212 0.650462
0.0234531 0.267002 0.651591
0.456748 0.189181 0.739162
0.774182 0.135973 0.672267
0.741039 0.0897231 0.647578
0.732662 0.0978103 0.692927
0.725948 0.103197 0.720394
0.017319 0.499321 0.623362
0.017731 0.497124 0.631846
0.0177005 0.493065 0.637354
0.0171359 0.48191 0.650813
0.371069 0.506828 0.72047
0.812894 0.367224 0.729717
0.908232 0.305715 0.741787
0.766629 0.112795 0.659785
0.734051 0.0968795 0.687373
0.0896468 0.695293 0.69369
0.0926833 0.699153 0.697307
0.0928511 0.69955 0.697307
0.0907912 0.697292 0.694484
0.0656596 0.667094 0.658869
0.752819 0.759701 0.747509
1 0.786465 0.804395
1 0.730846 0.80882
1 0.688472 0.818067
0.189395 0.830976 0.783658
0.189532 0.830991 0.783902
0.18764 0.830121 0.780316
0.183597 0.828458 0.772381
0.165423 0.820783 0.735927
0.307912 0.829526 0.640909
0.930556 0.913314 0.703975
0.998795 0.918151 0.746365
0.998032 0.920867 0.766735
0.225238 0.847349 0.849928
0.224842 0.847181 0.849241
0.223041 0.846235 0.846113
0.219776 0.844572 0.84036
0.212253 0.840955 0.826825
0.163775 0.82446 0.724651
0.747311 0.914275 0.716854
0.98471 0.949645 0.752377
0.98471 0.952087 0.762142
0.233112 0.851545 0.86363
0.233036 0.851484 0.863493
0.232456 0.851102 0.862547
0.231006 0.85037 0.859983
0.22623 0.847852 0.851698
0.181903 0.828885 0.764035
0.77116 0.93518 0.803647
0.985763 0.96318 0.809857
0.985611 0.962036 0.804562
0.0469825 0.415106 0.762142
0.0449226 0.407156 0.760098
0.0412451 0.393286 0.756176
0.148257 0.414008 0.840208
0.447639 0.376135 0.950744
0.797391 0.255009 0.865431
0.804547 0.188617 0.798978
0.723003 0.104891 0.729671
0.723629 0.104692 0.728176
0.0550088 0.444724 0.76939
0.0542 0.441672 0.768795
0.0473945 0.420172 0.76173
0.134203 0.444175 0.832761
0.440436 0.419348 0.955169
0.801053 0.284108 0.879545
0.837278 0.223102 0.824262
0.722713 0.105226 0.731014
0.723629 0.104707 0.728222
0.0599832 0.462272 0.773449
0.0588388 0.458427 0.77258
0.0507515 0.434516 0.764263
0.121386 0.458473 0.823255
0.427802 0.442252 0.953597
0.798184 0.299535 0.884504
0.853941 0.241474 0.836225
0.722332 0.105608 0.732708
0.723354 0.104875 0.729107
0.0740215 0.510582 0.782864
0.0718547 0.503578 0.781598
0.0698863 0.496605 0.780407
0.0876631 0.49041 0.795041
0.409598 0.510521 0.943008
0.79147 0.345464 0.895232
0.885008 0.28806 0.861616
0.784161 0.169024 0.785794
0.728817 0.112291 0.738689
0.104753 0.615885 0.789624
0.105638 0.612467 0.793484
0.104829 0.607614 0.79472
0.0909743 0.582956 0.781674
0.344137 0.634089 0.892164
0.781369 0.502419 0.938003
0.911345 0.413855 0.884337
0.901045 0.334783 0.880949
0.891997 0.305119 0.874388
0.162951 0.74757 0.810468
0.165484 0.750057 0.813657
0.165331 0.749157 0.81413
0.164416 0.7458 0.815137
0.145769 0.722103 0.795911
0.724819 0.79292 0.939925
0.962646 0.694469 0.922515
0.950973 0.643732 0.913878
0.945602 0.627543 0.920501
0.231632 0.850752 0.861097
0.232136 0.851011 0.861997
0.231434 0.850614 0.860731
0.230365 0.850065 0.858854
0.227481 0.848569 0.853864
0.436927 0.863905 0.862119
0.934905 0.940963 0.933486
0.995468 0.935668 0.938506
0.994507 0.932219 0.945556
0.233173 0.851606 0.863737
0.233204 0.851637 0.863783
0.233066 0.851514 0.863554
0.233036 0.851484 0.863493
0.233204 0.851637 0.863783
0.237324 0.853208 0.841047
0.825757 0.96202 0.926482
0.990768 0.986572 0.931487
0.990951 0.987228 0.935332
0.233204 0.851621 0.863783
0.233188 0.851606 0.863737
0.233097 0.85153 0.8636
0.233112 0.851545 0.86363
0.233127 0.85156 0.863661
0.227588 0.849714 0.849378
0.822141 0.961089 0.943496
0.991775 0.988617 0.947005
0.991409 0.988251 0.942901
0.129992 0.669505 0.804562
0.12987 0.669841 0.80351
0.160937 0.683665 0.826535
0.270512 0.710033 0.875395
0.508125 0.736736 0.933333
0.80972 0.643076 0.988785
0.930861 0.555367 0.919692
0.922621 0.499077 0.909834
0.922942 0.502541 0.910613
0.133196 0.677378 0.805356
0.133074 0.678096 0.804623
0.150484 0.686091 0.817151
0.26157 0.716884 0.872358
0.507195 0.745495 0.931945
0.8112 0.662852 0.99443
0.933806 0.572564 0.923476
0.924926 0.516533 0.912749
0.925261 0.519936 0.91339
0.13463 0.681086 0.805554
0.134951 0.682002 0.805554
0.140398 0.684123 0.80885
0.25095 0.718318 0.86865
0.500313 0.748302 0.929671
0.808911 0.672267 0.998215
0.934585 0.578714 0.924514
0.925612 0.524285 0.913924
0.926513 0.526696 0.914931
0.13817 0.690578 0.805631
0.140383 0.693324 0.808103
0.13872 0.691218 0.806241
0.225162 0.723461 0.859419
0.486625 0.757549 0.924437
0.805676 0.701442 1
0.939223 0.601968 0.929107
0.930831 0.555108 0.919646
0.932036 0.562249 0.921401
0.149355 0.715709 0.808911
0.149813 0.717327 0.808576
0.151843 0.719203 0.811292
0.154391 0.719829 0.812573
0.442634 0.782605 0.91342
0.795529 0.777707 1
0.952926 0.67155 0.944503
0.945388 0.63389 0.935836
0.946288 0.638407 0.937011
0.196796 0.793408 0.841581
0.198001 0.795316 0.842359
0.194842 0.790219 0.840253
0.185962 0.777707 0.8327
0.266468 0.809659 0.878569
0.746273 0.857954 0.969772
0.970596 0.802838 0.970138
0.973541 0.777279 0.966796
0.973465 0.779263 0.967376
0.233234 0.851652 0.863844
0.233219 0.851652 0.863813
0.233143 0.85156 0.863661
0.233112 0.851545 0.863615
0.22829 0.846067 0.858442
0.535027 0.901411 0.924392
0.930053 0.954284 0.98291
0.988128 0.937896 0.985122
0.988037 0.938384 0.985641
0.233204 0.851621 0.863767
0.233219 0.851652 0.863813
0.233188 0.851621 0.863767
0.233112 0.851545 0.86363
0.233234 0.851652 0.863828
0.30602 0.878599 0.887343
0.861479 0.975586 0.981582
0.992889 0.992691 0.992264
0.992844 0.992798 0.992447
0.233219 0.851637 0.863798
0.233234 0.851667 0.863844
0.233173 0.851606 0.863737
0.233127 0.85156 0.863645
0.233143 0.851575 0.863676
0.284733 0.873442 0.881682
0.843122 0.972152 0.978927
0.992874 0.99266 0.992248
0.992844 0.992813 0.992477
0.256626 0.792447 0.873518
0.293843 0.798901 0.883864
0.326406 0.802808 0.890288
0.41474 0.815457 0.909239
0.605982 0.832792 0.945647
0.829755 0.837797 1
0.970657 0.755795 0.963546
0.960266 0.706905 0.95172
0.953674 0.674571 0.945052
0.25066 0.792782 0.87126
0.287282 0.800076 0.882918
0.319539 0.804044 0.889372
0.408347 0.816602 0.908156
0.603479 0.834928 0.945464
0.829358 0.84155 0.999466
0.971298 0.760449 0.964645
0.961395 0.712978 0.953674
0.954681 0.681437 0.946426
0.246204 0.793088 0.869535
0.281041 0.800748 0.881575
0.313252 0.804776 0.888228
0.401495 0.817182 0.906752
0.598917 0.836362 0.944488
0.82623 0.844968 0.996857
0.972335 0.765179 0.96582
0.962615 0.719142 0.95491
0.9561 0.687953 0.947906
0.234989 0.793332 0.864256
0.266667 0.802258 0.878035
0.29659 0.806943 0.885618
0.383505 0.818509 0.903212
0.588739 0.840497 0.943069
0.821775 0.852094 0.989487
0.973587 0.777234 0.967178
0.966064 0.734615 0.958328
0.960204 0.70782 0.952575
0.200992 0.78706 0.842939
0.232105 0.801984 0.862745
0.256138 0.810849 0.874968
0.331563 0.822934 0.893736
0.553292 0.85098 0.936522
0.813642 0.870878 0.975692
0.976944 0.812436 0.971359
0.973816 0.77821 0.96698
0.971435 0.760128 0.964614
0.209354 0.815183 0.847959
0.210132 0.816144 0.848661
0.209018 0.815045 0.847272
0.235416 0.826123 0.861494
0.414038 0.859937 0.907958
0.785229 0.905409 0.973877
0.971786 0.888533 0.980133
0.982269 0.867674 0.977813
0.981384 0.860044 0.97731
0.233356 0.851774 0.864042
0.23331 0.851728 0.863966
0.233051 0.851514 0.863493
0.232029 0.851484 0.861143
0.257053 0.862776 0.870329
0.626398 0.926177 0.940871
0.939223 0.972747 0.985351
0.990463 0.964477 0.988342
0.990112 0.963134 0.988998
0.233417 0.85182 0.864164
0.233326 0.851743 0.863996
0.233219 0.851637 0.863798
0.233234 0.851652 0.863813
0.233371 0.85182 0.864027
0.432624 0.895109 0.904814
0.881971 0.978988 0.983398
0.992889 0.992691 0.992264
0.992752 0.993057 0.99292
0.233417 0.85182 0.864164
0.23331 0.851713 0.863966
0.233234 0.851652 0.863828
0.233356 0.851759 0.864042
0.233417 0.85182 0.864164
0.361471 0.885679 0.894942
0.861814 0.975692 0.981659
0.992813 0.992874 0.992599
0.992737 0.993072 0.992935
