bundles/resolve-cinematic-luts/Phantom Luts/Apple Log Phantom LUTS/iPhone 15 Phantom ARRI LUTs/65x/Tungsten_Legacy Iphone15_65x.cube
TITLE "Generated by Resolve"
LUT_3D_SIZE 5
0.0266728 0.026276 0.0320745
0.1337 0.0345312 0.0442054
0.569116 0.0560159 0.122957
0.773175 0.103822 0.299199
0.76701 0.0987259 0.568826
0.028748 0.0885023 0.0649577
0.0752728 0.0750439 0.0438849
0.521996 0.026215 0.0690929
0.764324 0.111955 0.249882
0.775738 0.104158 0.547906
0 0.397971 0.118074
0 0.422278 0
0.500496 0.433509 0.00660716
0.881941 0.334874 0.237919
0.771389 0.112444 0.269963
0.116121 0.804578 0.612299
0.110094 0.802121 0.59469
0.0710613 0.783093 0.405264
0.945724 0.857267 0.310384
0.969223 0.866545 0.335714
0.204898 0.837629 0.813169
0.202274 0.8365 0.80824
0.176089 0.825162 0.757656
0.804395 0.86627 0.469627
0.965957 0.90312 0.544076
0.0218051 0.0283665 0.067216
0.149905 0.0328374 0.134371
0.608057 0.0642557 0.202121
0.78851 0.114336 0.35491
0.758618 0.0934768 0.585275
0.0234379 0.110246 0.114244
0.0676127 0.0886397 0.0948348
0.574594 0.0660563 0.145083
0.773068 0.103944 0.29778
0.767437 0.0992294 0.569696
0 0.388632 0.194339
0 0.403113 0.115068
0.493996 0.427268 0.00746166
0.879896 0.324147 0.241337
0.778347 0.106615 0.315587
0.123445 0.807126 0.633265
0.11783 0.805127 0.617288
0.0738231 0.78558 0.437903
0.945174 0.862486 0.322866
0.973877 0.87274 0.351995
0.207385 0.838697 0.817838
0.204669 0.837552 0.812726
0.181292 0.827436 0.767865
0.756588 0.862821 0.47985
0.967437 0.90695 0.56408
0 0.028687 0.420157
0.123125 0.0316167 0.511833
0.580499 0.0324712 0.478141
0.775631 0.104036 0.548028
0.743191 0.087129 0.631739
0 0.133455 0.35433
0 0.0687572 0.396048
0.520287 0.0271611 0.429465
0.781659 0.10779 0.521798
0.743236 0.085481 0.623835
0 0.399802 0.396094
0 0.398413 0.392905
0.475288 0.479713 0.468803
0.964034 0.396674 0.50428
0.773281 0.102602 0.554864
0.147295 0.813962 0.696132
0.144183 0.812833 0.688716
0.109682 0.80209 0.593149
0.917082 0.876493 0.414466
0.973846 0.884657 0.484825
0.220218 0.84477 0.841093
0.217975 0.84358 0.837186
0.20325 0.836912 0.810101
0.721706 0.887572 0.611826
0.977981 0.92961 0.667994
0.0469825 0.415106 0.762142
0.0412451 0.393286 0.756176
0.447639 0.376135 0.950744
0.804547 0.188617 0.798978
0.723629 0.104692 0.728176
0.0599832 0.462272 0.773449
0.0507515 0.434516 0.764263
0.427802 0.442252 0.953597
0.853941 0.241474 0.836225
0.723354 0.104875 0.729107
0.104753 0.615885 0.789624
0.104829 0.607614 0.79472
0.344137 0.634089 0.892164
0.911345 0.413855 0.884337
0.891997 0.305119 0.874388
0.231632 0.850752 0.861097
0.231434 0.850614 0.860731
0.227481 0.848569 0.853864
0.934905 0.940963 0.933486
0.994507 0.932219 0.945556
0.233204 0.851621 0.863783
0.233097 0.85153 0.8636
0.233127 0.85156 0.863661
0.822141 0.961089 0.943496
0.991409 0.988251 0.942901
0.256626 0.792447 0.873518
0.326406 0.802808 0.890288
0.605982 0.832792 0.945647
0.970657 0.755795 0.963546
0.953674 0.674571 0.945052
0.246204 0.793088 0.869535
0.313252 0.804776 0.888228
0.598917 0.836362 0.944488
0.972335 0.765179 0.96582
0.9561 0.687953 0.947906
0.200992 0.78706 0.842939
0.256138 0.810849 0.874968
0.553292 0.85098 0.936522
0.976944 0.812436 0.971359
0.971435 0.760128 0.964614
0.233356 0.851774 0.864042
0.233051 0.851514 0.863493
0.257053 0.862776 0.870329
0.939223 0.972747 0.985351
0.990112 0.963134 0.988998
0.233417 0.85182 0.864164
0.233234 0.851652 0.863828
0.233417 0.85182 0.864164
0.861814 0.975692 0.981659
0.992737 0.993072 0.992935
