bundles/resolve-cinematic-luts/Phantom Luts/Apple Log Phantom LUTS/iPhone 15 Phantom ARRI LUTs/65x/Utopia_Legacy Iphone15_65x.cube
TITLE "Generated by Resolve"
LUT_3D_SIZE 65
0.0120241 0.037583 0.0469215
0.0120241 0.037583 0.0469215
0.0120241 0.037583 0.0469215
0.0120241 0.037583 0.0469215
0.0120241 0.037583 0.0469215
0.0120241 0.037583 0.0469215
0.0120241 0.037583 0.0469215
0.0120241 0.0375677 0.0469062
0.0120241 0.0375525 0.046891
0.0123751 0.0375677 0.0468605
0.0185092 0.0377966 0.0467994
0.0298314 0.0385595 0.0484932
0.0472725 0.0377508 0.0489357
0.0652628 0.0382239 0.0484932
0.0848096 0.0378576 0.0471046
0.104524 0.0371405 0.0453651
0.125185 0.0361944 0.0437934
0.146517 0.0342718 0.0413367
0.168856 0.032639 0.0390478
0.191546 0.0310063 0.0367742
0.215778 0.0296483 0.0347906
0.239963 0.0278172 0.0324254
0.264988 0.0265354 0.0306554
0.289967 0.0249027 0.0285191
0.315114 0.0234684 0.0264439
0.341527 0.0222019 0.0251774
0.367941 0.0209201 0.0244755
0.395041 0.0202945 0.0247196
0.421912 0.019501 0.0251774
0.449256 0.0193637 0.0272831
0.475395 0.021088 0.0326238
0.50164 0.0239261 0.0402533
0.527459 0.0269627 0.0475776
0.553475 0.0301366 0.0553445
0.580224 0.0338903 0.063859
0.608469 0.0381628 0.0729686
0.636896 0.0424964 0.0822461
0.666056 0.0477607 0.0927138
0.695994 0.0542306 0.104707
0.723751 0.0611276 0.117052
0.742092 0.0676127 0.128481
0.748531 0.0715648 0.137835
0.753841 0.0735943 0.146014
0.759915 0.0762036 0.156115
0.765942 0.0784924 0.167269
0.772869 0.0815595 0.180545
0.779095 0.0841993 0.194308
0.783795 0.082475 0.206104
0.783841 0.0727855 0.214328
0.787411 0.0724193 0.23032
0.791241 0.0738689 0.248066
0.795285 0.0768292 0.268559
0.798077 0.080705 0.290211
0.799954 0.0870985 0.315099
0.800702 0.0943618 0.34136
0.800336 0.099321 0.371908
0.796628 0.0986343 0.404257
0.793713 0.0973373 0.433692
0.789715 0.0951705 0.459525
0.786694 0.0932631 0.482933
0.784283 0.0919966 0.505699
0.780758 0.0900282 0.530159
0.776623 0.0861677 0.551583
0.776333 0.0846418 0.558206
0.777722 0.0841077 0.559106
0.0120241 0.0375219 0.0468452
0.0120241 0.0375525 0.0468757
0.0120241 0.0375677 0.0469062
0.0120241 0.037583 0.0469215
0.0120241 0.037583 0.0469368
0.0120241 0.0375982 0.0469368
0.0120241 0.037583 0.0469215
0.0120241 0.0375677 0.0469062
0.0120241 0.0375525 0.046891
0.0120241 0.0375372 0.0468605
0.0143435 0.0375219 0.0466163
0.0212406 0.0379492 0.047013
0.0320134 0.0385138 0.0488746
0.0489204 0.0377966 0.0488136
0.0678721 0.0380713 0.0479286
0.0883803 0.0380407 0.0466011
0.109194 0.0371862 0.0446784
0.13138 0.0358129 0.0426337
0.15433 0.0338445 0.0399786
0.178882 0.0321355 0.0374609
0.204608 0.0299229 0.0342565
0.23212 0.0281834 0.0323949
0.258808 0.0265354 0.030457
0.284474 0.0246128 0.0278477
0.310979 0.0232853 0.0256962
0.337438 0.0215152 0.0235294
0.365087 0.019852 0.0217441
0.392691 0.0181888 0.020264
0.420371 0.0163729 0.0190585
0.447715 0.0153353 0.0187686
0.472419 0.0144503 0.0189364
0.496208 0.0139315 0.0197757
0.519997 0.0144808 0.0221714
0.543313 0.0153964 0.0259251
0.568109 0.0179294 0.0329595
0.595453 0.0220798 0.0432898
0.624186 0.0268406 0.055314
0.654078 0.032517 0.0684672
0.684138 0.0387427 0.0813764
0.712077 0.0457313 0.0951705
0.731441 0.0552682 0.110262
0.73991 0.0644083 0.124178
0.747829 0.0711223 0.136629
0.754116 0.0736248 0.146334
0.760998 0.0765545 0.157733
0.768032 0.0792401 0.170764
0.775433 0.0827344 0.185473
0.781231 0.0832685 0.198932
0.784421 0.0787518 0.21004
0.785855 0.0717632 0.222492
0.790326 0.0734417 0.24126
0.794034 0.0756695 0.261463
0.797574 0.0793927 0.284016
0.799741 0.0852522 0.308156
0.800473 0.092607 0.335317
0.801221 0.0994583 0.364828
0.797269 0.0987564 0.399283
0.794217 0.0975662 0.430076
0.790143 0.0954299 0.456367
0.786938 0.09337 0.481117
0.784482 0.0920729 0.503517
0.781018 0.0901808 0.52871
0.776898 0.0863966 0.550179
0.776852 0.0852064 0.555978
0.77821 0.0846571 0.556954
0.0120241 0.0375219 0.0468452
0.0120241 0.0375525 0.0468757
0.0120241 0.0375677 0.0469062
0.0120241 0.037583 0.0469215
0.0120241 0.0375982 0.0469368
0.0120241 0.0375982 0.046952
0.0120241 0.0375982 0.046952
0.0120241 0.0375982 0.0469368
0.0120241 0.037583 0.0469215
0.0120241 0.0375677 0.046891
0.0128634 0.0375982 0.0468452
0.0175479 0.0376593 0.0466773
0.0246738 0.0382849 0.0475013
0.0372778 0.0382849 0.0493629
0.0546731 0.0383307 0.0485237
0.0732586 0.0384375 0.0476692
0.0928817 0.0386358 0.0465248
0.112261 0.037705 0.0445563
0.133577 0.0362402 0.0423438
0.157214 0.0342565 0.0396735
0.183429 0.0324102 0.0370794
0.210315 0.0302586 0.0340429
0.238239 0.0278477 0.030869
0.267735 0.0258946 0.0282597
0.29723 0.0241093 0.0255741
0.327977 0.0220798 0.0228428
0.35993 0.0202029 0.021561
0.389136 0.018265 0.0202335
0.417151 0.0164492 0.0189975
0.445563 0.0151827 0.0184329
0.470802 0.0140993 0.018204
0.494972 0.0133516 0.0185397
0.518883 0.013489 0.0204166
0.542306 0.0135653 0.0225071
0.566201 0.013901 0.0252842
0.590875 0.0152132 0.0297856
0.617166 0.0178836 0.037995
0.645624 0.0227817 0.0504158
0.675776 0.029221 0.0654307
0.703761 0.0363165 0.0801099
0.722988 0.0455482 0.0959182
0.732845 0.0564431 0.112261
0.741665 0.0658885 0.127016
0.750057 0.0721752 0.140032
0.756741 0.0748913 0.151003
0.763821 0.0778058 0.163531
0.771542 0.0809949 0.178241
0.778302 0.0832227 0.192721
0.784024 0.0823835 0.20705
0.784451 0.0721752 0.216312
0.788952 0.0728771 0.235523
0.792996 0.0748913 0.255787
0.797284 0.078584 0.278401
0.79968 0.0838636 0.303197
0.800565 0.0912032 0.329976
0.801541 0.0989242 0.360189
0.797818 0.0988022 0.395117
0.794644 0.0977188 0.426032
0.790631 0.0956283 0.453712
0.787427 0.0935531 0.478386
0.784649 0.0921035 0.501823
0.78143 0.0903792 0.526757
0.77731 0.086717 0.548318
0.777264 0.0855879 0.553796
0.778637 0.0850538 0.554589
0.0120241 0.0375219 0.0468452
0.0120241 0.0375525 0.046891
0.0120241 0.0375677 0.0469062
0.0120241 0.037583 0.0469368
0.0120241 0.0375982 0.046952
0.0120241 0.0376135 0.046952
0.0120241 0.0376135 0.046952
0.0120241 0.0375982 0.046952
0.0120241 0.037583 0.0469215
0.0120241 0.0375677 0.0469062
0.0122988 0.0375677 0.0468757
0.0153658 0.0375067 0.0465248
0.0209049 0.0379339 0.0469825
0.0296788 0.0385748 0.0483864
0.0453498 0.0383154 0.049073
0.0624857 0.0393378 0.0487373
0.0800946 0.0395819 0.0477455
0.0975662 0.0393225 0.0460365
0.117006 0.0387427 0.0445106
0.13875 0.0368658 0.0419165
0.163638 0.0350347 0.0393072
0.190723 0.0327001 0.0361791
0.220111 0.030396 0.0331579
0.250462 0.0276646 0.0297093
0.281086 0.0252842 0.0267948
0.315648 0.0232242 0.0240635
0.350179 0.0208133 0.0214237
0.383093 0.0185397 0.0200046
0.413901 0.0166171 0.0190738
0.442969 0.0152285 0.0184024
0.468879 0.0140993 0.0180819
0.493477 0.0132753 0.018265
0.517632 0.013138 0.0196689
0.541024 0.0129091 0.0211948
0.565133 0.0132601 0.0236362
0.58967 0.0134585 0.0264439
0.614755 0.0142519 0.0304112
0.64062 0.0168765 0.037995
0.668894 0.0216373 0.0513313
0.696071 0.0285801 0.0669718
0.715816 0.0381323 0.0842908
0.72578 0.0488746 0.101091
0.735927 0.0604257 0.118105
0.745998 0.0704814 0.134554
0.75285 0.0733501 0.144991
0.760403 0.076585 0.157519
0.768139 0.0795453 0.171695
0.77615 0.0831159 0.187579
0.781964 0.0820325 0.201862
0.785031 0.0760052 0.214405
0.787778 0.0724041 0.230442
0.792081 0.0741131 0.250568
0.796674 0.0776837 0.273777
0.799222 0.0825818 0.298314
0.800534 0.0897383 0.325353
0.801343 0.0974899 0.355947
0.798474 0.0988479 0.390387
0.795071 0.0977951 0.422858
0.791287 0.0958114 0.45069
0.787854 0.0936751 0.476356
0.78497 0.0921187 0.500282
0.781979 0.0905318 0.52488
0.777966 0.087068 0.546609
0.777707 0.0857862 0.552209
0.778988 0.0852674 0.553201
0.0120241 0.0375219 0.0468452
0.0120241 0.0375525 0.046891
0.0120241 0.0375677 0.0469062
0.0120241 0.0375982 0.0469368
0.0120241 0.0375982 0.046952
0.0120241 0.0376135 0.0469673
0.0120241 0.0376135 0.0469673
0.0120241 0.0376135 0.046952
0.0120241 0.0375982 0.0469368
0.0120241 0.0375677 0.0469062
0.0120851 0.0375525 0.0468757
0.0139925 0.0375677 0.0467079
0.0182803 0.0377508 0.0467231
0.0251316 0.0384527 0.0475624
0.0375219 0.0389258 0.0492866
0.0535286 0.0398718 0.0492561
0.0694743 0.0404974 0.0486152
0.0861219 0.0410468 0.0476234
0.103532 0.0407263 0.0459602
0.12369 0.0395514 0.0439002
0.147021 0.0377661 0.0415503
0.17319 0.0355688 0.0385901
0.201434 0.0331426 0.0354314
0.232563 0.0301061 0.0318151
0.269047 0.0269169 0.0281529
0.303777 0.0244144 0.0250095
0.337728 0.0219577 0.0222934
0.37229 0.0191501 0.0197147
0.40798 0.0172122 0.0189059
0.440772 0.0152895 0.0184329
0.466957 0.0141146 0.0180209
0.491905 0.0134127 0.0183413
0.516289 0.0131075 0.0195163
0.539879 0.012726 0.0207675
0.564248 0.0128328 0.0226902
0.588296 0.0125582 0.0246433
0.613687 0.013138 0.0278477
0.639551 0.0155642 0.0329137
0.665461 0.0189975 0.0415198
0.691188 0.0236057 0.055848
0.709239 0.0312352 0.0727398
0.720058 0.0420691 0.090837
0.731212 0.0542916 0.109194
0.740856 0.0645457 0.125414
0.75021 0.0720836 0.140078
0.757641 0.0750286 0.152041
0.765743 0.0781415 0.16611
0.774685 0.0819409 0.18262
0.781094 0.081651 0.197116
0.785733 0.0784009 0.21149
0.787488 0.0717479 0.225193
0.792004 0.0733654 0.246448
0.796323 0.0767681 0.26949
0.798993 0.0814374 0.294041
0.800519 0.0884871 0.321508
0.801251 0.0962539 0.351644
0.799054 0.0988937 0.386481
0.79559 0.0978561 0.419303
0.791959 0.095964 0.448081
0.788281 0.0937667 0.474479
0.785458 0.0921645 0.497963
0.782528 0.0905623 0.523064
0.778698 0.0873121 0.544961
0.778286 0.0859693 0.550652
0.779522 0.0854658 0.551629
0.0120241 0.0375372 0.0468605
0.0120241 0.0375525 0.046891
0.0120241 0.0375677 0.0469062
0.0120241 0.0375982 0.0469368
0.0120241 0.0376135 0.046952
0.0120241 0.0376135 0.0469673
0.0120241 0.0376135 0.0469673
0.0120241 0.0376135 0.0469673
0.0120241 0.0375982 0.0469368
0.0120241 0.0375677 0.0469062
0.0120394 0.0375525 0.0468757
0.013138 0.037583 0.0467994
0.0165866 0.0375525 0.0465248
0.0223239 0.0382849 0.0471199
0.0316777 0.0397345 0.0487373
0.0466163 0.0403143 0.0497139
0.0606699 0.0413672 0.0491798
0.0764324 0.0422065 0.0486458
0.0927596 0.0422675 0.0471656
0.111696 0.0420386 0.0456703
0.133776 0.0404822 0.0434119
0.158846 0.0384985 0.0408942
0.186313 0.0358129 0.0375525
0.218372 0.0326238 0.0337072
0.252918 0.0296483 0.0303655
0.289891 0.0262608 0.0264744
0.326345 0.02327 0.0231632
0.362264 0.0207523 0.0209964
0.398352 0.017792 0.0186465
0.433799 0.0148013 0.0161898
0.464149 0.0136416 0.0168002
0.49073 0.0135195 0.0183871
0.515023 0.0130922 0.0194247
0.53901 0.0127108 0.0206912
0.56347 0.0127413 0.022446
0.587503 0.0121157 0.0238651
0.612406 0.0123598 0.0261234
0.638041 0.0143587 0.030457
0.664103 0.0177005 0.0367895
0.687816 0.0215 0.0467842
0.703868 0.0267185 0.0623941
0.714229 0.0358434 0.0806134
0.725551 0.0477302 0.0993668
0.736187 0.059678 0.117449
0.746883 0.0704204 0.135103
0.75491 0.0738079 0.147326
0.763333 0.0773327 0.161685
0.772091 0.0806134 0.177478
0.779828 0.0818647 0.193515
0.785916 0.0808728 0.209171
0.787152 0.0712139 0.221164
0.792111 0.0730144 0.242756
0.796017 0.0758984 0.265187
0.798978 0.0804608 0.290425
0.800961 0.0875257 0.317617
0.80145 0.0954604 0.348486
0.799619 0.0989242 0.382269
0.796002 0.0979477 0.416098
0.792386 0.0961318 0.44593
0.788739 0.0939345 0.471916
0.785794 0.0922103 0.496239
0.783047 0.0906691 0.520912
0.779416 0.0875715 0.543359
0.778897 0.0861524 0.549142
0.780118 0.0856641 0.550088
0.0120241 0.0375372 0.0468605
0.0120241 0.0375525 0.046891
0.0120241 0.037583 0.0469215
0.0120241 0.0375982 0.0469368
0.0120241 0.0376135 0.046952
0.0120241 0.0376135 0.0469673
0.0120394 0.0376287 0.0469825
0.0120394 0.0376287 0.0469825
0.0120241 0.0376135 0.0469673
0.0120241 0.0375982 0.046952
0.0120241 0.037583 0.0469215
0.012604 0.0375982 0.0468757
0.0150607 0.0375219 0.0465705
0.0198672 0.0382391 0.0469673
0.0275273 0.0398718 0.0479744
0.0399786 0.0410468 0.0497749
0.0538338 0.0423743 0.0496681
0.0686351 0.0432441 0.0493782
0.0843214 0.0435798 0.0481117
0.102708 0.0438544 0.046891
0.123522 0.0428168 0.0449073
0.147707 0.0410315 0.042649
0.174823 0.0382086 0.0392157
0.206302 0.0352483 0.0358129
0.241321 0.031632 0.0318303
0.278157 0.0278782 0.0277867
0.316335 0.0243992 0.024033
0.354437 0.0216373 0.0214542
0.390082 0.0186618 0.0191958
0.425483 0.0157015 0.016968
0.460044 0.0140536 0.0171359
0.489448 0.0137179 0.0185855
0.514092 0.0131075 0.019379
0.537987 0.0127108 0.0206149
0.562493 0.0127413 0.0223697
0.586709 0.0120699 0.0236667
0.611582 0.0121004 0.0253758
0.636881 0.0138399 0.0286107
0.663035 0.0170443 0.0342718
0.686137 0.0203555 0.0417029
0.699351 0.0240787 0.0534218
0.70779 0.029572 0.0696422
0.719646 0.0414282 0.0897536
0.731395 0.0541848 0.109194
0.742199 0.0654765 0.127382
0.751949 0.0725567 0.142824
0.760479 0.076112 0.156664
0.769711 0.0795758 0.172839
0.778271 0.0822003 0.189532
0.784985 0.0811475 0.205707
0.787091 0.0721447 0.218112
0.791806 0.0725414 0.238605
0.79588 0.0751659 0.261677
0.799039 0.0794232 0.286488
0.801236 0.0865187 0.314137
0.801373 0.0942702 0.344457
0.800259 0.09897 0.37818
0.796384 0.0980545 0.413062
0.792859 0.0963912 0.442863
0.789029 0.0941024 0.469932
0.785992 0.0923323 0.494392
0.783383 0.0908217 0.519173
0.779904 0.0878462 0.541848
0.779385 0.0864576 0.547814
0.780652 0.0859388 0.548638
0.0120241 0.0375372 0.0468605
0.0120241 0.0375677 0.046891
0.0120241 0.037583 0.0469215
0.0120241 0.0375982 0.0469368
0.0120241 0.0376135 0.046952
0.0120394 0.0376135 0.0469673
0.0120394 0.0376287 0.0469825
0.0120394 0.0376287 0.0469825
0.0120241 0.0376135 0.0469673
0.0120241 0.0376135 0.046952
0.0120241 0.037583 0.0469215
0.0122835 0.037583 0.046891
0.014023 0.037583 0.0467079
0.0181277 0.0381628 0.046891
0.0243381 0.0399329 0.0476387
0.0341802 0.0417945 0.0488136
0.0486763 0.0431983 0.0502785
0.0619669 0.0443275 0.0499123
0.0775921 0.04477 0.0488136
0.0955062 0.0453956 0.0479438
0.115663 0.0448157 0.0461585
0.139757 0.0429084 0.0438544
0.167315 0.0396735 0.0404669
0.198581 0.0367437 0.0369726
0.232105 0.0330968 0.0328985
0.269276 0.02916 0.0288243
0.308049 0.0256657 0.0250248
0.347066 0.0223392 0.0217746
0.384756 0.019028 0.0193332
0.420676 0.0161135 0.0172274
0.454566 0.0141146 0.0161898
0.48571 0.0134432 0.0175479
0.512764 0.0132143 0.0194095
0.536782 0.0127718 0.0205997
0.561624 0.0127413 0.0222782
0.585992 0.0120699 0.0236057
0.611185 0.0120546 0.0251621
0.636439 0.0138247 0.0276646
0.662211 0.0167849 0.032578
0.684153 0.0194553 0.038468
0.695674 0.0224002 0.0463569
0.703334 0.0265049 0.0605783
0.714015 0.0354314 0.0798047
0.726513 0.0487678 0.100999
0.738338 0.0614023 0.120684
0.749233 0.0715953 0.138811
0.757916 0.0750744 0.152377
0.766949 0.0785077 0.168017
0.776684 0.0822919 0.185992
0.783185 0.0802777 0.201297
0.787701 0.0750744 0.216342
0.791394 0.0720378 0.234897
0.795682 0.074403 0.257603
0.799451 0.0786603 0.283009
0.801572 0.0853132 0.310292
0.801678 0.0930648 0.340307
0.800961 0.09897 0.374258
0.796887 0.0981613 0.409232
0.793347 0.0965744 0.440375
0.78938 0.094316 0.467369
0.786267 0.0924849 0.492103
0.783734 0.0909743 0.516854
0.780407 0.0882582 0.539544
0.779736 0.0867475 0.546426
0.780972 0.0862287 0.547417
0.0120241 0.0375372 0.0468605
0.0120241 0.0375677 0.046891
0.0120241 0.037583 0.0469215
0.0120241 0.0375982 0.046952
0.0120241 0.0376135 0.0469673
0.0120241 0.0376287 0.0469825
0.0120394 0.0376287 0.0469825
0.0120394 0.0376287 0.0469825
0.0120394 0.0376287 0.0469825
0.0120241 0.0376135 0.0469673
0.0120241 0.037583 0.0469368
0.0120851 0.0375677 0.0469215
0.0132906 0.0376287 0.0468147
0.016846 0.0380865 0.0468299
0.0224002 0.039826 0.0474556
0.0303349 0.0420844 0.0483711
0.0434424 0.0439307 0.0505837
0.0568399 0.0452125 0.050248
0.072343 0.0459297 0.0493935
0.0897993 0.0466926 0.0486305
0.10988 0.0460517 0.0469062
0.133715 0.0440986 0.0447242
0.16083 0.0409857 0.0414282
0.191867 0.0380865 0.0380255
0.225055 0.0344244 0.0339666
0.262394 0.0302739 0.0296025
0.300649 0.0270085 0.0260624
0.34052 0.0231174 0.0223697
0.379065 0.0194095 0.0193332
0.416602 0.0163729 0.0172732
0.451682 0.0146181 0.0166781
0.483558 0.0136721 0.0178073
0.511467 0.0133516 0.0195773
0.53611 0.0128328 0.0207065
0.561273 0.0126955 0.0222171
0.586404 0.0119173 0.0234379
0.612284 0.0116579 0.0247654
0.638148 0.0132753 0.0269322
0.663798 0.0160678 0.0307012
0.684749 0.0185397 0.0356603
0.694408 0.0205386 0.0415808
0.699687 0.0241855 0.0523842
0.708782 0.0304723 0.0708019
0.721691 0.0438392 0.0932174
0.733791 0.0567483 0.113512
0.745739 0.068986 0.13341
0.755276 0.0740673 0.148257
0.764431 0.0777295 0.164019
0.774624 0.0818647 0.182193
0.781704 0.0804303 0.197757
0.787427 0.0771801 0.21445
0.790463 0.0717327 0.230915
0.795163 0.0738842 0.254185
0.799588 0.078172 0.279896
0.80174 0.084184 0.306691
0.801953 0.092195 0.337285
0.801678 0.0990005 0.369635
0.797284 0.0982223 0.406378
0.793759 0.0968032 0.437659
0.789563 0.0945449 0.465003
0.786236 0.0926986 0.490105
0.783581 0.0912795 0.514519
0.779934 0.0888075 0.537453
0.778744 0.0874495 0.544549
0.779217 0.0872206 0.545022
0.0120089 0.0374762 0.0467994
0.0120089 0.0374914 0.0468147
0.0120089 0.0375067 0.0468147
0.0120089 0.0375067 0.0468299
0.0120241 0.0375219 0.0468452
0.0120241 0.0375219 0.0468452
0.0120241 0.0375372 0.0468605
0.0120241 0.0375372 0.0468605
0.0120241 0.0375372 0.0468605
0.0120241 0.0375219 0.0468452
0.0120241 0.0375219 0.0468452
0.0120394 0.0375067 0.0468299
0.0128328 0.0375982 0.0468147
0.0155337 0.0380102 0.0467994
0.0205997 0.0398108 0.0474708
0.0276799 0.0420691 0.0482338
0.0386206 0.0448615 0.0500649
0.0527504 0.0458839 0.050721
0.0678264 0.046952 0.0500496
0.0855268 0.0476081 0.049073
0.104982 0.0469062 0.047425
0.12842 0.0452125 0.0453803
0.155093 0.0422065 0.0422065
0.185962 0.0392462 0.0389105
0.21857 0.0356298 0.0347906
0.253986 0.0317082 0.0306554
0.293172 0.0280919 0.0269474
0.332616 0.0241093 0.0231022
0.373068 0.0200046 0.0197147
0.412222 0.0167086 0.0172732
0.448859 0.0146181 0.0164034
0.480522 0.0132296 0.0165103
0.509117 0.0128481 0.0181888
0.535012 0.0128634 0.020676
0.560555 0.012726 0.0222171
0.585855 0.0119173 0.0233768
0.611658 0.0116579 0.0247349
0.63772 0.0132448 0.0269169
0.66334 0.0159915 0.0302434
0.683925 0.0184176 0.0339361
0.692805 0.0196078 0.038941
0.696864 0.0227207 0.0472267
0.704936 0.0278782 0.0628672
0.716731 0.0384527 0.0846113
0.729747 0.0525521 0.106645
0.741711 0.064622 0.126757
0.752773 0.0729839 0.144488
0.762448 0.0770428 0.160357
0.77229 0.0808423 0.178134
0.780591 0.0809033 0.19501
0.786969 0.0792706 0.211994
0.789609 0.071458 0.227573
0.79472 0.0733806 0.251102
0.799344 0.0773327 0.276204
0.801816 0.0831769 0.303639
0.802502 0.0910964 0.333059
0.80235 0.0987259 0.366659
0.798016 0.0981918 0.403067
0.794461 0.0968948 0.434867
0.78999 0.0946517 0.463096
0.786542 0.0928206 0.488045
0.783902 0.0913863 0.512474
0.780377 0.0891432 0.535393
0.77911 0.0876936 0.54316
0.779568 0.0874647 0.543694
0.0120089 0.0374762 0.0467994
0.0120089 0.0374914 0.0468147
0.0120241 0.0375067 0.0468147
0.0120089 0.0375067 0.0468299
0.0120241 0.0375219 0.0468452
0.0120241 0.0375219 0.0468452
0.0120241 0.0375372 0.0468605
0.0120241 0.0375372 0.0468605
0.0120241 0.0375372 0.0468605
0.0120241 0.0375372 0.0468605
0.0120241 0.0375219 0.0468452
0.0120241 0.0375219 0.0468452
0.0124819 0.0376135 0.0468452
0.0146792 0.0380102 0.0468299
0.0192264 0.0398413 0.0475776
0.0257115 0.0423133 0.0484932
0.0353857 0.0453193 0.0498512
0.049134 0.0465248 0.0512398
0.0643168 0.0479133 0.0505226
0.0816815 0.0483711 0.0495918
0.101213 0.0476234 0.0479286
0.124117 0.0462196 0.0459449
0.150484 0.0432746 0.0430457
0.180865 0.0403296 0.0396582
0.213428 0.0366522 0.0355383
0.249104 0.0327611 0.0314336
0.287922 0.0289769 0.0275425
0.327886 0.0248875 0.0235904
0.368582 0.020737 0.0201419
0.407874 0.0174411 0.0178073
0.445029 0.0146181 0.0159609
0.478111 0.0133516 0.0165713
0.507576 0.0129091 0.018204
0.534295 0.0129091 0.020676
0.559853 0.0127565 0.0221866
0.585275 0.0119173 0.023331
0.611292 0.0115663 0.0246433
0.637736 0.0131075 0.0267948
0.66389 0.0157473 0.0299077
0.684398 0.0180362 0.0327916
0.693004 0.0192416 0.0368505
0.695293 0.0210117 0.0430457
0.701595 0.0255283 0.0552224
0.711986 0.0332952 0.0762646
0.72607 0.0484169 0.100328
0.738659 0.0614939 0.121447
0.750729 0.072282 0.14136
0.760159 0.0760662 0.156435
0.770397 0.0800031 0.174365
0.779248 0.0813764 0.192081
0.786526 0.0807965 0.210071
0.7888 0.0712444 0.224186
0.794049 0.0729381 0.247196
0.799069 0.0767376 0.273091
0.801709 0.0821698 0.300023
0.802945 0.0903639 0.330068
0.802594 0.0977188 0.363607
0.798795 0.0981613 0.400015
0.794995 0.0968948 0.432883
0.790539 0.0947738 0.460746
0.786969 0.0928817 0.486305
0.784253 0.0914626 0.510369
0.780743 0.0893873 0.53373
0.779385 0.0879225 0.542016
0.779889 0.0877089 0.542367
0.0120089 0.0374762 0.0467994
0.0120089 0.0374914 0.0468147
0.0120241 0.0375067 0.0468147
0.0120241 0.0375067 0.0468299
0.0120241 0.0375219 0.0468452
0.0120241 0.0375219 0.0468452
0.0120241 0.0375372 0.0468605
0.0120241 0.0375372 0.0468605
0.0120241 0.0375372 0.0468605
0.0120241 0.0375372 0.0468605
0.0120241 0.0375219 0.0468452
0.0120241 0.0375219 0.0468452
0.0122835 0.0375982 0.0468605
0.0138705 0.037995 0.0469215
0.0182498 0.039826 0.0476234
0.0242313 0.0425269 0.0487831
0.0326238 0.0456092 0.0500954
0.045304 0.0475319 0.0513313
0.0608682 0.0486915 0.0511025
0.0784466 0.0490272 0.0499428
0.0974746 0.0483253 0.0484169
0.119997 0.0471656 0.0466163
0.146639 0.0442206 0.0436408
0.176608 0.0412146 0.0402838
0.209247 0.0375372 0.0362554
0.244892 0.033753 0.0322271
0.282185 0.0299992 0.0282597
0.322316 0.0258488 0.0242771
0.363165 0.0215152 0.0206455
0.403967 0.0179141 0.0180667
0.441886 0.0147707 0.0159304
0.475837 0.0133059 0.0162966
0.506416 0.0129854 0.0182345
0.533562 0.0129854 0.0206912
0.559091 0.0128023 0.0222019
0.584588 0.0119631 0.0233616
0.610758 0.0115053 0.0245518
0.637613 0.0130617 0.0267491
0.663798 0.0156405 0.0297856
0.684245 0.0179141 0.0324254
0.69247 0.0192264 0.0351415
0.693812 0.0198367 0.0400549
0.698741 0.0238804 0.0502937
0.708492 0.0306706 0.0692302
0.721996 0.0441291 0.093492
0.735271 0.0580911 0.115801
0.748196 0.0706951 0.137362
0.758114 0.0752575 0.153094
0.768261 0.0791485 0.17052
0.778073 0.0818647 0.189349
0.785138 0.0802014 0.20705
0.788113 0.0716411 0.221469
0.793545 0.072755 0.244755
0.798444 0.0761273 0.269642
0.801602 0.0813764 0.297017
0.803128 0.0894484 0.327108
0.802701 0.0966964 0.360357
0.799405 0.098085 0.397467
0.795666 0.0968948 0.429969
0.791135 0.0948348 0.458762
0.787518 0.0929122 0.484382
0.784604 0.0914931 0.508827
0.781155 0.0895857 0.532082
0.779721 0.0881819 0.540673
0.780179 0.087953 0.541222
0.0120241 0.0377813 0.0469215
0.0120241 0.0377661 0.0469215
0.0120699 0.037705 0.046891
0.0120241 0.037644 0.046891
0.0120241 0.0375982 0.0468757
0.0120241 0.0375677 0.0468605
0.0120241 0.0375525 0.0468605
0.0120241 0.0375372 0.0468605
0.0120241 0.0375372 0.0468605
0.0120241 0.0375372 0.0468605
0.0120241 0.0375372 0.0468605
0.0121309 0.0376287 0.0468757
0.0124819 0.0377966 0.0469978
0.0140383 0.0384527 0.0471656
0.0181735 0.0403449 0.0479286
0.0236057 0.0429541 0.0491188
0.0312352 0.0462348 0.0506447
0.0427253 0.048661 0.0511177
0.05832 0.0495155 0.0514229
0.0754864 0.049897 0.0504311
0.0943465 0.0490578 0.0488594
0.116609 0.048127 0.0471504
0.142519 0.0453193 0.0442817
0.17293 0.0421149 0.0409552
0.205097 0.0385138 0.0368963
0.240238 0.0348211 0.0329442
0.277958 0.0307469 0.0287938
0.31696 0.0267033 0.0249638
0.358572 0.0223392 0.0212558
0.400122 0.0184024 0.0184024
0.439292 0.0149233 0.0159609
0.473304 0.013138 0.01561
0.503746 0.0125124 0.0170291
0.531762 0.0128023 0.019791
0.558282 0.0128328 0.0221866
0.583978 0.0119783 0.023331
0.610452 0.011429 0.0244602
0.637385 0.0130007 0.026688
0.6636 0.0155184 0.0296483
0.684535 0.0178225 0.0322728
0.69221 0.0191501 0.0340276
0.692821 0.019379 0.0378424
0.696513 0.0222782 0.046128
0.704753 0.0281834 0.0616312
0.7178 0.0393988 0.0861982
0.731685 0.0542611 0.109606
0.744701 0.067216 0.131441
0.755856 0.0743114 0.149462
0.766003 0.0782635 0.166796
0.776822 0.0822766 0.186679
0.783551 0.0795148 0.203006
0.788159 0.0738231 0.219669
0.79295 0.0726482 0.241169
0.797879 0.0755779 0.266438
0.801328 0.0806134 0.29398
0.803113 0.0882582 0.323507
