bundles/resolve-cinematic-luts/Phantom Luts/Apple Log Phantom LUTS/iPhone 15 Phantom ARRI LUTs/65x/Utopia_Legacy Iphone15_65x.cube
TITLE "Generated by Resolve"
LUT_3D_SIZE 9
0.0120241 0.037583 0.0469215
0.0120241 0.0375525 0.046891
0.125185 0.0361944 0.0437934
0.315114 0.0234684 0.0264439
0.527459 0.0269627 0.0475776
0.742092 0.0676127 0.128481
0.783841 0.0727855 0.214328
0.796628 0.0986343 0.404257
0.777722 0.0841077 0.559106
0.0120241 0.0375372 0.0468605
0.0120394 0.0376287 0.0469825
0.0434424 0.0439307 0.0505837
0.225055 0.0344244 0.0339666
0.511467 0.0133516 0.0195773
0.694408 0.0205386 0.0415808
0.774624 0.0818647 0.182193
0.801678 0.0990005 0.369635
0.779217 0.0872206 0.545022
6.10361e-05 0.0822309 0.0515297
0.0121767 0.0622721 0.0503395
0.0462348 0.070634 0.0492103
0.201221 0.0614328 0.0481575
0.487083 0.0133822 0.0162814
0.694621 0.0184024 0.0329595
0.753811 0.0732891 0.146181
0.803326 0.0915694 0.336721
0.786908 0.087892 0.533364
0 0.239033 0.0446479
0 0.241566 0
0 0.218921 0.000213626
0.222644 0.221378 0.0446021
0.532479 0.187427 0.0961013
0.705837 0.0708476 0.0624399
0.6925 0.0190127 0.0335241
0.794812 0.0724804 0.245014
0.795071 0.0902571 0.485725
0 0.510079 0.0909133
0 0.53518 0.0253452
0 0.541482 0
0 0.516289 0
0.50576 0.474067 0.0564736
0.816098 0.451713 0.179812
0.888563 0.347875 0.20557
0.736126 0.054612 0.0559243
0.796613 0.0729076 0.242542
0 0.827131 0.352438
0 0.843336 0.316793
0.00175479 0.858885 0.286229
0.0548409 0.892546 0.112505
0.131456 0.889265 0
0.799954 0.753521 0.134569
0.962905 0.74287 0.188113
0.947585 0.701595 0.187823
0.933394 0.622461 0.202152
0 0.973739 0.627619
0.000549325 0.977523 0.606271
0.00466926 0.979904 0.585946
0.0119783 0.990219 0.528954
0.0797742 0.999969 0.295109
0.472328 0.995071 0.0484169
0.991699 0.933516 0.21326
0.999969 0.924971 0.23917
0.999969 0.916091 0.234607
0.00706493 0.92665 0.803738
0.00224308 0.929366 0.795239
0.00332647 0.931044 0.785092
0.00267033 0.935271 0.765682
0 0.952499 0.711192
0.0501106 0.999969 0.446647
0.860395 0.97229 0.371435
0.999969 0.957198 0.438682
0.999969 0.95848 0.451148
0.0170748 0.913725 0.873487
0.0154574 0.914366 0.871962
0.0151217 0.91487 0.868696
0.015671 0.916091 0.858457
0.0113985 0.922194 0.825544
0 0.968734 0.662776
0.754757 0.999969 0.554437
0.999969 0.970993 0.601038
0.999969 0.970748 0.597513
0.0120241 0.0376135 0.046952
0.0123445 0.0376135 0.0469368
0.145739 0.0360571 0.113832
0.349004 0.0324254 0.118654
0.569406 0.052491 0.130434
0.778653 0.080705 0.182696
0.798581 0.0731518 0.25716
0.797925 0.0953841 0.438392
0.780056 0.0785534 0.574212
0.0120241 0.0375982 0.046952
0.0120394 0.037644 0.0469978
0.120531 0.0368811 0.0449989
0.314244 0.0295872 0.0381781
0.536461 0.0371252 0.0665904
0.749416 0.0702831 0.135378
0.789609 0.0700236 0.216419
0.799802 0.0972152 0.409491
0.780545 0.0829328 0.561151
0 0.104402 0.0977188
0 0.106508 0.053193
0.0670634 0.0890822 0.0486915
0.249256 0.0518196 0.0392309
0.510277 0.0122683 0.0167544
0.714427 0.0293889 0.0709239
0.783764 0.0832837 0.194842
0.804974 0.0974441 0.376608
0.783825 0.0853132 0.548623
0 0.236988 0.123537
0 0.247929 0.0455177
0 0.256046 0
0.232044 0.230045 0.0438239
0.549218 0.17467 0.0956436
0.705394 0.0630503 0.0579538
0.708492 0.026688 0.061265
0.803449 0.0775158 0.284489
0.793835 0.0889601 0.504341
0 0.487297 0.148913
0 0.510826 0.0922255
0 0.527733 0.0500801
0 0.521599 0
0.505547 0.47303 0.0562905
0.817685 0.441794 0.18172
0.886717 0.340063 0.203418
0.733532 0.0517586 0.0540932
0.80412 0.0769207 0.28101
0 0.81297 0.38436
0 0.82417 0.349508
0 0.835203 0.319127
0.0330358 0.877424 0.229755
0.122728 0.884657 0
0.795529 0.74815 0.134798
0.961166 0.738109 0.187045
0.945464 0.694636 0.189242
0.932509 0.611887 0.202731
0 0.97113 0.641459
0.00015259 0.974685 0.621942
0.00445563 0.97734 0.601953
0.00979629 0.985519 0.550103
0.0607004 0.999969 0.356725
0.465751 0.998596 0.0728313
0.99176 0.935653 0.231083
0.999969 0.923018 0.263142
0.999969 0.913725 0.265766
0.00730907 0.926223 0.806073
0.00239567 0.928908 0.797421
0.00474556 0.930205 0.787381
0.00292973 0.934585 0.768688
0 0.950652 0.716838
0.0448768 0.999969 0.463508
0.849531 0.976944 0.385351
0.999969 0.958541 0.451331
0.999969 0.959548 0.461784
0.0175479 0.913344 0.875441
0.0158846 0.914015 0.873732
0.0155947 0.914473 0.870893
0.0166629 0.91545 0.861158
0.0119783 0.921309 0.83032
0 0.964553 0.675731
0.738766 0.999969 0.564324
0.999969 0.971633 0.610956
0.999969 0.971374 0.606836
0 0.0406806 0.092607
0.0582132 0.0354772 0.108125
0.142687 0.0333867 0.151965
0.339651 0.0280461 0.175769
0.578088 0.0428779 0.162112
0.789746 0.0774701 0.207446
0.804654 0.0772412 0.285725
0.794949 0.0935531 0.459312
0.777707 0.0750896 0.58349
0.00697337 0.0487831 0.0640879
0 0.041001 0.107805
0.122591 0.0350652 0.136828
0.338796 0.0339208 0.0995346
0.560998 0.0508888 0.111009
0.768475 0.0774548 0.166323
0.796765 0.0717937 0.246113
0.796994 0.0961166 0.434607
0.777874 0.0796368 0.572259
0 0.109056 0.119966
0 0.103792 0.113725
0.0537881 0.0869917 0.0966049
0.252171 0.0616465 0.0739452
0.5402 0.0469215 0.0882582
0.750271 0.0681468 0.131701
0.790051 0.0716564 0.21532
0.801755 0.0967269 0.407065
0.781201 0.0827192 0.56144
0 0.231937 0.165606
0 0.239414 0.114
0 0.244938 0.0548714
0.222492 0.225757 0.0759594
0.544259 0.169589 0.113176
0.703059 0.0608225 0.0665599
0.746395 0.066804 0.129381
0.805722 0.084596 0.313634
0.792111 0.0879988 0.521523
0 0.472694 0.189929
0 0.492164 0.134783
0 0.507408 0.0914931
0 0.520867 0
0.497078 0.464866 0.0558328
0.811673 0.432044 0.182452
0.884016 0.327474 0.204822
0.741238 0.0544442 0.0735637
0.806073 0.0849622 0.315892
0 0.804181 0.407263
0 0.811887 0.373632
0 0.819791 0.343816
0.00859083 0.857114 0.264576
0.114916 0.873594 0
0.79057 0.742275 0.135332
0.958938 0.732403 0.186923
0.943145 0.684367 0.197299
0.934051 0.597482 0.227146
0 0.96846 0.652827
0 0.972381 0.633646
0.00386053 0.975341 0.614771
0.00900282 0.982528 0.565393
0.0486915 0.999969 0.386709
0.447456 0.999969 0.102266
0.991745 0.938979 0.254047
0.999969 0.921202 0.288212
0.999969 0.910262 0.296101
0.00762951 0.92575 0.808804
0.00262455 0.928405 0.799908
0.00209049 0.930419 0.789914
0.00311284 0.934051 0.771054
0 0.949065 0.721721
0.0410315 0.999969 0.47602
0.839048 0.981277 0.396048
0.999969 0.959503 0.461112
0.999969 0.960418 0.470649
0.0181735 0.912825 0.878386
0.0164492 0.913497 0.876616
0.0161593 0.914 0.87332
0.0175479 0.914855 0.864118
0.0126192 0.920363 0.835157
0 0.958755 0.691264
0.718776 0.999969 0.575235
0.999969 0.972229 0.620462
0.999969 0.972 0.61648
0 0.038468 0.255161
0.0946975 0.0234531 0.284947
0.193866 0.015198 0.278538
0.314565 0.0112612 0.272084
0.570245 0.0433967 0.271977
0.803769 0.0754406 0.275334
0.807019 0.0958877 0.359777
0.790997 0.0898756 0.503899
0.772763 0.0666056 0.602853
0 0.076997 0.172274
0 0.0381323 0.271626
0.0783856 0.0244602 0.302754
0.301915 0.0122835 0.262165
0.578363 0.0443885 0.216587
0.796689 0.0704204 0.236118
0.805753 0.0865034 0.321645
0.791745 0.0914473 0.485359
0.772045 0.0707103 0.595071
0 0.134432 0.182116
0 0.109316 0.207111
0 0.0880598 0.224369
0.242145 0.047425 0.22327
0.56733 0.0419471 0.20209
0.791867 0.071931 0.213458
0.80621 0.0781415 0.291295
0.795026 0.0927596 0.465446
0.77409 0.07364 0.587381
0 0.224659 0.230884
0 0.222187 0.22649
0 0.219226 0.222354
0.205554 0.235691 0.240711
0.564828 0.206729 0.219684
0.761608 0.136889 0.191196
0.792767 0.0708782 0.217746
0.803006 0.0971542 0.392782
0.784985 0.0822614 0.560372
0 0.443824 0.287373
0 0.452979 0.254734
0 0.459007 0.2206
0 0.480262 0.122942
0.485557 0.472801 0.194278
0.833829 0.443458 0.294789
0.900984 0.353338 0.294133
0.805875 0.126314 0.196002
0.80293 0.0961318 0.403052
0 0.788586 0.464012
0 0.79147 0.437293
0 0.792798 0.412222
0 0.810758 0.337728
0.0425574 0.855665 0.108751
0.779721 0.738628 0.221149
0.959594 0.720623 0.315206
0.953674 0.67689 0.325567
0.951324 0.601709 0.348775
0 0.961135 0.681773
0 0.965087 0.666087
0.00216678 0.968429 0.649729
0.00643931 0.976242 0.605982
0.0289006 0.999969 0.448402
0.403937 0.999969 0.199207
0.982849 0.938613 0.324727
0.999969 0.917876 0.364767
0.999969 0.904265 0.38233
0.00862135 0.923812 0.819486
0.00404364 0.926482 0.809903
0.00271611 0.928374 0.799863
0.000961318 0.932311 0.781628
0 0.943816 0.736965
0.0358129 0.999969 0.515984
0.816098 0.993622 0.434348
0.999969 0.962615 0.493843
0.999969 0.963317 0.502876
0.0201724 0.911376 0.885847
0.0188907 0.91194 0.883787
0.0177615 0.912642 0.880598
0.016495 0.914015 0.872541
0.0140841 0.918212 0.846204
0 0.949615 0.722148
0.698512 0.999969 0.606165
0.999969 0.973678 0.645121
0.999969 0.973251 0.640726
0 0.0489509 0.485969
0 0.0440833 0.505669
0.102541 0.0335851 0.50808
0.339635 0.0201267 0.484398
0.547845 0.0240482 0.452064
0.794583 0.0911879 0.479957
0.790158 0.0878004 0.524346
0.777005 0.0696269 0.596368
0.777951 0.0643778 0.645258
0 0.0786908 0.377874
0 0.0473793 0.451514
0 0.0454108 0.475532
0.269978 0.0234531 0.496391
0.536522 0.0226749 0.443381
0.794965 0.0923171 0.458427
0.792401 0.0890059 0.5075
0.777218 0.0732433 0.587411
0.773602 0.0650645 0.637064
0 0.128969 0.355901
0 0.0913863 0.40531
0 0.0706798 0.409552
0.1514 0.0277714 0.440497
0.486961 0.0175021 0.403449
0.793973 0.0918593 0.44828
0.794919 0.090135 0.489982
0.780972 0.0769513 0.576959
0.774334 0.0631876 0.631876
0 0.234089 0.333303
0 0.219577 0.345144
0 0.206378 0.357733
0.0613565 0.222263 0.417853
0.509148 0.141939 0.447257
0.794934 0.143328 0.386481
0.79823 0.0932021 0.454368
0.78706 0.0862745 0.537362
0.772198 0.0603494 0.616739
0 0.41767 0.417517
0 0.414069 0.412894
0 0.408896 0.40676
0 0.397955 0.393317
0.459464 0.480308 0.473289
0.869291 0.485267 0.477012
0.924666 0.402365 0.452918
0.825055 0.136767 0.384573
0.78616 0.0846876 0.547539
0 0.749386 0.57351
0 0.749432 0.562005
0 0.748745 0.549828
0 0.752483 0.514427
0 0.769482 0.409461
0.752941 0.737194 0.438865
0.988418 0.732418 0.504067
0.987396 0.701549 0.516854
0.981628 0.629374 0.534325
0 0.944472 0.73756
0.00238041 0.946059 0.728664
0.00383001 0.948837 0.718959
0.00294499 0.955917 0.695033
0.00468452 0.979736 0.585168
0.38201 0.999969 0.456657
0.960327 0.935515 0.47361
0.999969 0.906874 0.513481
0.999969 0.894636 0.525109
0.010193 0.918959 0.848463
0.00738537 0.920989 0.839658
0.00543221 0.923064 0.829938
0.00306706 0.926421 0.81181
0 0.93463 0.77258
0.0247349 0.998276 0.60267
0.777813 0.999969 0.531289
0.999969 0.969436 0.578485
0.999969 0.970047 0.588159
0.0217288 0.909789 0.900191
0.0219883 0.909804 0.8981
0.0207675 0.910201 0.89604
0.0196689 0.910842 0.891035
0.0152132 0.914565 0.871
0 0.936812 0.762646
0.692805 0.999969 0.692424
0.999969 0.977401 0.702983
0.999969 0.976974 0.698192
0 0.0633249 0.639597
0 0.0669261 0.690547
0 0.0638437 0.697185
0.18172 0.0478065 0.703456
0.556939 0.0441596 0.683589
0.774777 0.0632639 0.65182
0.777798 0.0673228 0.67364
0.773846 0.0729686 0.713436
0.769406 0.0776684 0.752438
0 0.140002 0.617777
0 0.10959 0.648035
0 0.0888991 0.63418
0.031754 0.0572976 0.64509
0.464897 0.0352178 0.635401
0.772686 0.06215 0.649485
0.779004 0.0657816 0.665095
0.775601 0.0721294 0.710994
0.76817 0.0780041 0.748058
0 0.186557 0.600534
0 0.158434 0.63386
0 0.149157 0.638514
0 0.109361 0.642939
0.448447 0.0486763 0.641596
0.7234 0.0497902 0.604013
0.779889 0.0647898 0.659937
0.777325 0.0707408 0.705058
0.770275 0.0767071 0.743984
0 0.287846 0.570993
0 0.269612 0.591211
0 0.257496 0.603769
0 0.235554 0.597269
0.411353 0.169665 0.672816
0.751568 0.122011 0.644388
0.780285 0.0648661 0.620111
0.776928 0.0685283 0.681285
0.773693 0.0742962 0.732174
0 0.480034 0.602258
0 0.471687 0.603677
0 0.464378 0.603296
0 0.448127 0.60441
0.304082 0.480461 0.661097
0.767941 0.37319 0.689693
0.896971 0.340307 0.685924
0.821134 0.128832 0.666957
0.779461 0.0680552 0.687694
0 0.724666 0.722942
0 0.719814 0.717464
0 0.713848 0.710948
0 0.705821 0.701427
0 0.669444 0.656199
0.722423 0.731304 0.716243
0.994385 0.73991 0.736675
0.991302 0.67985 0.735225
0.96788 0.563363 0.730083
0.00486763 0.92314 0.82208
0.00833143 0.923079 0.814389
0.0083772 0.924147 0.806943
0.00553903 0.92517 0.795422
0 0.929274 0.753719
0.351553 0.968811 0.70193
0.937545 0.919448 0.702083
0.998199 0.893919 0.720851
0.997726 0.882902 0.736629
0.0177005 0.911025 0.896483
0.0142519 0.912184 0.892515
0.0157168 0.912535 0.885801
0.0155642 0.913985 0.874632
0.00755322 0.919341 0.850248
0.00553903 0.952132 0.755795
0.757763 0.999969 0.71133
0.999969 0.978927 0.736706
0.999969 0.979431 0.741802
0.0242008 0.908705 0.92372
0.0252995 0.908522 0.921202
0.0259251 0.908431 0.918761
0.0241093 0.908888 0.914992
0.0204776 0.90988 0.906569
0.00521859 0.921645 0.839246
0.689891 0.999969 0.815259
0.999619 0.985519 0.799496
0.999741 0.985245 0.795773
0 0.306783 0.765515
0 0.297612 0.769772
0 0.280095 0.760739
0 0.285176 0.801831
0.368582 0.238209 0.847837
0.753796 0.183154 0.818631
0.789563 0.109224 0.779187
0.761669 0.082002 0.765393
0.765759 0.0802777 0.76965
0 0.361471 0.75964
0 0.352987 0.7673
0 0.329122 0.754391
0 0.341283 0.792447
0.34609 0.291859 0.853498
0.753231 0.225605 0.827497
0.824674 0.151644 0.803601
0.764202 0.0809491 0.768872
0.76582 0.0802319 0.769833
0 0.389792 0.758343
0 0.379934 0.764553
0 0.3552 0.751354
0 0.367269 0.781826
0.329458 0.31957 0.852796
0.747921 0.247761 0.82974
0.84184 0.178134 0.810346
0.764889 0.0805982 0.768231
0.76582 0.0802319 0.769833
0 0.452186 0.758022
0 0.440314 0.764569
0 0.43563 0.762493
0 0.422065 0.758282
0.285527 0.392813 0.846799
0.734081 0.305715 0.836515
0.872541 0.24744 0.818173
0.783566 0.10074 0.775753
0.766445 0.0799878 0.770428
0 0.588098 0.783185
0 0.578988 0.783688
0 0.570886 0.782422
0 0.538018 0.760021
0.203616 0.556237 0.790677
0.714153 0.471153 0.876371
0.887282 0.386786 0.824796
0.879591 0.300954 0.822736
0.815915 0.138399 0.804257
0 0.7561 0.845563
0 0.749493 0.842161
0 0.742794 0.83798
0 0.73228 0.83389
0 0.70161 0.806577
0.637369 0.738445 0.881544
0.947112 0.655177 0.881361
0.934813 0.596674 0.867185
0.913237 0.519539 0.853803
0.0191806 0.907866 0.91281
0.0178836 0.906249 0.910231
0.0197604 0.902922 0.90576
0.0163729 0.89749 0.899626
0.00756847 0.890578 0.891646
0.362737 0.865171 0.860075
0.911177 0.911727 0.900114
0.998352 0.902113 0.898848
0.997406 0.884901 0.905089
0.0240635 0.90869 0.928283
0.0232395 0.908858 0.928573
0.0276188 0.907927 0.92668
0.0273289 0.908019 0.925307
0.0204623 0.909636 0.919051
0.025391 0.921096 0.867475
0.755673 0.996384 0.90808
0.995712 0.989975 0.893568
0.995041 0.990234 0.895888
0.0238193 0.908736 0.928374
0.023682 0.908766 0.92842
0.0265049 0.908171 0.927565
0.0263828 0.908202 0.927611
0.0251774 0.908461 0.927855
0.0174563 0.910796 0.910887
0.671092 0.96614 0.921309
0.984207 0.992493 0.911986
0.994232 0.990738 0.911116
0 0.589685 0.812253
0 0.597116 0.818708
0 0.600183 0.81854
0.0826429 0.615 0.827405
0.349935 0.624308 0.867094
0.72755 0.555505 0.940795
0.900496 0.482963 0.885847
0.891661 0.429313 0.874617
0.886366 0.385168 0.869215
0 0.611215 0.819837
0 0.615778 0.825513
0 0.616327 0.823514
0.0762341 0.631205 0.830976
0.346181 0.642603 0.862013
0.727016 0.576501 0.945754
0.902983 0.498833 0.889586
0.893156 0.443229 0.877501
0.887007 0.395758 0.870314
0 0.625559 0.825223
0 0.624964 0.828183
0 0.624643 0.826047
0.0670329 0.637995 0.833021
0.338735 0.649927 0.859388
0.721096 0.585595 0.948318
0.904082 0.504234 0.89102
0.893706 0.447868 0.878172
0.886397 0.394385 0.869841
0 0.649271 0.835431
0 0.645029 0.834379
0 0.645243 0.834409
0.0334783 0.654994 0.840009
0.318822 0.668849 0.854612
0.70782 0.615015 0.955093
0.909697 0.527657 0.896208
0.898589 0.472572 0.883055
0.88835 0.414847 0.872587
0 0.715175 0.857847
0 0.694621 0.85185
0 0.689113 0.846082
0 0.69012 0.848112
0.279667 0.706844 0.857206
0.674281 0.69102 0.963455
0.922362 0.599878 0.913161
0.913848 0.550347 0.900496
0.90312 0.497444 0.889555
0 0.809476 0.896864
0 0.80354 0.894286
0 0.797787 0.890883
0 0.771847 0.876509
0.0912337 0.779248 0.886763
0.624292 0.796735 0.925658
0.93753 0.750301 0.961776
0.955032 0.709346 0.943832
0.944228 0.675731 0.934615
0.0230869 0.908507 0.928481
0.0227207 0.908263 0.928496
0.024979 0.906813 0.927367
0.0242771 0.902541 0.925841
0.00943008 0.87805 0.915846
0.430106 0.872984 0.925444
0.877272 0.923339 0.97818
0.992676 0.895125 0.982574
0.989441 0.882383 0.981979
0.0238651 0.908736 0.928344
0.0229801 0.908904 0.928695
0.0242161 0.90866 0.928222
0.0268559 0.908095 0.927443
0.0230259 0.908888 0.928679
0.0991684 0.918563 0.930373
0.777874 0.970733 0.982696
0.993149 0.991241 0.990494
0.992477 0.991379 0.990967
0.0238346 0.908736 0.928344
0.0227054 0.908949 0.928801
0.0247349 0.908553 0.928023
0.0263981 0.908202 0.927611
0.0251316 0.908476 0.927855
0.0225071 0.911299 0.926528
0.690608 0.954879 0.970977
0.977462 0.991836 0.991501
0.992477 0.991379 0.990967
0.0786603 0.778912 0.886961
0.156405 0.77818 0.886213
0.201007 0.777676 0.885527
0.29926 0.780087 0.889342
0.502129 0.794415 0.902449
0.744747 0.813077 0.965118
0.96379 0.762661 0.961471
0.959319 0.721859 0.947433
0.945296 0.677028 0.934508
0.080827 0.785946 0.889937
0.153719 0.785107 0.889891
0.19826 0.783429 0.88806
0.296834 0.784833 0.891325
0.502464 0.798169 0.903914
0.745327 0.818158 0.963287
0.964416 0.766979 0.962936
0.959976 0.727596 0.949508
0.947021 0.68365 0.93637
0.076463 0.789303 0.891432
0.146853 0.788388 0.891569
0.19086 0.785794 0.888884
0.289525 0.786114 0.891295
0.497276 0.799176 0.904036
0.741817 0.82034 0.960708
0.963836 0.769177 0.963439
0.962234 0.734524 0.951812
0.948913 0.68986 0.938476
0.0570535 0.797803 0.895064
0.124239 0.796429 0.895613
0.1682 0.793408 0.893004
0.268528 0.790722 0.892226
0.483696 0.801511 0.904509
0.734691 0.826246 0.955627
0.960967 0.782025 0.966125
0.966369 0.747234 0.955154
0.953689 0.707591 0.943679
0.0111543 0.814038 0.898634
0.0593423 0.817395 0.904295
0.104021 0.814435 0.902556
0.217044 0.80708 0.897429
0.445777 0.812131 0.908232
0.721325 0.842618 0.948898
0.956069 0.81181 0.9738
0.974975 0.783291 0.96463
0.966674 0.750164 0.956909
0.00172427 0.855039 0.911696
0.000228885 0.852949 0.910643
0.00354009 0.848951 0.907256
0.0706188 0.851225 0.913451
0.330709 0.840528 0.911498
0.692958 0.871672 0.949096
0.935744 0.875776 0.988663
0.985565 0.849638 0.976669
0.981674 0.833066 0.974685
0.0222477 0.908522 0.92871
0.0208591 0.906935 0.927443
0.0233158 0.905318 0.924453
0.0215152 0.903304 0.920729
0.099382 0.905943 0.928008
0.547036 0.912032 0.943969
0.891905 0.953597 0.98146
0.994751 0.939818 0.987228
0.993118 0.933776 0.988678
0.0216526 0.909102 0.929397
0.0221408 0.909056 0.92903
0.0238346 0.908736 0.928374
0.0255283 0.908385 0.927749
0.0206302 0.909804 0.925322
0.340124 0.911345 0.92462
0.811017 0.976501 0.986374
0.992386 0.991394 0.991028
0.991348 0.991592 0.991669
0.0216678 0.909102 0.929427
0.0219577 0.909072 0.929122
0.0227207 0.908949 0.928801
0.0221408 0.909056 0.92903
0.0216373 0.909102 0.929427
0.0972152 0.9187 0.930663
0.745708 0.964721 0.978775
0.979278 0.991897 0.991699
0.991363 0.991592 0.991669
