bundles/resolve-cinematic-luts/Phantom Luts/Apple Log Phantom LUTS/iPhone 15 Phantom ARRI LUTs/65x/Utopia_Legacy Iphone15_65x.cube
TITLE "Generated by Resolve"
LUT_3D_SIZE 5
0.0120241 0.037583 0.0469215
0.125185 0.0361944 0.0437934
0.527459 0.0269627 0.0475776
0.783841 0.0727855 0.214328
0.777722 0.0841077 0.559106
6.10361e-05 0.0822309 0.0515297
0.0462348 0.070634 0.0492103
0.487083 0.0133822 0.0162814
0.753811 0.0732891 0.146181
0.786908 0.087892 0.533364
0 0.510079 0.0909133
0 0.541482 0
0.50576 0.474067 0.0564736
0.888563 0.347875 0.20557
0.796613 0.0729076 0.242542
0 0.973739 0.627619
0.00466926 0.979904 0.585946
0.0797742 0.999969 0.295109
0.991699 0.933516 0.21326
0.999969 0.916091 0.234607
0.0170748 0.913725 0.873487
0.0151217 0.91487 0.868696
0.0113985 0.922194 0.825544
0.754757 0.999969 0.554437
0.999969 0.970748 0.597513
0 0.0406806 0.092607
0.142687 0.0333867 0.151965
0.578088 0.0428779 0.162112
0.804654 0.0772412 0.285725
0.777707 0.0750896 0.58349
0 0.109056 0.119966
0.0537881 0.0869917 0.0966049
0.5402 0.0469215 0.0882582
0.790051 0.0716564 0.21532
0.781201 0.0827192 0.56144
0 0.472694 0.189929
0 0.507408 0.0914931
0.497078 0.464866 0.0558328
0.884016 0.327474 0.204822
0.806073 0.0849622 0.315892
0 0.96846 0.652827
0.00386053 0.975341 0.614771
0.0486915 0.999969 0.386709
0.991745 0.938979 0.254047
0.999969 0.910262 0.296101
0.0181735 0.912825 0.878386
0.0161593 0.914 0.87332
0.0126192 0.920363 0.835157
0.718776 0.999969 0.575235
0.999969 0.972 0.61648
0 0.0489509 0.485969
0.102541 0.0335851 0.50808
0.547845 0.0240482 0.452064
0.790158 0.0878004 0.524346
0.777951 0.0643778 0.645258
0 0.128969 0.355901
0 0.0706798 0.409552
0.486961 0.0175021 0.403449
0.794919 0.090135 0.489982
0.774334 0.0631876 0.631876
0 0.41767 0.417517
0 0.408896 0.40676
0.459464 0.480308 0.473289
0.924666 0.402365 0.452918
0.78616 0.0846876 0.547539
0 0.944472 0.73756
0.00383001 0.948837 0.718959
0.00468452 0.979736 0.585168
0.960327 0.935515 0.47361
0.999969 0.894636 0.525109
0.0217288 0.909789 0.900191
0.0207675 0.910201 0.89604
0.0152132 0.914565 0.871
0.692805 0.999969 0.692424
0.999969 0.976974 0.698192
0 0.306783 0.765515
0 0.280095 0.760739
0.368582 0.238209 0.847837
0.789563 0.109224 0.779187
0.765759 0.0802777 0.76965
0 0.389792 0.758343
0 0.3552 0.751354
0.329458 0.31957 0.852796
0.84184 0.178134 0.810346
0.76582 0.0802319 0.769833
0 0.588098 0.783185
0 0.570886 0.782422
0.203616 0.556237 0.790677
0.887282 0.386786 0.824796
0.815915 0.138399 0.804257
0.0191806 0.907866 0.91281
0.0197604 0.902922 0.90576
0.00756847 0.890578 0.891646
0.911177 0.911727 0.900114
0.997406 0.884901 0.905089
0.0238193 0.908736 0.928374
0.0265049 0.908171 0.927565
0.0251774 0.908461 0.927855
0.671092 0.96614 0.921309
0.994232 0.990738 0.911116
0.0786603 0.778912 0.886961
0.201007 0.777676 0.885527
0.502129 0.794415 0.902449
0.96379 0.762661 0.961471
0.945296 0.677028 0.934508
0.076463 0.789303 0.891432
0.19086 0.785794 0.888884
0.497276 0.799176 0.904036
0.963836 0.769177 0.963439
0.948913 0.68986 0.938476
0.0111543 0.814038 0.898634
0.104021 0.814435 0.902556
0.445777 0.812131 0.908232
0.956069 0.81181 0.9738
0.966674 0.750164 0.956909
0.0222477 0.908522 0.92871
0.0233158 0.905318 0.924453
0.099382 0.905943 0.928008
0.891905 0.953597 0.98146
0.993118 0.933776 0.988678
0.0216678 0.909102 0.929427
0.0227207 0.908949 0.928801
0.0216373 0.909102 0.929427
0.745708 0.964721 0.978775
0.991363 0.991592 0.991669
