bundles/resolve-cinematic-luts/Phantom Luts/Canon Film LUT/ATOMOS Monitoring LUTs/C-Log 2/Eastman Canon CL2 AML.cube
TITLE "Generated by Resolve"
LUT_3D_SIZE 9
0.0995346 0.0995346 0.0995346
0.108217 0.0995804 0.0995804
0.178851 0.0996109 0.0996109
0.308385 0.100038 0.0995804
0.429648 0.103731 0.106233
0.525521 0.0995499 0.131731
0.556939 0.102388 0.197803
0.557046 0.105196 0.220615
0.546563 0.110506 0.233555
0.102815 0.103319 0.10074
0.108675 0.100389 0.0995804
0.172274 0.0995651 0.0995651
0.297887 0.10837 0.0994583
0.42388 0.115511 0.104173
0.524559 0.117174 0.115846
0.551217 0.0996872 0.161425
0.55259 0.10219 0.187655
0.536324 0.108553 0.202289
0.118532 0.183078 0.117021
0.118547 0.179583 0.114244
0.184771 0.180987 0.115755
0.344167 0.146395 0.100999
0.442405 0.143679 0.101808
0.513176 0.14876 0.107973
0.532204 0.146197 0.111635
0.533806 0.143389 0.112627
0.524834 0.144015 0.112612
0.154681 0.383474 0.155718
0.151125 0.386374 0.155459
0.160311 0.385138 0.155489
0.390158 0.40267 0.14052
0.590036 0.389319 0.150927
0.622873 0.253742 0.134707
0.599924 0.224537 0.123522
0.588983 0.217395 0.118715
0.576379 0.214328 0.115602
0.208621 0.595254 0.221302
0.206638 0.595315 0.22359
0.206348 0.594156 0.222431
0.295628 0.613245 0.215961
0.580621 0.607263 0.1729
0.722866 0.616251 0.201801
0.775067 0.609583 0.215137
0.775387 0.605447 0.214466
0.773205 0.596262 0.213413
0.274556 0.724666 0.296468
0.273854 0.723186 0.299794
0.273564 0.723003 0.301076
0.307713 0.731197 0.294774
0.529229 0.747753 0.252995
0.71899 0.742794 0.25391
0.778286 0.744472 0.268681
0.782971 0.743618 0.267079
0.78674 0.73962 0.261936
0.277546 0.734569 0.311299
0.280125 0.731029 0.300877
0.279881 0.730968 0.302281
0.315953 0.742901 0.299336
0.527077 0.765743 0.268467
0.725475 0.772564 0.271168
0.781674 0.780499 0.327459
0.790127 0.78378 0.354482
0.788144 0.783459 0.351843
0.27451 0.740185 0.331868
0.279789 0.732219 0.298497
0.281865 0.731273 0.290517
0.306172 0.739178 0.288869
0.516762 0.763775 0.260243
0.705928 0.771832 0.257816
0.783978 0.778424 0.314702
0.795438 0.784344 0.364324
0.794583 0.784604 0.36527
0.271077 0.743893 0.360983
0.276585 0.734615 0.316396
0.280919 0.731167 0.295674
0.292134 0.734813 0.291722
0.488014 0.761105 0.266804
0.686091 0.771328 0.250782
0.780529 0.777234 0.307179
0.794095 0.784253 0.362493
0.790585 0.785733 0.371008
0.0995346 0.0995346 0.0995346
0.104616 0.0995499 0.0995499
0.17174 0.0995956 0.114229
0.303456 0.0995956 0.108278
0.421607 0.0995193 0.111818
0.515908 0.0995956 0.172869
0.546609 0.109163 0.226383
0.546166 0.111772 0.244556
0.536538 0.117464 0.25861
0.100145 0.0995346 0.102922
0.106096 0.0995804 0.10338
0.174701 0.0995804 0.103868
0.298878 0.101793 0.0995346
0.420722 0.106798 0.105653
0.515053 0.0995193 0.139208
0.541909 0.106767 0.200687
0.543374 0.109651 0.222065
0.535119 0.113924 0.234348
0.117311 0.178576 0.127733
0.114443 0.176867 0.118303
0.178805 0.176043 0.116609
0.335363 0.137926 0.099443
0.440574 0.140398 0.102434
0.506584 0.143908 0.108476
0.533715 0.133181 0.117815
0.537758 0.116579 0.125185
0.532265 0.106203 0.131716
0.15227 0.379065 0.169818
0.148226 0.379843 0.160327
0.152575 0.378363 0.153979
0.385931 0.396948 0.140551
0.590387 0.360708 0.152377
0.605158 0.23711 0.127657
0.582315 0.21326 0.115969
0.570748 0.206043 0.112154
0.560983 0.204608 0.11136
0.203937 0.594385 0.239429
0.203357 0.592218 0.231113
0.205798 0.59144 0.220264
0.278569 0.609522 0.216297
0.577523 0.603006 0.171115
0.723171 0.609949 0.199725
0.774456 0.595697 0.212421
0.774578 0.583886 0.211261
0.772335 0.571969 0.210742
0.269322 0.728542 0.318624
0.271138 0.722988 0.30605
0.27248 0.720989 0.29955
0.290578 0.724239 0.294118
0.51754 0.745922 0.25388
0.715328 0.73994 0.251377
0.777691 0.740597 0.266316
0.78114 0.739162 0.266484
0.781231 0.735515 0.264927
0.271946 0.743526 0.352605
0.276463 0.734798 0.316686
0.279911 0.730968 0.302174
0.294728 0.73611 0.300893
0.513924 0.764508 0.2701
0.713039 0.772213 0.266514
0.779706 0.779492 0.320134
0.789746 0.782788 0.34844
0.787381 0.78233 0.345296
0.26891 0.75404 0.400763
0.274098 0.740551 0.335164
0.28188 0.731273 0.290455
0.28896 0.733455 0.29012
0.496315 0.761791 0.264378
0.693126 0.77116 0.252384
0.782345 0.777676 0.309361
0.795346 0.784268 0.363516
0.787793 0.786496 0.374304
0.269306 0.760021 0.422766
0.271885 0.744778 0.354482
0.280903 0.731228 0.295583
0.283391 0.731594 0.292012
0.472572 0.759487 0.269001
0.671321 0.770657 0.247288
0.777951 0.776562 0.30248
0.793973 0.784115 0.36083
0.78706 0.786679 0.375555
0.0995804 0.0995804 0.124758
0.10312 0.0996262 0.137285
0.16759 0.0996262 0.146883
0.301976 0.0995651 0.154833
0.420874 0.0996414 0.183825
0.519127 0.102724 0.236225
0.549172 0.116625 0.277348
0.550683 0.120867 0.299016
0.541131 0.12517 0.310018
0.0995804 0.0995804 0.124666
0.0996109 0.0996109 0.132189
0.161456 0.0996109 0.145037
0.301961 0.0996567 0.142763
0.423255 0.0996262 0.161685
0.520485 0.102083 0.219516
0.546654 0.114626 0.260182
0.547585 0.118273 0.281712
0.539803 0.12369 0.294987
0.113527 0.170672 0.154101
0.111406 0.168338 0.153933
0.184817 0.179446 0.180621
0.358602 0.131167 0.137545
0.447608 0.0996109 0.111666
0.523201 0.0995956 0.153017
0.546899 0.106111 0.206912
0.548699 0.108705 0.226551
0.540764 0.112505 0.237385
0.154833 0.374243 0.217868
0.149981 0.373266 0.206104
0.145754 0.365927 0.163058
0.376791 0.386847 0.156374
0.575616 0.298726 0.161364
0.587854 0.219333 0.13283
0.589303 0.201038 0.139452
0.585702 0.193378 0.139712
0.577203 0.187015 0.13959
0.198093 0.595529 0.296681
0.195529 0.590661 0.28043
0.19765 0.582498 0.2327
0.238392 0.595575 0.21532
0.569909 0.593515 0.168414
0.724941 0.596368 0.196292
0.774273 0.552163 0.208942
0.774105 0.535576 0.20853
0.770687 0.520958 0.209171
0.259953 0.742092 0.394156
0.260044 0.732357 0.367407
0.266346 0.718608 0.309468
0.26862 0.712367 0.291737
0.490913 0.74316 0.258549
0.709117 0.734203 0.245518
0.777447 0.732845 0.262303
0.781384 0.729946 0.261662
0.780545 0.724483 0.258808
0.273793 0.775921 0.463691
0.269291 0.759838 0.420706
0.275685 0.73579 0.323003
0.280308 0.73109 0.302342
0.48806 0.761929 0.275685
0.689265 0.771771 0.258854
0.775876 0.777234 0.308446
0.788815 0.779568 0.332433
0.786526 0.778073 0.324575
0.282078 0.790951 0.506889
0.27303 0.773449 0.46244
0.273411 0.742061 0.341833
0.281682 0.731243 0.291569
0.463752 0.758648 0.270176
0.664942 0.770306 0.246433
0.777676 0.776211 0.300847
0.795087 0.783902 0.360357
0.787945 0.78648 0.374166
0.285145 0.795361 0.51986
0.275395 0.778256 0.477119
0.271336 0.746548 0.362799
0.281468 0.731212 0.292866
0.437736 0.755795 0.274022
0.641825 0.769039 0.246265
0.771984 0.77525 0.294697
0.793408 0.783688 0.355581
0.786664 0.78677 0.376379
0.0995346 0.0995346 0.198444
0.0995804 0.0999313 0.218616
0.154192 0.0995651 0.252079
0.288487 0.0995956 0.247639
0.419425 0.0996109 0.273716
0.528435 0.114595 0.316854
0.558953 0.126223 0.349676
0.561151 0.128237 0.368353
0.553185 0.131472 0.378927
0.0995193 0.102098 0.191485
0.0995651 0.100206 0.209384
0.134005 0.100984 0.254322
0.289891 0.0995956 0.249744
0.422797 0.0996567 0.27042
0.530556 0.115923 0.314351
0.557076 0.126375 0.34432
0.559548 0.128099 0.360662
0.552697 0.131609 0.371038
0.0996414 0.168612 0.22707
0.0995804 0.160815 0.232746
0.113848 0.147127 0.275807
0.30341 0.0999619 0.26482
0.424155 0.0995956 0.249653
0.530053 0.112215 0.293172
0.55555 0.122866 0.32166
0.558572 0.124743 0.335988
0.552911 0.127581 0.343969
0.14255 0.373175 0.312657
0.140078 0.372656 0.31458
0.138537 0.36524 0.309758
0.404318 0.412238 0.404883
0.596307 0.301625 0.352041
0.67866 0.218555 0.351476
0.635309 0.172473 0.335515
0.609659 0.155779 0.321263
0.588235 0.147631 0.311818
0.209125 0.62446 0.426184
0.207309 0.619577 0.423545
0.20177 0.606012 0.392157
0.20676 0.575143 0.286778
0.559335 0.58732 0.26627
0.747219 0.538689 0.29276
0.79144 0.462867 0.304067
0.787732 0.44712 0.303044
0.780056 0.434684 0.299611
0.273747 0.779049 0.519722
0.269718 0.769421 0.508431
0.258824 0.749828 0.46363
0.254582 0.706386 0.31429
0.446937 0.733913 0.267781
0.699168 0.723354 0.24184
0.775738 0.717693 0.257145
0.780118 0.710872 0.256641
0.779416 0.702739 0.252766
0.30248 0.82742 0.588876
0.298756 0.818006 0.571664
0.284901 0.794949 0.518929
0.273899 0.739055 0.338582
0.390311 0.75169 0.288365
0.640391 0.770138 0.253895
0.768673 0.772976 0.293187
0.787045 0.772091 0.302983
0.784482 0.769207 0.297887
0.308217 0.836103 0.61677
0.303777 0.827146 0.594354
0.291066 0.805158 0.542458
0.27126 0.744701 0.360189
0.330983 0.745525 0.289876
0.595895 0.76817 0.250828
0.766583 0.774029 0.287053
0.793973 0.783597 0.355108
0.788006 0.78648 0.374594
0.309071 0.837003 0.621744
0.305013 0.828992 0.599329
0.2934 0.808698 0.550408
0.269642 0.749859 0.381476
0.301091 0.737621 0.292332
0.568307 0.767437 0.254368
0.750942 0.773159 0.278691
0.788861 0.782086 0.343191
0.786999 0.786709 0.376196
0.0995193 0.111406 0.295872
0.0995193 0.110719 0.313268
0.132952 0.108751 0.34902
0.294575 0.0996262 0.359747
0.414084 0.0995499 0.362234
0.526162 0.121004 0.401526
0.558572 0.135439 0.4327
0.559945 0.139956 0.450462
0.559976 0.141909 0.461402
0.0996262 0.114015 0.290883
0.0996567 0.113024 0.306203
0.115404 0.111192 0.347753
0.291661 0.0996414 0.368002
0.417929 0.0996109 0.366339
0.530373 0.122438 0.404089
0.559243 0.135103 0.432441
0.560708 0.139391 0.449241
0.559762 0.141558 0.458885
0.0995651 0.147204 0.306508
0.0994583 0.136767 0.306569
0.0994888 0.117632 0.327169
0.260868 0.0996567 0.378363
0.418097 0.0996109 0.366369
0.529915 0.121233 0.397818
0.560601 0.132631 0.422339
0.560494 0.135317 0.435599
0.558022 0.138659 0.442969
0.130037 0.394644 0.42884
0.128115 0.390326 0.432059
0.121172 0.369039 0.432883
0.280873 0.34342 0.514458
0.525231 0.223468 0.474159
0.564172 0.145022 0.407584
0.564782 0.132342 0.395666
0.561547 0.131044 0.398917
0.55407 0.130968 0.398764
0.193805 0.621042 0.526024
0.193423 0.61854 0.525933
0.191745 0.613794 0.522118
0.2112 0.609476 0.522606
0.589609 0.610498 0.593576
0.748333 0.508278 0.536873
0.791714 0.440604 0.521904
0.788357 0.425086 0.526909
0.780118 0.410178 0.527108
0.278141 0.797208 0.615702
0.277409 0.791943 0.612345
0.274464 0.784985 0.596933
0.266514 0.765255 0.55259
0.41677 0.735775 0.500084
0.694545 0.737346 0.471672
0.805295 0.700923 0.49659
0.819013 0.678111 0.49601
0.816754 0.663722 0.489372
0.314199 0.856153 0.684947
0.315099 0.852918 0.677409
0.312901 0.847211 0.656245
0.304799 0.828855 0.601648
0.303609 0.781521 0.465507
0.60647 0.789746 0.386343
0.767391 0.79295 0.472862
0.79707 0.785397 0.471931
0.796338 0.779675 0.459205
0.314946 0.858778 0.701717
0.315785 0.856443 0.692256
0.314427 0.850767 0.669612
0.307866 0.834623 0.614725
0.26894 0.751293 0.391974
0.539178 0.772229 0.28719
0.748302 0.781826 0.316442
0.789319 0.79237 0.436545
0.795178 0.800198 0.488884
0.316243 0.85861 0.705272
0.315892 0.856504 0.693965
0.314488 0.851164 0.671458
0.308537 0.83595 0.618112
0.269062 0.752712 0.396582
0.50161 0.766552 0.285344
0.72079 0.778378 0.291646
0.783658 0.789685 0.403311
0.793988 0.800732 0.491264
0.0995193 0.124758 0.365545
0.0995499 0.12369 0.382834
0.127535 0.118669 0.418326
0.290898 0.102022 0.452613
0.421225 0.103792 0.443198
0.526497 0.132097 0.467262
0.56144 0.147173 0.494209
0.560937 0.148455 0.505013
0.561349 0.14995 0.512108
0.0995651 0.129198 0.361822
0.0996872 0.127337 0.374273
0.110445 0.121752 0.414389
0.282475 0.103975 0.459052
0.425086 0.105318 0.449393
0.531319 0.133776 0.472145
0.561883 0.147082 0.495506
0.561364 0.148394 0.505425
0.560861 0.149691 0.51104
0.0996567 0.154726 0.375769
0.0995499 0.143374 0.371664
0.0994888 0.128557 0.383383
0.240131 0.108965 0.463035
0.421256 0.105653 0.455009
0.530373 0.133761 0.471611
0.561624 0.146975 0.492714
0.561135 0.147677 0.499855
0.561181 0.148516 0.504723
0.120623 0.384527 0.499306
0.118563 0.37583 0.499138
0.111833 0.341878 0.489998
0.187915 0.290562 0.545769
0.468894 0.175494 0.544915
0.527932 0.135775 0.469871
0.562036 0.144335 0.475639
0.562325 0.144991 0.480018
0.561776 0.145586 0.481193
0.190677 0.62562 0.612696
0.189487 0.62324 0.613901
0.187884 0.617945 0.616724
0.181338 0.597604 0.618433
0.505837 0.571389 0.714366
0.717937 0.461662 0.66424
0.771466 0.379034 0.630686
0.767498 0.362966 0.628962
0.759243 0.349203 0.622568
0.267338 0.785367 0.681254
0.265431 0.781079 0.678294
0.261921 0.774884 0.672709
0.253986 0.761593 0.660349
0.463767 0.78204 0.707805
0.729702 0.754711 0.732097
0.822889 0.697093 0.702464
0.829496 0.654734 0.687465
0.824094 0.634272 0.68043
0.315587 0.861189 0.734508
0.315618 0.858763 0.730816
0.314183 0.855055 0.721935
0.310048 0.848615 0.70135
0.334737 0.84979 0.675151
0.639185 0.822416 0.685115
0.797726 0.830823 0.688655
0.846494 0.816815 0.700252
0.847272 0.80795 0.694926
0.318502 0.863859 0.745754
0.318547 0.863081 0.741085
0.317937 0.862165 0.731991
0.316854 0.859907 0.712459
0.313069 0.847364 0.65536
0.529427 0.821881 0.616648
0.739925 0.837583 0.621225
0.850538 0.874067 0.766155
0.861753 0.87689 0.781552
0.318685 0.863905 0.74728
0.318685 0.863279 0.742336
0.317952 0.862257 0.733501
0.31693 0.860044 0.713466
0.312825 0.846632 0.653147
0.465995 0.817761 0.592035
0.704082 0.827482 0.581155
0.823743 0.854444 0.687785
0.856825 0.874098 0.764004
0.0995956 0.148913 0.418311
0.0996262 0.147295 0.434821
0.127367 0.135607 0.46894
0.286427 0.122042 0.51603
0.435828 0.121828 0.511208
0.532723 0.141314 0.51136
0.562097 0.152667 0.523629
0.562142 0.152834 0.52517
0.562219 0.152804 0.525185
0.0995346 0.156024 0.415854
0.0994888 0.154238 0.426001
0.109453 0.143679 0.462516
0.276127 0.125093 0.518959
0.437903 0.123445 0.514168
0.535683 0.142855 0.514015
0.562081 0.152804 0.524773
0.562081 0.152865 0.525139
0.562097 0.15285 0.525154
0.0995956 0.178836 0.42916
0.0994888 0.167071 0.422477
0.0995651 0.157839 0.430488
0.232471 0.131106 0.51606
0.43035 0.123949 0.518807
0.534752 0.142809 0.514977
0.562158 0.152544 0.522499
0.562142 0.152758 0.524514
0.562081 0.15285 0.525078
0.118166 0.369009 0.534981
0.115328 0.355535 0.530007
0.108309 0.315831 0.512322
0.133822 0.255726 0.533303
0.412802 0.152163 0.559091
0.520088 0.139666 0.51284
0.561608 0.15082 0.515053
0.561746 0.151446 0.518029
0.561929 0.151858 0.519371
0.196048 0.633844 0.660548
0.194949 0.629999 0.660914
0.191714 0.62005 0.66154
0.182422 0.591806 0.6607
0.450446 0.552483 0.764416
0.698329 0.430411 0.743618
0.757992 0.353597 0.687297
0.753246 0.336996 0.681102
0.74519 0.321569 0.673335
0.266529 0.781735 0.717144
0.263966 0.776761 0.715541
0.259556 0.769863 0.713497
0.251606 0.754635 0.710933
0.393423 0.765713 0.770779
0.681697 0.732067 0.805631
0.810071 0.663066 0.773144
0.823407 0.612238 0.748653
0.818799 0.592248 0.740566
0.314778 0.855879 0.755718
0.313146 0.85272 0.753506
0.310307 0.848875 0.749264
0.304753 0.841123 0.741176
0.31519 0.840131 0.74081
0.666972 0.850004 0.80087
0.817838 0.841276 0.816205
0.862776 0.821057 0.808743
0.862501 0.807553 0.802518
0.320272 0.865187 0.762936
0.320806 0.864744 0.761944
0.32047 0.864561 0.758968
0.319554 0.863951 0.751324
0.317998 0.862379 0.734798
0.577676 0.898543 0.786511
0.796017 0.877668 0.813519
0.8589 0.884245 0.827573
0.870192 0.883772 0.834562
0.320577 0.865019 0.764035
0.320836 0.864851 0.762707
0.320546 0.864607 0.759823
0.319615 0.863981 0.751629
0.317891 0.862089 0.731289
0.446204 0.898054 0.755657
0.774411 0.87895 0.804944
0.848447 0.885954 0.810849
0.873854 0.897536 0.866819
0.0994278 0.181277 0.455772
0.0994583 0.180224 0.469642
0.130251 0.168399 0.502907
0.295445 0.14136 0.548074
0.450843 0.133425 0.535485
0.540841 0.146258 0.523125
0.562081 0.152865 0.525139
0.562081 0.152865 0.525139
0.562112 0.15285 0.525154
0.0995804 0.182773 0.449531
0.099443 0.181155 0.456275
0.112642 0.17464 0.49189
0.285664 0.142947 0.54757
0.451499 0.133379 0.53521
0.543008 0.146929 0.523476
0.562081 0.152865 0.525139
0.562081 0.152865 0.525139
0.562112 0.15285 0.525154
0.0995193 0.195285 0.45478
0.0995651 0.183398 0.44622
0.099443 0.181048 0.456748
0.239368 0.148165 0.540185
0.441138 0.133165 0.537804
0.539971 0.1458 0.52282
0.562081 0.152865 0.525139
0.562081 0.152865 0.525139
0.562081 0.152865 0.525124
0.11783 0.357916 0.551186
0.114351 0.343008 0.543069
0.10515 0.294377 0.514763
0.105211 0.212696 0.497871
0.386847 0.142611 0.556008
0.515999 0.139986 0.523705
0.562142 0.15288 0.525185
0.562158 0.15288 0.525185
0.562158 0.15288 0.525185
0.199512 0.635309 0.685069
0.197131 0.629602 0.683879
0.193744 0.618402 0.682795
0.180575 0.582849 0.672541
0.409537 0.547921 0.770718
0.680858 0.416159 0.773251
0.747463 0.338766 0.706157
0.740078 0.31725 0.693309
0.73051 0.301015 0.68336
0.273854 0.792081 0.737209
0.271778 0.787961 0.73611
0.267765 0.781598 0.734264
0.260365 0.767926 0.731777
0.335271 0.778576 0.774548
0.641581 0.72343 0.827878
0.798398 0.639307 0.810071
0.814603 0.575433 0.774762
0.811032 0.55552 0.7691
0.315114 0.85594 0.762188
0.313664 0.852735 0.761395
0.310506 0.848478 0.759457
0.305241 0.840772 0.756039
0.298924 0.830427 0.753368
0.629496 0.850889 0.835798
0.798886 0.831769 0.849165
0.856687 0.803113 0.838315
0.857359 0.785992 0.831464
0.321263 0.865171 0.766308
0.32137 0.865141 0.766461
0.32137 0.865141 0.766461
0.320775 0.8645 0.765423
0.318212 0.861433 0.761624
0.553353 0.905425 0.831266
0.798459 0.879713 0.849744
0.861814 0.884871 0.85861
0.872038 0.883635 0.859037
0.321187 0.865202 0.766217
0.32137 0.865141 0.766461
0.32137 0.865141 0.766461
0.321248 0.865034 0.765759
0.320714 0.864698 0.761456
0.352377 0.882368 0.775357
0.768521 0.891402 0.845151
0.869032 0.897429 0.86775
0.874449 0.898528 0.871992
0.099443 0.180545 0.462242
0.0994888 0.179171 0.477684
0.14522 0.163516 0.508965
0.308919 0.140139 0.548974
0.458747 0.133608 0.533791
0.546395 0.147799 0.523827
0.562081 0.152865 0.525139
0.562081 0.152865 0.525139
0.562097 0.15285 0.525139
0.0994278 0.181949 0.45153
0.099443 0.180575 0.46273
0.121981 0.17142 0.498329
0.298344 0.141222 0.548363
0.458351 0.133547 0.533791
0.547829 0.148058 0.523781
0.562081 0.152865 0.525139
0.562081 0.152865 0.525139
0.562097 0.15285 0.525154
0.0995804 0.189609 0.450919
0.0995651 0.183734 0.446632
0.099443 0.180529 0.462638
0.25124 0.146838 0.542916
0.446662 0.133242 0.536385
0.543984 0.147219 0.523598
0.562081 0.152865 0.525139
0.562097 0.152865 0.525139
0.562081 0.152865 0.525139
0.114168 0.340337 0.543862
0.109773 0.317723 0.530037
0.0996872 0.253376 0.491356
0.0996414 0.183322 0.478065
0.385107 0.136782 0.549065
0.514397 0.13904 0.522271
0.562127 0.15288 0.52517
0.562142 0.15288 0.52517
0.562158 0.15288 0.525185
0.200641 0.636133 0.69221
0.197574 0.628504 0.689555
0.191424 0.611704 0.683864
0.17464 0.567041 0.66685
0.399222 0.525719 0.765621
0.669718 0.392554 0.764004
0.734966 0.318547 0.695628
0.725811 0.293645 0.678813
0.711971 0.276478 0.665644
0.277363 0.796338 0.743481
0.274159 0.791699 0.741939
0.269886 0.783856 0.739696
0.25893 0.764965 0.733776
0.315282 0.767498 0.767514
0.62797 0.710582 0.827985
0.790829 0.621454 0.810666
0.811551 0.553887 0.774487
0.809445 0.533165 0.771313
0.316289 0.857694 0.764065
0.315282 0.854887 0.763409
0.312215 0.850462 0.761822
0.305623 0.841398 0.758434
0.296025 0.826505 0.753048
0.606409 0.855741 0.841077
0.782895 0.82504 0.854261
0.852262 0.789532 0.843519
0.853529 0.766812 0.835325
0.314336 0.86804 0.758267
0.314458 0.867994 0.758404
0.314458 0.867994 0.758404
0.314351 0.867857 0.758343
0.312078 0.864591 0.757244
0.473091 0.905425 0.822339
0.780087 0.880339 0.854551
0.85951 0.882979 0.867826
0.872496 0.880598 0.866957
0.321111 0.865248 0.766155
0.32137 0.865141 0.766461
0.32137 0.865141 0.766461
0.32137 0.865141 0.766461
0.32137 0.865141 0.766461
0.32137 0.865141 0.766461
0.72607 0.898894 0.853254
0.867369 0.89691 0.872053
0.875761 0.8981 0.871107
