bundles/resolve-cinematic-luts/Phantom Luts/Canon Film LUT/ATOMOS Monitoring LUTs/C-Log 2/EastmanRM Canon CL2 AML.cube
TITLE "Generated by Resolve"
LUT_3D_SIZE 33
0.102464 0.0937057 0.0976577
0.10312 0.0935683 0.0974899
0.104799 0.0933089 0.0973526
0.108309 0.0931563 0.0974136
0.114351 0.0928511 0.0973831
0.127291 0.0922866 0.0970626
0.151553 0.0915541 0.0970016
0.177981 0.090898 0.0968795
0.204105 0.0902571 0.0970932
0.23122 0.0898604 0.097734
0.262592 0.08925 0.0985885
0.301793 0.0883345 0.0996872
0.345556 0.0872358 0.100923
0.385824 0.0868696 0.102892
0.422599 0.0876631 0.10544
0.457069 0.0880751 0.108827
0.48896 0.0887312 0.113405
0.516365 0.089601 0.119509
0.537423 0.0903639 0.127382
0.554803 0.0928664 0.137392
0.570016 0.0970321 0.150225
0.583947 0.10074 0.163516
0.592309 0.103243 0.173114
0.593744 0.103853 0.175982
0.594568 0.104295 0.178729
0.5953 0.104921 0.182376
0.595941 0.10544 0.185657
0.596536 0.105913 0.188525
0.595605 0.106706 0.192935
0.591272 0.10782 0.199924
0.585657 0.108995 0.208728
0.57438 0.111177 0.222354
0.562982 0.11339 0.237125
0.102647 0.0944228 0.097734
0.102571 0.0940414 0.0976577
0.103578 0.0940566 0.0976425
0.106203 0.0936294 0.0974746
0.111635 0.0931106 0.0973983
0.121294 0.0926223 0.0972457
0.14049 0.0921645 0.0973526
0.170092 0.0912642 0.0969558
0.197971 0.0906996 0.0970779
0.228443 0.090074 0.0975662
0.259617 0.0894789 0.0984665
0.298909 0.0883955 0.0998398
0.343145 0.0873732 0.101061
0.386053 0.0868391 0.102449
0.425101 0.0876631 0.104601
0.459571 0.0880446 0.108034
0.49131 0.0888075 0.112718
0.517647 0.089601 0.118807
0.538628 0.0904097 0.126864
0.555718 0.0930037 0.137041
0.571099 0.0972457 0.150103
0.584588 0.100771 0.163256
0.591852 0.102998 0.171954
0.593149 0.103639 0.174899
0.594308 0.104112 0.177752
0.594919 0.104631 0.180652
0.595712 0.105211 0.183978
0.596201 0.105638 0.186725
0.595239 0.106325 0.190692
0.590875 0.1075 0.198001
0.58529 0.108736 0.206668
0.574075 0.110842 0.220661
0.562509 0.1131 0.234943
0.102632 0.0973831 0.0982986
0.102525 0.0970474 0.0981918
0.103059 0.0967117 0.0980697
0.105013 0.0959793 0.0977493
0.110277 0.0944381 0.0972915
0.119432 0.0932784 0.0971847
0.135958 0.0927138 0.0975357
0.160998 0.0921035 0.097612
0.190936 0.0911727 0.0974441
0.223636 0.0902113 0.0974441
0.257542 0.0897231 0.0980697
0.296056 0.0888533 0.0994125
0.340047 0.0877089 0.100877
0.382483 0.0869001 0.10248
0.423209 0.0878614 0.10457
0.460243 0.0881514 0.10753
0.49279 0.0888991 0.112016
0.518975 0.0896315 0.118151
0.539452 0.0904402 0.126314
0.556649 0.09308 0.136584
0.571984 0.0973678 0.149813
0.585168 0.100786 0.162783
0.591226 0.102617 0.170413
0.592462 0.103334 0.173495
0.593835 0.103899 0.176226
0.594568 0.10428 0.178698
0.595148 0.104814 0.181903
0.595819 0.105303 0.18468
0.594781 0.105867 0.188556
0.59028 0.106966 0.195361
0.584756 0.108232 0.203952
0.573632 0.110292 0.217792
0.561913 0.112596 0.23212
0.103365 0.102495 0.0996262
0.103182 0.102251 0.0996719
0.103365 0.101457 0.0995956
0.104677 0.101152 0.0992294
0.109468 0.100328 0.0986954
0.11928 0.0973678 0.0977188
0.138003 0.0947433 0.097734
0.161318 0.0932326 0.0978103
0.187015 0.0920119 0.0978408
0.2177 0.0908827 0.0978714
0.253101 0.0901198 0.0979171
0.293492 0.0890822 0.0986191
0.337804 0.0877852 0.0996567
0.37998 0.0872969 0.101961
0.41944 0.0878004 0.104158
0.45655 0.088426 0.107607
0.490806 0.0890364 0.111818
0.518959 0.0896925 0.117372
0.540078 0.090425 0.125017
0.557046 0.0931411 0.135714
0.572503 0.0973068 0.148486
0.585809 0.100618 0.161868
0.590478 0.102159 0.168429
0.591608 0.102861 0.171435
0.592782 0.103487 0.174273
0.594034 0.10396 0.176776
0.594598 0.104326 0.178851
0.595117 0.104799 0.18175
0.594202 0.105409 0.185718
0.589807 0.106386 0.192294
0.583795 0.107607 0.20029
0.572778 0.109468 0.214252
0.560998 0.111742 0.228122
0.103593 0.111223 0.100603
0.103212 0.111101 0.100359
0.103395 0.110353 0.100542
0.104219 0.109361 0.100816
0.107118 0.108873 0.100404
0.117067 0.108583 0.100206
0.134142 0.103685 0.0990158
0.159014 0.0990921 0.0982834
0.186526 0.0946212 0.097734
0.216953 0.0924392 0.0979477
0.252537 0.0909133 0.0984665
0.290669 0.0893111 0.0984207
0.33753 0.0878309 0.0986496
0.378439 0.0874037 0.100755
0.417136 0.0877089 0.103243
0.452628 0.0885176 0.106111
0.485725 0.0891585 0.111437
0.513771 0.090074 0.117922
0.535729 0.0905928 0.125505
0.553857 0.0932479 0.135531
0.570718 0.0971695 0.147555
0.584833 0.100572 0.161379
0.589044 0.101839 0.166979
0.589929 0.102266 0.169314
0.590906 0.102953 0.172076
0.592157 0.103502 0.174594
0.593179 0.10396 0.176837
0.592966 0.104372 0.179385
0.592111 0.104845 0.182467
0.588388 0.10573 0.188708
0.582849 0.106874 0.196002
0.571862 0.10869 0.209369
0.560143 0.110826 0.223072
0.104036 0.127413 0.102144
0.103441 0.12752 0.101579
0.103487 0.126467 0.101381
0.10399 0.125109 0.101442
0.105592 0.124895 0.102129
0.112306 0.124224 0.101991
0.132113 0.124285 0.102358
0.15845 0.117876 0.101747
0.185565 0.107973 0.0998398
0.213672 0.100069 0.0991531
0.248173 0.0942092 0.0979934
0.295491 0.0902113 0.0983444
0.340688 0.0884871 0.0988022
0.380865 0.0872358 0.099733
0.418738 0.0876936 0.101579
0.451621 0.088426 0.104036
0.482719 0.089189 0.108949
0.510033 0.0899367 0.115419
0.531151 0.0905623 0.123781
0.54876 0.0933089 0.134997
0.565103 0.0969711 0.147555
0.579828 0.10071 0.162676
0.582483 0.101671 0.167681
0.583307 0.102312 0.170871
0.584146 0.102831 0.173648
0.585122 0.103227 0.176196
0.586267 0.103731 0.17879
0.586923 0.104189 0.180621
0.587564 0.10457 0.182254
0.585504 0.10515 0.186084
0.581048 0.105928 0.191592
0.570382 0.107652 0.203311
0.558907 0.10959 0.21706
0.104891 0.148836 0.103761
0.103975 0.149248 0.10338
0.104936 0.147478 0.102281
0.106325 0.145464 0.101564
0.109331 0.143923 0.101579
0.115007 0.144076 0.102174
0.134813 0.142733 0.101671
0.167071 0.141176 0.101472
0.19791 0.135149 0.101823
0.225742 0.122789 0.100008
0.258854 0.108461 0.0994125
0.301717 0.0961624 0.0977188
0.346288 0.0903639 0.0973831
0.390784 0.0881514 0.0989548
0.425101 0.0882277 0.100633
0.455955 0.0885328 0.102617
0.48278 0.089128 0.106462
0.50695 0.0897841 0.111986
0.527123 0.0903487 0.119341
0.545449 0.0929885 0.130526
0.561685 0.0961776 0.141955
0.577783 0.099443 0.156558
0.580163 0.100465 0.161135
0.581735 0.101137 0.165026
0.58262 0.101747 0.168078
0.583352 0.102327 0.170809
0.584024 0.102724 0.173083
0.584695 0.103044 0.174945
0.585412 0.103334 0.176684
0.584558 0.103822 0.180117
0.581872 0.104494 0.184039
0.575082 0.105623 0.191959
0.567361 0.106935 0.200183
0.109209 0.168063 0.103899
0.107149 0.169192 0.104265
0.105882 0.169512 0.1037
0.106798 0.168368 0.103136
0.109575 0.166934 0.102953
0.114748 0.166094 0.102892
0.125338 0.166384 0.103929
0.158831 0.16495 0.103365
0.1953 0.161685 0.10338
0.231266 0.156817 0.103395
0.268757 0.142153 0.101976
0.311116 0.120104 0.100038
0.35317 0.10042 0.0991684
0.392859 0.0920577 0.0977646
0.432456 0.0888838 0.0990005
0.464942 0.0890364 0.101335
0.489433 0.0892805 0.104829
0.509346 0.0897993 0.110201
0.525322 0.0902266 0.116777
0.540673 0.092607 0.124956
0.557824 0.0957504 0.13611
0.572427 0.0982681 0.147265
0.574823 0.0985428 0.151003
0.577325 0.0992752 0.155657
0.579278 0.0999924 0.15935
0.581048 0.10074 0.162829
0.582025 0.101244 0.165484
0.582559 0.101656 0.16759
0.58294 0.10193 0.16907
0.581888 0.102464 0.172122
0.579217 0.103029 0.176349
0.572778 0.10396 0.184451
0.565362 0.105089 0.19292
0.112291 0.191791 0.105882
0.110094 0.193011 0.106157
0.108232 0.193881 0.105898
0.107759 0.193408 0.105394
0.109194 0.19205 0.105135
0.113832 0.190997 0.104845
0.123476 0.191089 0.105241
0.139391 0.191501 0.10631
0.184421 0.189273 0.104707
0.228489 0.184176 0.105852
0.278157 0.179461 0.10547
0.325444 0.160403 0.103792
0.367254 0.13196 0.100801
0.403357 0.10869 0.101137
0.437201 0.0970932 0.0995499
0.467353 0.0908675 0.0991379
0.49485 0.0900282 0.103029
0.513237 0.0903182 0.108324
0.529091 0.091371 0.115999
0.540856 0.0928206 0.123613
0.553552 0.095491 0.131609
0.566979 0.097673 0.140078
0.570428 0.0980545 0.143481
0.571801 0.0982376 0.145815
0.572854 0.0982528 0.147616
0.57438 0.098436 0.150286
0.576318 0.0988632 0.153307
0.577813 0.0993973 0.156069
0.578805 0.0997787 0.158129
0.577722 0.100237 0.160998
0.575189 0.100862 0.164874
0.56849 0.101976 0.17229
0.561273 0.102998 0.180926
0.114992 0.219318 0.107774
0.111559 0.220752 0.107866
0.1093 0.221592 0.107561
0.108583 0.221668 0.107408
0.108568 0.22063 0.107408
0.111025 0.219242 0.107195
0.118502 0.218936 0.106905
0.132937 0.220081 0.107393
0.157824 0.221286 0.109224
0.214542 0.22031 0.107576
0.277241 0.212192 0.108812
0.340261 0.210758 0.108263
0.386755 0.183612 0.105852
0.421225 0.152071 0.101335
0.451896 0.125032 0.101534
0.477073 0.105226 0.102663
0.496544 0.0972915 0.101732
0.511711 0.0931258 0.104814
0.527077 0.0942702 0.113069
0.543725 0.0954757 0.122515
0.556848 0.0965438 0.131273
0.564752 0.0973373 0.137224
0.568505 0.0980087 0.139895
0.568231 0.0979171 0.140047
0.568795 0.0979782 0.141085
0.569879 0.0980392 0.142458
0.570779 0.0981003 0.143603
0.571374 0.098146 0.144533
0.57171 0.0982223 0.145251
0.570489 0.0984512 0.147311
0.56762 0.0988174 0.150576
0.561273 0.0995499 0.157916
0.55375 0.100496 0.16527
0.112886 0.253162 0.105272
0.109789 0.254734 0.105058
0.107759 0.255802 0.104768
0.107027 0.256229 0.104753
0.106752 0.256092 0.104891
0.107027 0.254093 0.104936
0.109758 0.253651 0.105104
0.117937 0.255436 0.105013
0.13727 0.259083 0.105974
0.17351 0.262989 0.109056
0.256382 0.266926 0.109422
0.342168 0.258122 0.11194
0.412573 0.260349 0.11281
0.458747 0.226871 0.111528
0.482094 0.185489 0.104829
0.500221 0.150622 0.103578
0.512245 0.120745 0.105211
0.520867 0.110704 0.107225
0.52668 0.100404 0.107424
0.540154 0.100084 0.118914
0.554559 0.0997024 0.129854
0.566293 0.100084 0.139834
0.568353 0.0995193 0.143297
0.567437 0.0991989 0.142275
0.568032 0.0990768 0.142473
0.568338 0.0989853 0.14287
0.567697 0.0988785 0.143038
0.565759 0.0983139 0.142046
0.565515 0.0982528 0.142123
0.564187 0.0983749 0.143206
0.561547 0.0986038 0.145174
0.555947 0.0992599 0.150835
0.548882 0.100069 0.157549
0.111299 0.297536 0.102892
0.108614 0.29926 0.102907
0.106798 0.300465 0.102678
0.105913 0.301167 0.102296
0.105562 0.301686 0.102434
0.105669 0.301137 0.102602
0.10576 0.299336 0.102586
0.109148 0.299901 0.102861
0.119493 0.305226 0.103471
0.148333 0.312016 0.105287
0.197162 0.319966 0.109728
0.319799 0.331685 0.110964
0.418936 0.324224 0.114946
0.488731 0.32639 0.115511
0.533639 0.295521 0.115038
0.558694 0.242481 0.114107
0.560479 0.194812 0.110689
0.550454 0.149844 0.110918
0.55201 0.136828 0.115953
0.551247 0.117037 0.115145
0.555932 0.106386 0.12076
0.563226 0.103197 0.13135
0.568292 0.102953 0.140047
0.567529 0.102586 0.142626
0.566339 0.102327 0.144457
0.565026 0.102052 0.146944
0.563241 0.101778 0.148043
0.560678 0.101106 0.147738
0.55996 0.100847 0.147921
0.560052 0.100832 0.148409
0.56025 0.100862 0.148638
0.558297 0.101167 0.150484
0.553674 0.101808 0.154742
0.10988 0.346578 0.10013
0.107637 0.348577 0.100664
0.105882 0.350301 0.100465
0.105348 0.351339 0.100175
0.105455 0.352483 0.100084
0.105669 0.353155 0.0999161
0.105776 0.350698 0.099733
0.106416 0.349813 0.0998398
0.111498 0.35201 0.100267
0.126406 0.358801 0.100679
0.16376 0.367834 0.102525
0.234806 0.382376 0.107897
0.393149 0.401404 0.110597
0.49633 0.395514 0.116274
0.557214 0.397742 0.120302
0.6038 0.376211 0.120394
0.632151 0.322438 0.122515
0.638071 0.263752 0.123507
0.626108 0.218891 0.129122
0.603387 0.178607 0.131594
0.592782 0.156786 0.132326
0.581796 0.122057 0.122988
0.576257 0.111666 0.124086
0.573419 0.10901 0.125475
0.573297 0.107942 0.128664
0.574273 0.107774 0.132952
0.574517 0.107561 0.1355
0.57322 0.106737 0.136095
0.572244 0.106172 0.136385
0.57113 0.105547 0.13637
0.570153 0.104936 0.135897
0.566873 0.104936 0.136767
0.561502 0.105516 0.139422
0.108583 0.395789 0.0973831
0.106889 0.397604 0.0979324
0.105699 0.399512 0.0982376
0.105257 0.400458 0.0980392
0.105028 0.401984 0.0980087
0.105028 0.403082 0.0979782
0.10518 0.40354 0.0978714
0.105348 0.400031 0.0978561
0.106523 0.399939 0.0977035
0.113497 0.404181 0.0975814
0.135058 0.413138 0.0977035
0.182803 0.423911 0.0995346
0.2963 0.450263 0.107256
0.465934 0.471626 0.111894
0.562997 0.46688 0.123064
0.615488 0.468101 0.132067
0.659159 0.460258 0.137041
0.69012 0.420706 0.138094
0.704967 0.3514 0.141939
0.701793 0.303319 0.146319
0.675669 0.239292 0.154147
0.657404 0.206882 0.154253
0.640574 0.186419 0.150118
0.629786 0.175753 0.146273
0.62211 0.168521 0.143389
0.614878 0.159899 0.138979
0.608652 0.15201 0.135424
0.603769 0.145647 0.132891
0.600702 0.141054 0.13077
0.599084 0.138537 0.129961
0.597803 0.137133 0.129458
0.594934 0.136538 0.130144
0.590311 0.137179 0.133043
0.109483 0.443946 0.0968948
0.107866 0.445731 0.0980545
0.106905 0.447456 0.0991989
0.106615 0.448768 0.0993362
0.10634 0.449805 0.0994736
0.106355 0.451087 0.0998093
0.106432 0.452018 0.0996414
0.106706 0.451026 0.0991531
0.106783 0.449058 0.0987106
0.109468 0.449668 0.098146
0.12282 0.456764 0.0978408
0.15761 0.46772 0.0979324
0.227451 0.481971 0.10071
0.379202 0.521813 0.112856
0.532372 0.536919 0.120836
0.622217 0.532662 0.140291
0.666392 0.533547 0.155978
0.70396 0.535012 0.169772
0.732464 0.510719 0.174624
0.748409 0.450736 0.173098
0.757916 0.394049 0.173571
0.749813 0.347372 0.168505
0.730266 0.290822 0.170077
0.716793 0.265599 0.170382
0.710124 0.256382 0.169696
0.707393 0.252537 0.169284
0.705455 0.249866 0.169238
0.703151 0.247562 0.168444
0.702388 0.246143 0.168185
0.701778 0.245441 0.168093
0.701625 0.24535 0.168063
0.699046 0.246326 0.170352
0.694347 0.248875 0.174899
0.117586 0.489708 0.100801
0.11487 0.491585 0.103685
0.113344 0.492958 0.106233
0.112596 0.493996 0.107103
0.112337 0.494911 0.107408
0.112169 0.495918 0.10782
0.112551 0.497169 0.108202
0.1131 0.497429 0.10782
0.113207 0.49543 0.10631
0.114275 0.495567 0.10547
0.122301 0.498238 0.104143
0.151904 0.508644 0.103136
0.206912 0.521416 0.103868
0.301885 0.545663 0.110582
0.463661 0.585992 0.128527
0.592004 0.596429 0.143404
0.672908 0.592966 0.171633
0.712444 0.59472 0.193866
0.74406 0.597681 0.216373
0.768124 0.585428 0.22884
0.781155 0.553277 0.221363
0.787869 0.494713 0.209598
0.791379 0.442344 0.199725
0.790021 0.428351 0.194553
0.787137 0.42063 0.192386
0.785 0.413962 0.18938
0.782345 0.408255 0.187304
0.780575 0.404456 0.18616
0.779507 0.400031 0.185016
0.778698 0.397757 0.184131
0.778042 0.396048 0.183597
0.774609 0.396353 0.18677
0.768917 0.398459 0.193225
0.138735 0.53315 0.111315
0.133883 0.53434 0.11635
0.12987 0.535668 0.12108
0.129015 0.53669 0.123262
0.128847 0.537743 0.124407
0.129168 0.538628 0.124804
0.129564 0.540002 0.126131
0.130098 0.540764 0.126345
0.130571 0.540429 0.125414
0.130282 0.537942 0.122881
0.136553 0.540413 0.12137
0.160388 0.545708 0.117327
0.213809 0.558221 0.116106
0.282536 0.575998 0.120333
0.390829 0.61062 0.136889
0.539757 0.643748 0.159442
0.647028 0.653269 0.182986
0.718746 0.651438 0.218677
0.755489 0.653498 0.250523
0.780682 0.655909 0.275669
0.799985 0.655161 0.292515
0.813413 0.645563 0.297261
0.812436 0.602625 0.273594
0.810513 0.575097 0.257252
0.811017 0.564782 0.24918
0.811017 0.558633 0.24448
0.810361 0.553307 0.240909
0.810513 0.549615 0.238865
0.810056 0.547112 0.236988
0.809857 0.545556 0.235996
0.809781 0.545281 0.235752
0.808011 0.546502 0.238849
0.804318 0.548913 0.24564
0.168963 0.573236 0.131365
0.163897 0.574548 0.138354
0.159106 0.575814 0.144854
0.157916 0.576532 0.147539
0.157488 0.577554 0.149187
0.158145 0.5785 0.149142
0.158343 0.579705 0.150378
0.159213 0.580713 0.150927
0.160189 0.581231 0.151415
0.159182 0.579736 0.149584
0.160937 0.578698 0.146853
0.179477 0.581689 0.143587
0.230716 0.590494 0.139849
0.295048 0.609155 0.146365
0.369833 0.63473 0.161257
0.479637 0.672572 0.186145
0.609445 0.698238 0.208896
0.696818 0.708247 0.24065
0.760601 0.707759 0.282216
0.793423 0.710445 0.312306
0.81297 0.712551 0.331075
0.827527 0.713237 0.344503
0.837766 0.709361 0.352102
0.842573 0.708247 0.355642
0.842466 0.708232 0.355428
0.84123 0.704356 0.352728
0.839445 0.699123 0.348592
0.838117 0.694774 0.345373
0.837049 0.69102 0.343053
0.836454 0.68867 0.341421
0.83624 0.687221 0.340475
0.83621 0.686366 0.339895
0.836225 0.686656 0.340154
0.199222 0.609613 0.168475
0.197787 0.610727 0.170855
0.194995 0.611734 0.175387
0.192569 0.612818 0.177829
0.19147 0.613794 0.178759
0.191989 0.614664 0.178866
0.192325 0.615381 0.180331
0.19324 0.616053 0.181018
0.19382 0.616617 0.181689
0.193515 0.616205 0.181247
0.192218 0.614801 0.179019
0.200366 0.61561 0.177478
0.235904 0.619379 0.173648
0.305043 0.634516 0.179385
0.37615 0.659175 0.199161
0.452125 0.688289 0.22266
0.558785 0.725307 0.250935
0.672465 0.746975 0.277928
0.743069 0.756909 0.308003
0.794125 0.757076 0.340505
0.823026 0.759228 0.365209
0.838453 0.760021 0.379568
0.847852 0.75993 0.387625
0.852735 0.758511 0.391745
0.854063 0.757229 0.392142
0.853727 0.756283 0.391424
0.853346 0.755474 0.390692
0.85333 0.754818 0.390265
0.853315 0.754467 0.390051
0.853346 0.754406 0.390036
0.853407 0.75465 0.390249
0.853452 0.754971 0.390478
0.853559 0.755505 0.390951
0.230045 0.63978 0.192386
0.227802 0.640604 0.194491
0.223713 0.641489 0.19852
0.221134 0.642283 0.201404
0.219562 0.643061 0.203418
0.219181 0.643931 0.204669
0.219226 0.644556 0.206104
0.219883 0.645182 0.206912
0.220203 0.645701 0.207187
0.220523 0.646052 0.207416
0.218677 0.644083 0.20557
0.220447 0.642985 0.204013
0.244694 0.646113 0.20383
0.305425 0.653864 0.206592
0.384344 0.677852 0.227131
0.454856 0.706111 0.255253
0.531701 0.737346 0.283574
0.634684 0.770443 0.314412
0.728161 0.786374 0.343908
0.781003 0.7953 0.368643
0.819318 0.794781 0.390219
0.842878 0.795605 0.407675
0.853422 0.796429 0.417899
0.857877 0.796353 0.422568
0.859892 0.795407 0.423941
0.859815 0.794873 0.423606
0.859785 0.794568 0.423285
0.859724 0.794354 0.423072
0.859648 0.79411 0.422827
0.859571 0.793927 0.42266
0.859571 0.794003 0.422705
0.859556 0.794278 0.422873
0.859586 0.794705 0.423178
0.251072 0.661753 0.209155
0.248188 0.662089 0.21091
0.243687 0.662425 0.215076
0.240131 0.662867 0.217212
0.238178 0.66331 0.22002
0.237293 0.663783 0.222034
0.237171 0.664195 0.223148
0.237537 0.664439 0.223499
0.237766 0.664546 0.223713
0.237842 0.664591 0.223774
0.236637 0.663798 0.222751
0.235386 0.662394 0.221653
0.251987 0.664073 0.222187
0.304448 0.669429 0.226108
0.386313 0.689113 0.244495
0.460365 0.717754 0.274357
0.526406 0.7467 0.303456
0.60824 0.779095 0.335409
0.700877 0.805112 0.369879
0.772732 0.816327 0.400107
0.809323 0.822248 0.419852
0.837827 0.821515 0.433219
0.853727 0.821546 0.441947
0.859556 0.821881 0.446281
0.861311 0.822019 0.447974
0.86128 0.821912 0.447883
0.861295 0.821973 0.447929
0.861616 0.821973 0.447044
0.862196 0.822019 0.444709
0.863401 0.821942 0.44155
0.864088 0.821836 0.439826
0.864515 0.821897 0.438666
0.864576 0.82211 0.439078
0.269368 0.671443 0.205814
0.265827 0.671504 0.207904
0.259648 0.671458 0.212894
0.255589 0.671427 0.216114
0.251545 0.671595 0.220584
0.250431 0.671626 0.222248
0.250019 0.671611 0.222965
0.250019 0.671611 0.222965
0.250019 0.671611 0.222965
0.250019 0.671611 0.222965
0.250019 0.671611 0.222965
0.248997 0.670542 0.222232
0.259815 0.67158 0.223133
0.309224 0.676829 0.228153
0.388602 0.695171 0.246754
0.471794 0.726635 0.279576
0.538689 0.756848 0.310658
0.608545 0.786816 0.341436
0.687297 0.813443 0.374426
0.761715 0.830274 0.410666
0.808438 0.836713 0.437232
0.832563 0.839826 0.452705
0.852201 0.839261 0.462135
0.861906 0.839216 0.464622
0.865049 0.839338 0.46421
0.865385 0.839445 0.463432
0.865354 0.839338 0.46305
0.865309 0.839323 0.462715
0.865278 0.839399 0.462547
0.865248 0.839551 0.46247
0.865187 0.839765 0.46247
0.865171 0.839918 0.46273
0.865171 0.840146 0.463233
0.269825 0.671595 0.204883
0.266011 0.671534 0.207065
0.259861 0.671458 0.211872
0.255634 0.671412 0.215915
0.25153 0.671611 0.220706
0.250431 0.671626 0.222232
0.250019 0.671611 0.222965
0.250019 0.671611 0.222965
0.250019 0.671611 0.222965
0.250019 0.671611 0.222965
0.250019 0.671611 0.222965
0.250202 0.671641 0.222995
0.256886 0.672068 0.223453
0.305974 0.67718 0.229465
0.384329 0.694667 0.248417
0.462852 0.723384 0.279515
0.529 0.753002 0.309514
0.597284 0.783917 0.340856
0.673121 0.812711 0.373358
0.751369 0.834501 0.41117
0.811612 0.844831 0.446799
0.835599 0.848447 0.469917
0.847745 0.851759 0.484993
0.858228 0.853239 0.496986
0.862684 0.854078 0.502464
0.863935 0.854475 0.502815
0.864561 0.854414 0.50016
0.864622 0.854505 0.499886
0.864271 0.854734 0.501823
0.863554 0.855207 0.504952
0.863432 0.855558 0.506355
0.863737 0.855879 0.505852
0.86453 0.855894 0.503578
0.263813 0.671504 0.218357
0.262226 0.67155 0.217594
0.257603 0.671565 0.220523
0.254185 0.671595 0.221729
0.251316 0.671626 0.221775
0.250431 0.671626 0.222263
0.250019 0.671611 0.222965
0.250019 0.671611 0.222965
0.250019 0.671611 0.222965
0.250019 0.671611 0.222965
0.250019 0.671611 0.222965
0.250019 0.671611 0.222965
0.254185 0.671977 0.223346
0.299611 0.676265 0.228428
0.379461 0.693401 0.247547
0.453864 0.719646 0.277409
0.519936 0.748852 0.3084
0.585946 0.778836 0.338613
0.665415 0.810605 0.371939
0.747143 0.834546 0.40763
0.812512 0.846876 0.44802
0.839246 0.852049 0.477302
0.851148 0.855497 0.495918
0.856657 0.85948 0.520134
0.860868 0.86125 0.538338
0.861875 0.862715 0.548714
0.861952 0.863142 0.551659
0.861738 0.863355 0.553185
0.86125 0.863752 0.555856
0.860548 0.86421 0.559991
0.860288 0.864546 0.563073
0.860319 0.864744 0.564538
0.860746 0.864836 0.564935
0.249729 0.673121 0.246799
0.251575 0.672511 0.239826
0.252262 0.672084 0.234379
0.251637 0.671977 0.230152
0.250462 0.671885 0.227024
0.250401 0.671626 0.222614
0.250004 0.671626 0.222995
0.250019 0.671611 0.222965
0.250019 0.671611 0.222965
0.250019 0.671611 0.222965
0.250019 0.671611 0.222965
0.250019 0.671611 0.222965
0.25333 0.671962 0.223331
0.291112 0.675212 0.227375
0.372793 0.691386 0.245197
0.448341 0.717388 0.275181
0.51252 0.745464 0.306355
0.584268 0.778103 0.340993
0.663203 0.809949 0.375265
0.744274 0.833875 0.40911
0.806653 0.84686 0.447532
0.839811 0.852918 0.479606
0.851667 0.856229 0.498817
0.857008 0.859953 0.523049
0.8607 0.862486 0.545907
0.862043 0.864118 0.558328
0.862119 0.864668 0.562615
0.86186 0.864744 0.563439
0.861357 0.864942 0.565118
0.860761 0.865141 0.567437
0.860288 0.865278 0.568795
0.860059 0.865354 0.569604
0.860288 0.865293 0.568811
0.246296 0.674678 0.262592
0.249042 0.673701 0.253239
0.250248 0.67303 0.245365
0.250431 0.672389 0.238361
0.249851 0.672084 0.233188
0.249805 0.671778 0.22771
0.250004 0.671626 0.223011
0.250019 0.671611 0.222965
0.250019 0.671611 0.222965
0.250019 0.671611 0.222965
0.250019 0.671611 0.222965
0.250019 0.671611 0.222965
0.254566 0.671962 0.223346
0.287297 0.674662 0.226841
0.367437 0.689845 0.243824
0.446662 0.71667 0.274189
0.508095 0.743435 0.30399
0.579507 0.77586 0.339437
0.658717 0.80827 0.375677
0.738628 0.832776 0.410376
0.801343 0.846448 0.448417
0.837369 0.852781 0.480262
0.851438 0.856001 0.498634
0.85658 0.859434 0.519921
0.860639 0.861967 0.542947
0.862028 0.864103 0.55816
0.862119 0.864668 0.562615
0.86186 0.864744 0.563439
0.861357 0.864927 0.565133
0.860761 0.865141 0.567437
0.860288 0.865293 0.568811
0.860059 0.865354 0.569604
0.860059 0.865354 0.569604
0.243885 0.676188 0.275792
0.245274 0.675425 0.268513
0.246815 0.674357 0.259388
0.248478 0.67335 0.249363
0.248737 0.672465 0.240574
0.249073 0.672038 0.231983
0.249714 0.671672 0.224903
0.250019 0.671611 0.222965
0.250019 0.671611 0.222965
0.250019 0.671611 0.222965
0.250019 0.671611 0.222965
0.250019 0.671611 0.222965
0.254902 0.671962 0.223331
0.287114 0.674647 0.22681
0.364996 0.689204 0.243229
0.447929 0.717159 0.274907
0.504707 0.741756 0.302464
0.577569 0.775006 0.33846
0.656764 0.807736 0.375036
0.736568 0.832258 0.410834
0.799237 0.846372 0.450355
0.83537 0.852827 0.483085
0.849928 0.856107 0.500832
0.855955 0.85922 0.519921
0.860258 0.861845 0.542
0.861997 0.863951 0.557122
0.862119 0.864668 0.562615
0.86186 0.864744 0.563439
0.861357 0.864927 0.565133
