bundles/resolve-cinematic-luts/Phantom Luts/Canon Film LUT/ATOMOS Monitoring LUTs/C-Log 2/Eastman Canon CL2 AML.cube
TITLE "Generated by Resolve"
LUT_3D_SIZE 33
0.0995346 0.0995346 0.0995346
0.0995346 0.0995346 0.0995346
0.0995346 0.0995346 0.0995346
0.100755 0.0995346 0.0995346
0.108217 0.0995804 0.0995804
0.120638 0.0996872 0.0996872
0.137987 0.0995499 0.0995499
0.157122 0.0995346 0.0995346
0.178851 0.0996109 0.0996109
0.206989 0.0995804 0.0995804
0.240162 0.0995956 0.0995956
0.274815 0.0996109 0.0996109
0.308385 0.100038 0.0995804
0.341054 0.100374 0.101396
0.372274 0.100145 0.103059
0.401709 0.101671 0.104768
0.429648 0.103731 0.106233
0.457023 0.105013 0.108583
0.482338 0.103944 0.11162
0.505623 0.0996262 0.116548
0.525521 0.0995499 0.131731
0.542565 0.0995346 0.157931
0.554467 0.100298 0.181781
0.556283 0.101579 0.190494
0.556939 0.102388 0.197803
0.556848 0.102571 0.203754
0.557244 0.103365 0.21004
0.557382 0.10428 0.215427
0.557046 0.105196 0.220615
0.554833 0.106538 0.225101
0.551644 0.107988 0.228199
0.547921 0.109651 0.231373
0.546563 0.110506 0.233555
0.0995346 0.0995346 0.0995346
0.0995346 0.0995346 0.0995346
0.0995346 0.0995346 0.0995346
0.0995346 0.0995346 0.0995346
0.104799 0.0995651 0.0995651
0.115221 0.0996262 0.0996262
0.131548 0.0995041 0.0995041
0.151598 0.0996414 0.0996414
0.174075 0.0995651 0.0995651
0.203113 0.0995804 0.0995804
0.236973 0.0995499 0.0995499
0.271992 0.100237 0.0995651
0.305699 0.102846 0.0995804
0.339193 0.103487 0.100557
0.371191 0.103075 0.102266
0.400488 0.103777 0.10425
0.429404 0.106126 0.106035
0.456794 0.108293 0.108141
0.482139 0.107851 0.111101
0.505165 0.103029 0.115053
0.525292 0.0995346 0.125994
0.541451 0.0995193 0.150698
0.553979 0.100206 0.17641
0.554971 0.101137 0.184695
0.555596 0.101976 0.192203
0.55613 0.102632 0.199115
0.556085 0.102861 0.204501
0.556146 0.103731 0.210239
0.555993 0.104646 0.215198
0.554177 0.105943 0.220005
0.551202 0.1075 0.223926
0.547616 0.108934 0.226688
0.54612 0.109819 0.229114
0.0995346 0.0995346 0.0995346
0.0995346 0.0995346 0.0995346
0.0995346 0.0995346 0.0995346
0.100557 0.0995346 0.0995346
0.105241 0.0995804 0.0995804
0.114748 0.0996262 0.0996262
0.13051 0.0995041 0.0995041
0.148653 0.0996414 0.0996414
0.169589 0.0995651 0.0995651
0.198093 0.0995346 0.0995346
0.232853 0.0995499 0.0995499
0.268315 0.101793 0.0995651
0.302922 0.104891 0.0995499
0.337377 0.106264 0.0999161
0.370352 0.105715 0.101671
0.400412 0.106462 0.103838
0.429206 0.109606 0.105364
0.456947 0.11194 0.107713
0.482155 0.112261 0.110323
0.505287 0.108919 0.11397
0.525383 0.0995346 0.121019
0.540719 0.0995041 0.143023
0.553307 0.100053 0.170382
0.553811 0.100847 0.177981
0.554192 0.101381 0.184955
0.554772 0.10219 0.191928
0.55523 0.102892 0.198367
0.554894 0.103136 0.203189
0.554726 0.103914 0.208362
0.55314 0.105135 0.213626
0.550362 0.106691 0.217609
0.544335 0.109041 0.220645
0.538415 0.111315 0.223117
0.0995346 0.0995346 0.0995346
0.0995346 0.0995346 0.0995346
0.0995346 0.0995346 0.0995346
0.10161 0.0995346 0.0995346
0.108019 0.0995804 0.0995804
0.117128 0.0996262 0.0996262
0.131609 0.0995041 0.0995041
0.14902 0.0996414 0.0996414
0.170581 0.0995651 0.0995651
0.19733 0.0995346 0.0995346
0.228367 0.0995041 0.0995041
0.264622 0.102953 0.0995193
0.299413 0.106447 0.0994583
0.333898 0.108858 0.0994736
0.366369 0.109133 0.100938
0.398642 0.109758 0.103136
0.428244 0.112459 0.105013
0.455924 0.115846 0.1066
0.481514 0.117708 0.10901
0.504952 0.116197 0.112291
0.525292 0.106279 0.118608
0.540612 0.0996414 0.132677
0.551888 0.0995804 0.160037
0.552422 0.100099 0.168109
0.552987 0.100923 0.175952
0.553292 0.101335 0.182467
0.553811 0.102037 0.189029
0.554192 0.102785 0.19498
0.553964 0.103273 0.200137
0.552071 0.104021 0.204242
0.549386 0.105516 0.208423
0.543481 0.10779 0.212284
0.537545 0.110094 0.214466
0.102815 0.103319 0.10074
0.101946 0.102907 0.10016
0.102007 0.101701 0.0998398
0.103578 0.100816 0.0998093
0.108675 0.100389 0.0995804
0.120073 0.102113 0.0998703
0.135088 0.0995499 0.100313
0.15227 0.0996414 0.10013
0.172274 0.0995651 0.0995651
0.198337 0.100572 0.0995346
0.233722 0.10193 0.0995499
0.265263 0.104417 0.0995193
0.297887 0.10837 0.0994583
0.331289 0.111192 0.0994888
0.363867 0.112688 0.100099
0.393515 0.112886 0.102266
0.42388 0.115511 0.104173
0.452827 0.119432 0.105867
0.479088 0.122393 0.107942
0.503227 0.123278 0.110918
0.524559 0.117174 0.115846
0.540337 0.103822 0.12665
0.549996 0.0995499 0.144854
0.550866 0.0995651 0.153841
0.551217 0.0996872 0.161425
0.551843 0.100389 0.168872
0.552468 0.101106 0.176089
0.552499 0.101549 0.182223
0.55259 0.10219 0.187655
0.551293 0.103304 0.192248
0.548699 0.104738 0.196658
0.542397 0.106615 0.200259
0.536324 0.108553 0.202289
0.107851 0.120623 0.106584
0.106767 0.12018 0.105653
0.1066 0.118822 0.105028
0.107683 0.117586 0.104891
0.111315 0.117632 0.105409
0.121248 0.117418 0.104875
0.139086 0.119265 0.105303
0.15761 0.114992 0.105837
0.178347 0.109422 0.103807
0.202426 0.106859 0.0994736
0.23508 0.107576 0.0994888
0.270237 0.109545 0.0995041
0.304936 0.111955 0.0996414
0.3346 0.113848 0.0996414
0.364218 0.115846 0.0996719
0.391012 0.116564 0.101381
0.41854 0.119249 0.10341
0.447364 0.122942 0.104891
0.473991 0.127016 0.106554
0.498665 0.129961 0.109071
0.521569 0.12874 0.112856
0.537697 0.1178 0.120394
0.546792 0.107683 0.129244
0.547662 0.10132 0.132174
0.548547 0.0995346 0.139773
0.549493 0.0995651 0.148272
0.550057 0.0997635 0.155962
0.550317 0.10013 0.1626
0.550805 0.100755 0.168475
0.549889 0.101732 0.17406
0.547204 0.102892 0.178195
0.541085 0.104982 0.182208
0.535103 0.107073 0.184573
0.111299 0.139193 0.111116
0.11046 0.138613 0.110323
0.113237 0.137179 0.109026
0.114183 0.135927 0.108843
0.11667 0.1355 0.109178
0.123232 0.135561 0.109697
0.141024 0.134234 0.10808
0.160754 0.134463 0.106844
0.185275 0.13022 0.107515
0.214786 0.121508 0.104311
0.246311 0.115908 0.0995193
0.279347 0.114305 0.0994888
0.311269 0.117098 0.0995041
0.346883 0.118929 0.0996719
0.374487 0.120607 0.0997177
0.399588 0.121218 0.101427
0.421012 0.122377 0.103059
0.443931 0.125551 0.104295
0.470298 0.130694 0.105486
0.493019 0.135286 0.10753
0.516808 0.138323 0.110201
0.53489 0.133333 0.114855
0.542275 0.127733 0.119402
0.543496 0.122286 0.122148
0.544656 0.116991 0.124697
0.545815 0.111757 0.127382
0.546242 0.106142 0.130083
0.547204 0.100542 0.132815
0.547967 0.0995041 0.139208
0.547829 0.0996872 0.145266
0.546441 0.100511 0.150332
0.54287 0.101884 0.154421
0.538537 0.103197 0.157733
0.115969 0.157031 0.113375
0.115099 0.156558 0.112383
0.1149 0.155978 0.111452
0.115923 0.154742 0.111238
0.117693 0.15407 0.111086
0.122789 0.15436 0.111574
0.133394 0.155032 0.113069
0.159976 0.15375 0.110765
0.186007 0.152941 0.110506
0.222263 0.149172 0.110994
0.259922 0.137987 0.10602
0.29456 0.127916 0.0994888
0.322011 0.123049 0.0994888
0.351522 0.125353 0.0994888
0.381277 0.129046 0.0996109
0.410285 0.13048 0.100923
0.434867 0.13254 0.102525
0.454688 0.133242 0.104082
0.469535 0.133791 0.10518
0.488197 0.138094 0.106371
0.508812 0.142733 0.108309
0.528572 0.143862 0.111406
0.535409 0.142016 0.112917
0.536645 0.139773 0.113939
0.537285 0.13698 0.1149
0.538323 0.134829 0.115969
0.539666 0.131792 0.117891
0.540932 0.127855 0.119478
0.541512 0.124361 0.12108
0.542153 0.121981 0.123079
0.541283 0.119478 0.124331
0.537713 0.117418 0.125109
0.533806 0.116213 0.126299
0.118532 0.183078 0.117021
0.117983 0.18262 0.115785
0.11754 0.182025 0.114549
0.117586 0.180743 0.114153
0.118547 0.179583 0.114244
0.122194 0.179522 0.114778
0.13048 0.181216 0.115923
0.149248 0.182345 0.118135
0.184771 0.180987 0.115755
0.222095 0.178302 0.115343
0.269459 0.178637 0.116197
0.3131 0.162264 0.111772
0.344167 0.146395 0.100999
0.368078 0.139498 0.0994888
0.39205 0.136995 0.0995956
0.416068 0.139773 0.100633
0.442405 0.143679 0.101808
0.464729 0.146166 0.103059
0.487037 0.148394 0.104982
0.500664 0.148699 0.105928
0.513176 0.14876 0.107973
0.525856 0.14873 0.109789
0.530495 0.146746 0.11136
0.532341 0.146212 0.11162
0.532204 0.146197 0.111635
0.532464 0.145571 0.111849
0.532662 0.14522 0.112001
0.533379 0.143999 0.112291
0.533806 0.143389 0.112627
0.532799 0.143893 0.112352
0.531914 0.143679 0.112505
0.528664 0.143877 0.112596
0.524834 0.144015 0.112612
0.120256 0.218463 0.119585
0.118288 0.218006 0.118547
0.116991 0.217792 0.117983
0.116686 0.21735 0.117769
0.117037 0.215213 0.117311
0.119432 0.213565 0.117266
0.125734 0.215442 0.118013
0.140078 0.219409 0.120699
0.167269 0.221363 0.124392
0.218997 0.221241 0.121126
0.271244 0.218769 0.12195
0.323888 0.224674 0.124926
0.370642 0.20029 0.123857
0.400076 0.177462 0.10956
0.417487 0.163973 0.101625
0.434134 0.155169 0.101289
0.452079 0.154711 0.10161
0.470085 0.157061 0.10219
0.48629 0.160113 0.103075
0.508873 0.163149 0.104738
0.525368 0.164523 0.106081
0.536995 0.162142 0.108949
0.537911 0.157 0.110521
0.538476 0.154345 0.11165
0.537514 0.154299 0.111315
0.537423 0.153796 0.111315
0.537285 0.151583 0.112215
0.536416 0.150515 0.112169
0.534493 0.149065 0.112047
0.530663 0.148074 0.111299
0.529671 0.147951 0.111299
0.52636 0.148623 0.11104
0.522408 0.149569 0.110704
0.128237 0.26569 0.128206
0.125948 0.265385 0.127443
0.1243 0.265827 0.126833
0.123507 0.265858 0.126909
0.123171 0.265064 0.12694
0.123369 0.262837 0.126467
0.126375 0.262348 0.126665
0.136797 0.266438 0.128359
0.159899 0.273274 0.132494
0.198322 0.276326 0.137819
0.272251 0.278233 0.131762
0.332143 0.276509 0.132342
0.386603 0.284382 0.133883
0.433906 0.262608 0.136477
0.465766 0.231418 0.127687
0.480354 0.203906 0.114992
0.484764 0.184451 0.104707
0.493538 0.1785 0.102434
0.504768 0.176761 0.102602
0.512001 0.175372 0.103075
0.523735 0.177386 0.104097
0.533867 0.175875 0.105104
0.545739 0.174365 0.108598
0.546685 0.17293 0.108873
0.546471 0.171801 0.109133
0.545235 0.170764 0.109178
0.545678 0.1691 0.109957
0.54551 0.167514 0.110552
0.544472 0.166049 0.110552
0.542916 0.165103 0.110201
0.542031 0.164401 0.110338
0.539757 0.165042 0.110369
0.536217 0.165789 0.110216
0.142351 0.323705 0.142794
0.139971 0.324102 0.142412
0.137881 0.324697 0.141909
0.137133 0.325322 0.142153
0.136934 0.326177 0.142489
0.136538 0.324269 0.142031
0.136538 0.322316 0.141527
0.14197 0.323278 0.142092
0.158419 0.329992 0.145068
0.189899 0.337484 0.149493
0.242512 0.339422 0.151339
0.33138 0.341115 0.138888
0.396612 0.339971 0.138857
0.448966 0.347326 0.139528
0.493568 0.331945 0.142916
0.533288 0.303899 0.147295
0.550484 0.263996 0.13315
0.556695 0.235386 0.123583
0.560311 0.220783 0.118013
0.553063 0.205295 0.110643
0.553521 0.200748 0.108797
0.552071 0.195972 0.107256
0.547219 0.190707 0.105867
0.547601 0.189731 0.106691
0.547341 0.189303 0.106798
0.552041 0.191012 0.109453
0.552239 0.189899 0.109728
0.551186 0.18822 0.109194
0.551308 0.187579 0.109346
0.550027 0.18674 0.109133
0.547631 0.185428 0.108522
0.544106 0.185245 0.107912
0.538979 0.185443 0.107027
0.154681 0.383474 0.155718
0.152407 0.38381 0.155947
0.150256 0.384802 0.155917
0.149355 0.385641 0.155917
0.151125 0.386374 0.155459
0.151339 0.387274 0.155673
0.15053 0.384131 0.15494
0.1514 0.382696 0.154513
0.160311 0.385138 0.155489
0.182971 0.394461 0.158434
0.223148 0.400214 0.161349
0.298512 0.401266 0.154879
0.390158 0.40267 0.14052
0.456474 0.399954 0.140322
0.50309 0.404562 0.140826
0.545495 0.399405 0.143755
0.590036 0.389319 0.150927
0.621073 0.34078 0.158602
0.633967 0.310307 0.147204
0.639063 0.285878 0.141985
0.622873 0.253742 0.134707
0.614786 0.239902 0.130358
0.60679 0.229953 0.126116
0.604257 0.227817 0.12546
0.599924 0.224537 0.123522
0.596872 0.22269 0.12192
0.594705 0.22153 0.12105
0.59118 0.219364 0.119799
0.588983 0.217395 0.118715
0.586664 0.21619 0.11812
0.585061 0.21529 0.117617
0.581369 0.214405 0.116457
0.576379 0.214328 0.115602
0.165286 0.441367 0.167987
0.163394 0.441505 0.168307
0.162341 0.442206 0.168704
0.162249 0.443061 0.168505
0.162264 0.444617 0.168566
0.162402 0.44564 0.168566
0.162387 0.445426 0.16846
0.161456 0.441627 0.167681
0.164248 0.441444 0.167529
0.180713 0.446677 0.168215
0.211856 0.45684 0.170077
0.264881 0.459403 0.168429
0.353353 0.457084 0.151598
0.442786 0.457816 0.142184
0.507576 0.454658 0.145418
0.549661 0.459144 0.14757
0.587945 0.462074 0.151827
0.630564 0.46656 0.159121
0.667643 0.429114 0.168978
0.691875 0.392203 0.177554
0.704173 0.363363 0.17052
0.704433 0.337621 0.162799
0.698268 0.316808 0.158526
0.679591 0.290776 0.153689
0.673136 0.282872 0.152117
0.671885 0.280766 0.151873
0.67303 0.282567 0.152255
0.674357 0.283894 0.152743
0.674098 0.283665 0.152697
0.673609 0.283192 0.15256
0.67277 0.282353 0.152193
0.670054 0.281605 0.15201
0.665721 0.281743 0.151614
0.175311 0.495888 0.18117
0.174121 0.495781 0.181689
0.173053 0.496437 0.18233
0.173007 0.497658 0.181689
0.173098 0.498573 0.181674
0.17348 0.49926 0.181888
0.173556 0.499352 0.181872
0.173114 0.498131 0.18143
0.173007 0.496529 0.180957
0.180072 0.497017 0.180346
0.206485 0.506218 0.181353
0.248356 0.513024 0.181506
0.319509 0.511635 0.173205
0.410864 0.508827 0.152987
0.491829 0.509804 0.148348
0.554757 0.50721 0.154406
0.594812 0.511955 0.15848
0.628367 0.516381 0.16286
0.666239 0.52221 0.17026
0.699428 0.503105 0.178653
0.724681 0.484855 0.187152
0.741024 0.454139 0.194522
0.748714 0.422797 0.199344
0.749722 0.398062 0.191943
0.749508 0.395239 0.191409
0.749249 0.395407 0.191302
0.747936 0.393393 0.189899
0.746654 0.391424 0.188983
0.745327 0.389364 0.187823
0.744457 0.386786 0.186603
0.742885 0.384039 0.18529
0.740414 0.381811 0.184527
0.736416 0.380224 0.183917
0.190463 0.546929 0.199252
0.189334 0.546777 0.200229
0.188556 0.54728 0.201389
0.188281 0.547768 0.201648
0.188174 0.548211 0.201831
0.188403 0.548898 0.20209
0.188968 0.549645 0.201953
0.189105 0.548867 0.200763
0.188708 0.546639 0.199023
0.191836 0.547463 0.198795
0.206577 0.549661 0.19765
0.245151 0.561654 0.199054
0.298497 0.563836 0.194018
0.378042 0.56173 0.17734
0.46746 0.558145 0.157412
0.537865 0.559564 0.158541
0.597726 0.557473 0.166735
0.635966 0.560571 0.172335
0.666758 0.565286 0.177615
0.697536 0.569772 0.184161
0.723186 0.565026 0.189792
0.74406 0.566247 0.196612
0.758648 0.54316 0.202029
0.768933 0.519692 0.205783
0.771282 0.509407 0.207431
0.771542 0.505745 0.207614
0.771588 0.504128 0.207782
0.771817 0.502144 0.208225
0.771771 0.499687 0.208331
0.771237 0.49778 0.207782
0.771405 0.495155 0.207996
0.770367 0.492683 0.208331
0.767468 0.490486 0.208469
0.208621 0.595254 0.221302
0.207843 0.594965 0.222019
0.207034 0.594919 0.223407
0.206729 0.594995 0.223545
0.206638 0.595315 0.22359
0.206699 0.595911 0.224018
0.206912 0.596613 0.224643
0.207263 0.596887 0.224445
0.206348 0.594156 0.222431
0.207767 0.592844 0.220554
0.217227 0.596033 0.219211
0.245701 0.603174 0.217151
0.295628 0.613245 0.215961
0.35668 0.61265 0.205295
0.435004 0.609323 0.183703
0.516976 0.605356 0.166476
0.580621 0.607263 0.1729
0.638041 0.605875 0.182483
0.674464 0.60853 0.189654
0.700038 0.612528 0.19585
0.722866 0.616251 0.201801
0.741802 0.619226 0.206668
0.758144 0.622217 0.211429
0.769131 0.60943 0.212573
0.775067 0.609583 0.215137
0.775647 0.608133 0.215259
0.77557 0.608118 0.215213
0.775494 0.607248 0.214969
0.775387 0.605447 0.214466
0.77525 0.603037 0.213855
0.775189 0.60061 0.213336
0.774197 0.598093 0.213001
0.773205 0.596262 0.213413
0.228244 0.641001 0.244694
0.227848 0.640238 0.245289
0.227497 0.639979 0.246586
0.227329 0.639918 0.247013
0.227329 0.640146 0.247364
0.227344 0.640589 0.247868
0.227405 0.641001 0.248295
0.227573 0.641459 0.248478
0.227115 0.640055 0.247791
0.225452 0.637369 0.245212
0.231159 0.639094 0.244114
0.252613 0.645518 0.241596
0.298665 0.654383 0.238102
0.356313 0.66183 0.232273
0.414145 0.657938 0.217151
0.491234 0.652949 0.195361
0.563577 0.650156 0.182223
0.620752 0.652918 0.191669
0.673564 0.651255 0.201892
0.706615 0.653223 0.21033
0.728481 0.656916 0.216739
0.744717 0.659373 0.2215
0.756451 0.661326 0.225132
0.767391 0.66276 0.228733
0.774365 0.663432 0.230686
0.776669 0.663508 0.231128
0.776852 0.663188 0.231022
0.776913 0.66096 0.230381
0.776776 0.660044 0.229786
0.777188 0.658167 0.229358
0.777188 0.655634 0.228367
0.776867 0.654169 0.227893
0.776196 0.653254 0.227893
0.247364 0.678614 0.26569
0.246799 0.677745 0.265873
0.246326 0.677317 0.26717
0.24622 0.677104 0.267781
0.246189 0.677302 0.268879
0.246159 0.677607 0.269627
0.246159 0.677836 0.270191
0.246204 0.677913 0.270222
0.246036 0.677577 0.270008
0.244739 0.674464 0.268116
0.246098 0.67483 0.267689
0.260746 0.67892 0.264836
0.296925 0.687816 0.260426
0.3608 0.695674 0.252964
0.415244 0.70042 0.245212
0.474388 0.695903 0.225818
0.548196 0.689754 0.208591
0.608179 0.688273 0.203021
0.660044 0.691722 0.213703
0.702632 0.691157 0.223682
0.732113 0.69218 0.231525
0.751583 0.694514 0.237385
0.761166 0.69543 0.239948
0.768704 0.696788 0.243168
0.775555 0.696849 0.244968
0.777584 0.69688 0.245487
0.778576 0.696468 0.245533
0.778424 0.695842 0.245167
0.778164 0.695277 0.244556
0.778225 0.694438 0.244175
0.778347 0.693523 0.243961
0.778317 0.692256 0.243565
0.778164 0.69102 0.243
0.263554 0.707088 0.283772
0.263539 0.70631 0.283436
0.263386 0.705974 0.284977
0.263035 0.705699 0.286458
0.262715 0.705608 0.287404
0.26273 0.70576 0.288441
0.262699 0.705837 0.28893
0.262806 0.705943 0.289021
0.262562 0.705669 0.288792
0.261295 0.703319 0.287221
0.259998 0.700725 0.28542
0.26981 0.705119 0.284611
0.302098 0.713161 0.279881
0.366354 0.721447 0.271336
0.423301 0.727703 0.263874
0.474434 0.728496 0.251102
0.531807 0.724071 0.234302
0.601114 0.718227 0.221546
0.650752 0.717937 0.227955
0.692973 0.721843 0.235431
0.725628 0.72105 0.242725
0.749416 0.721675 0.249393
0.765042 0.723201 0.254459
0.772976 0.72488 0.25742
0.776974 0.725307 0.258289
0.779858 0.724666 0.258595
0.78085 0.724224 0.258595
0.780896 0.72372 0.25835
0.780819 0.723064 0.258122
0.780819 0.722408 0.257893
0.780423 0.721599 0.257313
0.780102 0.720378 0.256703
0.780056 0.719203 0.256306
0.274556 0.724666 0.296468
0.274693 0.72398 0.295842
0.274479 0.723507 0.296529
0.274144 0.723247 0.2981
0.273854 0.723186 0.299794
0.273732 0.723186 0.300771
0.273747 0.723323 0.301289
0.273686 0.723232 0.301213
0.273564 0.723003 0.301076
0.272816 0.721584 0.299916
0.271107 0.719188 0.298405
0.279271 0.722423 0.297826
0.307713 0.731197 0.294774
0.372381 0.738338 0.284413
0.430915 0.745449 0.277104
0.47924 0.748531 0.266941
0.529229 0.747753 0.252995
0.588281 0.743572 0.241611
0.644144 0.739666 0.238178
0.688762 0.740734 0.24831
0.71899 0.742794 0.25391
0.744808 0.742275 0.259586
0.762875 0.742611 0.264607
0.773053 0.743725 0.266972
0.778286 0.744472 0.268681
0.780499 0.744808 0.269459
0.781125 0.74464 0.269429
0.781765 0.744335 0.26862
0.782971 0.743618 0.267079
0.784985 0.742535 0.265492
0.786343 0.741436 0.263615
0.786694 0.740429 0.262287
0.78674 0.73962 0.261936
0.280278 0.731991 0.295964
0.280613 0.731609 0.295521
0.280751 0.731228 0.296437
0.280491 0.731075 0.298512
0.280171 0.730999 0.300649
0.280003 0.730968 0.301686
0.279927 0.730968 0.302098
0.279911 0.730968 0.302159
0.279896 0.730953 0.30219
0.27982 0.730892 0.302205
0.278935 0.729503 0.301167
0.284321 0.731411 0.300649
0.312917 0.740475 0.297963
0.376013 0.748165 0.288884
0.439094 0.754406 0.280034
0.487541 0.759594 0.271244
0.533303 0.760403 0.258961
0.586252 0.759289 0.249943
0.640665 0.757366 0.24567
0.685954 0.754894 0.254444
0.721172 0.75581 0.26154
0.743221 0.757305 0.266438
0.763531 0.75671 0.270863
0.775876 0.756741 0.273716
0.783062 0.757443 0.276127
0.786419 0.758022 0.277699
0.786572 0.758083 0.277897
0.78674 0.757671 0.277363
0.786984 0.757061 0.276707
0.787167 0.756374 0.27538
0.787213 0.755749 0.27425
0.787259 0.755016 0.273579
0.787228 0.754177 0.273259
0.280125 0.731868 0.297154
0.280522 0.731533 0.296422
0.280705 0.731212 0.296864
0.280461 0.731075 0.298741
0.280171 0.730999 0.300664
0.280003 0.730983 0.301686
0.279911 0.730968 0.302083
0.279911 0.730968 0.302159
0.279896 0.730968 0.30222
0.279881 0.730953 0.302281
0.280354 0.731106 0.302113
0.286641 0.73312 0.301503
0.314412 0.742306 0.299336
0.380377 0.750957 0.290593
0.441978 0.756893 0.2822
0.492851 0.762417 0.273777
0.537331 0.766201 0.264485
0.584451 0.767437 0.256977
0.638697 0.766949 0.253285
0.682231 0.767788 0.260761
0.720699 0.766461 0.270924
0.743526 0.767025 0.277546
0.759625 0.768383 0.283726
0.774029 0.7682 0.28748
0.783032 0.768734 0.292058
0.788296 0.7691 0.294148
0.789044 0.76939 0.295537
0.789105 0.769192 0.295079
0.78912 0.768734 0.293965
0.789258 0.768261 0.292805
0.789258 0.76762 0.291203
0.789227 0.767025 0.289921
0.788952 0.766461 0.288426
0.279133 0.732998 0.303304
0.279484 0.732067 0.30042
0.279988 0.731517 0.299474
0.280262 0.731182 0.299519
0.280171 0.730999 0.300694
0.280003 0.730983 0.301686
0.279911 0.730968 0.302083
0.279911 0.730968 0.302159
0.279896 0.730968 0.302235
0.279881 0.730968 0.302296
0.279866 0.730968 0.302388
0.28748 0.733577 0.301488
0.316304 0.742977 0.299245
0.382101 0.75108 0.290364
0.44097 0.756817 0.282841
0.485222 0.761608 0.276188
0.527779 0.765743 0.267597
0.573007 0.767773 0.259937
0.6336 0.768978 0.25301
0.680217 0.770947 0.256779
0.728038 0.770184 0.269337
0.748669 0.771298 0.280018
0.76379 0.773281 0.290074
0.773495 0.775692 0.301549
0.782116 0.776791 0.310124
0.788067 0.778088 0.318975
0.789822 0.778912 0.325353
0.789899 0.779141 0.326635
0.789151 0.77908 0.326192
0.78819 0.779004 0.325429
0.78819 0.778759 0.323629
0.788952 0.778164 0.320562
0.790066 0.777325 0.317006
0.277546 0.734569 0.311299
0.278721 0.733211 0.30631
0.279042 0.732036 0.302556
0.279866 0.731365 0.300816
0.280125 0.731029 0.300877
0.280003 0.730983 0.301701
0.279911 0.730968 0.302083
0.279911 0.730968 0.302113
0.279881 0.730968 0.302281
0.279881 0.730968 0.302327
0.279866 0.730953 0.302403
0.286595 0.733104 0.301518
0.315953 0.742901 0.299336
0.380468 0.750957 0.290608
0.438483 0.756634 0.283345
0.485328 0.761669 0.276387
0.527077 0.765743 0.268467
0.572137 0.768124 0.261524
0.631373 0.769284 0.254902
0.67744 0.772198 0.257603
0.725475 0.772564 0.271168
0.75169 0.773754 0.285237
0.766217 0.775555 0.296834
0.776043 0.777462 0.309087
0.781674 0.780499 0.327459
0.787442 0.781643 0.339818
0.790387 0.782879 0.349081
0.790784 0.783703 0.354131
0.790127 0.78378 0.354482
0.789044 0.783871 0.354589
0.788296 0.783978 0.354879
0.7879 0.783841 0.353964
0.788144 0.783459 0.351843
0.275715 0.736034 0.322988
0.276814 0.7346 0.315084
0.278309 0.733059 0.308293
0.279026 0.731746 0.303243
0.279881 0.731151 0.30164
0.280003 0.730983 0.301732
0.279911 0.730968 0.302113
0.279911 0.730968 0.302159
0.279896 0.730953 0.302251
0.279881 0.730968 0.302312
0.279866 0.730953 0.302403
0.286702 0.73315 0.301518
0.31339 0.742016 0.299397
0.376242 0.750347 0.290974
0.435035 0.756374 0.28394
0.481865 0.761501 0.277211
0.528405 0.765911 0.268467
0.573724 0.768231 0.26186
0.63061 0.769375 0.255848
0.675715 0.77229 0.258915
0.720165 0.773419 0.272999
0.749706 0.774731 0.287617
0.766415 0.776486 0.300908
0.776516 0.778592 0.314214
0.78175 0.781079 0.332937
0.786648 0.783459 0.351019
0.790784 0.78468 0.361166
0.790921 0.785275 0.367636
0.790372 0.785794 0.371298
0.789471 0.786053 0.372381
0.788785 0.786221 0.373083
0.788434 0.786343 0.373373
0.788434 0.786343 0.373342
0.274876 0.737728 0.331319
0.275639 0.735882 0.323293
0.276967 0.734264 0.31516
0.278218 0.732403 0.307607
0.279423 0.731334 0.302998
0.279957 0.730983 0.301869
0.279896 0.730968 0.302144
0.279911 0.730968 0.30219
0.279881 0.730968 0.302281
0.279866 0.730968 0.302342
0.279866 0.730968 0.302419
0.285603 0.732876 0.301701
0.310719 0.741405 0.29984
0.370184 0.749935 0.292271
0.432349 0.755978 0.284153
0.47686 0.760998 0.27805
0.523445 0.765316 0.268757
0.569497 0.76817 0.262501
0.624109 0.769955 0.257191
0.669535 0.771862 0.257755
0.711604 0.77319 0.271382
0.746105 0.774716 0.287098
0.763622 0.776394 0.299855
0.774853 0.77818 0.312428
0.780331 0.780896 0.329503
0.785122 0.782788 0.345724
0.790326 0.784558 0.359716
0.790311 0.785275 0.366979
0.789899 0.785931 0.371847
0.789761 0.785977 0.372015
0.790707 0.785702 0.370825
0.793057 0.785061 0.367544
0.794781 0.784558 0.365026
