bundles/resolve-cinematic-luts/Phantom Luts/Canon Film LUT/ATOMOS Monitoring LUTs/C-Log 2/EastmanRM Canon CL2 AML.cube
TITLE "Generated by Resolve"
LUT_3D_SIZE 5
0.102464 0.0937057 0.0976577
0.204105 0.0902571 0.0970932
0.48896 0.0887312 0.113405
0.594568 0.104295 0.178729
0.562982 0.11339 0.237125
0.112291 0.191791 0.105882
0.184421 0.189273 0.104707
0.49485 0.0900282 0.103029
0.572854 0.0982528 0.147616
0.561273 0.102998 0.180926
0.138735 0.53315 0.111315
0.130571 0.540429 0.125414
0.647028 0.653269 0.182986
0.811017 0.564782 0.24918
0.804318 0.548913 0.24564
0.249729 0.673121 0.246799
0.250019 0.671611 0.222965
0.51252 0.745464 0.306355
0.8607 0.862486 0.545907
0.860288 0.865293 0.568811
0.238483 0.683375 0.324529
0.257984 0.671397 0.212741
0.542901 0.759518 0.302449
0.862486 0.861128 0.532784
0.860426 0.865248 0.568429
0.101198 0.10135 0.125536
0.168612 0.0983139 0.138979
0.471275 0.0928511 0.158984
0.582742 0.115297 0.24361
0.563821 0.127871 0.304906
0.109514 0.180682 0.148394
0.171511 0.188037 0.171923
0.495491 0.0911269 0.135515
0.582223 0.106966 0.196384
0.566812 0.113069 0.235264
0.118334 0.535485 0.160998
0.120027 0.535454 0.135103
0.639918 0.644633 0.175616
0.805585 0.507958 0.219257
0.793393 0.48661 0.222232
0.245319 0.694224 0.376287
0.244327 0.675303 0.266926
0.467918 0.725597 0.283574
0.860044 0.861646 0.539666
0.860059 0.865354 0.569604
0.252613 0.716899 0.463432
0.2477 0.682292 0.319997
0.484276 0.73286 0.273426
0.860105 0.860029 0.519753
0.858488 0.865751 0.575448
0.101854 0.133211 0.291829
0.122469 0.129107 0.345769
0.454231 0.109026 0.382223
0.614816 0.162051 0.423758
0.593912 0.173785 0.481086
0.102007 0.161471 0.289845
0.102052 0.140047 0.325887
0.459495 0.112215 0.401236
0.62298 0.15964 0.413565
0.604837 0.169848 0.461753
0.118364 0.543709 0.457328
0.113039 0.54902 0.483513
0.6047 0.617258 0.590646
0.870192 0.448386 0.563622
0.860029 0.424552 0.567681
0.301747 0.748547 0.603143
0.285389 0.748745 0.601267
0.242084 0.681804 0.31664
0.861021 0.865217 0.556527
0.863142 0.874372 0.656855
0.299992 0.754437 0.647242
0.292485 0.753109 0.633555
0.248341 0.689555 0.356542
0.853574 0.862074 0.525338
0.856947 0.878233 0.691875
0.102678 0.190066 0.439902
0.110292 0.183963 0.479744
0.420752 0.164553 0.563272
0.593835 0.194141 0.589548
0.594491 0.193988 0.58912
0.1028 0.202655 0.44213
0.102708 0.198611 0.45008
0.426246 0.170993 0.572946
0.595041 0.193866 0.588586
0.593133 0.194324 0.589914
0.121645 0.545708 0.616342
0.120684 0.543679 0.621729
0.339467 0.502663 0.719661
0.774899 0.360098 0.760571
0.752712 0.342596 0.74519
0.308919 0.754528 0.698421
0.30042 0.755627 0.703273
0.293751 0.750149 0.697505
0.839902 0.873716 0.8448
0.856275 0.871962 0.846571
0.307332 0.759823 0.70779
0.305837 0.760052 0.70837
0.30396 0.75935 0.698695
0.846937 0.8907 0.853651
0.861997 0.896635 0.865278
0.102998 0.201801 0.466712
0.121996 0.194415 0.500786
0.442954 0.171572 0.574258
0.593835 0.194156 0.589548
0.593454 0.194263 0.589746
0.102922 0.204135 0.444984
0.102998 0.201785 0.467491
0.441566 0.171511 0.574212
0.59469 0.193942 0.588937
0.593133 0.194339 0.589929
0.119905 0.538094 0.630045
0.117098 0.530495 0.627314
0.302159 0.463661 0.710887
0.726207 0.308141 0.717403
0.707942 0.293935 0.7037
0.30901 0.755611 0.703487
0.301732 0.756466 0.707973
0.2934 0.749325 0.705867
0.832959 0.866957 0.855726
0.861173 0.860014 0.8533
0.306462 0.759976 0.70837
0.305928 0.760082 0.708766
0.305928 0.760082 0.708766
0.836378 0.888899 0.857664
0.860975 0.89688 0.86627
