bundles/resolve-cinematic-luts/Phantom Luts/Canon Film LUT/ATOMOS Monitoring LUTs/C-Log 2/EastmanRM Canon CL2 AML.cube
TITLE "Generated by Resolve"
LUT_3D_SIZE 9
0.102464 0.0937057 0.0976577
0.114351 0.0928511 0.0973831
0.204105 0.0902571 0.0970932
0.345556 0.0872358 0.100923
0.48896 0.0887312 0.113405
0.570016 0.0970321 0.150225
0.594568 0.104295 0.178729
0.595605 0.106706 0.192935
0.562982 0.11339 0.237125
0.103593 0.111223 0.100603
0.107118 0.108873 0.100404
0.186526 0.0946212 0.097734
0.33753 0.0878309 0.0986496
0.485725 0.0891585 0.111437
0.570718 0.0971695 0.147555
0.590906 0.102953 0.172076
0.592111 0.104845 0.182467
0.560143 0.110826 0.223072
0.112291 0.191791 0.105882
0.109194 0.19205 0.105135
0.184421 0.189273 0.104707
0.367254 0.13196 0.100801
0.49485 0.0900282 0.103029
0.553552 0.095491 0.131609
0.572854 0.0982528 0.147616
0.578805 0.0997787 0.158129
0.561273 0.102998 0.180926
0.10988 0.346578 0.10013
0.105455 0.352483 0.100084
0.111498 0.35201 0.100267
0.393149 0.401404 0.110597
0.632151 0.322438 0.122515
0.592782 0.156786 0.132326
0.573297 0.107942 0.128664
0.572244 0.106172 0.136385
0.561502 0.105516 0.139422
0.138735 0.53315 0.111315
0.128847 0.537743 0.124407
0.130571 0.540429 0.125414
0.213809 0.558221 0.116106
0.647028 0.653269 0.182986
0.799985 0.655161 0.292515
0.811017 0.564782 0.24918
0.810056 0.547112 0.236988
0.804318 0.548913 0.24564
0.251072 0.661753 0.209155
0.238178 0.66331 0.22002
0.237766 0.664546 0.223713
0.251987 0.664073 0.222187
0.526406 0.7467 0.303456
0.809323 0.822248 0.419852
0.861311 0.822019 0.447974
0.862196 0.822019 0.444709
0.864576 0.82211 0.439078
0.249729 0.673121 0.246799
0.250462 0.671885 0.227024
0.250019 0.671611 0.222965
0.25333 0.671962 0.223331
0.51252 0.745464 0.306355
0.806653 0.84686 0.447532
0.8607 0.862486 0.545907
0.861357 0.864942 0.565118
0.860288 0.865293 0.568811
0.254414 0.675563 0.274403
0.256107 0.672526 0.240375
0.264454 0.671427 0.205188
0.268193 0.671809 0.205646
0.524269 0.750729 0.293462
0.806882 0.846555 0.435187
0.862425 0.861173 0.532509
0.864881 0.863584 0.551812
0.860548 0.865202 0.568002
0.238483 0.683375 0.324529
0.243824 0.675761 0.271473
0.257984 0.671397 0.212741
0.267002 0.671748 0.20557
0.542901 0.759518 0.302449
0.819242 0.847745 0.443763
0.862486 0.861128 0.532784
0.863447 0.864149 0.557351
0.860426 0.865248 0.568429
0.101991 0.0958724 0.102831
0.108217 0.0953841 0.104021
0.179599 0.0940566 0.106004
0.319219 0.090959 0.115801
0.468635 0.0905928 0.133944
0.552743 0.100511 0.177768
0.576684 0.10901 0.210575
0.576699 0.111788 0.226734
0.556558 0.117769 0.260502
0.103502 0.10724 0.104921
0.1066 0.105867 0.105913
0.176364 0.0977493 0.106889
0.320394 0.0894331 0.111849
0.469459 0.0911574 0.133608
0.554162 0.101045 0.176883
0.573571 0.107454 0.201343
0.574456 0.110048 0.216449
0.554803 0.114961 0.246296
0.110536 0.189319 0.117082
0.107088 0.190051 0.110582
0.174456 0.186892 0.107271
0.358587 0.119295 0.102663
0.486824 0.0905165 0.108782
0.552529 0.0965286 0.14345
0.573434 0.101488 0.168429
0.576745 0.103197 0.178256
0.559121 0.106569 0.201389
0.108339 0.346242 0.109773
0.105135 0.349493 0.104768
0.107942 0.347112 0.0999466
0.389578 0.396857 0.110323
0.625269 0.294362 0.120348
0.58056 0.138659 0.12546
0.573098 0.106874 0.134066
0.568338 0.104189 0.13666
0.558602 0.1037 0.142077
0.131014 0.534325 0.119783
0.123964 0.538247 0.131716
0.130053 0.539239 0.124224
0.198444 0.554742 0.115663
0.64622 0.651957 0.181491
0.80029 0.652094 0.29102
0.809827 0.551141 0.240238
0.808637 0.531365 0.228275
0.801877 0.532662 0.237018
0.245335 0.661768 0.233433
0.234791 0.663218 0.232944
0.236683 0.663844 0.222797
0.241443 0.662257 0.220417
0.518761 0.743496 0.300389
0.808804 0.821698 0.418051
0.861097 0.821027 0.447089
0.861112 0.82031 0.446769
0.861387 0.8206 0.447211
0.244373 0.677485 0.287297
0.247059 0.673945 0.255299
0.250019 0.671611 0.222965
0.250965 0.671778 0.223163
0.501488 0.740337 0.300771
0.801511 0.846052 0.442588
0.8607 0.862211 0.544518
0.861357 0.864927 0.565087
0.860166 0.865324 0.569162
0.242283 0.686229 0.339849
0.251041 0.676936 0.284916
0.26363 0.671351 0.209247
0.264454 0.671427 0.205188
0.512993 0.745846 0.287648
0.801068 0.845228 0.429786
0.861616 0.861189 0.529854
0.865171 0.863478 0.550988
0.860273 0.865293 0.568841
0.239887 0.69427 0.375326
0.244007 0.682033 0.318517
0.257099 0.671534 0.219516
0.266117 0.67158 0.205402
0.531167 0.754009 0.296513
0.810773 0.846479 0.435737
0.862257 0.860624 0.528176
0.863447 0.864149 0.557351
0.858824 0.865675 0.574258
0.101198 0.10135 0.125536
0.104311 0.0992599 0.136965
0.168612 0.0983139 0.138979
0.319722 0.094377 0.138552
0.471275 0.0928511 0.158984
0.558755 0.104341 0.203662
0.582742 0.115297 0.24361
0.583947 0.120333 0.26743
0.563821 0.127871 0.304906
0.101411 0.107805 0.122896
0.101228 0.103807 0.13135
0.158785 0.0996719 0.143191
0.318303 0.0940566 0.137362
0.473808 0.0925002 0.155917
0.562783 0.10518 0.201251
0.580926 0.113161 0.233661
0.581598 0.117601 0.256199
0.561975 0.125216 0.292897
0.109514 0.180682 0.148394
0.106279 0.180896 0.156268
0.171511 0.188037 0.171923
0.378851 0.124681 0.14284
0.495491 0.0911269 0.135515
0.566567 0.101289 0.173404
0.582223 0.106966 0.196384
0.584863 0.108965 0.208423
0.566812 0.113069 0.235264
0.109194 0.343359 0.154086
0.105486 0.34696 0.150744
0.105501 0.339422 0.110674
0.378088 0.385306 0.124971
0.599344 0.234379 0.127932
0.586816 0.120195 0.147585
0.581582 0.107515 0.162936
0.573724 0.104021 0.162509
0.566995 0.104631 0.171221
0.118334 0.535485 0.160998
0.113527 0.540291 0.172595
0.120027 0.535454 0.135103
0.158755 0.543008 0.115602
0.639918 0.644633 0.175616
0.797848 0.625925 0.273991
0.805585 0.507958 0.219257
0.802274 0.486076 0.213077
0.793393 0.48661 0.222232
0.234272 0.666636 0.296986
0.225864 0.668574 0.299977
0.230915 0.662486 0.242771
0.235492 0.660288 0.218051
0.492271 0.731487 0.287312
0.807462 0.818494 0.408408
0.8607 0.816541 0.442725
0.861006 0.814481 0.441215
0.860975 0.814298 0.440955
0.245319 0.694224 0.376287
0.240452 0.688701 0.351919
0.244327 0.675303 0.266926
0.250019 0.671611 0.222965
0.467918 0.725597 0.283574
0.787594 0.84332 0.431556
0.860044 0.861646 0.539666
0.861357 0.864866 0.56466
0.860059 0.865354 0.569604
0.250507 0.707729 0.430198
0.24448 0.701411 0.404166
0.250156 0.678386 0.295003
0.264454 0.671427 0.205188
0.483803 0.73257 0.273198
0.779721 0.840421 0.412421
0.860914 0.859709 0.517723
0.865721 0.863279 0.548577
0.860502 0.865232 0.568185
0.252613 0.716899 0.463432
0.24712 0.709026 0.434623
0.2477 0.682292 0.319997
0.264454 0.671427 0.205188
0.484276 0.73286 0.273426
0.788632 0.842405 0.418448
0.860105 0.860029 0.519753
0.863447 0.864164 0.557382
0.858488 0.865751 0.575448
0.100572 0.113787 0.184604
0.102464 0.11429 0.199954
0.146304 0.104875 0.232013
0.301488 0.100603 0.229786
0.477165 0.100862 0.250675
0.570413 0.119097 0.285008
0.596506 0.135439 0.319005
0.598642 0.141848 0.339757
0.580224 0.151293 0.377661
0.100633 0.117067 0.181292
0.100664 0.115877 0.192996
0.12845 0.105211 0.239582
0.301396 0.101625 0.244556
0.486488 0.101732 0.255634
0.57702 0.12192 0.288075
0.596445 0.135286 0.318288
0.598566 0.141543 0.33843
0.579736 0.150362 0.375067
0.102663 0.180346 0.202258
0.101961 0.174884 0.215793
0.112535 0.161013 0.258656
0.308034 0.11664 0.269398
0.497032 0.0979629 0.222187
0.582223 0.11545 0.258106
0.599084 0.12668 0.287327
0.602167 0.131777 0.303548
0.584497 0.138643 0.335058
0.108949 0.333303 0.265538
0.105623 0.33608 0.279927
0.105623 0.330831 0.277012
0.38114 0.391363 0.369558
0.655299 0.257832 0.322972
0.652308 0.163729 0.280156
0.593103 0.119051 0.237537
0.582788 0.113054 0.231205
0.575723 0.11519 0.243732
0.116472 0.551461 0.309697
0.111833 0.55996 0.334371
0.110643 0.553613 0.295415
0.115343 0.531594 0.162676
0.622736 0.636561 0.240528
0.804074 0.534401 0.266133
0.814603 0.426398 0.254459
0.811353 0.403006 0.255009
0.804761 0.404547 0.269612
0.233021 0.687434 0.419776
0.223468 0.692485 0.431647
0.21854 0.684123 0.39472
0.220523 0.657404 0.258076
0.413931 0.697643 0.251545
0.801999 0.810895 0.390524
0.860578 0.804898 0.432639
0.860197 0.799496 0.427848
0.859998 0.798459 0.426947
0.273777 0.722713 0.487282
0.261234 0.724544 0.493904
0.251057 0.713634 0.451591
0.243503 0.677073 0.28394
0.350958 0.685664 0.236378
0.738674 0.832303 0.401984
0.857771 0.860929 0.530571
0.861433 0.864668 0.562829
0.860334 0.865263 0.568658
0.275196 0.7355 0.537545
0.27013 0.733516 0.529366
0.25977 0.72369 0.48983
0.249805 0.680873 0.312215
0.332235 0.681331 0.216464
0.719127 0.826764 0.381735
0.859159 0.856535 0.492653
0.865766 0.863325 0.548714
0.860502 0.865263 0.568566
0.276539 0.741253 0.562692
0.273854 0.738827 0.551324
0.264942 0.729122 0.510719
0.249577 0.684916 0.334203
0.339651 0.682963 0.217762
0.719066 0.826749 0.381826
0.856611 0.856657 0.497108
0.863432 0.864134 0.557122
0.858808 0.865705 0.57467
0.101854 0.133211 0.291829
0.101961 0.13193 0.310719
0.122469 0.129107 0.345769
0.276432 0.1084 0.386984
0.454231 0.109026 0.382223
0.581552 0.14464 0.391806
0.614816 0.162051 0.423758
0.614633 0.165972 0.445335
0.593912 0.173785 0.481086
0.101823 0.136461 0.283268
0.101839 0.136034 0.306432
0.112215 0.132601 0.350072
0.275135 0.109819 0.402152
0.462837 0.111315 0.394827
0.589944 0.149935 0.401755
0.615213 0.162905 0.430259
0.614939 0.166796 0.45034
0.59379 0.174334 0.485267
0.102007 0.161471 0.289845
0.1019 0.152789 0.301198
0.102052 0.140047 0.325887
0.230854 0.111452 0.406668
0.459495 0.112215 0.401236
0.596979 0.149035 0.39147
0.62298 0.15964 0.413565
0.624643 0.162295 0.428565
0.604837 0.169848 0.461753
0.10309 0.337591 0.386007
0.103182 0.33637 0.402213
0.103304 0.319066 0.406729
0.201541 0.300298 0.491844
0.552514 0.215335 0.510643
0.60502 0.150835 0.372717
0.623453 0.152438 0.36672
0.62446 0.153643 0.373968
0.605737 0.159609 0.402548
0.118364 0.543709 0.457328
0.113375 0.548989 0.481254
0.113039 0.54902 0.483513
0.117937 0.547112 0.483452
0.6047 0.617258 0.590646
0.837659 0.514061 0.561608
0.870192 0.448386 0.563622
0.867933 0.429541 0.561273
0.860029 0.424552 0.567681
0.251057 0.70251 0.53492
0.23534 0.709087 0.557397
0.232929 0.708766 0.549935
0.224186 0.701152 0.514168
0.310887 0.691859 0.400443
0.784848 0.817685 0.53521
0.867918 0.769741 0.563836
0.865934 0.75584 0.556558
0.8645 0.753613 0.560449
0.301747 0.748547 0.603143
0.289631 0.750851 0.612894
0.285389 0.748745 0.601267
0.276356 0.740414 0.558816
0.242084 0.681804 0.31664
0.679057 0.817853 0.393759
0.861021 0.865217 0.556527
0.864271 0.873762 0.64979
0.863142 0.874372 0.656855
0.296956 0.75288 0.633555
0.293645 0.752941 0.632914
0.28957 0.751827 0.620783
0.281346 0.744579 0.578515
0.247196 0.684779 0.332296
0.647456 0.80383 0.350927
0.857603 0.860334 0.512474
0.863584 0.873793 0.647639
0.858564 0.876844 0.674632
0.299992 0.754437 0.647242
0.296101 0.754788 0.646189
0.292485 0.753109 0.633555
0.284153 0.746792 0.591104
0.248341 0.689555 0.356542
0.6533 0.805798 0.354879
0.853574 0.862074 0.525338
0.861067 0.875883 0.66656
0.856947 0.878233 0.691875
0.102342 0.157885 0.385702
0.102419 0.156847 0.404013
0.112795 0.152285 0.432975
0.233371 0.122911 0.489342
0.422782 0.128405 0.495216
0.556512 0.165225 0.51043
0.599985 0.185428 0.547036
0.599435 0.187198 0.556634
0.594263 0.188891 0.56582
0.102342 0.162234 0.382422
0.102403 0.161151 0.397055
0.107012 0.155322 0.432212
0.227039 0.125307 0.49604
0.429603 0.132799 0.503517
0.567254 0.170916 0.521935
0.601678 0.186038 0.550546
0.597482 0.187854 0.560891
0.590921 0.18999 0.570413
0.102525 0.178454 0.394278
0.102419 0.170428 0.390784
0.102419 0.163546 0.40383
0.1776 0.130892 0.491585
0.424155 0.134508 0.50959
0.570474 0.172778 0.525841
0.608194 0.184451 0.545739
0.604212 0.186374 0.555062
0.593881 0.189044 0.567025
0.10399 0.312535 0.468757
0.103883 0.307195 0.472038
0.103288 0.277485 0.462409
0.113283 0.235386 0.506615
0.425864 0.163058 0.551675
0.559869 0.167208 0.514824
0.612299 0.180911 0.526864
0.610758 0.182437 0.534386
0.597482 0.185992 0.548608
0.118013 0.545861 0.568429
0.117861 0.549264 0.57731
0.118074 0.54789 0.581842
0.114458 0.533181 0.585397
0.456123 0.535103 0.701946
0.796124 0.480842 0.760388
0.843976 0.401038 0.733577
0.834119 0.38088 0.72546
0.818097 0.381903 0.730373
0.236439 0.691768 0.625834
0.229297 0.695964 0.637644
0.228916 0.695857 0.638056
0.223651 0.691447 0.633768
0.327428 0.716228 0.657588
0.766827 0.788632 0.75964
0.867353 0.742809 0.74992
0.867842 0.729213 0.751415
0.861982 0.727855 0.758221
0.310277 0.7561 0.673671
0.301427 0.757839 0.679988
0.30042 0.757427 0.677424
0.298329 0.756237 0.667842
0.291249 0.75201 0.631098
0.672786 0.827527 0.697292
0.842832 0.877653 0.787228
0.858595 0.879515 0.800122
0.858579 0.878447 0.801343
0.315419 0.756313 0.681666
0.303105 0.75874 0.689189
0.301823 0.75845 0.686275
0.300221 0.757351 0.674983
0.29369 0.753384 0.636484
0.599069 0.809171 0.647868
0.818418 0.87483 0.755123
0.857664 0.89163 0.839246
0.85919 0.892088 0.841306
0.307362 0.758434 0.69398
0.304677 0.758846 0.695109
0.302647 0.758968 0.692256
0.30106 0.757931 0.680415
0.294667 0.754025 0.640955
0.604395 0.812604 0.6598
0.815229 0.873686 0.758511
0.85626 0.891554 0.841199
0.858091 0.89337 0.848936
0.102678 0.190066 0.439902
0.102861 0.189731 0.455207
0.110292 0.183963 0.479744
0.203525 0.157687 0.531624
0.420752 0.164553 0.563272
0.551171 0.180682 0.573037
0.593835 0.194141 0.589548
0.595407 0.193774 0.588403
0.594491 0.193988 0.58912
0.102724 0.195804 0.438514
0.102739 0.195148 0.447135
0.105699 0.190784 0.476997
0.204013 0.16437 0.533471
0.433494 0.167636 0.568261
0.562417 0.185031 0.578714
0.594079 0.19408 0.589395
0.593835 0.194141 0.589548
0.59234 0.194507 0.590478
0.1028 0.202655 0.44213
0.102724 0.200198 0.440986
0.102708 0.198611 0.45008
0.176623 0.185077 0.51989
0.426246 0.170993 0.572946
0.564797 0.185763 0.580652
0.595041 0.193866 0.588586
0.594934 0.193896 0.588663
0.593133 0.194324 0.589914
0.103532 0.281605 0.486809
0.103319 0.273869 0.484154
0.102953 0.241871 0.467109
0.103029 0.204746 0.469383
0.359884 0.165728 0.564736
0.547631 0.180453 0.574456
0.595315 0.193683 0.588129
0.595728 0.193729 0.588327
0.593759 0.194217 0.589654
0.121645 0.545708 0.616342
0.121798 0.547662 0.619715
0.120684 0.543679 0.621729
0.114443 0.52079 0.618204
0.339467 0.502663 0.719661
0.757549 0.445502 0.832456
0.774899 0.360098 0.760571
0.760235 0.342184 0.745205
0.752712 0.342596 0.74519
0.231617 0.689693 0.672328
0.230762 0.693034 0.676051
0.23093 0.693095 0.677409
0.227054 0.688228 0.677852
0.271962 0.693782 0.696849
0.708858 0.754635 0.818219
0.855161 0.714672 0.836194
0.867506 0.698116 0.835843
0.863355 0.697597 0.837797
0.308919 0.754528 0.698421
0.301381 0.756176 0.703944
0.30042 0.755627 0.703273
0.297765 0.753933 0.701762
0.293751 0.750149 0.697505
0.68307 0.841581 0.800473
0.839902 0.873716 0.8448
0.855833 0.873747 0.846387
0.856275 0.871962 0.846571
0.315999 0.757977 0.701305
0.305928 0.760021 0.708141
0.305562 0.759945 0.707683
0.305211 0.759823 0.705989
0.30399 0.75935 0.698817
0.531731 0.817639 0.747707
0.848417 0.890181 0.851575
0.865034 0.895155 0.859739
0.865461 0.895369 0.860258
0.307332 0.759823 0.70779
0.306447 0.759976 0.708385
0.305837 0.760052 0.70837
0.305425 0.759869 0.706859
0.30396 0.75935 0.698695
0.532662 0.817853 0.748501
0.846937 0.8907 0.853651
0.859236 0.895506 0.860487
0.861997 0.896635 0.865278
0.102922 0.202289 0.459693
0.103288 0.201495 0.473411
0.115007 0.196109 0.495888
0.215228 0.16495 0.543832
0.435096 0.171466 0.573892
0.561196 0.184955 0.579812
0.593835 0.194156 0.589548
0.594247 0.194049 0.589303
0.593515 0.194232 0.589715
0.102937 0.202914 0.450278
0.102953 0.202136 0.461204
0.108888 0.198398 0.490059
0.214511 0.165621 0.543145
0.445304 0.171618 0.574456
0.56968 0.187274 0.582315
0.593912 0.194125 0.589502
0.593744 0.194171 0.589593
0.59234 0.194507 0.590478
0.102937 0.203372 0.444389
0.102937 0.203922 0.445945
0.102953 0.202106 0.461707
0.188113 0.187228 0.526802
0.435401 0.171496 0.573983
0.570169 0.187625 0.582818
0.594675 0.193942 0.588937
0.594675 0.193942 0.588937
0.593118 0.194339 0.589914
0.103395 0.279088 0.494667
0.10338 0.26743 0.487907
0.103059 0.235065 0.466896
0.102998 0.202457 0.471397
0.364538 0.167452 0.567514
0.547921 0.180957 0.576425
0.59472 0.193973 0.589014
0.594705 0.193973 0.589029
0.593622 0.194247 0.589731
0.122026 0.544259 0.632227
0.12224 0.546075 0.634058
0.119371 0.538293 0.630838
0.111727 0.507408 0.617792
0.30901 0.478874 0.714137
0.734905 0.412406 0.821012
0.741604 0.32752 0.734752
0.727092 0.308659 0.718013
0.722042 0.308812 0.717983
0.242588 0.701091 0.687907
0.242664 0.702861 0.689586
0.241764 0.702174 0.689845
0.233463 0.695598 0.688518
0.261555 0.692714 0.696651
0.675319 0.739513 0.81886
0.844282 0.699489 0.857633
0.857649 0.679072 0.858
0.856947 0.679149 0.858045
0.309239 0.75494 0.702663
0.30193 0.756634 0.707958
0.301503 0.756191 0.707912
0.299443 0.754528 0.707256
0.294911 0.750652 0.706142
0.630396 0.829404 0.801373
0.835874 0.869886 0.855268
0.857633 0.867201 0.857481
0.860838 0.864607 0.854963
0.308934 0.759487 0.706722
0.306065 0.760067 0.708675
0.305928 0.760082 0.708766
0.305928 0.760082 0.708766
0.306065 0.760067 0.708675
0.362615 0.769223 0.719646
0.844022 0.889586 0.858152
0.862577 0.895171 0.862623
0.864012 0.895048 0.861769
0.306493 0.759976 0.708354
0.306127 0.760052 0.708629
0.305928 0.760082 0.708766
0.305928 0.760082 0.708766
0.306035 0.760067 0.70869
0.386725 0.777981 0.727962
0.844053 0.890547 0.857786
0.861128 0.896849 0.866117
0.861036 0.896864 0.866239
0.102998 0.201801 0.466712
0.104295 0.200397 0.479469
0.121996 0.194415 0.500786
0.224704 0.158938 0.548363
0.442954 0.171572 0.574258
0.566247 0.185962 0.580926
0.593835 0.194156 0.589548
0.594125 0.19408 0.589364
0.593454 0.194263 0.589746
0.102953 0.202731 0.45452
0.102998 0.201755 0.467842
0.113085 0.196933 0.494545
0.222019 0.158679 0.547829
0.452125 0.171344 0.574548
0.575113 0.188663 0.583734
0.593912 0.194125 0.589502
0.593744 0.194171 0.589593
0.59234 0.194507 0.590478
0.102922 0.204135 0.444984
0.102937 0.203784 0.446647
0.102998 0.201785 0.467491
0.194766 0.185092 0.529946
0.441566 0.171511 0.574212
0.574304 0.188769 0.584222
0.59469 0.193942 0.588937
0.594675 0.193942 0.588937
0.593133 0.194339 0.589929
0.10341 0.276448 0.492729
0.103227 0.263874 0.485481
0.102937 0.229282 0.463294
0.103502 0.201251 0.475547
0.370214 0.167758 0.568048
0.549813 0.181735 0.577188
0.594079 0.19411 0.589456
0.594461 0.194034 0.589258
0.593606 0.194247 0.589731
0.119905 0.538094 0.630045
0.119844 0.539284 0.631525
0.117098 0.530495 0.627314
0.110063 0.497169 0.613321
0.302159 0.463661 0.710887
0.725017 0.393896 0.810285
0.726207 0.308141 0.717403
0.710979 0.292119 0.701808
0.707942 0.293935 0.7037
0.242695 0.701152 0.689479
0.242359 0.702525 0.690776
0.240513 0.700923 0.690333
0.226184 0.693629 0.688304
0.254536 0.687556 0.694926
0.670817 0.730327 0.817929
0.843748 0.691569 0.858473
0.85803 0.670466 0.858595
0.857343 0.670817 0.858564
0.30901 0.755611 0.703487
0.302251 0.757107 0.70811
0.301732 0.756466 0.707973
0.29955 0.754574 0.707286
0.2934 0.749325 0.705867
0.622522 0.826566 0.800351
0.832959 0.866957 0.855726
0.862333 0.861036 0.851942
0.861173 0.860014 0.8533
0.308736 0.759518 0.706859
0.30605 0.760067 0.708675
0.305928 0.760082 0.708766
0.305928 0.760082 0.708766
0.305928 0.760082 0.708766
0.35465 0.767422 0.718471
0.839139 0.888075 0.858274
0.863661 0.894682 0.862333
0.864027 0.894774 0.861784
0.306462 0.759976 0.70837
0.306111 0.760052 0.708629
0.305928 0.760082 0.708766
0.305928 0.760082 0.708766
0.305928 0.760082 0.708766
0.340444 0.764996 0.714992
0.836378 0.888899 0.857664
0.860746 0.896925 0.866453
0.860975 0.89688 0.86627
