bundles/resolve-cinematic-luts/Phantom Luts/Canon Film LUT/ATOMOS Monitoring LUTs/C-Log 2/Eastman Canon CL2 AML.cube
TITLE "Generated by Resolve"
LUT_3D_SIZE 5
0.0995346 0.0995346 0.0995346
0.178851 0.0996109 0.0996109
0.429648 0.103731 0.106233
0.556939 0.102388 0.197803
0.546563 0.110506 0.233555
0.118532 0.183078 0.117021
0.184771 0.180987 0.115755
0.442405 0.143679 0.101808
0.532204 0.146197 0.111635
0.524834 0.144015 0.112612
0.208621 0.595254 0.221302
0.206348 0.594156 0.222431
0.580621 0.607263 0.1729
0.775067 0.609583 0.215137
0.773205 0.596262 0.213413
0.277546 0.734569 0.311299
0.279881 0.730968 0.302281
0.527077 0.765743 0.268467
0.781674 0.780499 0.327459
0.788144 0.783459 0.351843
0.271077 0.743893 0.360983
0.280919 0.731167 0.295674
0.488014 0.761105 0.266804
0.780529 0.777234 0.307179
0.790585 0.785733 0.371008
0.0995804 0.0995804 0.124758
0.16759 0.0996262 0.146883
0.420874 0.0996414 0.183825
0.549172 0.116625 0.277348
0.541131 0.12517 0.310018
0.113527 0.170672 0.154101
0.184817 0.179446 0.180621
0.447608 0.0996109 0.111666
0.546899 0.106111 0.206912
0.540764 0.112505 0.237385
0.198093 0.595529 0.296681
0.19765 0.582498 0.2327
0.569909 0.593515 0.168414
0.774273 0.552163 0.208942
0.770687 0.520958 0.209171
0.273793 0.775921 0.463691
0.275685 0.73579 0.323003
0.48806 0.761929 0.275685
0.775876 0.777234 0.308446
0.786526 0.778073 0.324575
0.285145 0.795361 0.51986
0.271336 0.746548 0.362799
0.437736 0.755795 0.274022
0.771984 0.77525 0.294697
0.786664 0.78677 0.376379
0.0995193 0.111406 0.295872
0.132952 0.108751 0.34902
0.414084 0.0995499 0.362234
0.558572 0.135439 0.4327
0.559976 0.141909 0.461402
0.0995651 0.147204 0.306508
0.0994888 0.117632 0.327169
0.418097 0.0996109 0.366369
0.560601 0.132631 0.422339
0.558022 0.138659 0.442969
0.193805 0.621042 0.526024
0.191745 0.613794 0.522118
0.589609 0.610498 0.593576
0.791714 0.440604 0.521904
0.780118 0.410178 0.527108
0.314199 0.856153 0.684947
0.312901 0.847211 0.656245
0.303609 0.781521 0.465507
0.767391 0.79295 0.472862
0.796338 0.779675 0.459205
0.316243 0.85861 0.705272
0.314488 0.851164 0.671458
0.269062 0.752712 0.396582
0.72079 0.778378 0.291646
0.793988 0.800732 0.491264
0.0995956 0.148913 0.418311
0.127367 0.135607 0.46894
0.435828 0.121828 0.511208
0.562097 0.152667 0.523629
0.562219 0.152804 0.525185
0.0995956 0.178836 0.42916
0.0995651 0.157839 0.430488
0.43035 0.123949 0.518807
0.562158 0.152544 0.522499
0.562081 0.15285 0.525078
0.196048 0.633844 0.660548
0.191714 0.62005 0.66154
0.450446 0.552483 0.764416
0.757992 0.353597 0.687297
0.74519 0.321569 0.673335
0.314778 0.855879 0.755718
0.310307 0.848875 0.749264
0.31519 0.840131 0.74081
0.817838 0.841276 0.816205
0.862501 0.807553 0.802518
0.320577 0.865019 0.764035
0.320546 0.864607 0.759823
0.317891 0.862089 0.731289
0.774411 0.87895 0.804944
0.873854 0.897536 0.866819
0.099443 0.180545 0.462242
0.14522 0.163516 0.508965
0.458747 0.133608 0.533791
0.562081 0.152865 0.525139
0.562097 0.15285 0.525139
0.0995804 0.189609 0.450919
0.099443 0.180529 0.462638
0.446662 0.133242 0.536385
0.562081 0.152865 0.525139
0.562081 0.152865 0.525139
0.200641 0.636133 0.69221
0.191424 0.611704 0.683864
0.399222 0.525719 0.765621
0.734966 0.318547 0.695628
0.711971 0.276478 0.665644
0.316289 0.857694 0.764065
0.312215 0.850462 0.761822
0.296025 0.826505 0.753048
0.782895 0.82504 0.854261
0.853529 0.766812 0.835325
0.321111 0.865248 0.766155
0.32137 0.865141 0.766461
0.32137 0.865141 0.766461
0.72607 0.898894 0.853254
0.875761 0.8981 0.871107
