bundles/resolve-cinematic-luts/Phantom Luts/Canon Film LUT/ATOMOS Monitoring LUTs/C-Log 2/Eastman Canon-Legacy CL2 AML.cube
TITLE "Generated by Resolve"
LUT_3D_SIZE 33
0.103166 0.0995346 0.0995346
0.103716 0.0995346 0.0995346
0.10518 0.0995804 0.0995804
0.107988 0.0995804 0.0995804
0.113191 0.0996262 0.0996262
0.121462 0.0996872 0.0999466
0.132342 0.0995041 0.100664
0.14638 0.0996109 0.102098
0.162463 0.0995193 0.102312
0.183017 0.0996567 0.102296
0.210361 0.0995956 0.101808
0.243351 0.0995956 0.099733
0.278508 0.100404 0.0996109
0.313237 0.103731 0.100069
0.347921 0.105287 0.102403
0.380041 0.107347 0.103655
0.410864 0.111559 0.104997
0.439506 0.116091 0.106447
0.466209 0.11986 0.108293
0.492378 0.122133 0.111101
0.516808 0.120012 0.115328
0.537453 0.114931 0.124331
0.551232 0.106493 0.134707
0.552621 0.101198 0.13991
0.553521 0.101915 0.148791
0.55433 0.102663 0.157427
0.554681 0.103212 0.164736
0.554833 0.104082 0.171603
0.554681 0.104921 0.177813
0.55201 0.10576 0.182605
0.548547 0.10721 0.187304
0.545113 0.108858 0.190738
0.543679 0.109789 0.194644
0.103258 0.0995346 0.0995346
0.103426 0.0995346 0.0995346
0.104585 0.0995499 0.0995499
0.106477 0.0995804 0.0995804
0.110643 0.0995804 0.0995804
0.117769 0.0996262 0.0996262
0.127871 0.0995041 0.100359
0.142275 0.0995956 0.101656
0.159594 0.0994736 0.101579
0.180468 0.0996109 0.102037
0.206973 0.0995804 0.101595
0.240497 0.100053 0.0995956
0.276478 0.102174 0.0996109
0.312535 0.105318 0.0999924
0.347189 0.107225 0.102022
0.379461 0.109148 0.103273
0.41033 0.11339 0.104799
0.439002 0.117952 0.10602
0.466011 0.121996 0.108019
0.49192 0.124956 0.110475
0.516304 0.123705 0.114199
0.536492 0.118608 0.122576
0.550988 0.110887 0.132616
0.552316 0.104982 0.136461
0.552254 0.101442 0.141787
0.553063 0.10222 0.150576
0.553689 0.102876 0.158297
0.553674 0.103532 0.164996
0.553536 0.104402 0.171283
0.55169 0.105715 0.177005
0.548165 0.106828 0.181384
0.544594 0.108125 0.184863
0.542992 0.109026 0.188357
0.10457 0.0995499 0.0995499
0.104738 0.0995499 0.0995499
0.105699 0.0995804 0.0995804
0.1075 0.0995804 0.0995804
0.110735 0.0995804 0.0995804
0.116976 0.0996262 0.0996262
0.126833 0.0995041 0.100175
0.140154 0.0995956 0.101717
0.156588 0.0995193 0.10135
0.176593 0.0996109 0.101823
0.203723 0.0995804 0.101884
0.237613 0.10132 0.0995499
0.273793 0.103563 0.0995804
0.310796 0.107362 0.0995651
0.345739 0.109071 0.101152
0.379294 0.111543 0.102815
0.410834 0.115541 0.104616
0.439399 0.120119 0.105821
0.465827 0.124544 0.107424
0.49192 0.128008 0.109865
0.516915 0.128237 0.113619
0.53637 0.123552 0.121172
0.551354 0.116426 0.13138
0.551263 0.110674 0.133654
0.551614 0.104906 0.136461
0.551736 0.101579 0.14139
0.552346 0.102342 0.149447
0.552621 0.10312 0.156695
0.552407 0.103716 0.163043
0.550729 0.104921 0.168688
0.54786 0.106432 0.173983
0.541436 0.108705 0.177661
0.534844 0.110704 0.180621
0.103868 0.0995346 0.101564
0.103578 0.0995346 0.101183
0.104234 0.0995346 0.100694
0.10721 0.0995804 0.100252
0.11165 0.0996109 0.100404
0.118364 0.0996414 0.100526
0.127443 0.0995041 0.100862
0.140291 0.0995956 0.101869
0.156909 0.0995041 0.101579
0.175631 0.0996109 0.101915
0.200198 0.0995346 0.101518
0.234333 0.102235 0.0995499
0.269825 0.104509 0.0995651
0.306432 0.108766 0.0995041
0.34226 0.111192 0.100557
0.377646 0.113527 0.102296
0.409171 0.117815 0.103868
0.439063 0.12256 0.105425
0.465614 0.127428 0.107042
0.491203 0.131975 0.108736
0.516213 0.133471 0.1122
0.535454 0.129137 0.119066
0.54931 0.12256 0.128008
0.550042 0.117952 0.13048
0.550179 0.112398 0.132692
0.550896 0.107439 0.135653
0.550652 0.101884 0.137514
0.551019 0.10219 0.145296
0.551202 0.102953 0.152316
0.54963 0.104067 0.158145
0.546731 0.105379 0.162997
0.540475 0.107698 0.167224
0.534203 0.109987 0.17055
0.107103 0.104952 0.104921
0.106096 0.104601 0.104494
0.106004 0.103761 0.104219
0.107149 0.103151 0.103944
0.111284 0.103014 0.103624
0.119234 0.103502 0.103731
0.129259 0.100999 0.1037
0.142184 0.0995956 0.103914
0.15758 0.0994736 0.103487
0.176303 0.0997482 0.10309
0.205173 0.101411 0.101228
0.235508 0.10338 0.0995499
0.268605 0.105791 0.0995346
0.303471 0.110399 0.0995193
0.339742 0.112963 0.100328
0.37232 0.11545 0.10161
0.405417 0.119509 0.103334
0.435645 0.124819 0.104677
0.463737 0.130144 0.106065
0.489616 0.135561 0.108171
0.514611 0.139239 0.111238
0.534722 0.135683 0.116747
0.547036 0.130419 0.124193
0.548333 0.126711 0.126696
0.548455 0.122011 0.128359
0.549249 0.117784 0.130785
0.549493 0.11249 0.132784
0.549981 0.108156 0.135485
0.549233 0.103426 0.137041
0.547662 0.102831 0.141939
0.545052 0.10425 0.147372
0.539117 0.106523 0.1523
0.532921 0.108782 0.155215
0.110292 0.116213 0.108721
0.109407 0.115877 0.108095
0.109407 0.115114 0.107881
0.110033 0.114168 0.107713
0.112413 0.114305 0.108156
0.119341 0.113817 0.107546
0.131121 0.114916 0.107744
0.145251 0.112169 0.10811
0.160601 0.10721 0.10721
0.178607 0.105486 0.105211
0.2056 0.105898 0.101854
0.240696 0.107134 0.0995346
0.276997 0.109148 0.0995499
0.308202 0.11223 0.0996719
0.340246 0.115373 0.0997024
0.369985 0.117845 0.100847
0.399496 0.121828 0.10248
0.430594 0.126543 0.104234
0.458686 0.132464 0.10518
0.485328 0.13875 0.107057
0.510887 0.143694 0.109346
0.532082 0.143404 0.113741
0.543679 0.140368 0.119158
0.545022 0.136965 0.12076
0.546227 0.132937 0.123095
0.547066 0.129198 0.125063
0.547951 0.125673 0.126955
0.54818 0.12166 0.128725
0.54847 0.118303 0.1308
0.546975 0.115038 0.13225
0.544274 0.112566 0.133486
0.53782 0.111849 0.134844
0.531029 0.111147 0.135409
0.113878 0.12961 0.112902
0.11284 0.129213 0.112108
0.115434 0.127871 0.110903
0.116197 0.126955 0.110658
0.11809 0.126696 0.11107
0.12221 0.126955 0.11165
0.133974 0.125963 0.110307
0.148409 0.125978 0.109804
0.16585 0.123079 0.110155
0.186847 0.117006 0.108904
0.213001 0.112215 0.104051
0.247547 0.111666 0.0995804
0.282246 0.114366 0.0995346
0.321477 0.116548 0.0995346
0.352544 0.119295 0.0999313
0.379324 0.121477 0.100999
0.402335 0.124529 0.102312
0.426703 0.128283 0.103532
0.454292 0.13431 0.104875
0.479652 0.140642 0.106203
0.504387 0.146487 0.107744
0.526619 0.149828 0.110674
0.536706 0.149859 0.113268
0.538552 0.147448 0.115068
0.540246 0.14522 0.116167
0.542107 0.142565 0.118044
0.543587 0.140002 0.119646
0.544869 0.13666 0.121324
0.5458 0.133639 0.123293
0.544976 0.131319 0.124285
0.543969 0.129625 0.125887
0.539986 0.129 0.126574
0.535149 0.128252 0.127092
0.118059 0.142992 0.114992
0.117327 0.142641 0.114336
0.117052 0.142245 0.113405
0.11783 0.14136 0.112871
0.119158 0.140856 0.113207
0.122683 0.141039 0.113756
0.130419 0.14136 0.114504
0.146746 0.139376 0.112215
0.164874 0.138537 0.11136
0.190036 0.136202 0.111833
0.221302 0.127779 0.109453
0.258137 0.121111 0.100969
0.292119 0.118853 0.0996109
0.325628 0.121874 0.0995193
0.360449 0.126131 0.0996109
0.391821 0.128649 0.100725
0.418372 0.132509 0.102174
0.438819 0.135225 0.103471
0.454109 0.137575 0.10454
0.474708 0.142 0.105531
0.496437 0.148257 0.1066
0.519722 0.153994 0.108568
0.528176 0.15494 0.110048
0.530007 0.154299 0.110658
0.531106 0.153567 0.111147
0.532296 0.152865 0.111772
0.534127 0.151675 0.112535
0.53576 0.150149 0.113405
0.537148 0.148898 0.114488
0.53756 0.147921 0.115434
0.53695 0.147051 0.116106
0.533501 0.146944 0.116487
0.529564 0.146975 0.116945
0.120394 0.161151 0.118151
0.12015 0.160937 0.117418
0.119753 0.160479 0.116426
0.120104 0.159579 0.115496
0.121004 0.158587 0.115557
0.123339 0.158389 0.115938
0.128176 0.159106 0.116686
0.140093 0.159274 0.117372
0.163561 0.156985 0.114946
0.189792 0.155718 0.114763
0.227024 0.154833 0.115999
0.269551 0.143725 0.111452
0.307073 0.134463 0.101686
0.336889 0.131289 0.0995499
0.368383 0.132372 0.0995193
0.396277 0.136522 0.100313
0.42591 0.14107 0.101717
0.451987 0.145678 0.1028
0.474174 0.149477 0.104295
0.488228 0.151385 0.105135
0.50222 0.154101 0.106279
0.517174 0.157046 0.10779
0.52224 0.157107 0.108583
0.52517 0.157137 0.108873
0.525093 0.157107 0.108873
0.525383 0.156832 0.10901
0.525673 0.156664 0.109117
0.526436 0.156222 0.109483
0.526848 0.155947 0.109682
0.525994 0.156207 0.109468
0.525093 0.156313 0.109453
0.521416 0.157198 0.109422
0.51754 0.15819 0.109224
0.122576 0.187335 0.120714
0.120562 0.187137 0.120287
0.119005 0.187137 0.119509
0.11873 0.186725 0.119188
0.119585 0.185397 0.119753
0.122286 0.184039 0.119509
0.126421 0.184466 0.119249
0.1364 0.186511 0.120714
0.15375 0.186297 0.122255
0.188434 0.185199 0.119966
0.227543 0.182345 0.119585
0.276204 0.183749 0.121019
0.324224 0.168872 0.117464
0.358846 0.156435 0.106493
0.383856 0.149599 0.100832
0.409339 0.146792 0.101045
0.432761 0.149233 0.101717
0.455177 0.153216 0.101991
0.4748 0.157671 0.102922
0.500359 0.164004 0.104448
0.519097 0.168063 0.10576
0.532601 0.168978 0.108049
0.533501 0.166461 0.108949
0.533761 0.16524 0.109606
0.532692 0.164508 0.109163
0.533059 0.164263 0.109361
0.532097 0.162753 0.109865
0.530739 0.161761 0.109804
0.527886 0.16025 0.1093
0.523552 0.158633 0.108522
0.522377 0.158755 0.108461
0.519066 0.159487 0.108095
0.514763 0.160479 0.10779
0.125612 0.224537 0.124819
0.123705 0.224369 0.124147
0.121935 0.224979 0.123522
0.121157 0.224933 0.123308
0.12047 0.224079 0.123171
0.120684 0.222126 0.122652
0.123644 0.221576 0.122835
0.131273 0.224384 0.124269
0.146395 0.228641 0.12665
0.172564 0.22826 0.129793
0.225544 0.22977 0.126711
0.280598 0.227863 0.12723
0.337285 0.235218 0.131411
0.386221 0.2159 0.132494
0.420356 0.195407 0.119463
0.438361 0.178256 0.108476
0.452613 0.168795 0.102373
0.469306 0.166918 0.10219
0.486519 0.168872 0.102907
0.49984 0.171176 0.103227
0.518517 0.176394 0.104387
0.533959 0.179873 0.105882
0.547219 0.181262 0.109026
0.548394 0.180758 0.109438
0.54789 0.179904 0.109682
0.546075 0.178622 0.109667
0.546212 0.177615 0.110048
0.545983 0.176547 0.110552
0.543526 0.174823 0.110109
0.54168 0.173861 0.109636
0.54078 0.173465 0.109636
0.53875 0.17435 0.109606
0.535195 0.175372 0.109575
0.136614 0.27895 0.136004
0.134081 0.2795 0.135851
0.132372 0.280049 0.135302
0.131701 0.280476 0.135134
0.131273 0.280934 0.135302
0.13109 0.279744 0.135042
0.131151 0.277821 0.134386
0.135698 0.278553 0.135164
0.147265 0.283299 0.137804
0.169192 0.288197 0.141451
0.207279 0.288167 0.145251
0.284764 0.293263 0.138491
0.350774 0.293568 0.139116
0.406104 0.302052 0.140795
0.452079 0.285832 0.142962
0.490059 0.261265 0.141176
0.506584 0.227771 0.126696
0.514153 0.207721 0.11632
0.521981 0.198596 0.110628
0.525811 0.190814 0.10634
0.535515 0.19115 0.106493
0.543389 0.191104 0.10663
0.548409 0.190799 0.106661
0.550286 0.190524 0.107774
0.55024 0.190387 0.107942
0.553231 0.191974 0.109682
0.553231 0.191836 0.110246
0.552956 0.19147 0.110628
0.553063 0.19089 0.111055
0.551629 0.189731 0.110369
0.548852 0.188846 0.109483
0.545113 0.188754 0.108751
0.53991 0.189166 0.108171
0.151644 0.342 0.151385
0.148974 0.342626 0.15169
0.146853 0.343648 0.151659
0.146395 0.344533 0.151293
0.147784 0.345647 0.15108
0.147936 0.346456 0.151324
0.147097 0.34345 0.150347
0.148272 0.342016 0.150195
0.154925 0.343572 0.151263
0.171344 0.350851 0.153933
0.201129 0.355062 0.157519
0.257755 0.355993 0.15816
0.349279 0.360967 0.144686
0.418814 0.360418 0.14406
0.467796 0.365881 0.143801
0.511604 0.359716 0.146853
0.556313 0.34815 0.151766
0.57995 0.301595 0.14902
0.59089 0.273289 0.138277
0.596658 0.252049 0.132937
0.587411 0.229541 0.125383
0.58645 0.221866 0.121553
0.586618 0.217273 0.119539
0.585763 0.216312 0.119295
0.583398 0.214649 0.118212
0.581155 0.213443 0.11722
0.57908 0.212131 0.116381
0.577661 0.210986 0.11577
0.576776 0.210391 0.115511
0.575082 0.209369 0.115023
0.573404 0.208621 0.114427
0.570367 0.208194 0.113848
0.565835 0.208606 0.113451
0.163149 0.403952 0.164034
0.161242 0.404257 0.16463
0.159884 0.405081 0.164843
0.159304 0.406027 0.164019
0.159075 0.407309 0.163714
0.159533 0.40853 0.164263
0.159472 0.408164 0.164096
0.159197 0.404578 0.163607
0.161654 0.404517 0.163546
0.173785 0.408789 0.165011
0.195377 0.41735 0.166995
0.235981 0.419593 0.168093
0.316594 0.42005 0.158831
0.40763 0.423056 0.14403
0.476219 0.420279 0.144503
0.520027 0.424475 0.146059
0.560464 0.427817 0.149248
0.604456 0.431968 0.156451
0.640635 0.390707 0.16492
0.664439 0.355413 0.16553
0.676844 0.328878 0.158251
0.676127 0.305806 0.154513
0.670909 0.287526 0.152468
0.652766 0.265629 0.146838
0.647456 0.259815 0.145296
0.646296 0.2589 0.144869
0.649119 0.261051 0.146242
0.65069 0.262333 0.146609
0.650172 0.261982 0.14641
0.65008 0.261921 0.14641
0.64921 0.261295 0.146227
0.646113 0.260517 0.145586
0.641505 0.26099 0.145281
0.172564 0.461921 0.175875
0.170916 0.462058 0.176776
0.169833 0.462867 0.177371
0.169619 0.463828 0.177096
0.169604 0.46479 0.176654
0.169604 0.465644 0.176333
0.169665 0.465827 0.176318
0.16968 0.464149 0.176181
0.169802 0.462928 0.17586
0.175509 0.463096 0.175738
0.194629 0.471077 0.176699
0.223789 0.477684 0.176928
0.283742 0.477852 0.173373
0.375158 0.476493 0.15491
0.460838 0.478782 0.147555
0.526406 0.476356 0.151812
0.568139 0.48098 0.154833
0.603281 0.485863 0.15874
0.64358 0.492592 0.165682
0.680568 0.47187 0.175051
0.710231 0.451926 0.184054
0.730068 0.418845 0.192767
0.737499 0.392966 0.188113
0.738857 0.369284 0.181994
0.738064 0.366079 0.180972
0.737713 0.366018 0.180758
0.73608 0.364294 0.17937
0.734462 0.362234 0.178378
0.733181 0.359564 0.177234
0.731533 0.356985 0.175891
0.729992 0.354162 0.174777
0.727153 0.352285 0.174044
0.722469 0.350805 0.17319
0.183948 0.517082 0.190249
0.182666 0.517143 0.191409
0.181643 0.517876 0.192676
0.181277 0.518578 0.19321
0.181033 0.519097 0.193011
0.181231 0.519799 0.193179
0.181659 0.520531 0.193286
0.181857 0.519722 0.192065
0.181552 0.51725 0.190433
0.184665 0.517952 0.190265
0.195392 0.518471 0.189517
0.22208 0.529335 0.191073
0.264805 0.532662 0.189349
0.343191 0.530632 0.177523
0.435462 0.528572 0.157031
0.509972 0.530632 0.154421
0.572778 0.52929 0.162081
0.611612 0.533196 0.166094
0.644694 0.537987 0.171069
0.679896 0.543221 0.178149
0.711818 0.538415 0.186236
0.738415 0.539849 0.195163
0.757519 0.515496 0.202502
0.768872 0.490089 0.206989
0.771069 0.479393 0.208576
0.771282 0.476051 0.208896
0.771374 0.474189 0.209216
0.77113 0.471626 0.209201
0.770916 0.469123 0.209186
0.770535 0.467033 0.208789
0.770535 0.464485 0.208988
0.768582 0.461692 0.208957
0.765576 0.458991 0.20914
0.200717 0.568246 0.210178
0.199802 0.568185 0.211353
0.198962 0.568353 0.212985
0.198581 0.568765 0.213565
0.198306 0.568994 0.213642
0.198444 0.569421 0.213931
0.198611 0.570108 0.214557
0.198856 0.570336 0.214343
0.198032 0.567864 0.212467
0.199603 0.566842 0.210956
0.207095 0.56907 0.209918
0.22829 0.574685 0.209079
0.264805 0.584863 0.209415
0.321752 0.58407 0.201205
0.404532 0.581018 0.181506
0.490974 0.578073 0.163134
0.555795 0.581628 0.166629
0.614878 0.580514 0.17525
0.654017 0.583642 0.182071
0.684672 0.588174 0.188205
0.713161 0.592187 0.19498
0.737438 0.595956 0.201511
0.758038 0.600092 0.208698
0.772305 0.587289 0.21236
0.777874 0.586969 0.215061
0.779492 0.585657 0.216022
0.779446 0.58558 0.216022
0.779446 0.584588 0.2159
0.778805 0.582345 0.215045
0.778866 0.579736 0.214801
0.778744 0.577005 0.214389
0.77763 0.574395 0.214008
0.776074 0.572305 0.214496
0.221012 0.618891 0.23386
0.220325 0.618326 0.234684
0.219654 0.618296 0.23653
0.219242 0.618448 0.23743
0.219059 0.618692 0.237903
0.219211 0.619135 0.238239
0.219303 0.619471 0.238666
0.219425 0.619715 0.238773
0.218708 0.618067 0.237842
0.21767 0.615351 0.235599
0.222354 0.616693 0.234257
0.238849 0.6215 0.232532
0.271077 0.629755 0.230655
0.32015 0.637858 0.226764
0.381888 0.632898 0.213184
0.463127 0.628992 0.190188
0.540749 0.626719 0.175372
0.598123 0.630762 0.183291
0.654475 0.629831 0.193957
0.693431 0.63267 0.202411
0.721386 0.637461 0.210163
0.742901 0.640879 0.21648
0.757946 0.64361 0.220706
0.772244 0.645396 0.224613
0.780102 0.646311 0.227314
0.781811 0.646403 0.22797
0.78172 0.64622 0.227756
0.781308 0.644083 0.226871
0.781445 0.642985 0.226749
0.781338 0.640528 0.226108
0.781125 0.638346 0.225193
0.780713 0.636637 0.224979
0.77995 0.635721 0.225452
0.243839 0.66688 0.25919
0.242924 0.666087 0.260044
0.24242 0.665858 0.261799
0.242252 0.665904 0.263066
0.242206 0.666148 0.264179
0.242237 0.666392 0.264805
0.242283 0.666621 0.2654
0.242298 0.666651 0.265431
0.242039 0.666178 0.265049
0.239673 0.661875 0.262058
0.241459 0.662242 0.261433
0.252445 0.665171 0.259297
0.278752 0.673182 0.256321
0.330724 0.682078 0.252049
0.386542 0.686931 0.244251
0.447181 0.680797 0.225025
0.5234 0.674388 0.204761
0.588464 0.672938 0.196109
0.638926 0.679194 0.206607
0.690547 0.678523 0.217395
0.726741 0.680247 0.226535
0.751781 0.683726 0.234485
0.763775 0.685359 0.238209
0.772564 0.68748 0.241627
0.77969 0.687938 0.243732
0.780072 0.687877 0.243839
0.78056 0.687465 0.243824
0.780713 0.686473 0.24361
0.780865 0.685634 0.243473
0.780911 0.684504 0.243061
0.780774 0.68336 0.242359
0.780636 0.681651 0.241733
0.780072 0.680201 0.240879
0.264881 0.705364 0.283238
0.264378 0.704448 0.283467
0.264088 0.704387 0.285878
0.263828 0.704036 0.286732
0.263508 0.704067 0.288258
0.263554 0.704204 0.28896
0.263523 0.70428 0.289311
0.263661 0.704479 0.289479
0.263355 0.704067 0.289174
0.26157 0.700664 0.287098
0.259998 0.697627 0.285008
0.268803 0.701976 0.284947
0.291951 0.707591 0.280415
0.342916 0.716869 0.274556
0.400275 0.7234 0.267201
0.451652 0.723903 0.256107
0.51046 0.718196 0.236194
0.583505 0.710506 0.220661
0.634684 0.711147 0.221317
0.679942 0.717739 0.232044
0.720424 0.716991 0.240467
0.750423 0.718303 0.249424
0.769436 0.720989 0.255589
0.778561 0.723217 0.259037
0.78204 0.723857 0.259892
0.78233 0.723217 0.259541
0.782391 0.722591 0.259281
0.782361 0.72192 0.259022
0.782162 0.721019 0.258518
0.782071 0.719783 0.258
0.782025 0.718517 0.257572
0.781949 0.717006 0.25713
0.781552 0.71545 0.256336
0.278614 0.72752 0.299336
0.278569 0.726925 0.299428
0.27834 0.726528 0.301076
0.278187 0.726207 0.301839
0.277806 0.726131 0.303624
0.277577 0.726146 0.304723
0.277546 0.726207 0.305241
0.277455 0.726101 0.30515
0.277272 0.725872 0.304952
0.276219 0.724102 0.303548
0.274571 0.721798 0.301808
0.28159 0.724605 0.301625
0.303212 0.731807 0.299382
0.353826 0.738903 0.291173
0.411841 0.745953 0.283558
0.460151 0.748837 0.274189
0.511971 0.74818 0.25922
0.568963 0.744152 0.246296
0.630411 0.739132 0.237934
0.674769 0.741314 0.247364
0.712276 0.745251 0.25417
0.744595 0.744732 0.26128
0.768307 0.745998 0.268376
0.778058 0.747677 0.271641
0.782559 0.748775 0.273121
0.782666 0.749508 0.273106
0.782666 0.74934 0.272953
0.78323 0.748959 0.272389
0.784207 0.747906 0.270665
0.785946 0.746471 0.267811
0.787167 0.745235 0.266285
0.787686 0.743847 0.265171
0.787732 0.742855 0.264744
0.28397 0.734432 0.298756
0.284092 0.73402 0.298878
0.284016 0.733654 0.300206
0.283833 0.733425 0.301778
0.283421 0.733364 0.303944
0.283238 0.733318 0.305119
0.283131 0.733303 0.305745
0.283131 0.733303 0.305806
0.283131 0.733288 0.305898
0.283101 0.733288 0.305974
0.283375 0.733379 0.305943
0.288258 0.735332 0.305653
0.309667 0.742199 0.303319
0.35906 0.750088 0.296284
0.421393 0.755688 0.286625
0.469749 0.760845 0.278737
0.517968 0.762905 0.266453
0.569421 0.762951 0.257008
0.628824 0.761028 0.251347
0.676326 0.758907 0.253559
0.715129 0.761471 0.263096
0.743297 0.762966 0.269047
0.768597 0.762264 0.274617
0.781888 0.762417 0.278965
0.786984 0.763149 0.280415
0.787243 0.763455 0.280461
0.787335 0.763653 0.280613
0.787533 0.763424 0.2804
0.787747 0.762844 0.28011
0.787915 0.762295 0.279103
0.788006 0.761532 0.278065
0.788083 0.760693 0.277302
0.787945 0.759823 0.276555
0.283757 0.734325 0.300023
0.28397 0.733944 0.299702
0.284001 0.733577 0.300496
0.283803 0.733394 0.301854
0.283421 0.733364 0.303944
0.283238 0.733318 0.305119
0.283131 0.733303 0.305745
0.283131 0.733303 0.305806
0.283116 0.733288 0.305898
0.283116 0.733288 0.305974
0.283772 0.733471 0.305791
0.289509 0.735698 0.30544
0.309514 0.742168 0.303471
0.36112 0.750118 0.296574
0.423117 0.756161 0.287694
0.474403 0.761425 0.280079
0.521096 0.765728 0.269383
0.568475 0.768872 0.262531
0.624857 0.77052 0.259007
0.673472 0.772961 0.26215
0.715068 0.772396 0.272725
0.743832 0.772229 0.279377
0.764096 0.773007 0.285634
0.780148 0.772107 0.289326
0.787121 0.772198 0.293019
0.788434 0.772442 0.294026
0.788693 0.772885 0.295171
0.788708 0.772808 0.294926
0.788785 0.77258 0.294194
0.788968 0.772183 0.293233
0.789029 0.77174 0.292042
0.789075 0.771374 0.291035
0.789105 0.771054 0.290303
0.282887 0.735271 0.305348
0.283131 0.734585 0.303212
0.283299 0.733959 0.3028
0.283497 0.733547 0.302861
0.283421 0.733364 0.303975
0.283238 0.733318 0.305135
0.283131 0.733303 0.305745
0.283131 0.733303 0.305806
0.283116 0.733288 0.305898
0.283101 0.733288 0.305989
0.283406 0.733379 0.305943
0.29041 0.736034 0.305318
0.311055 0.742687 0.303395
0.362432 0.750271 0.296452
0.4224 0.75613 0.288502
0.46659 0.76083 0.282261
0.510445 0.765042 0.273259
0.557214 0.768811 0.265248
0.617807 0.770199 0.256931
0.670756 0.772335 0.256916
0.723857 0.772519 0.270634
0.750027 0.772534 0.280888
0.768627 0.773266 0.290089
0.779568 0.774578 0.299382
0.786648 0.775723 0.305745
0.790066 0.776761 0.311498
0.790951 0.777707 0.31603
0.790707 0.777874 0.317067
0.789929 0.77792 0.317128
0.788617 0.777935 0.317128
0.788159 0.777661 0.315969
0.788663 0.777173 0.313802
0.789853 0.776547 0.310719
0.281895 0.736461 0.311025
0.282521 0.73547 0.307424
0.282811 0.734508 0.305425
0.283131 0.733806 0.304219
0.28336 0.733379 0.304173
0.283238 0.733318 0.305135
0.283146 0.733303 0.30573
0.283146 0.733303 0.30576
0.283116 0.733288 0.305943
0.283101 0.733288 0.306004
0.283162 0.733303 0.30605
0.289601 0.735729 0.305455
0.311147 0.742718 0.303395
0.360815 0.750118 0.296727
0.419486 0.755642 0.288701
0.46685 0.760906 0.282704
0.50956 0.765042 0.274281
0.555978 0.768872 0.26688
0.614664 0.770199 0.258808
0.667521 0.772412 0.257298
0.72108 0.77351 0.271977
0.753857 0.773617 0.285328
0.771145 0.774609 0.295521
0.781964 0.776013 0.305913
0.786847 0.778759 0.320256
0.789776 0.77995 0.329915
0.790219 0.781064 0.337331
0.790097 0.781811 0.342184
0.789563 0.781888 0.342748
0.788434 0.78204 0.343206
0.787655 0.782162 0.34345
0.787289 0.782116 0.342779
0.787655 0.78175 0.340627
0.280415 0.737438 0.321263
0.281163 0.736507 0.31519
0.282002 0.735332 0.309941
0.282628 0.734203 0.306325
0.283055 0.733562 0.305379
0.283223 0.733318 0.30518
0.283131 0.733303 0.305745
0.283131 0.733303 0.305821
0.283116 0.733303 0.305898
0.283101 0.733288 0.305989
0.283085 0.733288 0.306065
0.289342 0.735622 0.305501
0.309728 0.742214 0.303471
0.35761 0.750088 0.297475
0.41561 0.755123 0.289174
0.462867 0.760235 0.282994
0.510994 0.765194 0.274144
0.557031 0.768994 0.267369
0.613519 0.770397 0.260029
0.665949 0.772519 0.258869
0.714519 0.774075 0.273136
0.751217 0.774456 0.287114
0.77142 0.775372 0.298894
0.782712 0.776898 0.309804
0.787182 0.779232 0.324239
0.789899 0.781491 0.339956
0.790311 0.782773 0.348302
0.790555 0.783734 0.35433
0.790082 0.784253 0.357626
0.789075 0.784543 0.358846
0.788403 0.784741 0.359747
0.788083 0.784833 0.360067
0.788067 0.784833 0.360052
0.279423 0.738262 0.327352
0.280354 0.737331 0.321813
0.281056 0.736187 0.315572
0.281941 0.734829 0.309819
0.282704 0.733776 0.306523
0.283085 0.733379 0.30573
0.283131 0.733303 0.305776
0.283131 0.733303 0.305852
0.283116 0.733288 0.305928
0.283101 0.733288 0.30602
0.283085 0.733288 0.306065
0.288502 0.735393 0.305638
0.308248 0.741726 0.303624
0.352392 0.749523 0.298238
0.412436 0.754894 0.289738
0.45771 0.759808 0.283894
0.505562 0.764889 0.275471
0.553109 0.768795 0.268101
0.606287 0.770123 0.261036
0.659693 0.77232 0.258839
0.70428 0.774014 0.27245
0.747051 0.774502 0.286809
0.768032 0.775326 0.298161
0.780758 0.776638 0.308522
0.786191 0.778958 0.321508
0.789075 0.780819 0.335042
0.789776 0.782544 0.346853
0.790005 0.783719 0.354009
0.789593 0.784421 0.358236
0.789395 0.784482 0.358465
0.790356 0.784192 0.35729
0.792691 0.783566 0.353948
0.794507 0.783062 0.351431
0.280171 0.73933 0.320821
0.281102 0.738399 0.315526
0.282231 0.73724 0.309499
0.283284 0.735683 0.302617
