bundles/resolve-cinematic-luts/Phantom Luts/Canon Film LUT/ATOMOS Monitoring LUTs/C-Log 2/Eastman Canon-Legacy CL2 AML.cube
TITLE "Generated by Resolve"
LUT_3D_SIZE 9
0.103166 0.0995346 0.0995346
0.113191 0.0996262 0.0996262
0.162463 0.0995193 0.102312
0.278508 0.100404 0.0996109
0.410864 0.111559 0.104997
0.516808 0.120012 0.115328
0.553521 0.101915 0.148791
0.554681 0.104921 0.177813
0.543679 0.109789 0.194644
0.107103 0.104952 0.104921
0.111284 0.103014 0.103624
0.15758 0.0994736 0.103487
0.268605 0.105791 0.0995346
0.405417 0.119509 0.103334
0.514611 0.139239 0.111238
0.548455 0.122011 0.128359
0.549233 0.103426 0.137041
0.532921 0.108782 0.155215
0.120394 0.161151 0.118151
0.121004 0.158587 0.115557
0.163561 0.156985 0.114946
0.307073 0.134463 0.101686
0.42591 0.14107 0.101717
0.50222 0.154101 0.106279
0.525093 0.157107 0.108873
0.526848 0.155947 0.109682
0.51754 0.15819 0.109224
0.151644 0.342 0.151385
0.147784 0.345647 0.15108
0.154925 0.343572 0.151263
0.349279 0.360967 0.144686
0.556313 0.34815 0.151766
0.587411 0.229541 0.125383
0.583398 0.214649 0.118212
0.576776 0.210391 0.115511
0.565835 0.208606 0.113451
0.200717 0.568246 0.210178
0.198306 0.568994 0.213642
0.198032 0.567864 0.212467
0.264805 0.584863 0.209415
0.555795 0.581628 0.166629
0.713161 0.592187 0.19498
0.777874 0.586969 0.215061
0.778805 0.582345 0.215045
0.776074 0.572305 0.214496
0.278614 0.72752 0.299336
0.277806 0.726131 0.303624
0.277272 0.725872 0.304952
0.303212 0.731807 0.299382
0.511971 0.74818 0.25922
0.712276 0.745251 0.25417
0.782559 0.748775 0.273121
0.784207 0.747906 0.270665
0.787732 0.742855 0.264744
0.281895 0.736461 0.311025
0.28336 0.733379 0.304173
0.283116 0.733288 0.305943
0.311147 0.742718 0.303395
0.50956 0.765042 0.274281
0.72108 0.77351 0.271977
0.786847 0.778759 0.320256
0.789563 0.781888 0.342748
0.787655 0.78175 0.340627
0.279667 0.740246 0.325216
0.283513 0.734707 0.301289
0.285344 0.733577 0.293751
0.304509 0.740063 0.293034
0.49723 0.762768 0.267384
0.698039 0.77261 0.256992
0.790173 0.776516 0.308232
0.795163 0.782849 0.350759
0.794202 0.783139 0.351781
0.276066 0.742733 0.350134
0.280873 0.736538 0.316716
0.284459 0.733471 0.298604
0.294194 0.73669 0.294835
0.469093 0.760098 0.272786
0.674968 0.771801 0.250935
0.786236 0.775677 0.303395
0.793713 0.782757 0.349462
0.790112 0.784253 0.35761
0.0995346 0.0995346 0.101961
0.110185 0.0995804 0.104417
0.156985 0.0995041 0.11371
0.274067 0.0996109 0.103593
0.401801 0.104997 0.106142
0.505562 0.0996414 0.123491
0.543633 0.108354 0.184329
0.544518 0.111681 0.209552
0.5337 0.11635 0.227436
0.104891 0.10132 0.106233
0.109789 0.0997482 0.106722
0.157336 0.0994888 0.109133
0.270207 0.102556 0.0995651
0.402457 0.115892 0.104402
0.505714 0.121813 0.116609
0.538628 0.106722 0.153094
0.540398 0.109087 0.179751
0.532006 0.113405 0.195804
0.119493 0.157687 0.125002
0.116503 0.156573 0.118532
0.159625 0.154101 0.115816
0.301595 0.129595 0.0995193
0.423346 0.13904 0.101732
0.494697 0.150698 0.106233
0.527443 0.153292 0.112108
0.533532 0.146426 0.116289
0.527611 0.14287 0.12015
0.149386 0.336736 0.160845
0.144778 0.338369 0.154025
0.149096 0.337041 0.149096
0.34403 0.354131 0.144228
0.552773 0.317052 0.152972
0.572824 0.217197 0.118654
0.570977 0.20647 0.113268
0.564813 0.20238 0.111421
0.555871 0.201709 0.110369
0.197772 0.566293 0.222309
0.195773 0.56524 0.218982
0.197757 0.565133 0.210513
0.251423 0.580636 0.20853
0.552148 0.576944 0.164965
0.712978 0.58555 0.193347
0.777813 0.571603 0.213794
0.778012 0.559548 0.212543
0.775265 0.546822 0.213016
0.273976 0.729259 0.314214
0.274784 0.724987 0.308095
0.275593 0.723445 0.302892
0.289723 0.725521 0.298177
0.499794 0.746441 0.260868
0.707942 0.74168 0.251286
0.782254 0.743618 0.270344
0.78262 0.742245 0.269566
0.782483 0.737118 0.26656
0.276875 0.742626 0.342351
0.280888 0.736721 0.316915
0.283116 0.733303 0.305867
0.295735 0.737682 0.30486
0.495033 0.763546 0.27718
0.705364 0.773053 0.26688
0.785473 0.777737 0.314427
0.789502 0.781064 0.33724
0.787366 0.780896 0.334798
0.27303 0.750011 0.380011
0.279332 0.740536 0.327581
0.285344 0.733577 0.293751
0.291722 0.735943 0.294041
0.477028 0.760983 0.270985
0.682887 0.772 0.251835
0.788586 0.775906 0.304341
0.795163 0.782712 0.349981
0.787427 0.785046 0.360983
0.271946 0.754589 0.400031
0.276951 0.743465 0.342885
0.284321 0.733593 0.298955
0.286839 0.734157 0.295094
0.4533 0.758572 0.274693
0.659419 0.770764 0.248432
0.783566 0.775082 0.299611
0.793576 0.782559 0.348028
0.786633 0.78526 0.362371
0.0995804 0.0995804 0.122072
0.106889 0.0996414 0.130022
0.152712 0.0995041 0.13666
0.274952 0.0995804 0.138888
0.404379 0.0995651 0.148074
0.509865 0.100175 0.202136
0.547967 0.115892 0.249683
0.549554 0.120531 0.274189
0.540352 0.126238 0.287846
0.100511 0.101381 0.121401
0.0999466 0.0996109 0.126894
0.147539 0.0995041 0.135027
0.274922 0.0996719 0.129168
0.406958 0.0996414 0.126772
0.511498 0.10013 0.179568
0.544289 0.113542 0.229465
0.545815 0.117357 0.254459
0.538491 0.123033 0.270024
0.116091 0.151522 0.142046
0.113481 0.150042 0.141756
0.162783 0.156252 0.158404
0.322637 0.124956 0.125048
0.429053 0.115267 0.107698
0.514855 0.113817 0.119875
0.544671 0.105989 0.160601
0.546273 0.10779 0.184604
0.538476 0.112291 0.199893
0.149889 0.32578 0.190738
0.145174 0.326268 0.182742
0.141558 0.322759 0.154269
0.33312 0.341238 0.155047
0.530373 0.259281 0.148135
0.56202 0.205203 0.119677
0.581201 0.201282 0.130358
0.57847 0.195834 0.130175
0.569436 0.19295 0.129809
0.19205 0.561288 0.261753
0.18909 0.558831 0.252811
0.190356 0.554101 0.218357
0.221866 0.56643 0.206577
0.544121 0.567025 0.162936
0.715236 0.571801 0.191196
0.775998 0.525582 0.210468
0.775265 0.507988 0.210437
0.770886 0.49221 0.210636
0.263478 0.737118 0.371435
0.264347 0.72932 0.350301
0.269627 0.719554 0.309438
0.270741 0.713252 0.294026
0.470497 0.742321 0.265721
0.699626 0.734325 0.244495
0.781872 0.733654 0.264714
0.782696 0.729686 0.263005
0.782345 0.723079 0.259525
0.27396 0.768963 0.441123
0.272053 0.754421 0.397986
0.280369 0.737301 0.321553
0.283635 0.733455 0.305943
0.469474 0.761013 0.281712
0.680049 0.772503 0.257954
0.781552 0.775998 0.30544
0.789059 0.778881 0.323583
0.786923 0.778042 0.317754
0.279988 0.782879 0.484398
0.27361 0.766842 0.439704
0.278477 0.741619 0.332631
0.285115 0.733532 0.294728
0.44445 0.757443 0.275257
0.652934 0.77084 0.248676
0.783444 0.774716 0.297536
0.794842 0.782345 0.347082
0.787594 0.785016 0.36083
0.282704 0.787152 0.497993
0.274632 0.771725 0.455146
0.276555 0.744762 0.34786
0.285023 0.733562 0.295415
0.418036 0.754696 0.279301
0.626719 0.769848 0.250507
0.776715 0.774197 0.29305
0.793164 0.781689 0.343191
0.78616 0.785397 0.363287
0.0994736 0.102327 0.173709
0.0995193 0.103349 0.19028
0.139361 0.104005 0.218036
0.260014 0.0995651 0.220188
0.400366 0.0996872 0.247761
0.519753 0.113848 0.294286
0.560174 0.129381 0.330632
0.561852 0.131716 0.349508
0.554086 0.135225 0.360784
0.0994888 0.104448 0.168109
0.0995041 0.103471 0.183948
0.126024 0.105425 0.22121
0.260563 0.0995651 0.221973
0.404959 0.0994736 0.24538
0.522683 0.115526 0.291798
0.558465 0.129015 0.324666
0.561135 0.13196 0.342321
0.553445 0.134966 0.352712
0.101701 0.14992 0.194446
0.0995956 0.145022 0.201221
0.110903 0.135943 0.241169
0.272572 0.102998 0.235462
0.407935 0.0996719 0.223835
0.522683 0.111498 0.268894
0.555856 0.124575 0.300511
0.559289 0.126833 0.315465
0.553414 0.130373 0.324208
0.135988 0.315251 0.265949
0.133501 0.315114 0.267079
0.131594 0.307683 0.261692
0.354971 0.357092 0.352407
0.551064 0.258701 0.30663
0.644663 0.190951 0.30164
0.622934 0.160159 0.294789
0.601862 0.147402 0.284977
0.582788 0.141253 0.278798
0.202365 0.585855 0.390188
0.198459 0.580316 0.386236
0.191775 0.565362 0.351217
0.197162 0.541268 0.255756
0.534554 0.557351 0.237339
0.73254 0.509651 0.2663
0.783734 0.436744 0.275242
0.778851 0.42118 0.273182
0.769543 0.409003 0.268818
0.269123 0.766125 0.494087
0.264302 0.755825 0.482582
0.254551 0.736996 0.436576
0.255222 0.700664 0.305776
0.425849 0.730785 0.271962
0.686381 0.719738 0.238041
0.780285 0.714656 0.257771
0.780667 0.70489 0.255253
0.780133 0.694652 0.25066
0.301503 0.820996 0.570321
0.296513 0.810407 0.552209
0.282307 0.78677 0.496757
0.27834 0.739284 0.332708
0.371038 0.751003 0.29424
0.625574 0.770443 0.25742
0.774975 0.773602 0.293126
0.787533 0.77435 0.301305
0.784222 0.772564 0.298054
0.308141 0.830671 0.599786
0.302663 0.820813 0.576288
0.288182 0.796994 0.521721
0.276524 0.743481 0.347463
0.322225 0.745022 0.293019
0.578424 0.76849 0.255543
0.770153 0.773236 0.285985
0.794461 0.781323 0.341146
0.787869 0.785 0.360967
0.308751 0.831998 0.604486
0.304311 0.822736 0.581842
0.29044 0.800534 0.529351
0.274708 0.74696 0.363165
0.301228 0.739086 0.295323
0.550973 0.767559 0.259281
0.751492 0.773083 0.278599
0.792142 0.780255 0.332403
0.786633 0.785321 0.362966
0.0995956 0.113664 0.274784
0.0996262 0.113695 0.291096
0.117906 0.113451 0.321004
0.264942 0.0996109 0.341711
0.395575 0.0996414 0.344228
0.518959 0.11957 0.385977
0.562112 0.135607 0.418708
0.56202 0.140215 0.436057
0.560601 0.142794 0.447547
0.0995804 0.11548 0.269764
0.0996109 0.115084 0.286625
0.107637 0.114626 0.321798
0.260975 0.0996262 0.350454
0.399313 0.0996414 0.348165
0.524102 0.120821 0.387671
0.563012 0.135149 0.418189
0.563409 0.139513 0.434821
0.560433 0.142535 0.444785
0.0995193 0.137499 0.280964
0.0994888 0.130877 0.283558
0.0995651 0.118685 0.307759
0.225315 0.100511 0.359243
0.399298 0.0996414 0.348302
0.522927 0.119875 0.381308
0.564675 0.132647 0.408194
0.563912 0.135485 0.421439
0.558846 0.139101 0.428046
0.121553 0.337377 0.383673
0.119326 0.333654 0.387381
0.112978 0.312535 0.388708
0.230701 0.287602 0.458305
0.475685 0.188571 0.425834
0.551171 0.140734 0.382574
0.569604 0.136004 0.378851
0.567712 0.135439 0.383062
0.55761 0.135424 0.382864
0.187076 0.585138 0.49398
0.186496 0.582834 0.494499
0.185351 0.577859 0.491341
0.199695 0.570794 0.488746
0.560204 0.577401 0.562081
0.730617 0.474525 0.505165
0.789578 0.406424 0.491234
0.78703 0.390234 0.495796
0.776638 0.376806 0.494484
0.274067 0.784161 0.592752
0.273411 0.778271 0.590265
0.269505 0.769604 0.574228
0.259144 0.745281 0.526436
0.392081 0.719036 0.474998
0.677134 0.722927 0.447578
0.808499 0.67808 0.470268
0.820386 0.650065 0.469734
0.818219 0.634119 0.463035
0.316548 0.854841 0.670893
0.31693 0.850752 0.662837
0.314839 0.844221 0.641245
0.304814 0.823667 0.584802
0.299413 0.775616 0.446036
0.592782 0.790112 0.373434
0.770764 0.794934 0.453941
0.794629 0.788525 0.453712
0.794156 0.782849 0.441215
0.317845 0.858244 0.691356
0.318395 0.854978 0.679789
0.316289 0.848585 0.655146
0.307912 0.829236 0.598093
0.273701 0.748516 0.374029
0.524468 0.770703 0.287465
0.750637 0.780667 0.311528
0.789929 0.790906 0.419654
0.79295 0.796445 0.467735
0.318791 0.858305 0.695277
0.318578 0.855283 0.681636
0.316945 0.849226 0.65742
0.308476 0.830381 0.601541
0.273304 0.749157 0.376776
0.484428 0.76527 0.287785
0.717525 0.778119 0.287556
0.787976 0.787518 0.387655
0.791791 0.796994 0.47039
0.0994736 0.12459 0.350607
0.0995193 0.124239 0.365026
0.110201 0.12256 0.394446
0.257877 0.106523 0.437201
0.404746 0.104616 0.431052
0.517464 0.131151 0.455314
0.562249 0.149325 0.489204
0.562387 0.151797 0.503883
0.562493 0.153597 0.513146
0.0996262 0.127794 0.347082
0.0996567 0.126848 0.359594
0.101289 0.124025 0.392721
0.249287 0.108614 0.443076
0.408347 0.105425 0.436881
0.522454 0.132921 0.460227
0.563149 0.149172 0.490776
0.562844 0.151751 0.504768
0.562127 0.153429 0.512398
0.0995193 0.14432 0.357031
0.0995804 0.136782 0.354528
0.0996262 0.128237 0.369421
0.205447 0.114626 0.444511
0.404059 0.106172 0.443595
0.521355 0.132906 0.460487
0.562753 0.148638 0.486641
0.562737 0.1505 0.497078
0.562615 0.151812 0.503304
0.11284 0.330587 0.457069
0.110964 0.32166 0.457557
0.104494 0.28835 0.450858
0.146899 0.239918 0.493278
0.427527 0.153918 0.508705
0.514748 0.133165 0.45449
0.562722 0.145922 0.464286
0.563149 0.146685 0.469734
0.562463 0.147311 0.471855
0.180926 0.591409 0.584878
0.180133 0.589242 0.586191
0.178546 0.583627 0.589944
0.171008 0.560678 0.590631
0.473594 0.537011 0.683528
0.688762 0.426596 0.632609
0.757397 0.343969 0.596994
0.751705 0.327291 0.593988
0.742092 0.313054 0.587152
0.25977 0.768566 0.664149
0.257389 0.763027 0.660151
0.252964 0.755459 0.653193
0.2448 0.739361 0.638483
0.434043 0.756466 0.680476
0.707973 0.73135 0.709804
0.817945 0.662257 0.671504
0.822583 0.619867 0.657313
0.817411 0.599435 0.649638
0.319738 0.864057 0.732921
0.319966 0.862058 0.728389
0.318318 0.859098 0.717006
0.314611 0.850614 0.691508
0.332113 0.846448 0.657862
0.613367 0.817746 0.660792
0.791943 0.827573 0.663417
0.844892 0.810788 0.676768
0.844785 0.799954 0.670558
0.322301 0.866377 0.747265
0.322438 0.865309 0.741131
0.321248 0.863752 0.72932
0.319692 0.860258 0.704021
0.314809 0.843961 0.640101
0.508141 0.816495 0.596277
0.72636 0.831754 0.597238
0.853574 0.870817 0.751797
0.859068 0.876402 0.771359
0.323003 0.866407 0.749584
0.322591 0.865522 0.742901
0.321386 0.863951 0.730816
0.319829 0.860517 0.705425
0.314672 0.843381 0.638056
0.446189 0.812894 0.573251
0.687755 0.822049 0.559152
0.82472 0.845731 0.660731
0.853361 0.869993 0.74847
0.0996262 0.141939 0.404517
0.0996567 0.141482 0.418463
0.108568 0.136324 0.448966
0.250874 0.125475 0.506127
0.415518 0.123598 0.512276
0.524102 0.142229 0.512993
0.564095 0.157046 0.530571
0.564355 0.157519 0.53286
0.564446 0.157488 0.532906
0.0995041 0.146593 0.40235
0.0994278 0.145556 0.411383
0.0997024 0.140795 0.444221
0.239994 0.128222 0.509285
0.41738 0.124849 0.516152
0.528435 0.144381 0.51722
0.564233 0.157443 0.532265
0.564248 0.157549 0.532769
0.564263 0.157549 0.532784
0.0996719 0.162615 0.412284
0.0995804 0.15462 0.407492
0.0995956 0.148165 0.416983
0.196078 0.133501 0.501671
0.40827 0.125887 0.521614
0.526848 0.144106 0.518303
0.563973 0.156558 0.528725
0.564294 0.157336 0.532036
0.564248 0.157534 0.532708
0.109819 0.316197 0.49955
0.107622 0.30454 0.496468
0.100954 0.26659 0.481773
0.111727 0.214878 0.49749
0.374487 0.144701 0.549569
0.505913 0.139574 0.513527
0.562509 0.154131 0.517754
0.562921 0.154772 0.521416
0.563165 0.155352 0.523827
0.186343 0.600214 0.642969
0.184756 0.596368 0.643488
0.181765 0.585855 0.644907
0.17113 0.554864 0.643854
0.413611 0.517876 0.74638
0.664057 0.395178 0.727733
0.738354 0.319921 0.662715
0.731655 0.302693 0.65478
0.720836 0.287327 0.645106
0.258427 0.764233 0.71046
0.255344 0.758282 0.708568
0.251118 0.749828 0.706569
0.241306 0.730892 0.703426
0.360159 0.735348 0.755413
0.651194 0.706264 0.79881
0.802747 0.631327 0.759793
0.820722 0.578592 0.732021
0.815518 0.559167 0.723568
0.320653 0.862333 0.761456
0.318425 0.858915 0.758419
0.315297 0.853208 0.753262
0.307912 0.842741 0.742641
0.313664 0.837232 0.737163
0.647074 0.850324 0.797238
0.816724 0.83975 0.815015
0.865431 0.815351 0.806348
0.863493 0.798215 0.798764
0.324681 0.86804 0.768093
0.325261 0.867674 0.767529
0.324788 0.867384 0.763973
0.323705 0.866529 0.754543
0.321538 0.864149 0.732998
0.560937 0.902144 0.780438
0.7906 0.881544 0.811536
0.865476 0.889097 0.829038
0.870954 0.890135 0.838804
0.32491 0.86804 0.768231
0.325246 0.867796 0.767987
0.32491 0.867475 0.76524
0.32372 0.866545 0.75494
0.321233 0.863645 0.728267
0.431693 0.893828 0.74316
0.763149 0.877012 0.799252
0.852476 0.885817 0.805188
0.87454 0.898436 0.871626
0.0995346 0.166476 0.443793
0.0995499 0.165606 0.454795
0.10869 0.159075 0.481682
0.254475 0.142657 0.540246
0.427283 0.135393 0.542763
0.535637 0.148913 0.530694
0.564248 0.157549 0.532769
0.564248 0.157549 0.532769
0.564248 0.157549 0.532784
0.0995193 0.166918 0.436515
0.0995346 0.166354 0.44448
0.100374 0.162127 0.472877
0.243473 0.143328 0.537621
0.427893 0.135363 0.542611
0.538323 0.149493 0.53077
0.564248 0.157549 0.532769
0.564248 0.157549 0.532769
0.564263 0.157549 0.532784
0.0996109 0.175341 0.440024
0.0995041 0.166903 0.431998
0.0995346 0.1664 0.444984
0.19881 0.146975 0.524636
0.415778 0.134981 0.544152
0.533669 0.148272 0.530373
0.564263 0.157565 0.532784
0.564263 0.157549 0.532769
0.564248 0.157549 0.532769
0.109377 0.307897 0.522499
0.106844 0.294347 0.516426
0.0995499 0.248447 0.491707
0.0995193 0.186892 0.476249
0.350271 0.141176 0.554025
0.502251 0.141863 0.531472
0.564324 0.157595 0.532876
0.56434 0.157595 0.532891
0.56434 0.157595 0.532891
0.189609 0.60174 0.674571
0.188022 0.596185 0.674022
0.183841 0.583947 0.672709
0.169802 0.546105 0.661372
0.371572 0.51339 0.75555
0.640894 0.382071 0.765332
0.723796 0.306172 0.687907
0.715084 0.285527 0.672343
0.703487 0.27187 0.661128
0.268147 0.777356 0.737072
0.265049 0.771939 0.735134
0.260533 0.764279 0.73341
0.252323 0.747509 0.730449
0.308721 0.75201 0.765393
0.609476 0.696544 0.826459
0.788571 0.608499 0.808881
0.812146 0.543801 0.768917
0.807324 0.524163 0.762234
0.320821 0.862181 0.766247
0.318608 0.858503 0.765591
0.315679 0.852674 0.76437
0.308858 0.842527 0.760494
0.299657 0.828367 0.755596
0.606943 0.848676 0.839384
0.790845 0.826368 0.853895
0.860883 0.790417 0.839246
0.859602 0.768948 0.831205
0.32459 0.86743 0.768444
0.324681 0.867384 0.768582
0.324376 0.867201 0.768414
0.324742 0.867414 0.768643
0.324483 0.867262 0.767941
0.536889 0.912795 0.834958
0.793713 0.888853 0.856291
0.869688 0.892775 0.866758
0.874739 0.891661 0.867247
0.324514 0.86746 0.768383
0.324681 0.867384 0.768582
0.324681 0.867384 0.768582
0.32488 0.867506 0.768734
0.325216 0.867658 0.766979
0.353017 0.882811 0.778225
0.757549 0.897505 0.850523
0.873503 0.898421 0.871595
0.874449 0.898543 0.872023
0.0995346 0.166018 0.449287
0.0995651 0.164858 0.461311
0.116777 0.15642 0.487404
0.268803 0.141253 0.542657
0.436484 0.135668 0.541375
0.54168 0.150454 0.530709
0.564248 0.157549 0.532769
0.564248 0.157549 0.532769
0.564263 0.157549 0.532769
0.0995193 0.166812 0.440024
0.0995499 0.166033 0.449577
0.104707 0.160418 0.477806
0.257099 0.142535 0.540566
0.436072 0.135714 0.541512
0.544518 0.151415 0.530953
0.564248 0.157549 0.532769
0.564248 0.157549 0.532769
0.564263 0.157549 0.532784
0.0994736 0.171038 0.436118
0.0995041 0.167147 0.432486
0.0995499 0.166064 0.449577
0.209735 0.145846 0.527855
0.422507 0.135317 0.543511
0.538689 0.149554 0.530709
0.564248 0.157549 0.532769
0.564263 0.157549 0.532769
0.564263 0.157549 0.532769
0.1066 0.291371 0.518074
0.102983 0.26894 0.504799
0.0995804 0.216693 0.472129
0.0995804 0.167819 0.461295
0.350561 0.137453 0.549813
0.500633 0.140932 0.529778
0.564294 0.15758 0.532845
0.56434 0.157595 0.532876
0.564324 0.157595 0.532876
0.191455 0.603037 0.684291
0.188724 0.595071 0.6813
0.181262 0.576455 0.674098
0.163485 0.529274 0.654231
0.359594 0.490089 0.748806
0.628504 0.357244 0.753491
0.70782 0.285863 0.674556
0.697627 0.265599 0.655558
0.682719 0.251041 0.641367
0.271702 0.7832 0.741512
0.268055 0.776852 0.740001
0.262486 0.766644 0.737087
0.250065 0.743038 0.730388
0.290425 0.738384 0.757214
0.595071 0.683192 0.825055
0.779217 0.590921 0.810605
0.808392 0.522286 0.769467
0.805631 0.502098 0.765698
0.322377 0.863966 0.767437
0.320394 0.860975 0.766247
0.317372 0.855161 0.765423
0.309056 0.842847 0.760555
0.295949 0.822461 0.753841
0.585443 0.853666 0.844022
0.772168 0.817945 0.856336
0.856153 0.772595 0.843153
0.85539 0.745373 0.833219
0.317891 0.870192 0.760708
0.318013 0.870146 0.760815
0.318013 0.870146 0.760815
0.318013 0.870146 0.760815
0.317983 0.8701 0.7608
0.459236 0.909453 0.818524
0.77171 0.888884 0.857832
0.867033 0.890761 0.87219
0.875532 0.887984 0.871321
0.324437 0.867491 0.768307
0.324681 0.867384 0.768582
0.324681 0.867384 0.768582
0.324681 0.867384 0.768582
0.324681 0.867384 0.768582
0.324453 0.867247 0.768444
0.711772 0.90605 0.857954
0.872511 0.898528 0.872557
0.875746 0.8981 0.871122
