bundles/resolve-cinematic-luts/Phantom Luts/Canon Film LUT/ATOMOS Monitoring LUTs/C-Log 2/Eastman Canon-Legacy CL2 AML.cube
TITLE "Generated by Resolve"
LUT_3D_SIZE 5
0.103166 0.0995346 0.0995346
0.162463 0.0995193 0.102312
0.410864 0.111559 0.104997
0.553521 0.101915 0.148791
0.543679 0.109789 0.194644
0.120394 0.161151 0.118151
0.163561 0.156985 0.114946
0.42591 0.14107 0.101717
0.525093 0.157107 0.108873
0.51754 0.15819 0.109224
0.200717 0.568246 0.210178
0.198032 0.567864 0.212467
0.555795 0.581628 0.166629
0.777874 0.586969 0.215061
0.776074 0.572305 0.214496
0.281895 0.736461 0.311025
0.283116 0.733288 0.305943
0.50956 0.765042 0.274281
0.786847 0.778759 0.320256
0.787655 0.78175 0.340627
0.276066 0.742733 0.350134
0.284459 0.733471 0.298604
0.469093 0.760098 0.272786
0.786236 0.775677 0.303395
0.790112 0.784253 0.35761
0.0995804 0.0995804 0.122072
0.152712 0.0995041 0.13666
0.404379 0.0995651 0.148074
0.547967 0.115892 0.249683
0.540352 0.126238 0.287846
0.116091 0.151522 0.142046
0.162783 0.156252 0.158404
0.429053 0.115267 0.107698
0.544671 0.105989 0.160601
0.538476 0.112291 0.199893
0.19205 0.561288 0.261753
0.190356 0.554101 0.218357
0.544121 0.567025 0.162936
0.775998 0.525582 0.210468
0.770886 0.49221 0.210636
0.27396 0.768963 0.441123
0.280369 0.737301 0.321553
0.469474 0.761013 0.281712
0.781552 0.775998 0.30544
0.786923 0.778042 0.317754
0.282704 0.787152 0.497993
0.276555 0.744762 0.34786
0.418036 0.754696 0.279301
0.776715 0.774197 0.29305
0.78616 0.785397 0.363287
0.0995956 0.113664 0.274784
0.117906 0.113451 0.321004
0.395575 0.0996414 0.344228
0.562112 0.135607 0.418708
0.560601 0.142794 0.447547
0.0995193 0.137499 0.280964
0.0995651 0.118685 0.307759
0.399298 0.0996414 0.348302
0.564675 0.132647 0.408194
0.558846 0.139101 0.428046
0.187076 0.585138 0.49398
0.185351 0.577859 0.491341
0.560204 0.577401 0.562081
0.789578 0.406424 0.491234
0.776638 0.376806 0.494484
0.316548 0.854841 0.670893
0.314839 0.844221 0.641245
0.299413 0.775616 0.446036
0.770764 0.794934 0.453941
0.794156 0.782849 0.441215
0.318791 0.858305 0.695277
0.316945 0.849226 0.65742
0.273304 0.749157 0.376776
0.717525 0.778119 0.287556
0.791791 0.796994 0.47039
0.0996262 0.141939 0.404517
0.108568 0.136324 0.448966
0.415518 0.123598 0.512276
0.564095 0.157046 0.530571
0.564446 0.157488 0.532906
0.0996719 0.162615 0.412284
0.0995956 0.148165 0.416983
0.40827 0.125887 0.521614
0.563973 0.156558 0.528725
0.564248 0.157534 0.532708
0.186343 0.600214 0.642969
0.181765 0.585855 0.644907
0.413611 0.517876 0.74638
0.738354 0.319921 0.662715
0.720836 0.287327 0.645106
0.320653 0.862333 0.761456
0.315297 0.853208 0.753262
0.313664 0.837232 0.737163
0.816724 0.83975 0.815015
0.863493 0.798215 0.798764
0.32491 0.86804 0.768231
0.32491 0.867475 0.76524
0.321233 0.863645 0.728267
0.763149 0.877012 0.799252
0.87454 0.898436 0.871626
0.0995346 0.166018 0.449287
0.116777 0.15642 0.487404
0.436484 0.135668 0.541375
0.564248 0.157549 0.532769
0.564263 0.157549 0.532769
0.0994736 0.171038 0.436118
0.0995499 0.166064 0.449577
0.422507 0.135317 0.543511
0.564248 0.157549 0.532769
0.564263 0.157549 0.532769
0.191455 0.603037 0.684291
0.181262 0.576455 0.674098
0.359594 0.490089 0.748806
0.70782 0.285863 0.674556
0.682719 0.251041 0.641367
0.322377 0.863966 0.767437
0.317372 0.855161 0.765423
0.295949 0.822461 0.753841
0.772168 0.817945 0.856336
0.85539 0.745373 0.833219
0.324437 0.867491 0.768307
0.324681 0.867384 0.768582
0.324681 0.867384 0.768582
0.711772 0.90605 0.857954
0.875746 0.8981 0.871122
