bundles/resolve-cinematic-luts/Phantom Luts/Canon Film LUT/ATOMOS Monitoring LUTs/C-Log 2/Eterna Canon CL2 AML.cube
TITLE "Generated by Resolve"
LUT_3D_SIZE 5
0.0698405 0.0940261 0.0944991
0.169406 0.101167 0.104097
0.47895 0.131716 0.207279
0.645121 0.153521 0.312322
0.678126 0.145541 0.349279
0.0969863 0.204547 0.120455
0.18381 0.200809 0.115114
0.507942 0.129168 0.171145
0.631907 0.149371 0.252949
0.657862 0.146548 0.278508
0.196933 0.725963 0.229648
0.200641 0.760327 0.21239
0.660517 0.725216 0.198795
0.871519 0.717525 0.264347
0.861234 0.648478 0.240818
0.253651 0.858106 0.354498
0.259174 0.852888 0.282277
0.381857 0.864088 0.261845
0.905608 0.897917 0.526497
0.905943 0.899947 0.560983
0.237186 0.865965 0.417136
0.254307 0.857679 0.348653
0.272129 0.846479 0.266194
0.873976 0.891768 0.386267
0.903685 0.901198 0.558068
0.0723888 0.097734 0.148638
0.177188 0.103426 0.153002
0.470939 0.126207 0.235752
0.672267 0.148348 0.361074
0.699077 0.143862 0.419806
0.0963607 0.186282 0.164019
0.180667 0.188205 0.185641
0.515389 0.127245 0.230243
0.6654 0.148959 0.337041
0.685847 0.145693 0.381994
0.149584 0.690532 0.304768
0.155291 0.721111 0.258701
0.635309 0.70399 0.181506
0.863569 0.66836 0.244434
0.851606 0.585138 0.228199
0.242451 0.868315 0.548043
0.244038 0.865522 0.474128
0.335805 0.858793 0.262562
0.904784 0.897734 0.511971
0.90544 0.900084 0.554971
0.238987 0.871275 0.612741
0.246952 0.867247 0.557656
0.272419 0.846372 0.2663
0.855451 0.889479 0.367117
0.90338 0.901381 0.557519
0.0922255 0.113542 0.376455
0.18024 0.112917 0.420798
0.531624 0.132082 0.40235
0.682948 0.155825 0.464591
0.701946 0.15198 0.549401
0.0893111 0.158633 0.301198
0.078645 0.124331 0.369162
0.533379 0.131014 0.447242
0.682048 0.158267 0.516258
0.691783 0.159777 0.603159
0.119539 0.622782 0.499611
0.109606 0.642786 0.549676
0.586587 0.624964 0.569116
0.905562 0.522225 0.617166
0.897658 0.429404 0.631754
0.277958 0.864744 0.75436
0.254734 0.871611 0.759869
0.24506 0.86685 0.532296
0.902693 0.896101 0.50457
0.909819 0.898268 0.681895
0.273548 0.868177 0.805585
0.262577 0.871122 0.801968
0.265324 0.865095 0.663828
0.758068 0.883497 0.323354
0.903868 0.901808 0.608194
0.11606 0.187274 0.626398
0.160098 0.196017 0.669062
0.570413 0.14667 0.694545
0.690608 0.160906 0.689616
0.690211 0.161624 0.690959
0.0975967 0.186114 0.568765
0.101595 0.190707 0.609384
0.517357 0.156008 0.719646
0.688838 0.162799 0.701579
0.689448 0.162921 0.707835
0.150027 0.608545 0.725719
0.160281 0.612879 0.753155
0.198245 0.570596 0.804944
0.845502 0.329274 0.796048
0.821469 0.293767 0.785626
0.290272 0.864897 0.84155
0.27071 0.868299 0.846754
0.259098 0.8589 0.820325
0.879194 0.88455 0.874342
0.908385 0.872679 0.873869
0.293706 0.865202 0.860594
0.276982 0.870024 0.867201
0.272572 0.870268 0.850126
0.84387 0.902815 0.883986
0.913512 0.9084 0.907469
0.137667 0.198154 0.659113
0.169284 0.19501 0.673014
0.526772 0.157321 0.722087
0.689494 0.163012 0.709209
0.689494 0.163012 0.709209
0.108171 0.211612 0.640665
0.106157 0.203754 0.63328
0.409751 0.163195 0.722255
0.689494 0.163012 0.709209
0.689494 0.163012 0.709209
0.188235 0.637797 0.823575
0.190188 0.639445 0.829007
0.170459 0.554574 0.813031
0.747875 0.229725 0.774517
0.709987 0.178546 0.726299
0.275929 0.867353 0.869276
0.274525 0.865125 0.869108
0.267018 0.852354 0.866789
0.750607 0.868544 0.898085
0.895949 0.823117 0.897215
0.27776 0.869993 0.869993
0.27776 0.869993 0.869993
0.27776 0.869993 0.869993
0.666453 0.899443 0.898817
0.909895 0.909895 0.909895
