bundles/resolve-cinematic-luts/Phantom Luts/Canon Film LUT/ATOMOS Monitoring LUTs/C-Log 2/Eterna Canon-Legacy CL2 AML.cube
TITLE "Generated by Resolve"
LUT_3D_SIZE 5
0.0850385 0.10837 0.108659
0.156115 0.111284 0.109438
0.456062 0.141207 0.189776
0.642237 0.160983 0.287327
0.675395 0.154238 0.322103
0.104005 0.182193 0.123507
0.161288 0.178851 0.121553
0.484398 0.139666 0.16347
0.625086 0.157092 0.231708
0.65124 0.154238 0.253025
0.190936 0.698802 0.213321
0.194644 0.739467 0.207843
0.626413 0.69485 0.181689
0.872312 0.689616 0.261143
0.861051 0.617777 0.239384
0.26508 0.859052 0.339529
0.269383 0.854902 0.286107
0.364721 0.863676 0.27097
0.90695 0.897612 0.508431
0.90544 0.89958 0.538384
0.249226 0.866545 0.392004
0.266835 0.858152 0.335241
0.282414 0.849424 0.275349
0.873411 0.891859 0.386816
0.903365 0.900786 0.535134
0.0863355 0.110353 0.143389
0.160967 0.113588 0.144808
0.444785 0.136385 0.212558
0.670008 0.155657 0.335332
0.698756 0.151751 0.392752
0.103395 0.168475 0.151446
0.158892 0.169329 0.16733
0.488716 0.137774 0.207996
0.662837 0.157168 0.310979
0.683421 0.15285 0.355047
0.143923 0.658289 0.264332
0.146822 0.690822 0.228031
0.600015 0.672297 0.165148
0.864073 0.638651 0.243732
0.849714 0.551949 0.227085
0.25098 0.869841 0.523171
0.254475 0.866423 0.447883
0.329229 0.858946 0.271992
0.906523 0.897627 0.495827
0.904921 0.899718 0.532341
0.246326 0.873137 0.589136
0.255314 0.86865 0.533028
0.282567 0.849302 0.275456
0.850492 0.889677 0.367651
0.902998 0.900984 0.534539
0.10016 0.12134 0.348562
0.161837 0.122026 0.390997
0.503487 0.139559 0.372488
0.689128 0.162661 0.444175
0.708095 0.15845 0.528878
0.0977035 0.149386 0.26714
0.0908217 0.127581 0.340444
0.506783 0.140169 0.418296
0.688975 0.164187 0.497978
0.696666 0.164981 0.583932
0.121599 0.587015 0.459434
0.107118 0.608454 0.512245
0.551369 0.588846 0.533165
0.903914 0.486992 0.582498
0.893141 0.392432 0.592645
0.282277 0.86688 0.735744
0.258991 0.873503 0.739879
0.254459 0.868223 0.507256
0.906416 0.895598 0.495415
0.910124 0.899748 0.670466
0.283894 0.869139 0.795209
0.268818 0.872969 0.791196
0.271626 0.866926 0.641291
0.740795 0.883635 0.323995
0.903639 0.901366 0.585519
0.118456 0.172396 0.602869
0.147707 0.179156 0.647593
0.550759 0.152819 0.698726
0.690898 0.167437 0.689235
0.69073 0.168261 0.691569
0.10486 0.170748 0.535256
0.107774 0.174746 0.579736
0.48983 0.158968 0.721889
0.688273 0.170291 0.705852
0.689235 0.170352 0.715434
0.139132 0.575463 0.700603
0.151751 0.579583 0.73225
0.186984 0.533196 0.790951
0.823636 0.297383 0.7608
0.800076 0.266239 0.752453
0.302281 0.866545 0.843076
0.281483 0.872221 0.849546
0.267109 0.86421 0.814908
0.88188 0.887785 0.875731
0.91107 0.873838 0.876005
0.300587 0.868513 0.866865
0.288823 0.871977 0.871977
0.283085 0.87216 0.853544
0.833478 0.902998 0.884245
0.913512 0.908553 0.908049
0.133013 0.180697 0.638926
0.153994 0.178149 0.651041
0.498985 0.160403 0.725612
0.689265 0.170474 0.717266
0.689265 0.170474 0.717266
0.113146 0.190326 0.61651
0.111528 0.184405 0.60885
0.375036 0.161761 0.715053
0.689265 0.170474 0.717266
0.689265 0.170474 0.717266
0.188998 0.604089 0.822232
0.191226 0.605447 0.828656
0.172839 0.51809 0.810834
0.727535 0.216846 0.764263
0.707729 0.182345 0.730892
0.286442 0.870909 0.871427
0.28574 0.869886 0.871244
0.277302 0.856352 0.869047
0.72929 0.867948 0.901488
0.900435 0.810193 0.901564
0.287144 0.871733 0.871733
0.287144 0.871733 0.871733
0.287144 0.871733 0.871733
0.646357 0.900938 0.900938
0.909895 0.909895 0.909895
