bundles/resolve-cinematic-luts/Phantom Luts/Canon Film LUT/ATOMOS Monitoring LUTs/C-Log 2/Eterna Canon-Legacy CL2 AML.cube
TITLE "Generated by Resolve"
LUT_3D_SIZE 9
0.0850385 0.10837 0.108659
0.104646 0.109071 0.1093
0.156115 0.111284 0.109438
0.267765 0.122927 0.133593
0.456062 0.141207 0.189776
0.633509 0.160021 0.266896
0.642237 0.160983 0.287327
0.650187 0.160159 0.302052
0.675395 0.154238 0.322103
0.0886397 0.118685 0.11133
0.0966812 0.117479 0.111101
0.157305 0.112779 0.110292
0.279271 0.123369 0.128664
0.47953 0.140719 0.186435
0.642451 0.157839 0.261753
0.647074 0.158984 0.280324
0.651301 0.158801 0.292515
0.676478 0.152697 0.310307
0.104005 0.182193 0.123507
0.0987564 0.19147 0.121263
0.161288 0.178851 0.121553
0.313497 0.137972 0.122271
0.484398 0.139666 0.16347
0.612345 0.155154 0.214694
0.625086 0.157092 0.231708
0.632792 0.157977 0.242512
0.65124 0.154238 0.253025
0.125856 0.380056 0.144686
0.10782 0.414527 0.134005
0.110735 0.422019 0.129488
0.336812 0.38732 0.125658
0.624857 0.305882 0.143496
0.671763 0.199725 0.173938
0.659022 0.185748 0.172168
0.649516 0.17612 0.169253
0.650019 0.168933 0.169085
0.190936 0.698802 0.213321
0.187274 0.727382 0.212177
0.194644 0.739467 0.207843
0.201572 0.716091 0.195911
0.626413 0.69485 0.181689
0.848035 0.71017 0.257832
0.872312 0.689616 0.261143
0.866819 0.657008 0.248753
0.861051 0.617777 0.239384
0.281529 0.850309 0.292973
0.267979 0.855253 0.280369
0.264683 0.856199 0.270146
0.267323 0.855131 0.271061
0.508888 0.875486 0.273594
0.858961 0.885786 0.366247
0.902922 0.886381 0.397986
0.900771 0.881361 0.384833
0.899626 0.875181 0.375387
0.26508 0.859052 0.339529
0.267597 0.857404 0.321614
0.269383 0.854902 0.286107
0.271672 0.853468 0.272297
0.364721 0.863676 0.27097
0.769985 0.885771 0.326467
0.90695 0.897612 0.508431
0.906035 0.899199 0.539376
0.90544 0.89958 0.538384
0.256306 0.863569 0.373953
0.266743 0.858778 0.35404
0.277821 0.853162 0.316655
0.28336 0.848997 0.2757
0.290349 0.849058 0.275898
0.613306 0.877256 0.29044
0.902663 0.895323 0.446983
0.90663 0.898802 0.540444
0.903227 0.900862 0.534874
0.249226 0.866545 0.392004
0.25568 0.863645 0.37113
0.266835 0.858152 0.335241
0.280903 0.85008 0.279545
0.282414 0.849424 0.275349
0.496269 0.871595 0.276631
0.873411 0.891859 0.386816
0.906554 0.898848 0.540368
0.903365 0.900786 0.535134
0.0846876 0.10927 0.115419
0.104372 0.109712 0.115755
0.152941 0.112108 0.122591
0.260151 0.121462 0.145754
0.452873 0.136538 0.20029
0.647639 0.153185 0.281453
0.66537 0.156039 0.308873
0.672038 0.155383 0.327077
0.690562 0.149935 0.34992
0.0885023 0.115923 0.113832
0.0944228 0.114549 0.115434
0.160571 0.114199 0.120714
0.289342 0.122881 0.145129
0.48101 0.136461 0.201114
0.665858 0.153658 0.28397
0.671336 0.153841 0.305913
0.674632 0.154376 0.320714
0.689677 0.150713 0.338155
0.102724 0.175952 0.132158
0.0980545 0.183291 0.127962
0.15906 0.176059 0.122179
0.318669 0.132143 0.123308
0.476982 0.136797 0.166308
0.63534 0.15407 0.234119
0.64686 0.15581 0.255589
0.651957 0.156161 0.267643
0.668208 0.152926 0.281285
0.120638 0.36553 0.158572
0.108934 0.395758 0.14612
0.110842 0.418692 0.129473
0.335683 0.38323 0.125628
0.615671 0.299306 0.143481
0.673091 0.197803 0.174105
0.657496 0.181094 0.170108
0.652735 0.17348 0.170291
0.658595 0.168414 0.177157
0.172305 0.68275 0.224002
0.165957 0.704967 0.217319
0.179843 0.717235 0.199847
0.187823 0.705074 0.189776
0.616526 0.687404 0.17464
0.842084 0.704402 0.251835
0.870497 0.684123 0.256672
0.865125 0.64744 0.245609
0.858869 0.604532 0.236454
0.273899 0.855268 0.330617
0.263127 0.858564 0.309407
0.263981 0.856641 0.273564
0.266606 0.855436 0.270817
0.495232 0.875059 0.272175
0.854887 0.884413 0.360952
0.901762 0.885756 0.392889
0.899733 0.880171 0.379919
0.899062 0.873503 0.371176
0.25713 0.864057 0.399344
0.260792 0.861921 0.373938
0.26627 0.857694 0.316106
0.272557 0.853086 0.272663
0.360098 0.863096 0.271214
0.758144 0.885115 0.322026
0.906813 0.897719 0.504646
0.905943 0.89926 0.539147
0.905241 0.899687 0.537972
0.251682 0.867292 0.44741
0.262547 0.862684 0.420951
0.272358 0.857023 0.361883
0.282994 0.849165 0.277943
0.297475 0.849943 0.275883
0.604608 0.876692 0.289097
0.901884 0.895262 0.442557
0.90663 0.898802 0.540444
0.903212 0.900877 0.534859
0.244541 0.87042 0.469978
0.24947 0.867979 0.444892
0.261082 0.862303 0.391363
0.278996 0.851408 0.293706
0.2822 0.849439 0.275334
0.507683 0.87245 0.277333
0.867597 0.89134 0.381155
0.906554 0.898848 0.540322
0.903365 0.900786 0.535103
0.0863355 0.110353 0.143389
0.103517 0.111101 0.152316
0.160967 0.113588 0.144808
0.267109 0.121492 0.162142
0.444785 0.136385 0.212558
0.643259 0.152163 0.297398
0.670008 0.155657 0.335332
0.678218 0.155459 0.363073
0.698756 0.151751 0.392752
0.0875868 0.117357 0.129656
0.0856794 0.111879 0.148318
0.160891 0.114412 0.152422
0.283162 0.122286 0.168719
0.460868 0.135531 0.221485
0.66569 0.152667 0.311345
0.679454 0.154131 0.348959
0.685206 0.154726 0.376257
0.701473 0.151766 0.402457
0.103395 0.168475 0.151446
0.0991226 0.171389 0.158495
0.158892 0.169329 0.16733
0.334112 0.143084 0.172778
0.488716 0.137774 0.207996
0.654856 0.156176 0.284657
0.662837 0.157168 0.310979
0.667521 0.156954 0.331746
0.683421 0.15285 0.355047
0.120607 0.343236 0.192477
0.11014 0.369848 0.192737
0.110414 0.387778 0.156924
0.326696 0.370489 0.127657
0.590036 0.257786 0.15227
0.666606 0.182986 0.186725
0.677562 0.179614 0.208667
0.679774 0.177737 0.224872
0.675135 0.167788 0.231266
0.143923 0.658289 0.264332
0.131868 0.67892 0.264195
0.146822 0.690822 0.228031
0.168811 0.686976 0.181353
0.600015 0.672297 0.165148
0.829908 0.676646 0.238895
0.864073 0.638651 0.243732
0.858564 0.600809 0.236027
0.849714 0.551949 0.227085
0.264149 0.861463 0.431876
0.250294 0.866072 0.420432
0.252308 0.863142 0.353628
0.266789 0.855116 0.270756
0.452247 0.871534 0.270542
0.840894 0.877256 0.34638
0.900221 0.879515 0.380499
0.898131 0.873243 0.368414
0.896437 0.864591 0.35816
0.25098 0.869841 0.523171
0.250935 0.869444 0.509758
0.254475 0.866423 0.447883
0.270787 0.854261 0.284428
0.329229 0.858946 0.271992
0.723598 0.88336 0.311879
0.906523 0.897627 0.495827
0.905943 0.89926 0.538994
0.904921 0.899718 0.532341
0.25565 0.869596 0.569009
0.25214 0.87042 0.553384
0.265003 0.864637 0.504173
0.274556 0.855711 0.349447
0.288243 0.8486 0.276249
0.584314 0.875563 0.286534
0.898939 0.894438 0.430137
0.90663 0.898802 0.540444
0.903197 0.900877 0.534829
0.246326 0.873137 0.589136
0.244739 0.873091 0.573724
0.255314 0.86865 0.533028
0.267155 0.860883 0.410742
0.282567 0.849302 0.275456
0.497154 0.871702 0.276738
0.850492 0.889677 0.367651
0.906447 0.898711 0.533837
0.902998 0.900984 0.534539
0.0903029 0.113527 0.209995
0.101305 0.113848 0.236393
0.162463 0.116152 0.220615
0.290547 0.124239 0.212726
0.469047 0.137575 0.262348
0.652873 0.151675 0.338582
0.680262 0.157595 0.382971
0.688807 0.159014 0.414405
0.710246 0.155413 0.453254
0.0852216 0.115801 0.182406
0.0861524 0.114626 0.213977
0.147402 0.116518 0.254688
0.297459 0.124895 0.230961
0.472251 0.135409 0.275227
0.663005 0.153231 0.362036
0.686885 0.15874 0.40824
0.696406 0.16022 0.444877
0.713039 0.156405 0.486442
0.101732 0.166018 0.188098
0.096376 0.166857 0.215976
0.0987564 0.145144 0.256992
0.310582 0.127275 0.255375
0.483543 0.138628 0.285573
0.666377 0.156161 0.36939
0.684855 0.16025 0.411368
0.691051 0.16199 0.443915
0.704311 0.159075 0.477867
0.119615 0.317052 0.246784
0.111162 0.335103 0.268482
0.110811 0.343832 0.285313
0.33254 0.348379 0.313756
0.637415 0.269627 0.326574
0.744839 0.204135 0.365301
0.716304 0.177874 0.369924
0.699962 0.168719 0.375494
0.695872 0.16051 0.383597
0.125948 0.622583 0.353338
0.108248 0.642786 0.381308
0.111467 0.653223 0.37322
0.121187 0.652918 0.242832
0.569665 0.647471 0.178485
0.841764 0.607019 0.267033
0.875273 0.524376 0.303777
0.871717 0.492927 0.307774
0.859754 0.442695 0.302052
0.255085 0.856916 0.546532
0.238773 0.862608 0.558968
0.232959 0.861799 0.53225
0.238102 0.85481 0.397711
0.315679 0.856748 0.266575
0.813886 0.861128 0.325032
0.8963 0.860044 0.355444
0.893538 0.848432 0.342885
0.89134 0.834119 0.331426
0.259724 0.870771 0.646845
0.252354 0.87306 0.650629
0.252842 0.872206 0.623392
0.254353 0.86836 0.510231
0.277317 0.851728 0.273579
0.632425 0.879118 0.292058
0.90457 0.896696 0.466423
0.90544 0.898848 0.515587
0.904097 0.899321 0.495979
0.267582 0.869886 0.688396
0.258564 0.872404 0.686732
0.262928 0.870329 0.660014
0.267048 0.866087 0.573068
0.282979 0.849744 0.291905
0.509422 0.87097 0.279362
0.88394 0.891844 0.399619
0.908843 0.897429 0.544594
0.906035 0.899214 0.540017
0.2589 0.872984 0.705928
0.257099 0.873381 0.700984
0.254704 0.873182 0.678126
0.267353 0.867155 0.606378
0.270848 0.858228 0.374609
0.409384 0.864317 0.273884
0.787427 0.885084 0.335241
0.906218 0.898314 0.516472
0.903365 0.900801 0.535607
0.10016 0.12134 0.348562
0.108766 0.122881 0.380545
0.161837 0.122026 0.390997
0.314031 0.126589 0.357259
0.503487 0.139559 0.372488
0.680446 0.158572 0.420783
0.689128 0.162661 0.444175
0.694041 0.162646 0.479469
0.708095 0.15845 0.528878
0.0893263 0.120485 0.297902
0.0917067 0.122103 0.332235
0.129244 0.12108 0.38613
0.304402 0.126696 0.387991
0.497642 0.139727 0.38941
0.687861 0.159472 0.442573
0.69395 0.162753 0.481163
0.692744 0.162997 0.525856
0.706081 0.160876 0.579507
0.0977035 0.149386 0.26714
0.0933547 0.145235 0.303731
0.0908217 0.127581 0.340444
0.267094 0.127123 0.428901
0.506783 0.140169 0.418296
0.681117 0.160403 0.453056
0.688975 0.164187 0.497978
0.687175 0.166476 0.540169
0.696666 0.164981 0.583932
0.121447 0.301228 0.343954
0.112032 0.32195 0.389532
0.111818 0.338018 0.446097
0.147601 0.302647 0.507073
0.566079 0.19263 0.483314
0.675639 0.1635 0.448432
0.684474 0.165743 0.463615
0.684245 0.165927 0.485786
0.695293 0.162966 0.519905
0.121599 0.587015 0.459434
0.106386 0.600656 0.490944
0.107118 0.608454 0.512245
0.105608 0.598474 0.507485
0.551369 0.588846 0.533165
0.861708 0.533013 0.555505
0.903914 0.486992 0.582498
0.901137 0.453819 0.594949
0.893141 0.392432 0.592645
0.254627 0.831434 0.62623
0.229206 0.838132 0.643366
0.21944 0.832822 0.640864
0.210529 0.823621 0.598611
0.265171 0.841398 0.475532
0.783307 0.850294 0.464836
0.905699 0.798733 0.538964
0.905913 0.772793 0.561517
0.906172 0.752316 0.556649
0.282277 0.86688 0.735744
0.266255 0.87187 0.748363
0.258991 0.873503 0.739879
0.261143 0.871565 0.684855
0.254459 0.868223 0.507256
0.564935 0.881743 0.302739
0.906416 0.895598 0.495415
0.911482 0.898939 0.67129
0.910124 0.899748 0.670466
0.282856 0.868589 0.780224
0.274586 0.871138 0.785595
0.265919 0.873228 0.776196
0.267048 0.871015 0.724926
0.269383 0.865904 0.586099
0.442252 0.875746 0.34432
0.843076 0.887251 0.376211
0.909682 0.897902 0.588785
0.907179 0.900374 0.624872
0.283894 0.869139 0.795209
0.277943 0.870954 0.799207
0.268818 0.872969 0.791196
0.266819 0.871717 0.74992
0.271626 0.866926 0.641291
0.331624 0.869764 0.39292
0.740795 0.883635 0.323995
0.906264 0.898741 0.531655
0.903639 0.901366 0.585519
0.112093 0.138003 0.481849
0.117556 0.142672 0.513161
0.157504 0.138705 0.542077
0.336492 0.136019 0.556176
0.534447 0.139483 0.5402
0.690211 0.165988 0.547601
0.692393 0.165866 0.559106
0.696101 0.165057 0.580056
0.701473 0.163577 0.609354
0.09691 0.135042 0.441138
0.100603 0.138979 0.470115
0.126253 0.140063 0.514656
0.291478 0.136614 0.566567
0.527947 0.139269 0.562417
0.691768 0.165972 0.571054
0.690806 0.167117 0.585901
0.692973 0.166903 0.619104
0.697765 0.165164 0.658366
0.0988022 0.148425 0.399405
0.0977493 0.150332 0.433463
0.0968643 0.142718 0.457801
0.202884 0.134249 0.544137
0.51722 0.139284 0.589151
0.679057 0.165988 0.575845
0.681025 0.170718 0.583017
0.682719 0.170794 0.619577
0.690242 0.167956 0.665446
0.116487 0.313405 0.490654
0.114534 0.319738 0.524727
0.115602 0.323293 0.567468
0.118288 0.278218 0.598825
0.465736 0.157 0.635813
0.661509 0.158877 0.564797
0.68307 0.169177 0.54815
0.684184 0.169497 0.58056
0.693736 0.166766 0.626154
0.118532 0.563058 0.582605
0.112627 0.569802 0.607858
0.118563 0.578164 0.634485
0.127214 0.574701 0.669444
0.370291 0.542306 0.739605
0.800198 0.429541 0.703182
0.877012 0.361807 0.676432
0.86334 0.334798 0.680568
0.846952 0.303059 0.693675
0.240314 0.80795 0.696101
0.220417 0.80827 0.70811
0.21445 0.799435 0.709682
0.206241 0.786145 0.698604
0.243107 0.786053 0.693721
0.737163 0.776852 0.722988
0.907637 0.737148 0.737453
0.909545 0.715709 0.750927
0.908583 0.698909 0.758267
0.290654 0.867536 0.799878
0.274281 0.87248 0.809689
0.272007 0.872862 0.807065
0.267155 0.872831 0.784207
0.262242 0.871748 0.71812
0.611032 0.897917 0.708431
0.894194 0.898756 0.765835
0.910979 0.894789 0.813657
0.909422 0.891936 0.81648
0.311528 0.863386 0.828733
0.285954 0.87097 0.84123
0.279591 0.872496 0.839567
0.274372 0.872618 0.817151
0.271046 0.870649 0.750515
0.424491 0.895491 0.684596
0.805203 0.89836 0.665827
0.911604 0.903822 0.838987
0.913756 0.904631 0.870253
0.297108 0.868177 0.847532
0.289342 0.870604 0.854246
0.28304 0.87216 0.853361
0.278782 0.87248 0.835767
0.27364 0.871214 0.78175
0.341405 0.887968 0.714412
0.796841 0.899779 0.740276
0.90695 0.903456 0.809079
0.910994 0.904814 0.854368
0.118456 0.172396 0.602869
0.119066 0.178546 0.621668
0.147707 0.179156 0.647593
0.31284 0.159777 0.695613
0.550759 0.152819 0.698726
0.691249 0.167163 0.686839
0.690898 0.167437 0.689235
0.691844 0.167575 0.691356
0.69073 0.168261 0.691569
0.105882 0.164782 0.566766
0.108782 0.174502 0.593927
0.12195 0.178454 0.624582
0.248417 0.162692 0.682704
0.535866 0.156924 0.714763
0.687724 0.168368 0.700893
0.689494 0.169665 0.705501
0.689723 0.169848 0.709987
0.689174 0.170367 0.715373
0.10486 0.170748 0.535256
0.106981 0.176364 0.561181
0.107774 0.174746 0.579736
0.147433 0.174228 0.638193
0.48983 0.158968 0.721889
0.683314 0.16878 0.707073
0.688273 0.170291 0.705852
0.689006 0.17026 0.709926
0.689235 0.170352 0.715434
0.119051 0.310597 0.619547
0.121111 0.308324 0.640009
0.123705 0.299718 0.659693
0.123766 0.262913 0.657023
0.338415 0.164965 0.700938
0.646464 0.162112 0.695521
0.689204 0.1682 0.679774
0.689387 0.167956 0.680735
0.690745 0.167865 0.694972
0.139132 0.575463 0.700603
0.145006 0.578027 0.71603
0.151751 0.579583 0.73225
0.159442 0.572869 0.754604
0.186984 0.533196 0.790951
0.70071 0.378683 0.858518
0.823636 0.297383 0.7608
0.829267 0.301396 0.752239
0.800076 0.266239 0.752453
0.231479 0.783963 0.777798
0.222965 0.778714 0.783764
0.218616 0.766506 0.783841
0.214267 0.751873 0.786007
0.209628 0.725658 0.799207
0.618799 0.738766 0.869017
0.895445 0.669306 0.848798
0.905928 0.647837 0.836393
0.903685 0.617884 0.842298
0.302281 0.866545 0.843076
0.282277 0.872145 0.851499
0.281483 0.872221 0.849546
0.277516 0.870863 0.838758
0.267109 0.86421 0.814908
0.596399 0.887221 0.847105
0.88188 0.887785 0.875731
0.912261 0.877668 0.874418
0.91107 0.873838 0.876005
0.307973 0.866407 0.861341
0.288899 0.871763 0.868147
0.287327 0.872129 0.86746
0.285176 0.872114 0.860319
0.278676 0.872496 0.835279
0.357931 0.891188 0.834501
0.855024 0.903395 0.879576
0.91577 0.906477 0.901488
0.917342 0.906676 0.905333
0.300587 0.868513 0.866865
0.29131 0.871092 0.870314
0.288823 0.871977 0.871977
0.287877 0.872084 0.869245
0.283085 0.87216 0.853544
0.339879 0.885252 0.845487
0.833478 0.902998 0.884245
0.905684 0.906905 0.8916
0.913512 0.908553 0.908049
0.124849 0.181567 0.632624
0.124178 0.181399 0.633082
0.152834 0.178317 0.650492
0.271336 0.161852 0.690181
0.536873 0.160113 0.723796
0.688838 0.170382 0.717205
0.689265 0.170474 0.717266
0.68925 0.170474 0.71725
0.689036 0.17055 0.716808
0.111727 0.183322 0.619074
0.114168 0.183276 0.619852
0.12546 0.181582 0.63386
0.214832 0.168124 0.67454
0.506889 0.160266 0.725429
0.688579 0.170352 0.717189
0.689265 0.170474 0.717266
0.689265 0.170474 0.717266
0.689158 0.170504 0.717067
0.113588 0.192599 0.619257
0.113481 0.192233 0.618799
0.111528 0.184436 0.609003
0.128222 0.18117 0.635615
0.435813 0.160418 0.722271
0.683253 0.169711 0.716899
0.689265 0.170474 0.717266
0.689265 0.170474 0.717266
0.689235 0.170474 0.717235
0.131487 0.308202 0.69836
0.135317 0.310597 0.709606
0.137575 0.30164 0.713283
0.131701 0.264149 0.691447
0.217197 0.170153 0.677058
0.608881 0.161288 0.715679
0.689342 0.170489 0.717327
0.689326 0.170474 0.717311
0.689326 0.170489 0.717327
0.172107 0.590051 0.780041
0.176074 0.592355 0.790585
0.178149 0.587106 0.799008
0.178103 0.571344 0.805859
0.172961 0.519081 0.810681
0.595773 0.398108 0.892027
0.766278 0.247913 0.786999
0.755596 0.233341 0.772427
0.749691 0.225055 0.763836
0.238315 0.784283 0.835248
0.238499 0.781598 0.839704
0.235447 0.772519 0.839918
0.230259 0.756634 0.839933
0.224582 0.733959 0.844282
0.46302 0.744366 0.900114
0.85243 0.633753 0.903777
0.892927 0.572549 0.887251
0.894408 0.57583 0.883589
0.288914 0.870619 0.869291
0.286122 0.870756 0.870085
0.285115 0.869459 0.869566
0.280934 0.864591 0.866773
0.273014 0.851972 0.862119
0.37525 0.86923 0.888472
0.822126 0.873594 0.899321
0.9037 0.857939 0.897292
0.904189 0.852262 0.895277
0.288182 0.871458 0.871412
0.286976 0.871687 0.871687
0.2869 0.871672 0.871672
0.288487 0.871931 0.871931
0.287922 0.872068 0.869459
0.287297 0.872175 0.866804
0.837324 0.903502 0.900206
0.909789 0.909834 0.909758
0.910979 0.909468 0.909331
0.291417 0.870558 0.870314
0.287236 0.871717 0.871717
0.287144 0.871733 0.871733
0.287144 0.871733 0.871733
0.288151 0.871916 0.871611
0.293004 0.872847 0.871168
0.823606 0.902998 0.901122
0.909621 0.909773 0.909773
0.909926 0.909865 0.909865
0.133013 0.180697 0.638926
0.136034 0.180438 0.640787
0.153994 0.178149 0.651041
0.235874 0.164797 0.680568
0.498985 0.160403 0.725612
0.689265 0.170474 0.717281
0.689265 0.170474 0.717266
0.689265 0.170474 0.717266
0.689265 0.170474 0.717266
0.114244 0.182757 0.624079
0.116091 0.182605 0.625849
0.12668 0.181399 0.634836
0.192081 0.172045 0.667521
0.457145 0.160494 0.724086
0.689265 0.170474 0.717281
0.689265 0.170474 0.717266
0.689265 0.170474 0.717266
0.689265 0.170474 0.717266
0.113146 0.190326 0.61651
0.112902 0.189548 0.615686
0.111528 0.184405 0.60885
0.118303 0.182528 0.626841
0.375036 0.161761 0.715053
0.665431 0.167407 0.71574
0.689265 0.170474 0.717266
0.689265 0.170474 0.717266
0.689265 0.170474 0.717266
0.143282 0.318242 0.731182
0.143587 0.318929 0.732067
0.140948 0.304509 0.722942
0.132479 0.265141 0.694026
0.135454 0.180728 0.634958
0.558602 0.160266 0.72195
0.689296 0.170474 0.717311
0.689311 0.170474 0.717311
0.689296 0.170474 0.717311
0.188998 0.604089 0.822232
0.190936 0.608576 0.826596
0.191226 0.605447 0.828656
0.186786 0.583886 0.825177
0.172839 0.51809 0.810834
0.472877 0.396201 0.884932
0.727535 0.216846 0.764263
0.714046 0.187839 0.7364
0.707729 0.182345 0.730892
0.250858 0.801068 0.859373
0.250645 0.799588 0.860365
0.248066 0.793286 0.859785
0.241779 0.777127 0.85742
0.230335 0.744671 0.852964
0.285801 0.716014 0.871458
0.780194 0.639765 0.906844
0.883299 0.511635 0.892409
0.879499 0.488441 0.889906
0.286442 0.870909 0.871427
0.286259 0.87071 0.871366
0.28574 0.869886 0.871244
0.284382 0.867674 0.871107
0.277302 0.856352 0.869047
0.268238 0.839231 0.866468
0.72929 0.867948 0.901488
0.898299 0.834531 0.901335
0.900435 0.810193 0.901564
0.287144 0.871733 0.871733
0.287144 0.871733 0.871733
0.287144 0.871733 0.871733
0.287144 0.871733 0.871733
0.287144 0.871733 0.871733
0.287144 0.871733 0.871733
0.702419 0.90071 0.901213
0.907256 0.908766 0.908873
0.909789 0.909758 0.909789
0.287144 0.871733 0.871733
0.287144 0.871733 0.871733
0.287144 0.871733 0.871733
0.287144 0.871733 0.871733
0.287144 0.871733 0.871733
0.285985 0.871473 0.871473
0.646357 0.900938 0.900938
0.909285 0.909636 0.909636
0.909895 0.909895 0.909895
