bundles/resolve-cinematic-luts/Phantom Luts/Canon Film LUT/ATOMOS Monitoring LUTs/C-Log 2/Eterna Canon CL2 AML.cube
TITLE "Generated by Resolve"
LUT_3D_SIZE 9
0.0698405 0.0940261 0.0944991
0.100755 0.0958114 0.0969406
0.169406 0.101167 0.104097
0.294804 0.114061 0.137972
0.47895 0.131716 0.207279
0.638163 0.152392 0.292088
0.645121 0.153521 0.312322
0.652567 0.152529 0.327443
0.678126 0.145541 0.349279
0.0751354 0.112123 0.0997024
0.089662 0.109926 0.0986648
0.172061 0.102464 0.101137
0.307057 0.114549 0.128511
0.502586 0.130953 0.202106
0.647044 0.15021 0.287221
0.650721 0.150958 0.305791
0.654429 0.151125 0.318517
0.680995 0.144274 0.339147
0.0969863 0.204547 0.120455
0.0913405 0.216327 0.113603
0.18381 0.200809 0.115114
0.345113 0.136889 0.11574
0.507942 0.129168 0.171145
0.622415 0.147295 0.23389
0.631907 0.149371 0.252949
0.638239 0.150301 0.265095
0.657862 0.146548 0.278508
0.110033 0.42623 0.136355
0.0908217 0.460594 0.119768
0.0959335 0.466697 0.114626
0.380774 0.432929 0.107485
0.669718 0.345785 0.137911
0.683574 0.209003 0.174228
0.665034 0.188602 0.171496
0.649927 0.173434 0.167025
0.646448 0.16199 0.166384
0.196933 0.725963 0.229648
0.1935 0.751446 0.222583
0.200641 0.760327 0.21239
0.213413 0.741543 0.20293
0.660517 0.725216 0.198795
0.85275 0.738247 0.26424
0.871519 0.717525 0.264347
0.8663 0.686076 0.251209
0.861234 0.648478 0.240818
0.271565 0.848249 0.289998
0.25774 0.853025 0.273976
0.254612 0.853574 0.261021
0.257755 0.852308 0.261997
0.533074 0.875273 0.267567
0.85948 0.880888 0.359518
0.901061 0.881819 0.387839
0.899245 0.876448 0.374273
0.898878 0.870604 0.365713
0.253651 0.858106 0.354498
0.25568 0.856275 0.330999
0.259174 0.852888 0.282277
0.261875 0.850675 0.26331
0.381857 0.864088 0.261845
0.784894 0.885435 0.325246
0.905608 0.897917 0.526497
0.906462 0.899611 0.561944
0.905943 0.899947 0.560983
0.241367 0.863935 0.394934
0.254704 0.858381 0.371786
0.266026 0.851835 0.323537
0.273167 0.846067 0.266468
0.281086 0.846632 0.26685
0.635523 0.876967 0.287205
0.899413 0.895537 0.453788
0.907088 0.899214 0.56286
0.903593 0.901259 0.557885
0.237186 0.865965 0.417136
0.244434 0.862699 0.392157
0.254307 0.857679 0.348653
0.270283 0.847608 0.271458
0.272129 0.846479 0.266194
0.521141 0.872007 0.270802
0.873976 0.891768 0.386267
0.907042 0.899245 0.562783
0.903685 0.901198 0.558068
0.0688029 0.0954452 0.106172
0.0995193 0.0968185 0.1075
0.16672 0.101488 0.119829
0.290135 0.112352 0.153948
0.477928 0.125978 0.220569
0.655467 0.14548 0.309117
0.668345 0.147997 0.335973
0.673961 0.146975 0.353079
0.694102 0.142397 0.37818
0.0751354 0.107576 0.104967
0.0856336 0.104875 0.106218
0.177691 0.104005 0.116365
0.31928 0.112718 0.151446
0.506691 0.125795 0.221012
0.670741 0.14522 0.311803
0.675135 0.145846 0.334112
0.677333 0.145739 0.347814
0.692546 0.141985 0.366033
0.0941634 0.196078 0.134157
0.0890974 0.205371 0.124498
0.181384 0.197162 0.115892
0.349538 0.127642 0.115999
0.502907 0.126848 0.176547
0.643946 0.145907 0.256626
0.653056 0.148257 0.281209
0.65687 0.148013 0.294347
0.673136 0.144427 0.30927
0.104509 0.411704 0.159243
0.0915084 0.442344 0.139742
0.0957809 0.463462 0.114702
0.379339 0.428809 0.107561
0.661387 0.339132 0.136706
0.684215 0.206516 0.173922
0.661036 0.181857 0.168673
0.651316 0.168597 0.168383
0.654902 0.160281 0.178164
0.178119 0.712581 0.250904
0.173404 0.733104 0.239551
0.187976 0.742748 0.207218
0.19971 0.732723 0.198276
0.650614 0.718547 0.191073
0.847578 0.732921 0.257939
0.869581 0.712398 0.259174
0.864454 0.677012 0.246494
0.858457 0.635447 0.236057
0.262196 0.854276 0.342092
0.251057 0.857313 0.315328
0.253941 0.854002 0.264225
0.257176 0.852552 0.261753
0.519524 0.874479 0.265949
0.856275 0.879637 0.354711
0.900114 0.880995 0.382284
0.898238 0.875181 0.36936
0.897627 0.8692 0.361532
0.245914 0.863218 0.424323
0.249088 0.861158 0.395239
0.2542 0.856474 0.323873
0.262898 0.850263 0.263615
0.375784 0.863508 0.262058
0.774914 0.885222 0.321538
0.905318 0.897871 0.522332
0.906355 0.899672 0.561761
0.905745 0.900069 0.560616
0.237598 0.867658 0.473762
0.251347 0.862119 0.447196
0.260304 0.856596 0.380545
0.272847 0.846357 0.268864
0.291936 0.848051 0.266758
0.627207 0.876585 0.285863
0.898878 0.895384 0.448692
0.907088 0.899214 0.562844
0.903548 0.901274 0.557839
0.234501 0.86923 0.49601
0.239872 0.866819 0.47126
0.249531 0.861845 0.415717
0.268193 0.849714 0.291768
0.272099 0.846494 0.266194
0.532738 0.87277 0.271839
0.869368 0.891203 0.380865
0.907042 0.899245 0.562737
0.90367 0.901198 0.558068
0.0723888 0.097734 0.148638
0.0993362 0.0990311 0.161578
0.177188 0.103426 0.153002
0.296376 0.111131 0.175586
0.470939 0.126207 0.235752
0.652354 0.144457 0.325154
0.672267 0.148348 0.361074
0.679789 0.148516 0.389319
0.699077 0.143862 0.419806
0.0731518 0.109834 0.129931
0.0705425 0.10016 0.156069
0.178958 0.104189 0.162676
0.312795 0.111681 0.18352
0.487404 0.125292 0.245975
0.670863 0.144396 0.338766
0.6813 0.146563 0.375357
0.68545 0.147433 0.401831
0.700542 0.144274 0.428611
0.0963607 0.186282 0.164019
0.0913252 0.190234 0.172961
0.180667 0.188205 0.185641
0.369528 0.144915 0.190356
0.515389 0.127245 0.230243
0.659968 0.147814 0.311467
0.6654 0.148959 0.337041
0.668849 0.149081 0.356756
0.685847 0.145693 0.381994
0.104997 0.388281 0.210422
0.0922103 0.416144 0.209339
0.0928969 0.434226 0.156847
0.369894 0.416983 0.10898
0.641108 0.2916 0.147738
0.673548 0.184451 0.192355
0.681651 0.177081 0.222095
0.686381 0.175784 0.242847
0.679667 0.162188 0.251774
0.149584 0.690532 0.304768
0.139025 0.710231 0.304692
0.155291 0.721111 0.258701
0.179721 0.71577 0.190967
0.635309 0.70399 0.181506
0.837659 0.706935 0.24538
0.863569 0.66836 0.244434
0.858747 0.631846 0.236561
0.851606 0.585138 0.228199
0.252201 0.859495 0.457069
0.238437 0.864713 0.446235
0.239399 0.861875 0.371664
0.256184 0.851331 0.260975
0.475715 0.870542 0.261906
0.845548 0.87332 0.341543
0.89865 0.874678 0.369497
0.896635 0.869505 0.358633
0.895293 0.86247 0.350805
0.242451 0.868315 0.548043
0.241611 0.868086 0.534752
0.244038 0.865522 0.474128
0.260197 0.852308 0.279698
0.335805 0.858793 0.262562
0.742657 0.883238 0.311009
0.904784 0.897734 0.511971
0.906355 0.899672 0.561654
0.90544 0.900084 0.554971
0.244587 0.869108 0.593576
0.243748 0.868788 0.577707
0.255573 0.863279 0.529091
0.262379 0.855192 0.365148
0.278965 0.845884 0.266957
0.607767 0.875517 0.282826
0.895689 0.894667 0.434165
0.907088 0.899214 0.562844
0.903532 0.901274 0.557809
0.238987 0.871275 0.612741
0.237293 0.871412 0.597681
0.246952 0.867247 0.557656
0.256046 0.860105 0.435294
0.272419 0.846372 0.2663
0.522057 0.872084 0.270878
0.855451 0.889479 0.367117
0.906889 0.899138 0.556435
0.90338 0.901381 0.557519
0.0778363 0.102434 0.233158
0.0954452 0.102602 0.264225
0.18175 0.106157 0.247608
0.320958 0.114794 0.237903
0.495354 0.127855 0.291218
0.661158 0.145815 0.365286
0.678798 0.150195 0.406638
0.685328 0.151995 0.437156
0.70515 0.147982 0.476081
0.0704814 0.106416 0.200763
0.0714733 0.10425 0.237461
0.161913 0.106279 0.285359
0.328481 0.114427 0.259525
0.500206 0.126452 0.305791
0.66865 0.1458 0.388251
0.683757 0.151812 0.431647
0.690471 0.153124 0.466148
0.706844 0.149264 0.507973
0.0934005 0.183062 0.212848
0.0875105 0.183856 0.246021
0.0912947 0.152712 0.290074
0.343389 0.118425 0.286885
0.510048 0.129992 0.314763
0.668772 0.149508 0.393713
0.680903 0.153429 0.433692
0.684825 0.155108 0.464164
0.697871 0.152148 0.498497
0.106157 0.361883 0.281758
0.0947433 0.381323 0.308553
0.0934768 0.390143 0.32604
0.376761 0.39324 0.356069
0.694041 0.304952 0.368536
0.76379 0.214847 0.402884
0.721004 0.177096 0.4
0.702892 0.165881 0.403937
0.695491 0.154437 0.409735
0.126299 0.657176 0.396765
0.109789 0.676616 0.42594
0.114199 0.686641 0.417762
0.125017 0.685496 0.277867
0.605066 0.682155 0.192218
0.854093 0.639872 0.286076
0.883818 0.557748 0.325826
0.882094 0.527169 0.333318
0.874556 0.47895 0.33022
0.246357 0.853513 0.570459
0.230274 0.859022 0.583246
0.223713 0.858259 0.557473
0.226169 0.853422 0.422904
0.32108 0.854551 0.256245
0.824628 0.8598 0.324529
0.895308 0.858854 0.349081
0.892943 0.850095 0.338354
0.890929 0.839338 0.32958
0.252369 0.869154 0.669123
0.24596 0.871077 0.672908
0.245853 0.870237 0.64593
0.245197 0.866941 0.535103
0.267002 0.849149 0.264561
0.654398 0.878981 0.289647
0.901534 0.896895 0.477165
0.905882 0.899214 0.536446
0.904326 0.899367 0.513848
0.262303 0.867567 0.709819
0.252827 0.870222 0.708278
0.25568 0.868528 0.682307
0.259632 0.864469 0.596551
0.272709 0.847501 0.285817
0.533928 0.871214 0.27364
0.882673 0.892012 0.399252
0.908843 0.898131 0.565988
0.906432 0.899657 0.56231
0.253361 0.870878 0.727642
0.251438 0.871214 0.722713
0.248814 0.871214 0.70042
0.260365 0.86537 0.629389
0.258381 0.85771 0.394247
0.427634 0.864668 0.266056
0.801312 0.885008 0.334371
0.905943 0.898665 0.536233
0.90367 0.901198 0.55848
0.0922255 0.113542 0.376455
0.10486 0.115267 0.408301
0.18024 0.112917 0.420798
0.345769 0.115267 0.388449
0.531624 0.132082 0.40235
0.67805 0.152178 0.442802
0.682948 0.155825 0.464591
0.688106 0.155566 0.499931
0.701946 0.15198 0.549401
0.0762493 0.113054 0.325856
0.0793011 0.115038 0.359747
0.136751 0.11249 0.415076
0.336934 0.115938 0.419638
0.524956 0.131228 0.41886
0.68307 0.152499 0.463401
0.686809 0.156039 0.499947
0.687282 0.157809 0.545739
0.700587 0.155612 0.599817
0.0893111 0.158633 0.301198
0.0834974 0.151736 0.336583
0.078645 0.124331 0.369162
0.301137 0.118303 0.460517
0.533379 0.131014 0.447242
0.677241 0.153903 0.473014
0.682048 0.158267 0.516258
0.681315 0.161395 0.559121
0.691783 0.159777 0.603159
0.107271 0.34548 0.390723
0.0966201 0.367117 0.438178
0.0954299 0.382864 0.493996
0.150286 0.346548 0.55967
0.614801 0.208225 0.530571
0.677348 0.158846 0.471748
0.677134 0.159121 0.482155
0.677089 0.159854 0.503777
0.68925 0.156725 0.539925
0.119539 0.622782 0.499611
0.1066 0.63566 0.529747
0.109606 0.642786 0.549676
0.106477 0.633295 0.545617
0.586587 0.624964 0.569116
0.872206 0.568063 0.590097
0.905562 0.522225 0.617166
0.902892 0.490135 0.63064
0.897658 0.429404 0.631754
0.249348 0.832593 0.651286
0.225803 0.839033 0.668757
0.218036 0.835325 0.667414
0.210346 0.828824 0.627054
0.27779 0.850217 0.504082
0.800214 0.854871 0.494118
0.904204 0.813581 0.567864
0.904402 0.793103 0.591012
0.903883 0.775814 0.586542
0.277958 0.864744 0.75436
0.261204 0.87013 0.766552
0.254734 0.871611 0.759869
0.255161 0.869535 0.706828
0.24506 0.86685 0.532296
0.586999 0.882475 0.302037
0.902693 0.896101 0.50457
0.911208 0.898238 0.686168
0.909819 0.898268 0.681895
0.276875 0.866728 0.792081
0.268132 0.869368 0.797269
0.260075 0.871229 0.789899
0.261585 0.869032 0.745083
0.261784 0.864042 0.60911
0.45658 0.879362 0.354147
0.850172 0.887739 0.378256
0.909667 0.89836 0.609979
0.907454 0.900755 0.646464
0.273548 0.868177 0.805585
0.270253 0.869154 0.808072
0.262577 0.871122 0.801968
0.261738 0.870039 0.768048
0.265324 0.865095 0.663828
0.329809 0.871168 0.408927
0.758068 0.883497 0.323354
0.903563 0.899336 0.548211
0.903868 0.901808 0.608194
0.10956 0.137743 0.510597
0.117266 0.145037 0.542504
0.174655 0.138659 0.57322
0.369467 0.128756 0.587121
0.56144 0.131243 0.568841
0.687602 0.159686 0.571649
0.690044 0.15938 0.583612
0.694118 0.158862 0.604288
0.698344 0.157946 0.629236
0.0842451 0.133745 0.468971
0.0906996 0.139788 0.497734
0.131167 0.141329 0.544396
0.326406 0.131441 0.597375
0.553735 0.131411 0.589441
0.68957 0.159869 0.594827
0.689509 0.160861 0.609186
0.691585 0.160433 0.636866
0.695293 0.159045 0.667048
0.0883497 0.155978 0.435004
0.0885634 0.158495 0.465553
0.0867475 0.146304 0.486946
0.230549 0.13048 0.575067
0.541466 0.131426 0.613916
0.678523 0.160342 0.596307
0.680476 0.164385 0.604135
0.683482 0.163455 0.636713
0.690196 0.160983 0.673091
0.100771 0.357122 0.540398
0.100298 0.363699 0.573632
0.103227 0.366552 0.616068
0.109911 0.317037 0.645228
0.498802 0.157946 0.6663
0.665644 0.154589 0.586435
0.680507 0.162707 0.571221
0.682933 0.163272 0.602335
0.692195 0.160296 0.642252
0.119432 0.598932 0.617456
0.118379 0.604089 0.639719
0.128023 0.611185 0.664668
0.138552 0.60734 0.697047
0.409583 0.580987 0.776333
0.827359 0.469718 0.74313
0.885344 0.399496 0.72134
0.876036 0.371649 0.726284
0.863386 0.336904 0.740169
0.237812 0.816403 0.723796
0.22208 0.816785 0.734493
0.218204 0.810285 0.736355
0.211597 0.799832 0.726345
0.266514 0.806943 0.724483
0.762295 0.798215 0.750072
0.903883 0.762219 0.761685
0.908049 0.742351 0.775113
0.906859 0.726925 0.782238
0.281544 0.865965 0.807935
0.266346 0.870512 0.816556
0.264912 0.870802 0.814557
0.260609 0.869886 0.795819
0.252827 0.868421 0.738369
0.629664 0.895308 0.729595
0.890517 0.89482 0.771771
0.908949 0.891218 0.819959
0.907607 0.888487 0.823178
0.300542 0.861784 0.829282
0.275303 0.869291 0.841062
0.270375 0.870558 0.839796
0.266606 0.870741 0.822461
0.262745 0.86978 0.769665
0.438636 0.897642 0.708873
0.818433 0.899367 0.689433
0.910704 0.904463 0.851255
0.913787 0.904967 0.875883
0.28574 0.866682 0.84509
0.277882 0.868894 0.850645
0.272618 0.870253 0.850233
0.269718 0.870604 0.836652
0.265553 0.869993 0.79472
0.350637 0.891402 0.737789
0.812222 0.900542 0.762066
0.904387 0.903563 0.821393
0.91107 0.905165 0.863462
0.11606 0.187274 0.626398
0.116762 0.195422 0.641932
0.160098 0.196017 0.669062
0.349294 0.162875 0.70837
0.570413 0.14667 0.694545
0.690715 0.160754 0.68809
0.690608 0.160906 0.689616
0.691173 0.161074 0.691005
0.690211 0.161624 0.690959
0.0981765 0.177737 0.595315
0.102846 0.190311 0.619455
0.121111 0.195483 0.644938
0.284993 0.170123 0.700435
0.559274 0.151614 0.708919
0.688502 0.161501 0.698054
0.689906 0.162341 0.70161
0.689799 0.162448 0.704219
0.689372 0.162951 0.707759
0.0975967 0.186114 0.568765
0.100374 0.193393 0.594141
0.101595 0.190707 0.609384
0.160189 0.189471 0.66096
0.517357 0.156008 0.719646
0.685389 0.161807 0.70219
0.688838 0.162799 0.701579
0.689357 0.162692 0.704524
0.689448 0.162921 0.707835
0.110384 0.352575 0.665293
0.11429 0.350057 0.681849
0.118959 0.340703 0.695277
0.119722 0.298634 0.687861
0.376593 0.170535 0.716777
0.656535 0.156588 0.693233
0.689403 0.161456 0.683223
0.689769 0.161196 0.684306
0.690486 0.161227 0.693706
0.150027 0.608545 0.725719
0.154894 0.611063 0.739406
0.160281 0.612879 0.753155
0.165331 0.606775 0.771252
0.198245 0.570596 0.804944
0.742367 0.419715 0.87187
0.845502 0.329274 0.796048
0.850401 0.333883 0.789899
0.821469 0.293767 0.785626
0.23299 0.797772 0.792432
0.225498 0.794171 0.797818
0.221912 0.784527 0.797742
0.218204 0.773007 0.799985
0.214115 0.752834 0.809598
0.649226 0.767102 0.871412
0.892332 0.699001 0.855131
0.902174 0.677485 0.844877
0.900465 0.648508 0.85095
0.290272 0.864897 0.84155
0.272145 0.869825 0.848951
0.27071 0.868299 0.846754
0.266728 0.865049 0.838209
0.259098 0.8589 0.820325
0.618143 0.884184 0.852293
0.879194 0.88455 0.874342
0.909728 0.875776 0.872969
0.908385 0.872679 0.873869
0.295583 0.864439 0.855619
0.276921 0.86978 0.862638
0.275486 0.87013 0.861921
0.273838 0.870207 0.855802
0.269596 0.870604 0.836301
0.369299 0.893111 0.842954
0.861341 0.903105 0.880415
0.91426 0.905837 0.899336
0.916732 0.906325 0.904128
0.293706 0.865202 0.860594
0.280003 0.869093 0.866178
0.276982 0.870024 0.867201
0.275975 0.870085 0.863828
0.272572 0.870268 0.850126
0.340993 0.885206 0.848707
0.84387 0.902815 0.883986
0.902785 0.905943 0.890089
0.913512 0.9084 0.907469
0.125551 0.19939 0.652506
0.125277 0.19939 0.652796
0.167712 0.19527 0.672419
0.309361 0.168017 0.706279
0.561898 0.155596 0.71725
0.689143 0.162966 0.709194
0.689494 0.163012 0.709209
0.689494 0.163027 0.709209
0.689235 0.163119 0.708751
0.106981 0.202014 0.639582
0.10695 0.201846 0.63949
0.126452 0.199359 0.653391
0.246204 0.179477 0.695216
0.534112 0.157229 0.721706
0.68896 0.162936 0.709148
0.689494 0.163012 0.709209
0.689494 0.163012 0.709209
0.689372 0.163058 0.709041
0.109056 0.214862 0.643793
0.108843 0.214267 0.643153
0.106157 0.2038 0.633371
0.130938 0.198825 0.655512
0.467811 0.160067 0.724849
0.68542 0.162478 0.70898
0.689494 0.163012 0.709209
0.689494 0.163012 0.709209
0.689464 0.163027 0.709163
0.129412 0.348379 0.722133
0.132479 0.350286 0.730312
0.133989 0.340276 0.732464
0.128832 0.29987 0.711376
0.248249 0.181689 0.697383
0.625925 0.155032 0.70695
0.68954 0.163027 0.709255
0.68954 0.163027 0.709239
0.68954 0.163027 0.709255
0.175204 0.623896 0.791562
0.178531 0.626245 0.799573
0.179385 0.621118 0.805753
0.178073 0.605783 0.810513
0.170504 0.555215 0.812863
0.63595 0.439765 0.896757
0.788617 0.26952 0.80383
0.774914 0.250645 0.786877
0.767361 0.240146 0.777798
0.236789 0.798245 0.836347
0.236957 0.796567 0.840223
0.234287 0.789548 0.840436
0.229847 0.776852 0.840406
0.224674 0.758556 0.843626
0.495445 0.773754 0.897612
0.859831 0.66508 0.899825
0.892195 0.604974 0.887572
0.893126 0.608225 0.884627
0.278645 0.866194 0.863737
0.273945 0.86627 0.864897
0.272312 0.863951 0.863813
0.268742 0.858808 0.860838
0.262699 0.848722 0.857038
0.382467 0.870619 0.886656
0.831617 0.87306 0.894972
0.902388 0.859663 0.8916
0.90338 0.855039 0.889326
0.278782 0.869688 0.869429
0.27776 0.869993 0.869932
0.277653 0.869993 0.869566
0.277333 0.869947 0.868208
0.275975 0.870085 0.863844
0.275319 0.870161 0.861173
0.842374 0.900847 0.8963
0.90724 0.907454 0.907103
0.909606 0.907256 0.906996
0.285374 0.867857 0.867475
0.278035 0.869917 0.869886
0.27776 0.869993 0.869993
0.27776 0.869993 0.869993
0.277012 0.870054 0.867292
0.282521 0.871168 0.866163
0.833692 0.901915 0.897902
0.908415 0.909239 0.908812
0.910033 0.909834 0.909819
0.137667 0.198154 0.659113
0.142412 0.197742 0.661311
0.169284 0.19501 0.673014
0.270191 0.173434 0.69897
0.526772 0.157321 0.722087
0.689494 0.163012 0.709209
0.689494 0.163012 0.709209
0.689494 0.163012 0.709209
0.689494 0.163012 0.709209
0.109346 0.200931 0.643137
0.111086 0.200717 0.644541
0.128618 0.199145 0.654521
0.219409 0.18613 0.689601
0.487663 0.159136 0.724697
0.689494 0.163012 0.709209
0.689494 0.163012 0.709209
0.689494 0.163012 0.709209
0.689494 0.163012 0.709209
0.108171 0.211612 0.640665
0.107836 0.210575 0.639612
0.106157 0.203754 0.63328
0.115618 0.200656 0.646326
0.409751 0.163195 0.722255
0.671656 0.160479 0.707668
0.689494 0.163012 0.709209
0.689494 0.163012 0.709209
0.689494 0.163012 0.709209
0.139086 0.35816 0.748898
0.139315 0.358846 0.749523
0.137331 0.344121 0.741283
0.129763 0.302205 0.714336
0.141939 0.19852 0.65742
0.581445 0.154147 0.712963
0.689525 0.163027 0.709224
0.689525 0.163027 0.709239
0.689525 0.163027 0.709239
0.188235 0.637797 0.823575
0.190311 0.642512 0.82739
0.190188 0.639445 0.829007
0.184848 0.617761 0.825422
0.170459 0.554574 0.813031
0.513649 0.438804 0.892638
0.747875 0.229725 0.774517
0.718395 0.186496 0.734142
0.709987 0.178546 0.726299
0.246571 0.811185 0.856809
0.246525 0.810193 0.857816
0.244633 0.805432 0.857633
0.239902 0.79324 0.856794
0.230259 0.767254 0.853666
0.303334 0.748577 0.874815
0.80235 0.671504 0.904189
0.886 0.546304 0.893034
0.884153 0.523568 0.891707
0.275929 0.867353 0.869276
0.275578 0.866804 0.869413
0.274525 0.865125 0.869108
0.272587 0.86183 0.868513
0.267018 0.852354 0.866789
0.26041 0.839399 0.864729
0.750607 0.868544 0.898085
0.893919 0.843153 0.897993
0.895949 0.823117 0.897215
0.27776 0.869993 0.869993
0.27776 0.869993 0.869993
0.27776 0.869993 0.869993
0.27776 0.869993 0.869993
0.277745 0.869963 0.869978
0.27744 0.86949 0.869902
0.717449 0.896757 0.899321
0.902647 0.905013 0.906111
0.907149 0.906203 0.907149
0.27776 0.869993 0.869993
0.27776 0.869993 0.869993
0.27776 0.869993 0.869993
0.27776 0.869993 0.869993
0.27776 0.869993 0.869993
0.27776 0.869993 0.869993
0.666453 0.899443 0.898817
0.907683 0.908934 0.908873
0.909895 0.909895 0.909895
