bundles/resolve-cinematic-luts/Phantom Luts/Canon Film LUT/ATOMOS Monitoring LUTs/C-Log 2/Eterna Canon-Legacy CL2 AML.cube
TITLE "Generated by Resolve"
LUT_3D_SIZE 33
0.0850385 0.10837 0.108659
0.0861067 0.108537 0.108858
0.08925 0.108736 0.109712
0.0950942 0.10901 0.109987
0.104646 0.109071 0.1093
0.116457 0.109239 0.108461
0.12903 0.109468 0.107622
0.141741 0.110018 0.107698
0.156115 0.111284 0.109438
0.175357 0.113161 0.11281
0.200198 0.115724 0.118318
0.229297 0.118685 0.124865
0.267765 0.122927 0.133593
0.31136 0.12752 0.145022
0.357946 0.132448 0.157931
0.406287 0.136995 0.173236
0.456062 0.141207 0.189776
0.505714 0.145632 0.208774
0.556771 0.150286 0.229145
0.606668 0.155779 0.250095
0.633509 0.160021 0.266896
0.638498 0.160952 0.273899
0.639704 0.160983 0.278859
0.640925 0.160891 0.28307
0.642237 0.160983 0.287327
0.643427 0.161105 0.291203
0.644663 0.161089 0.294606
0.646525 0.160784 0.298146
0.650187 0.160159 0.302052
0.654963 0.159075 0.306645
0.661311 0.157626 0.311803
0.668086 0.156039 0.316838
0.675395 0.154238 0.322103
0.0854353 0.108064 0.106813
0.0855268 0.108339 0.107927
0.0879683 0.108766 0.108659
0.0925002 0.108919 0.109056
0.10132 0.10927 0.109071
0.113405 0.109438 0.108354
0.127275 0.109682 0.107576
0.141329 0.110231 0.107439
0.157076 0.111498 0.108782
0.176837 0.113283 0.11194
0.202411 0.115877 0.116838
0.232685 0.118746 0.124132
0.272221 0.122942 0.132906
0.31574 0.127352 0.144213
0.362661 0.132067 0.157259
0.410895 0.136767 0.17171
0.460883 0.141482 0.188983
0.51075 0.14609 0.208042
0.56231 0.150881 0.228702
0.609216 0.156054 0.249088
0.635813 0.160555 0.266163
0.637644 0.16083 0.271687
0.639261 0.160983 0.276692
0.640284 0.160906 0.280873
0.641474 0.160891 0.285084
0.642695 0.161028 0.288624
0.644099 0.161059 0.292226
0.646067 0.160754 0.295644
0.649454 0.160052 0.299565
0.654337 0.159045 0.304204
0.660746 0.157549 0.309071
0.667613 0.155856 0.314183
0.674922 0.154086 0.319142
0.0859388 0.10956 0.107622
0.0854353 0.109529 0.10837
0.0868086 0.109529 0.108644
0.0901503 0.109621 0.108843
0.0975814 0.109529 0.108843
0.109209 0.10959 0.108446
0.123552 0.109834 0.107866
0.139101 0.110674 0.107927
0.156481 0.111986 0.109255
0.177844 0.113619 0.111681
0.204074 0.116106 0.115999
0.236103 0.118944 0.122637
0.27631 0.12285 0.131823
0.320928 0.127291 0.143389
0.368002 0.131533 0.156527
0.41825 0.136416 0.171878
0.468696 0.141268 0.189258
0.518166 0.146212 0.20827
0.568612 0.151003 0.228595
0.61236 0.156451 0.24889
0.635019 0.160464 0.264302
0.637034 0.160739 0.269612
0.638788 0.160983 0.274678
0.639841 0.160967 0.279255
0.640909 0.160876 0.283024
0.642069 0.160952 0.2869
0.64329 0.161044 0.290166
0.64538 0.160769 0.293736
0.648722 0.160021 0.297505
0.653544 0.159014 0.3019
0.660212 0.157473 0.306905
0.66743 0.155764 0.312078
0.675074 0.153872 0.317296
0.0871901 0.112856 0.1093
0.0867323 0.113008 0.109667
0.0877699 0.112413 0.109712
0.0904097 0.112383 0.109865
0.0966201 0.111757 0.109087
0.107881 0.110643 0.10837
0.122103 0.110369 0.108217
0.138293 0.11107 0.108766
0.155703 0.112123 0.110033
0.177356 0.11371 0.111772
0.204227 0.116579 0.115801
0.238163 0.119371 0.121752
0.278416 0.12285 0.129992
0.323827 0.127291 0.141329
0.372335 0.131655 0.155108
0.424582 0.136233 0.171374
0.476921 0.140551 0.189471
0.528832 0.144793 0.20914
0.582834 0.14934 0.230991
0.624689 0.154665 0.251926
0.64184 0.158419 0.26482
0.643168 0.158831 0.269917
0.644327 0.159243 0.274723
0.645014 0.159503 0.279408
0.645197 0.159564 0.282826
0.645472 0.159792 0.286091
0.64593 0.160052 0.289143
0.646967 0.160113 0.292165
0.649302 0.15967 0.295262
0.653208 0.158755 0.299077
0.659419 0.157336 0.303777
0.667124 0.155489 0.308873
0.675395 0.15346 0.314366
0.0886397 0.118685 0.11133
0.0880446 0.119097 0.111269
0.0886091 0.118761 0.110994
0.0906386 0.117449 0.111086
0.0966812 0.117479 0.111101
0.107546 0.115984 0.109834
0.122606 0.113466 0.108507
0.139788 0.112612 0.108782
0.157305 0.112779 0.110292
0.178241 0.114351 0.112413
0.204425 0.116533 0.115938
0.239002 0.119341 0.120653
0.279271 0.123369 0.128664
0.324224 0.12726 0.138674
0.373449 0.131609 0.151888
0.426505 0.136339 0.168154
0.47953 0.140719 0.186435
0.531518 0.144732 0.205875
0.585779 0.149798 0.228183
0.62707 0.155077 0.24979
0.642451 0.157839 0.261753
0.643992 0.158114 0.26685
0.645151 0.158465 0.271885
0.646174 0.158846 0.276295
0.647074 0.158984 0.280324
0.647791 0.158862 0.283742
0.648676 0.158877 0.2869
0.649744 0.158907 0.289738
0.651301 0.158801 0.292515
0.654597 0.158038 0.295949
0.660304 0.156603 0.300084
0.667994 0.154757 0.305272
0.676478 0.152697 0.310307
0.0908217 0.129122 0.113756
0.0900435 0.129946 0.113466
0.0897993 0.130282 0.112535
0.0913405 0.128603 0.112673
0.0958724 0.126101 0.112596
0.106935 0.126055 0.112764
0.121843 0.124865 0.111696
0.139757 0.120317 0.110735
0.159625 0.116548 0.110185
0.181888 0.116197 0.111772
0.209247 0.117098 0.115129
0.24303 0.119677 0.120256
0.280461 0.123217 0.126894
0.32459 0.127199 0.135821
0.371618 0.13135 0.147478
0.425208 0.135927 0.163333
0.479393 0.140536 0.181476
0.532189 0.144839 0.201053
0.587518 0.150011 0.223148
0.628763 0.155581 0.246052
0.640574 0.157534 0.256443
0.642649 0.157733 0.261494
0.644404 0.157931 0.266438
0.64596 0.158114 0.271046
0.647211 0.158343 0.275212
0.648508 0.15848 0.279133
0.649256 0.158419 0.281697
0.65005 0.158251 0.284413
0.651438 0.158038 0.287083
0.65449 0.157473 0.290257
0.659861 0.156252 0.294118
0.667323 0.154284 0.298833
0.675776 0.152193 0.303746
0.0941176 0.143633 0.116899
0.09308 0.145098 0.116777
0.0922866 0.146227 0.116075
0.0929732 0.14609 0.115282
0.0957656 0.14316 0.114977
0.103273 0.14049 0.115084
0.121157 0.139208 0.114794
0.141588 0.138308 0.113848
0.162493 0.13077 0.112627
0.185199 0.124132 0.111528
0.215625 0.120668 0.112657
0.249866 0.12163 0.117647
0.28751 0.12398 0.124315
0.328069 0.127321 0.132601
0.371054 0.131441 0.142977
0.41973 0.135805 0.156344
0.472602 0.140475 0.173648
0.526192 0.145418 0.192721
0.581811 0.150652 0.21474
0.624842 0.156771 0.238346
0.633982 0.158175 0.247364
0.636149 0.158389 0.252262
0.637858 0.158526 0.256809
0.639429 0.158724 0.260899
0.640696 0.158831 0.264698
0.641993 0.158984 0.267781
0.64303 0.159106 0.271015
0.644083 0.159182 0.27364
0.645365 0.159136 0.276188
0.647547 0.158755 0.278904
0.651209 0.157839 0.281498
0.656123 0.156573 0.284871
0.662486 0.155001 0.288472
0.100221 0.16022 0.118517
0.0985275 0.162844 0.119127
0.0966506 0.164492 0.118776
0.0957351 0.165881 0.118196
0.0967117 0.164996 0.117433
0.101488 0.162066 0.117891
0.111803 0.159426 0.117998
0.1393 0.15668 0.1178
0.164477 0.155764 0.117266
0.192645 0.148104 0.1178
0.22295 0.135409 0.116564
0.259068 0.12752 0.116808
0.301457 0.127123 0.121935
0.343008 0.12842 0.129641
0.384009 0.13167 0.140139
0.42417 0.135225 0.152209
0.470573 0.139483 0.166979
0.520073 0.144091 0.182879
0.57409 0.149828 0.203601
0.61944 0.156115 0.225345
0.625269 0.157214 0.232975
0.630167 0.157885 0.239826
0.632639 0.158114 0.244602
0.634699 0.158282 0.248264
0.636286 0.158404 0.25185
0.637476 0.15848 0.254673
0.638483 0.158602 0.257435
0.639414 0.158679 0.259648
0.640864 0.158602 0.262013
0.64332 0.158236 0.264256
0.64686 0.157534 0.26688
0.652155 0.156344 0.270085
0.658732 0.154788 0.273411
0.104005 0.182193 0.123507
0.102281 0.185443 0.123949
0.10016 0.188678 0.123873
0.0990463 0.190631 0.122972
0.0987564 0.19147 0.121263
0.101671 0.189624 0.120409
0.10901 0.185992 0.120546
0.123873 0.183078 0.12108
0.161288 0.178851 0.121553
0.194324 0.178805 0.121462
0.232242 0.171466 0.123674
0.273716 0.149218 0.122591
0.313497 0.137972 0.122271
0.35903 0.133684 0.125582
0.405585 0.134157 0.134768
0.448035 0.1364 0.148104
0.484398 0.139666 0.16347
0.519051 0.142763 0.177203
0.565423 0.147204 0.192233
0.606973 0.153597 0.20853
0.612345 0.155154 0.214694
0.616083 0.155993 0.219394
0.618708 0.156069 0.223178
0.622278 0.156542 0.227741
0.625086 0.157092 0.231708
0.627832 0.157473 0.235126
0.629526 0.157702 0.238041
0.631083 0.157961 0.24036
0.632792 0.157977 0.242512
0.635477 0.157534 0.245014
0.639506 0.156954 0.24744
0.644907 0.15581 0.250263
0.65124 0.154238 0.253025
0.11043 0.212558 0.13022
0.108522 0.216571 0.129931
0.106126 0.220706 0.129442
0.10486 0.223819 0.128374
0.104341 0.225589 0.126329
0.104692 0.225528 0.126085
0.10753 0.222141 0.125795
0.117983 0.218463 0.125612
0.139803 0.214847 0.125154
0.190402 0.208896 0.126162
0.2336 0.209873 0.127871
0.286076 0.201846 0.130587
0.333455 0.171359 0.129793
0.375402 0.153353 0.129137
0.419409 0.144121 0.130724
0.466957 0.141131 0.137377
0.513252 0.141344 0.151278
0.5523 0.145022 0.17171
0.582223 0.14815 0.189548
0.605371 0.150591 0.202762
0.617853 0.152285 0.208469
0.617334 0.151843 0.208423
0.618479 0.151934 0.210025
0.619959 0.152178 0.21178
0.620554 0.152392 0.213077
0.620417 0.152621 0.213794
0.620295 0.153002 0.214633
0.620295 0.153429 0.215564
0.620188 0.153689 0.216373
0.621561 0.153857 0.217655
0.624399 0.153643 0.219669
0.628656 0.152789 0.221729
0.634226 0.151431 0.223682
0.118654 0.253422 0.137636
0.115877 0.257954 0.136324
0.112978 0.263416 0.135546
0.111055 0.267262 0.133867
0.110109 0.27068 0.131807
0.110338 0.272374 0.131624
0.111269 0.271504 0.131594
0.113649 0.266102 0.131182
0.129168 0.261692 0.131151
0.159915 0.258076 0.131319
0.22826 0.251453 0.132387
0.286244 0.252384 0.133791
0.352743 0.244999 0.135805
0.403784 0.208957 0.137453
0.443885 0.177539 0.13695
0.483543 0.159487 0.137667
0.523842 0.152956 0.140566
0.565942 0.150393 0.151171
0.608637 0.15404 0.172381
0.634806 0.158816 0.195453
0.637675 0.159091 0.204974
0.634348 0.157168 0.20415
0.634455 0.156909 0.205585
0.633219 0.156466 0.208408
0.62826 0.15491 0.209003
0.623041 0.152819 0.207904
0.621485 0.151873 0.207706
0.620752 0.151507 0.207858
0.62063 0.151476 0.207965
0.620829 0.151461 0.208194
0.621576 0.151308 0.208453
0.623407 0.150896 0.20882
0.626978 0.150042 0.209644
0.125994 0.308125 0.143145
0.121248 0.315923 0.141604
0.117021 0.323247 0.139864
0.113924 0.329519 0.137881
0.112428 0.335454 0.135424
0.112215 0.339574 0.133791
0.112902 0.343008 0.133486
0.114549 0.340703 0.133684
0.119432 0.332326 0.134234
0.1402 0.32578 0.134386
0.182315 0.319921 0.134066
0.274159 0.311696 0.133593
0.360739 0.314107 0.132769
0.431388 0.310948 0.132845
0.490166 0.269627 0.139101
0.526024 0.223896 0.144732
0.556252 0.195178 0.146395
0.587564 0.178042 0.149752
0.612253 0.170855 0.155947
0.63267 0.166949 0.166384
0.648264 0.167834 0.181415
0.646204 0.165713 0.181933
0.646448 0.165011 0.184726
0.649516 0.165331 0.190036
0.65127 0.165316 0.194064
0.651423 0.164904 0.19617
0.651728 0.164477 0.197742
0.652293 0.164279 0.199481
0.652079 0.163958 0.200916
0.651484 0.1635 0.201984
0.651118 0.162799 0.202564
0.652125 0.161822 0.203159
0.655024 0.16054 0.204044
0.125856 0.380056 0.144686
0.119463 0.389975 0.142061
0.113878 0.398764 0.139315
0.11043 0.406836 0.136721
0.10782 0.414527 0.134005
0.107118 0.420233 0.130358
0.10724 0.425177 0.128099
0.107897 0.42681 0.128466
0.110735 0.422019 0.129488
0.118257 0.410697 0.130556
0.150118 0.404501 0.129717
0.20914 0.396048 0.128298
0.336812 0.38732 0.125658
0.443153 0.390997 0.122805
0.510109 0.393759 0.123201
0.580468 0.365728 0.128771
0.624857 0.305882 0.143496
0.64889 0.262379 0.153643
0.656413 0.223423 0.161929
0.667842 0.210391 0.17026
0.671763 0.199725 0.173938
0.669367 0.195056 0.174273
0.666835 0.192187 0.174594
0.662654 0.188922 0.173312
0.659022 0.185748 0.172168
0.655146 0.182406 0.170596
0.652201 0.179522 0.169558
0.651148 0.177859 0.169635
0.649516 0.17612 0.169253
0.647868 0.174243 0.168841
0.647303 0.172671 0.168948
0.64773 0.170703 0.168933
0.650019 0.168933 0.169085
0.121782 0.464424 0.142733
0.116197 0.47361 0.139788
0.111437 0.482292 0.137667
0.107134 0.490135 0.134768
0.103944 0.4972 0.131945
0.102525 0.503685 0.128923
0.101854 0.508766 0.125414
0.102693 0.511864 0.124208
0.10425 0.512062 0.124544
0.106477 0.504143 0.125139
0.119493 0.493492 0.124834
0.168063 0.489815 0.122499
0.250278 0.477241 0.119905
0.406989 0.469856 0.118273
0.519539 0.473014 0.12195
0.579095 0.478981 0.127306
0.6486 0.480812 0.137789
0.703868 0.423026 0.151934
0.736004 0.367514 0.169406
0.745312 0.321736 0.17969
0.742992 0.285283 0.184436
0.730144 0.258381 0.184283
0.721233 0.247623 0.183124
0.718288 0.244465 0.182879
0.715465 0.24097 0.182528
0.714626 0.239597 0.18262
0.712581 0.237705 0.182193
0.709819 0.234775 0.18175
0.707286 0.231785 0.18146
0.703471 0.228 0.180529
0.701106 0.224933 0.180255
0.698253 0.220752 0.179202
0.696727 0.216556 0.178576
0.12311 0.54757 0.148028
0.118944 0.556909 0.14667
0.115053 0.564523 0.144793
0.111803 0.571664 0.142901
0.110338 0.578103 0.141009
0.109987 0.583719 0.138872
0.110918 0.588663 0.136828
0.112444 0.591073 0.132952
0.114015 0.592065 0.133913
0.115908 0.590509 0.134051
0.116884 0.579889 0.132036
0.139071 0.571252 0.128954
0.206119 0.570886 0.125795
0.316381 0.555947 0.121935
0.479957 0.549203 0.124758
0.58999 0.553231 0.135302
0.647272 0.558709 0.146502
0.706508 0.56585 0.165515
0.758022 0.542443 0.183291
0.793957 0.496254 0.198016
0.810834 0.444694 0.206165
0.813779 0.407065 0.208438
0.81149 0.399969 0.207446
0.808469 0.393713 0.205829
0.80557 0.38732 0.204135
0.801663 0.379644 0.20209
0.798505 0.371847 0.200168
0.794507 0.363806 0.198108
0.791028 0.355444 0.196658
0.786816 0.346319 0.195712
0.78201 0.336767 0.194186
0.777996 0.328405 0.192905
0.77435 0.320806 0.191791
0.148028 0.624414 0.173266
0.146258 0.632181 0.172747
0.143786 0.639521 0.172152
0.141833 0.646372 0.171359
0.140597 0.651942 0.170459
0.141833 0.656809 0.16965
0.144686 0.660716 0.168826
0.14786 0.663478 0.167193
0.150454 0.664729 0.166918
0.152285 0.664088 0.167514
0.151797 0.658549 0.165164
0.150546 0.647013 0.159457
0.189624 0.643473 0.149142
0.269718 0.645197 0.1411
0.401068 0.630198 0.135225
0.555245 0.624262 0.144564
0.656504 0.628428 0.165148
0.713298 0.632914 0.18497
0.761532 0.637659 0.204257
0.807584 0.639017 0.222232
0.838544 0.613443 0.229892
0.851362 0.57818 0.23093
0.852049 0.557671 0.230137
0.850507 0.549493 0.228916
0.84947 0.542168 0.228122
0.848096 0.534844 0.227268
0.846922 0.527321 0.226291
0.845167 0.519493 0.225193
0.843168 0.510658 0.223987
0.84094 0.500313 0.222553
0.838148 0.490013 0.221088
0.835355 0.479988 0.219226
0.833005 0.471122 0.217502
0.190936 0.698802 0.213321
0.19115 0.706676 0.214084
0.189364 0.714122 0.214191
0.187793 0.72105 0.213062
0.187274 0.727382 0.212177
0.188312 0.732601 0.211276
0.190265 0.736278 0.210117
0.192599 0.738125 0.207935
0.194644 0.739467 0.207843
0.196323 0.739178 0.208286
0.196902 0.735622 0.207248
0.193194 0.724086 0.202365
0.201572 0.716091 0.195911
0.262684 0.716243 0.182483
0.353979 0.719905 0.171603
0.488334 0.699748 0.162341
0.626413 0.69485 0.181689
0.717723 0.700145 0.209033
0.776089 0.705333 0.230671
0.815137 0.708186 0.24535
0.848035 0.71017 0.257832
0.867552 0.704082 0.263722
0.873564 0.698299 0.264836
0.873106 0.694804 0.263416
0.872312 0.689616 0.261143
0.871168 0.681956 0.258396
0.870054 0.675074 0.255543
0.868299 0.666423 0.252247
0.866819 0.657008 0.248753
0.865263 0.646632 0.245869
0.863706 0.636515 0.24332
0.862348 0.626642 0.241199
0.861051 0.617777 0.239384
0.233585 0.775402 0.251392
0.235157 0.782666 0.252003
0.23389 0.788815 0.25098
0.231342 0.794491 0.2495
0.229526 0.799588 0.247654
0.229404 0.803601 0.246067
0.230686 0.8065 0.244541
0.232181 0.807889 0.24184
0.233143 0.808591 0.242893
0.234668 0.808545 0.243565
0.235447 0.805875 0.242893
0.234836 0.800015 0.240772
0.230137 0.786038 0.234211
0.260792 0.783413 0.228305
0.351537 0.791409 0.220996
0.451255 0.78761 0.211749
0.579583 0.765911 0.208331
0.696391 0.762921 0.231662
0.776974 0.770733 0.257786
0.832074 0.77557 0.277821
0.861631 0.776974 0.28925
0.8766 0.776043 0.295308
0.883513 0.77261 0.2972
0.883467 0.767956 0.294957
0.882811 0.763897 0.292622
0.881941 0.760113 0.290379
0.881102 0.755703 0.287449
0.880125 0.750408 0.284581
0.879118 0.744701 0.281361
0.87834 0.738659 0.278584
0.877562 0.732174 0.275624
0.876753 0.72639 0.273457
0.875898 0.720836 0.271153
0.269352 0.833631 0.282506
0.269078 0.837064 0.280903
0.265538 0.840162 0.278492
0.261646 0.843183 0.275105
0.258259 0.845548 0.271778
0.256962 0.846937 0.268482
0.257145 0.847425 0.266224
0.257877 0.847623 0.264149
0.258366 0.847868 0.264942
0.258946 0.847745 0.265156
0.259632 0.846708 0.265141
0.2607 0.844465 0.264912
0.259464 0.838926 0.262516
0.271519 0.83447 0.259419
0.342061 0.838209 0.25388
0.448035 0.848341 0.253162
0.544533 0.838483 0.247349
0.662196 0.820005 0.253864
0.76228 0.820386 0.280461
0.829129 0.828336 0.305211
0.871061 0.831189 0.322835
0.887694 0.832364 0.331777
0.892454 0.830381 0.333501
0.891829 0.82565 0.330007
0.891218 0.821744 0.327123
0.890349 0.818082 0.324102
0.889464 0.814359 0.320958
0.888823 0.810544 0.317845
0.887953 0.806256 0.314717
0.887388 0.801968 0.311894
0.886641 0.797818 0.309392
0.886381 0.793378 0.307774
0.885924 0.789212 0.305669
0.281895 0.850202 0.29398
0.280186 0.850782 0.290501
0.276539 0.852125 0.286946
0.272267 0.853666 0.282506
0.268498 0.854994 0.278584
0.266316 0.855787 0.274891
0.265232 0.856046 0.27187
0.264927 0.856107 0.270207
0.26479 0.856153 0.270176
0.265034 0.856062 0.270253
0.265644 0.855802 0.270527
0.267033 0.855268 0.27097
0.269017 0.85449 0.271519
0.275029 0.854063 0.272038
0.324315 0.859312 0.271336
0.432822 0.868879 0.270222
0.527947 0.872786 0.272328
0.623178 0.868009 0.276524
0.73283 0.859815 0.296559
0.816693 0.86244 0.325353
0.866728 0.867445 0.348333
0.89192 0.869245 0.363943
0.898848 0.869337 0.367987
0.898436 0.866941 0.364721
0.898192 0.864759 0.362707
0.897322 0.861906 0.35903
0.896468 0.859281 0.355749
0.895705 0.856535 0.352102
0.894835 0.853391 0.348837
0.894453 0.850401 0.346151
0.89398 0.847013 0.343603
0.893889 0.843397 0.341787
0.893324 0.840177 0.339269
0.281529 0.850309 0.292973
0.279759 0.85095 0.290761
0.276158 0.852293 0.287434
0.271824 0.853864 0.284245
0.267979 0.855253 0.280369
0.265721 0.856016 0.276722
0.264851 0.856291 0.273243
0.264652 0.856245 0.270863
0.264683 0.856199 0.270146
0.264851 0.856138 0.270191
0.265263 0.85597 0.270359
0.266102 0.855634 0.270665
0.267323 0.855131 0.271061
0.269932 0.854551 0.271519
0.30042 0.857359 0.27126
0.3953 0.867079 0.270359
0.508888 0.875486 0.273594
0.596933 0.87921 0.282506
0.695842 0.88101 0.30341
0.795621 0.881453 0.337652
0.858961 0.885786 0.366247
0.888487 0.887785 0.386053
0.901381 0.888502 0.398047
0.902724 0.88751 0.398566
0.902922 0.886381 0.397986
0.902541 0.885328 0.395193
0.901808 0.884077 0.391577
0.901122 0.882658 0.387747
0.900771 0.881361 0.384833
0.900572 0.879957 0.382223
0.900191 0.87837 0.379538
0.89984 0.876707 0.377569
0.899626 0.875181 0.375387
0.283986 0.85005 0.306538
0.282979 0.850294 0.304036
0.280583 0.851072 0.300603
0.277928 0.851957 0.2963
0.275074 0.852872 0.291493
0.273304 0.85333 0.286137
0.272648 0.853498 0.280949
0.272847 0.853269 0.27689
0.273365 0.852888 0.273793
0.27361 0.852689 0.272953
0.273838 0.852598 0.27303
0.274372 0.852384 0.273182
0.275425 0.851987 0.273426
0.276875 0.851453 0.273732
0.292073 0.852705 0.273747
0.368688 0.861418 0.273289
0.477119 0.87071 0.275273
0.565164 0.875853 0.282429
0.659419 0.880339 0.298756
0.767147 0.88513 0.332433
0.859113 0.88893 0.372717
0.88864 0.892683 0.400198
0.901488 0.894514 0.421378
0.905318 0.895384 0.432532
0.905486 0.895521 0.435019
0.905211 0.895476 0.430716
0.904646 0.895277 0.425391
0.903944 0.895186 0.420356
0.903243 0.894881 0.414786
0.902525 0.894484 0.410178
0.902083 0.893996 0.406531
0.901946 0.893172 0.404013
0.902007 0.892058 0.402274
0.275868 0.854002 0.317784
0.276493 0.853605 0.315312
0.275807 0.853681 0.311711
0.274296 0.854032 0.30753
0.272755 0.854353 0.301717
0.271702 0.854414 0.295094
0.27126 0.854292 0.288197
0.271733 0.85388 0.281514
0.272404 0.853422 0.276509
0.27306 0.852964 0.27332
0.273457 0.852735 0.272908
0.27393 0.852552 0.273075
0.274739 0.852232 0.273259
0.275639 0.851911 0.273457
0.276844 0.851591 0.27364
0.333516 0.858396 0.272801
0.437919 0.868498 0.273259
0.538262 0.874968 0.279072
0.625605 0.879026 0.290654
0.732265 0.883177 0.314961
0.841352 0.888411 0.359136
0.887892 0.892866 0.400809
0.901061 0.895415 0.434455
0.90576 0.896666 0.469627
0.906828 0.897398 0.489555
0.906722 0.897658 0.492912
0.906279 0.897704 0.486275
0.905653 0.897841 0.478233
0.904784 0.898024 0.469657
0.903944 0.898146 0.460838
0.903349 0.898116 0.452827
0.903044 0.897917 0.446387
0.902937 0.897612 0.441199
0.266529 0.857923 0.328038
0.268025 0.857298 0.325048
0.269505 0.856733 0.322042
0.270161 0.856275 0.317922
0.27013 0.855985 0.312108
0.269825 0.855695 0.305226
0.26978 0.855283 0.297093
0.270268 0.854688 0.288426
0.271382 0.853986 0.280613
0.272343 0.85333 0.274235
0.272755 0.85301 0.272557
0.273198 0.852842 0.272831
0.273838 0.852583 0.27303
0.274693 0.852262 0.273243
0.27538 0.852003 0.273396
0.303853 0.855406 0.272847
0.401266 0.865843 0.271931
0.500526 0.87335 0.27541
0.597009 0.878264 0.285542
0.699275 0.882216 0.305623
0.809705 0.886854 0.344366
0.878889 0.892332 0.393652
0.900053 0.895521 0.436576
0.906035 0.897139 0.484489
0.907164 0.897841 0.521324
0.90721 0.898268 0.53727
0.906996 0.898589 0.540932
0.906416 0.898878 0.538643
0.905867 0.899077 0.532326
0.905272 0.899275 0.525399
0.904799 0.899367 0.518669
0.904555 0.899367 0.512688
0.904463 0.899229 0.507561
0.26508 0.859052 0.339529
0.266392 0.858366 0.336568
0.267308 0.857862 0.332631
0.26775 0.857435 0.327642
0.267597 0.857404 0.321614
0.267124 0.857252 0.314412
0.267094 0.856809 0.305669
0.267704 0.856062 0.296071
0.269383 0.854902 0.286107
0.270527 0.854231 0.277882
0.271183 0.853697 0.272923
0.271321 0.853605 0.27219
0.271672 0.853468 0.272297
0.272221 0.853223 0.272526
0.272892 0.852964 0.272755
0.287648 0.854749 0.272526
0.364721 0.863676 0.27097
0.465675 0.872465 0.272099
0.558587 0.877806 0.278813
0.658869 0.881819 0.294911
0.769985 0.885771 0.326467
0.860456 0.890852 0.375463
0.895354 0.894759 0.421561
0.90454 0.89659 0.465934
0.90695 0.897612 0.508431
0.907118 0.898192 0.53257
0.906996 0.898573 0.540963
0.906447 0.898894 0.540246
0.906035 0.899199 0.539376
0.905577 0.899489 0.538659
0.905226 0.899702 0.538109
0.90518 0.899733 0.537987
0.90544 0.89958 0.538384
0.262592 0.860136 0.349828
0.264256 0.859434 0.346151
0.265629 0.858869 0.342443
0.266209 0.858488 0.337118
0.26566 0.858381 0.33051
0.26508 0.858335 0.322591
0.264912 0.858137 0.314137
0.265538 0.857343 0.303944
0.267033 0.856138 0.292332
0.268925 0.854917 0.28159
0.270466 0.854063 0.273579
0.270817 0.853788 0.272053
0.270924 0.853758 0.272084
0.27126 0.85362 0.272175
0.271778 0.853422 0.272343
0.27892 0.854002 0.272267
0.335378 0.860883 0.271122
0.434134 0.87042 0.27068
0.520378 0.876585 0.274327
0.618341 0.881224 0.285817
0.725734 0.884978 0.309789
0.832258 0.889464 0.354116
0.888334 0.894224 0.405997
0.902144 0.896284 0.448493
0.906386 0.897704 0.493523
0.90695 0.898146 0.526741
0.90695 0.898619 0.540871
0.906447 0.898909 0.54023
0.90602 0.899199 0.539391
0.905577 0.899489 0.538689
0.905241 0.899687 0.538216
0.905241 0.899672 0.538231
0.905531 0.899519 0.538613
0.260395 0.861387 0.359075
0.261921 0.860624 0.35494
0.263508 0.859815 0.350896
0.264271 0.859419 0.345342
0.263996 0.859434 0.33875
0.263127 0.859358 0.330632
0.262837 0.859113 0.321721
0.263798 0.858412 0.311666
0.265415 0.85716 0.299382
0.267597 0.855665 0.286976
0.269581 0.854566 0.277104
0.270665 0.853864 0.272068
0.270802 0.853788 0.272038
0.270939 0.853758 0.272084
0.271183 0.853651 0.272145
0.27422 0.853925 0.27219
0.310018 0.858213 0.27158
0.401114 0.867689 0.270314
0.48838 0.874449 0.272526
0.581384 0.879805 0.280385
0.682139 0.884062 0.298116
0.795468 0.888212 0.332143
0.878462 0.893904 0.389609
0.898955 0.896544 0.431571
0.90486 0.897749 0.477272
0.906355 0.898283 0.518502
0.906691 0.898695 0.538949
0.906386 0.898939 0.540139
0.90602 0.899214 0.539361
0.905638 0.899458 0.538735
0.905364 0.899611 0.538399
0.905425 0.89958 0.538491
0.905653 0.899443 0.538781
0.263554 0.860639 0.368124
0.265568 0.859663 0.36408
0.267704 0.858671 0.359533
0.269718 0.857649 0.354299
0.271336 0.856901 0.348165
