bundles/resolve-cinematic-luts/Phantom Luts/Canon Film LUT/ATOMOS Monitoring LUTs/C-Log 2/Eterna Canon CL2 AML.cube
TITLE "Generated by Resolve"
LUT_3D_SIZE 33
0.0698405 0.0940261 0.0944991
0.071809 0.0943465 0.0948196
0.0769513 0.094316 0.0958724
0.0869001 0.0952316 0.0968032
0.100755 0.0958114 0.0969406
0.117693 0.0966964 0.0976272
0.133623 0.0975814 0.0982376
0.150423 0.0990616 0.100099
0.169406 0.101167 0.104097
0.193484 0.103532 0.108797
0.222583 0.106508 0.116365
0.255802 0.110063 0.125826
0.294804 0.114061 0.137972
0.336507 0.118318 0.151797
0.381872 0.122744 0.168124
0.429664 0.127321 0.186984
0.47895 0.131716 0.207279
0.528786 0.136904 0.229236
0.57789 0.142489 0.252476
0.618097 0.148577 0.274754
0.638163 0.152392 0.292088
0.641764 0.153002 0.298466
0.642985 0.153185 0.303563
0.644129 0.153338 0.308186
0.645121 0.153521 0.312322
0.64596 0.153658 0.31603
0.647013 0.153658 0.319661
0.649134 0.153292 0.323217
0.652567 0.152529 0.327443
0.657435 0.151202 0.332067
0.663691 0.149432 0.337636
0.670787 0.147539 0.343557
0.678126 0.145541 0.349279
0.069688 0.0938888 0.092607
0.0704356 0.0941482 0.0936751
0.0747539 0.0945602 0.0943008
0.0830243 0.095079 0.095079
0.0962997 0.0957656 0.0955978
0.113634 0.0966201 0.0962539
0.132509 0.097612 0.0973526
0.150561 0.0991073 0.0992447
0.170611 0.101198 0.102327
0.194903 0.103563 0.106783
0.225345 0.106584 0.11426
0.259998 0.110094 0.123827
0.299382 0.113588 0.135958
0.341787 0.117815 0.150744
0.387228 0.122393 0.167239
0.435111 0.127077 0.185595
0.483696 0.131899 0.205921
0.53373 0.137469 0.228321
0.582238 0.14316 0.251881
0.620203 0.14905 0.27396
0.63978 0.152956 0.291371
0.641154 0.152941 0.2963
0.642405 0.153109 0.301259
0.643641 0.153292 0.305821
0.644556 0.15346 0.310063
0.645457 0.153552 0.313878
0.64651 0.153582 0.317342
0.648707 0.153231 0.321096
0.65211 0.152483 0.325154
0.657023 0.151263 0.3299
0.66334 0.149477 0.335363
0.670665 0.147463 0.341039
0.678538 0.145388 0.346944
0.0702983 0.0963302 0.0937362
0.0702068 0.0960861 0.0941176
0.0727092 0.0959945 0.0943313
0.079057 0.096376 0.0948806
0.090959 0.0961929 0.0948959
0.108064 0.0966506 0.0955978
0.127947 0.0978256 0.0970626
0.148119 0.0995804 0.0992447
0.170077 0.101701 0.102235
0.196185 0.103868 0.106081
0.227771 0.106538 0.112673
0.263355 0.109911 0.121416
0.303395 0.11368 0.133745
0.346334 0.117494 0.148791
0.393362 0.121675 0.166262
0.442817 0.126223 0.185458
0.492668 0.131456 0.20647
0.542123 0.13727 0.229053
0.588159 0.142962 0.251957
0.622751 0.149111 0.273564
0.639277 0.15288 0.289143
0.640665 0.152956 0.294545
0.641993 0.153048 0.299306
0.643122 0.153216 0.30396
0.64416 0.153353 0.308263
0.645014 0.153506 0.311879
0.64596 0.153567 0.315373
0.648081 0.153262 0.318898
0.651499 0.152514 0.323186
0.656443 0.151308 0.327825
0.662928 0.149584 0.333211
0.670665 0.147372 0.339055
0.679103 0.145144 0.345174
0.0724041 0.102281 0.0964675
0.0722515 0.102358 0.0962692
0.0742199 0.101091 0.0961624
0.0793011 0.101213 0.0966049
0.0897841 0.100114 0.0954757
0.10663 0.0982681 0.0952468
0.126619 0.098436 0.0968795
0.147097 0.099794 0.0993515
0.169451 0.101549 0.102312
0.196231 0.103731 0.10547
0.228794 0.107225 0.112032
0.265248 0.110353 0.119799
0.305608 0.113542 0.130938
0.34963 0.117464 0.145892
0.397406 0.12163 0.163806
0.448112 0.125811 0.183566
0.500114 0.1308 0.206088
0.552636 0.135866 0.229969
0.601038 0.141268 0.254215
0.633799 0.146883 0.276417
0.646998 0.150591 0.2907
0.648219 0.150668 0.29604
0.649531 0.150774 0.301106
0.650568 0.150988 0.305577
0.65124 0.151202 0.309712
0.65182 0.151415 0.313298
0.652277 0.151598 0.316457
0.652949 0.151675 0.319387
0.654505 0.151461 0.32256
0.657923 0.150729 0.326055
0.663554 0.14931 0.330861
0.671382 0.147097 0.336812
0.679881 0.144747 0.343038
0.0751354 0.112123 0.0997024
0.0746166 0.112734 0.0990005
0.0755779 0.112169 0.0982376
0.079469 0.109575 0.0982528
0.089662 0.109926 0.0986648
0.106126 0.107362 0.0975814
0.127474 0.103578 0.0965744
0.149416 0.102037 0.098024
0.172061 0.102464 0.101137
0.197833 0.104448 0.105135
0.229191 0.106966 0.110964
0.266041 0.11014 0.117403
0.307057 0.114549 0.128511
0.349889 0.117327 0.141222
0.398337 0.121462 0.159365
0.449683 0.125841 0.1794
0.502586 0.130953 0.202106
0.555154 0.13611 0.226276
0.603006 0.141863 0.251026
0.635462 0.147311 0.273854
0.647044 0.15021 0.287221
0.648188 0.150454 0.292531
0.649119 0.150484 0.297353
0.650004 0.150729 0.301793
0.650721 0.150958 0.305791
0.651408 0.151141 0.309453
0.652186 0.151232 0.312795
0.652995 0.151278 0.315587
0.654429 0.151125 0.318517
0.658381 0.15021 0.32256
0.664469 0.148714 0.327382
0.672709 0.146578 0.333425
0.680995 0.144274 0.339147
0.0784009 0.128084 0.103838
0.0771649 0.129397 0.102754
0.0769818 0.130236 0.100923
0.0801404 0.127871 0.101076
0.0872663 0.124193 0.101213
0.104921 0.124269 0.102174
0.127718 0.122225 0.101793
0.150942 0.114778 0.101061
0.175921 0.108461 0.100755
0.203586 0.107317 0.103838
0.235416 0.107836 0.10901
0.271138 0.110384 0.116136
0.309758 0.114137 0.125811
0.351476 0.117159 0.136645
0.397665 0.12134 0.153552
0.448966 0.125643 0.173266
0.502312 0.130785 0.195697
0.555825 0.136294 0.220142
0.604089 0.142199 0.245335
0.636561 0.147829 0.269688
0.646235 0.15024 0.281712
0.647349 0.150118 0.287068
0.648814 0.150225 0.29218
0.649943 0.150179 0.296803
0.650919 0.150317 0.300832
0.651713 0.150469 0.304204
0.652369 0.150576 0.307424
0.653117 0.150652 0.310109
0.654597 0.150469 0.312963
0.658045 0.149737 0.316426
0.663584 0.148379 0.321004
0.671702 0.146319 0.326589
0.680461 0.14406 0.332418
0.0829023 0.150515 0.108782
0.0816968 0.152636 0.10779
0.0805676 0.154162 0.105898
0.0820325 0.153933 0.104372
0.0870375 0.149966 0.104295
0.0991836 0.146319 0.104753
0.12781 0.144823 0.105394
0.155459 0.143084 0.105501
0.182223 0.131823 0.105501
0.208911 0.120439 0.103929
0.242283 0.113878 0.105257
0.278172 0.11339 0.111528
0.315465 0.114794 0.120562
0.354314 0.117983 0.131609
0.396155 0.121523 0.145983
0.443565 0.12578 0.164019
0.494972 0.130709 0.185046
0.548959 0.136843 0.20972
0.598886 0.143099 0.235309
0.631983 0.149111 0.260136
0.639643 0.150851 0.271
0.641627 0.151095 0.276783
0.643198 0.151171 0.281712
0.644251 0.151049 0.286259
0.645319 0.151141 0.29015
0.646159 0.151186 0.293568
0.646845 0.151171 0.296345
0.647745 0.151171 0.299168
0.648981 0.151064 0.301579
0.651102 0.150698 0.304265
0.654734 0.149859 0.307591
0.660197 0.148531 0.311559
0.666819 0.146868 0.315831
0.0908217 0.17496 0.113451
0.0889448 0.17792 0.112505
0.0867018 0.180606 0.111299
0.0858625 0.182559 0.109346
0.0881514 0.181415 0.108049
0.0962539 0.176699 0.108019
0.112596 0.173358 0.108965
0.153796 0.170077 0.110262
0.187243 0.169238 0.110979
0.22153 0.157366 0.11252
0.254108 0.137606 0.110704
0.289082 0.122866 0.109239
0.329793 0.119844 0.115892
0.368872 0.118746 0.125566
0.408988 0.121553 0.140764
0.448707 0.125048 0.157656
0.494575 0.129778 0.176974
0.543008 0.135042 0.197009
0.592676 0.142245 0.222248
0.627848 0.149157 0.246693
0.632105 0.149508 0.254276
0.635935 0.150256 0.261662
0.638407 0.150637 0.267185
0.640177 0.150881 0.272251
0.641672 0.15111 0.276143
0.642893 0.151217 0.279606
0.643595 0.151156 0.282292
0.644282 0.151049 0.284886
0.645472 0.150912 0.287221
0.6477 0.1505 0.289982
0.651438 0.149615 0.292866
0.656886 0.14815 0.296452
0.663508 0.146487 0.300542
0.0969863 0.204547 0.120455
0.0949416 0.208698 0.119249
0.0926223 0.212451 0.117906
0.0915847 0.215427 0.115694
0.0913405 0.216327 0.113603
0.0940871 0.213626 0.11313
0.106966 0.208927 0.112657
0.130404 0.205188 0.113329
0.18381 0.200809 0.115114
0.225544 0.201022 0.117052
0.270253 0.190188 0.11928
0.310094 0.155978 0.117723
0.345113 0.136889 0.11574
0.386374 0.127169 0.118135
0.430213 0.125399 0.131197
0.47155 0.125994 0.150332
0.507942 0.129168 0.171145
0.543526 0.133379 0.190082
0.586191 0.138949 0.208484
0.618677 0.145998 0.227344
0.622415 0.147295 0.23389
0.624842 0.148333 0.239277
0.627237 0.148943 0.244099
0.629923 0.149401 0.248829
0.631907 0.149371 0.252949
0.633936 0.149828 0.256855
0.635309 0.150072 0.259693
0.636713 0.15024 0.262409
0.638239 0.150301 0.265095
0.641047 0.150103 0.267857
0.645304 0.149401 0.271275
0.651072 0.148165 0.274586
0.657862 0.146548 0.278508
0.104891 0.242756 0.128161
0.102464 0.247471 0.126101
0.0990921 0.252369 0.123873
0.0974136 0.256123 0.121263
0.0966659 0.258366 0.118822
0.0974136 0.258213 0.118868
0.100328 0.253788 0.118593
0.118425 0.249531 0.118578
0.152392 0.246418 0.119219
0.221225 0.239811 0.120256
0.273259 0.241093 0.122026
0.331624 0.22916 0.125444
0.374365 0.186862 0.125261
0.410239 0.158587 0.123766
0.447517 0.140887 0.123781
0.490715 0.133577 0.132326
0.533806 0.131456 0.151812
0.572763 0.136019 0.181445
0.599039 0.139574 0.203876
0.617868 0.142672 0.220295
0.627344 0.144488 0.226062
0.627283 0.144198 0.226139
0.62884 0.144045 0.22829
0.630701 0.144121 0.230762
0.631952 0.144213 0.232273
0.632486 0.144289 0.233371
0.632975 0.144472 0.23447
0.633326 0.144701 0.235996
0.633371 0.14493 0.236957
0.634241 0.145144 0.238544
0.636225 0.145098 0.240513
0.639612 0.14464 0.242908
0.64509 0.143557 0.245579
0.111803 0.291112 0.13434
0.108125 0.297215 0.131853
0.103975 0.303716 0.12874
0.101396 0.308843 0.125597
0.100053 0.312551 0.122454
0.100664 0.31458 0.122255
0.102373 0.313497 0.122454
0.105364 0.307134 0.122667
0.129564 0.302373 0.122774
0.175235 0.298695 0.12285
0.265812 0.290578 0.123171
0.334096 0.291264 0.122972
0.40293 0.280842 0.124987
0.451148 0.235294 0.129671
0.484245 0.191821 0.131899
0.516289 0.163989 0.132586
0.549233 0.151202 0.135805
0.582284 0.145113 0.15079
0.613016 0.145281 0.177646
0.63653 0.149706 0.206973
0.639994 0.149859 0.219898
0.638056 0.148562 0.219684
0.638621 0.148318 0.221622
0.638743 0.147967 0.225513
0.636378 0.147295 0.227344
0.631449 0.144732 0.225086
0.630365 0.144015 0.225071
0.630106 0.143847 0.225345
0.629999 0.143847 0.225452
0.630137 0.143816 0.225711
0.630793 0.143664 0.226139
0.632349 0.143267 0.226719
0.636027 0.142367 0.227787
0.114961 0.351858 0.137697
0.108629 0.360067 0.133577
0.103578 0.368002 0.130205
0.099855 0.374685 0.126284
0.0979934 0.380621 0.121843
0.0974594 0.384985 0.119814
0.0982223 0.388281 0.119951
0.100069 0.38587 0.120272
0.105455 0.377005 0.12137
0.138247 0.370581 0.120867
0.200839 0.365896 0.119722
0.317876 0.357 0.117006
0.409171 0.358572 0.114931
0.480491 0.354345 0.115038
0.541085 0.30692 0.12462
0.575525 0.249989 0.136736
0.599283 0.212436 0.142779
0.61677 0.188312 0.148241
0.626566 0.174899 0.15555
0.633158 0.161456 0.165393
0.644816 0.159182 0.183719
0.641901 0.156039 0.18436
0.642374 0.154696 0.18909
0.645701 0.154788 0.196933
0.647517 0.154604 0.202548
0.647974 0.154131 0.204898
0.648341 0.15349 0.207279
0.649271 0.153323 0.20972
0.649546 0.153155 0.211765
0.64947 0.152834 0.213489
0.649638 0.1523 0.21474
0.651118 0.151476 0.215854
0.654444 0.150301 0.217243
0.110033 0.42623 0.136355
0.103258 0.436118 0.132265
0.0971237 0.445274 0.128069
0.0936599 0.452888 0.124315
0.0908217 0.460594 0.119768
0.0906233 0.465904 0.116152
0.0914015 0.470268 0.113939
0.0927596 0.471412 0.113848
0.0959335 0.466697 0.114626
0.105486 0.455665 0.115602
0.152972 0.450568 0.113619
0.234211 0.442618 0.110811
0.380774 0.432929 0.107485
0.487022 0.435157 0.108064
0.551324 0.43743 0.111681
0.621469 0.409201 0.1205
0.669718 0.345785 0.137911
0.690547 0.297658 0.153368
0.687434 0.248692 0.164263
0.688548 0.227008 0.171206
0.683574 0.209003 0.174228
0.679011 0.202106 0.174212
0.675761 0.19826 0.17496
0.67013 0.193286 0.173373
0.665034 0.188602 0.171496
0.659922 0.183627 0.169986
0.655177 0.179278 0.167956
0.652918 0.176623 0.167758
0.649927 0.173434 0.167025
0.647486 0.170565 0.166888
0.645655 0.167758 0.166476
0.644984 0.164569 0.166247
0.646448 0.16199 0.166384
0.108095 0.506813 0.138216
0.102998 0.515755 0.134752
0.0985733 0.524117 0.131945
0.0950942 0.531548 0.128298
0.0927901 0.538598 0.125002
0.0919203 0.544045 0.120027
0.0930953 0.548989 0.115618
0.0943008 0.551278 0.115816
0.0965133 0.551171 0.116304
0.0983444 0.54377 0.116045
0.113481 0.534157 0.114382
0.183795 0.532006 0.110643
0.286381 0.51989 0.107134
0.449683 0.511376 0.109453
0.55845 0.51368 0.117159
0.615106 0.519127 0.125795
0.681041 0.520607 0.143236
0.731487 0.465812 0.16051
0.760479 0.410971 0.177234
0.769284 0.35938 0.183383
0.765026 0.31667 0.185657
0.751308 0.28513 0.184741
0.742153 0.272328 0.183383
0.739681 0.268635 0.18349
0.736355 0.264454 0.182895
0.734997 0.262257 0.183108
0.732647 0.25951 0.182803
0.729488 0.255711 0.182284
0.725856 0.251499 0.181842
0.722148 0.246952 0.181369
0.718349 0.242451 0.180453
0.715114 0.237552 0.179721
0.712856 0.232425 0.179095
0.11986 0.584344 0.15465
0.116716 0.592493 0.152682
0.113649 0.599664 0.15082
0.112047 0.606516 0.149081
0.111345 0.611887 0.14641
0.112779 0.617151 0.144076
0.115496 0.620706 0.140719
0.1187 0.62295 0.13875
0.121279 0.623606 0.139712
0.123064 0.62208 0.139666
0.121614 0.61236 0.135836
0.148913 0.606561 0.128359
0.235966 0.608591 0.120729
0.358267 0.594629 0.116014
0.519265 0.586984 0.122759
0.624811 0.58996 0.139879
0.679133 0.594858 0.157107
0.734447 0.601724 0.179461
0.778897 0.579217 0.193286
0.807874 0.533745 0.203342
0.820813 0.483406 0.209369
0.822995 0.445563 0.211658
0.821042 0.438605 0.210819
0.81854 0.432639 0.209369
0.816205 0.42678 0.208148
0.813642 0.420127 0.206317
0.810895 0.412604 0.20444
0.807904 0.40412 0.202731
0.804929 0.395117 0.201221
0.801465 0.385641 0.199313
0.797742 0.37554 0.197223
0.794491 0.366445 0.195956
0.791577 0.358251 0.194415
0.157824 0.654231 0.1906
0.156664 0.661952 0.189899
0.154589 0.669627 0.189303
0.152728 0.675837 0.187701
0.152377 0.681453 0.185809
0.153658 0.686213 0.183185
0.156756 0.689494 0.180789
0.160113 0.691341 0.177096
0.162875 0.692515 0.1776
0.165103 0.691646 0.178058
0.165011 0.686885 0.176577
0.165148 0.676204 0.170535
0.216205 0.675227 0.156832
0.311482 0.679637 0.144839
0.443519 0.6654 0.137636
0.591318 0.658122 0.153368
0.688243 0.661524 0.181186
0.741741 0.665782 0.200671
0.783551 0.670359 0.216709
0.819806 0.670726 0.229648
0.843259 0.645258 0.233112
0.852537 0.610056 0.231357
0.853819 0.590082 0.23125
0.852598 0.582605 0.230396
0.851667 0.57583 0.229725
0.850431 0.568673 0.228611
0.849073 0.561212 0.227451
0.847807 0.553674 0.226383
0.846235 0.54522 0.225055
0.844297 0.535531 0.22385
0.842283 0.525856 0.222248
0.840146 0.516228 0.220737
0.838071 0.507744 0.219242
0.196933 0.725963 0.229648
0.197894 0.733059 0.229023
0.19646 0.739849 0.22768
0.19472 0.746258 0.225498
0.1935 0.751446 0.222583
0.193881 0.755322 0.219104
0.195651 0.757961 0.215488
0.198398 0.759487 0.211856
0.200641 0.760327 0.21239
0.202716 0.759823 0.213092
0.203479 0.756786 0.212345
0.200687 0.747387 0.208484
0.213413 0.741543 0.20293
0.29865 0.745159 0.190234
0.400671 0.748577 0.182071
0.529503 0.730037 0.175875
0.660517 0.725216 0.198795
0.746258 0.730312 0.225422
0.79707 0.734936 0.243793
0.828183 0.737392 0.255207
0.85275 0.738247 0.26424
0.867552 0.73138 0.267262
0.87303 0.725551 0.267979
0.872679 0.722332 0.266667
0.871519 0.717525 0.264347
0.870481 0.710216 0.260945
0.86923 0.703395 0.258076
0.867735 0.695216 0.254475
0.8663 0.686076 0.251209
0.864927 0.676158 0.248081
0.863645 0.666453 0.245426
0.862257 0.657023 0.242954
0.861234 0.648478 0.240818
0.233188 0.787625 0.258289
0.233753 0.793576 0.256825
0.231312 0.798672 0.254276
0.228367 0.803159 0.251362
0.226001 0.807324 0.24773
0.225559 0.810254 0.24416
0.226322 0.812085 0.240421
0.227634 0.812909 0.238254
0.228748 0.813504 0.238712
0.230213 0.813382 0.239322
0.231189 0.811017 0.238972
0.231693 0.806851 0.238117
0.228962 0.796078 0.232975
0.273152 0.796658 0.227466
0.385061 0.80621 0.220737
0.488472 0.803967 0.216526
0.612909 0.785885 0.219684
0.724727 0.783291 0.2439
0.796765 0.78941 0.266773
0.84126 0.793149 0.284016
0.863996 0.794125 0.293355
0.875227 0.792737 0.297566
0.881621 0.789639 0.298939
0.882521 0.785946 0.297398
0.881895 0.782635 0.295125
0.881041 0.779538 0.292897
0.880339 0.775814 0.29041
0.87924 0.771176 0.28716
0.878737 0.766445 0.284672
0.877897 0.761059 0.281498
0.876936 0.755398 0.278935
0.876463 0.750225 0.277012
0.87541 0.744793 0.274174
0.259022 0.830411 0.279652
0.25832 0.833677 0.27715
0.255161 0.836835 0.273899
0.250828 0.839765 0.269352
0.247578 0.8421 0.264607
0.246509 0.843397 0.25977
0.246891 0.843839 0.25658
0.247776 0.844144 0.255421
0.248569 0.844312 0.255802
0.249577 0.844099 0.256138
0.250538 0.842832 0.256123
0.251514 0.840848 0.255955
0.250751 0.835615 0.253956
0.2663 0.832685 0.251484
0.360418 0.839597 0.245838
0.47567 0.84889 0.246509
0.572519 0.84184 0.245975
0.688884 0.82829 0.259754
0.782605 0.828733 0.286915
0.837781 0.834318 0.30631
0.87068 0.83624 0.32018
0.884565 0.836866 0.327932
0.889586 0.835416 0.32987
0.891264 0.831952 0.328496
0.890562 0.829084 0.325963
0.889769 0.826337 0.323354
0.88922 0.823545 0.320806
0.888304 0.820523 0.317952
0.887465 0.817319 0.315221
0.886809 0.813993 0.312749
0.886244 0.810636 0.310857
0.885893 0.807095 0.309316
0.885649 0.803922 0.307774
0.272023 0.848127 0.291325
0.270024 0.848692 0.286961
0.266331 0.849958 0.282383
0.262013 0.851423 0.277028
0.258305 0.852613 0.271458
0.256214 0.853193 0.266209
0.255283 0.85333 0.26157
0.254826 0.853483 0.261082
0.254871 0.853468 0.261082
0.255344 0.853284 0.261219
0.256367 0.852888 0.261524
0.257862 0.852277 0.262043
0.259693 0.85153 0.262684
0.265583 0.849546 0.261875
0.329625 0.856397 0.260365
0.454414 0.866438 0.259937
0.55079 0.870085 0.264591
0.644923 0.864973 0.271809
0.752041 0.858976 0.297566
0.826413 0.861021 0.323857
0.866148 0.864637 0.340658
0.887022 0.865614 0.351995
0.895064 0.865858 0.356359
0.897322 0.864378 0.356893
0.896773 0.862272 0.354559
0.896117 0.860334 0.351797
0.895506 0.858289 0.349325
0.894713 0.856199 0.346242
0.893935 0.853758 0.343435
0.893614 0.851438 0.341344
0.893263 0.848875 0.3393
0.892973 0.846082 0.337819
0.892821 0.843717 0.336553
0.271565 0.848249 0.289998
0.269596 0.84889 0.287083
0.265965 0.850187 0.283833
0.261494 0.851774 0.279469
0.25774 0.853025 0.273976
0.255497 0.853651 0.268956
0.254673 0.853666 0.2636
0.254475 0.853651 0.261692
0.254612 0.853574 0.261021
0.255009 0.853407 0.261128
0.25568 0.853147 0.261326
0.256687 0.85275 0.261616
0.257755 0.852308 0.261997
0.259892 0.851896 0.262455
0.300237 0.856443 0.261891
0.415671 0.867689 0.261585
0.533074 0.875273 0.267567
0.618952 0.878004 0.277638
0.714687 0.877989 0.300206
0.808042 0.877714 0.33669
0.85948 0.880888 0.359518
0.883406 0.883055 0.374105
0.896254 0.883528 0.384176
0.900542 0.883162 0.388266
0.901061 0.881819 0.387839
0.901106 0.880629 0.385321
0.900557 0.879271 0.381659
0.899718 0.877897 0.377951
0.899245 0.876448 0.374273
0.899046 0.874861 0.371466
0.89926 0.873579 0.369726
0.899123 0.871992 0.367559
0.898878 0.870604 0.365713
0.274403 0.848096 0.309941
0.273625 0.848325 0.306157
0.271199 0.849104 0.301503
0.267948 0.85008 0.295888
0.265202 0.850843 0.289036
0.26331 0.851179 0.281773
0.262592 0.851057 0.274556
0.262989 0.850507 0.267903
0.263401 0.850111 0.265126
0.263844 0.849867 0.263844
0.264302 0.849683 0.263966
0.264988 0.849409 0.264134
0.265736 0.849104 0.264439
0.266621 0.848722 0.264729
0.285435 0.850813 0.264851
0.383612 0.86186 0.264073
0.501305 0.871214 0.268452
0.588479 0.876036 0.278126
0.680049 0.879591 0.29601
0.78439 0.882918 0.332219
0.861601 0.886061 0.369223
0.885451 0.89015 0.394965
0.897459 0.892164 0.416098
0.903807 0.893233 0.430411
0.90518 0.893462 0.434348
0.904585 0.892927 0.428
0.903639 0.892332 0.420371
0.902708 0.891844 0.413352
0.901518 0.891279 0.40618
0.900526 0.890806 0.399802
0.899763 0.890028 0.394736
0.899367 0.889036 0.391119
0.899489 0.887846 0.389303
0.259998 0.854231 0.324208
0.261982 0.853315 0.321096
0.262821 0.852934 0.317021
0.262562 0.852872 0.311681
0.261585 0.852842 0.303761
0.261067 0.852811 0.294713
0.260807 0.852354 0.285039
0.261433 0.851575 0.275639
0.262516 0.85066 0.267247
0.263249 0.850126 0.263905
0.263737 0.849928 0.263813
0.264454 0.849638 0.263996
0.265217 0.849317 0.264225
0.265843 0.849042 0.264469
0.266712 0.848875 0.264668
0.341802 0.858198 0.263584
0.461921 0.869017 0.26569
0.562142 0.875181 0.27396
0.647868 0.878874 0.2878
0.752285 0.883238 0.315175
0.848066 0.888151 0.358007
0.885756 0.89279 0.399802
0.897871 0.895491 0.438514
0.903944 0.896956 0.482094
0.906691 0.897642 0.507362
0.906798 0.897765 0.512032
0.906416 0.897963 0.504707
0.906004 0.898283 0.496025
0.905211 0.898482 0.486229
0.904311 0.898375 0.47509
0.903639 0.898039 0.464027
0.903304 0.89749 0.455177
0.903243 0.896834 0.448218
0.25568 0.856733 0.339803
0.257527 0.855802 0.336065
0.258579 0.855177 0.331533
0.258747 0.854795 0.325704
0.258412 0.854612 0.318135
0.258289 0.854444 0.308858
0.258656 0.853803 0.297459
0.259632 0.852842 0.28542
0.261036 0.851682 0.274327
0.262394 0.850553 0.265431
0.262852 0.850278 0.2636
0.263294 0.850111 0.263722
0.264012 0.849805 0.26389
0.264805 0.849485 0.264073
0.265202 0.849317 0.264225
0.303441 0.854475 0.263493
0.422522 0.866865 0.263416
0.524849 0.873793 0.269047
0.619501 0.87834 0.281605
0.719249 0.882216 0.304494
0.820951 0.886824 0.343923
0.878416 0.892393 0.393637
0.897002 0.895659 0.442069
0.903426 0.897353 0.498283
0.906569 0.898177 0.541039
0.907576 0.898741 0.559609
0.907347 0.899046 0.563317
0.906905 0.899275 0.561044
0.906294 0.899474 0.554574
0.905745 0.899657 0.547189
0.905241 0.899748 0.53991
0.905028 0.899687 0.533562
0.905119 0.899474 0.528145
0.253651 0.858106 0.354498
0.255375 0.857343 0.35053
0.256397 0.856748 0.345418
0.256428 0.856413 0.338979
0.25568 0.856275 0.330999
0.255116 0.856001 0.321401
0.255512 0.855528 0.31014
0.256519 0.854582 0.296315
0.259174 0.852888 0.282277
0.260502 0.851637 0.270176
0.261295 0.850919 0.263828
0.261463 0.850828 0.263203
0.261875 0.850675 0.26331
0.262562 0.850401 0.263523
0.263142 0.850156 0.263691
0.282521 0.852628 0.263325
0.381857 0.864088 0.261845
0.491325 0.87306 0.265415
0.582116 0.877989 0.274083
0.680049 0.881651 0.292714
0.784894 0.885435 0.325246
0.863127 0.890883 0.374838
0.89247 0.894972 0.424155
0.901305 0.89688 0.476967
0.905608 0.897917 0.526497
0.907439 0.898695 0.554528
0.907332 0.899062 0.563302
0.90695 0.899306 0.562631
0.906462 0.899611 0.561944
0.906004 0.899901 0.561181
0.905638 0.900114 0.560586
0.905623 0.90013 0.56054
0.905943 0.899947 0.560983
0.251087 0.859495 0.366918
0.252888 0.858595 0.362814
0.254368 0.857893 0.3579
0.254765 0.857649 0.351415
0.253834 0.857557 0.343053
0.252842 0.85745 0.332723
0.252674 0.856947 0.321279
0.254047 0.856016 0.308049
0.256428 0.85452 0.291402
0.258747 0.852735 0.276051
0.260441 0.851331 0.265003
0.260868 0.851072 0.26302
0.261021 0.850996 0.263081
0.261402 0.850843 0.263188
0.261936 0.850645 0.26334
0.271595 0.851774 0.263386
0.344991 0.860609 0.261814
0.458198 0.870985 0.263157
0.545281 0.876539 0.268956
0.641093 0.881117 0.283085
0.74522 0.885039 0.309453
0.840238 0.889357 0.352575
0.886137 0.894514 0.406653
0.898939 0.896574 0.456291
0.904311 0.897887 0.509819
0.90724 0.898619 0.548241
0.907317 0.899077 0.563256
0.90695 0.899306 0.562631
0.906462 0.899611 0.561944
0.906004 0.899901 0.561212
0.905653 0.900099 0.560678
0.905653 0.900099 0.560693
0.905959 0.899931 0.561135
0.248524 0.860731 0.37818
0.250553 0.859998 0.373205
0.25211 0.859174 0.368277
0.252567 0.858671 0.36173
0.252125 0.85864 0.353491
0.251164 0.85861 0.343511
0.250813 0.858183 0.331579
0.251545 0.857252 0.317983
0.253849 0.855787 0.301579
0.256901 0.85391 0.283772
0.259342 0.852033 0.268772
0.260578 0.851179 0.26302
0.260807 0.851102 0.26302
0.260975 0.851011 0.263066
0.261143 0.850965 0.263111
0.265187 0.851362 0.263111
0.312245 0.857313 0.262013
0.421836 0.868421 0.261921
0.513573 0.874907 0.266346
0.604776 0.879667 0.276707
0.702998 0.88368 0.296651
0.809796 0.887831 0.33167
0.877546 0.893965 0.388968
0.895079 0.896925 0.435935
0.901762 0.898161 0.490517
0.905989 0.898802 0.538125
0.90695 0.899245 0.561196
0.906783 0.899413 0.562387
0.906401 0.899657 0.561837
0.90602 0.899886 0.561227
0.905776 0.900038 0.56083
0.905898 0.899962 0.561013
0.906203 0.899779 0.561563
0.25243 0.859617 0.388571
