bundles/resolve-cinematic-luts/Phantom Luts/Canon Film LUT/ATOMOS Monitoring LUTs/C-Log 2/Vision Canon CL2 AML.cube
TITLE "Generated by Resolve"
LUT_3D_SIZE 33
0.0849622 0.0863661 0.0849622
0.0849622 0.0864881 0.0849622
0.0850233 0.0869612 0.0850233
0.0850996 0.0878004 0.0850996
0.0920729 0.0882124 0.0850538
0.10132 0.089189 0.0850385
0.117922 0.0903182 0.0844434
0.139559 0.090837 0.0834363
0.165484 0.0925154 0.0827039
0.200427 0.0933242 0.0816358
0.246815 0.0937209 0.0810712
0.294728 0.0937514 0.0832074
0.340963 0.0900587 0.0856794
0.387732 0.0848859 0.0887617
0.437613 0.0817578 0.0934157
0.487343 0.0831006 0.106126
0.540185 0.0871138 0.128359
0.596201 0.094377 0.158419
0.651377 0.105394 0.200168
0.687831 0.114229 0.245411
0.696757 0.11812 0.264103
0.697185 0.118914 0.271122
0.697414 0.120012 0.27718
0.698054 0.121386 0.282872
0.698421 0.123552 0.294209
0.698375 0.124117 0.297414
0.698253 0.124269 0.299245
0.698222 0.124331 0.300053
0.698619 0.124239 0.30045
0.699397 0.123949 0.30016
0.700771 0.123415 0.29807
0.701976 0.122606 0.294804
0.702861 0.121492 0.290913
0.0850385 0.0869612 0.0850385
0.0849622 0.0866102 0.0849622
0.0850385 0.0870222 0.0850385
0.085069 0.0880446 0.085069
0.0928511 0.0885634 0.085069
0.103593 0.0895247 0.0850233
0.120073 0.0904555 0.0843977
0.142138 0.0908522 0.0833906
0.168902 0.0926375 0.0825513
0.206058 0.0935225 0.0816663
0.25124 0.0934615 0.0808423
0.29691 0.0947127 0.0833753
0.343221 0.0914626 0.0861067
0.38909 0.0868849 0.0885176
0.437446 0.0827649 0.0920119
0.487251 0.0828717 0.102754
0.539712 0.0865339 0.124163
0.597604 0.0939956 0.154345
0.652979 0.104952 0.195468
0.688319 0.113664 0.240208
0.696788 0.117388 0.257694
0.697017 0.118303 0.265599
0.697154 0.119127 0.272496
0.697612 0.120119 0.277684
0.698299 0.122454 0.287846
0.698436 0.12311 0.291249
0.698512 0.123445 0.293568
0.698589 0.123781 0.294835
0.699046 0.123537 0.294636
0.699763 0.122988 0.293248
0.700816 0.122271 0.291066
0.70193 0.121279 0.287587
0.702602 0.119661 0.281682
0.0849012 0.0902113 0.0849012
0.0848554 0.0893111 0.0848554
0.0848402 0.0895399 0.0848402
0.0849928 0.0907912 0.0849928
0.0926528 0.0892348 0.0850538
0.10399 0.0898299 0.0850385
0.12166 0.0907759 0.0844587
0.145159 0.0912947 0.0833906
0.170108 0.0927291 0.082475
0.205524 0.0934615 0.0816358
0.249744 0.0934005 0.0809033
0.296056 0.0949416 0.081651
0.342061 0.0932631 0.0847486
0.389258 0.089601 0.0891432
0.435889 0.0848402 0.0908675
0.485725 0.0824903 0.0985428
0.539544 0.0862135 0.119585
0.595605 0.0929122 0.14815
0.650996 0.103944 0.187671
0.689357 0.113039 0.235599
0.696681 0.11632 0.251347
0.696849 0.117708 0.259068
0.697002 0.118288 0.265324
0.697292 0.118898 0.271061
0.697566 0.119585 0.274372
0.698283 0.121798 0.28481
0.698375 0.12224 0.287114
0.698421 0.122362 0.287419
0.698787 0.122103 0.287144
0.699565 0.121645 0.28603
0.700465 0.120821 0.283406
0.701274 0.119219 0.278935
0.701701 0.11783 0.272175
0.0849012 0.0963912 0.0849012
0.085069 0.0954147 0.085069
0.085069 0.0941939 0.085069
0.0851301 0.0953841 0.0851301
0.0890822 0.0967422 0.0848402
0.103395 0.0922255 0.0847944
0.123995 0.0922866 0.0841077
0.14728 0.092134 0.0832837
0.17116 0.0929885 0.0824445
0.209125 0.0936751 0.0816815
0.250538 0.0935531 0.0809339
0.294942 0.0941176 0.080415
0.341054 0.0954452 0.0846571
0.386816 0.0917372 0.088365
0.435325 0.0869612 0.0904707
0.483528 0.0829328 0.095079
0.536416 0.0855116 0.113039
0.592447 0.0920119 0.141421
0.651072 0.103243 0.18175
0.68893 0.112322 0.227237
0.694347 0.114214 0.241077
0.696712 0.11632 0.251362
0.697093 0.11754 0.258137
0.697002 0.118151 0.264225
0.6972 0.11841 0.266545
0.697658 0.119875 0.27599
0.697856 0.12018 0.27779
0.697948 0.120394 0.279057
0.698222 0.120241 0.278676
0.698741 0.119615 0.276295
0.699626 0.118654 0.272755
0.700542 0.117662 0.267353
0.702007 0.116487 0.262715
0.0846723 0.10605 0.0860914
0.0847028 0.104768 0.0848707
0.0847028 0.103639 0.0850996
0.0850843 0.102815 0.0852522
0.0895552 0.103487 0.0854353
0.0992447 0.105547 0.0849165
0.120699 0.0986648 0.0845502
0.145708 0.094316 0.0834974
0.175708 0.0965438 0.082826
0.214374 0.0941329 0.0816968
0.252491 0.0937667 0.0809644
0.296849 0.0944381 0.0803845
0.340887 0.0957504 0.0833295
0.386252 0.0936294 0.0870985
0.432334 0.0906539 0.0899367
0.480232 0.0864271 0.0940108
0.533455 0.0849012 0.105867
0.590082 0.0911116 0.133455
0.647456 0.101305 0.170748
0.686442 0.11017 0.213062
0.69308 0.112779 0.230396
0.695506 0.114275 0.24097
0.695399 0.114992 0.245731
0.696956 0.116564 0.252079
0.697169 0.117174 0.25597
0.697292 0.117601 0.258549
0.697551 0.118486 0.266972
0.697581 0.118456 0.266804
0.69778 0.118166 0.265232
0.698268 0.117754 0.263325
0.69955 0.117082 0.25977
0.701244 0.115984 0.256352
0.700572 0.11368 0.246326
0.0840314 0.122072 0.0895552
0.0837568 0.120684 0.0876326
0.0839399 0.118929 0.0870069
0.0851606 0.117296 0.0869764
0.0875868 0.117098 0.087129
0.0970626 0.118181 0.0871748
0.118135 0.118364 0.0844739
0.146212 0.109682 0.0841993
0.173312 0.101015 0.0833448
0.212146 0.0969863 0.0822156
0.25803 0.094728 0.080827
0.303227 0.0951705 0.0805524
0.342412 0.0959945 0.0812238
0.38851 0.0952621 0.0868086
0.432883 0.0930343 0.0892653
0.479789 0.0903639 0.09337
0.52958 0.0870069 0.100191
0.585412 0.0889296 0.121614
0.643229 0.0986648 0.157061
0.684657 0.107897 0.196612
0.690379 0.110094 0.210697
0.692561 0.111666 0.220829
0.694377 0.11249 0.230152
0.696056 0.113466 0.237003
0.695079 0.113512 0.238056
0.694926 0.113695 0.239017
0.697429 0.115923 0.250721
0.697826 0.116014 0.250889
0.698039 0.11577 0.250355
0.697993 0.114931 0.246616
0.697383 0.113512 0.240589
0.697398 0.112093 0.2336
0.697292 0.110918 0.224201
0.0850843 0.142382 0.0937209
0.0850233 0.141527 0.0922408
0.0848707 0.140169 0.090837
0.0862745 0.138857 0.0905318
0.0883345 0.137499 0.0906996
0.0927291 0.137881 0.0913252
0.109102 0.137942 0.0892653
0.140917 0.136095 0.0845808
0.176333 0.126818 0.0848249
0.213077 0.111437 0.0832837
0.259922 0.10013 0.0818494
0.302632 0.0975814 0.080766
0.352224 0.0954757 0.0801862
0.395727 0.0985733 0.0864271
0.436439 0.0957504 0.0888838
0.482139 0.0937057 0.0932021
0.52755 0.0903792 0.099443
0.578164 0.0874189 0.110079
0.635798 0.0961318 0.140444
0.681407 0.105516 0.178317
0.686015 0.107332 0.188922
0.687861 0.108309 0.197513
0.689281 0.109331 0.205585
0.690486 0.110185 0.210529
0.691432 0.110765 0.214008
0.69221 0.111223 0.216144
0.692317 0.111574 0.219348
0.694301 0.112139 0.226719
0.693553 0.111955 0.224048
0.692836 0.111498 0.219226
0.692195 0.110384 0.213291
0.692241 0.109056 0.205783
0.690959 0.107637 0.196063
0.0877241 0.166155 0.0990005
0.0873884 0.164904 0.0972763
0.0870985 0.163394 0.095552
0.0871748 0.16202 0.09514
0.0894484 0.16054 0.0951858
0.0929732 0.16025 0.0946975
0.0999466 0.160876 0.0958114
0.127962 0.159976 0.0891737
0.170169 0.155077 0.0845045
0.218021 0.145266 0.085069
0.260716 0.123781 0.0841535
0.308766 0.105867 0.0818494
0.351812 0.101442 0.081239
0.397787 0.0989853 0.0805982
0.451804 0.103548 0.0870832
0.490425 0.0982834 0.0930495
0.531868 0.0948196 0.0991836
0.574594 0.0906844 0.107256
0.628183 0.0936751 0.129244
0.674189 0.102296 0.159319
0.677821 0.103471 0.164675
0.680415 0.104433 0.171389
0.684932 0.106828 0.183551
0.684703 0.106752 0.183322
0.684962 0.106981 0.184909
0.685512 0.107103 0.185718
0.685435 0.107134 0.185977
0.685389 0.106905 0.184131
0.687221 0.107408 0.189914
0.686854 0.107088 0.186999
0.685878 0.106249 0.181796
0.683497 0.104616 0.173678
0.681773 0.103136 0.16582
0.0874342 0.197467 0.102403
0.0879225 0.195605 0.100374
0.0878004 0.194385 0.0992142
0.0877852 0.192813 0.0990616
0.0882582 0.1897 0.0988022
0.0907607 0.188571 0.0991684
0.0963455 0.190723 0.0988632
0.108095 0.190326 0.0996414
0.149889 0.187549 0.0883803
0.210285 0.178164 0.084062
0.267185 0.171206 0.0875257
0.314076 0.140108 0.0872816
0.356924 0.118883 0.0826734
0.403037 0.108598 0.0815595
0.447044 0.107408 0.0812848
0.506096 0.110735 0.0874647
0.556207 0.10808 0.0997635
0.582666 0.0962692 0.108324
0.624521 0.0927443 0.120592
0.66714 0.100145 0.148043
0.6757 0.102129 0.156039
0.677241 0.10277 0.159503
0.676585 0.102525 0.158083
0.674739 0.101656 0.154482
0.677546 0.102907 0.161135
0.679408 0.103593 0.164797
0.680079 0.103792 0.165896
0.680339 0.103777 0.16582
0.679637 0.103365 0.163195
0.677791 0.102586 0.158618
0.675761 0.101213 0.152895
0.676829 0.100893 0.152087
0.67805 0.100572 0.1514
0.0871443 0.239292 0.105959
0.0865034 0.238041 0.10338
0.0866712 0.236255 0.102373
0.0865644 0.234363 0.102083
0.0861524 0.232166 0.101396
0.0864118 0.228748 0.10074
0.0899672 0.227604 0.100801
0.0988479 0.232532 0.102022
0.118334 0.231739 0.103105
0.179553 0.229801 0.0893111
0.263157 0.216495 0.0852979
0.326513 0.212131 0.0948806
0.371786 0.169833 0.0946059
0.410193 0.14284 0.0896162
0.456672 0.124071 0.0855421
0.501823 0.122438 0.0859541
0.555016 0.121965 0.088426
0.623117 0.127611 0.110475
0.650095 0.111574 0.121828
0.666621 0.0991989 0.138323
0.680064 0.10248 0.1523
0.675822 0.101381 0.151324
0.675456 0.101442 0.151919
0.675593 0.101488 0.15227
0.675761 0.101518 0.152422
0.675807 0.101472 0.152209
0.675624 0.101152 0.150195
0.675944 0.101366 0.151537
0.676158 0.101305 0.151125
0.6766 0.101152 0.15053
0.677134 0.100923 0.150118
0.678096 0.100603 0.149325
0.679088 0.100267 0.148455
0.0959029 0.29659 0.121721
0.0949569 0.294743 0.118746
0.0946365 0.29305 0.117174
0.0943618 0.291676 0.116762
0.0941482 0.290272 0.11635
0.0935378 0.286076 0.115267
0.0936294 0.283131 0.114595
0.0991836 0.282414 0.114672
0.113527 0.289326 0.116945
0.141924 0.286854 0.116457
0.233555 0.281971 0.0934005
0.323079 0.266575 0.0875257
0.383093 0.261494 0.0995041
0.429175 0.221378 0.0999771
0.472755 0.181903 0.101823
0.514855 0.150469 0.0962844
0.563073 0.14432 0.095552
0.60798 0.140673 0.0960403
0.670588 0.146059 0.114107
0.702144 0.129229 0.131273
0.702007 0.106371 0.140032
0.691402 0.101869 0.138643
0.691417 0.10222 0.141253
0.691646 0.10248 0.142901
0.690181 0.103349 0.148577
0.687633 0.104173 0.151492
0.681086 0.102464 0.148562
0.677562 0.10074 0.146059
0.683421 0.101305 0.142763
0.688869 0.101579 0.138949
0.694469 0.10309 0.136126
0.699763 0.10544 0.137285
0.705776 0.108949 0.137667
0.10396 0.35317 0.137255
0.10338 0.351949 0.135332
0.102846 0.351217 0.132662
0.102281 0.35021 0.131853
0.102068 0.349111 0.131426
0.102052 0.348272 0.131289
0.100679 0.342229 0.129442
0.102602 0.340185 0.129397
0.11223 0.340993 0.129976
0.132906 0.348455 0.132097
0.16968 0.34287 0.130739
0.293812 0.338247 0.0967727
0.387289 0.323919 0.0887617
0.440635 0.32076 0.10309
0.485634 0.286351 0.107973
0.526406 0.233661 0.111299
0.570047 0.189059 0.10808
0.618173 0.170138 0.104997
0.657206 0.164523 0.10518
0.69601 0.158038 0.108598
0.727687 0.155016 0.131685
0.72549 0.147829 0.132479
0.722362 0.141207 0.133272
0.719356 0.133227 0.135409
0.71574 0.125292 0.13695
0.715679 0.124514 0.137484
0.715694 0.124804 0.137224
0.716533 0.125795 0.136065
0.720302 0.127337 0.137346
0.725231 0.130724 0.139055
0.725582 0.138415 0.138186
0.725399 0.143206 0.135439
0.725719 0.148348 0.133211
0.114931 0.411933 0.156725
0.114733 0.411734 0.154543
0.114458 0.410834 0.152697
0.113771 0.409827 0.150256
0.11342 0.409033 0.149722
0.113283 0.408057 0.149508
0.112032 0.40557 0.148089
0.111788 0.400381 0.146899
0.115053 0.398291 0.146395
0.131441 0.40058 0.146899
0.158434 0.407294 0.148836
0.210086 0.398581 0.146288
0.358724 0.396429 0.100587
0.450065 0.383246 0.088777
0.495598 0.379858 0.107057
0.545205 0.359182 0.123003
0.57731 0.299107 0.12398
0.617395 0.252003 0.120394
0.662165 0.208194 0.11754
0.696529 0.193866 0.117189
0.71928 0.181765 0.116274
0.721477 0.176333 0.11577
0.723598 0.174411 0.117723
0.726177 0.173434 0.121599
0.728908 0.171756 0.126665
0.728527 0.169635 0.127504
0.727565 0.167742 0.127367
0.726345 0.167224 0.125917
0.724895 0.167346 0.123262
0.722454 0.167315 0.120577
0.718685 0.167361 0.115038
0.716838 0.167239 0.111894
0.718944 0.168521 0.11249
0.128328 0.469306 0.17995
0.127871 0.468605 0.177096
0.127504 0.467811 0.17438
0.126772 0.466682 0.171435
0.126452 0.465766 0.169345
0.126314 0.465537 0.169131
0.126131 0.464851 0.16875
0.125032 0.460563 0.167163
0.124453 0.456657 0.165896
0.13254 0.455314 0.16585
0.158892 0.460914 0.167452
0.192355 0.463996 0.167605
0.265003 0.453925 0.159152
0.421347 0.454673 0.1066
0.510552 0.441733 0.085771
0.55082 0.439033 0.108675
0.602441 0.433295 0.137453
0.633234 0.376684 0.138476
0.664073 0.326223 0.143648
0.692134 0.272297 0.131212
0.718608 0.239796 0.129076
0.72668 0.223255 0.127947
0.727092 0.215763 0.127337
0.727092 0.211383 0.126467
0.726436 0.207279 0.125139
0.726192 0.204089 0.123949
0.726055 0.202014 0.123293
0.726329 0.199939 0.122957
0.726528 0.198932 0.122866
0.72668 0.199695 0.123064
0.727047 0.202502 0.123735
0.72784 0.204379 0.12459
0.728985 0.207034 0.125536
0.144045 0.52488 0.20882
0.143648 0.524895 0.205112
0.143053 0.524269 0.202335
0.142229 0.523156 0.197787
0.141588 0.522423 0.193744
0.141146 0.521737 0.19295
0.140917 0.520699 0.192416
0.140795 0.51989 0.192081
0.139544 0.514305 0.189349
0.140902 0.512413 0.189105
0.155825 0.511971 0.189212
0.193179 0.519631 0.190631
0.241184 0.51667 0.188678
0.32398 0.51017 0.170565
0.483207 0.512123 0.114275
0.568963 0.499077 0.0847639
0.607309 0.49662 0.108675
0.65713 0.496681 0.141329
0.691066 0.455863 0.157183
0.706477 0.408392 0.157595
0.720012 0.364523 0.161669
0.730648 0.317968 0.150134
0.730053 0.304402 0.146777
0.729412 0.298268 0.145052
0.728923 0.295033 0.143923
0.728573 0.293446 0.14342
0.728313 0.291997 0.14287
0.728069 0.289662 0.142229
0.727871 0.287053 0.141634
0.727489 0.282902 0.140673
0.727535 0.277287 0.139269
0.727321 0.280598 0.139879
0.728023 0.285023 0.141146
0.161624 0.582528 0.243885
0.161013 0.581827 0.240238
0.160372 0.580896 0.236606
0.159335 0.580316 0.231998
0.158587 0.579187 0.226566
0.157824 0.578286 0.223438
0.157671 0.577798 0.223056
0.157366 0.576776 0.222293
0.157153 0.575143 0.221561
0.155184 0.568582 0.217746
0.161807 0.568627 0.218021
0.18938 0.568917 0.217182
0.239887 0.575006 0.215702
0.291981 0.570062 0.2168
0.385946 0.565866 0.179736
0.539467 0.569635 0.125307
0.626184 0.556359 0.0878004
0.664195 0.555444 0.106813
0.705715 0.555032 0.141741
0.736019 0.53814 0.170306
0.747448 0.497154 0.176272
0.748714 0.455772 0.173709
0.746868 0.441962 0.172412
0.745876 0.435874 0.171679
0.743877 0.430762 0.170275
0.74342 0.428122 0.170794
0.742535 0.424689 0.170809
0.742107 0.421256 0.171572
0.741207 0.417136 0.171756
0.73991 0.411475 0.171939
0.738521 0.403647 0.172457
0.737133 0.394476 0.173602
0.73611 0.386587 0.172137
0.180835 0.642466 0.276707
0.180117 0.642512 0.274083
0.179126 0.642222 0.270191
0.177981 0.641184 0.266453
0.176898 0.640131 0.261006
0.175891 0.638926 0.256092
0.175814 0.63798 0.255619
0.175906 0.6374 0.255512
0.175479 0.635966 0.254582
0.17409 0.631403 0.25275
0.173571 0.627832 0.250904
0.189609 0.628977 0.25211
0.235767 0.628717 0.246952
0.289082 0.634485 0.248371
0.344854 0.626734 0.25005
0.446433 0.623453 0.192569
0.594049 0.629374 0.139574
0.677806 0.61651 0.0996567
0.716869 0.617151 0.101976
0.74464 0.617197 0.128328
0.768063 0.61709 0.155673
0.779248 0.586862 0.182666
0.78085 0.568917 0.19617
0.779751 0.565179 0.195666
0.779431 0.563165 0.195804
0.778485 0.559594 0.19527
0.777478 0.555138 0.194446
0.77612 0.551324 0.192996
0.775708 0.547799 0.193027
0.774472 0.542992 0.191409
0.772824 0.534981 0.189746
0.769696 0.523735 0.188251
0.76524 0.506477 0.184695
0.20209 0.700023 0.308034
0.201129 0.699687 0.304494
0.199924 0.698909 0.300984
0.198276 0.698116 0.296162
0.197299 0.697261 0.291737
0.196933 0.696315 0.288075
0.196841 0.695888 0.287968
0.196262 0.695125 0.287312
0.196185 0.694331 0.287022
0.195758 0.692821 0.286198
0.193317 0.686748 0.282628
0.197162 0.686793 0.28275
0.230671 0.685832 0.281041
0.288853 0.688396 0.277775
0.343786 0.692912 0.283192
0.401251 0.681773 0.284855
0.513878 0.679484 0.207156
0.644114 0.68716 0.15584
0.719966 0.675807 0.11986
0.756268 0.678767 0.103014
0.775494 0.67834 0.114458
0.791074 0.67776 0.131853
0.798978 0.675669 0.141741
0.800061 0.673274 0.144732
0.799298 0.67097 0.145785
0.798337 0.667735 0.147036
0.798367 0.664302 0.150683
0.797162 0.66006 0.153429
0.79649 0.656336 0.155749
0.795514 0.651438 0.159106
0.794965 0.645777 0.162585
0.793637 0.637034 0.167361
0.791547 0.624414 0.173312
0.223178 0.743297 0.331716
0.221714 0.742824 0.328313
0.220706 0.742733 0.32491
0.21944 0.74258 0.321965
0.218982 0.742428 0.318318
0.218723 0.742061 0.317205
0.218311 0.741588 0.316762
0.217655 0.741039 0.316121
0.21735 0.740612 0.31577
0.216526 0.73933 0.315022
0.215198 0.736568 0.313024
0.21355 0.73228 0.310079
0.233768 0.733257 0.31078
0.281544 0.732204 0.305211
0.349126 0.737774 0.309758
0.403067 0.738262 0.317113
0.465385 0.728649 0.307118
0.58349 0.725704 0.230106
0.697063 0.735164 0.17052
0.752056 0.725414 0.147173
0.782254 0.726558 0.129335
0.795575 0.726833 0.122637
0.804471 0.72578 0.118135
0.807507 0.723934 0.118486
0.807691 0.722332 0.119173
0.807797 0.721172 0.119875
0.807553 0.719722 0.120424
0.806775 0.71812 0.12047
0.806622 0.715908 0.121294
0.8065 0.713695 0.122103
0.805753 0.710719 0.124331
0.804883 0.705257 0.126085
0.803861 0.69868 0.129824
0.24007 0.77052 0.349493
0.239277 0.770306 0.345846
0.23859 0.770077 0.34287
0.237751 0.769726 0.339101
0.237064 0.769558 0.337102
0.236774 0.769589 0.33695
0.236591 0.769497 0.336889
0.2365 0.769482 0.336873
0.236454 0.769284 0.336843
0.236316 0.768948 0.336736
0.234745 0.767483 0.334981
0.233021 0.765209 0.333669
0.244022 0.763699 0.332799
0.284535 0.764721 0.331151
0.351934 0.766262 0.330037
0.412299 0.770092 0.340505
0.463645 0.765942 0.347005
0.533791 0.763073 0.30251
0.658946 0.759396 0.242969
0.737499 0.768597 0.188205
0.773938 0.758648 0.171344
0.796429 0.758816 0.159289
0.805158 0.75874 0.15256
0.808179 0.758251 0.150423
0.808927 0.757214 0.148821
0.809155 0.756252 0.147814
0.809079 0.755032 0.146517
0.808698 0.753933 0.145205
0.808515 0.752697 0.143267
0.80882 0.751278 0.141085
0.808911 0.748837 0.139193
0.80853 0.745861 0.135302
0.808865 0.741024 0.130526
0.246677 0.779446 0.354238
0.246113 0.779324 0.351415
0.245243 0.779202 0.348608
0.244053 0.779049 0.344625
0.24361 0.779202 0.344244
0.243366 0.779309 0.344137
0.243198 0.77937 0.344076
0.243168 0.7794 0.344045
0.243153 0.7794 0.344045
0.243168 0.7794 0.344045
0.243198 0.779385 0.344076
0.243061 0.778973 0.343877
0.250126 0.778546 0.343771
0.285618 0.779675 0.34342
0.346548 0.781018 0.341527
0.414115 0.78352 0.350683
0.466239 0.784634 0.360922
0.518364 0.78407 0.353674
0.605127 0.785763 0.294789
0.716854 0.782177 0.249973
0.760708 0.784512 0.219272
0.78703 0.77966 0.203311
0.802029 0.7794 0.189151
0.806577 0.779309 0.18822
0.807019 0.779049 0.188846
0.807004 0.778531 0.188403
0.80708 0.777996 0.18677
0.807248 0.777279 0.183886
0.807401 0.776181 0.181567
0.807782 0.775219 0.178515
0.807935 0.774075 0.174838
0.807874 0.772137 0.168582
0.80824 0.768338 0.162173
0.247425 0.779431 0.358404
0.247135 0.779309 0.355291
0.246586 0.779141 0.351629
0.245411 0.778897 0.347448
0.244678 0.778912 0.345403
0.244236 0.778943 0.344533
0.244083 0.779004 0.344457
0.244038 0.779034 0.344442
0.244038 0.779034 0.344442
0.244053 0.779019 0.344442
0.244099 0.778988 0.344457
0.244175 0.778958 0.344503
0.249958 0.779599 0.345281
0.282918 0.780529 0.345052
0.342138 0.782666 0.343679
0.410422 0.785428 0.351598
0.465476 0.787839 0.363882
0.515785 0.790219 0.366751
0.585092 0.796063 0.323888
0.682429 0.794781 0.292851
0.757137 0.797208 0.26006
0.775616 0.794034 0.265217
0.793881 0.79205 0.261448
0.800961 0.792187 0.266575
0.801663 0.792294 0.270604
0.801999 0.79205 0.26804
0.802197 0.791485 0.264363
0.802441 0.790921 0.25948
0.802716 0.790311 0.254459
0.803174 0.789792 0.247852
0.803555 0.788968 0.239231
0.804349 0.787869 0.23003
0.804929 0.784924 0.217609
0.248981 0.779828 0.368902
0.248081 0.779675 0.365515
0.247196 0.779767 0.361471
0.246723 0.779675 0.356649
0.245624 0.779416 0.351019
0.24445 0.779065 0.345602
0.244053 0.779019 0.344442
0.243992 0.779049 0.344427
0.243992 0.779049 0.344427
0.244038 0.779034 0.344427
0.244038 0.779019 0.344442
0.244083 0.779004 0.344457
0.247074 0.779416 0.3449
0.279011 0.780667 0.345357
0.337148 0.782635 0.34374
0.401953 0.784939 0.350286
0.452598 0.786938 0.360494
0.499809 0.789197 0.370336
0.563241 0.796185 0.330632
0.660105 0.800183 0.273487
0.762081 0.802869 0.2336
0.779477 0.79855 0.273671
0.787854 0.800793 0.313939
0.795041 0.801694 0.34403
0.797528 0.802884 0.365148
0.797879 0.803006 0.368841
0.797833 0.802792 0.364782
0.797864 0.802457 0.359472
0.798001 0.801938 0.354208
0.798062 0.801297 0.347646
0.798596 0.800702 0.337697
0.799435 0.799451 0.32517
0.800443 0.796643 0.308248
0.250935 0.780758 0.380255
0.249836 0.780407 0.376181
0.248707 0.780255 0.371771
0.24715 0.780087 0.36553
0.246601 0.77995 0.358846
0.245441 0.779614 0.351217
0.244099 0.77908 0.344686
0.243946 0.779065 0.344396
0.243961 0.779065 0.344411
0.243977 0.779049 0.344411
0.243992 0.779049 0.344427
0.244022 0.779049 0.344427
0.244343 0.779065 0.344472
0.271595 0.78024 0.345251
0.326726 0.782437 0.343359
0.392844 0.78497 0.348486
0.447059 0.786816 0.359075
0.499336 0.789288 0.370184
0.559518 0.795697 0.333791
0.652033 0.800488 0.277684
0.752483 0.802411 0.252079
0.77911 0.800214 0.291279
0.788128 0.802411 0.332113
0.79321 0.804685 0.38526
0.796399 0.805814 0.407279
0.796887 0.806409 0.418219
0.796857 0.806531 0.420066
0.796948 0.8065 0.418753
0.797024 0.806363 0.415976
0.797192 0.806165 0.413352
0.797314 0.805829 0.408087
0.797635 0.805493 0.401358
0.797925 0.80444 0.3888
0.251911 0.782071 0.389746
0.251164 0.781704 0.386145
0.249897 0.781323 0.381003
0.248325 0.780743 0.374243
0.247028 0.780316 0.366522
0.24622 0.780011 0.358068
0.244785 0.779431 0.34815
0.24387 0.779095 0.344366
0.243915 0.77908 0.344381
0.243915 0.77908 0.344381
0.243931 0.77908 0.344381
0.243946 0.779065 0.344396
0.243931 0.77908 0.344396
0.265583 0.779889 0.345068
0.31725 0.781994 0.342855
0.386236 0.78497 0.347509
0.44123 0.786908 0.358251
0.492607 0.78912 0.368994
0.550088 0.794934 0.341665
0.639338 0.800641 0.279652
0.741176 0.801511 0.252827
0.777173 0.800626 0.286305
0.787488 0.802472 0.326757
0.792264 0.804334 0.376867
0.796216 0.805844 0.406088
0.796963 0.806714 0.420981
0.797086 0.807111 0.424994
0.797116 0.807126 0.42472
0.797162 0.807157 0.42443
0.797208 0.807172 0.424155
0.797223 0.807172 0.423987
0.797223 0.807172 0.423941
0.797208 0.807157 0.424033
0.252491 0.783352 0.397116
0.252155 0.78291 0.393576
0.251148 0.782223 0.388861
0.249866 0.781613 0.382498
0.247852 0.780896 0.373724
0.246677 0.780179 0.36437
0.24567 0.779919 0.353475
0.243961 0.779232 0.345129
0.243748 0.779156 0.344305
0.243778 0.779141 0.34432
0.243809 0.779126 0.344335
0.243809 0.77911 0.344335
0.243809 0.779126 0.344335
0.259678 0.779812 0.345052
0.309255 0.78172 0.343618
0.378698 0.784512 0.345571
0.434119 0.786572 0.356756
0.485603 0.788617 0.367147
0.540429 0.793805 0.34905
0.626337 0.800763 0.28249
0.730144 0.800748 0.253468
0.776013 0.801785 0.277684
0.786709 0.801495 0.317891
0.791424 0.803738 0.36585
0.795865 0.805325 0.399527
0.796918 0.806561 0.419867
0.797101 0.807111 0.424933
0.797116 0.807141 0.424674
0.797162 0.807157 0.424369
0.797208 0.807172 0.424094
0.797223 0.807172 0.423926
0.797238 0.807187 0.423926
0.797223 0.807172 0.424033
0.252827 0.783841 0.403403
0.252552 0.783566 0.399435
0.252201 0.783169 0.394873
0.250935 0.782361 0.389136
0.249332 0.781598 0.380911
0.247181 0.780819 0.370336
0.246098 0.780179 0.358648
0.244129 0.779385 0.346517
0.243641 0.779202 0.344259
0.243687 0.779187 0.344274
0.243717 0.779171 0.344289
0.243748 0.779171 0.344305
0.243717 0.779171 0.344289
0.255283 0.779644 0.344762
0.30222 0.781628 0.344182
0.371984 0.784085 0.344594
0.427024 0.785916 0.354726
0.478996 0.788525 0.365896
0.531914 0.792844 0.354391
0.611933 0.800351 0.292088
0.717754 0.800198 0.255024
0.774731 0.803128 0.268544
0.785428 0.801007 0.310903
0.790341 0.802915 0.354849
0.7953 0.804974 0.392981
0.797009 0.806363 0.416037
0.797101 0.807111 0.424918
