bundles/resolve-cinematic-luts/Phantom Luts/Canon Film LUT/ATOMOS Monitoring LUTs/C-Log 2/Vision Canon-Legacy CL2 AML.cube
TITLE "Generated by Resolve"
LUT_3D_SIZE 5
0.0875715 0.0970932 0.0893873
0.147417 0.0971542 0.0891127
0.517082 0.0939193 0.107195
0.691539 0.121767 0.242008
0.695964 0.120104 0.238453
0.0922408 0.17351 0.105394
0.133257 0.165148 0.0955825
0.531823 0.122332 0.102129
0.664118 0.114717 0.135393
0.665415 0.11899 0.13315
0.177737 0.614023 0.265858
0.17351 0.606912 0.248646
0.563302 0.600504 0.141085
0.775189 0.538216 0.196262
0.75938 0.479194 0.181338
0.26215 0.782025 0.387427
0.255848 0.779995 0.35494
0.426917 0.78616 0.364538
0.798062 0.804074 0.384649
0.797635 0.805631 0.402243
0.264973 0.786068 0.415625
0.258061 0.780621 0.366766
0.3346 0.782605 0.354406
0.793011 0.799741 0.30837
0.797772 0.805707 0.401236
0.0899825 0.0991379 0.148104
0.160342 0.0973526 0.146319
0.554192 0.105486 0.215686
0.695781 0.134874 0.321523
0.698787 0.132067 0.30869
0.0865187 0.15845 0.142809
0.148119 0.16051 0.149538
0.529305 0.0922255 0.118456
0.693828 0.119188 0.227161
0.688441 0.111894 0.178607
0.174289 0.600519 0.306355
0.168673 0.588571 0.256809
0.552087 0.585916 0.136126
0.75993 0.484184 0.182193
0.749874 0.436347 0.174411
0.272145 0.791608 0.465324
0.26128 0.782498 0.388281
0.394919 0.785031 0.358709
0.798032 0.803342 0.374502
0.79765 0.805585 0.401846
0.276814 0.796124 0.490074
0.266133 0.786007 0.418235
0.290486 0.780667 0.355276
0.78938 0.799069 0.294789
0.797803 0.805707 0.401083
0.114992 0.129152 0.469673
0.183185 0.119371 0.482689
0.553903 0.127916 0.498878
0.721569 0.160357 0.615656
0.717189 0.156939 0.548302
0.105837 0.142794 0.444495
0.115618 0.126726 0.460304
0.524483 0.121523 0.470359
0.719615 0.169711 0.573556
0.70721 0.143648 0.492348
0.0919966 0.563592 0.571786
0.0907301 0.552285 0.559579
0.56437 0.57641 0.557977
0.81883 0.432258 0.519692
0.812543 0.381048 0.42768
0.168978 0.832776 0.740993
0.214267 0.828244 0.699641
0.261982 0.783551 0.396475
0.795346 0.801022 0.329198
0.799954 0.799451 0.312779
0.18967 0.830991 0.722393
0.238804 0.823911 0.678965
0.26772 0.788205 0.436286
0.726192 0.801114 0.266957
0.797574 0.805661 0.403876
0.161852 0.209262 0.717144
0.253132 0.201938 0.739773
0.616678 0.185122 0.715297
0.728862 0.174731 0.720439
0.728786 0.174762 0.720394
0.147829 0.20911 0.691295
0.160998 0.209171 0.716381
0.582956 0.175479 0.715434
0.728862 0.174731 0.720439
0.728847 0.174746 0.720439
0.128389 0.584558 0.830762
0.141161 0.569039 0.834958
0.451408 0.488899 0.846052
0.76109 0.274998 0.748928
0.753109 0.217624 0.73463
0.193469 0.84213 0.88539
0.191806 0.842313 0.885237
0.173175 0.834165 0.870741
0.833127 0.864942 0.848142
0.860838 0.828534 0.824048
0.191867 0.842405 0.885573
0.193927 0.842603 0.884596
0.134661 0.845289 0.857557
0.748852 0.860746 0.789639
0.865476 0.895201 0.880858
0.177142 0.209873 0.726299
0.274342 0.198428 0.739208
0.62652 0.188785 0.715373
0.728862 0.174731 0.720439
0.728862 0.174731 0.720439
0.146777 0.204273 0.685008
0.175051 0.209735 0.725353
0.589471 0.176959 0.715084
0.728862 0.174731 0.720439
0.728862 0.174731 0.720439
0.152224 0.574121 0.857939
0.16318 0.551537 0.853986
0.418753 0.432746 0.836133
0.755337 0.221164 0.743069
0.733989 0.179843 0.725399
0.191608 0.84242 0.885603
0.191257 0.841871 0.885695
0.174563 0.825559 0.88539
0.80119 0.833661 0.885603
0.858381 0.778042 0.868299
0.191608 0.84242 0.885603
0.191608 0.84242 0.885603
0.191608 0.84242 0.885603
0.537957 0.848142 0.862745
0.865324 0.896071 0.881514
