bundles/resolve-cinematic-luts/Phantom Luts/Canon Film LUT/ATOMOS Monitoring LUTs/C-Log 2/Vision Canon CL2 AML.cube
TITLE "Generated by Resolve"
LUT_3D_SIZE 5
0.0849622 0.0863661 0.0849622
0.165484 0.0925154 0.0827039
0.540185 0.0871138 0.128359
0.698421 0.123552 0.294209
0.702861 0.121492 0.290913
0.0874342 0.197467 0.102403
0.149889 0.187549 0.0883803
0.556207 0.10808 0.0997635
0.677546 0.102907 0.161135
0.67805 0.100572 0.1514
0.180835 0.642466 0.276707
0.175479 0.635966 0.254582
0.594049 0.629374 0.139574
0.779431 0.563165 0.195804
0.76524 0.506477 0.184695
0.251911 0.782071 0.389746
0.243915 0.77908 0.344381
0.44123 0.786908 0.358251
0.796216 0.805844 0.406088
0.797208 0.807157 0.424033
0.255528 0.787472 0.427314
0.246662 0.780026 0.361059
0.344656 0.782376 0.34374
0.786694 0.802243 0.323339
0.797345 0.807233 0.423056
0.0873579 0.0937667 0.166735
0.181872 0.0896315 0.161746
0.577493 0.106188 0.263645
0.700465 0.137041 0.365026
0.704005 0.133364 0.353796
0.0826581 0.178286 0.160754
0.170855 0.184695 0.171466
0.553185 0.0892653 0.146731
0.700511 0.119829 0.279789
0.697581 0.111727 0.231937
0.176959 0.633066 0.336309
0.171283 0.619043 0.270665
0.582681 0.615625 0.134463
0.765911 0.51104 0.18471
0.754177 0.466468 0.175372
0.266682 0.795178 0.486305
0.251499 0.782712 0.391119
0.408865 0.78558 0.351431
0.795224 0.805142 0.395651
0.797192 0.807126 0.423575
0.271641 0.799985 0.511391
0.257038 0.787594 0.430442
0.289998 0.780316 0.344503
0.783093 0.800916 0.308446
0.79736 0.807233 0.422904
0.115389 0.129778 0.498772
0.211292 0.108156 0.502068
0.580209 0.125154 0.525139
0.722423 0.145754 0.631586
0.726085 0.162737 0.581094
0.103944 0.152163 0.481285
0.117128 0.126711 0.489693
0.550072 0.117998 0.49691
0.725994 0.163027 0.601923
0.710842 0.134676 0.51519
0.0892653 0.597772 0.609277
0.0877089 0.586038 0.597299
0.598489 0.612528 0.59321
0.82359 0.472465 0.557244
0.819455 0.419806 0.466728
0.148409 0.833921 0.762539
0.174548 0.830793 0.724498
0.252277 0.784024 0.402426
0.789609 0.802808 0.346716
0.800107 0.798245 0.324437
0.154421 0.832914 0.746349
0.19498 0.828367 0.704585
0.259449 0.790494 0.452796
0.73489 0.801099 0.255238
0.797208 0.807294 0.425315
0.163638 0.228305 0.7393
0.288289 0.209934 0.749187
0.646174 0.186496 0.715648
0.730678 0.163867 0.714763
0.730617 0.163897 0.714672
0.146822 0.233021 0.720928
0.162112 0.228397 0.738842
0.613108 0.179721 0.714122
0.730678 0.163867 0.714763
0.730663 0.163882 0.714733
0.10399 0.615351 0.837201
0.114534 0.60029 0.839872
0.487037 0.524529 0.853819
0.77145 0.303334 0.757214
0.761105 0.229221 0.740734
0.180957 0.841749 0.884703
0.1776 0.840665 0.882994
0.157092 0.830869 0.868406
0.829633 0.860746 0.843885
0.856184 0.832364 0.824613
0.180545 0.842191 0.885466
0.178943 0.842634 0.882139
0.124681 0.844221 0.858412
0.75903 0.864393 0.796674
0.866682 0.893812 0.877058
0.186938 0.227726 0.746136
0.312734 0.203006 0.7467
0.655818 0.188022 0.715953
0.730678 0.163867 0.714763
0.730678 0.163867 0.714763
0.145449 0.227283 0.715908
0.183719 0.227817 0.745296
0.620523 0.18201 0.714885
0.730678 0.163867 0.714763
0.730678 0.163867 0.714763
0.121141 0.604807 0.857267
0.133211 0.583978 0.855116
0.457633 0.470329 0.843442
0.761517 0.228672 0.745373
0.735729 0.169818 0.719768
0.180835 0.841627 0.886229
0.178332 0.839414 0.886473
0.161349 0.823316 0.885786
0.802472 0.836118 0.880583
0.853071 0.789166 0.86392
0.181109 0.842054 0.886244
0.181109 0.842054 0.886244
0.181109 0.842054 0.886244
0.554864 0.848142 0.861921
0.865324 0.896071 0.881514
