bundles/resolve-cinematic-luts/Phantom Luts/Canon Film LUT/ATOMOS Monitoring LUTs/C-Log 2/Vision Canon-Legacy CL2 AML.cube
TITLE "Generated by Resolve"
LUT_3D_SIZE 9
0.0875715 0.0970932 0.0893873
0.0937209 0.098146 0.089662
0.147417 0.0971542 0.0891127
0.308965 0.0996719 0.0906691
0.517082 0.0939193 0.107195
0.689235 0.117357 0.206729
0.691539 0.121767 0.242008
0.69221 0.12256 0.249561
0.695964 0.120104 0.238453
0.088365 0.109377 0.0921035
0.0934462 0.107256 0.0915236
0.153643 0.0980087 0.0871138
0.307057 0.100145 0.0870985
0.511177 0.102571 0.103426
0.683452 0.113222 0.177981
0.688975 0.116609 0.200412
0.69015 0.117693 0.2103
0.692378 0.114565 0.192081
0.0922408 0.17351 0.105394
0.0929427 0.168246 0.101289
0.133257 0.165148 0.0955825
0.323461 0.115206 0.0871595
0.531823 0.122332 0.102129
0.662593 0.11754 0.134234
0.664118 0.114717 0.135393
0.665766 0.114321 0.135958
0.665415 0.11899 0.13315
0.114107 0.37464 0.150668
0.113176 0.372671 0.146334
0.113878 0.360616 0.142702
0.309545 0.358282 0.10631
0.54696 0.261265 0.123842
0.711986 0.179065 0.117342
0.720714 0.17377 0.122728
0.716197 0.170352 0.121355
0.7131 0.170809 0.114961
0.177737 0.614023 0.265858
0.174746 0.611109 0.2542
0.17351 0.606912 0.248646
0.214038 0.598627 0.242054
0.563302 0.600504 0.141085
0.760891 0.588418 0.174716
0.775189 0.538216 0.196262
0.771099 0.522179 0.191348
0.75938 0.479194 0.181338
0.257908 0.779995 0.362631
0.25568 0.780041 0.354314
0.255436 0.780179 0.354498
0.260731 0.780529 0.355016
0.454765 0.786908 0.369223
0.760678 0.79379 0.22649
0.805798 0.784497 0.203815
0.806745 0.781704 0.198108
0.807706 0.772686 0.178592
0.26215 0.782025 0.387427
0.258549 0.780911 0.370687
0.255848 0.779995 0.35494
0.255848 0.77998 0.354955
0.426917 0.78616 0.364538
0.732616 0.801083 0.264546
0.798062 0.804074 0.384649
0.797574 0.8056 0.402731
0.797635 0.805631 0.402243
0.264195 0.784131 0.405493
0.262028 0.782162 0.388296
0.25658 0.779644 0.356573
0.256657 0.779583 0.355688
0.400717 0.784985 0.359838
0.662715 0.800015 0.283619
0.797208 0.802625 0.361166
0.797375 0.805447 0.404639
0.797589 0.8056 0.402655
0.264973 0.786068 0.415625
0.262379 0.783688 0.398322
0.258061 0.780621 0.366766
0.256382 0.77969 0.355596
0.3346 0.782605 0.354406
0.54374 0.794049 0.357961
0.793011 0.799741 0.30837
0.797559 0.80557 0.402991
0.797772 0.805707 0.401236
0.0864881 0.0979019 0.0960708
0.098436 0.0981003 0.0979171
0.169497 0.0940108 0.100053
0.346258 0.0894636 0.0993668
0.552254 0.0954299 0.141466
0.694224 0.120912 0.242939
0.695293 0.124819 0.265156
0.695842 0.125566 0.269795
0.697261 0.121386 0.252232
0.0881056 0.106218 0.0960098
0.0943923 0.104906 0.0971695
0.160647 0.09897 0.0924086
0.322118 0.097261 0.0918746
0.523827 0.0909895 0.108461
0.691814 0.116564 0.207935
0.694179 0.119463 0.230655
0.695018 0.119448 0.231586
0.695354 0.115373 0.205356
0.092195 0.169665 0.111955
0.0921492 0.164813 0.10486
0.129198 0.16025 0.0953689
0.327626 0.108095 0.0848096
0.519722 0.116152 0.100969
0.665522 0.111604 0.135775
0.672953 0.107179 0.144198
0.67013 0.106691 0.138506
0.668788 0.114397 0.13518
0.113497 0.369177 0.157671
0.111666 0.364904 0.148653
0.109712 0.354391 0.140444
0.30367 0.350683 0.10457
0.546365 0.243137 0.120134
0.713649 0.174914 0.116213
0.722774 0.170077 0.126772
0.713878 0.16788 0.11931
0.71574 0.170886 0.11519
0.176593 0.609339 0.275914
0.174105 0.606271 0.261494
0.171344 0.600992 0.245655
0.202914 0.594003 0.240208
0.560647 0.595728 0.1393
0.760174 0.582605 0.17731
0.771298 0.522438 0.192325
0.766186 0.503929 0.186816
0.754879 0.459754 0.177874
0.260044 0.781292 0.376364
0.256657 0.780713 0.363546
0.255436 0.780179 0.354498
0.257633 0.780285 0.354742
0.446906 0.786557 0.367239
0.757061 0.791867 0.22414
0.806394 0.782452 0.198154
0.80705 0.778424 0.190066
0.808148 0.767437 0.172778
0.264347 0.783871 0.404059
0.261341 0.782345 0.387274
0.255863 0.779995 0.355825
0.255863 0.77998 0.354971
0.417762 0.786053 0.362768
0.720668 0.800839 0.267002
0.798138 0.803891 0.38172
0.797574 0.8056 0.402686
0.79765 0.805615 0.402121
0.266728 0.786755 0.427634
0.264347 0.784054 0.405814
0.258381 0.780163 0.365026
0.256657 0.779583 0.355703
0.391241 0.784756 0.358587
0.646418 0.800778 0.287831
0.796872 0.802167 0.355612
0.797375 0.805463 0.404578
0.797604 0.805615 0.402533
0.26714 0.788205 0.435142
0.2654 0.785992 0.416297
0.260563 0.781964 0.380774
0.256382 0.77969 0.355596
0.318608 0.782025 0.354391
0.533547 0.79292 0.364202
0.791821 0.799481 0.303319
0.797559 0.80557 0.403006
0.797772 0.805707 0.401236
0.0899825 0.0991379 0.148104
0.101823 0.099794 0.152621
0.160342 0.0973526 0.146319
0.34081 0.0924544 0.165743
0.554192 0.105486 0.215686
0.696513 0.132433 0.30396
0.695781 0.134874 0.321523
0.6963 0.135485 0.323384
0.698787 0.132067 0.30869
0.0873426 0.103212 0.135012
0.0902419 0.0993668 0.1458
0.149279 0.0975509 0.138201
0.332143 0.0916915 0.14519
0.551736 0.100465 0.181384
0.695857 0.127382 0.282872
0.696559 0.130953 0.299443
0.697124 0.130892 0.299962
0.698543 0.126131 0.280415
0.0865187 0.15845 0.142809
0.0868391 0.155428 0.140261
0.148119 0.16051 0.149538
0.36907 0.107408 0.110018
0.529305 0.0922255 0.118456
0.691768 0.117113 0.210254
0.693828 0.119188 0.227161
0.692668 0.117845 0.21706
0.688441 0.111894 0.178607
0.110613 0.358618 0.188022
0.109911 0.353491 0.175647
0.107546 0.339361 0.143267
0.291371 0.333837 0.104021
0.543587 0.199237 0.117113
0.732448 0.171389 0.134081
0.719799 0.165316 0.131533
0.722881 0.165545 0.128435
0.727031 0.170275 0.127001
0.174289 0.600519 0.306355
0.17174 0.596231 0.290486
0.168673 0.588571 0.256809
0.177478 0.582162 0.235309
0.552087 0.585916 0.136126
0.756344 0.555764 0.187045
0.75993 0.484184 0.182193
0.754574 0.461341 0.178119
0.749874 0.436347 0.174411
0.266773 0.785763 0.419043
0.26331 0.784131 0.402548
0.257084 0.78117 0.367346
0.255238 0.779843 0.354223
0.429862 0.785672 0.364538
0.750851 0.787228 0.219989
0.807233 0.776501 0.186755
0.808072 0.771557 0.17821
0.809171 0.757748 0.161837
0.272145 0.791608 0.465324
0.268101 0.788693 0.439094
0.26128 0.782498 0.388281
0.255863 0.77998 0.354971
0.394919 0.785031 0.358709
0.688197 0.800061 0.275853
0.798032 0.803342 0.374502
0.797574 0.805585 0.402716
0.79765 0.805585 0.401846
0.278325 0.796246 0.495125
0.271061 0.792309 0.466667
0.264546 0.784161 0.407309
0.256672 0.779583 0.355688
0.358984 0.783917 0.356329
0.613458 0.800275 0.303746
0.796246 0.801495 0.343969
0.797375 0.805463 0.404593
0.797604 0.805615 0.402533
0.276814 0.796124 0.490074
0.270756 0.792462 0.466453
0.266133 0.786007 0.418235
0.256397 0.779675 0.355612
0.290486 0.780667 0.355276
0.518608 0.791272 0.373419
0.78938 0.799069 0.294789
0.797574 0.805554 0.402411
0.797803 0.805707 0.401083
0.0979782 0.106767 0.29514
0.110063 0.106416 0.306096
0.165698 0.102251 0.299107
0.327688 0.0945754 0.282841
0.551751 0.116182 0.365499
0.704189 0.151766 0.446784
0.702968 0.152209 0.442145
0.701427 0.152621 0.433066
0.700282 0.152941 0.415045
0.0932937 0.107195 0.268727
0.0977798 0.10634 0.289097
0.147585 0.102037 0.30013
0.316945 0.0939803 0.273762
0.545769 0.116579 0.352834
0.700648 0.152712 0.42916
0.698878 0.15288 0.420829
0.699168 0.152895 0.419883
0.699748 0.149096 0.39646
0.0915236 0.151034 0.278996
0.0924849 0.143862 0.284489
0.11783 0.129351 0.322637
0.296361 0.0960098 0.25507
0.526741 0.115908 0.311696
0.696529 0.146059 0.375235
0.696452 0.147036 0.380545
0.696452 0.145678 0.37258
0.697948 0.137148 0.336934
0.0819715 0.32874 0.311696
0.0823987 0.323873 0.307073
0.0819715 0.310735 0.293843
0.334295 0.347189 0.323125
0.626261 0.222858 0.275151
0.735302 0.148257 0.304921
0.718395 0.134295 0.280812
0.706813 0.125917 0.253544
0.709789 0.119631 0.204807
0.159091 0.592401 0.408301
0.160388 0.589059 0.395804
0.167437 0.580697 0.363729
0.159426 0.553918 0.253452
0.539849 0.567941 0.17435
0.734234 0.480812 0.223163
0.740246 0.404715 0.222538
0.738964 0.371588 0.198123
0.737484 0.361913 0.176074
0.286519 0.79855 0.53637
0.281147 0.796231 0.520867
0.270375 0.788739 0.478141
0.254139 0.77525 0.374029
0.371542 0.781216 0.352758
0.736278 0.777203 0.212222
0.80882 0.76083 0.166262
0.809354 0.751705 0.154803
0.810178 0.733379 0.135454
0.285756 0.810681 0.589807
0.291325 0.809201 0.573053
0.2851 0.801724 0.525628
0.261845 0.782681 0.392508
0.313329 0.781689 0.353979
0.614816 0.800427 0.302754
0.797208 0.802243 0.354803
0.798032 0.804074 0.385
0.798138 0.802655 0.358328
0.279362 0.812482 0.606912
0.284764 0.8112 0.590021
0.290623 0.805859 0.547768
0.265538 0.785122 0.413657
0.276692 0.780514 0.356573
0.547845 0.794568 0.35491
0.794064 0.800198 0.316091
0.79736 0.805463 0.404807
0.797589 0.805615 0.402808
0.284703 0.811215 0.590097
0.290745 0.809491 0.574243
0.288121 0.803983 0.536828
0.266636 0.78648 0.423926
0.258045 0.779553 0.355535
0.486198 0.788556 0.375784
0.780819 0.799054 0.279133
0.797559 0.804913 0.39675
0.797772 0.805707 0.401312
0.114992 0.129152 0.469673
0.130709 0.128191 0.47776
0.183185 0.119371 0.482689
0.352743 0.11426 0.46067
0.553903 0.127916 0.498878
0.725155 0.174502 0.597559
0.721569 0.160357 0.615656
0.723598 0.163333 0.611048
0.717189 0.156939 0.548302
0.105562 0.128725 0.452003
0.114611 0.128435 0.466606
0.166644 0.12668 0.481422
0.338827 0.112978 0.459098
0.548089 0.127092 0.493675
0.724697 0.176501 0.589487
0.723552 0.163958 0.609827
0.725826 0.175479 0.595926
0.711788 0.146502 0.522683
0.105837 0.142794 0.444495
0.105211 0.135912 0.441901
0.115618 0.126726 0.460304
0.288243 0.111589 0.454093
0.524483 0.121523 0.470359
0.716274 0.162753 0.558602
0.719615 0.169711 0.573556
0.71284 0.154726 0.539834
0.70721 0.143648 0.492348
0.0968338 0.339635 0.539315
0.100496 0.33312 0.543221
0.111986 0.308537 0.5505
0.248264 0.257099 0.580209
0.537987 0.158968 0.481758
0.703639 0.142702 0.494728
0.705653 0.146853 0.481453
0.707866 0.150118 0.467277
0.704219 0.152377 0.437919
0.0919966 0.563592 0.571786
0.0913558 0.560265 0.56788
0.0907301 0.552285 0.559579
0.0899825 0.533562 0.540398
0.56437 0.57641 0.557977
0.809079 0.485786 0.53138
0.81883 0.432258 0.519692
0.81532 0.412757 0.493996
0.812543 0.381048 0.42768
0.196338 0.800778 0.673548
0.200992 0.798383 0.664286
0.215167 0.790997 0.642008
0.239796 0.776593 0.589471
0.336843 0.753613 0.47985
0.714382 0.768902 0.444099
0.806867 0.725582 0.433219
0.802808 0.706615 0.437034
0.796948 0.673167 0.393439
0.168978 0.832776 0.740993
0.182239 0.831739 0.727565
0.214267 0.828244 0.699641
0.270665 0.816236 0.636042
0.261982 0.783551 0.396475
0.518959 0.791775 0.372686
0.795346 0.801022 0.329198
0.798138 0.803021 0.365789
0.799954 0.799451 0.312779
0.158236 0.834104 0.753735
0.170199 0.833112 0.739452
0.202502 0.829633 0.709606
0.268727 0.817288 0.64361
0.266178 0.786511 0.422126
0.464332 0.788174 0.371603
0.783841 0.799207 0.284764
0.797421 0.805631 0.405585
0.797543 0.805707 0.404562
0.18967 0.830991 0.722393
0.206531 0.829114 0.706127
0.238804 0.823911 0.678965
0.274189 0.814908 0.622248
0.26772 0.788205 0.436286
0.396033 0.785092 0.358709
0.726192 0.801114 0.266957
0.798245 0.803632 0.376532
0.797574 0.805661 0.403876
0.143404 0.174929 0.636988
0.161669 0.175982 0.650233
0.233295 0.16939 0.663676
0.401755 0.152758 0.664271
0.592599 0.175006 0.666133
0.722713 0.167452 0.700053
0.728038 0.173587 0.717922
0.728817 0.174746 0.720409
0.728756 0.174762 0.720378
0.132052 0.173175 0.622126
0.142992 0.174151 0.635431
0.201617 0.172305 0.658106
0.382956 0.150652 0.662318
0.584939 0.173205 0.662974
0.721843 0.166552 0.697047
0.72752 0.173068 0.714748
0.728359 0.174365 0.719417
0.727947 0.173266 0.716396
0.132097 0.182712 0.617288
0.128847 0.173129 0.607645
0.140658 0.168734 0.621729
0.322683 0.144289 0.651728
0.561593 0.16762 0.651148
0.718975 0.163058 0.683772
0.723903 0.168933 0.703426
0.726619 0.172259 0.712383
0.721218 0.164111 0.688746
0.147768 0.323552 0.702525
0.147723 0.311345 0.700496
0.146685 0.279301 0.691295
0.194003 0.222461 0.698177
0.50219 0.156191 0.636179
0.703853 0.163546 0.649073
0.718654 0.167224 0.665614
0.718639 0.166064 0.671244
0.720638 0.153185 0.636194
0.0865339 0.571267 0.742382
0.0870527 0.567651 0.742397
0.090959 0.559716 0.745205
0.106416 0.53782 0.755459
0.506249 0.502419 0.778302
0.7355 0.384634 0.685389
0.775372 0.327962 0.681163
0.768582 0.305211 0.656458
0.759503 0.236545 0.599619
0.127779 0.779049 0.800305
0.125505 0.775174 0.79559
0.122408 0.76762 0.788098
0.118242 0.751766 0.771832
0.211872 0.735454 0.745052
0.738506 0.756191 0.741772
0.860441 0.706172 0.728573
0.860227 0.684733 0.712703
0.860349 0.654871 0.664118
0.132082 0.844816 0.855955
0.12108 0.845014 0.850095
0.112871 0.844327 0.839338
0.115984 0.841627 0.81532
0.166598 0.833326 0.742687
0.6533 0.827283 0.706569
0.803555 0.85481 0.71902
0.830884 0.849149 0.713024
0.829725 0.831754 0.681437
0.156405 0.844266 0.864103
0.135958 0.84535 0.857954
0.117968 0.844648 0.845563
0.114351 0.841993 0.819043
0.1673 0.833417 0.74139
0.505974 0.813321 0.631464
0.738598 0.832059 0.613642
0.821866 0.858808 0.710536
0.81854 0.854078 0.692164
0.12018 0.844434 0.847028
0.113024 0.844266 0.839124
0.114214 0.842588 0.826108
0.129885 0.839384 0.79968
0.189364 0.83125 0.72166
0.301152 0.802319 0.530022
0.651804 0.812802 0.499687
0.806302 0.831281 0.588571
0.812894 0.843992 0.649363
0.161852 0.209262 0.717144
0.181353 0.21004 0.728374
0.253132 0.201938 0.739773
0.426444 0.169009 0.728405
0.616678 0.185122 0.715297
0.728862 0.174731 0.720439
0.728862 0.174731 0.720439
0.728847 0.174731 0.720439
0.728786 0.174762 0.720394
0.149844 0.206348 0.702098
0.1617 0.209247 0.717052
0.220493 0.206775 0.738491
0.406424 0.168109 0.729778
0.608988 0.182712 0.715297
0.728862 0.174731 0.720439
0.728862 0.174731 0.720439
0.728862 0.174731 0.720439
0.728862 0.174731 0.720439
0.147829 0.20911 0.691295
0.14667 0.203311 0.684031
0.160998 0.209171 0.716381
0.345586 0.167178 0.733959
0.582956 0.175479 0.715434
0.728862 0.174731 0.720439
0.728862 0.174731 0.720439
0.728862 0.174731 0.720439
0.728847 0.174746 0.720439
0.165148 0.314824 0.775769
0.164584 0.303258 0.771649
0.159579 0.266789 0.748684
0.175204 0.216922 0.731533
0.507256 0.169818 0.720119
0.716716 0.177081 0.720516
0.728939 0.174762 0.720531
0.728954 0.174777 0.720531
0.728923 0.174762 0.720531
0.128389 0.584558 0.830762
0.132342 0.579522 0.831037
0.141161 0.569039 0.834958
0.164233 0.538781 0.843519
0.451408 0.488899 0.846052
0.706874 0.357061 0.762829
0.76109 0.274998 0.748928
0.757778 0.254032 0.745022
0.753109 0.217624 0.73463
0.11371 0.774319 0.867155
0.110872 0.770138 0.866102
0.105989 0.761761 0.863844
0.0999924 0.746181 0.860883
0.107881 0.723491 0.862379
0.700633 0.71696 0.871839
0.84509 0.658045 0.822232
0.848127 0.630747 0.813748
0.839094 0.592386 0.786007
0.193469 0.84213 0.88539
0.192386 0.842405 0.885542
0.191806 0.842313 0.885237
0.189014 0.841321 0.8822
0.173175 0.834165 0.870741
0.59646 0.834623 0.833371
0.833127 0.864942 0.848142
0.860914 0.850492 0.844327
0.860838 0.828534 0.824048
0.192264 0.842252 0.885496
0.191638 0.842405 0.885603
0.191577 0.84242 0.885557
0.193179 0.842771 0.88336
0.161273 0.844907 0.86656
0.238468 0.844266 0.823606
0.813931 0.883192 0.841703
0.867079 0.893523 0.876814
0.867643 0.892927 0.876249
0.191867 0.842405 0.885573
0.192691 0.84242 0.885512
0.193927 0.842603 0.884596
0.190814 0.843259 0.87982
0.134661 0.845289 0.857557
0.136141 0.839185 0.795178
0.748852 0.860746 0.789639
0.843259 0.884733 0.824552
0.865476 0.895201 0.880858
0.171008 0.209567 0.723156
0.192828 0.209598 0.733089
0.266865 0.199512 0.739269
0.436332 0.169085 0.727199
0.624353 0.18761 0.714717
0.728862 0.174731 0.720439
0.728862 0.174731 0.720439
0.728862 0.174731 0.720439
0.728862 0.174731 0.720439
0.154574 0.20795 0.70985
0.170642 0.209583 0.722911
0.237385 0.204837 0.739757
0.4168 0.168399 0.728954
0.616434 0.185092 0.715434
0.728862 0.174731 0.720439
0.728862 0.174731 0.720439
0.728862 0.174731 0.720439
0.728862 0.174731 0.720439
0.147066 0.20499 0.685985
0.1467 0.203571 0.684474
0.169512 0.209537 0.722164
0.357733 0.16791 0.734096
0.588602 0.176654 0.714855
0.728862 0.174731 0.720439
0.728862 0.174731 0.720439
0.728862 0.174731 0.720439
0.728862 0.174731 0.720439
0.166903 0.305745 0.780255
0.164706 0.291341 0.770642
0.156695 0.252064 0.738231
0.180209 0.209964 0.727672
0.510826 0.169146 0.719203
0.717937 0.176562 0.720211
0.728954 0.174777 0.720546
0.728954 0.174777 0.720531
0.728923 0.174762 0.720516
0.145312 0.586236 0.859129
0.148745 0.579934 0.858518
0.156222 0.564752 0.856382
0.176043 0.524117 0.849622
0.434714 0.45774 0.841474
0.69398 0.325567 0.759167
0.756863 0.244358 0.745739
0.755077 0.223957 0.742794
0.747799 0.195911 0.735286
0.117388 0.78175 0.879026
0.113283 0.777386 0.878431
0.107576 0.769223 0.877684
0.0990463 0.75198 0.874052
0.0987411 0.719676 0.8719
0.679057 0.704189 0.886763
0.827649 0.630854 0.839261
0.833463 0.59472 0.82768
0.821744 0.554009 0.814817
0.191608 0.84242 0.885603
0.191608 0.84242 0.885603
0.191455 0.842222 0.885603
0.190372 0.840635 0.885817
0.180331 0.831006 0.885512
0.536324 0.824628 0.86952
0.809049 0.8477 0.884443
0.861402 0.820752 0.873716
0.860426 0.797391 0.868772
0.191608 0.84242 0.885603
0.191608 0.84242 0.885603
0.191608 0.84242 0.885603
0.191608 0.84242 0.885603
0.191608 0.84242 0.885603
0.192142 0.842405 0.885557
0.788281 0.885359 0.872404
0.865324 0.896071 0.881514
0.864912 0.895705 0.881086
0.191608 0.84242 0.885603
0.191608 0.84242 0.885603
0.191608 0.84242 0.885603
0.191608 0.84242 0.885603
0.191623 0.84242 0.885603
0.193729 0.842741 0.883635
0.683101 0.865019 0.853346
0.865095 0.895933 0.881407
0.865324 0.896071 0.881514
0.177142 0.209873 0.726299
0.198825 0.209003 0.734966
0.274342 0.198428 0.739208
0.438727 0.168994 0.726894
0.62652 0.188785 0.715373
0.728862 0.174731 0.720439
0.728862 0.174731 0.720439
0.728862 0.174731 0.720439
0.728862 0.174731 0.720439
0.158831 0.20882 0.713649
0.176638 0.209812 0.725963
0.244678 0.203647 0.740093
0.419989 0.168551 0.728756
0.617136 0.185199 0.715129
0.728862 0.174731 0.720439
0.728862 0.174731 0.720439
0.728862 0.174731 0.720439
0.728862 0.174731 0.720439
0.146777 0.204273 0.685008
0.14699 0.203723 0.687449
0.175051 0.209735 0.725353
0.361364 0.168139 0.734035
0.589471 0.176959 0.715084
0.728862 0.174731 0.720439
0.728862 0.174731 0.720439
0.728862 0.174731 0.720439
0.728862 0.174731 0.720439
0.164996 0.294987 0.773495
0.162493 0.280354 0.762905
0.154604 0.243946 0.730175
0.184268 0.210117 0.729854
0.511116 0.169131 0.719188
0.71809 0.176532 0.72015
0.728954 0.174777 0.720531
0.728939 0.174777 0.720531
0.728923 0.174762 0.720516
0.152224 0.574121 0.857939
0.155291 0.566964 0.856657
0.16318 0.551537 0.853986
0.182483 0.508217 0.846723
0.418753 0.432746 0.836133
0.682475 0.300755 0.753689
0.755337 0.221164 0.743069
0.750225 0.205402 0.738766
0.733989 0.179843 0.725399
0.112032 0.776486 0.878767
0.108324 0.771511 0.877546
0.103349 0.762478 0.876493
0.0966506 0.743023 0.872801
0.0925002 0.705043 0.870649
0.669352 0.685542 0.886183
0.818708 0.60763 0.832425
0.824598 0.565698 0.817594
0.812787 0.522728 0.805982
0.191608 0.84242 0.885603
0.191608 0.84242 0.885603
0.191257 0.841871 0.885695
0.18941 0.839689 0.885969
0.174563 0.825559 0.88539
0.512047 0.8177 0.870512
0.80119 0.833661 0.885603
0.860059 0.801129 0.871458
0.858381 0.778042 0.868299
0.191608 0.84242 0.885603
0.191608 0.84242 0.885603
0.191608 0.84242 0.885603
0.191608 0.84242 0.885603
0.191608 0.84242 0.885603
0.191608 0.84242 0.885603
0.7626 0.878798 0.871336
0.864973 0.895796 0.881224
0.863676 0.893751 0.880674
0.191608 0.84242 0.885603
0.191608 0.84242 0.885603
0.191608 0.84242 0.885603
0.191608 0.84242 0.885603
0.191608 0.84242 0.885603
0.191608 0.84242 0.885603
0.537957 0.848142 0.862745
0.864805 0.895796 0.881285
0.865324 0.896071 0.881514
