bundles/resolve-cinematic-luts/Phantom Luts/Canon Film LUT/ATOMOS Monitoring LUTs/C-Log 2/VisionTeal Canon-Legacy CL2 AML.cube
TITLE "Generated by Resolve"
LUT_3D_SIZE 5
0.0849928 0.0981155 0.0966354
0.156283 0.0926833 0.0923934
0.511849 0.0848554 0.106783
0.682933 0.113191 0.250492
0.684779 0.112383 0.250233
0.0825666 0.17615 0.0984054
0.145098 0.162112 0.0984054
0.531594 0.108919 0.0990921
0.655955 0.100862 0.139605
0.655512 0.100053 0.136706
0.182391 0.61004 0.195377
0.177417 0.603586 0.182422
0.550393 0.570626 0.14934
0.792462 0.594705 0.19823
0.782238 0.533135 0.191485
0.279789 0.801816 0.319295
0.279164 0.797971 0.278645
0.482307 0.765942 0.266972
0.789303 0.786664 0.385977
0.787564 0.786023 0.399451
0.275105 0.811109 0.366308
0.279271 0.798886 0.291768
0.359243 0.781842 0.261341
0.790326 0.790005 0.333898
0.787564 0.786114 0.399237
0.0838941 0.10724 0.155718
0.157061 0.0947127 0.169848
0.546853 0.0948501 0.231647
0.684031 0.124224 0.339971
0.686442 0.122545 0.332006
0.0830854 0.161471 0.142596
0.142947 0.161837 0.156603
0.521752 0.0865644 0.126116
0.684306 0.111971 0.23743
0.673671 0.105776 0.183856
0.169879 0.602335 0.255329
0.169329 0.585824 0.191852
0.536248 0.556008 0.145373
0.783597 0.538857 0.19292
0.775601 0.494621 0.186725
0.267765 0.824781 0.433219
0.277958 0.803479 0.322545
0.437949 0.77084 0.263523
0.790341 0.786938 0.379049
0.787579 0.786007 0.399329
0.256077 0.835752 0.464561
0.275792 0.810941 0.369192
0.311574 0.789731 0.270024
0.788556 0.790738 0.323507
0.787533 0.78613 0.399237
0.0822919 0.167361 0.460822
0.117647 0.159564 0.506661
0.53994 0.111589 0.553292
0.712764 0.161425 0.677195
0.712291 0.142687 0.610636
0.0823224 0.178317 0.425528
0.0825513 0.164401 0.454246
0.510521 0.105409 0.522225
0.71722 0.159792 0.635813
0.699367 0.123522 0.554604
0.109148 0.594766 0.530694
0.104021 0.582788 0.519493
0.580346 0.572488 0.549279
0.796094 0.431556 0.51986
0.793805 0.416129 0.415335
0.183459 0.889738 0.716716
0.206851 0.88098 0.687449
0.277165 0.80647 0.337285
0.791211 0.788556 0.349142
0.795285 0.790433 0.339254
0.19559 0.88542 0.702846
0.219989 0.875486 0.670619
0.273991 0.81677 0.396872
0.755978 0.794415 0.258015
0.787259 0.785946 0.400443
0.0828717 0.276143 0.684215
0.094316 0.271183 0.73814
0.585565 0.169039 0.774319
0.718746 0.175799 0.790738
0.718547 0.17586 0.790646
0.0824598 0.274418 0.652705
0.0828717 0.276066 0.682948
0.543709 0.158389 0.769223
0.71873 0.175799 0.790722
0.71873 0.175799 0.790722
0.084062 0.650858 0.775891
0.0839399 0.63328 0.777081
0.377768 0.53904 0.820645
0.748837 0.27013 0.801785
0.742061 0.209949 0.797696
0.213993 0.904967 0.840116
0.211246 0.905653 0.840665
0.207645 0.898344 0.829938
0.849714 0.861112 0.841199
0.878233 0.818952 0.816831
0.214542 0.904677 0.839765
0.213748 0.905486 0.840085
0.19765 0.904173 0.813443
0.740826 0.860792 0.769299
0.883223 0.890837 0.876326
0.0830091 0.277195 0.699657
0.120424 0.268742 0.746914
0.597528 0.172854 0.775387
0.718746 0.175799 0.790738
0.718746 0.175799 0.790738
0.0827344 0.269688 0.648127
0.0830091 0.277028 0.697658
0.55317 0.160113 0.770459
0.718746 0.175799 0.790738
0.718746 0.175799 0.790738
0.0855573 0.642405 0.7953
0.0838636 0.619135 0.790539
0.328267 0.487816 0.814908
0.744457 0.219608 0.805463
0.722911 0.180087 0.793896
0.210727 0.905882 0.841108
0.209842 0.905486 0.840986
0.193408 0.896559 0.845289
0.812558 0.833631 0.87361
0.867491 0.770535 0.872633
0.211429 0.905638 0.840925
0.210727 0.905882 0.841108
0.210727 0.905882 0.841108
0.548379 0.871153 0.823804
0.882643 0.891981 0.877699
