bundles/resolve-cinematic-luts/Phantom Luts/Canon Film LUT/ATOMOS Monitoring LUTs/C-Log 2/Vision Canon-Legacy CL2 AML.cube
TITLE "Generated by Resolve"
LUT_3D_SIZE 33
0.0875715 0.0970932 0.0893873
0.0881361 0.0972 0.0894942
0.0894026 0.0974746 0.0898756
0.0910506 0.097734 0.0901656
0.0937209 0.098146 0.089662
0.102403 0.0975357 0.0882429
0.112291 0.0971695 0.0896468
0.127764 0.0966659 0.0892805
0.147417 0.0971542 0.0891127
0.172869 0.0984054 0.0890364
0.211566 0.0986343 0.0882582
0.25919 0.0992447 0.0883955
0.308965 0.0996719 0.0906691
0.359457 0.0981765 0.0929274
0.411383 0.0971542 0.0949111
0.463844 0.0960098 0.0995651
0.517082 0.0939193 0.107195
0.570214 0.0954757 0.124483
0.631342 0.10486 0.155001
0.677043 0.113909 0.190661
0.689235 0.117357 0.206729
0.689906 0.118257 0.21593
0.69073 0.119371 0.223728
0.691218 0.120348 0.230365
0.691539 0.121767 0.242008
0.691585 0.12221 0.245762
0.691691 0.122469 0.247654
0.691752 0.122606 0.248936
0.69221 0.12256 0.249561
0.693049 0.122179 0.248631
0.693874 0.121645 0.246372
0.694911 0.120867 0.243458
0.695964 0.120104 0.238453
0.0877241 0.0977188 0.0896162
0.0877394 0.0973678 0.0894789
0.0889448 0.0976272 0.0897536
0.0909743 0.0979477 0.0901808
0.0942855 0.0984512 0.089601
0.103502 0.0974899 0.0888075
0.113558 0.097261 0.0899062
0.129915 0.0966659 0.0892653
0.15021 0.0972152 0.0890822
0.176623 0.0985122 0.089128
0.215686 0.0986648 0.0878157
0.261051 0.0995346 0.0879835
0.309194 0.100298 0.0898451
0.36025 0.0989395 0.0925307
0.4112 0.0980392 0.094789
0.463203 0.0971389 0.0986648
0.516426 0.0955825 0.106371
0.57171 0.09514 0.12134
0.633066 0.104494 0.151415
0.677256 0.113405 0.185733
0.688563 0.116762 0.202106
0.689479 0.117617 0.209293
0.690257 0.118471 0.217273
0.690806 0.119402 0.223896
0.691508 0.121172 0.236179
0.69163 0.121508 0.238865
0.691661 0.121706 0.241093
0.691707 0.121874 0.242924
0.692012 0.121767 0.242985
0.692836 0.121355 0.240848
0.693919 0.120775 0.238483
0.694911 0.120119 0.236011
0.695705 0.118868 0.229572
0.088014 0.0998856 0.0901961
0.0883192 0.099382 0.0901198
0.0894484 0.0993057 0.0902266
0.090837 0.0997024 0.0903639
0.0941787 0.0988174 0.0892348
0.103639 0.097734 0.088365
0.11429 0.0974136 0.0896773
0.131579 0.0967575 0.0890974
0.151324 0.0972152 0.0890059
0.176501 0.0983139 0.0881361
0.214496 0.098436 0.0867781
0.260868 0.0995956 0.0876783
0.308476 0.10013 0.0887465
0.358679 0.100343 0.0923171
0.409628 0.0990768 0.0944533
0.462272 0.0988937 0.0986038
0.516548 0.0981308 0.10544
0.569894 0.0945754 0.117037
0.629526 0.103334 0.145861
0.678401 0.113146 0.181903
0.688365 0.116304 0.19649
0.688899 0.117037 0.203571
0.689342 0.117662 0.209964
0.690242 0.118273 0.215686
0.690578 0.118883 0.220722
0.691508 0.120653 0.232334
0.69163 0.120943 0.234577
0.691691 0.121065 0.235355
0.691966 0.120958 0.235111
0.692729 0.120455 0.232944
0.693629 0.119814 0.230777
0.694286 0.118685 0.225895
0.694453 0.117357 0.218219
0.0880751 0.102983 0.0908675
0.0880903 0.102464 0.0902419
0.0889601 0.101747 0.0903487
0.0906386 0.10193 0.0906081
0.0935836 0.102831 0.090837
0.103349 0.100435 0.0869459
0.115618 0.0977493 0.0884413
0.133516 0.0970932 0.0888991
0.151751 0.0973526 0.0886091
0.178347 0.098436 0.0878004
0.2159 0.0986191 0.0867323
0.260243 0.0990768 0.0862135
0.307088 0.100313 0.0880903
0.35584 0.101259 0.0917372
0.407782 0.100633 0.0937819
0.460044 0.100618 0.098146
0.514351 0.100023 0.104891
0.568215 0.0975204 0.115282
0.629099 0.102907 0.1411
0.676707 0.112032 0.174395
0.685802 0.11487 0.187869
0.688563 0.116258 0.196002
0.689067 0.116869 0.202121
0.689723 0.117449 0.207065
0.689647 0.117922 0.212421
0.690776 0.119188 0.222843
0.691096 0.119554 0.224582
0.691249 0.119692 0.225635
0.691539 0.119554 0.225437
0.69189 0.11899 0.223301
0.692256 0.118105 0.21857
0.692973 0.117266 0.21413
0.694301 0.116045 0.207431
0.088365 0.109377 0.0921035
0.0882887 0.108675 0.0914168
0.0888991 0.107622 0.0910048
0.0901503 0.106783 0.0911421
0.0934462 0.107256 0.0915236
0.0987869 0.108354 0.0904097
0.114244 0.104005 0.088426
0.131899 0.0992599 0.0888685
0.153643 0.0980087 0.0871138
0.182498 0.0986954 0.0869306
0.218936 0.0985885 0.0859846
0.262394 0.0993362 0.0861982
0.307057 0.100145 0.0870985
0.355932 0.101244 0.0908217
0.404425 0.102602 0.0932326
0.45594 0.102693 0.096849
0.511177 0.102571 0.103426
0.566339 0.101457 0.114107
0.624811 0.101472 0.132662
0.67451 0.110933 0.164019
0.683452 0.113222 0.177981
0.68716 0.114916 0.187091
0.687099 0.115724 0.191516
0.688746 0.116304 0.19675
0.688975 0.116609 0.200412
0.689509 0.117006 0.203159
0.690089 0.118013 0.212421
0.690074 0.117998 0.212192
0.69015 0.117693 0.2103
0.690867 0.117159 0.207797
0.691737 0.116518 0.204578
0.692775 0.115618 0.20061
0.692378 0.114565 0.192081
0.0892348 0.11989 0.094377
0.0888228 0.119036 0.0933089
0.0889754 0.117754 0.0926833
0.0898451 0.116243 0.0925154
0.0917678 0.115694 0.0930037
0.098497 0.116884 0.0935836
0.108598 0.117525 0.0896468
0.132677 0.110506 0.0896925
0.152316 0.103761 0.0897231
0.181186 0.10074 0.0867018
0.224308 0.0990005 0.0835126
0.268818 0.0996262 0.0846418
0.31014 0.100481 0.0869306
0.357107 0.101656 0.0894636
0.404929 0.104311 0.0926528
0.454734 0.104768 0.0961776
0.506966 0.105852 0.101732
0.562966 0.105806 0.111498
0.620157 0.103487 0.126314
0.670848 0.108492 0.152667
0.678431 0.111192 0.162844
0.681117 0.111742 0.168978
0.68423 0.1131 0.177737
0.68719 0.114397 0.184146
0.685496 0.114229 0.184054
0.685908 0.11458 0.185931
0.689143 0.116121 0.195346
0.689525 0.11606 0.195621
0.689982 0.115938 0.194797
0.690272 0.115511 0.191989
0.689143 0.114092 0.186358
0.688151 0.112367 0.179736
0.687175 0.111238 0.172641
0.0897383 0.133394 0.0969253
0.0894179 0.132616 0.0958267
0.0891432 0.13167 0.0948806
0.0902571 0.129686 0.0948653
0.0917678 0.128969 0.0952468
0.0950484 0.128557 0.0954757
0.105867 0.12929 0.0946822
0.127672 0.12752 0.0876631
0.15346 0.121111 0.0902113
0.180148 0.111604 0.0902266
0.224491 0.102678 0.0843977
0.269093 0.100862 0.0820935
0.321263 0.100969 0.0834821
0.364614 0.102617 0.0885023
0.408362 0.104524 0.0913558
0.456413 0.107317 0.0960098
0.504402 0.107988 0.100801
0.556802 0.109834 0.109407
0.613916 0.110597 0.122621
0.666529 0.106416 0.138018
0.671702 0.108003 0.146334
0.674662 0.109071 0.153399
0.677165 0.110201 0.158984
0.6795 0.111223 0.162554
0.680415 0.111284 0.164019
0.681483 0.111543 0.166613
0.681498 0.111711 0.168719
0.684153 0.112596 0.174578
0.682994 0.112123 0.171939
0.681834 0.111559 0.168139
0.681422 0.111009 0.163775
0.681178 0.11017 0.159213
0.678187 0.108278 0.152361
0.0907759 0.150469 0.100542
0.0906539 0.149706 0.0994583
0.090547 0.148882 0.0983444
0.090898 0.147784 0.0978714
0.092256 0.146487 0.0979934
0.0948653 0.146304 0.0981308
0.100023 0.146197 0.0987411
0.11722 0.145556 0.0949416
0.147112 0.14229 0.0871901
0.181598 0.135637 0.0907149
0.222812 0.119905 0.0901045
0.273686 0.106508 0.084535
0.31957 0.103471 0.0822461
0.369467 0.103456 0.083238
0.422232 0.106996 0.0889296
0.464057 0.110674 0.0953231
0.50721 0.111498 0.100664
0.552438 0.112062 0.108171
0.607584 0.113893 0.120058
0.659678 0.114046 0.134096
0.66392 0.112551 0.13576
0.665873 0.109895 0.137026
0.670085 0.107149 0.142061
0.670069 0.107149 0.142031
0.670604 0.107561 0.143877
0.670985 0.107698 0.144457
0.670863 0.107668 0.144671
0.670115 0.107149 0.142153
0.673655 0.108049 0.146822
0.672831 0.107759 0.145068
0.671031 0.106889 0.14107
0.66952 0.107973 0.137697
0.667979 0.111467 0.135821
0.0922408 0.17351 0.105394
0.0919203 0.172335 0.104158
0.0918441 0.17142 0.102785
0.0915694 0.169833 0.101106
0.0929427 0.168246 0.101289
0.094667 0.16701 0.101747
0.0987411 0.167544 0.101701
0.106584 0.16672 0.102144
0.133257 0.165148 0.0955825
0.175341 0.158801 0.0868696
0.223697 0.151797 0.0908217
0.274525 0.12958 0.0906386
0.323461 0.115206 0.0871595
0.373098 0.1093 0.0847486
0.419669 0.109789 0.0850233
0.477607 0.113741 0.0894179
0.531823 0.122332 0.102129
0.559564 0.11693 0.108843
0.604776 0.117906 0.118563
0.652491 0.118166 0.130877
0.662593 0.11754 0.134234
0.663844 0.115557 0.135241
0.663172 0.116121 0.134813
0.661967 0.118166 0.133806
0.664118 0.114717 0.135393
0.665492 0.113207 0.136233
0.666117 0.112963 0.136431
0.666423 0.112978 0.136461
0.665766 0.114321 0.135958
0.664698 0.116075 0.135119
0.663508 0.118975 0.133654
0.66424 0.119097 0.133349
0.665415 0.11899 0.13315
0.0920119 0.205615 0.108003
0.0920119 0.204974 0.106859
0.0918288 0.203174 0.105547
0.0920119 0.201984 0.105699
0.0919509 0.199786 0.105379
0.0930343 0.196826 0.105089
0.0954299 0.19559 0.105409
0.101045 0.198032 0.10605
0.113924 0.195682 0.105959
0.15346 0.193332 0.09514
0.219379 0.182193 0.0886702
0.276707 0.176333 0.0949111
0.329412 0.14757 0.0940719
0.37467 0.130434 0.0908064
0.427344 0.119921 0.0883192
0.473442 0.119707 0.088304
0.529229 0.1243 0.0914168
0.596887 0.136507 0.109499
0.630762 0.133379 0.12105
0.652674 0.124025 0.129839
0.667369 0.122179 0.134417
0.663401 0.120119 0.133333
0.663157 0.11986 0.133394
0.663264 0.119768 0.13344
0.663355 0.119783 0.133471
0.663355 0.119829 0.13344
0.663401 0.12047 0.133364
0.663447 0.119982 0.133318
0.663706 0.120165 0.133318
0.664103 0.120348 0.133303
0.664622 0.120317 0.133227
0.665568 0.120333 0.133074
0.666712 0.120439 0.132952
0.0946975 0.252918 0.11577
0.0945296 0.251987 0.114885
0.0938277 0.249928 0.112749
0.0933852 0.248188 0.111833
0.0928664 0.246052 0.111101
0.0927443 0.242588 0.110307
0.09337 0.239933 0.109682
0.0964675 0.238193 0.109575
0.10544 0.242771 0.111406
0.125521 0.239307 0.111894
0.184756 0.239506 0.0966812
0.276127 0.225238 0.0913405
0.339513 0.221851 0.101625
0.391058 0.186511 0.104601
0.433494 0.157168 0.0990921
0.482033 0.138674 0.09514
0.532448 0.136858 0.0957351
0.580392 0.138949 0.0977798
0.649317 0.148592 0.112459
0.693339 0.152956 0.130449
0.696651 0.14081 0.138293
0.684871 0.134417 0.1355
0.685237 0.133455 0.136217
0.685374 0.132631 0.136904
0.682155 0.129488 0.137087
0.676997 0.127123 0.137179
0.669779 0.125307 0.134874
0.665721 0.123537 0.132845
0.674128 0.127962 0.134096
0.682246 0.133333 0.134966
0.689372 0.13669 0.135027
0.69572 0.139162 0.136156
0.702358 0.142046 0.135851
0.103807 0.313848 0.132876
0.103319 0.31284 0.131273
0.102876 0.311879 0.129702
0.102525 0.310246 0.127703
0.102525 0.309224 0.128283
0.102373 0.308507 0.128054
0.101366 0.302403 0.126619
0.102541 0.299992 0.125917
0.108248 0.299229 0.125872
0.121767 0.304326 0.127962
0.149248 0.297383 0.126345
0.241535 0.296635 0.101747
0.343801 0.281163 0.093904
0.400381 0.27805 0.107836
0.447745 0.246571 0.108461
0.496437 0.200885 0.112062
0.53846 0.16939 0.107271
0.588312 0.159258 0.104555
0.632273 0.158175 0.105394
0.682902 0.160479 0.11017
0.723049 0.166827 0.129961
0.72108 0.165286 0.132097
0.71931 0.163149 0.133501
0.715648 0.158495 0.134447
0.713268 0.155184 0.137148
0.712764 0.154467 0.137209
0.713085 0.154788 0.137362
0.714977 0.155688 0.136522
0.719493 0.157153 0.137072
0.724636 0.159609 0.138537
0.723613 0.162646 0.137224
0.721508 0.164157 0.134691
0.720623 0.164904 0.132326
0.114107 0.37464 0.150668
0.113741 0.374334 0.149645
0.113542 0.373953 0.148379
0.113359 0.373358 0.146548
0.113176 0.372671 0.146334
0.112291 0.37171 0.145434
0.112123 0.36968 0.144976
0.110643 0.363668 0.142916
0.113878 0.360616 0.142702
0.124102 0.361334 0.142748
0.142443 0.366323 0.144381
0.180621 0.357977 0.142123
0.309545 0.358282 0.10631
0.411139 0.34406 0.0946365
0.459541 0.340459 0.1122
0.508186 0.320607 0.120287
0.54696 0.261265 0.123842
0.58822 0.218509 0.118425
0.637415 0.188922 0.115633
0.681071 0.183307 0.116548
0.711986 0.179065 0.117342
0.716197 0.176349 0.117632
0.718303 0.175296 0.119036
0.719997 0.174853 0.121523
0.720714 0.17377 0.122728
0.720302 0.17258 0.123384
0.71899 0.171069 0.122637
0.717891 0.17055 0.122255
0.716197 0.170352 0.121355
0.713878 0.170077 0.119432
0.712367 0.169802 0.11664
0.711101 0.169299 0.114717
0.7131 0.170809 0.114961
0.127062 0.435584 0.172427
0.126711 0.435096 0.170901
0.126238 0.43447 0.168994
0.12546 0.433677 0.166781
0.12491 0.432242 0.164172
0.124895 0.431907 0.164599
0.124727 0.430823 0.16434
0.123995 0.427176 0.163104
0.123156 0.422583 0.16144
0.128054 0.420218 0.160601
0.146685 0.424292 0.161898
0.169955 0.4271 0.162127
0.230716 0.416373 0.159304
0.378653 0.418814 0.111009
0.475853 0.405982 0.0936751
0.517388 0.402487 0.1149
0.569741 0.396719 0.138582
0.600458 0.338674 0.134951
0.638392 0.287984 0.135027
0.677073 0.243229 0.128054
0.714107 0.220905 0.128862
0.725063 0.209522 0.127962
0.723598 0.203494 0.126116
0.722576 0.200137 0.125383
0.721126 0.19733 0.123796
0.720592 0.195544 0.122789
0.720836 0.193973 0.12282
0.720684 0.192508 0.122499
0.72076 0.191699 0.122347
0.721279 0.192416 0.122545
0.722393 0.194415 0.12311
0.72314 0.195712 0.122988
0.724605 0.197513 0.124132
0.141299 0.493263 0.197269
0.141085 0.493248 0.195819
0.140902 0.492531 0.194232
0.140108 0.491432 0.191257
0.139666 0.490898 0.1888
0.139345 0.489677 0.187228
0.139162 0.489006 0.186954
0.13933 0.488243 0.187015
0.137316 0.482246 0.183673
0.139147 0.480262 0.1832
0.148348 0.478233 0.182589
0.174273 0.485237 0.184634
0.210498 0.484077 0.182696
0.288136 0.475944 0.171756
0.444327 0.479118 0.118929
0.53785 0.466728 0.0903182
0.576165 0.463981 0.116197
0.627085 0.463401 0.146227
0.661448 0.423819 0.154467
0.68893 0.374517 0.158282
0.71339 0.330602 0.154238
0.72813 0.288853 0.145113
0.728313 0.277241 0.142489
0.727337 0.27216 0.141085
0.727626 0.26952 0.141054
0.726787 0.267613 0.139849
0.726345 0.266102 0.139132
0.72604 0.263539 0.138415
0.726085 0.261357 0.13817
0.725429 0.258076 0.136843
0.724773 0.252995 0.135439
0.725567 0.255879 0.136294
0.726314 0.260319 0.137362
0.15816 0.551217 0.231174
0.157671 0.550729 0.22829
0.156909 0.550057 0.225666
0.156435 0.549889 0.22356
0.155962 0.549081 0.219944
0.155459 0.548104 0.215869
0.155108 0.547387 0.215534
0.154986 0.546319 0.215183
0.154147 0.544091 0.213794
0.15285 0.538048 0.210391
0.158083 0.537835 0.210544
0.175814 0.536538 0.209583
0.212589 0.543816 0.211109
0.261585 0.538582 0.20914
0.351812 0.534142 0.182666
0.505913 0.538506 0.126864
0.596841 0.526116 0.091371
0.635691 0.524605 0.115923
0.680552 0.52433 0.149874
0.719509 0.508095 0.174563
0.736263 0.468742 0.173938
0.743954 0.42504 0.17409
0.742596 0.412268 0.175708
0.74168 0.406775 0.176379
0.740291 0.401892 0.176715
0.739391 0.398932 0.176516
0.738918 0.394858 0.176852
0.738369 0.391272 0.17583
0.737972 0.386679 0.174578
0.737438 0.38117 0.172869
0.736141 0.373007 0.169635
0.735103 0.363256 0.166979
0.734676 0.354772 0.163699
0.177737 0.614023 0.265858
0.177127 0.613977 0.263188
0.176211 0.613092 0.260639
0.175387 0.612055 0.258061
0.174746 0.611109 0.2542
0.174105 0.610101 0.251469
0.173983 0.609033 0.249714
0.173556 0.60824 0.248997
0.17351 0.606912 0.248646
0.171542 0.601633 0.24593
0.170764 0.598352 0.244114
0.182086 0.598169 0.244312
0.214038 0.598627 0.242054
0.261143 0.604532 0.242573
0.315618 0.596521 0.242084
0.415152 0.593561 0.195132
0.563302 0.600504 0.141085
0.652171 0.588113 0.101595
0.693935 0.5888 0.113146
0.730144 0.588647 0.147662
0.760891 0.588418 0.174716
0.775082 0.559701 0.197406
0.776349 0.544045 0.19678
0.775876 0.540368 0.19675
0.775189 0.538216 0.196262
0.774075 0.533684 0.195056
0.773175 0.529763 0.193835
0.771984 0.525704 0.192828
0.771099 0.522179 0.191348
0.769329 0.517205 0.189502
0.766995 0.508751 0.187854
0.763928 0.497261 0.185183
0.75938 0.479194 0.181338
0.202075 0.68011 0.301045
0.201114 0.679652 0.298314
0.199496 0.678645 0.295384
0.198306 0.677745 0.292622
0.197498 0.676951 0.28925
0.197116 0.676066 0.286687
0.196811 0.675273 0.285054
0.196796 0.674525 0.284642
0.196063 0.672724 0.28365
0.195178 0.670695 0.282338
0.192142 0.663096 0.278401
0.196704 0.66389 0.279255
0.218509 0.661479 0.277028
0.265934 0.664652 0.275074
0.316045 0.669963 0.277272
0.374075 0.656016 0.276905
0.485313 0.654154 0.210407
0.616541 0.663569 0.161242
0.702251 0.652964 0.121599
0.746853 0.656168 0.114748
0.770855 0.655665 0.138643
0.789654 0.654795 0.159335
0.798703 0.653452 0.169665
0.799054 0.650965 0.172427
0.797818 0.648478 0.1729
0.797314 0.645289 0.174563
0.796551 0.641306 0.176761
0.795773 0.637003 0.179477
0.795483 0.633417 0.181262
0.794202 0.627802 0.183215
0.793194 0.620615 0.185595
0.791501 0.611612 0.188952
0.789288 0.597971 0.193957
0.23003 0.737514 0.333593
0.228794 0.737346 0.33135
0.22739 0.737133 0.32932
0.226276 0.736843 0.326452
0.225437 0.736339 0.323476
0.224521 0.735225 0.321035
0.224292 0.734585 0.320943
0.223194 0.733608 0.31957
0.223087 0.733181 0.319387
0.222232 0.731929 0.318578
0.220813 0.728542 0.316747
0.218692 0.722225 0.312963
0.233249 0.723583 0.313268
0.268544 0.720806 0.3093
0.328206 0.728206 0.31223
0.382055 0.728237 0.317372
0.444678 0.714366 0.314504
0.556634 0.711254 0.233768
0.670085 0.723156 0.185779
0.744198 0.715038 0.153597
0.783215 0.717021 0.133745
0.79942 0.717784 0.12842
0.807202 0.715862 0.137453
0.808026 0.713512 0.139635
0.808026 0.711528 0.14136
0.807889 0.710124 0.142
0.807736 0.707988 0.142641
0.80734 0.705989 0.143587
0.806363 0.702998 0.144549
0.806561 0.70042 0.146593
0.805432 0.695888 0.147845
0.804959 0.689738 0.151858
0.803723 0.681086 0.155901
0.252567 0.772168 0.357336
0.252094 0.772015 0.355123
0.251545 0.772061 0.353521
0.250568 0.772076 0.350881
0.249454 0.771832 0.348592
0.249027 0.771695 0.347738
0.248753 0.771481 0.347524
0.248615 0.771405 0.347448
0.248417 0.771099 0.347356
0.248157 0.770687 0.347189
0.247227 0.769421 0.34609
0.245563 0.766125 0.343389
0.253285 0.764401 0.34226
0.282216 0.765377 0.341497
0.33727 0.766155 0.339742
0.397314 0.770504 0.348028
0.450324 0.766461 0.353292
0.513832 0.758831 0.326467
0.628122 0.755428 0.258259
0.723247 0.767086 0.207965
0.773404 0.758648 0.182757
0.801404 0.759182 0.169635
0.808606 0.759365 0.166201
0.808682 0.758572 0.163531
0.809003 0.757259 0.162341
0.809461 0.756222 0.161517
0.809674 0.754818 0.160037
0.809323 0.753185 0.157671
0.809277 0.751568 0.155169
0.809796 0.749599 0.153933
0.809873 0.746471 0.150134
0.809857 0.742535 0.146654
0.810224 0.736553 0.139742
0.257908 0.779995 0.362631
0.257252 0.77995 0.360876
0.256474 0.77998 0.358999
0.255955 0.779995 0.356939
0.25568 0.780041 0.354314
0.255604 0.780118 0.354574
0.255497 0.780163 0.354528
0.255451 0.780179 0.354498
0.255436 0.780179 0.354498
0.255451 0.780179 0.354498
0.255482 0.780163 0.354528
0.255512 0.780148 0.354528
0.260731 0.780529 0.355016
0.287175 0.780926 0.354635
0.336751 0.783093 0.353872
0.401602 0.785779 0.359625
0.454765 0.786908 0.369223
0.508171 0.785916 0.375067
0.584756 0.788098 0.322179
0.695918 0.784726 0.269001
0.760678 0.79379 0.22649
0.791196 0.784863 0.217304
0.805142 0.784756 0.206958
0.805707 0.784726 0.204379
0.805798 0.784497 0.203815
0.805829 0.784176 0.203616
0.805982 0.783536 0.202853
0.806241 0.782605 0.201144
0.806745 0.781704 0.198108
0.807126 0.780377 0.195361
0.806958 0.778927 0.191562
0.807172 0.776638 0.186404
0.807706 0.772686 0.178592
0.259022 0.779843 0.365087
0.258549 0.779767 0.363485
0.257725 0.779767 0.361028
0.256748 0.779782 0.35845
0.256107 0.779858 0.355993
0.255924 0.779919 0.354635
0.255894 0.77995 0.355032
0.255879 0.779965 0.355001
0.255863 0.779965 0.355016
0.255879 0.77995 0.355032
0.255879 0.77995 0.355032
0.255894 0.779934 0.355062
0.260288 0.780118 0.355428
0.283818 0.780499 0.355047
0.331548 0.782879 0.354269
0.396201 0.784817 0.358938
0.452369 0.78706 0.369314
0.503975 0.789136 0.37908
0.567788 0.796689 0.350011
0.659953 0.799817 0.309529
0.751492 0.800961 0.269841
0.77879 0.797894 0.266575
0.800168 0.795682 0.262089
0.801663 0.795544 0.266545
0.801572 0.795651 0.270466
0.801678 0.795621 0.26836
0.801846 0.795529 0.265782
0.802075 0.795514 0.262928
0.80238 0.795438 0.259373
0.802502 0.795056 0.253773
0.802609 0.794385 0.247135
0.802701 0.793439 0.239765
0.803632 0.790448 0.23061
0.259785 0.780499 0.372381
0.259388 0.780346 0.369863
0.258854 0.78027 0.367163
0.257832 0.780209 0.36434
0.256764 0.780118 0.360357
0.256001 0.779934 0.356832
0.255863 0.779965 0.355016
0.255863 0.77998 0.354971
0.255863 0.779965 0.354986
0.255863 0.779965 0.355001
0.255879 0.779965 0.355001
0.255894 0.77995 0.355032
0.258656 0.779904 0.355077
0.280797 0.780667 0.355489
0.327108 0.78294 0.354147
0.388785 0.785046 0.35819
0.440192 0.786969 0.366918
0.487266 0.788739 0.375952
0.546334 0.794553 0.355673
0.643687 0.801068 0.289586
0.759075 0.802701 0.244282
0.784802 0.797543 0.267796
0.79472 0.798611 0.300038
0.798123 0.800244 0.326802
0.798032 0.80116 0.344182
0.797894 0.801221 0.347433
0.798047 0.801144 0.343862
0.798215 0.801083 0.3402
0.798383 0.800916 0.335775
0.798596 0.800504 0.330144
0.799039 0.800031 0.322667
0.799878 0.799283 0.312856
0.800275 0.797757 0.299077
0.26128 0.781552 0.380591
0.260471 0.781262 0.377722
0.259754 0.780972 0.373968
0.258793 0.780667 0.369711
0.25774 0.780499 0.36524
0.256596 0.78027 0.360601
0.255924 0.77998 0.356481
0.255848 0.77998 0.354955
0.255848 0.77998 0.354955
0.255863 0.77998 0.354971
0.255863 0.77998 0.354971
0.255863 0.779965 0.354986
0.256565 0.779995 0.355108
0.275853 0.780941 0.355901
0.318837 0.7823 0.35407
0.379355 0.784756 0.356954
0.433799 0.786557 0.365545
0.486915 0.7888 0.37586
0.543221 0.794018 0.358206
0.635584 0.80116 0.294118
0.748104 0.802441 0.259846
0.784237 0.798993 0.281605
0.795056 0.800366 0.315953
0.797711 0.803006 0.36492
0.797925 0.804089 0.386496
0.797436 0.804746 0.39704
0.797391 0.804868 0.398962
0.797421 0.804837 0.397848
0.797574 0.80473 0.395193
0.797696 0.804562 0.39263
0.798001 0.804364 0.38761
0.798169 0.803922 0.381415
0.79823 0.803189 0.369802
0.26215 0.782025 0.387427
0.261601 0.781949 0.384878
0.260731 0.781872 0.381155
0.259785 0.781445 0.376165
0.258549 0.780911 0.370687
0.257328 0.780591 0.364767
0.256168 0.780163 0.358755
0.255818 0.779995 0.354894
0.255848 0.779995 0.35494
0.255848 0.779995 0.35494
0.255848 0.77998 0.354955
0.255848 0.77998 0.354955
0.255848 0.77998 0.354955
0.271595 0.781003 0.355993
0.311208 0.781765 0.354116
0.371923 0.784207 0.355962
0.426917 0.78616 0.364538
0.479881 0.788418 0.374121
0.534646 0.79324 0.363256
0.621424 0.800763 0.299992
0.732616 0.801083 0.264546
0.78117 0.799054 0.278798
0.794339 0.799817 0.30959
0.797681 0.802258 0.354452
0.798062 0.804074 0.384649
0.797498 0.805112 0.399542
0.797528 0.805539 0.403388
0.797543 0.80557 0.403113
0.797574 0.8056 0.402731
0.797635 0.805615 0.40238
0.797681 0.805615 0.402167
0.797681 0.805631 0.402152
0.797635 0.805631 0.402243
0.262074 0.782574 0.392508
0.26183 0.782452 0.389731
0.261387 0.782269 0.386633
0.260685 0.782116 0.382315
0.259495 0.781537 0.37586
0.258045 0.780941 0.368612
0.256687 0.78056 0.361898
0.255802 0.780026 0.355413
0.255787 0.780026 0.354803
0.255787 0.780011 0.354818
0.255802 0.780011 0.354833
0.255802 0.780011 0.354864
0.255802 0.780011 0.354849
0.267094 0.780728 0.355612
0.304631 0.781781 0.354742
0.364645 0.784039 0.355352
0.420294 0.786084 0.363012
0.473381 0.788403 0.372778
0.526818 0.792279 0.368139
0.608026 0.800229 0.308476
0.719051 0.8009 0.268223
0.777508 0.798993 0.274586
0.793332 0.799268 0.302754
0.797223 0.801495 0.343664
0.798154 0.803662 0.37847
0.797498 0.804944 0.398108
0.797528 0.805554 0.403235
0.797559 0.805585 0.402914
0.797604 0.805615 0.402518
0.797665 0.805631 0.402197
0.797696 0.805646 0.402029
0.797696 0.805646 0.402014
0.797665 0.805631 0.402136
0.262623 0.783337 0.39675
0.262089 0.782849 0.394186
0.261692 0.782605 0.390784
0.261051 0.782406 0.386709
0.26038 0.782116 0.380911
0.258701 0.781353 0.373129
0.257115 0.780789 0.365072
0.255894 0.780118 0.3579
0.255726 0.780041 0.354818
0.255756 0.780041 0.354757
0.255772 0.780041 0.354772
0.255772 0.780026 0.354788
0.255772 0.780026 0.354788
0.263691 0.780316 0.355108
0.299275 0.781765 0.355154
0.359121 0.784482 0.355718
0.413718 0.786221 0.362005
0.466209 0.78822 0.37171
0.519493 0.791699 0.372503
0.592721 0.799268 0.317586
0.702388 0.800244 0.272786
0.775311 0.801251 0.266865
0.791836 0.79884 0.297124
0.796506 0.801358 0.334844
0.797971 0.803296 0.371847
0.79762 0.80473 0.394629
0.797543 0.805554 0.40322
0.797559 0.805585 0.402914
0.797604 0.805615 0.402518
0.79765 0.805631 0.402213
