bundles/resolve-cinematic-luts/Phantom Luts/Canon Film LUT/ATOMOS Monitoring LUTs/C-Log 2/VisionTeal Canon-Legacy CL2 AML.cube
TITLE "Generated by Resolve"
LUT_3D_SIZE 33
0.0849928 0.0981155 0.0966354
0.0849622 0.0979934 0.0964523
0.0850233 0.0983597 0.0971847
0.0869612 0.0982834 0.097673
0.0921645 0.0977951 0.0976883
0.101762 0.096849 0.0973831
0.11487 0.0954757 0.0961929
0.134371 0.0932937 0.0939498
0.156283 0.0926833 0.0923934
0.183185 0.0937972 0.0914321
0.224903 0.0920729 0.0885328
0.269673 0.0915847 0.0877089
0.317281 0.0898909 0.0877546
0.366003 0.0880446 0.0894331
0.415229 0.0864881 0.0909895
0.463951 0.0838026 0.0948348
0.511849 0.0848554 0.106783
0.56405 0.0887617 0.128359
0.621454 0.0973831 0.159991
0.667399 0.106874 0.199878
0.680705 0.11014 0.219272
0.682414 0.111894 0.233555
0.683024 0.112734 0.241123
0.683009 0.112963 0.246189
0.682933 0.113191 0.250492
0.683162 0.113542 0.253483
0.683345 0.113725 0.254917
0.683452 0.113787 0.256062
0.683619 0.113756 0.256718
0.683955 0.113588 0.256001
0.684306 0.113344 0.255238
0.684642 0.113054 0.254108
0.684779 0.112383 0.250233
0.0850385 0.0986801 0.0966812
0.0850233 0.0983291 0.0966964
0.0849775 0.098085 0.096437
0.0869917 0.0985275 0.0976883
0.0928511 0.0981613 0.0978408
0.102556 0.0969711 0.0974136
0.115816 0.0957351 0.0965896
0.135943 0.0934462 0.094255
0.159304 0.0928054 0.0928206
0.187503 0.0931716 0.0915236
0.227344 0.0923171 0.0887007
0.271946 0.0920882 0.0876326
0.319234 0.090898 0.0879683
0.366278 0.0885786 0.0890516
0.414878 0.0871901 0.0907912
0.46363 0.0852216 0.094255
0.512932 0.0848707 0.104158
0.565713 0.0885481 0.126055
0.620584 0.0968338 0.156222
0.668421 0.106844 0.195468
0.680354 0.109819 0.214405
0.681178 0.110491 0.221393
0.68159 0.111315 0.228824
0.683146 0.112734 0.240742
0.683177 0.112932 0.244373
0.683101 0.113008 0.246983
0.683131 0.113115 0.249073
0.683223 0.11313 0.248997
0.683421 0.113069 0.24918
0.683726 0.112932 0.248814
0.684108 0.112673 0.247959
0.684611 0.112398 0.24567
0.684947 0.112001 0.242252
0.0851606 0.100999 0.0963302
0.0850843 0.100526 0.0961471
0.085069 0.100374 0.0966812
0.0865492 0.10042 0.0971542
0.092958 0.098436 0.0975967
0.102144 0.0973983 0.0972305
0.115953 0.0962997 0.0963912
0.137209 0.0941482 0.0945296
0.158511 0.0930495 0.0933089
0.186252 0.0937667 0.0913405
0.2262 0.0931411 0.0885786
0.271702 0.0924392 0.0877699
0.318837 0.092195 0.0873426
0.366278 0.0900893 0.0895094
0.413916 0.0889448 0.0906386
0.463035 0.0869917 0.0940719
0.512367 0.0847028 0.101122
0.563455 0.0885328 0.121782
0.619699 0.0962844 0.15108
0.6692 0.106737 0.191638
0.678386 0.109194 0.206439
0.680629 0.109911 0.214939
0.681132 0.110475 0.221118
0.681895 0.111162 0.226047
0.683146 0.11249 0.238087
0.683268 0.112749 0.240757
0.68333 0.11281 0.241764
0.683436 0.11284 0.241978
0.683604 0.112779 0.242329
0.683864 0.112612 0.241733
0.684153 0.112276 0.239673
0.684169 0.111681 0.237018
0.684123 0.110964 0.232746
0.0847486 0.104356 0.0955062
0.0847639 0.103655 0.0953078
0.0848096 0.102785 0.0956893
0.0861982 0.102846 0.0965286
0.0917983 0.102892 0.097612
0.100969 0.099794 0.0974441
0.11635 0.0972457 0.0959487
0.137453 0.0954299 0.0949264
0.15906 0.0942702 0.0936446
0.187518 0.0945144 0.0917525
0.2271 0.0932174 0.0889754
0.270542 0.0936141 0.0873426
0.317433 0.0935836 0.0877241
0.365423 0.0909438 0.0893721
0.41352 0.0902876 0.0904402
0.460334 0.0888075 0.093492
0.51133 0.0862135 0.0996262
0.561975 0.0882429 0.117632
0.618952 0.0958267 0.146838
0.666285 0.10573 0.181628
0.67747 0.108751 0.198611
0.680232 0.109453 0.207385
0.680797 0.109926 0.214145
0.680995 0.110231 0.218799
0.68127 0.110597 0.221897
0.682506 0.111727 0.231571
0.682872 0.111894 0.232807
0.683085 0.111986 0.233097
0.682933 0.111757 0.232425
0.682857 0.111452 0.230838
0.682933 0.11104 0.229648
0.683207 0.110491 0.227436
0.681437 0.109224 0.219684
0.0843061 0.110964 0.0952621
0.0843519 0.11017 0.094789
0.084596 0.108797 0.0953231
0.0848859 0.108003 0.0962539
0.0906691 0.1075 0.0974441
0.0998856 0.107546 0.0979171
0.112886 0.104311 0.0972305
0.134752 0.0988632 0.095079
0.159182 0.0963302 0.0923323
0.190692 0.0959182 0.0918746
0.228977 0.0944991 0.0895247
0.273243 0.0941787 0.0879683
0.317876 0.0937057 0.0876326
0.364553 0.0927291 0.0889143
0.409934 0.0921645 0.0901045
0.456977 0.0905013 0.0927138
0.508232 0.0887922 0.0989242
0.558465 0.0874189 0.111269
0.615366 0.0951247 0.139788
0.66479 0.104982 0.172305
0.675624 0.10779 0.188678
0.677058 0.108522 0.19469
0.678141 0.108949 0.202167
0.6804 0.109529 0.207797
0.680781 0.109773 0.211368
0.681147 0.110002 0.214145
0.681437 0.110552 0.220691
0.681315 0.110445 0.220081
0.681392 0.110277 0.219348
0.68162 0.110079 0.218677
0.681285 0.109575 0.215732
0.680201 0.108614 0.210086
0.679026 0.107942 0.203326
0.0838026 0.121599 0.0961471
0.0838788 0.120714 0.0948653
0.0837873 0.119188 0.094667
0.0837873 0.117678 0.0954757
0.0867323 0.116899 0.096376
0.0991073 0.116091 0.0990158
0.11043 0.11606 0.0980545
0.130083 0.112352 0.0968643
0.155215 0.103853 0.0944839
0.187518 0.099794 0.0914015
0.23183 0.0972457 0.08748
0.27924 0.0959487 0.0879835
0.320027 0.0946059 0.0875715
0.366949 0.0939498 0.0888075
0.411185 0.093492 0.0901045
0.45713 0.0930343 0.0929427
0.504753 0.0919661 0.0979019
0.554696 0.0886854 0.106081
0.609812 0.0937514 0.131991
0.660945 0.103578 0.163622
0.669596 0.105837 0.174075
0.672587 0.10663 0.181628
0.675898 0.10808 0.190616
0.67686 0.108583 0.19469
0.676936 0.108614 0.195132
0.677165 0.108782 0.196277
0.678614 0.108858 0.197589
0.680323 0.109422 0.205859
0.679591 0.108995 0.203555
0.678172 0.108553 0.198795
0.677363 0.108064 0.194965
0.67599 0.107012 0.190021
0.674189 0.105821 0.183856
0.0833448 0.135454 0.0961624
0.0835889 0.134615 0.0953994
0.0836347 0.133669 0.0944839
0.0834211 0.131777 0.0945907
0.0852216 0.130709 0.0958572
0.091371 0.129397 0.0977035
0.11043 0.127321 0.100038
0.126879 0.126787 0.0961624
0.152697 0.123888 0.095552
0.187076 0.112078 0.0929274
0.235508 0.101823 0.0877699
0.279973 0.099321 0.0842145
0.33283 0.0980392 0.0857252
0.375525 0.096437 0.0881361
0.41677 0.0956436 0.0897078
0.460227 0.0955367 0.0928511
0.504265 0.0946059 0.0976425
0.550958 0.092958 0.104707
0.60238 0.0917067 0.117601
0.658122 0.102052 0.150118
0.663691 0.103517 0.158083
0.666545 0.104555 0.164279
0.668406 0.105211 0.170016
0.670436 0.105745 0.172946
0.671305 0.105852 0.17438
0.671809 0.106081 0.177295
0.671244 0.105959 0.176913
0.670283 0.105776 0.174258
0.672251 0.106157 0.178393
0.67126 0.105745 0.17438
0.670375 0.105364 0.171099
0.66772 0.104585 0.165743
0.664134 0.103029 0.159121
0.0831006 0.152789 0.0970779
0.0830854 0.152255 0.0958724
0.0831159 0.151324 0.0945296
0.0831464 0.150271 0.0939803
0.0835431 0.148775 0.0948959
0.0903944 0.147387 0.0977035
0.0982376 0.146471 0.0996414
0.12604 0.14284 0.0997024
0.146273 0.141588 0.0947585
0.181262 0.140536 0.0951553
0.23241 0.121431 0.0905318
0.285451 0.105928 0.0861524
0.332235 0.10277 0.0838636
0.380835 0.101259 0.0832532
0.432624 0.101595 0.0886397
0.469078 0.099443 0.09308
0.508049 0.0978256 0.0978256
0.548455 0.0953689 0.103868
0.597223 0.0932937 0.114519
0.650813 0.0995041 0.13698
0.655406 0.100984 0.141665
0.660105 0.102098 0.14873
0.662593 0.103197 0.15433
0.661997 0.103029 0.153536
0.66215 0.103166 0.15433
0.662287 0.103182 0.154314
0.661936 0.102998 0.153613
0.664408 0.103471 0.156832
0.66421 0.103365 0.155734
0.663035 0.103105 0.15407
0.660731 0.102129 0.149584
0.657786 0.101106 0.144533
0.654154 0.100069 0.139208
0.0825666 0.17615 0.0984054
0.0825971 0.175067 0.0980087
0.0828412 0.174136 0.0973373
0.0833143 0.172381 0.0965286
0.085481 0.170672 0.0970321
0.0878462 0.169039 0.097734
0.0944533 0.168429 0.0982528
0.106737 0.166247 0.100679
0.145098 0.162112 0.0984054
0.172 0.159609 0.0935836
0.222507 0.158923 0.0932326
0.286076 0.133227 0.0899825
0.338079 0.116396 0.0860761
0.386404 0.108522 0.0844282
0.431678 0.1075 0.083772
0.487053 0.108858 0.0894179
0.531594 0.108919 0.0990921
0.556146 0.0998856 0.104921
0.597162 0.0978714 0.113817
0.642649 0.0983291 0.12842
0.653834 0.100145 0.135836
0.655055 0.100618 0.138125
0.653956 0.100221 0.136507
0.65359 0.100069 0.135851
0.655955 0.100862 0.139605
0.657328 0.101198 0.141665
0.657954 0.101305 0.142184
0.65771 0.101198 0.141497
0.656321 0.100801 0.138201
0.653635 0.0998703 0.13431
0.65388 0.0999313 0.134798
0.65449 0.0999924 0.135546
0.655512 0.100053 0.136706
0.0832532 0.207843 0.098497
0.0823835 0.206775 0.0974594
0.0826581 0.205692 0.0965438
0.0825208 0.203922 0.0962387
0.0826734 0.201755 0.0962692
0.0841382 0.199527 0.0972305
0.0884565 0.197116 0.0977951
0.0967422 0.197971 0.0984054
0.116777 0.193866 0.101106
0.168231 0.189502 0.0970932
0.213535 0.184741 0.0941939
0.275395 0.18732 0.0954452
0.344884 0.154437 0.0934462
0.393103 0.13434 0.0887922
0.44213 0.120531 0.0868696
0.485283 0.119142 0.0874342
0.538109 0.120226 0.091249
0.597162 0.126314 0.109743
0.625711 0.116152 0.11902
0.644099 0.103487 0.127092
0.659693 0.101427 0.132982
0.654139 0.0999771 0.132021
0.653849 0.0999466 0.132433
0.65388 0.0999466 0.132616
0.654032 0.100008 0.132769
0.657313 0.101015 0.134081
0.654169 0.100069 0.13164
0.654322 0.0999924 0.132235
0.654643 0.100008 0.132158
0.655085 0.100023 0.132158
0.655711 0.100038 0.132525
0.65684 0.100206 0.1337
0.667369 0.103456 0.133837
0.0850385 0.253376 0.100862
0.0840162 0.251652 0.09897
0.0832685 0.249546 0.0976272
0.0831464 0.248417 0.0974441
0.0830549 0.246815 0.0975204
0.0823377 0.24332 0.0969558
0.0834363 0.239948 0.096849
0.0887465 0.237644 0.0971847
0.101106 0.240894 0.0991379
0.133089 0.234867 0.102754
0.204242 0.233082 0.0965286
0.26746 0.229114 0.0953384
0.3364 0.235599 0.0988327
0.40621 0.199573 0.103212
0.456046 0.167865 0.098024
0.499931 0.143252 0.0941482
0.545342 0.139116 0.0951553
0.588006 0.13843 0.0972915
0.651316 0.142672 0.114839
0.690547 0.138949 0.134005
0.690517 0.122713 0.139986
0.678294 0.115358 0.136233
0.678889 0.114397 0.136812
0.679698 0.11371 0.137438
0.675425 0.110246 0.136767
0.670329 0.107805 0.136202
0.66273 0.105226 0.133959
0.662776 0.106508 0.132403
0.672389 0.112123 0.134798
0.68127 0.117815 0.136309
0.690867 0.123049 0.138399
0.69778 0.125429 0.139803
0.705989 0.128832 0.141604
0.0944686 0.31194 0.110948
0.0936141 0.311574 0.10985
0.0931716 0.310842 0.108263
0.092607 0.30898 0.106249
0.0920577 0.307912 0.106508
0.0920424 0.307088 0.106554
0.0915541 0.3019 0.106264
0.0929274 0.298619 0.105715
0.101122 0.296574 0.106462
0.118395 0.29929 0.107729
0.162585 0.290211 0.112688
0.257008 0.286625 0.0970321
0.333364 0.284215 0.0988937
0.394903 0.293858 0.103059
0.457649 0.264469 0.107988
0.515343 0.217151 0.10779
0.557473 0.179019 0.104005
0.602457 0.164828 0.104051
0.64213 0.160937 0.106493
0.690105 0.159289 0.115892
0.723354 0.15993 0.138369
0.720394 0.155901 0.13962
0.716625 0.150744 0.139605
0.712764 0.145556 0.140719
0.708492 0.139376 0.140948
0.708827 0.139361 0.14139
0.709972 0.140414 0.141711
0.713222 0.143099 0.142153
0.71928 0.145525 0.142947
0.721599 0.150027 0.143725
0.720989 0.154574 0.142168
0.719738 0.157992 0.139635
0.719371 0.158022 0.135958
0.10457 0.370687 0.121324
0.10341 0.370504 0.120104
0.102525 0.369955 0.119127
0.102388 0.369116 0.11722
0.102235 0.368551 0.117067
0.102083 0.367468 0.117067
0.101579 0.365087 0.116609
0.100771 0.359686 0.115511
0.104036 0.35613 0.114534
0.118441 0.354696 0.115084
0.141192 0.357076 0.117128
0.204685 0.343816 0.12166
0.316899 0.343236 0.0984054
0.397192 0.344106 0.104997
0.450874 0.353368 0.109407
0.511101 0.344472 0.115404
0.565057 0.284291 0.120485
0.608759 0.239399 0.1131
0.655344 0.201968 0.114916
0.695033 0.19266 0.119203
0.722499 0.184985 0.122866
0.724453 0.180743 0.122652
0.725597 0.177996 0.1252
0.726787 0.174777 0.129625
0.726452 0.172396 0.132097
0.726162 0.170611 0.133135
0.72401 0.167971 0.132998
0.72282 0.168063 0.131777
0.721401 0.16878 0.12929
0.720348 0.169497 0.126467
0.718059 0.17232 0.120592
0.720653 0.175402 0.121263
0.724239 0.18027 0.122469
0.119478 0.428809 0.135714
0.118288 0.428275 0.134218
0.117403 0.427848 0.133196
0.116548 0.427207 0.131533
0.115541 0.425544 0.127916
0.115251 0.425483 0.128649
0.115038 0.424796 0.128283
0.114519 0.420844 0.127855
0.11339 0.416297 0.126726
0.12105 0.412863 0.126238
0.142504 0.412863 0.12639
0.170382 0.411337 0.128038
0.269017 0.394415 0.132326
0.376501 0.398779 0.10399
0.457801 0.403571 0.114504
0.505257 0.412619 0.11931
0.565652 0.423453 0.127489
0.616175 0.370382 0.134737
0.662425 0.318715 0.133608
0.700099 0.269566 0.126314
0.731334 0.241688 0.128237
0.741024 0.226474 0.131167
0.73843 0.218112 0.1299
0.73666 0.213199 0.129015
0.735317 0.209705 0.128542
0.734707 0.207248 0.128481
0.734112 0.204715 0.128283
0.733104 0.20267 0.127657
0.73315 0.201419 0.127749
0.733989 0.203006 0.12784
0.736263 0.206683 0.128725
0.73753 0.209293 0.12903
0.739513 0.213291 0.129961
0.137026 0.485649 0.151553
0.136065 0.485832 0.149905
0.135103 0.485161 0.148791
0.134661 0.484581 0.147326
0.133913 0.483848 0.145235
0.133043 0.482536 0.142992
0.132982 0.481849 0.143053
0.13283 0.480934 0.142763
0.130617 0.474952 0.141344
0.13315 0.472282 0.140703
0.144152 0.466911 0.139284
0.170901 0.468605 0.139803
0.221302 0.460685 0.14139
0.337636 0.445487 0.139116
0.433249 0.451774 0.117647
0.516411 0.461479 0.127001
0.56202 0.471717 0.134401
0.620096 0.487816 0.142275
0.671092 0.461723 0.152392
0.711818 0.415442 0.161624
0.739803 0.370565 0.157244
0.754314 0.325277 0.147738
0.752941 0.311086 0.143709
0.752071 0.305562 0.14229
0.751232 0.302007 0.141436
0.750317 0.299886 0.141024
0.750164 0.298161 0.140551
0.74934 0.295293 0.13962
0.748837 0.292668 0.139071
0.74844 0.28835 0.137896
0.747906 0.282887 0.136767
0.748379 0.288151 0.137743
0.749432 0.29601 0.139727
0.158282 0.544503 0.170382
0.157351 0.544396 0.169253
0.156176 0.543908 0.167819
0.155627 0.543908 0.166384
0.15494 0.542992 0.163729
0.154437 0.541375 0.161105
0.154116 0.540627 0.160922
0.153429 0.539193 0.160296
0.152865 0.537377 0.159655
0.150561 0.530602 0.157321
0.155749 0.528679 0.15642
0.172946 0.522072 0.153994
0.211429 0.521813 0.153918
0.285374 0.5084 0.155428
0.40354 0.498421 0.142794
0.489662 0.507118 0.133639
0.576059 0.520394 0.141665
0.621836 0.532235 0.149508
0.675303 0.548333 0.157244
0.724849 0.552102 0.167376
0.755566 0.518242 0.179919
0.768994 0.475883 0.184344
0.767865 0.461631 0.18613
0.766827 0.45568 0.18613
0.765896 0.450294 0.185977
0.765179 0.44686 0.18558
0.764126 0.44271 0.185153
0.763882 0.438849 0.185428
0.762753 0.433936 0.184131
0.762417 0.427771 0.181811
0.76173 0.418982 0.178408
0.761471 0.408118 0.174533
0.761593 0.401343 0.171893
0.182391 0.61004 0.195377
0.181994 0.610391 0.193896
0.181079 0.61001 0.191943
0.180102 0.609323 0.189822
0.179477 0.608637 0.187472
0.178668 0.607217 0.183993
0.177981 0.605829 0.18262
0.177951 0.605356 0.182666
0.177417 0.603586 0.182422
0.175296 0.598291 0.180453
0.174701 0.593957 0.178882
0.183993 0.590188 0.176425
0.215412 0.582025 0.170642
0.272084 0.578759 0.169848
0.354009 0.561425 0.172152
0.469108 0.555779 0.149447
0.550393 0.570626 0.14934
0.633677 0.583856 0.157427
0.681239 0.59707 0.167926
0.726436 0.61207 0.17615
0.766018 0.628595 0.186358
0.7879 0.615061 0.194553
0.792905 0.600839 0.198001
0.792798 0.596521 0.198306
0.792462 0.594705 0.19823
0.791897 0.590326 0.198016
0.790494 0.585977 0.196628
0.790509 0.58233 0.196612
0.789303 0.57789 0.195438
0.789319 0.5738 0.195636
0.787945 0.565179 0.194827
0.785473 0.55198 0.193561
0.782238 0.533135 0.191485
0.211719 0.683085 0.224903
0.210864 0.683009 0.223178
0.209537 0.682536 0.220432
0.208453 0.682033 0.218082
0.207813 0.681331 0.215152
0.207401 0.680522 0.211994
0.206989 0.67953 0.211063
0.206668 0.678401 0.210697
0.20531 0.676493 0.209689
0.204486 0.674311 0.208621
0.201541 0.665446 0.204898
0.204639 0.664363 0.204242
0.22417 0.656184 0.197635
0.272511 0.64831 0.190387
0.34258 0.642878 0.192309
0.429572 0.618479 0.193668
0.541604 0.619715 0.158618
0.614527 0.640345 0.16585
0.689769 0.651713 0.179126
0.737514 0.666697 0.194705
0.768429 0.678141 0.202884
0.792493 0.686946 0.210285
0.803372 0.690639 0.214389
0.804578 0.689128 0.21413
0.804181 0.687297 0.212863
0.804578 0.685222 0.212192
0.803983 0.682246 0.210605
0.803433 0.67863 0.209506
0.803296 0.676555 0.20885
0.803006 0.672175 0.206958
0.803006 0.667948 0.204425
0.801862 0.660594 0.20174
0.801343 0.650477 0.198886
0.247929 0.748302 0.256992
0.246921 0.748333 0.254841
0.24596 0.748486 0.2533
0.245274 0.748486 0.251484
0.244938 0.74847 0.248463
0.244221 0.747646 0.245792
0.243366 0.747158 0.245747
0.242252 0.745769 0.2448
0.241825 0.745007 0.244312
0.241138 0.743587 0.243534
0.239002 0.739727 0.241245
0.234989 0.732006 0.236179
0.248127 0.730495 0.233845
0.280735 0.718059 0.220996
0.351904 0.712673 0.219821
0.428473 0.70103 0.223987
0.516945 0.677882 0.225711
0.616312 0.686061 0.177356
0.677928 0.708507 0.189563
0.738766 0.717159 0.210773
0.777325 0.727855 0.229953
0.794568 0.733364 0.238514
0.80473 0.735409 0.239384
0.805844 0.734112 0.238911
0.805844 0.732601 0.23798
0.805737 0.731624 0.237003
0.805829 0.730083 0.236393
0.806104 0.728923 0.235981
0.805859 0.726848 0.233936
0.805737 0.724636 0.232456
0.805951 0.721752 0.230808
0.805478 0.717189 0.227695
0.805859 0.71107 0.224399
0.274739 0.7888 0.281453
0.274495 0.7888 0.279774
0.274067 0.78912 0.27776
0.27364 0.789364 0.275517
0.273198 0.789364 0.273808
0.272755 0.789456 0.273457
0.272404 0.789349 0.273289
0.272267 0.789303 0.273198
0.271748 0.788907 0.272648
0.270939 0.788373 0.271717
0.2692 0.786343 0.270176
0.267643 0.783108 0.268132
0.273014 0.779355 0.264775
0.301122 0.773358 0.257557
0.361547 0.759762 0.246921
0.442664 0.751156 0.252018
0.51603 0.737469 0.257862
0.593668 0.727779 0.239582
0.681483 0.739116 0.207294
0.731014 0.757122 0.230396
0.773434 0.761913 0.24802
0.799527 0.768017 0.258518
0.80621 0.77023 0.260777
0.806531 0.769299 0.259693
0.806745 0.768078 0.259495
0.806149 0.767117 0.258869
0.806348 0.766079 0.25864
0.806378 0.76524 0.257969
0.806378 0.763546 0.257115
0.80618 0.761669 0.256321
0.806195 0.759228 0.254948
0.80618 0.756222 0.253773
0.805554 0.750927 0.25153
0.280446 0.797269 0.28574
0.280232 0.797391 0.283742
0.279759 0.797711 0.282032
0.279133 0.797986 0.28069
0.278767 0.79826 0.278187
0.278401 0.798566 0.278859
0.278264 0.798688 0.278889
0.278218 0.798733 0.278889
0.278202 0.798749 0.278889
0.278218 0.798733 0.278889
0.278248 0.798703 0.278874
0.278294 0.798642 0.278859
0.282414 0.797589 0.277317
0.30631 0.792386 0.271443
0.360769 0.783078 0.262257
0.446204 0.76965 0.263645
0.519097 0.762112 0.272572
0.587182 0.755734 0.282582
0.6645 0.763363 0.251209
0.731472 0.774151 0.244327
0.762341 0.783352 0.26978
0.792981 0.787335 0.278767
0.805737 0.790295 0.280369
0.806378 0.790555 0.279438
0.806439 0.790234 0.279011
0.806516 0.789899 0.279072
0.806653 0.789395 0.278859
0.806699 0.7888 0.277958
0.806455 0.788098 0.276173
0.806714 0.787137 0.274708
0.806958 0.786374 0.273228
0.807065 0.784802 0.269764
0.807294 0.781415 0.266453
0.280797 0.797024 0.288243
0.280797 0.796918 0.286198
0.280674 0.79704 0.283818
0.280324 0.797238 0.281453
0.279973 0.797467 0.279301
0.279667 0.797696 0.278019
0.279393 0.797848 0.278599
0.279316 0.797879 0.278599
0.279332 0.797864 0.278614
0.279332 0.797864 0.278599
0.279362 0.797864 0.278584
0.279438 0.797818 0.278569
0.282475 0.797024 0.277623
0.303731 0.792004 0.271992
0.354803 0.782986 0.261845
0.440482 0.770092 0.263127
0.516716 0.762432 0.271809
0.58439 0.759716 0.287572
0.652049 0.770291 0.269322
0.724056 0.783795 0.258549
0.764462 0.791867 0.280262
0.78204 0.792401 0.300221
0.800443 0.794247 0.307286
0.801328 0.794018 0.310262
0.801083 0.793744 0.312779
0.801251 0.793866 0.311818
0.80148 0.794141 0.309728
0.801633 0.794354 0.308659
0.801968 0.794614 0.306447
0.80264 0.795071 0.303777
0.803479 0.795453 0.300938
0.804166 0.7953 0.296345
0.804822 0.793667 0.292042
0.280537 0.798093 0.297017
0.280461 0.797742 0.29427
0.280278 0.797848 0.291218
0.280064 0.797909 0.287602
0.279683 0.797925 0.283619
0.279393 0.797787 0.280461
0.279332 0.797864 0.278599
0.279271 0.797909 0.278614
0.279286 0.797894 0.278614
0.279316 0.797894 0.278614
0.279316 0.797879 0.278599
0.279377 0.797848 0.278599
0.281376 0.797345 0.277943
0.300893 0.792874 0.272892
0.349996 0.783886 0.262058
0.428992 0.771847 0.262654
0.498924 0.763378 0.268879
0.562112 0.760235 0.281041
0.634501 0.767926 0.269154
0.719585 0.78703 0.237369
0.770367 0.795773 0.271122
0.786679 0.792691 0.304631
0.793011 0.790906 0.329397
0.794064 0.78938 0.34728
0.793271 0.788388 0.358495
0.793057 0.788235 0.360403
0.793378 0.788434 0.358297
0.793652 0.788617 0.356085
0.793942 0.788922 0.353017
0.794232 0.789258 0.350118
0.794781 0.789776 0.344793
0.795575 0.790494 0.338582
0.797375 0.791409 0.33048
0.280537 0.799725 0.308354
0.280354 0.799298 0.304143
0.280064 0.799191 0.300298
0.279591 0.798871 0.294865
0.279377 0.798657 0.289296
0.279332 0.798367 0.284138
0.279133 0.797971 0.280293
0.27921 0.797955 0.27863
0.27921 0.797955 0.27863
0.279255 0.797925 0.27863
0.279271 0.797909 0.278614
0.279301 0.797894 0.27863
0.280247 0.79765 0.278294
0.295583 0.794018 0.274128
0.341009 0.785672 0.26389
0.415702 0.773739 0.261769
0.491295 0.764736 0.267918
0.561563 0.760388 0.280995
0.630426 0.767376 0.270497
0.713909 0.785962 0.238437
0.766369 0.796475 0.267308
0.78526 0.79144 0.313115
0.792172 0.789761 0.339513
0.790707 0.787106 0.371923
0.789014 0.786526 0.386999
0.788312 0.78616 0.394583
0.78819 0.786114 0.395758
0.788205 0.78613 0.39527
0.788281 0.786206 0.39382
0.788388 0.786282 0.391974
0.788693 0.78648 0.388586
0.789364 0.786664 0.384298
0.790524 0.787015 0.376135
0.279789 0.801816 0.319295
0.280003 0.80148 0.315312
0.279789 0.800992 0.309773
0.279362 0.800336 0.303426
0.279118 0.799741 0.296223
0.279011 0.798993 0.288777
0.279118 0.798428 0.282353
0.279072 0.798016 0.27866
0.279164 0.797971 0.278645
0.279179 0.797971 0.278645
0.27921 0.797955 0.27863
0.27921 0.79794 0.27863
0.27921 0.797955 0.27863
0.291691 0.794965 0.274846
0.333303 0.787015 0.265446
0.40679 0.774853 0.261128
0.482307 0.765942 0.266972
0.552819 0.76083 0.279423
0.620706 0.765347 0.273869
0.704128 0.783429 0.24065
0.759854 0.7953 0.259815
0.78291 0.791516 0.30927
0.79176 0.790173 0.336034
0.791821 0.787823 0.365835
0.789303 0.786664 0.385977
0.78819 0.78616 0.396506
0.787762 0.786007 0.399451
0.787717 0.786007 0.399466
0.787671 0.786023 0.399466
0.78761 0.786038 0.399451
0.787579 0.786038 0.399435
0.787549 0.786038 0.399451
0.787564 0.786023 0.399451
0.277852 0.803922 0.329122
0.278447 0.803326 0.324392
0.278584 0.802625 0.318685
0.279026 0.802167 0.31223
0.278767 0.801022 0.303456
0.278752 0.799863 0.294652
0.278752 0.798962 0.28658
0.278843 0.798184 0.279377
0.278904 0.798138 0.278676
0.278935 0.798123 0.278676
0.278981 0.798093 0.27866
0.279011 0.798077 0.27866
0.279011 0.798077 0.27866
0.288334 0.795804 0.275685
0.325795 0.788388 0.266957
0.396414 0.776135 0.2607
0.472679 0.766812 0.266148
0.543557 0.761471 0.277516
0.611414 0.764141 0.278172
0.692332 0.781109 0.245258
0.753628 0.794186 0.253483
0.780102 0.791638 0.305409
0.791165 0.790524 0.330724
0.792294 0.788403 0.358541
0.790173 0.786908 0.381018
0.788312 0.786267 0.395224
0.787869 0.786053 0.399298
0.787808 0.786053 0.399298
0.787762 0.786068 0.399283
0.787717 0.786084 0.399268
0.787686 0.786084 0.399268
0.787671 0.786084 0.399268
0.787701 0.786068 0.399283
0.277501 0.805875 0.337026
0.277394 0.804944 0.331975
0.27776 0.803952 0.326375
0.278126 0.803021 0.319265
0.278706 0.80238 0.310582
0.278355 0.800885 0.300359
0.278569 0.799634 0.289891
0.278767 0.798657 0.281697
0.278767 0.798245 0.278843
0.278813 0.798215 0.278721
0.278874 0.798169 0.278706
0.278889 0.798154 0.278691
0.278904 0.798154 0.278706
0.285069 0.796628 0.276768
0.319631 0.789685 0.268406
0.388708 0.777691 0.260929
0.462913 0.767971 0.265705
0.533776 0.761807 0.275196
0.601999 0.762722 0.281483
0.678416 0.778225 0.250675
0.746807 0.793118 0.247135
0.777295 0.791852 0.301228
0.790539 0.790829 0.326619
0.792126 0.788724 0.352407
0.790494 0.78703 0.377111
0.788449 0.786343 0.393133
0.787854 0.786038 0.399298
