bundles/resolve-cinematic-luts/Phantom Luts/Canon Film LUT/ATOMOS Monitoring LUTs/C-Log 2/Vision Canon CL2 AML.cube
TITLE "Generated by Resolve"
LUT_3D_SIZE 9
0.0849622 0.0863661 0.0849622
0.0920729 0.0882124 0.0850538
0.165484 0.0925154 0.0827039
0.340963 0.0900587 0.0856794
0.540185 0.0871138 0.128359
0.696757 0.11812 0.264103
0.698421 0.123552 0.294209
0.698619 0.124239 0.30045
0.702861 0.121492 0.290913
0.0846723 0.10605 0.0860914
0.0895552 0.103487 0.0854353
0.175708 0.0965438 0.082826
0.340887 0.0957504 0.0833295
0.533455 0.0849012 0.105867
0.69308 0.112779 0.230396
0.697169 0.117174 0.25597
0.69778 0.118166 0.265232
0.700572 0.11368 0.246326
0.0874342 0.197467 0.102403
0.0882582 0.1897 0.0988022
0.149889 0.187549 0.0883803
0.356924 0.118883 0.0826734
0.556207 0.10808 0.0997635
0.6757 0.102129 0.156039
0.677546 0.102907 0.161135
0.679637 0.103365 0.163195
0.67805 0.100572 0.1514
0.114931 0.411933 0.156725
0.11342 0.409033 0.149722
0.115053 0.398291 0.146395
0.358724 0.396429 0.100587
0.57731 0.299107 0.12398
0.71928 0.181765 0.116274
0.728908 0.171756 0.126665
0.724895 0.167346 0.123262
0.718944 0.168521 0.11249
0.180835 0.642466 0.276707
0.176898 0.640131 0.261006
0.175479 0.635966 0.254582
0.235767 0.628717 0.246952
0.594049 0.629374 0.139574
0.768063 0.61709 0.155673
0.779431 0.563165 0.195804
0.775708 0.547799 0.193027
0.76524 0.506477 0.184695
0.246677 0.779446 0.354238
0.24361 0.779202 0.344244
0.243153 0.7794 0.344045
0.250126 0.778546 0.343771
0.466239 0.784634 0.360922
0.760708 0.784512 0.219272
0.807019 0.779049 0.188846
0.807401 0.776181 0.181567
0.80824 0.768338 0.162173
0.251911 0.782071 0.389746
0.247028 0.780316 0.366522
0.243915 0.77908 0.344381
0.243931 0.77908 0.344396
0.44123 0.786908 0.358251
0.741176 0.801511 0.252827
0.796216 0.805844 0.406088
0.797162 0.807157 0.42443
0.797208 0.807157 0.424033
0.254734 0.784924 0.414481
0.252277 0.782269 0.391043
0.245197 0.778637 0.345495
0.245228 0.778531 0.344732
0.41471 0.785428 0.352422
0.685908 0.799878 0.264942
0.793622 0.804181 0.381491
0.796902 0.807019 0.426459
0.797147 0.807141 0.424491
0.255528 0.787472 0.427314
0.252674 0.784146 0.405219
0.246662 0.780026 0.361059
0.244938 0.778653 0.344594
0.344656 0.782376 0.34374
0.560052 0.795727 0.333333
0.786694 0.802243 0.323339
0.797131 0.807126 0.424704
0.797345 0.807233 0.423056
0.0850233 0.0881666 0.0915541
0.0965744 0.0896162 0.0949111
0.192355 0.0868849 0.101015
0.375326 0.0831922 0.109255
0.576761 0.094316 0.178271
0.701427 0.122637 0.294774
0.701366 0.125917 0.314366
0.70219 0.126894 0.318746
0.703838 0.12282 0.3028
0.0851148 0.101534 0.0908522
0.0904555 0.100389 0.0924392
0.183719 0.0946059 0.0864424
0.353124 0.0836957 0.0871748
0.547982 0.0875105 0.135302
0.69955 0.117159 0.263828
0.70103 0.120302 0.282841
0.701915 0.120394 0.284092
0.70312 0.115908 0.260853
0.0873426 0.19295 0.113695
0.0881514 0.185657 0.102998
0.145724 0.180697 0.0890516
0.359335 0.10753 0.0816663
0.544335 0.100816 0.09897
0.68014 0.103182 0.165667
0.68748 0.10663 0.185443
0.684367 0.105119 0.177279
0.681712 0.101884 0.160067
0.115068 0.407553 0.169558
0.112749 0.402274 0.154742
0.109743 0.391394 0.143999
0.35259 0.390661 0.100053
0.576288 0.278737 0.123262
0.720516 0.175113 0.115358
0.728832 0.166552 0.128206
0.722942 0.163577 0.121263
0.720409 0.16791 0.112947
0.180423 0.639551 0.294331
0.176287 0.635782 0.274296
0.173754 0.630259 0.252338
0.221546 0.624918 0.246036
0.589868 0.625132 0.137972
0.767391 0.611444 0.159274
0.776043 0.548043 0.193469
0.771725 0.529961 0.188693
0.760403 0.488579 0.180499
0.248859 0.780529 0.374517
0.245762 0.780102 0.355718
0.243153 0.7794 0.344045
0.245396 0.777569 0.343267
0.458351 0.783978 0.359014
0.759167 0.783658 0.214618
0.807218 0.776806 0.181155
0.807965 0.773663 0.173556
0.808804 0.765133 0.157
0.254536 0.784634 0.412802
0.251316 0.782376 0.389792
0.243946 0.779095 0.344579
0.243977 0.779049 0.344411
0.431571 0.786282 0.355871
0.731487 0.800778 0.252476
0.795804 0.805753 0.402991
0.797162 0.807141 0.424353
0.797208 0.807157 0.423896
0.25832 0.788602 0.442206
0.255009 0.784894 0.414649
0.246967 0.779706 0.358434
0.245243 0.778531 0.344747
0.404822 0.784848 0.350988
0.666392 0.799756 0.270283
0.792798 0.804028 0.376608
0.796918 0.807019 0.426474
0.797162 0.807157 0.424384
0.259068 0.790433 0.451118
0.256336 0.787457 0.427893
0.249622 0.781399 0.38056
0.244938 0.778637 0.344594
0.326299 0.782025 0.343435
0.548486 0.794736 0.343038
0.785672 0.801602 0.317906
0.797116 0.807126 0.424704
0.797345 0.807233 0.423056
0.0873579 0.0937667 0.166735
0.100755 0.0924239 0.173251
0.181872 0.0896315 0.161746
0.366201 0.0885176 0.196689
0.577493 0.106188 0.263645
0.701366 0.133379 0.349935
0.700465 0.137041 0.365026
0.700648 0.137224 0.366552
0.704005 0.133364 0.353796
0.0843061 0.0986648 0.148608
0.0877241 0.0940414 0.162722
0.166888 0.0900587 0.151202
0.358755 0.0864271 0.168139
0.575738 0.100298 0.230365
0.702022 0.129595 0.331212
0.701106 0.132311 0.344427
0.701534 0.13228 0.345068
0.704692 0.128023 0.329549
0.0826581 0.178286 0.160754
0.0830854 0.174014 0.157626
0.170855 0.184695 0.171466
0.409339 0.106752 0.122988
0.553185 0.0892653 0.146731
0.699001 0.117693 0.26537
0.700511 0.119829 0.279789
0.699977 0.118242 0.271427
0.697581 0.111727 0.231937
0.110536 0.401328 0.221744
0.110552 0.395468 0.201541
0.108156 0.378347 0.151064
0.340078 0.374685 0.0986801
0.572717 0.230076 0.118212
0.73666 0.163104 0.137575
0.725567 0.151553 0.133135
0.726879 0.152544 0.12961
0.732219 0.165606 0.128466
0.176959 0.633066 0.336309
0.174975 0.628748 0.317266
0.171283 0.619043 0.270665
0.185122 0.613581 0.243595
0.582681 0.615625 0.134463
0.764111 0.585382 0.170794
0.765911 0.51104 0.18471
0.760159 0.489708 0.180667
0.754177 0.466468 0.175372
0.257008 0.786191 0.430137
0.25275 0.783642 0.41001
0.24567 0.779644 0.361639
0.241199 0.776608 0.342504
0.441367 0.782025 0.354665
0.755322 0.780758 0.206851
0.807904 0.772168 0.168902
0.808576 0.767926 0.162188
0.808865 0.757641 0.148287
0.266682 0.795178 0.486305
0.259998 0.791196 0.456199
0.251499 0.782712 0.391119
0.243977 0.779049 0.344411
0.408865 0.78558 0.351431
0.705928 0.799588 0.256855
0.795224 0.805142 0.395651
0.797147 0.807126 0.424292
0.797192 0.807126 0.423575
0.273869 0.80058 0.516808
0.26656 0.795804 0.487968
0.255406 0.785199 0.417151
0.245243 0.778531 0.344762
0.372168 0.783642 0.345068
0.634211 0.800443 0.279347
0.790936 0.803311 0.364523
0.796902 0.807019 0.42649
0.797162 0.807157 0.424384
0.271641 0.799985 0.511391
0.266255 0.795926 0.487739
0.257038 0.787594 0.430442
0.244999 0.778622 0.34461
0.289998 0.780316 0.344503
0.530739 0.792416 0.355871
0.783093 0.800916 0.308446
0.797116 0.807095 0.424323
0.79736 0.807233 0.422904
0.0944076 0.102251 0.331289
0.113741 0.101381 0.341207
0.190692 0.0961776 0.326253
0.356191 0.0873426 0.310765
0.575662 0.109911 0.395224
0.704601 0.139895 0.468086
0.703883 0.140475 0.463813
0.703105 0.141421 0.45565
0.703502 0.14284 0.439445
0.0901656 0.103944 0.307912
0.0941176 0.101457 0.325734
0.165927 0.0960403 0.328237
0.346654 0.0869001 0.302403
0.568734 0.109407 0.381796
0.702525 0.141741 0.452613
0.70132 0.142718 0.44477
0.701854 0.142763 0.443534
0.70251 0.144274 0.426505
0.0883497 0.168292 0.327688
0.0893873 0.158373 0.331853
0.126467 0.13753 0.366308
0.329229 0.0899062 0.286534
0.549371 0.108995 0.341894
0.698497 0.146334 0.412268
0.698436 0.145907 0.415305
0.698482 0.146258 0.409934
0.701656 0.138735 0.378134
0.082475 0.373266 0.362173
0.0826123 0.369406 0.358022
0.0821851 0.356146 0.344701
0.383352 0.398123 0.373526
0.663859 0.266819 0.324498
0.737652 0.1552 0.355825
0.720394 0.137774 0.33077
0.710933 0.12694 0.305455
0.712886 0.118959 0.261875
0.155398 0.626001 0.449042
0.156481 0.622827 0.436072
0.164004 0.614557 0.402686
0.162112 0.585885 0.27454
0.567971 0.600275 0.192782
0.744945 0.512261 0.246006
0.744793 0.43859 0.245548
0.740978 0.40679 0.224994
0.739467 0.395453 0.190372
0.277729 0.800031 0.556313
0.275853 0.79913 0.542672
0.263828 0.790265 0.498253
0.241794 0.772793 0.372641
0.384298 0.778241 0.341863
0.746502 0.774563 0.194659
0.809094 0.75967 0.151522
0.809125 0.752667 0.142382
0.809339 0.738613 0.126909
0.267811 0.813535 0.609277
0.273136 0.811551 0.592264
0.281529 0.806683 0.548531
0.252338 0.783413 0.397101
0.320165 0.782162 0.343069
0.634623 0.800671 0.279637
0.793454 0.804059 0.375387
0.797436 0.805631 0.405798
0.798276 0.80383 0.379019
0.261753 0.815381 0.627039
0.266987 0.814084 0.609796
0.281926 0.808865 0.568139
0.256245 0.786526 0.424475
0.272358 0.779843 0.34548
0.564935 0.796048 0.330083
0.787335 0.802426 0.33286
0.796902 0.807034 0.426657
0.797177 0.807157 0.424536
0.266957 0.814115 0.609705
0.272709 0.811749 0.593423
0.282918 0.807752 0.558175
0.257893 0.788067 0.437201
0.246616 0.778805 0.3449
0.498985 0.78912 0.370443
0.777111 0.80061 0.286458
0.797024 0.806546 0.41825
0.797345 0.807233 0.423117
0.115389 0.129778 0.498772
0.138338 0.126802 0.504875
0.211292 0.108156 0.502068
0.386694 0.112535 0.484321
0.580209 0.125154 0.525139
0.725475 0.152346 0.617151
0.722423 0.145754 0.631586
0.724086 0.147951 0.628275
0.726085 0.162737 0.581094
0.102281 0.129381 0.481666
0.115282 0.129488 0.496971
0.184863 0.116823 0.503624
0.371969 0.109773 0.48101
0.57322 0.123308 0.518715
0.725628 0.154528 0.611246
0.724346 0.148562 0.626902
0.725902 0.15317 0.61651
0.720027 0.150332 0.554238
0.103944 0.152163 0.481285
0.10312 0.142046 0.476127
0.117128 0.126711 0.489693
0.323873 0.106294 0.473289
0.550072 0.117998 0.49691
0.726299 0.169009 0.591897
0.725994 0.163027 0.601923
0.721218 0.159762 0.571481
0.710842 0.134676 0.51519
0.0862287 0.384421 0.578683
0.0894789 0.376928 0.581796
0.100114 0.35433 0.589288
0.292699 0.301106 0.623926
0.578424 0.176928 0.523156
0.709316 0.137224 0.519219
0.70602 0.133471 0.501625
0.707103 0.137041 0.487144
0.705318 0.14081 0.460899
0.0892653 0.597772 0.609277
0.0882582 0.594232 0.605737
0.0877089 0.586038 0.597299
0.0876936 0.568139 0.579644
0.598489 0.612528 0.59321
0.816602 0.524605 0.568109
0.82359 0.472465 0.557244
0.822187 0.452064 0.531487
0.819455 0.419806 0.466728
0.161379 0.803891 0.699916
0.165011 0.80235 0.691234
0.180652 0.797436 0.669993
0.225864 0.784268 0.615366
0.358282 0.76199 0.505272
0.728328 0.776074 0.467628
0.809445 0.739696 0.456611
0.807385 0.725246 0.460883
0.801297 0.697841 0.415
0.148409 0.833921 0.762539
0.150729 0.833478 0.750423
0.174548 0.830793 0.724498
0.249714 0.819715 0.657343
0.252277 0.784024 0.402426
0.531258 0.792905 0.354696
0.789609 0.802808 0.346716
0.798016 0.803098 0.383062
0.800107 0.798245 0.324437
0.14168 0.835142 0.774411
0.147082 0.834241 0.760647
0.165362 0.831968 0.734249
0.239322 0.821714 0.665995
0.257237 0.788205 0.435416
0.476951 0.788602 0.365499
0.778958 0.80061 0.294118
0.797101 0.80734 0.427176
0.797131 0.807355 0.42681
0.154421 0.832914 0.746349
0.168734 0.831434 0.730938
0.19498 0.828367 0.704585
0.257786 0.817563 0.643183
0.259449 0.790494 0.452796
0.410132 0.785824 0.351324
0.73489 0.801099 0.255238
0.795254 0.805402 0.396979
0.797208 0.807294 0.425315
0.150332 0.191333 0.675837
0.17705 0.190585 0.685466
0.269917 0.173281 0.683757
0.437095 0.152636 0.676326
0.621958 0.174105 0.678614
0.72665 0.159976 0.701015
0.729763 0.163119 0.712459
0.730648 0.163882 0.714702
0.730587 0.163897 0.714626
0.133013 0.188907 0.660288
0.150256 0.190066 0.672938
0.234836 0.178424 0.683589
0.420447 0.151064 0.674464
0.614237 0.171786 0.675471
0.725689 0.158785 0.698558
0.729244 0.162753 0.710964
0.730343 0.163638 0.714031
0.729503 0.162829 0.71191
0.134737 0.205646 0.6589
0.130709 0.190051 0.646265
0.147555 0.183062 0.659007
0.365087 0.146944 0.668391
0.590585 0.16669 0.665553
0.723598 0.156252 0.68896
0.727306 0.160754 0.703456
0.728985 0.162661 0.708934
0.724361 0.156573 0.692271
0.147036 0.369268 0.738766
0.146761 0.356451 0.737072
0.146609 0.320851 0.730129
0.217182 0.248585 0.729503
0.534844 0.159945 0.654902
0.712184 0.157046 0.66334
0.72221 0.159075 0.674846
0.722179 0.158251 0.679515
0.724254 0.151324 0.652064
0.0837262 0.604303 0.766018
0.0840009 0.600961 0.766415
0.0837873 0.592966 0.768246
0.0940871 0.571969 0.777264
0.543908 0.539895 0.799573
0.759747 0.429725 0.720378
0.786496 0.362081 0.712459
0.779461 0.335454 0.689738
0.765209 0.26743 0.634043
0.124376 0.789105 0.814221
0.122133 0.786938 0.810956
0.121004 0.78114 0.804593
0.116579 0.768338 0.791775
0.242512 0.755337 0.767254
0.756115 0.774624 0.760433
0.85832 0.729671 0.747127
0.859449 0.709972 0.734142
0.861601 0.682506 0.69131
0.123461 0.844144 0.857771
0.111101 0.844297 0.852979
0.104295 0.843336 0.844022
0.103685 0.840909 0.824765
0.145937 0.83241 0.763088
0.671702 0.82797 0.721431
0.802899 0.853513 0.73666
0.835279 0.848219 0.730434
0.833814 0.833036 0.700374
0.141085 0.8439 0.864256
0.125826 0.844053 0.858549
0.107866 0.843915 0.849409
0.103563 0.841337 0.828183
0.146593 0.834485 0.762753
0.526436 0.815549 0.6486
0.74519 0.83595 0.632654
0.825956 0.864515 0.731548
0.822858 0.859815 0.714687
0.108705 0.843976 0.850813
0.104295 0.843259 0.8439
0.103273 0.841886 0.833799
0.108873 0.840146 0.812238
0.154299 0.833234 0.745464
0.29836 0.806455 0.551553
0.66775 0.815137 0.514199
0.80383 0.836225 0.612436
0.816114 0.849912 0.672541
0.163638 0.228305 0.7393
0.192676 0.22742 0.747509
0.288289 0.209934 0.749187
0.462211 0.170718 0.727031
0.646174 0.186496 0.715648
0.730678 0.163867 0.714763
0.730678 0.163867 0.714763
0.730663 0.163882 0.714733
0.730617 0.163897 0.714672
0.147555 0.226856 0.727352
0.163363 0.228305 0.739178
0.249592 0.218662 0.751568
0.443961 0.170581 0.728908
0.638895 0.185351 0.715831
0.730663 0.163867 0.714763
0.730663 0.163867 0.714763
0.730678 0.163867 0.714763
0.730678 0.163867 0.714763
0.146822 0.233021 0.720928
0.14551 0.225711 0.714565
0.162112 0.228397 0.738842
0.388205 0.171786 0.736171
0.613108 0.179721 0.714122
0.730663 0.163867 0.714763
0.730678 0.163867 0.714763
0.730678 0.163867 0.714763
0.730663 0.163882 0.714733
0.162615 0.354055 0.794461
0.162219 0.341283 0.790875
0.157549 0.301717 0.772076
0.182437 0.237247 0.751156
0.538918 0.168399 0.716884
0.721614 0.165209 0.714504
0.730709 0.163897 0.714824
0.730709 0.163897 0.714824
0.730709 0.163897 0.714824
0.10399 0.615351 0.837201
0.106874 0.610407 0.837308
0.114534 0.60029 0.839872
0.135668 0.571939 0.847257
0.487037 0.524529 0.853819
0.735653 0.398032 0.773251
0.77145 0.303334 0.757214
0.767285 0.275547 0.751873
0.761105 0.229221 0.740734
0.116686 0.78555 0.86685
0.114641 0.781903 0.865248
0.109758 0.775738 0.863951
0.10013 0.762341 0.86125
0.112078 0.746014 0.862333
0.721996 0.740414 0.868482
0.843488 0.682124 0.8262
0.848066 0.656611 0.81976
0.842054 0.621134 0.798321
0.180957 0.841749 0.884703
0.179217 0.841627 0.884108
0.1776 0.840665 0.882994
0.171817 0.837537 0.878386
0.157092 0.830869 0.868406
0.617197 0.833906 0.83125
0.829633 0.860746 0.843885
0.857588 0.849165 0.839307
0.856184 0.832364 0.824613
0.181399 0.841978 0.886229
0.181109 0.842054 0.886244
0.180362 0.842252 0.885054
0.178119 0.842878 0.880629
0.143725 0.844236 0.86595
0.255131 0.843976 0.827893
0.815824 0.882124 0.841169
0.866361 0.892302 0.872831
0.86746 0.891508 0.871748
0.180545 0.842191 0.885466
0.180026 0.842268 0.884489
0.178943 0.842634 0.882139
0.171359 0.843366 0.877501
0.124681 0.844221 0.858412
0.113832 0.839704 0.809033
0.75903 0.864393 0.796674
0.842145 0.883711 0.830869
0.866682 0.893812 0.877058
0.177401 0.227817 0.743633
0.208942 0.224857 0.749172
0.304707 0.205768 0.747814
0.471138 0.170169 0.725643
0.653437 0.187671 0.715694
0.730663 0.163867 0.714748
0.730678 0.163867 0.714763
0.730678 0.163867 0.714763
0.730678 0.163867 0.714763
0.153857 0.227909 0.733776
0.176806 0.227802 0.743389
0.267689 0.215137 0.750744
0.45417 0.170718 0.727794
0.645594 0.186328 0.715557
0.730678 0.163867 0.714763
0.730678 0.163867 0.714763
0.730678 0.163867 0.714763
0.730678 0.163867 0.714763
0.145388 0.228107 0.716548
0.145525 0.226017 0.715251
0.174823 0.227909 0.742824
0.398001 0.171115 0.734127
0.619745 0.181842 0.714931
0.730678 0.163867 0.714763
0.730678 0.163867 0.714763
0.730678 0.163867 0.714763
0.730678 0.163867 0.714763
0.163592 0.343801 0.797086
0.161868 0.32845 0.789349
0.155764 0.283711 0.762783
0.190646 0.227512 0.747082
0.541466 0.167636 0.715496
0.72256 0.165026 0.714473
0.730724 0.163897 0.714824
0.730709 0.163897 0.714824
0.730694 0.163897 0.714824
0.114687 0.616541 0.85832
0.118379 0.610742 0.858167
0.126635 0.596597 0.857023
0.147936 0.557565 0.851514
0.471443 0.494453 0.84892
0.723949 0.364569 0.766506
0.76556 0.262303 0.750774
0.761563 0.232792 0.745693
0.752163 0.192233 0.734401
0.120455 0.790524 0.880598
0.115465 0.787152 0.879164
0.108827 0.780697 0.878325
0.0982528 0.767025 0.876112
0.10132 0.742229 0.872648
0.700038 0.728527 0.884382
0.83125 0.657191 0.841566
0.836378 0.622583 0.831891
0.828351 0.584894 0.821363
0.181094 0.842008 0.886244
0.180819 0.841611 0.886229
0.179583 0.840177 0.886381
0.175128 0.836515 0.886122
0.165621 0.827832 0.885847
0.556817 0.825223 0.866621
0.80911 0.846815 0.877531
0.855344 0.825925 0.867582
0.854322 0.806363 0.863386
0.181109 0.842054 0.886244
0.181109 0.842054 0.886244
0.181109 0.842054 0.886244
0.181109 0.842054 0.886244
0.181109 0.842054 0.886244
0.181109 0.842054 0.886244
0.791745 0.880919 0.86598
0.862013 0.89279 0.878874
0.863905 0.891005 0.877821
0.181109 0.842054 0.886244
0.181109 0.842054 0.886244
0.181109 0.842054 0.886244
0.181109 0.842054 0.886244
0.181064 0.842069 0.886198
0.178668 0.842878 0.881086
0.701778 0.865888 0.846006
0.860777 0.89514 0.878721
0.865324 0.896071 0.881514
0.186938 0.227726 0.746136
0.218418 0.223529 0.749889
0.312734 0.203006 0.7467
0.473167 0.169955 0.7252
0.655818 0.188022 0.715953
0.730678 0.163867 0.714763
0.730678 0.163867 0.714763
0.730678 0.163867 0.714763
0.730678 0.163867 0.714763
0.15903 0.228321 0.737133
0.185885 0.227832 0.745922
0.276738 0.213031 0.750393
0.456199 0.170703 0.727565
0.646677 0.186496 0.715602
0.730678 0.163867 0.714763
0.730678 0.163867 0.714763
0.730678 0.163867 0.714763
0.730678 0.163867 0.714763
0.145449 0.227283 0.715908
0.145892 0.22594 0.717479
0.183719 0.227817 0.745296
0.401068 0.171099 0.733715
0.620523 0.18201 0.714885
0.730663 0.163867 0.714748
0.730678 0.163867 0.714763
0.730678 0.163867 0.714763
0.730678 0.163867 0.714763
0.162844 0.332967 0.792477
0.160204 0.315816 0.782818
0.154299 0.274678 0.756466
0.196811 0.227024 0.748241
0.541848 0.16762 0.715419
0.722667 0.164996 0.714458
0.730709 0.163897 0.714824
0.730709 0.163897 0.714824
0.730694 0.163897 0.714824
0.121141 0.604807 0.857267
0.125338 0.598825 0.857099
0.133211 0.583978 0.855116
0.155322 0.543343 0.849989
0.457633 0.470329 0.843442
0.714015 0.336919 0.761273
0.761517 0.228672 0.745373
0.754665 0.204425 0.737896
0.735729 0.169818 0.719768
0.1149 0.786328 0.879362
0.111543 0.782971 0.879194
0.103838 0.775341 0.878004
0.0956741 0.759945 0.874739
0.0936599 0.730129 0.871122
0.691569 0.711864 0.884794
0.825025 0.635874 0.83653
0.83154 0.596353 0.824964
0.821836 0.555398 0.813962
0.180835 0.841627 0.886229
0.180423 0.841062 0.886213
0.178332 0.839414 0.886473
0.173846 0.835157 0.886122
0.161349 0.823316 0.885786
0.533074 0.819059 0.867842
0.802472 0.836118 0.880583
0.85388 0.8094 0.866484
0.853071 0.789166 0.86392
0.181109 0.842054 0.886244
0.181109 0.842054 0.886244
0.181109 0.842054 0.886244
0.181109 0.842054 0.886244
0.181109 0.842054 0.886244
0.181003 0.841901 0.886244
0.767193 0.87454 0.870542
0.856092 0.890272 0.878584
0.860243 0.88809 0.878904
0.181109 0.842054 0.886244
0.181109 0.842054 0.886244
0.181109 0.842054 0.886244
0.181109 0.842054 0.886244
0.181109 0.842054 0.886244
0.181109 0.842054 0.886244
0.554864 0.848142 0.861921
0.859312 0.895293 0.879561
0.865324 0.896071 0.881514
