bundles/resolve-cinematic-luts/Phantom Luts/Canon Film LUT/ATOMOS Monitoring LUTs/C-Log 2/VisionTeal Canon-Legacy CL2 AML.cube
TITLE "Generated by Resolve"
LUT_3D_SIZE 9
0.0849928 0.0981155 0.0966354
0.0921645 0.0977951 0.0976883
0.156283 0.0926833 0.0923934
0.317281 0.0898909 0.0877546
0.511849 0.0848554 0.106783
0.680705 0.11014 0.219272
0.682933 0.113191 0.250492
0.683619 0.113756 0.256718
0.684779 0.112383 0.250233
0.0843061 0.110964 0.0952621
0.0906691 0.1075 0.0974441
0.159182 0.0963302 0.0923323
0.317876 0.0937057 0.0876326
0.508232 0.0887922 0.0989242
0.675624 0.10779 0.188678
0.680781 0.109773 0.211368
0.681392 0.110277 0.219348
0.679026 0.107942 0.203326
0.0825666 0.17615 0.0984054
0.085481 0.170672 0.0970321
0.145098 0.162112 0.0984054
0.338079 0.116396 0.0860761
0.531594 0.108919 0.0990921
0.653834 0.100145 0.135836
0.655955 0.100862 0.139605
0.656321 0.100801 0.138201
0.655512 0.100053 0.136706
0.10457 0.370687 0.121324
0.102235 0.368551 0.117067
0.104036 0.35613 0.114534
0.316899 0.343236 0.0984054
0.565057 0.284291 0.120485
0.722499 0.184985 0.122866
0.726452 0.172396 0.132097
0.721401 0.16878 0.12929
0.724239 0.18027 0.122469
0.182391 0.61004 0.195377
0.179477 0.608637 0.187472
0.177417 0.603586 0.182422
0.215412 0.582025 0.170642
0.550393 0.570626 0.14934
0.766018 0.628595 0.186358
0.792462 0.594705 0.19823
0.789303 0.57789 0.195438
0.782238 0.533135 0.191485
0.280446 0.797269 0.28574
0.278767 0.79826 0.278187
0.278202 0.798749 0.278889
0.282414 0.797589 0.277317
0.519097 0.762112 0.272572
0.762341 0.783352 0.26978
0.806439 0.790234 0.279011
0.806455 0.788098 0.276173
0.807294 0.781415 0.266453
0.279789 0.801816 0.319295
0.279118 0.799741 0.296223
0.279164 0.797971 0.278645
0.27921 0.797955 0.27863
0.482307 0.765942 0.266972
0.759854 0.7953 0.259815
0.789303 0.786664 0.385977
0.787671 0.786023 0.399466
0.787564 0.786023 0.399451
0.277607 0.807889 0.350362
0.278965 0.802457 0.321294
0.280797 0.796918 0.279667
0.281086 0.796674 0.278477
0.446921 0.768643 0.263584
0.731395 0.789654 0.238224
0.791074 0.787228 0.369055
0.788052 0.785977 0.399405
0.787778 0.786053 0.399298
0.275105 0.811109 0.366308
0.27718 0.806928 0.339834
0.279271 0.798886 0.291768
0.280751 0.796994 0.278553
0.359243 0.781842 0.261341
0.631006 0.767407 0.270298
0.790326 0.790005 0.333898
0.787808 0.786053 0.399298
0.787564 0.786114 0.399237
0.085069 0.0995956 0.106218
0.0948043 0.0981613 0.110948
0.166979 0.0939803 0.116197
0.348577 0.084947 0.107668
0.544106 0.0892195 0.151614
0.684062 0.113603 0.260304
0.685054 0.116228 0.280308
0.685542 0.11664 0.284413
0.685817 0.113893 0.26775
0.084535 0.107622 0.103136
0.0880598 0.106249 0.104311
0.161715 0.0949569 0.100282
0.320562 0.0851148 0.0912032
0.51191 0.085771 0.117494
0.681987 0.110475 0.228824
0.68426 0.112459 0.247105
0.684688 0.112383 0.246159
0.682872 0.109133 0.221546
0.0827192 0.172335 0.106844
0.0828107 0.168048 0.0985885
0.139559 0.157671 0.0996872
0.337667 0.107774 0.0858015
0.517647 0.101579 0.0982223
0.656641 0.101061 0.145266
0.663294 0.103014 0.157092
0.659892 0.101717 0.14876
0.657496 0.100649 0.142626
0.10222 0.366598 0.130983
0.100313 0.36231 0.121065
0.0991073 0.350881 0.113848
0.31136 0.337148 0.0984512
0.565682 0.264286 0.115877
0.722255 0.179004 0.12192
0.725078 0.166537 0.134279
0.719249 0.166064 0.12604
0.726635 0.180636 0.123644
0.179339 0.607156 0.208316
0.176349 0.603815 0.194598
0.175097 0.597269 0.18027
0.202991 0.579477 0.170703
0.545647 0.56643 0.14757
0.765515 0.623697 0.185
0.789548 0.578027 0.196277
0.786999 0.55903 0.194186
0.779889 0.512795 0.189425
0.279866 0.79971 0.303212
0.278477 0.799512 0.287953
0.278202 0.798764 0.278889
0.280491 0.798215 0.278202
0.508782 0.762829 0.270817
0.760021 0.781903 0.265171
0.807111 0.789044 0.276478
0.806867 0.786084 0.272465
0.807202 0.777417 0.263981
0.278126 0.806821 0.347768
0.278172 0.803067 0.320104
0.279057 0.798016 0.279637
0.27924 0.797925 0.27863
0.469551 0.767025 0.265843
0.754391 0.7944 0.25359
0.789609 0.78674 0.383978
0.787625 0.786023 0.399481
0.787564 0.786023 0.399451
0.27538 0.814282 0.383902
0.277516 0.808087 0.350805
0.2804 0.797681 0.288441
0.281102 0.796674 0.278462
0.43357 0.77055 0.262394
0.721294 0.787228 0.236545
0.791394 0.787594 0.365698
0.788083 0.785977 0.399374
0.787762 0.786068 0.399283
0.273793 0.816968 0.39556
0.275547 0.810712 0.366751
0.279316 0.801617 0.309773
0.280751 0.796979 0.278553
0.341711 0.784619 0.263737
0.619852 0.765011 0.274067
0.789883 0.790188 0.330404
0.787793 0.786053 0.399298
0.787564 0.786114 0.399237
0.0838941 0.10724 0.155718
0.0878767 0.106081 0.165362
0.157061 0.0947127 0.169848
0.341711 0.085069 0.181872
0.546853 0.0948501 0.231647
0.6851 0.121935 0.324819
0.684031 0.124224 0.339971
0.684016 0.124208 0.34258
0.686442 0.122545 0.332006
0.084184 0.110048 0.140276
0.0839094 0.107118 0.152941
0.145434 0.0952926 0.159899
0.331838 0.0862745 0.161944
0.54963 0.0931868 0.207538
0.685222 0.118563 0.305104
0.685313 0.120577 0.318517
0.685527 0.120516 0.318669
0.686061 0.117815 0.301045
0.0830854 0.161471 0.142596
0.0830396 0.158602 0.142184
0.142947 0.161837 0.156603
0.368353 0.100542 0.120027
0.521752 0.0865644 0.126116
0.681773 0.110262 0.224079
0.684306 0.111971 0.23743
0.68275 0.110643 0.227283
0.673671 0.105776 0.183856
0.0873884 0.36112 0.158068
0.0935683 0.355779 0.152651
0.0962387 0.338079 0.119631
0.295018 0.321813 0.0996109
0.562066 0.215137 0.111894
0.732692 0.165362 0.142901
0.719509 0.157305 0.13872
0.725429 0.160769 0.13402
0.729244 0.174517 0.133272
0.169879 0.602335 0.255329
0.168353 0.597757 0.238209
0.169329 0.585824 0.191852
0.178225 0.573281 0.170855
0.536248 0.556008 0.145373
0.764721 0.604212 0.181964
0.783597 0.538857 0.19292
0.779095 0.514015 0.189105
0.775601 0.494621 0.186725
0.277165 0.80975 0.368353
0.277165 0.808133 0.346517
0.277897 0.80061 0.293355
0.277928 0.798321 0.278553
0.486 0.764889 0.267002
0.755184 0.778195 0.258091
0.806943 0.784619 0.270024
0.807157 0.780529 0.266606
0.806638 0.76849 0.259205
0.267765 0.824781 0.433219
0.273304 0.817594 0.399832
0.277958 0.803479 0.322545
0.279255 0.797925 0.27863
0.437949 0.77084 0.263523
0.740963 0.791852 0.242679
0.790341 0.786938 0.379049
0.78761 0.785992 0.399481
0.787579 0.786007 0.399329
0.255146 0.836454 0.469627
0.266087 0.827207 0.436225
0.277562 0.808408 0.353155
0.281086 0.796689 0.278523
0.390341 0.776165 0.260502
0.697765 0.781796 0.242359
0.791562 0.788067 0.358144
0.788098 0.785992 0.399359
0.787762 0.786068 0.399283
0.256077 0.835752 0.464561
0.265629 0.82771 0.436667
0.275792 0.810941 0.369192
0.280797 0.796948 0.278569
0.311574 0.789731 0.270024
0.601419 0.761761 0.281483
0.788556 0.790738 0.323507
0.787869 0.786084 0.399008
0.787533 0.78613 0.399237
0.082948 0.128542 0.295064
0.0827955 0.126833 0.312703
0.13341 0.108263 0.331731
0.322972 0.0874647 0.32221
0.543816 0.0949569 0.394186
0.694102 0.127489 0.473671
0.692744 0.12781 0.467781
0.690745 0.127703 0.45658
0.686168 0.126741 0.436835
0.082887 0.127749 0.26714
0.0827955 0.127718 0.290044
0.118776 0.118853 0.325536
0.312734 0.088014 0.313588
0.537743 0.0946517 0.376898
0.690257 0.127657 0.455344
0.68867 0.127626 0.447501
0.687861 0.12752 0.442985
0.684825 0.129305 0.422492
0.0826276 0.168246 0.260517
0.0827039 0.163943 0.269337
0.0826429 0.149371 0.320241
0.289952 0.0904555 0.295064
0.517586 0.0940566 0.327962
0.682948 0.131807 0.408423
0.682933 0.131991 0.408347
0.683223 0.133639 0.39913
0.683955 0.126177 0.361715
0.0820172 0.340917 0.279973
0.0822461 0.336172 0.277699
0.0820172 0.32285 0.266926
0.338918 0.345983 0.322957
0.610971 0.214893 0.287404
0.724056 0.141649 0.324849
0.712306 0.12874 0.29836
0.706813 0.121813 0.266377
0.721874 0.130343 0.223606
0.13373 0.608072 0.37583
0.12752 0.604913 0.365332
0.122347 0.594049 0.324773
0.155291 0.551568 0.19556
0.519539 0.535225 0.179614
0.75378 0.520989 0.230808
0.764004 0.443336 0.232868
0.763302 0.415106 0.207843
0.764279 0.424277 0.190524
0.212696 0.847303 0.514687
0.21001 0.844099 0.497139
0.253346 0.826001 0.451286
0.272343 0.794583 0.304585
0.40444 0.771054 0.258869
0.743633 0.768093 0.243641
0.806699 0.77174 0.260914
0.806439 0.763729 0.257053
0.805676 0.748653 0.250843
0.223743 0.860914 0.577081
0.215778 0.861372 0.560006
0.212375 0.851148 0.503059
0.277317 0.804379 0.329534
0.335439 0.786435 0.264973
0.698238 0.782086 0.242664
0.791257 0.787564 0.366079
0.789044 0.786572 0.386328
0.791485 0.787472 0.368887
0.226459 0.863432 0.597864
0.219669 0.862715 0.579782
0.21117 0.857542 0.529885
0.276829 0.809476 0.362707
0.296513 0.793133 0.274205
0.635904 0.76788 0.268833
0.791409 0.789517 0.338811
0.787976 0.785977 0.399512
0.787732 0.786053 0.39939
0.219501 0.862806 0.580056
0.215671 0.86157 0.561807
0.211353 0.854566 0.516304
0.275792 0.81268 0.378607
0.281468 0.796841 0.278691
0.561456 0.760098 0.280919
0.78265 0.791424 0.309285
0.788312 0.786282 0.394659
0.787533 0.786114 0.399283
0.0822919 0.167361 0.460822
0.0823835 0.165393 0.477012
0.117647 0.159564 0.506661
0.319051 0.103532 0.509758
0.53994 0.111589 0.553292
0.722255 0.164935 0.658564
0.712764 0.161425 0.677195
0.714931 0.166384 0.671321
0.712291 0.142687 0.610636
0.0823224 0.166934 0.440345
0.0824445 0.166812 0.4589
0.0968643 0.161379 0.497444
0.301701 0.103532 0.507347
0.533165 0.109743 0.546014
0.722377 0.1664 0.650217
0.715023 0.167941 0.668833
0.723003 0.16405 0.660716
0.706203 0.133104 0.590036
0.0823224 0.178317 0.425528
0.0823224 0.171664 0.426169
0.0825513 0.164401 0.454246
0.238926 0.107103 0.500481
0.510521 0.105409 0.522225
0.711727 0.148852 0.61738
0.71722 0.159792 0.635813
0.710903 0.146288 0.611414
0.699367 0.123522 0.554604
0.0822766 0.369467 0.480751
0.0826276 0.364355 0.484398
0.0826734 0.343862 0.491676
0.1617 0.297566 0.564309
0.525185 0.145113 0.525505
0.69543 0.123873 0.543008
0.696666 0.125246 0.531365
0.697414 0.125734 0.514977
0.69308 0.127367 0.472618
0.109148 0.594766 0.530694
0.10631 0.591638 0.528206
0.104021 0.582788 0.519493
0.10045 0.562234 0.500023
0.580346 0.572488 0.549279
0.794232 0.487938 0.529519
0.796094 0.431556 0.51986
0.794415 0.417716 0.489311
0.793805 0.416129 0.415335
0.202274 0.850324 0.664103
0.200351 0.849729 0.658991
0.206607 0.840528 0.638422
0.206531 0.821714 0.584451
0.312078 0.76788 0.433265
0.709087 0.737209 0.405295
0.802838 0.727047 0.43505
0.805966 0.711696 0.435889
0.802853 0.689662 0.386892
0.183459 0.889738 0.716716
0.189242 0.887709 0.707515
0.206851 0.88098 0.687449
0.233005 0.867155 0.631388
0.277165 0.80647 0.337285
0.600977 0.7626 0.282277
0.791211 0.788556 0.349142
0.790753 0.787045 0.373022
0.795285 0.790433 0.339254
0.178317 0.892866 0.727214
0.181918 0.890425 0.71574
0.201068 0.88336 0.694621
0.236179 0.867582 0.638148
0.27538 0.812802 0.376562
0.531121 0.761807 0.275257
0.783841 0.790906 0.315587
0.787121 0.785824 0.401419
0.787289 0.785962 0.400763
0.19559 0.88542 0.702846
0.203815 0.882155 0.691966
0.219989 0.875486 0.670619
0.228565 0.865766 0.616739
0.273991 0.81677 0.396872
0.438666 0.770886 0.264302
0.755978 0.794415 0.258015
0.789151 0.786664 0.381323
0.787259 0.785946 0.400443
0.0826886 0.235218 0.613031
0.0825055 0.235477 0.633036
0.103914 0.230747 0.676265
0.32253 0.141649 0.710079
0.564141 0.159747 0.727596
0.711894 0.162142 0.771221
0.717266 0.173785 0.788159
0.718685 0.17583 0.790692
0.718593 0.175845 0.790616
0.0823682 0.232029 0.593484
0.0826886 0.23389 0.611215
0.0828107 0.230686 0.658289
0.295247 0.141024 0.706035
0.555779 0.156832 0.723949
0.711818 0.160922 0.768719
0.715724 0.171191 0.784298
0.717922 0.175174 0.789792
0.717342 0.173663 0.788159
0.0822919 0.241978 0.584253
0.0825513 0.230716 0.57792
0.0827649 0.226658 0.599161
0.25742 0.205447 0.698207
0.529747 0.149554 0.711498
0.708705 0.152972 0.7561
0.712779 0.16434 0.774701
0.715419 0.170108 0.782391
0.711696 0.158862 0.766827
0.0826429 0.383459 0.638437
0.0831769 0.372366 0.638514
0.0828565 0.341222 0.635294
0.0825818 0.281956 0.671855
0.460243 0.138613 0.689296
0.693111 0.145724 0.720562
0.709529 0.150851 0.738231
0.709087 0.151537 0.744533
0.71165 0.148226 0.720287
0.083711 0.632151 0.691295
0.0840009 0.628672 0.691402
0.0838331 0.620142 0.693034
0.0837262 0.594156 0.699565
0.469123 0.527932 0.766049
0.722911 0.369619 0.714626
0.765621 0.31606 0.720516
0.762661 0.284977 0.705913
0.755947 0.225513 0.663966
0.191379 0.841779 0.785138
0.189258 0.83888 0.782528
0.18468 0.829999 0.774563
0.175387 0.810452 0.75523
0.246601 0.774578 0.719265
0.749767 0.753246 0.733715
0.865873 0.705104 0.724956
0.861784 0.677821 0.71458
0.859846 0.65742 0.663905
0.200137 0.903197 0.8121
0.192264 0.904051 0.806943
0.185519 0.903944 0.797345
0.173022 0.902922 0.777539
0.179126 0.891768 0.719127
0.617472 0.824735 0.658412
0.812879 0.833783 0.693629
0.836927 0.829877 0.697948
0.831174 0.815702 0.666926
0.209125 0.902617 0.818189
0.198291 0.904021 0.81387
0.189776 0.904051 0.802838
0.173846 0.903365 0.780743
0.179034 0.891722 0.718242
0.460075 0.823056 0.586969
0.748684 0.800198 0.562371
0.827115 0.83534 0.688472
0.821195 0.829023 0.667475
0.192355 0.903487 0.803494
0.186069 0.903716 0.797009
0.177829 0.90341 0.786877
0.174838 0.900679 0.763882
0.193515 0.886488 0.703273
0.229389 0.848524 0.503975
0.675761 0.769741 0.433143
0.798917 0.804181 0.56466
0.811276 0.8177 0.62594
0.0828717 0.276143 0.684215
0.0828717 0.277211 0.702693
0.094316 0.271183 0.73814
0.336339 0.163531 0.769528
0.585565 0.169039 0.774319
0.718746 0.175799 0.790738
0.718746 0.175799 0.790738
0.718685 0.175814 0.790707
0.718547 0.17586 0.790646
0.0824445 0.273457 0.665782
0.0828717 0.276188 0.684123
0.0830396 0.274723 0.725902
0.32668 0.198352 0.771984
0.575799 0.166308 0.773129
0.718746 0.175799 0.790738
0.718746 0.175799 0.790738
0.718746 0.175799 0.790738
0.71873 0.175799 0.790722
0.0824598 0.274418 0.652705
0.0827039 0.268238 0.646601
0.0828717 0.276066 0.682948
0.254948 0.24799 0.764858
0.543709 0.158389 0.769223
0.718746 0.175799 0.790738
0.71873 0.175799 0.790722
0.71873 0.175799 0.790738
0.71873 0.175799 0.790722
0.0831769 0.387304 0.723049
0.0829328 0.374746 0.719478
0.0829175 0.336431 0.702296
0.082826 0.284459 0.701976
0.450477 0.15848 0.76878
0.704112 0.181689 0.789303
0.718883 0.17586 0.790784
0.718853 0.17586 0.790784
0.718837 0.17586 0.790768
0.084062 0.650858 0.775891
0.083772 0.644709 0.775143
0.0839399 0.63328 0.777081
0.08365 0.604486 0.780468
0.377768 0.53904 0.820645
0.684306 0.352377 0.799832
0.748837 0.27013 0.801785
0.746075 0.250355 0.801556
0.742061 0.209949 0.797696
0.151537 0.85359 0.846113
0.146883 0.850004 0.8448
0.138064 0.842573 0.842527
0.122698 0.828382 0.838117
0.117922 0.805325 0.835843
0.691066 0.73048 0.864515
0.844068 0.643626 0.840269
0.844205 0.614237 0.831586
0.836789 0.567758 0.807095
0.213993 0.904967 0.840116
0.211444 0.905821 0.841077
0.211246 0.905653 0.840665
0.210269 0.904479 0.837537
0.207645 0.898344 0.829938
0.60943 0.84918 0.806302
0.849714 0.861112 0.841199
0.878767 0.844327 0.836744
0.878233 0.818952 0.816831
0.212741 0.905211 0.840635
0.210803 0.905837 0.841093
0.210758 0.905867 0.841047
0.214343 0.905333 0.838972
0.206043 0.904402 0.822049
0.276081 0.890043 0.783154
0.821225 0.881163 0.82797
0.880583 0.890135 0.868528
0.880385 0.889998 0.866773
0.214542 0.904677 0.839765
0.211841 0.905745 0.841001
0.213748 0.905486 0.840085
0.21622 0.904723 0.835309
0.19765 0.904173 0.813443
0.177142 0.899886 0.760357
0.740826 0.860792 0.769299
0.859434 0.876066 0.80267
0.883223 0.890837 0.876326
0.0829633 0.276631 0.693919
0.0827802 0.276707 0.711269
0.110933 0.269505 0.744564
0.350713 0.161471 0.769131
0.59527 0.17203 0.775113
0.718746 0.175799 0.790738
0.718746 0.175799 0.790738
0.718746 0.175799 0.790738
0.718746 0.175799 0.790738
0.0826886 0.274632 0.674357
0.0829633 0.276692 0.693599
0.0829938 0.273213 0.731929
0.332387 0.181125 0.771817
0.585199 0.168887 0.774258
0.718746 0.175799 0.790738
0.718746 0.175799 0.790738
0.718746 0.175799 0.790738
0.718669 0.17583 0.790692
0.0827344 0.270436 0.648936
0.0827192 0.268788 0.647639
0.082948 0.276844 0.692363
0.271824 0.244022 0.765469
0.552056 0.159915 0.770184
0.718746 0.175799 0.790738
0.718746 0.175799 0.790738
0.718746 0.175799 0.790738
0.718746 0.175799 0.790738
0.0831769 0.378744 0.728893
0.0831006 0.363424 0.721172
0.0825513 0.320516 0.694057
0.082887 0.277256 0.701808
0.455161 0.157565 0.768185
0.705486 0.18114 0.789441
0.718883 0.17586 0.790784
0.718853 0.17586 0.790784
0.718837 0.17586 0.790768
0.0870069 0.655726 0.799283
0.0867323 0.648386 0.797208
0.0838483 0.632685 0.793545
0.0837568 0.592706 0.785412
0.351186 0.510353 0.817761
0.669444 0.320455 0.799359
0.746105 0.24184 0.8047
0.74493 0.222507 0.805661
0.737865 0.195834 0.802731
0.143832 0.864179 0.856382
0.139101 0.860624 0.855848
0.132677 0.853452 0.85536
0.121599 0.837736 0.852308
0.104891 0.80528 0.843198
0.658717 0.725017 0.877928
0.819348 0.61767 0.862379
0.821241 0.57908 0.850645
0.810346 0.538705 0.841123
0.210727 0.905882 0.841108
0.210727 0.905882 0.841108
0.210452 0.90573 0.841047
0.208133 0.904814 0.841047
0.197314 0.900023 0.843656
0.543099 0.850111 0.83592
0.823896 0.845884 0.872251
0.876387 0.813581 0.871656
0.871977 0.790005 0.870802
0.210727 0.905882 0.841108
0.210727 0.905882 0.841108
0.210727 0.905882 0.841108
0.210727 0.905882 0.841123
0.210727 0.905882 0.841108
0.211246 0.905821 0.841077
0.803265 0.886091 0.860243
0.883268 0.891798 0.877028
0.882689 0.891417 0.87689
0.212482 0.905287 0.840711
0.210788 0.905852 0.841108
0.210727 0.905882 0.841108
0.210727 0.905882 0.841108
0.210742 0.905882 0.841123
0.214557 0.905303 0.83917
0.697414 0.874678 0.830304
0.883024 0.891676 0.877134
0.882948 0.89189 0.877272
0.0830091 0.277195 0.699657
0.0829328 0.27602 0.715373
0.120424 0.268742 0.746914
0.354101 0.161257 0.769009
0.597528 0.172854 0.775387
0.718746 0.175799 0.790738
0.718746 0.175799 0.790738
0.718746 0.175799 0.790738
0.718746 0.175799 0.790738
0.082826 0.275593 0.679789
0.0830243 0.277195 0.699046
0.0864881 0.272602 0.735454
0.333547 0.175555 0.771038
0.586404 0.169177 0.774395
0.718746 0.175799 0.790738
0.718746 0.175799 0.790738
0.718746 0.175799 0.790738
0.718715 0.175814 0.790722
0.0827344 0.269688 0.648127
0.0827649 0.269566 0.651118
0.0830091 0.277028 0.697658
0.277363 0.242695 0.765942
0.55317 0.160113 0.770459
0.718746 0.175799 0.790738
0.718746 0.175799 0.790738
0.718746 0.175799 0.790738
0.718746 0.175799 0.790738
0.0829633 0.367147 0.723598
0.0831617 0.351339 0.715465
0.0826581 0.312215 0.687739
0.0828412 0.277134 0.704967
0.455451 0.15758 0.768215
0.705699 0.181048 0.789456
0.718853 0.17586 0.790784
0.718853 0.17586 0.790784
0.718837 0.175845 0.790768
0.0855573 0.642405 0.7953
0.0840467 0.635126 0.793851
0.0838636 0.619135 0.790539
0.0837262 0.578073 0.782254
0.328267 0.487816 0.814908
0.657359 0.294759 0.797498
0.744457 0.219608 0.805463
0.739391 0.20499 0.803449
0.722911 0.180087 0.793896
0.137301 0.859358 0.855894
0.134463 0.855817 0.855543
0.128191 0.847807 0.854658
0.113481 0.829526 0.850004
0.0942092 0.792203 0.838056
0.646586 0.707469 0.878294
0.809445 0.594339 0.857374
0.813153 0.550729 0.843778
0.800809 0.507683 0.833463
0.210727 0.905882 0.841108
0.210727 0.905882 0.841108
0.209842 0.905486 0.840986
0.206531 0.904448 0.84152
0.193408 0.896559 0.845289
0.519051 0.84567 0.837171
0.812558 0.833631 0.87361
0.872038 0.794034 0.87248
0.867491 0.770535 0.872633
0.210803 0.905852 0.841108
0.210727 0.905882 0.841108
0.210727 0.905882 0.841108
0.210727 0.905882 0.841108
0.210727 0.905882 0.841108
0.210727 0.905882 0.841108
0.775876 0.882292 0.856229
0.882826 0.891524 0.876967
0.881071 0.88957 0.875914
0.211429 0.905638 0.840925
0.210742 0.905882 0.841123
0.210727 0.905882 0.841108
0.210727 0.905882 0.841108
0.210727 0.905882 0.841108
0.210727 0.905882 0.841108
0.548379 0.871153 0.823804
0.882582 0.891554 0.877256
0.882643 0.891981 0.877699
