bundles/resolve-cinematic-luts/Gamut/The Creator/gamut - CREATOR (Monitor LUTs)/Creator 08 - Bold ML.cube
TITLE "Creator LUT 08 by Gamut ML"
# Monitoring LUT. Version 1.0 - 11/18/2025 - Designed for Rec.709 Color Space. Copyright 2025 Gamut, LLC.
# 
LUT_3D_SIZE 5
0.0000000000 0.0000000000 0.0000000000
0.2030100000 0.0126170000 0.0118290000
0.4501405000 0.0070970000 0.0070970000
0.7294852500 0.0086740000 0.0086740000
0.9969350000 0.0291770000 0.0291770000
0.0078860000 0.2248985000 0.0078860000
0.2270332500 0.2247267500 0.0084770000
0.4840635000 0.2200590000 0.0100540000
0.7523777500 0.2146490000 0.0191230000
0.9923685000 0.2231125000 0.0430770000
0.0141940000 0.4984600000 0.0141940000
0.2152662500 0.4966880000 0.0153770000
0.4985570000 0.4955350000 0.0177430000
0.7743727500 0.4932472500 0.0279942500
1.0000000000 0.5048500000 0.0475930000
0.0439932500 0.7788597500 0.0439932500
0.1873805000 0.7802187500 0.0447267500
0.5054847500 0.7852350000 0.0398202500
0.7797742500 0.7814722500 0.0380490000
1.0000000000 0.7820160000 0.0463587500
0.1115040000 1.0000000000 0.0814810000
0.3035402500 1.0000000000 0.0732650000
0.5425925000 0.9998255000 0.0613495000
0.7748312500 0.9942157500 0.0546132500
0.9765070000 0.9852880000 0.1136200000
0.0055200000 0.0039430000 0.2134402500
0.2227875000 0.0076887500 0.2269880000
0.4787407500 0.0078860000 0.2181167500
0.7534975000 0.0096600000 0.2164065000
0.9985965000 0.0307540000 0.2251055000
0.0078860000 0.2308585000 0.2311920000
0.2338579187 0.2338579187 0.2338579187
0.5067672719 0.1843975000 0.1854516250
0.7567500188 0.1574496063 0.1601266813
0.9709692500 0.1628060000 0.1636680000
0.0141940000 0.5114990000 0.2182732500
0.1637050375 0.5037195187 0.1710213187
0.4944827094 0.4928912594 0.1590491063
0.7806603656 0.4692608406 0.1591243312
0.9940470000 0.4668025000 0.1784375000
0.0461707500 0.7893967500 0.1973022500
0.1431086562 0.7797210094 0.1575163125
0.4783605094 0.7851302500 0.1520846063
0.7681012844 0.7705565656 0.1476696500
0.9920025000 0.7587607500 0.1805255000
0.1068785000 1.0000000000 0.2378030000
0.2576202500 0.9951550000 0.2030445000
0.5015462500 0.9914735000 0.1984575000
0.7511132500 0.9844802500 0.2013512500
0.9713670000 0.9803805000 0.2402335000
0.0063090000 0.0063090000 0.4730890000
0.2200630000 0.0086740000 0.4926697500
0.4882665000 0.0078860000 0.4934270000
0.7682740000 0.0110400000 0.4888657500
0.9995170000 0.0319375000 0.4888355000
0.0092657500 0.2153602500 0.4942432500
0.1848299969 0.1795472500 0.5051220781
0.4958785656 0.1629357469 0.4985862313
0.7692860531 0.1454322500 0.4587208750
0.9776145000 0.1543802500 0.4433210000
0.0149830000 0.5032970000 0.5036880000
0.1462243156 0.4949647531 0.4951864031
0.5119077500 0.5118902187 0.5119077500
0.8099015625 0.4626095875 0.4625397562
1.0000000000 0.4463795000 0.4440940000
0.0452765000 0.7921240000 0.5002605000
0.1364173312 0.7884684969 0.4787548219
0.4595853188 0.8024689500 0.4563857625
0.7775619688 0.7797007219 0.4344666875
0.9998590000 0.7517195000 0.4351075000
0.1267085000 1.0000000000 0.5079405000
0.2616985000 0.9968405000 0.4755942500
0.4792705000 0.9967870000 0.4475130000
0.7459147500 0.9932485000 0.4439665000
0.9776000000 0.9830815000 0.4652325000
0.0078860000 0.0078860000 0.7512135000
0.2199137500 0.0086740000 0.7647495000
0.4882967500 0.0100540000 0.7709160000
0.7692517500 0.0122232500 0.7700720000
1.0000000000 0.0354860000 0.7703172500
0.0100540000 0.2063672500 0.7627027500
0.1580820250 0.1471479406 0.7488917969
0.4608228969 0.1441492344 0.7657347531
0.7559217156 0.1248174469 0.7543171125
0.9795192500 0.1488155000 0.7443077500
0.0179402500 0.4948595000 0.7756525000
0.1448945094 0.4667177781 0.7706888562
0.4656927031 0.4667723281 0.8038069875
0.7977945375 0.4532834188 0.7947341187
1.0000000000 0.4513910000 0.7679927500
0.0452765000 0.7818982500 0.7810730000
0.1432144500 0.7722569062 0.7715313563
0.4533530906 0.7880721000 0.7875718656
0.7877555563 0.7877570875 0.7877570875
1.0000000000 0.7521360000 0.7512170000
0.1578290000 0.9947767500 0.7663665000
0.2799097500 0.9943040000 0.7573020000
0.4929837500 0.9982810000 0.7511722500
0.7510267500 1.0000000000 0.7460202500
0.9906450000 0.9907335000 0.7444587500
0.0094630000 0.0094630000 0.9758700000
0.2473365000 0.0110400000 0.9776420000
0.5053855000 0.0110400000 0.9773100000
0.7745575000 0.0201085000 0.9882097500
0.9983620000 0.0489850000 0.9985230000
0.0187287500 0.2630082500 0.9864090000
0.1726810000 0.1915965000 0.9583200000
0.4529867500 0.1970525000 0.9706975000
0.7462197500 0.1928030000 0.9762577500
0.9798087500 0.2115435000 0.9798087500
0.0272060000 0.5243575000 0.9935330000
0.1814390000 0.4802767500 0.9790430000
0.4535585000 0.4731160000 0.9964495000
0.7691975000 0.4819850000 1.0000000000
1.0000000000 0.4855635000 0.9999460000
0.0545682500 0.7856737500 1.0000000000
0.2244585000 0.7659002500 0.9940065000
0.4784037500 0.7693592500 1.0000000000
0.7649255000 0.7695980000 0.9974672500
0.9996977500 0.7570110000 0.9981465000
0.2593200000 0.9795470000 0.9786360000
0.3522685000 0.9813302500 0.9807800000
0.5384500000 0.9859035000 0.9856845000
0.7641060000 0.9959040000 0.9950470000
1.0000000000 1.0000000000 1.0000000000
