bundles/resolve-cinematic-luts/Gamut/The Creator/gamut - CREATOR (Monitor LUTs)/Creator 04 - Stock ML.cube
TITLE "Creator LUT 04 by Gamut ML"
# Monitoring LUT. Version 1.0 - 11/18/2025 - Designed for Rec.709 Color Space. Copyright 2025 Gamut, LLC.
# 
LUT_3D_SIZE 33
0.0197147000 0.0204929000 0.0212863000
0.0258946000 0.0259251000 0.0267033000
0.0321202000 0.0313878000 0.0321813000
0.0390631000 0.0359808000 0.0367590000
0.0549783000 0.0447242000 0.0441749000
0.0851453000 0.0539254000 0.0500649000
0.1189590000 0.0597086000 0.0505531000
0.1527580000 0.0627909000 0.0486763000
0.1862970000 0.0642863000 0.0458839000
0.2200810000 0.0651560000 0.0455024000
0.2525980000 0.0654612000 0.0459754000
0.2882890000 0.0673533000 0.0505531000
0.3232780000 0.0681163000 0.0569162000
0.3580380000 0.0716869000 0.0640421000
0.3936830000 0.0760052000 0.0736706000
0.4272530000 0.0778210000 0.0830091000
0.4576790000 0.0790112000 0.0915236000
0.4845650000 0.0805676000 0.0989853000
0.5121390000 0.0832227000 0.1070730000
0.5380480000 0.0858930000 0.1134200000
0.5602200000 0.0892195000 0.1165480000
0.5776760000 0.0915236000 0.1177540000
0.5895930000 0.0938888000 0.1173110000
0.5993440000 0.0955673000 0.1165480000
0.6073400000 0.0969711000 0.1158010000
0.6178680000 0.0986954000 0.1169760000
0.6281990000 0.1002210000 0.1190810000
0.6404670000 0.1022200000 0.1223320000
0.6542610000 0.1048750000 0.1255050000
0.6714430000 0.1087360000 0.1289390000
0.6899060000 0.1127950000 0.1328600000
0.7092850000 0.1173570000 0.1372400000
0.7285420000 0.1220260000 0.1411920000
0.0243381000 0.0267491000 0.0266880000
0.0274815000 0.0282597000 0.0290532000
0.0329442000 0.0337224000 0.0336919000
0.0404822000 0.0390021000 0.0382696000
0.0580911000 0.0480964000 0.0457313000
0.0880293000 0.0577554000 0.0513619000
0.1202560000 0.0633860000 0.0507210000
0.1532620000 0.0672465000 0.0480507000
0.1870450000 0.0696117000 0.0452277000
0.2234530000 0.0708476000 0.0435492000
0.2590370000 0.0713970000 0.0438544000
0.2939350000 0.0740826000 0.0472114000
0.3286340000 0.0765087000 0.0514839000
0.3638060000 0.0806287000 0.0582895000
0.3994510000 0.0838483000 0.0679942000
0.4323030000 0.0850080000 0.0764477000
0.4629590000 0.0856641000 0.0846113000
0.4920580000 0.0869764000 0.0933700000
0.5203780000 0.0889296000 0.1023120000
0.5456320000 0.0911269000 0.1089650000
0.5683220000 0.0934310000 0.1135120000
0.5873350000 0.0952163000 0.1158620000
0.6005650000 0.0967117000 0.1160750000
0.6108490000 0.0987411000 0.1158770000
0.6188140000 0.1002670000 0.1151290000
0.6296330000 0.1017170000 0.1166400000
0.6395970000 0.1028460000 0.1193560000
0.6495310000 0.1041280000 0.1223320000
0.6614020000 0.1064470000 0.1255510000
0.6751660000 0.1093460000 0.1292440000
0.6917370000 0.1131000000 0.1328600000
0.7103070000 0.1173880000 0.1375300000
0.7290150000 0.1220260000 0.1411920000
0.0281834000 0.0313420000 0.0305486000
0.0313725000 0.0344701000 0.0336767000
0.0345006000 0.0368658000 0.0353399000
0.0433967000 0.0428168000 0.0406653000
0.0619059000 0.0526436000 0.0484474000
0.0922866000 0.0622721000 0.0528115000
0.1241170000 0.0683757000 0.0519875000
0.1556570000 0.0721752000 0.0489357000
0.1876400000 0.0746777000 0.0459754000
0.2215610000 0.0773785000 0.0435950000
0.2581830000 0.0796979000 0.0426642000
0.2936140000 0.0844434000 0.0444953000
0.3307550000 0.0873579000 0.0477302000
0.3670860000 0.0921492000 0.0542458000
0.4016170000 0.0953689000 0.0615244000
0.4345770000 0.0968948000 0.0675212000
0.4659800000 0.0973831000 0.0752880000
0.4968800000 0.0971389000 0.0846723000
0.5262530000 0.0976577000 0.0942855000
0.5521480000 0.0979171000 0.1027080000
0.5758300000 0.0983597000 0.1091940000
0.5965820000 0.0990768000 0.1133900000
0.6112000000 0.1003590000 0.1145190000
0.6219120000 0.1022660000 0.1147330000
0.6299080000 0.1035630000 0.1144580000
0.6403600000 0.1048910000 0.1160450000
0.6509650000 0.1053940000 0.1187760000
0.6611890000 0.1063250000 0.1220870000
0.6698560000 0.1079880000 0.1258110000
0.6816200000 0.1105360000 0.1292440000
0.6946210000 0.1136640000 0.1328600000
0.7117420000 0.1176470000 0.1372700000
0.7293810000 0.1220260000 0.1411920000
0.0306859000 0.0367590000 0.0345464000
0.0337835000 0.0398718000 0.0376440000
0.0375982000 0.0428473000 0.0399939000
0.0448920000 0.0476692000 0.0429084000
0.0619059000 0.0587472000 0.0491646000
0.0910506000 0.0690929000 0.0528420000
0.1244680000 0.0758068000 0.0528115000
0.1588460000 0.0802014000 0.0504005000
0.1921870000 0.0845655000 0.0475929000
0.2249640000 0.0889601000 0.0459144000
0.2584730000 0.0932021000 0.0454566000
0.2910960000 0.0974746000 0.0456703000
0.3259480000 0.1028000000 0.0473335000
0.3617610000 0.1076830000 0.0522316000
0.3983370000 0.1104450000 0.0570077000
0.4338450000 0.1109640000 0.0618753000
0.4669410000 0.1107960000 0.0679942000
0.4988780000 0.1099720000 0.0759899000
0.5292590000 0.1080030000 0.0855879000
0.5564200000 0.1059430000 0.0948959000
0.5817500000 0.1045240000 0.1031510000
0.6039670000 0.1045240000 0.1089490000
0.6201720000 0.1049360000 0.1121390000
0.6316170000 0.1060650000 0.1128400000
0.6399630000 0.1072560000 0.1131150000
0.6513620000 0.1079120000 0.1147170000
0.6636760000 0.1081410000 0.1178450000
0.6737470000 0.1088120000 0.1218280000
0.6814530000 0.1100790000 0.1258260000
0.6895090000 0.1119860000 0.1292440000
0.6997020000 0.1147780000 0.1328600000
0.7141830000 0.1182270000 0.1374990000
0.7303430000 0.1223010000 0.1414510000
0.0345006000 0.0462501000 0.0398260000
0.0375982000 0.0501869000 0.0421759000
0.0420233000 0.0539254000 0.0463417000
0.0464637000 0.0570840000 0.0477760000
0.0636454000 0.0674144000 0.0505837000
0.0914778000 0.0807355000 0.0529030000
0.1225150000 0.0914778000 0.0513771000
0.1536130000 0.0979629000 0.0486763000
0.1854730000 0.1038990000 0.0454261000
0.2200200000 0.1078970000 0.0446021000
0.2555890000 0.1120930000 0.0449226000
0.2899370000 0.1162280000 0.0453956000
0.3253530000 0.1199970000 0.0493019000
0.3595030000 0.1229570000 0.0545357000
0.3922790000 0.1260850000 0.0573129000
0.4257270000 0.1279620000 0.0600595000
0.4613410000 0.1276870000 0.0641642000
0.4979930000 0.1243760000 0.0699474000
0.5299760000 0.1206230000 0.0770275000
0.5587550000 0.1166250000 0.0861067000
0.5862210000 0.1141070000 0.0953689000
0.6106660000 0.1118030000 0.1031660000
0.6284730000 0.1110550000 0.1080030000
0.6407870000 0.1109940000 0.1098340000
0.6513010000 0.1110860000 0.1110700000
0.6640570000 0.1113600000 0.1128560000
0.6776070000 0.1114670000 0.1165640000
0.6883500000 0.1125350000 0.1208970000
0.6954600000 0.1132830000 0.1253220000
0.7007100000 0.1142900000 0.1292590000
0.7082320000 0.1165030000 0.1331960000
0.7185020000 0.1190360000 0.1375450000
0.7321890000 0.1228660000 0.1414820000
0.0391852000 0.0650950000 0.0477302000
0.0408179000 0.0678111000 0.0491951000
0.0432441000 0.0710002000 0.0512856000
0.0480354000 0.0731212000 0.0532540000
0.0622110000 0.0813611000 0.0533608000
0.0901198000 0.0949569000 0.0512245000
0.1191580000 0.1071340000 0.0476234000
0.1496150000 0.1161970000 0.0440375000
0.1808650000 0.1231860000 0.0418555000
0.2142210000 0.1292130000 0.0414740000
0.2480200000 0.1341120000 0.0416571000
0.2829180000 0.1374070000 0.0438697000
0.3190970000 0.1403070000 0.0482185000
0.3555350000 0.1427630000 0.0527352000
0.3908290000 0.1443350000 0.0574655000
0.4241700000 0.1450520000 0.0614786000
0.4557720000 0.1446710000 0.0641184000
0.4894640000 0.1427940000 0.0664683000
0.5250170000 0.1382160000 0.0711223000
0.5584500000 0.1333330000 0.0785534000
0.5880830000 0.1287100000 0.0867628000
0.6140380000 0.1244530000 0.0952773000
0.6340580000 0.1210800000 0.1017470000
0.6488140000 0.1188830000 0.1054090000
0.6607610000 0.1179060000 0.1070880000
0.6753190000 0.1168840000 0.1097430000
0.6903180000 0.1174640000 0.1138480000
0.7026780000 0.1179060000 0.1188220000
0.7112080000 0.1180130000 0.1244680000
0.7168380000 0.1182570000 0.1292900000
0.7205160000 0.1193260000 0.1334710000
0.7270160000 0.1212330000 0.1375300000
0.7357440000 0.1236590000 0.1414820000
0.0402228000 0.0867323000 0.0532845000
0.0403449000 0.0899977000 0.0539101000
0.0418555000 0.0918135000 0.0546578000
0.0472572000 0.0918746000 0.0558328000
0.0589609000 0.0961624000 0.0562295000
0.0887007000 0.1100630000 0.0484321000
0.1149160000 0.1209280000 0.0428626000
0.1441060000 0.1317010000 0.0388037000
0.1765770000 0.1408260000 0.0362860000
0.2093690000 0.1483630000 0.0353246000
0.2439610000 0.1536430000 0.0380407000
0.2791180000 0.1579610000 0.0415351000
0.3137260000 0.1606780000 0.0461738000
0.3488210000 0.1618370000 0.0513466000
0.3862520000 0.1639430000 0.0575875000
0.4233620000 0.1648580000 0.0630350000
0.4574350000 0.1643850000 0.0668956000
0.4885330000 0.1627990000 0.0689403000
0.5192340000 0.1598690000 0.0704509000
0.5530020000 0.1554740000 0.0745098000
0.5868920000 0.1485770000 0.0815747000
0.6145570000 0.1423060000 0.0883650000
0.6360420000 0.1372090000 0.0942702000
0.6514080000 0.1328450000 0.0982071000
0.6662240000 0.1299610000 0.1013960000
0.6815900000 0.1284200000 0.1043720000
0.6995500000 0.1274430000 0.1093160000
0.7148850000 0.1272140000 0.1151750000
0.7266350000 0.1259780000 0.1218740000
0.7340050000 0.1249100000 0.1279620000
0.7371790000 0.1246510000 0.1327230000
0.7392840000 0.1251240000 0.1370260000
0.7446710000 0.1259170000 0.1412070000
0.0394293000 0.1087660000 0.0554360000
0.0409705000 0.1101550000 0.0554360000
0.0437018000 0.1114980000 0.0566415000
0.0491035000 0.1117270000 0.0582589000
0.0595560000 0.1144120000 0.0580758000
0.0829480000 0.1257950000 0.0471046000
0.1150680000 0.1359430000 0.0381628000
0.1418170000 0.1453420000 0.0333715000
0.1723810000 0.1557340000 0.0308537000
0.2063480000 0.1645840000 0.0298772000
0.2410320000 0.1719390000 0.0323644000
0.2765550000 0.1772790000 0.0375219000
0.3111160000 0.1815370000 0.0433204000
0.3462270000 0.1842680000 0.0500649000
0.3819030000 0.1854430000 0.0570230000
0.4183720000 0.1866940000 0.0627604000
0.4554970000 0.1872890000 0.0682231000
0.4913100000 0.1866640000 0.0734569000
0.5239640000 0.1846040000 0.0769055000
0.5540250000 0.1809570000 0.0791638000
0.5831850000 0.1749900000 0.0816815000
0.6108030000 0.1685510000 0.0849317000
0.6342410000 0.1613340000 0.0888838000
0.6507820000 0.1556880000 0.0918288000
0.6661780000 0.1518430000 0.0943770000
0.6827340000 0.1476310000 0.0977951000
0.7022350000 0.1458760000 0.1027240000
0.7212630000 0.1429010000 0.1090410000
0.7379420000 0.1396660000 0.1170060000
0.7493100000 0.1364610000 0.1243150000
0.7553980000 0.1338980000 0.1308920000
0.7565270000 0.1321430000 0.1360040000
0.7572290000 0.1307550000 0.1407030000
0.0396277000 0.1284960000 0.0561990000
0.0411383000 0.1298700000 0.0561990000
0.0433509000 0.1319300000 0.0574044000
0.0501869000 0.1326620000 0.0587625000
0.0617380000 0.1355000000 0.0566567000
0.0808576000 0.1444270000 0.0452430000
0.1147780000 0.1544370000 0.0330358000
0.1420610000 0.1612730000 0.0279545000
0.1710690000 0.1706720000 0.0258335000
0.2047000000 0.1806970000 0.0256046000
0.2393990000 0.1895170000 0.0290379000
0.2757310000 0.1974820000 0.0351110000
0.3119400000 0.2030060000 0.0424964000
0.3462580000 0.2072790000 0.0486458000
0.3815670000 0.2102390000 0.0557565000
0.4168310000 0.2117340000 0.0624399000
0.4535900000 0.2119780000 0.0693523000
0.4906840000 0.2131690000 0.0759899000
0.5262380000 0.2127570000 0.0817578000
0.5582060000 0.2104980000 0.0858778000
0.5854280000 0.2070950000 0.0883192000
0.6085600000 0.2021060000 0.0890669000
0.6286410000 0.1956510000 0.0896162000
0.6448770000 0.1894870000 0.0899062000
0.6618140000 0.1827570000 0.0911421000
0.6797280000 0.1774620000 0.0935225000
0.7013960000 0.1723810000 0.0977951000
0.7228810000 0.1675900000 0.1037920000
0.7428850000 0.1619590000 0.1111770000
0.7593040000 0.1559170000 0.1194320000
0.7697570000 0.1506370000 0.1271230000
0.7740750000 0.1453880000 0.1332880000
0.7733730000 0.1403980000 0.1392540000
0.0367132000 0.1504230000 0.0561990000
0.0399634000 0.1510190000 0.0557412000
0.0435340000 0.1542840000 0.0573587000
0.0521706000 0.1563290000 0.0601816000
0.0640269000 0.1591060000 0.0562905000
0.0819104000 0.1662320000 0.0442664000
0.1110400000 0.1743950000 0.0319371000
0.1475390000 0.1820400000 0.0244450000
0.1739830000 0.1881740000 0.0225071000
0.2056460000 0.1976350000 0.0234379000
0.2414430000 0.2079500000 0.0281987000
0.2776530000 0.2173650000 0.0344091000
0.3131610000 0.2252840000 0.0410620000
0.3493100000 0.2312050000 0.0485695000
0.3851990000 0.2359040000 0.0564431000
0.4202790000 0.2391550000 0.0639353000
0.4551310000 0.2407720000 0.0714122000
0.4905620000 0.2410620000 0.0788891000
0.5245290000 0.2416270000 0.0848554000
0.5574580000 0.2413060000 0.0899214000
0.5863280000 0.2396730000 0.0939498000
0.6103910000 0.2366060000 0.0964675000
0.6298620000 0.2322270000 0.0972915000
0.6448460000 0.2262000000 0.0969558000
0.6589150000 0.2191960000 0.0960250000
0.6758830000 0.2128940000 0.0960403000
0.6969860000 0.2068210000 0.0980545000
0.7204550000 0.2002590000 0.1020520000
0.7437700000 0.1923250000 0.1081250000
0.7631650000 0.1844050000 0.1152360000
0.7784080000 0.1760130000 0.1225450000
0.7872130000 0.1672850000 0.1291520000
0.7915310000 0.1578240000 0.1361100000
0.0368200000 0.1721520000 0.0555734000
0.0406958000 0.1732050000 0.0557412000
0.0454566000 0.1767300000 0.0575570000
0.0547341000 0.1800720000 0.0608835000
0.0654765000 0.1833520000 0.0573129000
0.0822766000 0.1894100000 0.0447852000
0.1094530000 0.1970400000 0.0336614000
0.1463950000 0.2045170000 0.0254368000
0.1830010000 0.2118560000 0.0234073000
0.2118100000 0.2180970000 0.0253147000
0.2444500000 0.2276490000 0.0289769000
0.2804000000 0.2380250000 0.0349432000
0.3173420000 0.2475620000 0.0423438000
0.3537190000 0.2558940000 0.0502632000
0.3902190000 0.2619970000 0.0593271000
0.4259860000 0.2666970000 0.0675669000
0.4604560000 0.2702220000 0.0757305000
0.4938120000 0.2718390000 0.0834669000
0.5263290000 0.2724190000 0.0897536000
0.5574270000 0.2715500000 0.0956436000
0.5853210000 0.2711530000 0.0996262000
0.6096890000 0.2695200000 0.1027240000
0.6302890000 0.2664070000 0.1046920000
0.6473950000 0.2617840000 0.1055620000
0.6623180000 0.2559090000 0.1056080000
0.6781570000 0.2493480000 0.1055160000
0.6962690000 0.2427710000 0.1057300000
0.7173420000 0.2360880000 0.1069500000
0.7402000000 0.2283970000 0.1098340000
0.7624930000 0.2193180000 0.1146110000
0.7814600000 0.2090330000 0.1201040000
0.7953000000 0.1975890000 0.1255970000
0.8052030000 0.1847100000 0.1319450000
0.0378576000 0.1935450000 0.0545205000
0.0421759000 0.1953920000 0.0555428000
0.0473793000 0.1989620000 0.0577707000
0.0561227000 0.2033110000 0.0617990000
0.0673838000 0.2078280000 0.0580453000
0.0822003000 0.2135350000 0.0478370000
0.1085370000 0.2213470000 0.0372625000
0.1432820000 0.2294800000 0.0297398000
0.1876550000 0.2378120000 0.0261997000
0.2227970000 0.2443580000 0.0274052000
0.2514990000 0.2503850000 0.0310521000
0.2854510000 0.2600140000 0.0364996000
0.3215080000 0.2699780000 0.0435187000
0.3587090000 0.2791940000 0.0525978000
0.3954220000 0.2874950000 0.0611582000
0.4316780000 0.2937970000 0.0709392000
0.4663920000 0.2986800000 0.0796826000
0.4993210000 0.3019000000 0.0878157000
0.5306480000 0.3037000000 0.0951247000
0.5596250000 0.3043110000 0.1011830000
0.5859770000 0.3036090000 0.1061880000
0.6097660000 0.3012590000 0.1101400000
0.6302430000 0.2990620000 0.1123520000
0.6480810000 0.2957200000 0.1137100000
0.6646220000 0.2912030000 0.1145950000
0.6811780000 0.2857100000 0.1151750000
0.6991070000 0.2796370000 0.1158160000
0.7186080000 0.2730750000 0.1168540000
0.7390100000 0.2654000000 0.1179220000
0.7598690000 0.2567030000 0.1196150000
0.7802550000 0.2461280000 0.1222550000
0.7984590000 0.2334630000 0.1257340000
0.8141910000 0.2195470000 0.1301140000
0.0401160000 0.2169530000 0.0557259000
0.0455482000 0.2190130000 0.0573434000
0.0514229000 0.2231020000 0.0599069000
0.0589456000 0.2276800000 0.0642252000
0.0702983000 0.2334940000 0.0644846000
0.0853285000 0.2398260000 0.0557412000
0.1089490000 0.2466470000 0.0446326000
0.1436030000 0.2557260000 0.0369421000
0.1879300000 0.2645910000 0.0320287000
0.2325930000 0.2721750000 0.0325017000
0.2638440000 0.2782330000 0.0353857000
0.2931260000 0.2840620000 0.0393225000
0.3274590000 0.2933390000 0.0459754000
0.3637750000 0.3029370000 0.0541085000
0.4007170000 0.3120620000 0.0637675000
0.4367740000 0.3201190000 0.0729076000
0.4715500000 0.3261920000 0.0827344000
0.5044170000 0.3308000000 0.0919051000
0.5350730000 0.3339740000 0.0998398000
0.5631040000 0.3356830000 0.1064930000
0.5885860000 0.3362480000 0.1120620000
0.6115050000 0.3355310000 0.1166090000
0.6319520000 0.3333030000 0.1201950000
0.6504460000 0.3296860000 0.1225300000
0.6675970000 0.3252000000 0.1243460000
0.6842600000 0.3209280000 0.1252160000
0.7018540000 0.3157850000 0.1259020000
0.7207140000 0.3098190000 0.1267870000
0.7403530000 0.3026630000 0.1277940000
0.7602200000 0.2941020000 0.1286490000
0.7798580000 0.2837720000 0.1296710000
0.7990390000 0.2717630000 0.1309830000
0.8182500000 0.2581520000 0.1328450000
0.0413062000 0.2431070000 0.0600900000
0.0463722000 0.2460060000 0.0615854000
0.0517891000 0.2495920000 0.0643778000
0.0607614000 0.2539410000 0.0689555000
0.0731670000 0.2599220000 0.0746166000
0.0900282000 0.2666670000 0.0680095000
0.1125510000 0.2736400000 0.0575265000
0.1462730000 0.2827650000 0.0482643000
0.1888910000 0.2920880000 0.0422217000
0.2374460000 0.3003890000 0.0403906000
0.2757610000 0.3070880000 0.0419776000
0.3056230000 0.3127340000 0.0457771000
0.3359730000 0.3187460000 0.0509957000
0.3701990000 0.3275040000 0.0580453000
0.4061950000 0.3366290000 0.0674754000
0.4420230000 0.3453120000 0.0772259000
0.4762190000 0.3528950000 0.0865187000
0.5088270000 0.3587850000 0.0961318000
0.5392390000 0.3630730000 0.1048910000
0.5669950000 0.3659720000 0.1122000000
0.5921260000 0.3676660000 0.1183490000
0.6149540000 0.3681700000 0.1234000000
0.6354620000 0.3673910000 0.1274280000
0.6542150000 0.3653160000 0.1305710000
0.6717480000 0.3618980000 0.1329210000
0.6888230000 0.3572750000 0.1347980000
0.7063100000 0.3514000000 0.1363700000
0.7241630000 0.3459980000 0.1372240000
0.7428850000 0.3396050000 0.1379720000
0.7620970000 0.3315180000 0.1386740000
0.7814150000 0.3217820000 0.1391320000
0.8006260000 0.3102920000 0.1395280000
0.8198370000 0.2977650000 0.1399400000
0.0405585000 0.2707260000 0.0655222000
0.0457923000 0.2737320000 0.0677653000
0.0514687000 0.2774090000 0.0711986000
0.0599222000 0.2822160000 0.0764172000
0.0746777000 0.2876020000 0.0840772000
0.0955367000 0.2945140000 0.0849775000
0.1185470000 0.3017010000 0.0745861000
0.1508510000 0.3105970000 0.0636759000
0.1922180000 0.3203330000 0.0556344000
0.2401620000 0.3291520000 0.0517586000
0.2850840000 0.3362170000 0.0522011000
0.3187760000 0.3422290000 0.0554971000
0.3484550000 0.3474940000 0.0601205000
0.3793090000 0.3536280000 0.0662089000
0.4132140000 0.3619900000 0.0746166000
0.4478070000 0.3706110000 0.0841077000
0.4815290000 0.3786220000 0.0935836000
0.5134660000 0.3855950000 0.1022810000
0.5434040000 0.3913020000 0.1102460000
0.5710840000 0.3952850000 0.1181050000
0.5964450000 0.3981380000 0.1246510000
0.6194710000 0.3998020000 0.1302820000
0.6404520000 0.4003660000 0.1348130000
0.6596020000 0.3996950000 0.1382160000
0.6774400000 0.3977870000 0.1410240000
0.6945910000 0.3946290000 0.1432670000
0.7115890000 0.3902340000 0.1450220000
0.7290910000 0.3844360000 0.1469440000
0.7472340000 0.3768520000 0.1485310000
0.7655600000 0.3689020000 0.1490810000
0.7841760000 0.3599300000 0.1495230000
0.8031430000 0.3493710000 0.1497670000
0.8221710000 0.3378650000 0.1498130000
0.0373388000 0.2998700000 0.0735027000
0.0434577000 0.3026930000 0.0762493000
0.0501259000 0.3058980000 0.0800488000
0.0594339000 0.3106280000 0.0856641000
0.0760052000 0.3165180000 0.0946212000
0.1009080000 0.3230950000 0.1025710000
0.1267410000 0.3305710000 0.0951705000
0.1563130000 0.3386280000 0.0822309000
0.1963230000 0.3485770000 0.0724346000
0.2429690000 0.3579160000 0.0662852000
0.2911420000 0.3656820000 0.0650492000
0.3296860000 0.3716950000 0.0676738000
0.3610280000 0.3771420000 0.0720073000
0.3909210000 0.3824670000 0.0777600000
0.4219270000 0.3888460000 0.0847944000
0.4545360000 0.3967040000 0.0934005000
0.4872050000 0.4046230000 0.1021130000
0.5186540000 0.4118870000 0.1103530000
0.5481800000 0.4182960000 0.1177540000
0.5757380000 0.4238960000 0.1242690000
0.6012970000 0.4279850000 0.1309680000
0.6247500000 0.4307320000 0.1367360000
0.6462350000 0.4324710000 0.1415580000
0.6659340000 0.4331120000 0.1454640000
0.6842300000 0.4325780000 0.1486690000
0.7015180000 0.4308380000 0.1513390000
0.7183180000 0.4278320000 0.1534600000
0.7351030000 0.4233770000 0.1553520000
0.7522700000 0.4172120000 0.1570920000
0.7700010000 0.4090790000 0.1586790000
0.7884180000 0.3987950000 0.1601740000
0.8067750000 0.3886170000 0.1605860000
0.8252840000 0.3782560000 0.1606620000
0.0374609000 0.3286030000 0.0832990000
0.0449531000 0.3308770000 0.0859846000
0.0540169000 0.3340200000 0.0902724000
0.0647593000 0.3384910000 0.0967575000
0.0827344000 0.3449450000 0.1067980000
0.1088580000 0.3518580000 0.1165640000
0.1354240000 0.3595480000 0.1142290000
0.1646450000 0.3675440000 0.1022510000
0.2006260000 0.3765320000 0.0913252000
0.2446170000 0.3860070000 0.0840162000
0.2934920000 0.3942930000 0.0805982000
0.3371940000 0.4009160000 0.0822919000
0.3717560000 0.4064550000 0.0862440000
0.4025020000 0.4120240000 0.0912337000
0.4322420000 0.4175780000 0.0972152000
0.4628980000 0.4240480000 0.1041730000
0.4941630000 0.4313570000 0.1117720000
0.5248800000 0.4386970000 0.1194020000
0.5541470000 0.4453500000 0.1262840000
0.5816130000 0.4514080000 0.1323720000
0.6071560000 0.4566870000 0.1379420000
0.6308080000 0.4611280000 0.1428240000
0.6528420000 0.4639050000 0.1480280000
0.6731360000 0.4657050000 0.1522090000
0.6917680000 0.4663460000 0.1558100000
0.7093160000 0.4658580000 0.1586630000
0.7259940000 0.4641340000 0.1611050000
0.7423820000 0.4610060000 0.1632100000
0.7587700000 0.4562910000 0.1651480000
0.7756160000 0.4497140000 0.1670250000
0.7930270000 0.4411990000 0.1687950000
0.8110780000 0.4309300000 0.1704280000
0.8293890000 0.4193940000 0.1718170000
0.0482948000 0.3546650000 0.0946365000
0.0563668000 0.3578390000 0.0983902000
0.0644999000 0.3619440000 0.1036850000
0.0762798000 0.3670100000 0.1112840000
0.0952621000 0.3734190000 0.1207140000
0.1203330000 0.3806670000 0.1309070000
0.1464100000 0.3880670000 0.1321580000
0.1735410000 0.3961850000 0.1231560000
0.2075070000 0.4049590000 0.1134200000
0.2474400000 0.4139930000 0.1056840000
0.2933700000 0.4222930000 0.1004650000
0.3406580000 0.4294960000 0.0993057000
0.3799650000 0.4355990000 0.1023120000
0.4127870000 0.4413210000 0.1061420000
0.4431070000 0.4468600000 0.1111620000
0.4729990000 0.4527500000 0.1163810000
0.5029370000 0.4591740000 0.1224540000
0.5326770000 0.4661170000 0.1288780000
0.5613340000 0.4727550000 0.1349970000
0.5885400000 0.4789960000 0.1408560000
0.6141910000 0.4847490000 0.1459680000
0.6381320000 0.4898450000 0.1507290000
0.6602730000 0.4940570000 0.1548030000
0.6807810000 0.4973680000 0.1584040000
0.6999010000 0.4990160000 0.1622950000
0.7176470000 0.4996260000 0.1654380000
0.7343560000 0.4989850000 0.1681850000
0.7504540000 0.4971390000 0.1704590000
0.7664000000 0.4937970000 0.1726100000
0.7825590000 0.4888230000 0.1746090000
0.7992220000 0.4821700000 0.1766690000
0.8164340000 0.4738690000 0.1788050000
0.8339060000 0.4645760000 0.1806210000
0.0598764000 0.3814450000 0.1087820000
0.0679026000 0.3855800000 0.1132980000
0.0769360000 0.3902950000 0.1196310000
0.0897536000 0.3960940000 0.1271380000
0.1086140000 0.4030210000 0.1366290000
0.1331350000 0.4102390000 0.1468220000
0.1590910000 0.4170750000 0.1517660000
0.1840850000 0.4244450000 0.1457080000
0.2144500000 0.4328530000 0.1365380000
0.2511940000 0.4415660000 0.1287250000
0.2939500000 0.4499120000 0.1225450000
0.3410240000 0.4573740000 0.1187910000
0.3844510000 0.4641180000 0.1189440000
0.4207520000 0.4702830000 0.1213400000
0.4529790000 0.4760970000 0.1248950000
0.4835740000 0.4819560000 0.1289850000
0.5131760000 0.4879530000 0.1336540000
