bundles/resolve-cinematic-luts/Gamut/The Creator/gamut - CREATOR (Monitor LUTs)/Creator 08 - Bold ML.cube
TITLE "Creator LUT 08 by Gamut ML"
# Monitoring LUT. Version 1.0 - 11/18/2025 - Designed for Rec.709 Color Space. Copyright 2025 Gamut, LLC.
# 
LUT_3D_SIZE 33
0.0000000000 0.0000000000 0.0000000000
0.0131349062 0.0100785000 0.0100785000
0.0317405625 0.0149336875 0.0149336875
0.0538399375 0.0165600000 0.0165600000
0.0797773750 0.0166586250 0.0158696250
0.1105769688 0.0158942812 0.0151061250
0.1409928750 0.0143419375 0.0141940000
0.1725078750 0.0135783750 0.0127895937
0.2030100000 0.0126170000 0.0118290000
0.2331733437 0.0110400000 0.0104729062
0.2636770000 0.0102510000 0.0102510000
0.2938725625 0.0089452187 0.0102510000
0.3251900000 0.0081815000 0.0094630000
0.3556581250 0.0078860000 0.0082061250
0.3868125000 0.0078860000 0.0078860000
0.4182178125 0.0078860000 0.0078860000
0.4501405000 0.0070970000 0.0070970000
0.4830852812 0.0070970000 0.0070970000
0.5168258750 0.0070970000 0.0070970000
0.5511632813 0.0070970000 0.0070970000
0.5859416250 0.0063090000 0.0063090000
0.6209944688 0.0063090000 0.0063090000
0.6572375625 0.0070970000 0.0070970000
0.6939565625 0.0078860000 0.0078860000
0.7294852500 0.0086740000 0.0086740000
0.7635982188 0.0096353750 0.0096353750
0.7968442500 0.0111879375 0.0111879375
0.8308330625 0.0127402812 0.0128634063
0.8664133750 0.0158696250 0.0159682500
0.9038054688 0.0190738437 0.0190738437
0.9422438750 0.0229675625 0.0230168125
0.9787833750 0.0268612813 0.0268612813
0.9969350000 0.0291770000 0.0291770000
0.0132088438 0.0193443750 0.0132088438
0.0263684063 0.0263684063 0.0148597812
0.0439625938 0.0311240625 0.0142186562
0.0650170000 0.0343027500 0.0135045313
0.0907175938 0.0366440313 0.0120014375
0.1193149688 0.0374083750 0.0104482188
0.1483200313 0.0368659375 0.0088958750
0.1769924688 0.0361015938 0.0081323125
0.2066269062 0.0353380000 0.0071709375
0.2360778750 0.0343520000 0.0065799062
0.2661085313 0.0335640000 0.0058158437
0.2967498750 0.0322332500 0.0055939375
0.3272823437 0.0307048750 0.0050761562
0.3579211562 0.0291278750 0.0055446563
0.3890539375 0.0263432812 0.0055692812
0.4211029688 0.0240265937 0.0055692813
0.4535523437 0.0209218438 0.0063336250
0.4868547187 0.0178417813 0.0063336250
0.5210727500 0.0148346562 0.0063336250
0.5557158750 0.0114833125 0.0063336250
0.5906068750 0.0083292187 0.0063090000
0.6255606563 0.0078613438 0.0063090000
0.6617653125 0.0078613437 0.0070970000
0.6980837500 0.0078860000 0.0078860000
0.7331595937 0.0086740000 0.0086740000
0.7669075312 0.0096353750 0.0096353750
0.7998614063 0.0111879375 0.0111879375
0.8336312188 0.0128634063 0.0128634063
0.8690388125 0.0159682500 0.0159682500
0.9061457188 0.0191478125 0.0191478125
0.9442427188 0.0230168125 0.0230168125
0.9799956250 0.0268612812 0.0268612812
0.9970168438 0.0291770000 0.0291770000
0.0165106875 0.0445930000 0.0157217500
0.0334407500 0.0494930312 0.0134552500
0.0540627500 0.0541105625 0.0112371250
0.0744616250 0.0560906875 0.0096847500
0.0991545000 0.0578499375 0.0080830625
0.1260685937 0.0580140000 0.0073188437
0.1536121875 0.0580140000 0.0065060625
0.1820782812 0.0575382188 0.0056185625
0.2110151250 0.0567798125 0.0048296250
0.2402915938 0.0557065625 0.0042139375
0.2700567500 0.0545005625 0.0045340000
0.3002324375 0.0532292500 0.0047310000
0.3304626250 0.0513194375 0.0047310000
0.3614163125 0.0499458125 0.0047310000
0.3925650625 0.0475571250 0.0047310000
0.4241367500 0.0458506563 0.0051501562
0.4565623125 0.0432748750 0.0055200000
0.4895172500 0.0407125937 0.0047803125
0.5234190625 0.0379997500 0.0047803125
0.5579100000 0.0348940938 0.0047803125
0.5926633750 0.0317400625 0.0050761875
0.6276972187 0.0289062188 0.0055200000
0.6639548750 0.0263186250 0.0055693125
0.7003110625 0.0240019062 0.0065798750
0.7352972500 0.0219324375 0.0078860000
0.7687775312 0.0207005625 0.0096353750
0.8014526250 0.0200101250 0.0111879375
0.8350161563 0.0202319687 0.0134798125
0.8700117500 0.0219814375 0.0160667500
0.9070294062 0.0242980937 0.0198126875
0.9445730000 0.0275014375 0.0237556250
0.9795931250 0.0321348438 0.0276492813
0.9955835625 0.0344505625 0.0299166875
0.0151308437 0.0698405937 0.0135538438
0.0365947812 0.0744259063 0.0111632500
0.0572724687 0.0773850937 0.0088465312
0.0788127500 0.0788642188 0.0072448437
0.1048120938 0.0802751875 0.0056925000
0.1312231563 0.0803255312 0.0048789375
0.1583841562 0.0800222500 0.0041647188
0.1861344688 0.0791266875 0.0046325000
0.2149178750 0.0781731250 0.0039430000
0.2443539062 0.0768589688 0.0039430000
0.2741624062 0.0753967812 0.0047310000
0.3040946562 0.0742950937 0.0047310000
0.3348757813 0.0729719375 0.0047310000
0.3654648750 0.0709764062 0.0047310000
0.3966080625 0.0694161875 0.0051748125
0.4283964687 0.0672815312 0.0054460312
0.4605417813 0.0651521250 0.0055200000
0.4933722187 0.0629071875 0.0055200000
0.5270422812 0.0606010312 0.0047310000
0.5613596875 0.0579801562 0.0047310000
0.5955982812 0.0552178125 0.0047310000
0.6304350000 0.0533287812 0.0047310000
0.6663547500 0.0510032500 0.0055200000
0.7020961563 0.0487931562 0.0065306250
0.7366783125 0.0469187500 0.0080090312
0.7695014688 0.0455193125 0.0103497188
0.8016518750 0.0449565312 0.0120507187
0.8346217500 0.0442319688 0.0150815625
0.8692810625 0.0443058438 0.0181862813
0.9057750312 0.0450305000 0.0213658750
0.9428190937 0.0465781875 0.0252587500
0.9773739375 0.0493661562 0.0291524062
0.9928478438 0.0526070938 0.0306801250
0.0120261250 0.1001741250 0.0111386250
0.0366933437 0.1036599687 0.0081077500
0.0591070625 0.1055778125 0.0057664375
0.0808153125 0.1060971563 0.0049035937
0.1071981250 0.1068278750 0.0041401250
0.1340293125 0.1069425000 0.0039430000
0.1615893750 0.1062628750 0.0046325000
0.1901234687 0.1055267500 0.0053474062
0.2191465000 0.1044605000 0.0054213750
0.2488276563 0.1032777500 0.0048542813
0.2783733750 0.1021360625 0.0052734375
0.3089288437 0.1007305000 0.0055200000
0.3399340000 0.0995741250 0.0054213750
0.3703072500 0.0980058438 0.0059884687
0.4014788750 0.0961882500 0.0057665625
0.4330779375 0.0945819375 0.0055200000
0.4651657500 0.0924340000 0.0059145000
0.4980278125 0.0904969375 0.0058405313
0.5315446250 0.0883612500 0.0055200000
0.5654451875 0.0862437500 0.0055200000
0.5996486250 0.0841848750 0.0054213750
0.6342582500 0.0819620625 0.0057912188
0.6696085625 0.0800970625 0.0064566250
0.7049003750 0.0782658125 0.0080090000
0.7388158750 0.0764487500 0.0102511250
0.7713628438 0.0755382188 0.0125924687
0.8031344375 0.0750686250 0.0143911875
0.8357613437 0.0750686250 0.0173981563
0.8698642500 0.0750686250 0.0205030000
0.9057567500 0.0751146562 0.0236077187
0.9424670625 0.0765571875 0.0275507500
0.9762893125 0.0789507813 0.0313951563
0.9912192500 0.0838622500 0.0330215000
0.0082555312 0.1319880312 0.0081324063
0.0345491250 0.1333183750 0.0057910625
0.0581270625 0.1340089063 0.0054460313
0.0809872500 0.1346146875 0.0046078750
0.1079353750 0.1346451563 0.0047310000
0.1357773125 0.1349421563 0.0053967188
0.1634999063 0.1341007813 0.0053720625
0.1926278437 0.1333248750 0.0053967187
0.2223173750 0.1324075937 0.0061117500
0.2522440000 0.1312130625 0.0061857188
0.2826489062 0.1303676250 0.0061857188
0.3133992812 0.1293538125 0.0061857187
0.3443076562 0.1281758438 0.0064813750
0.3754811563 0.1270096562 0.0063090000
0.4066567500 0.1257646562 0.0069738750
0.4381874687 0.1247725625 0.0069738750
0.4704595313 0.1234492813 0.0069738750
0.5032943750 0.1218988125 0.0069738750
0.5368128750 0.1205446250 0.0069738750
0.5705239687 0.1190419688 0.0069738750
0.6043298437 0.1175107813 0.0069738750
0.6387202500 0.1160510625 0.0072450938
0.6735507500 0.1143535937 0.0087974375
0.7084120000 0.1128258438 0.0105716875
0.7419435313 0.1117736562 0.0125678438
0.7741829062 0.1113644688 0.0149089687
0.8057672813 0.1111483125 0.0173981250
0.8380427500 0.1114309062 0.0198374375
0.8718159062 0.1117766250 0.0230413438
0.9071964375 0.1121535000 0.0267132812
0.9433293125 0.1131503750 0.0306062188
0.9766603437 0.1155176562 0.0344752500
0.9906944375 0.1198137187 0.0360275938
0.0063090000 0.1622610000 0.0064567500
0.0301384375 0.1631819687 0.0055200000
0.0556805625 0.1634010000 0.0055200000
0.0791060000 0.1637023750 0.0054460312
0.1069765625 0.1637764375 0.0053720625
0.1352465625 0.1633387500 0.0055200000
0.1645982500 0.1632399375 0.0061610625
0.1944768437 0.1623680625 0.0061610625
0.2247267500 0.1616380000 0.0069000000
0.2553705625 0.1606796875 0.0069492500
0.2862780000 0.1597501250 0.0069492500
0.3174672813 0.1590152813 0.0069492500
0.3487106875 0.1580248750 0.0077380625
0.3799746875 0.1570276875 0.0077380625
0.4115701875 0.1562276250 0.0077380625
0.4432890312 0.1554752500 0.0077380625
0.4753911875 0.1544608750 0.0078860000
0.5083552188 0.1536995625 0.0078860000
0.5416563750 0.1525071250 0.0078860000
0.5754112188 0.1515850938 0.0077380625
0.6090599375 0.1505438750 0.0085262500
0.6431801875 0.1494042812 0.0095859375
0.6777565625 0.1481683125 0.0111386250
0.7123038437 0.1471011562 0.0129127812
0.7456021875 0.1465836250 0.0152293125
0.7774860625 0.1465935000 0.0173734375
0.8089013125 0.1469159375 0.0198621250
0.8409014062 0.1473947187 0.0228197187
0.8743697500 0.1478387500 0.0259244375
0.9094067188 0.1484038125 0.0292510625
0.9452355000 0.1492341875 0.0331201250
0.9777019062 0.1510972188 0.0369643437
0.9909713125 0.1546534375 0.0384922500
0.0069246250 0.1931377813 0.0069246250
0.0246677187 0.1937412187 0.0069246250
0.0513725938 0.1935448750 0.0063090000
0.0754786562 0.1938022813 0.0063090000
0.1045002187 0.1941539063 0.0069246250
0.1344026250 0.1939848750 0.0063090000
0.1644540000 0.1937344063 0.0069246250
0.1951167813 0.1931377813 0.0069246250
0.2263168437 0.1925315937 0.0075163750
0.2578150312 0.1917789375 0.0078860000
0.2894416875 0.1911076250 0.0078860000
0.3210212812 0.1902870937 0.0078860000
0.3524685625 0.1895438125 0.0085016250
0.3839640000 0.1888443437 0.0086740000
0.4157918750 0.1881735938 0.0086740000
0.4477398125 0.1875996563 0.0092904062
0.4800105313 0.1868206250 0.0092904062
0.5129200312 0.1861013437 0.0092904062
0.5463446875 0.1852895937 0.0092904062
0.5798318125 0.1845198125 0.0092904062
0.6133946250 0.1836459062 0.0100786250
0.6473686875 0.1826590000 0.0111386250
0.6818154687 0.1815863437 0.0133072812
0.7160488438 0.1810051875 0.0150320313
0.7490011250 0.1807942812 0.0173734063
0.7807831875 0.1810080625 0.0197142187
0.8120086562 0.1814778750 0.0222033125
0.8439924375 0.1821177500 0.0251355938
0.8771835625 0.1826770000 0.0282411562
0.9119305625 0.1831224688 0.0321346562
0.9472871250 0.1839975625 0.0360276562
0.9789267188 0.1858630312 0.0393053125
0.9916078750 0.1891365625 0.0408240313
0.0078860000 0.2248985000 0.0078860000
0.0171514687 0.2255004375 0.0077134063
0.0461665625 0.2252427500 0.0070970000
0.0715232813 0.2255231875 0.0069000000
0.1014791250 0.2256663750 0.0070970000
0.1324113438 0.2257120000 0.0077627188
0.1635132500 0.2255745625 0.0078860000
0.1951229375 0.2252313125 0.0082797500
0.2270332500 0.2247267500 0.0084770000
0.2594458750 0.2241278125 0.0086740000
0.2914930625 0.2235384375 0.0092164375
0.3235028125 0.2228546250 0.0092657500
0.3556227500 0.2222966250 0.0092657500
0.3874968437 0.2216349062 0.0100540000
0.4195016250 0.2210928125 0.0100540000
0.4516346562 0.2205770000 0.0100540000
0.4840635000 0.2200590000 0.0100540000
0.5170569063 0.2193614063 0.0100540000
0.5503176875 0.2187114375 0.0100540000
0.5838426250 0.2179397812 0.0108427500
0.6173690000 0.2169972500 0.0119272500
0.6513360938 0.2161815000 0.0134796250
0.6855523125 0.2153441875 0.0150320000
0.7195210625 0.2147865000 0.0171761250
0.7523777500 0.2146490000 0.0191230000
0.7840054687 0.2151769688 0.0218583437
0.8151810625 0.2157082500 0.0245444375
0.8468964063 0.2163695938 0.0274521563
0.8801241250 0.2170546250 0.0305570000
0.9145660000 0.2174237188 0.0339334688
0.9495513750 0.2183261875 0.0378025625
0.9806370937 0.2200509687 0.0415914062
0.9923685000 0.2231125000 0.0430770000
0.0084523750 0.2577131875 0.0084523750
0.0102268437 0.2585471563 0.0084523750
0.0388471875 0.2582083125 0.0078860000
0.0658766875 0.2580951250 0.0078860000
0.0965969375 0.2584734375 0.0084523750
0.1296884688 0.2586198125 0.0084523750
0.1618096562 0.2586101250 0.0085262500
0.1946303437 0.2584831250 0.0092410937
0.2272837500 0.2580415313 0.0092657500
0.2602047500 0.2573588125 0.0094630000
0.2929160937 0.2569242812 0.0100293750
0.3256600937 0.2564453125 0.0100293750
0.3578578125 0.2557562812 0.0100293750
0.3901923125 0.2553186250 0.0102510000
0.4223708750 0.2547981875 0.0108180938
0.4547415000 0.2543695000 0.0108180938
0.4871323438 0.2537781562 0.0110400000
0.5203370625 0.2531544063 0.0110400000
0.5539310313 0.2524963437 0.0113851875
0.5874236875 0.2516932500 0.0119272187
0.6209713438 0.2507968437 0.0134795938
0.6547965937 0.2498962812 0.0150319687
0.6889778750 0.2491314688 0.0165846562
0.7229299375 0.2487839688 0.0189257188
0.7555883750 0.2487475000 0.0212670938
0.7869867187 0.2491978750 0.0236079687
0.8182660312 0.2498285312 0.0260967812
0.8500149375 0.2505088125 0.0292017813
0.8830742188 0.2510889688 0.0323072187
0.9173370625 0.2515536250 0.0362003125
0.9520919063 0.2524344063 0.0400917500
0.9824969062 0.2540432812 0.0436091250
0.9936448125 0.2572271875 0.0450529375
0.0094630000 0.2915788125 0.0094630000
0.0100047500 0.2922519062 0.0094630000
0.0304587500 0.2919804375 0.0092164375
0.0590772188 0.2916647500 0.0092164375
0.0909612500 0.2918778125 0.0092164375
0.1260330000 0.2921533750 0.0093397187
0.1596686250 0.2922517500 0.0100047500
0.1934575625 0.2921492812 0.0100047500
0.2270784375 0.2918253750 0.0100540000
0.2606368750 0.2914429375 0.0102510000
0.2937820000 0.2909841250 0.0107934375
0.3269601562 0.2904353438 0.0107934375
0.3598189375 0.2899721250 0.0110400000
0.3923760312 0.2894351250 0.0110400000
0.4247337500 0.2889588125 0.0115824375
0.4572575313 0.2884501250 0.0115824375
0.4900567500 0.2879642500 0.0123707500
0.5233608750 0.2873428750 0.0123707500
0.5570506250 0.2865895625 0.0123707500
0.5906198437 0.2856557188 0.0134795625
0.6241968750 0.2847941250 0.0150319375
0.6581674375 0.2839733437 0.0165846562
0.6923621875 0.2832312500 0.0181373125
0.7260774688 0.2828385312 0.0204783437
0.7585799375 0.2828638750 0.0228194375
0.7901040000 0.2832845625 0.0253329375
0.8213896875 0.2838711250 0.0276494375
0.8530654375 0.2844737813 0.0307543125
0.8861521250 0.2850585000 0.0339580625
0.9203068750 0.2855862813 0.0377532812
0.9548270000 0.2865116875 0.0416603125
0.9846013125 0.2882395938 0.0452588750
0.9949069375 0.2912397500 0.0466698125
0.0107687812 0.3258658125 0.0107687812
0.0107687812 0.3265250313 0.0107687812
0.0199856250 0.3265820938 0.0100293750
0.0515812812 0.3260177813 0.0099801250
0.0845469062 0.3261007187 0.0099801250
0.1213060000 0.3262412500 0.0101032500
0.1565255000 0.3263530000 0.0107687812
0.1914805625 0.3262412500 0.0110400000
0.2262158125 0.3260177813 0.0107687812
0.2604615000 0.3257075312 0.0110400000
0.2942382813 0.3253040625 0.0115577812
0.3279423750 0.3247539688 0.0115577812
0.3610730313 0.3243153125 0.0118290000
0.3940267813 0.3239158750 0.0123461250
0.4266783125 0.3234243438 0.0123461250
0.4593522500 0.3229793750 0.0130361563
0.4924775937 0.3224617813 0.0131347812
0.5259761875 0.3217573438 0.0131347812
0.5598073750 0.3209674375 0.0137507500
0.5934744687 0.3199991875 0.0147117813
0.6272273437 0.3189959063 0.0157960000
0.6612364375 0.3180912500 0.0173486563
0.6954889687 0.3174103437 0.0196896875
0.7291071875 0.3169875313 0.0217355312
0.7615996250 0.3170475625 0.0240512500
0.7931908437 0.3174146562 0.0267131563
0.8244921563 0.3179844063 0.0292018125
0.8563530000 0.3186433437 0.0323071875
0.8894554375 0.3192794063 0.0354119062
0.9234007500 0.3199248750 0.0393045000
0.9577210312 0.3209520312 0.0430990000
0.9869096563 0.3226136563 0.0462252187
0.9962723125 0.3255704688 0.0473540000
0.0115331250 0.3605401250 0.0115331250
0.0115331250 0.3610633750 0.0115331250
0.0138002500 0.3613693750 0.0115331250
0.0421709375 0.3604863750 0.0108180938
0.0768217500 0.3603240000 0.0107441250
0.1157989375 0.3604039375 0.0109167188
0.1531767500 0.3604575000 0.0115331250
0.1892980312 0.3604961250 0.0116564062
0.2248203750 0.3602763750 0.0123215000
0.2598665000 0.3600201875 0.0123215000
0.2942198750 0.3596428750 0.0123215000
0.3284218437 0.3592780313 0.0126170000
0.3619167500 0.3588865000 0.0131101250
0.3951043437 0.3584583750 0.0131101250
0.4280792500 0.3580563750 0.0134060000
0.4609781875 0.3576174688 0.0138985000
0.4943717500 0.3569160000 0.0138985000
0.5283302188 0.3562808125 0.0138985000
0.5623114375 0.3553258750 0.0146871250
0.5961320625 0.3543141875 0.0157960313
0.6300543750 0.3533170000 0.0170531250
0.6641947500 0.3523165625 0.0189010000
0.6983940000 0.3516186875 0.0204536875
0.7319472500 0.3512422500 0.0227947500
0.7644863750 0.3512275000 0.0251357500
0.7962582188 0.3516979375 0.0276494688
0.8277840000 0.3523798750 0.0306064375
0.8597885938 0.3530577813 0.0333664062
0.8927895000 0.3537155000 0.0365697500
0.9265700937 0.3544915312 0.0400660625
0.9604496250 0.3556226875 0.0438631250
0.9890133438 0.3574962188 0.0473538125
0.9977191250 0.3604026250 0.0482940000
0.0118290000 0.3951013438 0.0118290000
0.0118290000 0.3954981563 0.0118290000
0.0125677500 0.3957973437 0.0118290000
0.0320851562 0.3951584688 0.0118290000
0.0688283437 0.3945674375 0.0116070937
0.1093235625 0.3944957500 0.0117057187
0.1490032187 0.3946591875 0.0122968750
0.1864019375 0.3945386250 0.0124446250
0.2229238125 0.3945185000 0.0130854687
0.2587271250 0.3943299375 0.0130854687
0.2938491562 0.3940065313 0.0130854687
0.3283212187 0.3937455625 0.0134060000
0.3622661250 0.3933961250 0.0138738750
0.3957940937 0.3929939062 0.0138738750
0.4290682188 0.3925569063 0.0146378125
0.4623709062 0.3921095313 0.0146624688
0.4961667188 0.3914512187 0.0146624687
0.5303174687 0.3906585313 0.0153523750
0.5644373750 0.3896684062 0.0154508750
0.5984938438 0.3886035313 0.0168805312
0.6326724375 0.3874819063 0.0181127500
0.6669342500 0.3866218750 0.0196650937
0.7011050313 0.3859530313 0.0217848125
0.7347871875 0.3857105312 0.0235587813
0.7674789687 0.3858329062 0.0260967188
0.7993570937 0.3863740625 0.0287339688
0.8309599063 0.3871045000 0.0313704062
0.8630500000 0.3879227188 0.0341554062
0.8959257188 0.3887365625 0.0373587500
0.9294523437 0.3897365938 0.0411366875
0.9628270313 0.3910084375 0.0445304063
0.9908470000 0.3929308437 0.0476178125
0.9990779375 0.3957910000 0.0487042812
0.0130608125 0.4295887500 0.0130608125
0.0130608125 0.4299051875 0.0130608125
0.0130608125 0.4301722500 0.0130608125
0.0225980312 0.4298820313 0.0126170000
0.0603659375 0.4288668125 0.0126170000
0.1025982500 0.4286533750 0.0126170000
0.1443775000 0.4286918125 0.0130608125
0.1834719687 0.4287200000 0.0132334062
0.2210835000 0.4286274375 0.0138492500
0.2575838125 0.4284851562 0.0138492500
0.2932671875 0.4283718125 0.0141940000
0.3281028750 0.4280539375 0.0146378125
0.3623703750 0.4277718125 0.0146871250
0.3961474063 0.4274507813 0.0149830000
0.4296963750 0.4270905000 0.0154262500
0.4633327187 0.4265376563 0.0157710000
0.4974269375 0.4258586250 0.0157710000
0.5318901250 0.4250307187 0.0161408437
0.5663373750 0.4240318125 0.0169051875
0.6007330000 0.4229813438 0.0176691250
0.6350579375 0.4220118750 0.0188763125
0.6694158437 0.4212354688 0.0204290313
0.7037123750 0.4207308125 0.0225728125
0.7375182188 0.4206398125 0.0243224375
0.7701496250 0.4209255625 0.0270090000
0.8021296562 0.4216471875 0.0295219687
0.8338215625 0.4225198125 0.0318386875
0.8659182188 0.4234886250 0.0349434062
0.8986316250 0.4244203750 0.0380491250
0.9316615625 0.4255580000 0.0411366875
0.9645735000 0.4269642500 0.0448281875
0.9921304375 0.4289974062 0.0476178125
0.9998637500 0.4318270625 0.0482940000
0.0134060000 0.4639740937 0.0134060000
0.0134060000 0.4642618750 0.0134060000
0.0134060000 0.4644292812 0.0134060000
0.0173487187 0.4643127500 0.0134060000
0.0522234375 0.4631629375 0.0126170000
0.0956871250 0.4626818438 0.0132827187
0.1397317813 0.4625860000 0.0134060000
0.1802399375 0.4627343750 0.0140216250
0.2187987500 0.4626781562 0.0146131563
0.2560395313 0.4626096563 0.0147610938
0.2921221875 0.4624667188 0.0149830000
0.3274051875 0.4623992188 0.0154016250
0.3619310937 0.4621828750 0.0154755000
0.3959581562 0.4619246563 0.0157710000
0.4297785625 0.4615643750 0.0161901563
0.4637916250 0.4610929687 0.0161901563
0.4982979375 0.4604817812 0.0169545000
0.5330726875 0.4597268125 0.0169791562
0.5678356875 0.4587547500 0.0177676250
0.6023980312 0.4578071250 0.0185561562
0.6370225625 0.4570391250 0.0200098750
0.6715870625 0.4564600000 0.0215628750
0.7060706250 0.4561778438 0.0233618125
0.7397915312 0.4562973750 0.0254559063
0.7725203437 0.4568271562 0.0274278750
0.8044808125 0.4576395000 0.0297685312
0.8361777188 0.4586551250 0.0326276875
0.8681781875 0.4597035000 0.0349434062
0.9006448125 0.4607862500 0.0380491250
0.9332901875 0.4619875000 0.0411366875
0.9658113750 0.4634751875 0.0444845938
0.9928664062 0.4654822188 0.0472440000
1.0000000000 0.4681783438 0.0482940000
0.0141940000 0.4984600000 0.0141940000
0.0141940000 0.4985897812 0.0141940000
0.0141940000 0.4986882500 0.0141940000
0.0159436875 0.4986391562 0.0138738750
0.0435627500 0.4976232500 0.0134060000
0.0880803437 0.4967672500 0.0134060000
0.1341172500 0.4966167500 0.0140462500
0.1759065312 0.4966380000 0.0145885000
0.2152662500 0.4966880000 0.0153770000
0.2531936563 0.4966710000 0.0159438750
0.2898086250 0.4967035000 0.0161655000
0.3255510938 0.4967360000 0.0162887812
0.3604417500 0.4967005000 0.0169545000
0.3948885000 0.4966488750 0.0169545000
0.4292311250 0.4964212500 0.0170038125
0.4637220312 0.4960600000 0.0177430000
0.4985570000 0.4955350000 0.0177430000
0.5336310625 0.4948127500 0.0185068438
0.5686749375 0.4940890000 0.0188762500
0.6036696250 0.4933566562 0.0196405313
0.6385370000 0.4927853750 0.0208975000
0.6733579687 0.4923334688 0.0223512187
0.7079274375 0.4922509375 0.0241498125
0.7417024063 0.4925509687 0.0258504062
0.7743727500 0.4932472500 0.0279942500
0.8062817500 0.4942151250 0.0303109688
0.8379009375 0.4952988750 0.0326276875
0.8696692500 0.4964025937 0.0356091250
0.9017690000 0.4974663750 0.0380491250
0.9341711563 0.4987501562 0.0411366875
0.9663455000 0.5003177500 0.0440961250
0.9929816250 0.5022719687 0.0465587187
1.0000000000 0.5048500000 0.0475930000
0.0141940000 0.5328970000 0.0145638437
0.0141940000 0.5329837813 0.0145638437
0.0141940000 0.5330719688 0.0145638437
0.0149090312 0.5330254688 0.0145638437
0.0348451250 0.5320565625 0.0138738750
0.0790985938 0.5308913750 0.0144407188
0.1267845625 0.5304215313 0.0155742812
0.1700496250 0.5304431875 0.0165106875
0.2105030625 0.5306496875 0.0172992187
0.2489921875 0.5307670625 0.0177183750
0.2862529375 0.5309537187 0.0180882187
0.3224036563 0.5311912812 0.0185068437
0.3578531875 0.5314007188 0.0185068438
0.3929404687 0.5315768125 0.0188762187
0.4279065000 0.5315631250 0.0188762187
0.4629067500 0.5314046563 0.0192953750
0.4981660625 0.5311316562 0.0192953750
0.5337231250 0.5306469375 0.0196652187
0.5691057188 0.5300110000 0.0200838438
0.6045207812 0.5295454688 0.0208728438
0.6397133437 0.5291162500 0.0219572500
0.6747191875 0.5288688125 0.0235095938
0.7093967500 0.5289178437 0.0250619375
0.7430907187 0.5292959687 0.0266144688
0.7757163125 0.5300288750 0.0285860000
0.8074940313 0.5311155000 0.0305079688
0.8389104375 0.5322383438 0.0326276875
0.8703909687 0.5333125000 0.0356091250
0.9021997812 0.5344566875 0.0379505000
0.9342328125 0.5356931563 0.0403615625
0.9661754687 0.5372144688 0.0433561250
0.9927407500 0.5390613438 0.0458668750
1.0000000000 0.5415332812 0.0468920000
0.0156729375 0.5667769375 0.0161161875
0.0156729375 0.5668330625 0.0161161875
0.0156729375 0.5668811875 0.0161161875
0.0160423125 0.5668571250 0.0161161875
0.0271075000 0.5661635000 0.0156729375
0.0692392500 0.5646102500 0.0167819062
0.1180145625 0.5640220000 0.0178910000
0.1630431250 0.5642171250 0.0188269375
0.2045298750 0.5645356875 0.0196159375
0.2439701875 0.5649645000 0.0204043750
0.2818618750 0.5654008750 0.0204043750
0.3186796562 0.5659219063 0.0205769688
0.3548647500 0.5663901875 0.0208481875
0.3905873750 0.5668267813 0.0211929375
0.4261791250 0.5671685625 0.0211929375
0.4618339062 0.5672656875 0.0211929375
0.4975950625 0.5671703125 0.0211929375
