bundles/resolve-cinematic-luts/Gamut/The Creator/gamut - CREATOR (Monitor LUTs)/Creator 01 - Cine ML.cube
TITLE "Creator LUT 01 by Gamut ML"
# Monitoring LUT. Version 1.0 - 11/18/2025 - Designed for Rec.709 Color Space. Copyright 2025 Gamut, LLC.
# 
LUT_3D_SIZE 33
0.0149830000 0.0228690000 0.0276000000
0.0235337813 0.0244213438 0.0283890000
0.0350916875 0.0275014375 0.0299166875
0.0469770625 0.0290291563 0.0299660000
0.0617421250 0.0306555000 0.0307540000
0.0817483125 0.0323320000 0.0300891250
0.1036850625 0.0345492500 0.0293249375
0.1243271875 0.0354860000 0.0277725937
0.1471565000 0.0376547500 0.0268120000
0.1720238125 0.0384183750 0.0254559063
0.1987196875 0.0391824375 0.0239035625
0.2268197500 0.0407269063 0.0223512187
0.2553777500 0.0422321250 0.0200098750
0.2852265625 0.0441391875 0.0172006563
0.3169168750 0.0465809375 0.0153277500
0.3495102500 0.0479668125 0.0113600625
0.3832625000 0.0486395000 0.0074915000
0.4179422812 0.0493056250 0.0059391562
0.4537648750 0.0506420000 0.0058651875
0.4894087812 0.0526130937 0.0074175312
0.5251323750 0.0538925000 0.0097585000
0.5598804375 0.0557838750 0.0115820937
0.5916993750 0.0578211875 0.0138988125
0.6214677500 0.0609598437 0.0159929063
0.6495737500 0.0643762500 0.0183342500
0.6749302500 0.0676613438 0.0206755937
0.6957886875 0.0708275625 0.0222279375
0.7124299687 0.0738863438 0.0237802813
0.7298973750 0.0773380000 0.0253326250
0.7464614063 0.0807122500 0.0268858750
0.7635933125 0.0848296875 0.0292263125
0.7798972187 0.0888099375 0.0307786563
0.7959130000 0.0934290000 0.0331200000
0.0172996875 0.0275014375 0.0368905000
0.0242981250 0.0321841250 0.0307293750
0.0381717813 0.0367919062 0.0322580312
0.0528378125 0.0398966563 0.0330214687
0.0717701250 0.0422253437 0.0324058750
0.0927539375 0.0450182500 0.0316169688
0.1137967813 0.0465230312 0.0294480625
0.1356297500 0.0484748438 0.0285367500
0.1593531250 0.0499547187 0.0275753750
0.1849071562 0.0512794688 0.0262202500
0.2122527812 0.0525821875 0.0239035625
0.2397105625 0.0538624063 0.0223512187
0.2679857812 0.0551227500 0.0200098750
0.2973670000 0.0563625313 0.0176691250
0.3284612188 0.0576045938 0.0148839375
0.3610843125 0.0588065313 0.0105966875
0.3951490313 0.0602677187 0.0070975000
0.4296760625 0.0617070937 0.0063090000
0.4648311563 0.0636752500 0.0066537500
0.4996997813 0.0653380625 0.0082061250
0.5346895312 0.0671550000 0.0105222500
0.5688122500 0.0703034687 0.0123710937
0.6001350313 0.0735200625 0.0144405625
0.6290683125 0.0774456875 0.0167572500
0.6569705625 0.0812156250 0.0190983437
0.6818300938 0.0849415625 0.0214397187
0.7020199687 0.0883452812 0.0229920938
0.7187649063 0.0917165937 0.0245691250
0.7359803125 0.0949963125 0.0261216250
0.7523326875 0.0982058750 0.0276739687
0.7691389375 0.1017100625 0.0292755625
0.7848777188 0.1054725938 0.0315430000
0.8005122188 0.1094547187 0.0338843438
0.0196647500 0.0344505625 0.0479328750
0.0281918438 0.0421012812 0.0407975938
0.0358797500 0.0457590000 0.0323320000
0.0509885625 0.0485840312 0.0323073438
0.0718454375 0.0519231250 0.0323812500
0.0956261562 0.0556098437 0.0308772812
0.1199651875 0.0581144375 0.0293741875
0.1455072188 0.0609463438 0.0293495937
0.1735630000 0.0632531250 0.0277972500
0.2031604062 0.0649253438 0.0262449062
0.2318983750 0.0666653750 0.0241498125
0.2606195625 0.0677459375 0.0218340937
0.2900032500 0.0693139375 0.0195173750
0.3201275625 0.0703629688 0.0164613125
0.3510691875 0.0717264375 0.0121736875
0.3842517187 0.0729408125 0.0075161562
0.4177696250 0.0746722500 0.0055693125
0.4518384375 0.0766402500 0.0059391563
0.4857913750 0.0787440625 0.0073929375
0.5191972500 0.0813393438 0.0089945312
0.5530546875 0.0839454375 0.0112865625
0.5853882500 0.0874329375 0.0136275625
0.6158749375 0.0909953125 0.0154758125
0.6442139063 0.0949837813 0.0177432187
0.6708174375 0.0985534375 0.0200592500
0.6952053125 0.1021193125 0.0222033437
0.7144336250 0.1054138750 0.0238049375
0.7306435937 0.1083297812 0.0259736875
0.7475150000 0.1115506250 0.0270091250
0.7632647500 0.1146568750 0.0292017188
0.7796283125 0.1180213750 0.0307540625
0.7951330312 0.1216059375 0.0323812812
0.8100975625 0.1251108750 0.0354366875
0.0189998750 0.0435760000 0.0587405000
0.0289799062 0.0498428125 0.0501051562
0.0390100313 0.0574135938 0.0385660938
0.0483785313 0.0586182500 0.0323320000
0.0702308750 0.0609771875 0.0316169688
0.0937571875 0.0648854375 0.0308772812
0.1184744687 0.0691231562 0.0300398750
0.1441393750 0.0722405937 0.0285613750
0.1732006563 0.0752034375 0.0277972500
0.2053916562 0.0777279063 0.0262449062
0.2384160625 0.0800640937 0.0241498125
0.2715834375 0.0823448438 0.0218340937
0.3044581563 0.0842449687 0.0190242500
0.3382460000 0.0858580312 0.0144407500
0.3718387500 0.0873232812 0.0086248125
0.4068102813 0.0890900313 0.0056678438
0.4417284688 0.0912929062 0.0054460312
0.4760941875 0.0937543437 0.0066783750
0.5097644687 0.0963769375 0.0082307500
0.5425720938 0.0992288125 0.0104976562
0.5749437187 0.1022673438 0.0123464063
0.6069040625 0.1056400937 0.0146622187
0.6360430313 0.1090274375 0.0167325938
0.6633955312 0.1125533750 0.0190736562
0.6891358125 0.1162863125 0.0214150313
0.7124355313 0.1196092500 0.0237557187
0.7308940313 0.1224278438 0.0253080625
0.7467334688 0.1250483125 0.0268611563
0.7629386250 0.1278783125 0.0284135313
0.7785025937 0.1311221875 0.0299659063
0.7937810938 0.1341351562 0.0315675937
0.8088686250 0.1373167812 0.0338843125
0.8234621250 0.1409386250 0.0362740000
0.0181370000 0.0548306250 0.0703131250
0.0290537813 0.0607235313 0.0617095625
0.0383936250 0.0689914375 0.0474120625
0.0503674688 0.0754923750 0.0370137500
0.0655913750 0.0741165000 0.0308526250
0.0920742500 0.0774808438 0.0308526250
0.1174155625 0.0816440625 0.0301137500
0.1430166250 0.0856928437 0.0291770000
0.1718972500 0.0891780000 0.0277972500
0.2036690312 0.0921429687 0.0262449062
0.2364499375 0.0948389375 0.0246922500
0.2699827500 0.0976736250 0.0223512187
0.3050545000 0.1003628750 0.0195173750
0.3418430937 0.1026559375 0.0138983125
0.3804781250 0.1050619375 0.0076888750
0.4203152187 0.1075211875 0.0055200000
0.4592698750 0.1105150000 0.0062103750
0.4959554375 0.1133929375 0.0074668438
0.5313032500 0.1160763125 0.0097091250
0.5650021250 0.1191703438 0.0115820312
0.5978371250 0.1220491250 0.0138987500
0.6297788438 0.1252254375 0.0159437187
0.6586496875 0.1285945000 0.0182850625
0.6855311250 0.1317005313 0.0206262812
0.7105888750 0.1348285000 0.0229673750
0.7329186563 0.1380041875 0.0247909687
0.7511738125 0.1407878125 0.0268611250
0.7666928750 0.1432757813 0.0284135000
0.7819621250 0.1460268750 0.0299658750
0.7971762500 0.1491508438 0.0315183438
0.8116813125 0.1522602500 0.0337611250
0.8263153125 0.1557599375 0.0361015312
0.8409072500 0.1596798750 0.0384428750
0.0137755313 0.0693256563 0.0836121562
0.0254311875 0.0738524062 0.0747536562
0.0361755625 0.0828025000 0.0576553438
0.0498369687 0.0914400000 0.0459894688
0.0709016250 0.0969596562 0.0354859375
0.0874414062 0.0931906875 0.0307540000
0.1154913125 0.0959661563 0.0307540000
0.1415011875 0.0999264687 0.0293495937
0.1703662500 0.1036866250 0.0283890000
0.2023052188 0.1073252188 0.0269105000
0.2344544375 0.1104391563 0.0248155312
0.2683014375 0.1135162500 0.0223512187
0.3024003750 0.1159645313 0.0196899687
0.3386365937 0.1186370625 0.0148845625
0.3774323438 0.1213808125 0.0083537500
0.4181617500 0.1246875625 0.0055200000
0.4603999687 0.1284631250 0.0067030000
0.5014970625 0.1322775312 0.0082553750
0.5415093750 0.1356347500 0.0101529375
0.5785603437 0.1390995625 0.0124696562
0.6145041875 0.1421717500 0.0147853750
0.6480588438 0.1455908750 0.0171020937
0.6784566563 0.1487955938 0.0198374375
0.7062782500 0.1518879687 0.0221787813
0.7313968750 0.1551945937 0.0245197188
0.7540608125 0.1583475000 0.0262446875
0.7722082188 0.1612510313 0.0284134688
0.7874754375 0.1640608437 0.0299658437
0.8023459063 0.1671272188 0.0315183437
0.8173738750 0.1703327500 0.0331447187
0.8315255313 0.1735424063 0.0354612812
0.8461639687 0.1772453438 0.0377780000
0.8602016250 0.1809037500 0.0400938750
0.0081816875 0.0878112500 0.0974195000
0.0234352188 0.0916231250 0.0911639688
0.0337117500 0.0987499375 0.0697048125
0.0483636250 0.1073916563 0.0558897188
0.0716588750 0.1144209375 0.0439012500
0.0923555625 0.1174067813 0.0339828437
0.1112706250 0.1133982500 0.0321840625
0.1398147813 0.1157745625 0.0307786563
0.1696176250 0.1197587500 0.0292263125
0.2012106250 0.1229479688 0.0276739687
0.2341368750 0.1263565625 0.0249388125
0.2667557812 0.1296291250 0.0223512187
0.3005391875 0.1326749375 0.0207988750
0.3360290312 0.1355486875 0.0161165625
0.3737841250 0.1381455000 0.0099063750
0.4140863438 0.1416195625 0.0063090000
0.4556161250 0.1456670625 0.0069492500
0.4972923437 0.1499387812 0.0086252188
0.5388234375 0.1542813750 0.0105961875
0.5784550313 0.1586381562 0.0129375312
0.6178673125 0.1629776250 0.0155743750
0.6557922187 0.1672950625 0.0178910937
0.6896043125 0.1712880625 0.0206016250
0.7198918125 0.1748080938 0.0231645937
0.7472250000 0.1782540625 0.0254807500
0.7709438750 0.1816767813 0.0276248437
0.7900744375 0.1848582500 0.0299658125
0.8057422500 0.1875255000 0.0315183438
0.8212971250 0.1907981875 0.0331693750
0.8365281562 0.1941608438 0.0354119375
0.8509493750 0.1976471250 0.0377533125
0.8658428437 0.2014391563 0.0400935313
0.8798061250 0.2051538750 0.0423740625
0.0056925937 0.1078503750 0.1111398750
0.0219815000 0.1104184687 0.1079690312
0.0321593750 0.1153328125 0.0821367188
0.0475492812 0.1236360000 0.0671773125
0.0720008750 0.1317978125 0.0545196562
0.0960269375 0.1378282812 0.0423413750
0.1144195000 0.1373529375 0.0338843438
0.1353012188 0.1337074687 0.0329476250
0.1679928438 0.1358061563 0.0321594063
0.2000375313 0.1389609063 0.0300645625
0.2332690312 0.1424244375 0.0269598437
0.2659369375 0.1456621875 0.0238541250
0.2995870938 0.1492364688 0.0217107812
0.3343944375 0.1526049063 0.0168801250
0.3719606250 0.1558857188 0.0112861250
0.4107866562 0.1594396250 0.0072942500
0.4516404375 0.1633895625 0.0077134063
0.4928498125 0.1680464375 0.0090438437
0.5342942500 0.1730356250 0.0112125937
0.5745078437 0.1779130938 0.0135535313
0.6141856250 0.1828624687 0.0158945000
0.6527845313 0.1876640937 0.0186790938
0.6887426250 0.1922615937 0.0209958125
0.7216461875 0.1968498438 0.0237065313
0.7515217500 0.2010366875 0.0264172500
0.7782645000 0.2051233438 0.0287339688
0.7991478437 0.2088580312 0.0307295625
0.8162072812 0.2122630625 0.0322825312
0.8331114687 0.2158721250 0.0346232500
0.8495651875 0.2194991875 0.0369643750
0.8651065312 0.2232523750 0.0393056563
0.8806765937 0.2269018438 0.0416386875
0.8951553750 0.2306444062 0.0438429063
0.0041400000 0.1275015000 0.1239735000
0.0204291563 0.1298507812 0.1233387188
0.0313459375 0.1335405000 0.0968150000
0.0461545000 0.1405298750 0.0788330000
0.0699307500 0.1498427500 0.0650625000
0.0949919063 0.1572510625 0.0520393437
0.1200166250 0.1623148125 0.0402596875
0.1360937812 0.1584033125 0.0346477188
0.1622500000 0.1548917500 0.0331200000
0.1981173125 0.1569659063 0.0317649063
0.2322314375 0.1600473125 0.0298180000
0.2659135625 0.1636465000 0.0269598438
0.2992891250 0.1669217500 0.0233616250
0.3336874687 0.1705399687 0.0184330625
0.3698643750 0.1738186875 0.0120751250
0.4088904062 0.1779930312 0.0082553750
0.4485527500 0.1823632500 0.0084770000
0.4896877812 0.1870833750 0.0102022187
0.5300223125 0.1918880625 0.0119765000
0.5706435000 0.1972535625 0.0143175313
0.6103053750 0.2026946250 0.0166586250
0.6487325313 0.2081668125 0.0194680937
0.6845491875 0.2131591875 0.0217848125
0.7179684063 0.2178105312 0.0244703750
0.7484665000 0.2224067500 0.0272062500
0.7759754375 0.2268987188 0.0295219687
0.7981642500 0.2308978125 0.0314936875
0.8168694687 0.2343445625 0.0332432812
0.8352328750 0.2382861250 0.0353872500
0.8532030000 0.2422477188 0.0377286250
0.8701858125 0.2462175000 0.0400685625
0.8872748437 0.2501935000 0.0425625313
0.9029320000 0.2541272500 0.0452817500
0.0025876250 0.1479126875 0.1359760937
0.0188765625 0.1503485000 0.1360615937
0.0311980000 0.1532314687 0.1125770625
0.0446755000 0.1597139375 0.0912601250
0.0653781250 0.1682013125 0.0764675312
0.0914175625 0.1774987813 0.0633042500
0.1195715625 0.1836518125 0.0494600313
0.1448574375 0.1877866563 0.0392318125
0.1610125312 0.1804541562 0.0360277187
0.1918935000 0.1774451250 0.0339090000
0.2297016563 0.1789660937 0.0315676563
0.2650265312 0.1821139062 0.0287091875
0.2988730312 0.1854366562 0.0243223437
0.3335047187 0.1891734063 0.0188522188
0.3695455937 0.1930230625 0.0128636875
0.4076649375 0.1974207500 0.0099803125
0.4470983750 0.2022495938 0.0096350938
0.4874761563 0.2074327187 0.0111879375
0.5275074375 0.2128072188 0.0127405625
0.5672683125 0.2179112500 0.0150812188
0.6065314688 0.2229440937 0.0177184688
0.6451872813 0.2284639063 0.0202564375
0.6806608125 0.2335561250 0.0228933438
0.7136836250 0.2383395937 0.0252342812
0.7443003750 0.2429146875 0.0279942500
0.7720023437 0.2473594375 0.0303109688
0.7941748750 0.2512635625 0.0322578438
0.8130651875 0.2547420938 0.0341554063
0.8314612500 0.2585697500 0.0361510000
0.8499464063 0.2624652813 0.0384923438
0.8677058750 0.2664935625 0.0408232813
0.8858356250 0.2706537500 0.0433100625
0.9028972500 0.2748779375 0.0459790625
0.0031540000 0.1690535625 0.1478006875
0.0165354687 0.1714810625 0.1483225313
0.0306062500 0.1746050000 0.1289011250
0.0430050938 0.1798347813 0.1047530937
0.0611576250 0.1885883750 0.0885883125
0.0868803750 0.1980160625 0.0748555625
0.1159343750 0.2063875000 0.0606981250
0.1453575000 0.2115334063 0.0479735938
0.1727551250 0.2143186875 0.0379503750
0.1885675938 0.2042250312 0.0362247187
0.2238324375 0.2019116250 0.0333665625
0.2623910000 0.2031058125 0.0302615313
0.2987398125 0.2062158125 0.0246428125
0.3335853125 0.2096541563 0.0187042812
0.3699784375 0.2136073125 0.0133069375
0.4075908125 0.2179601250 0.0118290000
0.4463018750 0.2228751875 0.0113358750
0.4858761563 0.2279117500 0.0127405937
0.5257410000 0.2334766875 0.0146376875
0.5652365625 0.2388212188 0.0166339687
0.6040600625 0.2439827500 0.0189749375
0.6418583750 0.2489165937 0.0213163125
0.6770235000 0.2536869375 0.0239035625
0.7101174063 0.2585174375 0.0264665313
0.7405074375 0.2630946250 0.0287832500
0.7679493750 0.2675555312 0.0310991875
0.7899306250 0.2713563125 0.0330216875
0.8089300000 0.2748135312 0.0349434062
0.8274198125 0.2784184375 0.0372601250
0.8456282813 0.2821259375 0.0392563125
0.8632916250 0.2860444375 0.0415672500
0.8814105000 0.2901319375 0.0440505625
0.8988449375 0.2943084375 0.0461810000
0.0039430000 0.1917721250 0.1599505000
0.0144650312 0.1942154375 0.1610871563
0.0298426250 0.1975600937 0.1466000313
0.0419308125 0.2019267813 0.1199122188
0.0572705625 0.2097146250 0.1010564063
0.0806262813 0.2192383750 0.0867938125
0.1111456563 0.2287450313 0.0731820937
0.1427338437 0.2353236875 0.0586153437
0.1753225938 0.2396902812 0.0459441875
0.2032377187 0.2400383750 0.0370630000
0.2202979375 0.2292050000 0.0357075937
0.2566998437 0.2272954688 0.0320850938
0.2962319375 0.2283903750 0.0259246250
0.3334368750 0.2312810937 0.0198871875
0.3704569688 0.2350776875 0.0146130625
0.4083459063 0.2393929375 0.0135534063
0.4467530000 0.2440973125 0.0140464063
0.4857467813 0.2489969062 0.0155987500
0.5247241250 0.2544955938 0.0171513125
0.5637145000 0.2598212188 0.0187040312
0.6022980937 0.2651150937 0.0210450625
0.6397310000 0.2701459063 0.0231398750
0.6741728437 0.2744930937 0.0254562500
0.7064974063 0.2787180938 0.0275510312
0.7368137500 0.2831780000 0.0298917813
0.7640810937 0.2875671250 0.0322331562
0.7859506562 0.2913162500 0.0342046875
0.8050964687 0.2948306875 0.0361264062
0.8233646250 0.2983381875 0.0384677500
0.8414925000 0.3019503438 0.0403615625
0.8591320625 0.3057450000 0.0426090625
0.8768779375 0.3096394062 0.0447830938
0.8943062500 0.3137020000 0.0473540000
0.0039430000 0.2155452500 0.1731700000
0.0126417813 0.2175071875 0.1743415625
0.0290293125 0.2215721250 0.1645194375
0.0419308125 0.2249115313 0.1367483438
0.0570898750 0.2321998750 0.1154383750
0.0743091250 0.2412222813 0.0999609063
0.1032025000 0.2510341875 0.0864854375
0.1387947812 0.2594907188 0.0725098750
0.1749686250 0.2647036250 0.0570256250
0.2096305000 0.2687440313 0.0445180625
0.2344610625 0.2658711875 0.0360280625
0.2542148125 0.2555770000 0.0344264375
0.2908528750 0.2532430000 0.0272057500
0.3309946875 0.2549689687 0.0198871875
0.3701421250 0.2579591875 0.0173490000
0.4090626250 0.2617616875 0.0166832813
0.4474677500 0.2662257500 0.0171512500
0.4863814687 0.2709105312 0.0183346250
0.5247809375 0.2758803125 0.0194678125
0.5629915625 0.2811868125 0.0213409062
0.6009902500 0.2865568750 0.0233615000
0.6377769375 0.2916200313 0.0257028437
0.6720430000 0.2962496875 0.0277973125
0.7041222812 0.3004345937 0.0295962500
0.7340285000 0.3044172500 0.0316413750
0.7608703750 0.3082833437 0.0337855000
0.7824315625 0.3117634375 0.0358305625
0.8011604688 0.3150036250 0.0376792500
0.8193086250 0.3183752500 0.0393287500
0.8372979375 0.3218382813 0.0415430937
0.8548718750 0.3254607500 0.0437729375
0.8724181875 0.3293180937 0.0459559687
0.8899092500 0.3334407500 0.0480322500
0.0047310000 0.2392196250 0.1865896563
0.0103743750 0.2415512812 0.1882865312
0.0286348750 0.2461728750 0.1836832500
0.0414074687 0.2492416875 0.1549655937
0.0568323125 0.2556191563 0.1314365313
0.0737670625 0.2643151875 0.1143318438
0.0940248438 0.2741527812 0.0999002813
0.1295909688 0.2834901563 0.0871779375
0.1732357187 0.2904775625 0.0714849688
0.2115203438 0.2951051250 0.0556405000
0.2452673438 0.2986824375 0.0404919063
0.2668097812 0.2924676875 0.0317151875
0.2894683750 0.2827582500 0.0287581250
0.3267311250 0.2809929375 0.0211436562
0.3681406250 0.2826620625 0.0190733437
0.4091091875 0.2858245625 0.0194925000
0.4480984688 0.2894535938 0.0206509375
0.4869952500 0.2937590937 0.0218091875
0.5251803125 0.2983595625 0.0230414063
0.5631528750 0.3032707813 0.0249138750
0.6006653750 0.3083951563 0.0264664375
0.6370531250 0.3135206875 0.0288075625
0.6706540625 0.3181865312 0.0303599062
0.7020456563 0.3225171562 0.0327012500
0.7315217500 0.3265025938 0.0342535937
0.7580867187 0.3302658437 0.0365949375
0.7793483750 0.3333435938 0.0381472812
0.7977935313 0.3361502188 0.0396977500
0.8155978750 0.3391596875 0.0412271875
0.8334814063 0.3424669062 0.0430295937
0.8507539062 0.3460268438 0.0452133438
0.8680955000 0.3499028438 0.0473534063
0.8854487813 0.3538700312 0.0493911250
0.0051748125 0.2635696250 0.2013469375
0.0096599062 0.2660378125 0.2034697500
0.0277975625 0.2718581875 0.2037018750
0.0410969375 0.2748062500 0.1748312500
0.0570050000 0.2803504375 0.1493481875
0.0741354375 0.2886209375 0.1297835000
0.0928086875 0.2983065625 0.1149185625
0.1216222813 0.3079529688 0.1015119063
0.1691916250 0.3166427500 0.0882119375
0.2112580000 0.3225346250 0.0711782500
0.2488516250 0.3270995625 0.0517234375
0.2806134687 0.3296012500 0.0344261875
0.3007064375 0.3208763750 0.0286351875
0.3251820000 0.3115475313 0.0246921875
0.3641475000 0.3102197500 0.0217352500
0.4068673437 0.3117848438 0.0225976875
0.4478511875 0.3146505625 0.0241500625
0.4878422188 0.3179496562 0.0253577188
0.5260781875 0.3220162500 0.0269100625
0.5635434375 0.3265816875 0.0284628438
0.6004625625 0.3314697500 0.0300151875
0.6364163438 0.3364575937 0.0319125000
0.6695190625 0.3410900000 0.0339088750
0.7004971562 0.3455153125 0.0358059688
0.7295948125 0.3496170625 0.0375558750
0.7558235625 0.3533762500 0.0396970313
0.7766603125 0.3564494375 0.0412263125
0.7948114687 0.3592573750 0.0427213438
0.8124123125 0.3620056250 0.0441837500
0.8301306875 0.3650057812 0.0456163437
0.8472362500 0.3681155625 0.0470205625
0.8644001875 0.3716589375 0.0490886563
0.8815735625 0.3753906250 0.0511006250
0.0055200000 0.2888540312 0.2175325938
0.0081568125 0.2911816562 0.2197215937
0.0265406875 0.2975856562 0.2212540000
0.0410969375 0.3014229687 0.1968520313
0.0573285312 0.3067048438 0.1696798438
0.0745409062 0.3145767500 0.1481056875
0.0934467188 0.3242949688 0.1312564375
0.1215749063 0.3341064687 0.1175761562
0.1660411562 0.3434858438 0.1047533438
0.2108804063 0.3513744688 0.0903249063
0.2507012187 0.3564943437 0.0700090000
0.2866939063 0.3608537813 0.0470525937
0.3171378125 0.3625549687 0.0333173437
0.3355334062 0.3512580938 0.0294975938
0.3622385312 0.3425783125 0.0268115000
0.4024772813 0.3408714063 0.0257029375
0.4454186875 0.3422671250 0.0272552812
0.4868461562 0.3449933438 0.0288076250
0.5264248125 0.3479883125 0.0307051562
0.5643111562 0.3517869375 0.0323314688
0.6010582187 0.3562191250 0.0338842812
0.6364990938 0.3608750000 0.0358060000
0.6692199375 0.3653356875 0.0377775000
0.6996088125 0.3695908750 0.0393269375
0.7280086250 0.3736043125 0.0414124375
0.7538729375 0.3773705937 0.0431125313
0.7745711250 0.3805758437 0.0445668437
0.7924863437 0.3833925938 0.0459923125
0.8100745313 0.3862968125 0.0473899062
0.8278734062 0.3894260937 0.0487609375
0.8446767500 0.3925496563 0.0504696563
0.8614108437 0.3957968750 0.0520932188
0.8786537187 0.3993423750 0.0540283750
0.0063090000 0.3154605000 0.2348620000
0.0074422188 0.3180672187 0.2373425312
0.0250370625 0.3244286250 0.2395065000
0.0417829687 0.3295333437 0.2207827500
0.0579252500 0.3346253750 0.1920950000
0.0757774375 0.3421616250 0.1686346563
0.0947567500 0.3514793125 0.1496055625
0.1199412813 0.3613595312 0.1347525000
0.1620105000 0.3711035000 0.1217630000
0.2110176875 0.3803469063 0.1092295312
0.2518976875 0.3871971875 0.0914419375
0.2899687500 0.3921057500 0.0676013125
0.3246693750 0.3966215000 0.0473681250
0.3540807812 0.3961651875 0.0364471875
0.3720640000 0.3832290625 0.0334651875
0.4009745000 0.3745375312 0.0315183437
0.4416140000 0.3727795000 0.0303600000
0.4845861875 0.3736560313 0.0319123750
0.5252161250 0.3762370625 0.0338104375
0.5640270938 0.3790277500 0.0358060312
0.6013576250 0.3825225000 0.0377528750
0.6366926875 0.3866361250 0.0399585625
0.6690218125 0.3908415000 0.0416002500
0.6992151562 0.3949631875 0.0436705625
0.7272810000 0.3990337500 0.0452707500
0.7528032500 0.4029295625 0.0473886562
0.7731311875 0.4061348750 0.0487598125
0.7907685000 0.4090393438 0.0501065625
0.8080563750 0.4119392500 0.0514293750
0.8256404687 0.4151171250 0.0527887812
0.8421419375 0.4182138750 0.0543242500
0.8586803125 0.4214899062 0.0562056875
0.8757280000 0.4249705000 0.0580435000
0.0066783750 0.3428161250 0.2532746875
0.0078367188 0.3456172813 0.2560517187
0.0242731875 0.3525002812 0.2590865625
0.0421335937 0.3585570000 0.2463345000
0.0590413750 0.3635409687 0.2164344375
0.0769238437 0.3708760937 0.1915974687
0.0964147187 0.3801525625 0.1705726875
0.1189167500 0.3897819375 0.1533320313
0.1570541875 0.3996865625 0.1396759687
0.2106411875 0.4092497500 0.1274210937
0.2531189375 0.4178661562 0.1136629063
0.2920172812 0.4237623437 0.0922527500
0.3286720312 0.4284415938 0.0675802500
0.3627779062 0.4326710938 0.0504921562
0.3906707500 0.4298731250 0.0410729375
0.4089672187 0.4161985938 0.0384921250
0.4394069375 0.4077880938 0.0365704062
0.4801545000 0.4056662500 0.0353874375
0.5226446563 0.4063741563 0.0369398125
0.5625674063 0.4085849375 0.0392270000
0.6008442188 0.4112926875 0.0415041875
0.6367973125 0.4142864687 0.0437151562
0.6692523750 0.4179242812 0.0458565938
0.6991600625 0.4218374375 0.0475581875
0.7267295000 0.4256702187 0.0495913125
0.7518001875 0.4293922813 0.0514283125
0.7719251875 0.4325268750 0.0530287813
0.7893224688 0.4354196250 0.0543029375
0.8063240312 0.4382440938 0.0558954375
0.8236172188 0.4413376562 0.0574086563
0.8399045625 0.4443546250 0.0586518438
0.8560983438 0.4476620313 0.0604170937
0.8728691250 0.4509946875 0.0621463125
0.0074421875 0.3709151250 0.2720671250
0.0082060938 0.3737265000 0.2748278750
0.0238545625 0.3810465000 0.2785406250
0.0427111562 0.3886153750 0.2730768125
0.0602241875 0.3932952500 0.2421890625
0.0785026562 0.4006619375 0.2163640937
0.0980059375 0.4096155625 0.1942598125
0.1200257500 0.4191988750 0.1750311250
0.1535676875 0.4289281875 0.1589496875
0.2068006562 0.4384306562 0.1458560313
0.2550402500 0.4478736875 0.1336424375
0.2939483125 0.4555418750 0.1180712187
0.3317911875 0.4606869375 0.0938449375
0.3674374687 0.4652717812 0.0701802500
0.4015876250 0.4688488125 0.0534554375
0.4279650937 0.4640068438 0.0458501875
0.4460525000 0.4493595625 0.0437580000
