bundles/resolve-cinematic-luts/Gamut/The Creator/gamut - CREATOR (Monitor LUTs)/Creator 01 - Cine ML.cube
TITLE "Creator LUT 01 by Gamut ML"
# Monitoring LUT. Version 1.0 - 11/18/2025 - Designed for Rec.709 Color Space. Copyright 2025 Gamut, LLC.
# 
LUT_3D_SIZE 5
0.0149830000 0.0228690000 0.0276000000
0.1471565000 0.0376547500 0.0268120000
0.3832625000 0.0486395000 0.0074915000
0.6495737500 0.0643762500 0.0183342500
0.7959130000 0.0934290000 0.0331200000
0.0041400000 0.1275015000 0.1239735000
0.1622500000 0.1548917500 0.0331200000
0.4485527500 0.1823632500 0.0084770000
0.7484665000 0.2224067500 0.0272062500
0.9029320000 0.2541272500 0.0452817500
0.0063090000 0.3154605000 0.2348620000
0.1620105000 0.3711035000 0.1217630000
0.4416140000 0.3727795000 0.0303600000
0.7272810000 0.3990337500 0.0452707500
0.8757280000 0.4249705000 0.0580435000
0.0136030000 0.5343352500 0.3889802500
0.1564530000 0.5962967500 0.3060712500
0.5006027500 0.6577660000 0.1763852500
0.7146950000 0.6256892500 0.0750300000
0.8585842500 0.6320200000 0.0971232500
0.0220800000 0.6597720000 0.4850230000
0.1735915000 0.7267770000 0.4336397500
0.5234735000 0.7885800000 0.3201390000
0.7414902500 0.7999812500 0.1760055000
0.8405570000 0.7623650000 0.1420090000
0.0138002500 0.0293742500 0.1387617500
0.2112472500 0.0354860000 0.1854887500
0.4832380000 0.0270085000 0.1672577500
0.7209852500 0.0364715000 0.1596652500
0.8550197500 0.0611992500 0.1669882500
0.0023660000 0.1753710000 0.2176647500
0.2000210937 0.2177218719 0.2264332094
0.4866997969 0.2130617812 0.1790828750
0.7281593469 0.2247729937 0.1704413125
0.8605070000 0.2482305000 0.1835315000
0.0067030000 0.3816895000 0.3752917500
0.1258898219 0.4289691156 0.3762126594
0.4944210188 0.4461055875 0.2240643469
0.7711003375 0.4488467594 0.1974516000
0.9151082500 0.4682962500 0.2132427500
0.0151800000 0.5868127500 0.5189835000
0.1232835594 0.6403406688 0.5226745469
0.5267552313 0.7093494313 0.3982736906
0.7430991750 0.6749396531 0.2458929281
0.8864332500 0.6787987500 0.2612080000
0.0242485000 0.7025907500 0.5977452500
0.1357412500 0.7583062500 0.6049765000
0.5315360000 0.8279077500 0.5024750000
0.7725100000 0.8471195000 0.3491232500
0.8645220000 0.8054432500 0.2984502500
0.0130115000 0.0126170000 0.3194460000
0.1839465000 0.0283887500 0.3588607500
0.5196010000 0.0252345000 0.4233905000
0.8031925000 0.0592377500 0.4178512500
0.9240320000 0.1008815000 0.4091200000
0.0118285000 0.1635587500 0.3966307500
0.1605823937 0.2171035219 0.4205688438
0.5327649344 0.2486514625 0.4594589750
0.7962009031 0.2446930219 0.4237603031
0.9210775000 0.2626112500 0.4086017500
0.0232630000 0.4284885000 0.5060500000
0.1437941562 0.4776930094 0.5123888594
0.5445785000 0.5336521406 0.5156236563
0.7928938094 0.4997216531 0.4469866812
0.9242280000 0.5004040000 0.4294695000
0.0329230000 0.6591467500 0.6616575000
0.1451242062 0.6960309562 0.6632680156
0.5070342313 0.7535772500 0.6600270875
0.7798818437 0.7487756031 0.4960310687
0.9210942500 0.7437937500 0.4760757500
0.0496665000 0.7705685000 0.7375450000
0.1596397500 0.8085267500 0.7414280000
0.4958850000 0.8641110000 0.7376480000
0.7970775000 0.8932735000 0.5853865000
0.8938035000 0.8630545000 0.4981170000
0.0319372500 0.0303602500 0.5152655000
0.1996425000 0.0454437500 0.5463032500
0.4859572500 0.0546042500 0.6161905000
0.8053627500 0.0879112500 0.6715417500
0.9634257500 0.1504652500 0.6817472500
0.0303602500 0.1594207500 0.5790512500
0.1614313219 0.2322365719 0.6112463312
0.5028490438 0.2646769500 0.6512886437
0.8142003281 0.2927190875 0.6952129687
0.9667935000 0.3223347500 0.6974977500
0.0409860000 0.4195140000 0.6867432500
0.1357960219 0.4621178375 0.6949548031
0.5159107688 0.5300558469 0.7102408094
0.8235608156 0.5510198906 0.7308647375
0.9628757500 0.5454542500 0.7122942500
0.0640870000 0.6952287500 0.7717727500
0.1681736156 0.7388914562 0.7774299094
0.5312103437 0.7921718125 0.7852656281
0.8195453875 0.8170934563 0.7704893406
0.9474510000 0.8052507500 0.7321702500
0.0836865000 0.8305897500 0.8609877500
0.1902127500 0.8650485000 0.8644042500
0.5197720000 0.9014162500 0.8654032500
0.8026820000 0.9296577500 0.8550530000
0.9262957500 0.9221250000 0.7466487500
0.0496690000 0.0489850000 0.6343870000
0.2195590000 0.0825310000 0.6638955000
0.4840710000 0.0983295000 0.7255580000
0.7870455000 0.1380650000 0.7926942500
0.9466370000 0.1885990000 0.8156400000
0.0474200000 0.1822925000 0.6927090000
0.1743722500 0.2522340000 0.7244512500
0.5019975000 0.2861435000 0.7606990000
0.7961932500 0.3135880000 0.8128760000
0.9545847500 0.3450120000 0.8333527500
0.0561940000 0.4231360000 0.7908825000
0.1399085000 0.4627312500 0.7993682500
0.5107995000 0.5330725000 0.8193615000
0.8078862500 0.5587367500 0.8453867500
0.9657545000 0.5769465000 0.8617025000
0.0786155000 0.6826497500 0.8662750000
0.1674972500 0.7212352500 0.8718787500
0.5169592500 0.7766882500 0.8796002500
0.8115340000 0.8183612500 0.8825427500
0.9612592500 0.8256627500 0.8868350000
0.1041630000 0.8465360000 0.9168490000
0.2019785000 0.8857477500 0.9221862500
0.5370690000 0.9241985000 0.9268150000
0.8047407500 0.9466937500 0.9273492500
0.9515530000 0.9553260000 0.9015720000
