bundles/resolve-cinematic-luts/Gamut/The Creator/gamut - CREATOR (Monitor LUTs)/Creator 04 - Stock ML.cube
TITLE "Creator LUT 04 by Gamut ML"
# Monitoring LUT. Version 1.0 - 11/18/2025 - Designed for Rec.709 Color Space. Copyright 2025 Gamut, LLC.
# 
LUT_3D_SIZE 5
0.0197147000 0.0204929000 0.0212863000
0.1862970000 0.0642863000 0.0458839000
0.4576790000 0.0790112000 0.0915236000
0.6073400000 0.0969711000 0.1158010000
0.7285420000 0.1220260000 0.1411920000
0.0396277000 0.1284960000 0.0561990000
0.1710690000 0.1706720000 0.0258335000
0.4535900000 0.2119780000 0.0693523000
0.6618140000 0.1827570000 0.0911421000
0.7733730000 0.1403980000 0.1392540000
0.0374609000 0.3286030000 0.0832990000
0.2006260000 0.3765320000 0.0913252000
0.4941630000 0.4313570000 0.1117720000
0.6917680000 0.4663460000 0.1558100000
0.8293890000 0.4193940000 0.1718170000
0.1274740000 0.5315630000 0.2042570000
0.2676740000 0.5868310000 0.2575720000
0.5600520000 0.6520180000 0.2038300000
0.7561300000 0.6835430000 0.2124670000
0.8797130000 0.7126120000 0.2285500000
0.0283970000 0.5958500000 0.2435650000
0.0743114000 0.6737930000 0.3091020000
0.3493400000 0.7445180000 0.3294580000
0.7467610000 0.8294960000 0.2619360000
0.8762650000 0.8792100000 0.2684820000
0.0402228000 0.0508583000 0.1078970000
0.1624780000 0.0331273000 0.1670250000
0.4523840000 0.0557259000 0.2370340000
0.6998700000 0.1051040000 0.2642710000
0.7264820000 0.1220720000 0.1474630000
0.0051270300 0.1653470000 0.1803460000
0.2005910800 0.2019843040 0.1985130560
0.5507347200 0.2533620880 0.2202531200
0.8077764240 0.2680660400 0.2571301040
0.8236060000 0.1866480000 0.1653470000
0.0116274000 0.3847710000 0.2312200000
0.2095231872 0.4338516000 0.2414867600
0.5434244560 0.4907972480 0.2474781360
0.7942035360 0.5260747200 0.2738114320
0.8879530000 0.4637830000 0.2374610000
0.1097730000 0.5935150000 0.2903940000
0.2634963040 0.6305657360 0.3255378240
0.5570518400 0.7044318000 0.3343240400
0.8083253120 0.7448482880 0.3014993200
0.8993210000 0.7407800000 0.2691390000
0.0043335600 0.6468150000 0.3070570000
0.0405890000 0.6993210000 0.3476160000
0.3031200000 0.8075230000 0.4319220000
0.7344930000 0.8679330000 0.3365830000
0.8751510000 0.8892810000 0.2786140000
0.0141909000 0.0447395000 0.3049670000
0.1091630000 0.0295720000 0.3433430000
0.4337830000 0.0536202000 0.4025940000
0.6882730000 0.1031050000 0.4614790000
0.7098650000 0.1066000000 0.3689480000
0.0011902000 0.2003050000 0.3577630000
0.1001017760 0.2263427760 0.3998833280
0.4925259360 0.2575874960 0.4560476000
0.7912286160 0.2860487840 0.5144660320
0.9325700000 0.2619670000 0.4917070000
0.0438544000 0.4518960000 0.4662850000
0.2119390752 0.4965519040 0.4896241680
0.5678051520 0.5537825040 0.5174788480
0.8902773200 0.5904703920 0.5326666640
0.9999540000 0.5974670000 0.5206680000
0.1030140000 0.6574810000 0.5273820000
0.2469256640 0.7013333840 0.5279246320
0.5470115760 0.7749588240 0.5728741600
0.8646024880 0.8202708000 0.5457613440
0.9607080000 0.8171050000 0.4613870000
0.0161593000 0.7169450000 0.5188070000
0.0473945000 0.7527120000 0.5200880000
0.2331880000 0.8450140000 0.5588160000
0.6872970000 0.9324640000 0.5737850000
0.8756690000 0.9152210000 0.3284500000
0.0222782000 0.1427020000 0.4811320000
0.0473182000 0.1718780000 0.5206990000
0.4189970000 0.1366290000 0.5837950000
0.7047680000 0.1367670000 0.6557410000
0.7853360000 0.1425650000 0.5980470000
0.0197147000 0.3006180000 0.5445940000
0.0787435144 0.3235273280 0.5855262960
0.4218698240 0.2961259280 0.6472968960
0.7515847280 0.2889960000 0.7091933600
0.9205160000 0.2848860000 0.7206230000
0.0596780000 0.5148390000 0.6522620000
0.1766517904 0.5381389200 0.6829889040
0.4923199680 0.5731922560 0.7431063280
0.8341511920 0.5916972160 0.7893355120
0.9994510000 0.6204780000 0.8396120000
0.1256730000 0.7195090000 0.7378960000
0.2695513840 0.7554392160 0.7607947200
0.5740073840 0.8234127600 0.8011307520
0.8646152720 0.8555686640 0.8156780480
1.0000000000 0.9026020000 0.8516980000
0.0421302000 0.8131230000 0.7380180000
0.0697185000 0.8419170000 0.7490810000
0.2400240000 0.8952470000 0.7541920000
0.6343630000 0.9689630000 0.7885250000
0.9293350000 0.9673150000 0.5928440000
0.0362707000 0.2977800000 0.6968640000
0.0567941000 0.3437710000 0.7601430000
0.3386430000 0.2875410000 0.8206150000
0.6811780000 0.2369420000 0.8697800000
0.8220340000 0.1963680000 0.8177770000
0.0434424000 0.4281990000 0.7795220000
0.0933700000 0.4617840000 0.8278480000
0.3872740000 0.4543830000 0.8849160000
0.7290150000 0.4210730000 0.9286790000
0.8931560000 0.3294120000 0.8984660000
0.1022050000 0.6237890000 0.8703900000
0.2252540000 0.6603950000 0.9029980000
0.4983440000 0.7023120000 0.9484700000
0.8058440000 0.7143820000 0.9826660000
0.9843140000 0.6255440000 0.9812920000
0.2157320000 0.8022740000 0.9256430000
0.3526820000 0.8401010000 0.9476310000
0.5961550000 0.8868850000 0.9760740000
0.8207680000 0.8966050000 0.9981230000
1.0000000000 0.9160140000 1.0000000000
0.0860761000 0.9648430000 0.9868160000
0.1062180000 0.9748990000 0.9893490000
0.2268710000 0.9795680000 0.9827730000
0.6921490000 0.9963680000 0.9949040000
1.0000000000 1.0000000000 0.9947810000
