bundles/resolve-cinematic-luts/Phantom Luts/Canon Alexa LUT/C-Log 3/IceBlue Canon CL3.cube
TITLE "Generated by Resolve"
LUT_3D_SIZE 33
0.0310063 0.043473 0.0421912
0.0310521 0.0434424 0.0421149
0.0373999 0.0429999 0.0434119
0.0742046 0.040589 0.0449073
0.141817 0.0374762 0.0466621
0.202518 0.0364843 0.0482338
0.258793 0.0365911 0.0513466
0.31487 0.0370031 0.0567636
0.370611 0.0371557 0.0662394
0.422644 0.0381781 0.0803845
0.470192 0.0399939 0.0940719
0.510521 0.0442969 0.107836
0.54667 0.0482185 0.126665
0.580209 0.0534218 0.14551
0.611887 0.0599832 0.165209
0.642695 0.0677653 0.18761
0.673625 0.0768292 0.212284
0.702571 0.0859693 0.238941
0.721309 0.0920272 0.259129
0.725155 0.0929122 0.268254
0.726589 0.0928664 0.274983
0.728038 0.0929885 0.281285
0.729412 0.0931716 0.28716
0.730541 0.0933089 0.292546
0.731533 0.0934157 0.297292
0.732403 0.0935378 0.301366
0.733104 0.0936294 0.304768
0.733669 0.0936141 0.308583
0.734142 0.0935683 0.312001
0.734585 0.0932631 0.317586
0.734966 0.0928511 0.323934
0.735256 0.0920577 0.333791
0.735393 0.091249 0.343816
0.0311131 0.0433814 0.0419776
0.0310826 0.0434119 0.0420386
0.0311284 0.0433814 0.0419776
0.0514992 0.0428626 0.042771
0.106996 0.0402838 0.0443885
0.170047 0.0377966 0.0450294
0.227588 0.0364996 0.0450446
0.286397 0.0362707 0.0451514
0.343847 0.0364385 0.0450599
0.398566 0.0380713 0.0503853
0.448524 0.0401617 0.0595407
0.489723 0.043183 0.0713664
0.527062 0.0466926 0.0924544
0.563134 0.0515602 0.114946
0.596994 0.057969 0.136263
0.629282 0.0658274 0.158068
0.662058 0.0751659 0.183734
0.693782 0.0849012 0.212833
0.71429 0.0910353 0.235782
0.719036 0.0921645 0.24596
0.72134 0.0925002 0.254032
0.723247 0.0927291 0.261067
0.72491 0.0928969 0.267292
0.726131 0.0928664 0.272831
0.72723 0.0928969 0.277821
0.728176 0.0929885 0.282078
0.729046 0.0931106 0.285801
0.729763 0.0931411 0.289509
0.730388 0.0930953 0.293156
0.731014 0.0928054 0.29865
0.731548 0.0923629 0.304723
0.732113 0.0915236 0.314427
0.732525 0.0906233 0.324361
0.0311131 0.0433967 0.0419928
0.0310369 0.0434577 0.0421302
0.0310369 0.0434424 0.0421149
0.0334936 0.0446784 0.042771
0.0689708 0.046479 0.0437018
0.125383 0.0455787 0.0438392
0.187396 0.0441901 0.0432593
0.249882 0.0429389 0.0424659
0.313542 0.0412757 0.0404669
0.373068 0.0388647 0.0388495
0.425986 0.0388647 0.0403296
0.470268 0.0408179 0.0469825
0.507836 0.0449073 0.0605936
0.544152 0.0496681 0.0841688
0.577279 0.0553292 0.104173
0.60911 0.0622416 0.126192
0.642557 0.070985 0.151064
0.675303 0.0807965 0.178103
0.699428 0.0879835 0.202792
0.707637 0.0902113 0.215824
0.71136 0.0908217 0.225071
0.714687 0.0913405 0.233753
0.717662 0.0918898 0.241703
0.719646 0.0922103 0.248173
0.721309 0.0924392 0.254078
0.722683 0.092607 0.25919
0.723766 0.0927138 0.26334
0.724743 0.0927443 0.267521
0.72549 0.0926528 0.271351
0.726223 0.0922713 0.276661
0.726955 0.0917983 0.282689
0.727855 0.090898 0.292485
0.728618 0.0899519 0.302693
0.0290532 0.0602884 0.0480201
0.0308385 0.0526894 0.0439612
0.0329747 0.0484169 0.0432593
0.0328985 0.0457313 0.0429999
0.0408789 0.0480964 0.0444648
0.0830549 0.0527962 0.0457313
0.139757 0.0544137 0.0441901
0.205234 0.0543526 0.0417639
0.276143 0.0526589 0.0401923
0.346471 0.049134 0.0398413
0.407431 0.0451362 0.0390631
0.457206 0.0427863 0.0395056
0.494377 0.0431067 0.0448615
0.529946 0.0481422 0.0604105
0.564538 0.0537881 0.084062
0.59559 0.0600443 0.104891
0.626337 0.0674754 0.128618
0.66006 0.0768749 0.156649
0.684886 0.0845045 0.17644
0.692638 0.0867933 0.185931
0.697292 0.0875715 0.195514
0.702083 0.0886091 0.205081
0.706279 0.0895247 0.213962
0.709545 0.0901045 0.22179
0.712337 0.0906233 0.228733
0.714519 0.0908827 0.234897
0.716579 0.0912642 0.240375
0.71812 0.0915084 0.244862
0.719188 0.0916457 0.248661
0.720256 0.0915389 0.253376
0.721263 0.0912184 0.259144
0.722591 0.0903944 0.268971
0.723827 0.0894484 0.279622
0.0287938 0.107073 0.0576638
0.0293278 0.0996567 0.0522621
0.03505 0.0883345 0.0501259
0.041825 0.0801251 0.0507973
0.0530251 0.0721752 0.0486152
0.0749523 0.0769665 0.0493935
0.12047 0.0822461 0.0492561
0.178714 0.0820325 0.0462501
0.243763 0.0786145 0.0419013
0.313313 0.0703136 0.0384833
0.382528 0.0617227 0.0378729
0.444511 0.0549935 0.0399023
0.489494 0.0501717 0.043122
0.520699 0.0479133 0.0485237
0.553811 0.0524147 0.0654917
0.58674 0.0587778 0.0911269
0.617639 0.0661326 0.114076
0.647929 0.0740368 0.140459
0.679652 0.083299 0.16849
0.687129 0.0856336 0.174441
0.688228 0.085832 0.176776
0.690547 0.0863203 0.181201
0.692638 0.0867628 0.185657
0.695842 0.0873121 0.191959
0.699321 0.0879377 0.199237
0.702708 0.0886702 0.20621
0.70547 0.0892653 0.212116
0.707607 0.0897231 0.216892
0.709255 0.090013 0.220783
0.710735 0.0899367 0.22565
0.712276 0.0897231 0.231815
0.714244 0.0889601 0.241764
0.71606 0.0879988 0.252796
0.0284886 0.171939 0.0619669
0.0285191 0.165667 0.0554055
0.0288701 0.153185 0.0537575
0.0399786 0.140307 0.05243
0.0594492 0.126558 0.0511177
0.0924544 0.118395 0.0474403
0.126497 0.122438 0.0472267
0.176379 0.127062 0.0467536
0.239994 0.123217 0.0455024
0.306279 0.115465 0.0420081
0.369863 0.102846 0.0387884
0.430137 0.0903182 0.038529
0.483879 0.0745251 0.0408026
0.521981 0.0607919 0.0493019
0.547143 0.0533913 0.0549477
0.576791 0.056733 0.0742962
0.609339 0.0644541 0.101549
0.639765 0.0725109 0.126085
0.669779 0.0807202 0.155673
0.686168 0.0855726 0.171283
0.686595 0.0856336 0.172213
0.68687 0.0856641 0.173022
0.687114 0.0856947 0.173785
0.688228 0.0859083 0.175967
0.689998 0.0862745 0.1794
0.691569 0.0866255 0.182712
0.692988 0.0869001 0.185565
0.694148 0.0870832 0.188022
0.695888 0.0873732 0.191424
0.697627 0.0874189 0.196063
0.69958 0.0872358 0.201846
0.702235 0.0865492 0.211948
0.704906 0.0857557 0.222599
0.0269017 0.228351 0.0640269
0.0267491 0.223545 0.0569009
0.0264744 0.214054 0.0533608
0.0326848 0.200397 0.0541238
0.0478981 0.189197 0.0526894
0.0875563 0.17406 0.0498817
0.138079 0.168032 0.0456703
0.180301 0.168643 0.0454566
0.232944 0.172747 0.0427405
0.303593 0.168765 0.0412604
0.375662 0.157977 0.0421149
0.432395 0.147204 0.0399939
0.484276 0.134386 0.0397498
0.52723 0.112474 0.0440833
0.557946 0.088365 0.052079
0.576028 0.0655985 0.063859
0.599161 0.0620737 0.0847334
0.63183 0.071046 0.11284
0.661311 0.0791638 0.14052
0.68159 0.0847486 0.162188
0.684794 0.0854963 0.166674
0.685405 0.0855573 0.168505
0.68574 0.0855421 0.169833
0.685969 0.0855726 0.170504
0.686152 0.0855879 0.171054
0.686351 0.0856031 0.171664
0.686748 0.0856641 0.17258
0.687205 0.085771 0.173404
0.688167 0.0859693 0.175174
0.689219 0.0859998 0.177661
0.690578 0.0859388 0.181415
0.692515 0.0855116 0.187747
0.694133 0.0849317 0.193606
0.0253758 0.283909 0.0674449
0.0250858 0.280735 0.0579385
0.0250858 0.273564 0.0543221
0.0285801 0.261494 0.0536355
0.0397345 0.250111 0.0526894
0.0609598 0.239124 0.0514839
0.117891 0.226154 0.0469673
0.184039 0.219699 0.042771
0.23473 0.217868 0.0430915
0.292821 0.221286 0.0405432
0.365362 0.219272 0.0384833
0.435416 0.208515 0.0418402
0.49337 0.194293 0.0452125
0.538048 0.181827 0.0475471
0.57377 0.165377 0.0548104
0.601968 0.141131 0.0649729
0.615625 0.10135 0.0737163
0.625132 0.0730755 0.0919051
0.652049 0.0772869 0.123369
0.678782 0.0846876 0.151873
0.683009 0.0857557 0.157321
0.683299 0.0856794 0.159243
0.683452 0.0855726 0.160769
0.683543 0.0854963 0.161852
0.683574 0.0854353 0.162631
0.683757 0.0854047 0.163577
0.684169 0.0854505 0.164782
0.684504 0.085481 0.165682
0.684825 0.0855268 0.166552
0.685267 0.0854047 0.168124
0.685817 0.0850996 0.170428
0.686839 0.0844587 0.174807
0.687831 0.0837262 0.179141
0.0241703 0.339925 0.0729992
0.0238346 0.339376 0.0589151
0.0236515 0.3346 0.0535897
0.0230259 0.324834 0.0532387
0.0308537 0.31368 0.0521248
0.0433814 0.304982 0.0507515
0.0802625 0.293721 0.0481117
0.152178 0.281956 0.0427558
0.231556 0.274174 0.038941
0.293462 0.270893 0.0401007
0.354803 0.274342 0.0399786
0.422385 0.27538 0.0386511
0.489021 0.265141 0.0433509
0.547311 0.248447 0.0523842
0.589792 0.234821 0.0624094
0.621546 0.221317 0.0720836
0.645563 0.199832 0.0822003
0.663417 0.167254 0.0938125
0.667659 0.110689 0.107149
0.672557 0.0840467 0.126589
0.683864 0.0870985 0.143709
0.683284 0.0865339 0.14815
0.683894 0.0863966 0.152605
0.683543 0.0862593 0.15314
0.683268 0.0861067 0.153689
0.683101 0.0859693 0.154299
0.68307 0.0858778 0.155123
0.683146 0.0858015 0.156024
0.683268 0.0857557 0.156802
0.683558 0.0855726 0.158221
0.684031 0.0852674 0.160311
0.684932 0.0846723 0.163912
0.686076 0.0840772 0.167926
0.0240635 0.395087 0.0846265
0.0239261 0.396384 0.0631876
0.0237583 0.39498 0.0553902
0.0236515 0.387289 0.0546883
0.025864 0.375784 0.0532998
0.0367132 0.366278 0.05066
0.0486305 0.358724 0.0492409
0.103334 0.349218 0.0441444
0.192447 0.339101 0.0383307
0.284306 0.330877 0.0357977
0.354284 0.326925 0.0383459
0.413764 0.330007 0.0403296
0.476158 0.334005 0.0420386
0.538766 0.327138 0.0474861
0.594919 0.312398 0.06392
0.640055 0.293751 0.0830396
0.669108 0.280308 0.094255
0.69163 0.261845 0.105425
0.708385 0.233066 0.116838
0.716655 0.186801 0.127977
0.711467 0.134691 0.137194
0.700679 0.11252 0.13492
0.691447 0.0973678 0.133349
0.687099 0.0907454 0.134783
0.684245 0.0864881 0.137896
0.684062 0.0856794 0.141878
0.68513 0.0867018 0.145922
0.685023 0.0864118 0.148547
0.685069 0.086183 0.150622
0.685161 0.0860761 0.151293
0.685252 0.0859998 0.151812
0.686015 0.0863508 0.151858
0.687434 0.087068 0.151385
0.0257267 0.448905 0.103182
0.0263523 0.450919 0.0747539
0.0267643 0.450752 0.0643168
0.0265202 0.44622 0.0619211
0.02533 0.436698 0.060029
0.0309453 0.426474 0.0565499
0.0433967 0.418494 0.0530556
0.0614328 0.4112 0.049958
0.137545 0.405142 0.0417639
0.240375 0.395087 0.035462
0.341497 0.385779 0.0347906
0.414099 0.382849 0.0392767
0.470634 0.386114 0.0437018
0.527459 0.391577 0.0491798
0.585107 0.389059 0.0605478
0.639109 0.377295 0.0819257
0.684489 0.359716 0.104631
0.720134 0.341253 0.124941
0.739712 0.326284 0.134615
0.754467 0.301198 0.144594
0.759655 0.265736 0.15079
0.752636 0.241505 0.148211
0.743725 0.219852 0.143816
0.736248 0.201205 0.140841
0.730327 0.184802 0.139757
0.724727 0.170016 0.13846
0.720516 0.15494 0.140093
0.715633 0.144137 0.137987
0.713161 0.135683 0.138979
0.709178 0.127901 0.135912
0.707362 0.124971 0.134127
0.711589 0.133364 0.137255
0.718791 0.149554 0.141115
0.0314641 0.500801 0.125414
0.0330205 0.502525 0.101518
0.0345617 0.502968 0.0834516
0.0345312 0.500557 0.0778515
0.0333104 0.494408 0.0752117
0.0335393 0.486091 0.0712596
0.0433356 0.477867 0.0628061
0.0543221 0.470375 0.0571145
0.0830701 0.464164 0.0499428
0.180331 0.460777 0.0403296
0.297826 0.45008 0.0345922
0.4009 0.441428 0.0371862
0.471733 0.438712 0.043946
0.523598 0.441444 0.0529335
0.575708 0.44715 0.0656138
0.630747 0.449256 0.0831922
0.680995 0.440314 0.104677
0.726726 0.425361 0.129519
0.765026 0.40679 0.154376
0.789807 0.387167 0.172702
0.798581 0.368322 0.175555
0.795575 0.352087 0.172976
0.790417 0.33901 0.169482
0.785382 0.325902 0.166247
0.780774 0.313558 0.1635
0.776364 0.302556 0.160769
0.772702 0.292927 0.158709
0.770199 0.286854 0.157198
0.768109 0.282521 0.155764
0.7673 0.281147 0.155108
0.76846 0.283268 0.155947
0.771847 0.290166 0.158618
0.777722 0.301854 0.163485
0.0417792 0.550103 0.152605
0.0440528 0.552209 0.134798
0.0467231 0.552682 0.112535
0.0479133 0.551476 0.100069
0.0468147 0.548577 0.0982834
0.0442969 0.541482 0.0952773
0.045716 0.533516 0.0888991
0.0608225 0.526955 0.0761578
0.0750134 0.520302 0.0670481
0.119921 0.51664 0.0542611
0.241245 0.515541 0.041474
0.358526 0.504738 0.0380255
0.457359 0.494774 0.0454261
0.525322 0.493309 0.0588998
0.573571 0.495033 0.0724346
0.623224 0.501137 0.0895552
0.673838 0.505776 0.109895
0.72134 0.501198 0.130999
0.765988 0.489387 0.156298
0.802182 0.472694 0.180301
0.830167 0.451362 0.203128
0.838254 0.433906 0.211551
0.834897 0.423743 0.209018
0.83061 0.415579 0.204944
0.826215 0.408545 0.200626
0.822156 0.402564 0.196567
0.81883 0.398337 0.193194
0.815976 0.394491 0.190295
0.814343 0.392325 0.188632
0.813733 0.391791 0.187961
0.814694 0.393698 0.188708
0.818341 0.399481 0.19234
0.823682 0.408728 0.197726
0.0571756 0.599069 0.184573
0.059678 0.601678 0.174243
0.0634928 0.602396 0.150134
0.0665293 0.601587 0.130114
0.0662852 0.599771 0.126604
0.0644541 0.595468 0.124056
0.0623636 0.587884 0.118807
0.0711223 0.581064 0.107057
0.0899825 0.575387 0.0927443
0.10721 0.57023 0.0827497
0.174594 0.56878 0.0655222
0.31136 0.570138 0.0530404
0.420386 0.558358 0.0533761
0.512261 0.54696 0.0658885
0.577111 0.547356 0.0837568
0.622354 0.548669 0.0995346
0.668574 0.554009 0.118608
0.714473 0.559518 0.139574
0.761364 0.561318 0.162249
0.80177 0.552544 0.184482
0.833631 0.538277 0.204013
0.854139 0.521798 0.218875
0.854078 0.51313 0.218875
0.853178 0.505425 0.21857
0.852064 0.498177 0.21799
0.851469 0.492317 0.218006
0.850706 0.487053 0.217899
0.850034 0.483238 0.217624
0.849546 0.480781 0.217334
0.849439 0.480522 0.217288
0.849943 0.484092 0.217517
0.850706 0.490593 0.217762
0.852079 0.500557 0.218524
0.0789044 0.648936 0.219547
0.0818494 0.651881 0.213031
0.0864271 0.654017 0.195804
0.0915999 0.652735 0.167956
0.09308 0.65127 0.158267
0.0918135 0.648905 0.156786
0.087602 0.641962 0.152956
0.0868544 0.634806 0.146105
0.106554 0.629145 0.128557
0.129656 0.623941 0.113268
0.151278 0.620356 0.102266
0.24152 0.622889 0.0839551
0.383993 0.625605 0.0770275
0.480888 0.611078 0.0795911
0.565972 0.59823 0.094377
0.627741 0.600839 0.115312
0.668971 0.601221 0.131121
0.710674 0.60647 0.15024
0.755062 0.612787 0.172244
0.795682 0.616419 0.192615
0.831495 0.613321 0.211048
0.859693 0.601587 0.227176
0.864637 0.593286 0.229282
0.864225 0.587701 0.228534
0.863554 0.582177 0.227665
0.863142 0.577752 0.227192
0.862257 0.573541 0.226246
0.861708 0.57055 0.225681
0.861936 0.569314 0.225864
0.861769 0.569818 0.225711
0.862013 0.572595 0.225986
0.86302 0.578958 0.227314
0.863783 0.587976 0.228626
0.108766 0.701778 0.259617
0.112764 0.705425 0.255161
0.117327 0.708125 0.244739
0.123674 0.707927 0.219272
0.128405 0.706447 0.19939
0.128099 0.704784 0.196078
0.126101 0.701701 0.193286
0.120806 0.692576 0.186572
0.130358 0.684947 0.171893
0.158923 0.679683 0.15259
0.171542 0.673075 0.140536
0.205814 0.67216 0.12845
0.321721 0.679026 0.110246
0.455695 0.682673 0.111299
0.54078 0.662577 0.114107
0.619104 0.648783 0.130083
0.676432 0.654231 0.150973
0.71603 0.654536 0.167102
0.753658 0.659327 0.185428
0.793332 0.664393 0.20528
0.826673 0.668055 0.222644
0.856626 0.667903 0.237888
0.872877 0.664225 0.245609
0.872343 0.660227 0.244495
0.871595 0.655787 0.243305
0.871015 0.652079 0.242451
0.87071 0.649149 0.241932
0.870222 0.646708 0.241367
0.870054 0.64596 0.24123
0.870085 0.646296 0.241352
0.87039 0.648814 0.241978
0.870848 0.654032 0.243153
0.871489 0.661433 0.244999
0.144503 0.753445 0.302373
0.148074 0.756634 0.299245
0.15256 0.759991 0.293721
0.158877 0.760372 0.269459
0.165255 0.759182 0.243351
0.166354 0.758389 0.237552
0.16492 0.755673 0.233524
0.160586 0.749233 0.226886
0.156313 0.739757 0.218662
0.186252 0.735149 0.197787
0.210651 0.730022 0.181537
0.222995 0.72578 0.174945
0.280934 0.728313 0.158495
0.42446 0.737392 0.145525
0.527489 0.740353 0.153216
0.599542 0.713191 0.152834
0.670832 0.700771 0.169268
0.724315 0.707805 0.189792
0.763561 0.707774 0.206271
0.795239 0.710933 0.221424
0.826596 0.714473 0.237583
0.856535 0.717632 0.253773
0.879026 0.71809 0.265614
0.880034 0.715251 0.265232
0.879393 0.712474 0.264027
0.878676 0.709865 0.262928
0.878676 0.708324 0.26276
0.878462 0.707088 0.262486
0.878401 0.706493 0.262394
0.878584 0.707057 0.262669
0.878859 0.708995 0.26331
0.87985 0.713176 0.265003
0.881132 0.719554 0.267582
0.1794 0.800366 0.342947
0.182788 0.803433 0.340002
0.186191 0.806027 0.334615
0.191669 0.806806 0.313161
0.197421 0.8065 0.289601
0.200275 0.804944 0.274052
0.199603 0.80325 0.271015
0.197787 0.800519 0.268025
0.19295 0.79202 0.260212
0.210239 0.786099 0.245335
0.243763 0.781796 0.224475
0.257893 0.776822 0.215488
0.281453 0.775021 0.206577
0.370031 0.782147 0.188724
0.515389 0.792279 0.18703
0.59321 0.788296 0.19324
0.657023 0.762142 0.195621
0.721248 0.75314 0.21146
0.771145 0.760571 0.230274
0.80824 0.760067 0.245716
0.833722 0.76141 0.258457
0.858976 0.764187 0.272297
0.882719 0.766354 0.285374
0.892271 0.765515 0.290013
0.89163 0.76347 0.289036
0.891035 0.761456 0.288182
0.890623 0.760021 0.287755
0.890272 0.758877 0.287465
0.89015 0.758511 0.287449
0.89015 0.75903 0.287617
0.890608 0.761151 0.288487
0.891859 0.765652 0.290608
0.893233 0.771832 0.29337
0.206653 0.837034 0.375875
0.208133 0.837919 0.372061
0.210086 0.839155 0.367437
0.212955 0.837781 0.346151
0.2159 0.834806 0.320806
0.218784 0.831724 0.297612
0.220111 0.830884 0.296666
0.219303 0.829007 0.291615
0.21767 0.826474 0.288869
0.227848 0.823682 0.281315
0.269001 0.824475 0.263783
0.295628 0.821073 0.249134
0.306889 0.818311 0.245884
0.352407 0.821027 0.234577
0.482506 0.830228 0.217456
0.594034 0.840955 0.229007
0.654154 0.827375 0.231403
0.712001 0.805249 0.240589
0.769757 0.800656 0.253986
0.815045 0.80795 0.270161
0.847807 0.807294 0.284291
0.870817 0.808331 0.296483
0.888823 0.809613 0.306462
0.901915 0.810452 0.313893
0.902037 0.809079 0.31342
0.901503 0.807691 0.31252
0.901076 0.806317 0.311666
0.900893 0.805447 0.311147
0.900847 0.805264 0.31104
0.901045 0.806012 0.311467
0.901656 0.808255 0.31281
0.902556 0.811719 0.31487
0.903899 0.817029 0.317983
0.21001 0.843015 0.387396
0.21033 0.842618 0.38349
0.210971 0.84181 0.376242
0.213016 0.838941 0.352712
0.215854 0.835569 0.326818
0.21854 0.832441 0.304982
0.219379 0.831952 0.301366
0.22002 0.831098 0.296101
0.219867 0.831144 0.296254
0.228138 0.833051 0.295415
0.275761 0.84271 0.285481
0.31397 0.847181 0.27332
0.331579 0.849348 0.274327
0.357107 0.851942 0.271748
0.439399 0.859129 0.25507
0.583032 0.868818 0.2486
0.659236 0.874662 0.262699
0.707622 0.858564 0.270466
0.764157 0.840543 0.283742
0.815122 0.842924 0.29723
0.85362 0.848936 0.308598
0.882353 0.84892 0.321462
0.902495 0.849943 0.332967
0.916136 0.851026 0.342138
0.919768 0.850431 0.344289
0.919112 0.849119 0.34316
0.918685 0.84828 0.342428
0.918364 0.847669 0.341878
0.918318 0.847578 0.341772
0.918776 0.848478 0.342458
0.919768 0.85037 0.343954
0.921904 0.853986 0.347112
0.923888 0.858351 0.350912
0.209781 0.843626 0.392569
0.210315 0.842634 0.383536
0.210986 0.841764 0.375906
0.212894 0.839261 0.354925
0.215488 0.836118 0.33077
0.218433 0.832563 0.306203
0.22002 0.83122 0.296956
0.220264 0.830961 0.295842
0.22034 0.830884 0.295293
0.218753 0.831235 0.298909
0.26331 0.841291 0.293797
0.312566 0.851179 0.285023
0.345739 0.857588 0.282231
0.364996 0.862669 0.286656
0.41622 0.869795 0.280003
0.546899 0.879377 0.261906
0.657252 0.889174 0.271901
0.711971 0.895506 0.294469
0.758282 0.882902 0.308598
0.813931 0.869718 0.323949
0.854948 0.877714 0.335439
0.887297 0.884398 0.347967
0.911955 0.885695 0.361151
0.928679 0.886351 0.371786
0.937469 0.886992 0.377478
0.937301 0.885969 0.37705
0.937057 0.885283 0.376898
0.937057 0.8851 0.377417
0.937087 0.885054 0.378027
0.937423 0.885679 0.379202
0.938476 0.887312 0.381109
0.940276 0.890166 0.383215
0.942946 0.893706 0.384344
0.209674 0.843717 0.396246
0.210056 0.842893 0.387457
0.210391 0.842603 0.383871
0.211368 0.840772 0.369238
0.213504 0.837919 0.346487
0.216556 0.834058 0.31841
0.219471 0.831113 0.297749
0.219806 0.830839 0.296651
0.220096 0.830488 0.294591
0.219913 0.830655 0.295552
0.238407 0.83563 0.297887
0.302159 0.850095 0.291875
0.34696 0.858534 0.285542
0.368872 0.864713 0.291737
0.412177 0.872633 0.292378
0.504829 0.882979 0.285801
0.639704 0.896071 0.294804
0.711315 0.902617 0.307958
0.760128 0.908522 0.326833
0.811521 0.900999 0.346212
0.859083 0.898665 0.361913
0.891218 0.90634 0.373739
0.916732 0.911757 0.385122
0.937438 0.914504 0.397467
0.952926 0.918029 0.400839
0.954345 0.917983 0.400931
0.954406 0.91783 0.400824
0.954192 0.917723 0.400763
0.953994 0.917967 0.400763
0.953918 0.918669 0.400824
0.954101 0.919524 0.401312
0.954635 0.920439 0.403082
0.956374 0.922667 0.407355
0.209995 0.844968 0.404227
0.21033 0.843458 0.390478
0.210422 0.843 0.385977
0.210697 0.842329 0.380118
0.21181 0.839994 0.36173
0.213779 0.837003 0.338293
0.216831 0.833066 0.309056
0.218479 0.831403 0.29633
0.218799 0.831006 0.293614
0.218753 0.831037 0.293843
0.225254 0.833158 0.297459
0.287434 0.84741 0.292943
0.338201 0.856931 0.285191
0.364858 0.863981 0.291417
0.403159 0.871138 0.292485
0.48159 0.882841 0.294438
0.613977 0.896712 0.301686
0.701305 0.908186 0.325277
0.754803 0.909789 0.328374
0.805676 0.913832 0.353079
0.85687 0.908553 0.37438
0.891325 0.916243 0.387655
0.91783 0.923445 0.398657
0.939116 0.929168 0.413321
0.956008 0.93135 0.422324
0.9608 0.932296 0.424399
0.960815 0.932418 0.425025
0.960632 0.932631 0.425864
0.96025 0.932891 0.426734
0.959594 0.933013 0.427176
0.959182 0.93312 0.427329
0.959182 0.93312 0.427329
0.959594 0.933013 0.427176
0.2103 0.846448 0.415763
0.210269 0.844038 0.396353
0.21059 0.842985 0.386191
0.210575 0.842954 0.385
0.211093 0.841642 0.374228
0.212696 0.839017 0.352895
0.215259 0.835386 0.325124
0.218387 0.831525 0.297169
0.218555 0.831296 0.295613
0.218753 0.831067 0.293996
0.218723 0.831601 0.297078
0.270405 0.843656 0.294987
0.329397 0.85539 0.286183
0.360693 0.862745 0.290028
0.395789 0.870161 0.292882
0.463767 0.880995 0.295262
0.591836 0.893935 0.297276
0.690837 0.90721 0.323354
0.746334 0.909804 0.327916
0.796765 0.914763 0.349508
0.84976 0.90866 0.372625
0.885908 0.915602 0.38613
0.913512 0.922774 0.39765
0.935454 0.92874 0.410727
0.953063 0.931563 0.422446
0.961028 0.932815 0.425345
0.960967 0.932784 0.425742
0.960708 0.932815 0.42623
0.96025 0.932891 0.426734
0.959594 0.933013 0.427192
0.959182 0.933104 0.427375
0.958999 0.933165 0.427268
0.959228 0.933135 0.427008
0.210178 0.8477 0.426581
0.210178 0.845151 0.40473
0.210559 0.843442 0.389425
0.21059 0.842969 0.385168
0.210712 0.842786 0.382864
0.211658 0.840482 0.365179
0.213703 0.837263 0.339925
0.217914 0.832166 0.301472
0.21886 0.831266 0.296742
0.219074 0.830915 0.294133
0.218784 0.831205 0.295796
0.257832 0.840604 0.295521
0.320211 0.853544 0.287358
0.356664 0.861692 0.289097
0.389364 0.868833 0.29247
0.450324 0.878904 0.294728
0.573068 0.891722 0.294316
0.682155 0.906813 0.322911
0.738659 0.910063 0.328466
0.788861 0.915373 0.34638
0.842023 0.910048 0.369467
0.880491 0.914458 0.383703
0.909346 0.922011 0.396002
0.931731 0.927733 0.407507
0.950439 0.931182 0.421469
0.961044 0.932815 0.425147
0.961044 0.932815 0.425147
0.960861 0.932891 0.425025
0.960494 0.933013 0.424796
0.959945 0.933181 0.424475
0.959579 0.933303 0.424262
0.959396 0.933364 0.42414
0.959564 0.933318 0.424262
0.209567 0.849226 0.436255
0.209644 0.846525 0.413718
0.209964 0.844129 0.395209
0.210529 0.842939 0.384588
0.21059 0.843244 0.386572
0.2112 0.841794 0.375204
0.21294 0.83888 0.352102
0.216098 0.834363 0.318624
0.218585 0.831556 0.298222
0.219104 0.830869 0.293767
0.218936 0.831052 0.294957
0.249165 0.838437 0.295521
0.311421 0.851957 0.288975
0.353155 0.86096 0.288716
0.384298 0.867704 0.29192
0.440375 0.877653 0.294606
0.556298 0.889891 0.292744
0.673838 0.906004 0.321599
0.732326 0.910109 0.32903
0.782147 0.914717 0.343023
0.835401 0.911269 0.366613
0.876112 0.913756 0.381994
0.904967 0.921172 0.394232
0.928313 0.92726 0.405051
0.947036 0.9308 0.419867
0.960204 0.932723 0.424857
0.961044 0.93283 0.425132
0.960861 0.932891 0.425025
0.960494 0.933013 0.424781
0.959945 0.933181 0.42446
0.959594 0.933303 0.424231
0.959411 0.933364 0.424109
0.959411 0.933364 0.424109
0.209812 0.850401 0.44477
0.209476 0.847471 0.421851
0.209903 0.845075 0.401923
0.210575 0.843214 0.386236
0.210636 0.843214 0.386084
0.210864 0.84271 0.382315
0.212039 0.840009 0.361913
0.214847 0.836225 0.331975
0.218448 0.831754 0.299733
0.219135 0.830884 0.294087
0.219104 0.83093 0.294377
0.238239 0.835904 0.296696
0.30367 0.850462 0.290379
0.350118 0.860197 0.288411
0.380957 0.866926 0.291539
0.434989 0.876692 0.294194
0.542565 0.888609 0.292378
0.666712 0.904814 0.318486
0.727886 0.910048 0.329229
