bundles/resolve-cinematic-luts/Phantom Luts/Canon Alexa LUT/C-Log 3/IceBlue Canon CL3-Legacy.cube
TITLE "Generated by Resolve"
LUT_3D_SIZE 33
0.0412451 0.0532692 0.0550698
0.0412909 0.0532387 0.0549477
0.0445716 0.0529793 0.0554665
0.0713207 0.0519112 0.0562142
0.116625 0.0511635 0.0572213
0.161044 0.0507362 0.0576028
0.206577 0.0505837 0.0588846
0.258335 0.0505531 0.060502
0.31577 0.0503395 0.0638285
0.372976 0.0504921 0.0712596
0.428489 0.0516213 0.0842908
0.48014 0.054963 0.0953231
0.521996 0.0581674 0.106203
0.558831 0.0626535 0.121233
0.593103 0.0688792 0.138674
0.625956 0.076585 0.157946
0.660304 0.0865187 0.181613
0.695354 0.0981918 0.207965
0.718822 0.106661 0.22826
0.723659 0.107652 0.237873
0.725978 0.107912 0.245548
0.727916 0.108141 0.252277
0.729671 0.108339 0.258488
0.731106 0.108476 0.26389
0.732219 0.108553 0.268498
0.733196 0.108629 0.27245
0.73402 0.108675 0.275822
0.734615 0.108492 0.27953
0.735119 0.108309 0.282795
0.735759 0.107866 0.288045
0.736416 0.107332 0.294057
0.737209 0.106371 0.303349
0.737881 0.105379 0.31284
0.0413672 0.0531624 0.0547341
0.0413062 0.0532387 0.0549172
0.0413214 0.0532387 0.054902
0.0531472 0.0529183 0.0559396
0.0899214 0.0518654 0.0561227
0.134035 0.0509957 0.056199
0.181048 0.0505837 0.0556191
0.230564 0.050248 0.0549935
0.287938 0.0497597 0.0535592
0.348302 0.0506447 0.0545663
0.405035 0.0518349 0.059678
0.457969 0.0539712 0.0673533
0.502861 0.056733 0.0816663
0.542763 0.0609445 0.0994278
0.57911 0.066865 0.115984
0.61236 0.0743572 0.133852
0.647913 0.0844587 0.156558
0.685328 0.0967575 0.184482
0.710842 0.105455 0.206638
0.716609 0.107027 0.216236
0.719142 0.107301 0.223499
0.72108 0.107317 0.23003
0.723247 0.107591 0.236774
0.7252 0.107836 0.242985
0.726833 0.108019 0.248539
0.728054 0.108125 0.252979
0.729137 0.108232 0.256825
0.730114 0.108263 0.2607
0.730938 0.108202 0.264378
0.731807 0.107851 0.269596
0.732601 0.107362 0.275212
0.733639 0.106355 0.284337
0.734524 0.105318 0.293446
0.0413519 0.0531624 0.0547494
0.0412909 0.0532387 0.0549325
0.0413062 0.0532387 0.0549325
0.0423133 0.0535744 0.0549172
0.0627909 0.0541848 0.0549783
0.099443 0.0542 0.0551003
0.145525 0.0536049 0.0548867
0.196628 0.0526741 0.0534066
0.253742 0.0517891 0.0513466
0.318257 0.0508431 0.0485237
0.379644 0.0513771 0.0478981
0.435615 0.0522164 0.0506447
0.483772 0.055024 0.0580453
0.524132 0.0591745 0.0750744
0.560342 0.06421 0.092134
0.593439 0.0709239 0.109453
0.62768 0.0796674 0.130083
0.664668 0.0914473 0.153765
0.693446 0.101259 0.176562
0.703243 0.104326 0.18851
0.707332 0.105043 0.196277
0.711528 0.106004 0.2047
0.715007 0.106783 0.212024
0.717372 0.107179 0.218173
0.719173 0.107301 0.223621
0.720485 0.107301 0.228107
0.721599 0.107347 0.231876
0.722911 0.107439 0.236179
0.724071 0.107424 0.240375
0.725261 0.107103 0.245823
0.726375 0.106584 0.251804
0.727825 0.105562 0.261036
0.729091 0.104479 0.270359
0.0413977 0.062089 0.0570993
0.0416114 0.0580148 0.0552682
0.0421607 0.0557717 0.0554055
0.041886 0.0541543 0.0550546
0.0461433 0.0552682 0.0556954
0.0726635 0.0571908 0.0555276
0.108888 0.0581826 0.055375
0.158404 0.0581674 0.0542611
0.217304 0.0569772 0.052491
0.285039 0.0553902 0.0503548
0.354116 0.0535439 0.0473487
0.416327 0.0529641 0.0463111
0.469093 0.0535897 0.0487068
0.510857 0.0577859 0.0582895
0.547402 0.0628519 0.0739452
0.58117 0.0687572 0.0944228
0.611826 0.0759442 0.11252
0.64828 0.0865187 0.136995
0.677394 0.0965133 0.155138
0.686381 0.0996109 0.163287
0.691493 0.100862 0.170809
0.69691 0.102312 0.178851
0.701778 0.103639 0.186664
0.705333 0.104356 0.193271
0.708431 0.104936 0.199313
0.711315 0.105592 0.20502
0.71371 0.106126 0.21001
0.715572 0.106462 0.214313
0.71693 0.106569 0.21825
0.718257 0.106432 0.222965
0.719615 0.10602 0.228687
0.721355 0.105013 0.237797
0.722988 0.103883 0.247684
0.0433814 0.0914015 0.064622
0.0434577 0.0883803 0.062211
0.0449226 0.0803693 0.0602579
0.0477455 0.0741588 0.0597848
0.0536202 0.0681468 0.0582284
0.0677501 0.0711376 0.0585946
0.0962387 0.0747082 0.0588998
0.135637 0.0741283 0.0571145
0.187823 0.0710155 0.053727
0.248829 0.0660563 0.0506752
0.321935 0.0612955 0.0493172
0.393637 0.0580301 0.0484474
0.455299 0.0562295 0.0476081
0.500603 0.0570077 0.0509194
0.537972 0.0616617 0.0621958
0.572015 0.0675517 0.0809033
0.604166 0.0744488 0.103212
0.635279 0.0830396 0.123079
0.672145 0.0948501 0.14963
0.680842 0.0979324 0.155062
0.681987 0.0981918 0.156954
0.684352 0.0988632 0.160433
0.686717 0.0994125 0.164141
0.690196 0.100252 0.169284
0.694087 0.101183 0.175235
0.697993 0.102266 0.181216
0.701198 0.10312 0.186374
0.703639 0.103761 0.190509
0.705333 0.104021 0.19382
0.707057 0.10399 0.198138
0.708721 0.1037 0.203494
0.71107 0.102846 0.212558
0.713497 0.101854 0.222675
0.0437324 0.136751 0.069749
0.0434882 0.132143 0.0654765
0.0435645 0.12311 0.0648356
0.0480964 0.112978 0.0640269
0.0578164 0.103227 0.0624704
0.0790723 0.097322 0.0597848
0.100908 0.100923 0.0602579
0.13373 0.103792 0.0601053
0.185351 0.101259 0.0580301
0.241764 0.0961318 0.0546578
0.303761 0.0886702 0.050309
0.371939 0.0804913 0.0479591
0.436149 0.0696269 0.0469215
0.491707 0.0619059 0.0510262
0.529885 0.0612039 0.055787
0.563607 0.0663767 0.0693065
0.595911 0.0730755 0.0913252
0.627955 0.0814221 0.11368
0.661097 0.0915694 0.138354
0.680049 0.0978561 0.152773
0.680491 0.0979629 0.153506
0.68072 0.0979782 0.154147
0.680934 0.0979934 0.154772
0.682078 0.0982834 0.156405
0.683879 0.0987716 0.159136
0.685695 0.0992752 0.161807
0.687144 0.0995499 0.164187
0.68835 0.0998245 0.166064
0.69044 0.100389 0.169085
0.692454 0.100526 0.172885
0.694591 0.100374 0.178164
0.697734 0.099733 0.187396
0.700893 0.0989853 0.197208
0.0425879 0.181415 0.0717174
0.0424353 0.177646 0.0682383
0.0421607 0.169863 0.0659495
0.0451972 0.15787 0.0667124
0.0522164 0.148455 0.0655833
0.0759899 0.137652 0.0637217
0.110506 0.133577 0.0608988
0.137758 0.133791 0.0609598
0.180102 0.136477 0.0584421
0.23917 0.133547 0.0555428
0.308598 0.125765 0.0529641
0.372549 0.118074 0.0495918
0.430365 0.108659 0.0474556
0.485344 0.0936446 0.0475624
0.526787 0.0789654 0.0513008
0.557473 0.0686351 0.0619516
0.586435 0.0709392 0.0775616
0.61973 0.0796368 0.102541
0.651865 0.0893721 0.125429
0.675181 0.0966506 0.145541
0.678874 0.0977798 0.14934
0.679438 0.0978408 0.150835
0.679713 0.0978256 0.151812
0.679896 0.0978561 0.152255
0.680064 0.0978866 0.152636
0.680232 0.0979019 0.153079
0.680629 0.0979934 0.153765
0.681117 0.0981003 0.154513
0.682094 0.0983749 0.155749
0.683192 0.0984512 0.157977
0.684688 0.098436 0.161181
0.68687 0.0980545 0.166812
0.688685 0.0974899 0.172229
0.0410315 0.229023 0.0742199
0.0407568 0.226734 0.0691234
0.0407263 0.220462 0.0674144
0.042237 0.209506 0.0669413
0.0476539 0.199603 0.0668956
0.0590066 0.190204 0.0664378
0.0963607 0.179553 0.0639811
0.142016 0.173953 0.0601663
0.182406 0.172366 0.0599222
0.230213 0.175448 0.0571603
0.299565 0.173465 0.0530251
0.374655 0.16405 0.0513924
0.438788 0.152331 0.0513313
0.490944 0.142397 0.0509804
0.534386 0.13109 0.0538491
0.567575 0.112581 0.0602426
0.590677 0.0893416 0.0696727
0.611704 0.0795605 0.0846418
0.642939 0.0871138 0.113527
0.672633 0.0966964 0.136538
0.677699 0.0981765 0.141985
0.677836 0.0980545 0.143404
0.677821 0.0978866 0.14461
0.677791 0.0977951 0.145342
0.677775 0.0977035 0.146029
0.677928 0.097673 0.146792
0.678309 0.0977188 0.147738
0.678676 0.0977646 0.148653
0.67895 0.0978103 0.14931
0.679393 0.097673 0.150668
0.679927 0.0973831 0.152605
0.681086 0.0966659 0.156832
0.682185 0.0958877 0.160937
0.0388495 0.28481 0.0767529
0.038468 0.284764 0.0691997
0.0383307 0.279637 0.0659648
0.0380102 0.268925 0.0659037
0.0420386 0.256733 0.06598
0.0489509 0.247959 0.0661784
0.0719463 0.237385 0.0650187
0.121584 0.227039 0.0614786
0.181811 0.220157 0.0570993
0.232517 0.217426 0.0573281
0.288746 0.220493 0.054963
0.362387 0.220722 0.0511635
0.434195 0.211917 0.0518807
0.498878 0.197665 0.0551156
0.546975 0.185397 0.0589303
0.582071 0.174395 0.0650797
0.609491 0.158618 0.0730144
0.629587 0.133593 0.0818036
0.645563 0.10367 0.0926528
0.668406 0.0968643 0.118227
0.680827 0.10071 0.132433
0.679133 0.0997787 0.134585
0.679072 0.099443 0.137057
0.678599 0.0991989 0.13756
0.678187 0.0989242 0.13817
0.677897 0.0987106 0.138796
0.677852 0.098558 0.139559
0.677867 0.0984512 0.140246
0.677897 0.0984054 0.140795
0.678157 0.0981918 0.142107
0.67866 0.0978561 0.14403
0.679698 0.0971695 0.147845
0.681147 0.0964675 0.152041
0.0370184 0.343633 0.0819409
0.0365911 0.345617 0.0702678
0.0364233 0.344701 0.0649577
0.0364385 0.335836 0.0646525
0.0376898 0.322621 0.0646677
0.0431678 0.311986 0.0643015
0.0504311 0.304128 0.0644541
0.0881819 0.294179 0.0616922
0.150896 0.283223 0.057557
0.226307 0.273869 0.0529793
0.290593 0.269856 0.0538796
0.352636 0.273182 0.053315
0.421469 0.277073 0.0522316
0.4907 0.269673 0.0542153
0.551308 0.254124 0.0608835
0.598718 0.236835 0.0729686
0.629587 0.225452 0.0819257
0.652735 0.210391 0.0910506
0.67303 0.188495 0.101472
0.689372 0.157244 0.112459
0.696498 0.127657 0.123232
0.689921 0.113771 0.121752
0.68545 0.10605 0.122194
0.683497 0.102846 0.124285
0.682765 0.101152 0.128786
0.681422 0.0995651 0.13106
0.6822 0.100557 0.134356
0.681651 0.100069 0.135729
0.68127 0.099733 0.136812
0.681376 0.0995499 0.137606
0.68159 0.099382 0.138415
0.682506 0.0992752 0.139315
0.683833 0.0993973 0.139467
0.036408 0.40116 0.0908522
0.0364843 0.404379 0.0751812
0.0365454 0.404654 0.0679637
0.0366369 0.400122 0.0668498
0.0364996 0.389181 0.0663005
0.0395819 0.377447 0.0656138
0.0457313 0.368277 0.0643931
0.056672 0.360586 0.0634012
0.109117 0.354116 0.0588846
0.190097 0.342123 0.0529183
0.281209 0.332357 0.0492103
0.354879 0.328511 0.0513466
0.415213 0.332586 0.0534371
0.477134 0.338231 0.0544747
0.542382 0.334218 0.058381
0.598611 0.320821 0.0717632
0.644739 0.301808 0.0894026
0.679271 0.281834 0.105821
0.701534 0.268605 0.116045
0.720348 0.249271 0.12697
0.73048 0.222049 0.134203
0.725826 0.203754 0.13228
0.718929 0.187701 0.128634
0.713756 0.174975 0.126375
0.70956 0.162814 0.125856
0.705135 0.15111 0.124407
0.7037 0.142306 0.126787
0.700465 0.134447 0.12549
0.698253 0.127153 0.125765
0.694942 0.12079 0.123018
0.69453 0.120424 0.12195
0.697475 0.128008 0.123186
0.701823 0.140978 0.124239
0.0375372 0.457435 0.102724
0.0380865 0.460288 0.0869154
0.0386816 0.461601 0.0760204
0.0387121 0.459464 0.0721294
0.0382849 0.452781 0.0710002
0.0385901 0.443168 0.0695506
0.0438697 0.432715 0.0674601
0.0507362 0.424292 0.0655375
0.0706951 0.417609 0.0623941
0.14168 0.413672 0.0554055
0.239139 0.400595 0.0486763
0.341604 0.391257 0.046952
0.417899 0.388266 0.051606
0.474266 0.391196 0.0562905
0.530663 0.397452 0.060914
0.590387 0.398459 0.0716411
0.643687 0.388357 0.0901961
0.688487 0.371801 0.110475
0.729152 0.352071 0.133318
0.757244 0.332433 0.151598
0.769314 0.313832 0.157076
0.766857 0.298497 0.155276
0.761456 0.286625 0.151843
0.756298 0.274846 0.148836
0.751324 0.263951 0.145922
0.747173 0.254383 0.143648
0.743694 0.246326 0.141772
0.741238 0.240757 0.140383
0.739025 0.236606 0.138949
0.73817 0.23534 0.138354
0.739742 0.237644 0.139467
0.743114 0.243977 0.142016
0.749218 0.254505 0.146899
0.0435492 0.510552 0.121233
0.0452125 0.513741 0.108522
0.046891 0.515526 0.0960098
0.0477913 0.515251 0.0877394
0.0466316 0.512047 0.0856336
0.0448615 0.504387 0.0832837
0.0449378 0.494957 0.0796521
0.0520485 0.485557 0.073518
0.0608682 0.477989 0.0695048
0.0936446 0.472999 0.0628214
0.190631 0.471092 0.0532998
0.298329 0.458671 0.0470588
0.403265 0.448295 0.0492103
0.477043 0.446525 0.0562753
0.529183 0.448722 0.064683
0.581415 0.455299 0.0767681
0.634974 0.459541 0.0931868
0.685069 0.453773 0.112779
0.732784 0.44097 0.136675
0.774136 0.424079 0.161517
0.806622 0.403388 0.184329
0.81529 0.385672 0.191348
0.811322 0.374914 0.188754
0.806134 0.365942 0.184588
0.801175 0.358282 0.180529
0.79678 0.352102 0.177157
0.793179 0.347143 0.174212
0.789899 0.34258 0.171649
0.7879 0.33991 0.169986
0.78735 0.33933 0.169421
0.78851 0.341344 0.170275
0.792645 0.347753 0.1738
0.798901 0.357702 0.179202
0.0555428 0.562478 0.149218
0.0577249 0.565286 0.139406
0.0603189 0.567285 0.12575
0.062501 0.567514 0.111864
0.0624552 0.565927 0.108644
0.0607309 0.561364 0.10724
0.0586862 0.553658 0.103182
0.0612802 0.544594 0.095964
0.0708782 0.536828 0.0874647
0.0823529 0.530556 0.0800641
0.134264 0.527825 0.0669413
0.251301 0.527657 0.0547951
0.362524 0.515221 0.0502174
0.462699 0.503502 0.0573129
0.533165 0.503777 0.0707103
0.580819 0.50518 0.0838483
0.629007 0.510826 0.100267
0.67689 0.516518 0.118349
0.727779 0.517891 0.141344
0.77586 0.509422 0.166934
0.814832 0.495995 0.190066
0.839307 0.480171 0.205921
0.838972 0.47097 0.205646
0.837247 0.46244 0.204578
0.835615 0.454673 0.203586
0.834195 0.448325 0.202701
0.832929 0.442573 0.201984
0.831785 0.438407 0.201251
0.831205 0.435904 0.200916
0.831052 0.435645 0.200793
0.831922 0.439521 0.201297
0.833326 0.446479 0.202274
0.835935 0.457252 0.204349
0.0737774 0.614099 0.181994
0.0765087 0.617456 0.177386
0.0802167 0.62002 0.16466
0.0841993 0.620127 0.145693
0.0852827 0.619272 0.139025
0.0840162 0.616541 0.13724
0.080415 0.609796 0.133822
0.0779126 0.601862 0.128588
0.086656 0.593362 0.116304
0.10045 0.586465 0.104387
0.116182 0.5823 0.0953536
0.189197 0.583551 0.0785077
0.321965 0.585245 0.0672923
0.428229 0.570703 0.0657359
0.521447 0.55758 0.0782483
0.586419 0.560067 0.0962081
0.629877 0.560525 0.110887
0.673472 0.566293 0.128923
0.718975 0.572702 0.149157
0.767208 0.576791 0.17293
0.813458 0.574838 0.19765
0.849302 0.563897 0.2177
0.855955 0.555947 0.220966
0.854917 0.549874 0.219715
0.853697 0.544045 0.218418
0.852979 0.539483 0.217746
0.851743 0.535027 0.216556
0.851011 0.531899 0.215885
0.850767 0.530251 0.215671
0.850736 0.530846 0.215641
0.851545 0.534005 0.216403
0.852949 0.540581 0.21799
0.854414 0.550164 0.219837
0.101228 0.669474 0.220691
0.104906 0.673487 0.21796
0.109545 0.676966 0.210239
0.115251 0.678126 0.192233
0.118914 0.677668 0.179171
0.118105 0.675761 0.176501
0.11606 0.672251 0.173602
0.11017 0.661646 0.165118
0.111315 0.652033 0.15462
0.126284 0.64448 0.140246
0.137163 0.637812 0.129931
0.16289 0.63563 0.119356
0.264118 0.641428 0.0990921
0.400046 0.644663 0.0936141
0.493355 0.624247 0.0941634
0.577783 0.609857 0.108782
0.637552 0.615503 0.128313
0.67921 0.616129 0.144335
0.717403 0.620493 0.161074
0.762371 0.626917 0.183597
0.803754 0.631601 0.205234
0.843961 0.632914 0.226749
0.866514 0.630472 0.238621
0.866133 0.626093 0.237537
0.86537 0.621698 0.236332
0.864836 0.617746 0.235477
0.864057 0.614328 0.234424
0.863767 0.612024 0.234043
0.86363 0.611048 0.233875
0.863493 0.611307 0.233845
0.863569 0.613794 0.234287
0.86424 0.619287 0.235706
0.864713 0.626963 0.237354
0.141924 0.731609 0.26685
0.146548 0.735897 0.264927
0.151553 0.740185 0.262135
0.158221 0.742458 0.247044
0.164538 0.743053 0.229557
0.165652 0.742687 0.225452
0.163684 0.739574 0.222217
0.158358 0.731975 0.21561
0.151125 0.719844 0.205921
0.163073 0.709575 0.188174
0.179721 0.701259 0.171725
0.185748 0.694377 0.163851
0.233341 0.695689 0.147936
0.367269 0.704097 0.129534
0.478233 0.70779 0.132753
0.556542 0.677729 0.129992
0.632181 0.663844 0.145418
0.687922 0.671611 0.16556
0.728542 0.671427 0.18172
0.764431 0.675273 0.199207
0.802289 0.679576 0.218875
0.839734 0.684642 0.239139
0.86923 0.686091 0.254688
0.871061 0.683299 0.254841
0.870649 0.680522 0.253925
0.870436 0.677989 0.2533
0.869947 0.675929 0.252628
0.869764 0.674678 0.252338
0.86978 0.674098 0.252277
0.869947 0.674708 0.252552
0.870558 0.676997 0.253483
0.870985 0.681117 0.254627
0.872496 0.688121 0.257328
0.187915 0.79353 0.317159
0.192264 0.797818 0.316289
0.197024 0.802197 0.314519
0.203265 0.804578 0.29955
0.209125 0.805493 0.283162
0.211124 0.804074 0.272221
0.210117 0.80206 0.269474
0.208515 0.799619 0.266926
0.200855 0.78851 0.25803
0.20415 0.776837 0.243442
0.223865 0.767727 0.223453
0.23006 0.759045 0.212497
0.247425 0.754772 0.202075
0.323507 0.761852 0.183795
0.469963 0.772717 0.175387
0.551873 0.766857 0.177081
0.617777 0.733089 0.173541
0.684718 0.721004 0.18732
0.737255 0.730053 0.207507
0.779644 0.729549 0.225223
0.810651 0.731365 0.240558
0.842039 0.735073 0.257252
0.872023 0.738354 0.273533
0.884627 0.737987 0.279835
0.883955 0.735775 0.278859
0.883207 0.733532 0.277867
0.882673 0.731914 0.277256
0.882124 0.730678 0.27686
0.881895 0.730297 0.276799
0.8822 0.731136 0.277363
0.882765 0.733684 0.278477
0.884001 0.738567 0.280644
0.886107 0.745785 0.284031
0.224002 0.841459 0.358419
0.224552 0.841245 0.354559
0.22536 0.840879 0.349493
0.22742 0.838651 0.331884
0.230274 0.836378 0.313359
0.232624 0.834119 0.297429
0.234333 0.833478 0.297322
0.234562 0.833143 0.294514
0.234058 0.832456 0.293172
0.236713 0.827588 0.286717
0.262119 0.824079 0.270863
0.279149 0.818555 0.257206
0.285924 0.813016 0.251026
0.322271 0.814237 0.239445
0.443458 0.824216 0.21915
0.559274 0.836606 0.226246
0.619135 0.816754 0.221088
0.676997 0.785382 0.220981
0.736828 0.779553 0.234577
0.789014 0.78941 0.254963
0.829313 0.788693 0.271885
0.857374 0.789517 0.285649
0.880293 0.791348 0.298009
0.897963 0.792966 0.307866
0.897978 0.791196 0.307195
0.897169 0.789136 0.306004
0.896757 0.78761 0.305287
0.896498 0.786709 0.304936
0.896315 0.78645 0.304906
0.896635 0.787305 0.305684
0.897108 0.789837 0.307088
0.898314 0.794171 0.309483
0.900099 0.80087 0.313024
0.223575 0.842573 0.365393
0.22385 0.842268 0.362249
0.22475 0.841703 0.356115
0.22707 0.839353 0.337484
0.230076 0.836973 0.318685
0.232395 0.834485 0.302586
0.233097 0.834134 0.300237
0.233783 0.833677 0.296834
0.233707 0.833722 0.296956
0.238529 0.834989 0.296742
0.270558 0.841581 0.289845
0.300237 0.846662 0.281544
0.315251 0.848737 0.281407
0.335302 0.849897 0.277546
0.40853 0.857679 0.261616
0.551614 0.869703 0.252552
0.63003 0.877043 0.263996
0.677958 0.856626 0.263752
0.733288 0.829267 0.267216
0.7897 0.832731 0.28336
0.837415 0.84213 0.301396
0.87364 0.842145 0.317189
0.899107 0.842954 0.330404
0.917266 0.844816 0.341329
0.921614 0.844083 0.343694
0.920775 0.842344 0.342321
0.919966 0.84094 0.341176
0.919417 0.840208 0.340429
0.919341 0.840131 0.340307
0.920134 0.841352 0.341314
0.921538 0.844022 0.343313
0.923934 0.848188 0.346471
0.927291 0.854231 0.351583
0.223026 0.84329 0.369863
0.223697 0.84239 0.362554
0.224674 0.841749 0.356313
0.22681 0.839658 0.339742
0.229679 0.837308 0.321416
0.232288 0.834684 0.304097
0.233722 0.833738 0.297566
0.234028 0.83357 0.296757
0.234089 0.833539 0.296437
0.23389 0.833951 0.298772
0.261387 0.840436 0.295979
0.298848 0.847761 0.288228
0.325978 0.853346 0.28571
0.342596 0.857435 0.287816
0.388495 0.864286 0.280751
0.514687 0.875059 0.26186
0.627039 0.885786 0.269734
0.683635 0.893111 0.289158
0.732265 0.886473 0.303059
0.789517 0.866606 0.311254
0.839582 0.879118 0.32987
0.880812 0.88893 0.348272
0.91284 0.890196 0.363958
0.935363 0.891234 0.377035
0.946349 0.891585 0.383307
0.945953 0.890394 0.382727
0.945769 0.889784 0.382773
0.945632 0.889601 0.38323
0.945571 0.889525 0.383841
0.945724 0.890105 0.384894
0.947021 0.892088 0.387091
0.949401 0.895491 0.389929
0.952514 0.900038 0.392096
0.222766 0.843336 0.373663
0.22327 0.842527 0.365896
0.223713 0.842329 0.363012
0.225284 0.841062 0.351354
0.227512 0.838712 0.334005
0.230625 0.835874 0.313207
0.233143 0.833631 0.298314
0.233539 0.833448 0.297505
0.233799 0.833204 0.296147
0.233631 0.833356 0.296849
0.244755 0.836545 0.299016
0.291402 0.846998 0.293462
0.327489 0.854063 0.288014
0.34641 0.859297 0.292393
0.386099 0.866392 0.290486
0.476707 0.877058 0.281483
0.611994 0.890272 0.2869
0.683635 0.897383 0.299397
0.733333 0.903273 0.315602
0.789349 0.907088 0.339788
0.844602 0.905104 0.356786
0.885237 0.914824 0.373434
0.917739 0.920027 0.388022
0.944549 0.923018 0.403006
0.964599 0.924987 0.409201
0.966033 0.924758 0.409354
0.966155 0.924773 0.409598
0.966033 0.924941 0.409827
0.965957 0.925414 0.410224
0.96585 0.926452 0.410651
0.966079 0.927672 0.41149
0.966354 0.928008 0.41265
0.9673 0.928649 0.415015
0.222858 0.844495 0.38024
0.223423 0.843061 0.36846
0.223728 0.842664 0.364385
0.224155 0.842161 0.359808
0.225895 0.840436 0.345098
0.228107 0.838117 0.327123
0.230823 0.835142 0.306096
0.232212 0.833951 0.297215
0.232517 0.833677 0.295216
0.232486 0.833707 0.295445
0.236255 0.835111 0.298375
0.279622 0.845045 0.294713
0.320333 0.852674 0.287617
0.343008 0.858625 0.291966
0.377066 0.865415 0.292119
0.455299 0.876799 0.289082
0.588418 0.890715 0.292531
0.674891 0.901259 0.312367
0.728252 0.904051 0.31667
0.781033 0.911543 0.34107
0.842466 0.915862 0.368444
0.884321 0.922301 0.38436
0.916701 0.925078 0.395819
0.943603 0.928695 0.41149
0.965103 0.931197 0.422934
0.969772 0.93164 0.424796
0.969772 0.931655 0.425361
0.969589 0.931746 0.426123
0.969192 0.931853 0.426886
0.968582 0.931975 0.427344
0.96817 0.932067 0.427497
0.96817 0.932067 0.427482
0.968551 0.931975 0.427329
0.222873 0.845731 0.389456
0.223545 0.843748 0.373236
0.223972 0.84268 0.364492
0.223957 0.842649 0.363577
0.224842 0.841703 0.355108
0.226673 0.839521 0.338308
0.229374 0.836927 0.317983
0.232074 0.834028 0.297887
0.232319 0.833875 0.296605
0.232486 0.833722 0.295521
0.233143 0.834195 0.297642
0.267414 0.84242 0.296407
0.3131 0.851347 0.288502
0.339315 0.857557 0.29099
0.369787 0.864042 0.292348
0.437293 0.874571 0.290257
0.565332 0.887755 0.288701
0.664714 0.900587 0.310964
0.719631 0.903807 0.315785
0.770993 0.91046 0.336324
0.833646 0.915175 0.365606
0.878294 0.922316 0.382834
0.91136 0.924712 0.394415
0.93872 0.927916 0.40824
0.961822 0.93109 0.422446
0.969894 0.931823 0.425391
0.969833 0.931792 0.425803
0.969573 0.931807 0.426261
0.969116 0.931884 0.426825
0.968444 0.932006 0.427482
0.968017 0.932082 0.427802
0.967803 0.932128 0.427893
0.968017 0.932082 0.427802
0.222705 0.846723 0.398703
0.223453 0.844617 0.380438
0.224002 0.843 0.367437
0.224094 0.842618 0.36379
0.224216 0.842496 0.36199
0.225681 0.840864 0.348119
0.227909 0.8383 0.328649
0.231601 0.834363 0.300603
0.232685 0.833783 0.297627
0.232898 0.833555 0.295781
0.232624 0.833768 0.297002
0.258701 0.840269 0.297093
0.305684 0.849912 0.28986
0.336004 0.856703 0.290349
0.364004 0.862898 0.292332
0.423789 0.872923 0.291035
0.546136 0.885451 0.286397
0.65597 0.899992 0.310323
0.711879 0.903624 0.315633
0.762264 0.909209 0.332036
0.824918 0.91632 0.362478
0.872114 0.922072 0.380621
0.906188 0.924407 0.392462
0.934417 0.927199 0.40499
0.958114 0.930785 0.420874
0.969924 0.931823 0.425193
0.969924 0.931823 0.425193
0.969726 0.931884 0.425147
0.969345 0.931975 0.425193
0.96875 0.932128 0.425315
0.968338 0.932219 0.425544
0.968093 0.93225 0.425864
0.968215 0.932174 0.426307
0.222019 0.847959 0.407599
0.222797 0.84564 0.38819
0.223606 0.843687 0.372457
0.224109 0.842573 0.363485
0.224063 0.842878 0.364691
0.224903 0.84181 0.355978
0.226978 0.839307 0.337072
0.230243 0.835981 0.312352
0.232288 0.833997 0.298558
0.232822 0.83357 0.295399
0.2327 0.833722 0.296315
0.252064 0.838621 0.297169
0.298573 0.848569 0.291188
0.332708 0.855985 0.290105
0.359625 0.861875 0.291936
0.413489 0.871168 0.290776
0.529625 0.883757 0.28542
0.648035 0.899382 0.309377
0.705592 0.903517 0.315892
0.755611 0.908339 0.328923
0.81706 0.917052 0.359365
0.866239 0.921355 0.378225
0.901381 0.924529 0.391012
0.930495 0.926757 0.402411
0.95404 0.930404 0.418906
0.969253 0.931777 0.424979
0.969924 0.931823 0.425177
0.969741 0.931884 0.425055
0.96939 0.932006 0.424796
0.968872 0.932174 0.42443
0.968521 0.932296 0.424216
0.968338 0.932357 0.424109
0.968338 0.932357 0.424109
0.221149 0.849241 0.414923
0.221897 0.846677 0.394568
0.223102 0.844694 0.377737
0.223972 0.842893 0.364477
0.224063 0.842893 0.364279
0.224369 0.842481 0.361318
0.2262 0.840421 0.345037
0.229053 0.837507 0.322759
0.23212 0.834104 0.299657
0.232868 0.83357 0.295613
0.232837 0.833616 0.295888
0.245029 0.836942 0.297932
0.292973 0.847379 0.29218
0.330251 0.855436 0.29012
0.356954 0.861311 0.291798
0.408225 0.870222 0.290654
0.515587 0.882383 0.285313
0.640787 0.898146 0.30663
0.70103 0.90338 0.316014
0.751247 0.907668 0.326497
0.811383 0.916487 0.356451
