bundles/resolve-cinematic-luts/Phantom Luts/Canon Alexa LUT/C-Log 3/IceBlue Canon CL3-Legacy.cube
TITLE "Generated by Resolve"
LUT_3D_SIZE 5
0.0412451 0.0532692 0.0550698
0.31577 0.0503395 0.0638285
0.660304 0.0865187 0.181613
0.732219 0.108553 0.268498
0.737881 0.105379 0.31284
0.0388495 0.28481 0.0767529
0.181811 0.220157 0.0570993
0.609491 0.158618 0.0730144
0.678187 0.0989242 0.13817
0.681147 0.0964675 0.152041
0.141924 0.731609 0.26685
0.151125 0.719844 0.205921
0.632181 0.663844 0.145418
0.870649 0.680522 0.253925
0.872496 0.688121 0.257328
0.222705 0.846723 0.398703
0.232685 0.833783 0.297627
0.546136 0.885451 0.286397
0.958114 0.930785 0.420874
0.968215 0.932174 0.426307
0.220935 0.852308 0.438651
0.230579 0.834562 0.303624
0.644129 0.897032 0.304768
0.967727 0.930938 0.424979
0.966705 0.932586 0.426246
0.0277867 0.061799 0.228138
0.290105 0.0524147 0.279393
0.692912 0.0865034 0.377737
0.760891 0.113222 0.43769
0.757885 0.112902 0.475364
0.0365148 0.199619 0.194903
0.13817 0.172824 0.185534
0.631251 0.0745403 0.186542
0.733303 0.107179 0.278431
0.738125 0.105852 0.310811
0.0917067 0.673365 0.366979
0.10959 0.688655 0.256703
0.595987 0.644099 0.126238
0.866484 0.636927 0.24036
0.866072 0.641581 0.241398
0.22739 0.863661 0.543465
0.221775 0.849836 0.423926
0.405417 0.869886 0.290822
0.943603 0.928817 0.41239
0.967834 0.932143 0.427756
0.233707 0.868818 0.588525
0.221332 0.855665 0.472374
0.477455 0.878325 0.287037
0.943221 0.928283 0.41265
0.965637 0.932555 0.429603
0.0281224 0.0870069 0.530083
0.290608 0.073228 0.618906
0.627863 0.0934462 0.622782
0.719356 0.126909 0.675563
0.705043 0.130663 0.707973
0.0211337 0.159792 0.502556
0.0320745 0.084535 0.524407
0.587304 0.0812848 0.602167
0.736507 0.120043 0.612726
0.725551 0.122805 0.645899
0.0852064 0.599634 0.581415
0.0820325 0.594415 0.577325
0.546838 0.59823 0.60621
0.993652 0.520287 0.598596
0.990875 0.520684 0.624018
0.26154 0.867643 0.726772
0.263661 0.870832 0.70309
0.226658 0.860792 0.521859
0.926787 0.9393 0.468833
0.980789 0.946532 0.553429
0.269764 0.865187 0.774365
0.270207 0.864271 0.744137
0.232898 0.865995 0.573419
0.904265 0.942428 0.497642
0.977569 0.946059 0.515846
0.0439765 0.140612 0.629831
0.274464 0.13051 0.739116
0.588266 0.12105 0.755322
0.689326 0.136233 0.745281
0.689326 0.136217 0.745434
0.0352178 0.208408 0.636652
0.0391852 0.14226 0.624537
0.525032 0.123003 0.763958
0.690745 0.136004 0.743664
0.688777 0.136294 0.746105
0.113497 0.570581 0.734386
0.110384 0.552834 0.742855
0.36228 0.50927 0.899641
0.897826 0.412863 0.928923
0.8972 0.422202 0.937499
0.298604 0.871809 0.865629
0.305806 0.869047 0.859403
0.280201 0.84477 0.835203
0.893477 0.920668 0.928466
0.975875 0.917586 0.935866
0.305577 0.879301 0.880354
0.31751 0.876463 0.875898
0.298405 0.86807 0.848951
0.877546 0.968032 0.938827
0.983246 0.978149 0.96875
0.0603189 0.139757 0.64564
0.290425 0.130312 0.743221
0.604654 0.122515 0.753491
0.689326 0.136233 0.745296
0.689601 0.136172 0.745113
0.0348974 0.204654 0.63473
0.0490425 0.140795 0.635416
0.53463 0.122484 0.762936
0.69041 0.136049 0.74406
0.688807 0.136278 0.746151
0.122271 0.570993 0.761761
0.112734 0.549447 0.753796
0.356909 0.490623 0.895094
0.884428 0.394186 0.920058
0.887572 0.404486 0.926863
0.309712 0.878584 0.878996
0.316396 0.872679 0.874113
0.291218 0.844648 0.859419
0.872053 0.907897 0.967803
0.971725 0.905501 0.96878
0.303319 0.879973 0.880751
0.320806 0.87602 0.875898
0.322637 0.877638 0.876997
0.871031 0.971435 0.974578
0.986099 0.978119 0.978454
