bundles/resolve-cinematic-luts/Phantom Luts/Canon Alexa LUT/C-Log 3/IceBlue Canon CL3.cube
TITLE "Generated by Resolve"
LUT_3D_SIZE 9
0.0310063 0.043473 0.0421912
0.141817 0.0374762 0.0466621
0.370611 0.0371557 0.0662394
0.54667 0.0482185 0.126665
0.673625 0.0768292 0.212284
0.726589 0.0928664 0.274983
0.731533 0.0934157 0.297292
0.734142 0.0935683 0.312001
0.735393 0.091249 0.343816
0.0287938 0.107073 0.0576638
0.0530251 0.0721752 0.0486152
0.243763 0.0786145 0.0419013
0.489494 0.0501717 0.043122
0.617639 0.0661326 0.114076
0.688228 0.085832 0.176776
0.699321 0.0879377 0.199237
0.709255 0.090013 0.220783
0.71606 0.0879988 0.252796
0.0241703 0.339925 0.0729992
0.0308537 0.31368 0.0521248
0.231556 0.274174 0.038941
0.489021 0.265141 0.0433509
0.645563 0.199832 0.0822003
0.683864 0.0870985 0.143709
0.683268 0.0861067 0.153689
0.683268 0.0857557 0.156802
0.686076 0.0840772 0.167926
0.0417792 0.550103 0.152605
0.0468147 0.548577 0.0982834
0.0750134 0.520302 0.0670481
0.457359 0.494774 0.0454261
0.673838 0.505776 0.109895
0.830167 0.451362 0.203128
0.826215 0.408545 0.200626
0.814343 0.392325 0.188632
0.823682 0.408728 0.197726
0.144503 0.753445 0.302373
0.165255 0.759182 0.243351
0.156313 0.739757 0.218662
0.280934 0.728313 0.158495
0.670832 0.700771 0.169268
0.826596 0.714473 0.237583
0.879393 0.712474 0.264027
0.878401 0.706493 0.262394
0.881132 0.719554 0.267582
0.209781 0.843626 0.392569
0.215488 0.836118 0.33077
0.22034 0.830884 0.295293
0.345739 0.857588 0.282231
0.657252 0.889174 0.271901
0.854948 0.877714 0.335439
0.937469 0.886992 0.377478
0.937087 0.885054 0.378027
0.942946 0.893706 0.384344
0.210178 0.8477 0.426581
0.210712 0.842786 0.382864
0.21886 0.831266 0.296742
0.320211 0.853544 0.287358
0.573068 0.891722 0.294316
0.842023 0.910048 0.369467
0.950439 0.931182 0.421469
0.960494 0.933013 0.424796
0.959564 0.933318 0.424262
0.211307 0.851591 0.458625
0.210422 0.842832 0.385031
0.216571 0.832181 0.304082
0.296559 0.849195 0.291936
0.532525 0.887785 0.294209
0.831876 0.911727 0.364385
0.945235 0.929839 0.418082
0.962051 0.932403 0.426673
0.957732 0.933486 0.427451
0.210437 0.853437 0.470039
0.210208 0.844572 0.396963
0.216999 0.832471 0.304952
0.344411 0.859098 0.288792
0.670848 0.903471 0.316426
0.876127 0.911971 0.382345
0.958953 0.931655 0.424979
0.962142 0.932448 0.425864
0.957916 0.933593 0.425879
0.0246128 0.0477607 0.0935988
0.127428 0.0423896 0.140963
0.377829 0.0371557 0.217487
0.564401 0.0469978 0.272694
0.68983 0.0744182 0.319066
0.74023 0.0932174 0.367346
0.743389 0.0942855 0.39263
0.744595 0.0947585 0.409003
0.742397 0.0936446 0.429801
0.0322423 0.0600595 0.0599985
0.0310979 0.0442054 0.0429847
0.291417 0.0361944 0.0737926
0.524437 0.0435798 0.134768
0.662654 0.0704204 0.221576
0.727932 0.0906844 0.29485
0.732174 0.09131 0.317403
0.734218 0.0915694 0.330556
0.734905 0.0903792 0.350378
0.0257572 0.293004 0.166903
0.024979 0.289143 0.0764782
0.190738 0.247959 0.0411383
0.501549 0.197848 0.0473182
0.618433 0.0864424 0.0858473
0.688548 0.085069 0.1785
0.691783 0.085832 0.185443
0.700633 0.0875257 0.203204
0.702876 0.085832 0.215213
0.0335546 0.524498 0.226184
0.0368505 0.528389 0.144091
0.0442969 0.514885 0.0791333
0.429923 0.483543 0.0407416
0.679118 0.479377 0.106889
0.819883 0.405493 0.19498
0.800107 0.363256 0.176135
0.790311 0.336751 0.170016
0.803189 0.35996 0.181933
0.123171 0.736721 0.360052
0.134493 0.740139 0.297963
0.153689 0.743664 0.2336
0.225467 0.717144 0.164767
0.658579 0.691524 0.161395
0.827268 0.702205 0.233799
0.876722 0.695933 0.257191
0.875227 0.688457 0.254505
0.877195 0.703136 0.259663
0.210422 0.852277 0.466651
0.210925 0.843976 0.39176
0.216236 0.835477 0.326116
0.303197 0.84892 0.283696
0.620783 0.883833 0.264088
0.846967 0.871153 0.328069
0.934051 0.87863 0.370855
0.932509 0.875685 0.370428
0.93785 0.884916 0.375326
0.213382 0.857282 0.505074
0.209781 0.848844 0.433783
0.211475 0.842145 0.378851
0.25069 0.83888 0.295247
0.505974 0.885206 0.29305
0.825895 0.912779 0.362371
0.945586 0.930404 0.419226
0.96025 0.932891 0.426734
0.958968 0.93315 0.427573
0.215412 0.859815 0.526665
0.209995 0.852308 0.463783
0.210361 0.842573 0.38555
0.221592 0.832288 0.299565
0.474311 0.882017 0.295293
0.813901 0.912917 0.356832
0.938628 0.928344 0.413474
0.96202 0.932387 0.426825
0.957839 0.933547 0.426627
0.217243 0.859998 0.532372
0.211658 0.853773 0.478813
0.210468 0.842618 0.382879
0.299413 0.849592 0.290578
0.624796 0.898299 0.306676
0.862303 0.910903 0.376623
0.952514 0.930709 0.422232
0.962051 0.932403 0.426673
0.95758 0.93341 0.428611
0.0133669 0.0570687 0.273732
0.165011 0.0437171 0.301717
0.347341 0.0391394 0.331014
0.553399 0.0470283 0.380667
0.697856 0.0781415 0.406424
0.7476 0.0966201 0.445396
0.748287 0.0977951 0.46685
0.747433 0.098146 0.480812
0.74313 0.097734 0.500984
0.0173342 0.0825055 0.186465
0.020737 0.0548562 0.244556
0.273167 0.0399176 0.282734
0.539391 0.0443885 0.314778
0.681102 0.0718242 0.341955
0.741436 0.0933394 0.384482
0.743877 0.0943923 0.406912
0.744472 0.0946059 0.420356
0.743008 0.0942855 0.444877
0.0215763 0.254643 0.241505
0.0209506 0.237705 0.228412
0.177905 0.220432 0.230228
0.540154 0.140063 0.204379
0.649744 0.0671702 0.221363
0.72781 0.0918746 0.285893
0.73196 0.092134 0.308003
0.734615 0.0928359 0.321065
0.735698 0.0916152 0.341634
0.0305638 0.493172 0.316976
0.0294652 0.49427 0.264057
0.0300908 0.497093 0.162371
0.395438 0.47364 0.0458534
0.703593 0.429007 0.135531
0.799191 0.327489 0.191913
0.771099 0.256565 0.173648
0.755627 0.211597 0.168429
0.771908 0.239918 0.184634
0.104524 0.709865 0.423575
0.109743 0.717571 0.373388
0.117021 0.71989 0.302861
0.170413 0.703929 0.172168
0.637018 0.681422 0.149081
0.826185 0.68397 0.227268
0.872938 0.670542 0.247868
0.871427 0.659876 0.245212
0.873167 0.675685 0.249699
0.215442 0.86041 0.535805
0.212619 0.854902 0.486549
0.212116 0.846113 0.413764
0.226963 0.833158 0.299382
0.546975 0.876432 0.257954
0.834134 0.861326 0.317388
0.927016 0.865583 0.358557
0.924331 0.860533 0.3561
0.928588 0.868208 0.362066
0.221881 0.865049 0.575189
0.215228 0.859525 0.524224
0.211139 0.851209 0.454582
0.217273 0.832929 0.309651
0.431571 0.876081 0.29398
0.801465 0.914534 0.351644
0.939132 0.929595 0.414481
0.95996 0.932754 0.428962
0.958907 0.933043 0.428824
0.225971 0.867887 0.597772
0.218036 0.862745 0.551339
0.211688 0.854047 0.48368
0.213367 0.836423 0.33785
0.402502 0.870893 0.292546
0.785489 0.911742 0.341955
0.928801 0.926207 0.405997
0.961929 0.93228 0.428214
0.957794 0.933364 0.428672
0.231022 0.870192 0.619226
0.222507 0.866896 0.58436
0.212772 0.857008 0.503548
0.215961 0.833066 0.313588
0.504555 0.884291 0.292699
0.82974 0.91104 0.363699
0.939193 0.928618 0.414786
0.961898 0.932342 0.427848
0.956985 0.93341 0.430518
0.0174716 0.0664988 0.443961
0.173938 0.0512398 0.492271
0.349294 0.0455634 0.501915
0.516594 0.0491798 0.501945
0.67602 0.0793927 0.519875
0.737514 0.100664 0.548302
0.734386 0.101976 0.567758
0.731594 0.10277 0.580362
0.724941 0.103548 0.599405
0.0100404 0.114153 0.407523
0.0212711 0.0643931 0.439475
0.247684 0.048127 0.494102
0.492378 0.0464027 0.489509
0.668742 0.0742351 0.492302
0.743923 0.0991684 0.512215
0.741115 0.099855 0.529442
0.73875 0.100298 0.541436
0.731853 0.100938 0.565576
0.0129854 0.231418 0.385122
0.010605 0.197192 0.411307
0.05449 0.131487 0.475456
0.466407 0.0604105 0.48249
0.65861 0.06804 0.433082
0.749126 0.0975662 0.453529
0.749416 0.0984207 0.471
0.748226 0.0984817 0.482124
0.743877 0.0983291 0.504692
0.030457 0.462303 0.434272
0.0290532 0.457343 0.432029
0.0276036 0.446021 0.424811
0.396841 0.447471 0.448508
0.765408 0.38468 0.422721
0.866835 0.273091 0.41915
0.821591 0.198856 0.401083
0.79295 0.156985 0.389181
0.815213 0.186862 0.418677
0.0931411 0.670314 0.516152
0.0919661 0.672892 0.497795
0.0885481 0.673136 0.465431
0.0963149 0.683299 0.343908
0.592157 0.671061 0.267491
0.882734 0.656367 0.343923
0.934798 0.621515 0.36199
0.930724 0.607492 0.358938
0.938964 0.625223 0.380148
0.216587 0.847669 0.622538
0.217487 0.851316 0.600473
0.215747 0.852735 0.566262
0.2103 0.849256 0.461707
0.362875 0.858625 0.278996
0.809979 0.843244 0.299092
0.91603 0.840848 0.33756
0.91104 0.831373 0.332311
0.914565 0.838712 0.340688
0.241917 0.874464 0.665629
0.23621 0.872419 0.639979
0.228183 0.867979 0.602502
0.213825 0.855344 0.493889
0.314366 0.853071 0.294148
0.749599 0.910704 0.332891
0.926955 0.927443 0.405722
0.96022 0.932738 0.43035
0.958618 0.932784 0.434806
0.243687 0.874113 0.682506
0.241352 0.874678 0.660807
0.2318 0.870741 0.624247
0.215305 0.858045 0.519539
0.258885 0.840803 0.296818
0.725795 0.909545 0.331365
0.909392 0.92108 0.396841
0.963394 0.931716 0.431846
0.958938 0.932662 0.43476
0.249561 0.871824 0.710384
0.247471 0.872816 0.695964
0.240024 0.874861 0.661097
0.218814 0.861463 0.549493
0.32845 0.857023 0.296834
0.75903 0.912108 0.338674
0.918914 0.924727 0.400885
0.962005 0.93225 0.431037
0.957458 0.933165 0.433982
0.0293126 0.0905165 0.550698
0.175891 0.0747692 0.61709
0.333761 0.0719921 0.643381
0.485573 0.0710765 0.641947
0.635142 0.0870527 0.634607
0.713924 0.11046 0.660853
0.708309 0.112428 0.679255
0.704601 0.113741 0.690135
0.696864 0.11548 0.705409
0.0142367 0.142321 0.535744
0.0334173 0.0881971 0.552682
0.223239 0.0737163 0.628855
0.45156 0.0720378 0.646647
0.621805 0.082536 0.628031
0.71754 0.109041 0.647456
0.713497 0.110582 0.662165
0.710369 0.111437 0.671534
0.702144 0.113283 0.68925
0.0148165 0.19678 0.527077
0.0137484 0.154589 0.531136
0.0348974 0.0867781 0.547295
0.381216 0.0699931 0.639918
0.596948 0.0745556 0.614511
0.724697 0.106203 0.619379
0.722423 0.107485 0.631251
0.720211 0.10837 0.640223
0.712963 0.109911 0.658183
0.0366369 0.438514 0.561166
0.0348211 0.423728 0.569421
0.0327764 0.397421 0.577951
0.235798 0.357153 0.700298
0.690883 0.278737 0.721614
0.770871 0.138521 0.587594
0.744564 0.109575 0.567575
0.74168 0.10724 0.568643
0.738582 0.111437 0.59266
0.0982223 0.636515 0.618387
0.0975357 0.636301 0.61738
0.0950027 0.631724 0.614237
0.0876631 0.618402 0.603937
0.588449 0.640528 0.649027
0.927321 0.602884 0.641627
0.998886 0.559991 0.641199
0.998886 0.541894 0.64477
0.996078 0.561883 0.667567
0.213535 0.812589 0.70103
0.214725 0.81239 0.692882
0.210285 0.810071 0.680247
0.196384 0.806134 0.646616
0.316152 0.86186 0.563867
0.759731 0.842542 0.528099
0.955352 0.828412 0.576013
0.962615 0.817807 0.585687
0.955032 0.82681 0.622187
0.259403 0.866819 0.751629
0.264027 0.866148 0.741588
0.261967 0.867201 0.727871
0.252186 0.871336 0.694179
0.220645 0.862013 0.553399
0.63003 0.922896 0.468193
0.926116 0.938674 0.480385
0.975586 0.943404 0.521538
0.971908 0.94406 0.570703
0.260624 0.867704 0.766155
0.26627 0.86566 0.75584
0.263386 0.866499 0.741161
0.253971 0.870726 0.706172
0.224033 0.863432 0.573205
0.587549 0.916411 0.441718
0.895735 0.929824 0.428931
0.970031 0.944488 0.49691
0.969863 0.946212 0.520729
0.268406 0.867308 0.793561
0.273808 0.86537 0.785214
0.27068 0.865248 0.768215
0.258991 0.867948 0.729793
0.230304 0.867018 0.605249
0.683757 0.930571 0.564095
0.907378 0.942077 0.518196
0.969589 0.946899 0.520119
0.969635 0.947662 0.53106
0.0350958 0.1552 0.630777
0.175433 0.140276 0.709484
0.317708 0.133257 0.747372
0.469688 0.126299 0.761273
0.601556 0.103655 0.728618
0.68838 0.118654 0.728893
0.688151 0.118654 0.728954
0.689143 0.118486 0.727932
0.687083 0.118776 0.73048
0.0231785 0.184726 0.615839
0.037171 0.15407 0.632425
0.205997 0.13753 0.718853
0.426871 0.129976 0.762005
0.587701 0.107744 0.735637
0.689769 0.118471 0.727245
0.688869 0.118532 0.728176
0.688334 0.118608 0.728832
0.685847 0.118959 0.732021
0.0252537 0.22414 0.613962
0.0226749 0.188968 0.611093
0.0365454 0.14876 0.624475
0.345846 0.12752 0.747021
0.560433 0.110567 0.739727
0.692592 0.118029 0.723079
0.691768 0.118135 0.724651
0.691096 0.118242 0.725628
0.687099 0.118776 0.730495
0.0474403 0.40853 0.64773
0.0462959 0.389914 0.655299
0.0430152 0.356664 0.65832
0.137026 0.296651 0.737926
0.554482 0.216648 0.820508
0.687739 0.118761 0.710002
0.699992 0.115679 0.704707
0.699016 0.116045 0.707546
0.694453 0.11693 0.715297
0.116091 0.62945 0.701473
0.114992 0.623789 0.70605
0.111452 0.612192 0.709346
0.101411 0.580591 0.713756
0.487678 0.596231 0.875059
0.868147 0.54551 0.898466
0.974685 0.488579 0.877653
0.968017 0.471656 0.874571
0.964248 0.496971 0.894011
0.217563 0.78883 0.774746
0.219211 0.787533 0.772808
0.216373 0.78323 0.768963
0.20763 0.773556 0.760479
0.278904 0.786053 0.775051
0.763317 0.809522 0.818692
0.971923 0.78407 0.816266
0.987945 0.768673 0.817487
0.975631 0.781613 0.8327
0.276463 0.866606 0.824048
0.2822 0.865385 0.818036
0.281239 0.86508 0.81062
0.277043 0.865309 0.794873
0.263233 0.865873 0.75938
0.607187 0.930724 0.758511
0.889677 0.935256 0.777874
0.96849 0.930404 0.801816
0.964965 0.931685 0.827375
0.278477 0.867384 0.839551
0.285252 0.86569 0.831708
0.284199 0.86537 0.823087
0.277363 0.865721 0.80351
0.26511 0.867109 0.759945
0.516335 0.928313 0.72784
0.860914 0.960311 0.784588
0.976654 0.971466 0.852369
0.983764 0.973236 0.881331
0.286107 0.871366 0.856306
0.293477 0.868269 0.851087
0.291447 0.865507 0.842054
0.282414 0.865705 0.821546
0.270085 0.868391 0.777188
0.620203 0.937133 0.791791
0.881987 0.961959 0.823911
0.970535 0.973129 0.868452
0.979721 0.975219 0.888777
0.0561532 0.162661 0.660258
0.198062 0.155734 0.733028
0.329198 0.152987 0.769879
0.480934 0.143771 0.78233
0.614298 0.112612 0.742885
0.687755 0.118685 0.72958
0.68777 0.1187 0.729458
0.688762 0.118547 0.728359
0.68716 0.118761 0.730388
0.024567 0.187793 0.6262
0.0551461 0.163104 0.660151
0.215106 0.155474 0.73901
0.434684 0.149004 0.783658
0.595376 0.115221 0.749081
0.687678 0.1187 0.729702
0.6878 0.118685 0.729458
0.687602 0.11873 0.729702
0.686687 0.118837 0.73106
0.0328679 0.251972 0.655695
0.0257572 0.201251 0.63267
0.0449378 0.163455 0.649943
0.347936 0.152331 0.773297
0.564645 0.125536 0.763439
0.688075 0.118654 0.729168
0.689357 0.118456 0.727657
0.689082 0.118502 0.727977
0.686946 0.118791 0.730694
0.0562448 0.39292 0.696406
0.0536812 0.374868 0.698558
0.0454261 0.330816 0.685405
0.0781262 0.237995 0.70106
0.487922 0.167269 0.799634
0.664057 0.116075 0.734508
0.68954 0.118456 0.727474
0.689433 0.118471 0.727642
0.68751 0.118746 0.730053
0.123293 0.609918 0.753491
0.122118 0.60444 0.756771
0.118563 0.593484 0.758679
0.107805 0.562631 0.757748
0.415351 0.559411 0.934798
0.809522 0.515099 0.982345
0.925109 0.455573 0.949737
0.916808 0.437812 0.94023
0.922881 0.464576 0.955947
0.231373 0.794598 0.816495
0.234577 0.792248 0.815503
0.23154 0.787457 0.814847
0.222156 0.773129 0.812818
0.212848 0.745007 0.815061
0.703822 0.782467 0.941573
0.943542 0.752529 0.958404
0.975311 0.733776 0.949615
0.960754 0.750454 0.951003
0.290059 0.873198 0.86363
0.297795 0.87158 0.860243
0.297978 0.870619 0.858091
0.292927 0.865675 0.852857
0.279072 0.853223 0.841062
0.616754 0.90219 0.898619
0.900649 0.918776 0.924239
0.97293 0.913954 0.924666
0.967865 0.917678 0.931029
0.292256 0.878004 0.872694
0.301488 0.875166 0.867948
0.30135 0.873549 0.865049
0.295674 0.871275 0.858747
0.287221 0.866957 0.842832
0.436698 0.913375 0.858
0.869184 0.962219 0.924285
0.966598 0.971237 0.937667
0.981689 0.972396 0.952743
0.295415 0.878416 0.873838
0.304479 0.876738 0.87097
0.306676 0.875837 0.870024
0.300267 0.87335 0.864317
0.291493 0.869688 0.850385
0.563348 0.923445 0.88426
0.889799 0.963729 0.936797
0.961318 0.973693 0.94197
0.985245 0.977844 0.9617
0.0706493 0.161807 0.672206
0.217044 0.155337 0.739467
0.339422 0.152758 0.771878
0.487907 0.14258 0.781567
0.619547 0.11104 0.739895
0.687785 0.118685 0.729564
0.68777 0.1187 0.729473
0.68809 0.118654 0.729152
0.687419 0.11873 0.730068
0.0238499 0.181262 0.623636
0.0669261 0.162112 0.669886
0.228138 0.1552 0.743297
0.441444 0.148531 0.783871
0.59881 0.112978 0.746334
0.687739 0.118685 0.729641
0.687816 0.118685 0.729442
0.687617 0.118715 0.729717
0.68661 0.118837 0.731136
0.0323949 0.247852 0.653651
0.0251011 0.195102 0.629877
0.0547799 0.162905 0.659754
0.355138 0.1523 0.774701
0.568048 0.124697 0.762264
0.687739 0.1187 0.729549
0.689006 0.118517 0.728084
0.688899 0.118517 0.728191
0.686946 0.118791 0.730694
0.055848 0.381384 0.702678
0.0498207 0.353658 0.693416
0.0404517 0.30251 0.675319
0.0674907 0.196475 0.68069
0.482704 0.155322 0.790677
0.661357 0.114244 0.733455
0.689387 0.118486 0.727657
0.689403 0.118471 0.727703
0.687495 0.118746 0.730068
0.127657 0.606867 0.773098
0.123888 0.599634 0.769955
0.117861 0.58645 0.765454
0.102663 0.549401 0.753658
0.401938 0.538842 0.928084
0.797925 0.492958 0.978897
0.9093 0.430747 0.939574
0.900679 0.411704 0.927703
0.911955 0.44213 0.946273
0.236896 0.794766 0.834943
0.237644 0.791196 0.832792
0.2336 0.784237 0.830121
0.220462 0.765499 0.823774
0.193988 0.726894 0.813107
0.685756 0.766918 0.957153
0.927352 0.739757 0.972686
0.967147 0.71986 0.971557
0.954253 0.736706 0.9664
0.295674 0.877302 0.872679
0.304402 0.876783 0.870954
0.303838 0.874388 0.869688
0.298894 0.869001 0.866682
0.285649 0.855344 0.860151
0.574517 0.905806 0.934127
0.879896 0.909224 0.955215
0.964446 0.904234 0.964065
0.961379 0.908186 0.960861
0.293462 0.878843 0.874495
0.3037 0.876967 0.871183
0.305058 0.876631 0.870863
0.303197 0.877134 0.871321
0.300862 0.876265 0.869856
0.344823 0.892226 0.883955
0.869413 0.956237 0.957748
0.967834 0.966766 0.969116
0.983322 0.967849 0.968505
0.295033 0.878767 0.873793
0.304433 0.876768 0.870954
0.306905 0.876127 0.870436
0.304372 0.876829 0.870939
0.302419 0.877531 0.871138
0.438727 0.919097 0.913588
0.885176 0.959838 0.960311
0.968444 0.97586 0.976471
0.984741 0.978927 0.978088
0.0748608 0.161471 0.675395
0.221012 0.155398 0.740902
0.343572 0.152453 0.772519
0.493156 0.141695 0.780972
0.624201 0.109895 0.737835
0.687785 0.118685 0.729549
0.68777 0.1187 0.729473
0.687678 0.1187 0.729625
0.687251 0.118761 0.730282
0.0236515 0.179522 0.622919
0.0706493 0.161776 0.672724
0.235676 0.154818 0.745556
0.448112 0.147951 0.783932
0.603037 0.110475 0.743023
0.687846 0.118669 0.729503
0.6878 0.118685 0.729458
0.687617 0.118715 0.729717
0.686152 0.118914 0.731701
0.0322271 0.246754 0.653208
0.0250706 0.194644 0.629725
0.0577096 0.162661 0.662409
0.362478 0.152178 0.775967
0.573007 0.1234 0.760403
0.687861 0.118685 0.729412
0.689082 0.118502 0.728008
0.688975 0.118502 0.728145
0.687037 0.118776 0.730648
0.0565347 0.384054 0.703792
0.0500954 0.355673 0.69395
0.0407721 0.30486 0.675944
0.0711986 0.199161 0.684672
0.490791 0.158709 0.793576
0.663676 0.114656 0.733242
0.689387 0.118486 0.727657
0.689403 0.118471 0.727703
0.687526 0.118746 0.730098
0.129778 0.610574 0.774426
0.126223 0.60383 0.771527
0.119829 0.590295 0.766827
0.103716 0.552148 0.754513
0.41146 0.542214 0.932174
0.801358 0.497917 0.978653
0.912749 0.437629 0.942992
0.905272 0.42031 0.932647
0.914382 0.448081 0.948516
0.240848 0.79826 0.836072
0.241886 0.794736 0.833555
0.237217 0.787259 0.830579
0.22327 0.767559 0.824002
0.200504 0.729824 0.814908
0.692546 0.769207 0.955123
0.925582 0.743938 0.969329
0.964599 0.723674 0.971084
0.950774 0.741405 0.962264
0.298466 0.877989 0.872831
0.307088 0.876036 0.87042
0.307347 0.873274 0.86865
0.303258 0.868193 0.865858
0.288701 0.853651 0.858701
0.592569 0.905379 0.934142
0.881712 0.908751 0.954238
0.965362 0.903578 0.962905
0.961501 0.908003 0.960678
0.298268 0.877501 0.873365
0.307057 0.876036 0.870436
0.310414 0.875166 0.869612
0.310445 0.875151 0.869612
0.310063 0.875715 0.870024
0.358404 0.893797 0.887846
0.86949 0.956786 0.962615
0.963439 0.966079 0.973632
0.981979 0.966628 0.971435
0.291768 0.879316 0.874907
0.305852 0.876371 0.870726
0.310475 0.875151 0.869596
0.31078 0.875059 0.86949
0.31162 0.876295 0.870329
0.436942 0.914687 0.911147
0.881148 0.959976 0.964248
0.967239 0.975875 0.980407
0.984329 0.978073 0.979492
