bundles/resolve-cinematic-luts/Phantom Luts/Canon Alexa LUT/C-Log 3/IceBlue Canon CL3-Legacy.cube
TITLE "Generated by Resolve"
LUT_3D_SIZE 9
0.0412451 0.0532692 0.0550698
0.116625 0.0511635 0.0572213
0.31577 0.0503395 0.0638285
0.521996 0.0581674 0.106203
0.660304 0.0865187 0.181613
0.725978 0.107912 0.245548
0.732219 0.108553 0.268498
0.735119 0.108309 0.282795
0.737881 0.105379 0.31284
0.0433814 0.0914015 0.064622
0.0536202 0.0681468 0.0582284
0.187823 0.0710155 0.053727
0.455299 0.0562295 0.0476081
0.604166 0.0744488 0.103212
0.681987 0.0981918 0.156954
0.694087 0.101183 0.175235
0.705333 0.104021 0.19382
0.713497 0.101854 0.222675
0.0388495 0.28481 0.0767529
0.0420386 0.256733 0.06598
0.181811 0.220157 0.0570993
0.434195 0.211917 0.0518807
0.609491 0.158618 0.0730144
0.680827 0.10071 0.132433
0.678187 0.0989242 0.13817
0.677897 0.0984054 0.140795
0.681147 0.0964675 0.152041
0.0435492 0.510552 0.121233
0.0466316 0.512047 0.0856336
0.0608682 0.477989 0.0695048
0.403265 0.448295 0.0492103
0.634974 0.459541 0.0931868
0.806622 0.403388 0.184329
0.801175 0.358282 0.180529
0.7879 0.33991 0.169986
0.798901 0.357702 0.179202
0.141924 0.731609 0.26685
0.164538 0.743053 0.229557
0.151125 0.719844 0.205921
0.233341 0.695689 0.147936
0.632181 0.663844 0.145418
0.802289 0.679576 0.218875
0.870649 0.680522 0.253925
0.86978 0.674098 0.252277
0.872496 0.688121 0.257328
0.223026 0.84329 0.369863
0.229679 0.837308 0.321416
0.234089 0.833539 0.296437
0.325978 0.853346 0.28571
0.627039 0.885786 0.269734
0.839582 0.879118 0.32987
0.946349 0.891585 0.383307
0.945571 0.889525 0.383841
0.952514 0.900038 0.392096
0.222705 0.846723 0.398703
0.224216 0.842496 0.36199
0.232685 0.833783 0.297627
0.305684 0.849912 0.28986
0.546136 0.885451 0.286397
0.824918 0.91632 0.362478
0.958114 0.930785 0.420874
0.969345 0.931975 0.425193
0.968215 0.932174 0.426307
0.221958 0.850309 0.427604
0.223697 0.842527 0.363867
0.230182 0.834302 0.30309
0.287175 0.846632 0.294041
0.506203 0.881758 0.287205
0.811353 0.914046 0.354925
0.951049 0.929061 0.416571
0.970886 0.931426 0.426719
0.966583 0.932479 0.427543
0.220935 0.852308 0.438651
0.22356 0.844251 0.373526
0.230579 0.834562 0.303624
0.325505 0.854505 0.290623
0.644129 0.897032 0.304768
0.865446 0.919356 0.377935
0.967727 0.930938 0.424979
0.970977 0.931472 0.42594
0.966705 0.932586 0.426246
0.0376745 0.0555276 0.0891737
0.105257 0.053254 0.119554
0.321126 0.050309 0.178485
0.53724 0.0567178 0.229587
0.680476 0.0834363 0.286931
0.744915 0.108156 0.33846
0.749355 0.108934 0.362997
0.751949 0.109606 0.379202
0.751278 0.108217 0.40058
0.0419318 0.0619821 0.0644388
0.0413367 0.0535286 0.0554055
0.234852 0.050248 0.0722362
0.49427 0.0539712 0.114443
0.647929 0.0792248 0.189425
0.728054 0.105379 0.263142
0.733776 0.106188 0.286305
0.736309 0.106142 0.299794
0.737942 0.10454 0.319158
0.0413062 0.23534 0.13959
0.0404364 0.233829 0.0790112
0.150835 0.197726 0.0594034
0.44741 0.155261 0.0530098
0.59585 0.0832227 0.0768749
0.682506 0.0974899 0.158709
0.686015 0.0984054 0.164675
0.695781 0.100847 0.17908
0.698543 0.0990005 0.190646
0.0389105 0.480598 0.1823
0.0403296 0.486702 0.114611
0.0438087 0.474006 0.0740826
0.372778 0.436881 0.0472725
0.641657 0.431266 0.0915847
0.794186 0.354925 0.175631
0.77145 0.308309 0.158114
0.761395 0.285359 0.152178
0.775952 0.309514 0.163882
0.115007 0.707286 0.308492
0.129946 0.714839 0.258946
0.149752 0.723262 0.216358
0.186664 0.684276 0.153796
0.618875 0.653986 0.137499
0.803098 0.667185 0.215427
0.868757 0.662882 0.24802
0.868223 0.655512 0.246098
0.868971 0.670893 0.250278
0.220752 0.851072 0.435431
0.224353 0.843595 0.368841
0.230472 0.83682 0.318318
0.292317 0.84651 0.287999
0.590097 0.881819 0.264302
0.829007 0.870115 0.320607
0.941253 0.880827 0.374868
0.939055 0.877195 0.373724
0.946181 0.889784 0.381323
0.22182 0.85594 0.473808
0.221607 0.847791 0.404761
0.224918 0.841993 0.358709
0.25362 0.838987 0.29659
0.4795 0.879194 0.287098
0.805203 0.915129 0.353109
0.951583 0.930007 0.417746
0.969116 0.931884 0.426825
0.967849 0.932143 0.427634
0.222507 0.858244 0.494957
0.220462 0.851072 0.432715
0.223667 0.842313 0.364202
0.234546 0.834592 0.299901
0.447578 0.875761 0.289921
0.790722 0.911696 0.345235
0.942626 0.927993 0.411429
0.970993 0.93138 0.42681
0.966918 0.932509 0.426276
0.224552 0.858595 0.500603
0.221454 0.852583 0.447578
0.223865 0.842374 0.361959
0.289296 0.846922 0.293187
0.598337 0.891859 0.296452
0.849149 0.917998 0.37145
0.960571 0.93022 0.421973
0.970855 0.931426 0.426719
0.966186 0.93254 0.428122
0.0277867 0.061799 0.228138
0.12813 0.0550088 0.247852
0.290105 0.0524147 0.279393
0.530205 0.0565194 0.342382
0.692912 0.0865034 0.377737
0.758541 0.112001 0.415351
0.760891 0.113222 0.43769
0.76109 0.113634 0.452338
0.757885 0.112902 0.475364
0.0328222 0.0735943 0.152422
0.0317082 0.0603647 0.200473
0.218738 0.0526284 0.231983
0.509163 0.0545968 0.27013
0.670634 0.0797894 0.310277
0.747189 0.108248 0.354269
0.750942 0.109148 0.375418
0.753323 0.109911 0.39028
0.753658 0.109361 0.416464
0.0365148 0.199619 0.194903
0.0362554 0.185748 0.184543
0.13817 0.172824 0.185534
0.485603 0.112016 0.163745
0.631251 0.0745403 0.186542
0.727794 0.106874 0.255467
0.733303 0.107179 0.278431
0.736049 0.107424 0.291127
0.738125 0.105852 0.310811
0.0386969 0.442481 0.261357
0.0378119 0.44567 0.214862
0.0376593 0.452003 0.131823
0.338018 0.425727 0.0519112
0.661616 0.375769 0.111254
0.767666 0.277043 0.167239
0.742016 0.217304 0.14992
0.732067 0.183825 0.147677
0.7458 0.205905 0.162814
0.0917067 0.673365 0.366979
0.099382 0.683467 0.315633
0.10959 0.688655 0.256703
0.142733 0.671702 0.158618
0.595987 0.644099 0.126238
0.802502 0.648127 0.209308
0.866484 0.636927 0.24036
0.864805 0.625437 0.2374
0.866072 0.641581 0.241398
0.222446 0.858961 0.50338
0.222004 0.853666 0.454749
0.224659 0.84538 0.387396
0.237675 0.834913 0.299367
0.515007 0.874372 0.26006
0.813397 0.857084 0.307347
0.931609 0.86389 0.360189
0.927749 0.856794 0.356435
0.933516 0.867185 0.363958
0.22739 0.863661 0.543465
0.222599 0.857939 0.492592
0.221775 0.849836 0.423926
0.23122 0.835035 0.306813
0.405417 0.869886 0.290822
0.776028 0.911055 0.338796
0.943603 0.928817 0.41239
0.968856 0.931777 0.428611
0.967834 0.932143 0.427756
0.230655 0.866255 0.566583
0.224613 0.861402 0.51957
0.220813 0.852995 0.452369
0.227375 0.837781 0.327688
0.376669 0.865263 0.292317
0.75964 0.907286 0.329442
0.930037 0.925948 0.403052
0.971054 0.931228 0.42826
0.967056 0.932265 0.428565
0.233707 0.868818 0.588525
0.227466 0.865492 0.553002
0.221332 0.855665 0.472374
0.229877 0.83505 0.30988
0.477455 0.878325 0.287037
0.809339 0.913802 0.35436
0.943221 0.928283 0.41265
0.970825 0.931411 0.427008
0.965637 0.932555 0.429603
0.0230564 0.0708629 0.412634
0.132982 0.0610056 0.446067
0.299138 0.0570077 0.45948
0.496864 0.0585489 0.47454
0.671046 0.0861982 0.49926
0.751141 0.113848 0.522301
0.748104 0.114687 0.542046
0.745373 0.115175 0.555215
0.739269 0.115938 0.576242
0.021561 0.0937667 0.359411
0.0259861 0.0693828 0.402808
0.196155 0.0588846 0.448615
0.4663 0.0566567 0.458396
0.66305 0.0814374 0.468956
0.758328 0.114015 0.485573
0.755245 0.113848 0.502785
0.752575 0.113771 0.515328
0.745647 0.113695 0.541497
0.0242313 0.181491 0.333883
0.0214542 0.156878 0.362737
0.0489509 0.112749 0.418097
0.419989 0.0630655 0.434974
0.647974 0.0745403 0.404791
0.760815 0.11313 0.423011
0.762692 0.114199 0.441489
0.762081 0.114214 0.453361
0.758541 0.113481 0.478416
0.035935 0.408179 0.383719
0.0345922 0.402853 0.381445
0.0340124 0.390433 0.37348
0.339452 0.393271 0.395865
0.713298 0.327993 0.371633
0.835981 0.236347 0.369177
0.800809 0.178988 0.35462
0.779095 0.147478 0.346166
0.798489 0.172564 0.37377
0.0804303 0.633356 0.466728
0.0792401 0.635721 0.446891
0.0766766 0.635493 0.41181
0.0853895 0.645685 0.287617
0.552758 0.629664 0.227512
0.858854 0.618189 0.308934
0.922774 0.585565 0.334905
0.916899 0.570459 0.330297
0.9281 0.588907 0.350347
0.218738 0.84741 0.590066
0.221683 0.851377 0.568353
0.222644 0.853819 0.534325
0.221317 0.849454 0.430182
0.340459 0.854963 0.282643
0.782193 0.833097 0.28368
0.91664 0.831708 0.335546
0.910597 0.819516 0.328084
0.915633 0.828962 0.336065
0.243 0.873762 0.636271
0.237705 0.871275 0.609659
0.232029 0.866712 0.57145
0.222705 0.854109 0.462531
0.301991 0.84976 0.295781
0.723354 0.904814 0.320211
0.927947 0.926238 0.402182
0.969192 0.931777 0.429358
0.968002 0.931991 0.430671
0.247303 0.876875 0.655573
0.242206 0.873823 0.631464
0.234684 0.869352 0.593729
0.222797 0.856916 0.488258
0.259419 0.840391 0.298314
0.699123 0.902892 0.317876
0.905638 0.923049 0.392645
0.972152 0.930755 0.431662
0.967819 0.931823 0.432807
0.25272 0.876143 0.684215
0.250568 0.877119 0.669551
0.242115 0.874067 0.63212
0.225162 0.860197 0.517876
0.313069 0.852766 0.2972
0.73228 0.905547 0.324544
0.917205 0.9243 0.396201
0.970871 0.931334 0.429694
0.966354 0.932448 0.430655
0.0281224 0.0870069 0.530083
0.131975 0.0768597 0.587076
0.290608 0.073228 0.618906
0.46363 0.0742504 0.625025
0.627863 0.0934462 0.622782
0.726055 0.123781 0.650919
0.719356 0.126909 0.675563
0.714733 0.128679 0.689632
0.705043 0.130663 0.707973
0.0207828 0.120867 0.519158
0.0305943 0.0856336 0.530602
0.174517 0.0757 0.599985
0.424445 0.0736553 0.627161
0.613657 0.0895552 0.616876
0.730114 0.121828 0.633844
0.725567 0.12401 0.652781
0.722133 0.125444 0.664912
0.712779 0.127932 0.686625
0.0211337 0.159792 0.502556
0.0201419 0.13196 0.512505
0.0320745 0.084535 0.524407
0.343542 0.0715648 0.616815
0.587304 0.0812848 0.602167
0.7393 0.118929 0.598444
0.736507 0.120043 0.612726
0.733639 0.121019 0.624216
0.725551 0.122805 0.645899
0.034638 0.386831 0.528542
0.0327306 0.370108 0.540032
0.0311742 0.341115 0.551247
0.178882 0.292683 0.643259
0.637675 0.225834 0.665827
0.772045 0.135164 0.547158
0.756374 0.120058 0.53814
0.753841 0.117769 0.539498
0.749401 0.119493 0.563363
0.0852064 0.599634 0.581415
0.0843214 0.599268 0.580743
0.0820325 0.594415 0.577325
0.0762493 0.580896 0.567025
0.546838 0.59823 0.60621
0.911864 0.56257 0.60058
0.993652 0.520287 0.598596
0.989654 0.500786 0.60058
0.990875 0.520684 0.624018
0.201892 0.794797 0.667247
0.202319 0.795193 0.659159
0.197086 0.793149 0.645777
0.184237 0.788586 0.609903
0.293187 0.853864 0.536461
0.726986 0.824643 0.490318
0.964843 0.807996 0.543923
0.975402 0.794507 0.552483
0.967254 0.805692 0.58909
0.26154 0.867643 0.726772
0.266285 0.868299 0.716899
0.263661 0.870832 0.70309
0.255146 0.875776 0.668147
0.226658 0.860792 0.521859
0.602747 0.916579 0.441764
0.926787 0.9393 0.468833
0.983398 0.945418 0.510918
0.980789 0.946532 0.553429
0.261418 0.86656 0.741054
0.267079 0.86595 0.73109
0.264393 0.868986 0.716197
0.256138 0.875395 0.680186
0.22855 0.862394 0.541314
0.563088 0.910414 0.418555
0.88838 0.929854 0.417945
0.978317 0.942962 0.487297
0.977234 0.944808 0.507393
0.269764 0.865187 0.774365
0.27425 0.863691 0.764508
0.270207 0.864271 0.744137
0.260746 0.871519 0.704829
0.232898 0.865995 0.573419
0.652033 0.923598 0.530327
0.904265 0.942428 0.497642
0.979049 0.945632 0.508644
0.977569 0.946059 0.515846
0.0330968 0.134188 0.607172
0.126635 0.117708 0.669352
0.265187 0.1149 0.71606
0.428122 0.115877 0.746014
0.578836 0.11397 0.7393
0.690135 0.136172 0.744533
0.689876 0.136141 0.744579
0.690684 0.136004 0.743725
0.689189 0.136233 0.745586
0.0275578 0.154681 0.598001
0.0341039 0.13257 0.607416
0.153628 0.116762 0.679744
0.382055 0.116197 0.741543
0.559121 0.113634 0.742245
0.692042 0.135851 0.742229
0.690761 0.135988 0.743587
0.690074 0.13611 0.744427
0.687999 0.136431 0.747021
0.0285039 0.184771 0.594461
0.0270237 0.15671 0.592721
0.033402 0.126757 0.598276
0.296345 0.111788 0.718975
0.528878 0.111269 0.738308
0.696254 0.135012 0.735851
0.69427 0.135424 0.739498
0.693339 0.135592 0.740841
0.689021 0.136263 0.745846
0.0433661 0.353674 0.623163
0.0426032 0.333242 0.630838
0.0405127 0.298253 0.634668
0.0988479 0.241917 0.690166
0.502251 0.179965 0.785748
0.686702 0.130144 0.713237
0.706508 0.131289 0.710613
0.705043 0.131792 0.714443
0.699565 0.133135 0.724208
0.101564 0.591333 0.669551
0.100542 0.585565 0.67483
0.0977646 0.573007 0.679713
0.0906081 0.540108 0.687968
0.438529 0.549325 0.836027
0.836744 0.501518 0.873625
0.962234 0.446036 0.841779
0.952438 0.427985 0.836957
0.953765 0.453925 0.862715
0.203067 0.761654 0.74876
0.203418 0.760098 0.746868
0.199954 0.755016 0.742519
0.189868 0.743084 0.731899
0.239582 0.746853 0.736568
0.729534 0.78056 0.791241
0.982712 0.754101 0.791989
0.996017 0.7364 0.792844
0.982849 0.751934 0.811368
0.280018 0.86392 0.813092
0.285039 0.862898 0.806134
0.28365 0.862806 0.796551
0.278309 0.863172 0.776623
0.263859 0.865415 0.734371
0.57229 0.930953 0.725353
0.877989 0.941924 0.745983
0.981445 0.935164 0.772717
0.976898 0.936889 0.804181
0.282445 0.86421 0.833021
0.289097 0.862638 0.823575
0.286824 0.862409 0.81239
0.279332 0.863508 0.787396
0.266484 0.867582 0.735317
0.481407 0.922957 0.695705
0.841321 0.954879 0.750835
0.985046 0.96878 0.827909
0.986893 0.970413 0.861082
0.292988 0.869337 0.856321
0.299687 0.866133 0.849897
0.295613 0.862577 0.837446
0.285298 0.862943 0.810376
0.271626 0.868132 0.754803
0.584466 0.932296 0.762325
0.866712 0.959045 0.795804
0.978469 0.97081 0.847227
0.982589 0.972152 0.868971
0.0439765 0.140612 0.629831
0.146654 0.134127 0.695857
0.274464 0.13051 0.739116
0.434287 0.127871 0.766461
0.588266 0.12105 0.755322
0.689296 0.136217 0.745434
0.689326 0.136233 0.745281
0.690211 0.13608 0.744274
0.689326 0.136217 0.745434
0.0290532 0.157305 0.609125
0.0437476 0.141024 0.630243
0.161318 0.133867 0.702007
0.384741 0.12845 0.761135
0.564141 0.120836 0.758343
0.689357 0.136202 0.745403
0.689479 0.136202 0.745144
0.689296 0.136233 0.745342
0.688655 0.136324 0.746288
0.0352178 0.208408 0.636652
0.0298314 0.166415 0.614664
0.0391852 0.14226 0.624537
0.294484 0.130098 0.744152
0.525032 0.123003 0.763958
0.689647 0.136172 0.744976
0.690745 0.136004 0.743664
0.69044 0.136049 0.743999
0.688777 0.136294 0.746105
0.0533303 0.337591 0.676402
0.0513313 0.316747 0.678828
0.0449073 0.276127 0.665995
0.064622 0.195956 0.669093
0.437156 0.144778 0.778836
0.655268 0.130617 0.750118
0.690761 0.136034 0.743679
0.690684 0.136034 0.743816
0.689281 0.136248 0.745663
0.113497 0.570581 0.734386
0.112825 0.56434 0.739284
0.110384 0.552834 0.742855
0.101549 0.519783 0.743542
0.36228 0.50927 0.899641
0.760769 0.471015 0.976822
0.897826 0.412863 0.928923
0.887404 0.394141 0.917632
0.8972 0.422202 0.937499
0.22005 0.766873 0.80058
0.221973 0.764309 0.800824
0.218769 0.758526 0.800107
0.208499 0.741207 0.797955
0.196323 0.710246 0.801572
0.667018 0.751125 0.947158
0.949813 0.721279 0.971954
0.985855 0.703136 0.965988
0.972717 0.719905 0.965621
0.298604 0.871809 0.865629
0.305959 0.870268 0.862196
0.305806 0.869047 0.859403
0.298436 0.862089 0.851728
0.280201 0.84477 0.835203
0.585229 0.895033 0.891554
0.893477 0.920668 0.928466
0.982284 0.913283 0.928832
0.975875 0.917586 0.935866
0.303059 0.87834 0.878279
0.311818 0.875013 0.872938
0.310445 0.872709 0.868467
0.303471 0.869734 0.859953
0.29189 0.864302 0.8383
0.410819 0.907622 0.839933
0.851438 0.965545 0.922911
0.974472 0.975769 0.937972
0.985245 0.977371 0.956756
0.305577 0.879301 0.880354
0.315114 0.877531 0.877348
0.31751 0.876463 0.875898
0.309422 0.872557 0.867613
0.298405 0.86807 0.848951
0.533318 0.923461 0.873884
0.877546 0.968032 0.938827
0.968185 0.976471 0.94258
0.983246 0.978149 0.96875
0.0567025 0.13994 0.64242
0.162799 0.133715 0.702449
0.285252 0.130404 0.742
0.44184 0.127687 0.766888
0.597803 0.122606 0.754925
0.689326 0.136217 0.745403
0.689326 0.136233 0.745296
0.689433 0.136202 0.745235
0.689632 0.136156 0.745083
0.0286564 0.153735 0.607538
0.0545052 0.140169 0.640803
0.172595 0.13341 0.706432
0.391546 0.128267 0.761959
0.569772 0.120317 0.757031
0.689418 0.136202 0.745342
0.689525 0.136187 0.745129
0.689342 0.136217 0.745342
0.688609 0.136324 0.746334
0.0349737 0.205386 0.635065
0.0293431 0.162051 0.612146
0.0470436 0.141024 0.633173
0.302022 0.130022 0.746059
0.528878 0.122789 0.763546
0.689342 0.136217 0.745342
0.690303 0.136065 0.744167
0.690257 0.13608 0.744213
0.688777 0.136294 0.74612
0.0536049 0.325414 0.683742
0.0481575 0.296223 0.673564
0.041001 0.250843 0.655924
0.0563363 0.16495 0.650752
0.433692 0.135729 0.772045
0.653574 0.12987 0.749859
0.690654 0.136049 0.743801
0.690608 0.136049 0.743908
0.689265 0.136248 0.745693
0.1205 0.567178 0.760174
0.116655 0.559136 0.757107
0.11107 0.545403 0.75227
0.0967727 0.505562 0.739055
0.347173 0.486992 0.889921
0.745251 0.44799 0.969345
0.879637 0.386786 0.915648
0.870329 0.368597 0.902693
0.884428 0.398703 0.924056
0.227955 0.767163 0.826383
0.227955 0.763333 0.824811
0.223056 0.755062 0.821698
0.208515 0.732494 0.814038
0.184955 0.693477 0.804685
0.648051 0.735683 0.967025
0.928756 0.708553 0.986679
0.978561 0.687709 0.985168
0.96527 0.705531 0.978943
0.306737 0.877287 0.878462
0.315648 0.877409 0.87718
0.313695 0.873976 0.875029
0.306538 0.866178 0.870817
0.288502 0.846372 0.860685
0.542489 0.897932 0.93727
0.870085 0.908629 0.968048
0.976547 0.900389 0.97258
0.972473 0.905547 0.968261
0.304738 0.879393 0.880598
0.314916 0.877592 0.877379
0.316136 0.877302 0.877043
0.314092 0.877852 0.877562
0.311238 0.876799 0.875303
0.346334 0.891371 0.886549
0.856291 0.968765 0.96997
0.977707 0.97612 0.978561
0.988556 0.975464 0.975296
0.305135 0.879622 0.880308
0.315068 0.877546 0.877348
0.31783 0.876844 0.876554
0.315572 0.877455 0.877195
0.313512 0.878477 0.877165
0.424216 0.914946 0.911772
0.875608 0.971466 0.971679
0.97528 0.978744 0.982757
0.984924 0.978393 0.979599
0.0603189 0.139757 0.64564
0.166308 0.13341 0.703685
0.290425 0.130312 0.743221
0.447364 0.127657 0.767254
0.604654 0.122515 0.753491
0.689342 0.136202 0.745388
0.689326 0.136233 0.745296
0.689311 0.136217 0.745357
0.689601 0.136172 0.745113
0.0285496 0.152789 0.607065
0.0574807 0.140063 0.643473
0.179828 0.133272 0.709194
0.398917 0.128344 0.763058
0.576516 0.119875 0.755627
0.689525 0.136187 0.745205
0.689509 0.136187 0.745129
0.689342 0.136217 0.745357
0.688487 0.136355 0.746487
0.0348974 0.204654 0.63473
0.0293126 0.161624 0.611948
0.0490425 0.140795 0.635416
0.309545 0.129732 0.747677
0.53463 0.122484 0.762936
0.689464 0.136202 0.74519
0.69041 0.136049 0.74406
0.690349 0.136049 0.744167
0.688807 0.136278 0.746151
0.0539254 0.326665 0.684459
0.0487678 0.299382 0.6748
0.0411994 0.252888 0.656519
0.0574044 0.16788 0.653193
0.442069 0.140368 0.77612
0.656855 0.130404 0.749508
0.690669 0.136034 0.743801
0.690623 0.136034 0.743908
0.689296 0.136248 0.745708
0.122271 0.570993 0.761761
0.118578 0.563546 0.758679
0.112734 0.549447 0.753796
0.0978103 0.508843 0.740215
0.356909 0.490623 0.895094
0.750301 0.452781 0.970169
0.884428 0.394186 0.920058
0.875715 0.377203 0.908064
0.887572 0.404486 0.926863
0.23241 0.771862 0.828351
0.231861 0.767712 0.825696
0.226703 0.758755 0.822538
0.211154 0.73492 0.814557
0.1897 0.696178 0.80618
0.65449 0.738094 0.96527
0.928817 0.71194 0.985336
0.977035 0.691707 0.983185
0.962386 0.710765 0.975357
0.309712 0.878584 0.878996
0.317494 0.876905 0.876707
0.316396 0.872679 0.874113
0.310613 0.865614 0.870161
0.291218 0.844648 0.859419
0.561212 0.897734 0.937484
0.872053 0.907897 0.967803
0.976333 0.899825 0.973739
0.971725 0.905501 0.96878
0.309575 0.87805 0.879393
0.317617 0.87686 0.876661
0.320546 0.876097 0.875959
0.320653 0.876066 0.875944
0.320775 0.876707 0.876417
0.357702 0.892195 0.890288
0.857984 0.969177 0.974395
0.97499 0.975906 0.97995
0.988357 0.975204 0.975555
0.303319 0.879973 0.880751
0.316548 0.87715 0.876967
0.320806 0.87602 0.875898
0.321126 0.875944 0.875822
0.322637 0.877638 0.876997
0.425666 0.91165 0.910796
0.871031 0.971435 0.974578
0.97464 0.978988 0.983444
0.986099 0.978119 0.978454
