bundles/resolve-cinematic-luts/Phantom Luts/Canon Alexa LUT/C-Log 3/IceBlue Canon CL3.cube
TITLE "Generated by Resolve"
LUT_3D_SIZE 5
0.0310063 0.043473 0.0421912
0.370611 0.0371557 0.0662394
0.673625 0.0768292 0.212284
0.731533 0.0934157 0.297292
0.735393 0.091249 0.343816
0.0241703 0.339925 0.0729992
0.231556 0.274174 0.038941
0.645563 0.199832 0.0822003
0.683268 0.0861067 0.153689
0.686076 0.0840772 0.167926
0.144503 0.753445 0.302373
0.156313 0.739757 0.218662
0.670832 0.700771 0.169268
0.879393 0.712474 0.264027
0.881132 0.719554 0.267582
0.210178 0.8477 0.426581
0.21886 0.831266 0.296742
0.573068 0.891722 0.294316
0.950439 0.931182 0.421469
0.959564 0.933318 0.424262
0.210437 0.853437 0.470039
0.216999 0.832471 0.304952
0.670848 0.903471 0.316426
0.958953 0.931655 0.424979
0.957916 0.933593 0.425879
0.0133669 0.0570687 0.273732
0.347341 0.0391394 0.331014
0.697856 0.0781415 0.406424
0.748287 0.0977951 0.46685
0.74313 0.097734 0.500984
0.0215763 0.254643 0.241505
0.177905 0.220432 0.230228
0.649744 0.0671702 0.221363
0.73196 0.092134 0.308003
0.735698 0.0916152 0.341634
0.104524 0.709865 0.423575
0.117021 0.71989 0.302861
0.637018 0.681422 0.149081
0.872938 0.670542 0.247868
0.873167 0.675685 0.249699
0.221881 0.865049 0.575189
0.211139 0.851209 0.454582
0.431571 0.876081 0.29398
0.939132 0.929595 0.414481
0.958907 0.933043 0.428824
0.231022 0.870192 0.619226
0.212772 0.857008 0.503548
0.504555 0.884291 0.292699
0.939193 0.928618 0.414786
0.956985 0.93341 0.430518
0.0293126 0.0905165 0.550698
0.333761 0.0719921 0.643381
0.635142 0.0870527 0.634607
0.708309 0.112428 0.679255
0.696864 0.11548 0.705409
0.0148165 0.19678 0.527077
0.0348974 0.0867781 0.547295
0.596948 0.0745556 0.614511
0.722423 0.107485 0.631251
0.712963 0.109911 0.658183
0.0982223 0.636515 0.618387
0.0950027 0.631724 0.614237
0.588449 0.640528 0.649027
0.998886 0.559991 0.641199
0.996078 0.561883 0.667567
0.259403 0.866819 0.751629
0.261967 0.867201 0.727871
0.220645 0.862013 0.553399
0.926116 0.938674 0.480385
0.971908 0.94406 0.570703
0.268406 0.867308 0.793561
0.27068 0.865248 0.768215
0.230304 0.867018 0.605249
0.907378 0.942077 0.518196
0.969635 0.947662 0.53106
0.0561532 0.162661 0.660258
0.329198 0.152987 0.769879
0.614298 0.112612 0.742885
0.68777 0.1187 0.729458
0.68716 0.118761 0.730388
0.0328679 0.251972 0.655695
0.0449378 0.163455 0.649943
0.564645 0.125536 0.763439
0.689357 0.118456 0.727657
0.686946 0.118791 0.730694
0.123293 0.609918 0.753491
0.118563 0.593484 0.758679
0.415351 0.559411 0.934798
0.925109 0.455573 0.949737
0.922881 0.464576 0.955947
0.290059 0.873198 0.86363
0.297978 0.870619 0.858091
0.279072 0.853223 0.841062
0.900649 0.918776 0.924239
0.967865 0.917678 0.931029
0.295415 0.878416 0.873838
0.306676 0.875837 0.870024
0.291493 0.869688 0.850385
0.889799 0.963729 0.936797
0.985245 0.977844 0.9617
0.0748608 0.161471 0.675395
0.343572 0.152453 0.772519
0.624201 0.109895 0.737835
0.68777 0.1187 0.729473
0.687251 0.118761 0.730282
0.0322271 0.246754 0.653208
0.0577096 0.162661 0.662409
0.573007 0.1234 0.760403
0.689082 0.118502 0.728008
0.687037 0.118776 0.730648
0.129778 0.610574 0.774426
0.119829 0.590295 0.766827
0.41146 0.542214 0.932174
0.912749 0.437629 0.942992
0.914382 0.448081 0.948516
0.298466 0.877989 0.872831
0.307347 0.873274 0.86865
0.288701 0.853651 0.858701
0.881712 0.908751 0.954238
0.961501 0.908003 0.960678
0.291768 0.879316 0.874907
0.310475 0.875151 0.869596
0.31162 0.876295 0.870329
0.881148 0.959976 0.964248
0.984329 0.978073 0.979492
