bundles/resolve-cinematic-luts/Phantom Luts/Canon Alexa LUT/C-Log 3/Jamaica Canon CL3.cube
TITLE "Generated by Resolve"
LUT_3D_SIZE 5
0.0137026 0.0323033 0.0136873
0.406195 0.025803 0.0518349
0.670863 0.076112 0.237491
0.706279 0.0895857 0.325277
0.708324 0.0896315 0.346426
0 0.415259 0.0576944
0.262501 0.304967 0.00968948
0.678126 0.226474 0.0873426
0.659892 0.0864881 0.156802
0.658885 0.0855573 0.160082
0.279927 0.866102 0.408774
0.301213 0.837232 0.299687
0.725673 0.748272 0.205768
0.896986 0.744305 0.313542
0.893614 0.724834 0.301656
0.369619 0.95639 0.551171
0.353521 0.94789 0.40354
0.71606 0.998932 0.441123
0.987137 0.981994 0.496254
0.995727 0.98349 0.503075
0.380423 0.962676 0.606241
0.365454 0.947036 0.41828
0.647959 0.998932 0.443778
0.97612 0.97908 0.48864
0.994751 0.983993 0.501579
0 0.0391241 0.26569
0.378119 0.0248112 0.380774
0.687633 0.0770275 0.44387
0.709758 0.0950179 0.497475
0.706676 0.0960098 0.511482
0.00450141 0.278935 0.254276
0.196521 0.246845 0.188891
0.645045 0.0597848 0.19733
0.704082 0.0897231 0.310399
0.70692 0.0896773 0.333761
0.186099 0.804257 0.504051
0.223331 0.812253 0.362188
0.69572 0.7178 0.173327
0.889326 0.690517 0.289113
0.885374 0.658488 0.276631
0.365118 0.956008 0.691493
0.357916 0.955077 0.542565
0.600748 0.998932 0.462486
0.978012 0.979828 0.490166
0.995727 0.983459 0.503273
0.373205 0.956054 0.719783
0.360067 0.95668 0.589502
0.539605 0.989578 0.453162
0.960082 0.974151 0.477378
0.994507 0.9841 0.501503
0.0211948 0.0592966 0.558282
0.360159 0.0494087 0.642115
0.620829 0.08748 0.629755
0.666453 0.109682 0.672343
0.66244 0.111345 0.677714
0.00474556 0.183062 0.527428
0.0551461 0.0535439 0.549249
0.591028 0.0638437 0.594415
0.682872 0.101762 0.617487
0.680262 0.102739 0.624628
0.114626 0.662882 0.644022
0.0951095 0.647807 0.613809
0.635508 0.652476 0.592157
1 0.563729 0.592081
0.999405 0.522499 0.584421
0.356451 0.922789 0.80824
0.360311 0.941833 0.778698
0.36083 0.954253 0.523003
0.962142 0.971466 0.477226
0.989227 0.96701 0.491203
0.35758 0.916289 0.81532
0.358083 0.937011 0.787732
0.35816 0.955184 0.557137
0.913314 0.971405 0.453803
0.995743 0.98407 0.502327
0.0580911 0.124346 0.620279
0.351446 0.129595 0.739727
0.600763 0.101442 0.703532
0.659068 0.113069 0.712154
0.656779 0.113985 0.709667
0.0561379 0.209415 0.649226
0.0663462 0.124773 0.625498
0.549859 0.116869 0.719066
0.659312 0.113054 0.712734
0.657816 0.113542 0.710704
0.152865 0.575265 0.756832
0.140856 0.533837 0.751446
0.468986 0.496086 0.887465
0.921019 0.41004 0.953414
0.888914 0.366934 0.921233
0.336736 0.876646 0.888395
0.331334 0.874205 0.876814
0.313649 0.858732 0.842924
0.906691 0.927581 0.883696
0.980743 0.904921 0.891936
0.348119 0.875074 0.895811
0.335576 0.877791 0.886503
0.340719 0.896498 0.851652
0.84271 0.998932 0.881483
0.988754 0.985702 0.923629
0.092546 0.124529 0.640467
0.367254 0.130114 0.742611
0.614908 0.105821 0.705974
0.659113 0.113054 0.712184
0.659022 0.113069 0.711955
0.0577707 0.208194 0.649744
0.0965133 0.12459 0.642741
0.554498 0.115816 0.717357
0.65922 0.113054 0.712444
0.659022 0.113069 0.711955
0.164233 0.550576 0.777417
0.146212 0.507347 0.761486
0.430243 0.442756 0.887297
0.865965 0.349844 0.911604
0.812467 0.298344 0.856306
0.33753 0.875624 0.902068
0.330327 0.866194 0.89633
0.307973 0.832029 0.879744
0.872023 0.884459 0.958328
0.96878 0.865858 0.978607
0.342702 0.881727 0.906249
0.341863 0.882383 0.905211
0.342 0.882567 0.905318
0.774166 0.968017 0.975052
0.991363 0.98407 0.990051
