bundles/resolve-cinematic-luts/Phantom Luts/Canon Alexa LUT/C-Log 3/Jamaica Canon CL3-Legacy.cube
TITLE "Generated by Resolve"
LUT_3D_SIZE 5
0.031281 0.0426947 0.0311894
0.348928 0.0399786 0.047364
0.668147 0.0872206 0.20264
0.710262 0.106798 0.289143
0.714321 0.106798 0.310658
0.0202182 0.348882 0.0538186
0.207141 0.244327 0.0324407
0.644404 0.17821 0.0733349
0.657252 0.101946 0.141329
0.655818 0.100267 0.14313
0.273625 0.84712 0.370947
0.270146 0.81059 0.283696
0.68452 0.710796 0.166537
0.891463 0.708629 0.296223
0.888334 0.687907 0.28751
0.381903 0.958144 0.527657
0.371511 0.949584 0.413733
0.694865 0.998932 0.43798
0.991958 0.981033 0.498497
1 0.982101 0.506203
0.392355 0.96669 0.57937
0.381277 0.949203 0.42501
0.624781 0.998932 0.441108
0.977264 0.978256 0.488823
1 0.982162 0.504601
0.0236515 0.0463111 0.212619
0.323781 0.0393072 0.317464
0.700084 0.0849928 0.414664
0.729061 0.112413 0.468467
0.726925 0.112795 0.484276
0.0288701 0.221103 0.199832
0.155505 0.194095 0.149813
0.640604 0.0661326 0.16318
0.7066 0.107027 0.273503
0.711864 0.106996 0.297963
0.15375 0.773724 0.436561
0.198428 0.780392 0.306615
0.65359 0.678767 0.137972
0.88603 0.652232 0.276387
0.879194 0.618326 0.263966
0.373419 0.961578 0.667674
0.372107 0.956741 0.520104
0.57641 0.998932 0.460121
0.980011 0.979263 0.491127
1 0.982086 0.506325
0.379629 0.963241 0.698131
0.37232 0.959014 0.562127
0.516152 0.981888 0.450278
0.958785 0.976013 0.477943
1 0.982727 0.504204
0.0284428 0.0569314 0.536141
0.320272 0.0516518 0.614008
0.625589 0.0924697 0.62562
0.674846 0.125078 0.666728
0.6701 0.127001 0.675792
0.0233158 0.145998 0.481163
0.0473945 0.0540169 0.514672
0.599466 0.0670939 0.599039
0.698726 0.11577 0.598428
0.695674 0.116686 0.606546
0.0913252 0.626291 0.604242
0.0768597 0.609491 0.570901
0.592615 0.608454 0.547372
0.996918 0.520851 0.547601
0.989334 0.477409 0.537743
0.368414 0.936751 0.794034
0.37348 0.953735 0.762661
0.374899 0.95581 0.504173
0.96257 0.975067 0.479881
1 0.976669 0.502861
0.365942 0.929488 0.801511
0.372839 0.950866 0.772641
0.372 0.957305 0.535485
0.9037 0.977478 0.453681
1 0.982437 0.505135
0.0540932 0.10573 0.611536
0.302754 0.107408 0.712245
0.5841 0.115984 0.713344
0.658366 0.132021 0.720043
0.656458 0.132799 0.718151
0.055024 0.169528 0.637797
0.0584421 0.105806 0.614206
0.515328 0.113695 0.721035
0.658534 0.132021 0.720516
0.657374 0.132403 0.718853
0.12903 0.535088 0.739467
0.120668 0.491279 0.737011
0.419699 0.446021 0.857572
0.888823 0.368002 0.922118
0.847547 0.324788 0.880232
0.343893 0.874174 0.885161
0.33489 0.870176 0.869505
0.308675 0.850172 0.825437
0.899199 0.926696 0.86978
0.991348 0.898436 0.879683
0.35404 0.872801 0.896406
0.342885 0.875257 0.883238
0.348196 0.901671 0.83856
0.820554 0.998932 0.863828
0.991287 0.985046 0.912428
0.0784314 0.104631 0.624781
0.319051 0.108049 0.715999
0.601236 0.121096 0.71577
0.658381 0.132006 0.720043
0.658381 0.132006 0.720058
0.0566873 0.168719 0.638315
0.0814069 0.104723 0.626444
0.5205 0.113725 0.720302
0.658442 0.132006 0.720211
0.658351 0.132006 0.719951
0.150027 0.507561 0.766155
0.132921 0.463325 0.750912
0.378912 0.389883 0.854932
0.820981 0.307866 0.868605
0.773327 0.262974 0.8206
0.345678 0.87071 0.903502
0.335286 0.857145 0.895537
0.304356 0.811124 0.873289
0.854215 0.86952 0.965393
0.978027 0.847883 0.986557
0.352987 0.879988 0.908934
0.352377 0.880491 0.908141
0.352575 0.880751 0.908278
0.74934 0.979919 0.987289
0.989487 0.982971 0.9888
