bundles/resolve-cinematic-luts/Phantom Luts/Canon Alexa LUT/C-Log 3/Jamaica Canon CL3.cube
TITLE "Generated by Resolve"
LUT_3D_SIZE 9
0.0137026 0.0323033 0.0136873
0.174075 0.0269017 0.0199283
0.406195 0.025803 0.0518349
0.586709 0.0360418 0.129656
0.670863 0.076112 0.237491
0.702434 0.0893721 0.300221
0.706279 0.0895857 0.325277
0.708034 0.089601 0.340185
0.708324 0.0896315 0.346426
0 0.157885 0.020325
0.0704356 0.0961471 0.00674449
0.269154 0.0982528 0.0124056
0.519387 0.0525673 0.0226444
0.615915 0.0612192 0.114275
0.659342 0.082536 0.173953
0.664118 0.0835126 0.183429
0.67599 0.0862135 0.207401
0.680919 0.0872663 0.219333
0 0.415259 0.0576944
0.0164797 0.373541 0.0147402
0.262501 0.304967 0.00968948
0.520882 0.293797 0.0273136
0.678126 0.226474 0.0873426
0.657816 0.0885786 0.136568
0.659892 0.0864881 0.156802
0.659556 0.085893 0.159243
0.658885 0.0855573 0.160082
0.0753796 0.65536 0.187655
0.0869306 0.639246 0.118685
0.129229 0.614664 0.0717021
0.507195 0.537377 0.0429694
0.712947 0.542443 0.113252
0.851911 0.478981 0.23447
0.843397 0.430289 0.235752
0.825467 0.407691 0.220142
0.814404 0.392447 0.21091
0.279927 0.866102 0.408774
0.294835 0.865873 0.326863
0.301213 0.837232 0.299687
0.452934 0.836545 0.231647
0.725673 0.748272 0.205768
0.854154 0.751736 0.285069
0.896986 0.744305 0.313542
0.894942 0.732464 0.307347
0.893614 0.724834 0.301656
0.367666 0.953979 0.522011
0.353277 0.948241 0.405188
0.353353 0.948348 0.41265
0.515435 0.983032 0.453574
0.772137 0.965484 0.401709
0.901762 0.919371 0.414267
0.9579 0.922103 0.44715
0.955627 0.916793 0.442908
0.953185 0.91249 0.439872
0.369619 0.95639 0.551171
0.357824 0.951766 0.479057
0.353521 0.94789 0.40354
0.495964 0.97612 0.443946
0.71606 0.998932 0.441123
0.89958 0.969543 0.446586
0.987137 0.981994 0.496254
0.996323 0.983337 0.502144
0.995727 0.98349 0.503075
0.379782 0.961318 0.590555
0.364187 0.953811 0.519448
0.355001 0.94728 0.407385
0.465492 0.967422 0.432242
0.668528 0.998932 0.441657
0.881971 0.973907 0.442435
0.979126 0.979538 0.490517
0.997406 0.98291 0.502449
0.995041 0.983841 0.502098
0.380423 0.962676 0.606241
0.372808 0.955108 0.522744
0.365454 0.947036 0.41828
0.446448 0.963714 0.429389
0.647959 0.998932 0.443778
0.875273 0.974838 0.440482
0.97612 0.97908 0.48864
0.997406 0.98291 0.502342
0.994751 0.983993 0.501579
0.00703441 0.0356298 0.0787366
0.157977 0.0301976 0.156359
0.419669 0.0244297 0.247456
0.608209 0.0320897 0.304891
0.686763 0.0739605 0.348348
0.711543 0.0907607 0.395743
0.71223 0.09131 0.421073
0.712398 0.0918441 0.436301
0.711482 0.0923018 0.441657
0.0123903 0.0758679 0.0637217
0.0107271 0.0393225 0.0144045
0.310842 0.0263676 0.0387121
0.551492 0.0319066 0.112566
0.65597 0.0668956 0.2168
0.700542 0.0895552 0.295293
0.704707 0.0899367 0.320775
0.70663 0.0898299 0.335958
0.70724 0.0898299 0.342809
0 0.340963 0.174807
0 0.340658 0.0455634
0.22063 0.271626 0.00820935
0.533639 0.213291 0.036286
0.625559 0.104479 0.0790875
0.663264 0.0835279 0.181094
0.665324 0.0837262 0.186313
0.671427 0.0849622 0.199313
0.675517 0.0859236 0.208835
0.0411078 0.617823 0.269123
0.0510109 0.618982 0.158892
0.0683757 0.594522 0.0766613
0.481346 0.51751 0.0357824
0.717433 0.504601 0.108263
0.831754 0.417212 0.224964
0.802548 0.372442 0.202274
0.78349 0.334722 0.190829
0.771664 0.310719 0.184344
0.23473 0.840375 0.458228
0.252476 0.838651 0.383139
0.271443 0.835431 0.307607
0.357717 0.822126 0.241337
0.710292 0.732311 0.188739
0.852872 0.732097 0.275502
0.892866 0.718318 0.300755
0.890745 0.703731 0.294194
0.889143 0.694713 0.288212
0.363317 0.957046 0.602075
0.357992 0.953964 0.511849
0.354528 0.949187 0.421515
0.480705 0.969741 0.436149
0.748974 0.966293 0.397971
0.890425 0.908751 0.401587
0.950515 0.907774 0.434882
0.946197 0.900206 0.42826
0.94313 0.895918 0.424308
0.364767 0.95787 0.638392
0.357992 0.955001 0.543282
0.357778 0.952041 0.482017
0.411978 0.957885 0.429084
0.658015 0.998932 0.451499
0.883955 0.974365 0.443549
0.982162 0.980865 0.492943
0.996323 0.983337 0.502205
0.99585 0.983429 0.503212
0.372946 0.959976 0.664973
0.359777 0.95613 0.57557
0.358831 0.95314 0.511879
0.374136 0.950317 0.413794
0.59707 0.998932 0.455329
0.863615 0.977417 0.438163
0.972366 0.977615 0.485878
0.997406 0.98291 0.502449
0.994797 0.983932 0.502007
0.374166 0.960296 0.675441
0.360128 0.956893 0.590845
0.364538 0.953658 0.516167
0.365194 0.94902 0.410391
0.581613 0.998932 0.454002
0.856291 0.979889 0.437583
0.967971 0.976135 0.482658
0.997406 0.98291 0.502342
0.994751 0.983993 0.501579
0 0.0391241 0.26569
0.183581 0.0307469 0.312413
0.378119 0.0248112 0.380774
0.589044 0.0326848 0.442512
0.687633 0.0770275 0.44387
0.711437 0.0940261 0.47808
0.709758 0.0950179 0.497475
0.708598 0.095613 0.508965
0.706676 0.0960098 0.511482
0.00384527 0.0729992 0.165911
0.00956741 0.0385595 0.217273
0.300862 0.0264591 0.293935
0.574472 0.028687 0.32987
0.675669 0.064622 0.347433
0.711543 0.0906386 0.39353
0.712077 0.0911879 0.417411
0.712337 0.0916609 0.431891
0.712077 0.0919203 0.437446
0.00450141 0.278935 0.254276
0.00302129 0.254582 0.219364
0.196521 0.246845 0.188891
0.556802 0.144305 0.16199
0.645045 0.0597848 0.19733
0.699123 0.0892805 0.282368
0.704082 0.0897231 0.310399
0.706279 0.0896925 0.326421
0.70692 0.0896773 0.333761
0.0268711 0.562066 0.354391
0.0232548 0.569085 0.274937
0.0306096 0.579477 0.141619
0.453483 0.498268 0.0359197
0.735988 0.447929 0.125093
0.79794 0.348089 0.205692
0.761212 0.279301 0.18526
0.733211 0.226963 0.170214
0.718807 0.201434 0.161685
0.186099 0.804257 0.504051
0.200824 0.812146 0.438132
0.223331 0.812253 0.362188
0.298466 0.800916 0.240482
0.69572 0.7178 0.173327
0.85153 0.711604 0.26627
0.889326 0.690517 0.289113
0.887266 0.670008 0.281849
0.885374 0.658488 0.276631
0.361898 0.956466 0.660456
0.357443 0.95697 0.59942
0.357717 0.95436 0.520043
0.398367 0.954009 0.420172
0.713237 0.969619 0.396307
0.880354 0.898863 0.389868
0.942565 0.89369 0.422354
0.937316 0.884306 0.414145
0.9337 0.879042 0.408988
0.365118 0.956008 0.691493
0.357443 0.956878 0.627863
0.357916 0.955077 0.542565
0.353719 0.948013 0.408087
0.600748 0.998932 0.462486
0.869871 0.976883 0.440009
0.978012 0.979828 0.490166
0.996323 0.983337 0.502266
0.995727 0.983459 0.503273
0.372015 0.956207 0.712184
0.357778 0.95668 0.647532
0.358038 0.955764 0.572869
0.355703 0.947677 0.415412
0.553399 0.994934 0.456352
0.846845 0.981796 0.436072
0.965743 0.975525 0.481209
0.997452 0.982879 0.502449
0.99498 0.983871 0.502037
0.373205 0.956054 0.719783
0.359045 0.956741 0.659403
0.360067 0.95668 0.589502
0.357076 0.948745 0.434775
0.539605 0.989578 0.453162
0.838209 0.982498 0.433951
0.960082 0.974151 0.477378
0.997406 0.98291 0.502342
0.994507 0.9841 0.501503
0.00462348 0.042359 0.444648
0.197009 0.0341344 0.484031
0.367941 0.0297246 0.521065
0.539071 0.0352941 0.551507
0.660426 0.0790265 0.5449
0.693767 0.0982376 0.572
0.689067 0.0996262 0.586862
0.686732 0.100267 0.595544
0.684306 0.101061 0.596338
0 0.0935378 0.377935
0.0165713 0.0403601 0.421302
0.26891 0.0313573 0.483375
0.515587 0.0303044 0.52221
0.658076 0.0684825 0.505333
0.706142 0.0959793 0.524895
0.702144 0.0967575 0.539727
0.700038 0.0970932 0.548775
0.698543 0.0972763 0.550546
0.00280766 0.229801 0.385809
0.00158694 0.184207 0.392462
0.110445 0.13698 0.435172
0.505043 0.0580758 0.491646
0.659419 0.056611 0.440452
0.713161 0.0926833 0.45864
0.712337 0.0937514 0.476631
0.711284 0.0939956 0.487282
0.710826 0.094255 0.491173
0.0201267 0.487648 0.45774
0.0158083 0.474052 0.434409
0.013138 0.460426 0.407782
0.431556 0.467506 0.399985
0.783658 0.394751 0.38471
0.866194 0.27866 0.39791
0.805097 0.205646 0.378775
0.765667 0.159121 0.363653
0.739254 0.127092 0.351858
0.135714 0.738903 0.569635
0.130632 0.742641 0.533257
0.130526 0.750301 0.485893
0.201648 0.797513 0.352682
0.672908 0.703655 0.224628
0.910201 0.675181 0.310033
0.945129 0.62443 0.329381
0.939986 0.596765 0.322698
0.936645 0.58143 0.318654
0.336004 0.927581 0.712551
0.338155 0.935409 0.681605
0.344381 0.944396 0.642283
0.356802 0.952773 0.525185
0.593652 0.978622 0.414725
0.863233 0.881544 0.369223
0.930434 0.868772 0.401175
0.925948 0.856672 0.391791
0.923445 0.85034 0.385916
0.368414 0.950179 0.754162
0.360922 0.953811 0.71809
0.358587 0.956069 0.67425
0.357931 0.955001 0.540841
0.528756 0.988144 0.456672
0.842145 0.982971 0.435569
0.971252 0.978347 0.485939
0.995254 0.98172 0.501045
0.992691 0.979095 0.49984
0.37203 0.947265 0.765255
0.361807 0.95288 0.730617
0.359274 0.955367 0.689921
0.358083 0.95555 0.566613
0.480446 0.972473 0.444785
0.815396 0.988083 0.432547
0.952804 0.972137 0.47248
0.998596 0.982467 0.502831
0.995987 0.983505 0.502388
0.372854 0.946426 0.771145
0.362585 0.952285 0.73814
0.359747 0.954971 0.69894
0.357961 0.955993 0.58117
0.46186 0.967041 0.436759
0.801404 0.990738 0.431556
0.943404 0.970397 0.466758
0.996307 0.982879 0.501717
0.994858 0.983993 0.50164
0.0211948 0.0592966 0.558282
0.205661 0.0484169 0.610101
0.360159 0.0494087 0.642115
0.496132 0.0505989 0.63209
0.620829 0.08748 0.629755
0.671931 0.107012 0.661936
0.666453 0.109682 0.672343
0.665599 0.110246 0.678904
0.66244 0.111345 0.677714
0.00349432 0.108583 0.542107
0.033341 0.052903 0.553262
0.255177 0.0465248 0.614298
0.468299 0.0472267 0.632853
0.607111 0.0777295 0.61323
0.677958 0.104036 0.638483
0.673106 0.106264 0.64802
0.671702 0.10692 0.6542
0.669841 0.107454 0.654261
0.00474556 0.183062 0.527428
0.00292973 0.128267 0.530098
0.0551461 0.0535439 0.549249
0.412055 0.0440375 0.625635
0.591028 0.0638437 0.594415
0.686152 0.100633 0.607477
0.682872 0.101762 0.617487
0.681376 0.10248 0.623423
0.680262 0.102739 0.624628
0.0268864 0.434943 0.57821
0.0221103 0.404181 0.577539
0.019791 0.366979 0.582284
0.330907 0.350271 0.630304
0.732921 0.279316 0.694713
0.732555 0.129091 0.567269
0.704158 0.0974289 0.54612
0.702983 0.0970932 0.54725
0.70251 0.096849 0.546029
0.114626 0.662882 0.644022
0.104128 0.655619 0.627756
0.0951095 0.647807 0.613809
0.0945296 0.643915 0.590158
0.635508 0.652476 0.592157
0.946441 0.609033 0.596307
1 0.563729 0.592081
1 0.536965 0.587533
0.999405 0.522499 0.584421
0.290227 0.86482 0.750835
0.284718 0.865583 0.73164
0.280644 0.867002 0.712871
0.279774 0.877272 0.670069
0.483467 0.998932 0.609079
0.83447 0.871504 0.494759
0.981003 0.848646 0.523995
0.981735 0.829587 0.522286
0.982254 0.818677 0.521477
0.356451 0.922789 0.80824
0.356176 0.932982 0.793988
0.360311 0.941833 0.778698
0.362234 0.952422 0.735897
0.36083 0.954253 0.523003
0.781292 0.998932 0.44361
0.962142 0.971466 0.477226
0.992721 0.971511 0.494453
0.989227 0.96701 0.491203
0.355932 0.919066 0.812573
0.35436 0.929488 0.798901
0.358968 0.939132 0.783475
0.362737 0.951766 0.742672
0.35819 0.955001 0.551537
0.69839 0.998932 0.451316
0.931548 0.970245 0.461021
0.996536 0.982818 0.501961
0.996826 0.983642 0.503105
0.35758 0.916289 0.81532
0.353201 0.92697 0.802869
0.358083 0.937011 0.787732
0.363134 0.951278 0.747829
0.35816 0.955184 0.557137
0.661387 0.998932 0.452857
0.913314 0.971405 0.453803
0.987121 0.982101 0.496315
0.995743 0.98407 0.502327
0.0454719 0.108812 0.607828
0.208927 0.0932631 0.676555
0.344396 0.0947585 0.709194
0.478264 0.0979629 0.707378
0.59382 0.0967269 0.687541
0.660441 0.113008 0.711345
0.656855 0.114031 0.710155
0.65832 0.113466 0.711772
0.656077 0.11426 0.708904
0.0274968 0.137697 0.608743
0.0550851 0.100237 0.610513
0.243488 0.0868391 0.6822
0.437995 0.0918593 0.706859
0.567575 0.0882124 0.677119
0.662501 0.112352 0.705425
0.659159 0.113603 0.70927
0.656748 0.114443 0.70959
0.655085 0.114778 0.707424
0.0239109 0.176974 0.614466
0.0230716 0.137011 0.604974
0.0627604 0.0910353 0.610819
0.372107 0.0830549 0.699916
0.541207 0.0828107 0.670954
0.665248 0.110903 0.695003
0.663859 0.111818 0.700816
0.661997 0.112596 0.70341
0.660822 0.112856 0.702968
0.0505684 0.383795 0.66273
0.0488441 0.353063 0.66331
0.0484779 0.314229 0.663081
0.228672 0.256565 0.740581
0.605142 0.201617 0.802563
0.662593 0.106188 0.670222
0.670726 0.107881 0.671321
0.67013 0.108202 0.673823
0.669459 0.108324 0.673808
0.135302 0.622904 0.714443
0.125933 0.605264 0.709621
0.118349 0.584741 0.708293
0.105241 0.535592 0.708537
0.560403 0.571878 0.79144
0.914687 0.522011 0.86453
0.987732 0.459617 0.867124
0.977859 0.43154 0.861219
0.969787 0.416587 0.853544
0.263355 0.800061 0.79353
0.254154 0.794171 0.780591
0.245686 0.787472 0.769985
0.230579 0.776806 0.75024
0.362371 0.83624 0.770809
0.799725 0.813809 0.757
0.985458 0.782803 0.768017
0.988891 0.763806 0.760998
0.988495 0.754101 0.755703
0.341207 0.895491 0.852613
0.342016 0.900999 0.843351
0.343252 0.905211 0.835767
0.347097 0.914351 0.821546
0.352865 0.933715 0.776471
0.709209 0.998932 0.770703
0.937072 0.961944 0.707927
0.989837 0.954772 0.713878
0.987793 0.947646 0.709346
0.346777 0.889464 0.858259
0.341009 0.897871 0.848493
0.34255 0.90309 0.839582
0.346654 0.913222 0.823438
0.360235 0.940734 0.781872
0.584924 0.998932 0.72398
0.913069 0.998932 0.657816
1 0.994934 0.681285
1 0.995712 0.67039
0.350668 0.88661 0.8598
0.340246 0.895674 0.85214
0.342 0.901259 0.842893
0.345953 0.911665 0.825681
0.359487 0.939391 0.783795
0.528344 0.998932 0.713008
0.888533 0.998932 0.647608
0.990219 0.996735 0.651041
1 0.997879 0.643122
0.0580911 0.124346 0.620279
0.221012 0.125063 0.701015
0.351446 0.129595 0.739727
0.490013 0.127825 0.740276
0.600763 0.101442 0.703532
0.659098 0.113069 0.712169
0.659068 0.113069 0.712154
0.658717 0.113283 0.712062
0.656779 0.113985 0.709667
0.0445563 0.15964 0.625376
0.0688945 0.124437 0.62681
0.243702 0.125978 0.709728
0.443183 0.131044 0.74757
0.577462 0.107851 0.707805
0.659144 0.113054 0.712261
0.659129 0.113069 0.712276
0.656733 0.114031 0.709667
0.656519 0.114031 0.709072
0.0561379 0.209415 0.649226
0.0455329 0.163851 0.627451
0.0663462 0.124773 0.625498
0.367224 0.130083 0.742565
0.549859 0.116869 0.719066
0.659205 0.113054 0.712413
0.659312 0.113054 0.712734
0.658808 0.113237 0.712169
0.657816 0.113542 0.710704
0.0818189 0.357687 0.69894
0.0796979 0.327565 0.693401
0.0750439 0.286641 0.682216
0.16289 0.213428 0.721904
0.508904 0.162158 0.778164
0.638727 0.10959 0.709072
0.659541 0.113069 0.713191
0.659541 0.113069 0.713161
0.659159 0.113069 0.712154
0.152865 0.575265 0.756832
0.146075 0.554177 0.753613
0.140856 0.533837 0.751446
0.131823 0.489006 0.747082
0.468986 0.496086 0.887465
0.835187 0.472526 0.96643
0.921019 0.41004 0.953414
0.902037 0.382696 0.934737
0.888914 0.366934 0.921233
0.265385 0.777264 0.828565
0.25832 0.768627 0.822385
0.25156 0.758572 0.81767
0.239216 0.737911 0.811048
0.274662 0.731838 0.859129
0.747784 0.757595 0.894697
0.971466 0.723415 0.943999
0.983673 0.699184 0.946639
0.982834 0.688106 0.944991
0.336736 0.876646 0.888395
0.334493 0.877272 0.882506
0.331334 0.874205 0.876814
0.32575 0.869017 0.866117
0.313649 0.858732 0.842924
0.642008 0.940856 0.890517
0.906691 0.927581 0.883696
0.982162 0.912428 0.897139
0.980743 0.904921 0.891936
0.345815 0.874876 0.892561
0.336049 0.877867 0.888548
0.335302 0.878218 0.883558
0.3364 0.882979 0.874113
0.34081 0.896391 0.852094
0.464408 0.993576 0.877546
0.873899 0.998932 0.889616
0.979492 0.982498 0.903029
0.989609 0.980255 0.90605
0.348119 0.875074 0.895811
0.336645 0.877714 0.891676
0.335576 0.877791 0.886503
0.336049 0.881773 0.876188
0.340719 0.896498 0.851652
0.424552 0.974807 0.858885
0.84271 0.998932 0.881483
0.965026 0.986893 0.86891
0.988754 0.985702 0.923629
0.0829786 0.124712 0.635157
0.241245 0.125811 0.708766
0.361608 0.129854 0.741558
0.496712 0.127153 0.738613
0.609018 0.102266 0.703944
0.659098 0.113069 0.712169
0.659113 0.113054 0.712184
0.659007 0.1131 0.712093
0.659098 0.113069 0.712184
0.0427405 0.152911 0.621866
0.0917525 0.124712 0.640146
0.256458 0.126421 0.714229
0.44947 0.130892 0.747189
0.579858 0.103899 0.704662
0.659098 0.113054 0.712154
0.659113 0.113054 0.7122
0.658961 0.113115 0.712016
0.656825 0.113954 0.709651
0.0583963 0.210437 0.650828
0.0434272 0.156695 0.623652
0.0862898 0.124681 0.637079
0.373983 0.130404 0.743633
0.552834 0.116121 0.717891
0.659113 0.113054 0.712215
0.659205 0.113054 0.712459
0.65919 0.113054 0.712413
0.658183 0.11339 0.71107
0.0957046 0.347295 0.708675
0.0847486 0.309377 0.693843
0.0702373 0.255543 0.671366
0.139452 0.160784 0.684031
0.485344 0.137224 0.751644
0.637156 0.109331 0.708598
0.659297 0.113069 0.712551
0.659297 0.113069 0.712535
0.659129 0.113069 0.712062
0.164416 0.557946 0.776074
0.15819 0.539284 0.771695
0.150393 0.518257 0.765225
0.132296 0.469398 0.748867
0.440482 0.461967 0.8916
0.808103 0.437491 0.969284
0.888502 0.374792 0.93518
0.861036 0.3449 0.906691
0.843168 0.327245 0.887922
0.26862 0.769131 0.848371
0.259709 0.754299 0.842847
0.25124 0.738506 0.838331
0.235782 0.707515 0.830549
0.256779 0.683421 0.863035
0.696513 0.712764 0.935637
0.941314 0.69546 0.984375
0.964233 0.667659 0.991852
0.961364 0.656504 0.990356
0.337621 0.875319 0.900771
0.33373 0.871748 0.896498
0.330114 0.866926 0.893065
0.32282 0.856519 0.886717
0.310536 0.837827 0.877195
0.567285 0.887282 0.944884
0.889387 0.900633 0.949569
0.977386 0.888426 0.970565
0.976501 0.878843 0.968963
0.343038 0.881422 0.906615
0.341711 0.882139 0.904936
0.340993 0.881437 0.903624
0.339162 0.879606 0.899763
0.337209 0.878065 0.893034
0.390356 0.904067 0.904051
0.855085 0.973373 0.957534
0.969558 0.971756 0.961212
0.987152 0.966628 0.968109
0.352834 0.878843 0.904051
0.341894 0.882368 0.905257
0.341741 0.882261 0.904997
0.339651 0.880064 0.900923
0.336828 0.877958 0.891844
0.372351 0.896681 0.890898
0.818143 0.983139 0.954833
0.961608 0.982879 0.961685
0.98996 0.98294 0.97731
0.092546 0.124529 0.640467
0.251667 0.126223 0.712535
0.367254 0.130114 0.742611
0.500023 0.126741 0.737667
0.614908 0.105821 0.705974
0.659113 0.113054 0.712169
0.659113 0.113054 0.712184
0.659098 0.113069 0.712154
0.659022 0.113069 0.711955
0.0413825 0.148867 0.619577
0.102373 0.124422 0.645899
0.263478 0.126497 0.716487
0.452628 0.130816 0.74696
0.58114 0.101915 0.703227
0.659113 0.113054 0.7122
0.659113 0.113054 0.7122
0.659098 0.113054 0.712154
0.658335 0.113298 0.71107
0.0577707 0.208194 0.649744
0.0424811 0.152514 0.621576
0.0965133 0.12459 0.642741
0.377874 0.130556 0.744198
0.554498 0.115816 0.717357
0.659098 0.113054 0.712169
0.65922 0.113054 0.712444
0.65919 0.113054 0.712413
0.659022 0.113069 0.711955
0.0917372 0.333242 0.70338
0.0799573 0.291203 0.686641
0.0645457 0.233631 0.661662
0.127062 0.131609 0.662776
0.480674 0.129473 0.743282
0.636835 0.109285 0.708553
0.659297 0.113069 0.71252
0.659297 0.113069 0.712535
0.659113 0.113069 0.712077
0.164233 0.550576 0.777417
0.155291 0.530175 0.769558
0.146212 0.507347 0.761486
0.127825 0.456245 0.744625
0.430243 0.442756 0.887297
0.795865 0.41474 0.96347
0.865965 0.349844 0.911604
0.832822 0.31751 0.877317
0.812467 0.298344 0.856306
0.266407 0.76173 0.85153
0.256687 0.745418 0.844938
0.24741 0.72874 0.838804
0.23006 0.695567 0.827344
0.247837 0.667124 0.856748
0.686641 0.697215 0.935164
0.934783 0.678843 0.984222
0.961334 0.649821 0.990951
0.960082 0.637293 0.991104
0.33753 0.875624 0.902068
0.334295 0.871824 0.899428
0.330327 0.866194 0.89633
0.322637 0.854887 0.890471
0.307973 0.832029 0.879744
0.538354 0.86772 0.951217
0.872023 0.884459 0.958328
0.969299 0.876173 0.979004
0.96878 0.865858 0.978607
0.342351 0.882002 0.905821
0.341909 0.882353 0.905272
0.341863 0.882383 0.905211
0.341863 0.882383 0.905211
0.342046 0.882628 0.905379
0.352956 0.885344 0.9075
0.828717 0.959823 0.975326
0.96379 0.96463 0.9776
0.981613 0.962127 0.982406
0.342702 0.881727 0.906249
0.341894 0.882368 0.905257
0.341863 0.882383 0.905211
0.341863 0.882383 0.905211
0.342 0.882567 0.905318
0.344167 0.885695 0.906096
0.774166 0.968017 0.975052
0.963378 0.980896 0.98117
0.991363 0.98407 0.990051
