bundles/resolve-cinematic-luts/Phantom Luts/Canon Alexa LUT/C-Log 3/Jamaica Canon CL3.cube
TITLE "Generated by Resolve"
LUT_3D_SIZE 33
0.0137026 0.0323033 0.0136873
0.0136721 0.0322576 0.0136568
0.024918 0.0320592 0.0138552
0.0970321 0.0297093 0.0163729
0.174075 0.0269017 0.0199283
0.234516 0.0259098 0.0235904
0.291447 0.0259251 0.0295567
0.349844 0.0255894 0.0381628
0.406195 0.025803 0.0518349
0.459373 0.0270085 0.0676585
0.507469 0.0294652 0.0824292
0.549935 0.032105 0.103105
0.586709 0.0360418 0.129656
0.614298 0.0426184 0.154253
0.634043 0.0520485 0.180987
0.650935 0.0639811 0.207462
0.670863 0.076112 0.237491
0.693751 0.0872969 0.26978
0.699016 0.0889906 0.283116
0.700893 0.0892348 0.291951
0.702434 0.0893721 0.300221
0.703731 0.0894942 0.307561
0.70486 0.0896315 0.314214
0.705699 0.0896468 0.320241
0.706279 0.0895857 0.325277
0.706798 0.0895247 0.329763
0.707332 0.0895705 0.333883
0.707729 0.0895857 0.33724
0.708034 0.089601 0.340185
0.708232 0.0896162 0.342458
0.70837 0.0896315 0.344472
0.70837 0.0896315 0.345876
0.708324 0.0896315 0.346426
0.0136721 0.0322728 0.0136568
0.0136873 0.0322881 0.0136721
0.0136721 0.0322576 0.0136568
0.0523842 0.0329137 0.0131838
0.122957 0.0320897 0.0154421
0.189303 0.0301213 0.0161135
0.248569 0.0288548 0.0163424
0.309361 0.0284581 0.0162051
0.369268 0.0278019 0.0177768
0.424872 0.0283665 0.0247959
0.474723 0.0289158 0.0351415
0.518029 0.0310369 0.0492103
0.557092 0.0347295 0.0768139
0.58909 0.0400549 0.102022
0.613748 0.0484321 0.130694
0.631876 0.0599069 0.157198
0.653284 0.0726482 0.190478
0.678904 0.0844892 0.225849
0.690593 0.0884565 0.247211
0.693339 0.0887922 0.256931
0.695567 0.0888075 0.266484
0.697475 0.0889754 0.274846
0.699168 0.089189 0.282399
0.700557 0.0892958 0.289235
0.701656 0.0893721 0.295201
0.70248 0.0894331 0.299977
0.703273 0.0895094 0.304372
0.703929 0.0895857 0.308156
0.704433 0.0896315 0.311345
0.704784 0.089662 0.313863
0.705028 0.0896925 0.315785
0.705089 0.0896925 0.317311
0.705028 0.0896773 0.318074
0.00909438 0.0408637 0.015259
0.0124208 0.0361028 0.0125429
0.0150301 0.0349126 0.0135042
0.0204471 0.0348516 0.0138857
0.0725872 0.0386511 0.0141756
0.138735 0.0407568 0.0139925
0.200702 0.041062 0.0124514
0.265034 0.040528 0.0112459
0.332662 0.037644 0.0105287
0.395911 0.0327459 0.0122072
0.45153 0.0305028 0.0167239
0.499413 0.0299229 0.0259251
0.53846 0.0330968 0.0429999
0.570123 0.0383459 0.0675364
0.592111 0.0447547 0.0870222
0.611612 0.0533761 0.114855
0.631739 0.0657054 0.146502
0.654414 0.0781567 0.176196
0.671366 0.0846876 0.199924
0.676997 0.0859693 0.211719
0.682597 0.087068 0.22472
0.687144 0.0879835 0.236316
0.690532 0.0885786 0.246235
0.69276 0.0888075 0.2542
0.694408 0.0888075 0.261189
0.695766 0.0888533 0.267155
0.69691 0.0889448 0.27216
0.697887 0.0890516 0.276555
0.698695 0.0891127 0.280461
0.69926 0.089189 0.283314
0.699702 0.08925 0.285771
0.699931 0.0892958 0.287434
0.699962 0.0893263 0.28835
0 0.0777752 0.0185397
0.00227359 0.0635691 0.00798047
0.0187839 0.0500191 0.0109102
0.0211185 0.0440681 0.0123598
0.0413214 0.0459602 0.0143282
0.0939345 0.0518196 0.0139162
0.158328 0.0566415 0.0124208
0.225681 0.0583047 0.0141604
0.29575 0.0585184 0.0128023
0.364202 0.0510414 0.012192
0.429175 0.0450599 0.0135348
0.485191 0.038056 0.0179904
0.526635 0.0350195 0.0264286
0.55816 0.0375067 0.0436408
0.586419 0.0439002 0.0763561
0.604639 0.0522316 0.0999924
0.621988 0.0617533 0.128206
0.644175 0.0739452 0.160891
0.658915 0.0821851 0.174151
0.658793 0.0822156 0.173678
0.663615 0.0832685 0.18294
0.668956 0.0845197 0.193423
0.673762 0.0855726 0.203449
0.677928 0.0863813 0.212634
0.681773 0.0871595 0.221469
0.685069 0.0878157 0.229557
0.687678 0.0883345 0.236408
0.689509 0.0886244 0.24181
0.690715 0.0887617 0.246067
0.691646 0.0888685 0.249454
0.692393 0.0889448 0.252461
0.692821 0.0890211 0.254566
0.692958 0.0890516 0.255711
0 0.157885 0.020325
0 0.145251 0.00282292
0.00646983 0.126055 0.00239567
0.0266575 0.11313 0.00407416
0.0704356 0.0961471 0.00674449
0.103883 0.0996719 0.0106813
0.151247 0.10518 0.0152132
0.208148 0.104143 0.0175631
0.269154 0.0982528 0.0124056
0.338659 0.0785229 0.0137484
0.405905 0.0660716 0.0146334
0.4692 0.061265 0.0178836
0.519387 0.0525673 0.0226444
0.547311 0.0364691 0.0255894
0.574548 0.0431525 0.051545
0.59852 0.0509957 0.0878462
0.615915 0.0612192 0.114275
0.635584 0.0708934 0.145922
0.662699 0.0831006 0.181338
0.662318 0.083238 0.179675
0.659342 0.082536 0.173953
0.657954 0.0822003 0.171344
0.657694 0.0821393 0.170871
0.660471 0.0828565 0.176043
0.664118 0.0835126 0.183429
0.667826 0.0843824 0.190661
0.671016 0.0850843 0.197116
0.673686 0.0857099 0.202533
0.67599 0.0862135 0.207401
0.677699 0.0865034 0.211398
0.679179 0.0867781 0.214847
0.6804 0.0871138 0.217762
0.680919 0.0872663 0.219333
0 0.22063 0.023621
0 0.210986 0.00512703
0 0.193088 0.0043183
0.0213016 0.177661 0.00132753
0.0650034 0.158267 0
0.117464 0.145556 0.00347906
0.15494 0.147341 0.00527962
0.204135 0.152087 0.0100557
0.269627 0.148592 0.0156252
0.341558 0.137972 0.0188449
0.401633 0.127581 0.0153048
0.460395 0.114199 0.0189822
0.512261 0.0852522 0.024155
0.552193 0.0624094 0.0305943
0.576654 0.055787 0.0418708
0.584039 0.0475319 0.062211
0.608804 0.0592355 0.100649
0.628077 0.0700389 0.128923
0.650889 0.0790265 0.163531
0.663005 0.0836194 0.179904
0.663569 0.0836805 0.181201
0.662867 0.0834821 0.180041
0.66154 0.083238 0.177554
0.660273 0.0829175 0.17528
0.659327 0.0826276 0.173617
0.658442 0.082414 0.171969
0.65771 0.0822309 0.170642
0.657969 0.0823072 0.171069
0.659342 0.0826581 0.173556
0.66041 0.082948 0.17557
0.661601 0.0832227 0.178012
0.662654 0.0834211 0.180331
0.663157 0.0835431 0.181567
0 0.282948 0.0296941
0 0.27538 0.00984207
0 0.25893 0.0083772
0.0131991 0.241413 0.00610361
0.0363012 0.228977 0.00393683
0.107637 0.206592 0.00276188
0.165393 0.195407 0.00772107
0.206683 0.194949 0.00988785
0.260777 0.198627 0.00849927
0.332982 0.19559 0.0124666
0.406516 0.183673 0.0214237
0.466178 0.170977 0.0245365
0.519219 0.156497 0.0265202
0.56286 0.135836 0.0344701
0.595865 0.110658 0.0463874
0.591302 0.0652323 0.0514839
0.594827 0.0555734 0.0759136
0.619654 0.0683909 0.112154
0.64271 0.0780652 0.144656
0.658442 0.0836042 0.166979
0.659892 0.0836194 0.171099
0.661051 0.0835737 0.174609
0.661753 0.0835584 0.176654
0.662287 0.0835889 0.17792
0.66276 0.0836042 0.17911
0.662715 0.0835584 0.179217
0.66247 0.0834821 0.178897
0.662165 0.0834363 0.178317
0.661799 0.0833753 0.17763
0.661341 0.0832532 0.176898
0.660792 0.0831464 0.175921
0.660288 0.0830396 0.175113
0.660212 0.0830549 0.175128
0 0.34873 0.040528
0 0.343694 0.0145724
0 0.329915 0.0128176
0.00077821 0.311589 0.0107424
0.0272831 0.298817 0.0078584
0.0675975 0.283146 0.00396735
0.146105 0.260822 0.00314336
0.211383 0.248463 0.0083772
0.26154 0.246433 0.0111238
0.321111 0.250095 0.0131533
0.393683 0.248478 0.0118105
0.465354 0.236271 0.0242161
0.529839 0.217197 0.0347601
0.57377 0.205386 0.0386664
0.613367 0.186892 0.0513161
0.636149 0.167849 0.0623026
0.645411 0.142916 0.082002
0.608637 0.0741131 0.0784161
0.63212 0.0766155 0.121935
0.658457 0.08542 0.158709
0.658686 0.0853132 0.159823
0.658305 0.084947 0.160372
0.657908 0.084535 0.161166
0.657542 0.0841535 0.161959
0.657328 0.0838178 0.162799
0.657588 0.08365 0.164279
0.658183 0.0836347 0.166064
0.658732 0.0836194 0.167742
0.659236 0.0836042 0.169284
0.659709 0.0836194 0.170642
0.660075 0.0836042 0.171862
0.660319 0.0836042 0.172793
0.660334 0.0836042 0.173159
0 0.415259 0.0576944
0 0.414221 0.0227817
0 0.404776 0.0218967
0 0.38732 0.0187533
0.0164797 0.373541 0.0147402
0.0364233 0.363622 0.0119478
0.100725 0.345251 0.00556954
0.185626 0.321141 0.00440986
0.262501 0.304967 0.00968948
0.321172 0.302052 0.0130617
0.382712 0.305989 0.0159609
0.452522 0.306859 0.0198062
0.520882 0.293797 0.0273136
0.583261 0.274647 0.0442969
0.630838 0.25565 0.0612039
0.659251 0.245411 0.0702373
0.678126 0.226474 0.0873426
0.682124 0.201526 0.105257
0.674861 0.160098 0.123583
0.648585 0.0855268 0.119646
0.657816 0.0885786 0.136568
0.658381 0.0874189 0.14699
0.659983 0.0868391 0.155123
0.659937 0.0866407 0.156115
0.659892 0.0864881 0.156802
0.659831 0.0863203 0.157595
0.65977 0.0861677 0.158297
0.659632 0.0860304 0.15877
0.659556 0.085893 0.159243
0.659434 0.0857862 0.159625
0.659281 0.0856947 0.159899
0.659037 0.0856031 0.159976
0.658885 0.0855573 0.160082
0.00683604 0.480293 0.084535
0.00840772 0.48127 0.0395209
0.00715648 0.476356 0.0302586
0.00436408 0.462715 0.0307774
0.0114748 0.447166 0.0265202
0.0356756 0.436332 0.0214237
0.0564126 0.42623 0.0175631
0.143893 0.409415 0.00820935
0.233326 0.381888 0.00648508
0.321691 0.363928 0.012253
0.383398 0.360525 0.0165103
0.442451 0.364462 0.0210575
0.508537 0.366995 0.0278935
0.573617 0.357763 0.0347448
0.633524 0.340856 0.0615091
0.680507 0.317494 0.0843366
0.709285 0.302113 0.104829
0.720027 0.288609 0.118898
0.724773 0.264591 0.138231
0.718837 0.22887 0.148547
0.708827 0.18529 0.152483
0.687953 0.145693 0.138766
0.670008 0.113146 0.125978
0.660365 0.0949569 0.123568
0.656077 0.0865187 0.126436
0.655772 0.0865187 0.129488
0.657435 0.0886244 0.135515
0.657496 0.088014 0.140658
0.657572 0.0876631 0.14345
0.657603 0.0875715 0.144167
0.657618 0.0875105 0.144717
0.657435 0.0874189 0.144884
0.657206 0.0873579 0.144823
0.0207675 0.543008 0.114763
0.0246586 0.543526 0.0700236
0.0255131 0.539208 0.047837
0.0209964 0.530434 0.0503243
0.0149081 0.516945 0.0459907
0.036408 0.50663 0.0381323
0.0549783 0.498604 0.0326696
0.0910811 0.490013 0.025452
0.191531 0.473854 0.0135042
0.289006 0.43888 0.0110781
0.383307 0.421927 0.0172427
0.445274 0.41825 0.0231022
0.501411 0.422507 0.0297551
0.562371 0.426246 0.0404212
0.624979 0.421683 0.0555428
0.678874 0.405722 0.0809033
0.724239 0.388006 0.110628
0.756436 0.364965 0.143191
0.766003 0.352239 0.159045
0.768658 0.331044 0.172091
0.765057 0.298772 0.180423
0.755718 0.280873 0.175158
0.746181 0.263706 0.169375
0.737118 0.247486 0.163851
0.729 0.231342 0.159792
0.722499 0.216846 0.157565
0.717494 0.204501 0.156542
0.713695 0.194965 0.155993
0.708583 0.183948 0.154253
0.700648 0.169497 0.14931
0.692973 0.154025 0.144945
0.686351 0.142672 0.139834
0.683055 0.137209 0.137682
0.0429541 0.600885 0.14522
0.0489357 0.600595 0.112947
0.0552224 0.596124 0.0806439
0.0500649 0.591196 0.0819562
0.0440681 0.580941 0.0749371
0.0469368 0.571862 0.0671397
0.0721141 0.566567 0.0568246
0.0853437 0.55967 0.0503548
0.135637 0.552911 0.0382696
0.255802 0.533379 0.0221103
0.353231 0.494759 0.0190433
0.446067 0.480552 0.0268254
0.50663 0.477211 0.0348821
0.556725 0.480842 0.0446937
0.613565 0.484703 0.0599222
0.672053 0.484504 0.0813764
0.719951 0.472786 0.107164
0.764218 0.455436 0.142168
0.796597 0.435218 0.17673
0.815976 0.410498 0.205982
0.813993 0.396139 0.20914
0.807202 0.382345 0.204929
0.800687 0.369604 0.200793
0.79443 0.357 0.19707
0.788388 0.344747 0.193545
0.782483 0.333227 0.18999
0.777401 0.32253 0.187411
0.772702 0.313146 0.184848
0.768795 0.305241 0.182818
0.765118 0.297841 0.18088
0.761837 0.291051 0.179263
0.758618 0.284916 0.177462
0.756161 0.280186 0.176165
0.0753796 0.65536 0.187655
0.0823377 0.655207 0.166796
0.0978103 0.649149 0.125521
0.0952621 0.645731 0.12137
0.0869306 0.639246 0.118685
0.0763256 0.628244 0.110124
0.0882582 0.623056 0.09514
0.109972 0.619455 0.0817273
0.129229 0.614664 0.0717021
0.203296 0.611353 0.0542
0.327184 0.590707 0.0373388
0.419669 0.549554 0.0328832
0.507195 0.537377 0.0429694
0.563455 0.533654 0.0540932
0.608865 0.536782 0.0675059
0.661799 0.540658 0.08748
0.712947 0.542443 0.113252
0.757443 0.536614 0.141787
0.799939 0.52134 0.177035
0.829709 0.50309 0.206989
0.851911 0.478981 0.23447
0.857176 0.45922 0.24477
0.853605 0.447974 0.243305
0.84892 0.438666 0.240162
0.843397 0.430289 0.235752
0.83856 0.423575 0.231724
0.833539 0.417548 0.227283
0.829099 0.412284 0.223301
0.825467 0.407691 0.220142
0.821714 0.402945 0.216907
0.81886 0.398978 0.214542
0.816281 0.395422 0.212375
0.814404 0.392447 0.21091
0.119173 0.707576 0.237018
0.125399 0.708186 0.226932
0.144778 0.70161 0.184817
0.149371 0.696773 0.170031
0.140917 0.693782 0.172259
0.131167 0.684962 0.163714
0.127749 0.677409 0.150362
0.146166 0.675471 0.128817
0.162203 0.672663 0.114595
0.179751 0.669886 0.103166
0.284245 0.66775 0.0771344
0.397742 0.643839 0.0599527
0.485191 0.600916 0.0540169
0.564813 0.592172 0.0682689
0.617823 0.588968 0.0833906
0.658 0.591241 0.0994278
0.706508 0.595315 0.123857
0.751369 0.597894 0.151904
0.797238 0.598962 0.186908
0.831006 0.585657 0.213626
0.858183 0.569451 0.237613
0.872923 0.550942 0.251942
0.871534 0.541451 0.250599
0.870298 0.532815 0.249577
0.868879 0.524575 0.248493
0.867521 0.516655 0.247593
0.866682 0.510109 0.247257
0.865583 0.503929 0.246723
0.864256 0.498238 0.245991
0.863066 0.493416 0.245396
0.861662 0.489189 0.244541
0.860441 0.485679 0.243809
0.859297 0.483375 0.242939
0.172656 0.75935 0.291783
0.177707 0.760967 0.287861
0.193759 0.757595 0.254475
0.203662 0.751125 0.224689
0.198932 0.748104 0.224399
0.191302 0.742321 0.221668
0.17969 0.731807 0.212207
0.187579 0.727779 0.193042
0.209537 0.727703 0.169986
0.215885 0.722805 0.156115
0.249653 0.726543 0.14287
0.374762 0.720256 0.10901
0.469398 0.693996 0.0934768
0.549447 0.649256 0.084062
0.620645 0.645258 0.105074
0.670085 0.64213 0.1234
0.7037 0.643366 0.140017
0.747524 0.648081 0.166979
0.788907 0.651423 0.196353
0.825406 0.652476 0.225208
0.856458 0.647868 0.249973
0.880369 0.632547 0.267369
0.88278 0.623453 0.267979
0.88188 0.616114 0.26598
0.881239 0.609476 0.264408
0.88072 0.603906 0.263188
0.879698 0.597955 0.261494
0.879271 0.59295 0.260563
0.878477 0.58822 0.259388
0.877424 0.584085 0.258091
0.877043 0.581003 0.257542
0.876234 0.578531 0.256626
0.875212 0.576165 0.255451
0.229358 0.813153 0.35111
0.233555 0.815824 0.350271
0.243503 0.81529 0.324498
0.253025 0.811246 0.285695
0.251453 0.807523 0.278523
0.248035 0.803662 0.277913
0.240497 0.794064 0.269825
0.236652 0.784024 0.258366
0.257664 0.78146 0.236454
0.268742 0.777356 0.218433
0.276478 0.775631 0.207874
0.339803 0.782803 0.186282
0.468421 0.77116 0.155016
0.541436 0.741665 0.138308
0.609979 0.696284 0.128283
0.674006 0.697322 0.151949
0.719188 0.694209 0.171969
0.750042 0.695003 0.189502
0.787396 0.69984 0.215106
0.824292 0.703014 0.242451
0.853132 0.704189 0.264805
0.878874 0.702205 0.284306
0.889815 0.697383 0.291478
0.889464 0.692653 0.289799
0.888609 0.686931 0.28748
0.888243 0.68191 0.285801
0.887846 0.677134 0.284199
0.887343 0.672663 0.282597
0.887358 0.669017 0.281697
0.88687 0.666178 0.280537
0.886458 0.663127 0.279316
0.885847 0.660578 0.27779
0.885557 0.658656 0.276875
0.279927 0.866102 0.408774
0.282811 0.868757 0.408896
0.288808 0.869673 0.386801
0.295109 0.868452 0.344076
0.294835 0.865873 0.326863
0.291783 0.862562 0.330251
0.288487 0.855985 0.321935
0.278645 0.842084 0.311269
0.301213 0.837232 0.299687
0.325872 0.833326 0.280781
0.329 0.831739 0.277623
0.353033 0.834577 0.265675
0.452934 0.836545 0.231647
0.556893 0.82501 0.215824
0.609232 0.78558 0.189136
0.668757 0.744381 0.179583
0.725673 0.748272 0.205768
0.767254 0.745586 0.225956
0.79649 0.746136 0.243488
0.824079 0.74902 0.262837
0.854154 0.751736 0.285069
0.88043 0.752789 0.304692
0.898344 0.751415 0.31751
0.897368 0.747753 0.315221
0.896986 0.744305 0.313542
0.896147 0.740703 0.311482
0.895628 0.737423 0.309834
0.895384 0.734768 0.308614
0.894942 0.732464 0.307347
0.894423 0.730098 0.305745
0.894057 0.727977 0.304311
0.893629 0.726177 0.302647
0.893614 0.724834 0.301656
0.323049 0.913207 0.459648
0.32546 0.915801 0.460349
0.329198 0.91722 0.437552
0.331548 0.917113 0.398505
0.330999 0.916152 0.373175
0.328939 0.913466 0.374655
0.327642 0.90988 0.370047
0.324025 0.900969 0.364874
0.335119 0.89163 0.357473
0.370092 0.887892 0.342687
0.383597 0.883619 0.334096
0.393378 0.882719 0.329931
0.441764 0.890822 0.317769
0.559213 0.880949 0.279866
0.633066 0.866926 0.270649
0.673121 0.827482 0.242771
0.725322 0.793484 0.235752
0.775204 0.798688 0.262867
0.813779 0.796399 0.282612
0.839429 0.796048 0.298146
0.858488 0.797101 0.311208
0.883421 0.80087 0.33051
0.904768 0.801572 0.346319
0.91017 0.799237 0.349065
0.909377 0.796094 0.346807
0.908827 0.793439 0.345006
0.908309 0.791074 0.343374
0.907591 0.78851 0.341527
0.90692 0.786206 0.339818
0.906538 0.784314 0.338293
0.905928 0.782528 0.336583
0.905486 0.780957 0.334737
0.905211 0.779965 0.333379
0.355337 0.947768 0.499092
0.355398 0.948913 0.498207
0.356542 0.949996 0.474022
0.356115 0.949599 0.438102
0.353414 0.948318 0.40679
0.353414 0.94847 0.408042
0.351736 0.946944 0.399191
0.351293 0.943542 0.399069
0.357961 0.936584 0.397284
0.404379 0.934264 0.39556
0.430549 0.929366 0.385336
0.441199 0.928603 0.387396
0.46598 0.931777 0.382116
0.548974 0.935927 0.359121
0.650278 0.920699 0.334768
0.699855 0.899733 0.320378
0.731487 0.8645 0.295567
0.77818 0.839597 0.293935
0.823026 0.844511 0.321111
0.855436 0.842176 0.33814
0.878035 0.842405 0.352041
0.89485 0.84332 0.363348
0.909804 0.844862 0.374197
0.921813 0.845609 0.382834
0.92105 0.843275 0.381094
0.920363 0.841154 0.379477
0.919738 0.839216 0.377966
0.919127 0.837339 0.376547
0.918654 0.83563 0.375311
0.918334 0.834165 0.374334
0.917769 0.832578 0.372976
0.917372 0.831464 0.371496
0.916976 0.830472 0.369879
0.36437 0.953429 0.516335
0.360632 0.953277 0.509957
0.357961 0.951888 0.482399
0.356481 0.950027 0.44654
0.353887 0.948562 0.411826
0.353841 0.948699 0.412802
0.353384 0.948531 0.408316
0.353826 0.948348 0.406424
0.358053 0.948577 0.411475
0.412924 0.956909 0.4206
0.45565 0.960937 0.422843
0.479835 0.962371 0.427222
0.499565 0.965896 0.430472
0.546456 0.973816 0.422141
0.651514 0.960433 0.38291
0.72311 0.950866 0.377874
0.752728 0.926787 0.360555
0.782544 0.895537 0.34226
0.826078 0.878706 0.34757
0.865293 0.88481 0.372473
0.892882 0.883833 0.387167
0.912001 0.883406 0.398032
0.926085 0.88426 0.407034
0.935943 0.88452 0.41326
0.936538 0.883177 0.412909
0.935699 0.881712 0.411643
0.934585 0.880034 0.41001
0.933593 0.878279 0.408453
0.932555 0.876616 0.406989
0.931716 0.875242 0.405905
0.931136 0.874189 0.405112
0.930587 0.873274 0.404242
0.930297 0.872709 0.403052
0.367666 0.953979 0.522011
0.361807 0.95346 0.513802
0.357992 0.951919 0.48307
0.356481 0.950027 0.44654
0.353277 0.948241 0.405188
0.352148 0.948013 0.396445
0.353323 0.948501 0.407843
0.35317 0.948409 0.405921
0.353353 0.948348 0.41265
0.39527 0.954818 0.425986
0.453635 0.965499 0.434577
0.494926 0.973571 0.438239
0.515435 0.983032 0.453574
0.549126 0.994751 0.457984
0.627634 0.998932 0.436652
0.723171 0.977951 0.406348
0.772137 0.965484 0.401709
0.79707 0.947967 0.392126
0.829938 0.919829 0.380575
0.870039 0.914794 0.394568
0.901762 0.919371 0.414267
0.924895 0.9196 0.427024
0.941497 0.920287 0.436728
0.952926 0.921447 0.443839
0.9579 0.922103 0.44715
0.957153 0.920455 0.445777
0.956481 0.918944 0.444526
0.955825 0.917449 0.443351
0.955627 0.916793 0.442908
0.955062 0.915602 0.442084
0.954421 0.914351 0.441245
0.953765 0.913283 0.440681
0.953185 0.91249 0.439872
0.37023 0.954009 0.523568
0.363027 0.953201 0.514199
0.358618 0.952636 0.500755
0.35761 0.950545 0.462196
0.355398 0.948745 0.422965
0.351781 0.947326 0.388968
0.353658 0.947967 0.405081
0.35346 0.947875 0.403082
0.353643 0.947967 0.405035
0.367163 0.949905 0.416312
0.441123 0.963897 0.436774
0.489876 0.973571 0.440024
0.513588 0.983322 0.454612
0.54406 0.994705 0.460761
0.598718 0.998932 0.455146
0.699428 0.992752 0.421149
0.771008 0.975677 0.411109
0.810956 0.975189 0.419913
0.839139 0.96231 0.417578
0.874907 0.942306 0.416175
0.9084 0.942535 0.431769
0.934264 0.947921 0.448676
0.954101 0.950164 0.460777
0.967315 0.951247 0.468666
0.975586 0.952911 0.474327
0.97528 0.951919 0.473533
0.974868 0.950988 0.472709
0.974197 0.950164 0.471794
0.973404 0.949157 0.47071
0.972686 0.948455 0.469978
0.972168 0.947753 0.46949
0.97174 0.947021 0.469383
0.971542 0.946334 0.469398
0.370001 0.954879 0.530526
0.363088 0.953292 0.510262
0.358541 0.953475 0.512856
0.358038 0.951812 0.482155
0.35668 0.949828 0.445304
0.353384 0.947784 0.402075
0.351766 0.947387 0.389425
0.353567 0.947921 0.403983
0.353536 0.947921 0.40383
0.354986 0.948333 0.410346
0.421729 0.959915 0.430411
0.473472 0.969985 0.436957
0.508339 0.981384 0.45243
0.542672 0.993927 0.460136
0.589181 0.998932 0.464866
0.671031 0.998932 0.4477
0.753414 0.998932 0.435248
0.805341 0.987915 0.429831
0.84239 0.981079 0.434012
0.877394 0.970443 0.437964
0.911742 0.962722 0.446799
0.938598 0.964492 0.460639
0.959594 0.968978 0.474372
0.97554 0.972457 0.484871
0.988418 0.974929 0.493889
0.990662 0.974945 0.495338
0.990677 0.974716 0.495247
0.990341 0.974395 0.494911
0.989807 0.97406 0.494438
0.989166 0.973739 0.494041
0.988754 0.973342 0.493874
0.988602 0.972808 0.494011
0.988769 0.972351 0.493935
0.369085 0.955596 0.54052
0.36286 0.953399 0.510567
0.35848 0.953536 0.512749
0.358312 0.952941 0.501228
0.357382 0.950744 0.462318
0.355398 0.948913 0.424659
0.351339 0.947234 0.385748
0.353826 0.948058 0.406912
0.353384 0.94786 0.402594
0.353826 0.948058 0.406973
0.402808 0.956313 0.424079
0.459617 0.966873 0.433677
0.500847 0.978164 0.44773
0.535348 0.990341 0.45716
0.575753 0.998932 0.464302
0.645029 0.998932 0.456168
0.73431 0.998932 0.439094
0.794919 0.993576 0.43299
0.835477 0.98201 0.432685
0.871534 0.976532 0.44036
0.907423 0.969375 0.449729
0.937331 0.970123 0.463645
0.959991 0.974838 0.477821
0.976883 0.980026 0.489708
0.990158 0.982605 0.498344
0.995956 0.983154 0.501945
0.996689 0.983185 0.502419
0.996567 0.98323 0.502388
0.996323 0.983322 0.502312
0.995972 0.983459 0.502266
0.995743 0.983551 0.502342
0.995773 0.98349 0.502785
0.996078 0.983322 0.503441
0.369619 0.95639 0.551171
0.363561 0.953719 0.517113
0.359121 0.953231 0.507149
0.358633 0.953658 0.513939
0.357824 0.951766 0.479057
0.356497 0.949813 0.442054
0.352041 0.947478 0.391836
0.353307 0.947829 0.401907
0.353521 0.94789 0.40354
0.353613 0.947936 0.404532
0.38146 0.952621 0.418448
0.442298 0.963836 0.433463
0.495964 0.97612 0.443946
0.528984 0.987442 0.454643
0.566613 0.998932 0.463783
0.625879 0.998932 0.460899
0.71606 0.998932 0.441123
0.784695 0.994965 0.432227
0.82797 0.983108 0.431418
0.863493 0.977737 0.438361
0.89958 0.969543 0.446586
0.931105 0.969268 0.460182
0.955001 0.973861 0.474662
0.973236 0.978759 0.487007
0.987137 0.981994 0.496254
0.995087 0.983139 0.501289
0.996689 0.9832 0.502251
0.996567 0.983246 0.50222
0.996323 0.983337 0.502144
0.995972 0.98349 0.502083
0.995727 0.983566 0.502144
0.995636 0.983581 0.502464
0.995727 0.98349 0.503075
0.374044 0.957916 0.564279
0.369024 0.955016 0.529732
0.36289 0.953368 0.507057
0.359518 0.953796 0.516182
0.358129 0.952697 0.494911
0.35697 0.950408 0.455039
0.354177 0.948241 0.410742
0.351263 0.947219 0.385107
0.35346 0.947875 0.403052
0.353582 0.947936 0.404257
0.368505 0.950317 0.414115
0.429068 0.961624 0.433433
0.49012 0.97409 0.440726
0.522103 0.984634 0.452064
0.558083 0.998932 0.462791
0.610819 0.998932 0.462486
0.700511 0.998932 0.442679
0.774716 0.997131 0.432578
0.821317 0.985672 0.431891
0.857832 0.980804 0.438865
0.893111 0.971222 0.44506
0.925383 0.968933 0.457328
0.950545 0.973083 0.471946
0.969268 0.977646 0.484291
0.984222 0.981506 0.494392
0.994736 0.98323 0.501091
0.996674 0.983215 0.502174
0.996567 0.983261 0.502144
0.996323 0.983352 0.502068
0.995956 0.983505 0.501991
0.995727 0.983581 0.502022
0.995621 0.983597 0.502327
0.995682 0.98352 0.502815
0.377096 0.959365 0.575036
0.374182 0.956527 0.541756
0.368078 0.953841 0.512367
0.362478 0.953811 0.514733
0.359121 0.953536 0.507851
0.357443 0.951202 0.468284
0.355749 0.949248 0.430243
0.351812 0.947402 0.389807
0.353582 0.947921 0.404196
0.353582 0.947936 0.404257
0.353582 0.948135 0.411292
0.423697 0.960525 0.432471
0.482887 0.972229 0.438987
0.515419 0.982345 0.450278
0.551156 0.997223 0.461509
0.600214 0.998932 0.462318
0.68748 0.998932 0.443641
0.766567 0.998932 0.43534
0.815686 0.988479 0.433036
0.851911 0.982452 0.438285
0.887755 0.973159 0.444266
0.921096 0.969314 0.45565
0.946624 0.97229 0.46949
0.966262 0.97705 0.482383
