bundles/resolve-cinematic-luts/Phantom Luts/Canon Alexa LUT/C-Log 3/Jamaica Canon CL3-Legacy.cube
TITLE "Generated by Resolve"
LUT_3D_SIZE 9
0.031281 0.0426947 0.0311894
0.140017 0.0411841 0.033402
0.348928 0.0399786 0.047364
0.559091 0.0471656 0.104555
0.668147 0.0872206 0.20264
0.704189 0.106798 0.26363
0.710262 0.106798 0.289143
0.713283 0.106783 0.304189
0.714321 0.106798 0.310658
0.0239109 0.124865 0.0346685
0.0596933 0.0763867 0.0287022
0.212222 0.0763409 0.031632
0.47863 0.0528573 0.029099
0.616968 0.0677806 0.101137
0.656001 0.0959945 0.153582
0.660014 0.0975052 0.160189
0.672175 0.102083 0.180743
0.677775 0.103975 0.191073
0.0202182 0.348882 0.0538186
0.0261387 0.300816 0.0338903
0.207141 0.244327 0.0324407
0.464576 0.235752 0.0401923
0.644404 0.17821 0.0733349
0.657847 0.104891 0.131579
0.657252 0.101946 0.141329
0.656596 0.100877 0.142885
0.655818 0.100267 0.14313
0.0661784 0.612894 0.142367
0.0674754 0.601785 0.0985275
0.0930037 0.563943 0.0706493
0.450645 0.485313 0.0475319
0.674907 0.491829 0.0942702
0.826169 0.427787 0.214786
0.812329 0.377997 0.213245
0.794354 0.353735 0.198352
0.782483 0.336782 0.188952
0.273625 0.84712 0.370947
0.292653 0.848676 0.321523
0.270146 0.81059 0.283696
0.383749 0.80531 0.204837
0.68452 0.710796 0.166537
0.83444 0.714961 0.253773
0.891463 0.708629 0.296223
0.889754 0.696025 0.290959
0.888334 0.687907 0.28751
0.380941 0.955657 0.502785
0.371267 0.94992 0.414267
0.372519 0.950408 0.419745
0.493935 0.976333 0.451759
0.753338 0.976196 0.408164
0.889509 0.918929 0.407568
0.96199 0.921859 0.449393
0.958343 0.914015 0.443
0.954726 0.908507 0.438621
0.381903 0.958144 0.527657
0.373342 0.95317 0.467903
0.371511 0.949584 0.413733
0.476509 0.970794 0.441703
0.694865 0.998932 0.43798
0.887449 0.975021 0.445335
0.991958 0.981033 0.498497
1 0.981933 0.504997
1 0.982101 0.506203
0.392157 0.964401 0.56434
0.378698 0.955459 0.50074
0.372702 0.948974 0.41593
0.452735 0.964172 0.432349
0.64506 0.998932 0.439506
0.866728 0.977752 0.439567
0.981079 0.979034 0.491356
1 0.981491 0.505135
1 0.982254 0.505104
0.392355 0.96669 0.57937
0.385779 0.956863 0.504387
0.381277 0.949203 0.42501
0.437949 0.961257 0.430381
0.624781 0.998932 0.441108
0.858412 0.977478 0.436377
0.977264 0.978256 0.488823
1 0.981506 0.504936
1 0.982162 0.504601
0.0289616 0.0444495 0.0714733
0.128435 0.042237 0.123491
0.362707 0.0384833 0.191501
0.582773 0.0428473 0.248508
0.692485 0.0833143 0.31194
0.721721 0.107362 0.360372
0.724849 0.108125 0.386816
0.72639 0.108736 0.402762
0.72639 0.109087 0.409033
0.0310369 0.0662394 0.0598764
0.0304112 0.0470436 0.0317082
0.250858 0.0412604 0.0421912
0.513527 0.0445716 0.0903334
0.653803 0.0749065 0.181689
0.702251 0.107027 0.2589
0.708614 0.107012 0.284886
0.71194 0.106996 0.300053
0.713054 0.10695 0.306981
0.0232548 0.273701 0.134432
0.0186007 0.271992 0.0467689
0.173419 0.214954 0.0317693
0.477989 0.166995 0.0419776
0.610864 0.087068 0.0657511
0.659983 0.0976577 0.15996
0.66183 0.0980697 0.163775
0.667811 0.100114 0.174441
0.672099 0.101625 0.182437
0.0441596 0.569482 0.212772
0.0485389 0.572702 0.118898
0.0538491 0.547677 0.0716411
0.422095 0.464302 0.0438849
0.680995 0.450919 0.0909133
0.799939 0.363058 0.202197
0.769543 0.314656 0.180453
0.751003 0.281193 0.169375
0.739773 0.261158 0.162936
0.213535 0.815167 0.396948
0.236637 0.812467 0.336477
0.258457 0.811124 0.292363
0.292531 0.784939 0.212558
0.668879 0.693874 0.151354
0.834195 0.693965 0.245274
0.888624 0.681285 0.28574
0.887236 0.665904 0.280659
0.885451 0.656657 0.276967
0.374411 0.95996 0.574044
0.372625 0.955184 0.49369
0.37171 0.950698 0.424826
0.462013 0.96556 0.435859
0.729549 0.978668 0.407523
0.874403 0.904799 0.390433
0.951598 0.902602 0.432639
0.94638 0.89308 0.424384
0.942565 0.887404 0.419516
0.375235 0.962081 0.612284
0.372198 0.956695 0.520623
0.373266 0.95349 0.47042
0.410315 0.956771 0.429816
0.635599 0.998932 0.449577
0.868833 0.978195 0.440665
0.985473 0.980255 0.49456
1 0.981933 0.505104
1 0.98204 0.506325
0.382406 0.966171 0.640833
0.372702 0.958144 0.54815
0.373434 0.954391 0.493812
0.385229 0.951324 0.420432
0.572091 0.997818 0.452293
0.843351 0.977462 0.431342
0.972869 0.977249 0.486076
1 0.98146 0.505165
1 0.982467 0.504936
0.382834 0.966644 0.651331
0.372244 0.959228 0.562829
0.378683 0.955306 0.498177
0.378714 0.950164 0.418082
0.557473 0.993194 0.451331
0.834714 0.978073 0.429129
0.96788 0.97641 0.482856
1 0.981506 0.504952
1 0.982635 0.504265
0.0236515 0.0463111 0.212619
0.146731 0.0432746 0.2495
0.323781 0.0393072 0.317464
0.571221 0.0415503 0.397467
0.700084 0.0849928 0.414664
0.729107 0.111192 0.446952
0.729061 0.112413 0.468467
0.728252 0.112734 0.480735
0.726925 0.112795 0.484276
0.0281529 0.0662852 0.131991
0.0284428 0.046128 0.172564
0.244541 0.0404669 0.234073
0.54255 0.0403601 0.270802
0.68188 0.0708782 0.310491
0.721447 0.10724 0.358007
0.724498 0.108034 0.383291
0.725963 0.108522 0.398367
0.726329 0.108888 0.404425
0.0288701 0.221103 0.199832
0.0278935 0.200305 0.171756
0.155505 0.194095 0.149813
0.502739 0.115099 0.128618
0.640604 0.0661326 0.16318
0.699687 0.106996 0.247181
0.7066 0.107027 0.273503
0.710445 0.106996 0.290425
0.711864 0.106996 0.297963
0.0359197 0.510033 0.28925
0.0324102 0.515938 0.217594
0.035584 0.528634 0.110613
0.393591 0.443198 0.0436713
0.693919 0.389639 0.10248
0.762478 0.293065 0.180804
0.729183 0.235447 0.160861
0.708141 0.196384 0.149798
0.69688 0.17705 0.143496
0.15375 0.773724 0.436561
0.172229 0.78088 0.36936
0.198428 0.780392 0.306615
0.24097 0.762432 0.209232
0.65359 0.678767 0.137972
0.833921 0.671901 0.237186
0.88603 0.652232 0.276387
0.882521 0.63064 0.268925
0.879194 0.618326 0.263966
0.370398 0.960769 0.633295
0.36994 0.959579 0.571542
0.372427 0.955764 0.500343
0.400565 0.954055 0.424521
0.694911 0.985229 0.412528
0.861341 0.89163 0.374807
0.941787 0.884627 0.416785
0.935042 0.872419 0.406043
0.930404 0.865324 0.399649
0.373419 0.961578 0.667674
0.369009 0.960433 0.601434
0.372107 0.956741 0.520104
0.372229 0.949844 0.416617
0.57641 0.998932 0.460121
0.851408 0.978241 0.434623
0.980011 0.979263 0.491127
1 0.981918 0.505165
1 0.982086 0.506325
0.379232 0.963424 0.690364
0.368505 0.960678 0.621805
0.371466 0.957885 0.546181
0.372961 0.949355 0.421286
0.530495 0.986938 0.453315
0.82475 0.97937 0.427298
0.965286 0.976226 0.481559
1 0.981323 0.505241
1 0.9823 0.504997
0.379629 0.963241 0.698131
0.368872 0.960998 0.633738
0.37232 0.959014 0.562127
0.373587 0.950378 0.435798
0.516152 0.981888 0.450278
0.816464 0.980362 0.425818
0.958785 0.976013 0.477943
1 0.981506 0.504952
1 0.982727 0.504204
0.0220951 0.0477607 0.39707
0.158145 0.0442054 0.429664
0.319631 0.0422065 0.472221
0.523857 0.0432593 0.528664
0.673625 0.0838788 0.531762
0.712306 0.112383 0.548989
0.707134 0.113237 0.565545
0.70425 0.113695 0.574823
0.702525 0.114153 0.576867
0.0233158 0.0771191 0.320912
0.0289921 0.0468147 0.370245
0.218204 0.0433509 0.425971
0.488914 0.0403449 0.486763
0.671519 0.0714885 0.49041
0.725795 0.11252 0.497673
0.722011 0.112505 0.51397
0.719646 0.112413 0.523781
0.718212 0.112352 0.526192
0.0277867 0.182055 0.324086
0.0260014 0.146471 0.333013
0.0907149 0.110521 0.377508
0.457252 0.0547799 0.435554
0.668238 0.0597543 0.413474
0.72842 0.109682 0.425299
0.729397 0.111025 0.444968
0.729274 0.111391 0.456535
0.729152 0.111635 0.46096
0.0342107 0.433021 0.399359
0.0317235 0.417716 0.375006
0.0306859 0.402747 0.346044
0.377066 0.410834 0.342626
0.727413 0.335805 0.325002
0.821393 0.242451 0.343465
0.775326 0.18468 0.326894
0.748074 0.149645 0.315419
0.730907 0.127703 0.307668
0.108537 0.705501 0.516213
0.104311 0.709056 0.475029
0.105135 0.716381 0.421302
0.16759 0.755032 0.293538
0.628916 0.658854 0.188586
0.887221 0.633494 0.278386
0.928481 0.584421 0.308232
0.920394 0.555077 0.300511
0.915206 0.539132 0.296086
0.344991 0.936721 0.690135
0.349767 0.944045 0.658381
0.359609 0.953124 0.618067
0.372534 0.95581 0.505394
0.57322 0.98471 0.430426
0.839796 0.869673 0.34815
0.926482 0.852613 0.389487
0.92108 0.836957 0.377432
0.918196 0.828779 0.370809
0.374975 0.956954 0.733944
0.369055 0.95903 0.695689
0.368078 0.960494 0.649592
0.372168 0.95668 0.518898
0.507103 0.981048 0.454902
0.820279 0.980667 0.427161
0.971542 0.977661 0.485939
1 0.981308 0.504585
0.999939 0.980529 0.504829
0.379431 0.957214 0.747311
0.369696 0.958358 0.708614
0.368215 0.960128 0.666163
0.371725 0.957671 0.541527
0.464088 0.96759 0.442054
0.794079 0.986236 0.425666
0.950484 0.975769 0.473716
1 0.981033 0.505516
1 0.982116 0.505241
0.380163 0.956634 0.753536
0.370199 0.957946 0.716594
0.368383 0.959854 0.675578
0.370794 0.95819 0.555627
0.449241 0.963714 0.436027
0.779873 0.988602 0.424903
0.939681 0.976043 0.468589
1 0.981476 0.504326
1 0.98262 0.504372
0.0284428 0.0569314 0.536141
0.165743 0.0510109 0.575021
0.320272 0.0516518 0.614008
0.487724 0.0548409 0.631464
0.625589 0.0924697 0.62562
0.681834 0.12195 0.651362
0.674846 0.125078 0.666728
0.672724 0.126101 0.675196
0.6701 0.127001 0.675792
0.0212558 0.0914321 0.50721
0.0352941 0.0532387 0.526497
0.208957 0.0499886 0.577615
0.447929 0.0515755 0.621317
0.612146 0.0794995 0.613474
0.691661 0.118318 0.621988
0.685802 0.12047 0.635325
0.683253 0.121294 0.642771
0.681407 0.121813 0.643854
0.0233158 0.145998 0.481163
0.0212863 0.105196 0.490059
0.0473945 0.0540169 0.514672
0.377005 0.0488746 0.599359
0.599466 0.0670939 0.599039
0.702266 0.114458 0.586633
0.698726 0.11577 0.598428
0.696773 0.116472 0.605097
0.695674 0.116686 0.606546
0.0343175 0.381277 0.532403
0.0312657 0.348852 0.532143
0.0302281 0.310155 0.537179
0.27538 0.290227 0.577142
0.677623 0.224582 0.640345
0.740795 0.12929 0.528679
0.723278 0.113115 0.519387
0.721996 0.112627 0.52108
0.72166 0.112459 0.520226
0.0913252 0.626291 0.604242
0.0831006 0.618204 0.586557
0.0768597 0.609491 0.570901
0.0773785 0.600717 0.542138
0.592615 0.608454 0.547372
0.931258 0.566003 0.55172
0.996918 0.520851 0.547601
0.993118 0.493019 0.541787
0.989334 0.477409 0.537743
0.274601 0.85594 0.719738
0.268437 0.856016 0.699199
0.263569 0.856901 0.678508
0.264256 0.867674 0.631388
0.45861 0.992111 0.580041
0.803525 0.84976 0.453696
0.985824 0.82295 0.492103
0.987747 0.799512 0.489189
0.988296 0.786328 0.4869
0.368414 0.936751 0.794034
0.370504 0.946822 0.778759
0.37348 0.953735 0.762661
0.370031 0.957992 0.71426
0.374899 0.95581 0.504173
0.76144 0.998932 0.436515
0.96257 0.975067 0.479881
1 0.978912 0.504509
1 0.976669 0.502861
0.366018 0.932296 0.798749
0.369116 0.943801 0.784451
0.373495 0.95256 0.768261
0.370459 0.957473 0.72137
0.372229 0.956924 0.529427
0.677806 0.998932 0.445716
0.925673 0.976379 0.462333
1 0.981323 0.504723
1 0.982132 0.506081
0.365942 0.929488 0.801511
0.367376 0.940902 0.788205
0.372839 0.950866 0.772641
0.370764 0.957046 0.726787
0.372 0.957305 0.535485
0.640269 0.998932 0.448524
0.9037 0.977478 0.453681
0.99202 0.980926 0.498466
1 0.982437 0.505135
0.0430915 0.0891737 0.598962
0.167041 0.0772106 0.649317
0.302693 0.0812848 0.690318
0.449775 0.090486 0.704219
0.580179 0.108583 0.694499
0.660334 0.131884 0.718608
0.656748 0.132753 0.718746
0.657847 0.132311 0.719982
0.655833 0.133043 0.717525
0.0338293 0.112535 0.599252
0.0470588 0.0808728 0.596506
0.198077 0.0738994 0.656229
0.40708 0.0828565 0.699886
0.553338 0.0975509 0.685344
0.663783 0.130663 0.710048
0.659586 0.13228 0.716884
0.657008 0.13315 0.718334
0.655116 0.133516 0.716228
0.0312657 0.141619 0.592264
0.0309606 0.111711 0.59173
0.0509346 0.0741436 0.592782
0.335897 0.0738994 0.68603
0.530266 0.0881971 0.679789
0.668513 0.128511 0.696498
0.665934 0.129946 0.704814
0.663645 0.130724 0.707942
0.662242 0.131106 0.7084
0.0466926 0.330953 0.632624
0.0457465 0.299413 0.635081
0.0454261 0.258305 0.637186
0.182025 0.204593 0.687556
0.555718 0.162554 0.762661
0.668559 0.121004 0.663249
0.678782 0.123476 0.663142
0.67776 0.123949 0.666316
0.676875 0.124147 0.666865
0.105852 0.585397 0.684611
0.0981003 0.566934 0.680476
0.0922713 0.545403 0.679973
0.0825666 0.493462 0.682948
0.51519 0.52549 0.745663
0.89192 0.47509 0.824018
0.980652 0.414572 0.816464
0.965103 0.386343 0.806149
0.954696 0.371176 0.796948
0.237003 0.776394 0.764141
0.225116 0.768902 0.749554
0.213962 0.760525 0.737652
0.195239 0.747463 0.716487
0.31693 0.794949 0.727337
0.765362 0.781292 0.720745
0.996811 0.750881 0.734783
0.999466 0.730953 0.726558
0.998795 0.720928 0.721065
0.348547 0.900694 0.839689
0.349767 0.907485 0.828595
0.351781 0.913268 0.819699
0.358114 0.925155 0.806149
0.36556 0.94583 0.759823
0.685084 0.998932 0.747677
0.936126 0.972 0.682292
1 0.961822 0.689632
1 0.952697 0.685298
0.35082 0.894102 0.847364
0.348363 0.90338 0.834638
0.350851 0.910384 0.824491
0.357183 0.923598 0.80766
0.372259 0.951858 0.764965
0.558038 0.998932 0.6981
0.900572 0.998932 0.631693
1 0.995834 0.656123
1 0.995911 0.644587
0.35198 0.89073 0.850294
0.347692 0.900633 0.839292
0.349813 0.90782 0.828138
0.355978 0.921553 0.809766
0.372137 0.951141 0.767483
0.504417 0.998932 0.687984
0.870756 0.998932 0.622461
0.997742 0.997269 0.626139
1 0.997742 0.618509
0.0540932 0.10573 0.611536
0.176883 0.103593 0.670893
0.302754 0.107408 0.712245
0.447974 0.113695 0.728603
0.5841 0.115984 0.713344
0.658381 0.132006 0.720043
0.658366 0.132021 0.720043
0.658152 0.132158 0.720073
0.656458 0.132799 0.718151
0.0465553 0.128069 0.61706
0.0598611 0.105425 0.61471
0.195956 0.104219 0.678706
0.396857 0.111254 0.727047
0.550362 0.11339 0.715175
0.658427 0.132006 0.72018
0.658427 0.132021 0.720195
0.656565 0.132753 0.718212
0.655879 0.132967 0.717327
0.055024 0.169528 0.637797
0.0472725 0.131975 0.619013
0.0584421 0.105806 0.614206
0.31899 0.107988 0.715923
0.515328 0.113695 0.721035
0.658473 0.132006 0.720317
0.658534 0.132021 0.720516
0.658122 0.132158 0.720027
0.657374 0.132403 0.718853
0.071107 0.306538 0.68333
0.0708782 0.273686 0.678187
0.0689555 0.235645 0.667689
0.131197 0.171008 0.685191
0.460975 0.141894 0.758984
0.631128 0.126833 0.71783
0.658778 0.132036 0.721004
0.658778 0.132036 0.720989
0.658473 0.132021 0.720104
0.12903 0.535088 0.739467
0.123873 0.512535 0.737652
0.120668 0.491279 0.737011
0.116365 0.444312 0.735454
0.419699 0.446021 0.857572
0.789624 0.42388 0.951598
0.888823 0.368002 0.922118
0.863859 0.341009 0.897032
0.847547 0.324788 0.880232
0.243427 0.744762 0.80734
0.234485 0.733791 0.800519
0.226276 0.721889 0.795331
0.213336 0.699962 0.789288
0.239597 0.686458 0.82974
0.709178 0.71902 0.880903
0.982177 0.687465 0.941985
0.99382 0.662501 0.942824
0.992447 0.651102 0.940032
0.343893 0.874174 0.885161
0.340002 0.874434 0.877333
0.33489 0.870176 0.869505
0.327306 0.863462 0.855497
0.308675 0.850172 0.825437
0.612787 0.93872 0.873655
0.899199 0.926696 0.86978
0.992767 0.908293 0.885985
0.991348 0.898436 0.879683
0.352087 0.872541 0.891981
0.343481 0.875151 0.885801
0.341772 0.875914 0.879118
0.342611 0.882795 0.866514
0.348302 0.901564 0.839078
0.455116 0.998932 0.857099
0.856413 0.998932 0.874739
0.98677 0.984619 0.88864
0.995331 0.984878 0.892195
0.35404 0.872801 0.896406
0.344656 0.874861 0.890135
0.342885 0.875257 0.883238
0.342275 0.881178 0.869093
0.348196 0.901671 0.83856
0.424552 0.982589 0.838407
0.820554 0.998932 0.863828
0.969329 0.987686 0.846815
0.991287 0.985046 0.912428
0.0702525 0.104891 0.620386
0.19411 0.104173 0.677989
0.313191 0.107729 0.714595
0.455314 0.113634 0.727993
0.595895 0.120073 0.715557
0.658381 0.132006 0.720043
0.658381 0.132006 0.720043
0.658351 0.132021 0.720058
0.658427 0.132021 0.720241
0.045243 0.123156 0.614359
0.0763561 0.104662 0.623652
0.206912 0.104417 0.682841
0.40354 0.111681 0.727626
0.556329 0.113313 0.714183
0.658396 0.132006 0.720073
0.658396 0.132006 0.720104
0.658289 0.132052 0.719982
0.656199 0.132876 0.717784
0.0572061 0.170474 0.639246
0.0458991 0.126284 0.615991
0.0729992 0.104936 0.621973
0.325521 0.107912 0.71693
0.51873 0.113725 0.720546
0.658396 0.132006 0.720088
0.658442 0.132006 0.720211
0.658427 0.132006 0.72018
0.657618 0.132296 0.719188
0.0873579 0.296223 0.695354
0.0776226 0.255863 0.678843
0.0664988 0.208652 0.657816
0.112245 0.129061 0.654871
0.439063 0.1178 0.733577
0.629053 0.126436 0.717449
0.658534 0.132021 0.720287
0.658518 0.132021 0.720287
0.658427 0.132021 0.720012
0.148791 0.515785 0.764172
0.143923 0.495949 0.760632
0.137011 0.474586 0.75465
0.120302 0.424247 0.738613
0.390204 0.410315 0.861204
0.753902 0.388327 0.952178
0.846647 0.332372 0.894987
0.816129 0.303471 0.863798
0.800214 0.288533 0.847532
0.252659 0.733074 0.834318
0.242451 0.71516 0.828565
0.233951 0.698222 0.82446
0.220127 0.666728 0.818479
0.230259 0.637003 0.843168
0.654612 0.671092 0.934905
0.941146 0.657069 0.992828
0.970138 0.630304 1
0.966262 0.618936 0.997925
0.345525 0.870741 0.901518
0.340185 0.86537 0.895979
0.334951 0.858595 0.891127
0.324437 0.844266 0.882322
0.306996 0.819104 0.869276
0.529244 0.86807 0.941375
0.876097 0.890791 0.954635
0.985 0.876768 0.980331
0.984314 0.86479 0.978882
0.353491 0.879515 0.909667
0.352163 0.880201 0.90779
0.35111 0.879225 0.90605
0.34847 0.876936 0.900877
0.345281 0.87538 0.891646
0.384421 0.901183 0.897002
0.837903 0.986786 0.96643
0.97644 0.980133 0.966415
0.988876 0.976333 0.971298
0.360983 0.877577 0.907759
0.352407 0.880461 0.908171
0.352224 0.880323 0.907897
0.349233 0.877531 0.90251
0.344823 0.875319 0.89015
0.369162 0.89575 0.88333
0.798657 0.99794 0.962798
0.965408 0.984787 0.964782
0.990097 0.982605 0.98204
0.0784314 0.104631 0.624781
0.202792 0.104265 0.68127
0.319051 0.108049 0.715999
0.458991 0.113787 0.727855
0.601236 0.121096 0.71577
0.658381 0.132006 0.720043
0.658381 0.132006 0.720043
0.658381 0.132006 0.720043
0.658381 0.132006 0.720058
0.0446021 0.120638 0.613016
0.0851606 0.10454 0.628367
0.213947 0.104707 0.685527
0.407172 0.11191 0.727901
0.559594 0.113313 0.71368
0.658396 0.132006 0.720104
0.658396 0.132006 0.720104
0.658396 0.132006 0.720073
0.65771 0.13225 0.71928
0.0566873 0.168719 0.638315
0.0451514 0.123232 0.614343
0.0814069 0.104723 0.626444
0.329625 0.108095 0.717708
0.5205 0.113725 0.720302
0.658381 0.132006 0.720043
0.658442 0.132006 0.720211
0.658427 0.132006 0.72018
0.658351 0.132006 0.719951
0.0837568 0.280369 0.689204
0.0738384 0.23975 0.671916
0.0618906 0.189502 0.648692
0.102632 0.109895 0.640284
0.437247 0.113878 0.729397
0.628687 0.126329 0.717388
0.658534 0.132021 0.720302
0.658534 0.132021 0.720302
0.658427 0.132021 0.720012
0.150027 0.507561 0.766155
0.141527 0.486641 0.758694
0.132921 0.463325 0.750912
0.116258 0.410269 0.734295
0.378912 0.389883 0.854932
0.737774 0.364752 0.942321
0.820981 0.307866 0.868605
0.791272 0.280186 0.838544
0.773327 0.262974 0.8206
0.251148 0.723293 0.839048
0.240909 0.705211 0.832517
0.231739 0.687922 0.826734
0.214908 0.654658 0.815732
0.221897 0.620478 0.836606
0.643961 0.654582 0.933562
0.931914 0.640391 0.991943
0.966186 0.611795 0.998688
0.964706 0.598733 0.998611
0.345678 0.87071 0.903502
0.341039 0.865217 0.899763
0.335286 0.857145 0.895537
0.324514 0.841535 0.887694
0.304356 0.811124 0.873289
0.498436 0.842512 0.949523
0.854215 0.86952 0.965393
0.97792 0.861295 0.986221
0.978027 0.847883 0.986557
0.354253 0.878904 0.911086
0.353811 0.879286 0.910307
0.35378 0.879316 0.910262
0.35378 0.879316 0.910262
0.35407 0.879667 0.910506
0.360693 0.882322 0.912261
0.811475 0.968139 0.989456
0.972351 0.973327 0.985107
0.987793 0.969665 0.988144
0.352987 0.879988 0.908934
0.352407 0.880461 0.908171
0.352377 0.880491 0.908141
0.352377 0.880491 0.908141
0.352575 0.880751 0.908278
0.355947 0.88539 0.909712
0.74934 0.979919 0.987289
0.96846 0.984253 0.985977
0.989487 0.982971 0.9888
