bundles/resolve-cinematic-luts/Phantom Luts/Canon Alexa LUT/C-Log 3/Jamaica Canon CL3-Legacy.cube
TITLE "Generated by Resolve"
LUT_3D_SIZE 33
0.031281 0.0426947 0.0311894
0.031281 0.0426947 0.0311894
0.0364385 0.0426184 0.0312047
0.0849012 0.0420996 0.0322576
0.140017 0.0411841 0.033402
0.187182 0.0408942 0.0349584
0.234897 0.04094 0.0375219
0.290211 0.0404974 0.0414435
0.348928 0.0399786 0.047364
0.407431 0.0403754 0.0593423
0.46331 0.0423133 0.0720989
0.514107 0.0445106 0.084062
0.559091 0.0471656 0.104555
0.597436 0.0518807 0.125093
0.626627 0.0594339 0.147356
0.648264 0.0711528 0.173068
0.668147 0.0872206 0.20264
0.692241 0.1037 0.233768
0.699336 0.106538 0.247105
0.702068 0.106783 0.25594
0.704189 0.106798 0.26363
0.705989 0.106767 0.270909
0.707774 0.106828 0.278019
0.709133 0.106844 0.284001
0.710262 0.106798 0.289143
0.711177 0.106798 0.293492
0.712062 0.106783 0.297856
0.712734 0.106798 0.301198
0.713283 0.106783 0.304189
0.713695 0.106798 0.306447
0.714031 0.106783 0.308522
0.714214 0.106783 0.309911
0.714321 0.106798 0.310658
0.031281 0.0426947 0.0311894
0.031281 0.0426947 0.0311894
0.031281 0.0426947 0.0311894
0.0513619 0.0430762 0.0310826
0.0974136 0.0430152 0.0314031
0.149844 0.0424964 0.0316167
0.198779 0.0420386 0.0311894
0.250172 0.0415808 0.0306859
0.310582 0.0406348 0.0304417
0.372732 0.0416724 0.0334478
0.43035 0.0419776 0.0386206
0.482628 0.0429236 0.0454414
0.529671 0.0458686 0.065919
0.57116 0.0498817 0.0853742
0.604746 0.0568246 0.106203
0.628794 0.0667735 0.130587
0.650065 0.0822309 0.16083
0.675319 0.0997177 0.19556
0.688212 0.105837 0.21416
0.691081 0.106157 0.221515
0.693828 0.106401 0.229145
0.696513 0.106615 0.237018
0.699092 0.106828 0.244984
0.701335 0.10695 0.252491
0.703182 0.107012 0.259068
0.704372 0.106905 0.26389
0.70544 0.106844 0.26833
0.706447 0.106905 0.272221
0.70721 0.10692 0.275395
0.707774 0.106966 0.27776
0.708186 0.106996 0.279606
0.708385 0.106981 0.281025
0.708415 0.10695 0.281712
0.0298772 0.0479744 0.0319982
0.0307774 0.0450752 0.0308385
0.0316472 0.0441444 0.0311742
0.0336309 0.0436408 0.03122
0.0627146 0.045594 0.0311742
0.108156 0.0467842 0.0308232
0.157092 0.0469062 0.0295567
0.210636 0.0467079 0.0281987
0.271122 0.0454871 0.0267033
0.33872 0.0434424 0.0270848
0.402472 0.0421759 0.0286259
0.461555 0.0417334 0.0328527
0.511482 0.0443275 0.0420691
0.550576 0.0483864 0.0544137
0.582544 0.0532692 0.0757153
0.607904 0.0607462 0.0960098
0.630091 0.0730755 0.123735
0.650782 0.0896925 0.152331
0.667292 0.0996262 0.173968
0.673136 0.101686 0.184298
0.679225 0.10367 0.195148
0.684291 0.105211 0.204898
0.687953 0.106035 0.212741
0.690318 0.106218 0.218982
0.692332 0.10631 0.224674
0.694072 0.106477 0.229633
0.695628 0.1066 0.234211
0.697108 0.106722 0.238636
0.698375 0.106767 0.242756
0.69929 0.106859 0.245823
0.700084 0.10692 0.248554
0.700572 0.106981 0.250462
0.70074 0.107012 0.251377
0.0256199 0.068513 0.0332952
0.0273899 0.0607156 0.0296025
0.0324712 0.0537728 0.030518
0.0339513 0.0500496 0.0306706
0.0443427 0.0495613 0.0315557
0.0811475 0.0534676 0.0316625
0.124834 0.0564431 0.0312657
0.176745 0.0567483 0.0311284
0.235203 0.0561685 0.0294499
0.301488 0.0522621 0.0275425
0.372946 0.0487984 0.0261692
0.440848 0.0458228 0.028397
0.496605 0.0448157 0.0328985
0.540475 0.047425 0.0426795
0.574884 0.0527199 0.0606546
0.602609 0.059556 0.0876936
0.620325 0.0686503 0.107362
0.641962 0.0836652 0.139422
0.655543 0.0954757 0.153521
0.655314 0.0955367 0.15285
0.659495 0.0970932 0.159762
0.664912 0.0992599 0.168658
0.669932 0.101061 0.177371
0.674189 0.102312 0.185183
0.678462 0.103792 0.192706
0.682124 0.104936 0.199542
0.685039 0.105776 0.205249
0.687022 0.106203 0.209583
0.688182 0.106249 0.212665
0.689158 0.106355 0.215274
0.689906 0.106432 0.21735
0.69041 0.106477 0.219028
0.690623 0.106508 0.219974
0.0239109 0.124865 0.0346685
0.0239261 0.117311 0.0281987
0.0273136 0.103014 0.028687
0.0362554 0.0906386 0.0287175
0.0596933 0.0763867 0.0287022
0.0864729 0.0789807 0.0313115
0.118212 0.0838178 0.0330663
0.1626 0.081651 0.0336614
0.212222 0.0763409 0.031632
0.272404 0.0673075 0.030518
0.343938 0.0628214 0.0290074
0.415595 0.0595407 0.028687
0.47863 0.0528573 0.029099
0.529442 0.0466011 0.032639
0.566323 0.051667 0.0483711
0.594186 0.0584573 0.0721752
0.616968 0.0677806 0.101137
0.633509 0.0796674 0.124407
0.659251 0.0968643 0.159777
0.65893 0.0970626 0.158572
0.656001 0.0959945 0.153582
0.654612 0.0954757 0.151263
0.654154 0.0953078 0.150454
0.656596 0.0963149 0.15436
0.660014 0.0975052 0.160189
0.663752 0.0989853 0.166384
0.667079 0.100221 0.17203
0.669856 0.101289 0.176669
0.672175 0.102083 0.180743
0.673899 0.10248 0.184039
0.675624 0.103136 0.18703
0.677119 0.1037 0.189761
0.677775 0.103975 0.191073
0.0215305 0.172641 0.035935
0.0213169 0.164965 0.0283665
0.0222171 0.15024 0.0286259
0.0326848 0.136599 0.027985
0.054612 0.123934 0.0262455
0.0983291 0.115679 0.0281834
0.122316 0.116609 0.0305486
0.159472 0.119051 0.0335088
0.213382 0.117205 0.0338598
0.275181 0.112306 0.0346532
0.336873 0.106081 0.0330663
0.400427 0.0925307 0.0329595
0.461479 0.0705272 0.0311437
0.518898 0.0621195 0.0343023
0.55877 0.0581979 0.0386206
0.585367 0.0574044 0.0561685
0.609079 0.0661784 0.0863813
0.628153 0.0783093 0.113954
0.64802 0.0908522 0.143954
0.659709 0.0977493 0.158938
0.660304 0.0979171 0.160082
0.659571 0.0975509 0.15906
0.658244 0.0970321 0.156939
0.657023 0.0965744 0.15494
0.656031 0.0961318 0.153399
0.655161 0.0957961 0.151934
0.654398 0.095491 0.150713
0.654521 0.095552 0.150835
0.655634 0.0960555 0.15256
0.656519 0.096376 0.154055
0.657588 0.0968643 0.155734
0.65861 0.0972457 0.157504
0.659266 0.0975204 0.158663
0.0197604 0.221958 0.0382086
0.0195163 0.215641 0.0311131
0.0204929 0.201419 0.0307164
0.0276799 0.186801 0.0297856
0.0394446 0.177646 0.0289464
0.0862287 0.162188 0.0276951
0.129046 0.154131 0.0316014
0.162097 0.153689 0.0335851
0.205524 0.156069 0.0323949
0.266941 0.153857 0.033341
0.341436 0.143923 0.035523
0.404898 0.132464 0.0365148
0.464302 0.12163 0.0368505
0.516945 0.111376 0.039292
0.559335 0.0852522 0.0424353
0.58143 0.0619669 0.0475776
0.596567 0.062211 0.0657816
0.620432 0.0758068 0.0999161
0.639735 0.0893873 0.127077
0.655619 0.0975509 0.149264
0.656886 0.0975662 0.152377
0.657847 0.0974441 0.155016
0.658412 0.0974136 0.156435
0.6589 0.0975662 0.157351
0.659403 0.0977035 0.158297
0.659342 0.0975967 0.158373
0.659113 0.0974746 0.158068
0.658793 0.0973373 0.157595
0.658442 0.0972 0.157046
0.658061 0.0970626 0.156466
0.657572 0.0969406 0.155596
0.65713 0.096788 0.154894
0.657084 0.0968032 0.154864
0.0196231 0.279744 0.0437171
0.0192264 0.275395 0.033341
0.0192874 0.262684 0.0331121
0.0214542 0.24567 0.0320287
0.0331121 0.234302 0.0307317
0.0546883 0.221744 0.0289921
0.114504 0.205097 0.0274662
0.165881 0.195575 0.0322271
0.206195 0.193866 0.0345312
0.256519 0.19678 0.0353246
0.329503 0.195636 0.0335088
0.40383 0.18529 0.0378882
0.474311 0.170733 0.0417945
0.523857 0.161135 0.0433814
0.569909 0.145678 0.0496223
0.601556 0.131456 0.0550851
0.617304 0.104509 0.0650187
0.608362 0.0782483 0.073518
0.632105 0.0868696 0.11368
0.655329 0.100008 0.142061
0.655589 0.0999008 0.142977
0.655253 0.0994583 0.143435
0.654963 0.0989242 0.144198
0.654643 0.0983749 0.144823
0.654414 0.0979171 0.145357
0.654673 0.097673 0.146563
0.655344 0.097612 0.148409
0.655924 0.0975814 0.14992
0.656336 0.0975814 0.150958
0.656748 0.0975814 0.152026
0.657069 0.0975357 0.152941
0.657298 0.0975204 0.153628
0.657343 0.0975052 0.153872
0.0202182 0.348882 0.0538186
0.0193179 0.347799 0.0377508
0.018616 0.337346 0.0380102
0.0166934 0.31725 0.0356756
0.0261387 0.300816 0.0338903
0.0370184 0.290333 0.0328527
0.0825666 0.275044 0.0286107
0.144472 0.257832 0.0275883
0.207141 0.244327 0.0324407
0.25684 0.242191 0.0351263
0.317708 0.245548 0.0370947
0.390646 0.246677 0.0382544
0.464576 0.235752 0.0401923
0.532357 0.218814 0.0475471
0.584237 0.201556 0.0565194
0.618647 0.192615 0.0622263
0.644404 0.17821 0.0733349
0.652354 0.155245 0.0852216
0.647532 0.127916 0.102251
0.647074 0.101366 0.114
0.657847 0.104891 0.131579
0.65684 0.10312 0.136004
0.657557 0.102541 0.140124
0.65742 0.102235 0.140764
0.657252 0.101946 0.141329
0.657145 0.10164 0.141894
0.656992 0.10135 0.142428
0.656748 0.101091 0.142596
0.656596 0.100877 0.142885
0.656428 0.100679 0.143099
0.656214 0.100465 0.143206
0.655955 0.100328 0.143145
0.655818 0.100267 0.14313
0.0235752 0.418875 0.0699779
0.0232242 0.420676 0.0471962
0.0219272 0.415244 0.0431983
0.0206455 0.399008 0.0425879
0.0228122 0.380072 0.0400854
0.0337224 0.367514 0.038056
0.0462959 0.357137 0.0362097
0.107973 0.342565 0.0301823
0.180728 0.319265 0.0284886
0.258228 0.30106 0.0334783
0.318517 0.297505 0.0370031
0.380438 0.302342 0.0394903
0.451164 0.305608 0.042237
0.523278 0.29514 0.045716
0.586252 0.27689 0.056733
0.636805 0.256077 0.0720531
0.669429 0.241535 0.0858473
0.684855 0.229572 0.0968185
0.692622 0.211963 0.115206
0.688151 0.186816 0.127565
0.685283 0.158968 0.132906
0.670542 0.131426 0.122225
0.66157 0.11545 0.115511
0.658152 0.108278 0.117418
0.657023 0.104494 0.12372
0.656306 0.103227 0.126955
0.657725 0.10486 0.131563
0.657023 0.103868 0.133761
0.656672 0.103349 0.134829
0.656565 0.103227 0.135042
0.656428 0.10312 0.135164
0.656153 0.103014 0.135058
0.655848 0.102907 0.13492
0.0305333 0.488045 0.0896773
0.031281 0.490822 0.0640116
0.0305028 0.487984 0.0533608
0.0281529 0.476738 0.0540932
0.0255283 0.460197 0.0510414
0.0342412 0.444877 0.0475013
0.0445411 0.434623 0.0449683
0.0679484 0.424643 0.0408331
0.146838 0.411978 0.0328069
0.22948 0.380377 0.0302281
0.320623 0.362463 0.0357519
0.384085 0.359197 0.0394903
0.443503 0.364202 0.043473
0.510353 0.368444 0.0491646
0.578531 0.362966 0.0547646
0.636225 0.345464 0.0713207
0.683589 0.326406 0.090547
0.716228 0.299016 0.115038
0.729534 0.288045 0.131945
0.734844 0.273533 0.148623
0.732464 0.248768 0.158541
0.724392 0.234745 0.153872
0.716091 0.22118 0.148684
0.708019 0.20737 0.143954
0.701579 0.195392 0.140658
0.69778 0.186709 0.139315
0.695125 0.179141 0.139055
0.690486 0.168811 0.137163
0.683909 0.156359 0.133333
0.677592 0.14519 0.129122
0.673915 0.136736 0.127642
0.669993 0.130449 0.124132
0.668132 0.127459 0.123064
0.0441444 0.552804 0.111971
0.0460212 0.554726 0.0902419
0.0469368 0.553384 0.0721447
0.0441749 0.547234 0.0730602
0.0405737 0.535363 0.0691691
0.0405737 0.522667 0.0648508
0.0532845 0.512383 0.0597238
0.0620584 0.503304 0.0559854
0.103029 0.494224 0.0485695
0.200244 0.479393 0.0371405
0.28748 0.440238 0.0336767
0.385336 0.42414 0.039704
0.449699 0.421057 0.0450599
0.50396 0.425208 0.0506447
0.566247 0.429816 0.0596475
0.630625 0.429099 0.0731518
0.682612 0.415274 0.0903487
0.727382 0.397086 0.115709
0.76289 0.37557 0.148547
0.781369 0.352865 0.179263
0.781109 0.337896 0.186587
0.773999 0.32314 0.182956
0.767422 0.311147 0.178973
0.761471 0.300435 0.175418
0.755673 0.290059 0.171954
0.749889 0.279896 0.168368
0.744671 0.27042 0.165454
0.740444 0.262486 0.163256
0.736614 0.255497 0.161166
0.73286 0.248844 0.15906
0.730007 0.243473 0.15761
0.727245 0.23859 0.156069
0.725307 0.235157 0.155016
0.0661784 0.612894 0.142367
0.0695811 0.61416 0.126299
0.0748302 0.61294 0.101961
0.0728161 0.609857 0.0999924
0.0674754 0.601785 0.0985275
0.0608225 0.589868 0.0918288
0.0656291 0.579492 0.0839399
0.0790112 0.571679 0.0769055
0.0930037 0.563943 0.0706493
0.155001 0.55845 0.0586252
0.261234 0.543694 0.045594
0.357549 0.498558 0.0404822
0.450645 0.485313 0.0475319
0.512032 0.482139 0.0546578
0.561074 0.485771 0.0631723
0.618784 0.490028 0.0763561
0.674907 0.491829 0.0942702
0.725978 0.484321 0.117189
0.771115 0.468437 0.149157
0.803815 0.449332 0.182895
0.826169 0.427787 0.214786
0.82884 0.408637 0.22414
0.823575 0.39649 0.221439
0.817853 0.386648 0.217411
0.812329 0.377997 0.213245
0.807462 0.371038 0.209369
0.802563 0.364538 0.205264
0.798413 0.358938 0.201816
0.794354 0.353735 0.198352
0.790448 0.348577 0.195087
0.787259 0.343877 0.19263
0.784741 0.340215 0.190661
0.782483 0.336782 0.188952
0.0989242 0.670054 0.186694
0.103563 0.671153 0.176425
0.114961 0.668269 0.147601
0.116075 0.665553 0.139971
0.109926 0.66157 0.140185
0.10161 0.652232 0.133028
0.0955825 0.642008 0.123674
0.105562 0.634516 0.110445
0.116197 0.628641 0.101472
0.135302 0.625055 0.0934157
0.224262 0.623316 0.0742657
0.332815 0.603372 0.0590982
0.426825 0.554421 0.0525216
0.513954 0.545007 0.062089
0.571084 0.541588 0.071931
0.614557 0.54406 0.0831617
0.667079 0.548486 0.100786
0.716442 0.55079 0.12192
0.768429 0.550988 0.154299
0.809949 0.537865 0.187472
0.841352 0.522484 0.218784
0.857588 0.505165 0.237903
0.855192 0.495628 0.236332
0.852796 0.486381 0.234897
0.850202 0.477287 0.233356
0.847944 0.468879 0.232197
0.845975 0.461677 0.231296
0.843503 0.45452 0.229862
0.841657 0.448768 0.228977
0.839734 0.44361 0.227924
0.837995 0.439384 0.226917
0.83621 0.435782 0.225696
0.834897 0.433234 0.224735
0.145724 0.725643 0.23917
0.150576 0.727626 0.236347
0.164981 0.72546 0.211917
0.171466 0.721019 0.19556
0.165713 0.718151 0.195254
0.157992 0.711635 0.189349
0.145403 0.699901 0.177844
0.144289 0.692576 0.163317
0.156512 0.688258 0.145678
0.163745 0.683146 0.134112
0.191165 0.684047 0.122423
0.304784 0.683055 0.0965133
0.406973 0.65713 0.0795911
0.496132 0.607095 0.0711833
0.573724 0.601846 0.0852522
0.627298 0.598856 0.0990616
0.663783 0.600183 0.112154
0.711955 0.604883 0.134493
0.756725 0.607721 0.160052
0.803708 0.609201 0.194324
0.844862 0.605463 0.229236
0.87187 0.591058 0.252979
0.874189 0.581598 0.254475
0.872541 0.573495 0.252293
0.871351 0.566522 0.250751
0.870344 0.560601 0.2495
0.868742 0.55436 0.247715
0.867872 0.549371 0.246799
0.866621 0.544244 0.245548
0.865446 0.540154 0.24448
0.864713 0.537026 0.24387
0.86363 0.534279 0.242878
0.862455 0.531624 0.241764
0.205676 0.782757 0.301228
0.210864 0.78584 0.302022
0.222614 0.785824 0.284977
0.232975 0.782528 0.261891
0.229282 0.778866 0.258228
0.223697 0.774533 0.255604
0.212787 0.763027 0.242939
0.202228 0.751247 0.228168
0.206378 0.744778 0.207172
0.213596 0.740215 0.189654
0.218082 0.736889 0.17966
0.271427 0.744244 0.1608
0.400641 0.739223 0.130755
0.48304 0.707195 0.111284
0.560739 0.655451 0.101076
0.63061 0.656825 0.120165
0.679622 0.653254 0.137057
0.713405 0.654185 0.152911
0.753292 0.658915 0.176089
0.798978 0.662303 0.207401
0.836454 0.663935 0.236652
0.871641 0.663417 0.266285
0.88716 0.659617 0.279072
0.886763 0.654704 0.277592
0.885634 0.64892 0.275303
0.884642 0.643503 0.273289
0.884047 0.63859 0.271763
0.883146 0.633967 0.270069
0.882338 0.629526 0.268544
0.881727 0.626642 0.267582
0.881025 0.623468 0.266468
0.879973 0.620615 0.265064
0.879149 0.618387 0.263905
0.273625 0.84712 0.370947
0.277363 0.850385 0.372702
0.28455 0.851881 0.358907
0.292912 0.851591 0.332387
0.292653 0.848676 0.321523
0.287846 0.844617 0.32253
0.282017 0.836927 0.315343
0.26862 0.821088 0.301274
0.270146 0.81059 0.283696
0.281315 0.803708 0.260273
0.278019 0.797589 0.249332
0.295277 0.798581 0.235813
0.383749 0.80531 0.204837
0.496239 0.79852 0.185519
0.556008 0.752331 0.15288
0.623484 0.70576 0.14345
0.68452 0.710796 0.166537
0.730495 0.707881 0.186343
0.761776 0.708156 0.203311
0.795193 0.711376 0.225254
0.83444 0.714961 0.253773
0.868574 0.716564 0.2804
0.892638 0.716014 0.299611
0.892241 0.712489 0.298116
0.891463 0.708629 0.296223
0.890745 0.704723 0.294392
0.890486 0.701579 0.293187
0.890333 0.698466 0.292134
0.889754 0.696025 0.290959
0.889265 0.693507 0.289906
0.889082 0.691402 0.289204
0.888579 0.689525 0.288228
0.888334 0.687907 0.28751
0.332326 0.909117 0.436957
0.334401 0.911208 0.438102
0.338415 0.912413 0.421515
0.342824 0.913298 0.394888
0.343847 0.913252 0.378912
0.341405 0.910628 0.380346
0.339467 0.906905 0.376471
0.332433 0.896284 0.36907
0.328435 0.880766 0.354986
0.344488 0.871077 0.336141
0.346914 0.862196 0.321675
0.351705 0.858076 0.311711
0.390143 0.866163 0.299947
0.506661 0.866163 0.263096
0.586328 0.853025 0.248692
0.627176 0.801923 0.208682
0.683146 0.758221 0.195727
0.737636 0.765332 0.222492
0.779232 0.761669 0.241749
0.811536 0.761929 0.260792
0.835477 0.762936 0.276616
0.867399 0.767178 0.300908
0.895994 0.768658 0.322896
0.903792 0.766247 0.327886
0.902846 0.762829 0.325704
0.902174 0.759457 0.32372
0.901717 0.756985 0.322316
0.901289 0.754757 0.321065
0.90071 0.752224 0.319615
0.900084 0.749981 0.318257
0.899382 0.748043 0.31693
0.898741 0.74638 0.315663
0.898512 0.745403 0.314824
0.373495 0.953826 0.48539
0.373358 0.953872 0.484245
0.373373 0.952728 0.463081
0.372625 0.951019 0.434806
0.371176 0.949859 0.413931
0.371206 0.950072 0.415915
0.370794 0.949813 0.411154
0.372274 0.949737 0.412955
0.374411 0.943221 0.410605
0.398245 0.934005 0.402014
0.410361 0.924117 0.388174
0.415198 0.91873 0.383215
0.432654 0.918914 0.375799
0.508034 0.928512 0.357351
0.615793 0.922744 0.3346
0.665492 0.897032 0.309682
0.69366 0.847272 0.266987
0.741665 0.814633 0.258473
0.790494 0.823133 0.287572
0.830808 0.819715 0.307408
0.85951 0.819318 0.324742
0.880385 0.819806 0.338857
0.899428 0.821561 0.353185
0.916121 0.823011 0.366064
0.91516 0.819821 0.363699
0.914305 0.817136 0.361624
0.913741 0.815152 0.360113
0.913512 0.813001 0.358801
0.912932 0.810727 0.357198
0.912139 0.808682 0.355596
0.911482 0.806775 0.354116
0.911147 0.805554 0.353094
0.910796 0.804257 0.351751
0.376547 0.954803 0.496071
0.374365 0.954452 0.491447
0.373419 0.953201 0.469352
0.372946 0.951568 0.442573
0.37145 0.950118 0.418112
0.37142 0.950286 0.419318
0.371191 0.950149 0.416526
0.371084 0.950057 0.415
0.375189 0.950576 0.418585
0.409033 0.955871 0.423957
0.443046 0.961196 0.429038
0.466331 0.964004 0.434836
0.483513 0.965682 0.438148
0.524041 0.973709 0.432624
0.628336 0.97351 0.400809
0.704585 0.966232 0.391409
0.729076 0.932097 0.359655
0.751705 0.886381 0.322927
0.795407 0.864256 0.321798
0.842435 0.873701 0.352422
0.877424 0.872007 0.370352
0.902251 0.871397 0.384588
0.920348 0.872312 0.396353
0.933257 0.872679 0.404822
0.934325 0.871107 0.40473
0.933181 0.869001 0.402884
0.931502 0.866758 0.400565
0.930129 0.864454 0.398444
0.92903 0.862516 0.39675
0.927855 0.860716 0.395224
0.927214 0.859373 0.394263
0.926741 0.858244 0.393439
0.926329 0.857389 0.392386
0.380941 0.955657 0.502785
0.375937 0.954849 0.495537
0.373449 0.953307 0.470603
0.372961 0.951598 0.442817
0.371267 0.94992 0.414267
0.370703 0.94963 0.408667
0.371176 0.950134 0.416434
0.371099 0.950072 0.415305
0.372519 0.950408 0.419745
0.397177 0.954559 0.427924
0.439368 0.962036 0.433936
0.474617 0.968917 0.438453
0.493935 0.976333 0.451759
0.525383 0.987335 0.457694
0.60116 0.997971 0.441306
0.698924 0.985565 0.412894
0.753338 0.976196 0.408164
0.778363 0.956451 0.394446
0.804761 0.917418 0.368887
0.848905 0.910719 0.381872
0.889509 0.918929 0.407568
0.919295 0.919036 0.423407
0.94107 0.919478 0.435828
0.95555 0.920653 0.444862
0.96199 0.921859 0.449393
0.960769 0.919371 0.447303
0.959838 0.917372 0.44564
0.958831 0.915312 0.443946
0.958343 0.914015 0.443
0.957641 0.912306 0.44181
0.95668 0.910674 0.440589
0.955688 0.909422 0.439704
0.954726 0.908507 0.438621
0.38407 0.955871 0.505302
0.377386 0.954696 0.4963
0.373434 0.953857 0.484993
0.373449 0.952041 0.454612
0.372534 0.950347 0.426154
0.371084 0.949096 0.403128
0.371588 0.949645 0.414603
0.371496 0.949569 0.413458
0.371588 0.949645 0.414649
0.380194 0.951308 0.422156
0.43183 0.961105 0.435264
0.470497 0.96849 0.437934
0.491951 0.976104 0.450919
0.519585 0.98584 0.457801
0.57322 0.998932 0.454368
0.67541 0.994797 0.424048
0.748486 0.980514 0.411749
0.788907 0.976379 0.415335
0.822293 0.969879 0.418448
0.857832 0.945891 0.411688
0.897612 0.947326 0.429984
0.931044 0.955688 0.452049
0.956573 0.957504 0.466575
0.972961 0.957794 0.475654
0.985214 0.960632 0.484215
0.98497 0.959213 0.483238
0.984039 0.957641 0.481788
0.983185 0.956054 0.480369
0.982254 0.954345 0.478828
0.981598 0.953063 0.477836
0.980987 0.951995 0.477119
0.980468 0.951186 0.476936
0.97998 0.950454 0.476692
0.384329 0.956649 0.511238
0.377722 0.954543 0.493141
0.373251 0.95465 0.494484
0.373556 0.953185 0.470146
0.373098 0.951354 0.441703
0.371572 0.949508 0.411933
0.371069 0.949172 0.40441
0.371527 0.949599 0.413931
0.371527 0.949599 0.413962
0.373068 0.950088 0.418555
0.418982 0.95845 0.431357
0.458762 0.965957 0.435615
0.487877 0.974807 0.449348
0.519097 0.985931 0.458183
0.566308 0.998932 0.461997
0.649134 0.998932 0.445991
0.733242 0.998932 0.431739
0.784237 0.986648 0.423941
0.820691 0.978897 0.425711
0.862837 0.976913 0.437491
0.9037 0.971618 0.449409
0.935988 0.972595 0.464729
0.960998 0.974868 0.478904
0.980621 0.978119 0.491173
0.99675 0.979202 0.501091
0.999451 0.979187 0.502739
0.999527 0.97911 0.502754
0.999298 0.97908 0.502632
0.998962 0.97908 0.502449
0.998596 0.979049 0.502373
0.998444 0.978866 0.502464
0.99852 0.978592 0.502876
0.998734 0.978393 0.502678
0.383215 0.957595 0.519677
0.377523 0.954849 0.493324
0.373068 0.954757 0.49456
0.373129 0.954162 0.48539
0.373175 0.952163 0.4542
0.372519 0.95053 0.427329
0.37084 0.948989 0.400717
0.371664 0.949722 0.415732
0.371466 0.949538 0.413001
0.371679 0.949737 0.416068
0.401236 0.955245 0.426764
0.44686 0.963653 0.433326
0.480934 0.97232 0.445014
0.512016 0.982589 0.45481
0.552758 0.998001 0.461601
0.621805 0.998932 0.453574
0.713909 0.998932 0.435737
0.774044 0.991989 0.427298
0.813809 0.98056 0.425284
0.853269 0.978576 0.435523
0.897063 0.975875 0.449775
0.932906 0.976135 0.465476
0.958724 0.976364 0.478264
0.978393 0.978988 0.490089
0.995834 0.981476 0.501122
1 0.98175 0.504814
1 0.981765 0.505302
1 0.981811 0.505272
1 0.981918 0.505196
1 0.982071 0.505104
1 0.982147 0.505287
1 0.982086 0.505806
1 0.981933 0.506432
0.381903 0.958144 0.527657
0.377218 0.955322 0.497978
0.37319 0.954406 0.489326
0.372992 0.954894 0.495369
0.373342 0.95317 0.467903
0.37293 0.951263 0.439139
0.371206 0.949279 0.405417
0.371435 0.949508 0.412634
0.371511 0.949584 0.413733
0.371557 0.94963 0.414405
0.38793 0.952804 0.423178
0.431769 0.960983 0.432609
0.476509 0.970794 0.441703
0.505943 0.980026 0.451911
0.542779 0.994461 0.460945
0.601877 0.998932 0.457862
0.694865 0.998932 0.43798
0.763897 0.993515 0.4271
0.806409 0.981857 0.424521
0.843717 0.978729 0.432486
0.887449 0.975021 0.445335
0.925795 0.976165 0.462242
0.953384 0.976608 0.475654
0.97406 0.978134 0.48719
0.991958 0.981033 0.498497
1 0.981765 0.504051
1 0.981796 0.505074
1 0.981842 0.505058
1 0.981933 0.504997
1 0.982086 0.504982
1 0.982162 0.505058
1 0.982162 0.505608
1 0.982101 0.506203
0.384955 0.959823 0.539055
0.380621 0.956512 0.508247
0.375738 0.954559 0.489143
0.37351 0.955093 0.497017
0.373098 0.953948 0.480613
0.373037 0.951843 0.448463
0.371923 0.94995 0.417639
0.370947 0.949081 0.401923
0.371496 0.949569 0.413397
0.371542 0.949615 0.414191
0.379843 0.9514 0.420615
0.422248 0.959243 0.432242
0.470954 0.969009 0.438865
0.499931 0.97763 0.449073
0.533852 0.991073 0.4598
0.586542 0.998932 0.459464
0.678569 0.998932 0.440208
0.753872 0.995956 0.428183
0.800046 0.984222 0.425162
0.836332 0.979126 0.430518
0.879454 0.976059 0.443
0.919615 0.976883 0.459998
0.948302 0.976822 0.473274
0.96968 0.977707 0.484642
0.988251 0.980667 0.496178
1 0.981765 0.503594
1 0.981811 0.504891
1 0.981857 0.50486
1 0.981964 0.504784
1 0.982101 0.504738
1 0.982193 0.504845
1 0.982193 0.505287
1 0.982132 0.505898
0.388525 0.961791 0.549935
0.386038 0.95816 0.520104
0.381628 0.955444 0.494942
0.377005 0.955383 0.497002
0.3738 0.954772 0.491096
0.373114 0.952575 0.458686
0.372534 0.950713 0.430289
0.371038 0.949142 0.403555
0.371542 0.949599 0.414023
0.371542 0.949599 0.414176
0.374426 0.950393 0.419409
0.420218 0.958816 0.431724
0.4645 0.967453 0.437095
0.49427 0.97586 0.447272
0.526955 0.988464 0.458686
0.576013 0.998932 0.459922
0.665217 0.998932 0.441627
0.745937 0.998932 0.431022
0.794537 0.986877 0.426413
0.830076 0.979889 0.429313
0.873472 0.978241 0.442405
0.914183 0.977584 0.458122
0.943679 0.976959 0.471107
0.96643 0.977401 0.482795
0.984604 0.980377 0.494041
0.998962 0.981933 0.5028
1 0.981857 0.504784
1 0.981872 0.504784
1 0.981964 0.504723
1 0.98201 0.504677
