bundles/resolve-cinematic-luts/Phantom Luts/Canon Alexa LUT/C-Log 3/Neutral Canon CL3.cube
TITLE "Generated by Resolve"
LUT_3D_SIZE 33
0.0142367 0.0142367 0.0142367
0.0142367 0.0142367 0.0142367
0.0322423 0.013611 0.0150454
0.130251 0.00537118 0.0240024
0.194812 0.0012665 0.0297704
0.250721 0.00161746 0.0373388
0.305196 0.00172427 0.0476692
0.361883 0 0.0632486
0.415488 0 0.0852064
0.469871 0 0.105058
0.524819 0.00396735 0.121126
0.58085 0.00396735 0.14641
0.637781 0.00396735 0.171527
0.696712 0.00396735 0.197818
0.75787 0.00396735 0.227649
0.823041 0.00396735 0.26038
0.885588 0.00396735 0.297459
0.942718 0.00396735 0.337407
0.950423 0.00396735 0.352728
0.951431 0.00396735 0.363851
0.952056 0.00396735 0.373648
0.952804 0.00396735 0.382849
0.953429 0.00396735 0.391196
0.953674 0.00396735 0.398596
0.954116 0.00396735 0.405112
0.954482 0.00396735 0.410834
0.954772 0.00396735 0.415808
0.954849 0.00396735 0.420142
0.954955 0.00396735 0.423636
0.955093 0.00396735 0.426886
0.9552 0.00396735 0.429633
0.955291 0.00396735 0.431937
0.955383 0.00396735 0.433631
0.0142367 0.0142367 0.0142367
0.0142367 0.0142367 0.0142367
0.0142367 0.0142367 0.0142367
0.0721752 0.0142824 0.0145266
0.149828 0.00733959 0.0210575
0.208743 0.00343328 0.0246586
0.264317 0.000564584 0.0267338
0.322362 0 0.0284733
0.378775 0 0.0319829
0.434058 0.00396735 0.0430304
0.488518 0.00396735 0.0564584
0.542916 0.00396735 0.0752575
0.598672 0.00396735 0.110613
0.661433 0.00396735 0.136706
0.72459 0.00396735 0.16614
0.792004 0.00396735 0.194781
0.859876 0.00396735 0.233005
0.923354 0.00396735 0.275959
0.944121 0.00396735 0.301808
0.94609 0.00396735 0.314641
0.947555 0.00396735 0.326955
0.94873 0.00396735 0.337789
0.94992 0.00396735 0.34757
0.950774 0.00396735 0.356313
0.951461 0.00396735 0.364263
0.951797 0.00396735 0.37055
0.95227 0.00396735 0.376211
0.952651 0.00396735 0.381292
0.952987 0.00396735 0.385336
0.953231 0.00396735 0.388952
0.95346 0.00396735 0.391745
0.953597 0.00396735 0.394247
0.953582 0.00396735 0.396216
0.0142367 0.0142367 0.0142367
0.0142367 0.0142367 0.0142367
0.0142367 0.0142367 0.0142367
0.0223697 0.0185702 0.0141756
0.0958419 0.0260014 0.0135653
0.158694 0.0251316 0.0151064
0.219242 0.0238041 0.0162051
0.281285 0.0218814 0.0171054
0.346059 0.0154421 0.0187533
0.40618 0.00344854 0.0213169
0.463691 0 0.0300755
0.521035 0 0.0426032
0.577752 0.00396735 0.0621805
0.634623 0.00396735 0.093431
0.69044 0.00396735 0.112673
0.751019 0.00396735 0.141466
0.822354 0.00396735 0.176287
0.888792 0.00396735 0.211398
0.923522 0.00396735 0.241398
0.929854 0.00396735 0.256626
0.935531 0.00396735 0.27216
0.94052 0.00396735 0.287007
0.944198 0.00396735 0.300206
0.945754 0.00396735 0.31075
0.946944 0.00396735 0.320027
0.947875 0.00396735 0.328313
0.948486 0.00396735 0.33492
0.949187 0.00396735 0.340719
0.949737 0.00396735 0.345861
0.950164 0.00396735 0.34992
0.950484 0.00396735 0.353491
0.950774 0.00396735 0.356283
0.951003 0.00396735 0.358724
0 0.061799 0.0150759
0.0087129 0.0414435 0.00994888
0.0188602 0.0285954 0.0136416
0.0188296 0.0195773 0.013901
0.0398566 0.0281987 0.0151675
0.109926 0.0381323 0.0134737
0.170535 0.0424048 0.0109865
0.236149 0.0431067 0.0113832
0.307164 0.0387732 0.0151827
0.375998 0.0315862 0.0190585
0.440009 0.0230869 0.0217288
0.502205 0.00773632 0.0250858
0.561181 0 0.0373083
0.619104 0.00396735 0.0601205
0.676493 0.00396735 0.0914778
0.735149 0.00396735 0.116625
0.795773 0.00396735 0.147356
0.863508 0.00396735 0.184131
0.907057 0.00396735 0.20206
0.907912 0.00396735 0.204776
0.914382 0.00396735 0.218708
0.920897 0.00396735 0.232441
0.926345 0.00396735 0.245518
0.931273 0.00396735 0.257725
0.935729 0.00396735 0.269245
0.93933 0.00396735 0.279683
0.942321 0.00396735 0.288777
0.944244 0.00396735 0.296147
0.945159 0.00396735 0.301961
0.945876 0.00396735 0.306874
0.946471 0.00396735 0.31104
0.946868 0.00396735 0.314504
0.947188 0.00396735 0.317525
0.00396735 0.142702 0.0149691
0.00396735 0.128161 0
0.0190585 0.111879 0.00132753
0.0326085 0.10071 0.00714122
0.0698863 0.0879683 0.00469978
0.108507 0.098558 0.00817884
0.159899 0.102342 0.0133059
0.218021 0.0979782 0.016083
0.274693 0.0914473 0.00877394
0.339452 0.0683757 0.00891127
0.409506 0.0520485 0.0161746
0.478477 0.0367285 0.0225528
0.543481 0.0232395 0.0276188
0.605295 0.00155642 0.0343633
0.664317 0.00396735 0.0612955
0.722622 0.00396735 0.0979477
0.784268 0.00396735 0.124483
0.84271 0.00396735 0.160937
0.907439 0.00396735 0.198871
0.9084 0.00396735 0.200015
0.908034 0.00396735 0.20061
0.907652 0.00396735 0.201175
0.907301 0.00396735 0.201709
0.91107 0.00396735 0.208957
0.915908 0.00396735 0.219593
0.92047 0.00396735 0.229313
0.924208 0.00396735 0.23798
0.927337 0.00396735 0.245289
0.930159 0.00396735 0.251942
0.932296 0.00396735 0.257664
0.934264 0.00396735 0.262776
0.935927 0.00396735 0.266941
0.937285 0.00396735 0.270619
0.00396735 0.202716 0.0163577
0.00396735 0.191836 0
0.004654 0.174456 0.00396735
0.0309758 0.162524 0
0.0789807 0.144335 0
0.122026 0.141176 0
0.155261 0.145647 0
0.21001 0.150851 0.00360113
0.276982 0.143404 0.0120699
0.343694 0.130678 0.0175021
0.39617 0.121172 0.00839246
0.454536 0.106462 0.0107729
0.51838 0.0679484 0.0201572
0.58735 0.0322271 0.030045
0.651026 0.00608835 0.0352941
0.711116 0 0.0670024
0.771618 0.00396735 0.105653
0.832227 0.00396735 0.137041
0.887465 0.00396735 0.178927
0.908522 0.00396735 0.195026
0.90901 0.00396735 0.196796
0.909377 0.00396735 0.198428
0.909056 0.00396735 0.198978
0.908751 0.00396735 0.199481
0.908461 0.00396735 0.199924
0.908202 0.00396735 0.200336
0.907973 0.00396735 0.200702
0.90808 0.00396735 0.201541
0.910369 0.00396735 0.205661
0.912322 0.00396735 0.20943
0.913741 0.00396735 0.212802
0.915679 0.00396735 0.216724
0.917296 0.00396735 0.220203
0.00396735 0.259876 0.0191196
0.00396735 0.250996 0.00396735
0.00396735 0.236164 0.00396735
0.0278782 0.22208 0.00396735
0.049836 0.211368 0.00396735
0.115801 0.19588 0.00396735
0.167788 0.191791 0.00396735
0.204547 0.193164 0.00396735
0.261875 0.197971 0
0.335058 0.191684 0.0043183
0.401984 0.176608 0.0174258
0.456962 0.163821 0.0170443
0.509224 0.149157 0.0119478
0.567254 0.123018 0.0175174
0.632136 0.0868086 0.0269322
0.698451 0.0191043 0.0395666
0.758755 0 0.0745251
0.820157 0.00396735 0.112398
0.875364 0.00396735 0.151949
0.906844 0.00396735 0.178973
0.907103 0.00396735 0.183185
0.907301 0.00396735 0.187594
0.907301 0.00396735 0.190646
0.907774 0.00396735 0.192203
0.908186 0.00396735 0.193698
0.908522 0.00396735 0.19501
0.908812 0.00396735 0.196185
0.909087 0.00396735 0.197024
0.9093 0.00396735 0.197894
0.909361 0.00396735 0.198474
0.909239 0.00396735 0.198672
0.909133 0.00396735 0.19884
0.909041 0.00396735 0.198978
0.00396735 0.321019 0.0247196
0.00396735 0.313817 0.00396735
0.00396735 0.300877 0.00396735
0.0193179 0.285527 0.00396735
0.0361791 0.275959 0.00396735
0.087892 0.26096 0.00396735
0.151125 0.250477 0.00396735
0.213703 0.24448 0.00396735
0.257221 0.244083 0.00396735
0.318135 0.248905 0.00396735
0.389181 0.245335 0
0.45481 0.229389 0.0128634
0.518364 0.208698 0.0230869
0.566445 0.196429 0.0171054
0.62089 0.175158 0.0192569
0.679255 0.14139 0.0238041
0.74934 0.0905776 0.0373541
0.817166 0.00674449 0.0572213
0.863264 0.00396735 0.118135
0.913222 0.00396735 0.163363
0.913085 0.00396735 0.166171
0.911665 0.00396735 0.167971
0.910155 0.00396735 0.169726
0.908705 0.00396735 0.171359
0.907378 0.00396735 0.172702
0.906615 0.00396735 0.174517
0.906722 0.00396735 0.17705
0.906859 0.00396735 0.179294
0.906996 0.00396735 0.181201
0.907103 0.00396735 0.183078
0.907164 0.00396735 0.18468
0.90724 0.00396735 0.186038
0.907286 0.00396735 0.187182
0.00396735 0.38172 0.0336004
0.00396735 0.378347 0.00396735
0.00396735 0.368429 0.00396735
0 0.353262 0.00396735
0.0311589 0.342 0.00396735
0.0482948 0.3337 0.00396735
0.121386 0.318975 0.00396735
0.188754 0.307332 0.00396735
0.263035 0.300298 0.00396735
0.31313 0.298634 0.00396735
0.373266 0.303899 0.00396735
0.44097 0.303685 0.00396735
0.506477 0.287953 0.00747692
0.571084 0.265888 0.0232242
0.629862 0.243778 0.0287633
0.676158 0.22945 0.0219883
0.731991 0.198352 0.0252232
0.79443 0.155245 0.0330205
0.869383 0.0833448 0.0597543
0.921202 0.00282292 0.0999161
0.929641 0.00396735 0.125277
0.923079 0.00396735 0.13994
0.920989 0.00396735 0.154894
0.919814 0.00396735 0.156664
0.91873 0.00396735 0.15819
0.917739 0.00396735 0.159426
0.916823 0.00396735 0.160678
0.916014 0.00396735 0.161791
0.915434 0.00396735 0.16286
0.914946 0.00396735 0.16379
0.914412 0.00396735 0.164508
0.913954 0.00396735 0.165103
0.913573 0.00396735 0.165576
0.00396735 0.441978 0.0485695
0.00396735 0.442023 0.00396735
0.00396735 0.436103 0.00396735
0.00396735 0.420844 0.00396735
0.022385 0.407523 0.00396735
0.0369421 0.398657 0.00396735
0.067277 0.38912 0.00396735
0.16112 0.379568 0.00396735
0.233173 0.364691 0.00396735
0.318074 0.358389 0.00396735
0.369757 0.356054 0.00396735
0.426017 0.361517 0.00396735
0.491127 0.363455 0.00396735
0.557794 0.351797 0.000427253
0.621088 0.331151 0.0217288
0.685374 0.303868 0.0332647
0.738384 0.282292 0.0318303
0.787305 0.258259 0.0295262
0.843961 0.219028 0.0371557
0.901656 0.162539 0.0515297
0.941772 0.102998 0.076173
0.943954 0.0623484 0.0817731
0.943786 0.0301976 0.0839551
0.940764 0.0119326 0.0931411
0.936767 0.00146487 0.106233
0.933547 0 0.115053
0.930663 0.00396735 0.122515
0.927337 0.00396735 0.13077
0.924849 0.00396735 0.136934
0.924361 0.00396735 0.138048
0.923949 0.00396735 0.138994
0.923583 0.00396735 0.139803
0.923018 0.00396735 0.139895
0.00396735 0.501732 0.0636301
0.00396735 0.503212 0.00793469
0.00396735 0.499229 0.00396735
0.00396735 0.488807 0.00396735
0.000717174 0.475181 0.00396735
0.0356298 0.463249 0.00396735
0.0498665 0.454627 0.00396735
0.0982071 0.445258 0.00396735
0.205203 0.439597 0.00396735
0.284916 0.419455 0.00396735
0.373999 0.415198 0.00396735
0.425315 0.412406 0.00396735
0.478584 0.417807 0.00396735
0.540871 0.420706 0.00396735
0.607599 0.414069 0.00396735
0.669749 0.394232 0.0184024
0.735149 0.369924 0.0327306
0.80087 0.339574 0.0448768
0.844343 0.318853 0.0404822
0.889311 0.285908 0.0441291
0.927825 0.242496 0.0537575
0.928008 0.223285 0.0544594
0.928054 0.203632 0.0549783
0.928908 0.184283 0.0560616
0.930709 0.166094 0.0586404
0.933471 0.146639 0.0628824
0.936965 0.126665 0.0682383
0.939941 0.112596 0.0726177
0.941955 0.100694 0.0766461
0.943221 0.0861677 0.0795911
0.943664 0.0698711 0.0810864
0.944045 0.0571756 0.0822003
0.943999 0.0479133 0.0827955
0.00396735 0.560159 0.0746166
0.00396735 0.562432 0.029984
0.00396735 0.560494 0.00396735
0.00396735 0.553964 0.00396735
0.00396735 0.542901 0.00396735
0.0229648 0.530983 0.00396735
0.0485084 0.519554 0.00396735
0.0700389 0.510491 0.00396735
0.134646 0.502754 0.00396735
0.255634 0.497978 0.00396735
0.343374 0.474205 0.00396735
0.428626 0.471992 0.00396735
0.480476 0.468559 0.00396735
0.529183 0.473335 0.00396735
0.590173 0.476387 0.00396735
0.656352 0.473976 0.00396735
0.71812 0.456275 0.0123445
0.783337 0.433463 0.0314031
0.848814 0.405097 0.0476539
0.902464 0.373205 0.0678874
0.931502 0.351354 0.0588693
0.933623 0.336278 0.055375
0.932372 0.323079 0.0542306
0.931273 0.309926 0.0540169
0.930297 0.297459 0.0537881
0.92932 0.285924 0.0534676
0.928512 0.275044 0.0532235
0.928161 0.265431 0.0532845
0.928008 0.256916 0.0534524
0.927871 0.249363 0.0535744
0.927871 0.242725 0.0537881
0.928008 0.237232 0.0540627
0.927886 0.232364 0.0541085
0.00396735 0.618631 0.0907759
0.00396735 0.621424 0.0538033
0.00396735 0.622019 0.00396735
0.00396735 0.618387 0.00396735
0.00396735 0.608606 0.00396735
0 0.597208 0.00396735
0.0373083 0.58584 0.00396735
0.0639811 0.575357 0.00396735
0.0979629 0.565408 0.00396735
0.196628 0.559091 0.00396735
0.310994 0.555016 0.00396735
0.40032 0.527276 0.00396735
0.481575 0.52694 0.00396735
0.533272 0.522957 0.00396735
0.578637 0.526909 0.00396735
0.63856 0.529747 0.00396735
0.700191 0.528923 0.00396735
0.765805 0.517021 0.00155642
0.829282 0.495964 0.0268559
0.886976 0.470619 0.0453193
0.938125 0.4392 0.0707103
0.957382 0.416388 0.0879072
0.956741 0.405188 0.0893721
0.95523 0.396445 0.0869612
0.952804 0.388708 0.0830091
0.950042 0.382315 0.0791028
0.947311 0.376745 0.0748608
0.944305 0.371664 0.0708476
0.942016 0.367376 0.0680095
0.940093 0.36321 0.0654002
0.938567 0.359411 0.0633097
0.937453 0.356405 0.0619211
0.936614 0.353445 0.0606241
0.00396735 0.678798 0.103929
0.00396735 0.681819 0.0833753
0.00396735 0.684092 0.00608835
0.00396735 0.681575 0.00396735
0.00396735 0.675715 0.00396735
0.00396735 0.665141 0.00396735
0.0210422 0.652674 0.00396735
0.0637064 0.640055 0.00396735
0.0894179 0.630152 0.00396735
0.123064 0.621393 0.00396735
0.265797 0.61622 0.00396735
0.368597 0.610452 0.00396735
0.457053 0.578882 0.00396735
0.533379 0.58117 0.00396735
0.584833 0.576791 0.00396735
0.626184 0.579293 0.00396735
0.684977 0.58233 0.00396735
0.743145 0.582284 0.00396735
0.81181 0.576959 0.00396735
0.868147 0.557763 0.0191043
0.918776 0.535119 0.0368811
0.953918 0.511681 0.0549172
0.95436 0.502342 0.0578927
0.955032 0.493568 0.0612192
0.955627 0.48542 0.0638285
0.956085 0.477714 0.0669566
0.95642 0.470649 0.070161
0.956817 0.464561 0.0727092
0.957061 0.459007 0.0748302
0.95729 0.454459 0.0767071
0.957321 0.450294 0.0781415
0.957259 0.446754 0.0792706
0.957321 0.443702 0.0800641
0.00396735 0.741863 0.115038
0.00396735 0.745052 0.10692
0.00396735 0.749081 0.0316777
0.00396735 0.747509 0
0.00396735 0.744244 0
0.00396735 0.734188 0.00396735
0.00396735 0.722805 0.00396735
0.0424506 0.708858 0.00396735
0.0935073 0.695659 0.00396735
0.111299 0.685466 0
0.170016 0.680583 0.00396735
0.334615 0.675792 0.00396735
0.424582 0.664332 0.00396735
0.512276 0.628992 0
0.583261 0.634668 0.00396735
0.634928 0.629633 0.00396735
0.671946 0.631006 0.00396735
0.727886 0.634272 0.00396735
0.78645 0.634272 0.00396735
0.844495 0.630533 0
0.900267 0.619455 0.00196841
0.943297 0.598245 0.0266423
0.950362 0.588373 0.0313268
0.950576 0.581292 0.033051
0.951125 0.574823 0.0350042
0.95137 0.568872 0.0369573
0.951492 0.563424 0.0384527
0.951537 0.558556 0.0398718
0.951873 0.55436 0.0412909
0.951843 0.550622 0.0422065
0.952071 0.547417 0.0430915
0.952331 0.544747 0.044007
0.952239 0.542412 0.0445716
0.00396735 0.80911 0.129503
0.00396735 0.813016 0.126284
0.00396735 0.817472 0.0666819
0.00396735 0.818662 0.0090486
0.00396735 0.815396 0.00389105
0.00396735 0.811292 0.00062562
0.00396735 0.797528 0.00396735
0.0249485 0.782757 0
0.0810559 0.766567 0.00396735
0.10956 0.753567 0
0.136263 0.742092 0.00520333
0.240116 0.739254 0.00396735
0.398978 0.737774 0.00396735
0.480262 0.716869 0.00396735
0.566293 0.677791 0.0146792
0.632013 0.687877 0.00396735
0.683787 0.682658 0.00396735
0.720226 0.683085 0.00396735
0.769863 0.685893 0.00396735
0.825772 0.685588 0
0.872648 0.682857 0
0.920623 0.675395 0.000411994
0.946273 0.667399 0.00047303
0.946975 0.662089 0.00222782
0.947036 0.656519 0.00488289
0.947051 0.651362 0.00758373
0.947448 0.646815 0.010132
0.947433 0.642603 0.012253
0.947768 0.639048 0.0144045
0.947875 0.635904 0.0158999
0.947951 0.633112 0.0173342
0.948074 0.630701 0.0183719
0.948165 0.628656 0.0190127
0.00396735 0.873838 0.148455
0.00396735 0.877485 0.149798
0.00396735 0.88191 0.102464
0.00396735 0.885786 0.0227207
0.00396735 0.883848 0.0181125
0.00396735 0.880156 0.0118868
0.00396735 0.871138 0.000213626
0 0.856901 0.00138857
0.0589303 0.840299 0
0.114794 0.824445 0
0.132799 0.812985 0.0145113
0.183261 0.804486 0.0160983
0.341207 0.798749 0.00396735
0.460517 0.803998 0.00396735
0.534798 0.76817 0.00396735
0.618235 0.728511 0.0267643
0.679698 0.7411 0.00396735
0.731579 0.735515 0.00396735
0.769314 0.735149 0.00396735
0.809125 0.736477 0
0.856016 0.736141 0.000198367
0.898955 0.732967 0.0055848
0.933532 0.727443 0.00851453
0.93373 0.723674 0.00790417
0.934462 0.720211 0.00764477
0.934874 0.716731 0.00700389
0.935439 0.713527 0.00654612
0.93611 0.71075 0.00624094
0.93669 0.708354 0.00595102
0.937041 0.706142 0.00555428
0.937453 0.704204 0.0053254
0.937835 0.702525 0.00511177
0.938155 0.701106 0.00491341
0.00396735 0.932952 0.166293
0.00396735 0.936461 0.169574
0.00396735 0.940688 0.120851
0.00396735 0.945266 0.0531624
0.00396735 0.944945 0.0284886
0.00396735 0.940993 0.0201267
0.00396735 0.938369 0.019852
0.00396735 0.925109 0.013611
0.0380713 0.909407 0.0153506
0.107744 0.892164 0.00970474
0.138964 0.878355 0.0191196
0.169696 0.866926 0.0269932
0.251118 0.863813 0.0215915
0.427298 0.857801 0.00396735
0.518181 0.856229 0.00396735
0.589685 0.816129 0.0157321
0.668254 0.782147 0.035462
0.726101 0.79527 0.00396735
0.778317 0.78941 0.00396735
0.814679 0.787884 0
0.842893 0.786786 0.00611887
0.881346 0.786938 0.0122835
0.918318 0.784085 0.0179141
0.930938 0.780392 0.0187991
0.930968 0.77731 0.0182498
0.931136 0.774304 0.0177768
0.931441 0.77174 0.0173648
0.931472 0.76939 0.0167086
0.931579 0.767147 0.0161593
0.93167 0.765164 0.0157015
0.931731 0.763455 0.0153201
0.931762 0.76199 0.0149996
0.931716 0.760769 0.014725
0.00396735 0.979828 0.183566
0.00396735 0.982651 0.187823
0.00396735 0.986084 0.141482
0.00396735 0.986557 0.0846571
0.00396735 0.986557 0.0385748
0.00396735 0.986557 0.0337072
0.00396735 0.984283 0.0265507
0.00396735 0.979126 0.0240024
0.0212558 0.96672 0.0252842
0.0982834 0.95079 0.0253452
0.150103 0.936187 0.0222477
0.172137 0.926146 0.0356603
0.219867 0.917037 0.038941
0.356344 0.914 0.0165713
0.49958 0.913848 0.00396735
0.575082 0.897887 0.00396735
0.645487 0.856764 0.0420233
0.71696 0.832914 0.0485542
0.77232 0.845075 0.00273136
0.820935 0.83917 0.00163272
0.853986 0.836423 0.0109102
0.879286 0.835019 0.0206302
0.904021 0.833997 0.0264591
0.926375 0.832746 0.0287175
0.926436 0.830365 0.0281682
0.926558 0.828061 0.0276188
0.926452 0.825986 0.0269932
0.926665 0.824109 0.0265812
0.92694 0.822477 0.0262455
0.927047 0.820859 0.025864
0.927184 0.81944 0.0255436
0.927275 0.818189 0.0252689
0.927367 0.817121 0.0250248
0.00396735 0.986557 0.202838
0.00396735 0.986557 0.204883
0.00396735 0.986557 0.155978
0.00396735 0.986557 0.0988479
0.00396735 0.986557 0.0530404
0.00396735 0.986557 0.052018
0.00396735 0.986557 0.0344091
0.00396735 0.986557 0.0339208
0.0103609 0.986557 0.0349584
0.0878309 0.986557 0.0367132
0.147662 0.980346 0.03299
0.182788 0.971466 0.0439765
0.218021 0.962905 0.0557259
0.300008 0.959319 0.0496986
0.467491 0.953689 0
0.565209 0.957916 0.00396735
0.630213 0.927749 0.0285801
0.700114 0.888365 0.0847334
0.763684 0.876081 0.0686351
0.81474 0.887205 0.0238804
0.857969 0.882582 0.0236057
0.888243 0.879515 0.0292821
0.91046 0.878035 0.0363317
0.927504 0.876356 0.0445411
0.92929 0.874495 0.0452735
0.928573 0.872648 0.04448
0.92781 0.871138 0.0437324
0.927275 0.869642 0.0431678
0.926696 0.868162 0.0426032
0.926192 0.866835 0.0422065
0.926192 0.865751 0.0416419
0.926192 0.864805 0.0411383
0.926192 0.863996 0.0406958
0.00396735 0.986557 0.207706
0.00396735 0.986557 0.197528
0.00396735 0.986557 0.149111
0.00396735 0.986557 0.0982071
0.00396735 0.986557 0.0397498
0.00396735 0.986557 0.0411383
0.00396735 0.986557 0.0348363
0.00396735 0.986557 0.0371557
0 0.986557 0.0474861
0.0747539 0.986557 0.0509651
0.146197 0.986557 0.0500343
0.200626 0.986557 0.0521401
0.226734 0.986557 0.0751507
0.278676 0.986557 0.0798047
0.408469 0.986328 0.0452735
0.548913 0.985641 0
0.622568 0.977722 0.0180819
0.684169 0.947524 0.07776
0.754299 0.912596 0.119234
0.808347 0.913985 0.0958267
0.852323 0.923415 0.0469673
0.889906 0.920195 0.0480964
0.916991 0.917403 0.0579995
0.935454 0.916152 0.071397
0.943114 0.914992 0.078294
0.942672 0.91368 0.076463
0.942428 0.912581 0.074876
0.942107 0.91133 0.073228
0.941787 0.910124 0.0717937
0.941512 0.909026 0.0706188
0.941115 0.908095 0.0697032
0.940734 0.907301 0.0688029
0.940505 0.9066 0.06804
0.00396735 0.986557 0.204715
0.00396735 0.986557 0.211109
0.00396735 0.986557 0.170413
0.00396735 0.986557 0.118502
0.00396735 0.986557 0.0509804
0.00396735 0.986557 0.0358434
0.00396735 0.986557 0.0345312
0.00396735 0.986557 0.031281
0.00396735 0.986557 0.0326543
0.0328832 0.986557 0.0489052
0.142168 0.986557 0.071107
0.211429 0.986557 0.068986
0.238575 0.986557 0.0948806
0.280705 0.986557 0.101518
0.370993 0.986557 0.0944228
0.526635 0.986557 0.0291447
0.620005 0.986557 0.00807202
0.680415 0.986557 0.0766461
0.739422 0.961242 0.122713
0.805997 0.935943 0.152346
0.848676 0.94464 0.11664
0.885115 0.952239 0.0931563
0.917296 0.950561 0.100633
0.939773 0.948043 0.110887
0.955581 0.949264 0.107057
0.954833 0.947951 0.10898
0.954086 0.946548 0.111055
0.953368 0.945174 0.112963
0.952667 0.943832 0.114946
0.952407 0.943008 0.114229
0.952178 0.942321 0.113359
0.951919 0.941741 0.112566
0.95169 0.941283 0.112047
0.00396735 0.986557 0.21413
0.00396735 0.986557 0.2112
0.00396735 0.986557 0.19292
0.00396735 0.986557 0.148486
0.00396735 0.986557 0.0988174
0.00396735 0.986557 0.0354925
0.00396735 0.986557 0.0361791
0.00396735 0.986557 0.0294804
0.00396735 0.986557 0.031281
0.00672923 0.986557 0.0431983
0.118105 0.986557 0.0669261
0.197162 0.986557 0.069337
0.241871 0.986557 0.0965133
0.287907 0.986557 0.109422
0.371008 0.986557 0.13637
0.503609 0.986557 0.132845
0.630213 0.986557 0.157885
0.684504 0.986557 0.133974
0.734356 0.986557 0.131868
0.797635 0.969162 0.174701
0.848814 0.961944 0.175311
0.88336 0.968338 0.154177
0.913436 0.973938 0.138003
0.939849 0.974121 0.150347
0.964706 0.977783 0.117067
0.967102 0.977905 0.112795
0.967132 0.9776 0.110933
0.967086 0.977234 0.108812
0.967025 0.976867 0.106905
0.966995 0.976532 0.104936
0.966964 0.976211 0.103151
0.966934 0.975921 0.101213
0.966903 0.975677 0.0993362
0.00396735 0.986557 0.231189
0.00396735 0.986557 0.205249
0.00396735 0.986557 0.208911
0.00396735 0.986557 0.171023
0.00396735 0.986557 0.12192
0.00396735 0.986557 0.0560311
0.00396735 0.986557 0.035874
0.00396735 0.986557 0.0314794
0.00396735 0.986557 0.031281
0.00396735 0.986557 0.0384222
0.0951705 0.986557 0.0595254
0.180301 0.986557 0.0694591
0.237278 0.986557 0.0909133
0.279255 0.986557 0.107973
0.349676 0.986557 0.130999
0.472389 0.986557 0.14229
0.614664 0.986557 0.158984
0.680507 0.986557 0.168444
0.728023 0.986557 0.128862
0.788357 0.979217 0.175174
0.845289 0.966461 0.201709
0.881224 0.973602 0.183154
0.912139 0.980652 0.161181
0.936553 0.984146 0.175906
0.960266 0.983948 0.178088
0.967697 0.984634 0.171786
0.967697 0.984634 0.171786
0.967697 0.984634 0.171786
0.967697 0.984634 0.171786
0.967697 0.984634 0.171786
0.967697 0.984634 0.171786
0.967697 0.984634 0.171786
0.967697 0.984634 0.171786
0.00396735 0.986557 0.248447
0.00396735 0.986557 0.20676
0.00396735 0.986557 0.212818
0.00396735 0.986557 0.189944
0.00396735 0.986557 0.147723
0.00396735 0.986557 0.0966659
0.00396735 0.986557 0.0355993
0.00396735 0.986557 0.0363928
0.00396735 0.986557 0.031281
0.00396735 0.986557 0.034165
0.0582589 0.986557 0.0537728
0.167239 0.986557 0.0699321
0.233036 0.986557 0.0835737
0.271077 0.986557 0.106584
0.338415 0.986557 0.127947
0.445487 0.986557 0.146868
0.596719 0.986557 0.146715
0.673121 0.986557 0.172457
0.719265 0.986557 0.121202
0.778225 0.981888 0.16849
0.838697 0.965194 0.205875
0.875929 0.972503 0.18529
0.90692 0.979294 0.165835
0.932357 0.983673 0.168734
0.955673 0.983612 0.181582
0.967697 0.984634 0.171786
0.967697 0.984634 0.171786
0.967697 0.984634 0.171786
0.967697 0.984634 0.171786
0.967697 0.984634 0.171786
0.967697 0.984634 0.171786
0.967697 0.984634 0.171786
0.967697 0.984634 0.171786
0.00396735 0.986557 0.264561
0.00396735 0.986557 0.215946
0.00396735 0.986557 0.208347
0.00396735 0.986557 0.205005
0.00396735 0.986557 0.166644
0.00396735 0.986557 0.116167
0.00396735 0.986557 0.0353094
0.00396735 0.986557 0.0361486
0.00396735 0.986557 0.0301823
0.00396735 0.986557 0.031281
0.0348974 0.986557 0.0495003
0.154513 0.986557 0.0704356
0.22739 0.986557 0.07776
0.26331 0.986557 0.105516
0.328267 0.986557 0.124559
0.424048 0.986557 0.147677
0.578058 0.986557 0.137118
0.666728 0.986557 0.177356
0.712108 0.986557 0.129702
0.769116 0.984253 0.162371
0.831693 0.965728 0.205539
0.870771 0.971435 0.187366
0.902037 0.978302 0.170275
0.928313 0.983246 0.162295
0.951171 0.98349 0.184787
