bundles/resolve-cinematic-luts/Phantom Luts/Canon Alexa LUT/C-Log 3/Neutral Canon CL3-Legacy.cube
TITLE "Generated by Resolve"
LUT_3D_SIZE 5
0.031693 0.0316625 0.0316625
0.359533 0.0260777 0.0675517
0.846281 0.0293278 0.241215
0.936675 0.0294652 0.347784
0.93817 0.0294499 0.377539
0.0285954 0.322332 0.0407416
0.210269 0.241047 0.0285191
0.677714 0.157275 0.0363165
0.888945 0.0294041 0.124941
0.882017 0.0293889 0.131685
0.0296788 0.843519 0.123857
0.0601053 0.80177 0.0302434
0.63978 0.699611 0.0287633
0.930159 0.681453 0.0335546
0.934112 0.661524 0.0327611
0.0299687 0.984787 0.213703
0.0300145 0.984863 0.0451972
0.566796 0.983566 0.131823
0.968505 0.983246 0.16228
0.98085 0.983322 0.153964
0.0298772 0.984665 0.285069
0.0300145 0.984863 0.0483253
0.443992 0.983719 0.126986
0.937987 0.983246 0.152804
0.98085 0.983322 0.153964
0.0287938 0.0344091 0.244129
0.337575 0.0276188 0.31873
0.858915 0.0293126 0.49337
0.965438 0.0296483 0.572366
0.96257 0.0296788 0.594553
0.0285649 0.209827 0.198581
0.184909 0.183444 0.183658
0.73933 0.0289921 0.210773
0.937209 0.0295109 0.340261
0.938415 0.0294499 0.371008
0.0293126 0.734737 0.334462
0.0294347 0.754879 0.135653
0.611688 0.665049 0.0287633
0.943557 0.618647 0.032105
0.943954 0.584619 0.0368505
0.0298619 0.984634 0.457771
0.0298619 0.984634 0.231113
0.37557 0.983871 0.130571
0.945739 0.983307 0.16495
0.98085 0.983322 0.153964
0.0297704 0.984512 0.500832
0.0298924 0.98468 0.302586
0.262394 0.984192 0.107393
0.905135 0.983291 0.147646
0.98085 0.983322 0.153964
0.0502937 0.0480507 0.620005
0.379034 0.0363317 0.671336
0.807462 0.0294041 0.776455
0.939132 0.0297704 0.890379
0.937911 0.0298161 0.917983
0.0285954 0.140093 0.522515
0.072755 0.0417182 0.58262
0.708385 0.02916 0.687221
0.943587 0.0297398 0.766186
0.942763 0.0296178 0.787366
0.0289616 0.604334 0.595422
0.0290379 0.581796 0.574609
0.585901 0.584436 0.58497
0.983413 0.483253 0.576867
0.983276 0.441199 0.577829
0.0297704 0.963851 0.703426
0.0297398 0.979599 0.648219
0.0298772 0.984649 0.269978
0.917922 0.983063 0.321477
0.982773 0.973999 0.287526
0.0296941 0.956054 0.726986
0.0298161 0.974792 0.667918
0.0299077 0.984695 0.331991
0.825833 0.981277 0.18677
0.983322 0.983322 0.157565
0.0640879 0.0961013 0.825132
0.39733 0.0755932 0.91603
0.824369 0.0263981 0.983185
0.930892 0.0297856 0.984527
0.930892 0.0297856 0.984527
0.028809 0.172091 0.816434
0.0599527 0.0966659 0.824018
0.703151 0.0421149 0.974136
0.930892 0.0297856 0.984527
0.930892 0.0297856 0.984527
0.0289464 0.550469 0.83386
0.0289769 0.511696 0.850477
0.443427 0.452399 0.901076
0.9579 0.338125 0.982864
0.95906 0.282765 0.984024
0.0296025 0.92221 0.928786
0.029633 0.903914 0.910765
0.0295567 0.862196 0.868132
0.894743 0.89398 0.894286
0.982895 0.865263 0.891157
0.0297398 0.92668 0.956649
0.0296178 0.922606 0.933669
0.0296025 0.933867 0.83447
0.782086 0.982895 0.847807
0.982742 0.982742 0.921035
0.103456 0.0929732 0.836225
0.417075 0.0743267 0.920439
0.847562 0.0296178 0.984298
0.930892 0.0297856 0.984527
0.930892 0.0297856 0.984527
0.0287022 0.166842 0.813794
0.0981765 0.0934462 0.835187
0.711955 0.0406653 0.974945
0.930892 0.0297856 0.984527
0.930892 0.0297856 0.984527
0.0289769 0.53373 0.901976
0.0290074 0.48896 0.891066
0.417334 0.401511 0.896788
0.957916 0.260227 0.984039
0.95729 0.20412 0.984192
0.029572 0.916976 0.966278
0.0295872 0.897704 0.960159
0.0294347 0.844724 0.948119
0.856352 0.852552 0.977142
0.980941 0.82089 0.982971
0.0296483 0.931228 0.970565
0.0296483 0.931228 0.970565
0.0296483 0.931701 0.970794
0.725124 0.970001 0.976883
0.982849 0.982849 0.982849
