bundles/resolve-cinematic-luts/Phantom Luts/Canon Alexa LUT/C-Log 3/Neutral Canon CL3.cube
TITLE "Generated by Resolve"
LUT_3D_SIZE 5
0.0142367 0.0142367 0.0142367
0.415488 0 0.0852064
0.885588 0.00396735 0.297459
0.954116 0.00396735 0.405112
0.955383 0.00396735 0.433631
0.00396735 0.38172 0.0336004
0.263035 0.300298 0.00396735
0.731991 0.198352 0.0252232
0.91873 0.00396735 0.15819
0.913573 0.00396735 0.165576
0.00396735 0.873838 0.148455
0.0589303 0.840299 0
0.679698 0.7411 0.00396735
0.934462 0.720211 0.00764477
0.938155 0.701106 0.00491341
0.00396735 0.986557 0.248447
0.00396735 0.986557 0.031281
0.596719 0.986557 0.146715
0.955673 0.983612 0.181582
0.967697 0.984634 0.171786
0.00396735 0.986557 0.328008
0.00396735 0.986557 0.0360571
0.476371 0.986557 0.141314
0.933196 0.983764 0.170153
0.967697 0.984634 0.171786
0.0047303 0.0219272 0.302419
0.394751 0.00047303 0.37789
0.895048 0.00396735 0.544457
0.971939 0.00396735 0.621988
0.970291 0.00396735 0.644694
0.00396735 0.264027 0.250202
0.233463 0.233463 0.233463
0.794888 0.00396735 0.263294
0.954391 0.00396735 0.397772
0.95552 0.00396735 0.427344
0.00396735 0.783032 0.384817
0.00396735 0.802319 0.164202
0.651804 0.707835 0.00396735
0.946929 0.658717 0.00408942
0.948425 0.625971 0.0199741
0.00396735 0.986557 0.495125
0.00396735 0.986557 0.26804
0.409751 0.986557 0.14609
0.93901 0.98294 0.184741
0.967697 0.984634 0.171786
0.00396735 0.986557 0.537682
0.00396735 0.986557 0.344381
0.299519 0.986557 0.113893
0.908248 0.979721 0.164477
0.967697 0.984634 0.171786
0.0531167 0.0492714 0.67422
0.436011 0.0263523 0.727535
0.854078 0.00396735 0.828565
0.955886 0.00396735 0.920592
0.954986 0.00396735 0.940658
0.00396735 0.177081 0.57554
0.0933089 0.0364233 0.636362
0.763073 0 0.741695
0.959228 0.00396735 0.819776
0.958679 0.00396735 0.837659
0.00396735 0.65156 0.642313
0.00396735 0.629648 0.621958
0.626856 0.626856 0.626856
0.984176 0.526482 0.618479
0.986358 0.486778 0.621073
0.00396735 0.959381 0.741726
0.00396735 0.972564 0.686137
0.00396735 0.986557 0.312551
0.917891 0.971069 0.356909
0.969329 0.960845 0.324407
0.00396735 0.953994 0.766079
0.00396735 0.967727 0.705669
0.00396735 0.986557 0.372503
0.844541 0.968277 0.211948
0.970916 0.984924 0.175937
0.078645 0.115465 0.871489
0.454078 0.0965286 0.941802
0.86836 0 0.986557
0.949874 0.00396735 0.986557
0.949874 0.00396735 0.986557
0.00396735 0.217365 0.862684
0.0703746 0.11606 0.870649
0.759777 0.035935 0.980972
0.949874 0.00396735 0.986557
0.949874 0.00396735 0.986557
0.00396735 0.598749 0.871946
0.00396735 0.561196 0.886213
0.4907 0.501183 0.923278
0.962829 0.389868 0.981857
0.964797 0.338842 0.983764
0.00396735 0.929839 0.934478
0.00396735 0.916915 0.921721
0.00396735 0.885496 0.890059
0.89987 0.89987 0.89987
0.972091 0.877028 0.897398
0.00396735 0.933242 0.95494
0.00396735 0.93019 0.938109
0.00396735 0.937942 0.860426
0.808484 0.984421 0.863951
0.980728 0.983841 0.925978
0.122332 0.112139 0.881025
0.472999 0.0953078 0.944976
0.887175 0.00396735 0.986557
0.949874 0.00396735 0.986557
0.949874 0.00396735 0.986557
0.00396735 0.210636 0.860548
0.117037 0.112749 0.880125
0.768978 0.0331426 0.981476
0.949889 0.00396735 0.986557
0.949874 0.00396735 0.986557
0.00396735 0.582742 0.925795
0.00396735 0.539071 0.918364
0.467384 0.454078 0.921401
0.964569 0.315572 0.986557
0.965606 0.252293 0.986557
0.00396735 0.926757 0.962539
0.00396735 0.913283 0.958877
0.00396735 0.873564 0.952544
0.869764 0.86746 0.964096
0.967636 0.841382 0.9729
0.00396735 0.936645 0.965072
0.00396735 0.936645 0.965072
0.00396735 0.936965 0.96524
0.755657 0.957198 0.963607
0.98555 0.98555 0.98555
