bundles/resolve-cinematic-luts/Phantom Luts/Canon Alexa LUT/C-Log 3/Neutral Canon CL3-Legacy.cube
TITLE "Generated by Resolve"
LUT_3D_SIZE 9
0.031693 0.0316625 0.0316625
0.156435 0.0279698 0.0385595
0.359533 0.0260777 0.0675517
0.587106 0.0287175 0.136019
0.846281 0.0293278 0.241215
0.93431 0.0294652 0.315389
0.936675 0.0294652 0.347784
0.937621 0.0294347 0.367224
0.93817 0.0294499 0.377539
0.0285191 0.114229 0.0318608
0.0595865 0.068101 0.0284123
0.219913 0.0700847 0.0296178
0.490379 0.0347448 0.0370031
0.72929 0.0290684 0.105715
0.874876 0.0293736 0.160784
0.885008 0.0293126 0.175113
0.904173 0.0294347 0.201892
0.914229 0.0293889 0.217746
0.0285954 0.322332 0.0407416
0.0392157 0.278355 0.028687
0.210269 0.241047 0.0285191
0.453544 0.231037 0.0295109
0.677714 0.157275 0.0363165
0.902693 0.0294499 0.106111
0.888945 0.0294041 0.124941
0.884504 0.0293889 0.129335
0.882017 0.0293889 0.131685
0.0290379 0.569253 0.0738994
0.0290227 0.559319 0.0290227
0.082002 0.514427 0.0289464
0.431998 0.476692 0.0286259
0.652934 0.480919 0.028748
0.921431 0.387762 0.0638285
0.939849 0.33402 0.0694743
0.924346 0.311406 0.0617533
0.916213 0.295552 0.0567941
0.0296788 0.843519 0.123857
0.0297704 0.854826 0.0357366
0.0601053 0.80177 0.0302434
0.29366 0.754833 0.0291447
0.63978 0.699611 0.0287633
0.829435 0.69691 0.0314336
0.930159 0.681453 0.0335546
0.932677 0.669032 0.0330663
0.934112 0.661524 0.0327611
0.0299687 0.984787 0.178531
0.0300298 0.984863 0.0506447
0.0316167 0.984863 0.0564431
0.196277 0.984405 0.0745403
0.591028 0.983627 0.0382544
0.833249 0.922667 0.057435
0.949966 0.912169 0.0807813
0.948074 0.905379 0.0751659
0.946151 0.900572 0.0715038
0.0299687 0.984787 0.213703
0.0299382 0.984741 0.128374
0.0300145 0.984863 0.0451972
0.203174 0.984375 0.0831464
0.566796 0.983566 0.131823
0.818082 0.978119 0.181445
0.968505 0.983246 0.16228
0.98085 0.983322 0.153964
0.98085 0.983322 0.153964
0.0298619 0.984649 0.259922
0.0299535 0.984771 0.175982
0.0300145 0.984863 0.0472725
0.17821 0.98439 0.0713054
0.493828 0.983673 0.119615
0.785199 0.983352 0.169039
0.947127 0.983291 0.166522
0.98085 0.983322 0.153964
0.98085 0.983322 0.153964
0.0298772 0.984665 0.285069
0.0299535 0.984771 0.182589
0.0300145 0.984863 0.0483253
0.15845 0.984512 0.071107
0.443992 0.983719 0.126986
0.764309 0.983276 0.159136
0.937987 0.983246 0.152804
0.98085 0.983322 0.153964
0.98085 0.983322 0.153964
0.0291752 0.0330053 0.0931563
0.145449 0.0302434 0.13283
0.358755 0.0283818 0.204959
0.585657 0.0287633 0.27985
0.848341 0.029221 0.376562
0.944518 0.0295872 0.440009
0.948714 0.0295109 0.470039
0.951492 0.029572 0.488869
0.953155 0.0295872 0.498283
0.0316625 0.0539559 0.0505837
0.031693 0.0316625 0.0316625
0.267781 0.0277256 0.0584268
0.52929 0.0286717 0.121431
0.785779 0.0291142 0.217472
0.933745 0.0294652 0.309361
0.936355 0.0295109 0.342458
0.937575 0.0294347 0.362188
0.937896 0.0294499 0.372839
0.0285801 0.257481 0.120882
0.0285801 0.252369 0.0416266
0.184802 0.208667 0.0286259
0.469932 0.160052 0.0348058
0.710018 0.0433051 0.0470436
0.8766 0.0293736 0.159136
0.876799 0.0293889 0.162722
0.894545 0.0293736 0.184527
0.905013 0.0294194 0.20032
0.0289769 0.52282 0.166857
0.0289006 0.526879 0.0698558
0.0422827 0.50164 0.0289769
0.411231 0.454215 0.0286717
0.664347 0.439246 0.0274815
0.925185 0.319738 0.0644846
0.910277 0.270008 0.0532998
0.904418 0.236591 0.052491
0.901823 0.216175 0.0521401
0.0295109 0.792615 0.228367
0.0296025 0.800046 0.126314
0.029633 0.811582 0.0324407
0.175326 0.743908 0.0325322
0.626215 0.682643 0.0287633
0.834653 0.67451 0.030808
0.936278 0.652064 0.0323796
0.940658 0.637278 0.0317845
0.94284 0.628946 0.0312963
0.0298772 0.984665 0.29778
0.0299687 0.984787 0.178012
0.0300298 0.984878 0.0580301
0.160159 0.984497 0.0516976
0.55819 0.983612 0.0269474
0.819059 0.907439 0.0501564
0.943282 0.892378 0.0675975
0.939742 0.882918 0.0635691
0.937301 0.87718 0.0618601
0.0298466 0.984619 0.354528
0.0298924 0.98468 0.221683
0.0299382 0.984741 0.12665
0.124437 0.984665 0.0721141
0.479622 0.983627 0.120821
0.790433 0.983276 0.17142
0.957412 0.983352 0.165972
0.98085 0.983322 0.153964
0.98085 0.983322 0.153964
0.0298161 0.984573 0.389487
0.0298772 0.984649 0.267308
0.0299535 0.984771 0.175967
0.06392 0.984848 0.0610971
0.389487 0.983871 0.131762
0.749187 0.983383 0.152102
0.934676 0.983261 0.149279
0.98085 0.983322 0.153964
0.98085 0.983322 0.153964
0.0298314 0.984588 0.408606
0.0298924 0.98468 0.293217
0.0299687 0.984771 0.182437
0.0386206 0.984924 0.0551003
0.349859 0.983871 0.125658
0.729427 0.983322 0.139986
0.923842 0.983352 0.138857
0.98085 0.983322 0.153964
0.98085 0.983322 0.153964
0.0287938 0.0344091 0.244129
0.171298 0.0298619 0.269627
0.337575 0.0276188 0.31873
0.578286 0.0287633 0.407233
0.858915 0.0293126 0.49337
0.963394 0.0296025 0.547356
0.965438 0.0296483 0.572366
0.963745 0.0296635 0.586877
0.96257 0.0296788 0.594553
0.0278935 0.0593729 0.15227
0.0340734 0.033341 0.205768
0.258152 0.0285191 0.243931
0.536645 0.0286717 0.304829
0.794263 0.029221 0.379919
0.945342 0.0295262 0.447425
0.949584 0.0295262 0.475959
0.952392 0.0295872 0.493889
0.954009 0.0296025 0.50309
0.0285649 0.209827 0.198581
0.0285191 0.188952 0.179614
0.184909 0.183444 0.183658
0.501656 0.113863 0.168734
0.73933 0.0289921 0.210773
0.93492 0.0294804 0.306218
0.937209 0.0295109 0.340261
0.938277 0.0294347 0.360128
0.938415 0.0294499 0.371008
0.0288396 0.471336 0.260014
0.0287785 0.471138 0.196704
0.0288701 0.48191 0.0861677
0.391516 0.429694 0.0344549
0.687312 0.369757 0.0660563
0.915236 0.231998 0.0805066
0.917708 0.164096 0.0720836
0.931685 0.111696 0.0794232
0.936049 0.0857099 0.084123
0.0293126 0.734737 0.334462
0.0294041 0.744564 0.245029
0.0294347 0.754879 0.135653
0.112352 0.728435 0.0324559
0.611688 0.665049 0.0287633
0.840864 0.649165 0.0301823
0.943557 0.618647 0.032105
0.943771 0.597101 0.0348211
0.943954 0.584619 0.0368505
0.0298314 0.984588 0.404135
0.0299077 0.984695 0.316747
0.0299687 0.984787 0.193454
0.0628214 0.984833 0.0489357
0.509499 0.983017 0.0266423
0.805676 0.892119 0.0445716
0.934676 0.870298 0.0594034
0.929702 0.857954 0.0557565
0.926452 0.851179 0.0541848
0.0298619 0.984634 0.457771
0.0298009 0.984543 0.367163
0.0298619 0.984634 0.231113
0.0300145 0.984863 0.0442054
0.37557 0.983871 0.130571
0.757504 0.983246 0.155825
0.945739 0.983307 0.16495
0.98085 0.983322 0.153964
0.98085 0.983322 0.153964
0.0297551 0.984497 0.486198
0.0298161 0.984573 0.401038
0.0298772 0.984665 0.276188
0.0300145 0.984863 0.0482338
0.29987 0.984085 0.116854
0.716136 0.983429 0.131319
0.921767 0.983352 0.137713
0.98085 0.983322 0.153964
0.98085 0.983322 0.153964
0.0297704 0.984512 0.500832
0.0298314 0.984604 0.419287
0.0298924 0.98468 0.302586
0.0300145 0.984863 0.0478676
0.262394 0.984192 0.107393
0.698009 0.983352 0.118685
0.905135 0.983291 0.147646
0.98085 0.983322 0.153964
0.98085 0.983322 0.153964
0.0376593 0.0369116 0.441291
0.191562 0.0315099 0.464591
0.354772 0.0289158 0.487785
0.559152 0.026215 0.540047
0.829648 0.0293736 0.623667
0.945571 0.0295872 0.680156
0.945129 0.029633 0.704601
0.944793 0.0296635 0.719097
0.944595 0.0296635 0.726894
0.0285344 0.0723888 0.363592
0.0435798 0.035172 0.414023
0.252079 0.0300145 0.453834
0.510826 0.0264439 0.493889
0.784115 0.0291905 0.562478
0.95874 0.029633 0.617899
0.954314 0.029572 0.637858
0.951461 0.0295872 0.651133
0.950149 0.0295567 0.657908
0.0285649 0.174731 0.348241
0.0285649 0.140307 0.367086
0.114015 0.103655 0.418219
0.461769 0.0390173 0.44361
0.739086 0.0290837 0.47982
0.961837 0.029572 0.538705
0.966796 0.0296483 0.561242
0.965377 0.0296483 0.574517
0.964294 0.0296483 0.581537
0.0287327 0.40911 0.396201
0.028748 0.392935 0.381659
0.0286412 0.375341 0.365255
0.39704 0.395087 0.39559
0.707118 0.322835 0.376944
0.981994 0.174014 0.396292
0.979767 0.109957 0.399115
0.972473 0.0631876 0.398505
0.961975 0.0412299 0.397314
0.0291447 0.667033 0.464607
0.0291752 0.663966 0.427771
0.0291752 0.665492 0.374853
0.0926986 0.702403 0.227558
0.593545 0.633204 0.221225
0.881788 0.599649 0.249592
0.968765 0.545983 0.24213
0.958328 0.523781 0.231983
0.954589 0.510155 0.227115
0.0297398 0.937484 0.530892
0.0297093 0.944579 0.484367
0.0297704 0.957916 0.419089
0.0299687 0.983139 0.217441
0.288991 0.974151 0.0567178
0.782101 0.866697 0.0389868
0.929152 0.83241 0.0493019
0.928588 0.814847 0.0453193
0.929076 0.805707 0.0439307
0.0297246 0.984436 0.577752
0.0298009 0.984543 0.528725
0.0298466 0.984604 0.461143
0.0298619 0.984649 0.248768
0.22034 0.984298 0.0974136
0.70161 0.983383 0.121279
0.930388 0.983322 0.142412
0.980926 0.983307 0.118807
0.980697 0.983337 0.106661
0.0297398 0.984466 0.59939
0.0298161 0.984573 0.551781
0.0297551 0.984497 0.487236
0.0298924 0.98468 0.295552
0.186053 0.984405 0.0726177
0.663447 0.983413 0.14461
0.892119 0.983246 0.15349
0.981247 0.983322 0.153658
0.981277 0.983322 0.153643
0.0297551 0.984482 0.610208
0.0298161 0.984588 0.563302
0.0297704 0.984512 0.500664
0.0299077 0.984695 0.319844
0.151614 0.984497 0.0712444
0.646006 0.983368 0.154864
0.870527 0.983322 0.165454
0.979736 0.983322 0.154849
0.981231 0.983322 0.153658
0.0502937 0.0480507 0.620005
0.208316 0.0392309 0.641978
0.379034 0.0363317 0.671336
0.567346 0.0298314 0.702541
0.807462 0.0294041 0.776455
0.940307 0.0297246 0.855299
0.939132 0.0297704 0.890379
0.938384 0.0298009 0.908858
0.937911 0.0298161 0.917983
0.0286717 0.0921187 0.566445
0.0586557 0.04448 0.600885
0.257115 0.0373693 0.637842
0.512215 0.0315251 0.675578
0.757397 0.0292363 0.731441
0.942061 0.029633 0.804532
0.941146 0.0296788 0.831785
0.940597 0.0297093 0.8477
0.940291 0.0297246 0.855909
0.0285954 0.140093 0.522515
0.0285801 0.0985122 0.536522
0.072755 0.0417182 0.58262
0.430137 0.0329747 0.642527
0.708385 0.02916 0.687221
0.944152 0.0297093 0.744488
0.943587 0.0297398 0.766186
0.943114 0.0296635 0.780285
0.942763 0.0296178 0.787366
0.028748 0.37258 0.551141
0.0287022 0.342489 0.558633
0.0287327 0.306615 0.57142
0.295766 0.280735 0.611597
0.669795 0.21416 0.641978
0.975174 0.0466316 0.661463
0.950942 0.0295872 0.658259
0.951141 0.0295872 0.658686
0.950576 0.029572 0.660044
0.0289616 0.604334 0.595422
0.029099 0.593057 0.584909
0.0290379 0.581796 0.574609
0.0447242 0.564477 0.555108
0.585901 0.584436 0.58497
0.896864 0.53753 0.576852
0.983413 0.483253 0.576867
0.983307 0.456352 0.577462
0.983276 0.441199 0.577829
0.0294804 0.848646 0.650217
0.0294347 0.842847 0.628672
0.0295262 0.838285 0.603647
0.0294652 0.83769 0.541726
0.360143 0.904067 0.511376
0.763836 0.813596 0.475059
0.968063 0.775753 0.502525
0.969909 0.753384 0.502449
0.970886 0.742184 0.502068
0.0297704 0.963851 0.703426
0.0297398 0.971771 0.678141
0.0297398 0.979599 0.648219
0.0297246 0.984436 0.577707
0.0298772 0.984649 0.269978
0.63267 0.983215 0.34374
0.917922 0.983063 0.321477
0.983185 0.979416 0.277577
0.982773 0.973999 0.287526
0.0297246 0.958724 0.718944
0.0297246 0.967224 0.692439
0.0298161 0.976577 0.661219
0.0297246 0.984451 0.589105
0.0298924 0.98468 0.306661
0.528618 0.983474 0.234195
0.861891 0.983276 0.168353
0.983154 0.983154 0.218479
0.983154 0.983154 0.214969
0.0296941 0.956054 0.726986
0.0296941 0.964904 0.699687
0.0298161 0.974792 0.667918
0.0297398 0.984451 0.595376
0.0299077 0.984695 0.331991
0.427344 0.983688 0.17229
0.825833 0.981277 0.18677
0.962646 0.9832 0.178973
0.983322 0.983322 0.157565
0.0449378 0.0899214 0.785321
0.214038 0.0664836 0.818891
0.386419 0.0614328 0.862226
0.585046 0.0488289 0.911757
0.802213 0.026215 0.951888
0.930892 0.0297856 0.984527
0.930892 0.0297856 0.984527
0.930892 0.0297856 0.984527
0.930892 0.0297856 0.984527
0.0288243 0.112902 0.733623
0.0560922 0.0804608 0.764157
0.254643 0.0617838 0.813947
0.518837 0.0508888 0.879164
0.747936 0.0273747 0.92108
0.933333 0.0297856 0.979629
0.930892 0.0297856 0.984527
0.930892 0.0297856 0.984527
0.930892 0.0297856 0.984527
0.028687 0.146944 0.688594
0.0287938 0.112963 0.708339
0.0649424 0.0698558 0.741268
0.422797 0.0522621 0.835401
0.696803 0.0307774 0.888869
0.935729 0.0297398 0.949248
0.934371 0.0297551 0.97145
0.933272 0.0297856 0.980011
0.932509 0.0297856 0.984543
0.0287022 0.335897 0.689799
0.0287327 0.304036 0.704936
0.0287633 0.26096 0.72401
0.208011 0.200153 0.769589
0.621546 0.135378 0.852552
0.913375 0.0296178 0.882017
0.939452 0.0297704 0.887266
0.939193 0.0297856 0.894667
0.939025 0.0297856 0.899519
0.0290379 0.584405 0.715633
0.0290074 0.566094 0.718822
0.0290532 0.54461 0.725841
0.0288853 0.494621 0.748058
0.517815 0.513527 0.774395
0.853162 0.464118 0.815885
0.976623 0.393637 0.819547
0.976013 0.362554 0.818112
0.975784 0.344564 0.817517
0.0294041 0.779751 0.776944
0.0293889 0.767941 0.765133
0.0293889 0.755825 0.753491
0.0292821 0.736828 0.735485
0.327565 0.728573 0.717723
0.749416 0.748257 0.748714
0.982437 0.712032 0.743511
0.98294 0.691493 0.742367
0.982986 0.680842 0.742123
0.0296025 0.934554 0.825376
0.0296788 0.938247 0.805447
0.0296635 0.942184 0.785595
0.0296483 0.942824 0.7476
0.0297551 0.944961 0.666026
0.618875 0.981109 0.708034
0.90193 0.938857 0.69723
0.974868 0.918349 0.695705
0.974853 0.908141 0.696605
0.0296178 0.929732 0.851652
0.0296025 0.934356 0.826368
0.0296788 0.939284 0.800244
0.0297398 0.948531 0.754192
0.0298161 0.976699 0.666133
0.510185 0.983246 0.636225
0.848981 0.982895 0.654292
0.980117 0.982849 0.713314
0.982834 0.982834 0.706203
0.029633 0.927398 0.864759
0.0296178 0.93228 0.837644
0.0296788 0.937652 0.808637
0.0297398 0.947662 0.758572
0.0298161 0.976135 0.667308
0.44242 0.983368 0.597208
0.805066 0.98291 0.665995
0.963928 0.982849 0.660945
0.982788 0.982788 0.670878
0.0640879 0.0961013 0.825132
0.229633 0.0843366 0.87364
0.39733 0.0755932 0.91603
0.59881 0.0585184 0.959991
0.824369 0.0263981 0.983185
0.930892 0.0297856 0.984527
0.930892 0.0297856 0.984527
0.930892 0.0297856 0.984527
0.930892 0.0297856 0.984527
0.0287633 0.119677 0.789624
0.0647288 0.0960555 0.825406
0.257465 0.0832532 0.880781
0.524926 0.0663157 0.944823
0.764294 0.0320592 0.978012
0.930892 0.0297856 0.984527
0.930892 0.0297856 0.984527
0.930892 0.0297856 0.984527
0.930892 0.0297856 0.984527
0.028809 0.172091 0.816434
0.0287633 0.125582 0.79295
0.0599527 0.0966659 0.824018
0.420157 0.0741894 0.921401
0.703151 0.0421149 0.974136
0.930892 0.0297856 0.984527
0.930892 0.0297856 0.984527
0.930892 0.0297856 0.984527
0.930892 0.0297856 0.984527
0.0288396 0.316197 0.809934
0.0288701 0.281956 0.826856
0.028809 0.240208 0.842283
0.14873 0.155978 0.860853
0.581643 0.0886854 0.958679
0.884199 0.0296788 0.984375
0.931014 0.0297856 0.984527
0.931014 0.0297856 0.984527
0.931014 0.0297856 0.984527
0.0289464 0.550469 0.83386
0.0290074 0.531426 0.840864
0.0289769 0.511696 0.850477
0.0289311 0.465751 0.876097
0.443427 0.452399 0.901076
0.79704 0.418219 0.968673
0.9579 0.338125 0.982864
0.958724 0.304189 0.983642
0.95906 0.282765 0.984024
0.0294804 0.771725 0.866606
0.0293889 0.759655 0.863783
0.0294041 0.744961 0.863584
0.0292515 0.716228 0.86807
0.213626 0.678096 0.871183
0.700145 0.699901 0.907271
0.963149 0.664195 0.934661
0.978531 0.640085 0.933028
0.978012 0.629496 0.931472
0.0296025 0.92221 0.928786
0.0296178 0.913878 0.920027
0.029633 0.903914 0.910765
0.0296483 0.887419 0.894286
0.0295567 0.862196 0.868132
0.610391 0.876738 0.867796
0.894743 0.89398 0.894286
0.982849 0.876402 0.892805
0.982895 0.865263 0.891157
0.029633 0.924971 0.947753
0.0296178 0.923033 0.937942
0.0296025 0.922057 0.927077
0.0272984 0.921279 0.902022
0.0296178 0.932982 0.840253
0.388128 0.957412 0.805661
0.828061 0.982895 0.879805
0.975372 0.982849 0.89752
0.982879 0.978912 0.881773
0.0297398 0.92668 0.956649
0.029633 0.92462 0.945754
0.0296178 0.922606 0.933669
0.0273442 0.920714 0.905852
0.0296025 0.933867 0.83447
0.27602 0.957366 0.779187
0.782086 0.982895 0.847807
0.947753 0.982834 0.853193
0.982742 0.982742 0.921035
0.0920119 0.0939193 0.832898
0.250172 0.0837415 0.878996
0.409995 0.0747845 0.918761
0.6094 0.0570382 0.962036
0.839506 0.029572 0.984237
0.930892 0.0297856 0.984527
0.930892 0.0297856 0.984527
0.930892 0.0297856 0.984527
0.930892 0.0297856 0.984527
0.0287938 0.115236 0.786221
0.0916762 0.0939651 0.832776
0.270161 0.0827039 0.884443
0.533837 0.0656443 0.946838
0.774609 0.0302892 0.978408
0.930892 0.0297856 0.984527
0.930892 0.0297856 0.984527
0.930892 0.0297856 0.984527
0.930892 0.0297856 0.984527
0.0287938 0.168841 0.814832
0.0287633 0.119829 0.789731
0.0868849 0.094377 0.830961
0.428946 0.0733043 0.923476
0.708949 0.0411688 0.974731
0.930892 0.0297856 0.984527
0.930892 0.0297856 0.984527
0.930892 0.0297856 0.984527
0.930892 0.0297856 0.984527
0.0288548 0.304006 0.858244
0.0288243 0.259922 0.847852
0.028809 0.206592 0.831357
0.132097 0.112749 0.852354
0.577432 0.0661173 0.956786
0.882338 0.0296635 0.98436
0.931014 0.0297856 0.984527
0.930999 0.0297856 0.984527
0.930999 0.0297856 0.984527
0.0290837 0.541405 0.900008
0.0290837 0.521859 0.899107
0.0290684 0.499489 0.893751
0.0290074 0.445335 0.882307
0.4262 0.419821 0.898756
0.781598 0.381384 0.971008
0.957809 0.288914 0.983917
0.958007 0.252888 0.98407
0.957427 0.233722 0.9841
0.0293584 0.761486 0.926772
0.0293736 0.74406 0.928817
0.0294194 0.72723 0.932555
0.0293278 0.694438 0.931289
0.160388 0.651667 0.920165
0.668391 0.668711 0.949996
0.939208 0.640879 0.981353
0.968002 0.615076 0.981308
0.966796 0.604303 0.980957
0.0296483 0.919051 0.966079
0.0296635 0.909895 0.961288
0.0296025 0.900404 0.956847
0.0295872 0.882994 0.950591
0.0295872 0.855619 0.949386
0.556435 0.843626 0.946578
0.866911 0.867704 0.973404
0.982681 0.847974 0.982132
0.982315 0.836301 0.981476
0.0296483 0.931228 0.970565
0.0296483 0.931228 0.970565
0.0296483 0.931228 0.970565
0.0297398 0.929274 0.965515
0.0296635 0.925978 0.948852
0.17821 0.923995 0.926238
0.83061 0.966339 0.96286
0.972213 0.971954 0.972045
0.982803 0.968109 0.971847
0.0296483 0.931228 0.970565
0.0296483 0.931228 0.970565
0.0296483 0.931228 0.970565
0.0296483 0.929946 0.967468
0.029633 0.924559 0.942763
0.0373541 0.929763 0.920592
0.76582 0.978119 0.943511
0.958465 0.982879 0.970672
0.982849 0.982849 0.980789
0.103456 0.0929732 0.836225
0.260075 0.0831006 0.881285
0.417075 0.0743267 0.920439
0.614878 0.0563211 0.962875
0.847562 0.0296178 0.984298
0.930892 0.0297856 0.984527
0.930892 0.0297856 0.984527
0.930892 0.0297856 0.984527
0.930892 0.0297856 0.984527
0.0287938 0.112779 0.784344
0.102632 0.09308 0.835996
0.277974 0.0824292 0.886534
0.538476 0.0653086 0.947967
0.780072 0.0294347 0.978668
0.930892 0.0297856 0.984527
0.930892 0.0297856 0.984527
0.930892 0.0297856 0.984527
0.930892 0.0297856 0.984527
0.0287022 0.166842 0.813794
0.0288243 0.117281 0.787823
0.0981765 0.0934462 0.835187
0.434134 0.0729076 0.924651
0.711955 0.0406653 0.974945
0.930892 0.0297856 0.984527
0.930892 0.0297856 0.984527
0.930892 0.0297856 0.984527
0.930892 0.0297856 0.984527
0.0288853 0.287846 0.855024
0.028809 0.244099 0.843595
0.0287633 0.187518 0.823682
0.126238 0.0953231 0.846952
0.578241 0.0612955 0.956054
0.882338 0.0296635 0.98436
0.930983 0.0297856 0.984527
0.930999 0.0297856 0.984527
0.930999 0.0297856 0.984527
0.0289769 0.53373 0.901976
0.0289769 0.51284 0.896971
0.0290074 0.48896 0.891066
0.0289158 0.432105 0.879728
0.417334 0.401511 0.896788
0.773983 0.358999 0.971191
0.957916 0.260227 0.984039
0.957504 0.224582 0.984192
0.95729 0.20412 0.984192
0.0293889 0.753765 0.936492
0.0294041 0.736416 0.934997
0.0293126 0.718715 0.933486
0.029221 0.683726 0.929976
0.151751 0.638437 0.918685
0.660807 0.655085 0.949004
0.931746 0.626734 0.980468
0.966842 0.59971 0.981231
0.965454 0.588479 0.980758
0.029572 0.916976 0.966278
0.029572 0.907561 0.963333
0.0295872 0.897704 0.960159
0.0296178 0.878569 0.955047
0.0294347 0.844724 0.948119
0.548363 0.827787 0.946517
0.856352 0.852552 0.977142
0.981399 0.832578 0.98291
0.980941 0.82089 0.982971
0.0296483 0.931228 0.970565
0.0296483 0.931228 0.970565
0.0296483 0.931228 0.970565
0.0296483 0.931228 0.970565
0.0296483 0.931792 0.97084
0.0962692 0.922286 0.962249
0.806439 0.960067 0.980468
0.965789 0.964584 0.982773
0.982818 0.958358 0.982818
0.0296483 0.931228 0.970565
0.0296483 0.931228 0.970565
0.0296483 0.931228 0.970565
0.0296483 0.931228 0.970565
0.0296483 0.931701 0.970794
0.0297551 0.93846 0.973663
0.725124 0.970001 0.976883
0.963226 0.982727 0.982727
0.982849 0.982849 0.982849
