bundles/resolve-cinematic-luts/Phantom Luts/Canon Alexa LUT/C-Log 3/Neutral Canon CL3.cube
TITLE "Generated by Resolve"
LUT_3D_SIZE 9
0.0142367 0.0142367 0.0142367
0.194812 0.0012665 0.0297704
0.415488 0 0.0852064
0.637781 0.00396735 0.171527
0.885588 0.00396735 0.297459
0.952056 0.00396735 0.373648
0.954116 0.00396735 0.405112
0.954955 0.00396735 0.423636
0.955383 0.00396735 0.433631
0.00396735 0.142702 0.0149691
0.0698863 0.0879683 0.00469978
0.274693 0.0914473 0.00877394
0.543481 0.0232395 0.0276188
0.784268 0.00396735 0.124483
0.908034 0.00396735 0.20061
0.915908 0.00396735 0.219593
0.930159 0.00396735 0.251942
0.937285 0.00396735 0.270619
0.00396735 0.38172 0.0336004
0.0311589 0.342 0.00396735
0.263035 0.300298 0.00396735
0.506477 0.287953 0.00747692
0.731991 0.198352 0.0252232
0.929641 0.00396735 0.125277
0.91873 0.00396735 0.15819
0.915434 0.00396735 0.16286
0.913573 0.00396735 0.165576
0.00396735 0.618631 0.0907759
0.00396735 0.608606 0.00396735
0.0979629 0.565408 0.00396735
0.481575 0.52694 0.00396735
0.700191 0.528923 0.00396735
0.938125 0.4392 0.0707103
0.952804 0.388708 0.0830091
0.942016 0.367376 0.0680095
0.936614 0.353445 0.0606241
0.00396735 0.873838 0.148455
0.00396735 0.883848 0.0181125
0.0589303 0.840299 0
0.341207 0.798749 0.00396735
0.679698 0.7411 0.00396735
0.856016 0.736141 0.000198367
0.934462 0.720211 0.00764477
0.93669 0.708354 0.00595102
0.938155 0.701106 0.00491341
0.00396735 0.986557 0.207706
0.00396735 0.986557 0.0397498
0 0.986557 0.0474861
0.226734 0.986557 0.0751507
0.622568 0.977722 0.0180819
0.852323 0.923415 0.0469673
0.943114 0.914992 0.078294
0.941787 0.910124 0.0717937
0.940505 0.9066 0.06804
0.00396735 0.986557 0.248447
0.00396735 0.986557 0.147723
0.00396735 0.986557 0.031281
0.233036 0.986557 0.0835737
0.596719 0.986557 0.146715
0.838697 0.965194 0.205875
0.955673 0.983612 0.181582
0.967697 0.984634 0.171786
0.967697 0.984634 0.171786
0.00396735 0.986557 0.301167
0.00396735 0.986557 0.204303
0.00396735 0.986557 0.0344701
0.20412 0.986557 0.0699321
0.524926 0.986557 0.131212
0.810285 0.972885 0.190249
0.940063 0.98262 0.186694
0.967697 0.984634 0.171786
0.967697 0.984634 0.171786
0.00396735 0.986557 0.328008
0.00396735 0.986557 0.212314
0.00396735 0.986557 0.0360571
0.178958 0.986557 0.0695048
0.476371 0.986557 0.141314
0.792676 0.978058 0.177829
0.933196 0.983764 0.170153
0.967697 0.984634 0.171786
0.967697 0.984634 0.171786
0.0056611 0.0184482 0.111192
0.181308 0.00950637 0.168246
0.414572 0.00396735 0.256672
0.636408 0.00396735 0.341482
0.887907 0.00396735 0.432685
0.95967 0.00396735 0.493019
0.962402 0.00396735 0.522515
0.963973 0.00396735 0.540291
0.964858 0.00396735 0.549218
0.0146029 0.059266 0.0532387
0.0142367 0.0142367 0.0142367
0.328176 0.000564584 0.0671702
0.580285 0.00396735 0.154406
0.835508 0.00396735 0.270787
0.951629 0.00396735 0.367941
0.953796 0.00396735 0.399893
0.954894 0.00396735 0.419059
0.955169 0.00396735 0.429038
0.00396735 0.318853 0.154467
0.00396735 0.312993 0.0354162
0.232944 0.263203 0.00396735
0.523659 0.20293 0.0233768
0.767483 0.0395666 0.0467079
0.909331 0.00396735 0.198505
0.909468 0.00396735 0.203326
0.922896 0.00396735 0.231357
0.930755 0.00396735 0.249851
0.00396735 0.573266 0.207218
0.00396735 0.577615 0.0865644
0.0348669 0.553017 0.00396735
0.46276 0.505348 0.00396735
0.712718 0.489281 0
0.942489 0.375097 0.0732433
0.932967 0.329793 0.0543221
0.929656 0.291554 0.0535134
0.928267 0.268528 0.0532692
0.00396735 0.832776 0.273671
0.00396735 0.839216 0.152499
0.00396735 0.849592 0.00779736
0.209613 0.790097 0.00761425
0.666178 0.724681 0.00396735
0.861051 0.714397 0
0.940246 0.692073 0.00404364
0.943786 0.677485 0.00205997
0.945968 0.669169 0.000839246
0.00396735 0.986557 0.34049
0.00396735 0.986557 0.207492
0.00396735 0.986557 0.0513161
0.183017 0.986557 0.0408637
0.589761 0.979324 0.00396735
0.841443 0.912673 0.0370031
0.938552 0.900313 0.062089
0.935973 0.893172 0.0556497
0.934295 0.888655 0.052842
0.00396735 0.986557 0.394995
0.00396735 0.986557 0.25745
0.00396735 0.986557 0.145663
0.139879 0.986557 0.0712749
0.511254 0.986557 0.13312
0.81503 0.971344 0.193286
0.947341 0.98323 0.185962
0.967697 0.984634 0.171786
0.967697 0.984634 0.171786
0.00396735 0.986557 0.428809
0.00396735 0.986557 0.309667
0.00396735 0.986557 0.204288
0.057023 0.986557 0.0535897
0.423484 0.986557 0.147707
0.779461 0.981567 0.16939
0.930755 0.98349 0.166293
0.967697 0.984634 0.171786
0.967697 0.984634 0.171786
0.00396735 0.986557 0.447929
0.00396735 0.986557 0.335775
0.00396735 0.986557 0.212161
0.0191043 0.986557 0.0448768
0.385443 0.986557 0.140414
0.760388 0.986481 0.15642
0.92221 0.982895 0.15491
0.967697 0.984634 0.171786
0.967697 0.984634 0.171786
0.0047303 0.0219272 0.302419
0.214786 0.00848402 0.332158
0.394751 0.00047303 0.37789
0.629023 0.00396735 0.462852
0.895048 0.00396735 0.544457
0.970687 0.00396735 0.597192
0.971939 0.00396735 0.621988
0.970993 0.00396735 0.636896
0.970291 0.00396735 0.644694
0.00175479 0.0694438 0.191623
0.0211643 0.0195468 0.258091
0.317113 0.00401312 0.302296
0.587045 0.00396735 0.363851
0.842802 0.00396735 0.435737
0.960281 0.00396735 0.500252
0.96286 0.00396735 0.528145
0.964446 0.00396735 0.545144
0.965316 0.00396735 0.553948
0.00396735 0.264027 0.250202
0.00396735 0.239185 0.227878
0.233463 0.233463 0.233463
0.554467 0.142947 0.214389
0.794888 0.00396735 0.263294
0.952544 0.00396735 0.365026
0.954391 0.00396735 0.397772
0.955383 0.00396735 0.417197
0.95552 0.00396735 0.427344
0.00396735 0.523369 0.318837
0.00396735 0.523415 0.245304
0.00396735 0.533989 0.103075
0.443961 0.482582 0.0206607
0.737636 0.423774 0.0777142
0.937179 0.286137 0.0974289
0.940505 0.205982 0.0911574
0.951644 0.137041 0.0982834
0.955459 0.103807 0.102724
0.00396735 0.783032 0.384817
0.00396735 0.792554 0.294163
0.00396735 0.802319 0.164202
0.129397 0.776226 0.0083772
0.651804 0.707835 0.00396735
0.867109 0.689998 0
0.946929 0.658717 0.00408942
0.947906 0.637812 0.0150149
0.948425 0.625971 0.0199741
0.00396735 0.986557 0.445045
0.00396735 0.986557 0.359396
0.00396735 0.986557 0.22623
0.0572061 0.986557 0.0372168
0.542351 0.97261 0.00396735
0.830365 0.901228 0.0295109
0.932662 0.883436 0.0499733
0.929091 0.873991 0.0450141
0.926863 0.86862 0.042771
0.00396735 0.986557 0.495125
0.00396735 0.986557 0.406973
0.00396735 0.986557 0.26804
0.00396735 0.986557 0.0297398
0.409751 0.986557 0.14609
0.786938 0.979583 0.174258
0.93901 0.98294 0.184741
0.967697 0.984634 0.171786
0.967697 0.984634 0.171786
0.00396735 0.986557 0.523445
0.00396735 0.986557 0.440314
0.00396735 0.986557 0.319265
0.00396735 0.986557 0.0359197
0.337041 0.986557 0.12755
0.746563 0.986557 0.1458
0.920699 0.982818 0.153613
0.967697 0.984634 0.171786
0.967697 0.984634 0.171786
0.00396735 0.986557 0.537682
0.00396735 0.986557 0.458259
0.00396735 0.986557 0.344381
0.00396735 0.986557 0.0353857
0.299519 0.986557 0.113893
0.72842 0.986557 0.129229
0.908248 0.979721 0.164477
0.967697 0.984634 0.171786
0.967697 0.984634 0.171786
0.0285191 0.0272831 0.49604
0.240421 0.0140841 0.518608
0.41146 0.00531014 0.540841
0.610025 0 0.592218
0.872541 0.00396735 0.675929
0.960815 0.00396735 0.733898
0.960433 0.00396735 0.759441
0.960174 0.00396735 0.774731
0.960037 0.00396735 0.782712
0.00396735 0.0927749 0.421363
0.0401465 0.0239872 0.470497
0.310643 0.0091249 0.50782
0.562448 0 0.546777
0.834348 0.00396735 0.613657
0.968261 0.00396735 0.668635
0.96585 0.00396735 0.690303
0.964324 0.00396735 0.703899
0.9635 0.00396735 0.710903
0.00396735 0.221317 0.406821
0.00396735 0.17734 0.424643
0.142565 0.123583 0.4757
0.516197 0.0316014 0.499611
0.793881 0.00396735 0.531716
0.969787 0.00396735 0.588998
0.972808 0.00396735 0.610559
0.971923 0.00396735 0.62417
0.971283 0.00396735 0.631388
0.00396735 0.464485 0.45127
0.00396735 0.448783 0.437034
0.00396735 0.431769 0.421714
0.44918 0.44918 0.44918
0.758129 0.378561 0.430152
0.984939 0.217716 0.450767
0.984268 0.133089 0.455009
0.979294 0.0748302 0.455604
0.972854 0.033814 0.454688
0.00396735 0.714565 0.511742
0.00396735 0.711727 0.476402
0.00396735 0.713344 0.424964
0.104875 0.749279 0.27393
0.633844 0.675731 0.26334
0.900496 0.639719 0.294057
0.96582 0.587457 0.286809
0.959426 0.566537 0.275792
0.957412 0.553491 0.27129
0.00396735 0.942092 0.57023
0.00396735 0.94754 0.524315
0.00396735 0.956756 0.461021
0.00396735 0.976928 0.255329
0.330297 0.966003 0.0483558
0.811231 0.882094 0.0202945
0.929229 0.853834 0.0361791
0.929366 0.840116 0.0312352
0.929915 0.832578 0.0290837
0.00396735 0.986557 0.614511
0.00396735 0.986557 0.56556
0.00396735 0.986557 0.49868
0.00396735 0.986557 0.288182
0.251987 0.986557 0.103395
0.732082 0.986557 0.133059
0.927275 0.982498 0.158618
0.967727 0.980255 0.129198
0.967483 0.977813 0.111513
0.00396735 0.98378 0.636072
0.00396735 0.986557 0.588052
0.00396735 0.986557 0.524407
0.00396735 0.986557 0.337865
0.213245 0.986557 0.0714427
0.694057 0.986557 0.161105
0.898131 0.978256 0.171176
0.968093 0.984665 0.17142
0.968109 0.98468 0.171389
0.00396735 0.981308 0.646769
0.00396735 0.986557 0.599557
0.00396735 0.986557 0.537514
0.00396735 0.986557 0.360784
0.17084 0.986557 0.0699168
0.676738 0.986557 0.173037
0.880705 0.9738 0.185336
0.966583 0.984512 0.172839
0.968063 0.984665 0.17142
0.0531167 0.0492714 0.67422
0.261677 0.0318151 0.697459
0.436011 0.0263523 0.727535
0.618921 0.00802625 0.758694
0.854078 0.00396735 0.828565
0.956786 0.00396735 0.893782
0.955886 0.00396735 0.920592
0.955337 0.00396735 0.934173
0.954986 0.00396735 0.940658
0.00396735 0.110353 0.618677
0.0683146 0.0424353 0.654459
0.317891 0.0284886 0.693294
0.564477 0.0139162 0.730922
0.812268 0.00396735 0.788052
0.958129 0.00396735 0.852018
0.957427 0.00396735 0.874495
0.957 0.00396735 0.887556
0.956771 0.00396735 0.894255
0.00396735 0.177081 0.57554
0.00396735 0.117144 0.589364
0.0933089 0.0364233 0.636362
0.484733 0.0189364 0.697414
0.763073 0 0.741695
0.95967 0.00396735 0.800488
0.959228 0.00396735 0.819776
0.958923 0.00396735 0.831586
0.958679 0.00396735 0.837659
0.00396735 0.428595 0.602014
0.00396735 0.400626 0.60943
0.00396735 0.366201 0.622751
0.354467 0.342611 0.663188
0.721813 0.266438 0.694194
0.981308 0.044419 0.716411
0.964065 0.00396735 0.711208
0.964202 0.00396735 0.71162
0.963806 0.00396735 0.712993
0.00396735 0.65156 0.642313
0.00396735 0.640589 0.631968
0.00396735 0.629648 0.621958
0.038468 0.612558 0.602731
0.626856 0.626856 0.626856
0.913146 0.579004 0.617487
0.984176 0.526482 0.618479
0.985595 0.501015 0.620142
0.986358 0.486778 0.621073
0.00396735 0.875669 0.691737
0.00396735 0.871244 0.669749
0.00396735 0.867796 0.64419
0.00396735 0.867826 0.583093
0.398383 0.913283 0.547082
0.795132 0.838514 0.509773
0.957137 0.805219 0.535637
0.959365 0.787228 0.536126
0.96051 0.77702 0.535988
0.00396735 0.959381 0.741726
0.00396735 0.96524 0.716167
0.00396735 0.972564 0.686137
0.00396735 0.986557 0.614466
0.00396735 0.986557 0.312551
0.66305 0.986557 0.379477
0.917891 0.971069 0.356909
0.970764 0.966308 0.314778
0.969329 0.960845 0.324407
0.00396735 0.955779 0.757733
0.00396735 0.96199 0.730404
0.00396735 0.969406 0.698924
0.00396735 0.986145 0.625772
0.00396735 0.986557 0.347982
0.559319 0.986557 0.266361
0.873838 0.974289 0.18912
0.971206 0.984451 0.248753
0.971176 0.984482 0.244694
0.00396735 0.953994 0.766079
0.00396735 0.960266 0.737911
0.00396735 0.967727 0.705669
0.00396735 0.98468 0.632044
0.00396735 0.986557 0.372503
0.460334 0.986557 0.195224
0.844541 0.968277 0.211948
0.951141 0.983352 0.202853
0.970916 0.984924 0.175937
0.043183 0.108751 0.83859
0.26836 0.0849165 0.867018
0.44358 0.0738231 0.902083
0.638132 0.0498054 0.938842
0.850034 0 0.965301
0.949874 0.00396735 0.986557
0.949874 0.00396735 0.986557
0.949874 0.00396735 0.986557
0.949874 0.00396735 0.986557
0.00396735 0.139757 0.790784
0.0638895 0.100679 0.82089
0.315694 0.0751659 0.86302
0.572152 0.0542153 0.915145
0.803998 0 0.943648
0.951629 0.00396735 0.983719
0.949874 0.00396735 0.986557
0.949874 0.00396735 0.986557
0.949874 0.00396735 0.986557
0.00396735 0.184924 0.743725
0.00396735 0.139971 0.764446
0.0805676 0.0911116 0.800137
0.478828 0.0569162 0.880598
0.751705 0.0105135 0.920684
0.953552 0.00396735 0.963317
0.952392 0.00396735 0.977401
0.951568 0.00396735 0.984115
0.951034 0.00396735 0.986557
0.00396735 0.394034 0.743542
0.00396735 0.363653 0.759655
0.00396735 0.322103 0.779965
0.260029 0.252552 0.824155
0.673487 0.171389 0.892241
0.937362 0.00396735 0.914672
0.95613 0.00396735 0.918364
0.955932 0.00396735 0.923858
0.95581 0.00396735 0.927413
0.00396735 0.63238 0.766171
0.00396735 0.614038 0.770123
0.00396735 0.59321 0.777691
0.00396735 0.544808 0.801053
0.561502 0.558953 0.817853
0.881163 0.508827 0.851133
0.975372 0.441917 0.855573
0.975692 0.412863 0.855726
0.975814 0.396124 0.855711
0.00396735 0.819898 0.81709
0.00396735 0.810269 0.807584
0.00396735 0.800504 0.798184
0.00396735 0.783383 0.781704
0.370825 0.77052 0.758968
0.783551 0.783551 0.783551
0.971603 0.746502 0.777798
0.977844 0.726314 0.777417
0.978454 0.71603 0.777447
0.00396735 0.938476 0.852979
0.00396735 0.941253 0.836362
0.00396735 0.944137 0.819501
0.00396735 0.944823 0.786923
0.00396735 0.946731 0.704723
0.648646 0.968277 0.739284
0.905608 0.933944 0.727916
0.96141 0.918517 0.726513
0.961349 0.910918 0.727306
0.00396735 0.934936 0.874418
0.00396735 0.938338 0.853773
0.00396735 0.942 0.832044
0.00396735 0.948806 0.792828
0.00396735 0.969512 0.703883
0.540459 0.986557 0.667628
0.864439 0.985595 0.686488
0.969406 0.983276 0.747478
0.97673 0.983841 0.740536
0.00396735 0.933257 0.8851
0.00396735 0.936797 0.863203
0.00396735 0.94081 0.839017
0.00396735 0.94818 0.796429
0.00396735 0.968948 0.705028
0.474037 0.986557 0.627924
0.828183 0.986557 0.697948
0.953918 0.983703 0.694347
0.976226 0.983658 0.704997
0.078645 0.115465 0.871489
0.285985 0.103746 0.910933
0.454078 0.0965286 0.941802
0.651652 0.0679637 0.971862
0.86836 0 0.986557
0.949874 0.00396735 0.986557
0.949874 0.00396735 0.986557
0.949874 0.00396735 0.986557
0.949874 0.00396735 0.986557
0.00396735 0.152697 0.840482
0.0799573 0.115434 0.871717
0.318547 0.10312 0.916381
0.578042 0.0836347 0.962478
0.818967 0.0140536 0.983139
0.949874 0.00396735 0.986557
0.949874 0.00396735 0.986557
0.949874 0.00396735 0.986557
0.949874 0.00396735 0.986557
0.00396735 0.217365 0.862684
0.00396735 0.160433 0.843153
0.0703746 0.11606 0.870649
0.47599 0.09514 0.945602
0.759777 0.035935 0.980972
0.949874 0.00396735 0.986557
0.949874 0.00396735 0.986557
0.949874 0.00396735 0.986557
0.949874 0.00396735 0.986557
0.00396735 0.374792 0.855955
0.00396735 0.343481 0.87013
0.00396735 0.297459 0.883101
0.186618 0.197665 0.900175
0.634012 0.106783 0.970794
0.916014 0.00396735 0.986557
0.949981 0.00396735 0.986557
0.949966 0.00396735 0.986557
0.949966 0.00396735 0.986557
0.00396735 0.598749 0.871946
0.00396735 0.580606 0.877974
0.00396735 0.561196 0.886213
0.00396735 0.517006 0.907423
0.4907 0.501183 0.923278
0.836378 0.466239 0.968841
0.962829 0.389868 0.981857
0.964218 0.358053 0.983169
0.964797 0.338842 0.983764
0.00396735 0.814725 0.892866
0.00396735 0.805005 0.891051
0.00396735 0.792111 0.891157
0.00396735 0.763684 0.895582
0.253513 0.721325 0.894545
0.735836 0.736721 0.915587
0.955367 0.700038 0.935027
0.969451 0.676493 0.934295
0.969116 0.66601 0.933532
0.00396735 0.929839 0.934478
0.00396735 0.923827 0.928313
0.00396735 0.916915 0.921721
0.00396735 0.90457 0.909728
0.00396735 0.885496 0.890059
0.641566 0.888426 0.88101
0.89987 0.89987 0.89987
0.971817 0.885939 0.89868
0.972091 0.877028 0.897398
0.00396735 0.931945 0.948882
0.00396735 0.930526 0.941466
0.00396735 0.929702 0.933242
0.00396735 0.928695 0.914351
0.00396735 0.937285 0.865232
0.422827 0.94995 0.830854
0.847761 0.980911 0.889891
0.964523 0.97435 0.905669
0.974273 0.967941 0.892897
0.00396735 0.933242 0.95494
0.00396735 0.931701 0.947387
0.00396735 0.93019 0.938109
0.00396735 0.928298 0.917128
0.00396735 0.937942 0.860426
0.31516 0.951003 0.809445
0.808484 0.984421 0.863951
0.943282 0.980911 0.870619
0.980728 0.983841 0.925978
0.110582 0.113344 0.878233
0.310124 0.103456 0.914992
0.466468 0.0957046 0.943801
0.662196 0.0653697 0.973114
0.88069 0 0.986557
0.949874 0.00396735 0.986557
0.949874 0.00396735 0.986557
0.949874 0.00396735 0.986557
0.949874 0.00396735 0.986557
0.00396735 0.144274 0.837415
0.110201 0.11339 0.878126
0.333074 0.102586 0.918959
0.586755 0.0820935 0.96376
0.827024 0.00791943 0.983154
0.949874 0.00396735 0.986557
0.949874 0.00396735 0.986557
0.949874 0.00396735 0.986557
0.949874 0.00396735 0.986557
0.00396735 0.213275 0.861204
0.00396735 0.152911 0.840558
0.105592 0.113832 0.876722
0.484306 0.0945754 0.947158
0.765698 0.0340887 0.981369
0.949874 0.00396735 0.986557
0.949874 0.00396735 0.986557
0.949874 0.00396735 0.986557
0.949874 0.00396735 0.986557
0.00396735 0.363363 0.895521
0.00396735 0.320745 0.887541
0.00396735 0.259022 0.874495
0.167987 0.141085 0.893812
0.630106 0.0826276 0.969741
0.914641 0.00396735 0.986557
0.949966 0.00396735 0.986557
0.949966 0.00396735 0.986557
0.949966 0.00396735 0.986557
0.00396735 0.589868 0.924041
0.00396735 0.571145 0.923522
0.00396735 0.549126 0.920027
0.00396735 0.497124 0.91252
0.475334 0.471122 0.922393
0.825086 0.431388 0.971984
0.963851 0.344747 0.986557
0.964813 0.307408 0.986557
0.96495 0.285328 0.986557
0.00396735 0.806271 0.938567
0.00396735 0.791058 0.940276
0.00396735 0.774502 0.943221
0.00396735 0.741299 0.943069
0.190631 0.696345 0.933318
0.705425 0.706966 0.94873
0.938933 0.677409 0.972503
0.960708 0.65153 0.973144
0.960296 0.64097 0.973236
0.00396735 0.928252 0.962219
0.00396735 0.921813 0.95906
0.00396735 0.915129 0.956344
0.00396735 0.90251 0.952682
0.00396735 0.88191 0.952819
0.588586 0.862959 0.942626
0.877943 0.87924 0.960433
0.969314 0.863279 0.968887
0.968963 0.853986 0.968261
0.00396735 0.936645 0.965072
0.00396735 0.936645 0.965072
0.00396735 0.936645 0.965072
0.00396735 0.935088 0.961334
0.00396735 0.932647 0.949584
0.205158 0.927947 0.92958
0.848676 0.954299 0.951415
0.960998 0.960998 0.960998
0.975891 0.957488 0.960922
0.00396735 0.936645 0.965072
0.00396735 0.936645 0.965072
0.00396735 0.936645 0.965072
0.00396735 0.935699 0.96289
0.00396735 0.931609 0.945052
0.017792 0.934447 0.927565
0.793713 0.965164 0.937697
0.951858 0.980194 0.961486
0.98323 0.983627 0.972793
0.122332 0.112139 0.881025
0.32166 0.102983 0.916762
0.472999 0.0953078 0.944976
0.667842 0.0638895 0.973632
0.887175 0.00396735 0.986557
0.949874 0.00396735 0.986557
0.949874 0.00396735 0.986557
0.949874 0.00396735 0.986557
0.949874 0.00396735 0.986557
0.00396735 0.13962 0.835874
0.121431 0.112245 0.880842
0.340703 0.102312 0.920424
0.591302 0.0812695 0.964446
0.831357 0.00485237 0.983215
0.949874 0.00396735 0.986557
0.949874 0.00396735 0.986557
0.949874 0.00396735 0.986557
0.949874 0.00396735 0.986557
0.00396735 0.210636 0.860548
0.00396735 0.148119 0.838682
0.117037 0.112749 0.880125
0.489036 0.0942245 0.947982
0.768978 0.0331426 0.981476
0.949874 0.00396735 0.986557
0.949889 0.00396735 0.986557
0.949874 0.00396735 0.986557
0.949874 0.00396735 0.986557
0.00396735 0.349081 0.89308
0.00396735 0.302296 0.884108
0.00396735 0.236591 0.86833
0.161471 0.114656 0.889693
0.631113 0.0726482 0.969482
0.914641 0.00396735 0.986557
0.94995 0.00396735 0.986557
0.949966 0.00396735 0.986557
0.94995 0.00396735 0.986557
0.00396735 0.582742 0.925795
0.00396735 0.562417 0.922271
0.00396735 0.539071 0.918364
0.00396735 0.484779 0.910674
0.467384 0.454078 0.921401
0.819181 0.410834 0.972671
0.964569 0.315572 0.986557
0.965164 0.27509 0.986557
0.965606 0.252293 0.986557
0.00396735 0.8 0.945815
0.00396735 0.783688 0.945006
0.00396735 0.766079 0.944213
0.00396735 0.730602 0.942473
0.179522 0.683345 0.932647
0.698573 0.694072 0.948699
0.933989 0.663478 0.972259
0.960357 0.636561 0.973495
0.959808 0.62594 0.973495
0.00396735 0.926757 0.962539
0.00396735 0.920272 0.960815
0.00396735 0.913283 0.958877
0.00396735 0.899153 0.955932
0.00396735 0.873564 0.952544
0.581155 0.850736 0.943099
0.869764 0.86746 0.964096
0.968032 0.850782 0.972961
0.967636 0.841382 0.9729
0.00396735 0.936645 0.965072
0.00396735 0.936645 0.965072
0.00396735 0.936645 0.965072
0.00396735 0.936645 0.965072
0.00396735 0.937026 0.96527
0.103532 0.928161 0.957168
0.828412 0.949386 0.9673
0.954879 0.954162 0.973693
0.974746 0.949783 0.975967
0.00396735 0.936645 0.965072
0.00396735 0.936645 0.965072
0.00396735 0.936645 0.965072
0.00396735 0.936645 0.965072
0.00396735 0.936965 0.96524
0.00396735 0.941695 0.967269
0.755657 0.957198 0.963607
0.955398 0.978302 0.979141
0.98555 0.98555 0.98555
