bundles/resolve-cinematic-luts/Phantom Luts/Canon Alexa LUT/C-Log 3/Neutral Canon CL3-Legacy.cube
TITLE "Generated by Resolve"
LUT_3D_SIZE 33
0.031693 0.0316625 0.0316625
0.031693 0.0316625 0.0316625
0.0398718 0.0314031 0.0318608
0.108812 0.0291295 0.0355993
0.156435 0.0279698 0.0385595
0.201282 0.0280613 0.0425116
0.248417 0.0280766 0.0479744
0.303639 0.026978 0.0561227
0.359533 0.0260777 0.0675517
0.415915 0.0250858 0.0869917
0.473091 0.0285344 0.103197
0.5299 0.0286564 0.116838
0.587106 0.0287175 0.136019
0.644266 0.0288243 0.157855
0.703731 0.0289006 0.18085
0.770886 0.0291295 0.20853
0.846281 0.0293278 0.241215
0.92137 0.0293889 0.276249
0.932097 0.0294347 0.29247
0.933455 0.0294499 0.304936
0.93431 0.0294652 0.315389
0.935149 0.0295109 0.325093
0.935927 0.0295109 0.333806
0.936248 0.0295262 0.341146
0.936675 0.0294652 0.347784
0.937041 0.0294194 0.353475
0.937407 0.0294194 0.358816
0.937499 0.0294347 0.363394
0.937621 0.0294347 0.367224
0.937804 0.0294499 0.370504
0.937926 0.0294499 0.37351
0.938033 0.0294499 0.375998
0.93817 0.0294499 0.377539
0.031693 0.0316625 0.0316625
0.031693 0.0316625 0.0316625
0.031693 0.0316625 0.0316625
0.0616617 0.0317693 0.0318456
0.119081 0.0296941 0.0341344
0.167269 0.0285649 0.0359503
0.213046 0.0278172 0.03682
0.262974 0.0269932 0.0377508
0.32163 0.0258335 0.0396735
0.379477 0.0283818 0.0452735
0.436164 0.0285039 0.0531319
0.491966 0.0285191 0.0631266
0.548333 0.0286259 0.0928664
0.610895 0.028809 0.112032
0.672038 0.0289311 0.131655
0.736675 0.0290532 0.155795
0.815167 0.029221 0.185718
0.895094 0.0294194 0.222644
0.92369 0.0294652 0.244907
0.926162 0.0294652 0.255787
0.928084 0.0293889 0.266331
0.929763 0.0294041 0.276677
0.931395 0.0294194 0.2869
0.93257 0.0294347 0.296559
0.933501 0.0294499 0.305394
0.933944 0.0294652 0.3122
0.934569 0.0294804 0.31809
0.934981 0.0294957 0.323629
0.935347 0.0295109 0.327733
0.935668 0.0295109 0.331518
0.935988 0.0295262 0.334234
0.936172 0.0295262 0.33669
0.936126 0.0295262 0.338689
0.031693 0.0316625 0.0316625
0.031693 0.0316625 0.0316625
0.031693 0.0316625 0.0316625
0.0345769 0.0328985 0.0316014
0.0764172 0.0362097 0.0312352
0.124514 0.0357824 0.031754
0.174166 0.0350652 0.0320897
0.226352 0.0341192 0.0322423
0.28513 0.0318761 0.0328222
0.349645 0.0284276 0.0341497
0.409079 0.0269322 0.0386206
0.468864 0.0251774 0.0449683
0.526802 0.0285496 0.0558785
0.584161 0.0287633 0.0746014
0.63859 0.0288243 0.0952163
0.697688 0.0289158 0.114458
0.770336 0.0290837 0.140871
0.850492 0.0292515 0.168765
0.895384 0.0293889 0.192981
0.90367 0.0294041 0.20589
0.911665 0.0293736 0.219135
0.918578 0.0294347 0.232303
0.923796 0.0294652 0.243519
0.925872 0.0294957 0.252461
0.92723 0.0293889 0.26038
0.928542 0.0293889 0.267552
0.929427 0.0294041 0.27364
0.930404 0.0294194 0.279545
0.931151 0.0294194 0.285084
0.931746 0.0294347 0.289265
0.932189 0.0294347 0.293324
0.93257 0.0294347 0.296529
0.932891 0.0294499 0.299046
0.0274205 0.0553445 0.0319829
0.029984 0.0443427 0.0303502
0.0331273 0.0378271 0.0315251
0.0330358 0.0333257 0.0315251
0.0435645 0.0374609 0.0318761
0.0918288 0.0424811 0.03122
0.134478 0.0443275 0.0302892
0.187198 0.0446784 0.0304112
0.248173 0.042649 0.031632
0.316594 0.0390173 0.0328069
0.383459 0.0345312 0.0339513
0.449454 0.0297093 0.0360418
0.509728 0.026688 0.0423133
0.568444 0.0286564 0.0548562
0.625299 0.0288396 0.0723125
0.682521 0.0289311 0.0991684
0.740902 0.0290074 0.117617
0.819562 0.0292058 0.14786
0.873594 0.0293736 0.161883
0.874723 0.0293889 0.163836
0.882887 0.0293126 0.174411
0.891737 0.0293736 0.185458
0.899214 0.0294041 0.196521
0.905608 0.0293431 0.206744
0.911955 0.0293736 0.216724
0.917082 0.0294041 0.225925
0.921141 0.0294347 0.233906
0.923873 0.0294499 0.240284
0.925155 0.0294652 0.245045
0.926009 0.0294957 0.249363
0.926772 0.0294804 0.252674
0.927245 0.0294347 0.255619
0.927626 0.0294041 0.258198
0.0285191 0.114229 0.0318608
0.0284581 0.106767 0.0271916
0.0329595 0.0930037 0.0277104
0.0399023 0.0810559 0.0292515
0.0595865 0.068101 0.0284123
0.0903487 0.0783398 0.0294652
0.124926 0.0824903 0.0309911
0.172274 0.0771801 0.0317693
0.219913 0.0700847 0.0296178
0.276631 0.057908 0.0295415
0.350896 0.0493935 0.0318608
0.422705 0.0417334 0.0343023
0.490379 0.0347448 0.0370031
0.554345 0.0280461 0.0411383
0.613138 0.0287785 0.0554971
0.669795 0.0288548 0.0796063
0.72929 0.0290684 0.105715
0.79501 0.0291752 0.127489
0.874083 0.0293736 0.159411
0.87538 0.0293736 0.160311
0.874876 0.0293736 0.160784
0.874372 0.0293736 0.161227
0.873899 0.0293736 0.161639
0.878737 0.0293126 0.166995
0.885008 0.0293126 0.175113
0.891142 0.0293584 0.182986
0.896315 0.0293736 0.190249
0.900435 0.0294194 0.196384
0.904173 0.0294347 0.201892
0.907073 0.0293278 0.206638
0.909789 0.0293736 0.210895
0.912245 0.0293736 0.214664
0.914229 0.0293889 0.217746
0.0284581 0.160494 0.0321965
0.0284733 0.152468 0.0254215
0.0285954 0.13727 0.0284886
0.0388495 0.126543 0.0270237
0.0640421 0.114504 0.0254063
0.10338 0.112871 0.025452
0.121309 0.115145 0.0269017
0.166384 0.117754 0.0281834
0.221851 0.113848 0.0305638
0.281178 0.107362 0.0322728
0.337179 0.101686 0.0294804
0.39765 0.0871901 0.0301366
0.464088 0.0577707 0.0333257
0.534234 0.0394751 0.0382239
0.599664 0.0293431 0.0417792
0.658335 0.0288701 0.0587472
0.716899 0.0289616 0.0884108
0.782116 0.0290837 0.112367
0.848875 0.0292058 0.143679
0.875547 0.0293736 0.156405
0.876173 0.0293736 0.157794
0.876646 0.0293736 0.159075
0.876234 0.0293736 0.159503
0.875837 0.0293736 0.159899
0.875441 0.0293736 0.16025
0.875105 0.0293736 0.160571
0.8748 0.0293736 0.160845
0.874937 0.0293736 0.161517
0.877913 0.0293584 0.164492
0.880293 0.0292668 0.167285
0.882002 0.0292973 0.169757
0.884703 0.0293126 0.172854
0.886946 0.0293126 0.175601
0.0285039 0.206683 0.0331121
0.0285649 0.199344 0.0285649
0.0285496 0.186664 0.0285496
0.0370031 0.174517 0.0284733
0.0485237 0.166415 0.0285649
0.0972152 0.154589 0.0286564
0.132021 0.151629 0.0285954
0.162188 0.152621 0.0285954
0.208667 0.155962 0.0258793
0.272526 0.151431 0.0283207
0.343236 0.138552 0.0322728
0.400412 0.127428 0.0321813
0.455161 0.116991 0.0306249
0.514031 0.103426 0.0324102
0.579019 0.0675669 0.0367437
0.644388 0.0332494 0.043473
0.703914 0.0256504 0.062623
0.767498 0.0291142 0.0949264
0.834195 0.029221 0.12015
0.873426 0.0293431 0.144015
0.873701 0.0293584 0.147341
0.873884 0.0293584 0.150973
0.873838 0.0293584 0.153307
0.87451 0.0293736 0.15433
0.87509 0.0293736 0.155413
0.875532 0.0293736 0.15639
0.875914 0.0293736 0.157305
0.87628 0.0293736 0.157961
0.87657 0.0293736 0.158648
0.876646 0.0293736 0.159106
0.876478 0.0293736 0.159258
0.876341 0.0293736 0.159396
0.876234 0.0293736 0.159503
0.0285039 0.259174 0.0357366
0.0285496 0.253376 0.0285496
0.0285801 0.242206 0.0285801
0.0331273 0.228367 0.0285649
0.0416571 0.219623 0.0285191
0.0685588 0.20676 0.0285801
0.11873 0.197955 0.0285801
0.169467 0.19295 0.0286412
0.205249 0.192599 0.0286259
0.25771 0.196628 0.0285344
0.33109 0.193805 0.0257572
0.398718 0.180392 0.0309758
0.464836 0.164523 0.0347448
0.513726 0.155138 0.0323796
0.568597 0.137667 0.0331426
0.625895 0.113191 0.0353246
0.692851 0.0695811 0.0423133
0.762432 0.029633 0.0534829
0.818769 0.0292363 0.100725
0.881544 0.0293736 0.129793
0.881468 0.0293736 0.132174
0.879728 0.0293584 0.13373
0.87776 0.0293431 0.135271
0.875898 0.0293431 0.136782
0.874189 0.0293431 0.138109
0.873243 0.0293584 0.139666
0.87332 0.0293431 0.142138
0.873457 0.0293584 0.14432
0.873594 0.0293431 0.145937
0.873701 0.0293584 0.14725
0.873777 0.0293584 0.148562
0.873823 0.0293584 0.149676
0.873869 0.0293584 0.150622
0.0285954 0.322332 0.0407416
0.0286259 0.319188 0.0286259
0.0286412 0.308553 0.0286412
0.0262455 0.290974 0.0285191
0.0392157 0.278355 0.028687
0.0480812 0.269642 0.0286412
0.103029 0.256764 0.0285344
0.15079 0.247089 0.0286259
0.210269 0.241047 0.0285191
0.253788 0.239963 0.0285801
0.31487 0.244495 0.0286564
0.385519 0.24445 0.0286412
0.453544 0.231037 0.0295109
0.519234 0.211719 0.0350195
0.578241 0.193149 0.0380255
0.623743 0.181277 0.0345464
0.677714 0.157275 0.0363165
0.736934 0.12108 0.0405737
0.822889 0.0663615 0.0542458
0.890425 0.0287938 0.0815137
0.902693 0.0294499 0.106111
0.894453 0.0294194 0.113848
0.891752 0.0294194 0.12221
0.890318 0.0294041 0.123583
0.888945 0.0294041 0.124941
0.887617 0.0293889 0.126101
0.886381 0.0293889 0.127291
0.885283 0.0293889 0.128328
0.884504 0.0293889 0.129335
0.883848 0.0293889 0.13022
0.883116 0.0293889 0.130892
0.882506 0.0293889 0.131334
0.882017 0.0293889 0.131685
0.0287175 0.385565 0.0486763
0.0286717 0.385779 0.0286717
0.0287022 0.379843 0.0287022
0.0286107 0.363272 0.0286107
0.0345769 0.348486 0.0285954
0.0422827 0.339132 0.0287022
0.0585031 0.329412 0.0286564
0.127031 0.319585 0.0285954
0.185565 0.303746 0.0285496
0.258854 0.296925 0.0286412
0.311803 0.294545 0.0285801
0.370855 0.300969 0.0286259
0.438788 0.303548 0.0286107
0.506996 0.29073 0.027985
0.570809 0.269169 0.0346685
0.633448 0.245686 0.0409247
0.685008 0.2271 0.0401465
0.731563 0.206271 0.0388495
0.794858 0.173587 0.0427863
0.86424 0.12755 0.0503853
0.917205 0.0843061 0.0636149
0.919341 0.0557259 0.0658885
0.919234 0.0390021 0.0669871
0.916869 0.0313115 0.0732738
0.912032 0.0285191 0.0891432
0.907591 0.0260166 0.0971389
0.904036 0.0294499 0.104601
0.899947 0.0294194 0.108965
0.896757 0.0294194 0.112383
0.896132 0.0294194 0.112917
0.895598 0.0294194 0.113329
0.895109 0.0294194 0.113756
0.894362 0.0294194 0.113817
0.0287938 0.448661 0.057145
0.0288853 0.450278 0.0303349
0.0287785 0.446128 0.0287785
0.0287938 0.434928 0.0287938
0.0281376 0.419959 0.0287785
0.0419776 0.406699 0.0287327
0.0493019 0.397864 0.0287022
0.079942 0.388434 0.028687
0.164279 0.383124 0.0285954
0.231037 0.361975 0.0285954
0.317266 0.35787 0.0286564
0.371038 0.355154 0.0286717
0.426291 0.361379 0.0287175
0.49099 0.365072 0.0287022
0.558831 0.357961 0.0254368
0.620264 0.337346 0.033463
0.683528 0.312139 0.04094
0.747005 0.279011 0.0475776
0.797711 0.259724 0.0448157
0.851713 0.231327 0.0470436
0.90074 0.193637 0.0523537
0.900435 0.177279 0.0525216
0.90016 0.162188 0.0527047
0.90074 0.147127 0.0532387
0.902739 0.131029 0.0545205
0.906188 0.116487 0.0562905
0.910903 0.106188 0.0594797
0.914778 0.0943008 0.0620432
0.917433 0.0814527 0.0637675
0.918654 0.0681926 0.0650339
0.919188 0.0600595 0.0657511
0.919402 0.0531014 0.0660563
0.919341 0.0481117 0.0663767
0.0289311 0.509178 0.0639658
0.0289006 0.511421 0.0394751
0.0288853 0.509514 0.0288853
0.0288853 0.502937 0.0288853
0.0289006 0.491279 0.0289006
0.0355077 0.478431 0.0288701
0.0492103 0.466468 0.0289158
0.061387 0.457313 0.0288396
0.11162 0.449607 0.0287938
0.20676 0.445304 0.028748
0.285145 0.419867 0.0286564
0.375662 0.41799 0.0286717
0.429328 0.414725 0.0286259
0.480003 0.420157 0.0286412
0.542367 0.424063 0.0286412
0.608957 0.422019 0.0287327
0.668849 0.403388 0.0322728
0.731624 0.380484 0.0408789
0.805493 0.350271 0.0496834
0.870848 0.317067 0.0613413
0.908736 0.293095 0.0558633
0.911467 0.276875 0.0540017
0.909239 0.264179 0.0532387
0.907485 0.252567 0.0530251
0.905531 0.241947 0.0526894
0.903868 0.231754 0.0524758
0.902281 0.221851 0.0521096
0.90161 0.213321 0.0521248
0.901274 0.206027 0.0522164
0.900679 0.19942 0.0520943
0.900801 0.193835 0.052369
0.900649 0.189075 0.0523537
0.900679 0.185031 0.0525368
0.0290379 0.569253 0.0738994
0.0290074 0.571969 0.0530251
0.029099 0.572778 0.029099
0.0290837 0.569039 0.0290837
0.0290227 0.559319 0.0290227
0.0272068 0.547387 0.0289769
0.0434272 0.535134 0.0289158
0.0584421 0.524483 0.0289921
0.082002 0.514427 0.0289464
0.15967 0.508598 0.0287938
0.256153 0.505089 0.0287785
0.347143 0.476661 0.028748
0.431998 0.476692 0.0286259
0.485252 0.472938 0.0285954
0.531792 0.477699 0.028748
0.592569 0.481285 0.0287785
0.652934 0.480919 0.028748
0.717113 0.468666 0.0295262
0.785519 0.447456 0.0388495
0.854704 0.42031 0.0493629
0.921431 0.387762 0.0638285
0.947173 0.363867 0.0732433
0.945937 0.351659 0.0742809
0.943481 0.342321 0.0720836
0.939849 0.33402 0.0694743
0.935775 0.32752 0.0674907
0.931991 0.32166 0.0653544
0.927535 0.315953 0.0631723
0.924346 0.311406 0.0617533
0.921447 0.306691 0.0599985
0.918929 0.302281 0.0584268
0.917494 0.299016 0.0577401
0.916213 0.295552 0.0567941
0.0292821 0.629908 0.0895247
0.0292668 0.632746 0.0699626
0.0292058 0.63476 0.0307012
0.0291905 0.632242 0.0261845
0.0292058 0.626764 0.0292058
0.0291752 0.616526 0.0291752
0.0352789 0.603845 0.0290684
0.0594186 0.591028 0.0291905
0.073579 0.581064 0.0290227
0.106645 0.572534 0.0289921
0.218311 0.568215 0.0289006
0.316274 0.563104 0.0287633
0.407401 0.530709 0.0287175
0.487251 0.533913 0.0287327
0.539727 0.529732 0.0287938
0.581384 0.532738 0.0287022
0.639704 0.536538 0.0287633
0.697719 0.537179 0.025452
0.768277 0.531945 0.0264591
0.835447 0.512764 0.0354467
0.89897 0.489448 0.0450294
0.946075 0.465095 0.0558022
0.946349 0.455467 0.0575723
0.94696 0.44625 0.0595865
0.947265 0.437369 0.0609445
0.947692 0.428931 0.062562
0.947967 0.421241 0.0642557
0.948104 0.414527 0.0654459
0.948318 0.408621 0.066453
0.948455 0.403677 0.0673075
0.948394 0.399619 0.0680247
0.94815 0.39588 0.0685283
0.948028 0.39266 0.0688029
0.0293584 0.693294 0.101274
0.0294041 0.696361 0.0931258
0.0293584 0.699947 0.0419165
0.0293126 0.698329 0.0284581
0.0294041 0.695186 0.0283818
0.0292973 0.685267 0.0292973
0.0265812 0.674083 0.0292058
0.0478065 0.660014 0.0292668
0.0800336 0.646876 0.0292363
0.097322 0.636927 0.0273899
0.139925 0.632517 0.0256809
0.281926 0.629099 0.0289616
0.376867 0.618814 0.0288701
0.466865 0.583383 0.0282902
0.539788 0.589776 0.028748
0.591852 0.585153 0.0287633
0.628611 0.58706 0.0287938
0.684443 0.590967 0.0288243
0.742168 0.59147 0.0267338
0.809644 0.58822 0.0280613
0.879042 0.577493 0.0310063
0.935561 0.556069 0.040116
0.944884 0.545785 0.0427405
0.94464 0.538048 0.0435492
0.94519 0.531243 0.0446784
0.945327 0.52517 0.0457618
0.945037 0.519417 0.0464942
0.945113 0.514488 0.0475929
0.94522 0.510109 0.0483558
0.945006 0.506127 0.0488441
0.945235 0.503029 0.0493782
0.945495 0.500221 0.0499733
0.945159 0.497704 0.0502632
0.0295262 0.763058 0.111864
0.0295415 0.767758 0.110048
0.0296025 0.772641 0.0634623
0.0295567 0.77377 0.0325933
0.0294652 0.769787 0.0308843
0.029572 0.76495 0.0300603
0.0294652 0.749172 0.0269627
0.0385595 0.7337 0.0272221
0.0706951 0.71812 0.0293736
0.0966506 0.705806 0.0289006
0.115877 0.694743 0.03122
0.19942 0.692714 0.0290684
0.352224 0.692805 0.0290379
0.436606 0.672358 0.0288243
0.523705 0.633341 0.0340124
0.590997 0.644358 0.0289006
0.6421 0.639612 0.0288396
0.678706 0.640543 0.0288548
0.727611 0.643839 0.0265507
0.790341 0.644221 0.0287327
0.847181 0.64181 0.0300603
0.90869 0.634928 0.0311284
0.943008 0.627207 0.0310674
0.943969 0.622049 0.0316777
0.943587 0.616358 0.0323186
0.94342 0.611246 0.0330205
0.94374 0.606485 0.0336461
0.943572 0.602258 0.0342107
0.943847 0.598398 0.0347601
0.943633 0.59501 0.0350958
0.943847 0.592203 0.0357214
0.943709 0.589639 0.035996
0.943725 0.587472 0.0363317
0.0296788 0.843519 0.123857
0.0296635 0.847715 0.124712
0.029633 0.852781 0.0912642
0.0297551 0.857069 0.0381933
0.0297704 0.854826 0.0357366
0.0297093 0.850187 0.0338445
0.0297093 0.839078 0.0304723
0.0293278 0.821927 0.0307622
0.0601053 0.80177 0.0302434
0.103502 0.783139 0.0290837
0.114702 0.769467 0.034287
0.154788 0.75993 0.0347906
0.29366 0.754833 0.0291447
0.418235 0.76289 0.0290227
0.494759 0.724941 0.0267185
0.578531 0.686076 0.0404974
0.63978 0.699611 0.0287633
0.691951 0.694575 0.028809
0.729137 0.694881 0.0262913
0.773159 0.696574 0.0291905
0.829435 0.69691 0.0314336
0.883238 0.694179 0.0330663
0.929137 0.688792 0.0337987
0.929488 0.685023 0.033753
0.930159 0.681453 0.0335546
0.930556 0.67776 0.0333715
0.930983 0.674357 0.0331273
0.932021 0.671595 0.0331579
0.932677 0.669032 0.0330663
0.932876 0.666743 0.0328527
0.933333 0.664668 0.0327916
0.933669 0.662898 0.0327306
0.934112 0.661524 0.0327611
0.0298009 0.922576 0.141024
0.0299077 0.927367 0.144366
0.0298924 0.932754 0.108721
0.029984 0.938262 0.057145
0.0299535 0.937545 0.0420539
0.0299382 0.932586 0.0375219
0.0299687 0.928923 0.0373693
0.0298619 0.910979 0.0348516
0.0476997 0.889799 0.0352331
0.0976883 0.868376 0.0337987
0.119402 0.851148 0.0367437
0.144793 0.836851 0.0409094
0.212757 0.834424 0.0380407
0.38616 0.829114 0.02916
0.480522 0.828687 0.029099
0.552575 0.780362 0.0357824
0.630228 0.741543 0.0465705
0.688548 0.756863 0.0266728
0.740337 0.750774 0.0269627
0.782147 0.749752 0.0297704
0.815641 0.748867 0.033402
0.863386 0.749615 0.0352789
0.911284 0.74696 0.0372473
0.928313 0.74316 0.0377203
0.928023 0.739788 0.0373236
0.928115 0.736446 0.0371405
0.928298 0.733654 0.0369268
0.928435 0.731517 0.03682
0.928466 0.729183 0.0366064
0.928512 0.727123 0.0364385
0.928374 0.725399 0.0361944
0.928298 0.723888 0.0360418
0.928161 0.722622 0.035935
0.0299535 0.984771 0.157626
0.0299535 0.984756 0.160983
0.0299382 0.984741 0.121538
0.030045 0.984878 0.0788128
0.0300145 0.984863 0.0489052
0.0300145 0.984863 0.0457008
0.0300145 0.984848 0.0415198
0.0300145 0.984802 0.040116
0.0387427 0.97116 0.04094
0.0911879 0.948562 0.0408331
0.129 0.929305 0.0390021
0.148745 0.915724 0.046952
0.187381 0.903609 0.0492714
0.314748 0.901305 0.0364996
0.463127 0.903227 0.0291447
0.540261 0.883619 0.0284886
0.610437 0.831754 0.0519417
0.681102 0.80322 0.0563516
0.736263 0.818753 0.0328222
0.791592 0.811994 0.0325933
0.831678 0.809247 0.0352331
0.863066 0.807767 0.0390173
0.894362 0.806836 0.0422217
0.924361 0.805814 0.0436561
0.924361 0.802823 0.0433051
0.924392 0.799924 0.0429541
0.923995 0.797391 0.0424353
0.924422 0.795331 0.0423896
0.924666 0.793301 0.0422522
0.924727 0.791287 0.0420539
0.924804 0.789532 0.0418555
0.924697 0.788052 0.0415808
0.924743 0.786725 0.0414435
0.0299535 0.984771 0.17406
0.0299535 0.984771 0.175631
0.0299382 0.984756 0.134463
0.030045 0.984894 0.092134
0.0300298 0.984878 0.0590219
0.0300298 0.984878 0.0581826
0.0300145 0.984863 0.0469215
0.0300145 0.984863 0.0465248
0.0349279 0.984909 0.0474556
0.0837262 0.984726 0.0485237
0.128573 0.984619 0.0459907
0.159289 0.978546 0.0535286
0.187488 0.968933 0.0615396
0.259602 0.964904 0.0571145
0.431617 0.95935 0.0317998
0.531991 0.966751 0.0292515
0.59736 0.925246 0.0436103
0.665904 0.873594 0.0834669
0.72903 0.858671 0.0700542
0.786725 0.873503 0.0412451
0.838361 0.868086 0.0410925
0.876219 0.864408 0.0443275
0.904799 0.86305 0.0496376
0.927596 0.861067 0.0554208
0.929976 0.85861 0.0559243
0.929137 0.856397 0.0554818
0.928054 0.854429 0.0550546
0.927077 0.852522 0.0545052
0.926192 0.850568 0.0540627
0.92546 0.848814 0.053727
0.925383 0.847379 0.0532845
0.925429 0.84622 0.0529488
0.925582 0.84535 0.0527657
0.0299687 0.984787 0.178531
0.0299687 0.984771 0.170459
0.0299382 0.984741 0.129412
0.030045 0.984894 0.092134
0.0300298 0.984863 0.0506447
0.0300298 0.984863 0.0515908
0.0300145 0.984863 0.0476081
0.0300145 0.984863 0.0493477
0.0316167 0.984863 0.0564431
0.0743725 0.984894 0.0587472
0.128679 0.984634 0.0580758
0.174517 0.984466 0.0596933
0.196277 0.984405 0.0745403
0.242786 0.984283 0.0787671
0.372091 0.984009 0.0556497
0.516457 0.983673 0.0303349
0.591028 0.983627 0.0382544
0.651728 0.954086 0.0793622
0.721325 0.906813 0.111238
0.780484 0.909163 0.0923781
0.833249 0.922667 0.057435
0.880278 0.918639 0.0585184
0.915236 0.915129 0.0652628
0.939834 0.913725 0.074876
0.949966 0.912169 0.0807813
0.949477 0.910277 0.079408
0.949294 0.908812 0.0782177
0.948592 0.907103 0.0765545
0.948074 0.905379 0.0751659
0.947616 0.903822 0.0739452
0.947021 0.902556 0.0729992
0.946487 0.901503 0.0721447
0.946151 0.900572 0.0715038
0.0299535 0.984771 0.176455
0.0299687 0.984787 0.18146
0.0299535 0.984756 0.148623
0.0300603 0.984924 0.109117
0.0300298 0.984878 0.0580606
0.0300145 0.984863 0.0481727
0.0300145 0.984863 0.0473182
0.0300145 0.984863 0.0451972
0.0300145 0.984863 0.0462654
0.0466926 0.984802 0.0572671
0.126314 0.984665 0.0719921
0.18439 0.984375 0.0707866
0.207736 0.984237 0.0911574
0.245304 0.984146 0.0955978
0.334096 0.983963 0.0911574
0.494881 0.98381 0.0446937
0.589578 0.983566 0.0352331
0.649104 0.983505 0.0795453
0.708232 0.973098 0.114519
0.778744 0.93959 0.135531
0.829953 0.952102 0.110185
0.875273 0.963272 0.0915084
0.916793 0.961257 0.0968185
0.946517 0.95761 0.106142
0.968551 0.959731 0.103227
0.967529 0.957748 0.104768
0.966354 0.955657 0.106294
0.965454 0.953567 0.107683
0.964614 0.951583 0.109087
0.964218 0.950362 0.108537
0.963821 0.949386 0.107805
0.963546 0.948714 0.107424
0.963256 0.948074 0.107042
0.0299535 0.984771 0.184283
0.0299687 0.984787 0.181598
0.0299535 0.984771 0.167071
0.0299382 0.984741 0.129
0.030045 0.984894 0.0925917
0.0300145 0.984863 0.0479591
0.0300145 0.984863 0.0484016
0.0300145 0.984863 0.0440223
0.0300145 0.984863 0.0451972
0.0344091 0.984909 0.0539101
0.110033 0.984665 0.0693828
0.172793 0.98439 0.0709392
0.210895 0.984268 0.0924392
0.252216 0.984176 0.103822
0.334981 0.983978 0.122515
0.471626 0.983597 0.120562
0.600473 0.983536 0.141466
0.653635 0.983368 0.121859
0.703838 0.983383 0.120378
0.770031 0.981842 0.156207
0.830701 0.974899 0.156985
0.873549 0.981353 0.138079
0.911986 0.983322 0.125292
0.946822 0.983291 0.134936
0.978103 0.983352 0.110765
0.980301 0.983337 0.107607
0.980362 0.983352 0.106218
0.980362 0.983398 0.104585
0.980331 0.983444 0.103075
0.980331 0.983474 0.101106
0.980301 0.983474 0.0991226
0.98027 0.983474 0.0975052
0.98024 0.98349 0.0959793
0.0299687 0.984787 0.198718
0.0299535 0.984771 0.176867
0.0299687 0.984787 0.179477
0.0299535 0.984756 0.149203
0.0300603 0.984909 0.111696
0.0300298 0.984878 0.0619669
0.0300145 0.984863 0.0482032
0.0300145 0.984863 0.0451362
0.0300145 0.984863 0.0451972
0.0300145 0.984863 0.0504616
0.0914473 0.984756 0.0650339
0.159609 0.984512 0.0710765
0.206867 0.984237 0.0884871
0.244709 0.984146 0.102541
0.313313 0.983948 0.118761
0.439979 0.983688 0.127718
0.584512 0.983474 0.142367
0.649836 0.983352 0.151125
0.697597 0.983352 0.118456
0.759243 0.983246 0.156664
0.826566 0.9794 0.178134
0.871183 0.983322 0.163699
0.910216 0.983307 0.144854
0.942367 0.983291 0.157626
0.973327 0.983276 0.159533
0.98085 0.983322 0.153964
0.98085 0.983322 0.153964
0.98085 0.983322 0.153964
0.98085 0.983322 0.153964
0.98085 0.983322 0.153964
0.98085 0.983322 0.153964
0.98085 0.983322 0.153964
0.98085 0.983322 0.153964
0.0299687 0.984787 0.213703
0.0299687 0.984787 0.17789
0.0299535 0.984771 0.183017
0.0299535 0.984771 0.16466
0.0299382 0.984741 0.128374
0.030045 0.984909 0.0912184
0.0300145 0.984863 0.0480201
0.0300145 0.984863 0.0485542
0.0300145 0.984863 0.0451972
0.0300145 0.984863 0.0474403
0.0645304 0.984878 0.0612802
0.148165 0.984512 0.0712291
0.203174 0.984375 0.0831464
0.237781 0.984314 0.101106
0.301411 0.984085 0.117113
0.411536 0.98381 0.131273
0.566796 0.983566 0.131823
0.642512 0.983322 0.154314
0.689036 0.983505 0.113787
0.747875 0.983383 0.151278
0.818082 0.978119 0.181445
0.864347 0.983322 0.165408
0.903319 0.983276 0.148898
0.936858 0.983246 0.151568
0.968505 0.983246 0.16228
0.98085 0.983322 0.153964
0.98085 0.983322 0.153964
0.98085 0.983322 0.153964
0.98085 0.983322 0.153964
0.98085 0.983322 0.153964
0.98085 0.983322 0.153964
0.98085 0.983322 0.153964
0.98085 0.983322 0.153964
0.0298619 0.984634 0.227909
0.0299687 0.984787 0.185626
0.0299687 0.984787 0.17911
0.0299535 0.984771 0.176547
0.0299382 0.984756 0.145281
0.0300603 0.984909 0.1075
0.0300145 0.984863 0.0478218
0.0300145 0.984863 0.0483864
0.0300145 0.984863 0.0444648
0.0300145 0.984863 0.0451972
0.0482795 0.984802 0.0577096
0.136294 0.984573 0.071519
0.198337 0.984405 0.0783246
0.230732 0.984298 0.0998398
0.290288 0.98407 0.114977
0.390051 0.983841 0.131731
0.547677 0.983505 0.123949
0.636149 0.983383 0.158724
0.681758 0.983474 0.119066
0.738323 0.983352 0.145617
0.809979 0.978668 0.181353
0.857893 0.983276 0.16701
0.897231 0.983246 0.152911
0.93164 0.98323 0.145586
0.962661 0.9832 0.164828
0.98085 0.983322 0.153964
0.98085 0.983322 0.153964
0.98085 0.983322 0.153964
0.98085 0.983322 0.153964
0.98085 0.983322 0.153964
0.98085 0.983322 0.153964
0.98085 0.983322 0.153964
0.98085 0.983322 0.153964
