bundles/resolve-cinematic-luts/Phantom Luts/Canon Alexa LUT/C-Log 3/Tungsten Canon CL3.cube
TITLE "Generated by Resolve"
LUT_3D_SIZE 9
0.0128481 0.0133059 0.0196994
0.10779 0.0106355 0.0353552
0.35758 0.0107881 0.0955673
0.578759 0.0272221 0.187442
0.735164 0.0630961 0.296071
0.764416 0.076524 0.352728
0.76492 0.0758679 0.374777
0.766522 0.0770581 0.388632
0.768017 0.0780194 0.397787
0.0142519 0.130114 0.0445869
0.0386664 0.0887617 0.0241703
0.249546 0.0775311 0.0319066
0.512139 0.0258488 0.0611582
0.679026 0.047364 0.16289
0.738628 0.0710155 0.23357
0.747982 0.0733349 0.260243
0.753704 0.0746319 0.280415
0.757961 0.076112 0.294667
0 0.319326 0.0344091
0 0.301747 0
0.232349 0.270512 0
0.512322 0.271901 0.0207523
0.711803 0.194125 0.0848707
0.727977 0.0726635 0.185107
0.727687 0.0706188 0.194568
0.728069 0.070161 0.198306
0.729381 0.0704967 0.20174
0 0.496849 0.059968
0 0.497215 0
0.00827039 0.46273 0
0.487022 0.454368 0
0.712627 0.48893 0.0538186
0.882856 0.431998 0.185657
0.870542 0.391485 0.177996
0.858976 0.369192 0.168795
0.859144 0.373007 0.167849
0.00546273 0.676509 0.159838
0.0267796 0.676417 0.102281
0.0377203 0.656764 0.0422675
0.219379 0.643458 0
0.688487 0.642557 0.0670176
0.862898 0.669749 0.176684
0.895491 0.671748 0.198672
0.89456 0.66746 0.196704
0.896437 0.672236 0.199496
0.0633555 0.754284 0.239231
0.0715648 0.748104 0.191379
0.0900282 0.738918 0.12604
0.208362 0.760906 0.0981765
0.592371 0.790921 0.102174
0.857298 0.80885 0.229389
0.936645 0.822278 0.285466
0.936019 0.820508 0.284062
0.937438 0.824094 0.287144
0.0599985 0.759945 0.280476
0.0644083 0.753536 0.232242
0.0894026 0.739055 0.127581
0.194736 0.759258 0.102068
0.497261 0.795407 0.108873
0.827359 0.833204 0.244358
0.951217 0.867674 0.324208
0.954498 0.868482 0.326192
0.954498 0.86862 0.326314
0.0597391 0.766629 0.328679
0.0627451 0.75494 0.244129
0.0856947 0.740307 0.13785
0.175509 0.756298 0.10692
0.432654 0.789883 0.103319
0.807126 0.830182 0.231998
0.942245 0.865217 0.318471
0.954482 0.868238 0.325994
0.954498 0.868757 0.326436
0.0639353 0.774639 0.381613
0.0616007 0.756741 0.256489
0.0840314 0.741314 0.143648
0.191211 0.758618 0.102922
0.493156 0.795331 0.11017
0.825742 0.831388 0.243687
0.943999 0.865782 0.319753
0.954482 0.868254 0.326009
0.954498 0.868757 0.326436
0 0.0252995 0.102052
0.0985275 0.0178378 0.123857
0.333608 0.0182956 0.224414
0.557595 0.0327611 0.312932
0.737575 0.0635233 0.386969
0.768383 0.078233 0.431037
0.768841 0.0790112 0.453086
0.768811 0.0793469 0.464866
0.769482 0.0801251 0.471458
0.0198215 0.0708782 0.0744488
0.0160678 0.0357824 0.0436255
0.275395 0.0143587 0.0792859
0.536187 0.0241703 0.167758
0.715953 0.0552224 0.274296
0.764858 0.0770886 0.347326
0.766537 0.0774395 0.370581
0.766598 0.0770275 0.382956
0.767514 0.0775921 0.390539
0 0.287007 0.161456
0 0.277882 0.0720684
0.187182 0.249958 0
0.529198 0.208331 0.0420691
0.672663 0.0682536 0.106737
0.733455 0.0701305 0.218936
0.739956 0.071519 0.23621
0.747997 0.0736858 0.257801
0.751446 0.0749371 0.26659
0 0.472938 0.169345
0 0.47155 0.0753033
0 0.459846 0
0.469322 0.439429 0
0.713497 0.462715 0.0498207
0.867002 0.386465 0.174884
0.846754 0.334295 0.163561
0.836225 0.301381 0.162203
0.838361 0.308568 0.162341
0 0.665446 0.240742
0 0.66215 0.169345
0.0251926 0.659007 0.0651713
0.135988 0.633555 0
0.678584 0.632044 0.0589914
0.863142 0.658946 0.173861
0.891524 0.65745 0.191669
0.890257 0.652293 0.189212
0.891707 0.657435 0.191867
0.0598001 0.767117 0.333471
0.0612497 0.757336 0.260929
0.074342 0.746471 0.179232
0.175799 0.754269 0.0997177
0.557488 0.787045 0.090959
0.85034 0.801907 0.221195
0.933425 0.813993 0.278737
0.932036 0.810941 0.276158
0.933837 0.815076 0.279683
0.0639963 0.774701 0.382391
0.0594797 0.764385 0.312322
0.064271 0.753735 0.233539
0.128328 0.748318 0.120104
0.409461 0.788159 0.101991
0.807706 0.830884 0.23267
0.947234 0.866621 0.321767
0.954498 0.868482 0.326192
0.954498 0.86862 0.326314
0.0688182 0.780118 0.416327
0.0605936 0.769131 0.346349
0.0641337 0.753399 0.232883
0.0983139 0.741268 0.126375
0.362432 0.783536 0.100832
0.783948 0.82707 0.219364
0.933318 0.863157 0.312688
0.954482 0.868223 0.325994
0.954498 0.868742 0.326421
0.0762036 0.786664 0.454505
0.0614939 0.770916 0.357931
0.0641794 0.753613 0.233387
0.130861 0.748501 0.118837
0.419821 0.787594 0.0988632
0.80145 0.829175 0.229297
0.934951 0.863416 0.313649
0.954482 0.868254 0.326009
0.954498 0.868757 0.326436
0 0.0416419 0.268956
0.131991 0.0250858 0.316136
0.317464 0.0185245 0.335546
0.548547 0.0315251 0.415763
0.737041 0.0652781 0.469017
0.768902 0.0813153 0.500786
0.768032 0.0822309 0.518105
0.766888 0.0825055 0.527687
0.76669 0.0832837 0.534554
0 0.0874647 0.181567
0 0.0440375 0.215534
0.246159 0.0187076 0.279377
0.515999 0.0302586 0.335531
0.716991 0.0565957 0.395483
0.768704 0.0785534 0.436744
0.769009 0.0792401 0.456275
0.768887 0.0794842 0.466926
0.769497 0.080293 0.474922
0.00646983 0.261219 0.254444
0.00743114 0.242084 0.238422
0.18204 0.237629 0.242939
0.557733 0.160784 0.238376
0.696666 0.0484779 0.264851
0.76434 0.0769055 0.342138
0.765942 0.0770581 0.365927
0.766705 0.0773327 0.378973
0.767651 0.0778973 0.386618
0 0.455314 0.289311
0 0.446143 0.229953
0 0.440223 0.0915694
0.448707 0.425528 0.00601205
0.746777 0.415274 0.115007
0.854688 0.299092 0.195682
0.820218 0.220157 0.188922
0.798871 0.171664 0.192554
0.802441 0.174578 0.196231
0 0.648875 0.334615
0 0.647272 0.272236
0 0.643488 0.163714
0.0761425 0.622782 0
0.666819 0.619944 0.049836
0.863188 0.645792 0.170245
0.886519 0.637568 0.183551
0.884855 0.628733 0.181643
0.885847 0.634607 0.183474
0.0683604 0.779568 0.414008
0.0621958 0.772107 0.365255
0.0607919 0.758282 0.267613
0.105562 0.742962 0.124056
0.499214 0.779965 0.0767529
0.842023 0.793744 0.211841
0.929091 0.803357 0.270161
0.926818 0.798642 0.266087
0.928512 0.802258 0.268742
0.0779889 0.788037 0.462608
0.0679179 0.779202 0.410224
0.0595102 0.764355 0.311849
0.0891737 0.739147 0.128252
0.32932 0.781048 0.102861
0.782696 0.827588 0.218769
0.940566 0.865049 0.317433
0.954498 0.868482 0.326192
0.954498 0.86862 0.326314
0.0859846 0.793973 0.494469
0.0732891 0.784222 0.440696
0.0604715 0.768902 0.345342
0.0858167 0.740246 0.137469
0.289418 0.775708 0.102113
0.750317 0.82446 0.199191
0.923018 0.860914 0.304494
0.954482 0.868208 0.325963
0.954498 0.868727 0.326406
0.0959793 0.800748 0.529122
0.0772259 0.787472 0.459281
0.0614023 0.770764 0.357275
0.0853895 0.740444 0.138827
0.31519 0.779126 0.102907
0.763363 0.826322 0.207309
0.923217 0.860395 0.303853
0.954482 0.868254 0.326009
0.954498 0.868803 0.326467
0 0.0614481 0.439475
0.138354 0.0450446 0.491173
0.33341 0.0282139 0.506081
0.526345 0.0295872 0.529229
0.715709 0.0660716 0.565347
0.753658 0.0847639 0.590539
0.750042 0.0859388 0.605982
0.747921 0.0867323 0.614832
0.746944 0.0880446 0.622644
0 0.125383 0.388083
0 0.0602426 0.409262
0.232136 0.0332799 0.487404
0.491005 0.0263981 0.495247
0.703334 0.057847 0.526864
0.763394 0.0829786 0.547509
0.760586 0.0834363 0.561379
0.758862 0.0838483 0.569787
0.757809 0.0848096 0.578378
0 0.256336 0.390661
0 0.225132 0.402228
0.0608988 0.172595 0.459846
0.468788 0.0651865 0.468666
0.684993 0.0496681 0.465965
0.768917 0.0806744 0.492195
0.768566 0.081529 0.507012
0.76788 0.0819104 0.51574
0.767529 0.0825971 0.52398
0 0.453147 0.436759
0 0.442954 0.427588
0 0.42771 0.412116
0.441306 0.450828 0.443275
0.796765 0.394812 0.447761
0.914473 0.246372 0.450904
0.853529 0.167681 0.428931
0.817304 0.126696 0.415793
0.814267 0.123613 0.420172
0 0.631998 0.464302
0 0.626978 0.436912
0 0.619165 0.382513
0.00341802 0.620645 0.189136
0.630549 0.608286 0.19028
0.915755 0.634852 0.290684
0.956649 0.603418 0.307042
0.954864 0.591485 0.306188
0.958801 0.599084 0.318853
0.0809339 0.782208 0.516686
0.0754559 0.780606 0.489174
0.0664225 0.775937 0.435523
0.0589456 0.757259 0.271717
0.299184 0.764309 0.07393
0.826825 0.779522 0.195911
0.922515 0.7832 0.255726
0.920607 0.776318 0.25156
0.920256 0.778439 0.252201
0.107866 0.808225 0.564843
0.0975967 0.801785 0.534218
0.0815595 0.790784 0.477485
0.0594797 0.763394 0.305058
0.22977 0.767315 0.104753
0.727352 0.822248 0.186816
0.927489 0.862287 0.309209
0.954787 0.868574 0.32636
0.954787 0.868711 0.326497
0.116838 0.812833 0.59176
0.105943 0.807095 0.559289
0.0883345 0.795636 0.502983
0.0600595 0.767865 0.338521
0.208835 0.761578 0.100679
0.685328 0.817304 0.16759
0.905638 0.855116 0.289082
0.954818 0.86807 0.325963
0.954833 0.868696 0.326482
0.127169 0.816831 0.623133
0.113191 0.811139 0.580804
0.0939803 0.799451 0.522393
0.060853 0.769726 0.351064
0.215091 0.763333 0.101915
0.692653 0.817624 0.168994
0.902068 0.854154 0.287312
0.954803 0.86836 0.326192
0.954818 0.868879 0.326635
0 0.0999008 0.573495
0.148791 0.0795605 0.64358
0.339391 0.0651255 0.683116
0.51339 0.0498207 0.675105
0.676341 0.0754253 0.673716
0.724865 0.0967117 0.694423
0.719631 0.0988327 0.708415
0.717159 0.100069 0.715373
0.715496 0.101656 0.722011
0 0.159319 0.558831
0 0.0944533 0.549004
0.221439 0.0718395 0.655787
0.476905 0.0504616 0.668513
0.660471 0.0667124 0.657618
0.732616 0.0931411 0.670588
0.728832 0.0948959 0.682582
0.726726 0.0959487 0.689204
0.724804 0.097673 0.697383
0 0.230579 0.545892
0 0.181216 0.546548
0 0.0933547 0.559869
0.410971 0.0519417 0.656352
0.636225 0.0541085 0.634684
0.741314 0.0889601 0.639185
0.738399 0.0902876 0.650095
0.736522 0.0911574 0.656825
0.734951 0.0926986 0.664942
0.0114137 0.466743 0.588708
0.00860609 0.451499 0.595636
0.00396735 0.425254 0.606165
0.340749 0.401404 0.711269
0.706386 0.278386 0.684947
0.782193 0.10663 0.594934
0.756313 0.0840467 0.579553
0.755703 0.0840772 0.581445
0.757336 0.0874189 0.591119
0.0396735 0.629206 0.610239
0.0371557 0.62475 0.605936
0.0333104 0.61738 0.598077
0.0411383 0.603647 0.579416
0.63006 0.635645 0.621424
0.968765 0.609476 0.645869
1 0.569421 0.649851
1 0.552987 0.652232
1 0.560143 0.661753
0.106126 0.774243 0.637247
0.101625 0.772213 0.626932
0.0923018 0.767376 0.605325
0.0693675 0.755978 0.544411
0.229862 0.76939 0.395834
0.784726 0.781994 0.438041
0.953185 0.804181 0.50573
0.952804 0.798215 0.511772
0.953185 0.802106 0.52372
0.149645 0.824201 0.683909
0.144442 0.822629 0.670558
0.134936 0.819471 0.645228
0.112795 0.811215 0.578759
0.0626993 0.766766 0.31957
0.605783 0.816266 0.191897
0.920317 0.862287 0.308736
0.962005 0.874907 0.360433
0.962448 0.874952 0.363867
0.158923 0.827619 0.706081
0.151812 0.825132 0.689158
0.141024 0.821485 0.661692
0.117403 0.813382 0.592676
0.0599222 0.767483 0.335851
0.52311 0.80589 0.158495
0.885359 0.849897 0.277165
0.959045 0.87248 0.339727
0.959884 0.873976 0.343755
0.171633 0.832654 0.733913
0.160784 0.828351 0.710353
0.14844 0.824033 0.68072
0.122316 0.815 0.608804
0.0609445 0.769909 0.352148
0.519402 0.80679 0.2038
0.878599 0.849393 0.276692
0.95642 0.87248 0.34023
0.959411 0.873106 0.340291
0 0.175235 0.661387
0.152575 0.164584 0.751019
0.329854 0.148867 0.812543
0.503471 0.121294 0.814389
0.634043 0.0906386 0.756359
0.700114 0.107362 0.755077
0.700114 0.107362 0.755108
0.700099 0.107256 0.754849
0.700145 0.107561 0.755581
0 0.205356 0.655024
0 0.168429 0.641016
0.207202 0.151629 0.767269
0.456718 0.123049 0.81268
0.611826 0.0867475 0.755337
0.701289 0.107225 0.753704
0.700099 0.107271 0.754894
0.700114 0.107347 0.755062
0.70016 0.107683 0.75584
0 0.247593 0.657893
0 0.212955 0.650477
0.00267033 0.160754 0.651423
0.380377 0.124788 0.800732
0.587579 0.087953 0.760281
0.705211 0.105409 0.744686
0.702327 0.106523 0.750835
0.701015 0.107027 0.753506
0.700648 0.107637 0.755398
0.0243076 0.449165 0.70193
0.0224308 0.428168 0.707378
0.0180362 0.389349 0.710506
0.211826 0.325719 0.832822
0.60647 0.197726 0.863584
0.710491 0.0999466 0.721813
0.714382 0.101396 0.722835
0.713085 0.102022 0.726223
0.711879 0.103136 0.730755
0.0876478 0.645258 0.729778
0.0872358 0.638972 0.73402
0.0863203 0.628122 0.740536
0.0821851 0.597162 0.753246
0.575601 0.63154 0.887877
0.888197 0.523369 0.862379
0.948135 0.467857 0.858412
0.945418 0.449485 0.858763
0.94548 0.459022 0.867231
0.15523 0.776196 0.76376
0.153719 0.774533 0.762264
0.149813 0.770336 0.75761
0.139391 0.759396 0.745083
0.307744 0.772076 0.7467
0.800427 0.807065 0.793973
0.987305 0.788663 0.807385
0.989517 0.775952 0.807843
0.988174 0.77908 0.814588
0.201846 0.845075 0.79527
0.198459 0.843824 0.788632
0.192203 0.841199 0.776211
0.178363 0.835416 0.748211
0.147967 0.82385 0.679591
0.569955 0.864012 0.660075
0.909438 0.909453 0.724971
0.965347 0.910277 0.737774
0.965881 0.91104 0.747906
0.213489 0.849973 0.817594
0.208606 0.848081 0.80824
0.199939 0.84448 0.79147
0.182269 0.837079 0.756176
0.147341 0.824292 0.676631
0.451499 0.833371 0.572366
0.847379 0.904967 0.643854
0.967178 0.942428 0.757748
0.971054 0.944625 0.765484
0.225788 0.855665 0.840391
0.218357 0.852277 0.826688
0.208804 0.848203 0.808591
0.188159 0.839536 0.768109
0.15079 0.825635 0.685084
0.465202 0.837354 0.58378
0.831083 0.908965 0.663188
0.956771 0.940414 0.751629
0.9691 0.941161 0.749264
0.025391 0.182666 0.686107
0.177157 0.180087 0.776837
0.342428 0.171115 0.837964
0.515145 0.138796 0.836637
0.642267 0.0953078 0.76376
0.700114 0.107439 0.755245
0.700114 0.107439 0.755261
0.700099 0.107271 0.754879
0.700145 0.107546 0.75552
0 0.215824 0.670268
0 0.182376 0.667872
0.213413 0.179202 0.793942
0.463996 0.152255 0.847272
0.620462 0.100771 0.777752
0.70013 0.107439 0.755261
0.700114 0.107424 0.755245
0.70013 0.107454 0.755306
0.700145 0.107637 0.755734
0.00868238 0.282445 0.705135
0 0.233982 0.680308
0.0163882 0.183352 0.679576
0.381888 0.166445 0.845075
0.593072 0.113039 0.800031
0.700114 0.107317 0.754971
0.700084 0.10721 0.754742
0.700099 0.107256 0.754849
0.700145 0.107561 0.75555
0.0459907 0.43386 0.753841
0.0428321 0.41146 0.753201
0.030518 0.362173 0.739345
0.134554 0.26125 0.790173
0.52752 0.158175 0.855558
0.690288 0.105501 0.757366
0.700145 0.107164 0.754589
0.700145 0.107195 0.75465
0.700191 0.107485 0.755352
0.116304 0.636606 0.797955
0.115068 0.628992 0.800504
0.11313 0.616922 0.803967
0.104753 0.583017 0.806638
0.516564 0.613977 1
0.846754 0.487251 0.986191
0.919676 0.419608 0.963882
0.914519 0.400702 0.959136
0.916655 0.411185 0.962844
0.190295 0.792035 0.827008
0.190417 0.791089 0.828351
0.189731 0.787884 0.829862
0.186038 0.776577 0.832547
0.249104 0.786831 0.883055
0.765515 0.804334 0.955459
0.950057 0.736736 0.938018
0.95465 0.721721 0.937133
0.95404 0.726146 0.940124
0.238499 0.863416 0.86125
0.237522 0.86244 0.860227
0.235264 0.860746 0.856901
0.229435 0.855512 0.849119
0.215946 0.84152 0.833432
0.646311 0.892851 0.878523
0.914946 0.919127 0.912764
0.968551 0.912428 0.914717
0.968612 0.911086 0.917433
0.24625 0.868955 0.872999
0.244526 0.867658 0.870604
0.241321 0.8654 0.865736
0.233829 0.860319 0.854032
0.21561 0.851499 0.820981
0.428626 0.877195 0.798413
0.87126 0.958938 0.90045
0.973404 0.973434 0.930449
0.980392 0.971328 0.929488
0.250202 0.872145 0.878691
0.248661 0.870863 0.876738
0.245182 0.868132 0.871611
0.236698 0.862181 0.858625
0.216541 0.851926 0.822736
0.444617 0.877562 0.80058
0.858106 0.955795 0.892409
0.959014 0.970428 0.907546
0.983215 0.979126 0.944976
0.0483711 0.18323 0.702327
0.19855 0.179614 0.787121
0.35288 0.170047 0.840238
0.52137 0.137057 0.834775
0.650355 0.097322 0.763394
0.700114 0.107439 0.755261
0.700114 0.107439 0.755261
0.700114 0.107393 0.755154
0.70013 0.10753 0.755489
0 0.207355 0.665476
0.0201724 0.18291 0.682933
0.22829 0.17882 0.800473
0.469856 0.150958 0.846586
0.621927 0.0973678 0.772992
0.70013 0.107439 0.755261
0.70013 0.107424 0.755245
0.70013 0.107454 0.755306
0.700145 0.107591 0.755627
0.00730907 0.277882 0.702739
0 0.22707 0.676463
0.0297704 0.182818 0.689296
0.388479 0.165667 0.846052
0.596002 0.112108 0.798291
0.700114 0.107378 0.755123
0.700099 0.107271 0.754879
0.700099 0.107301 0.75494
0.700145 0.107561 0.75555
0.0484932 0.4206 0.76141
0.0386358 0.388388 0.750011
0.020798 0.326833 0.725399
0.110124 0.206912 0.75256
0.519524 0.144366 0.842115
0.69012 0.105501 0.757488
0.700145 0.107225 0.754711
0.700145 0.10724 0.754757
0.700175 0.1075 0.755383
0.12813 0.634958 0.822568
0.124331 0.625772 0.820691
0.117556 0.610224 0.816495
0.0995651 0.567346 0.804471
0.500755 0.587411 1
0.834653 0.457542 0.98584
0.908858 0.383688 0.955261
0.901244 0.363134 0.947448
0.905531 0.375677 0.952697
0.206668 0.798245 0.857252
0.206332 0.796048 0.858671
0.2038 0.790143 0.858824
0.195605 0.773144 0.856611
0.229145 0.765545 0.886275
0.750912 0.798993 0.999786
0.939803 0.717861 0.970871
0.948409 0.70161 0.969345
0.948425 0.7066 0.970535
0.24979 0.871 0.879088
0.249928 0.871122 0.879332
0.249195 0.869993 0.878859
0.245258 0.864042 0.876371
0.23772 0.85182 0.872435
0.624796 0.920928 0.959716
0.897597 0.913008 0.963775
0.95993 0.89691 0.963668
0.959564 0.895415 0.964218
0.250767 0.872648 0.879423
0.251225 0.873045 0.880217
0.25124 0.87306 0.880247
0.251209 0.873045 0.880201
0.246448 0.869261 0.873243
0.331502 0.905791 0.903105
0.88304 0.959686 0.955474
0.967849 0.968887 0.966888
0.976867 0.967697 0.96701
0.250919 0.872786 0.879698
0.251225 0.87306 0.880217
0.25124 0.87306 0.880247
0.25124 0.87306 0.880247
0.245731 0.868742 0.872145
0.36231 0.908446 0.903105
0.865766 0.960555 0.949401
0.967468 0.979263 0.97171
0.983841 0.982391 0.976745
0.0539101 0.183001 0.705989
0.208316 0.179416 0.791669
0.358022 0.169375 0.841169
0.52546 0.135897 0.833448
0.655756 0.0990158 0.763577
0.700114 0.107439 0.755261
0.700114 0.107439 0.755245
0.70013 0.107439 0.755261
0.700145 0.107591 0.755627
0 0.20415 0.663737
0.0332189 0.183078 0.692027
0.237156 0.17847 0.80415
0.474128 0.150088 0.846159
0.62417 0.0957198 0.770184
0.70013 0.107424 0.755245
0.70013 0.107424 0.755245
0.70013 0.107454 0.755306
0.70016 0.107637 0.755764
0.00723278 0.276799 0.702449
0 0.224216 0.674907
0.0382544 0.183001 0.695338
0.3935 0.164996 0.846647
0.598337 0.110918 0.796307
0.700114 0.107378 0.755123
0.700099 0.107271 0.754879
0.700099 0.107286 0.754925
0.700145 0.107561 0.75555
0.0460975 0.41268 0.758755
0.0359045 0.378775 0.746578
0.0169375 0.313024 0.719356
0.105608 0.189593 0.741787
0.518441 0.138064 0.835843
0.690425 0.105608 0.757488
0.700145 0.10724 0.754742
0.70016 0.10724 0.754757
0.700191 0.1075 0.755383
0.127291 0.632502 0.822431
0.122957 0.62266 0.819883
0.115846 0.606592 0.81529
0.0976883 0.562615 0.803204
0.500008 0.580697 1
0.832502 0.449149 0.985092
0.905119 0.373541 0.951476
0.897276 0.354223 0.943847
0.902937 0.368811 0.95053
0.208255 0.798505 0.860533
0.206851 0.795514 0.860349
0.203647 0.78909 0.859358
0.193957 0.77026 0.855787
0.230289 0.762676 0.887877
0.750256 0.794675 1
0.938308 0.711788 0.971222
0.947768 0.696284 0.970581
0.947951 0.701457 0.970672
0.249943 0.871168 0.879255
0.250278 0.871611 0.879652
0.249165 0.869795 0.879057
0.244984 0.863264 0.876616
0.23653 0.849378 0.872435
0.627863 0.918761 0.962356
0.893965 0.908461 0.96669
0.958679 0.890227 0.965118
0.958709 0.889158 0.965225
0.250965 0.872831 0.879789
0.251225 0.873045 0.880217
0.25124 0.87306 0.880247
0.25124 0.87306 0.880247
0.251484 0.873396 0.880461
0.316609 0.904402 0.910613
0.874296 0.961929 0.96759
0.963287 0.965759 0.973678
0.974472 0.964935 0.974823
0.251011 0.872862 0.879866
0.251225 0.873045 0.880232
0.25124 0.87306 0.880247
0.25124 0.87306 0.880247
0.251484 0.873411 0.880461
0.297551 0.895674 0.900954
0.854276 0.964797 0.966339
0.96936 0.979492 0.979629
0.984848 0.984848 0.984573
