bundles/resolve-cinematic-luts/Phantom Luts/Canon Alexa LUT/C-Log 3/Tungsten Canon CL3.cube
TITLE "Generated by Resolve"
LUT_3D_SIZE 5
0.0128481 0.0133059 0.0196994
0.35758 0.0107881 0.0955673
0.735164 0.0630961 0.296071
0.76492 0.0758679 0.374777
0.768017 0.0780194 0.397787
0 0.319326 0.0344091
0.232349 0.270512 0
0.711803 0.194125 0.0848707
0.727687 0.0706188 0.194568
0.729381 0.0704967 0.20174
0.00546273 0.676509 0.159838
0.0377203 0.656764 0.0422675
0.688487 0.642557 0.0670176
0.895491 0.671748 0.198672
0.896437 0.672236 0.199496
0.0599985 0.759945 0.280476
0.0894026 0.739055 0.127581
0.497261 0.795407 0.108873
0.951217 0.867674 0.324208
0.954498 0.86862 0.326314
0.0639353 0.774639 0.381613
0.0840314 0.741314 0.143648
0.493156 0.795331 0.11017
0.943999 0.865782 0.319753
0.954498 0.868757 0.326436
0 0.0416419 0.268956
0.317464 0.0185245 0.335546
0.737041 0.0652781 0.469017
0.768032 0.0822309 0.518105
0.76669 0.0832837 0.534554
0.00646983 0.261219 0.254444
0.18204 0.237629 0.242939
0.696666 0.0484779 0.264851
0.765942 0.0770581 0.365927
0.767651 0.0778973 0.386618
0 0.648875 0.334615
0 0.643488 0.163714
0.666819 0.619944 0.049836
0.886519 0.637568 0.183551
0.885847 0.634607 0.183474
0.0779889 0.788037 0.462608
0.0595102 0.764355 0.311849
0.32932 0.781048 0.102861
0.940566 0.865049 0.317433
0.954498 0.86862 0.326314
0.0959793 0.800748 0.529122
0.0614023 0.770764 0.357275
0.31519 0.779126 0.102907
0.923217 0.860395 0.303853
0.954498 0.868803 0.326467
0 0.0999008 0.573495
0.339391 0.0651255 0.683116
0.676341 0.0754253 0.673716
0.719631 0.0988327 0.708415
0.715496 0.101656 0.722011
0 0.230579 0.545892
0 0.0933547 0.559869
0.636225 0.0541085 0.634684
0.738399 0.0902876 0.650095
0.734951 0.0926986 0.664942
0.0396735 0.629206 0.610239
0.0333104 0.61738 0.598077
0.63006 0.635645 0.621424
1 0.569421 0.649851
1 0.560143 0.661753
0.149645 0.824201 0.683909
0.134936 0.819471 0.645228
0.0626993 0.766766 0.31957
0.920317 0.862287 0.308736
0.962448 0.874952 0.363867
0.171633 0.832654 0.733913
0.14844 0.824033 0.68072
0.0609445 0.769909 0.352148
0.878599 0.849393 0.276692
0.959411 0.873106 0.340291
0.025391 0.182666 0.686107
0.342428 0.171115 0.837964
0.642267 0.0953078 0.76376
0.700114 0.107439 0.755261
0.700145 0.107546 0.75552
0.00868238 0.282445 0.705135
0.0163882 0.183352 0.679576
0.593072 0.113039 0.800031
0.700084 0.10721 0.754742
0.700145 0.107561 0.75555
0.116304 0.636606 0.797955
0.11313 0.616922 0.803967
0.516564 0.613977 1
0.919676 0.419608 0.963882
0.916655 0.411185 0.962844
0.238499 0.863416 0.86125
0.235264 0.860746 0.856901
0.215946 0.84152 0.833432
0.914946 0.919127 0.912764
0.968612 0.911086 0.917433
0.250202 0.872145 0.878691
0.245182 0.868132 0.871611
0.216541 0.851926 0.822736
0.858106 0.955795 0.892409
0.983215 0.979126 0.944976
0.0539101 0.183001 0.705989
0.358022 0.169375 0.841169
0.655756 0.0990158 0.763577
0.700114 0.107439 0.755245
0.700145 0.107591 0.755627
0.00723278 0.276799 0.702449
0.0382544 0.183001 0.695338
0.598337 0.110918 0.796307
0.700099 0.107271 0.754879
0.700145 0.107561 0.75555
0.127291 0.632502 0.822431
0.115846 0.606592 0.81529
0.500008 0.580697 1
0.905119 0.373541 0.951476
0.902937 0.368811 0.95053
0.249943 0.871168 0.879255
0.249165 0.869795 0.879057
0.23653 0.849378 0.872435
0.893965 0.908461 0.96669
0.958709 0.889158 0.965225
0.251011 0.872862 0.879866
0.25124 0.87306 0.880247
0.251484 0.873411 0.880461
0.854276 0.964797 0.966339
0.984848 0.984848 0.984573
