bundles/resolve-cinematic-luts/Phantom Luts/Canon Alexa LUT/C-Log 3/Tungsten Canon CL3.cube
TITLE "Generated by Resolve"
LUT_3D_SIZE 33
0.0128481 0.0133059 0.0196994
0.0128634 0.0132296 0.019501
0.0128786 0.0130159 0.0191043
0.0279698 0.0127108 0.0214694
0.10779 0.0106355 0.0353552
0.17705 0.00920119 0.0486305
0.238468 0.00950637 0.0620432
0.299046 0.00979629 0.0766613
0.35758 0.0107881 0.0955673
0.413886 0.0132601 0.117662
0.471168 0.0178531 0.138109
0.527123 0.0229953 0.162295
0.578759 0.0272221 0.187442
0.625345 0.0327306 0.211627
0.66714 0.040238 0.237858
0.704631 0.0508278 0.265888
0.735164 0.0630961 0.296071
0.758816 0.0744793 0.324987
0.762997 0.0762493 0.337255
0.76379 0.0764019 0.345205
0.764416 0.076524 0.352728
0.764904 0.0766155 0.359457
0.765301 0.0767071 0.365408
0.764645 0.0758068 0.370382
0.76492 0.0758679 0.374777
0.765164 0.0759289 0.378958
0.766247 0.0769207 0.383062
0.766369 0.0769665 0.386069
0.766522 0.0770581 0.388632
0.766781 0.0771954 0.391241
0.767071 0.0773938 0.393408
0.767559 0.0777142 0.395682
0.768017 0.0780194 0.397787
0.0128786 0.0130465 0.0191501
0.0128634 0.013138 0.0193179
0.0128786 0.0130159 0.0191043
0.013901 0.0129397 0.018555
0.0646372 0.0131838 0.022797
0.13901 0.00917067 0.0308385
0.202487 0.00790417 0.038407
0.265538 0.00682078 0.0462806
0.329549 0.00805676 0.0572824
0.390036 0.0103456 0.0714733
0.449989 0.016495 0.0885786
0.506065 0.0198672 0.111452
0.558511 0.0238956 0.141222
0.608637 0.0292058 0.166064
0.651987 0.0365606 0.193011
0.690745 0.0470588 0.220844
0.723796 0.0598611 0.254093
0.750439 0.0719921 0.287907
0.759106 0.0757458 0.305959
0.76054 0.0759899 0.31545
0.761654 0.076173 0.323995
0.762387 0.0761883 0.33138
0.763012 0.0762341 0.338003
0.763638 0.0763409 0.343984
0.764111 0.0764477 0.349096
0.764446 0.076524 0.353277
0.764721 0.0765698 0.357107
0.764965 0.0766308 0.360082
0.765194 0.0767071 0.36286
0.76553 0.0768749 0.36527
0.765896 0.0770581 0.367636
0.76643 0.0773632 0.370291
0.766949 0.0777142 0.372351
0.0130922 0.019791 0.0226139
0.0130465 0.0196841 0.022797
0.0127413 0.0152132 0.0200504
0.0128786 0.0130159 0.0191043
0.0233921 0.01738 0.0199588
0.0974136 0.0217746 0.0237583
0.164248 0.0201267 0.0302586
0.231464 0.0186313 0.0347601
0.299763 0.0174258 0.0394293
0.364569 0.01355 0.0454261
0.42533 0.0132143 0.0571908
0.482933 0.0154421 0.0752728
0.538369 0.021149 0.100603
0.58822 0.026276 0.127535
0.630976 0.0327153 0.150668
0.670741 0.0421607 0.180346
0.707256 0.0551614 0.213581
0.737057 0.0681468 0.247547
0.750652 0.0738231 0.270375
0.753307 0.0743114 0.280873
0.755795 0.0748913 0.291279
0.7579 0.0754253 0.300496
0.759579 0.0758221 0.308919
0.760601 0.0760052 0.315755
0.761395 0.0761578 0.321645
0.76202 0.0762493 0.326833
0.762356 0.0762188 0.330709
0.762676 0.0762036 0.334249
0.763073 0.0762951 0.337499
0.7635 0.076463 0.340124
0.763958 0.0766461 0.342855
0.764614 0.076997 0.345632
0.765255 0.0773327 0.348363
0.0133669 0.0613718 0.0346685
0.0132753 0.0615396 0.0347753
0.0141299 0.0483558 0.0250553
0.018265 0.035584 0.0224002
0.0252079 0.0268406 0.0209201
0.0591135 0.038468 0.0244144
0.127733 0.0430762 0.0271458
0.195361 0.0415961 0.0277409
0.267353 0.0357214 0.0322118
0.34023 0.028336 0.0378576
0.407279 0.0230259 0.0476081
0.467628 0.0178225 0.0566262
0.522835 0.0181582 0.072755
0.572473 0.0243076 0.098497
0.614878 0.0302129 0.12285
0.654612 0.0386816 0.152773
0.691173 0.0505989 0.183886
0.722835 0.063798 0.21648
0.739971 0.0711376 0.238422
0.742977 0.0718853 0.246876
0.746853 0.0728771 0.258091
0.749905 0.0736553 0.267887
0.752117 0.0740063 0.27657
0.754284 0.0745556 0.284688
0.756085 0.0750744 0.291691
0.757641 0.0755016 0.297948
0.758816 0.0757763 0.303441
0.759625 0.0759747 0.307637
0.76022 0.0760967 0.31104
0.760769 0.0762341 0.314229
0.761318 0.0764324 0.317021
0.762097 0.0767681 0.320134
0.76289 0.0771038 0.323384
0.0142519 0.130114 0.0445869
0.0140841 0.130358 0.0447547
0.0142214 0.119982 0.0288701
0.0182956 0.106355 0.020798
0.0386664 0.0887617 0.0241703
0.0805371 0.0776684 0.0231174
0.124559 0.0885328 0.0272831
0.181216 0.0884718 0.0279088
0.249546 0.0775311 0.0319066
0.321721 0.0701457 0.0339208
0.390692 0.0577859 0.0395056
0.454887 0.0373541 0.047715
0.512139 0.0258488 0.0611582
0.55996 0.0221408 0.076463
0.604791 0.0288243 0.10367
0.644358 0.0368811 0.133379
0.679026 0.047364 0.16289
0.711162 0.0599222 0.195895
0.732982 0.0696117 0.219745
0.73608 0.0704967 0.226841
0.738628 0.0710155 0.23357
0.740871 0.0715038 0.24004
0.742824 0.0719615 0.245594
0.745449 0.0726787 0.252766
0.747982 0.0733349 0.260243
0.749966 0.0738537 0.266651
0.751476 0.0741588 0.272038
0.752651 0.074342 0.276646
0.753704 0.0746319 0.280415
0.75465 0.0748608 0.28426
0.755581 0.0751812 0.287419
0.756756 0.0756237 0.291142
0.757961 0.076112 0.294667
0.00993362 0.181979 0.0467842
0.00973526 0.182361 0.0471962
0.0105592 0.173831 0.0274815
0.0114443 0.162005 0.0190433
0.0339361 0.148104 0.0181277
0.0805524 0.13547 0.0166934
0.143557 0.131212 0.0205081
0.188205 0.135668 0.0244297
0.248524 0.137987 0.0243076
0.319448 0.131456 0.028336
0.388327 0.119081 0.0349737
0.44976 0.0921798 0.0418708
0.507973 0.0650034 0.0523537
0.556451 0.04065 0.0650797
0.596567 0.0310063 0.0836652
0.633707 0.033875 0.114824
0.670024 0.0453498 0.145815
0.701732 0.057023 0.179385
0.726574 0.0673838 0.208362
0.731517 0.0695048 0.21474
0.731914 0.0695506 0.215991
0.733776 0.0700236 0.220478
0.735897 0.0705425 0.225635
0.737545 0.0709697 0.229755
0.738811 0.0711528 0.233539
0.740093 0.071397 0.237308
0.741314 0.0717174 0.240467
0.742702 0.0720836 0.244175
0.744076 0.0724804 0.247852
0.745434 0.0728618 0.251423
0.746685 0.0732433 0.254704
0.748226 0.0738079 0.258549
0.749706 0.0743725 0.26215
0.00157168 0.229068 0.0442206
0.0012665 0.229725 0.0448005
0.00242618 0.222721 0.0233616
0.00407416 0.213031 0.0141299
0.0163272 0.199969 0.0155337
0.0551308 0.190249 0.0140383
0.133898 0.180377 0.0134279
0.198077 0.176364 0.0174563
0.252003 0.179751 0.0192264
0.314275 0.182162 0.0179294
0.391135 0.172137 0.0293584
0.454887 0.160357 0.0344854
0.514015 0.143984 0.0417487
0.567346 0.118791 0.0535134
0.605219 0.0732128 0.0689403
0.629053 0.0421149 0.0925612
0.660182 0.0426642 0.127779
0.693126 0.0551766 0.161273
0.719371 0.0653239 0.194247
0.730251 0.0696727 0.208972
0.730694 0.0696422 0.210758
0.731014 0.0695811 0.212299
0.731197 0.0695048 0.213413
0.731365 0.0694896 0.214115
0.731487 0.0695048 0.214572
0.73228 0.0697185 0.216388
0.733166 0.0699474 0.218585
0.73402 0.070161 0.220584
0.735149 0.0704662 0.223194
0.736248 0.0707561 0.225803
0.737148 0.0710613 0.227787
0.738109 0.0713817 0.229999
0.739025 0.0716564 0.232166
0 0.275029 0.0383612
0 0.2757 0.0392615
0 0.270253 0.0147097
0 0.262318 0.00190738
0.00184634 0.251179 0.00486763
0.0280613 0.241886 0.00598154
0.0842603 0.23418 0.00587472
0.179553 0.225635 0.00415045
0.253956 0.221698 0.0133211
0.316884 0.225727 0.0154421
0.379477 0.229465 0.0112306
0.455772 0.219028 0.0264286
0.522957 0.204639 0.0405585
0.575525 0.192279 0.0458991
0.623148 0.170535 0.0570535
0.662531 0.138613 0.0740673
0.67422 0.0827192 0.0969253
0.68426 0.0556954 0.134981
0.711208 0.0638132 0.174563
0.727977 0.0700694 0.198383
0.728725 0.0700084 0.201373
0.729122 0.0698863 0.20351
0.729366 0.0697948 0.204959
0.729534 0.069688 0.206104
0.729702 0.0696117 0.207156
0.729992 0.0695964 0.208316
0.730282 0.0696574 0.209125
0.730556 0.0696727 0.21004
0.730785 0.069688 0.210834
0.730953 0.0697032 0.211444
0.731182 0.0697642 0.212085
0.731609 0.0699168 0.213046
0.732067 0.0700999 0.213993
0 0.319326 0.0344091
0 0.319951 0.0358587
0 0.316609 0.00715648
0 0.311192 0
0 0.301747 0
0 0.292134 0
0.0371862 0.285893 0
0.123873 0.279072 0
0.232349 0.270512 0
0.314595 0.267857 0.00698863
0.382727 0.274022 0.0131685
0.443565 0.281315 0.0068513
0.512322 0.271901 0.0207523
0.582544 0.254932 0.0441444
0.634256 0.241703 0.0543374
0.676722 0.224506 0.0648051
0.711803 0.194125 0.0848707
0.727199 0.145678 0.112779
0.722881 0.0926528 0.144793
0.724163 0.0726329 0.172076
0.727977 0.0726635 0.185107
0.727779 0.0717174 0.189166
0.72813 0.0712444 0.192844
0.727886 0.0709239 0.193729
0.727687 0.0706188 0.194568
0.72755 0.0703593 0.195346
0.727611 0.0702373 0.196262
0.727855 0.0701762 0.197406
0.728069 0.070161 0.198306
0.728344 0.070161 0.199283
0.728618 0.0702068 0.200107
0.729 0.0703288 0.201007
0.729381 0.0704967 0.20174
0 0.361959 0.0359808
0 0.362722 0.0382544
0 0.360632 0.00387579
0 0.358038 0
0 0.350774 0
0 0.339879 0
0.00105287 0.332097 0
0.0603037 0.32697 0
0.169711 0.322423 0
0.29276 0.316121 0
0.378531 0.315969 0.00138857
0.44535 0.323751 0.00987259
0.50515 0.334661 0.00984207
0.56408 0.329839 0.0146487
0.631876 0.314137 0.0442664
0.692241 0.293233 0.0702068
0.728527 0.278767 0.080415
0.759503 0.253025 0.103166
0.775341 0.208774 0.132525
0.765469 0.149172 0.152407
0.748882 0.110018 0.160113
0.736263 0.0902571 0.162158
0.73138 0.0821241 0.165972
0.728145 0.076524 0.170214
0.726955 0.073579 0.175341
0.728359 0.0733806 0.181994
0.728603 0.0731975 0.184665
0.728588 0.0729076 0.186099
0.728573 0.072755 0.186892
0.728573 0.0726635 0.187304
0.728618 0.0726177 0.187655
0.728801 0.072694 0.188083
0.729046 0.0728161 0.188418
0 0.405692 0.0432898
0 0.406744 0.0459602
0 0.405692 0.00370794
0 0.404791 0
0 0.399817 0
0 0.389609 0
0 0.379202 0
0.00668345 0.371939 0
0.0976577 0.3691 0
0.223636 0.364202 0
0.359487 0.3608 0
0.439445 0.362676 0
0.50425 0.372229 0.00859083
0.561715 0.3841 0.0142214
0.614816 0.386007 0.0166171
0.674846 0.373693 0.0466163
0.737209 0.354269 0.0803845
0.781659 0.334142 0.108553
0.803952 0.313497 0.12697
0.817166 0.278935 0.148959
0.814572 0.244755 0.15906
0.804227 0.219577 0.158633
0.793286 0.194476 0.158694
0.783307 0.172625 0.15967
0.775662 0.156222 0.161349
0.766644 0.137209 0.164324
0.757961 0.12314 0.163241
0.751339 0.112856 0.162387
0.746365 0.105669 0.161318
0.742123 0.0997177 0.160159
0.739605 0.0957961 0.160266
0.737209 0.0923781 0.159487
0.735637 0.0901656 0.158541
0 0.451148 0.0501106
0 0.451896 0.0539864
0 0.452003 0.0119936
0 0.452399 0
0 0.44947 0
0 0.442023 0
0 0.431632 0
0 0.420676 0
0.0298924 0.413748 0
0.147524 0.413306 0
0.292165 0.405371 0
0.424231 0.407233 0
0.499596 0.410544 0
0.558236 0.42034 0.0113985
0.614832 0.432181 0.0230411
0.665415 0.439628 0.0327916
0.71751 0.430472 0.057557
0.778912 0.412924 0.0975204
0.824689 0.393652 0.135195
0.848325 0.372107 0.158968
0.851835 0.351797 0.164691
0.84715 0.335607 0.163684
0.841794 0.319966 0.162234
0.836835 0.305409 0.161303
0.831998 0.29131 0.160693
0.827512 0.278309 0.160388
0.823743 0.267063 0.160555
0.820447 0.258045 0.160464
0.818128 0.252064 0.160342
0.815961 0.247135 0.159869
0.814755 0.244816 0.15938
0.815061 0.246815 0.158694
0.816983 0.253193 0.158022
0 0.496849 0.059968
0 0.497658 0.0640574
0 0.497902 0.0298619
0 0.498573 0
0 0.497215 0
0 0.492348 0
0 0.483345 0
0 0.472511 0
0.00827039 0.46273 0
0.0684825 0.456916 0
0.216983 0.458747 0
0.363439 0.44802 0
0.487022 0.454368 0
0.555245 0.457923 0.00260929
0.608087 0.467308 0.0191958
0.665248 0.478965 0.0374609
0.712627 0.48893 0.0538186
0.75935 0.485542 0.0772106
0.813321 0.471382 0.1178
0.859419 0.451225 0.159915
0.882856 0.431998 0.185657
0.884443 0.418723 0.189441
0.880201 0.408743 0.186282
0.87512 0.39971 0.181796
0.870542 0.391485 0.177996
0.866606 0.384161 0.17467
0.863157 0.37763 0.171939
0.860777 0.372961 0.170108
0.858976 0.369192 0.168795
0.857862 0.366842 0.167941
0.857588 0.366659 0.16759
0.857694 0.368719 0.167117
0.859144 0.373007 0.167849
0 0.542641 0.0746624
0 0.543481 0.0795758
0 0.543481 0.0521553
0 0.54435 0.0251926
0 0.542748 0
0 0.539651 0
0 0.532982 0
0 0.523491 0
0.00430304 0.513481 0
0.0356298 0.505699 0
0.132677 0.502358 0
0.291814 0.506096 0
0.434287 0.492851 0
0.542092 0.502266 0
0.607126 0.505577 0.0144808
0.655543 0.514 0.0338903
0.711742 0.525567 0.0589761
0.756359 0.535866 0.0810712
0.798474 0.539483 0.106493
0.839643 0.528634 0.137469
0.875517 0.512657 0.168414
0.889433 0.499306 0.182391
0.890578 0.489952 0.184634
0.890974 0.481498 0.18613
0.891295 0.474037 0.187488
0.891493 0.468055 0.188663
0.891218 0.462913 0.18912
0.891264 0.458946 0.189853
0.891234 0.455787 0.190448
0.891768 0.454124 0.19147
0.892638 0.453925 0.192691
0.894087 0.456153 0.194202
0.893629 0.460365 0.19295
0 0.587701 0.0964218
0 0.588693 0.103319
0 0.588632 0.0763867
0 0.58938 0.0543069
0 0.587091 0.01561
0 0.5841 0
0 0.5794 0
0 0.571496 0
0.00260929 0.563149 0
0.0365148 0.554925 0
0.0724804 0.549691 0
0.216388 0.550851 0
0.365759 0.552987 0
0.498955 0.537774 0
0.593484 0.549279 0.00708019
0.656382 0.552666 0.0346532
0.700084 0.559625 0.0565347
0.753872 0.571176 0.0868086
0.797589 0.5823 0.113985
0.831861 0.588769 0.136568
0.863294 0.584009 0.159091
0.880491 0.574136 0.172641
0.88217 0.566522 0.173617
0.882521 0.559976 0.173648
0.883146 0.554391 0.174121
0.883436 0.549523 0.174304
0.883879 0.545754 0.174655
0.884138 0.542702 0.174914
0.884092 0.540856 0.174868
0.88423 0.540337 0.175021
0.884016 0.541466 0.174762
0.883955 0.54403 0.174777
0.88336 0.548135 0.174334
0 0.633356 0.125002
0 0.634806 0.133852
0 0.634043 0.107591
0 0.635279 0.0947433
0 0.633402 0.0613718
0.0101472 0.629877 0.0305791
0.011841 0.626932 0.0219425
0.00631724 0.619989 0.0176394
0.0142977 0.611048 0.00299077
0.0500343 0.603403 0
0.0684977 0.595407 0
0.128756 0.594995 0
0.301915 0.601755 0
0.433356 0.599054 0
0.555123 0.582513 0
0.641627 0.59588 0.0329595
0.703029 0.599603 0.0637522
0.743816 0.605844 0.0875715
0.793057 0.616861 0.119127
0.833112 0.626856 0.146227
0.861997 0.633921 0.166201
0.880827 0.634974 0.178882
0.885374 0.631327 0.181353
0.88481 0.627482 0.180545
0.884138 0.623392 0.17969
0.883925 0.620203 0.179309
0.883589 0.617548 0.178851
0.883406 0.615686 0.178531
0.88333 0.614664 0.178424
0.883223 0.614603 0.178408
0.883268 0.615305 0.178592
0.883421 0.617304 0.179019
0.883711 0.620493 0.179736
0.00546273 0.676509 0.159838
0.0041352 0.677852 0.169436
0.0099031 0.676982 0.146563
0.0141604 0.678614 0.138994
0.0267796 0.676417 0.102281
0.0372168 0.674418 0.0773938
0.0419928 0.671397 0.0626535
0.0408179 0.665629 0.0526436
0.0377203 0.656764 0.0422675
0.0673533 0.650568 0.0167086
0.0913252 0.644236 0.000320439
0.112276 0.640787 0
0.219379 0.643458 0
0.384054 0.654078 0
0.495872 0.644892 0
0.607889 0.627695 0.031693
0.688487 0.642557 0.0670176
0.74789 0.647059 0.0999466
0.787747 0.652934 0.124849
0.826719 0.661265 0.150927
0.862898 0.669749 0.176684
0.888212 0.675669 0.195193
0.896773 0.676417 0.200977
0.896086 0.67393 0.199741
0.895491 0.671748 0.198672
0.894835 0.66981 0.197604
0.894499 0.668345 0.196933
0.894362 0.667552 0.196582
0.89456 0.66746 0.196704
0.894667 0.667491 0.196826
0.894911 0.668147 0.197192
0.89546 0.669688 0.198032
0.896437 0.672236 0.199496
0.0348516 0.715297 0.194354
0.0331884 0.716869 0.206134
0.0386816 0.71574 0.183444
0.0426795 0.717571 0.177523
0.0532082 0.716091 0.145998
0.0623178 0.71429 0.12195
0.0704967 0.710445 0.0978256
0.0700847 0.708507 0.0943465
0.0649882 0.70071 0.0857862
0.0805371 0.693828 0.0665141
0.117784 0.688258 0.0381323
0.131334 0.683818 0.0304112
0.174182 0.684001 0.0166018
0.317418 0.690333 0
0.458183 0.700023 0.0119936
0.55668 0.687938 0.0308385
0.658991 0.675151 0.0704509
0.733715 0.689998 0.106432
0.791074 0.695232 0.139666
0.826749 0.700099 0.162341
0.856275 0.705806 0.18349
0.888014 0.713466 0.206973
0.906264 0.717006 0.220401
0.909331 0.715923 0.222126
0.908675 0.71397 0.220996
0.908446 0.712535 0.220386
0.908232 0.711635 0.219944
0.907958 0.710857 0.219501
0.907805 0.710414 0.219257
0.90779 0.710491 0.219257
0.907988 0.711284 0.219654
0.908232 0.712734 0.220264
0.908812 0.715312 0.2215
0.0597238 0.746899 0.224094
0.0581064 0.748501 0.236072
0.0621347 0.746761 0.215213
0.064622 0.747814 0.210834
0.0720531 0.74522 0.181628
0.0812238 0.741558 0.150103
0.089601 0.738506 0.125933
0.090013 0.737072 0.121859
0.0886549 0.733532 0.116442
0.0952621 0.72871 0.10605
0.134524 0.726467 0.0800336
0.160937 0.722454 0.0631876
0.177996 0.72015 0.0562905
0.255528 0.724376 0.0370336
0.415473 0.733806 0.0313115
0.530892 0.739483 0.0525978
0.616876 0.726482 0.0752117
0.710155 0.720256 0.114626
0.779431 0.734676 0.148302
0.830518 0.740322 0.178653
0.862577 0.744991 0.200793
0.886641 0.749905 0.218616
0.906722 0.753979 0.233463
0.914076 0.754726 0.23859
0.913878 0.753262 0.237934
0.913741 0.752224 0.237476
0.913542 0.751247 0.236942
0.913481 0.750622 0.236683
0.913573 0.750378 0.236667
0.913649 0.750484 0.236759
0.913771 0.751202 0.237095
0.914122 0.752773 0.237949
0.914382 0.75491 0.238926
0.0634928 0.754147 0.238193
0.0624094 0.755245 0.246708
0.0645609 0.753338 0.230961
0.0655528 0.75256 0.224552
0.0716259 0.748074 0.191119
0.0801404 0.743557 0.157626
0.0867781 0.740398 0.135821
0.0893416 0.739239 0.128115
0.0902724 0.738827 0.125353
0.0962539 0.740246 0.123873
0.140627 0.747387 0.106676
0.180377 0.749035 0.088365
0.196033 0.74934 0.0860304
0.235904 0.752285 0.0767376
0.359075 0.758526 0.0556649
0.511101 0.770596 0.0699474
0.598123 0.76997 0.0918288
0.675349 0.759411 0.121553
0.761105 0.76022 0.160098
0.821195 0.774823 0.190585
0.865202 0.780667 0.217319
0.893568 0.784726 0.236744
0.913085 0.788418 0.25156
0.922271 0.789776 0.258701
0.922576 0.788937 0.258579
0.922225 0.787976 0.257908
0.921996 0.78732 0.257465
0.921752 0.786801 0.257053
0.921752 0.786603 0.256947
0.92221 0.787182 0.257496
0.922728 0.787884 0.258122
0.923308 0.789151 0.259037
0.924315 0.791333 0.26067
0.0633555 0.754284 0.239231
0.0615244 0.756374 0.25539
0.0643015 0.753597 0.232914
0.0657969 0.752316 0.222843
0.0715648 0.748104 0.191379
0.0805829 0.743343 0.1561
0.0859388 0.74078 0.138399
0.0899672 0.738949 0.126253
0.0900282 0.738918 0.12604
0.0876478 0.739345 0.130587
0.129534 0.748058 0.11783
0.17937 0.755505 0.100938
0.208362 0.760906 0.0981765
0.232456 0.765652 0.0981918
0.3093 0.772091 0.0829633
0.473762 0.781613 0.0763256
0.592371 0.790921 0.102174
0.656016 0.793332 0.132052
0.736751 0.787381 0.16817
0.809049 0.795712 0.204211
0.857298 0.80885 0.229389
0.894453 0.81503 0.253452
0.919371 0.819272 0.271855
0.934447 0.822477 0.283986
0.936645 0.822278 0.285466
0.936294 0.821469 0.284764
0.93608 0.82092 0.284306
0.935988 0.820493 0.284016
0.936019 0.820508 0.284062
0.936141 0.820722 0.284276
0.93637 0.821317 0.284779
0.936812 0.822385 0.285695
0.937438 0.824094 0.287144
0.0630045 0.754391 0.241062
0.0607614 0.757427 0.263905
0.0640116 0.753704 0.23447
0.0646983 0.753155 0.229847
0.0685893 0.74995 0.205783
0.0771954 0.744945 0.168139
0.0837415 0.74165 0.145083
0.0898909 0.738842 0.126162
0.0908522 0.738415 0.123384
0.0907912 0.738445 0.123537
0.106645 0.743526 0.125124
0.170123 0.756069 0.109667
0.212818 0.762615 0.100664
0.233417 0.767742 0.103883
0.286961 0.774639 0.0987564
0.415854 0.783688 0.0870069
0.571481 0.79762 0.112032
0.646693 0.808637 0.142489
0.716228 0.811887 0.173007
0.795193 0.814237 0.213916
0.849348 0.825223 0.242435
0.887572 0.836484 0.265049
0.918288 0.843259 0.287434
0.942275 0.848569 0.30132
0.948943 0.85008 0.305241
0.948669 0.849546 0.304646
0.94844 0.849104 0.304082
0.94844 0.849012 0.303792
0.948501 0.848981 0.303426
0.948775 0.849241 0.303212
0.949096 0.849821 0.303105
0.949615 0.850813 0.303197
0.950423 0.852522 0.303777
0.0619364 0.755764 0.250965
0.06009 0.759228 0.27628
0.0629435 0.754818 0.242863
0.0643168 0.753536 0.232547
0.0661784 0.751888 0.22002
0.071397 0.748089 0.191821
0.0805219 0.743221 0.155932
0.0860151 0.740581 0.137774
0.0910201 0.738354 0.122911
0.0910811 0.738323 0.122728
0.0952316 0.740795 0.127443
0.157275 0.754086 0.113649
0.208545 0.761578 0.100252
0.230396 0.767605 0.105165
0.274922 0.774411 0.103426
0.37438 0.785138 0.101671
0.539452 0.800855 0.121233
0.631266 0.811231 0.148836
0.706127 0.818906 0.173556
0.780087 0.826123 0.215808
0.843519 0.834836 0.251225
0.883345 0.846235 0.273899
0.913436 0.85594 0.294682
0.939834 0.862409 0.314473
0.953368 0.865782 0.321874
0.953994 0.865934 0.322225
0.954009 0.865965 0.322301
0.954009 0.866026 0.322408
0.954025 0.866194 0.322667
0.95407 0.866499 0.323079
0.954116 0.866911 0.323659
0.954238 0.867536 0.324651
0.954421 0.868299 0.325856
0.0608072 0.757809 0.265385
0.0595865 0.761334 0.29099
0.0617838 0.756146 0.253269
0.0640269 0.753887 0.23505
0.0649729 0.752972 0.228046
0.0683299 0.75021 0.207416
0.0762036 0.745373 0.171633
0.0843977 0.741329 0.142885
0.0904707 0.738582 0.124453
0.090898 0.738399 0.123247
0.0897078 0.739116 0.127428
0.144503 0.751797 0.117052
0.201801 0.760281 0.100603
0.225513 0.766751 0.10547
0.265873 0.773022 0.103487
0.348806 0.783185 0.103334
0.518639 0.798199 0.11487
0.618082 0.81091 0.148211
0.695628 0.817823 0.169284
0.768551 0.826764 0.210712
0.835477 0.834577 0.24889
0.877775 0.846326 0.272709
0.90956 0.856321 0.293156
0.935073 0.863844 0.313649
0.952514 0.867933 0.324987
0.954482 0.868406 0.326146
0.954482 0.868406 0.326146
0.954498 0.868437 0.326162
0.954498 0.868482 0.326192
0.954498 0.868559 0.326253
0.954498 0.868605 0.326299
0.954498 0.86862 0.326314
0.954498 0.868605 0.326299
0.0599985 0.759945 0.280476
0.0594339 0.763241 0.304479
0.0607919 0.757809 0.265415
0.063508 0.754421 0.239139
0.0644083 0.753536 0.232242
0.0663005 0.751842 0.21944
0.0715801 0.747982 0.190982
0.0825971 0.742184 0.148791
0.0894026 0.739055 0.127581
0.0909133 0.738384 0.123171
0.0901045 0.738735 0.125505
0.131716 0.749111 0.119585
0.194736 0.759258 0.102068
0.22179 0.765942 0.105257
0.259297 0.772091 0.103639
0.330968 0.781582 0.104067
0.497261 0.795407 0.108873
0.607965 0.810224 0.146746
0.685405 0.816999 0.165957
0.757961 0.826276 0.2047
0.827359 0.833204 0.244358
0.872084 0.844862 0.269627
0.904692 0.85481 0.289433
0.93051 0.862669 0.310338
0.951217 0.867674 0.324208
0.954482 0.868406 0.326146
0.954482 0.868406 0.326146
0.954498 0.868437 0.326162
0.954498 0.868482 0.326192
0.954498 0.868559 0.326253
0.954498 0.868605 0.326299
0.954498 0.86862 0.326314
0.954498 0.86862 0.326314
0.059556 0.761959 0.294987
0.0595407 0.76495 0.316304
0.0601511 0.75938 0.276707
0.0627298 0.755123 0.244953
0.0641031 0.753887 0.234714
0.0653239 0.752712 0.225864
0.0689708 0.749767 0.204028
0.0789044 0.74406 0.161776
0.0875715 0.739864 0.132998
0.0911116 0.738308 0.122621
0.0905776 0.738537 0.124132
0.123583 0.747112 0.120592
0.187015 0.75819 0.104036
0.219181 0.765255 0.104738
0.254322 0.771237 0.103487
0.317937 0.780011 0.103899
0.47602 0.793439 0.105501
0.598825 0.809598 0.145464
0.675807 0.816205 0.163348
0.749294 0.825345 0.199573
0.819883 0.832334 0.239857
0.866957 0.843366 0.266758
0.901579 0.853971 0.287266
0.926513 0.861708 0.307485
0.949126 0.86714 0.322957
0.954482 0.868421 0.326146
0.954482 0.868406 0.326146
0.954498 0.868437 0.326162
0.954498 0.868482 0.326192
0.954498 0.868559 0.326253
0.954498 0.868605 0.326299
0.954498 0.86862 0.326314
0.954498 0.86862 0.326314
0.0594644 0.763668 0.307057
0.059678 0.766262 0.325856
0.0597696 0.760891 0.287175
0.0619516 0.756115 0.252293
0.0637369 0.754314 0.237766
0.0648814 0.753124 0.228931
0.0671092 0.751186 0.214542
0.0747997 0.746029 0.176837
0.0866407 0.740307 0.135897
0.0910964 0.738308 0.122652
0.0908827 0.738399 0.123293
0.11252 0.744854 0.12372
0.180667 0.757321 0.105898
0.217426 0.764721 0.10425
0.250507 0.770489 0.103166
0.311376 0.779126 0.103563
0.456703 0.791791 0.10367
0.590509 0.808408 0.141741
0.668742 0.815595 0.16141
0.742061 0.824277 0.195239
0.813901 0.831708 0.236255
0.862821 0.842191 0.264378
0.897917 0.852979 0.284886
0.923095 0.860822 0.305074
0.946181 0.866514 0.321218
0.954192 0.868406 0.326024
0.954498 0.868467 0.326192
0.954498 0.868482 0.326192
0.954498 0.868513 0.326223
0.954498 0.868574 0.326284
0.954498 0.86862 0.326314
0.954498 0.868635 0.326329
0.954498 0.868589 0.326284
0.059556 0.765194 0.318135
0.0598306 0.767147 0.333272
0.0594186 0.761837 0.295354
0.0611734 0.756863 0.259281
0.0632486 0.754437 0.240269
0.0643778 0.753231 0.231312
0.0658427 0.751812 0.220996
0.0724651 0.747005 0.185763
0.0861372 0.740108 0.136507
