bundles/resolve-cinematic-luts/Phantom Luts/Canon Alexa LUT/C-Log 3/Utopia Canon CL3-Legacy.cube
TITLE "Generated by Resolve"
LUT_3D_SIZE 5
0.0138705 0.040116 0.0496681
0.321447 0.0257267 0.0523842
0.732082 0.0491188 0.188678
0.803815 0.0640269 0.291447
0.810788 0.0623941 0.320607
0 0.329213 0.0019379
0.196689 0.231449 0.0422827
0.64329 0.150698 0.0591592
0.767193 0.0552834 0.0974289
0.769909 0.0526436 0.101549
0.0707256 0.870604 0.0893111
0.0976272 0.832547 0
0.690425 0.678676 0.100557
0.916762 0.67042 0.129885
0.915694 0.653941 0.126284
0.0936294 0.999969 0.198566
0.143069 0.99646 0.0625315
0.664271 0.982696 0.167102
0.999969 0.947677 0.275105
0.999969 0.947448 0.269474
0.0688334 0.999969 0.264836
0.141497 0.996689 0.0688487
0.552499 0.995499 0.140871
0.995789 0.94757 0.266682
0.999969 0.947417 0.269993
0 0.0558328 0.236789
0.27599 0.0350195 0.298573
0.722652 0.060441 0.41738
0.809155 0.0771191 0.479667
0.815213 0.0752728 0.503395
0 0.207904 0.20415
0.150164 0.182025 0.18732
0.664714 0.0426947 0.165194
0.809262 0.0620127 0.280735
0.81445 0.0609903 0.31046
0 0.768597 0.313497
0.0463569 0.794217 0.0882124
0.66154 0.648768 0.093904
0.915038 0.617441 0.122042
0.911025 0.588251 0.120424
0.0329595 0.999969 0.451072
0.0878004 0.999969 0.207507
0.468757 0.999573 0.121477
0.998398 0.948196 0.272007
0.999969 0.947463 0.2692
0.0235447 0.999649 0.497429
0.0700236 0.999969 0.285756
0.35903 0.999969 0.102434
0.970687 0.948562 0.259281
0.999969 0.947646 0.265812
0 0.0921035 0.569451
0.254185 0.0658732 0.6271
0.660456 0.0728618 0.658549
0.760433 0.0958114 0.727657
0.765377 0.0941329 0.762005
0 0.177081 0.490822
0 0.0860609 0.550317
0.592996 0.0608835 0.60032
0.774258 0.0884413 0.629587
0.780484 0.0863508 0.654231
0 0.626093 0.605051
0 0.60621 0.584619
0.580087 0.596582 0.583459
0.966125 0.499428 0.548745
0.961837 0.462791 0.549874
0.0195773 0.972641 0.704662
0.0144503 0.991577 0.64802
0.0833143 0.999969 0.250248
0.971786 0.956054 0.379416
0.999969 0.94406 0.364584
0.0149538 0.964904 0.729519
0.0135348 0.985672 0.670176
0.0697948 0.999969 0.295979
0.904082 0.953063 0.269368
0.999969 0.94815 0.282963
0 0.156497 0.737179
0.229511 0.128298 0.843961
0.636912 0.0913863 0.846784
0.738628 0.103944 0.821744
0.741207 0.102785 0.825208
0 0.225849 0.720287
0 0.156741 0.737057
0.540749 0.0994888 0.864515
0.734661 0.105699 0.816495
0.740932 0.102922 0.824826
0 0.598764 0.781857
0 0.56968 0.78172
0.349477 0.522225 0.895033
0.886442 0.395132 0.919829
0.874113 0.347967 0.912505
0.0374456 0.922499 0.912459
0.0229038 0.910201 0.898985
0.01149 0.875395 0.856306
0.894469 0.896574 0.883513
0.983764 0.868833 0.874571
0.0449378 0.928008 0.937163
0.0322728 0.926528 0.920089
0.0203708 0.941802 0.825254
0.77734 0.997742 0.82768
0.988067 0.978561 0.916579
0 0.153582 0.756466
0.25391 0.126299 0.84715
0.659495 0.0940719 0.84419
0.738628 0.103944 0.821744
0.74052 0.10309 0.824506
0 0.22295 0.7234
0 0.154116 0.755077
0.549889 0.0983444 0.863691
0.735531 0.105318 0.81767
0.740719 0.102998 0.824659
0 0.594171 0.824552
0 0.55613 0.807141
0.307744 0.470726 0.89543
0.863325 0.326375 0.913893
0.848219 0.277958 0.902708
0.0429999 0.918593 0.94844
0.0325628 0.903822 0.945266
0.0187839 0.859876 0.93463
0.827436 0.870558 0.980911
0.970275 0.832944 0.975464
0.0495308 0.932647 0.952682
0.0460365 0.933181 0.954376
0.0463722 0.933639 0.954681
0.704997 0.980758 0.982712
0.984161 0.980438 0.97908
