bundles/resolve-cinematic-luts/Phantom Luts/Canon Alexa LUT/C-Log 3/Utopia Canon CL3.cube
TITLE "Generated by Resolve"
LUT_3D_SIZE 9
0.00323491 0.0299077 0.0381781
0.153109 0.0127718 0.0337835
0.370947 0.00357061 0.0544442
0.569772 0.011429 0.121706
0.747158 0.0330205 0.230198
0.795666 0.0457008 0.303655
0.794339 0.0477455 0.331731
0.794186 0.0487068 0.348745
0.807004 0.0449226 0.360159
0 0.136706 0.0134279
0.0444648 0.0842298 0.0218814
0.248188 0.0802319 0.031342
0.497871 0.0216831 0.0140841
0.677424 0.0218357 0.0791638
0.772976 0.036347 0.153903
0.77879 0.0372778 0.171344
0.7888 0.0392615 0.201389
0.806195 0.0363928 0.217868
0 0.396017 0
0.00469978 0.351873 0
0.259968 0.29015 0.0276646
0.496498 0.277211 0.0334478
0.694118 0.194308 0.0629892
0.779355 0.0391852 0.0891737
0.776318 0.0370947 0.115587
0.77435 0.0367132 0.1205
0.780697 0.0345464 0.121416
0.00552377 0.651835 0.0365148
0.016556 0.637797 0
0.0928206 0.599649 0
0.516579 0.515999 0.0483101
0.700481 0.520531 0.0673991
0.891371 0.445014 0.133593
0.904158 0.39678 0.144442
0.892622 0.375158 0.132235
0.888075 0.361593 0.125185
0.0547951 0.899641 0.116304
0.0790723 0.902876 0.0024567
0.108858 0.867231 0
0.402762 0.813672 0.0164797
0.73341 0.715724 0.0966964
0.874174 0.711696 0.117235
0.928634 0.703761 0.125566
0.92694 0.693828 0.12224
0.926421 0.688319 0.120653
0.0825208 0.999969 0.198245
0.128313 0.99501 0.0697795
0.131899 0.994263 0.0668345
0.298238 0.999969 0.0626688
0.727169 0.953994 0.112734
0.91397 0.88632 0.171328
0.987289 0.878691 0.204822
0.985962 0.874189 0.20264
0.984085 0.871031 0.20412
0.0673228 0.999969 0.233051
0.0941787 0.999893 0.145403
0.134813 0.992859 0.059205
0.306706 0.999969 0.0746929
0.693263 0.983291 0.18587
0.904265 0.938506 0.280705
0.999969 0.949126 0.285634
0.999969 0.949554 0.280903
0.999969 0.949691 0.278874
0.0498054 0.999969 0.286244
0.0810864 0.999969 0.194842
0.134173 0.992966 0.0649424
0.286641 0.999969 0.0745098
0.62887 0.990555 0.165194
0.884703 0.947265 0.267735
0.995895 0.949004 0.286854
0.999969 0.94934 0.283955
0.999969 0.949828 0.277028
0.0396887 0.999969 0.313726
0.0745708 0.999969 0.193225
0.131838 0.993957 0.0652628
0.265919 0.999969 0.0716411
0.585473 0.995743 0.158755
0.873274 0.95172 0.258762
0.992309 0.948974 0.276829
0.999969 0.94934 0.283955
0.999969 0.949874 0.276341
0 0.0384222 0.109194
0.126497 0.0220798 0.162264
0.352407 0.012314 0.219532
0.550591 0.0176394 0.284092
0.740795 0.0382544 0.353338
0.797314 0.0504463 0.404028
0.796246 0.052781 0.429099
0.796231 0.0536202 0.444327
0.80528 0.0509804 0.455207
0 0.0611429 0.0684215
0.00373846 0.0303044 0.0382544
0.285023 0.00704967 0.0481575
0.523888 0.00840772 0.107256
0.720485 0.0264744 0.207813
0.807248 0.0417334 0.298726
0.805997 0.0437476 0.327947
0.804791 0.0450294 0.34551
0.81146 0.0432288 0.355718
0 0.326543 0.131273
0 0.321965 0
0.225391 0.254231 0.0268406
0.513115 0.192615 0.0445869
0.684169 0.0605478 0.0399176
0.777386 0.0350958 0.146654
0.77673 0.0354162 0.15349
0.78468 0.0367285 0.175341
0.798306 0.0355688 0.191012
0 0.60882 0.163882
0 0.612909 0.0308385
0.0336309 0.585367 0
0.49601 0.496422 0.0447852
0.702052 0.486458 0.0606851
0.890043 0.38674 0.133944
0.880919 0.340948 0.12134
0.873274 0.30544 0.117952
0.8701 0.284596 0.114046
0.0144198 0.864515 0.242603
0.039353 0.872023 0.110964
0.0707561 0.871763 0
0.262577 0.818586 0
0.71989 0.701534 0.0935988
0.871763 0.694423 0.113283
0.925902 0.681147 0.11873
0.925032 0.669184 0.115312
0.924865 0.662486 0.113771
0.0473793 0.999969 0.328435
0.0751354 0.999969 0.189883
0.128054 0.995071 0.0711223
0.26215 0.999969 0.0431525
0.700252 0.957977 0.100801
0.903792 0.876646 0.16318
0.980789 0.865446 0.195315
0.978164 0.859205 0.19263
0.975784 0.855253 0.19144
0.0297704 0.999969 0.383429
0.0640421 0.999969 0.239719
0.0990921 0.999695 0.129213
0.226261 0.999969 0.0667277
0.614115 0.993118 0.15697
0.886946 0.945769 0.268269
0.998535 0.94902 0.286717
0.999969 0.949554 0.280903
0.999969 0.949676 0.279133
0.0200351 0.999969 0.419074
0.052903 0.999969 0.298573
0.0861067 0.999969 0.189349
0.175677 0.999283 0.0714275
0.530541 0.998978 0.14844
0.863035 0.955505 0.251408
0.990646 0.948653 0.274434
0.999969 0.94934 0.28397
0.999969 0.949874 0.276417
0.0148318 0.999969 0.438499
0.042359 0.999969 0.324239
0.0793774 0.999969 0.198367
0.155245 0.99823 0.0706951
0.495583 0.999603 0.136858
0.850294 0.959869 0.240879
0.984283 0.947738 0.267338
0.999969 0.94934 0.283955
0.999969 0.949874 0.276341
0 0.0516213 0.289113
0.12697 0.0281834 0.322057
0.321126 0.0135348 0.345892
0.533089 0.0230106 0.399481
0.734707 0.0455634 0.448096
0.794644 0.0579995 0.487358
0.793759 0.0598306 0.507576
0.793011 0.0601511 0.520211
0.801831 0.0571298 0.531777
0 0.0799878 0.177966
0 0.0460059 0.250645
0.251514 0.0160983 0.278508
0.507576 0.0171054 0.308278
0.70869 0.0345922 0.357687
0.799283 0.0498207 0.41004
0.798321 0.052369 0.434226
0.797498 0.053315 0.448493
0.805188 0.0513313 0.459083
0 0.2645 0.255161
0 0.240299 0.231891
0.201694 0.233799 0.235904
0.534737 0.141527 0.190646
0.697154 0.0296788 0.206165
0.80267 0.0431983 0.292073
0.801114 0.0452583 0.322118
0.800031 0.0465553 0.339864
0.806806 0.0446937 0.350317
0 0.547265 0.305165
0 0.555016 0.214908
0 0.571374 0.0425727
0.47422 0.476112 0.0513619
0.72137 0.427604 0.10634
0.878996 0.303517 0.147387
0.865385 0.229511 0.1308
0.852445 0.171145 0.117784
0.84596 0.141726 0.10779
0 0.809384 0.371771
0 0.827588 0.265553
0.0284428 0.839765 0.119112
0.169894 0.810498 0
0.705104 0.686793 0.090425
0.869398 0.674327 0.10837
0.923232 0.652705 0.113115
0.920653 0.635401 0.115587
0.919493 0.625742 0.115969
0.0242466 0.999161 0.441032
0.0331579 0.999969 0.345434
0.0687266 0.999969 0.204929
0.166537 0.998383 0.0525521
0.654582 0.957488 0.0864424
0.89276 0.865766 0.156207
0.972488 0.849851 0.186542
0.968322 0.841489 0.182345
0.965759 0.836835 0.179919
0.0112459 0.9991 0.491768
0.0244602 0.999969 0.400107
0.0608988 0.999969 0.246098
0.137072 0.993545 0.0587472
0.504631 0.999741 0.13901
0.866026 0.954498 0.251652
0.994965 0.949157 0.283787
0.999969 0.949554 0.280903
0.999969 0.949706 0.278782
0.00721752 0.998352 0.522133
0.0178225 0.999939 0.437781
0.0531319 0.999969 0.306508
0.133883 0.993133 0.0659648
0.432685 0.999969 0.122576
0.837598 0.961837 0.229557
0.982208 0.94754 0.265782
0.999969 0.949325 0.284199
0.999969 0.949844 0.276814
0.00343328 0.998138 0.537041
0.0121767 0.999847 0.456962
0.0435492 0.999969 0.331899
0.133532 0.993194 0.0664683
0.398047 0.999969 0.111803
0.82443 0.962371 0.216785
0.971466 0.945983 0.269703
0.999969 0.94934 0.283955
0.999969 0.94992 0.275669
0 0.066743 0.469917
0.11487 0.0433509 0.502785
0.309987 0.0263828 0.503899
0.501549 0.025742 0.518746
0.708385 0.0506752 0.557565
0.778042 0.065568 0.593469
0.774685 0.0672923 0.613901
0.773526 0.06804 0.627207
0.782727 0.0645914 0.641337
0 0.118883 0.397055
0 0.0628672 0.452277
0.202976 0.0331884 0.488441
0.466575 0.0216831 0.485969
0.687785 0.0443275 0.511315
0.788205 0.0620737 0.542473
0.784741 0.0632944 0.560708
0.783444 0.0637369 0.572839
0.792203 0.0604715 0.58497
0 0.244388 0.381933
0 0.206699 0.395148
0.0284886 0.158999 0.477928
0.451316 0.0551461 0.466041
0.663066 0.0372931 0.442557
0.792065 0.0581369 0.477577
0.791959 0.0600443 0.495354
0.790555 0.0608835 0.506752
0.797757 0.0582895 0.516579
0 0.481743 0.462318
0 0.46685 0.447517
0 0.450919 0.429633
0.43621 0.460609 0.451957
0.743893 0.390295 0.414923
0.917098 0.254887 0.418769
0.891218 0.177142 0.411872
0.864485 0.127123 0.401816
0.843565 0.0910201 0.391455
0 0.73341 0.515526
0 0.734157 0.478126
0 0.740734 0.41799
0.0896773 0.799512 0.241093
0.669429 0.669841 0.27541
0.887114 0.639429 0.3084
0.948943 0.590845 0.312444
0.942382 0.57145 0.303792
0.939574 0.560067 0.30013
0 0.952331 0.570535
0 0.963287 0.521492
0.00334173 0.979065 0.451011
0.0588846 0.999756 0.222492
0.429587 0.982727 0.0547646
0.874067 0.84799 0.150134
0.962646 0.823178 0.173083
0.96025 0.811429 0.16788
0.95874 0.805066 0.165179
0.0080415 0.993271 0.61622
0.00277714 0.996857 0.566339
0.00935378 0.999161 0.494408
0.0565194 0.999969 0.262364
0.335866 0.999969 0.0945449
0.823713 0.963241 0.215259
0.986618 0.947417 0.266163
0.999969 0.943206 0.253391
0.999969 0.940429 0.241077
0.00347906 0.991562 0.638117
0.00183108 0.995773 0.590906
0.00877394 0.998093 0.524224
0.0506294 0.999969 0.316213
0.305318 0.999969 0.0769665
0.790082 0.969741 0.225147
0.962249 0.945068 0.272816
0.999969 0.949126 0.287037
0.999969 0.949676 0.279286
0 0.989425 0.648905
0.000442512 0.995377 0.60412
0.0053254 0.997879 0.538338
0.0443885 0.999969 0.342397
0.269505 0.999969 0.0751354
0.774182 0.972961 0.22884
0.946654 0.942733 0.27718
0.999969 0.949248 0.284749
0.999969 0.949874 0.276127
0 0.0954604 0.609674
0.107118 0.0707408 0.649119
0.305257 0.0584878 0.663355
0.484565 0.043473 0.661448
0.678843 0.0589609 0.682368
0.754604 0.0776684 0.714015
0.749249 0.0797894 0.734569
0.747631 0.080705 0.747295
0.756283 0.0772564 0.763531
0 0.149599 0.5608
0 0.0892195 0.599359
0.175677 0.0638743 0.646189
0.440131 0.0457465 0.650202
0.652964 0.0527657 0.657725
0.761456 0.0740368 0.683345
0.75758 0.0761425 0.701106
0.75639 0.0769055 0.712779
0.765942 0.0731518 0.728801
0 0.218753 0.52549
0 0.162524 0.542489
0 0.0847028 0.593637
0.36701 0.0487068 0.635798
0.618647 0.0436255 0.625772
0.765499 0.0711223 0.640925
0.761807 0.073106 0.65539
0.760433 0.0740063 0.66537
0.769985 0.0704662 0.679301
0 0.460212 0.58735
0 0.438102 0.584955
0 0.409766 0.582849
0.275059 0.392035 0.668223
0.684199 0.300282 0.672114
0.820676 0.116762 0.601495
0.783398 0.0731975 0.576593
0.780789 0.0705882 0.576532
0.787259 0.0655833 0.581476
0 0.670588 0.647959
0 0.661601 0.639078
0 0.651881 0.628611
0 0.642634 0.613321
0.621485 0.638025 0.623407
0.899657 0.589395 0.598123
0.96939 0.540581 0.589731
0.969696 0.517876 0.590845
0.968429 0.505577 0.592004
0 0.88333 0.69247
0 0.883177 0.671931
0 0.88191 0.645594
0 0.887251 0.578851
0.388067 0.964111 0.51516
0.821683 0.830961 0.52015
0.954192 0.798978 0.537331
0.95697 0.783139 0.53782
0.957794 0.774029 0.538705
0.00920119 0.96257 0.740047
0 0.971176 0.715877
0 0.979995 0.6851
0.00259403 0.99472 0.609628
0.0597543 0.999969 0.29456
0.736797 0.998123 0.373465
0.967422 0.946288 0.404181
0.999969 0.937972 0.381765
0.999969 0.933425 0.388846
0.0034638 0.959838 0.756237
0.000259403 0.967056 0.731121
0 0.976181 0.698924
0.00445563 0.993454 0.623224
0.049836 0.999969 0.317723
0.653162 0.998352 0.266712
0.941466 0.943709 0.281315
0.999969 0.952453 0.341436
0.999969 0.952789 0.336843
0.00399786 0.957473 0.765484
0.000564584 0.964706 0.73994
0 0.973892 0.707073
0.00344854 0.992203 0.630915
0.0451057 0.999969 0.338567
0.570062 0.999725 0.207691
0.915587 0.941543 0.288319
0.999634 0.950362 0.309117
0.999969 0.950744 0.29427
0 0.159991 0.731151
0.0937972 0.12755 0.788418
0.291722 0.1122 0.814755
0.48481 0.0931563 0.82707
0.652232 0.0673991 0.795895
0.734447 0.0861067 0.795712
0.732982 0.0863508 0.798871
0.731258 0.0870832 0.796994
0.737194 0.0844739 0.804517
0 0.186725 0.687129
0 0.151049 0.725155
0.150698 0.116869 0.787961
0.425452 0.0953536 0.815488
0.621286 0.0622721 0.789319
0.736553 0.0856336 0.786999
0.733333 0.0865339 0.79469
0.733471 0.0863813 0.798489
0.738796 0.0838788 0.806332
0 0.231708 0.652186
0 0.188144 0.670375
0 0.140108 0.715129
0.333715 0.0966659 0.795331
0.585931 0.0636301 0.785031
0.736278 0.0852369 0.765606
0.732311 0.0874952 0.77499
0.731273 0.0878767 0.782071
0.740124 0.0839551 0.796902
0 0.447105 0.668666
0 0.422293 0.67451
0 0.384283 0.684291
0.122545 0.317479 0.789837
0.580941 0.225925 0.836713
0.744778 0.0873884 0.746181
0.746639 0.0811627 0.731594
0.745586 0.0814374 0.735897
0.754131 0.0780499 0.747677
0 0.658183 0.752255
0 0.644724 0.75407
0 0.628107 0.755749
0 0.592676 0.759289
0.50956 0.605127 0.818219
0.853315 0.540139 0.824002
0.936614 0.479744 0.810819
0.931365 0.455161 0.807919
0.92668 0.441245 0.807385
0 0.829755 0.80911
0 0.823804 0.802899
0 0.815595 0.793774
0 0.800443 0.776043
0.319829 0.799283 0.766079
0.780896 0.789929 0.773083
0.96556 0.7523 0.756344
0.972442 0.733333 0.753307
0.97203 0.724239 0.753017
0.0188296 0.938994 0.842832
0.00784314 0.943664 0.829816
0.00497444 0.947066 0.813794
0.00109865 0.949371 0.781353
0.0033875 0.958648 0.69926
0.647425 0.998535 0.708736
0.924132 0.927977 0.726299
0.971099 0.911711 0.724758
0.968521 0.905043 0.724895
0.0215305 0.934997 0.862196
0.0104219 0.940551 0.846403
0.00669871 0.945022 0.826322
0.00317388 0.953155 0.788098
0.00447089 0.976654 0.697169
0.54316 0.999969 0.644602
0.899687 0.986526 0.680964
0.990265 0.971832 0.746944
0.995575 0.97145 0.741756
0.0169528 0.93434 0.873777
0.0118715 0.938582 0.855772
0.00766003 0.943481 0.833616
0.00320439 0.952255 0.792462
0.0041352 0.976074 0.69865
0.477577 0.999969 0.61294
0.863172 0.995026 0.681666
0.978347 0.971496 0.703899
0.995499 0.970611 0.71548
0 0.17908 0.773236
0.100145 0.161227 0.842344
0.295949 0.148852 0.870512
0.495918 0.123644 0.878279
0.661936 0.0746471 0.824521
0.733913 0.0859236 0.800305
0.733883 0.0859388 0.800275
0.731655 0.0869001 0.797482
0.737179 0.0844892 0.804471
0 0.210956 0.736248
0 0.179095 0.775769
0.14229 0.159045 0.849958
0.428046 0.136522 0.879896
0.633768 0.0831006 0.84268
0.733898 0.0859236 0.80029
0.7337 0.0860151 0.800031
0.73434 0.0857404 0.800855
0.73817 0.084062 0.805554
0 0.274342 0.746654
0 0.220356 0.740688
0 0.17937 0.772702
0.323125 0.147112 0.873243
0.592081 0.0974594 0.861769
0.730266 0.0868696 0.797436
0.729152 0.0879835 0.794385
0.729915 0.0876631 0.795316
0.736706 0.0847181 0.803616
0 0.439384 0.744884
0 0.411597 0.754772
0 0.366415 0.762646
0.0106966 0.274937 0.836103
0.503685 0.172442 0.897414
0.708324 0.0849165 0.813031
0.726497 0.0891737 0.790997
0.726879 0.0890211 0.79147
0.735225 0.08542 0.801572
0 0.641306 0.819928
0 0.628641 0.820966
0 0.613931 0.820005
0 0.580041 0.818479
0.405097 0.569848 0.921599
0.790204 0.513008 0.955718
0.902327 0.442008 0.930861
0.896086 0.415259 0.925811
0.89163 0.39913 0.924605
0 0.824125 0.875532
0 0.818173 0.876997
0 0.807935 0.875929
0 0.785504 0.876295
0.204852 0.767132 0.88835
0.699351 0.767163 0.914748
0.938476 0.719265 0.914427
0.952728 0.697902 0.909575
0.950301 0.68893 0.909438
0.0314794 0.925353 0.914656
0.0216831 0.923247 0.911803
0.0175479 0.917922 0.906218
0.0118715 0.908095 0.895384
0.00454719 0.892638 0.874556
0.610681 0.903929 0.880842
0.899443 0.901549 0.890974
0.97351 0.887816 0.885618
0.972396 0.879576 0.883741
0.0352636 0.928649 0.927642
0.0280919 0.928725 0.923171
0.0248417 0.928512 0.915969
0.0196536 0.929854 0.898543
0.015671 0.939269 0.853071
0.389914 0.974121 0.829297
0.843122 0.991119 0.867247
0.972335 0.970916 0.899779
0.981018 0.964599 0.889479
0.0379492 0.929473 0.932708
0.0307012 0.929412 0.928405
0.026688 0.928664 0.920501
0.0200961 0.929305 0.901473
0.0139315 0.940139 0.848432
0.297429 0.975067 0.811994
0.803647 0.997177 0.845106
0.954086 0.977951 0.86453
0.985992 0.979934 0.921981
0 0.176806 0.78854
0.131746 0.159808 0.84828
0.310964 0.147814 0.871931
0.506798 0.121294 0.877607
0.671855 0.0745556 0.820706
0.733898 0.0859236 0.80029
0.733883 0.0859388 0.800275
0.733318 0.0862135 0.799283
0.736233 0.0849012 0.803281
0 0.202716 0.734157
0 0.176867 0.78941
0.160998 0.157794 0.852964
0.437644 0.135119 0.880156
0.638666 0.0788281 0.837659
0.73402 0.0858778 0.800458
0.733852 0.0859541 0.800229
0.734447 0.0856947 0.800961
0.737575 0.0843061 0.805035
0 0.273426 0.749233
0 0.211902 0.738567
0 0.177325 0.787198
0.332921 0.146548 0.874357
0.597223 0.0959182 0.860258
0.731991 0.0865339 0.798489
0.729946 0.0876478 0.795346
0.730739 0.0873274 0.796078
0.736721 0.0847181 0.803616
0 0.4336 0.778805
0 0.392966 0.773617
0 0.329778 0.763409
0 0.215717 0.822736
0.48748 0.142367 0.88574
0.703578 0.079881 0.812558
0.728084 0.0885176 0.792721
0.728374 0.088365 0.793317
0.735393 0.0853437 0.801785
0 0.639994 0.850721
0 0.627298 0.849638
0 0.609491 0.841505
0 0.564965 0.820813
0.377401 0.541054 0.926696
0.768475 0.483375 0.963058
0.889967 0.404501 0.934157
0.882292 0.373159 0.92607
0.877607 0.354574 0.923995
0.000595102 0.819364 0.912245
0 0.809186 0.914824
0 0.796109 0.915053
0 0.769421 0.91191
0.130724 0.750546 0.913771
0.653223 0.747967 0.957321
0.914717 0.703349 0.965667
0.93904 0.679622 0.960082
0.935897 0.670558 0.960616
0.0364233 0.923461 0.938628
0.0302892 0.919356 0.937697
0.0267796 0.913985 0.935561
0.022034 0.903868 0.932708
0.0167849 0.886931 0.931548
0.558022 0.88864 0.948714
0.859174 0.890166 0.957336
0.964141 0.869642 0.958328
0.963088 0.861601 0.957794
0.0438239 0.932296 0.94287
0.040238 0.932738 0.94432
0.039765 0.932311 0.943435
0.0366217 0.931105 0.939315
0.0335088 0.929946 0.929168
0.216785 0.945006 0.929732
0.833921 0.959731 0.949432
0.962356 0.96025 0.955154
0.979171 0.956741 0.954055
0.0419165 0.932677 0.943435
0.0402838 0.932754 0.944366
0.0404974 0.932677 0.94432
0.0374456 0.931289 0.940475
0.0311589 0.929259 0.925231
0.0869764 0.945159 0.918135
0.777325 0.972992 0.936202
0.948989 0.979995 0.951888
0.984817 0.980911 0.967987
0 0.17554 0.794339
0.146975 0.158602 0.850492
0.319142 0.147356 0.872816
0.512871 0.119875 0.876951
0.678782 0.0768139 0.820462
0.733898 0.0859388 0.80029
0.733883 0.0859388 0.800275
0.73402 0.0858778 0.800458
0.737102 0.0845502 0.80412
0 0.197253 0.733074
0 0.175723 0.794751
0.171344 0.157259 0.854795
0.443305 0.134218 0.880079
0.641154 0.0764782 0.83476
0.733852 0.0859541 0.800229
0.733822 0.0859693 0.800198
0.734432 0.0856947 0.800946
0.738231 0.0840314 0.805631
0 0.270542 0.74876
0 0.206744 0.737499
0 0.176211 0.792889
0.338872 0.14583 0.87451
0.600504 0.0950484 0.859281
0.732418 0.0865492 0.798489
0.729976 0.0876478 0.795346
0.730739 0.0873274 0.796078
0.73669 0.0847181 0.803586
0 0.417945 0.77557
0 0.372381 0.769985
0 0.304814 0.758923
0 0.182803 0.812726
0.484764 0.13109 0.880949
0.703349 0.0796368 0.812207
0.728389 0.0883497 0.793332
0.728618 0.0882582 0.793606
0.735363 0.0853437 0.801785
0 0.635142 0.851896
0 0.620172 0.84683
0 0.600458 0.836912
0 0.553262 0.815915
0.367483 0.523522 0.925093
0.758663 0.463645 0.960555
0.883497 0.37789 0.927733
0.874189 0.343786 0.918624
0.869459 0.324346 0.916289
0.000762951 0.814664 0.919783
0 0.803449 0.92018
0 0.78938 0.917418
0 0.760266 0.909865
0.117678 0.739345 0.909148
0.645335 0.736156 0.958389
0.907988 0.690593 0.965652
0.936522 0.665476 0.959823
0.933913 0.656779 0.960204
0.0367132 0.923018 0.941238
0.0316472 0.918685 0.941268
0.0282597 0.912993 0.939742
0.0226139 0.90161 0.937407
0.0144198 0.880873 0.934844
0.545769 0.879301 0.952178
0.845533 0.880522 0.966278
0.960006 0.858732 0.967407
0.959136 0.85066 0.967514
0.042359 0.932586 0.943297
0.0402686 0.932754 0.94435
0.0404974 0.932677 0.94432
0.0404974 0.932677 0.94432
0.0408331 0.933074 0.944503
0.100832 0.943511 0.957427
0.810101 0.956146 0.971496
0.950179 0.954849 0.971527
0.974365 0.949996 0.971664
0.0429236 0.932464 0.943236
0.0402991 0.932754 0.944366
0.0404974 0.932677 0.94432
0.0404974 0.932677 0.94432
0.0407568 0.932982 0.944457
0.0471962 0.940993 0.949401
0.739055 0.966323 0.968841
0.950179 0.977798 0.977615
0.987564 0.982818 0.981353
