bundles/resolve-cinematic-luts/Phantom Luts/Canon Alexa LUT/C-Log 3/Utopia Canon CL3-Legacy.cube
TITLE "Generated by Resolve"
LUT_3D_SIZE 9
0.0138705 0.040116 0.0496681
0.120851 0.0335851 0.0492409
0.321447 0.0257267 0.0523842
0.537346 0.029099 0.0981765
0.732082 0.0491188 0.188678
0.80322 0.0624704 0.261326
0.803815 0.0640269 0.291447
0.803571 0.0642405 0.309316
0.810788 0.0623941 0.320607
0.00485237 0.109743 0.0369726
0.033463 0.0683146 0.0453193
0.189654 0.0649424 0.0453346
0.454276 0.030396 0.0246586
0.647898 0.0386664 0.0715648
0.762737 0.0539254 0.12668
0.770016 0.0547341 0.139574
0.784451 0.0573434 0.164385
0.80267 0.054963 0.177966
0 0.329213 0.0019379
0.00781262 0.28217 0
0.196689 0.231449 0.0422827
0.441627 0.218372 0.0488289
0.64329 0.150698 0.0591592
0.772229 0.0568093 0.0810101
0.767193 0.0552834 0.0974289
0.764508 0.0547341 0.101015
0.769909 0.0526436 0.101549
0.0204623 0.602457 0.0183566
0.0258946 0.590723 0
0.0640879 0.547936 0
0.458701 0.468406 0.0564889
0.65211 0.474586 0.0702525
0.870893 0.394217 0.123995
0.886122 0.342901 0.131044
0.871565 0.319387 0.122316
0.865171 0.303822 0.116274
0.0707256 0.870604 0.0893111
0.0870832 0.87808 0.009308
0.0976272 0.832547 0
0.338308 0.778729 0.0180514
0.690425 0.678676 0.100557
0.842756 0.677241 0.122789
0.916762 0.67042 0.129885
0.916136 0.660197 0.12781
0.915694 0.653941 0.126284
0.10518 0.999969 0.169512
0.138796 0.99736 0.0682841
0.142016 0.997314 0.0651255
0.266484 0.999969 0.0623789
0.697063 0.965499 0.115938
0.896712 0.885969 0.173388
0.991669 0.875792 0.208621
0.989227 0.869642 0.207141
0.986938 0.865873 0.207675
0.0936294 0.999969 0.198566
0.115251 0.999924 0.12668
0.143069 0.99646 0.0625315
0.275624 0.999969 0.0733654
0.664271 0.982696 0.167102
0.890135 0.9514 0.260731
0.999969 0.947677 0.275105
0.999969 0.947326 0.27158
0.999969 0.947448 0.269474
0.0812543 0.999969 0.246845
0.104189 0.999969 0.166979
0.144472 0.995987 0.0698558
0.260243 0.999969 0.0747082
0.597528 0.990433 0.148058
0.8663 0.957488 0.24976
0.998962 0.947784 0.275502
0.999969 0.947112 0.27512
0.999969 0.94725 0.272816
0.0688334 0.999969 0.264836
0.0999924 0.999969 0.163058
0.141497 0.996689 0.0688487
0.244114 0.999969 0.0732891
0.552499 0.995499 0.140871
0.851133 0.957961 0.240742
0.995789 0.94757 0.266682
0.999969 0.947112 0.275044
0.999969 0.947417 0.269993
0 0.0452735 0.0959029
0.0995041 0.0381476 0.135866
0.307668 0.0318456 0.18146
0.525307 0.0332341 0.237278
0.727871 0.052491 0.313985
0.807874 0.0668498 0.370169
0.807019 0.0688945 0.396567
0.807843 0.070222 0.413153
0.815717 0.068452 0.424125
0.0125124 0.0570077 0.0659953
0.0141299 0.0405585 0.0499123
0.23061 0.0299229 0.0538491
0.488518 0.0273442 0.0879072
0.694453 0.0425574 0.167971
0.812406 0.0591745 0.255009
0.813107 0.0607614 0.286763
0.812345 0.0614786 0.30518
0.818158 0.0598001 0.31606
0 0.260182 0.104265
0 0.25536 0.0142061
0.167849 0.200458 0.0419623
0.455817 0.148852 0.0514992
0.640589 0.0564431 0.0384985
0.765591 0.053193 0.121263
0.76553 0.0533455 0.126253
0.776577 0.0548257 0.142794
0.791211 0.0542153 0.15552
0 0.558175 0.117189
0.012726 0.560815 0.0140536
0.0265049 0.533806 0
0.435813 0.448051 0.0552682
0.654749 0.4374 0.0655528
0.868376 0.331762 0.123293
0.855451 0.281804 0.112367
0.844694 0.250126 0.106676
0.840238 0.231769 0.10193
0.0357671 0.828504 0.190173
0.0575418 0.834485 0.0830243
0.0778515 0.838956 0.000167849
0.212467 0.778058 0.00508125
0.676951 0.664256 0.0975814
0.840482 0.659388 0.118517
0.915496 0.646403 0.125353
0.915801 0.633982 0.123613
0.916259 0.627237 0.122393
0.0732433 0.999969 0.280949
0.100496 0.999969 0.159564
0.13872 0.997406 0.06804
0.237079 0.999969 0.0501411
0.668635 0.968612 0.102861
0.883131 0.87277 0.165438
0.9823 0.858442 0.198703
0.978363 0.850187 0.195315
0.975616 0.845472 0.194064
0.0555123 0.999969 0.337636
0.0902724 0.999969 0.202487
0.119173 0.999802 0.11371
0.210452 0.999969 0.0682841
0.581643 0.992859 0.139467
0.869459 0.957671 0.2495
0.999969 0.948013 0.275196
0.999969 0.947326 0.27158
0.999969 0.947448 0.269596
0.0456245 0.999969 0.375067
0.0796368 0.999969 0.253239
0.108003 0.999969 0.16321
0.174899 0.999146 0.0745861
0.495537 0.998627 0.13077
0.839216 0.959243 0.233829
0.993896 0.947509 0.26453
0.999969 0.947082 0.275425
0.999969 0.947585 0.267048
0.0396735 0.999969 0.394141
0.0699168 0.999969 0.276631
0.102678 0.999969 0.168917
0.160311 0.998535 0.0742351
0.45919 0.999435 0.121065
0.82504 0.960296 0.223102
0.986297 0.947387 0.25774
0.999969 0.947112 0.275044
0.999969 0.947601 0.26656
0 0.0558328 0.236789
0.0968795 0.0444495 0.267903
0.27599 0.0350195 0.298573
0.504921 0.039292 0.360632
0.722652 0.060441 0.41738
0.809018 0.0750134 0.458503
0.809155 0.0771191 0.479667
0.808423 0.077821 0.492851
0.815213 0.0752728 0.503395
0 0.0688792 0.147082
0 0.0525063 0.202594
0.203738 0.0357671 0.232639
0.478614 0.0337224 0.263478
0.688457 0.0492866 0.319432
0.80914 0.0665293 0.376394
0.808499 0.0688487 0.401465
0.808881 0.0703593 0.417609
0.815869 0.0688487 0.428214
0 0.207904 0.20415
0 0.187778 0.185138
0.150164 0.182025 0.18732
0.479423 0.110262 0.146731
0.664714 0.0426947 0.165194
0.808316 0.0605478 0.248722
0.809262 0.0620127 0.280735
0.80882 0.0628061 0.299504
0.81445 0.0609903 0.31046
0 0.495567 0.238422
0 0.501991 0.159701
0.00308232 0.516426 0.0274052
0.412406 0.424796 0.0581826
0.674067 0.371374 0.0916609
0.849454 0.249012 0.125048
0.835966 0.186267 0.105623
0.827543 0.141436 0.0951705
0.826276 0.119188 0.0925612
0 0.768597 0.313497
0.0186313 0.784436 0.207996
0.0463569 0.794217 0.0882124
0.138354 0.766262 0
0.66154 0.648768 0.093904
0.838376 0.638437 0.113481
0.915038 0.617441 0.122042
0.912154 0.598886 0.121431
0.911025 0.588251 0.120424
0.0466011 0.999969 0.39588
0.0618296 0.999969 0.296147
0.0957656 0.999969 0.170901
0.164492 0.99884 0.0580911
0.620706 0.974517 0.0879835
0.869307 0.858503 0.158434
0.970733 0.838331 0.188968
0.965011 0.827649 0.184009
0.961471 0.821927 0.181521
0.0329595 0.999969 0.451072
0.0500954 0.999969 0.354788
0.0878004 0.999969 0.207507
0.144106 0.996658 0.0626078
0.468757 0.999573 0.121477
0.842664 0.959442 0.233661
0.998398 0.948196 0.272007
0.999969 0.947326 0.27158
0.999969 0.947463 0.2692
0.0278325 0.999756 0.48278
0.0419318 0.999969 0.393851
0.0789044 0.999969 0.260365
0.144228 0.996048 0.0704967
0.393606 0.999969 0.110231
0.811795 0.961364 0.213138
0.983719 0.947326 0.256367
0.999969 0.947051 0.276005
0.999969 0.94754 0.267765
0.0235447 0.999649 0.497429
0.0361944 0.999969 0.413504
0.0700236 0.999969 0.285756
0.143999 0.996078 0.0708324
0.35903 0.999969 0.102434
0.797925 0.961959 0.202457
0.970687 0.948562 0.259281
0.999969 0.947112 0.275044
0.999969 0.947646 0.265812
0 0.0711681 0.423682
0.0734417 0.0583658 0.45716
0.262852 0.0457771 0.467918
0.473976 0.0430304 0.489754
0.691249 0.0654765 0.530404
0.7888 0.0814832 0.564981
0.785122 0.0828412 0.585458
0.783902 0.0834516 0.598383
0.79118 0.0809033 0.611002
0 0.0954757 0.346807
0 0.0680552 0.40119
0.150713 0.0513924 0.445411
0.435904 0.0395209 0.453941
0.663981 0.058854 0.48246
0.802472 0.0794232 0.515114
0.797879 0.0802472 0.532738
0.795499 0.0804761 0.544671
0.801663 0.0777447 0.555428
0 0.193927 0.325734
0 0.164584 0.345754
0.00477607 0.133059 0.419089
0.403784 0.0543679 0.417273
0.636805 0.0519417 0.411215
0.806516 0.0748608 0.448218
0.807614 0.0770581 0.467201
0.80621 0.0779889 0.479072
0.812131 0.0760204 0.488319
0 0.423789 0.405921
0 0.407843 0.390417
0 0.390799 0.370291
0.380636 0.404944 0.397574
0.693553 0.332753 0.360372
0.900893 0.210178 0.361868
0.880598 0.149691 0.355627
0.85655 0.109102 0.346456
0.842298 0.0876631 0.340917
0 0.690379 0.466682
0 0.69099 0.425879
0 0.698497 0.361303
0.0772564 0.752804 0.188144
0.628794 0.628489 0.233738
0.865278 0.600931 0.26717
0.945693 0.551415 0.275166
0.93608 0.530587 0.26659
0.931868 0.518608 0.262028
0.0140688 0.953506 0.530083
0.0152438 0.966461 0.478477
0.0295109 0.986984 0.404044
0.0899672 0.999969 0.185534
0.38349 0.994324 0.0561837
0.846052 0.83537 0.151614
0.957107 0.804883 0.174487
0.953307 0.790143 0.168902
0.950942 0.782345 0.165896
0.0229191 0.996384 0.580301
0.0209812 0.998901 0.527794
0.0310521 0.999969 0.453346
0.0838636 0.999969 0.221332
0.302403 0.999969 0.0877089
0.796963 0.962463 0.20029
0.989914 0.947646 0.256626
0.999969 0.945556 0.25153
0.999969 0.945083 0.243061
0.0183719 0.996078 0.601404
0.0189364 0.998154 0.553445
0.0280461 0.99971 0.48455
0.0759136 0.999969 0.27129
0.275685 0.999969 0.076463
0.763027 0.968597 0.206622
0.959091 0.949142 0.261601
0.999969 0.946838 0.278416
0.999969 0.947402 0.269856
0.0154726 0.996048 0.612345
0.0172732 0.997848 0.566735
0.0247044 0.999557 0.499138
0.0692454 0.999969 0.297902
0.247395 0.999969 0.0758068
0.746899 0.971725 0.208728
0.940841 0.950866 0.263386
0.999969 0.947158 0.275624
0.999969 0.947601 0.266453
0 0.0921035 0.569451
0.0559701 0.0776837 0.608118
0.254185 0.0658732 0.6271
0.453391 0.0582742 0.631251
0.660456 0.0728618 0.658549
0.766217 0.0927443 0.69958
0.760433 0.0958114 0.727657
0.75816 0.0970932 0.743954
0.765377 0.0941329 0.762005
0 0.127886 0.526909
0 0.0886091 0.558755
0.116503 0.0721904 0.607965
0.404227 0.0577096 0.618479
0.627619 0.0668345 0.630945
0.773617 0.089128 0.66125
0.769329 0.0910964 0.683284
0.767605 0.0921035 0.697612
0.775402 0.0891127 0.713726
0 0.177081 0.490822
0 0.138659 0.507607
0 0.0860609 0.550317
0.323018 0.0585184 0.601953
0.592996 0.0608835 0.60032
0.777569 0.0865492 0.613306
0.774258 0.0884413 0.629587
0.773007 0.0892348 0.641062
0.780484 0.0863508 0.654231
0 0.405417 0.536248
0 0.38172 0.53312
0 0.350713 0.533608
0.207355 0.327337 0.617029
0.629786 0.243183 0.62063
0.818906 0.110307 0.557519
0.79501 0.0872358 0.546777
0.792126 0.084535 0.546868
0.797467 0.0809644 0.551431
0 0.626093 0.605051
0 0.616342 0.595499
0 0.60621 0.584619
0 0.595071 0.566949
0.580087 0.596582 0.583459
0.881086 0.548959 0.558206
0.966125 0.499428 0.548745
0.964126 0.47602 0.549157
0.961837 0.462791 0.549874
0 0.861723 0.654047
0 0.859434 0.632868
0 0.857481 0.60647
0 0.863264 0.536843
0.350591 0.956313 0.478813
0.791867 0.807385 0.485618
0.96289 0.770886 0.504082
0.966934 0.750576 0.504875
0.967514 0.740337 0.505898
0.0195773 0.972641 0.704662
0.0140383 0.982574 0.679164
0.0144503 0.991577 0.64802
0.0185702 0.997375 0.572229
0.0833143 0.999969 0.250248
0.709911 0.996597 0.337728
0.971786 0.956054 0.379416
0.999969 0.948577 0.357885
0.999969 0.94406 0.364584
0.0151827 0.968231 0.720439
0.013489 0.977249 0.694759
0.0138399 0.988037 0.662028
0.0192416 0.996643 0.586542
0.0749676 0.999969 0.274723
0.625345 0.99675 0.234852
0.934432 0.9514 0.266667
0.999969 0.949752 0.321508
0.999969 0.950042 0.316213
0.0149538 0.964904 0.729519
0.0132906 0.974105 0.703624
0.0135348 0.985672 0.670176
0.0184939 0.996414 0.594263
0.0697948 0.999969 0.295979
0.538231 0.999207 0.182467
0.904082 0.953063 0.269368
0.999969 0.94876 0.294667
0.999969 0.94815 0.282963
0 0.136324 0.689555
0.0360876 0.113375 0.74139
0.231357 0.102403 0.778683
0.437171 0.0916915 0.804334
0.628016 0.0844739 0.804639
0.739513 0.104112 0.815106
0.73727 0.10454 0.82005
0.735851 0.105165 0.818112
0.741283 0.102754 0.825315
0 0.159426 0.652125
0 0.128038 0.679576
0.0853437 0.106859 0.742885
0.376059 0.0917067 0.785779
0.590036 0.0793469 0.789746
0.742855 0.103243 0.801709
0.738323 0.104616 0.81387
0.737911 0.104601 0.818891
0.743328 0.102007 0.82771
0 0.190097 0.61944
0 0.159319 0.635386
0 0.119554 0.667277
0.278904 0.0918135 0.75848
0.551385 0.0770275 0.773297
0.745464 0.101381 0.773205
0.740688 0.104341 0.788922
0.738872 0.104982 0.798383
0.74583 0.101747 0.81413
0 0.388418 0.623331
0 0.360342 0.631708
0 0.318715 0.646174
0.0622568 0.258854 0.732647
0.525475 0.1841 0.793835
0.744991 0.0977798 0.734813
0.758892 0.0966354 0.725109
0.75787 0.0971389 0.731182
0.764736 0.0943465 0.742504
0 0.613214 0.708217
0 0.599191 0.708843
0 0.582177 0.709468
0 0.545266 0.71046
0.464042 0.559762 0.775067
0.824308 0.4963 0.787167
0.930526 0.4336 0.769055
0.923781 0.407645 0.764645
0.918517 0.392538 0.763363
0 0.795087 0.774136
0 0.786206 0.765347
0 0.775738 0.754437
0 0.758404 0.735927
0.273518 0.76051 0.72842
0.746548 0.75639 0.739574
0.9738 0.718318 0.721263
0.977142 0.699458 0.717601
0.976013 0.689921 0.716869
0.0255131 0.940627 0.81883
0.0161288 0.945724 0.80148
0.0141451 0.950027 0.782238
0.0112154 0.952712 0.745022
0.013901 0.963516 0.66244
0.621546 0.999969 0.675776
0.923842 0.932738 0.697643
0.984009 0.910689 0.695003
0.981186 0.901976 0.695247
0.0274357 0.935393 0.843473
0.018204 0.941711 0.822187
0.0153658 0.947448 0.797223
0.0128481 0.95816 0.752102
0.0174868 0.988388 0.660899
0.513161 0.999969 0.611444
0.888426 0.985138 0.65066
0.998444 0.969085 0.715572
0.999252 0.968734 0.710597
0.0236362 0.933806 0.857313
0.0194095 0.939101 0.834257
0.0159609 0.945449 0.806165
0.0129091 0.956832 0.756817
0.0172732 0.987961 0.662409
0.44802 0.999969 0.581613
0.844831 0.994598 0.650324
0.989639 0.968429 0.673884
0.999237 0.967636 0.684108
0 0.156497 0.737179
0.0374304 0.142077 0.804105
0.229511 0.128298 0.843961
0.439887 0.112413 0.867002
0.636912 0.0913863 0.846784
0.738674 0.103929 0.821759
0.738628 0.103944 0.821744
0.736751 0.104799 0.819043
0.741207 0.102785 0.825208
0 0.175158 0.706981
0 0.156466 0.739025
0.0721447 0.139879 0.813382
0.368414 0.118196 0.861051
0.592065 0.0930343 0.855909
0.738521 0.103975 0.821683
0.738277 0.104082 0.821424
0.738888 0.103838 0.822003
0.742229 0.102296 0.826963
0 0.225849 0.720287
0 0.182101 0.71107
0 0.156741 0.737057
0.258228 0.126009 0.847822
0.540749 0.0994888 0.864515
0.73547 0.104448 0.819852
0.734661 0.105699 0.816495
0.735378 0.105379 0.817472
0.740932 0.102922 0.824826
0 0.378256 0.710887
0 0.346151 0.724987
0 0.304311 0.73785
0 0.227298 0.795346
0.4448 0.151507 0.883101
0.697871 0.0998856 0.835035
0.732601 0.106676 0.813535
0.732845 0.106569 0.81387
0.73962 0.103563 0.822828
0 0.598764 0.781857
0 0.584894 0.781933
0 0.56968 0.78172
0 0.533425 0.784909
0.349477 0.522225 0.895033
0.742855 0.469566 0.950378
0.886442 0.395132 0.919829
0.878737 0.366247 0.913634
0.874113 0.347967 0.912505
0.00297551 0.787854 0.8533
0 0.778897 0.852598
0 0.767391 0.850935
0 0.744717 0.850248
0.159838 0.727901 0.859831
0.65919 0.735134 0.905821
0.942596 0.68632 0.908705
0.957916 0.664256 0.902831
0.955398 0.655146 0.902083
0.0374456 0.922499 0.912459
0.0270695 0.918273 0.907271
0.0229038 0.910201 0.898985
0.0179751 0.896483 0.884001
0.01149 0.875395 0.856306
0.57734 0.894972 0.866941
0.894469 0.896574 0.883513
0.984802 0.878843 0.876585
0.983764 0.868833 0.874571
0.0416266 0.926818 0.929824
0.0336919 0.926696 0.923476
0.0303044 0.926162 0.913512
0.0249638 0.927733 0.88957
0.0218814 0.940795 0.831357
0.355749 0.984512 0.802991
0.823209 0.994736 0.85478
0.984329 0.977523 0.890959
0.991165 0.973754 0.87776
0.0449378 0.928008 0.937163
0.0363622 0.927733 0.930739
0.0322728 0.926528 0.920089
0.0255283 0.927031 0.893675
0.0203708 0.941802 0.825254
0.261158 0.983871 0.781628
0.77734 0.997742 0.82768
0.960662 0.978393 0.848402
0.988067 0.978561 0.916579
0 0.154543 0.750607
0.0633402 0.14049 0.810834
0.245335 0.127077 0.845975
0.451301 0.11107 0.867552
0.652033 0.0936294 0.845594
0.738659 0.103929 0.821744
0.738628 0.103944 0.821744
0.737957 0.104234 0.820966
0.740108 0.103258 0.823957
0 0.170397 0.704509
0 0.154604 0.751125
0.0883955 0.138735 0.817334
0.378561 0.117586 0.862272
0.601434 0.0919051 0.854047
0.738659 0.103929 0.821744
0.738399 0.104021 0.821607
0.738979 0.103792 0.822141
0.741787 0.102541 0.826017
0 0.225376 0.724407
0 0.175708 0.708507
0 0.154955 0.74873
0.268498 0.125139 0.849317
0.546441 0.0987869 0.864042
0.737209 0.104234 0.82089
0.735515 0.105318 0.817655
0.736065 0.105074 0.818372
0.740948 0.102907 0.824842
0 0.371695 0.755901
0 0.327947 0.750576
0 0.271916 0.739788
0 0.180499 0.781247
0.428519 0.123278 0.870588
0.694072 0.0973983 0.836896
0.734157 0.106004 0.815351
0.734386 0.105882 0.815854
0.739788 0.103487 0.823087
0 0.599207 0.821988
0 0.585092 0.820493
0 0.56611 0.812085
0 0.517159 0.791424
0.319326 0.490257 0.898711
0.714351 0.437293 0.95816
0.871183 0.353658 0.921172
0.86157 0.322103 0.911742
0.857527 0.305531 0.910948
0.00369268 0.783841 0.900938
0 0.771527 0.901762
0 0.758587 0.901762
0 0.732357 0.89691
0.090959 0.711879 0.891325
0.609461 0.716365 0.959731
0.910262 0.671061 0.973251
0.942458 0.646708 0.965606
0.938613 0.63772 0.966003
0.0425879 0.919203 0.944961
0.0348669 0.912886 0.942657
0.031281 0.905226 0.939361
0.0263523 0.890806 0.934188
0.0212863 0.868025 0.931289
0.522377 0.875807 0.951247
0.843854 0.882689 0.970825
0.975189 0.856916 0.970459
0.973861 0.84683 0.969741
0.0522164 0.932113 0.951614
0.046128 0.933165 0.954147
0.0452583 0.932692 0.953002
0.0421302 0.930648 0.946807
0.039292 0.928679 0.932204
0.187732 0.941802 0.924376
0.812299 0.973297 0.959976
0.973587 0.970947 0.965026
0.986313 0.967041 0.963897
0.0496529 0.932631 0.952651
0.0461585 0.933181 0.954208
0.0460365 0.933181 0.954376
0.0428779 0.931136 0.948531
0.0366522 0.927626 0.926619
0.0850538 0.941726 0.90959
0.745754 0.98706 0.941024
0.955779 0.982391 0.961593
0.983825 0.980468 0.975692
0 0.153582 0.756466
0.0765087 0.139406 0.81413
0.25391 0.126299 0.84715
0.457191 0.110338 0.867674
0.659495 0.0940719 0.84419
0.738643 0.103944 0.821729
0.738628 0.103944 0.821744
0.738705 0.103914 0.821775
0.74052 0.10309 0.824506
0 0.167529 0.702846
0 0.15375 0.75697
0.0985275 0.13814 0.819913
0.384619 0.11722 0.862898
0.606775 0.09131 0.852766
0.738399 0.104021 0.821607
0.738384 0.104036 0.821591
0.738994 0.103792 0.82211
0.74226 0.102296 0.826993
0 0.22295 0.7234
0 0.172732 0.707301
0 0.154116 0.755077
0.275334 0.12462 0.850141
0.549889 0.0983444 0.863691
0.73785 0.10425 0.82092
0.735531 0.105318 0.81767
0.736065 0.105074 0.818387
0.740719 0.102998 0.824659
0 0.353796 0.75285
0 0.30985 0.747372
0 0.25069 0.734493
0 0.160113 0.772381
0.427741 0.11751 0.867948
0.694026 0.0972915 0.836713
0.734249 0.105943 0.815549
0.734401 0.105882 0.8159
0.739803 0.103487 0.823072
0 0.594171 0.824552
0 0.577539 0.817853
0 0.55613 0.807141
0 0.503975 0.786892
0.307744 0.470726 0.89543
0.702403 0.415503 0.954162
0.863325 0.326375 0.913893
0.852842 0.29604 0.904173
0.848219 0.277958 0.902708
0.00262455 0.778653 0.910185
0 0.766415 0.908934
0 0.752026 0.904418
0 0.723232 0.89395
0.0795911 0.700023 0.885542
0.600809 0.704005 0.959716
0.901579 0.65832 0.973373
0.939162 0.632349 0.964813
0.936263 0.622995 0.964797
0.0429999 0.918593 0.94844
0.0361791 0.911955 0.947845
0.0325628 0.903822 0.945266
0.0269169 0.8878 0.940795
0.0187839 0.859876 0.93463
0.508583 0.86424 0.954131
0.827436 0.870558 0.980911
0.97145 0.842924 0.975677
0.970275 0.832944 0.975464
0.0585489 0.930724 0.949401
0.0513008 0.932296 0.952056
0.0507973 0.932403 0.952255
0.0507973 0.932403 0.952255
0.0511025 0.933028 0.95256
0.103548 0.936263 0.957687
0.787991 0.968185 0.983948
0.9626 0.965011 0.980499
0.983108 0.958724 0.977539
0.0495308 0.932647 0.952682
0.0461585 0.933181 0.954208
0.0460365 0.933181 0.954376
0.0460365 0.933181 0.954376
0.0463722 0.933639 0.954681
0.0532235 0.941482 0.957763
0.704997 0.980758 0.982712
0.959136 0.981994 0.981872
0.984161 0.980438 0.97908
