bundles/resolve-cinematic-luts/Phantom Luts/Canon Alexa LUT/C-Log 3/Utopia Canon CL3.cube
TITLE "Generated by Resolve"
LUT_3D_SIZE 33
0.00323491 0.0299077 0.0381781
0.00320439 0.0298619 0.0381323
0.0159915 0.0287633 0.038056
0.0915694 0.0190127 0.0374914
0.153109 0.0127718 0.0337835
0.207874 0.0100252 0.03299
0.262104 0.00793469 0.0350958
0.317693 0.00485237 0.0410468
0.370947 0.00357061 0.0544442
0.423819 0.00282292 0.0679026
0.476097 0.00576791 0.0804456
0.523659 0.00814832 0.0999313
0.569772 0.011429 0.121706
0.614511 0.0152895 0.143938
0.659373 0.0200961 0.169635
0.704952 0.0260471 0.198093
0.747158 0.0330205 0.230198
0.782773 0.0407721 0.264714
0.795224 0.0447089 0.284566
0.795804 0.0451209 0.294896
0.795666 0.0457008 0.303655
0.795422 0.0462654 0.311864
0.795087 0.0468299 0.319356
0.794705 0.047303 0.325948
0.794339 0.0477455 0.331731
0.794064 0.0481575 0.336919
0.793805 0.0484932 0.341466
0.793881 0.0486763 0.34522
0.794186 0.0487068 0.348745
0.795819 0.0483101 0.351827
0.798062 0.0476997 0.35465
0.802441 0.0463569 0.357504
0.807004 0.0449226 0.360159
0.00320439 0.0298619 0.0381323
0.00321965 0.0298772 0.0381628
0.00320439 0.0298619 0.0381323
0.0451362 0.0272526 0.037171
0.111269 0.0189822 0.0328222
0.167575 0.013489 0.0284886
0.221729 0.0087892 0.0237583
0.278813 0.00578317 0.019028
0.335317 0.00387579 0.0166018
0.390997 0.00505074 0.0205692
0.444266 0.00547799 0.0275883
0.491707 0.00671397 0.0398108
0.538109 0.0089723 0.0655833
0.586892 0.0124819 0.0886397
0.635279 0.017258 0.114137
0.684047 0.0225376 0.13991
0.731136 0.0291447 0.172351
0.772061 0.0367742 0.210239
0.790997 0.041474 0.237705
0.794919 0.0429847 0.252277
0.795529 0.0436255 0.263294
0.795911 0.0442054 0.273365
0.796262 0.04477 0.281971
0.796063 0.0450141 0.289784
0.795804 0.045243 0.296605
0.795666 0.0456245 0.302724
0.795544 0.0459754 0.307759
0.795651 0.0462196 0.312352
0.79617 0.0462806 0.316442
0.798047 0.0458991 0.319783
0.800351 0.0453193 0.32285
0.804959 0.0439918 0.325567
0.809659 0.0425422 0.328145
0.00320439 0.0298619 0.0381323
0.00323491 0.0298924 0.0381628
0.00321965 0.0298619 0.0381476
0.0105287 0.0315099 0.0379644
0.0658274 0.0332036 0.0352483
0.123674 0.0306554 0.0313268
0.181918 0.0268864 0.0261387
0.243473 0.023209 0.0212711
0.306752 0.0166934 0.0153811
0.363867 0.00650034 0.00877394
0.419608 0.00227359 0.0089723
0.470527 0.00268559 0.014725
0.519554 0.00727855 0.0288853
0.565927 0.0109407 0.0514534
0.609567 0.0148775 0.069398
0.654749 0.0192416 0.0930037
0.705074 0.0252232 0.123018
0.750835 0.0322728 0.155428
0.7776 0.0372931 0.184039
0.786221 0.0394446 0.20145
0.789944 0.0405127 0.215335
0.792447 0.041062 0.228016
0.794736 0.0419471 0.240085
0.795865 0.0425879 0.250263
0.796353 0.0430915 0.25893
0.796674 0.043534 0.266484
0.796826 0.0439155 0.272938
0.797223 0.0441901 0.278218
0.797864 0.0443275 0.28278
0.799359 0.0439612 0.286961
0.801724 0.0432746 0.289967
0.806317 0.0418402 0.293095
0.811185 0.0403754 0.295628
0 0.0624094 0.0356146
0 0.046479 0.034699
0.00799573 0.0371405 0.038941
0.00782788 0.0322576 0.038468
0.0230411 0.0363622 0.0390326
0.0800641 0.0418402 0.0363928
0.137957 0.0427863 0.0314183
0.202457 0.0411841 0.0266728
0.272679 0.0357824 0.0219577
0.340795 0.0277867 0.0180209
0.402609 0.0200351 0.0131991
0.457252 0.00918593 0.00782788
0.504784 0.00476081 0.011429
0.552438 0.00932326 0.0269474
0.59733 0.0135958 0.0495613
0.642481 0.0181582 0.0723125
0.687373 0.0231479 0.0979934
0.733852 0.0294804 0.129839
0.765805 0.0348516 0.151339
0.773526 0.0364843 0.15874
0.777264 0.0372168 0.168948
0.781292 0.0377203 0.180697
0.785138 0.0386206 0.19295
0.788586 0.0394751 0.203967
0.791409 0.0402533 0.214649
0.793256 0.040528 0.223606
0.795041 0.0411536 0.232059
0.796414 0.0416266 0.239094
0.79736 0.0419013 0.244877
0.798947 0.0417945 0.2495
0.801328 0.0413977 0.253422
0.806256 0.0401007 0.256733
0.811582 0.0386358 0.259663
0 0.136706 0.0134279
0 0.122469 0.00474556
0 0.106874 0.00943008
0.0118715 0.0962539 0.0169528
0.0444648 0.0842298 0.0218814
0.0840162 0.0916152 0.032105
0.129671 0.0950484 0.0359503
0.188724 0.089189 0.0369726
0.248188 0.0802319 0.031342
0.312139 0.060441 0.0247044
0.379294 0.0456703 0.0196689
0.444221 0.0310979 0.0159304
0.497871 0.0216831 0.0140841
0.541726 0.00959792 0.0119173
0.587182 0.0123903 0.0284581
0.632456 0.0168917 0.0549477
0.677424 0.0218357 0.0791638
0.720073 0.0272984 0.109255
0.762051 0.0341802 0.142336
0.772564 0.0363012 0.152346
0.772976 0.036347 0.153903
0.773175 0.0363622 0.155398
0.773617 0.0364385 0.157183
0.775799 0.0368048 0.162707
0.77879 0.0372778 0.171344
0.781842 0.0376745 0.179736
0.784527 0.0383154 0.187915
0.786862 0.0388037 0.195117
0.7888 0.0392615 0.201389
0.791302 0.0393988 0.20676
0.79469 0.0391394 0.211261
0.800229 0.0378882 0.215061
0.806195 0.0363928 0.217868
0 0.198413 0
0 0.186664 0
0 0.169574 0
0.00720226 0.157015 0
0.0495003 0.139208 0.0065156
0.0987411 0.132204 0.0205539
0.133196 0.134936 0.0273136
0.184329 0.139956 0.0299687
0.251453 0.132342 0.0336614
0.321523 0.118807 0.0367742
0.377279 0.107271 0.0306554
0.434302 0.0912795 0.0278172
0.48867 0.0606851 0.022446
0.538109 0.0335241 0.0191501
0.579385 0.0164645 0.0159152
0.62208 0.0136568 0.0324102
0.66804 0.0202945 0.0619821
0.711528 0.0264744 0.0906996
0.750774 0.0323949 0.125109
0.768887 0.035584 0.143832
0.77229 0.0363165 0.148547
0.772656 0.0363622 0.149981
0.773007 0.0364233 0.151354
0.773266 0.0364385 0.152758
0.773465 0.0364538 0.15404
0.773632 0.0364691 0.155154
0.773922 0.0365148 0.156252
0.77435 0.0365759 0.157733
0.775555 0.0367895 0.160739
0.777981 0.0368505 0.164523
0.781277 0.0364996 0.16762
0.786725 0.0352026 0.170184
0.792782 0.0338445 0.17258
0 0.259831 0
0 0.249928 0
0 0.234257 0
0.00158694 0.219379 0
0.0205997 0.208865 0
0.0898299 0.190356 0.00581369
0.149187 0.18114 0.0243839
0.187808 0.180926 0.0304875
0.242649 0.18555 0.0285801
0.314443 0.179248 0.0287175
0.385977 0.162722 0.0376135
0.442832 0.148974 0.0379492
0.495186 0.133623 0.0343328
0.543526 0.111269 0.0348363
0.588815 0.0808423 0.0332647
0.623194 0.0355993 0.0267643
0.658656 0.0198062 0.0396735
0.702159 0.0243839 0.0691386
0.741588 0.0312047 0.103548
0.765255 0.0351415 0.129107
0.770184 0.0361181 0.136995
0.770626 0.0361334 0.140581
0.770916 0.0361486 0.143114
0.771237 0.0361791 0.144686
0.771588 0.0362249 0.145998
0.771862 0.0362402 0.147158
0.772305 0.0363165 0.148455
0.772747 0.0363928 0.149615
0.773144 0.0364538 0.150744
0.774136 0.0363317 0.151659
0.775631 0.0359808 0.152178
0.778485 0.035172 0.152239
0.781628 0.034287 0.152148
0 0.327428 0
0 0.318578 0
0 0.304952 0
0 0.288334 0
0.00874342 0.278416 0
0.0548409 0.263172 0
0.129564 0.24654 0.00349432
0.20174 0.2336 0.0255436
0.247364 0.231281 0.0319982
0.30605 0.236301 0.0318456
0.373236 0.233158 0.0264744
0.442679 0.21619 0.0355688
0.506828 0.195315 0.0439307
0.553735 0.1823 0.043595
0.598672 0.163531 0.0468147
0.640818 0.13611 0.0484779
0.680781 0.0942702 0.0457618
0.70663 0.0403601 0.0424048
0.734401 0.0305791 0.0728161
0.766079 0.0354772 0.112169
0.772305 0.0367742 0.123186
0.771557 0.0366979 0.125475
0.770871 0.0365454 0.12694
0.77026 0.0363928 0.128313
0.769772 0.0362249 0.129458
0.769482 0.0361028 0.130648
0.769558 0.0360571 0.132418
0.769787 0.0360876 0.134081
0.770016 0.0361028 0.135744
0.77084 0.0359503 0.13698
0.772335 0.0355688 0.138048
0.775418 0.0347448 0.138582
0.778637 0.0338445 0.138949
0 0.396017 0
0 0.391196 0
0 0.380468 0
0 0.363973 0
0.00469978 0.351873 0
0.0200198 0.343481 0
0.0930953 0.326314 0
0.175692 0.30602 0.00354009
0.259968 0.29015 0.0276646
0.311894 0.285908 0.0340581
0.370245 0.291402 0.0347143
0.432044 0.292882 0.0309606
0.496498 0.277211 0.0334478
0.56109 0.254612 0.0476234
0.613397 0.234806 0.0569619
0.653712 0.219898 0.0588083
0.694118 0.194308 0.0629892
0.734157 0.15848 0.0652934
0.765667 0.103136 0.0637675
0.776501 0.0508888 0.0737774
0.779355 0.0391852 0.0891737
0.778408 0.0381628 0.100313
0.777493 0.0372625 0.10985
0.77705 0.0372168 0.11397
0.776318 0.0370947 0.115587
0.775677 0.0369421 0.116915
0.775189 0.0368353 0.118547
0.77467 0.036759 0.119509
0.77435 0.0367132 0.1205
0.774655 0.0365148 0.121294
0.775479 0.0361791 0.121736
0.777829 0.0354162 0.121706
0.780697 0.0345464 0.121416
0 0.464714 0
0 0.462623 0
0 0.456565 0
0 0.440223 0
0.00141909 0.425757 0
0.0134432 0.416464 0
0.0403449 0.407111 0
0.142397 0.391287 0
0.23154 0.36585 0.0075227
0.324987 0.349126 0.0309758
0.378134 0.344198 0.0368353
0.432837 0.349432 0.0380865
0.489815 0.353826 0.0349279
0.549142 0.343862 0.0337072
0.6094 0.323842 0.0513313
0.666926 0.297917 0.0677043
0.710307 0.278721 0.07364
0.749081 0.256458 0.0780804
0.786374 0.22388 0.0840162
0.815885 0.177325 0.0880598
0.823346 0.128344 0.086305
0.814221 0.0937667 0.0822919
0.801694 0.0687572 0.0762188
0.79292 0.0537728 0.0750896
0.786938 0.0444953 0.0782788
0.784543 0.0410315 0.0837873
0.78436 0.0409857 0.0899825
0.783551 0.0404974 0.0945449
0.782284 0.0393378 0.0981308
0.781643 0.0386053 0.0993668
0.781353 0.0379797 0.0995346
0.782757 0.0372168 0.0997635
0.785 0.0362097 0.099382
0 0.530068 0.00508125
0 0.528908 0
0 0.524636 0
0 0.514138 0
0 0.500038 0
0.0156863 0.488762 0
0.0278019 0.480644 0
0.0753338 0.470314 0
0.200244 0.454948 0
0.29601 0.421347 0.01561
0.39173 0.406455 0.0356298
0.442741 0.4009 0.0400702
0.494453 0.406119 0.0415961
0.546624 0.411337 0.0420539
0.601175 0.407706 0.0435187
0.655665 0.391058 0.0567178
0.713222 0.367437 0.074876
0.767391 0.340536 0.0911727
0.802884 0.320607 0.0955978
0.834867 0.292241 0.102861
0.855863 0.255909 0.108507
0.855192 0.234409 0.106584
0.850706 0.216495 0.103487
0.84622 0.198474 0.100465
0.841794 0.181231 0.0975052
0.838041 0.165515 0.0949722
0.832853 0.147814 0.0914626
0.828824 0.133837 0.0887007
0.825483 0.123049 0.0867475
0.822919 0.112062 0.0873426
0.817975 0.100694 0.0842298
0.814893 0.0907759 0.0814984
0.813565 0.0828107 0.0786145
0 0.591775 0.017258
0.00357061 0.591608 0
0.00660716 0.588464 0
0.00508125 0.581979 0
0.00283818 0.57113 0
0.0183566 0.559884 0
0.0352941 0.55021 0
0.0544594 0.541833 0
0.122576 0.532982 0
0.267094 0.514122 0
0.367285 0.474205 0.0246586
0.455817 0.462654 0.0393683
0.505928 0.456809 0.0449378
0.551385 0.460868 0.0492714
0.601053 0.466011 0.0524453
0.652628 0.467063 0.0550546
0.702159 0.454078 0.0636301
0.757687 0.433524 0.0817426
0.812467 0.407248 0.101976
0.855558 0.38024 0.121599
0.878599 0.358251 0.123873
0.880796 0.343023 0.121706
0.878401 0.330175 0.119936
0.875807 0.31783 0.118837
0.873121 0.305928 0.117464
0.870573 0.295003 0.116121
0.867979 0.284855 0.114641
0.86569 0.2757 0.113298
0.863645 0.267567 0.112016
0.862058 0.260655 0.111086
0.860441 0.254444 0.110033
0.859968 0.249271 0.108904
0.860166 0.244556 0.107469
0.00552377 0.651835 0.0365148
0.0124819 0.652735 0.00358587
0.0195926 0.650156 0
0.018677 0.646937 0
0.016556 0.637797 0
0.012253 0.626581 0
0.0390478 0.617212 0
0.0599985 0.608743 0
0.0928206 0.599649 0
0.199069 0.589059 0
0.340597 0.567956 0.00706493
0.435554 0.524453 0.0337987
0.516579 0.515999 0.0483101
0.564889 0.509896 0.0547494
0.605783 0.51313 0.0594797
0.653544 0.517632 0.0640879
0.700481 0.520531 0.0673991
0.749508 0.512825 0.0700542
0.800687 0.496391 0.0877089
0.849515 0.473548 0.108934
0.891371 0.445014 0.133593
0.908598 0.423835 0.147875
0.909545 0.412207 0.149676
0.907118 0.403937 0.147677
0.904158 0.39678 0.144442
0.900801 0.390188 0.140764
0.89781 0.384787 0.137652
0.894972 0.379751 0.134585
0.892622 0.375158 0.132235
0.890593 0.37116 0.13022
0.889113 0.367468 0.128862
0.888228 0.364233 0.127138
0.888075 0.361593 0.125185
0.0165713 0.711666 0.0542763
0.0205844 0.713924 0.0353399
0.0326085 0.712139 0
0.0322881 0.709819 0
0.0305333 0.704356 0
0.0282444 0.694499 0
0.0415961 0.683146 0
0.0700542 0.673747 0
0.0946975 0.6645 0
0.132509 0.65597 0
0.289784 0.64033 0
0.41387 0.6168 0.0239109
0.501091 0.571832 0.0464332
0.574868 0.567483 0.0595865
0.621088 0.561517 0.0663005
0.65745 0.563394 0.0711376
0.70396 0.56791 0.0768444
0.747127 0.570916 0.0796063
0.797131 0.569604 0.0827344
0.840177 0.556191 0.0949569
0.880079 0.53695 0.111269
0.909133 0.515862 0.128893
0.913268 0.505241 0.133501
0.913481 0.496971 0.135698
0.913314 0.488838 0.13724
0.913573 0.481743 0.139055
0.91371 0.475059 0.140948
0.913725 0.469184 0.142382
0.913649 0.46424 0.143374
0.913603 0.459953 0.144427
0.91339 0.456168 0.145129
0.913649 0.453162 0.145205
0.913985 0.450752 0.144305
0.0292363 0.77351 0.0707408
0.0302892 0.776455 0.0623484
0.0433204 0.776562 0
0.0466926 0.773526 0
0.0454414 0.770733 0
0.0429541 0.762097 0
0.0417945 0.751293 0
0.0682689 0.740032 0
0.10837 0.729427 0
0.129305 0.719585 0
0.194797 0.712718 0
0.381521 0.690242 0.0124361
0.482185 0.663706 0.0404974
0.562875 0.616983 0.0574655
0.629633 0.617472 0.0718853
0.674601 0.611307 0.0789197
0.706844 0.61236 0.08336
0.750988 0.616266 0.0888838
0.793622 0.619104 0.0923323
0.835386 0.619226 0.0936294
0.875029 0.612528 0.0990463
0.906905 0.596902 0.113619
0.914946 0.587503 0.118959
0.914992 0.580697 0.119982
0.914885 0.574945 0.121096
0.914488 0.569375 0.121889
0.914382 0.56463 0.122744
0.913954 0.560113 0.123125
0.913741 0.556085 0.123751
0.913787 0.553017 0.124514
0.913603 0.550057 0.124926
0.913832 0.547524 0.124804
0.914092 0.545464 0.123919
0.0423743 0.837995 0.090898
0.0420844 0.841764 0.0872969
0.0531014 0.843565 0.0348516
0.0621347 0.841566 0
0.061326 0.838834 0
0.0602579 0.834821 0
0.0569619 0.823285 0
0.071931 0.80975 0
0.110597 0.797894 0
0.139956 0.785428 0
0.167361 0.774914 0
0.281117 0.765957 0
0.464088 0.741588 0.0331579
0.547189 0.708949 0.0569314
0.621271 0.661845 0.0775769
0.682277 0.666789 0.0843977
0.726314 0.66067 0.0910811
0.757137 0.660761 0.0957351
0.796613 0.663859 0.101244
0.837354 0.666163 0.104036
0.870542 0.666621 0.106783
0.903243 0.663203 0.109941
0.92166 0.657511 0.112398
0.923339 0.652689 0.112917
0.922683 0.648264 0.113558
0.921798 0.643809 0.11397
0.921416 0.640162 0.114778
0.920806 0.6365 0.115221
0.920241 0.633433 0.115526
0.920073 0.6309 0.115908
0.919814 0.628717 0.116304
0.919524 0.626688 0.116258
0.919417 0.624979 0.115969
0.0547951 0.899641 0.116304
0.0539559 0.90341 0.116594
0.0636149 0.905623 0.0730755
0.0788586 0.904387 0.0131228
0.0790723 0.902876 0.0024567
0.0785992 0.899489 0
0.0767529 0.890883 0
0.0728008 0.87834 0
0.108858 0.867231 0
0.154696 0.853742 0
0.172976 0.843687 0
0.229145 0.834195 0
0.402762 0.813672 0.0164797
0.539864 0.797971 0.0525978
0.608454 0.753643 0.0718853
0.676432 0.707927 0.0979171
0.73341 0.715724 0.0966964
0.776669 0.709453 0.103609
0.807935 0.708797 0.108888
0.84004 0.710521 0.112535
0.874174 0.711696 0.117235
0.903914 0.71191 0.12311
0.926635 0.709651 0.126848
0.928969 0.706477 0.126345
0.928634 0.703761 0.125566
0.928176 0.700923 0.124712
0.927596 0.698238 0.123674
0.92723 0.695842 0.122881
0.92694 0.693828 0.12224
0.927016 0.692393 0.122011
0.926772 0.690806 0.121492
0.926574 0.689464 0.121004
0.926421 0.688319 0.120653
0.0691386 0.954513 0.142901
0.0684062 0.958526 0.145327
0.079118 0.960204 0.103609
0.0955825 0.959213 0.0527047
0.102281 0.956664 0.0302434
0.103243 0.95317 0.0213626
0.101793 0.950439 0.0183413
0.096025 0.939605 0.010132
0.113161 0.929488 0.00447089
0.161868 0.917952 0
0.191028 0.905837 0.00247196
0.221637 0.895857 0.00907912
0.315801 0.887175 0.0141451
0.511254 0.858885 0.0429389
0.607095 0.843442 0.0707408
0.667094 0.795956 0.09131
0.729854 0.757366 0.115892
0.783108 0.76556 0.109468
0.826261 0.759136 0.117021
0.855955 0.75729 0.12105
0.878538 0.756817 0.128008
0.907149 0.758053 0.136599
0.932784 0.75761 0.143465
0.942214 0.75552 0.145281
0.942565 0.753109 0.144533
0.941985 0.75079 0.143725
0.941283 0.748516 0.142809
0.940536 0.746517 0.141833
0.939971 0.744732 0.141085
0.939651 0.743282 0.140612
0.9393 0.742 0.140124
0.938903 0.74081 0.13962
0.93846 0.739879 0.139132
0.0840162 0.996368 0.171359
0.0829633 0.998154 0.174441
0.0945754 0.998398 0.13608
0.111009 0.99646 0.0926375
0.128252 0.991699 0.0623178
0.132006 0.990097 0.0580453
0.132662 0.987564 0.053727
0.128603 0.98291 0.0469978
0.130831 0.977005 0.0350347
0.169039 0.971588 0.0234073
0.211948 0.960143 0.0167086
0.233494 0.951751 0.0224613
0.285573 0.942519 0.0262303
0.438224 0.926238 0.0335546
0.596902 0.903365 0.0668803
0.668818 0.878019 0.0881819
0.723461 0.833341 0.120867
0.781003 0.804746 0.136522
0.831662 0.811399 0.122164
0.871427 0.804929 0.129397
0.898207 0.802655 0.139651
0.917998 0.801907 0.149554
0.937133 0.801801 0.157168
0.953475 0.801556 0.162402
0.954818 0.799725 0.16228
0.954253 0.797818 0.161456
0.953628 0.795956 0.160601
0.953216 0.794263 0.159945
0.952972 0.792935 0.159503
0.952804 0.791791 0.159167
0.952438 0.790631 0.158633
0.952209 0.789685 0.158221
0.95201 0.788846 0.157946
0.0840314 0.999969 0.192126
0.0819867 0.999969 0.193744
0.0928206 0.999924 0.151598
0.108766 0.998978 0.106249
0.12639 0.99559 0.0725567
0.129229 0.994736 0.0692149
0.135012 0.992523 0.062501
0.135653 0.991943 0.0611276
0.139391 0.993103 0.0582132
0.17734 0.998657 0.0480049
0.225452 0.997894 0.0364843
0.255802 0.993896 0.0377203
0.28867 0.987655 0.0441138
0.382849 0.978485 0.0463111
0.568429 0.949294 0.0581216
0.66949 0.938796 0.0893416
0.724117 0.904067 0.116152
0.775113 0.863294 0.160266
0.828489 0.845441 0.161395
0.875608 0.851438 0.146441
0.910567 0.846189 0.153277
0.93518 0.843442 0.16228
0.952422 0.842359 0.170642
0.965469 0.841657 0.178927
0.967453 0.840208 0.180819
0.966674 0.838544 0.180468
0.965881 0.837095 0.179812
0.965255 0.835767 0.179171
0.964523 0.834562 0.178408
0.964004 0.833448 0.177829
0.963912 0.8327 0.177539
0.963928 0.83212 0.17731
0.96379 0.831464 0.176974
0.0825208 0.999969 0.198245
0.0831464 0.999969 0.190799
0.0941634 0.999893 0.14789
0.108721 0.998978 0.10634
0.128313 0.99501 0.0697795
0.13138 0.994018 0.066453
0.134707 0.992798 0.0631571
0.134234 0.992981 0.0636759
0.131899 0.994263 0.0668345
0.167803 0.999527 0.0587167
0.224582 0.999969 0.0495003
0.273533 0.999969 0.0487373
0.298238 0.999969 0.0626688
0.357656 0.999969 0.0679484
0.506722 0.993973 0.0664988
0.658564 0.969573 0.0849317
0.727169 0.953994 0.112734
0.773236 0.923064 0.158038
0.824948 0.885832 0.196429
0.872999 0.881483 0.190784
0.91397 0.88632 0.171328
0.944595 0.882521 0.17818
0.966003 0.879927 0.187976
0.980865 0.879515 0.198932
0.987289 0.878691 0.204822
0.987472 0.877653 0.20502
0.986954 0.876493 0.204273
0.986481 0.875303 0.203449
0.985962 0.874189 0.20264
0.985382 0.873213 0.202365
0.984924 0.872389 0.202762
0.984451 0.871672 0.203647
0.984085 0.871031 0.20412
0.0840009 0.999969 0.199496
0.0818952 0.999969 0.202625
0.0912947 0.999939 0.166171
0.104433 0.999298 0.123491
0.123308 0.99646 0.0789654
0.131456 0.994064 0.0642557
0.13373 0.993255 0.0608072
0.134661 0.99292 0.0594339
0.133745 0.993149 0.0605783
0.148516 0.998077 0.0644999
0.21857 0.999969 0.0650339
0.28307 0.999969 0.0636759
0.310842 0.999969 0.079881
0.35697 0.999969 0.0874495
0.463432 0.999374 0.0910506
0.63563 0.978256 0.0934005
0.72813 0.963516 0.111788
0.778256 0.961944 0.161944
0.821973 0.934966 0.20293
0.872831 0.906615 0.233387
0.912932 0.910414 0.218082
0.946471 0.915175 0.211124
0.97258 0.913146 0.220432
0.990387 0.910979 0.230182
0.99881 0.911223 0.234409
0.998993 0.910414 0.234714
0.998749 0.909377 0.234989
0.998505 0.908446 0.234836
0.99826 0.907546 0.234272
0.998093 0.906844 0.232807
0.998001 0.906264 0.2318
0.997925 0.905867 0.231708
0.997833 0.905531 0.232486
0.0790417 0.999969 0.202777
0.0801709 0.999969 0.19971
0.084062 0.999969 0.183886
0.0955367 0.999847 0.145983
0.110674 0.998764 0.105196
0.130343 0.994446 0.0660563
0.133104 0.993484 0.0617075
0.135302 0.99266 0.0584878
0.134951 0.992798 0.0590066
0.137514 0.995605 0.0634623
0.197818 0.999969 0.0661021
0.272786 0.999969 0.0653849
0.315663 0.999969 0.0822614
0.362478 0.999969 0.0964981
0.452064 0.999969 0.121645
0.597772 0.993637 0.144137
0.723201 0.978149 0.190265
0.777401 0.968963 0.196094
0.822293 0.962142 0.209369
0.870695 0.942306 0.24976
0.913558 0.930907 0.259251
0.945876 0.934234 0.251209
0.972854 0.937636 0.246464
0.993973 0.937591 0.259297
0.999969 0.939055 0.24564
0.999969 0.939239 0.242939
0.999969 0.938888 0.241688
0.999969 0.938506 0.23978
0.999969 0.938094 0.237751
0.999969 0.937713 0.235157
0.999969 0.937316 0.233478
0.999969 0.936904 0.232792
0.999969 0.936492 0.233127
0.0729839 0.999969 0.216739
0.0805371 0.999969 0.194629
0.0795453 0.999969 0.196201
0.0885328 0.999969 0.165408
0.101747 0.999527 0.125582
0.121569 0.996857 0.0814374
0.131334 0.99411 0.0644388
0.134905 0.992828 0.0590677
0.135073 0.992752 0.0588083
0.134981 0.994308 0.0620279
0.181582 0.999939 0.0649577
0.258045 0.999969 0.0652628
0.311406 0.999969 0.0786755
0.353323 0.999969 0.0949874
0.430335 0.999969 0.118425
0.565576 0.99762 0.150103
0.709117 0.981796 0.19733
0.771572 0.973465 0.222065
0.817456 0.963745 0.2065
0.864927 0.954635 0.249973
0.910216 0.938186 0.279301
0.94374 0.942061 0.272938
0.972335 0.946334 0.264973
0.993194 0.949599 0.277302
0.999969 0.94905 0.284276
0.999969 0.949355 0.281605
0.999969 0.949401 0.28159
0.999969 0.949462 0.281437
0.999969 0.949554 0.280903
0.999969 0.94963 0.27985
0.999969 0.949676 0.279133
0.999969 0.949676 0.279133
0.999969 0.94963 0.27985
0.0673228 0.999969 0.233051
0.079469 0.999969 0.19646
0.0786603 0.999969 0.199039
0.083238 0.999969 0.181445
0.0941787 0.999893 0.145403
0.110521 0.998795 0.104005
0.130526 0.994369 0.0657206
0.133455 0.993347 0.0611734
0.134813 0.992859 0.059205
0.133639 0.993362 0.0610819
0.161013 0.999359 0.065568
0.245075 0.999969 0.0657359
0.306706 0.999969 0.0746929
0.344915 0.999969 0.0932631
0.417182 0.999969 0.114702
0.538186 0.998901 0.145983
0.693263 0.983291 0.18587
0.764767 0.97496 0.224308
0.810468 0.964462 0.203693
0.857557 0.957778 0.244114
0.904265 0.938506 0.280705
0.938796 0.94168 0.272847
0.967666 0.945769 0.266377
0.990372 0.949081 0.271717
0.999969 0.949126 0.285634
0.999969 0.949477 0.282032
0.999969 0.949493 0.281849
0.999969 0.949508 0.281575
0.999969 0.949554 0.280903
0.999969 0.94963 0.27985
0.999969 0.949676 0.279133
0.999969 0.949706 0.278782
0.999969 0.949691 0.278874
0.0610971 0.999969 0.247929
0.0751202 0.999969 0.203525
0.0786755 0.999969 0.195132
0.0794232 0.999969 0.19237
0.0885328 0.999969 0.161395
0.103044 0.999435 0.120394
0.128679 0.994965 0.0686961
0.132799 0.993606 0.0622263
0.134997 0.992782 0.0589303
0.134432 0.992996 0.0597696
0.150713 0.998489 0.0652018
0.232853 0.999969 0.065507
0.300511 0.999969 0.071397
0.337804 0.999969 0.0918593
0.406638 0.999969 0.111482
0.516381 0.999557 0.141543
0.67631 0.984939 0.176318
0.758587 0.976364 0.226734
0.803906 0.966293 0.207874
0.850919 0.960372 0.238407
0.89836 0.940459 0.27744
0.934051 0.94107 0.27303
0.96318 0.945205 0.267506
0.98706 0.948638 0.26566
0.999405 0.949294 0.285878
0.999969 0.949523 0.281514
0.999969 0.949508 0.281621
0.999969 0.949508 0.281483
0.999969 0.949554 0.280842
0.999969 0.94963 0.27982
0.999969 0.949676 0.279133
0.999969 0.949706 0.278782
0.999969 0.949706 0.278782
0.0566262 0.999969 0.262074
0.0702831 0.999969 0.213901
0.0775464 0.999969 0.192081
0.0766461 0.999969 0.195789
0.0835279 0.999969 0.173556
0.096849 0.999802 0.135531
0.118776 0.997452 0.0863508
0.131243 0.994141 0.0646067
0.135271 0.992691 0.0585489
0.134813 0.992859 0.0592203
0.145388 0.997391 0.0636912
0.220371 0.999969 0.0658122
0.29337 0.999969 0.068986
0.332052 0.999969 0.090074
0.397238 0.999969 0.108003
0.498222 0.999802 0.136385
0.659251 0.987015 0.169558
0.752911 0.977737 0.229038
0.79823 0.967834 0.212421
0.844709 0.961868 0.233219
0.892653 0.943267 0.272282
0.929839 0.940581 0.273869
0.95906 0.944533 0.269108
0.984634 0.948409 0.261677
0.998184 0.949187 0.28481
0.999969 0.949584 0.280339
0.999969 0.949615 0.28011
0.999969 0.949615 0.280003
0.999969 0.94966 0.279454
0.999969 0.949722 0.278523
0.999969 0.949767 0.277928
0.999969 0.949737 0.27837
0.999969 0.94963 0.27985
0.056611 0.999969 0.278737
0.0714427 0.999969 0.230991
0.0814984 0.999969 0.200183
0.0810254 0.999969 0.201541
0.0844892 0.999969 0.189746
0.0959487 0.999786 0.156313
0.11339 0.998276 0.111086
0.130907 0.994125 0.0718395
0.134783 0.992706 0.0639353
