bundles/resolve-cinematic-luts/Phantom Luts/Canon Alexa LUT/C-Log 3/Utopia Canon CL3-Legacy.cube
TITLE "Generated by Resolve"
LUT_3D_SIZE 33
0.0138705 0.040116 0.0496681
0.0138705 0.040116 0.0496681
0.0190433 0.0400702 0.0498054
0.0754253 0.0361791 0.0515145
0.120851 0.0335851 0.0492409
0.16437 0.0319524 0.0476844
0.21088 0.030518 0.0475929
0.265003 0.0278325 0.0484321
0.321447 0.0257267 0.0523842
0.377386 0.0238346 0.0630808
0.434058 0.025742 0.0742504
0.488563 0.0269627 0.084062
0.537346 0.029099 0.0981765
0.584237 0.0324254 0.116381
0.630137 0.0366674 0.136233
0.679057 0.0420081 0.160128
0.732082 0.0491188 0.188678
0.781735 0.0572824 0.219425
0.799863 0.0611887 0.239124
0.802548 0.0620584 0.251209
0.80322 0.0624704 0.261326
0.803616 0.0629282 0.270146
0.8038 0.063386 0.27834
0.803861 0.0637369 0.285298
0.803815 0.0640269 0.291447
0.803693 0.0642557 0.297017
0.803433 0.064332 0.301488
0.803357 0.0643015 0.305669
0.803571 0.0642405 0.309316
0.805066 0.06392 0.312612
0.806928 0.063447 0.315709
0.80943 0.0627604 0.318563
0.810788 0.0623941 0.320607
0.0138705 0.040116 0.0496681
0.0138705 0.040116 0.0496681
0.0138705 0.040116 0.0496681
0.0356603 0.0394598 0.0517433
0.0860456 0.0362554 0.0496376
0.13167 0.0336919 0.0462959
0.176318 0.0314031 0.0424506
0.225589 0.02916 0.0386358
0.283543 0.026154 0.0346685
0.342351 0.0261082 0.0342412
0.399451 0.0259861 0.0366217
0.454185 0.0254673 0.0406043
0.504616 0.0275425 0.0603647
0.556191 0.0304417 0.0768292
0.604883 0.0342412 0.0931258
0.653544 0.0390478 0.113375
0.709209 0.045655 0.139574
0.763348 0.0537575 0.171695
0.790875 0.0592508 0.195758
0.797314 0.0607156 0.208774
0.799069 0.0610666 0.218326
0.799969 0.0611734 0.227161
0.801022 0.0614023 0.236301
0.801999 0.0617838 0.245197
0.802686 0.06215 0.253376
0.803128 0.0624247 0.260121
0.803418 0.0626841 0.265888
0.80383 0.0628824 0.270832
0.804486 0.0629435 0.275151
0.806256 0.0625925 0.278706
0.80856 0.0620432 0.281682
0.811185 0.0613107 0.284352
0.812757 0.0608835 0.286442
0.0138705 0.040116 0.0496681
0.0138705 0.040116 0.0496681
0.0138705 0.040116 0.0496681
0.0160678 0.0408789 0.0497902
0.0503853 0.0419013 0.0510719
0.0925612 0.0402686 0.0474861
0.139178 0.038117 0.0433356
0.190356 0.0356756 0.0390478
0.2486 0.032166 0.0343023
0.312398 0.0272221 0.0291142
0.372473 0.0248722 0.0274968
0.430762 0.0226596 0.0276799
0.484932 0.0257572 0.034226
0.534401 0.0289311 0.047013
0.578912 0.0319677 0.0626383
0.62414 0.0359808 0.0791028
0.676982 0.0415503 0.10103
0.733318 0.0491035 0.126543
0.769192 0.055024 0.14995
0.781064 0.0575113 0.164446
0.786648 0.0584115 0.176089
0.791333 0.0591745 0.187625
0.795178 0.0600748 0.198215
0.797574 0.0605936 0.207004
0.798901 0.0608682 0.214435
0.799893 0.0611276 0.221134
0.800244 0.0611124 0.226719
0.800977 0.0610819 0.23209
0.802152 0.0611429 0.237125
0.804318 0.0608072 0.241443
0.806806 0.0603037 0.245197
0.81117 0.0591745 0.248463
0.815671 0.0579538 0.251041
0.0113832 0.0567483 0.051194
0.0141299 0.0483711 0.0508736
0.0160372 0.0440681 0.0510262
0.0152132 0.0412451 0.0500801
0.0228122 0.0438392 0.0505989
0.0641031 0.0463874 0.0503395
0.102953 0.0464027 0.0463722
0.153414 0.045182 0.0428321
0.213367 0.0418555 0.0388647
0.281209 0.0366064 0.0332799
0.348119 0.0315099 0.0285496
0.412604 0.0263523 0.0244297
0.469688 0.0242008 0.0247959
0.520485 0.0272374 0.032578
0.567483 0.0311437 0.0454414
0.61239 0.0350347 0.0652476
0.657176 0.0394141 0.0825055
0.712001 0.0460059 0.107103
0.753216 0.0522011 0.12462
0.763073 0.0541543 0.130556
0.76759 0.0548867 0.137926
0.773449 0.0556344 0.147494
0.779126 0.0566873 0.15729
0.783948 0.0575875 0.166674
0.788037 0.0581979 0.175525
0.791623 0.0587167 0.183795
0.794583 0.0593729 0.191287
0.796918 0.0598306 0.197436
0.798581 0.0600137 0.202609
0.800626 0.0598611 0.206409
0.803342 0.0593729 0.209873
0.807965 0.0581979 0.212284
0.812772 0.0568551 0.214588
0.00485237 0.109743 0.0369726
0.00604257 0.102678 0.0344244
0.0105898 0.0901198 0.0387884
0.0166934 0.0795148 0.0433967
0.033463 0.0683146 0.0453193
0.0641031 0.0755779 0.046952
0.095201 0.0783246 0.0500343
0.141649 0.0726329 0.0500191
0.189654 0.0649424 0.0453346
0.245838 0.0541695 0.0388495
0.317586 0.0451514 0.0320134
0.388876 0.0369116 0.0282597
0.454276 0.030396 0.0246586
0.508675 0.0271305 0.0247501
0.557122 0.0296788 0.033463
0.602152 0.0338293 0.0507515
0.647898 0.0386664 0.0715648
0.696162 0.0441596 0.0915236
0.748775 0.0515145 0.117403
0.762219 0.0538338 0.125643
0.762737 0.0539254 0.12668
0.762951 0.0539559 0.12784
0.763455 0.0540017 0.129351
0.766278 0.0544442 0.133303
0.770016 0.0547341 0.139574
0.77435 0.0555276 0.146746
0.778317 0.0562448 0.153368
0.781552 0.0568551 0.159274
0.784451 0.0573434 0.164385
0.787533 0.057496 0.168948
0.791241 0.0571908 0.17261
0.796658 0.0560464 0.175448
0.80267 0.054963 0.177966
0.00189212 0.15555 0.0254215
0.00329595 0.147616 0.0209201
0.00389105 0.132967 0.0271763
0.0126955 0.122927 0.0290074
0.0345464 0.111833 0.0313573
0.0767376 0.107759 0.0382239
0.0967117 0.108721 0.0449378
0.13785 0.11078 0.047715
0.193301 0.105837 0.0484627
0.25449 0.0978256 0.0487373
0.313207 0.0899367 0.0440833
0.373281 0.0760967 0.0387274
0.434302 0.0525368 0.0294347
0.494835 0.0370184 0.0263523
0.546441 0.0304723 0.0260166
0.592798 0.0326696 0.0368811
0.638071 0.0373693 0.057847
0.68574 0.0426795 0.0785687
0.734066 0.0492103 0.104479
0.757595 0.0529946 0.119081
0.762066 0.0538643 0.12282
0.762509 0.0539254 0.123796
0.762905 0.0539712 0.124926
0.763226 0.0540017 0.125948
0.76347 0.0540475 0.126787
0.763668 0.0540627 0.127687
0.764019 0.0540932 0.128679
0.764553 0.0541543 0.12987
0.76614 0.0544137 0.131991
0.768811 0.054551 0.134707
0.771756 0.0540627 0.136721
0.776822 0.0531472 0.138567
0.782696 0.0522927 0.140398
0 0.203494 0.0159304
0.0009308 0.196002 0.0133516
0.00125124 0.182986 0.0157321
0.00842298 0.17113 0.0187991
0.0185702 0.163104 0.0213321
0.0672007 0.150256 0.0287938
0.107774 0.143771 0.039765
0.139879 0.142947 0.0469825
0.184207 0.146227 0.0461891
0.247684 0.140642 0.0462196
0.322118 0.126345 0.049073
0.381506 0.114641 0.0471046
0.436423 0.104234 0.0432441
0.491768 0.0901198 0.038941
0.540917 0.0640116 0.0329747
0.584894 0.0402075 0.0307012
0.627726 0.0348516 0.0403601
0.675074 0.0410773 0.0637675
0.722698 0.047837 0.0873884
0.753429 0.0524605 0.107729
0.759823 0.0535897 0.114305
0.760174 0.0536355 0.116915
0.760388 0.0536355 0.11899
0.760769 0.0536965 0.119982
0.761196 0.0537575 0.120851
0.761563 0.0538033 0.121691
0.762097 0.0538643 0.122713
0.762631 0.0539559 0.123491
0.763134 0.0540322 0.124407
0.76408 0.0539406 0.125154
0.765316 0.0536812 0.125505
0.767575 0.0530556 0.125505
0.770184 0.0523537 0.125292
0 0.259571 0.00773632
0 0.253483 0.00233463
3.0518e-05 0.241718 0.00442512
0.00376898 0.227497 0.00727855
0.0108339 0.218479 0.00973526
0.0349432 0.205936 0.0144961
0.0902419 0.193988 0.0233768
0.149538 0.18352 0.0412604
0.187121 0.181521 0.048249
0.237415 0.185824 0.0482185
0.310231 0.182071 0.0440833
0.383047 0.166979 0.0486763
0.449775 0.15079 0.0514229
0.500114 0.140581 0.0489357
0.547585 0.125948 0.0479133
0.59115 0.106142 0.0459602
0.632425 0.0738537 0.0401923
0.672419 0.0476539 0.041825
0.713314 0.0463111 0.0677958
0.754147 0.0526894 0.095491
0.762829 0.05449 0.103044
0.762051 0.0543221 0.104662
0.761181 0.0541238 0.105791
0.760342 0.0539101 0.106889
0.759594 0.0537118 0.107881
0.759182 0.0535592 0.108949
0.759213 0.0535286 0.110338
0.759441 0.0535439 0.111971
0.75967 0.0535744 0.113252
0.760311 0.0534676 0.114321
0.761471 0.053193 0.115068
0.763882 0.0525521 0.115419
0.766354 0.0518807 0.115557
0 0.329213 0.0019379
0.00047303 0.325261 0
0.000320439 0.313832 0
0 0.295338 0
0.00781262 0.28217 0
0.0158541 0.273381 0.00122072
0.0685283 0.259373 0.00865187
0.12668 0.244617 0.0207523
0.196689 0.231449 0.0422827
0.242237 0.228244 0.0493782
0.300603 0.233326 0.0489815
0.369848 0.233295 0.0457313
0.441627 0.218372 0.0488289
0.508629 0.198444 0.0541085
0.563287 0.181521 0.0583352
0.603479 0.169955 0.0586252
0.64329 0.150698 0.0591592
0.682216 0.123156 0.0574807
0.726421 0.0840925 0.0529793
0.760876 0.0606394 0.0660105
0.772229 0.0568093 0.0810101
0.770703 0.0562295 0.0884718
0.769039 0.0556497 0.0936599
0.768078 0.0554665 0.0962387
0.767193 0.0552834 0.0974289
0.766232 0.0551156 0.0982986
0.765469 0.0549783 0.0993057
0.76492 0.0548104 0.10016
0.764508 0.0547341 0.101015
0.764721 0.0545205 0.101656
0.765347 0.0541848 0.102068
0.767452 0.0534524 0.1019
0.769909 0.0526436 0.101549
0.00062562 0.400717 0.000915541
0.00341802 0.400259 0
0.00315862 0.393988 0
0.00204471 0.376104 0
0.00607309 0.360281 0
0.0121004 0.350271 0
0.0266728 0.34023 0
0.0982681 0.32697 0.00207523
0.169406 0.303838 0.0193027
0.25391 0.287861 0.0443275
0.30898 0.282856 0.051545
0.366232 0.289601 0.0515297
0.429847 0.293797 0.0484779
0.497337 0.280491 0.0486
0.561608 0.258381 0.0564431
0.617899 0.23624 0.066865
0.660899 0.220081 0.0711833
0.696818 0.201633 0.0731365
0.738567 0.176379 0.0751202
0.778073 0.14136 0.0741894
0.79794 0.108156 0.0714885
0.794797 0.085008 0.0689555
0.787289 0.0707408 0.0657816
0.783108 0.0637217 0.0661936
0.780484 0.0601205 0.0719005
0.778012 0.0576486 0.0769818
0.776974 0.0575265 0.0816815
0.775738 0.0574655 0.0849012
0.77409 0.0567483 0.0865644
0.77348 0.0561685 0.087068
0.773663 0.0557259 0.0870527
0.775219 0.0550546 0.0869764
0.777264 0.0542458 0.0867018
0.0037232 0.472541 0.0024567
0.0075227 0.473579 0
0.00729381 0.469139 0
0.00668345 0.456977 0
0.00538643 0.440696 0
0.0144656 0.427054 0
0.020798 0.417502 0
0.0498512 0.407599 0
0.144594 0.396338 0.000228885
0.2262 0.364828 0.0230716
0.32285 0.349874 0.0478981
0.378286 0.344381 0.054139
0.432135 0.350545 0.0551461
0.48925 0.356619 0.0522164
0.551217 0.350896 0.0494698
0.609796 0.331182 0.0603952
0.666453 0.305699 0.0733654
0.717861 0.277302 0.0851453
0.75819 0.259495 0.089662
0.795926 0.235935 0.0937667
0.823636 0.206409 0.0955062
0.82414 0.188708 0.092668
0.819608 0.174258 0.0889754
0.815915 0.160937 0.0855268
0.812345 0.147478 0.0820172
0.809247 0.134188 0.0785229
0.807141 0.12372 0.0761273
0.805234 0.114519 0.0741894
0.802518 0.105226 0.0716259
0.800397 0.0953078 0.0716869
0.797467 0.0880751 0.0693675
0.796475 0.0830091 0.0678721
0.796887 0.0785077 0.0661936
0.0108797 0.53904 0.00720226
0.0153048 0.54023 0
0.0164492 0.537835 0
0.0154726 0.531319 0
0.013611 0.519402 0
0.0165713 0.506554 0
0.0247501 0.494667 0
0.0358434 0.485466 0
0.0884718 0.47628 0
0.200351 0.463096 0.00262455
0.293904 0.423239 0.0312657
0.392508 0.410361 0.05243
0.446265 0.40441 0.0574807
0.494972 0.409461 0.0587015
0.547845 0.415503 0.0576486
0.603815 0.416144 0.0594186
0.656092 0.400656 0.0665446
0.711467 0.37818 0.0801709
0.772274 0.351019 0.0965286
0.822828 0.322896 0.111589
0.852476 0.299977 0.11458
0.855314 0.284367 0.112673
0.851789 0.271916 0.11046
0.847974 0.26067 0.108415
0.844526 0.250294 0.106477
0.841031 0.240757 0.104433
0.837873 0.231693 0.102525
0.835279 0.223728 0.100908
0.832883 0.216587 0.0991989
0.831144 0.210605 0.0979477
0.829648 0.205493 0.0967727
0.828962 0.201144 0.0954757
0.829053 0.197177 0.0938888
0.0204623 0.602457 0.0183566
0.0242161 0.604028 9.15541e-05
0.0282902 0.603479 0
0.0274815 0.59997 0
0.0258946 0.590723 0
0.0229648 0.578683 0
0.0320745 0.56759 0
0.0426795 0.557412 0
0.0640879 0.547936 0
0.145708 0.540185 0
0.266804 0.52398 0.00915541
0.370474 0.478248 0.0418708
0.458701 0.468406 0.0564889
0.510567 0.46215 0.0610513
0.554223 0.466407 0.0651102
0.60383 0.471839 0.0680552
0.65211 0.474586 0.0702525
0.703227 0.466163 0.0750439
0.760464 0.447776 0.0881514
0.81857 0.422431 0.105043
0.870893 0.394217 0.123995
0.892729 0.372229 0.134401
0.893263 0.359823 0.135439
0.89015 0.350759 0.133425
0.886122 0.342901 0.131044
0.882322 0.336263 0.128695
0.87808 0.329992 0.126101
0.874754 0.324346 0.123949
0.871565 0.319387 0.122316
0.868955 0.314778 0.120912
0.866606 0.310277 0.119188
0.865751 0.307042 0.11809
0.865171 0.303822 0.116274
0.0301213 0.66424 0.0367895
0.0340429 0.666148 0.0203098
0.0407874 0.665797 0
0.0412146 0.663417 0
0.0397498 0.658579 0
0.0376287 0.648936 0
0.0398718 0.63711 0
0.0541543 0.626017 0
0.0674907 0.616663 0
0.101244 0.608545 0
0.223331 0.598321 0
0.345083 0.57821 0.0227665
0.442191 0.528786 0.0503853
0.52221 0.523888 0.0643778
0.571267 0.517525 0.0708019
0.608988 0.51986 0.0749065
0.656321 0.525185 0.0796216
0.700542 0.528664 0.0806897
0.75404 0.527276 0.0857862
0.807233 0.512657 0.095964
0.8598 0.492256 0.111772
0.897978 0.470054 0.12668
0.902831 0.458885 0.129763
0.902785 0.450248 0.130907
0.902541 0.441993 0.13167
0.902205 0.434241 0.132128
0.901732 0.4271 0.132692
0.90164 0.421012 0.133577
0.901137 0.415427 0.133822
0.900862 0.410986 0.134218
0.900603 0.407034 0.134493
0.90045 0.403693 0.134096
0.900954 0.401068 0.133242
0.0417639 0.727031 0.0534981
0.0435035 0.729839 0.0459297
0.0524605 0.730465 0.00233463
0.0545815 0.728786 0
0.054078 0.725902 0
0.051957 0.717098 0
0.0487373 0.70605 0
0.0599985 0.694026 0
0.0840314 0.682857 0
0.101442 0.673381 0
0.149081 0.66833 0
0.309865 0.653132 0.0115358
0.422385 0.626703 0.0403754
0.51043 0.576928 0.0624552
0.581369 0.576745 0.0753948
0.627955 0.570459 0.0819257
0.660822 0.571786 0.0863813
0.705684 0.576699 0.092134
0.748425 0.579965 0.0941787
0.79884 0.580896 0.0983444
0.850935 0.574121 0.105806
0.895384 0.55726 0.117662
0.906661 0.546761 0.122393
0.907073 0.539513 0.123491
0.906828 0.533242 0.124132
0.906325 0.527428 0.124392
0.906065 0.522362 0.124941
0.905623 0.51754 0.125109
0.905257 0.51339 0.125399
0.90518 0.509911 0.125841
0.904936 0.506813 0.125994
0.905028 0.504234 0.125444
0.905592 0.502297 0.12459
0.0549477 0.794369 0.0697185
0.0554665 0.798978 0.067628
0.0640269 0.801328 0.0274968
0.068986 0.801022 0.000167849
0.0683146 0.797879 0
0.0673838 0.793439 0
0.0646067 0.779461 0
0.0684672 0.765377 0
0.0903639 0.752499 0
0.113985 0.740826 0
0.133394 0.730877 0
0.224262 0.725719 0.000885023
0.40209 0.706508 0.031632
0.494423 0.672419 0.0577096
0.573388 0.622522 0.0787366
0.637293 0.627558 0.0877546
0.681819 0.62153 0.0945144
0.713146 0.622003 0.0990921
0.753094 0.625818 0.103166
0.798627 0.629053 0.108049
0.84033 0.630442 0.111971
0.88571 0.627771 0.117113
0.912032 0.622141 0.121218
0.915328 0.617411 0.12195
0.914168 0.612375 0.121614
0.913588 0.607965 0.121721
0.912734 0.603708 0.121309
0.912108 0.599878 0.121218
0.911772 0.596765 0.121294
0.91133 0.593744 0.121233
0.910918 0.591211 0.121218
0.910842 0.589258 0.120974
0.910918 0.587488 0.120348
0.0707256 0.870604 0.0893111
0.0707103 0.875181 0.0893721
0.0773327 0.878553 0.0590829
0.087068 0.879515 0.0170138
0.0870832 0.87808 0.009308
0.0860761 0.874205 0.00541695
0.0836957 0.863996 0.00134279
0.0806744 0.848783 0
0.0976272 0.832547 0
0.131533 0.8159 0
0.143404 0.803098 0.00311284
0.186648 0.793545 0.00547799
0.338308 0.778729 0.0180514
0.48658 0.76553 0.0529183
0.561608 0.717372 0.0736248
0.632792 0.670008 0.0962081
0.690425 0.678676 0.100557
0.734768 0.672602 0.107256
0.766094 0.672297 0.110628
0.801694 0.674861 0.117113
0.842756 0.677241 0.122789
0.880644 0.678157 0.126879
0.913054 0.676402 0.130388
0.917128 0.673487 0.130648
0.916762 0.67042 0.129885
0.916411 0.667353 0.129168
0.915984 0.664439 0.12845
0.916136 0.662287 0.128176
0.916136 0.660197 0.12781
0.916045 0.658289 0.127413
0.915892 0.656565 0.127062
0.91574 0.655116 0.126619
0.915694 0.653941 0.126284
0.0886397 0.944411 0.116609
0.0884718 0.949554 0.118868
0.0965133 0.952453 0.0881819
0.108782 0.953857 0.0495918
0.112551 0.952575 0.0331884
0.112291 0.948867 0.0265049
0.110445 0.94519 0.0239567
0.104479 0.930632 0.0178225
0.109209 0.913573 0.0138705
0.142824 0.896513 0.0109102
0.162737 0.880873 0.0117647
0.186633 0.868238 0.0146792
0.26508 0.862242 0.0183261
0.457862 0.838575 0.0434577
0.562539 0.823148 0.0722362
0.625223 0.765911 0.0934615
0.688609 0.72076 0.113283
0.743069 0.731075 0.112001
0.786236 0.724453 0.119219
0.820737 0.723201 0.126406
0.847837 0.722972 0.132601
0.883085 0.7252 0.138979
0.916274 0.72578 0.143786
0.929183 0.72369 0.145037
0.929946 0.721401 0.144671
0.928939 0.718715 0.143664
0.928222 0.716274 0.14287
0.927565 0.714321 0.142199
0.927306 0.712886 0.141894
0.926802 0.711269 0.141329
0.926299 0.709865 0.140841
0.925856 0.708659 0.140444
0.925444 0.707668 0.140108
0.108278 0.998718 0.148165
0.106981 0.999298 0.149767
0.116197 0.998901 0.117601
0.128191 0.997665 0.0851606
0.13872 0.99527 0.0623178
0.140902 0.994476 0.0580148
0.14226 0.993988 0.0557259
0.141253 0.992386 0.0531319
0.137224 0.983383 0.044358
0.159838 0.969909 0.0326238
0.187671 0.954116 0.025742
0.20444 0.942168 0.0282902
0.245701 0.931258 0.0299687
0.384955 0.919921 0.035996
0.554253 0.899947 0.0681315
0.631418 0.869871 0.0904555
0.686763 0.812253 0.118395
0.743862 0.778042 0.132753
0.795193 0.788663 0.129152
0.840665 0.781186 0.137041
0.87332 0.778134 0.144671
0.898329 0.777401 0.151995
0.922667 0.777646 0.158618
0.943771 0.777722 0.162982
0.94548 0.775677 0.162631
0.944793 0.773281 0.161837
0.944244 0.771313 0.161288
0.943633 0.769451 0.160571
0.943114 0.767727 0.15996
0.942733 0.76614 0.159518
0.94229 0.764675 0.15906
0.941939 0.763561 0.158663
0.94168 0.762661 0.158373
0.106752 0.999969 0.164553
0.104906 0.999969 0.165179
0.114473 0.999939 0.130648
0.125994 0.999329 0.0965591
0.13785 0.997574 0.0699931
0.139681 0.997208 0.0666514
0.143145 0.996506 0.0614939
0.143755 0.996353 0.0606241
0.145739 0.996536 0.0596933
0.171511 0.99884 0.0544137
0.208133 0.999344 0.0472114
0.232547 0.997818 0.0466163
0.257099 0.992935 0.049073
0.338399 0.98616 0.0487373
0.526787 0.962554 0.0634623
0.636103 0.953399 0.0924697
0.692042 0.906233 0.116243
0.742199 0.851255 0.151965
0.795056 0.82974 0.15465
0.848203 0.839734 0.148928
0.890547 0.833417 0.157015
0.921065 0.829648 0.165621
0.943801 0.828672 0.174304
0.960998 0.827771 0.181689
0.963638 0.825925 0.18294
0.962661 0.823865 0.18233
0.961669 0.82211 0.181582
0.960967 0.820798 0.180957
0.960021 0.819196 0.180148
0.959365 0.81767 0.179522
0.959014 0.816495 0.179049
0.958831 0.815549 0.178683
0.958679 0.814786 0.178378
0.10518 0.999969 0.169512
0.105486 0.999969 0.163455
0.115282 0.999924 0.128359
0.125795 0.999359 0.0970932
0.138796 0.99736 0.0682841
0.140764 0.996994 0.0649729
0.142748 0.996582 0.0620737
0.142443 0.996658 0.062501
0.142016 0.997314 0.0651255
0.165011 0.999512 0.0624704
0.207507 0.999969 0.0557565
0.246418 0.999969 0.0540627
0.266484 0.999969 0.0623789
0.318593 0.999969 0.0655833
0.463706 0.996658 0.0661173
0.623575 0.976944 0.0895552
0.697063 0.965499 0.115938
0.745098 0.932738 0.152499
0.795483 0.881987 0.184817
0.847562 0.877379 0.183246
0.896712 0.885969 0.173388
0.935256 0.881056 0.181811
0.963211 0.877623 0.19205
0.982956 0.876738 0.202411
0.991669 0.875792 0.208621
0.991577 0.874128 0.208515
0.990875 0.872618 0.207721
0.990051 0.871092 0.207187
0.989227 0.869642 0.207141
0.988434 0.868238 0.207691
0.987854 0.867201 0.208042
0.987488 0.86656 0.208164
0.986938 0.865873 0.207675
0.107439 0.999969 0.172763
0.105272 0.999969 0.174441
0.112474 0.999969 0.145403
0.122316 0.999603 0.112291
0.135561 0.997955 0.0776226
0.140871 0.996902 0.0665141
0.142489 0.996597 0.0635386
0.142977 0.996475 0.0626993
0.142565 0.996597 0.0634623
0.152117 0.998688 0.0675669
0.204379 0.999969 0.0673991
0.255863 0.999969 0.0648966
0.278965 0.999969 0.0770581
0.319432 0.999969 0.0813153
0.421942 0.999527 0.0841382
0.599954 0.981857 0.0922713
0.697246 0.967636 0.116442
0.749249 0.963333 0.156313
0.79733 0.94876 0.19266
0.850233 0.910384 0.21735
0.898161 0.917388 0.211734
0.93959 0.925261 0.210513
0.97348 0.922316 0.220737
0.995895 0.919158 0.231357
0.999969 0.919631 0.237232
0.999969 0.91841 0.237858
0.999969 0.916899 0.237888
0.999969 0.915373 0.237858
0.999969 0.913893 0.237812
0.999969 0.912856 0.237354
0.999969 0.9122 0.237003
0.999969 0.911574 0.236606
0.999969 0.911009 0.236255
0.10338 0.999969 0.175158
0.103731 0.999969 0.171862
0.106538 0.999969 0.158648
0.116106 0.999908 0.127886
0.126879 0.999237 0.0972457
0.140093 0.99707 0.0678721
0.142077 0.996674 0.0641947
0.143404 0.996384 0.0619974
0.143145 0.996445 0.0624094
0.145006 0.997711 0.0667277
0.190021 0.999969 0.0680095
0.247898 0.999969 0.0664836
0.283238 0.999969 0.078996
0.324819 0.999969 0.0893873
0.413413 0.999969 0.107378
0.563973 0.993713 0.12874
0.694987 0.977737 0.17348
0.749752 0.96875 0.182239
0.795636 0.96199 0.195804
0.849821 0.955932 0.233326
0.90132 0.943435 0.24535
0.940337 0.946334 0.241367
0.973785 0.946868 0.240879
0.998489 0.946487 0.253437
0.999969 0.944793 0.246571
0.999969 0.944579 0.244953
0.999969 0.944579 0.244099
0.999969 0.944579 0.243259
0.999969 0.944518 0.242588
0.999969 0.944427 0.241886
0.999969 0.944335 0.241154
0.999969 0.944244 0.240452
0.999969 0.944167 0.239796
0.0980087 0.999969 0.185061
0.103685 0.999969 0.166476
0.103044 0.999969 0.167071
0.110384 0.999969 0.143374
0.120562 0.999725 0.112871
0.134447 0.998169 0.0790265
0.14078 0.996933 0.0663615
0.143191 0.996429 0.0623484
0.143267 0.996414 0.0622263
0.142657 0.996994 0.0651255
0.177172 0.999832 0.0678721
0.236347 0.999969 0.0666667
0.279744 0.999969 0.0763561
0.316579 0.999969 0.088365
0.391028 0.999969 0.105013
0.531594 0.997238 0.131777
0.680735 0.980972 0.177462
0.74403 0.972396 0.20235
0.790417 0.963165 0.193256
0.841535 0.959808 0.232197
0.897765 0.95111 0.260761
0.937819 0.951171 0.259251
0.971862 0.948608 0.254658
0.99678 0.948028 0.266438
0.999969 0.947494 0.274342
0.999969 0.947234 0.272419
0.999969 0.94725 0.272389
0.999969 0.94728 0.272129
0.999969 0.947326 0.27158
0.999969 0.947372 0.270787
0.999969 0.947372 0.270787
0.999969 0.947326 0.27158
0.999969 0.94728 0.272236
0.0936294 0.999969 0.198566
0.103029 0.999969 0.167681
0.10222 0.999969 0.169146
0.105943 0.999969 0.155474
0.115251 0.999924 0.12668
0.126757 0.999252 0.0961624
0.140124 0.997055 0.0674907
0.142306 0.996628 0.063798
0.143069 0.99646 0.0625315
0.14255 0.996689 0.06392
0.162631 0.999405 0.0682078
0.225864 0.999969 0.0668498
0.275624 0.999969 0.0733654
0.309545 0.999969 0.0871595
0.37763 0.999969 0.102846
0.50309 0.998749 0.127993
0.664271 0.982696 0.167102
0.737438 0.973999 0.203815
0.783581 0.964324 0.190753
0.832563 0.960571 0.226078
0.890135 0.9514 0.260731
0.932097 0.952209 0.2589
0.966033 0.949233 0.255528
0.99382 0.94789 0.261616
0.999969 0.947677 0.275105
0.999969 0.947265 0.272801
0.999969 0.947265 0.272633
0.999969 0.94728 0.272236
0.999969 0.947326 0.27158
0.999969 0.947402 0.27039
0.999969 0.947448 0.269596
0.999969 0.947463 0.2692
0.999969 0.947448 0.269474
0.0879988 0.999969 0.209552
0.0999466 0.999969 0.173297
0.102571 0.999969 0.166354
0.103029 0.999969 0.164096
0.110628 0.999969 0.139651
0.121492 0.99968 0.108827
0.138994 0.997269 0.0694285
0.141817 0.996719 0.064622
0.143206 0.996429 0.0623178
0.142779 0.996521 0.0630045
0.154604 0.998917 0.0678111
0.215686 0.999969 0.0670329
0.270512 0.999969 0.0707561
0.303059 0.999969 0.0860304
0.36614 0.999969 0.100252
0.480446 0.999344 0.123659
0.646357 0.984573 0.158373
0.73138 0.975509 0.2056
0.777005 0.965606 0.192737
0.825101 0.961013 0.220295
0.882963 0.95346 0.257343
0.926604 0.952682 0.258228
0.960739 0.949737 0.255787
0.990341 0.947845 0.25597
0.999969 0.947921 0.2748
0.999969 0.94728 0.27245
0.999969 0.947265 0.272557
0.999969 0.94728 0.272236
0.999969 0.947326 0.27158
0.999969 0.947402 0.27039
0.999969 0.947448 0.269596
0.999969 0.947463 0.2692
0.999969 0.947463 0.2692
0.0838788 0.999969 0.221256
0.0960403 0.999969 0.180743
0.101869 0.999969 0.163012
0.101091 0.999969 0.166201
0.1066 0.999969 0.14905
0.117403 0.999878 0.118914
0.132891 0.998444 0.0817731
0.140749 0.996933 0.0664073
0.143374 0.996384 0.0620432
0.143038 0.99646 0.0625925
0.150088 0.998444 0.0671855
0.206104 0.999969 0.0678569
0.264637 0.999969 0.0689555
0.297917 0.999969 0.0846113
0.356847 0.999969 0.0977493
0.461906 0.99971 0.1196
0.628641 0.98703 0.152316
0.725917 0.976761 0.207034
0.771176 0.966903 0.195438
0.818647 0.96144 0.215335
0.876097 0.955993 0.252857
0.921553 0.952743 0.258015
0.955962 0.950149 0.25655
0.986999 0.947936 0.251881
0.999969 0.948226 0.273274
0.999969 0.947387 0.271366
