bundles/resolve-cinematic-luts/Phantom Luts/Canon Alexa LUT/C-Log 3/Utopia Canon CL3.cube
TITLE "Generated by Resolve"
LUT_3D_SIZE 5
0.00323491 0.0299077 0.0381781
0.370947 0.00357061 0.0544442
0.747158 0.0330205 0.230198
0.794339 0.0477455 0.331731
0.807004 0.0449226 0.360159
0 0.396017 0
0.259968 0.29015 0.0276646
0.694118 0.194308 0.0629892
0.776318 0.0370947 0.115587
0.780697 0.0345464 0.121416
0.0547951 0.899641 0.116304
0.108858 0.867231 0
0.73341 0.715724 0.0966964
0.928634 0.703761 0.125566
0.926421 0.688319 0.120653
0.0673228 0.999969 0.233051
0.134813 0.992859 0.059205
0.693263 0.983291 0.18587
0.999969 0.949126 0.285634
0.999969 0.949691 0.278874
0.0396887 0.999969 0.313726
0.131838 0.993957 0.0652628
0.585473 0.995743 0.158755
0.992309 0.948974 0.276829
0.999969 0.949874 0.276341
0 0.0516213 0.289113
0.321126 0.0135348 0.345892
0.734707 0.0455634 0.448096
0.793759 0.0598306 0.507576
0.801831 0.0571298 0.531777
0 0.2645 0.255161
0.201694 0.233799 0.235904
0.697154 0.0296788 0.206165
0.801114 0.0452583 0.322118
0.806806 0.0446937 0.350317
0 0.809384 0.371771
0.0284428 0.839765 0.119112
0.705104 0.686793 0.090425
0.923232 0.652705 0.113115
0.919493 0.625742 0.115969
0.0112459 0.9991 0.491768
0.0608988 0.999969 0.246098
0.504631 0.999741 0.13901
0.994965 0.949157 0.283787
0.999969 0.949706 0.278782
0.00343328 0.998138 0.537041
0.0435492 0.999969 0.331899
0.398047 0.999969 0.111803
0.971466 0.945983 0.269703
0.999969 0.94992 0.275669
0 0.0954604 0.609674
0.305257 0.0584878 0.663355
0.678843 0.0589609 0.682368
0.749249 0.0797894 0.734569
0.756283 0.0772564 0.763531
0 0.218753 0.52549
0 0.0847028 0.593637
0.618647 0.0436255 0.625772
0.761807 0.073106 0.65539
0.769985 0.0704662 0.679301
0 0.670588 0.647959
0 0.651881 0.628611
0.621485 0.638025 0.623407
0.96939 0.540581 0.589731
0.968429 0.505577 0.592004
0.00920119 0.96257 0.740047
0 0.979995 0.6851
0.0597543 0.999969 0.29456
0.967422 0.946288 0.404181
0.999969 0.933425 0.388846
0.00399786 0.957473 0.765484
0 0.973892 0.707073
0.0451057 0.999969 0.338567
0.915587 0.941543 0.288319
0.999969 0.950744 0.29427
0 0.17908 0.773236
0.295949 0.148852 0.870512
0.661936 0.0746471 0.824521
0.733883 0.0859388 0.800275
0.737179 0.0844892 0.804471
0 0.274342 0.746654
0 0.17937 0.772702
0.592081 0.0974594 0.861769
0.729152 0.0879835 0.794385
0.736706 0.0847181 0.803616
0 0.641306 0.819928
0 0.613931 0.820005
0.405097 0.569848 0.921599
0.902327 0.442008 0.930861
0.89163 0.39913 0.924605
0.0314794 0.925353 0.914656
0.0175479 0.917922 0.906218
0.00454719 0.892638 0.874556
0.899443 0.901549 0.890974
0.972396 0.879576 0.883741
0.0379492 0.929473 0.932708
0.026688 0.928664 0.920501
0.0139315 0.940139 0.848432
0.803647 0.997177 0.845106
0.985992 0.979934 0.921981
0 0.17554 0.794339
0.319142 0.147356 0.872816
0.678782 0.0768139 0.820462
0.733883 0.0859388 0.800275
0.737102 0.0845502 0.80412
0 0.270542 0.74876
0 0.176211 0.792889
0.600504 0.0950484 0.859281
0.729976 0.0876478 0.795346
0.73669 0.0847181 0.803586
0 0.635142 0.851896
0 0.600458 0.836912
0.367483 0.523522 0.925093
0.883497 0.37789 0.927733
0.869459 0.324346 0.916289
0.0367132 0.923018 0.941238
0.0282597 0.912993 0.939742
0.0144198 0.880873 0.934844
0.845533 0.880522 0.966278
0.959136 0.85066 0.967514
0.0429236 0.932464 0.943236
0.0404974 0.932677 0.94432
0.0407568 0.932982 0.944457
0.739055 0.966323 0.968841
0.987564 0.982818 0.981353
