bundles/resolve-cinematic-luts/Gamut/_Conversion/Fujifilm/Fujifilm X100VI BaseLUTs/BaseLUT - Fujifilm X100VI - F-Log2 to DWG.cube
TITLE "BaseLUT - Fujifilm X100VI - F-Log2 to DWG"
# Developed for converting Fujifilm F-Log2 / BT.2020 to DaVinci Intermediate / DaVinci Wide Gamut. Version 1.0 - 05/01/2025 - Copyright 2025 Gamut, LLC.
LUT_3D_SIZE 5
0.0000000000 0.0000000000 0.0000000000
0.1488210000 0.0000000000 0.0000000000
0.3955600000 0.0000000000 0.0000000000
0.6417030000 0.0000000000 0.0000000000
0.8886240000 0.0000000000 0.0000000000
0.0324441086 0.1752500000 0.0700542000
0.1643850000 0.1631950000 0.0278935000
0.3997860000 0.1208670000 0.0000000000
0.6421610000 0.0000000000 0.0000000000
0.8886700000 0.0000000000 0.0000000000
0.2306250000 0.4261840000 0.2927750000
0.2791940000 0.4264740000 0.2949720000
0.4137480000 0.4123750000 0.2218971205
0.6465550000 0.3691160000 0.0000000000
0.8891580000 0.0000000000 0.0000000000
0.4706190000 0.6727240000 0.5362780000
0.4767990000 0.6727550000 0.5364920000
0.5289080000 0.6730750000 0.5389490000
0.6601360000 0.6587630000 0.4612040000
0.8935070000 0.6150760000 0.0000000000
0.7169150000 0.9196920000 0.7829250006
0.7175400000 0.9196920000 0.7829560005
0.7242240000 0.9197220000 0.7831850000
0.7758140000 0.9200270000 0.7856410000
0.9070730000 0.9056990143 0.7074390000
0.0044708900 0.0342107000 0.1607840000
0.1646600000 0.0096589600 0.1633020000
0.3969330000 0.0000000000 0.0979477000
0.6417330000 0.0000000000 0.0000000000
0.8886240000 0.0000000000 0.0000000000
0.0000000000 0.1870910000 0.1837800000
0.1899129200 0.1899129200 0.1899129200
0.4003200000 0.1580216593 0.1425643178
0.6421760000 0.0000000000 0.0000000000
0.8886700000 0.0000000000 0.0000000000
0.2244750000 0.4273440000 0.3150990000
0.2753800000 0.4276490000 0.3169150000
0.4164490000 0.4152290000 0.2702221108
0.6466930000 0.3745480000 0.0000000000
0.8891580000 0.0000000000 0.0000000000
0.4699930000 0.6728470000 0.5387350000
0.4762190000 0.6728620000 0.5389490000
0.5285570000 0.6731820000 0.5413440000
0.6603950000 0.6590370000 0.4673840000
0.8935230000 0.6156100000 0.0000000000
0.7168540000 0.9196920000 0.7831690000
0.7174790000 0.9197070000 0.7831850000
0.7241780000 0.9197380000 0.7834290000
0.7757690000 0.9200430000 0.7858700000
0.9071030000 0.9057150071 0.7080490000
0.1625390000 0.2338750000 0.4095830000
0.2419930000 0.2356910000 0.4103300000
0.4140690000 0.1788200000 0.4124970000
0.6433810349 0.0000000000 0.3497371374
0.8886550000 0.0000000000 0.0000000000
0.1578089747 0.2760970000 0.4119778956
0.2398410000 0.2773480000 0.4127260000
0.4167390000 0.2473490000 0.4153350000
0.6436870130 0.0000000000 0.3548180000
0.8886850000 0.0000000000 0.0000000000
0.1069960000 0.4395820000 0.4358430000
0.2187840000 0.4398410000 0.4364390000
0.4426490000 0.4426490000 0.4426490000
0.6473340000 0.4130010000 0.3988860000
0.8891890000 0.0000000000 0.0000000000
0.4628060000 0.6741130000 0.5629360000
0.4694440000 0.6741280000 0.5631190000
0.5244830000 0.6744490000 0.5650260000
0.6633250000 0.6621040000 0.5194629942
0.8936600000 0.6214850000 0.0000000000
0.7161820000 0.9198140000 0.7858240000
0.7168080000 0.9198290000 0.7858550000
0.7235370000 0.9198600000 0.7860840000
0.7753870000 0.9201650000 0.7884640000
0.9073930000 0.9060200026 0.7147480000
0.3950260000 0.4741130022 0.6559240000
0.4074160000 0.4743110004 0.6560010000
0.4926380000 0.4763870000 0.6568090000
0.6604710000 0.4136260000 0.6588690000
0.8903180000 0.0000000000 0.5956050000
0.3945070000 0.4793320000 0.6561530000
0.4069580000 0.4795150000 0.6562290000
0.4924390000 0.4814980000 0.6570380000
0.6607310000 0.4235900000 0.6591440000
0.8903490000 0.0000000000 0.5961090000
0.3885710000 0.5249710000 0.6587630000
0.4016940000 0.5250930000 0.6588390000
0.4901200000 0.5263900000 0.6596320000
0.6636150000 0.4973370000 0.6622110000
0.8906840000 0.0000000000 0.6016020000
0.3275040000 0.6862590000 0.6824900000
0.3496761968 0.6862750000 0.6825510000
0.4699630000 0.6865490000 0.6831620000
0.6893419001 0.6893419001 0.6893419001
0.8943010000 0.6596020000 0.6454260000
0.7089950000 0.9210799517 0.8098270000
0.7096510000 0.9210799517 0.8098570000
0.7168540000 0.9211109571 0.8100400000
0.7713440000 0.9214159988 0.8119330001
0.9102920000 0.9090720000 0.7663229308
0.6405130000 0.7204390714 0.9028610000
0.6417940000 0.7204550657 0.9028610000
0.6551920000 0.7206680207 0.9029370000
0.7394670000 0.7227440000 0.9037610000
0.9074080000 0.6593580000 0.9058060056
0.6404670000 0.7209580052 0.9028760000
0.6417490000 0.7209740043 0.9028920000
0.6551460000 0.7211870000 0.9029680000
0.7394520000 0.7232470000 0.9037770000
0.9074390000 0.6603800000 0.9058370051
0.6399020000 0.7266190000 0.9031360000
0.6411840000 0.7266350000 0.9031360000
0.6546430000 0.7268180000 0.9032270000
0.7392390000 0.7287860000 0.9040360000
0.9077130000 0.6711680000 0.9061420009
0.6339060000 0.7718320000 0.9057150071
0.6352790000 0.7718470000 0.9057300066
0.6494540000 0.7719690000 0.9058060056
0.7369340000 0.7732510000 0.9066000000
0.9105820000 0.7441670000 0.9091780000
0.5715570000 0.9332270000 0.9294580000
0.5739830000 0.9332270000 0.9294580000
0.5979100000 0.9332570000 0.9295190000
0.7167310000 0.9335320000 0.9301440000
0.9362136413 0.9362136413 0.9362136413
