bundles/resolve-cinematic-luts/Gamut/_Conversion/Fujifilm/Fujifilm X100VI BaseLUTs/BaseLUT - Fujifilm X100VI - F-Log2 to DWG.cube
TITLE "BaseLUT - Fujifilm X100VI - F-Log2 to DWG"
# Developed for converting Fujifilm F-Log2 / BT.2020 to DaVinci Intermediate / DaVinci Wide Gamut. Version 1.0 - 05/01/2025 - Copyright 2025 Gamut, LLC.
LUT_3D_SIZE 65
0.0000000000 0.0000000000 0.0000000000
0.0000000000 0.0000000000 0.0000000000
0.0000000000 0.0000000000 0.0000000000
0.0000000000 0.0000000000 0.0000000000
0.0000000000 0.0000000000 0.0000000000
0.0000000000 0.0000000000 0.0000000000
0.0000000000 0.0000000000 0.0000000000
0.0167544000 0.0000000000 0.0000000000
0.0383764000 0.0000000000 0.0000000000
0.0509041000 0.0000000000 0.0000000000
0.0638590000 0.0000000000 0.0000000000
0.0772259000 0.0000000000 0.0000000000
0.0909438000 0.0000000000 0.0000000000
0.1050130000 0.0000000000 0.0000000000
0.1193560000 0.0000000000 0.0000000000
0.1339740000 0.0000000000 0.0000000000
0.1488210000 0.0000000000 0.0000000000
0.1639120000 0.0000000000 0.0000000000
0.1791870000 0.0000000000 0.0000000000
0.1945370000 0.0000000000 0.0000000000
0.2099340000 0.0000000000 0.0000000000
0.2254060000 0.0000000000 0.0000000000
0.2409400000 0.0000000000 0.0000000000
0.2565040000 0.0000000000 0.0000000000
0.2720990000 0.0000000000 0.0000000000
0.2877090000 0.0000000000 0.0000000000
0.3033190000 0.0000000000 0.0000000000
0.3189440000 0.0000000000 0.0000000000
0.3345690000 0.0000000000 0.0000000000
0.3497830947 0.0000000000 0.0000000000
0.3650110506 0.0000000000 0.0000000000
0.3802850000 0.0000000000 0.0000000000
0.3955600000 0.0000000000 0.0000000000
0.4108799997 0.0000000000 0.0000000000
0.4262000000 0.0000000000 0.0000000000
0.4415350000 0.0000000000 0.0000000000
0.4568860000 0.0000000000 0.0000000000
0.4722510000 0.0000000000 0.0000000000
0.4876330000 0.0000000000 0.0000000000
0.5030140000 0.0000000000 0.0000000000
0.5184100000 0.0000000000 0.0000000000
0.5337910000 0.0000000000 0.0000000000
0.5492030000 0.0000000000 0.0000000000
0.5645990000 0.0000000000 0.0000000000
0.5800260000 0.0000000000 0.0000000000
0.5954530000 0.0000000000 0.0000000000
0.6108640000 0.0000000000 0.0000000000
0.6262760000 0.0000000000 0.0000000000
0.6417030000 0.0000000000 0.0000000000
0.6571300000 0.0000000000 0.0000000000
0.6725570000 0.0000000000 0.0000000000
0.6879840000 0.0000000000 0.0000000000
0.7034260000 0.0000000000 0.0000000000
0.7188370000 0.0000000000 0.0000000000
0.7342790000 0.0000000000 0.0000000000
0.7497060000 0.0000000000 0.0000000000
0.7651480000 0.0000000000 0.0000000000
0.7805910000 0.0000000000 0.0000000000
0.7960020000 0.0000000000 0.0000000000
0.8114440000 0.0000000000 0.0000000000
0.8268710000 0.0000000000 0.0000000000
0.8423130000 0.0000000000 0.0000000000
0.8577550000 0.0000000000 0.0000000000
0.8731820000 0.0000000000 0.0000000000
0.8886240000 0.0000000000 0.0000000000
0.0000000000 0.0000000000 0.0000000000
0.0000000000 0.0000000000 0.0000000000
0.0000000000 0.0000000000 0.0000000000
0.0000000000 0.0000000000 0.0000000000
0.0000000000 0.0000000000 0.0000000000
0.0000000000 0.0000000000 0.0000000000
0.0000000000 0.0000000000 0.0000000000
0.0167544000 0.0000000000 0.0000000000
0.0383764000 0.0000000000 0.0000000000
0.0509041000 0.0000000000 0.0000000000
0.0638590000 0.0000000000 0.0000000000
0.0772259000 0.0000000000 0.0000000000
0.0909438000 0.0000000000 0.0000000000
0.1050130000 0.0000000000 0.0000000000
0.1193560000 0.0000000000 0.0000000000
0.1339740000 0.0000000000 0.0000000000
0.1488210000 0.0000000000 0.0000000000
0.1639120000 0.0000000000 0.0000000000
0.1791870000 0.0000000000 0.0000000000
0.1945370000 0.0000000000 0.0000000000
0.2099340000 0.0000000000 0.0000000000
0.2254060000 0.0000000000 0.0000000000
0.2409400000 0.0000000000 0.0000000000
0.2565040000 0.0000000000 0.0000000000
0.2720990000 0.0000000000 0.0000000000
0.2877090000 0.0000000000 0.0000000000
0.3033190000 0.0000000000 0.0000000000
0.3189440000 0.0000000000 0.0000000000
0.3345690000 0.0000000000 0.0000000000
0.3497830947 0.0000000000 0.0000000000
0.3650110506 0.0000000000 0.0000000000
0.3802850000 0.0000000000 0.0000000000
0.3955600000 0.0000000000 0.0000000000
0.4108799997 0.0000000000 0.0000000000
0.4262000000 0.0000000000 0.0000000000
0.4415350000 0.0000000000 0.0000000000
0.4568860000 0.0000000000 0.0000000000
0.4722510000 0.0000000000 0.0000000000
0.4876330000 0.0000000000 0.0000000000
0.5030140000 0.0000000000 0.0000000000
0.5184100000 0.0000000000 0.0000000000
0.5337910000 0.0000000000 0.0000000000
0.5492030000 0.0000000000 0.0000000000
0.5645990000 0.0000000000 0.0000000000
0.5800260000 0.0000000000 0.0000000000
0.5954530000 0.0000000000 0.0000000000
0.6108640000 0.0000000000 0.0000000000
0.6262760000 0.0000000000 0.0000000000
0.6417030000 0.0000000000 0.0000000000
0.6571300000 0.0000000000 0.0000000000
0.6725570000 0.0000000000 0.0000000000
0.6879840000 0.0000000000 0.0000000000
0.7034260000 0.0000000000 0.0000000000
0.7188370000 0.0000000000 0.0000000000
0.7342790000 0.0000000000 0.0000000000
0.7497060000 0.0000000000 0.0000000000
0.7651480000 0.0000000000 0.0000000000
0.7805910000 0.0000000000 0.0000000000
0.7960020000 0.0000000000 0.0000000000
0.8114440000 0.0000000000 0.0000000000
0.8268710000 0.0000000000 0.0000000000
0.8423130000 0.0000000000 0.0000000000
0.8577550000 0.0000000000 0.0000000000
0.8731820000 0.0000000000 0.0000000000
0.8886240000 0.0000000000 0.0000000000
0.0000000000 0.0000000000 0.0000000000
0.0000000000 0.0000000000 0.0000000000
0.0000000000 0.0000000000 0.0000000000
0.0000000000 0.0000000000 0.0000000000
0.0000000000 0.0000000000 0.0000000000
0.0000000000 0.0000000000 0.0000000000
0.0000000000 0.0000000000 0.0000000000
0.0167544000 0.0000000000 0.0000000000
0.0383764000 0.0000000000 0.0000000000
0.0509041000 0.0000000000 0.0000000000
0.0638590000 0.0000000000 0.0000000000
0.0772259000 0.0000000000 0.0000000000
0.0909438000 0.0000000000 0.0000000000
0.1050130000 0.0000000000 0.0000000000
0.1193560000 0.0000000000 0.0000000000
0.1339740000 0.0000000000 0.0000000000
0.1488210000 0.0000000000 0.0000000000
0.1639120000 0.0000000000 0.0000000000
0.1791870000 0.0000000000 0.0000000000
0.1945370000 0.0000000000 0.0000000000
0.2099340000 0.0000000000 0.0000000000
0.2254060000 0.0000000000 0.0000000000
0.2409400000 0.0000000000 0.0000000000
0.2565040000 0.0000000000 0.0000000000
0.2720990000 0.0000000000 0.0000000000
0.2877090000 0.0000000000 0.0000000000
0.3033190000 0.0000000000 0.0000000000
0.3189440000 0.0000000000 0.0000000000
0.3345690000 0.0000000000 0.0000000000
0.3497830947 0.0000000000 0.0000000000
0.3650110506 0.0000000000 0.0000000000
0.3802850000 0.0000000000 0.0000000000
0.3955600000 0.0000000000 0.0000000000
0.4108799997 0.0000000000 0.0000000000
0.4262000000 0.0000000000 0.0000000000
0.4415350000 0.0000000000 0.0000000000
0.4568860000 0.0000000000 0.0000000000
0.4722510000 0.0000000000 0.0000000000
0.4876330000 0.0000000000 0.0000000000
0.5030140000 0.0000000000 0.0000000000
0.5184100000 0.0000000000 0.0000000000
0.5337910000 0.0000000000 0.0000000000
0.5492030000 0.0000000000 0.0000000000
0.5645990000 0.0000000000 0.0000000000
0.5800260000 0.0000000000 0.0000000000
0.5954530000 0.0000000000 0.0000000000
0.6108640000 0.0000000000 0.0000000000
0.6262760000 0.0000000000 0.0000000000
0.6417030000 0.0000000000 0.0000000000
0.6571300000 0.0000000000 0.0000000000
0.6725570000 0.0000000000 0.0000000000
0.6879840000 0.0000000000 0.0000000000
0.7034260000 0.0000000000 0.0000000000
0.7188370000 0.0000000000 0.0000000000
0.7342790000 0.0000000000 0.0000000000
0.7497060000 0.0000000000 0.0000000000
0.7651480000 0.0000000000 0.0000000000
0.7805910000 0.0000000000 0.0000000000
0.7960020000 0.0000000000 0.0000000000
0.8114440000 0.0000000000 0.0000000000
0.8268710000 0.0000000000 0.0000000000
0.8423130000 0.0000000000 0.0000000000
0.8577550000 0.0000000000 0.0000000000
0.8731820000 0.0000000000 0.0000000000
0.8886240000 0.0000000000 0.0000000000
0.0000000000 0.0000000000 0.0000000000
0.0000000000 0.0000000000 0.0000000000
0.0000000000 0.0000000000 0.0000000000
0.0000000000 0.0000000000 0.0000000000
0.0000000000 0.0000000000 0.0000000000
0.0000000000 0.0000000000 0.0000000000
0.0000000000 0.0000000000 0.0000000000
0.0167544000 0.0000000000 0.0000000000
0.0383764000 0.0000000000 0.0000000000
0.0509041000 0.0000000000 0.0000000000
0.0638590000 0.0000000000 0.0000000000
0.0772259000 0.0000000000 0.0000000000
0.0909438000 0.0000000000 0.0000000000
0.1050130000 0.0000000000 0.0000000000
0.1193560000 0.0000000000 0.0000000000
0.1339740000 0.0000000000 0.0000000000
0.1488210000 0.0000000000 0.0000000000
0.1639120000 0.0000000000 0.0000000000
0.1791870000 0.0000000000 0.0000000000
0.1945370000 0.0000000000 0.0000000000
0.2099340000 0.0000000000 0.0000000000
0.2254060000 0.0000000000 0.0000000000
0.2409400000 0.0000000000 0.0000000000
0.2565040000 0.0000000000 0.0000000000
0.2720990000 0.0000000000 0.0000000000
0.2877090000 0.0000000000 0.0000000000
0.3033190000 0.0000000000 0.0000000000
0.3189440000 0.0000000000 0.0000000000
0.3345690000 0.0000000000 0.0000000000
0.3497830947 0.0000000000 0.0000000000
0.3650110506 0.0000000000 0.0000000000
0.3802850000 0.0000000000 0.0000000000
0.3955600000 0.0000000000 0.0000000000
0.4108799997 0.0000000000 0.0000000000
0.4262000000 0.0000000000 0.0000000000
0.4415350000 0.0000000000 0.0000000000
0.4568860000 0.0000000000 0.0000000000
0.4722510000 0.0000000000 0.0000000000
0.4876330000 0.0000000000 0.0000000000
0.5030140000 0.0000000000 0.0000000000
0.5184100000 0.0000000000 0.0000000000
0.5337910000 0.0000000000 0.0000000000
0.5492030000 0.0000000000 0.0000000000
0.5645990000 0.0000000000 0.0000000000
0.5800260000 0.0000000000 0.0000000000
0.5954530000 0.0000000000 0.0000000000
0.6108640000 0.0000000000 0.0000000000
0.6262760000 0.0000000000 0.0000000000
0.6417030000 0.0000000000 0.0000000000
0.6571300000 0.0000000000 0.0000000000
0.6725570000 0.0000000000 0.0000000000
0.6879840000 0.0000000000 0.0000000000
0.7034260000 0.0000000000 0.0000000000
0.7188370000 0.0000000000 0.0000000000
0.7342790000 0.0000000000 0.0000000000
0.7497060000 0.0000000000 0.0000000000
0.7651480000 0.0000000000 0.0000000000
0.7805910000 0.0000000000 0.0000000000
0.7960020000 0.0000000000 0.0000000000
0.8114440000 0.0000000000 0.0000000000
0.8268710000 0.0000000000 0.0000000000
0.8423130000 0.0000000000 0.0000000000
0.8577550000 0.0000000000 0.0000000000
0.8731820000 0.0000000000 0.0000000000
0.8886240000 0.0000000000 0.0000000000
0.0000000000 0.0000000000 0.0000000000
0.0000000000 0.0000000000 0.0000000000
0.0000000000 0.0000000000 0.0000000000
0.0000000000 0.0000000000 0.0000000000
0.0000000000 0.0000000000 0.0000000000
0.0000000000 0.0000000000 0.0000000000
0.0000000000 0.0000000000 0.0000000000
0.0167544000 0.0000000000 0.0000000000
0.0383764000 0.0000000000 0.0000000000
0.0509041000 0.0000000000 0.0000000000
0.0638590000 0.0000000000 0.0000000000
0.0772259000 0.0000000000 0.0000000000
0.0909438000 0.0000000000 0.0000000000
0.1050130000 0.0000000000 0.0000000000
0.1193560000 0.0000000000 0.0000000000
0.1339740000 0.0000000000 0.0000000000
0.1488210000 0.0000000000 0.0000000000
0.1639120000 0.0000000000 0.0000000000
0.1791870000 0.0000000000 0.0000000000
0.1945370000 0.0000000000 0.0000000000
0.2099340000 0.0000000000 0.0000000000
0.2254060000 0.0000000000 0.0000000000
0.2409400000 0.0000000000 0.0000000000
0.2565040000 0.0000000000 0.0000000000
0.2720990000 0.0000000000 0.0000000000
0.2877090000 0.0000000000 0.0000000000
0.3033190000 0.0000000000 0.0000000000
0.3189440000 0.0000000000 0.0000000000
0.3345690000 0.0000000000 0.0000000000
0.3497830947 0.0000000000 0.0000000000
0.3650110506 0.0000000000 0.0000000000
0.3802850000 0.0000000000 0.0000000000
0.3955600000 0.0000000000 0.0000000000
0.4108799997 0.0000000000 0.0000000000
0.4262000000 0.0000000000 0.0000000000
0.4415350000 0.0000000000 0.0000000000
0.4568860000 0.0000000000 0.0000000000
0.4722510000 0.0000000000 0.0000000000
0.4876330000 0.0000000000 0.0000000000
0.5030140000 0.0000000000 0.0000000000
0.5184100000 0.0000000000 0.0000000000
0.5337910000 0.0000000000 0.0000000000
0.5492030000 0.0000000000 0.0000000000
0.5645990000 0.0000000000 0.0000000000
0.5800260000 0.0000000000 0.0000000000
0.5954530000 0.0000000000 0.0000000000
0.6108640000 0.0000000000 0.0000000000
0.6262760000 0.0000000000 0.0000000000
0.6417030000 0.0000000000 0.0000000000
0.6571300000 0.0000000000 0.0000000000
0.6725570000 0.0000000000 0.0000000000
0.6879840000 0.0000000000 0.0000000000
0.7034260000 0.0000000000 0.0000000000
0.7188370000 0.0000000000 0.0000000000
0.7342790000 0.0000000000 0.0000000000
0.7497060000 0.0000000000 0.0000000000
0.7651480000 0.0000000000 0.0000000000
0.7805910000 0.0000000000 0.0000000000
0.7960020000 0.0000000000 0.0000000000
0.8114440000 0.0000000000 0.0000000000
0.8268710000 0.0000000000 0.0000000000
0.8423130000 0.0000000000 0.0000000000
0.8577550000 0.0000000000 0.0000000000
0.8731820000 0.0000000000 0.0000000000
0.8886240000 0.0000000000 0.0000000000
0.0000000000 0.0000000000 0.0000000000
0.0000000000 0.0000000000 0.0000000000
0.0000000000 0.0000000000 0.0000000000
0.0000000000 0.0000000000 0.0000000000
0.0000000000 0.0000000000 0.0000000000
0.0000000000 0.0000000000 0.0000000000
0.0000000000 0.0000000000 0.0000000000
0.0167544000 0.0000000000 0.0000000000
0.0383764000 0.0000000000 0.0000000000
0.0509041000 0.0000000000 0.0000000000
0.0638590000 0.0000000000 0.0000000000
0.0772259000 0.0000000000 0.0000000000
0.0909438000 0.0000000000 0.0000000000
0.1050130000 0.0000000000 0.0000000000
0.1193560000 0.0000000000 0.0000000000
0.1339740000 0.0000000000 0.0000000000
0.1488210000 0.0000000000 0.0000000000
0.1639120000 0.0000000000 0.0000000000
0.1791870000 0.0000000000 0.0000000000
0.1945370000 0.0000000000 0.0000000000
0.2099340000 0.0000000000 0.0000000000
0.2254060000 0.0000000000 0.0000000000
0.2409400000 0.0000000000 0.0000000000
0.2565040000 0.0000000000 0.0000000000
0.2720990000 0.0000000000 0.0000000000
0.2877090000 0.0000000000 0.0000000000
0.3033190000 0.0000000000 0.0000000000
0.3189440000 0.0000000000 0.0000000000
0.3345690000 0.0000000000 0.0000000000
0.3497830947 0.0000000000 0.0000000000
0.3650110506 0.0000000000 0.0000000000
0.3802850000 0.0000000000 0.0000000000
0.3955600000 0.0000000000 0.0000000000
0.4108799997 0.0000000000 0.0000000000
0.4262000000 0.0000000000 0.0000000000
0.4415350000 0.0000000000 0.0000000000
0.4568860000 0.0000000000 0.0000000000
0.4722510000 0.0000000000 0.0000000000
0.4876330000 0.0000000000 0.0000000000
0.5030140000 0.0000000000 0.0000000000
0.5184100000 0.0000000000 0.0000000000
0.5337910000 0.0000000000 0.0000000000
0.5492030000 0.0000000000 0.0000000000
0.5645990000 0.0000000000 0.0000000000
0.5800260000 0.0000000000 0.0000000000
0.5954530000 0.0000000000 0.0000000000
0.6108640000 0.0000000000 0.0000000000
0.6262760000 0.0000000000 0.0000000000
0.6417030000 0.0000000000 0.0000000000
0.6571300000 0.0000000000 0.0000000000
0.6725570000 0.0000000000 0.0000000000
0.6879840000 0.0000000000 0.0000000000
0.7034260000 0.0000000000 0.0000000000
0.7188370000 0.0000000000 0.0000000000
0.7342790000 0.0000000000 0.0000000000
0.7497060000 0.0000000000 0.0000000000
0.7651480000 0.0000000000 0.0000000000
0.7805910000 0.0000000000 0.0000000000
0.7960020000 0.0000000000 0.0000000000
0.8114440000 0.0000000000 0.0000000000
0.8268710000 0.0000000000 0.0000000000
0.8423130000 0.0000000000 0.0000000000
0.8577550000 0.0000000000 0.0000000000
0.8731820000 0.0000000000 0.0000000000
0.8886240000 0.0000000000 0.0000000000
0.0000000000 0.0000000000 0.0000000000
0.0000000000 0.0000000000 0.0000000000
0.0000000000 0.0000000000 0.0000000000
0.0000000000 0.0000000000 0.0000000000
0.0000000000 0.0000000000 0.0000000000
0.0000000000 0.0000000000 0.0000000000
0.0000000000 0.0000000000 0.0000000000
0.0230869000 0.0000000000 0.0000000000
0.0437629000 0.0000000000 0.0000000000
0.0556979605 0.0000000000 0.0000000000
0.0681621000 0.0000000000 0.0000000000
0.0811017000 0.0000000000 0.0000000000
0.0944533000 0.0000000000 0.0000000000
0.1082020000 0.0000000000 0.0000000000
0.1222710000 0.0000000000 0.0000000000
0.1366600000 0.0000000000 0.0000000000
0.1511710000 0.0000000000 0.0000000000
0.1659420000 0.0000000000 0.0000000000
0.1809410000 0.0000000000 0.0000000000
0.1960480000 0.0000000000 0.0000000000
0.2112460000 0.0000000000 0.0000000000
0.2265350000 0.0000000000 0.0000000000
0.2419010000 0.0000000000 0.0000000000
0.2573430000 0.0000000000 0.0000000000
0.2728310000 0.0000000000 0.0000000000
0.2883340000 0.0000000000 0.0000000000
0.3038680000 0.0000000000 0.0000000000
0.3194170000 0.0000000000 0.0000000000
0.3349810000 0.0000000000 0.0000000000
0.3501340263 0.0000000000 0.0000000000
0.3653162287 0.0000000000 0.0000000000
0.3805450000 0.0000000000 0.0000000000
0.3957890000 0.0000000000 0.0000000000
0.4110779977 0.0000000000 0.0000000000
0.4263680000 0.0000000000 0.0000000000
0.4416720000 0.0000000000 0.0000000000
0.4570080000 0.0000000000 0.0000000000
0.4723580000 0.0000000000 0.0000000000
0.4877240000 0.0000000000 0.0000000000
0.5030900000 0.0000000000 0.0000000000
0.5184860000 0.0000000000 0.0000000000
0.5338520000 0.0000000000 0.0000000000
0.5492490000 0.0000000000 0.0000000000
0.5646450000 0.0000000000 0.0000000000
0.5800720000 0.0000000000 0.0000000000
0.5954830000 0.0000000000 0.0000000000
0.6108950000 0.0000000000 0.0000000000
0.6263070000 0.0000000000 0.0000000000
0.6417330000 0.0000000000 0.0000000000
0.6571450000 0.0000000000 0.0000000000
0.6725720000 0.0000000000 0.0000000000
0.6879990000 0.0000000000 0.0000000000
0.7034260000 0.0000000000 0.0000000000
0.7188530000 0.0000000000 0.0000000000
0.7342950000 0.0000000000 0.0000000000
0.7497060000 0.0000000000 0.0000000000
0.7651480000 0.0000000000 0.0000000000
0.7805910000 0.0000000000 0.0000000000
0.7960170000 0.0000000000 0.0000000000
0.8114600000 0.0000000000 0.0000000000
0.8268710000 0.0000000000 0.0000000000
0.8423130000 0.0000000000 0.0000000000
0.8577550000 0.0000000000 0.0000000000
0.8731820000 0.0000000000 0.0000000000
0.8886240000 0.0000000000 0.0000000000
0.0000000000 0.0299535000 0.0000000000
0.0000000000 0.0299535000 0.0000000000
0.0000000000 0.0299535000 0.0000000000
0.0000000000 0.0299535000 0.0000000000
0.0000000000 0.0299535000 0.0000000000
0.0000000000 0.0299535000 0.0000000000
0.0000000000 0.0281224000 0.0000000000
0.0241398000 0.0235447000 0.0000000000
0.0477607000 0.0237736000 0.0000000000
0.0610513000 0.0230259000 0.0000000000
0.0745098000 0.0215763000 0.0000000000
0.0881819000 0.0194858000 0.0000000000
0.1005110000 0.0179294000 0.0000000000
0.1132980000 0.0165103000 0.0000000000
0.1265886588 0.0150912000 0.0000000000
0.1403070000 0.0136416000 0.0000000000
0.1544060000 0.0120887739 0.0000000000
0.1688560000 0.0103914000 0.0000000000
0.1835810000 0.0085145300 0.0000000000
0.1984590000 0.0063935300 0.0000000000
0.2134740000 0.0039826000 0.0000000000
0.2286110000 0.0012359800 0.0000000000
0.2438090000 0.0000000000 0.0000000000
0.2589760000 0.0000000000 0.0000000000
0.2742350000 0.0000000000 0.0000000000
0.2895400000 0.0000000000 0.0000000000
0.3049060000 0.0000000000 0.0000000000
0.3203020000 0.0000000000 0.0000000000
0.3357440000 0.0000000000 0.0000000000
0.3507900000 0.0000000000 0.0000000000
0.3658960089 0.0000000000 0.0000000000
0.3810350431 0.0000000000 0.0000000000
0.3962160000 0.0000000000 0.0000000000
0.4114439760 0.0000000000 0.0000000000
0.4266880000 0.0000000000 0.0000000000
0.4419470000 0.0000000000 0.0000000000
0.4572520000 0.0000000000 0.0000000000
0.4725720000 0.0000000000 0.0000000000
0.4879070000 0.0000000000 0.0000000000
0.5032580000 0.0000000000 0.0000000000
0.5186080000 0.0000000000 0.0000000000
0.5339740000 0.0000000000 0.0000000000
0.5493550000 0.0000000000 0.0000000000
0.5647360000 0.0000000000 0.0000000000
0.5801480000 0.0000000000 0.0000000000
0.5955440000 0.0000000000 0.0000000000
0.6109410000 0.0000000000 0.0000000000
0.6263520000 0.0000000000 0.0000000000
0.6417640000 0.0000000000 0.0000000000
0.6571760000 0.0000000000 0.0000000000
0.6726020000 0.0000000000 0.0000000000
0.6880290000 0.0000000000 0.0000000000
0.7034560000 0.0000000000 0.0000000000
0.7188680000 0.0000000000 0.0000000000
0.7343100000 0.0000000000 0.0000000000
0.7497220000 0.0000000000 0.0000000000
0.7651640000 0.0000000000 0.0000000000
0.7806060000 0.0000000000 0.0000000000
0.7960170000 0.0000000000 0.0000000000
0.8114600000 0.0000000000 0.0000000000
0.8268860000 0.0000000000 0.0000000000
0.8423290000 0.0000000000 0.0000000000
0.8577550000 0.0000000000 0.0000000000
0.8731820000 0.0000000000 0.0000000000
0.8886240000 0.0000000000 0.0000000000
0.0000000000 0.0556519676 0.0000000000
0.0000000000 0.0556519676 0.0000000000
0.0000000000 0.0556519676 0.0000000000
0.0000000000 0.0556519676 0.0000000000
0.0000000000 0.0556519676 0.0000000000
0.0000000000 0.0556519676 0.0000000000
0.0058594600 0.0546578000 0.0000000000
0.0294347000 0.0503853000 0.0000000000
0.0483711000 0.0475929000 0.0000000000
0.0610666000 0.0478523000 0.0000000000
0.0750134000 0.0479591000 0.0000000000
0.0890211000 0.0472572000 0.0000000000
0.1031200000 0.0457618000 0.0000000000
0.1173570000 0.0434882000 0.0000000000
0.1308770000 0.0410163000 0.0000000000
0.1438930000 0.0391241000 0.0000000000
0.1573970000 0.0372320000 0.0000000000
0.1713590000 0.0352636000 0.0000000000
0.1856870000 0.0331579000 0.0000000000
0.2002440000 0.0308537000 0.0000000000
0.2149840000 0.0282750000 0.0000000000
0.2298920000 0.0253452000 0.0000000000
0.2449530000 0.0220340000 0.0000000000
0.2601050000 0.0182803000 0.0000000000
0.2753640000 0.0139925000 0.0000000000
0.2906080000 0.0081025400 0.0000000000
0.3058210000 0.0000000000 0.0000000000
0.3210960000 0.0000000000 0.0000000000
0.3364160000 0.0000000000 0.0000000000
0.3513850000 0.0000000000 0.0000000000
0.3664000000 0.0000000000 0.0000000000
0.3814765934 0.0000000000 0.0000000000
0.3965970000 0.0000000000 0.0000000000
0.4117649201 0.0000000000 0.0000000000
0.4269630000 0.0000000000 0.0000000000
0.4421910000 0.0000000000 0.0000000000
0.4574649764 0.0000000000 0.0000000000
0.4727550000 0.0000000000 0.0000000000
0.4880599999 0.0000000000 0.0000000000
0.5033800001 0.0000000000 0.0000000000
0.5187300000 0.0000000000 0.0000000000
0.5340810000 0.0000000000 0.0000000000
0.5494470000 0.0000000000 0.0000000000
0.5648130000 0.0000000000 0.0000000000
0.5802090000 0.0000000000 0.0000000000
0.5956050000 0.0000000000 0.0000000000
0.6109860000 0.0000000000 0.0000000000
0.6263980000 0.0000000000 0.0000000000
0.6418100000 0.0000000000 0.0000000000
0.6572060000 0.0000000000 0.0000000000
0.6726330000 0.0000000000 0.0000000000
0.6880450000 0.0000000000 0.0000000000
0.7034710000 0.0000000000 0.0000000000
0.7188830000 0.0000000000 0.0000000000
0.7343250000 0.0000000000 0.0000000000
0.7497370000 0.0000000000 0.0000000000
0.7651790000 0.0000000000 0.0000000000
0.7806060000 0.0000000000 0.0000000000
0.7960330000 0.0000000000 0.0000000000
0.8114750000 0.0000000000 0.0000000000
0.8268860000 0.0000000000 0.0000000000
0.8423290000 0.0000000000 0.0000000000
0.8577710000 0.0000000000 0.0000000000
0.8731980000 0.0000000000 0.0000000000
0.8886400000 0.0000000000 0.0000000000
0.0000000000 0.0698100000 0.0058594600
0.0000000000 0.0698100000 0.0058594600
0.0000000000 0.0698100000 0.0058594600
0.0000000000 0.0698100000 0.0058594600
0.0000000000 0.0698100000 0.0058594600
0.0000000000 0.0698100000 0.0058594600
0.0096284400 0.0691997000 0.0051575500
0.0330663000 0.0654765000 0.0000000000
0.0509651000 0.0621195000 0.0000000000
0.0618753000 0.0610208000 0.0000000000
0.0748455000 0.0612802000 0.0000000000
0.0891280000 0.0614633000 0.0000000000
0.1034410000 0.0608225000 0.0000000000
0.1178300000 0.0593881000 0.0000000000
0.1323110000 0.0571298000 0.0000000000
0.1464560000 0.0543221000 0.0000000000
0.1595330000 0.0522621000 0.0000000000
0.1731439885 0.0502174000 0.0000000000
0.1871670000 0.0481117000 0.0000000000
0.2014950000 0.0458839000 0.0000000000
0.2160220000 0.0434577000 0.0000000000
0.2307770000 0.0407416000 0.0000000000
0.2457010000 0.0376440000 0.0000000000
0.2607460000 0.0340734000 0.0000000000
