bundles/resolve-cinematic-luts/Gamut/The Creator/gamut - CREATOR (DWG)/DWG_Creator 06 - Warm.cube
TITLE "Creator LUT 06 by Gamut"
# Version 1.0 - 11/18/2025 - Designed for DaVinci Intermediate / DaVinci Wide Gamut for both Input and Output. Copyright 2025 Gamut, LLC.
LUT_3D_SIZE 65
0.0336156000 0.0317540000 0.0302739000
0.0384680000 0.0343175000 0.0328374000
0.0436408000 0.0372778000 0.0359655000
0.0498817000 0.0413672000 0.0397498000
0.0582284000 0.0465705000 0.0446632000
0.0671092000 0.0522469000 0.0500343000
0.0777752000 0.0592203000 0.0563363000
0.0886549000 0.0664988000 0.0630961000
0.0994278000 0.0733501000 0.0692607000
0.1119710000 0.0806744000 0.0755474000
0.1262070000 0.0886549000 0.0826123000
0.1416490000 0.0965286000 0.0891585000
0.1588620000 0.1044940000 0.0959487000
0.1770810000 0.1127790000 0.1026320000
0.1954680000 0.1210040000 0.1091480000
0.2136570000 0.1292900000 0.1160140000
0.2317240000 0.1379570000 0.1231400000
0.2472720000 0.1457540000 0.1299920000
0.2630350000 0.1543450000 0.1376970000
0.2788280000 0.1632720000 0.1459980000
0.2952320000 0.1730070000 0.1554890000
0.3116660000 0.1830320000 0.1655150000
0.3278550000 0.1928740000 0.1754790000
0.3438930000 0.2030520000 0.1855650000
0.3593800000 0.2128330000 0.1955600000
0.3740290000 0.2224920000 0.2053250000
0.3873350000 0.2315100000 0.2143280000
0.3997250000 0.2398110000 0.2226750000
0.4108190000 0.2474860000 0.2302130000
0.4207520000 0.2546580000 0.2371100000
0.4298770000 0.2614790000 0.2436710000
0.4387880000 0.2680090000 0.2497900000
0.4469370000 0.2743110000 0.2557410000
0.4545510000 0.2804300000 0.2612800000
0.4617530000 0.2866870000 0.2665600000
0.4685740000 0.2927750000 0.2718390000
0.4750900000 0.2986950000 0.2766460000
0.4814530000 0.3046010000 0.2812090000
0.4872510000 0.3107650000 0.2859390000
0.4921190000 0.3165030000 0.2898910000
0.4970470000 0.3222860000 0.2939960000
0.5011670000 0.3284050000 0.2979630000
0.5049970000 0.3345080000 0.3017930000
0.5087210000 0.3408250000 0.3057150000
0.5121690000 0.3472950000 0.3098800000
0.5160450000 0.3543910000 0.3144120000
0.5193100000 0.3614710000 0.3189590000
0.5226060000 0.3681700000 0.3238880000
0.5257650000 0.3754790000 0.3290610000
0.5293200000 0.3833220000 0.3347980000
0.5327690000 0.3917140000 0.3410240000
0.5367820000 0.4008540000 0.3479360000
0.5407030000 0.4103910000 0.3553370000
0.5451290000 0.4205840000 0.3630580000
0.5501950000 0.4323490000 0.3725340000
0.5555810000 0.4447390000 0.3825280000
0.5618370000 0.4578320000 0.3935000000
0.5683220000 0.4710920000 0.4044250000
0.5753110000 0.4840620000 0.4152440000
0.5822840000 0.4969410000 0.4262150000
0.5894710000 0.5092550000 0.4371250000
0.5969020000 0.5211110000 0.4480050000
0.6048220000 0.5329060000 0.4591290000
0.6129700000 0.5440910000 0.4702830000
0.6215920000 0.5557790000 0.4820480000
0.0361486000 0.0357671000 0.0327611000
0.0397650000 0.0379187000 0.0346990000
0.0447395000 0.0399329000 0.0371252000
0.0511025000 0.0428016000 0.0405737000
0.0602579000 0.0480964000 0.0457923000
0.0702373000 0.0542458000 0.0518349000
0.0816815000 0.0619211000 0.0590677000
0.0926986000 0.0690471000 0.0653849000
0.1032580000 0.0758068000 0.0711223000
0.1158160000 0.0829938000 0.0776074000
0.1302360000 0.0905776000 0.0841688000
0.1458000000 0.0983291000 0.0909285000
0.1627530000 0.1062490000 0.0975662000
0.1804990000 0.1143510000 0.1038830000
0.1984590000 0.1223470000 0.1102010000
0.2162510000 0.1305260000 0.1170060000
0.2336610000 0.1389490000 0.1239800000
0.2489510000 0.1466390000 0.1307550000
0.2644390000 0.1551080000 0.1383690000
0.2801100000 0.1640190000 0.1467000000
0.2963610000 0.1736930000 0.1561610000
0.3125510000 0.1835510000 0.1660180000
0.3286950000 0.1934080000 0.1760130000
0.3446250000 0.2035100000 0.1859920000
0.3598380000 0.2132600000 0.1959560000
0.3744870000 0.2228120000 0.2056460000
0.3877470000 0.2317540000 0.2146180000
0.4000460000 0.2400240000 0.2229040000
0.4110930000 0.2476540000 0.2304110000
0.4209200000 0.2548100000 0.2372780000
0.4300300000 0.2616160000 0.2437780000
0.4388800000 0.2681320000 0.2498970000
0.4470590000 0.2744180000 0.2558020000
0.4546430000 0.2805220000 0.2613410000
0.4618300000 0.2867480000 0.2666060000
0.4686500000 0.2928510000 0.2718850000
0.4751350000 0.2987720000 0.2766920000
0.4814980000 0.3046770000 0.2812390000
0.4873120000 0.3108260000 0.2859850000
0.4921640000 0.3165790000 0.2899210000
0.4970930000 0.3223770000 0.2940410000
0.5012130000 0.3284810000 0.2979930000
0.5050580000 0.3345690000 0.3018390000
0.5087360000 0.3408870000 0.3057300000
0.5122000000 0.3473560000 0.3098950000
0.5160600000 0.3544370000 0.3144270000
0.5193260000 0.3615170000 0.3189750000
0.5226220000 0.3682150000 0.3238880000
0.5257800000 0.3755090000 0.3290610000
0.5293350000 0.3833520000 0.3347980000
0.5327840000 0.3917300000 0.3410240000
0.5367820000 0.4008700000 0.3479210000
0.5407030000 0.4104070000 0.3553370000
0.5451290000 0.4206150000 0.3630730000
0.5502100000 0.4323640000 0.3725340000
0.5555810000 0.4447550000 0.3825280000
0.5618370000 0.4578470000 0.3935000000
0.5683220000 0.4711070000 0.4044250000
0.5753110000 0.4840770000 0.4152440000
0.5822690000 0.4969410000 0.4262150000
0.5894710000 0.5092700000 0.4371250000
0.5969020000 0.5211260000 0.4479900000
0.6048220000 0.5329060000 0.4591290000
0.6129550000 0.5440910000 0.4702830000
0.6215920000 0.5557790000 0.4820330000
0.0389105000 0.0393530000 0.0354467000
0.0419318000 0.0427863000 0.0376287000
0.0458534000 0.0441749000 0.0391089000
0.0512551000 0.0459449000 0.0418708000
0.0602274000 0.0504463000 0.0463417000
0.0697642000 0.0555734000 0.0520180000
0.0810407000 0.0623484000 0.0586557000
0.0927749000 0.0694591000 0.0654765000
0.1043410000 0.0766613000 0.0716869000
0.1178000000 0.0842298000 0.0785687000
0.1326920000 0.0919814000 0.0852979000
0.1488360000 0.0997635000 0.0920729000
0.1658810000 0.1077130000 0.0986954000
0.1834290000 0.1156180000 0.1050430000
0.2010070000 0.1235070000 0.1111160000
0.2184630000 0.1316400000 0.1178300000
0.2353550000 0.1398340000 0.1247120000
0.2504920000 0.1474780000 0.1315020000
0.2656140000 0.1556730000 0.1388570000
0.2813150000 0.1647210000 0.1473720000
0.2974290000 0.1743500000 0.1567860000
0.3133900000 0.1839630000 0.1665060000
0.3294880000 0.1939120000 0.1765160000
0.3452960000 0.2039520000 0.1864190000
0.3603110000 0.2136420000 0.1963380000
0.3749900000 0.2231020000 0.2059970000
0.3881440000 0.2319830000 0.2149080000
0.4003510000 0.2402230000 0.2231330000
0.4113530000 0.2478220000 0.2306100000
0.4210880000 0.2549480000 0.2374300000
0.4301820000 0.2617380000 0.2438850000
0.4389720000 0.2682380000 0.2499890000
0.4471500000 0.2745250000 0.2558630000
0.4547340000 0.2806130000 0.2614020000
0.4619060000 0.2868090000 0.2666670000
0.4687110000 0.2929270000 0.2719160000
0.4751960000 0.2988480000 0.2767220000
0.4815750000 0.3047530000 0.2812850000
0.4873730000 0.3109030000 0.2860300000
0.4922100000 0.3166400000 0.2899520000
0.4971390000 0.3224540000 0.2940720000
0.5012440000 0.3285420000 0.2980090000
0.5050890000 0.3346300000 0.3018850000
0.5087660000 0.3409480000 0.3057450000
0.5122300000 0.3474170000 0.3099110000
0.5160750000 0.3544820000 0.3144270000
0.5193410000 0.3615470000 0.3189750000
0.5226370000 0.3682460000 0.3239030000
0.5257950000 0.3755400000 0.3290610000
0.5293510000 0.3833830000 0.3347980000
0.5327840000 0.3917600000 0.3410090000
0.5367820000 0.4008850000 0.3479210000
0.5407030000 0.4104220000 0.3553220000
0.5451440000 0.4206300000 0.3630730000
0.5502100000 0.4323950000 0.3725340000
0.5555810000 0.4447700000 0.3825280000
0.5618520000 0.4578620000 0.3935000000
0.5683220000 0.4711380000 0.4044250000
0.5753260000 0.4840920000 0.4152440000
0.5822840000 0.4969560000 0.4262150000
0.5894710000 0.5092700000 0.4371100000
0.5969020000 0.5211260000 0.4479900000
0.6048220000 0.5329210000 0.4591290000
0.6129550000 0.5440910000 0.4702830000
0.6215920000 0.5557790000 0.4820330000
0.0425422000 0.0436561000 0.0382544000
0.0453346000 0.0472114000 0.0407721000
0.0479896000 0.0489815000 0.0424506000
0.0522621000 0.0506905000 0.0440986000
0.0602731000 0.0537728000 0.0479286000
0.0699168000 0.0589761000 0.0529030000
0.0808576000 0.0646372000 0.0588235000
0.0925612000 0.0712444000 0.0655985000
0.1044480000 0.0779278000 0.0719615000
0.1179980000 0.0851453000 0.0786145000
0.1332570000 0.0927901000 0.0856641000
0.1501180000 0.1007250000 0.0926528000
0.1679260000 0.1087970000 0.0993515000
0.1855500000 0.1167470000 0.1059890000
0.2031590000 0.1246200000 0.1120470000
0.2205690000 0.1327690000 0.1185470000
0.2366520000 0.1405970000 0.1253380000
0.2519110000 0.1482720000 0.1321890000
0.2670330000 0.1564810000 0.1395740000
0.2826120000 0.1654840000 0.1480740000
0.2985890000 0.1750510000 0.1574730000
0.3145190000 0.1845730000 0.1672390000
0.3303580000 0.1944760000 0.1770500000
0.3460440000 0.2044560000 0.1869230000
0.3609220000 0.2140540000 0.1967500000
0.3755550000 0.2234380000 0.2063940000
0.3886020000 0.2322580000 0.2152280000
0.4006710000 0.2404520000 0.2233460000
0.4116270000 0.2480200000 0.2307930000
0.4212860000 0.2551000000 0.2376130000
0.4303650000 0.2618910000 0.2440070000
0.4390940000 0.2683760000 0.2500800000
0.4472420000 0.2746470000 0.2559240000
0.4548260000 0.2807200000 0.2614790000
0.4619820000 0.2868700000 0.2667120000
0.4688030000 0.2930190000 0.2719620000
0.4752730000 0.2989240000 0.2767680000
0.4816210000 0.3048450000 0.2813310000
0.4874340000 0.3109790000 0.2860910000
0.4922560000 0.3167160000 0.2899820000
0.4971850000 0.3225300000 0.2941020000
0.5012890000 0.3286340000 0.2980390000
0.5051500000 0.3347070000 0.3019150000
0.5087820000 0.3410090000 0.3057600000
0.5122610000 0.3474630000 0.3099260000
0.5161060000 0.3545430000 0.3144580000
0.5193710000 0.3615930000 0.3189750000
0.5226520000 0.3682920000 0.3239030000
0.5258110000 0.3755860000 0.3290760000
0.5293660000 0.3834130000 0.3347980000
0.5327990000 0.3917910000 0.3410090000
0.5367820000 0.4009000000 0.3479060000
0.5407190000 0.4104370000 0.3553220000
0.5451590000 0.4206610000 0.3630730000
0.5502100000 0.4324100000 0.3725340000
0.5555960000 0.4448000000 0.3825280000
0.5618520000 0.4578770000 0.3935000000
0.5683380000 0.4711530000 0.4044250000
0.5753260000 0.4841080000 0.4152440000
0.5822840000 0.4969710000 0.4262000000
0.5894710000 0.5092700000 0.4371100000
0.5969020000 0.5211260000 0.4479740000
0.6048220000 0.5329210000 0.4591130000
0.6129550000 0.5440910000 0.4702680000
0.6215760000 0.5557790000 0.4820170000
0.0459907000 0.0480354000 0.0413367000
0.0491493000 0.0519570000 0.0441444000
0.0513161000 0.0546731000 0.0457618000
0.0543069000 0.0557412000 0.0471656000
0.0598917000 0.0581979000 0.0494850000
0.0698100000 0.0628977000 0.0545510000
0.0806744000 0.0685283000 0.0602731000
0.0925002000 0.0746929000 0.0660105000
0.1050890000 0.0810407000 0.0726024000
0.1184250000 0.0874647000 0.0791180000
0.1337610000 0.0947890000 0.0860761000
0.1505150000 0.1020980000 0.0928511000
0.1685360000 0.1098650000 0.0996567000
0.1868010000 0.1177230000 0.1064620000
0.2049290000 0.1255660000 0.1127950000
0.2222320000 0.1335930000 0.1191120000
0.2381630000 0.1414050000 0.1259780000
0.2531780000 0.1490650000 0.1328450000
0.2685440000 0.1573970000 0.1403830000
0.2839860000 0.1663230000 0.1488360000
0.2998400000 0.1758300000 0.1582210000
0.3156480000 0.1852750000 0.1679410000
0.3313650000 0.1951170000 0.1775690000
0.3467920000 0.2049290000 0.1873810000
0.3616240000 0.2145270000 0.1972080000
0.3761650000 0.2238040000 0.2068360000
0.3890750000 0.2325780000 0.2155640000
0.4010220000 0.2407260000 0.2235900000
0.4119330000 0.2482490000 0.2310060000
0.4215000000 0.2552830000 0.2378120000
0.4305490000 0.2620580000 0.2441440000
0.4392160000 0.2685280000 0.2502020000
0.4473490000 0.2747690000 0.2560010000
0.4549480000 0.2808420000 0.2615550000
0.4620740000 0.2869460000 0.2667890000
0.4688940000 0.2931260000 0.2719920000
0.4753340000 0.2990160000 0.2768140000
0.4816970000 0.3049360000 0.2813760000
0.4875260000 0.3110700000 0.2861520000
0.4923020000 0.3168080000 0.2900130000
0.4972460000 0.3226210000 0.2941480000
0.5013350000 0.3287100000 0.2980700000
0.5052110000 0.3347830000 0.3019760000
0.5088120000 0.3411000000 0.3057910000
0.5122910000 0.3475550000 0.3099570000
0.5161210000 0.3546040000 0.3144730000
0.5193870000 0.3616540000 0.3189900000
0.5226670000 0.3683380000 0.3239030000
0.5258260000 0.3756310000 0.3290760000
0.5293660000 0.3834590000 0.3347980000
0.5327990000 0.3918210000 0.3410090000
0.5367820000 0.4009160000 0.3478900000
0.5407190000 0.4104680000 0.3553060000
0.5451590000 0.4206910000 0.3630730000
0.5502250000 0.4324410000 0.3725340000
0.5555960000 0.4448160000 0.3825280000
0.5618520000 0.4579080000 0.3935150000
0.5683380000 0.4711680000 0.4044250000
0.5753260000 0.4841230000 0.4152440000
0.5822840000 0.4969710000 0.4262000000
0.5894710000 0.5092850000 0.4370950000
0.5969020000 0.5211260000 0.4479740000
0.6048220000 0.5329210000 0.4591130000
0.6129550000 0.5440910000 0.4702530000
0.6215760000 0.5557790000 0.4820170000
0.0501411000 0.0532845000 0.0448005000
0.0527810000 0.0570230000 0.0472419000
0.0555428000 0.0603952000 0.0496529000
0.0578012000 0.0619821000 0.0510414000
0.0610361000 0.0628977000 0.0523690000
0.0695048000 0.0675212000 0.0561227000
0.0802777000 0.0726482000 0.0617227000
0.0924239000 0.0791180000 0.0678874000
0.1049360000 0.0855421000 0.0735027000
0.1195850000 0.0920729000 0.0797589000
0.1355310000 0.0993362000 0.0869306000
0.1519190000 0.1057600000 0.0935836000
0.1690850000 0.1122910000 0.0998245000
0.1873810000 0.1194020000 0.1067060000
0.2056000000 0.1266350000 0.1129930000
0.2234680000 0.1345690000 0.1196610000
0.2395210000 0.1423670000 0.1266040000
0.2546430000 0.1500270000 0.1335620000
0.2698100000 0.1583890000 0.1412220000
0.2852060000 0.1672390000 0.1496600000
0.3011980000 0.1766080000 0.1590450000
0.3168540000 0.1860690000 0.1686730000
0.3324640000 0.1958500000 0.1781340000
0.3475700000 0.2054020000 0.1878390000
0.3624020000 0.2150760000 0.1977420000
0.3767910000 0.2242470000 0.2072330000
0.3895780000 0.2329590000 0.2159000000
0.4014340000 0.2410320000 0.2238650000
0.4121920000 0.2484470000 0.2311590000
0.4217900000 0.2554970000 0.2380410000
0.4307770000 0.2622570000 0.2443120000
0.4393530000 0.2687110000 0.2503400000
0.4474860000 0.2749370000 0.2560920000
0.4550700000 0.2809800000 0.2616460000
0.4621810000 0.2870370000 0.2668500000
0.4689860000 0.2932480000 0.2720530000
0.4754410000 0.2991380000 0.2768750000
0.4817880000 0.3050580000 0.2814370000
0.4876170000 0.3111620000 0.2862130000
0.4923780000 0.3169150000 0.2900590000
0.4973070000 0.3227440000 0.2941940000
0.5013810000 0.3288170000 0.2981160000
0.5052720000 0.3348900000 0.3020220000
0.5088430000 0.3411920000 0.3058210000
0.5123370000 0.3476310000 0.3099720000
0.5161210000 0.3546650000 0.3144730000
0.5194170000 0.3617150000 0.3190050000
0.5226830000 0.3683990000 0.3239190000
0.5258410000 0.3756770000 0.3290760000
0.5293970000 0.3835050000 0.3347980000
0.5328150000 0.3918520000 0.3409930000
0.5367970000 0.4009610000 0.3478900000
0.5407190000 0.4104830000 0.3552910000
0.5451740000 0.4207220000 0.3630880000
0.5502250000 0.4324710000 0.3725490000
0.5556110000 0.4448460000 0.3825280000
0.5618680000 0.4579380000 0.3935000000
0.5683530000 0.4711990000 0.4044400000
0.5753410000 0.4841540000 0.4152440000
0.5822840000 0.4969860000 0.4262000000
0.5894710000 0.5092850000 0.4370950000
0.5969020000 0.5211410000 0.4479590000
0.6048220000 0.5329210000 0.4591130000
0.6129550000 0.5440910000 0.4702530000
0.6215760000 0.5557790000 0.4820020000
0.0545510000 0.0593118000 0.0487831000
0.0572366000 0.0625162000 0.0511025000
0.0596475000 0.0656291000 0.0529335000
0.0621042000 0.0690013000 0.0553902000
0.0647746000 0.0698711000 0.0565042000
0.0690776000 0.0712749000 0.0584268000
0.0794080000 0.0772259000 0.0630655000
0.0916915000 0.0832837000 0.0691081000
0.1043720000 0.0896315000 0.0749981000
0.1177540000 0.0961929000 0.0807355000
0.1344010000 0.1036850000 0.0873579000
0.1537040000 0.1112990000 0.0947585000
0.1712520000 0.1173420000 0.1009690000
0.1886930000 0.1231400000 0.1071790000
0.2064090000 0.1292740000 0.1133750000
0.2243840000 0.1363700000 0.1202560000
0.2406960000 0.1435720000 0.1271230000
0.2558630000 0.1511710000 0.1341880000
0.2711830000 0.1594570000 0.1419850000
0.2866410000 0.1683070000 0.1505300000
0.3022960000 0.1773860000 0.1598380000
0.3180290000 0.1869840000 0.1694970000
0.3336690000 0.1966740000 0.1788820000
0.3486230000 0.2061190000 0.1885250000
0.3633940000 0.2156710000 0.1984280000
0.3774620000 0.2247650000 0.2077210000
0.3901580000 0.2333870000 0.2162970000
0.4018010000 0.2413060000 0.2240940000
0.4124060000 0.2486760000 0.2313570000
0.4220800000 0.2557110000 0.2382390000
0.4310520000 0.2624860000 0.2444950000
0.4395360000 0.2689250000 0.2505070000
0.4476390000 0.2751200000 0.2561990000
0.4552380000 0.2811470000 0.2617690000
0.4623180000 0.2871440000 0.2669410000
0.4691230000 0.2933850000 0.2721140000
0.4755320000 0.2992600000 0.2769360000
0.4818950000 0.3051960000 0.2815140000
0.4876780000 0.3112690000 0.2862750000
0.4924540000 0.3170370000 0.2901050000
0.4973830000 0.3228810000 0.2942400000
0.5014110000 0.3289230000 0.2981310000
0.5053640000 0.3349970000 0.3020980000
0.5088880000 0.3413140000 0.3058670000
0.5123830000 0.3477380000 0.3100020000
0.5161360000 0.3547420000 0.3144730000
0.5194320000 0.3617760000 0.3190050000
0.5227130000 0.3684750000 0.3239190000
0.5258720000 0.3757380000 0.3290760000
0.5294120000 0.3835510000 0.3347980000
0.5328300000 0.3918970000 0.3409930000
0.5367970000 0.4009920000 0.3478750000
0.5407340000 0.4105130000 0.3552760000
0.5451900000 0.4207520000 0.3630880000
0.5502400000 0.4325170000 0.3725490000
0.5556270000 0.4448770000 0.3825440000
0.5618680000 0.4579540000 0.3935000000
0.5683530000 0.4712290000 0.4044400000
0.5753410000 0.4841690000 0.4152290000
0.5822840000 0.4970020000 0.4261840000
0.5894710000 0.5093000000 0.4370790000
0.5969020000 0.5211570000 0.4479590000
0.6048220000 0.5329210000 0.4590980000
0.6129550000 0.5440910000 0.4702370000
0.6215760000 0.5557790000 0.4819870000
0.0595865000 0.0655070000 0.0529030000
0.0619211000 0.0688182000 0.0552529000
0.0641489000 0.0719310000 0.0573129000
0.0670024000 0.0756847000 0.0600137000
0.0694285000 0.0783856000 0.0621042000
0.0726329000 0.0786755000 0.0630655000
0.0782940000 0.0808423000 0.0652781000
0.0899825000 0.0871748000 0.0704662000
0.1033950000 0.0943008000 0.0765850000
0.1157850000 0.1006180000 0.0821698000
0.1319300000 0.1080340000 0.0881666000
0.1505300000 0.1150230000 0.0944839000
0.1707030000 0.1215230000 0.1007860000
0.1904780000 0.1285110000 0.1077440000
0.2085450000 0.1342490000 0.1145650000
0.2257420000 0.1400780000 0.1210350000
0.2420230000 0.1463190000 0.1278100000
0.2572060000 0.1530630000 0.1350580000
0.2726180000 0.1609060000 0.1429160000
0.2880140000 0.1693600000 0.1514000000
0.3036850000 0.1785150000 0.1606930000
0.3193410000 0.1880370000 0.1701690000
0.3347370000 0.1974360000 0.1795380000
0.3497670000 0.2069580000 0.1892880000
0.3644460000 0.2163730000 0.1991610000
0.3780880000 0.2254060000 0.2083010000
0.3907990000 0.2338900000 0.2166930000
0.4022580000 0.2416270000 0.2242770000
0.4126500000 0.2489660000 0.2315860000
0.4223700000 0.2559400000 0.2384220000
0.4313570000 0.2627600000 0.2447090000
0.4397960000 0.2691690000 0.2506750000
0.4478070000 0.2753490000 0.2563360000
0.4554210000 0.2813460000 0.2618910000
0.4624550000 0.2872970000 0.2670330000
0.4692610000 0.2935680000 0.2721900000
0.4756540000 0.2994280000 0.2770280000
0.4820020000 0.3053640000 0.2816050000
0.4877850000 0.3113760000 0.2863510000
0.4925460000 0.3171890000 0.2901810000
0.4974590000 0.3230330000 0.2943160000
0.5014570000 0.3290300000 0.2981610000
0.5054550000 0.3351190000 0.3021590000
0.5089340000 0.3414360000 0.3058980000
0.5124280000 0.3478600000 0.3100480000
0.5161360000 0.3548180000 0.3144730000
0.5194780000 0.3618680000 0.3190200000
0.5227440000 0.3685510000 0.3239340000
0.5259020000 0.3758140000 0.3290910000
0.5294420000 0.3836270000 0.3347980000
0.5328300000 0.3919430000 0.3409780000
0.5368120000 0.4010380000 0.3478750000
0.5407490000 0.4105440000 0.3552760000
0.5452050000 0.4207980000 0.3631040000
0.5502560000 0.4325630000 0.3725490000
0.5556420000 0.4449230000 0.3825440000
0.5618680000 0.4580000000 0.3935000000
0.5683680000 0.4712750000 0.4044400000
0.5753570000 0.4841990000 0.4152290000
0.5822840000 0.4970170000 0.4261690000
0.5894710000 0.5093160000 0.4370640000
0.5969020000 0.5211570000 0.4479440000
0.6048070000 0.5329370000 0.4590830000
0.6129400000 0.5440910000 0.4702220000
0.6215610000 0.5557790000 0.4819710000
0.0647288000 0.0727092000 0.0578470000
0.0675669000 0.0762036000 0.0604715000
0.0697795000 0.0793164000 0.0626535000
0.0722972000 0.0825818000 0.0650797000
0.0748150000 0.0858320000 0.0675669000
0.0767224000 0.0872816000 0.0686809000
0.0808728000 0.0876478000 0.0697032000
0.0875868000 0.0905623000 0.0722667000
0.1015030000 0.0981308000 0.0781262000
0.1157240000 0.1050890000 0.0839246000
0.1306630000 0.1118940000 0.0892805000
0.1479670000 0.1192190000 0.0950179000
0.1678800000 0.1264970000 0.1009690000
0.1894710000 0.1329820000 0.1072250000
0.2093690000 0.1399100000 0.1150230000
0.2272370000 0.1457080000 0.1221180000
0.2436560000 0.1511100000 0.1290000000
0.2586560000 0.1567560000 0.1358360000
0.2738380000 0.1634240000 0.1435870000
0.2893720000 0.1712830000 0.1522550000
0.3051650000 0.1800870000 0.1614100000
0.3207750000 0.1893490000 0.1710380000
0.3358050000 0.1985050000 0.1803620000
0.3511100000 0.2079350000 0.1902190000
0.3655450000 0.2172270000 0.1999080000
0.3788970000 0.2260470000 0.2088350000
0.3914240000 0.2343630000 0.2169530000
0.4028530000 0.2421150000 0.2245670000
0.4130620000 0.2493930000 0.2319370000
0.4227050000 0.2562140000 0.2386210000
0.4317240000 0.2631110000 0.2449680000
0.4400850000 0.2694590000 0.2508890000
0.4479900000 0.2756080000 0.2565190000
0.4556190000 0.2815900000 0.2620430000
0.4626380000 0.2875100000 0.2671700000
0.4694130000 0.2937670000 0.2722820000
0.4757920000 0.2996110000 0.2771190000
0.4821550000 0.3055620000 0.2816970000
0.4878610000 0.3115280000 0.2863970000
0.4926530000 0.3173720000 0.2902420000
0.4975660000 0.3232170000 0.2943920000
0.5015180000 0.3291680000 0.2981920000
0.5055470000 0.3352710000 0.3022350000
0.5089950000 0.3415880000 0.3059430000
0.5124890000 0.3479970000 0.3100790000
0.5161520000 0.3549250000 0.3144730000
0.5195090000 0.3619590000 0.3190360000
0.5227740000 0.3686430000 0.3239340000
0.5259330000 0.3759060000 0.3290910000
0.5294580000 0.3836880000 0.3347980000
0.5328600000 0.3920040000 0.3409780000
0.5368280000 0.4010830000 0.3478600000
0.5407490000 0.4105900000 0.3552610000
0.5452200000 0.4208590000 0.3631190000
0.5502560000 0.4326090000 0.3725490000
0.5556420000 0.4449680000 0.3825440000
0.5618830000 0.4580300000 0.3935000000
0.5683830000 0.4713050000 0.4044560000
0.5753570000 0.4842300000 0.4152290000
0.5822840000 0.4970320000 0.4261690000
0.5894710000 0.5093160000 0.4370640000
0.5969020000 0.5211720000 0.4479290000
0.6048070000 0.5329370000 0.4590830000
0.6129400000 0.5441060000 0.4702220000
0.6215610000 0.5557790000 0.4819710000
0.0710460000 0.0809796000 0.0638590000
0.0733654000 0.0839551000 0.0661173000
0.0753033000 0.0865187000 0.0680400000
0.0767987000 0.0891280000 0.0695506000
0.0789807000 0.0921035000 0.0716716000
0.0814221000 0.0949874000 0.0739910000
0.0836805000 0.0954757000 0.0746471000
0.0893111000 0.0967575000 0.0764172000
0.0972305000 0.1003130000 0.0793469000
0.1127790000 0.1085980000 0.0849775000
0.1291070000 0.1162130000 0.0907759000
0.1459370000 0.1240410000 0.0969863000
0.1645990000 0.1314110000 0.1022960000
0.1853670000 0.1385060000 0.1078510000
0.2076140000 0.1448390000 0.1145800000
0.2284120000 0.1517510000 0.1228200000
0.2457620000 0.1575340000 0.1303580000
0.2606700000 0.1626150000 0.1373620000
0.2760360000 0.1682610000 0.1450830000
0.2912180000 0.1749450000 0.1533680000
0.3067520000 0.1826660000 0.1625540000
0.3220570000 0.1910430000 0.1718620000
0.3373160000 0.2000000000 0.1813840000
0.3523160000 0.2091860000 0.1912570000
0.3667510000 0.2182800000 0.2007170000
