bundles/resolve-cinematic-luts/Gamut/The Creator/gamut - CREATOR (DWG)/DWG_Creator 04 - Stock.cube
TITLE "Creator LUT 04 by Gamut"
# Version 1.0 - 11/18/2025 - Designed for DaVinci Intermediate / DaVinci Wide Gamut for both Input and Output. Copyright 2025 Gamut, LLC.
LUT_3D_SIZE 5
0.0326848000 0.0333867000 0.0342107000
0.2258340000 0.1386740000 0.1246200000
0.4296330000 0.2408790000 0.2371400000
0.5033800000 0.3254900000 0.2845350000
0.6973370000 0.6160530000 0.5219500000
0.1014270000 0.1358660000 0.1006790000
0.2011600000 0.2003050000 0.1336390000
0.4352330000 0.2454870000 0.2378420000
0.5034870000 0.3275500000 0.2851610000
0.6969860000 0.6160370000 0.5214010000
0.2888990000 0.3609830000 0.2686660000
0.2975510000 0.3697570000 0.2772870000
0.5084460000 0.4797740000 0.3628140000
0.5257040000 0.4020140000 0.3222550000
0.6931410000 0.6160980000 0.5159840000
0.5687950000 0.6056920000 0.4756540000
0.5696650000 0.6062870000 0.4760810000
0.5794000000 0.6134430000 0.4816050000
0.6278020000 0.6253600000 0.4663610000
0.6515600000 0.6248420000 0.4777750000
0.7931330000 0.8108340000 0.6724040000
0.7932100000 0.8109100000 0.6724960000
0.7938350000 0.8116430000 0.6734110000
0.8000000000 0.8186010000 0.6817270000
0.8934770000 0.8607310000 0.7223160000
0.0854353000 0.1001910000 0.1409170000
0.2147100000 0.1447170000 0.2016170000
0.4450900000 0.2520790000 0.2530710000
0.5126880000 0.3332570000 0.2939800000
0.6991680000 0.6174560000 0.5243760000
0.1362330000 0.1879910000 0.1933170000
0.2269998800 0.2268616000 0.2246175200
0.4443396400 0.2520887200 0.2473122000
0.5149486000 0.3370752400 0.2967612000
0.6988170000 0.6174410000 0.5238270000
0.3000380000 0.3723050000 0.2795300000
0.3076859600 0.3804610400 0.2870599600
0.5116014400 0.4830750000 0.3651044400
0.5301831200 0.4039692400 0.3251802000
0.6947590000 0.6174870000 0.5184560000
0.5698940000 0.6064550000 0.4762040000
0.5674814800 0.6052344400 0.4754289200
0.5770108400 0.6121958000 0.4808930800
0.6283899200 0.6256262000 0.4679771200
0.6527960000 0.6257110000 0.4791490000
0.7932100000 0.8109250000 0.6725260000
0.7932710000 0.8110020000 0.6726020000
0.7939120000 0.8117340000 0.6735180000
0.8001370000 0.8187230000 0.6818950000
0.8935680000 0.8608070000 0.7223930000
0.2122220000 0.2650190000 0.3498440000
0.2245520000 0.2769670000 0.3620510000
0.4638590000 0.3376060000 0.4510410000
0.5973300000 0.4288550000 0.4659040000
0.7181510000 0.6310060000 0.5524680000
0.2179290000 0.2721140000 0.3559470000
0.2247883200 0.2797283600 0.3634276000
0.4665649600 0.3415310800 0.4556715200
0.5985352000 0.4311656400 0.4654368000
0.7177540000 0.6310060000 0.5518120000
0.3969330000 0.4845500000 0.4862590000
0.4019801200 0.4897682400 0.4911982400
0.5796450800 0.5726674400 0.5551757600
0.6232908800 0.4744627600 0.4505458400
0.7143660000 0.6310980000 0.5456320000
0.5819330000 0.6158240000 0.4839090000
0.5795235200 0.6147180400 0.4833282800
0.5874265200 0.6204049200 0.4876855600
0.6300096800 0.6279728800 0.4702466000
0.6648510000 0.6359810000 0.4934000000
0.7940340000 0.8118870000 0.6737160000
0.7940790000 0.8119480000 0.6737770000
0.7944910000 0.8124970000 0.6744950000
0.8015870000 0.8199740000 0.6832840000
0.8942550000 0.8613410000 0.7230180000
0.4256960000 0.5085680000 0.5872740000
0.4287170000 0.5105670000 0.5894100000
0.5159530000 0.5416040000 0.6429240000
0.7006030000 0.5913940000 0.7310140000
0.8009610000 0.7069810000 0.7921260000
0.4257880000 0.5090710000 0.5875180000
0.4291875200 0.5114238400 0.5897503200
0.5117204000 0.5408219600 0.6421411200
0.7015795600 0.5922411600 0.7318672400
0.8012360000 0.7073780000 0.7919590000
0.4311440000 0.5167620000 0.5938510000
0.4328691200 0.5182060400 0.5949744400
0.4810896000 0.5421829200 0.6283732000
0.7068117600 0.5984900400 0.7375736400
0.8041660000 0.7120160000 0.7902650000
0.6707560000 0.7844510000 0.7389490000
0.6698124800 0.7838641200 0.7389730400
0.6736724800 0.7878807600 0.7424318800
0.8256637200 0.8337046400 0.7805404400
0.8490270000 0.7676660000 0.7421990000
0.8055240000 0.8236510000 0.6878310000
0.8056000000 0.8237430000 0.6879220000
0.8066070000 0.8247350000 0.6890360000
0.8174260000 0.8338900000 0.6995190000
0.8992140000 0.8651710000 0.7281910000
0.6856640000 0.8007020000 0.8612040000
0.6859690000 0.8008240000 0.8613110000
0.6894940000 0.8020900000 0.8631420000
0.7936980000 0.8208740000 0.9048750000
0.8903330000 0.8140540000 0.9194930000
0.6856490000 0.8007930000 0.8612190000
0.6859540000 0.8009160000 0.8613410000
0.6894480000 0.8021820000 0.8631570000
0.7931940000 0.8209660000 0.9048140000
0.8903490000 0.8140690000 0.9195090000
0.6855730000 0.8018460000 0.8615700000
0.6858470000 0.8019680000 0.8616770000
0.6889600000 0.8031890000 0.8634160000
0.7871820000 0.8224000000 0.9039600000
0.8905010000 0.8142670000 0.9196310000
0.6897690000 0.8131530000 0.8678110000
0.6898600000 0.8132300000 0.8678720000
0.6910350000 0.8142060000 0.8687570000
0.7404590000 0.8282290000 0.8921800000
0.8930650000 0.8173040000 0.9217360000
0.8750590000 0.9482110000 0.8918290000
0.8751200000 0.9482410000 0.8918590000
0.8754100000 0.9485310000 0.8921800000
0.8793010000 0.9507290000 0.8950180000
0.9975890000 0.9510030000 0.9448690000
