bundles/resolve-cinematic-luts/Gamut/The Creator/gamut - CREATOR (DWG)/DWG_Creator 07 - Bold.cube
TITLE "Creator LUT 07 by Gamut"
# Version 1.0 - 11/18/2025 - Designed for DaVinci Intermediate / DaVinci Wide Gamut for both Input and Output. Copyright 2025 Gamut, LLC.
LUT_3D_SIZE 65
0.0061799000 0.0104829000 0.0153964000
0.0150607000 0.0197147000 0.0250401000
0.0245060000 0.0297551000 0.0354162000
0.0350805000 0.0400702000 0.0450904000
0.0458381000 0.0500496000 0.0543984000
0.0568856000 0.0598154000 0.0637827000
0.0681773000 0.0683299000 0.0723735000
0.0806592000 0.0773175000 0.0812238000
0.0931563000 0.0853132000 0.0890211000
0.1044330000 0.0919966000 0.0950179000
0.1168990000 0.0981460000 0.1006330000
0.1290610000 0.1030140000 0.1041580000
0.1418480000 0.1066610000 0.1064320000
0.1563740000 0.1101090000 0.1082930000
0.1721070000 0.1134810000 0.1098340000
0.1896390000 0.1177690000 0.1123520000
0.2074310000 0.1224840000 0.1147630000
0.2234070000 0.1271690000 0.1176470000
0.2394290000 0.1326770000 0.1208820000
0.2554060000 0.1386130000 0.1253220000
0.2714430000 0.1453270000 0.1305560000
0.2871440000 0.1523310000 0.1368280000
0.3028150000 0.1596700000 0.1434040000
0.3189290000 0.1677420000 0.1509120000
0.3348900000 0.1759980000 0.1588310000
0.3504080000 0.1841760000 0.1667660000
0.3651330000 0.1922180000 0.1744260000
0.3794000000 0.1999390000 0.1817960000
0.3925080000 0.2074920000 0.1890900000
0.4049290000 0.2147100000 0.1958950000
0.4164490000 0.2215610000 0.2022740000
0.4268250000 0.2282750000 0.2083620000
0.4362250000 0.2346680000 0.2138400000
0.4448770000 0.2406500000 0.2191350000
0.4526280000 0.2463870000 0.2238800000
0.4598460000 0.2523230000 0.2288090000
0.4662390000 0.2583500000 0.2332650000
0.4722820000 0.2645460000 0.2379190000
0.4783400000 0.2712140000 0.2429850000
0.4841080000 0.2787520000 0.2484470000
0.4897230000 0.2867630000 0.2541240000
0.4956440000 0.2955060000 0.2605170000
0.5014570000 0.3048750000 0.2674600000
0.5073780000 0.3145490000 0.2750740000
0.5131910000 0.3246510000 0.2829790000
0.5192800000 0.3349050000 0.2912790000
0.5251540000 0.3448690000 0.2999160000
0.5302210000 0.3535670000 0.3077130000
0.5354090000 0.3626760000 0.3158920000
0.5404590000 0.3722130000 0.3245590000
0.5456630000 0.3824670000 0.3340050000
0.5512930000 0.3938050000 0.3441210000
0.5570920000 0.4057220000 0.3547260000
0.5627370000 0.4179900000 0.3651640000
0.5681700000 0.4302130000 0.3754790000
0.5736020000 0.4417790000 0.3854890000
0.5785920000 0.4525980000 0.3947050000
0.5844210000 0.4646370000 0.4054630000
0.5906000000 0.4767380000 0.4169830000
0.5977570000 0.4892650000 0.4295260000
0.6062260000 0.5020680000 0.4428470000
0.6163120000 0.5154650000 0.4573740000
0.6269780000 0.5290150000 0.4726790000
0.6388950000 0.5424280000 0.4884870000
0.6514990000 0.5561460000 0.5045700000
0.0111391000 0.0155642000 0.0208286000
0.0151675000 0.0197910000 0.0249332000
0.0250248000 0.0302434000 0.0356603000
0.0363928000 0.0414435000 0.0463111000
0.0480354000 0.0518807000 0.0563211000
0.0598001000 0.0620279000 0.0660410000
0.0725872000 0.0717021000 0.0755016000
0.0848554000 0.0803082000 0.0838483000
0.0971237000 0.0879988000 0.0916609000
0.1083240000 0.0939498000 0.0969558000
0.1197990000 0.0993668000 0.1015340000
0.1319910000 0.1040360000 0.1048910000
0.1447930000 0.1075000000 0.1069810000
0.1591210000 0.1107500000 0.1085980000
0.1748230000 0.1141370000 0.1102160000
0.1920650000 0.1183030000 0.1125660000
0.2093540000 0.1230790000 0.1151140000
0.2251320000 0.1277330000 0.1179830000
0.2409550000 0.1332110000 0.1212480000
0.2566570000 0.1391160000 0.1257190000
0.2722670000 0.1457850000 0.1309380000
0.2879070000 0.1526670000 0.1371020000
0.3036550000 0.1600980000 0.1437860000
0.3196610000 0.1681390000 0.1512780000
0.3355150000 0.1763490000 0.1591670000
0.3509120000 0.1844820000 0.1670410000
0.3655450000 0.1924770000 0.1746400000
0.3797360000 0.2001530000 0.1819790000
0.3928130000 0.2076910000 0.1892270000
0.4051580000 0.2148780000 0.1960480000
0.4166480000 0.2217140000 0.2024110000
0.4269630000 0.2284120000 0.2084690000
0.4363620000 0.2347910000 0.2139160000
0.4449530000 0.2407570000 0.2192260000
0.4527200000 0.2464940000 0.2239570000
0.4599070000 0.2524150000 0.2288400000
0.4663000000 0.2584730000 0.2333260000
0.4723430000 0.2646680000 0.2379800000
0.4784010000 0.2713510000 0.2430760000
0.4841540000 0.2788890000 0.2485240000
0.4897840000 0.2869000000 0.2542150000
0.4956890000 0.2956590000 0.2606090000
0.5015340000 0.3050130000 0.2675820000
0.5074390000 0.3146870000 0.2751510000
0.5132520000 0.3247730000 0.2830700000
0.5193410000 0.3350120000 0.2913560000
0.5251850000 0.3449610000 0.2999770000
0.5302510000 0.3536430000 0.3077590000
0.5354240000 0.3627530000 0.3159380000
0.5404750000 0.3722740000 0.3245750000
0.5457080000 0.3825440000 0.3340510000
0.5513080000 0.3938660000 0.3441520000
0.5571070000 0.4057680000 0.3547420000
0.5627530000 0.4180360000 0.3651790000
0.5681850000 0.4302430000 0.3754940000
0.5736020000 0.4417940000 0.3854730000
0.5785920000 0.4526130000 0.3946900000
0.5844210000 0.4646370000 0.4054470000
0.5905850000 0.4767530000 0.4169680000
0.5977420000 0.4892810000 0.4295260000
0.6062260000 0.5020680000 0.4428320000
0.6162970000 0.5154650000 0.4573740000
0.6269630000 0.5290150000 0.4726630000
0.6388800000 0.5424120000 0.4884720000
0.6514990000 0.5561460000 0.5045700000
0.0165560000 0.0213474000 0.0269017000
0.0215152000 0.0267338000 0.0321660000
0.0247959000 0.0299229000 0.0352331000
0.0360266000 0.0412909000 0.0459449000
0.0461891000 0.0506600000 0.0547646000
0.0583658000 0.0611887000 0.0650492000
0.0709087000 0.0708629000 0.0746166000
0.0844282000 0.0802167000 0.0836957000
0.0978866000 0.0885786000 0.0921035000
0.1099870000 0.0948806000 0.0977951000
0.1217360000 0.1002210000 0.1020830000
0.1341730000 0.1046620000 0.1052570000
0.1469440000 0.1080950000 0.1073320000
0.1613180000 0.1111770000 0.1087510000
0.1771110000 0.1147020000 0.1105970000
0.1940180000 0.1188220000 0.1127790000
0.2108800000 0.1236290000 0.1154500000
0.2266880000 0.1282980000 0.1183490000
0.2423440000 0.1337150000 0.1215840000
0.2578320000 0.1395900000 0.1261010000
0.2731520000 0.1461200000 0.1311820000
0.2885020000 0.1530170000 0.1373770000
0.3044330000 0.1605100000 0.1441520000
0.3203480000 0.1685050000 0.1516290000
0.3360950000 0.1766840000 0.1594570000
0.3513850000 0.1847560000 0.1673000000
0.3659420000 0.1927210000 0.1748680000
0.3800720000 0.2003810000 0.1821770000
0.3931030000 0.2078890000 0.1893490000
0.4053710000 0.2150150000 0.1961550000
0.4168310000 0.2218660000 0.2025330000
0.4271000000 0.2285500000 0.2085760000
0.4364690000 0.2349130000 0.2139770000
0.4450290000 0.2408790000 0.2193030000
0.4528110000 0.2466160000 0.2240180000
0.4599530000 0.2525060000 0.2288700000
0.4663920000 0.2585790000 0.2334170000
0.4724040000 0.2647900000 0.2380560000
0.4784620000 0.2714890000 0.2431530000
0.4842150000 0.2790260000 0.2486000000
0.4898450000 0.2870530000 0.2543070000
0.4957200000 0.2957810000 0.2606850000
0.5016100000 0.3051350000 0.2676890000
0.5074850000 0.3148090000 0.2752270000
0.5132980000 0.3248950000 0.2831310000
0.5193710000 0.3351190000 0.2914170000
0.5252310000 0.3450520000 0.3000380000
0.5302970000 0.3537350000 0.3078050000
0.5354540000 0.3628440000 0.3159840000
0.5404900000 0.3723200000 0.3246050000
0.5457540000 0.3826050000 0.3340960000
0.5513240000 0.3939270000 0.3441820000
0.5571220000 0.4058140000 0.3547720000
0.5627530000 0.4180820000 0.3651790000
0.5682000000 0.4302740000 0.3755090000
0.5736020000 0.4418100000 0.3854730000
0.5785920000 0.4526280000 0.3946900000
0.5844050000 0.4646520000 0.4054470000
0.5905850000 0.4767530000 0.4169680000
0.5977420000 0.4892810000 0.4295110000
0.6062100000 0.5020830000 0.4428170000
0.6162970000 0.5154800000 0.4573590000
0.6269630000 0.5290150000 0.4726630000
0.6388800000 0.5424120000 0.4884720000
0.6514990000 0.5561610000 0.5045700000
0.0227817000 0.0281529000 0.0336156000
0.0289616000 0.0344396000 0.0397498000
0.0324102000 0.0377661000 0.0429694000
0.0362707000 0.0415045000 0.0459602000
0.0457618000 0.0503548000 0.0543221000
0.0567483000 0.0603189000 0.0639658000
0.0688487000 0.0701152000 0.0733654000
0.0823987000 0.0796521000 0.0828412000
0.0963455000 0.0886244000 0.0915541000
0.1091170000 0.0950942000 0.0976425000
0.1217670000 0.1005870000 0.1021900000
0.1348900000 0.1050130000 0.1053940000
0.1483630000 0.1086140000 0.1076070000
0.1629970000 0.1115590000 0.1088730000
0.1793240000 0.1152970000 0.1110090000
0.1962010000 0.1194630000 0.1131150000
0.2125580000 0.1241930000 0.1157700000
0.2280460000 0.1289080000 0.1187460000
0.2438240000 0.1342790000 0.1219500000
0.2590680000 0.1401080000 0.1265130000
0.2742660000 0.1465320000 0.1316090000
0.2894480000 0.1534900000 0.1377890000
0.3052260000 0.1609670000 0.1445640000
0.3211110000 0.1689330000 0.1520100000
0.3367510000 0.1770500000 0.1598080000
0.3519190000 0.1850770000 0.1675900000
0.3664000000 0.1929960000 0.1751130000
0.3804380000 0.2006260000 0.1823760000
0.3934080000 0.2080720000 0.1894710000
0.4055850000 0.2151520000 0.1962620000
0.4170290000 0.2220340000 0.2026400000
0.4272830000 0.2287020000 0.2086980000
0.4366220000 0.2350500000 0.2140840000
0.4451210000 0.2410160000 0.2193940000
0.4529030000 0.2467380000 0.2240940000
0.4600140000 0.2526130000 0.2289010000
0.4664990000 0.2587010000 0.2335240000
0.4724650000 0.2649420000 0.2381320000
0.4785230000 0.2716410000 0.2432440000
0.4842760000 0.2791790000 0.2486920000
0.4899060000 0.2871900000 0.2543830000
0.4957810000 0.2959490000 0.2607770000
0.5017010000 0.3052870000 0.2678110000
0.5075300000 0.3149460000 0.2753190000
0.5133440000 0.3250170000 0.2832070000
0.5194320000 0.3352410000 0.2914930000
0.5252770000 0.3451590000 0.3000840000
0.5303120000 0.3538110000 0.3078360000
0.5354850000 0.3629210000 0.3160300000
0.5405050000 0.3723960000 0.3246360000
0.5457850000 0.3826810000 0.3341570000
0.5513540000 0.3939880000 0.3442130000
0.5571370000 0.4058590000 0.3547880000
0.5627830000 0.4181280000 0.3652090000
0.5682150000 0.4303040000 0.3755090000
0.5736020000 0.4418400000 0.3854730000
0.5785920000 0.4526590000 0.3946900000
0.5844050000 0.4646680000 0.4054320000
0.5905850000 0.4767680000 0.4169530000
0.5977420000 0.4892810000 0.4295110000
0.6062100000 0.5020830000 0.4428020000
0.6162970000 0.5154800000 0.4573430000
0.6269630000 0.5290150000 0.4726480000
0.6388800000 0.5424120000 0.4884570000
0.6514840000 0.5561460000 0.5045550000
0.0302892000 0.0358587000 0.0411841000
0.0355535000 0.0411994000 0.0457923000
0.0395666000 0.0453346000 0.0496529000
0.0422980000 0.0477607000 0.0514992000
0.0469215000 0.0518196000 0.0553445000
0.0565347000 0.0606546000 0.0636149000
0.0678416000 0.0701762000 0.0727398000
0.0803540000 0.0801556000 0.0822766000
0.0943313000 0.0890669000 0.0909133000
0.1073780000 0.0956741000 0.0973678000
0.1204090000 0.1013810000 0.1021900000
0.1340510000 0.1058060000 0.1056990000
0.1484550000 0.1094830000 0.1081100000
0.1638210000 0.1122910000 0.1092700000
0.1807740000 0.1159840000 0.1114060000
0.1979860000 0.1201500000 0.1134810000
0.2140990000 0.1247430000 0.1160600000
0.2296180000 0.1295640000 0.1191580000
0.2452280000 0.1349200000 0.1223930000
0.2603950000 0.1407030000 0.1269700000
0.2755170000 0.1470660000 0.1321740000
0.2905170000 0.1540400000 0.1382470000
0.3060040000 0.1615010000 0.1450370000
0.3218280000 0.1694210000 0.1524530000
0.3374690000 0.1774780000 0.1601890000
0.3525290000 0.1854580000 0.1679260000
0.3668880000 0.1933170000 0.1754020000
0.3808650000 0.2009000000 0.1826200000
0.3937130000 0.2082700000 0.1895780000
0.4058140000 0.2153050000 0.1963840000
0.4172120000 0.2221710000 0.2027470000
0.4274660000 0.2288700000 0.2088350000
0.4367590000 0.2352180000 0.2141910000
0.4452280000 0.2411690000 0.2195010000
0.4529950000 0.2468910000 0.2242010000
0.4600900000 0.2527350000 0.2289460000
0.4666060000 0.2588540000 0.2336460000
0.4725570000 0.2651100000 0.2382390000
0.4785990000 0.2718090000 0.2433510000
0.4843520000 0.2793470000 0.2487830000
0.4899670000 0.2873730000 0.2544900000
0.4958270000 0.2961170000 0.2608840000
0.5018080000 0.3054550000 0.2679640000
0.5076070000 0.3151140000 0.2754100000
0.5134050000 0.3251850000 0.2833140000
0.5194780000 0.3353930000 0.2915690000
0.5253220000 0.3452660000 0.3001600000
0.5303270000 0.3539020000 0.3078810000
0.5355150000 0.3630270000 0.3160910000
0.5405200000 0.3724730000 0.3246510000
0.5458460000 0.3827570000 0.3342180000
0.5513850000 0.3940640000 0.3442590000
0.5571680000 0.4059360000 0.3548180000
0.5627990000 0.4181890000 0.3652090000
0.5682310000 0.4303350000 0.3755400000
0.5736170000 0.4418550000 0.3854580000
0.5785920000 0.4526740000 0.3946900000
0.5844050000 0.4646830000 0.4054170000
0.5905700000 0.4767680000 0.4169380000
0.5977260000 0.4892810000 0.4294960000
0.6061950000 0.5020830000 0.4427860000
0.6162810000 0.5154800000 0.4573280000
0.6269470000 0.5290150000 0.4726330000
0.6388650000 0.5424120000 0.4884410000
0.6514840000 0.5561460000 0.5045550000
0.0377050000 0.0435645000 0.0479896000
0.0429084000 0.0487831000 0.0524910000
0.0474708000 0.0535134000 0.0569314000
0.0499580000 0.0559396000 0.0590372000
0.0521401000 0.0579690000 0.0604868000
0.0581979000 0.0627298000 0.0648508000
0.0680858000 0.0714580000 0.0730449000
0.0800641000 0.0811475000 0.0819715000
0.0930343000 0.0905928000 0.0908370000
0.1068130000 0.0986648000 0.0983902000
0.1201340000 0.1045240000 0.1038530000
0.1336540000 0.1089190000 0.1074850000
0.1481960000 0.1120160000 0.1097280000
0.1639580000 0.1142140000 0.1105820000
0.1812010000 0.1173720000 0.1121840000
0.1989780000 0.1211720000 0.1140610000
0.2151830000 0.1254140000 0.1163960000
0.2310520000 0.1303430000 0.1195540000
0.2464640000 0.1356980000 0.1229270000
0.2617380000 0.1413750000 0.1274740000
0.2767680000 0.1477230000 0.1327080000
0.2916910000 0.1546650000 0.1387960000
0.3070570000 0.1620970000 0.1455560000
0.3226520000 0.1699860000 0.1529720000
0.3382930000 0.1779660000 0.1606470000
0.3532010000 0.1858850000 0.1683070000
0.3673910000 0.1936220000 0.1756470000
0.3812920000 0.2011900000 0.1828640000
0.3940490000 0.2084840000 0.1897310000
0.4060880000 0.2155030000 0.1965360000
0.4173800000 0.2223540000 0.2028840000
0.4276950000 0.2290990000 0.2089880000
0.4369420000 0.2354160000 0.2143280000
0.4453650000 0.2413520000 0.2196080000
0.4530860000 0.2470740000 0.2243080000
0.4601660000 0.2528720000 0.2289920000
0.4667580000 0.2590370000 0.2337990000
0.4726330000 0.2652930000 0.2383460000
0.4786910000 0.2720230000 0.2434730000
0.4844280000 0.2795610000 0.2489050000
0.4900590000 0.2875870000 0.2546270000
0.4958880000 0.2963300000 0.2610060000
0.5019300000 0.3056530000 0.2681320000
0.5076830000 0.3152970000 0.2755320000
0.5134810000 0.3253680000 0.2834210000
0.5195540000 0.3355460000 0.2916760000
0.5253830000 0.3454030000 0.3002370000
0.5303580000 0.3540090000 0.3079270000
0.5355610000 0.3631650000 0.3161670000
0.5405360000 0.3725640000 0.3246970000
0.5459070000 0.3828490000 0.3342950000
0.5514000000 0.3941560000 0.3442890000
0.5571830000 0.4060120000 0.3548490000
0.5628140000 0.4182350000 0.3652250000
0.5682610000 0.4303810000 0.3755550000
0.5736170000 0.4418860000 0.3854580000
0.5785760000 0.4527050000 0.3946750000
0.5843900000 0.4646830000 0.4054170000
0.5905700000 0.4767830000 0.4169220000
0.5977260000 0.4892960000 0.4294800000
0.6061950000 0.5020980000 0.4427860000
0.6162810000 0.5154800000 0.4573130000
0.6269470000 0.5290150000 0.4726330000
0.6388490000 0.5424120000 0.4884410000
0.6514840000 0.5561460000 0.5045400000
0.0460822000 0.0520638000 0.0556497000
0.0507668000 0.0569162000 0.0598306000
0.0549630000 0.0612802000 0.0638895000
0.0586862000 0.0654002000 0.0671702000
0.0601511000 0.0666056000 0.0679332000
0.0631418000 0.0686046000 0.0697032000
0.0697490000 0.0741741000 0.0746166000
0.0800946000 0.0821088000 0.0818341000
0.0924239000 0.0912184000 0.0904250000
0.1056690000 0.0995804000 0.0981308000
0.1194480000 0.1072400000 0.1051800000
0.1336540000 0.1128860000 0.1100020000
0.1479360000 0.1163960000 0.1118940000
0.1638670000 0.1188070000 0.1130390000
0.1807130000 0.1206070000 0.1138930000
0.1990540000 0.1235370000 0.1154040000
0.2159460000 0.1269860000 0.1175100000
0.2320440000 0.1315480000 0.1201650000
0.2476690000 0.1366900000 0.1235830000
0.2627910000 0.1422900000 0.1281300000
0.2780040000 0.1485010000 0.1333180000
0.2930340000 0.1553670000 0.1395130000
0.3082170000 0.1627830000 0.1461510000
0.3237050000 0.1706570000 0.1535520000
0.3391320000 0.1785610000 0.1611660000
0.3539790000 0.1863890000 0.1687500000
0.3679260000 0.1939570000 0.1759210000
0.3817200000 0.2014800000 0.1831080000
0.3944150000 0.2087430000 0.1899290000
0.4064390000 0.2157630000 0.1967040000
0.4175630000 0.2225830000 0.2030520000
0.4279550000 0.2293430000 0.2091710000
0.4371560000 0.2356450000 0.2144960000
0.4455480000 0.2415660000 0.2197600000
0.4532080000 0.2472880000 0.2244450000
0.4602430000 0.2530560000 0.2290380000
0.4669110000 0.2592360000 0.2339670000
0.4727400000 0.2655220000 0.2384680000
0.4787980000 0.2722670000 0.2436100000
0.4845350000 0.2798050000 0.2490580000
0.4901500000 0.2878460000 0.2547650000
0.4959490000 0.2965740000 0.2611580000
0.5020370000 0.3058980000 0.2682840000
0.5077740000 0.3155260000 0.2756850000
0.5135730000 0.3255820000 0.2835580000
0.5196610000 0.3357440000 0.2918290000
0.5253990000 0.3455250000 0.3002980000
0.5303880000 0.3541310000 0.3079730000
0.5355920000 0.3632870000 0.3162280000
0.5405970000 0.3726860000 0.3247580000
0.5459680000 0.3829710000 0.3343560000
0.5514460000 0.3942630000 0.3443500000
0.5572140000 0.4061040000 0.3548940000
0.5628290000 0.4182960000 0.3652400000
0.5682760000 0.4304260000 0.3755860000
0.5736170000 0.4419170000 0.3854580000
0.5785760000 0.4527200000 0.3946590000
0.5843900000 0.4647140000 0.4053860000
0.5905550000 0.4767990000 0.4169070000
0.5977110000 0.4892960000 0.4294650000
0.6061800000 0.5020980000 0.4427560000
0.6162660000 0.5154960000 0.4572980000
0.6269320000 0.5290300000 0.4726180000
0.6388490000 0.5424120000 0.4884260000
0.6514690000 0.5561460000 0.5045240000
0.0547951000 0.0610971000 0.0637369000
0.0584726000 0.0651713000 0.0670024000
0.0621653000 0.0691997000 0.0702678000
0.0661479000 0.0735027000 0.0737621000
0.0692149000 0.0767224000 0.0764172000
0.0704051000 0.0771344000 0.0766155000
0.0744488000 0.0797436000 0.0784314000
0.0812238000 0.0846113000 0.0826886000
0.0920424000 0.0926833000 0.0899367000
0.1048140000 0.1013200000 0.0978256000
0.1186080000 0.1091330000 0.1052870000
0.1330280000 0.1156940000 0.1111920000
0.1480430000 0.1214310000 0.1153120000
0.1636990000 0.1244680000 0.1165030000
0.1806210000 0.1264670000 0.1173110000
0.1987030000 0.1282220000 0.1180130000
0.2160520000 0.1306320000 0.1194020000
0.2322120000 0.1337910000 0.1214010000
0.2486310000 0.1383840000 0.1248490000
0.2638130000 0.1436030000 0.1289690000
0.2791640000 0.1495540000 0.1340350000
0.2942700000 0.1563130000 0.1400470000
0.3095900000 0.1636380000 0.1470210000
0.3248490000 0.1714500000 0.1542080000
0.3399710000 0.1792630000 0.1617760000
0.3547880000 0.1869380000 0.1691920000
0.3686120000 0.1943540000 0.1762870000
0.3820860000 0.2018620000 0.1833980000
0.3949490000 0.2091550000 0.1902800000
0.4069120000 0.2161440000 0.1969330000
0.4178070000 0.2228890000 0.2032810000
0.4282600000 0.2296480000 0.2094000000
0.4374460000 0.2359040000 0.2147400000
0.4457470000 0.2418250000 0.2199280000
0.4533460000 0.2475470000 0.2246130000
0.4603650000 0.2532850000 0.2291600000
0.4670790000 0.2594950000 0.2341500000
0.4728620000 0.2657820000 0.2386360000
0.4789200000 0.2725570000 0.2437780000
0.4846570000 0.2800950000 0.2492260000
0.4902720000 0.2881360000 0.2549480000
0.4960400000 0.2968640000 0.2613260000
0.5021440000 0.3061720000 0.2684520000
0.5078810000 0.3158010000 0.2758370000
0.5136800000 0.3258410000 0.2837110000
0.5197990000 0.3359580000 0.2920120000
0.5254440000 0.3456630000 0.3003590000
0.5304190000 0.3542690000 0.3080340000
0.5356070000 0.3634240000 0.3162890000
0.5406580000 0.3728540000 0.3248490000
0.5460290000 0.3830930000 0.3344170000
0.5514760000 0.3943850000 0.3443960000
0.5572290000 0.4061950000 0.3549250000
0.5628440000 0.4183720000 0.3652700000
0.5683070000 0.4304880000 0.3756160000
0.5736320000 0.4419620000 0.3854580000
0.5785760000 0.4527660000 0.3946590000
0.5843750000 0.4647290000 0.4053710000
0.5905390000 0.4767990000 0.4168760000
0.5977110000 0.4893110000 0.4294350000
0.6061800000 0.5020980000 0.4427410000
0.6162510000 0.5154960000 0.4572820000
0.6269170000 0.5290150000 0.4725870000
0.6388190000 0.5423970000 0.4883960000
0.6514530000 0.5561460000 0.5045240000
0.0628519000 0.0699626000 0.0708476000
0.0667582000 0.0741588000 0.0742962000
0.0699931000 0.0777447000 0.0772412000
0.0735943000 0.0817426000 0.0805524000
0.0769665000 0.0857404000 0.0837415000
0.0785992000 0.0873732000 0.0847028000
0.0807507000 0.0879377000 0.0846876000
0.0853895000 0.0912490000 0.0869764000
0.0930495000 0.0957809000 0.0908217000
0.1042190000 0.1032730000 0.0973373000
0.1176320000 0.1107650000 0.1046920000
0.1323870000 0.1188680000 0.1120010000
0.1480280000 0.1262990000 0.1181050000
0.1640650000 0.1314720000 0.1209740000
0.1809870000 0.1345240000 0.1221790000
0.1989010000 0.1360340000 0.1229110000
0.2162660000 0.1372850000 0.1236130000
0.2325020000 0.1390100000 0.1247880000
0.2486610000 0.1417410000 0.1267870000
0.2646520000 0.1460750000 0.1303120000
0.2798960000 0.1513240000 0.1350880000
0.2953840000 0.1576560000 0.1408560000
0.3108420000 0.1648430000 0.1478600000
0.3261620000 0.1724270000 0.1551380000
0.3411760000 0.1801020000 0.1625850000
0.3555660000 0.1875030000 0.1697260000
0.3694670000 0.1949950000 0.1768370000
0.3827270000 0.2024260000 0.1838560000
0.3955440000 0.2096590000 0.1906770000
0.4074620000 0.2166020000 0.1972080000
0.4182040000 0.2233010000 0.2035860000
0.4286110000 0.2300300000 0.2096590000
0.4377970000 0.2362250000 0.2150450000
0.4459750000 0.2421450000 0.2201270000
0.4534980000 0.2478680000 0.2247960000
0.4605480000 0.2536050000 0.2293430000
0.4672310000 0.2598150000 0.2343330000
0.4730140000 0.2661170000 0.2388190000
0.4790720000 0.2729080000 0.2439920000
0.4847940000 0.2804460000 0.2494240000
0.4904100000 0.2884720000 0.2551610000
0.4961320000 0.2972150000 0.2615400000
0.5022810000 0.3064930000 0.2686500000
0.5080190000 0.3161060000 0.2760360000
0.5138020000 0.3261310000 0.2838790000
0.5199660000 0.3362170000 0.2922410000
0.5254900000 0.3458300000 0.3004350000
0.5304490000 0.3544370000 0.3081100000
0.5356220000 0.3635770000 0.3163500000
0.5407190000 0.3730220000 0.3249410000
0.5460900000 0.3832460000 0.3344780000
0.5515220000 0.3945220000 0.3444720000
0.5572900000 0.4063170000 0.3550010000
0.5628750000 0.4184630000 0.3653010000
0.5683380000 0.4305490000 0.3756470000
0.5736170000 0.4419930000 0.3854430000
0.5785760000 0.4527960000 0.3946440000
0.5843750000 0.4647440000 0.4053560000
0.5905390000 0.4768140000 0.4168610000
0.5976960000 0.4893110000 0.4294190000
0.6061650000 0.5020980000 0.4427100000
0.6162510000 0.5154960000 0.4572520000
0.6269020000 0.5290300000 0.4725720000
0.6388040000 0.5423970000 0.4883960000
0.6514530000 0.5561460000 0.5045090000
0.0718853000 0.0798505000 0.0789960000
0.0751049000 0.0834363000 0.0819409000
0.0775006000 0.0864424000 0.0840620000
0.0803693000 0.0899062000 0.0866560000
0.0837568000 0.0937362000 0.0896162000
0.0865339000 0.0973983000 0.0921645000
0.0878157000 0.0979019000 0.0921950000
0.0910506000 0.0990921000 0.0920577000
0.0971542000 0.1020070000 0.0941634000
0.1048910000 0.1064770000 0.0976730000
0.1162740000 0.1134810000 0.1031970000
0.1305100000 0.1213700000 0.1108110000
0.1464870000 0.1294880000 0.1179680000
0.1638510000 0.1370720000 0.1239640000
0.1815060000 0.1427020000 0.1275810000
0.1991150000 0.1450370000 0.1285730000
0.2168760000 0.1465780000 0.1294730000
0.2332490000 0.1476770000 0.1302360000
0.2493630000 0.1489430000 0.1311970000
0.2650800000 0.1512470000 0.1333640000
0.2806130000 0.1547260000 0.1371940000
0.2961320000 0.1601590000 0.1423360000
0.3119860000 0.1665980000 0.1487450000
0.3274130000 0.1738000000 0.1560850000
0.3421990000 0.1810030000 0.1632870000
