bundles/resolve-cinematic-luts/Gamut/The Creator/gamut - CREATOR (DWG)/DWG_Creator 01 - Cine.cube
TITLE "Creator LUT 01 by Gamut"
# Version 1.0 - 11/18/2025 - Designed for DaVinci Intermediate / DaVinci Wide Gamut for both Input and Output. Copyright 2025 Gamut, LLC.
LUT_3D_SIZE 65
0.0313725000 0.0379644000 0.0426490000
0.0351873000 0.0397345000 0.0438392000
0.0390478000 0.0419623000 0.0457313000
0.0435798000 0.0440833000 0.0477302000
0.0500496000 0.0477760000 0.0506752000
0.0573434000 0.0518959000 0.0540017000
0.0649882000 0.0555123000 0.0567788000
0.0728008000 0.0589456000 0.0593118000
0.0824903000 0.0631571000 0.0627604000
0.0927291000 0.0676432000 0.0661021000
0.1043720000 0.0725414000 0.0697032000
0.1171130000 0.0782177000 0.0733196000
0.1309830000 0.0838178000 0.0773327000
0.1452350000 0.0896010000 0.0813611000
0.1604640000 0.0959945000 0.0857252000
0.1765470000 0.1028150000 0.0908370000
0.1928440000 0.1100480000 0.0961166000
0.2073090000 0.1169760000 0.1011830000
0.2222780000 0.1241320000 0.1063860000
0.2377810000 0.1314110000 0.1120010000
0.2536200000 0.1388880000 0.1175560000
0.2697640000 0.1466240000 0.1233690000
0.2858010000 0.1542080000 0.1291680000
0.3020070000 0.1621270000 0.1353630000
0.3181350000 0.1704590000 0.1427630000
0.3337610000 0.1786530000 0.1508350000
0.3488520000 0.1869690000 0.1597770000
0.3635460000 0.1950560000 0.1686430000
0.3770810000 0.2028690000 0.1768370000
0.3898530000 0.2100400000 0.1843600000
0.4013890000 0.2169220000 0.1915010000
0.4122530000 0.2234380000 0.1981540000
0.4218810000 0.2292970000 0.2043490000
0.4301820000 0.2347140000 0.2094610000
0.4370490000 0.2393680000 0.2138090000
0.4436870000 0.2440070000 0.2182040000
0.4490730000 0.2485390000 0.2217900000
0.4547190000 0.2534520000 0.2259860000
0.4609750000 0.2587010000 0.2299840000
0.4670020000 0.2648050000 0.2343790000
0.4734420000 0.2714120000 0.2389720000
0.4806900000 0.2791790000 0.2443430000
0.4881670000 0.2874650000 0.2503240000
0.4961010000 0.2964070000 0.2566260000
0.5038990000 0.3056990000 0.2636150000
0.5112540000 0.3153120000 0.2709540000
0.5177840000 0.3248190000 0.2785080000
0.5233390000 0.3337300000 0.2860760000
0.5288470000 0.3431140000 0.2942240000
0.5343710000 0.3530940000 0.3033190000
0.5396200000 0.3636680000 0.3124280000
0.5449760000 0.3749750000 0.3224540000
0.5506980000 0.3868470000 0.3331040000
0.5558560000 0.3987790000 0.3427020000
0.5610740000 0.4110320000 0.3528800000
0.5662780000 0.4239410000 0.3634090000
0.5714660000 0.4381170000 0.3750210000
0.5774170000 0.4540020000 0.3893490000
0.5834590000 0.4695810000 0.4038150000
0.5898680000 0.4851300000 0.4183260000
0.5967500000 0.5004350000 0.4330820000
0.6031430000 0.5150070000 0.4474710000
0.6103300000 0.5290000000 0.4624700000
0.6174560000 0.5421680000 0.4769510000
0.6248720000 0.5552000000 0.4915240000
0.0331426000 0.0401465000 0.0453956000
0.0359350000 0.0422980000 0.0453498000
0.0399023000 0.0438239000 0.0467689000
0.0446326000 0.0455329000 0.0484932000
0.0514534000 0.0490272000 0.0512703000
0.0599527000 0.0531167000 0.0548409000
0.0676127000 0.0567788000 0.0577401000
0.0764172000 0.0604715000 0.0603952000
0.0856947000 0.0646982000 0.0640879000
0.0962539000 0.0691691000 0.0671855000
0.1074850000 0.0739300000 0.0705730000
0.1205000000 0.0795453000 0.0743420000
0.1338520000 0.0850690000 0.0781872000
0.1480740000 0.0907912000 0.0820935000
0.1629820000 0.0971084000 0.0865187000
0.1787440000 0.1038830000 0.0914931000
0.1946750000 0.1108870000 0.0967117000
0.2088200000 0.1176620000 0.1016560000
0.2236360000 0.1247880000 0.1068740000
0.2388040000 0.1319910000 0.1123670000
0.2546120000 0.1393000000 0.1178300000
0.2707560000 0.1470210000 0.1237510000
0.2866560000 0.1545280000 0.1294880000
0.3027700000 0.1625090000 0.1357140000
0.3187610000 0.1707030000 0.1430530000
0.3342790000 0.1789430000 0.1511250000
0.3493100000 0.1872130000 0.1600670000
0.3638820000 0.1952090000 0.1688410000
0.3773560000 0.2030060000 0.1769740000
0.3900820000 0.2101630000 0.1844820000
0.4015560000 0.2170290000 0.1915920000
0.4123750000 0.2235140000 0.1982300000
0.4220040000 0.2293890000 0.2044250000
0.4302890000 0.2347910000 0.2095370000
0.4371400000 0.2394450000 0.2138700000
0.4437480000 0.2440990000 0.2182650000
0.4491340000 0.2486150000 0.2218360000
0.4547800000 0.2535130000 0.2260170000
0.4610670000 0.2587930000 0.2300600000
0.4670790000 0.2649120000 0.2344240000
0.4735330000 0.2715190000 0.2390330000
0.4807970000 0.2792860000 0.2443880000
0.4882430000 0.2875870000 0.2503850000
0.4961780000 0.2965130000 0.2566720000
0.5040210000 0.3057910000 0.2636910000
0.5113300000 0.3154040000 0.2709850000
0.5178450000 0.3248950000 0.2785230000
0.5233840000 0.3337760000 0.2860910000
0.5288930000 0.3431600000 0.2942400000
0.5344170000 0.3531400000 0.3033340000
0.5396350000 0.3636840000 0.3124280000
0.5449760000 0.3750060000 0.3224540000
0.5506980000 0.3868620000 0.3330890000
0.5558560000 0.3987950000 0.3426870000
0.5610740000 0.4110320000 0.3528650000
0.5662780000 0.4239570000 0.3634090000
0.5714660000 0.4381320000 0.3750210000
0.5774170000 0.4540170000 0.3893490000
0.5834590000 0.4695960000 0.4038150000
0.5898680000 0.4851300000 0.4183260000
0.5967500000 0.5004350000 0.4330820000
0.6031590000 0.5150070000 0.4474710000
0.6103300000 0.5290000000 0.4624550000
0.6174560000 0.5421680000 0.4769510000
0.6248720000 0.5552000000 0.4915240000
0.0352483000 0.0426184000 0.0485847000
0.0372015000 0.0447395000 0.0510719000
0.0402991000 0.0463569000 0.0484016000
0.0444495000 0.0481880000 0.0496529000
0.0514534000 0.0512245000 0.0520333000
0.0592966000 0.0547036000 0.0553445000
0.0676280000 0.0578470000 0.0580758000
0.0767071000 0.0610208000 0.0607614000
0.0865949000 0.0652781000 0.0643626000
0.0975509000 0.0699779000 0.0677806000
0.1096510000 0.0749371000 0.0711070000
0.1227590000 0.0803235000 0.0748913000
0.1358820000 0.0859693000 0.0788128000
0.1503780000 0.0917678000 0.0827649000
0.1651790000 0.0980545000 0.0871901000
0.1807580000 0.1048290000 0.0920577000
0.1960330000 0.1116500000 0.0972610000
0.2101780000 0.1181660000 0.1020520000
0.2247350000 0.1252610000 0.1071950000
0.2397800000 0.1324180000 0.1125660000
0.2552990000 0.1396960000 0.1181050000
0.2715650000 0.1473560000 0.1239490000
0.2875260000 0.1549100000 0.1298540000
0.3035320000 0.1628600000 0.1360950000
0.3193560000 0.1710230000 0.1433590000
0.3347680000 0.1792170000 0.1514000000
0.3497830000 0.1874420000 0.1603720000
0.3642180000 0.1953460000 0.1690390000
0.3776150000 0.2031430000 0.1771110000
0.3903260000 0.2103300000 0.1846340000
0.4017400000 0.2171510000 0.1916990000
0.4125120000 0.2236060000 0.1983060000
0.4221260000 0.2294960000 0.2045010000
0.4303810000 0.2348820000 0.2095980000
0.4372170000 0.2395360000 0.2139310000
0.4438090000 0.2441750000 0.2182960000
0.4491950000 0.2486920000 0.2218810000
0.4548560000 0.2535900000 0.2260470000
0.4611730000 0.2588850000 0.2301370000
0.4671700000 0.2650030000 0.2344700000
0.4736400000 0.2716410000 0.2390940000
0.4808880000 0.2793930000 0.2444340000
0.4883190000 0.2876940000 0.2504310000
0.4962540000 0.2966050000 0.2567330000
0.5041120000 0.3058820000 0.2637370000
0.5114060000 0.3154800000 0.2710150000
0.5178910000 0.3249410000 0.2785380000
0.5234450000 0.3338370000 0.2861070000
0.5289390000 0.3432060000 0.2942400000
0.5344470000 0.3531850000 0.3033340000
0.5396350000 0.3637140000 0.3124130000
0.5449910000 0.3750210000 0.3224380000
0.5506980000 0.3868770000 0.3330890000
0.5558560000 0.3988100000 0.3426720000
0.5610740000 0.4110480000 0.3528500000
0.5662620000 0.4239570000 0.3633940000
0.5714660000 0.4381480000 0.3750210000
0.5774170000 0.4540320000 0.3893490000
0.5834590000 0.4696120000 0.4038150000
0.5898680000 0.4851450000 0.4183260000
0.5967350000 0.5004350000 0.4330660000
0.6031430000 0.5150230000 0.4474710000
0.6103300000 0.5290150000 0.4624550000
0.6174560000 0.5421680000 0.4769510000
0.6248570000 0.5552000000 0.4915240000
0.0373846000 0.0451209000 0.0518654000
0.0394293000 0.0474861000 0.0549172000
0.0417639000 0.0491188000 0.0543832000
0.0451820000 0.0510872000 0.0516976000
0.0509499000 0.0534524000 0.0529183000
0.0594186000 0.0576944000 0.0564889000
0.0684367000 0.0606088000 0.0594492000
0.0773327000 0.0635691000 0.0620127000
0.0869917000 0.0668956000 0.0648508000
0.0980240000 0.0710765000 0.0682841000
0.1103230000 0.0757610000 0.0713970000
0.1238270000 0.0810712000 0.0752728000
0.1375300000 0.0867933000 0.0793011000
0.1520870000 0.0926833000 0.0833753000
0.1672240000 0.0990005000 0.0878614000
0.1827570000 0.1057450000 0.0927291000
0.1976200000 0.1124130000 0.0977951000
0.2118410000 0.1188830000 0.1026470000
0.2260470000 0.1258870000 0.1076520000
0.2409860000 0.1329820000 0.1128560000
0.2563970000 0.1402460000 0.1185170000
0.2724190000 0.1477840000 0.1242690000
0.2884410000 0.1553370000 0.1302200000
0.3043870000 0.1632560000 0.1365220000
0.3200120000 0.1713740000 0.1436790000
0.3353630000 0.1795380000 0.1517660000
0.3503010000 0.1877160000 0.1607230000
0.3644920000 0.1955290000 0.1692530000
0.3779050000 0.2032960000 0.1772790000
0.3905550000 0.2105130000 0.1848020000
0.4019530000 0.2173040000 0.1918360000
0.4126500000 0.2236970000 0.1983670000
0.4222630000 0.2296030000 0.2045930000
0.4304720000 0.2349740000 0.2096590000
0.4373080000 0.2396280000 0.2139770000
0.4438850000 0.2442660000 0.2183570000
0.4492710000 0.2487830000 0.2219270000
0.4549170000 0.2536660000 0.2260780000
0.4612800000 0.2590070000 0.2302130000
0.4672620000 0.2651260000 0.2345310000
0.4737620000 0.2717630000 0.2391550000
0.4810100000 0.2795150000 0.2444950000
0.4883960000 0.2878000000 0.2504920000
0.4963300000 0.2967120000 0.2567790000
0.5042040000 0.3059890000 0.2637830000
0.5114980000 0.3155570000 0.2710610000
0.5179680000 0.3250170000 0.2785690000
0.5234910000 0.3338830000 0.2861220000
0.5289840000 0.3432670000 0.2942550000
0.5344930000 0.3532310000 0.3033340000
0.5396510000 0.3637290000 0.3123980000
0.5449910000 0.3750360000 0.3224380000
0.5506980000 0.3868920000 0.3330590000
0.5558560000 0.3988250000 0.3426720000
0.5610740000 0.4110630000 0.3528340000
0.5662620000 0.4239870000 0.3633780000
0.5714660000 0.4381780000 0.3750210000
0.5774170000 0.4540470000 0.3893490000
0.5834590000 0.4696270000 0.4038000000
0.5898830000 0.4851610000 0.4183260000
0.5967500000 0.5004500000 0.4330660000
0.6031430000 0.5150230000 0.4474710000
0.6103300000 0.5290150000 0.4624550000
0.6174560000 0.5421840000 0.4769510000
0.6248570000 0.5552000000 0.4915080000
0.0398871000 0.0480049000 0.0555734000
0.0419013000 0.0509041000 0.0588235000
0.0438544000 0.0530556000 0.0610056000
0.0471199000 0.0551614000 0.0587015000
0.0510719000 0.0570687000 0.0556191000
0.0581979000 0.0604410000 0.0571298000
0.0684825000 0.0648203000 0.0610361000
0.0778821000 0.0674601000 0.0637827000
0.0889601000 0.0708629000 0.0667582000
0.0990921000 0.0738842000 0.0691997000
0.1112380000 0.0780957000 0.0722057000
0.1241470000 0.0823682000 0.0755779000
0.1382620000 0.0877852000 0.0796826000
0.1531550000 0.0935531000 0.0838178000
0.1688560000 0.0998550000 0.0885634000
0.1844660000 0.1066450000 0.0933242000
0.1991300000 0.1131910000 0.0983291000
0.2132140000 0.1197220000 0.1031050000
0.2274970000 0.1266190000 0.1081560000
0.2423130000 0.1336540000 0.1133440000
0.2576180000 0.1408710000 0.1189900000
0.2733810000 0.1483630000 0.1246970000
0.2892650000 0.1558560000 0.1305560000
0.3052720000 0.1637140000 0.1369190000
0.3208060000 0.1717860000 0.1441370000
0.3360650000 0.1798890000 0.1521930000
0.3508810000 0.1880220000 0.1611050000
0.3648130000 0.1957890000 0.1695120000
0.3783470000 0.2035250000 0.1775540000
0.3907990000 0.2107270000 0.1850000000
0.4021970000 0.2174720000 0.1919890000
0.4128180000 0.2238190000 0.1984590000
0.4224150000 0.2297250000 0.2047000000
0.4305940000 0.2350960000 0.2097350000
0.4374150000 0.2397340000 0.2140540000
0.4439760000 0.2443730000 0.2184180000
0.4493480000 0.2488900000 0.2219880000
0.4550090000 0.2537580000 0.2261230000
0.4613870000 0.2591290000 0.2302740000
0.4673690000 0.2652480000 0.2345920000
0.4738990000 0.2719010000 0.2392310000
0.4811320000 0.2796520000 0.2445720000
0.4884870000 0.2879530000 0.2505530000
0.4964370000 0.2968490000 0.2568400000
0.5043260000 0.3061110000 0.2638280000
0.5115890000 0.3156480000 0.2710920000
0.5180290000 0.3250780000 0.2785840000
0.5235680000 0.3339590000 0.2861370000
0.5290460000 0.3433280000 0.2942700000
0.5345390000 0.3532920000 0.3033490000
0.5396510000 0.3637600000 0.3123670000
0.5450070000 0.3750670000 0.3224380000
0.5506980000 0.3869230000 0.3330430000
0.5558560000 0.3988400000 0.3426570000
0.5610740000 0.4110930000 0.3528190000
0.5662620000 0.4239870000 0.3633630000
0.5714660000 0.4382090000 0.3750210000
0.5774170000 0.4540780000 0.3893490000
0.5834590000 0.4696420000 0.4038000000
0.5898680000 0.4851760000 0.4183260000
0.5967350000 0.5004500000 0.4330660000
0.6031430000 0.5150230000 0.4474560000
0.6103300000 0.5290300000 0.4624550000
0.6174560000 0.5421840000 0.4769360000
0.6248570000 0.5552000000 0.4915080000
0.0429694000 0.0520180000 0.0601816000
0.0448310000 0.0546883000 0.0632181000
0.0468910000 0.0573587000 0.0662394000
0.0493782000 0.0596475000 0.0666514000
0.0538033000 0.0624247000 0.0636912000
0.0573281000 0.0638132000 0.0592660000
0.0662547000 0.0678264000 0.0612802000
0.0769360000 0.0719768000 0.0653086000
0.0894789000 0.0757000000 0.0686809000
0.1017010000 0.0793469000 0.0714427000
0.1134510000 0.0829480000 0.0740826000
0.1257040000 0.0863355000 0.0769055000
0.1392540000 0.0902266000 0.0804608000
0.1539940000 0.0953384000 0.0844434000
0.1698180000 0.1010910000 0.0891280000
0.1856870000 0.1076520000 0.0938582000
0.2004580000 0.1140760000 0.0988479000
0.2146330000 0.1205770000 0.1035780000
0.2289770000 0.1274130000 0.1088120000
0.2436870000 0.1343860000 0.1138630000
0.2589300000 0.1415730000 0.1195090000
0.2746010000 0.1489740000 0.1251540000
0.2903180000 0.1564200000 0.1308770000
0.3062180000 0.1642480000 0.1373620000
0.3217360000 0.1722440000 0.1446560000
0.3368430000 0.1802850000 0.1527120000
0.3514460000 0.1883730000 0.1614400000
0.3652400000 0.1961090000 0.1698330000
0.3788200000 0.2037840000 0.1778740000
0.3910890000 0.2109710000 0.1852290000
0.4024870000 0.2176850000 0.1921720000
0.4130010000 0.2239570000 0.1985660000
0.4225990000 0.2298920000 0.2048070000
0.4307470000 0.2352180000 0.2098570000
0.4375370000 0.2398570000 0.2141300000
0.4440680000 0.2444950000 0.2184790000
0.4494390000 0.2490120000 0.2220490000
0.4551160000 0.2538640000 0.2261690000
0.4615240000 0.2592810000 0.2303500000
0.4674910000 0.2654000000 0.2346680000
0.4740370000 0.2720840000 0.2393220000
0.4812850000 0.2798200000 0.2446480000
0.4886240000 0.2881060000 0.2506450000
0.4965440000 0.2970020000 0.2569160000
0.5044630000 0.3062490000 0.2638900000
0.5116960000 0.3157700000 0.2711380000
0.5181200000 0.3251850000 0.2786140000
0.5236290000 0.3340350000 0.2861520000
0.5291070000 0.3434040000 0.2943010000
0.5346000000 0.3533530000 0.3033650000
0.5396510000 0.3637900000 0.3123520000
0.5450220000 0.3751130000 0.3224230000
0.5506980000 0.3869380000 0.3330280000
0.5558560000 0.3988560000 0.3426410000
0.5610740000 0.4111090000 0.3528040000
0.5662620000 0.4240180000 0.3633480000
0.5714660000 0.4382240000 0.3750060000
0.5774170000 0.4540930000 0.3893490000
0.5834440000 0.4696570000 0.4038000000
0.5898830000 0.4851910000 0.4183260000
0.5967500000 0.5004650000 0.4330510000
0.6031430000 0.5150380000 0.4474560000
0.6103300000 0.5290300000 0.4624400000
0.6174410000 0.5421840000 0.4769360000
0.6248570000 0.5552150000 0.4915080000
0.0461891000 0.0564736000 0.0652476000
0.0483406000 0.0592203000 0.0681010000
0.0503395000 0.0615396000 0.0710307000
0.0517739000 0.0642100000 0.0735180000
0.0552224000 0.0669566000 0.0721141000
0.0613107000 0.0704356000 0.0689250000
0.0642557000 0.0711986000 0.0629129000
0.0738994000 0.0749676000 0.0654002000
0.0867781000 0.0790723000 0.0693523000
0.1004500000 0.0835126000 0.0725261000
0.1143660000 0.0878004000 0.0757000000
0.1281150000 0.0920119000 0.0789349000
0.1417410000 0.0955367000 0.0821393000
0.1559470000 0.0993057000 0.0859541000
0.1707330000 0.1037770000 0.0899519000
0.1869080000 0.1095600000 0.0948196000
0.2016170000 0.1154650000 0.0994736000
0.2159300000 0.1216910000 0.1041730000
0.2303200000 0.1283590000 0.1094990000
0.2451510000 0.1352560000 0.1144270000
0.2603040000 0.1423670000 0.1200730000
0.2759290000 0.1496910000 0.1256730000
0.2915540000 0.1570760000 0.1312430000
0.3071030000 0.1649040000 0.1378810000
0.3226830000 0.1727930000 0.1452050000
0.3376670000 0.1808040000 0.1532010000
0.3520260000 0.1886930000 0.1617610000
0.3658200000 0.1964900000 0.1701990000
0.3793550000 0.2040890000 0.1782250000
0.3914850000 0.2112460000 0.1855500000
0.4028380000 0.2179290000 0.1923860000
0.4132450000 0.2241250000 0.1987030000
0.4228120000 0.2300760000 0.2049590000
0.4309300000 0.2353700000 0.2099950000
0.4376900000 0.2400090000 0.2142370000
0.4441900000 0.2446480000 0.2185700000
0.4495460000 0.2491650000 0.2221260000
0.4552220000 0.2540020000 0.2262300000
0.4616460000 0.2594800000 0.2304570000
0.4676430000 0.2655830000 0.2347600000
0.4742350000 0.2722820000 0.2394140000
0.4814530000 0.2800180000 0.2447390000
0.4887920000 0.2882890000 0.2507210000
0.4966660000 0.2971850000 0.2570080000
0.5046010000 0.3064160000 0.2639810000
0.5118180000 0.3159080000 0.2711830000
0.5182120000 0.3252770000 0.2786450000
0.5237200000 0.3341420000 0.2861830000
0.5291680000 0.3434810000 0.2943160000
0.5346610000 0.3534290000 0.3033650000
0.5396660000 0.3638210000 0.3123220000
0.5450520000 0.3751430000 0.3224230000
0.5507130000 0.3869840000 0.3330130000
0.5558560000 0.3988710000 0.3426260000
0.5610740000 0.4111390000 0.3527890000
0.5662620000 0.4240330000 0.3633330000
0.5714660000 0.4382700000 0.3750210000
0.5774170000 0.4541240000 0.3893490000
0.5834590000 0.4696880000 0.4038000000
0.5898680000 0.4852060000 0.4183110000
0.5967500000 0.5004810000 0.4330510000
0.6031430000 0.5150530000 0.4474400000
0.6103150000 0.5290460000 0.4624400000
0.6174410000 0.5421840000 0.4769210000
0.6248570000 0.5552150000 0.4915080000
0.0503090000 0.0614633000 0.0708934000
0.0516213000 0.0640269000 0.0734264000
0.0530404000 0.0667582000 0.0759136000
0.0548562000 0.0695201000 0.0787823000
0.0564584000 0.0716411000 0.0802014000
0.0614786000 0.0745098000 0.0772564000
0.0678874000 0.0781567000 0.0725872000
0.0732891000 0.0793011000 0.0673075000
0.0822461000 0.0829328000 0.0699779000
0.0977188000 0.0881208000 0.0740368000
0.1129470000 0.0930648000 0.0774090000
0.1282980000 0.0973678000 0.0804456000
0.1433280000 0.1010300000 0.0837262000
0.1586630000 0.1052260000 0.0879835000
0.1735870000 0.1091940000 0.0919661000
0.1885100000 0.1134200000 0.0961013000
0.2034330000 0.1183030000 0.1008010000
0.2173190000 0.1237050000 0.1050580000
0.2316930000 0.1298090000 0.1102160000
0.2464940000 0.1364160000 0.1150990000
0.2617070000 0.1433280000 0.1206990000
0.2773170000 0.1505460000 0.1262380000
0.2928510000 0.1578850000 0.1317620000
0.3082930000 0.1656370000 0.1384600000
0.3235370000 0.1734800000 0.1457850000
0.3385820000 0.1813840000 0.1537800000
0.3527120000 0.1891050000 0.1621580000
0.3664760000 0.1969480000 0.1706260000
0.3799190000 0.2044710000 0.1785760000
0.3920350000 0.2115820000 0.1859310000
0.4032200000 0.2182350000 0.1926450000
0.4135500000 0.2243840000 0.1989170000
0.4230560000 0.2302890000 0.2051270000
0.4311590000 0.2355540000 0.2101630000
0.4378580000 0.2401920000 0.2143430000
0.4443430000 0.2448310000 0.2186770000
0.4496680000 0.2493320000 0.2222170000
0.4553600000 0.2541540000 0.2262910000
0.4617840000 0.2596930000 0.2305640000
0.4678110000 0.2657970000 0.2348670000
0.4744490000 0.2725260000 0.2395360000
0.4816660000 0.2802320000 0.2448460000
0.4890060000 0.2885020000 0.2508280000
0.4968180000 0.2973980000 0.2571150000
0.5047380000 0.3066000000 0.2640730000
0.5119550000 0.3160600000 0.2712440000
0.5183340000 0.3253990000 0.2786910000
0.5238270000 0.3342490000 0.2862130000
0.5292440000 0.3435870000 0.2943310000
0.5347370000 0.3535210000 0.3033950000
0.5396660000 0.3638670000 0.3122910000
0.5450680000 0.3751890000 0.3224080000
0.5507130000 0.3870150000 0.3329820000
0.5558710000 0.3989010000 0.3426110000
0.5610590000 0.4111540000 0.3527580000
0.5662620000 0.4240630000 0.3633170000
0.5714660000 0.4383000000 0.3750060000
0.5774170000 0.4541700000 0.3893490000
0.5834440000 0.4697180000 0.4038000000
0.5898680000 0.4852370000 0.4183110000
0.5967500000 0.5004960000 0.4330510000
0.6031430000 0.5150680000 0.4474400000
0.6103150000 0.5290460000 0.4624250000
0.6174410000 0.5421840000 0.4769050000
0.6248420000 0.5552150000 0.4914930000
0.0533303000 0.0673381000 0.0764172000
0.0551461000 0.0699626000 0.0791943000
0.0563516000 0.0721141000 0.0813001000
0.0580453000 0.0748302000 0.0838026000
0.0599222000 0.0779278000 0.0867933000
0.0622110000 0.0800488000 0.0869917000
0.0692760000 0.0829480000 0.0830243000
0.0745251000 0.0862593000 0.0759289000
0.0817731000 0.0875868000 0.0721141000
0.0939956000 0.0920729000 0.0744945000
0.1098500000 0.0967422000 0.0785992000
0.1263140000 0.1025560000 0.0822003000
0.1439380000 0.1076680000 0.0863203000
0.1613030000 0.1119860000 0.0901961000
0.1776760000 0.1166400000 0.0950179000
0.1924620000 0.1203170000 0.0990005000
0.2059210000 0.1238570000 0.1027080000
0.2195470000 0.1275650000 0.1067220000
0.2335090000 0.1326160000 0.1114370000
0.2481730000 0.1383380000 0.1162890000
0.2631270000 0.1447620000 0.1214160000
0.2787980000 0.1516750000 0.1269090000
0.2942550000 0.1589070000 0.1324030000
0.3096060000 0.1665370000 0.1391010000
0.3247270000 0.1742730000 0.1464410000
0.3395290000 0.1819940000 0.1543300000
0.3536130000 0.1897150000 0.1627370000
0.3672540000 0.1974820000 0.1711150000
0.3805600000 0.2049440000 0.1789880000
0.3926600000 0.2119780000 0.1863430000
0.4036770000 0.2185850000 0.1929350000
0.4139310000 0.2246890000 0.1991610000
0.4233460000 0.2305640000 0.2053250000
0.4314340000 0.2357820000 0.2103610000
0.4380560000 0.2404060000 0.2144810000
0.4444800000 0.2450450000 0.2187990000
0.4498210000 0.2495460000 0.2223240000
0.4555580000 0.2543680000 0.2263980000
0.4619520000 0.2599530000 0.2307160000
0.4680250000 0.2660560000 0.2349890000
0.4746930000 0.2728010000 0.2396890000
0.4819100000 0.2805070000 0.2449840000
0.4892500000 0.2887620000 0.2509650000
0.4970630000 0.2976270000 0.2572820000
0.5049060000 0.3068280000 0.2641640000
0.5121230000 0.3162430000 0.2713210000
0.5184560000 0.3255360000 0.2787210000
0.5239490000 0.3343860000 0.2862440000
0.5293510000 0.3437090000 0.2943920000
0.5348130000 0.3536130000 0.3033950000
0.5396810000 0.3639120000 0.3122610000
0.5450830000 0.3752350000 0.3223930000
0.5507130000 0.3870600000 0.3329520000
0.5558710000 0.3989320000 0.3425960000
0.5610590000 0.4112000000 0.3527430000
0.5662620000 0.4240790000 0.3632870000
0.5714810000 0.4383460000 0.3750060000
0.5774170000 0.4542000000 0.3893490000
0.5834440000 0.4697490000 0.4037840000
0.5898680000 0.4852520000 0.4182960000
0.5967500000 0.5005110000 0.4330360000
0.6031430000 0.5150840000 0.4474400000
0.6103150000 0.5290610000 0.4624250000
0.6174410000 0.5421990000 0.4769050000
0.6248420000 0.5552150000 0.4914930000
0.0572213000 0.0735485000 0.0826886000
0.0587472000 0.0760662000 0.0848707000
0.0603037000 0.0786297000 0.0874495000
0.0615549000 0.0811780000 0.0897993000
0.0632639000 0.0842756000 0.0926680000
0.0653849000 0.0872511000 0.0952926000
0.0689555000 0.0890059000 0.0937209000
0.0766918000 0.0924239000 0.0887465000
0.0838178000 0.0959182000 0.0806592000
0.0922408000 0.0976730000 0.0776532000
0.1054700000 0.1020830000 0.0800336000
0.1228500000 0.1075760000 0.0843519000
0.1408100000 0.1135120000 0.0885023000
0.1595480000 0.1182570000 0.0924544000
0.1789880000 0.1227740000 0.0970474000
0.1972530000 0.1282670000 0.1023880000
0.2116730000 0.1319450000 0.1064320000
0.2238040000 0.1348290000 0.1099570000
0.2363160000 0.1380480000 0.1136640000
0.2502330000 0.1422140000 0.1179060000
0.2651410000 0.1475240000 0.1227440000
0.2803540000 0.1536430000 0.1278550000
0.2957960000 0.1604030000 0.1331960000
0.3110550000 0.1676360000 0.1398340000
0.3260090000 0.1752650000 0.1471890000
