bundles/resolve-cinematic-luts/Gamut/The Creator/gamut - CREATOR (DWG)/DWG_Creator 08 - Bold.cube
TITLE "Creator LUT 08 by Gamut"
# Version 1.0 - 11/18/2025 - Designed for DaVinci Intermediate / DaVinci Wide Gamut for both Input and Output. Copyright 2025 Gamut, LLC.
LUT_3D_SIZE 5
0.0000000000 0.0000000000 0.0000000000
0.2245370000 0.0982834000 0.0929885000
0.4476690000 0.2189970000 0.2056310000
0.5683220000 0.3395590000 0.2935680000
0.6697180000 0.5506830000 0.4867020000
0.1284200000 0.1897760000 0.0988174000
0.2300910000 0.2337380000 0.1480130000
0.4557720000 0.2307320000 0.2104680000
0.5696800000 0.3426410000 0.2940110000
0.6699470000 0.5511410000 0.4865640000
0.3242080000 0.4353250000 0.2664840000
0.3313800000 0.4441290000 0.2725410000
0.5051800000 0.5017930000 0.3444420000
0.5979400000 0.4205230000 0.3203020000
0.6722060000 0.5561760000 0.4854510000
0.5730830000 0.6276040000 0.4485390000
0.5740600000 0.6282440000 0.4492260000
0.5831540000 0.6339060000 0.4571760000
0.6846720000 0.6666510000 0.5016710000
0.7083240000 0.6318910000 0.4999310000
0.7889980000 0.7988400000 0.6614940000
0.7890900000 0.7989320000 0.6615850000
0.7901880000 0.7998020000 0.6625770000
0.7995880000 0.8080260000 0.6715800000
0.8844590000 0.8465250000 0.7070120000
0.0840162000 0.0979934000 0.1985500000
0.2368810000 0.1372090000 0.2226440000
0.4546270000 0.2242160000 0.2208440000
0.5672240000 0.3384760000 0.2984660000
0.6699780000 0.5507290000 0.4883340000
0.1693450000 0.2268410000 0.2262910000
0.2439920000 0.2439920000 0.2439920000
0.4608530000 0.2307620000 0.2178380000
0.5686270000 0.3414820000 0.2987110000
0.6701760000 0.5512020000 0.4881970000
0.3331810000 0.4464030000 0.2741740000
0.3396960000 0.4543220000 0.2795910000
0.5110860000 0.5067670000 0.3481350000
0.5967650000 0.4171660000 0.3211870000
0.6724650000 0.5562220000 0.4870530000
0.5743340000 0.6284120000 0.4494240000
0.5752960000 0.6290380000 0.4502020000
0.5842680000 0.6346680000 0.4580300000
0.6851000000 0.6670020000 0.5021290000
0.7086750000 0.6319980000 0.5009690000
0.7891050000 0.7989470000 0.6616010000
0.7891970000 0.7990690000 0.6616770000
0.7903410000 0.7999240000 0.6627150000
0.7996950000 0.8081180000 0.6716870000
0.8844890000 0.8465710000 0.7070570000
0.2278780000 0.2672620000 0.4390480000
0.2376440000 0.2616920000 0.4371100000
0.4648660000 0.3124900000 0.4664680000
0.5804070000 0.3713130000 0.4241700000
0.6727700000 0.5528190000 0.5062490000
0.2327460000 0.2732890000 0.4458840000
0.2361490000 0.2746930000 0.4485850000
0.4671240000 0.3151750000 0.4705730000
0.5807890000 0.3721830000 0.4225220000
0.6729990000 0.5530630000 0.5059890000
0.3858700000 0.4896010000 0.4901810000
0.3896090000 0.4934160000 0.4942240000
0.5256280000 0.5256280000 0.5256280000
0.5930420000 0.4099950000 0.4051880000
0.6752580000 0.5564810000 0.5035780000
0.5859160000 0.6360110000 0.4603040000
0.5867090000 0.6365450000 0.4610210000
0.5945830000 0.6416880000 0.4679940000
0.6895250000 0.6702830000 0.5066000000
0.7128710000 0.6334020000 0.5123980000
0.7905390000 0.8000610000 0.6629430000
0.7906610000 0.8001680000 0.6630500000
0.7916530000 0.8010530000 0.6640120000
0.8009770000 0.8092930000 0.6728920000
0.8850840000 0.8470890000 0.7076680000
0.3871370000 0.4523080000 0.6113070000
0.3896540000 0.4532540000 0.6128480000
0.4701610000 0.4662090000 0.6383310000
0.6426490000 0.5112690000 0.6777750000
0.7098190000 0.5996950000 0.6693520000
0.3872430000 0.4530250000 0.6116120000
0.3895320000 0.4539560000 0.6130310000
0.4672620000 0.4665900000 0.6380710000
0.6428930000 0.5116660000 0.6780650000
0.7099720000 0.5999080000 0.6693060000
0.3918520000 0.4611120000 0.6164340000
0.3926600000 0.4619210000 0.6172270000
0.4332490000 0.4717020000 0.6349580000
0.6453190000 0.5156480000 0.6811170000
0.7113450000 0.6021210000 0.6684980000
0.6476390000 0.7326160000 0.7328450000
0.6480660000 0.7330740000 0.7333330000
0.6519420000 0.7373770000 0.7378040000
0.7669180000 0.7669180000 0.7669640000
0.7528950000 0.6592510000 0.6624700000
0.8033420000 0.8119480000 0.6757920000
0.8034330000 0.8120550000 0.6758680000
0.8043030000 0.8129090000 0.6767220000
0.8126960000 0.8206610000 0.6844890000
0.8896620000 0.8516370000 0.7130690000
0.6173800000 0.6784620000 0.7809570000
0.6176550000 0.6786140000 0.7811860000
0.6216830000 0.6799880000 0.7833980000
0.7115890000 0.6919660000 0.8202030000
0.8177000000 0.7237810000 0.8575420000
0.6173500000 0.6785230000 0.7809570000
0.6176240000 0.6786600000 0.7811860000
0.6216070000 0.6800340000 0.7833830000
0.7113150000 0.6920270000 0.8202030000
0.8177460000 0.7238420000 0.8575880000
0.6171050000 0.6791490000 0.7811400000
0.6173800000 0.6792860000 0.7813230000
0.6208440000 0.6805980000 0.7833680000
0.7085980000 0.6926990000 0.8199890000
0.8182040000 0.7243300000 0.8579840000
0.6201720000 0.6870070000 0.7859770000
0.6202640000 0.6870530000 0.7860380000
0.6215000000 0.6878310000 0.7869540000
0.6751660000 0.7001450000 0.8150610000
0.8225990000 0.7292740000 0.8616010000
0.8885330000 0.9671470000 0.9687950000
0.8886090000 0.9671630000 0.9688110000
0.8891580000 0.9676970000 0.9694360000
0.8933390000 0.9714350000 0.9736320000
0.9988560000 0.9988560000 0.9988560000
