bundles/resolve-cinematic-luts/Gamut/The Creator/gamut - CREATOR (DWG)/DWG_Creator 06 - Warm.cube
TITLE "Creator LUT 06 by Gamut"
# Version 1.0 - 11/18/2025 - Designed for DaVinci Intermediate / DaVinci Wide Gamut for both Input and Output. Copyright 2025 Gamut, LLC.
LUT_3D_SIZE 5
0.0336156000 0.0317540000 0.0302739000
0.2317240000 0.1379570000 0.1231400000
0.4469370000 0.2743110000 0.2557410000
0.5257650000 0.3754790000 0.3290610000
0.6215920000 0.5557790000 0.4820480000
0.1144580000 0.1482410000 0.1099260000
0.2216980000 0.2030980000 0.1408560000
0.4534220000 0.2834820000 0.2606090000
0.5264210000 0.3772790000 0.3291980000
0.6214690000 0.5557640000 0.4817270000
0.2871750000 0.3701990000 0.2695200000
0.2943770000 0.3779510000 0.2747540000
0.4821700000 0.4460820000 0.3329210000
0.5433430000 0.4320900000 0.3517510000
0.6204320000 0.5561610000 0.4786600000
0.5505460000 0.5501490000 0.4274660000
0.5512320000 0.5505150000 0.4279850000
0.5578390000 0.5538570000 0.4329140000
0.6167540000 0.5816590000 0.4678720000
0.6180210000 0.5714500000 0.4654150000
0.7128250000 0.6948350000 0.5988860000
0.7128400000 0.6948650000 0.5989170000
0.7130690000 0.6951250000 0.5992520000
0.7154650000 0.6981770000 0.6028840000
0.7283890000 0.7084150000 0.6148160000
0.1135580000 0.1273370000 0.1843140000
0.2565500000 0.1600670000 0.2092010000
0.4504770000 0.2788590000 0.2649120000
0.5265890000 0.3769280000 0.3331500000
0.6223850000 0.5568630000 0.4838180000
0.1562830000 0.2022890000 0.2047910000
0.2168150000 0.2258490000 0.2230410000
0.4561530000 0.2853280000 0.2661020000
0.5272300000 0.3786680000 0.3330890000
0.6222930000 0.5568170000 0.4835430000
0.2961470000 0.3797050000 0.2762190000
0.3030290000 0.3866940000 0.2807200000
0.4874340000 0.4508130000 0.3369500000
0.5436480000 0.4315100000 0.3531240000
0.6213930000 0.5570150000 0.4803080000
0.5514310000 0.5506220000 0.4281380000
0.5521170000 0.5510030000 0.4286560000
0.5586630000 0.5542690000 0.4335550000
0.6169830000 0.5818880000 0.4680710000
0.6186470000 0.5719390000 0.4662090000
0.7128560000 0.6948650000 0.5989320000
0.7128710000 0.6948960000 0.5989620000
0.7131000000 0.6951550000 0.5992830000
0.7154960000 0.6982220000 0.6029450000
0.7284050000 0.7084460000 0.6148320000
0.2457770000 0.2803690000 0.3971620000
0.2547490000 0.2849770000 0.4020140000
0.5020220000 0.3540860000 0.4559550000
0.5447010000 0.4097810000 0.4187840000
0.6329440000 0.5674370000 0.5018080000
0.2507210000 0.2865950000 0.4027160000
0.2558790000 0.2922260000 0.4077670000
0.5038380000 0.3564810000 0.4594640000
0.5445030000 0.4102690000 0.4172730000
0.6328530000 0.5674520000 0.5015180000
0.3893030000 0.4773630000 0.4725410000
0.3926910000 0.4814530000 0.4761580000
0.5537040000 0.5513390000 0.5101240000
0.5553670000 0.4399790000 0.4079800000
0.6319220000 0.5674370000 0.4985120000
0.5599450000 0.5555660000 0.4351420000
0.5604640000 0.5558860000 0.4355080000
0.5663080000 0.5593190000 0.4401160000
0.6197300000 0.5845430000 0.4711220000
0.6253150000 0.5781490000 0.4758680000
0.7131460000 0.6952160000 0.5993590000
0.7131610000 0.6952470000 0.5993900000
0.7133750000 0.6955060000 0.5997100000
0.7159080000 0.6987260000 0.6035100000
0.7285270000 0.7086140000 0.6150450000
0.4092160000 0.4831310000 0.5464410000
0.4105590000 0.4838030000 0.5463800000
0.4916300000 0.4967120000 0.5529260000
0.6285950000 0.5442280000 0.5818270000
0.6836040000 0.6246430000 0.5925990000
0.4094610000 0.4837110000 0.5467610000
0.4105740000 0.4842910000 0.5466700000
0.4876480000 0.4970470000 0.5521320000
0.6289010000 0.5446100000 0.5820100000
0.6837420000 0.6248870000 0.5926760000
0.4140380000 0.4903180000 0.5503620000
0.4147860000 0.4909290000 0.5505760000
0.4499280000 0.5020980000 0.5528190000
0.6314490000 0.5485920000 0.5835200000
0.6853130000 0.6276950000 0.5935000000
0.6327760000 0.6722360000 0.6048220000
0.6331430000 0.6724500000 0.6049590000
0.6366670000 0.6744180000 0.6062710000
0.7112080000 0.7012130000 0.6245980000
0.7081860000 0.6681770000 0.6053100000
0.7171890000 0.7000690000 0.6053250000
0.7172200000 0.7000990000 0.6053410000
0.7175250000 0.7004500000 0.6056610000
0.7199510000 0.7033650000 0.6088960000
0.7293810000 0.7098040000 0.6165560000
0.6094300000 0.6564130000 0.6102850000
0.6096890000 0.6565190000 0.6101930000
0.6150610000 0.6582890000 0.6102390000
0.6976270000 0.6855880000 0.6267030000
0.7234450000 0.6949720000 0.6316470000
0.6093690000 0.6564130000 0.6103000000
0.6096280000 0.6565190000 0.6102080000
0.6148780000 0.6582590000 0.6102080000
0.6975200000 0.6856030000 0.6267030000
0.7234610000 0.6949870000 0.6316620000
0.6087590000 0.6564430000 0.6105740000
0.6090490000 0.6565350000 0.6104520000
0.6131380000 0.6579230000 0.6099950000
0.6964520000 0.6858470000 0.6267800000
0.7235520000 0.6951550000 0.6317080000
0.6088810000 0.6584880000 0.6109100000
0.6089720000 0.6585340000 0.6108950000
0.6100400000 0.6591440000 0.6107580000
0.6767380000 0.6831010000 0.6245820000
0.7243610000 0.6967270000 0.6321200000
0.7302970000 0.7225300000 0.6378730000
0.7302970000 0.7225300000 0.6378730000
0.7303580000 0.7225600000 0.6378880000
0.7309070000 0.7227890000 0.6380560000
0.7393300000 0.7259780000 0.6395060000
