bundles/resolve-cinematic-luts/Gamut/The Creator/gamut - CREATOR (DWG)/DWG_Creator 08 - Bold.cube
TITLE "Creator LUT 08 by Gamut"
# Version 1.0 - 11/18/2025 - Designed for DaVinci Intermediate / DaVinci Wide Gamut for both Input and Output. Copyright 2025 Gamut, LLC.
LUT_3D_SIZE 65
0.0000000000 0.0000000000 0.0000000000
0.0074464000 0.0065308600 0.0065156000
0.0155795000 0.0140078000 0.0139773000
0.0257877000 0.0209049000 0.0208286000
0.0380255000 0.0274815000 0.0272526000
0.0511330000 0.0344244000 0.0339971000
0.0648051000 0.0397955000 0.0391089000
0.0781415000 0.0448310000 0.0438697000
0.0917830000 0.0490883000 0.0475929000
0.1067830000 0.0536660000 0.0515908000
0.1239190000 0.0588388000 0.0565805000
0.1407030000 0.0640879000 0.0612650000
0.1579310000 0.0697642000 0.0666361000
0.1751430000 0.0761883000 0.0722667000
0.1918360000 0.0830091000 0.0787976000
0.2083160000 0.0905165000 0.0859236000
0.2245370000 0.0982834000 0.0929885000
0.2386660000 0.1053940000 0.0994736000
0.2529950000 0.1125960000 0.1065540000
0.2673380000 0.1199510000 0.1134970000
0.2820940000 0.1275960000 0.1205770000
0.2966050000 0.1353930000 0.1279010000
0.3110090000 0.1430690000 0.1351490000
0.3252160000 0.1506980000 0.1424430000
0.3396810000 0.1585110000 0.1496760000
0.3539180000 0.1664450000 0.1570460000
0.3679410000 0.1742430000 0.1642790000
0.3822390000 0.1819640000 0.1715420000
0.3959870000 0.1895170000 0.1785310000
0.4099030000 0.1971470000 0.1855800000
0.4230560000 0.2045320000 0.1923860000
0.4358890000 0.2119480000 0.1992220000
0.4476690000 0.2189970000 0.2056310000
0.4591290000 0.2258950000 0.2117800000
0.4695960000 0.2322730000 0.2172880000
0.4794380000 0.2385600000 0.2224920000
0.4890820000 0.2449680000 0.2275270000
0.4984360000 0.2514690000 0.2324710000
0.5074080000 0.2581520000 0.2377660000
0.5162890000 0.2655070000 0.2429540000
0.5245750000 0.2731210000 0.2481570000
0.5321430000 0.2809950000 0.2533610000
0.5395280000 0.2894180000 0.2587470000
0.5462270000 0.2978260000 0.2639960000
0.5514150000 0.3060650000 0.2691230000
0.5560390000 0.3146110000 0.2745560000
0.5607690000 0.3232320000 0.2805070000
0.5647970000 0.3311970000 0.2867630000
0.5683220000 0.3395590000 0.2935680000
0.5718930000 0.3487750000 0.3016560000
0.5760430000 0.3589070000 0.3102920000
0.5802700000 0.3699700000 0.3197830000
0.5854120000 0.3820250000 0.3304040000
0.5910890000 0.3949490000 0.3404290000
0.5967190000 0.4081790000 0.3511100000
0.6025330000 0.4219120000 0.3620050000
0.6084540000 0.4360570000 0.3736480000
0.6146640000 0.4504310000 0.3854580000
0.6210880000 0.4648810000 0.3979550000
0.6280310000 0.4793010000 0.4111240000
0.6356760000 0.4944840000 0.4257720000
0.6437630000 0.5091480000 0.4407420000
0.6518040000 0.5235830000 0.4560460000
0.6606700000 0.5376520000 0.4714270000
0.6697180000 0.5506830000 0.4867020000
0.0048828900 0.0057373900 0.0045929700
0.0110323000 0.0110475000 0.0085755700
0.0190585000 0.0175937000 0.0155489000
0.0291905000 0.0235599000 0.0222782000
0.0415045000 0.0296178000 0.0288396000
0.0551766000 0.0360113000 0.0352331000
0.0694285000 0.0417029000 0.0408026000
0.0828412000 0.0463417000 0.0451972000
0.0967880000 0.0508888000 0.0490730000
0.1114820000 0.0550546000 0.0528115000
0.1282520000 0.0602579000 0.0577401000
0.1449910000 0.0654917000 0.0625467000
0.1616690000 0.0711070000 0.0678264000
0.1783170000 0.0774090000 0.0734569000
0.1945830000 0.0842603000 0.0798352000
0.2106510000 0.0916457000 0.0869306000
0.2262300000 0.0991226000 0.0937514000
0.2401920000 0.1061880000 0.1002060000
0.2543220000 0.1132980000 0.1072100000
0.2684980000 0.1205920000 0.1140760000
0.2830550000 0.1281610000 0.1210800000
0.2974750000 0.1358820000 0.1283440000
0.3117570000 0.1434810000 0.1355150000
0.3259020000 0.1510490000 0.1428240000
0.3403070000 0.1588310000 0.1500270000
0.3544520000 0.1667050000 0.1573360000
0.3683680000 0.1745020000 0.1644920000
0.3825890000 0.1821770000 0.1717250000
0.3962460000 0.1896540000 0.1786370000
0.4101320000 0.1972840000 0.1856570000
0.4232700000 0.2046850000 0.1924930000
0.4360880000 0.2120850000 0.1992980000
0.4478220000 0.2191200000 0.2057070000
0.4592200000 0.2259860000 0.2118260000
0.4697030000 0.2323640000 0.2173340000
0.4795300000 0.2386510000 0.2225380000
0.4891580000 0.2450600000 0.2275580000
0.4985120000 0.2515750000 0.2325170000
0.5074690000 0.2582590000 0.2378120000
0.5163500000 0.2655990000 0.2430000000
0.5246360000 0.2732280000 0.2481880000
0.5322040000 0.2811020000 0.2533910000
0.5395590000 0.2894940000 0.2587620000
0.5462420000 0.2979020000 0.2639960000
0.5514460000 0.3061420000 0.2691230000
0.5560540000 0.3146720000 0.2745710000
0.5608000000 0.3233230000 0.2805220000
0.5648280000 0.3312580000 0.2867780000
0.5683530000 0.3396350000 0.2935680000
0.5719230000 0.3488370000 0.3016560000
0.5760590000 0.3589530000 0.3102920000
0.5802850000 0.3700160000 0.3197830000
0.5854120000 0.3820550000 0.3303880000
0.5911040000 0.3949800000 0.3404440000
0.5967350000 0.4082090000 0.3511100000
0.6025330000 0.4219270000 0.3619900000
0.6084690000 0.4360880000 0.3736320000
0.6146640000 0.4504460000 0.3854430000
0.6211030000 0.4648970000 0.3979400000
0.6280310000 0.4793320000 0.4111240000
0.6356760000 0.4944990000 0.4257570000
0.6437780000 0.5091630000 0.4407420000
0.6518200000 0.5235980000 0.4560310000
0.6606700000 0.5376670000 0.4714120000
0.6697180000 0.5506980000 0.4867020000
0.0107729000 0.0124514000 0.0101930000
0.0163272000 0.0185245000 0.0151217000
0.0231632000 0.0231785000 0.0178378000
0.0328832000 0.0310216000 0.0259861000
0.0445106000 0.0349584000 0.0290379000
0.0566110000 0.0399786000 0.0359503000
0.0697032000 0.0438239000 0.0404212000
0.0833753000 0.0474403000 0.0453193000
0.0981765000 0.0519112000 0.0494087000
0.1140000000 0.0561379000 0.0535592000
0.1308460000 0.0610971000 0.0582284000
0.1477070000 0.0666056000 0.0634470000
0.1645530000 0.0723888000 0.0688029000
0.1810330000 0.0784161000 0.0745556000
0.1968720000 0.0853285000 0.0807813000
0.2126960000 0.0926528000 0.0878157000
0.2277710000 0.0999161000 0.0944533000
0.2415500000 0.1068890000 0.1009540000
0.2555730000 0.1139700000 0.1077290000
0.2695810000 0.1211870000 0.1146110000
0.2838030000 0.1286950000 0.1215530000
0.2982990000 0.1363240000 0.1287560000
0.3124590000 0.1438620000 0.1358660000
0.3265580000 0.1514000000 0.1430840000
0.3409020000 0.1591360000 0.1503470000
0.3549550000 0.1669640000 0.1576100000
0.3687650000 0.1747310000 0.1646910000
0.3829400000 0.1823910000 0.1718930000
0.3964900000 0.1897920000 0.1787290000
0.4103460000 0.1974060000 0.1857480000
0.4234840000 0.2048370000 0.1926150000
0.4362550000 0.2122220000 0.1993590000
0.4479590000 0.2192420000 0.2057830000
0.4593120000 0.2260620000 0.2118560000
0.4698100000 0.2324710000 0.2173800000
0.4796220000 0.2387430000 0.2225830000
0.4892350000 0.2451510000 0.2276040000
0.4985890000 0.2516670000 0.2325630000
0.5075460000 0.2583500000 0.2378580000
0.5164110000 0.2657050000 0.2430460000
0.5246970000 0.2733350000 0.2482190000
0.5322500000 0.2812090000 0.2534220000
0.5395740000 0.2895700000 0.2587620000
0.5462580000 0.2979780000 0.2640120000
0.5514460000 0.3062030000 0.2691230000
0.5560690000 0.3147480000 0.2745710000
0.5608450000 0.3233840000 0.2805520000
0.5648580000 0.3313340000 0.2867930000
0.5683830000 0.3396960000 0.2935680000
0.5719540000 0.3488980000 0.3016560000
0.5760890000 0.3590140000 0.3102920000
0.5803010000 0.3700620000 0.3197830000
0.5854430000 0.3821010000 0.3303880000
0.5911190000 0.3950100000 0.3404440000
0.5967500000 0.4082400000 0.3511100000
0.6025330000 0.4219420000 0.3619750000
0.6084840000 0.4361030000 0.3736320000
0.6146790000 0.4504770000 0.3854280000
0.6211180000 0.4649120000 0.3979400000
0.6280460000 0.4793620000 0.4111240000
0.6356910000 0.4945300000 0.4257570000
0.6437780000 0.5091780000 0.4407420000
0.6518200000 0.5236130000 0.4560310000
0.6606700000 0.5376820000 0.4714120000
0.6697340000 0.5507130000 0.4867020000
0.0173648000 0.0200809000 0.0164340000
0.0238193000 0.0276036000 0.0225223000
0.0296330000 0.0321050000 0.0259098000
0.0377050000 0.0377356000 0.0292668000
0.0486458000 0.0427710000 0.0335241000
0.0599374000 0.0471504000 0.0370794000
0.0722210000 0.0496529000 0.0404212000
0.0849012000 0.0526589000 0.0453346000
0.0989395000 0.0555886000 0.0495308000
0.1141990000 0.0583352000 0.0535744000
0.1315330000 0.0625162000 0.0583810000
0.1490810000 0.0676127000 0.0638132000
0.1664760000 0.0734569000 0.0693217000
0.1828790000 0.0794690000 0.0753643000
0.1988100000 0.0864424000 0.0817121000
0.2147250000 0.0937209000 0.0885481000
0.2292820000 0.1007400000 0.0951858000
0.2430000000 0.1076370000 0.1017470000
0.2569010000 0.1147020000 0.1082480000
0.2707410000 0.1218430000 0.1151750000
0.2848100000 0.1292590000 0.1220570000
0.2991840000 0.1368280000 0.1291980000
0.3132370000 0.1443050000 0.1362480000
0.3272600000 0.1518270000 0.1433740000
0.3414970000 0.1594870000 0.1506520000
0.3554740000 0.1672690000 0.1578850000
0.3692230000 0.1750060000 0.1649350000
0.3832910000 0.1825740000 0.1720610000
0.3967960000 0.1899900000 0.1788820000
0.4105590000 0.1975430000 0.1858400000
0.4237430000 0.2050200000 0.1927370000
0.4364690000 0.2123750000 0.1994510000
0.4481270000 0.2193640000 0.2058750000
0.4594190000 0.2261540000 0.2119020000
0.4699320000 0.2325780000 0.2174410000
0.4797440000 0.2388490000 0.2226600000
0.4893260000 0.2452580000 0.2276340000
0.4986500000 0.2517890000 0.2326240000
0.5076220000 0.2584730000 0.2379030000
0.5164720000 0.2658270000 0.2430910000
0.5247730000 0.2734570000 0.2482490000
0.5323110000 0.2813310000 0.2534680000
0.5396050000 0.2896620000 0.2587780000
0.5462730000 0.2980540000 0.2640120000
0.5514760000 0.3062940000 0.2691390000
0.5560850000 0.3148240000 0.2745710000
0.5608760000 0.3234760000 0.2805520000
0.5648890000 0.3314110000 0.2867930000
0.5684140000 0.3397730000 0.2935840000
0.5719840000 0.3489590000 0.3016560000
0.5761040000 0.3590600000 0.3103070000
0.5803310000 0.3701080000 0.3197680000
0.5854580000 0.3821470000 0.3303880000
0.5911340000 0.3950560000 0.3404440000
0.5967650000 0.4082860000 0.3510950000
0.6025480000 0.4219730000 0.3619590000
0.6084840000 0.4361330000 0.3736170000
0.6146940000 0.4504920000 0.3854280000
0.6211180000 0.4649270000 0.3979100000
0.6280610000 0.4793770000 0.4111240000
0.6356910000 0.4945450000 0.4257420000
0.6437930000 0.5091940000 0.4407420000
0.6518350000 0.5236290000 0.4560310000
0.6606850000 0.5376970000 0.4714120000
0.6697340000 0.5507290000 0.4866860000
0.0254673000 0.0292515000 0.0240940000
0.0304112000 0.0371862000 0.0281376000
0.0344701000 0.0432441000 0.0305333000
0.0423896000 0.0470130000 0.0332036000
0.0510109000 0.0519417000 0.0374151000
0.0629282000 0.0566415000 0.0403449000
0.0752728000 0.0595865000 0.0433051000
0.0875715000 0.0616312000 0.0460822000
0.1008320000 0.0628214000 0.0492256000
0.1155260000 0.0642557000 0.0533303000
0.1323420000 0.0670481000 0.0584878000
0.1493100000 0.0702983000 0.0636912000
0.1667960000 0.0750439000 0.0692454000
0.1839170000 0.0807660000 0.0757763000
0.2003200000 0.0875563000 0.0825208000
0.2162510000 0.0948043000 0.0892348000
0.2307320000 0.1016400000 0.0958877000
0.2444500000 0.1084760000 0.1024340000
0.2580610000 0.1154800000 0.1089040000
0.2719770000 0.1225760000 0.1157850000
0.2859080000 0.1299150000 0.1226210000
0.2999470000 0.1374230000 0.1297170000
0.3140920000 0.1447930000 0.1366600000
0.3280230000 0.1522850000 0.1436790000
0.3420920000 0.1599150000 0.1509730000
0.3560390000 0.1676200000 0.1581750000
0.3697720000 0.1752960000 0.1652400000
0.3837030000 0.1827570000 0.1722590000
0.3972230000 0.1902190000 0.1790950000
0.4107880000 0.1977570000 0.1859920000
0.4240020000 0.2052190000 0.1928740000
0.4366830000 0.2125580000 0.1995420000
0.4483100000 0.2195160000 0.2059660000
0.4595560000 0.2262610000 0.2119480000
0.4700540000 0.2327000000 0.2175020000
0.4798810000 0.2389720000 0.2227360000
0.4894180000 0.2453800000 0.2276800000
0.4987560000 0.2519260000 0.2326850000
0.5076980000 0.2586100000 0.2379640000
0.5165480000 0.2659650000 0.2431370000
0.5248490000 0.2735940000 0.2482950000
0.5323720000 0.2814680000 0.2535130000
0.5396350000 0.2897690000 0.2587930000
0.5463040000 0.2981610000 0.2640270000
0.5514920000 0.3063860000 0.2691390000
0.5561150000 0.3149160000 0.2745710000
0.5609060000 0.3235680000 0.2805830000
0.5649500000 0.3315020000 0.2868240000
0.5684440000 0.3398490000 0.2935840000
0.5720150000 0.3490350000 0.3016710000
0.5761350000 0.3591360000 0.3103070000
0.5803460000 0.3701840000 0.3197680000
0.5854730000 0.3822080000 0.3303880000
0.5911650000 0.3951020000 0.3404590000
0.5967800000 0.4083160000 0.3510950000
0.6025480000 0.4220040000 0.3619440000
0.6084990000 0.4361790000 0.3736170000
0.6147100000 0.4505230000 0.3854120000
0.6211180000 0.4649420000 0.3979100000
0.6280770000 0.4794080000 0.4111240000
0.6357060000 0.4945600000 0.4257420000
0.6437930000 0.5092090000 0.4407420000
0.6518350000 0.5236440000 0.4560310000
0.6606850000 0.5377130000 0.4714120000
0.6697340000 0.5507440000 0.4866860000
0.0322118000 0.0402686000 0.0291600000
0.0367285000 0.0476081000 0.0326085000
0.0413214000 0.0543221000 0.0359960000
0.0459754000 0.0580453000 0.0376135000
0.0554818000 0.0621195000 0.0404059000
0.0656443000 0.0664836000 0.0434882000
0.0785229000 0.0706340000 0.0462348000
0.0903182000 0.0731823000 0.0490730000
0.1030140000 0.0740978000 0.0515450000
0.1172200000 0.0740063000 0.0537575000
0.1336390000 0.0759594000 0.0586099000
0.1501790000 0.0776074000 0.0640421000
0.1670860000 0.0799725000 0.0695506000
0.1838710000 0.0837110000 0.0757763000
0.2009770000 0.0895705000 0.0829023000
0.2172270000 0.0962539000 0.0897993000
0.2318910000 0.1027850000 0.0964828000
0.2457620000 0.1094530000 0.1030440000
0.2594800000 0.1163200000 0.1096820000
0.2732430000 0.1234150000 0.1163810000
0.2870830000 0.1306630000 0.1232170000
0.3009690000 0.1380940000 0.1302510000
0.3150380000 0.1453570000 0.1371330000
0.3288780000 0.1528040000 0.1441060000
0.3426870000 0.1604180000 0.1512930000
0.3566950000 0.1680320000 0.1585110000
0.3703980000 0.1756310000 0.1655910000
0.3841150000 0.1829860000 0.1724880000
0.3976960000 0.1904780000 0.1793700000
0.4111240000 0.1980010000 0.1862210000
0.4243230000 0.2054630000 0.1930420000
0.4368960000 0.2127870000 0.1996640000
0.4485240000 0.2197150000 0.2060730000
0.4596930000 0.2263830000 0.2119940000
0.4702070000 0.2328530000 0.2175780000
0.4800490000 0.2391240000 0.2228270000
0.4895400000 0.2455180000 0.2277410000
0.4988630000 0.2520790000 0.2327460000
0.5078050000 0.2587620000 0.2380250000
0.5166400000 0.2661170000 0.2431980000
0.5249260000 0.2737620000 0.2483250000
0.5324480000 0.2816210000 0.2535590000
0.5396810000 0.2898910000 0.2588080000
0.5463340000 0.2982680000 0.2640420000
0.5515220000 0.3064930000 0.2691540000
0.5561460000 0.3150070000 0.2745860000
0.5609670000 0.3236740000 0.2805980000
0.5649810000 0.3316090000 0.2868390000
0.5684900000 0.3399560000 0.2935990000
0.5720610000 0.3491260000 0.3016710000
0.5761650000 0.3592130000 0.3102920000
0.5803770000 0.3702450000 0.3197830000
0.5855040000 0.3822690000 0.3303730000
0.5911800000 0.3951480000 0.3404590000
0.5967960000 0.4083770000 0.3510800000
0.6025640000 0.4220340000 0.3619290000
0.6085300000 0.4362100000 0.3736020000
0.6147250000 0.4505530000 0.3854120000
0.6211340000 0.4649730000 0.3978940000
0.6280920000 0.4794380000 0.4111240000
0.6357060000 0.4945750000 0.4257420000
0.6438090000 0.5092390000 0.4407260000
0.6518500000 0.5236740000 0.4560310000
0.6606850000 0.5377130000 0.4713970000
0.6697490000 0.5507440000 0.4866860000
0.0398413000 0.0520943000 0.0349737000
0.0439612000 0.0586709000 0.0378729000
0.0478828000 0.0646220000 0.0409400000
0.0510109000 0.0700236000 0.0428779000
0.0578012000 0.0729534000 0.0444190000
0.0691539000 0.0763256000 0.0470283000
0.0793622000 0.0808728000 0.0500038000
0.0934462000 0.0838483000 0.0517281000
0.1058060000 0.0853590000 0.0542000000
0.1195090000 0.0865949000 0.0567941000
0.1350270000 0.0865644000 0.0595560000
0.1512930000 0.0874800000 0.0642252000
0.1677730000 0.0887617000 0.0698558000
0.1844660000 0.0908675000 0.0763714000
0.2010220000 0.0941939000 0.0829480000
0.2175330000 0.0990616000 0.0900587000
0.2323030000 0.1046460000 0.0967117000
0.2467690000 0.1109330000 0.1035630000
0.2606700000 0.1174790000 0.1102770000
0.2745860000 0.1244220000 0.1169300000
0.2882890000 0.1315630000 0.1238420000
0.3020980000 0.1388720000 0.1308160000
0.3160600000 0.1460290000 0.1376360000
0.3298090000 0.1534450000 0.1445790000
0.3435570000 0.1609980000 0.1516440000
0.3574270000 0.1685360000 0.1588770000
0.3710080000 0.1759670000 0.1658810000
0.3845730000 0.1833370000 0.1728080000
0.3982600000 0.1907990000 0.1796750000
0.4115510000 0.1982910000 0.1865110000
0.4247040000 0.2057530000 0.1932400000
0.4371250000 0.2130460000 0.1998020000
0.4487680000 0.2199280000 0.2061950000
0.4598460000 0.2265350000 0.2120550000
0.4703900000 0.2330360000 0.2176550000
0.4802320000 0.2392920000 0.2229500000
0.4896620000 0.2456860000 0.2278020000
0.4990010000 0.2522620000 0.2328370000
0.5079270000 0.2589610000 0.2381020000
0.5167470000 0.2663160000 0.2432750000
0.5250320000 0.2739600000 0.2483860000
0.5325400000 0.2818190000 0.2536350000
0.5397120000 0.2900280000 0.2588240000
0.5463650000 0.2984210000 0.2640570000
0.5515680000 0.3066300000 0.2691690000
0.5561760000 0.3151290000 0.2745860000
0.5610130000 0.3237960000 0.2806290000
0.5650420000 0.3317310000 0.2868540000
0.5685360000 0.3400630000 0.2936140000
0.5721060000 0.3492330000 0.3016860000
0.5761960000 0.3593040000 0.3103070000
0.5804070000 0.3703210000 0.3197680000
0.5855340000 0.3823300000 0.3303730000
0.5912260000 0.3952090000 0.3404750000
0.5968260000 0.4084230000 0.3510800000
0.6025790000 0.4220650000 0.3619130000
0.6085450000 0.4362400000 0.3735870000
0.6147400000 0.4505840000 0.3853970000
0.6211490000 0.4650030000 0.3978790000
0.6281070000 0.4794690000 0.4111240000
0.6357210000 0.4946060000 0.4257270000
0.6438240000 0.5092700000 0.4407260000
0.6518500000 0.5236900000 0.4560160000
0.6607000000 0.5377430000 0.4713970000
0.6697490000 0.5507590000 0.4866710000
0.0477455000 0.0643168000 0.0408942000
0.0507057000 0.0696880000 0.0427558000
0.0532845000 0.0748913000 0.0442664000
0.0561227000 0.0798505000 0.0459449000
0.0596475000 0.0840162000 0.0476387000
0.0700999000 0.0871290000 0.0500191000
0.0823377000 0.0903792000 0.0528878000
0.0931411000 0.0942245000 0.0552682000
0.1063550000 0.0970016000 0.0575418000
0.1203780000 0.0993820000 0.0603189000
0.1359730000 0.0999161000 0.0633402000
0.1520560000 0.0992752000 0.0664683000
0.1682920000 0.0986801000 0.0701152000
0.1851220000 0.1007250000 0.0767224000
0.2015410000 0.1026780000 0.0833143000
0.2181580000 0.1056080000 0.0907149000
0.2329590000 0.1091330000 0.0972763000
0.2472270000 0.1136950000 0.1037610000
0.2615550000 0.1194630000 0.1107040000
0.2756080000 0.1258560000 0.1175400000
0.2894480000 0.1327230000 0.1244370000
0.3032430000 0.1398180000 0.1313950000
0.3170060000 0.1468990000 0.1382010000
0.3308310000 0.1541920000 0.1450980000
0.3444270000 0.1616080000 0.1520260000
0.3582510000 0.1691160000 0.1591970000
0.3716030000 0.1763490000 0.1661250000
0.3851680000 0.1837950000 0.1731440000
0.3988400000 0.1911960000 0.1799800000
0.4121000000 0.1986270000 0.1868160000
0.4251320000 0.2060880000 0.1934540000
0.4374000000 0.2133360000 0.2000000000
0.4490580000 0.2201880000 0.2063480000
0.4600440000 0.2267340000 0.2121310000
0.4705880000 0.2332340000 0.2177460000
0.4804610000 0.2395060000 0.2230720000
0.4898150000 0.2458990000 0.2278780000
0.4991380000 0.2524760000 0.2329290000
0.5080640000 0.2591900000 0.2381930000
0.5168690000 0.2665450000 0.2433510000
0.5251540000 0.2741890000 0.2484630000
0.5326310000 0.2820320000 0.2536970000
0.5398030000 0.2902270000 0.2588850000
0.5464560000 0.2986190000 0.2641180000
0.5515980000 0.3067670000 0.2691840000
0.5562070000 0.3152670000 0.2745860000
0.5610740000 0.3239490000 0.2806590000
0.5651030000 0.3318680000 0.2868850000
0.5686120000 0.3401850000 0.2936450000
0.5721680000 0.3493550000 0.3016860000
0.5762420000 0.3593960000 0.3103070000
0.5804530000 0.3704130000 0.3197680000
0.5855650000 0.3824220000 0.3303580000
0.5912410000 0.3952700000 0.3404750000
0.5968410000 0.4084840000 0.3510640000
0.6025790000 0.4221100000 0.3618830000
0.6085760000 0.4363010000 0.3735710000
0.6147550000 0.4506290000 0.3853670000
0.6211640000 0.4650340000 0.3978640000
0.6281220000 0.4795300000 0.4111240000
0.6357370000 0.4946360000 0.4257270000
0.6438390000 0.5093000000 0.4407260000
0.6518650000 0.5237050000 0.4560160000
0.6607160000 0.5377580000 0.4713820000
0.6697640000 0.5507900000 0.4866710000
0.0536660000 0.0758221000 0.0443732000
0.0566110000 0.0806287000 0.0462959000
0.0591287000 0.0848859000 0.0478065000
0.0616617000 0.0894942000 0.0495155000
0.0644694000 0.0944228000 0.0512398000
0.0692912000 0.0973068000 0.0525521000
0.0829175000 0.1009080000 0.0558480000
0.0947738000 0.1038830000 0.0583810000
0.1051040000 0.1067220000 0.0612955000
0.1210350000 0.1091170000 0.0635691000
0.1367060000 0.1112380000 0.0669261000
0.1528800000 0.1121540000 0.0704051000
0.1690550000 0.1120470000 0.0740063000
0.1854430000 0.1110860000 0.0775921000
0.2021060000 0.1131300000 0.0845655000
0.2187080000 0.1154960000 0.0915847000
0.2337830000 0.1173880000 0.0979934000
0.2481420000 0.1198440000 0.1045090000
0.2621960000 0.1233690000 0.1109640000
0.2762490000 0.1283280000 0.1177390000
0.2904100000 0.1342790000 0.1248650000
0.3043410000 0.1412070000 0.1319450000
0.3180290000 0.1480430000 0.1387500000
0.3317770000 0.1550470000 0.1455100000
0.3452660000 0.1622800000 0.1523610000
0.3588160000 0.1696960000 0.1594110000
0.3723960000 0.1769440000 0.1665060000
0.3858850000 0.1843290000 0.1734950000
0.3994810000 0.1916840000 0.1803010000
0.4126800000 0.1990540000 0.1871060000
0.4256200000 0.2065000000 0.1937130000
0.4377810000 0.2137030000 0.2002140000
0.4493930000 0.2204930000 0.2065310000
0.4603340000 0.2270080000 0.2122840000
0.4707560000 0.2334330000 0.2178070000
0.4806740000 0.2397500000 0.2231940000
0.4899980000 0.2461430000 0.2279550000
0.4993060000 0.2526740000 0.2330210000
0.5082320000 0.2594640000 0.2383150000
0.5170210000 0.2668040000 0.2434580000
0.5252920000 0.2744490000 0.2485390000
0.5327690000 0.2822920000 0.2538030000
0.5399100000 0.2904710000 0.2589610000
0.5465480000 0.2988480000 0.2641950000
0.5516750000 0.3069810000 0.2692300000
0.5562680000 0.3154650000 0.2746170000
0.5611510000 0.3241170000 0.2806900000
0.5651790000 0.3320520000 0.2869150000
0.5687040000 0.3403370000 0.2937060000
0.5722290000 0.3494930000 0.3017010000
0.5762880000 0.3595030000 0.3102920000
0.5804990000 0.3705200000 0.3197680000
0.5855950000 0.3825130000 0.3303580000
0.5912720000 0.3953310000 0.3404590000
0.5968720000 0.4085600000 0.3510640000
0.6026090000 0.4221710000 0.3618520000
0.6085910000 0.4363470000 0.3735560000
0.6147860000 0.4506750000 0.3853510000
0.6211950000 0.4650800000 0.3978480000
0.6281380000 0.4795610000 0.4111090000
0.6357370000 0.4946670000 0.4257110000
0.6438540000 0.5093310000 0.4407260000
0.6518960000 0.5237510000 0.4560160000
0.6607310000 0.5377890000 0.4713820000
0.6697790000 0.5508050000 0.4866710000
0.0605020000 0.0872511000 0.0486305000
0.0627146000 0.0915694000 0.0501411000
0.0648814000 0.0953231000 0.0514534000
0.0672007000 0.0994888000 0.0526894000
0.0701915000 0.1047380000 0.0548257000
0.0732891000 0.1099570000 0.0567178000
0.0817884000 0.1128860000 0.0589456000
0.0962234000 0.1157700000 0.0623026000
0.1086140000 0.1183640000 0.0654459000
0.1179680000 0.1201650000 0.0681773000
0.1358050000 0.1234610000 0.0710460000
0.1521320000 0.1251390000 0.0745403000
0.1691770000 0.1257190000 0.0782940000
0.1857940000 0.1253680000 0.0823682000
0.2021820000 0.1244830000 0.0860304000
0.2188750000 0.1259330000 0.0927749000
0.2346990000 0.1277940000 0.0995499000
0.2489660000 0.1295030000 0.1059740000
0.2632640000 0.1311510000 0.1120470000
0.2774550000 0.1340510000 0.1186540000
0.2913560000 0.1381090000 0.1253220000
0.3053480000 0.1434350000 0.1324640000
0.3189140000 0.1496150000 0.1391010000
0.3327080000 0.1563290000 0.1459830000
0.3463340000 0.1633940000 0.1528950000
