bundles/resolve-cinematic-luts/Gamut/The Creator/gamut - CREATOR (DWG)/DWG_Creator 07 - Bold.cube
TITLE "Creator LUT 07 by Gamut"
# Version 1.0 - 11/18/2025 - Designed for DaVinci Intermediate / DaVinci Wide Gamut for both Input and Output. Copyright 2025 Gamut, LLC.
LUT_3D_SIZE 5
0.0061799000 0.0104829000 0.0153964000
0.2074310000 0.1224840000 0.1147630000
0.4362250000 0.2346680000 0.2138400000
0.5354090000 0.3626760000 0.3158920000
0.6514990000 0.5561460000 0.5045700000
0.1293050000 0.1592280000 0.1243310000
0.1987640000 0.1970550000 0.1378650000
0.4437320000 0.2484320000 0.2219120000
0.5366450000 0.3665980000 0.3179520000
0.6512400000 0.5561300000 0.5042800000
0.3146870000 0.3936370000 0.2598760000
0.3206070000 0.4002140000 0.2645300000
0.4387880000 0.4115970000 0.2941180000
0.5473110000 0.4193640000 0.3373770000
0.6487070000 0.5562680000 0.5003280000
0.5067370000 0.5163500000 0.3916530000
0.5077590000 0.5170670000 0.3925230000
0.5166860000 0.5239340000 0.4015560000
0.5913480000 0.5565730000 0.4458230000
0.6302590000 0.5691000000 0.4750440000
0.7714200000 0.7448540000 0.6471960000
0.7715720000 0.7449760000 0.6473030000
0.7729610000 0.7461360000 0.6482030000
0.7852900000 0.7566640000 0.6574960000
0.8410310000 0.7858400000 0.6906080000
0.1126730000 0.1270620000 0.1851530000
0.2278320000 0.1425190000 0.2132750000
0.4397500000 0.2339210000 0.2187380000
0.5344930000 0.3593650000 0.3165790000
0.6532230000 0.5573510000 0.5067220000
0.1616690000 0.2091400000 0.2114600000
0.2377326000 0.2395088000 0.2407050000
0.4459510000 0.2444618000 0.2229984000
0.5362110000 0.3641138000 0.3194322000
0.6529640000 0.5573510000 0.5063400000
0.3219500000 0.4018160000 0.2656900000
0.3273884000 0.4066896000 0.2696300000
0.4427252000 0.4145236000 0.2965836000
0.5488794000 0.4202058000 0.3410514000
0.6501410000 0.5573050000 0.5024490000
0.5080340000 0.5172660000 0.3928130000
0.5093248000 0.5189168000 0.3948914000
0.5188984000 0.5261312000 0.4036196000
0.5925080000 0.5575678000 0.4472816000
0.6314790000 0.5700770000 0.4766920000
0.7716030000 0.7450070000 0.6473340000
0.7717400000 0.7451290000 0.6474250000
0.7731290000 0.7462880000 0.6483100000
0.7854120000 0.7567860000 0.6576030000
0.8411080000 0.7859010000 0.6906540000
0.2430460000 0.2826580000 0.4396580000
0.2481880000 0.2814980000 0.4454260000
0.4754410000 0.3247880000 0.4776990000
0.5533070000 0.3662780000 0.4168460000
0.6693830000 0.5678490000 0.5284500000
0.2467990000 0.2874040000 0.4449530000
0.2500284000 0.2899610000 0.4484718000
0.4769054000 0.3270894000 0.4808786000
0.5531426000 0.3672968000 0.4142550000
0.6692610000 0.5678800000 0.5281300000
0.3806670000 0.4848400000 0.4923480000
0.3831908000 0.4877424000 0.4955672000
0.5214100000 0.5187210000 0.5166920000
0.5610408000 0.4055422000 0.3923520000
0.6681620000 0.5692840000 0.5256580000
0.5201650000 0.5268180000 0.4058140000
0.5221760000 0.5289266000 0.4073794000
0.5307026000 0.5354788000 0.4155460000
0.5973512000 0.5621942000 0.4532906000
0.6447700000 0.5807890000 0.4948040000
0.7734190000 0.7465320000 0.6484930000
0.7735710000 0.7466540000 0.6485850000
0.7748990000 0.7477990000 0.6495920000
0.7868620000 0.7580220000 0.6588390000
0.8418560000 0.7865260000 0.6910960000
0.3733730000 0.4548870000 0.5717710000
0.3747460000 0.4554210000 0.5728390000
0.4583960000 0.4585790000 0.6094760000
0.6056460000 0.4914780000 0.6262000000
0.6999310000 0.5980470000 0.6480050000
0.3736020000 0.4555890000 0.5719390000
0.3749110000 0.4561136000 0.5727596000
0.4543466000 0.4597178000 0.6085390000
0.6067020000 0.4924268000 0.6273046000
0.7002060000 0.5983210000 0.6480350000
0.3775080000 0.4630200000 0.5746240000
0.3781246000 0.4634410000 0.5750790000
0.4132570000 0.4700480000 0.5959288000
0.6091858000 0.4965986000 0.6297612000
0.7029980000 0.6014800000 0.6482800000
0.6542150000 0.7417260000 0.7441830000
0.6544352000 0.7422630000 0.7444846000
0.6592418000 0.7473808000 0.7494804000
0.8060944000 0.7839810000 0.7661616000
0.7618520000 0.6676590000 0.6584420000
0.7902190000 0.7613490000 0.6620580000
0.7903110000 0.7614400000 0.6621200000
0.7913330000 0.7623560000 0.6629740000
0.8006410000 0.7707180000 0.6706650000
0.8480200000 0.7924160000 0.6970320000
0.6192110000 0.6873430000 0.7698630000
0.6196380000 0.6875560000 0.7702450000
0.6246130000 0.6897840000 0.7739830000
0.7382770000 0.7071640000 0.8307770000
0.8302430000 0.7403530000 0.8434270000
0.6191810000 0.6873730000 0.7698630000
0.6195770000 0.6875870000 0.7702450000
0.6244910000 0.6897990000 0.7739380000
0.7379420000 0.7072560000 0.8308690000
0.8302890000 0.7404140000 0.8434420000
0.6189210000 0.6878310000 0.7700160000
0.6192420000 0.6880600000 0.7703520000
0.6234840000 0.6901050000 0.7736480000
0.7346460000 0.7083090000 0.8315100000
0.8307930000 0.7410240000 0.8437320000
0.6225380000 0.6962080000 0.7766840000
0.6226900000 0.6963150000 0.7767760000
0.6242770000 0.6974590000 0.7781800000
0.6912950000 0.7191120000 0.8247500000
0.8352330000 0.7465320000 0.8469670000
0.9116200000 0.9597770000 0.9141830000
0.9116350000 0.9597920000 0.9141830000
0.9118490000 0.9601590000 0.9142750000
0.9141990000 0.9631190000 0.9171890000
0.9947810000 0.9629660000 0.9376360000
