bundles/resolve-cinematic-luts/Gamut/The Creator/gamut - CREATOR (DWG)/DWG_Creator 05 - Cine.cube
TITLE "Creator LUT 05 by Gamut"
# Version 1.0 - 11/18/2025 - Designed for DaVinci Intermediate / DaVinci Wide Gamut for both Input and Output. Copyright 2025 Gamut, LLC.
LUT_3D_SIZE 65
0.0046692600 0.0078584000 0.0112917000
0.0092927400 0.0147097000 0.0182650000
0.0141451000 0.0218814000 0.0259403000
0.0201572000 0.0298619000 0.0341192000
0.0286717000 0.0383001000 0.0426337000
0.0383307000 0.0469520000 0.0511177000
0.0504005000 0.0552529000 0.0592203000
0.0626383000 0.0635233000 0.0671397000
0.0756847000 0.0704814000 0.0736400000
0.0887312000 0.0768749000 0.0791638000
0.1014270000 0.0822461000 0.0834821000
0.1154960000 0.0871748000 0.0870680000
0.1316400000 0.0920272000 0.0905013000
0.1497830000 0.0974136000 0.0943618000
0.1691310000 0.1034260000 0.0987869000
0.1889980000 0.1101090000 0.1037770000
0.2084230000 0.1172660000 0.1090710000
0.2253300000 0.1239190000 0.1141370000
0.2420690000 0.1307240000 0.1197220000
0.2584420000 0.1377890000 0.1252000000
0.2749830000 0.1452350000 0.1316090000
0.2908060000 0.1525440000 0.1383690000
0.3068890000 0.1604790000 0.1455860000
0.3229570000 0.1687340000 0.1533380000
0.3389940000 0.1771110000 0.1615170000
0.3543450000 0.1855340000 0.1696650000
0.3686270000 0.1936220000 0.1774470000
0.3823150000 0.2014800000 0.1850920000
0.3953150000 0.2089880000 0.1924160000
0.4074010000 0.2160520000 0.1992830000
0.4185700000 0.2229040000 0.2058290000
0.4295870000 0.2297550000 0.2123750000
0.4397040000 0.2362100000 0.2181120000
0.4491190000 0.2424660000 0.2234070000
0.4576330000 0.2481880000 0.2284120000
0.4652780000 0.2536970000 0.2329290000
0.4723740000 0.2593580000 0.2375070000
0.4776680000 0.2643170000 0.2411990000
0.4823990000 0.2696270000 0.2451360000
0.4862590000 0.2753030000 0.2492260000
0.4897230000 0.2813310000 0.2531010000
0.4931410000 0.2880750000 0.2578470000
0.4966350000 0.2956280000 0.2628520000
0.5006790000 0.3037160000 0.2682840000
0.5044480000 0.3123060000 0.2741440000
0.5088580000 0.3214470000 0.2805830000
0.5129470000 0.3307850000 0.2868700000
0.5169910000 0.3393300000 0.2928970000
0.5208820000 0.3486230000 0.2993360000
0.5252610000 0.3586790000 0.3065840000
0.5294730000 0.3696350000 0.3144430000
0.5338060000 0.3815670000 0.3232780000
0.5378200000 0.3936830000 0.3318530000
0.5420620000 0.4079500000 0.3423510000
0.5460140000 0.4226750000 0.3534290000
0.5499500000 0.4368660000 0.3647970000
0.5537500000 0.4506600000 0.3760590000
0.5574270000 0.4640730000 0.3878080000
0.5618680000 0.4772260000 0.4003810000
0.5669790000 0.4903030000 0.4136870000
0.5728540000 0.5029980000 0.4274050000
0.5795530000 0.5155870000 0.4418710000
0.5869540000 0.5273980000 0.4570080000
0.5948880000 0.5392840000 0.4719920000
0.6029910000 0.5510030000 0.4871750000
0.0077821000 0.0098878500 0.0148623000
0.0096894800 0.0128481000 0.0180362000
0.0145571000 0.0208591000 0.0259556000
0.0212558000 0.0303502000 0.0351263000
0.0304723000 0.0400092000 0.0442359000
0.0416724000 0.0491646000 0.0531472000
0.0546883000 0.0585031000 0.0621195000
0.0671550000 0.0660410000 0.0693370000
0.0799115000 0.0729686000 0.0758984000
0.0927901000 0.0786755000 0.0806897000
0.1049360000 0.0836347000 0.0845045000
0.1192490000 0.0882887000 0.0878614000
0.1351490000 0.0931868000 0.0913252000
0.1533840000 0.0984817000 0.0952468000
0.1724120000 0.1045240000 0.0994888000
0.1918520000 0.1111310000 0.1045240000
0.2105130000 0.1180290000 0.1097120000
0.2270240000 0.1245590000 0.1146110000
0.2435030000 0.1312580000 0.1201040000
0.2597540000 0.1382310000 0.1256890000
0.2759590000 0.1456320000 0.1319140000
0.2917680000 0.1530170000 0.1387810000
0.3077290000 0.1609220000 0.1459830000
0.3236740000 0.1691310000 0.1537190000
0.3394670000 0.1774780000 0.1618680000
0.3548330000 0.1858240000 0.1699400000
0.3689940000 0.1938350000 0.1776460000
0.3826500000 0.2016940000 0.1852900000
0.3956210000 0.2091710000 0.1925840000
0.4076300000 0.2162050000 0.1994050000
0.4187690000 0.2230410000 0.2059210000
0.4297090000 0.2298470000 0.2124360000
0.4398720000 0.2363320000 0.2182190000
0.4492260000 0.2425570000 0.2234680000
0.4577250000 0.2482800000 0.2284580000
0.4653540000 0.2537880000 0.2329750000
0.4724500000 0.2594490000 0.2375520000
0.4777140000 0.2644080000 0.2412600000
0.4824600000 0.2697340000 0.2451820000
0.4863200000 0.2753950000 0.2493020000
0.4897690000 0.2814530000 0.2531780000
0.4932020000 0.2882120000 0.2579230000
0.4966810000 0.2957500000 0.2629130000
0.5007250000 0.3038380000 0.2683600000
0.5045240000 0.3124130000 0.2742050000
0.5089040000 0.3215380000 0.2806290000
0.5129780000 0.3308770000 0.2869150000
0.5170210000 0.3394060000 0.2929270000
0.5209120000 0.3486990000 0.2993670000
0.5253070000 0.3587550000 0.3066300000
0.5294880000 0.3696800000 0.3144580000
0.5338220000 0.3816130000 0.3233080000
0.5378200000 0.3937290000 0.3318530000
0.5420620000 0.4079960000 0.3423820000
0.5460140000 0.4227210000 0.3534450000
0.5499500000 0.4368960000 0.3647970000
0.5537500000 0.4506750000 0.3760590000
0.5574270000 0.4640880000 0.3878080000
0.5618680000 0.4772410000 0.4003810000
0.5669640000 0.4903180000 0.4136720000
0.5728540000 0.5029980000 0.4274050000
0.5795530000 0.5155870000 0.4418710000
0.5869540000 0.5274130000 0.4569920000
0.5948880000 0.5393000000 0.4719920000
0.6029910000 0.5510190000 0.4871750000
0.0112459000 0.0126040000 0.0191043000
0.0142672000 0.0148470000 0.0227970000
0.0149996000 0.0180819000 0.0253300000
0.0202487000 0.0271916000 0.0340429000
0.0296330000 0.0375525000 0.0429389000
0.0403143000 0.0475319000 0.0521859000
0.0532540000 0.0572671000 0.0609293000
0.0668650000 0.0657969000 0.0691234000
0.0809796000 0.0735485000 0.0762341000
0.0945144000 0.0795148000 0.0813306000
0.1072250000 0.0845045000 0.0850843000
0.1217210000 0.0890211000 0.0883497000
0.1381250000 0.0940871000 0.0919356000
0.1563130000 0.0994125000 0.0959029000
0.1751740000 0.1054860000 0.1000990000
0.1941860000 0.1120780000 0.1052260000
0.2122070000 0.1187460000 0.1103690000
0.2284120000 0.1252460000 0.1151450000
0.2449680000 0.1318990000 0.1205460000
0.2610670000 0.1387660000 0.1262530000
0.2769210000 0.1460440000 0.1322500000
0.2926530000 0.1534600000 0.1391780000
0.3085070000 0.1613340000 0.1463650000
0.3243610000 0.1695120000 0.1540700000
0.3400020000 0.1778290000 0.1621730000
0.3553060000 0.1861140000 0.1701990000
0.3693900000 0.1940800000 0.1778740000
0.3829710000 0.2018920000 0.1854730000
0.3958800000 0.2093540000 0.1927370000
0.4078580000 0.2163580000 0.1995420000
0.4189670000 0.2231940000 0.2060270000
0.4298310000 0.2299380000 0.2125120000
0.4400090000 0.2364230000 0.2183110000
0.4493320000 0.2426640000 0.2235290000
0.4578160000 0.2483860000 0.2285040000
0.4654310000 0.2538800000 0.2330210000
0.4725260000 0.2595410000 0.2376130000
0.4777750000 0.2645150000 0.2413060000
0.4825060000 0.2698410000 0.2452280000
0.4863970000 0.2755020000 0.2493780000
0.4898300000 0.2815900000 0.2532390000
0.4932330000 0.2883190000 0.2579840000
0.4967420000 0.2958720000 0.2629740000
0.5007710000 0.3039440000 0.2684060000
0.5045850000 0.3125200000 0.2742660000
0.5089490000 0.3216450000 0.2806900000
0.5130080000 0.3309530000 0.2869610000
0.5170520000 0.3394980000 0.2929580000
0.5209430000 0.3487750000 0.2994130000
0.5253380000 0.3588160000 0.3066610000
0.5295030000 0.3697570000 0.3144880000
0.5338370000 0.3816590000 0.3233390000
0.5378350000 0.3937740000 0.3318680000
0.5420620000 0.4080420000 0.3423970000
0.5460290000 0.4227510000 0.3534450000
0.5499500000 0.4369270000 0.3647970000
0.5537500000 0.4506900000 0.3760590000
0.5574270000 0.4641030000 0.3878080000
0.5618520000 0.4772560000 0.4003810000
0.5669640000 0.4903330000 0.4136720000
0.5728390000 0.5030140000 0.4274050000
0.5795530000 0.5156020000 0.4418710000
0.5869540000 0.5274130000 0.4569920000
0.5948730000 0.5393000000 0.4719770000
0.6029910000 0.5510190000 0.4871750000
0.0150607000 0.0153658000 0.0238346000
0.0189059000 0.0182345000 0.0283513000
0.0202487000 0.0205692000 0.0308995000
0.0210880000 0.0243992000 0.0338140000
0.0286107000 0.0338293000 0.0418097000
0.0391852000 0.0451209000 0.0510262000
0.0515450000 0.0550698000 0.0595712000
0.0651713000 0.0645914000 0.0680247000
0.0802625000 0.0735943000 0.0759442000
0.0943923000 0.0799725000 0.0813153000
0.1076830000 0.0849775000 0.0852369000
0.1229270000 0.0896315000 0.0887007000
0.1402000000 0.0948959000 0.0924544000
0.1585560000 0.1002820000 0.0965133000
0.1774620000 0.1064770000 0.1008160000
0.1965360000 0.1130240000 0.1058980000
0.2140690000 0.1195240000 0.1108570000
0.2300150000 0.1259480000 0.1156940000
0.2462960000 0.1326160000 0.1210040000
0.2623180000 0.1393760000 0.1267720000
0.2780800000 0.1465780000 0.1327380000
0.2936450000 0.1539790000 0.1395740000
0.3093770000 0.1618070000 0.1467770000
0.3251240000 0.1699400000 0.1544670000
0.3406420000 0.1781950000 0.1625240000
0.3556880000 0.1864350000 0.1704740000
0.3698180000 0.1943690000 0.1781190000
0.3833370000 0.2021360000 0.1856870000
0.3961850000 0.2095520000 0.1929200000
0.4081030000 0.2165410000 0.1996800000
0.4191810000 0.2233460000 0.2061490000
0.4299690000 0.2300450000 0.2125730000
0.4401770000 0.2365450000 0.2184330000
0.4494540000 0.2427710000 0.2236060000
0.4579230000 0.2484930000 0.2285500000
0.4655220000 0.2539860000 0.2330820000
0.4726330000 0.2596320000 0.2376750000
0.4778360000 0.2646220000 0.2413670000
0.4825670000 0.2699630000 0.2452890000
0.4864730000 0.2756080000 0.2494700000
0.4898910000 0.2817120000 0.2533150000
0.4933090000 0.2884570000 0.2580610000
0.4968030000 0.2960100000 0.2630500000
0.5008320000 0.3040670000 0.2684820000
0.5046770000 0.3126420000 0.2743420000
0.5089950000 0.3217520000 0.2807510000
0.5130390000 0.3310440000 0.2870070000
0.5170820000 0.3395740000 0.2930040000
0.5209740000 0.3488520000 0.2994430000
0.5253830000 0.3588920000 0.3067220000
0.5295190000 0.3698020000 0.3145040000
0.5338520000 0.3817040000 0.3233390000
0.5378350000 0.3938200000 0.3318680000
0.5420770000 0.4080870000 0.3424120000
0.5460290000 0.4227970000 0.3534600000
0.5499500000 0.4369570000 0.3648130000
0.5537650000 0.4507210000 0.3760590000
0.5574120000 0.4641180000 0.3878080000
0.5618520000 0.4772720000 0.4003810000
0.5669640000 0.4903490000 0.4136720000
0.5728390000 0.5030140000 0.4273900000
0.5795380000 0.5156020000 0.4418550000
0.5869540000 0.5274130000 0.4569920000
0.5948730000 0.5393000000 0.4719770000
0.6029750000 0.5510190000 0.4871600000
0.0197910000 0.0188754000 0.0293584000
0.0238499000 0.0227817000 0.0338445000
0.0275731000 0.0267796000 0.0373236000
0.0281224000 0.0293126000 0.0392309000
0.0302739000 0.0339971000 0.0428168000
0.0397498000 0.0440070000 0.0508736000
0.0510719000 0.0542306000 0.0592660000
0.0640269000 0.0644083000 0.0674296000
0.0795300000 0.0736858000 0.0755474000
0.0939040000 0.0803388000 0.0813001000
0.1079730000 0.0861067000 0.0856794000
0.1231400000 0.0908980000 0.0893416000
0.1405810000 0.0958877000 0.0929580000
0.1597160000 0.1012740000 0.0970779000
0.1792320000 0.1074540000 0.1014270000
0.1985500000 0.1139850000 0.1065380000
0.2158080000 0.1203630000 0.1113300000
0.2316620000 0.1267410000 0.1162740000
0.2478520000 0.1333490000 0.1214770000
0.2635540000 0.1400930000 0.1273520000
0.2793930000 0.1471580000 0.1333790000
0.2947430000 0.1545590000 0.1399560000
0.3103380000 0.1623250000 0.1472190000
0.3259630000 0.1704130000 0.1549100000
0.3413600000 0.1786220000 0.1629050000
0.3560690000 0.1867250000 0.1707180000
0.3703210000 0.1946750000 0.1783930000
0.3837340000 0.2023960000 0.1859310000
0.3965510000 0.2097960000 0.1931330000
0.4083160000 0.2167390000 0.1998630000
0.4194090000 0.2235290000 0.2063020000
0.4301370000 0.2301670000 0.2126500000
0.4403450000 0.2366980000 0.2185240000
0.4495920000 0.2429080000 0.2236820000
0.4580450000 0.2486310000 0.2286110000
0.4656140000 0.2541080000 0.2331580000
0.4727400000 0.2597540000 0.2377510000
0.4779130000 0.2647590000 0.2414430000
0.4826280000 0.2701150000 0.2453650000
0.4865340000 0.2757460000 0.2495460000
0.4899670000 0.2818800000 0.2534070000
0.4933700000 0.2886090000 0.2581370000
0.4968640000 0.2961780000 0.2631420000
0.5008930000 0.3042190000 0.2685740000
0.5047680000 0.3127790000 0.2744340000
0.5090410000 0.3218890000 0.2808120000
0.5130850000 0.3311510000 0.2870530000
0.5171130000 0.3396810000 0.2930500000
0.5210040000 0.3489430000 0.2994740000
0.5254290000 0.3589680000 0.3067670000
0.5295340000 0.3698790000 0.3145190000
0.5338670000 0.3817810000 0.3233690000
0.5378350000 0.3938660000 0.3318680000
0.5420920000 0.4081640000 0.3424430000
0.5460290000 0.4228430000 0.3534750000
0.5499500000 0.4369880000 0.3648130000
0.5537500000 0.4507520000 0.3760740000
0.5574120000 0.4641490000 0.3877930000
0.5618370000 0.4772870000 0.4003660000
0.5669490000 0.4903640000 0.4136720000
0.5728240000 0.5030290000 0.4273900000
0.5795380000 0.5156180000 0.4418550000
0.5869380000 0.5274280000 0.4569770000
0.5948730000 0.5393000000 0.4719620000
0.6029750000 0.5510190000 0.4871600000
0.0258183000 0.0248417000 0.0356298000
0.0303960000 0.0296788000 0.0402075000
0.0348821000 0.0344549000 0.0441291000
0.0368658000 0.0370794000 0.0462959000
0.0377050000 0.0400549000 0.0480507000
0.0437324000 0.0461738000 0.0525673000
0.0534676000 0.0559548000 0.0603799000
0.0650797000 0.0659953000 0.0675364000
0.0788281000 0.0753338000 0.0751965000
0.0948806000 0.0840162000 0.0826123000
0.1096210000 0.0902876000 0.0873579000
0.1245900000 0.0950942000 0.0913558000
0.1412070000 0.0990005000 0.0944686000
0.1600980000 0.1034870000 0.0978561000
0.1802550000 0.1090870000 0.1023730000
0.1998320000 0.1152670000 0.1072100000
0.2172120000 0.1214010000 0.1119400000
0.2332340000 0.1276110000 0.1169300000
0.2493480000 0.1341880000 0.1220720000
0.2649730000 0.1408560000 0.1279470000
0.2805220000 0.1478750000 0.1340350000
0.2960100000 0.1552000000 0.1404900000
0.3113910000 0.1629360000 0.1477380000
0.3269090000 0.1709620000 0.1553980000
0.3421680000 0.1791260000 0.1633480000
0.3566340000 0.1870300000 0.1709770000
0.3709010000 0.1950410000 0.1787440000
0.3842070000 0.2027160000 0.1861910000
0.3969330000 0.2100710000 0.1933620000
0.4085600000 0.2169830000 0.2000610000
0.4196990000 0.2237580000 0.2064700000
0.4303200000 0.2303200000 0.2127570000
0.4405430000 0.2368660000 0.2186470000
0.4497440000 0.2430760000 0.2237890000
0.4581830000 0.2487680000 0.2286720000
0.4657210000 0.2542460000 0.2332340000
0.4728620000 0.2598920000 0.2378120000
0.4780040000 0.2649270000 0.2415350000
0.4827040000 0.2702680000 0.2454410000
0.4866100000 0.2759140000 0.2496220000
0.4900430000 0.2820630000 0.2535130000
0.4934460000 0.2887920000 0.2582280000
0.4969410000 0.2963450000 0.2632330000
0.5009540000 0.3044020000 0.2686660000
0.5048600000 0.3129320000 0.2745400000
0.5091020000 0.3220260000 0.2808730000
0.5131300000 0.3312730000 0.2871140000
0.5171590000 0.3398030000 0.2931110000
0.5210500000 0.3490500000 0.2995350000
0.5254900000 0.3590750000 0.3068280000
0.5295490000 0.3699700000 0.3145490000
0.5338830000 0.3818570000 0.3233840000
0.5378500000 0.3939270000 0.3318840000
0.5420920000 0.4082250000 0.3424580000
0.5460290000 0.4229040000 0.3534910000
0.5499500000 0.4370340000 0.3648130000
0.5537500000 0.4507670000 0.3760590000
0.5573970000 0.4641640000 0.3877930000
0.5618370000 0.4773020000 0.4003660000
0.5669490000 0.4903790000 0.4136570000
0.5728240000 0.5030440000 0.4273750000
0.5795220000 0.5156330000 0.4418550000
0.5869380000 0.5274430000 0.4569770000
0.5948730000 0.5393150000 0.4719620000
0.6029750000 0.5510190000 0.4871600000
0.0334325000 0.0329137000 0.0429541000
0.0378424000 0.0375830000 0.0470588000
0.0420233000 0.0419776000 0.0507515000
0.0456703000 0.0464942000 0.0540322000
0.0466621000 0.0485389000 0.0552071000
0.0494087000 0.0514992000 0.0571756000
0.0573281000 0.0590372000 0.0626993000
0.0674754000 0.0675669000 0.0684977000
0.0803235000 0.0769055000 0.0754559000
0.0949111000 0.0863203000 0.0827192000
0.1099720000 0.0940261000 0.0888685000
0.1262680000 0.1004810000 0.0934462000
0.1432970000 0.1051190000 0.0970016000
0.1617000000 0.1090410000 0.1002670000
0.1807430000 0.1128860000 0.1038220000
0.2005950000 0.1178150000 0.1084460000
0.2181430000 0.1232320000 0.1127950000
0.2345460000 0.1289230000 0.1178000000
0.2506750000 0.1352710000 0.1227590000
0.2663770000 0.1418170000 0.1285880000
0.2818190000 0.1487140000 0.1346610000
0.2971240000 0.1559620000 0.1412070000
0.3127030000 0.1636070000 0.1483330000
0.3279470000 0.1716180000 0.1559620000
0.3430690000 0.1797060000 0.1638510000
0.3574430000 0.1875330000 0.1714660000
0.3716180000 0.1954530000 0.1791870000
0.3847410000 0.2030980000 0.1865110000
0.3973750000 0.2103910000 0.1936220000
0.4088650000 0.2172730000 0.2002900000
0.4200200000 0.2240180000 0.2066680000
0.4305640000 0.2305330000 0.2128940000
0.4407260000 0.2370490000 0.2187530000
0.4499430000 0.2432440000 0.2238350000
0.4583510000 0.2489510000 0.2287630000
0.4658580000 0.2544290000 0.2333260000
0.4729840000 0.2600600000 0.2378730000
0.4781110000 0.2651100000 0.2416270000
0.4827950000 0.2704660000 0.2455480000
0.4867020000 0.2761120000 0.2497290000
0.4901960000 0.2822770000 0.2536810000
0.4935380000 0.2890060000 0.2583500000
0.4970320000 0.2965740000 0.2633550000
0.5010450000 0.3046160000 0.2687720000
0.5049520000 0.3131460000 0.2746470000
0.5091780000 0.3222100000 0.2809490000
0.5131910000 0.3314110000 0.2871900000
0.5172050000 0.3399400000 0.2931720000
0.5210800000 0.3491720000 0.2995800000
0.5255360000 0.3591820000 0.3068890000
0.5295800000 0.3700620000 0.3145800000
0.5338830000 0.3819180000 0.3234000000
0.5378650000 0.3940030000 0.3318840000
0.5420920000 0.4083010000 0.3424890000
0.5460440000 0.4229650000 0.3535060000
0.5499500000 0.4370790000 0.3648280000
0.5537500000 0.4508130000 0.3760740000
0.5573970000 0.4641950000 0.3877930000
0.5618220000 0.4773330000 0.4003660000
0.5669490000 0.4903940000 0.4136570000
0.5728240000 0.5030590000 0.4273750000
0.5795220000 0.5156330000 0.4418400000
0.5869230000 0.5274430000 0.4569770000
0.5948580000 0.5393150000 0.4719460000
0.6029750000 0.5510340000 0.4871440000
0.0418097000 0.0417792000 0.0505989000
0.0454566000 0.0462348000 0.0538491000
0.0490883000 0.0505989000 0.0569772000
0.0528878000 0.0554208000 0.0601968000
0.0559243000 0.0590829000 0.0627146000
0.0570535000 0.0603799000 0.0633555000
0.0628061000 0.0651865000 0.0663157000
0.0711070000 0.0716716000 0.0710155000
0.0822766000 0.0808576000 0.0769207000
0.0949264000 0.0902419000 0.0838026000
0.1096970000 0.0984360000 0.0902266000
0.1258410000 0.1055160000 0.0949569000
0.1438010000 0.1114980000 0.0994278000
0.1632260000 0.1162740000 0.1034560000
0.1825130000 0.1199510000 0.1069960000
0.2015110000 0.1233690000 0.1104750000
0.2190280000 0.1269860000 0.1145040000
0.2354310000 0.1315790000 0.1189750000
0.2517590000 0.1371480000 0.1236900000
0.2675520000 0.1431750000 0.1293350000
0.2830850000 0.1498130000 0.1353480000
0.2983900000 0.1569090000 0.1418630000
0.3138780000 0.1645080000 0.1489590000
0.3292130000 0.1723960000 0.1565580000
0.3440300000 0.1801790000 0.1643090000
0.3584040000 0.1880980000 0.1720760000
0.3724120000 0.1959560000 0.1796900000
0.3853360000 0.2035400000 0.1868770000
0.3978790000 0.2107730000 0.1939270000
0.4092770000 0.2176240000 0.2005490000
0.4204010000 0.2243380000 0.2068970000
0.4308840000 0.2308080000 0.2130460000
0.4409250000 0.2372320000 0.2188600000
0.4501720000 0.2434730000 0.2239870000
0.4585490000 0.2491800000 0.2288550000
0.4660110000 0.2546270000 0.2334330000
0.4731060000 0.2602430000 0.2379490000
0.4782180000 0.2653390000 0.2417490000
0.4828870000 0.2706950000 0.2456700000
0.4867630000 0.2763100000 0.2498210000
0.4903640000 0.2825210000 0.2538800000
0.4936290000 0.2892650000 0.2584880000
0.4971390000 0.2968180000 0.2634930000
0.5011670000 0.3048450000 0.2689250000
0.5050430000 0.3133590000 0.2747690000
0.5092700000 0.3224230000 0.2810250000
0.5132520000 0.3315940000 0.2872660000
0.5172660000 0.3401080000 0.2932330000
0.5211410000 0.3493250000 0.2996410000
0.5255820000 0.3593190000 0.3069500000
0.5296100000 0.3701690000 0.3146110000
0.5338830000 0.3820100000 0.3234000000
0.5378650000 0.3940800000 0.3318840000
0.5421070000 0.4083920000 0.3425040000
0.5460440000 0.4230410000 0.3535210000
0.5499500000 0.4371400000 0.3648280000
0.5537500000 0.4508580000 0.3760590000
0.5573820000 0.4642400000 0.3877780000
0.5618070000 0.4773480000 0.4003660000
0.5669340000 0.4904100000 0.4136420000
0.5728080000 0.5030750000 0.4273590000
0.5795220000 0.5156480000 0.4418400000
0.5869230000 0.5274430000 0.4569470000
0.5948420000 0.5393150000 0.4719310000
0.6029600000 0.5510340000 0.4871290000
0.0498665000 0.0514382000 0.0576486000
0.0534676000 0.0561532000 0.0607004000
0.0569009000 0.0600748000 0.0636759000
0.0603799000 0.0644694000 0.0668040000
0.0641642000 0.0688945000 0.0696269000
0.0660868000 0.0711223000 0.0709392000
0.0687572000 0.0728923000 0.0716259000
0.0757153000 0.0784619000 0.0749981000
0.0859388000 0.0854963000 0.0798810000
0.0972000000 0.0935836000 0.0848859000
0.1101550000 0.1018840000 0.0906996000
0.1253530000 0.1104450000 0.0962539000
0.1427630000 0.1180590000 0.1019460000
0.1626460000 0.1232930000 0.1059740000
0.1831390000 0.1283890000 0.1106580000
0.2026700000 0.1317460000 0.1143820000
0.2204620000 0.1344320000 0.1176780000
0.2366830000 0.1370870000 0.1212790000
0.2526440000 0.1406580000 0.1253530000
0.2686050000 0.1457080000 0.1302050000
0.2841990000 0.1515530000 0.1361720000
0.2996110000 0.1582670000 0.1426260000
0.3150380000 0.1656670000 0.1497220000
0.3302820000 0.1733120000 0.1572290000
0.3451740000 0.1809720000 0.1648130000
0.3593800000 0.1888150000 0.1726410000
0.3731590000 0.1965820000 0.1801790000
0.3861140000 0.2040440000 0.1873660000
0.3984280000 0.2112310000 0.1942780000
0.4097810000 0.2180360000 0.2008550000
0.4208440000 0.2247200000 0.2071720000
0.4312500000 0.2311590000 0.2132300000
0.4411540000 0.2374610000 0.2189820000
0.4504620000 0.2437320000 0.2241860000
0.4587780000 0.2494390000 0.2289620000
0.4661940000 0.2548710000 0.2335700000
0.4731980000 0.2604260000 0.2379800000
0.4783700000 0.2656140000 0.2419010000
0.4830240000 0.2709700000 0.2458230000
0.4868240000 0.2765390000 0.2498970000
0.4905470000 0.2828110000 0.2541080000
0.4938120000 0.2895400000 0.2587170000
0.4972610000 0.2971080000 0.2636450000
0.5013350000 0.3051190000 0.2691390000
0.5051500000 0.3136340000 0.2749220000
0.5093770000 0.3226670000 0.2811170000
0.5133290000 0.3317770000 0.2873580000
0.5173420000 0.3403070000 0.2933240000
0.5212020000 0.3495080000 0.2997330000
0.5256280000 0.3594720000 0.3070120000
0.5296410000 0.3703060000 0.3146560000
0.5338830000 0.3820860000 0.3234000000
0.5378810000 0.3941710000 0.3318990000
0.5421230000 0.4084990000 0.3425500000
0.5460440000 0.4231330000 0.3535520000
0.5499500000 0.4372010000 0.3648430000
0.5537500000 0.4509040000 0.3760590000
0.5573660000 0.4642710000 0.3877780000
0.5618070000 0.4773780000 0.4003510000
0.5669180000 0.4904250000 0.4136260000
0.5727930000 0.5030900000 0.4273440000
0.5795070000 0.5156630000 0.4418250000
0.5869080000 0.5274740000 0.4569620000
0.5948420000 0.5393300000 0.4719310000
0.6029600000 0.5510340000 0.4871290000
0.0587778000 0.0623331000 0.0652476000
0.0619516000 0.0664073000 0.0679026000
0.0648814000 0.0697948000 0.0701915000
0.0679026000 0.0737163000 0.0727703000
0.0709850000 0.0779431000 0.0755322000
0.0742504000 0.0823835000 0.0781262000
0.0759136000 0.0834669000 0.0780957000
0.0815442000 0.0859541000 0.0791638000
0.0901198000 0.0918135000 0.0833143000
0.1004040000 0.0986191000 0.0872969000
0.1107650000 0.1055470000 0.0912032000
0.1246970000 0.1140760000 0.0967880000
0.1416190000 0.1221640000 0.1026170000
0.1610740000 0.1300070000 0.1079880000
0.1819030000 0.1359430000 0.1134050000
0.2034330000 0.1409480000 0.1186390000
0.2220950000 0.1438930000 0.1224230000
0.2383000000 0.1459370000 0.1255360000
0.2542610000 0.1479970000 0.1285570000
0.2697950000 0.1507290000 0.1323570000
0.2853130000 0.1548180000 0.1376060000
0.3006180000 0.1604790000 0.1435420000
0.3161060000 0.1671930000 0.1504230000
0.3313190000 0.1745020000 0.1578850000
0.3463490000 0.1820710000 0.1655150000
