bundles/resolve-cinematic-luts/Gamut/The Creator/gamut - CREATOR (DWG)/DWG_Creator 01 - Cine.cube
TITLE "Creator LUT 01 by Gamut"
# Version 1.0 - 11/18/2025 - Designed for DaVinci Intermediate / DaVinci Wide Gamut for both Input and Output. Copyright 2025 Gamut, LLC.
LUT_3D_SIZE 5
0.0313725000 0.0379644000 0.0426490000
0.1928440000 0.1100480000 0.0961166000
0.4218810000 0.2292970000 0.2043490000
0.5288470000 0.3431140000 0.2942240000
0.6248720000 0.5552000000 0.4915240000
0.0996567000 0.1428700000 0.1437250000
0.1905090000 0.1916690000 0.1369650000
0.4309000000 0.2399020000 0.2108190000
0.5306320000 0.3453880000 0.2947740000
0.6247810000 0.5552610000 0.4913710000
0.2916150000 0.3756470000 0.3431750000
0.2998550000 0.3855190000 0.3515980000
0.4711530000 0.4453190000 0.3272300000
0.5374690000 0.3940340000 0.3087660000
0.6238500000 0.5562220000 0.4894180000
0.5640340000 0.5766380000 0.4710310000
0.5647520000 0.5771570000 0.4715500000
0.5715880000 0.5820250000 0.4768600000
0.6090330000 0.5871520000 0.4835430000
0.6236360000 0.5796900000 0.4881360000
0.6860300000 0.6859390000 0.6165100000
0.6860610000 0.6859540000 0.6165560000
0.6863200000 0.6861980000 0.6169680000
0.6889600000 0.6884870000 0.6210270000
0.6985890000 0.6934770000 0.6297090000
0.0765545000 0.0958724000 0.1569700000
0.2383460000 0.1554280000 0.2079190000
0.4327310000 0.2334330000 0.2156250000
0.5273520000 0.3444570000 0.2996260000
0.6255130000 0.5557790000 0.4930190000
0.1479360000 0.1984280000 0.2140230000
0.2306860000 0.2351260000 0.2380250000
0.4341950000 0.2408180000 0.2167540000
0.5291370000 0.3466700000 0.2997630000
0.6254520000 0.5558860000 0.4928210000
0.3022200000 0.3882960000 0.3544060000
0.3096670000 0.3971620000 0.3619130000
0.4768750000 0.4499120000 0.3312120000
0.5395900000 0.3949030000 0.3122150000
0.6246430000 0.5568320000 0.4910050000
0.5649500000 0.5773100000 0.4717170000
0.5656670000 0.5778130000 0.4722360000
0.5721980000 0.5824670000 0.4773780000
0.6093230000 0.5874720000 0.4839700000
0.6242470000 0.5803460000 0.4890970000
0.6860610000 0.6859540000 0.6165710000
0.6860910000 0.6859850000 0.6166020000
0.6863510000 0.6862440000 0.6170290000
0.6889910000 0.6885180000 0.6210730000
0.6985890000 0.6934770000 0.6297250000
0.1991610000 0.2311740000 0.3583730000
0.2210120000 0.2491040000 0.3716640000
0.4969250000 0.3500420000 0.4553900000
0.5486990000 0.3809570000 0.4058290000
0.6337380000 0.5632260000 0.5101400000
0.2032650000 0.2363320000 0.3639890000
0.2104980000 0.2437170000 0.3703670000
0.4984660000 0.3528040000 0.4587620000
0.5482720000 0.3810180000 0.4036320000
0.6336610000 0.5633170000 0.5099410000
0.3825740000 0.4794380000 0.4940110000
0.3864650000 0.4840770000 0.4983290000
0.5476620000 0.5451900000 0.5284050000
0.5548640000 0.4183260000 0.3960630000
0.6329290000 0.5645080000 0.5078510000
0.5737700000 0.5839470000 0.4794380000
0.5743500000 0.5844050000 0.4798350000
0.5797210000 0.5886930000 0.4846880000
0.6117650000 0.5904940000 0.4881820000
0.6305180000 0.5866480000 0.5014880000
0.6863970000 0.6862900000 0.6171210000
0.6864270000 0.6863050000 0.6171660000
0.6867480000 0.6865340000 0.6176240000
0.6893420000 0.6888380000 0.6215460000
0.6987110000 0.6936140000 0.6299380000
0.3639580000 0.4344850000 0.5174640000
0.3678640000 0.4365450000 0.5186540000
0.4864880000 0.4777750000 0.5470660000
0.6276650000 0.5354090000 0.5935910000
0.6699930000 0.6075380000 0.6047910000
0.3637600000 0.4349430000 0.5178150000
0.3674370000 0.4367900000 0.5188980000
0.4832530000 0.4776530000 0.5467460000
0.6279700000 0.5358210000 0.5938200000
0.6700850000 0.6076450000 0.6047760000
0.3679710000 0.4422830000 0.5224840000
0.3692070000 0.4433510000 0.5231400000
0.4364840000 0.4703140000 0.5401690000
0.6300600000 0.5399710000 0.5958190000
0.6709390000 0.6088040000 0.6045470000
0.6324100000 0.6730600000 0.6541240000
0.6326390000 0.6732280000 0.6542460000
0.6349890000 0.6748760000 0.6554210000
0.6911880000 0.6902880000 0.6507210000
0.6873430000 0.6435340000 0.6123140000
0.6902110000 0.6897840000 0.6229500000
0.6902270000 0.6898150000 0.6229800000
0.6904710000 0.6900280000 0.6232850000
0.6921800000 0.6918900000 0.6258490000
0.7002980000 0.6950790000 0.6320290000
0.6216220000 0.6531780000 0.6487530000
0.6218360000 0.6533000000 0.6488290000
0.6247500000 0.6546880000 0.6495160000
0.6773170000 0.6700240000 0.6574810000
0.7111770000 0.6813310000 0.6597700000
0.6215920000 0.6531930000 0.6487680000
0.6218050000 0.6533150000 0.6488440000
0.6246740000 0.6547040000 0.6495310000
0.6772110000 0.6700540000 0.6575420000
0.7111920000 0.6813460000 0.6597850000
0.6213020000 0.6534220000 0.6489360000
0.6215300000 0.6535290000 0.6489970000
0.6240330000 0.6548100000 0.6496530000
0.6759440000 0.6704510000 0.6580300000
0.7112840000 0.6816050000 0.6598920000
0.6228580000 0.6575880000 0.6514690000
0.6229340000 0.6576490000 0.6514990000
0.6238350000 0.6582130000 0.6517890000
0.6563520000 0.6683600000 0.6551310000
0.7118790000 0.6835430000 0.6606390000
0.7143510000 0.7196150000 0.6770120000
0.7143660000 0.7196150000 0.6770120000
0.7144120000 0.7196610000 0.6770280000
0.7148390000 0.7198900000 0.6770730000
0.7234300000 0.7230030000 0.6746010000
