bundles/resolve-cinematic-luts/Gamut/The Creator/gamut - CREATOR (DWG)/DWG_Creator 05 - Cine.cube
TITLE "Creator LUT 05 by Gamut"
# Version 1.0 - 11/18/2025 - Designed for DaVinci Intermediate / DaVinci Wide Gamut for both Input and Output. Copyright 2025 Gamut, LLC.
LUT_3D_SIZE 5
0.0046692600 0.0078584000 0.0112917000
0.2084230000 0.1172660000 0.1090710000
0.4397040000 0.2362100000 0.2181120000
0.5208820000 0.3486230000 0.2993360000
0.6029910000 0.5510030000 0.4871750000
0.1190810000 0.1465020000 0.1081100000
0.2110020000 0.1975130000 0.1437090000
0.4475930000 0.2482030000 0.2242310000
0.5224230000 0.3523310000 0.3012280000
0.6028380000 0.5511250000 0.4869460000
0.3291070000 0.3824980000 0.2636300000
0.3359120000 0.3895480000 0.2695510000
0.4599830000 0.4384990000 0.3342950000
0.5310140000 0.4233920000 0.3320970000
0.6013430000 0.5524380000 0.4845810000
0.5175860000 0.5202410000 0.4128330000
0.5187300000 0.5210500000 0.4135810000
0.5290000000 0.5283280000 0.4209350000
0.5737240000 0.5515980000 0.4627150000
0.5900510000 0.5666900000 0.4742960000
0.6816510000 0.6667430000 0.6216220000
0.6816970000 0.6667730000 0.6216980000
0.6821090000 0.6670940000 0.6222480000
0.6864120000 0.6715950000 0.6281070000
0.6984050000 0.6819100000 0.6478070000
0.0817426000 0.1003740000 0.1577170000
0.2336610000 0.1417260000 0.2073700000
0.4443580000 0.2381480000 0.2257880000
0.5210190000 0.3471430000 0.3011060000
0.6040740000 0.5517050000 0.4889910000
0.1479360000 0.1969330000 0.1973300000
0.2274970000 0.2286110000 0.2283670000
0.4513010000 0.2458230000 0.2269020000
0.5224990000 0.3508510000 0.3028000000
0.6039060000 0.5518270000 0.4887620000
0.3377430000 0.3914850000 0.2714580000
0.3435720000 0.3974980000 0.2763410000
0.4647440000 0.4425270000 0.3376520000
0.5322040000 0.4229040000 0.3332110000
0.6022890000 0.5530940000 0.4863510000
0.5190510000 0.5212940000 0.4138090000
0.5201650000 0.5221030000 0.4145420000
0.5300070000 0.5290300000 0.4219580000
0.5739530000 0.5518430000 0.4630040000
0.5910120000 0.5675750000 0.4757000000
0.6816970000 0.6667730000 0.6217140000
0.6817430000 0.6668040000 0.6217590000
0.6821550000 0.6671400000 0.6223090000
0.6864730000 0.6716410000 0.6281990000
0.6984360000 0.6819260000 0.6478520000
0.2025790000 0.2429390000 0.3744560000
0.2042110000 0.2422520000 0.3798280000
0.4724040000 0.3199360000 0.4410160000
0.5424280000 0.3721980000 0.4045470000
0.6149080000 0.5586790000 0.5071180000
0.2074310000 0.2487370000 0.3799950000
0.2104220000 0.2523380000 0.3844050000
0.4746930000 0.3223770000 0.4442360000
0.5424580000 0.3727320000 0.4025330000
0.6148470000 0.5589070000 0.5069810000
0.3777070000 0.4709850000 0.4617380000
0.3809570000 0.4746930000 0.4655370000
0.5265430000 0.5258410000 0.5115890000
0.5503470000 0.4078130000 0.3826810000
0.6139770000 0.5611960000 0.5056840000
0.5319290000 0.5309220000 0.4244140000
0.5325400000 0.5314410000 0.4251620000
0.5399560000 0.5362780000 0.4324100000
0.5764710000 0.5548490000 0.4673690000
0.6003200000 0.5774170000 0.4902110000
0.6822460000 0.6672310000 0.6224460000
0.6822920000 0.6672770000 0.6225070000
0.6827950000 0.6677650000 0.6231630000
0.6870530000 0.6722210000 0.6291290000
0.6986340000 0.6821850000 0.6482490000
0.3662010000 0.4434880000 0.5193260000
0.3674680000 0.4440990000 0.5201340000
0.4437930000 0.4492410000 0.5452510000
0.5855650000 0.4893420000 0.5786980000
0.6572820000 0.5995880000 0.6175020000
0.3665220000 0.4441600000 0.5195390000
0.3676510000 0.4448160000 0.5202410000
0.4399180000 0.4495310000 0.5444270000
0.5857020000 0.4896470000 0.5788200000
0.6575110000 0.5998470000 0.6176090000
0.3712520000 0.4515300000 0.5226670000
0.3717860000 0.4520330000 0.5230180000
0.4028380000 0.4590220000 0.5380480000
0.5875490000 0.4934460000 0.5805750000
0.6596170000 0.6029140000 0.6184330000
0.6118560000 0.6671240000 0.6575720000
0.6120850000 0.6672770000 0.6577550000
0.6148620000 0.6691390000 0.6599220000
0.7027240000 0.6909900000 0.6762950000
0.6866870000 0.6499270000 0.6330360000
0.6888690000 0.6738540000 0.6319520000
0.6888990000 0.6738690000 0.6319980000
0.6892810000 0.6740980000 0.6325930000
0.6928210000 0.6777750000 0.6384220000
0.7002820000 0.6842150000 0.6511180000
0.5943690000 0.6485080000 0.6616770000
0.5947360000 0.6486610000 0.6617380000
0.5997100000 0.6510570000 0.6636000000
0.6908520000 0.6728620000 0.6878770000
0.7061110000 0.6829630000 0.6893110000
0.5943080000 0.6485080000 0.6616770000
0.5946590000 0.6486610000 0.6617380000
0.5995730000 0.6510260000 0.6635690000
0.6906840000 0.6728770000 0.6878770000
0.7061110000 0.6829940000 0.6893110000
0.5937290000 0.6484930000 0.6616310000
0.5940340000 0.6487070000 0.6617530000
0.5983060000 0.6507670000 0.6632790000
0.6890360000 0.6731060000 0.6877240000
0.7062180000 0.6832070000 0.6893720000
0.5949490000 0.6521100000 0.6637370000
0.5950710000 0.6521860000 0.6637980000
0.5965210000 0.6530860000 0.6644850000
0.6621200000 0.6753190000 0.6846420000
0.7070730000 0.6851150000 0.6898300000
0.7171890000 0.7080800000 0.6960860000
0.7171890000 0.7080800000 0.6960860000
0.7172050000 0.7080950000 0.6961010000
0.7173110000 0.7082170000 0.6962390000
0.7183640000 0.7090100000 0.6967880000
