bundles/resolve-cinematic-luts/Gamut/The Creator/gamut - CREATOR (DWG)/DWG_Creator 04 - Stock.cube
TITLE "Creator LUT 04 by Gamut"
# Version 1.0 - 11/18/2025 - Designed for DaVinci Intermediate / DaVinci Wide Gamut for both Input and Output. Copyright 2025 Gamut, LLC.
LUT_3D_SIZE 65
0.0326848000 0.0333867000 0.0342107000
0.0365911000 0.0370794000 0.0379034000
0.0407416000 0.0410773000 0.0418860000
0.0451362000 0.0451209000 0.0459144000
0.0498817000 0.0495918000 0.0504005000
0.0551766000 0.0543221000 0.0550393000
0.0615396000 0.0594034000 0.0598154000
0.0691386000 0.0648661000 0.0651102000
0.0807202000 0.0726787000 0.0722515000
0.0950027000 0.0811017000 0.0795911000
0.1119710000 0.0901656000 0.0869306000
0.1304800000 0.0985580000 0.0930037000
0.1497060000 0.1065380000 0.0981003000
0.1689020000 0.1139540000 0.1032270000
0.1879610000 0.1217210000 0.1088580000
0.2071870000 0.1300830000 0.1162280000
0.2258340000 0.1386740000 0.1246200000
0.2422220000 0.1465170000 0.1325550000
0.2589460000 0.1550770000 0.1416650000
0.2755630000 0.1634090000 0.1511560000
0.2921650000 0.1717560000 0.1609520000
0.3087360000 0.1797970000 0.1709930000
0.3248190000 0.1875180000 0.1810940000
0.3403680000 0.1947200000 0.1909210000
0.3553520000 0.2019530000 0.2006560000
0.3696500000 0.2092010000 0.2097050000
0.3832610000 0.2162660000 0.2176700000
0.3951170000 0.2226900000 0.2242620000
0.4056000000 0.2283510000 0.2295110000
0.4136720000 0.2327150000 0.2328220000
0.4207060000 0.2363160000 0.2352030000
0.4255890000 0.2389410000 0.2364690000
0.4296330000 0.2408790000 0.2371400000
0.4323190000 0.2420840000 0.2373690000
0.4343020000 0.2426950000 0.2369730000
0.4358280000 0.2430760000 0.2362860000
0.4379490000 0.2441600000 0.2363620000
0.4397650000 0.2448310000 0.2360880000
0.4428630000 0.2467840000 0.2372630000
0.4464330000 0.2492870000 0.2385600000
0.4504770000 0.2522010000 0.2401920000
0.4552830000 0.2566720000 0.2426490000
0.4606240000 0.2621500000 0.2454570000
0.4670020000 0.2690470000 0.2491800000
0.4727090000 0.2774550000 0.2531470000
0.4791330000 0.2876330000 0.2584120000
0.4861680000 0.2993970000 0.2657970000
0.4944840000 0.3119400000 0.2744950000
0.5033800000 0.3254900000 0.2845350000
0.5144730000 0.3406580000 0.2966200000
0.5267260000 0.3569090000 0.3102160000
0.5404440000 0.3744110000 0.3247730000
0.5546200000 0.3923550000 0.3399400000
0.5674220000 0.4099950000 0.3537350000
0.5794920000 0.4282600000 0.3673000000
0.5913630000 0.4472110000 0.3808800000
0.6037380000 0.4682080000 0.3968570000
0.6159760000 0.4894180000 0.4126650000
0.6277710000 0.5098650000 0.4282290000
0.6394750000 0.5295490000 0.4438090000
0.6510410000 0.5486530000 0.4594800000
0.6624700000 0.5663230000 0.4748150000
0.6740670000 0.5834740000 0.4905930000
0.6857400000 0.5998780000 0.5061270000
0.6973370000 0.6160530000 0.5219500000
0.0348516000 0.0356909000 0.0362249000
0.0365148000 0.0372778000 0.0380560000
0.0408637000 0.0413367000 0.0421302000
0.0456703000 0.0457313000 0.0464790000
0.0507362000 0.0505226000 0.0510872000
0.0575875000 0.0560922000 0.0566873000
0.0637064000 0.0609751000 0.0614939000
0.0730449000 0.0671244000 0.0670787000
0.0843671000 0.0753185000 0.0746777000
0.0997940000 0.0836347000 0.0817273000
0.1167320000 0.0924239000 0.0885328000
0.1349050000 0.1005260000 0.0943008000
0.1538720000 0.1082020000 0.0992294000
0.1725340000 0.1153580000 0.1043260000
0.1911040000 0.1230330000 0.1099410000
0.2097960000 0.1313340000 0.1172050000
0.2277870000 0.1397420000 0.1256890000
0.2437480000 0.1474020000 0.1334550000
0.2601360000 0.1556570000 0.1423210000
0.2767220000 0.1640800000 0.1519340000
0.2933090000 0.1723510000 0.1616390000
0.3095750000 0.1802850000 0.1716030000
0.3255210000 0.1879300000 0.1816280000
0.3410240000 0.1950260000 0.1913330000
0.3559470000 0.2022580000 0.2009310000
0.3701530000 0.2094450000 0.2099950000
0.3836880000 0.2164640000 0.2178990000
0.3953920000 0.2228270000 0.2243380000
0.4058140000 0.2284580000 0.2296030000
0.4138400000 0.2328070000 0.2328830000
0.4207830000 0.2363780000 0.2352330000
0.4256660000 0.2389720000 0.2364840000
0.4296790000 0.2409090000 0.2371400000
0.4323490000 0.2421000000 0.2373540000
0.4343480000 0.2427250000 0.2369730000
0.4358590000 0.2431070000 0.2362860000
0.4379950000 0.2441750000 0.2363470000
0.4398110000 0.2448620000 0.2360880000
0.4429240000 0.2468300000 0.2372780000
0.4464940000 0.2493480000 0.2385750000
0.4504920000 0.2522470000 0.2401920000
0.4553440000 0.2567330000 0.2426640000
0.4606850000 0.2622260000 0.2454720000
0.4670330000 0.2691080000 0.2491800000
0.4727240000 0.2775160000 0.2531620000
0.4791490000 0.2877090000 0.2584420000
0.4861830000 0.2994580000 0.2658120000
0.4944690000 0.3119710000 0.2745100000
0.5033650000 0.3255360000 0.2845500000
0.5144730000 0.3406880000 0.2966200000
0.5267110000 0.3569240000 0.3102010000
0.5404290000 0.3744260000 0.3247580000
0.5546040000 0.3923700000 0.3399400000
0.5674220000 0.4100100000 0.3537190000
0.5794770000 0.4282750000 0.3672850000
0.5913480000 0.4472420000 0.3808800000
0.6037380000 0.4682230000 0.3968570000
0.6159610000 0.4894180000 0.4126500000
0.6277560000 0.5098650000 0.4282140000
0.6394600000 0.5295490000 0.4437930000
0.6510260000 0.5486690000 0.4594640000
0.6624550000 0.5663230000 0.4748000000
0.6740520000 0.5834740000 0.4905780000
0.6857400000 0.5998780000 0.5061270000
0.6973220000 0.6160530000 0.5219350000
0.0369726000 0.0381628000 0.0386511000
0.0390784000 0.0404059000 0.0408026000
0.0406195000 0.0413977000 0.0421454000
0.0448310000 0.0453040000 0.0460975000
0.0499733000 0.0501411000 0.0505989000
0.0559701000 0.0552987000 0.0558480000
0.0631266000 0.0607004000 0.0610666000
0.0727245000 0.0670634000 0.0669718000
0.0853285000 0.0759442000 0.0753033000
0.1020370000 0.0848554000 0.0829480000
0.1197070000 0.0938277000 0.0895552000
0.1381860000 0.1018840000 0.0951553000
0.1570000000 0.1093460000 0.0999619000
0.1754180000 0.1165330000 0.1051500000
0.1936980000 0.1241320000 0.1110700000
0.2120240000 0.1324180000 0.1182120000
0.2296030000 0.1406420000 0.1263900000
0.2454110000 0.1482570000 0.1343250000
0.2615400000 0.1563590000 0.1430990000
0.2779890000 0.1647210000 0.1525140000
0.2944080000 0.1729000000 0.1622800000
0.3104910000 0.1807280000 0.1721680000
0.3262230000 0.1882200000 0.1820400000
0.3416190000 0.1953460000 0.1917450000
0.3564810000 0.2025330000 0.2012210000
0.3706110000 0.2096890000 0.2102690000
0.3840850000 0.2166630000 0.2181430000
0.3956510000 0.2229800000 0.2244300000
0.4060120000 0.2285800000 0.2296940000
0.4140080000 0.2328830000 0.2329440000
0.4208590000 0.2364230000 0.2352480000
0.4257420000 0.2390170000 0.2364840000
0.4297250000 0.2409250000 0.2371400000
0.4323950000 0.2421300000 0.2373540000
0.4343940000 0.2427410000 0.2369730000
0.4359040000 0.2431370000 0.2362860000
0.4380250000 0.2442050000 0.2363470000
0.4398410000 0.2448920000 0.2360880000
0.4429690000 0.2468760000 0.2372930000
0.4465550000 0.2493780000 0.2385900000
0.4505230000 0.2522930000 0.2402080000
0.4554060000 0.2567940000 0.2426950000
0.4607310000 0.2622870000 0.2455020000
0.4670630000 0.2691540000 0.2491800000
0.4727400000 0.2775620000 0.2531620000
0.4791790000 0.2877700000 0.2584570000
0.4861830000 0.2995040000 0.2658120000
0.4944690000 0.3120010000 0.2745100000
0.5033650000 0.3255670000 0.2845500000
0.5144580000 0.3407190000 0.2966200000
0.5267110000 0.3569540000 0.3102010000
0.5404130000 0.3744410000 0.3247580000
0.5545740000 0.3923860000 0.3399250000
0.5674070000 0.4100250000 0.3537040000
0.5794610000 0.4282750000 0.3672690000
0.5913480000 0.4472570000 0.3808800000
0.6037230000 0.4682380000 0.3968410000
0.6159610000 0.4894330000 0.4126340000
0.6277560000 0.5098960000 0.4281990000
0.6394600000 0.5295640000 0.4437930000
0.6510260000 0.5486690000 0.4594490000
0.6624550000 0.5663390000 0.4748000000
0.6740520000 0.5834740000 0.4905620000
0.6857250000 0.5998780000 0.5061110000
0.6973220000 0.6160530000 0.5219350000
0.0395666000 0.0410010000 0.0413214000
0.0419471000 0.0434424000 0.0435798000
0.0432136000 0.0444648000 0.0448005000
0.0447547000 0.0455940000 0.0463111000
0.0494240000 0.0498207000 0.0504311000
0.0545205000 0.0547341000 0.0550698000
0.0622110000 0.0604868000 0.0605631000
0.0710307000 0.0666514000 0.0664683000
0.0840314000 0.0752575000 0.0744640000
0.1010610000 0.0844892000 0.0824903000
0.1198290000 0.0940108000 0.0896773000
0.1394060000 0.1024490000 0.0954910000
0.1587400000 0.1101550000 0.1004810000
0.1774620000 0.1175100000 0.1058370000
0.1960780000 0.1251850000 0.1119100000
0.2142670000 0.1334710000 0.1191880000
0.2311280000 0.1412680000 0.1269400000
0.2469060000 0.1489430000 0.1350120000
0.2630350000 0.1571220000 0.1438770000
0.2793010000 0.1653930000 0.1532310000
0.2955520000 0.1734800000 0.1629660000
0.3114820000 0.1812160000 0.1727630000
0.3269550000 0.1885250000 0.1824520000
0.3422140000 0.1957430000 0.1921260000
0.3570610000 0.2028380000 0.2015870000
0.3711600000 0.2099640000 0.2105900000
0.3845430000 0.2168760000 0.2183870000
0.3959410000 0.2231330000 0.2245370000
0.4062560000 0.2287170000 0.2298010000
0.4141910000 0.2329750000 0.2330050000
0.4209350000 0.2364840000 0.2352640000
0.4258340000 0.2390780000 0.2365000000
0.4297860000 0.2409550000 0.2371400000
0.4324410000 0.2421450000 0.2373390000
0.4344240000 0.2427710000 0.2369730000
0.4359500000 0.2431680000 0.2362860000
0.4380710000 0.2442360000 0.2363470000
0.4398870000 0.2449230000 0.2361030000
0.4430300000 0.2469370000 0.2373080000
0.4466160000 0.2494390000 0.2386050000
0.4505530000 0.2523540000 0.2402080000
0.4554510000 0.2568700000 0.2427100000
0.4607920000 0.2623790000 0.2455330000
0.4671090000 0.2692150000 0.2491950000
0.4727550000 0.2776230000 0.2531620000
0.4792100000 0.2878460000 0.2584730000
0.4861830000 0.2995650000 0.2658270000
0.4944690000 0.3120320000 0.2745250000
0.5033650000 0.3256120000 0.2845660000
0.5144430000 0.3407490000 0.2966200000
0.5266960000 0.3569700000 0.3101850000
0.5404130000 0.3744560000 0.3247420000
0.5545590000 0.3924010000 0.3399100000
0.5673910000 0.4100400000 0.3537040000
0.5794310000 0.4282900000 0.3672390000
0.5913330000 0.4472720000 0.3808650000
0.6037080000 0.4682690000 0.3968410000
0.6159460000 0.4894480000 0.4126190000
0.6277410000 0.5098960000 0.4281830000
0.6394450000 0.5295640000 0.4437930000
0.6510110000 0.5486690000 0.4594340000
0.6624400000 0.5663390000 0.4747690000
0.6740370000 0.5834740000 0.4905620000
0.6857100000 0.5998780000 0.5061110000
0.6973070000 0.6160530000 0.5219200000
0.0423743000 0.0438239000 0.0439918000
0.0442359000 0.0462654000 0.0461280000
0.0456703000 0.0477913000 0.0475471000
0.0473640000 0.0490883000 0.0490730000
0.0497292000 0.0506600000 0.0508888000
0.0540932000 0.0548867000 0.0548867000
0.0611582000 0.0605478000 0.0601511000
0.0689097000 0.0664073000 0.0658427000
0.0825513000 0.0747387000 0.0736248000
0.0987716000 0.0837873000 0.0816663000
0.1180130000 0.0936446000 0.0893111000
0.1382310000 0.1022660000 0.0952468000
0.1586480000 0.1103380000 0.1004650000
0.1783780000 0.1180590000 0.1061110000
0.1976350000 0.1259780000 0.1124740000
0.2160830000 0.1341730000 0.1199820000
0.2327460000 0.1420770000 0.1277030000
0.2486000000 0.1498280000 0.1357750000
0.2646520000 0.1579770000 0.1445940000
0.2806900000 0.1661100000 0.1540550000
0.2967880000 0.1741210000 0.1636990000
0.3125960000 0.1817500000 0.1734190000
0.3278710000 0.1889370000 0.1830010000
0.3430080000 0.1961550000 0.1925380000
0.3577170000 0.2031890000 0.2019840000
0.3717250000 0.2102690000 0.2109250000
0.3849550000 0.2171210000 0.2186470000
0.3962770000 0.2233160000 0.2246740000
0.4065160000 0.2288700000 0.2299080000
0.4144200000 0.2330820000 0.2330820000
0.4210420000 0.2365610000 0.2352790000
0.4259250000 0.2391240000 0.2365150000
0.4298620000 0.2410010000 0.2371560000
0.4325020000 0.2421760000 0.2373390000
0.4344850000 0.2428020000 0.2369730000
0.4359960000 0.2432140000 0.2362860000
0.4381020000 0.2442660000 0.2363470000
0.4399480000 0.2449680000 0.2361030000
0.4430910000 0.2469980000 0.2373240000
0.4466770000 0.2495000000 0.2386210000
0.4505840000 0.2523990000 0.2402080000
0.4555280000 0.2569470000 0.2427410000
0.4608530000 0.2624700000 0.2455630000
0.4671400000 0.2692760000 0.2491950000
0.4727860000 0.2776990000 0.2531780000
0.4792400000 0.2879220000 0.2585030000
0.4861980000 0.2996110000 0.2658270000
0.4944690000 0.3120780000 0.2745400000
0.5033650000 0.3256430000 0.2845660000
0.5144270000 0.3407800000 0.2966050000
0.5266800000 0.3570000000 0.3101850000
0.5403980000 0.3744870000 0.3247420000
0.5545280000 0.3924160000 0.3398790000
0.5673760000 0.4100560000 0.3536740000
0.5794310000 0.4283050000 0.3672240000
0.5913330000 0.4473030000 0.3808650000
0.6037080000 0.4682990000 0.3968260000
0.6159460000 0.4894640000 0.4126190000
0.6277260000 0.5099110000 0.4281680000
0.6394290000 0.5295640000 0.4437630000
0.6509960000 0.5486690000 0.4594190000
0.6624400000 0.5663390000 0.4747540000
0.6740220000 0.5834900000 0.4905470000
0.6857100000 0.5998780000 0.5060960000
0.6973070000 0.6160530000 0.5219040000
0.0449378000 0.0470283000 0.0468299000
0.0466316000 0.0488594000 0.0485237000
0.0482338000 0.0505531000 0.0500954000
0.0495918000 0.0517281000 0.0512245000
0.0516518000 0.0537270000 0.0533761000
0.0543526000 0.0557259000 0.0553140000
0.0597543000 0.0603494000 0.0595407000
0.0679179000 0.0670329000 0.0658122000
0.0809033000 0.0746777000 0.0727550000
0.0968490000 0.0839857000 0.0812085000
0.1159690000 0.0940108000 0.0891585000
0.1362170000 0.1026930000 0.0950332000
0.1573510000 0.1107350000 0.1002520000
0.1777680000 0.1185020000 0.1060040000
0.1979250000 0.1265430000 0.1125810000
0.2170900000 0.1348130000 0.1203630000
0.2341340000 0.1428090000 0.1283890000
0.2501560000 0.1507130000 0.1364160000
0.2661780000 0.1588160000 0.1454490000
0.2821090000 0.1668730000 0.1548640000
0.2980850000 0.1748230000 0.1644620000
0.3136490000 0.1822080000 0.1739680000
0.3289230000 0.1894560000 0.1836420000
0.3438930000 0.1966120000 0.1930880000
0.3583430000 0.2036010000 0.2024570000
0.3723660000 0.2105900000 0.2112920000
0.3853510000 0.2174110000 0.2189060000
0.3966430000 0.2235290000 0.2248420000
0.4068060000 0.2290230000 0.2300150000
0.4146790000 0.2332040000 0.2331880000
0.4211490000 0.2366520000 0.2353090000
0.4260470000 0.2392000000 0.2365300000
0.4299380000 0.2410470000 0.2371560000
0.4325630000 0.2422060000 0.2373240000
0.4345460000 0.2428320000 0.2369730000
0.4360570000 0.2432590000 0.2362860000
0.4381630000 0.2443120000 0.2363470000
0.4400240000 0.2450140000 0.2361180000
0.4431680000 0.2470740000 0.2373540000
0.4467690000 0.2495770000 0.2386510000
0.4506600000 0.2525060000 0.2402380000
0.4556190000 0.2570380000 0.2427560000
0.4609290000 0.2625770000 0.2455940000
0.4671700000 0.2693680000 0.2492100000
0.4728010000 0.2777750000 0.2531930000
0.4792550000 0.2880140000 0.2585340000
0.4862130000 0.2996870000 0.2658430000
0.4944690000 0.3121230000 0.2745560000
0.5033650000 0.3257040000 0.2845810000
0.5144120000 0.3408250000 0.2966050000
0.5266500000 0.3570310000 0.3101700000
0.5403830000 0.3745170000 0.3247420000
0.5545130000 0.3924320000 0.3398640000
0.5673460000 0.4100710000 0.3536580000
0.5794000000 0.4283210000 0.3672080000
0.5913180000 0.4473330000 0.3808650000
0.6036770000 0.4683150000 0.3968110000
0.6159460000 0.4894790000 0.4126040000
0.6277260000 0.5099260000 0.4281680000
0.6394290000 0.5295800000 0.4437630000
0.6509960000 0.5486840000 0.4594030000
0.6624250000 0.5663390000 0.4747390000
0.6740220000 0.5834900000 0.4905320000
0.6856950000 0.5998780000 0.5060810000
0.6972920000 0.6160530000 0.5218890000
0.0476997000 0.0499886000 0.0495766000
0.0493324000 0.0515145000 0.0510567000
0.0506600000 0.0529793000 0.0523079000
0.0522164000 0.0554818000 0.0541238000
0.0539864000 0.0572061000 0.0558480000
0.0574807000 0.0599069000 0.0589456000
0.0594797000 0.0614328000 0.0599527000
0.0670024000 0.0672160000 0.0654307000
0.0788128000 0.0744335000 0.0721599000
0.0945449000 0.0840314000 0.0811475000
0.1134510000 0.0941634000 0.0890516000
0.1341730000 0.1036090000 0.0952621000
0.1555200000 0.1119400000 0.1002370000
0.1763030000 0.1195850000 0.1057600000
0.1970550000 0.1273670000 0.1122610000
0.2171210000 0.1354850000 0.1202260000
0.2348820000 0.1435870000 0.1287100000
0.2512550000 0.1515220000 0.1371020000
0.2676280000 0.1596400000 0.1462730000
0.2834970000 0.1676970000 0.1556570000
0.2994430000 0.1756010000 0.1652090000
0.3148550000 0.1828030000 0.1746240000
0.3300830000 0.1900510000 0.1842980000
0.3449000000 0.1971310000 0.1936830000
0.3590750000 0.2040590000 0.2029760000
0.3730830000 0.2109860000 0.2117040000
0.3858700000 0.2177460000 0.2192110000
0.3970860000 0.2237740000 0.2250100000
0.4070950000 0.2291750000 0.2301060000
0.4149840000 0.2333410000 0.2332950000
0.4212860000 0.2367440000 0.2353250000
0.4261840000 0.2392770000 0.2365450000
0.4300140000 0.2410930000 0.2371710000
0.4326390000 0.2422520000 0.2373080000
0.4346230000 0.2428780000 0.2369730000
0.4361490000 0.2433360000 0.2363010000
0.4382390000 0.2443730000 0.2363320000
0.4401010000 0.2450750000 0.2361180000
0.4432590000 0.2471660000 0.2373690000
0.4468600000 0.2496680000 0.2386970000
0.4507360000 0.2526280000 0.2402990000
0.4557110000 0.2571450000 0.2427860000
0.4610210000 0.2626990000 0.2456400000
0.4672010000 0.2694740000 0.2492260000
0.4728310000 0.2778820000 0.2531930000
0.4793160000 0.2881360000 0.2585950000
0.4862130000 0.2997790000 0.2658730000
0.4944530000 0.3121840000 0.2745560000
0.5033490000 0.3257650000 0.2845810000
0.5143820000 0.3408560000 0.2965900000
0.5266350000 0.3570610000 0.3101550000
0.5403680000 0.3745480000 0.3247270000
0.5544670000 0.3924620000 0.3398340000
0.5673300000 0.4101010000 0.3536280000
0.5793700000 0.4283510000 0.3671780000
0.5913020000 0.4473640000 0.3808500000
0.6036620000 0.4683450000 0.3967960000
0.6159300000 0.4895090000 0.4125730000
0.6276950000 0.5099410000 0.4281380000
0.6393990000 0.5295950000 0.4437480000
0.6509650000 0.5486840000 0.4593880000
0.6624250000 0.5663540000 0.4747230000
0.6740060000 0.5834900000 0.4905170000
0.6856790000 0.5998780000 0.5060650000
0.6972760000 0.6160530000 0.5218590000
0.0506447000 0.0529488000 0.0522774000
0.0521096000 0.0553292000 0.0540169000
0.0535134000 0.0572824000 0.0555123000
0.0549020000 0.0590982000 0.0570535000
0.0563668000 0.0606088000 0.0586252000
0.0585489000 0.0626993000 0.0605020000
0.0623178000 0.0658122000 0.0636912000
0.0663767000 0.0684825000 0.0656443000
0.0753490000 0.0755932000 0.0719768000
0.0912490000 0.0858473000 0.0809186000
0.1105360000 0.0954147000 0.0887160000
0.1316550000 0.1049210000 0.0953536000
0.1532010000 0.1132070000 0.1004650000
0.1743950000 0.1210040000 0.1055620000
0.1953920000 0.1286640000 0.1116960000
0.2165100000 0.1369650000 0.1197990000
0.2350500000 0.1448690000 0.1285570000
0.2519110000 0.1525750000 0.1372550000
0.2685130000 0.1606160000 0.1467150000
0.2845810000 0.1685360000 0.1562830000
0.3005260000 0.1762110000 0.1657280000
0.3161520000 0.1835510000 0.1753260000
0.3313500000 0.1907530000 0.1848330000
0.3459830000 0.1977420000 0.1943240000
0.3600210000 0.2045780000 0.2035100000
0.3738770000 0.2114290000 0.2121160000
0.3865420000 0.2181120000 0.2195320000
0.3976350000 0.2240480000 0.2252690000
0.4074010000 0.2293280000 0.2301670000
0.4153350000 0.2335240000 0.2334170000
0.4214240000 0.2368660000 0.2353550000
0.4263520000 0.2393840000 0.2365760000
0.4301370000 0.2411690000 0.2371860000
0.4327310000 0.2422980000 0.2372930000
0.4347140000 0.2429390000 0.2369730000
0.4362550000 0.2434120000 0.2363160000
0.4383150000 0.2444340000 0.2363320000
0.4401920000 0.2451360000 0.2361330000
0.4433660000 0.2472720000 0.2374000000
0.4469980000 0.2497600000 0.2387430000
0.4508280000 0.2527660000 0.2403450000
0.4558330000 0.2572670000 0.2428170000
0.4611280000 0.2628370000 0.2457010000
0.4672310000 0.2695960000 0.2492560000
0.4728620000 0.2779890000 0.2532080000
0.4793770000 0.2882580000 0.2586710000
0.4862290000 0.2998700000 0.2658880000
0.4944380000 0.3122450000 0.2745560000
0.5033490000 0.3258410000 0.2845960000
0.5143660000 0.3409170000 0.2965900000
0.5266040000 0.3571070000 0.3101400000
0.5403370000 0.3745780000 0.3247270000
0.5544370000 0.3924770000 0.3398030000
0.5673000000 0.4101170000 0.3535970000
0.5793390000 0.4283670000 0.3671470000
0.5912870000 0.4473950000 0.3808500000
0.6036470000 0.4683760000 0.3967800000
0.6159150000 0.4895400000 0.4125430000
0.6276800000 0.5099720000 0.4281070000
0.6393840000 0.5296100000 0.4437320000
0.6509500000 0.5486840000 0.4593580000
0.6624090000 0.5663540000 0.4747080000
0.6739910000 0.5834900000 0.4904860000
0.6856490000 0.5998630000 0.5060350000
0.6972610000 0.6160530000 0.5218430000
0.0537728000 0.0576181000 0.0558022000
0.0551614000 0.0594034000 0.0573281000
0.0564279000 0.0607919000 0.0587320000
0.0576638000 0.0624704000 0.0599069000
0.0594339000 0.0654002000 0.0617838000
0.0609445000 0.0675364000 0.0635386000
0.0643015000 0.0699016000 0.0663920000
0.0677806000 0.0726787000 0.0688487000
0.0741436000 0.0766613000 0.0722362000
0.0874952000 0.0861524000 0.0795758000
0.1059890000 0.0964218000 0.0883040000
0.1278710000 0.1067060000 0.0953078000
0.1498130000 0.1149310000 0.1004200000
0.1716180000 0.1226520000 0.1056230000
0.1928740000 0.1309680000 0.1118790000
0.2147400000 0.1395590000 0.1194930000
0.2350190000 0.1475700000 0.1281910000
0.2524450000 0.1545590000 0.1369800000
0.2693520000 0.1621270000 0.1466090000
0.2855270000 0.1695580000 0.1563440000
0.3016400000 0.1772030000 0.1662320000
0.3173110000 0.1844360000 0.1760590000
0.3326770000 0.1915920000 0.1854430000
0.3471580000 0.1984440000 0.1949340000
0.3610740000 0.2051880000 0.2040590000
0.3747770000 0.2119330000 0.2125580000
0.3873040000 0.2185550000 0.2198830000
0.3982910000 0.2243690000 0.2255590000
0.4077520000 0.2294960000 0.2302280000
0.4157170000 0.2337530000 0.2335390000
0.4216830000 0.2370340000 0.2354160000
0.4265510000 0.2395210000 0.2366060000
0.4302590000 0.2412600000 0.2372170000
0.4328370000 0.2423740000 0.2372930000
0.4348360000 0.2430150000 0.2369730000
0.4363770000 0.2435030000 0.2363320000
0.4384070000 0.2444950000 0.2363160000
0.4403140000 0.2452280000 0.2361490000
0.4435030000 0.2473950000 0.2374460000
0.4471500000 0.2498820000 0.2388040000
0.4509650000 0.2529340000 0.2404060000
0.4560010000 0.2574200000 0.2428930000
0.4612500000 0.2630050000 0.2457470000
0.4672920000 0.2697490000 0.2492710000
0.4729080000 0.2781110000 0.2532230000
0.4794540000 0.2884110000 0.2587470000
0.4862440000 0.2999920000 0.2659040000
0.4944230000 0.3123220000 0.2745710000
0.5033490000 0.3259330000 0.2846110000
0.5143360000 0.3409930000 0.2965900000
0.5265740000 0.3571530000 0.3101240000
0.5403070000 0.3746090000 0.3247120000
0.5544060000 0.3925230000 0.3397730000
0.5672690000 0.4101630000 0.3535670000
0.5793090000 0.4283970000 0.3671020000
0.5912720000 0.4474400000 0.3808350000
0.6036320000 0.4684210000 0.3967500000
0.6159000000 0.4895700000 0.4125280000
0.6276650000 0.5099870000 0.4280920000
0.6393680000 0.5296100000 0.4437020000
0.6509350000 0.5486990000 0.4593270000
0.6624090000 0.5663690000 0.4746780000
0.6739760000 0.5835050000 0.4904710000
0.6856340000 0.5998780000 0.5060200000
0.6972610000 0.6160530000 0.5218280000
0.0570077000 0.0615854000 0.0593576000
0.0583047000 0.0634928000 0.0605783000
0.0597848000 0.0661173000 0.0622416000
0.0615244000 0.0688182000 0.0642100000
0.0632486000 0.0713054000 0.0659648000
0.0652628000 0.0740826000 0.0677653000
0.0673838000 0.0760967000 0.0695354000
0.0713664000 0.0790265000 0.0729076000
0.0764172000 0.0826886000 0.0757916000
0.0843519000 0.0875105000 0.0794995000
0.1013050000 0.0994583000 0.0877699000
0.1223160000 0.1101240000 0.0954147000
0.1453270000 0.1193260000 0.1011520000
0.1680630000 0.1262230000 0.1058520000
0.1902190000 0.1336540000 0.1121540000
0.2121770000 0.1421070000 0.1199970000
0.2332800000 0.1506070000 0.1282830000
0.2514990000 0.1577480000 0.1362480000
0.2699020000 0.1651480000 0.1458610000
0.2865950000 0.1720910000 0.1559780000
0.3028000000 0.1790490000 0.1661710000
0.3185630000 0.1858700000 0.1762720000
0.3340200000 0.1926450000 0.1859920000
0.3484400000 0.1993130000 0.1954530000
0.3622340000 0.2059210000 0.2045930000
