bundles/resolve-cinematic-luts/Gamut/The Creator/gamut - CREATOR (DWG)/DWG_Creator 02 - Cine.cube
TITLE "Creator LUT 02 by Gamut"
# Version 1.0 - 11/18/2025 - Designed for DaVinci Intermediate / DaVinci Wide Gamut for both Input and Output. Copyright 2025 Gamut, LLC.
LUT_3D_SIZE 65
0.0509957000 0.0597848000 0.0599680000
0.0548867000 0.0585184000 0.0593271000
0.0595254000 0.0579995000 0.0594186000
0.0663310000 0.0588388000 0.0606546000
0.0753643000 0.0612345000 0.0640879000
0.0846571000 0.0638590000 0.0676127000
0.0917372000 0.0658274000 0.0688182000
0.0983597000 0.0679026000 0.0696422000
0.1060960000 0.0706951000 0.0709697000
0.1148700000 0.0737011000 0.0723125000
0.1246810000 0.0783551000 0.0757458000
0.1349360000 0.0825513000 0.0787976000
0.1459830000 0.0874800000 0.0820630000
0.1583890000 0.0929427000 0.0861372000
0.1708860000 0.0984665000 0.0900130000
0.1846800000 0.1045850000 0.0944381000
0.1984280000 0.1112540000 0.0992752000
0.2110480000 0.1179680000 0.1037000000
0.2236820000 0.1246510000 0.1086290000
0.2363620000 0.1312580000 0.1132830000
0.2486000000 0.1378040000 0.1182570000
0.2609140000 0.1442280000 0.1227130000
0.2729840000 0.1503170000 0.1272910000
0.2852830000 0.1563130000 0.1314260000
0.2972920000 0.1623560000 0.1360040000
0.3096360000 0.1685660000 0.1410090000
0.3221180000 0.1748230000 0.1469290000
0.3338830000 0.1806060000 0.1526820000
0.3453570000 0.1860990000 0.1582970000
0.3564660000 0.1912720000 0.1641720000
0.3670410000 0.1962310000 0.1695280000
0.3774930000 0.2014800000 0.1748380000
0.3873350000 0.2062710000 0.1801020000
0.3963840000 0.2110320000 0.1846950000
0.4050510000 0.2158390000 0.1896390000
0.4130010000 0.2204620000 0.1939120000
0.4202790000 0.2252080000 0.1978940000
0.4273440000 0.2299530000 0.2020140000
0.4335390000 0.2345460000 0.2056150000
0.4393990000 0.2393990000 0.2090940000
0.4452580000 0.2444950000 0.2128020000
0.4502630000 0.2497900000 0.2159760000
0.4552830000 0.2553600000 0.2196380000
0.4609600000 0.2616920000 0.2235290000
0.4660720000 0.2682540000 0.2275880000
0.4713820000 0.2755630000 0.2318760000
0.4769510000 0.2832230000 0.2364080000
0.4818800000 0.2905780000 0.2412600000
0.4870980000 0.2984210000 0.2462650000
0.4922560000 0.3065690000 0.2521400000
0.4980850000 0.3152510000 0.2593120000
0.5069660000 0.3264520000 0.2712140000
0.5173880000 0.3392840000 0.2856030000
0.5273060000 0.3529260000 0.2996260000
0.5351800000 0.3664450000 0.3116040000
0.5438010000 0.3815210000 0.3256280000
0.5531850000 0.3978330000 0.3404440000
0.5629210000 0.4140380000 0.3543450000
0.5722900000 0.4291750000 0.3667350000
0.5828490000 0.4465400000 0.3825130000
0.5937590000 0.4644540000 0.3993440000
0.6038000000 0.4811470000 0.4141910000
0.6133670000 0.4974900000 0.4285040000
0.6225990000 0.5132830000 0.4429240000
0.6316930000 0.5289080000 0.4582590000
0.0524453000 0.0630503000 0.0601053000
0.0561227000 0.0643473000 0.0599374000
0.0606088000 0.0621042000 0.0597391000
0.0674449000 0.0607156000 0.0607004000
0.0773175000 0.0622416000 0.0644236000
0.0871901000 0.0646220000 0.0680858000
0.0941176000 0.0666819000 0.0691234000
0.1010150000 0.0685893000 0.0698863000
0.1087820000 0.0717784000 0.0716259000
0.1176780000 0.0750439000 0.0732433000
0.1271990000 0.0791791000 0.0760967000
0.1375750000 0.0837873000 0.0797894000
0.1484400000 0.0885939000 0.0828565000
0.1605710000 0.0939498000 0.0868391000
0.1730980000 0.0994583000 0.0907607000
0.1866480000 0.1055620000 0.0951247000
0.1999540000 0.1120010000 0.0997330000
0.2124670000 0.1186690000 0.1043410000
0.2246740000 0.1251240000 0.1089490000
0.2373390000 0.1318230000 0.1137100000
0.2494700000 0.1382470000 0.1185930000
0.2616460000 0.1445940000 0.1229880000
0.2736100000 0.1506220000 0.1275040000
0.2858320000 0.1565880000 0.1316240000
0.2978100000 0.1626000000 0.1362630000
0.3100480000 0.1687800000 0.1411760000
0.3223930000 0.1750060000 0.1471120000
0.3341730000 0.1807430000 0.1528340000
0.3456170000 0.1862210000 0.1584190000
0.3566190000 0.1913790000 0.1642790000
0.3672240000 0.1963380000 0.1696190000
0.3776460000 0.2015560000 0.1749140000
0.3874570000 0.2063480000 0.1801630000
0.3964750000 0.2110930000 0.1847560000
0.4051270000 0.2159150000 0.1896850000
0.4130620000 0.2205230000 0.1939570000
0.4203400000 0.2252690000 0.1979250000
0.4273750000 0.2300150000 0.2020450000
0.4335850000 0.2345920000 0.2056460000
0.4394140000 0.2394290000 0.2091100000
0.4452890000 0.2445560000 0.2128180000
0.4502940000 0.2498360000 0.2159910000
0.4552990000 0.2554060000 0.2196540000
0.4609750000 0.2617380000 0.2235450000
0.4660870000 0.2682990000 0.2276040000
0.4714120000 0.2756080000 0.2318910000
0.4769510000 0.2832530000 0.2364080000
0.4818800000 0.2905930000 0.2412600000
0.4870830000 0.2984360000 0.2462650000
0.4922710000 0.3065840000 0.2521550000
0.4980850000 0.3152670000 0.2593120000
0.5069660000 0.3264520000 0.2711990000
0.5173880000 0.3393000000 0.2856030000
0.5273060000 0.3529410000 0.2996410000
0.5351950000 0.3664610000 0.3116040000
0.5438010000 0.3815210000 0.3256120000
0.5531850000 0.3978480000 0.3404440000
0.5629360000 0.4140540000 0.3543300000
0.5723050000 0.4291910000 0.3667350000
0.5828640000 0.4465550000 0.3824980000
0.5937590000 0.4644690000 0.3993440000
0.6038150000 0.4811470000 0.4142060000
0.6133670000 0.4975050000 0.4284890000
0.6225990000 0.5132830000 0.4429240000
0.6317080000 0.5289080000 0.4582590000
0.0543679000 0.0667735000 0.0603189000
0.0566262000 0.0696574000 0.0605325000
0.0620127000 0.0692302000 0.0603799000
0.0675364000 0.0678721000 0.0618448000
0.0757000000 0.0662242000 0.0625772000
0.0854353000 0.0672923000 0.0664988000
0.0932784000 0.0681315000 0.0688334000
0.1007400000 0.0693217000 0.0696880000
0.1094220000 0.0723735000 0.0717784000
0.1190360000 0.0758831000 0.0738231000
0.1289080000 0.0799115000 0.0765545000
0.1394980000 0.0846876000 0.0803845000
0.1505460000 0.0896010000 0.0837568000
0.1621580000 0.0946059000 0.0872053000
0.1750970000 0.1002980000 0.0914168000
0.1881900000 0.1064470000 0.0957504000
0.2012970000 0.1127030000 0.1002060000
0.2135810000 0.1192950000 0.1048290000
0.2257110000 0.1256890000 0.1093610000
0.2380250000 0.1322040000 0.1139700000
0.2502630000 0.1386740000 0.1188980000
0.2623330000 0.1449450000 0.1232320000
0.2742050000 0.1509270000 0.1277030000
0.2863510000 0.1568630000 0.1318070000
0.2982990000 0.1628290000 0.1364920000
0.3104450000 0.1689940000 0.1413440000
0.3226670000 0.1751890000 0.1472800000
0.3344620000 0.1808960000 0.1529870000
0.3458460000 0.1863430000 0.1585410000
0.3567710000 0.1915010000 0.1643700000
0.3673910000 0.1964290000 0.1697110000
0.3777830000 0.2016480000 0.1750060000
0.3875640000 0.2064240000 0.1802240000
0.3965670000 0.2111700000 0.1848020000
0.4052030000 0.2159760000 0.1897150000
0.4131230000 0.2205840000 0.1940030000
0.4203860000 0.2253300000 0.1979400000
0.4274200000 0.2300600000 0.2020600000
0.4336160000 0.2346530000 0.2056760000
0.4394290000 0.2394750000 0.2091100000
0.4453040000 0.2446020000 0.2128480000
0.4503090000 0.2498820000 0.2160070000
0.4553140000 0.2554510000 0.2196690000
0.4609900000 0.2617690000 0.2235600000
0.4660870000 0.2683300000 0.2276040000
0.4714120000 0.2756390000 0.2319070000
0.4769670000 0.2832680000 0.2364080000
0.4818800000 0.2906230000 0.2412760000
0.4870980000 0.2984510000 0.2462810000
0.4922710000 0.3066150000 0.2521550000
0.4980850000 0.3152970000 0.2593120000
0.5069500000 0.3264670000 0.2711990000
0.5174030000 0.3393150000 0.2856030000
0.5273060000 0.3529560000 0.2996410000
0.5351950000 0.3664760000 0.3116040000
0.5438010000 0.3815370000 0.3256120000
0.5531850000 0.3978480000 0.3404440000
0.5629360000 0.4140540000 0.3543300000
0.5723050000 0.4292060000 0.3667350000
0.5828790000 0.4465710000 0.3825130000
0.5937590000 0.4644850000 0.3993440000
0.6038150000 0.4811630000 0.4142060000
0.6133670000 0.4975050000 0.4284890000
0.6226140000 0.5132830000 0.4429240000
0.6317080000 0.5289230000 0.4582590000
0.0567330000 0.0706645000 0.0606851000
0.0585336000 0.0739452000 0.0606241000
0.0619974000 0.0746929000 0.0606394000
0.0690318000 0.0748913000 0.0623026000
0.0761730000 0.0747997000 0.0642252000
0.0847181000 0.0731518000 0.0655222000
0.0932784000 0.0729381000 0.0684215000
0.1003590000 0.0730449000 0.0699779000
0.1089490000 0.0746166000 0.0723583000
0.1186540000 0.0769818000 0.0739300000
0.1292290000 0.0806744000 0.0769513000
0.1402760000 0.0853742000 0.0806744000
0.1517510000 0.0903334000 0.0842756000
0.1635920000 0.0953231000 0.0876173000
0.1768980000 0.1011520000 0.0919966000
0.1898680000 0.1073170000 0.0963455000
0.2026700000 0.1134660000 0.1007250000
0.2148320000 0.1199510000 0.1052410000
0.2268250000 0.1263140000 0.1098340000
0.2387430000 0.1326620000 0.1142900000
0.2511020000 0.1391320000 0.1192190000
0.2629130000 0.1453570000 0.1235370000
0.2748460000 0.1512630000 0.1279160000
0.2869310000 0.1571680000 0.1320210000
0.2988020000 0.1631040000 0.1367060000
0.3109030000 0.1692230000 0.1415270000
0.3229720000 0.1754020000 0.1474630000
0.3347830000 0.1810640000 0.1531400000
0.3461050000 0.1864960000 0.1586790000
0.3569700000 0.1916230000 0.1644770000
0.3675900000 0.1965360000 0.1698020000
0.3779350000 0.2017550000 0.1750820000
0.3877010000 0.2065160000 0.1803010000
0.3966740000 0.2112460000 0.1848630000
0.4052800000 0.2160370000 0.1897310000
0.4131990000 0.2206610000 0.1940490000
0.4204470000 0.2253910000 0.1979860000
0.4274510000 0.2301210000 0.2021060000
0.4336460000 0.2347140000 0.2057070000
0.4394450000 0.2395210000 0.2091250000
0.4453350000 0.2446630000 0.2128630000
0.4503240000 0.2499280000 0.2160220000
0.4553290000 0.2554970000 0.2196840000
0.4610060000 0.2618140000 0.2235600000
0.4661020000 0.2683600000 0.2276190000
0.4714270000 0.2756850000 0.2319070000
0.4769670000 0.2832990000 0.2364080000
0.4818800000 0.2906540000 0.2412760000
0.4870980000 0.2984820000 0.2462810000
0.4922560000 0.3066300000 0.2521550000
0.4980850000 0.3153120000 0.2592970000
0.5069500000 0.3264820000 0.2711830000
0.5174030000 0.3393300000 0.2856180000
0.5273060000 0.3529720000 0.2996410000
0.5351950000 0.3664910000 0.3116200000
0.5437860000 0.3815520000 0.3256120000
0.5531850000 0.3978640000 0.3404440000
0.5629510000 0.4140690000 0.3543450000
0.5723200000 0.4292060000 0.3667200000
0.5828790000 0.4465860000 0.3825130000
0.5937740000 0.4644850000 0.3993440000
0.6038150000 0.4811630000 0.4141910000
0.6133670000 0.4975200000 0.4285040000
0.6226140000 0.5132980000 0.4429240000
0.6317080000 0.5289230000 0.4582590000
0.0589761000 0.0747082000 0.0606394000
0.0608682000 0.0782177000 0.0614633000
0.0624704000 0.0805219000 0.0622873000
0.0680705000 0.0803388000 0.0628519000
0.0762036000 0.0809644000 0.0650492000
0.0845197000 0.0817426000 0.0669108000
0.0932631000 0.0802930000 0.0681010000
0.1002520000 0.0786755000 0.0699016000
0.1089040000 0.0795453000 0.0728771000
0.1181510000 0.0804608000 0.0744640000
0.1287250000 0.0830701000 0.0775158000
0.1398790000 0.0867170000 0.0807813000
0.1518270000 0.0912642000 0.0845350000
0.1642790000 0.0961318000 0.0879530000
0.1779050000 0.1018230000 0.0923018000
0.1912410000 0.1081560000 0.0968643000
0.2039220000 0.1142440000 0.1012440000
0.2160680000 0.1206530000 0.1056530000
0.2279700000 0.1269400000 0.1102460000
0.2397650000 0.1332570000 0.1147330000
0.2518810000 0.1395130000 0.1194780000
0.2637370000 0.1457850000 0.1239190000
0.2755470000 0.1516290000 0.1281610000
0.2875560000 0.1575190000 0.1322650000
0.2993670000 0.1634090000 0.1369340000
0.3113910000 0.1694820000 0.1417410000
0.3233390000 0.1755700000 0.1476010000
0.3351490000 0.1812470000 0.1533230000
0.3464100000 0.1866480000 0.1588460000
0.3572290000 0.1917600000 0.1645690000
0.3678030000 0.1966740000 0.1699240000
0.3781190000 0.2018620000 0.1751890000
0.3878390000 0.2066220000 0.1803770000
0.3967960000 0.2113370000 0.1849390000
0.4053710000 0.2160980000 0.1897760000
0.4132750000 0.2207370000 0.1940950000
0.4205080000 0.2254670000 0.1980160000
0.4274970000 0.2301980000 0.2021360000
0.4336920000 0.2347910000 0.2057370000
0.4394600000 0.2395670000 0.2091400000
0.4453650000 0.2447240000 0.2128940000
0.4503550000 0.2499890000 0.2160520000
0.4553440000 0.2555580000 0.2196990000
0.4610210000 0.2618750000 0.2235750000
0.4661170000 0.2684210000 0.2276340000
0.4714270000 0.2757310000 0.2319220000
0.4769670000 0.2833300000 0.2364230000
0.4818950000 0.2906840000 0.2412760000
0.4870980000 0.2985120000 0.2462810000
0.4922560000 0.3066450000 0.2521550000
0.4980850000 0.3153280000 0.2592970000
0.5069350000 0.3264970000 0.2711680000
0.5173880000 0.3393610000 0.2856180000
0.5273060000 0.3529870000 0.2996410000
0.5351950000 0.3665060000 0.3116200000
0.5437860000 0.3815520000 0.3255970000
0.5531850000 0.3978940000 0.3404440000
0.5629510000 0.4140840000 0.3543450000
0.5723350000 0.4292210000 0.3667200000
0.5828950000 0.4466010000 0.3825130000
0.5937740000 0.4645000000 0.3993290000
0.6038300000 0.4811780000 0.4141910000
0.6133820000 0.4975360000 0.4284890000
0.6226140000 0.5132980000 0.4429080000
0.6317080000 0.5289230000 0.4582440000
0.0616617000 0.0794995000 0.0619516000
0.0632944000 0.0822919000 0.0628977000
0.0653239000 0.0850538000 0.0643168000
0.0677958000 0.0863203000 0.0651560000
0.0740520000 0.0865034000 0.0662852000
0.0835584000 0.0874037000 0.0688487000
0.0927749000 0.0879530000 0.0702678000
0.1004960000 0.0870375000 0.0717479000
0.1082170000 0.0858473000 0.0728008000
0.1181660000 0.0866102000 0.0761730000
0.1287400000 0.0884565000 0.0791333000
0.1394520000 0.0904402000 0.0813916000
0.1514610000 0.0939193000 0.0850385000
0.1642480000 0.0979477000 0.0884108000
0.1781190000 0.1029370000 0.0925460000
0.1919890000 0.1090410000 0.0972610000
0.2047150000 0.1150840000 0.1017010000
0.2171510000 0.1213860000 0.1060500000
0.2290230000 0.1276110000 0.1108110000
0.2408030000 0.1338980000 0.1151900000
0.2527350000 0.1399860000 0.1197830000
0.2646980000 0.1462420000 0.1243460000
0.2763260000 0.1520410000 0.1284350000
0.2882120000 0.1579160000 0.1325400000
0.2999920000 0.1637600000 0.1372090000
0.3119400000 0.1697870000 0.1420000000
0.3237510000 0.1757530000 0.1477680000
0.3355460000 0.1814600000 0.1535360000
0.3467610000 0.1868310000 0.1590140000
0.3575190000 0.1919130000 0.1646910000
0.3680480000 0.1968260000 0.1700620000
0.3783320000 0.2019990000 0.1752960000
0.3880220000 0.2067440000 0.1804840000
0.3969330000 0.2114600000 0.1850160000
0.4054630000 0.2161750000 0.1897920000
0.4133820000 0.2208440000 0.1941560000
0.4206000000 0.2255740000 0.1980620000
0.4275430000 0.2302890000 0.2021820000
0.4337380000 0.2348670000 0.2057680000
0.4395060000 0.2396580000 0.2091710000
0.4453960000 0.2448000000 0.2129240000
0.4503850000 0.2500650000 0.2160680000
0.4553750000 0.2556190000 0.2197300000
0.4610510000 0.2619360000 0.2236060000
0.4661330000 0.2684670000 0.2276490000
0.4714430000 0.2757760000 0.2319370000
0.4769820000 0.2833750000 0.2364390000
0.4818950000 0.2907150000 0.2412910000
0.4870980000 0.2985430000 0.2462810000
0.4922710000 0.3066910000 0.2521550000
0.4980700000 0.3153430000 0.2592810000
0.5069350000 0.3265130000 0.2711530000
0.5173880000 0.3393760000 0.2856030000
0.5273060000 0.3530170000 0.2996410000
0.5351950000 0.3665220000 0.3116200000
0.5437700000 0.3815670000 0.3255820000
0.5531850000 0.3978940000 0.3404290000
0.5629660000 0.4140990000 0.3543450000
0.5723350000 0.4292360000 0.3667200000
0.5828950000 0.4466160000 0.3824980000
0.5937900000 0.4645150000 0.3993290000
0.6038300000 0.4811930000 0.4141910000
0.6133820000 0.4975360000 0.4284890000
0.6226140000 0.5132980000 0.4429080000
0.6317080000 0.5289390000 0.4582440000
0.0646830000 0.0841077000 0.0638743000
0.0666667000 0.0870222000 0.0652323000
0.0681010000 0.0896468000 0.0663157000
0.0695964000 0.0922408000 0.0670481000
0.0735027000 0.0926223000 0.0677958000
0.0807813000 0.0933089000 0.0695659000
0.0911116000 0.0944991000 0.0724193000
0.1002980000 0.0952621000 0.0742809000
0.1080190000 0.0941329000 0.0756237000
0.1167770000 0.0931716000 0.0768444000
0.1275650000 0.0936904000 0.0791943000
0.1390710000 0.0963302000 0.0826429000
0.1510030000 0.0986038000 0.0857557000
0.1643400000 0.1021130000 0.0896468000
0.1779960000 0.1058210000 0.0931258000
0.1919740000 0.1105820000 0.0976425000
0.2049900000 0.1162280000 0.1020520000
0.2178530000 0.1222860000 0.1064160000
0.2298920000 0.1283740000 0.1112540000
0.2417640000 0.1345850000 0.1155720000
0.2536970000 0.1406270000 0.1202110000
0.2656440000 0.1467920000 0.1247270000
0.2771650000 0.1525140000 0.1287250000
0.2888080000 0.1583730000 0.1328600000
0.3006940000 0.1641570000 0.1375140000
0.3125660000 0.1701380000 0.1422900000
0.3242240000 0.1759820000 0.1478900000
0.3360040000 0.1817200000 0.1537650000
0.3471890000 0.1870450000 0.1592580000
0.3578700000 0.1921110000 0.1648280000
0.3683380000 0.1970090000 0.1702140000
0.3785610000 0.2021670000 0.1754330000
0.3882050000 0.2068820000 0.1805910000
0.3971310000 0.2115820000 0.1851380000
0.4055700000 0.2162660000 0.1898370000
0.4134890000 0.2209660000 0.1942320000
0.4206910000 0.2256810000 0.1981080000
0.4276040000 0.2303810000 0.2022430000
0.4337990000 0.2349740000 0.2058140000
0.4395510000 0.2397500000 0.2092160000
0.4454260000 0.2449070000 0.2129700000
0.4504160000 0.2501410000 0.2160980000
0.4553900000 0.2556950000 0.2197450000
0.4610670000 0.2620130000 0.2236360000
0.4661480000 0.2685440000 0.2276650000
0.4714580000 0.2758370000 0.2319520000
0.4769820000 0.2834210000 0.2364390000
0.4818950000 0.2907610000 0.2412910000
0.4870980000 0.2985730000 0.2462810000
0.4922560000 0.3067220000 0.2521550000
0.4980700000 0.3153730000 0.2592660000
0.5069200000 0.3265280000 0.2711380000
0.5174030000 0.3394060000 0.2856030000
0.5273060000 0.3530330000 0.2996410000
0.5352100000 0.3665520000 0.3116350000
0.5437700000 0.3815820000 0.3255820000
0.5531850000 0.3979100000 0.3404290000
0.5629970000 0.4141300000 0.3543450000
0.5723510000 0.4292670000 0.3667200000
0.5829100000 0.4466320000 0.3825130000
0.5937900000 0.4645300000 0.3993290000
0.6038450000 0.4812090000 0.4141910000
0.6133970000 0.4975510000 0.4284890000
0.6226290000 0.5133130000 0.4428930000
0.6317240000 0.5289390000 0.4582440000
0.0681010000 0.0895552000 0.0663920000
0.0694285000 0.0921035000 0.0670024000
0.0711070000 0.0945907000 0.0684367000
0.0728008000 0.0973373000 0.0699626000
0.0744182000 0.0993515000 0.0712139000
0.0781720000 0.0993820000 0.0715648000
0.0889601000 0.1006940000 0.0742199000
0.0991836000 0.1018390000 0.0771344000
0.1075150000 0.1022350000 0.0782940000
0.1165790000 0.1019460000 0.0799268000
0.1266350000 0.1011060000 0.0814374000
0.1375750000 0.1010760000 0.0830243000
0.1501340000 0.1037160000 0.0865339000
0.1637900000 0.1073780000 0.0904250000
0.1778740000 0.1110400000 0.0944533000
0.1917450000 0.1144580000 0.0984512000
0.2049440000 0.1185320000 0.1024340000
0.2179600000 0.1238570000 0.1068440000
0.2303350000 0.1294420000 0.1115740000
0.2424660000 0.1353780000 0.1159230000
0.2543980000 0.1413440000 0.1206230000
0.2664680000 0.1473560000 0.1250480000
0.2780500000 0.1530940000 0.1290760000
0.2896310000 0.1589070000 0.1331960000
0.3014570000 0.1646300000 0.1378650000
0.3132520000 0.1705500000 0.1426260000
0.3248190000 0.1763180000 0.1480890000
0.3365220000 0.1820250000 0.1540400000
0.3476770000 0.1872890000 0.1595480000
0.3582510000 0.1923250000 0.1649960000
0.3686730000 0.1972230000 0.1703970000
0.3788360000 0.2023500000 0.1755860000
0.3884490000 0.2070650000 0.1807280000
0.3973450000 0.2117340000 0.1852900000
0.4056920000 0.2163880000 0.1898680000
0.4136110000 0.2211030000 0.1943080000
0.4207980000 0.2258030000 0.1981690000
0.4276650000 0.2305030000 0.2023040000
0.4338750000 0.2350960000 0.2058750000
0.4396120000 0.2398570000 0.2092620000
0.4454720000 0.2450140000 0.2130160000
0.4504460000 0.2502480000 0.2161440000
0.4554360000 0.2557870000 0.2197760000
0.4610970000 0.2621040000 0.2236510000
0.4661780000 0.2686200000 0.2276950000
0.4714730000 0.2759140000 0.2319680000
0.4769970000 0.2834820000 0.2364540000
0.4818950000 0.2908060000 0.2413060000
0.4870980000 0.2986190000 0.2462810000
0.4922710000 0.3067670000 0.2521550000
0.4980700000 0.3154040000 0.2592660000
0.5069050000 0.3265580000 0.2711220000
0.5173880000 0.3394370000 0.2856030000
0.5273060000 0.3530630000 0.2996260000
0.5352100000 0.3665670000 0.3116350000
0.5437550000 0.3815980000 0.3255670000
0.5531850000 0.3979400000 0.3404290000
0.5629970000 0.4141450000 0.3543600000
0.5723660000 0.4292820000 0.3667200000
0.5829250000 0.4466620000 0.3825130000
0.5938050000 0.4645460000 0.3993290000
0.6038450000 0.4812240000 0.4141910000
0.6133970000 0.4975510000 0.4284730000
0.6226290000 0.5133130000 0.4428780000
0.6317240000 0.5289540000 0.4582280000
0.0714275000 0.0951553000 0.0686961000
0.0730907000 0.0977646000 0.0702678000
0.0744640000 0.1000380000 0.0715190000
0.0758068000 0.1022200000 0.0730755000
0.0774243000 0.1050280000 0.0743420000
0.0791943000 0.1062490000 0.0748913000
0.0843214000 0.1064160000 0.0754253000
0.0975662000 0.1082480000 0.0790265000
0.1057910000 0.1083540000 0.0811322000
0.1156020000 0.1089340000 0.0825055000
0.1256580000 0.1086900000 0.0846876000
0.1365680000 0.1085370000 0.0862287000
0.1489130000 0.1093610000 0.0882429000
0.1624480000 0.1121840000 0.0914168000
0.1769440000 0.1160140000 0.0957504000
0.1916080000 0.1199660000 0.0998093000
0.2049130000 0.1236130000 0.1035780000
0.2174720000 0.1267870000 0.1075300000
0.2301670000 0.1313950000 0.1118180000
0.2427250000 0.1365990000 0.1163040000
0.2548410000 0.1422600000 0.1208820000
0.2670180000 0.1479210000 0.1252460000
0.2789650000 0.1538110000 0.1294730000
0.2904860000 0.1595180000 0.1335470000
0.3022810000 0.1651790000 0.1382310000
0.3139540000 0.1710230000 0.1430230000
0.3255050000 0.1767300000 0.1483630000
0.3370110000 0.1822840000 0.1542530000
0.3481500000 0.1875790000 0.1598840000
0.3586790000 0.1925990000 0.1651790000
0.3690390000 0.1974820000 0.1706110000
0.3791260000 0.2025480000 0.1757530000
0.3887080000 0.2072630000 0.1808800000
0.3975890000 0.2119020000 0.1854580000
0.4058440000 0.2165100000 0.1899140000
0.4137640000 0.2212710000 0.1944150000
0.4209050000 0.2259560000 0.1982450000
0.4277410000 0.2306400000 0.2023800000
0.4339510000 0.2352330000 0.2059360000
0.4396730000 0.2399940000 0.2093080000
0.4455020000 0.2451360000 0.2130620000
0.4504920000 0.2503700000 0.2161750000
0.4554820000 0.2559090000 0.2198210000
0.4611280000 0.2622110000 0.2236970000
0.4661940000 0.2687110000 0.2277100000
0.4715040000 0.2760050000 0.2319830000
0.4770120000 0.2835430000 0.2364690000
0.4819100000 0.2908670000 0.2413060000
0.4871140000 0.2986650000 0.2462960000
0.4922710000 0.3068130000 0.2521710000
0.4980540000 0.3154350000 0.2592510000
0.5068890000 0.3265740000 0.2711070000
0.5174030000 0.3394670000 0.2856030000
0.5273060000 0.3531090000 0.2996410000
0.5352250000 0.3666130000 0.3116500000
0.5437550000 0.3816130000 0.3255510000
0.5531850000 0.3979550000 0.3404140000
0.5630270000 0.4141760000 0.3543600000
0.5723810000 0.4292970000 0.3667200000
0.5829400000 0.4466770000 0.3824980000
0.5938200000 0.4645610000 0.3993130000
0.6038610000 0.4812390000 0.4141910000
0.6133970000 0.4975810000 0.4284890000
0.6226290000 0.5133290000 0.4428780000
0.6317240000 0.5289540000 0.4582280000
0.0751507000 0.1009690000 0.0722362000
0.0764324000 0.1033490000 0.0735943000
0.0778210000 0.1056530000 0.0746014000
0.0793011000 0.1081560000 0.0757000000
0.0810559000 0.1107190000 0.0772564000
0.0829938000 0.1136800000 0.0789349000
0.0845045000 0.1141370000 0.0791180000
0.0929427000 0.1148390000 0.0803693000
0.1068130000 0.1167470000 0.0844739000
0.1139850000 0.1164570000 0.0861677000
0.1245440000 0.1169150000 0.0874189000
0.1356370000 0.1170370000 0.0894331000
0.1479820000 0.1166860000 0.0915236000
0.1608150000 0.1173420000 0.0937362000
0.1754630000 0.1204700000 0.0968185000
0.1904480000 0.1246810000 0.1010610000
0.2044400000 0.1284050000 0.1048450000
0.2171820000 0.1319450000 0.1088880000
0.2298620000 0.1355000000 0.1128400000
0.2428170000 0.1393910000 0.1171890000
0.2551310000 0.1441060000 0.1212630000
0.2675670000 0.1492330000 0.1257040000
0.2797740000 0.1546500000 0.1298540000
0.2913100000 0.1602040000 0.1339280000
0.3031050000 0.1658500000 0.1386280000
