bundles/resolve-cinematic-luts/Gamut/The Creator/gamut - CREATOR (DWG)/DWG_Creator 02 - Cine.cube
TITLE "Creator LUT 02 by Gamut"
# Version 1.0 - 11/18/2025 - Designed for DaVinci Intermediate / DaVinci Wide Gamut for both Input and Output. Copyright 2025 Gamut, LLC.
LUT_3D_SIZE 5
0.0509957000 0.0597848000 0.0599680000
0.1984280000 0.1112540000 0.0992752000
0.3873350000 0.2062710000 0.1801020000
0.4870980000 0.2984210000 0.2462650000
0.6316930000 0.5289080000 0.4582590000
0.1162130000 0.1625090000 0.1063250000
0.2023040000 0.1976650000 0.1392230000
0.3930570000 0.2136720000 0.1842220000
0.4872360000 0.2996260000 0.2464640000
0.6317850000 0.5290760000 0.4581060000
0.2940570000 0.3669490000 0.2406200000
0.3011370000 0.3745940000 0.2464640000
0.4679180000 0.4311740000 0.3160600000
0.5124890000 0.3460750000 0.2744490000
0.6329290000 0.5311970000 0.4563820000
0.5348130000 0.5537350000 0.4159760000
0.5356830000 0.5543450000 0.4165870000
0.5438470000 0.5597770000 0.4230560000
0.6359960000 0.5861140000 0.4508890000
0.6518960000 0.5714350000 0.4542920000
0.6993970000 0.6935840000 0.5922330000
0.6994430000 0.6936290000 0.5923090000
0.6999310000 0.6941940000 0.5930420000
0.7040210000 0.6992450000 0.5992830000
0.7239180000 0.7167010000 0.6222320000
0.0866712000 0.1077900000 0.1745330000
0.1904940000 0.1330590000 0.1907530000
0.3985350000 0.2137940000 0.1893800000
0.4900430000 0.3016560000 0.2502780000
0.6321510000 0.5296560000 0.4599370000
0.1612120000 0.2133970000 0.2189360000
0.2355380000 0.2448000000 0.2462960000
0.4012510000 0.2178380000 0.1898370000
0.4900130000 0.3027240000 0.2502020000
0.6322580000 0.5298700000 0.4597540000
0.3026320000 0.3765930000 0.2480960000
0.3089490000 0.3831540000 0.2533910000
0.4737320000 0.4360420000 0.3196770000
0.5128100000 0.3464870000 0.2767380000
0.6334330000 0.5320210000 0.4580760000
0.5359270000 0.5545130000 0.4167540000
0.5367970000 0.5551230000 0.4173340000
0.5448080000 0.5604490000 0.4238800000
0.6363010000 0.5864190000 0.4512550000
0.6523080000 0.5719390000 0.4552070000
0.6994430000 0.6936450000 0.5923250000
0.6995040000 0.6937060000 0.5924010000
0.6999770000 0.6942700000 0.5931180000
0.7040510000 0.6992900000 0.5993740000
0.7239340000 0.7167160000 0.6222630000
0.1816890000 0.2102240000 0.3352410000
0.1887240000 0.2118720000 0.3390550000
0.4104680000 0.3028150000 0.4038150000
0.5388880000 0.3656210000 0.3973140000
0.6362100000 0.5360490000 0.4760050000
0.1848780000 0.2142060000 0.3400470000
0.1889830000 0.2173340000 0.3441820000
0.4128790000 0.3058820000 0.4077210000
0.5398030000 0.3660940000 0.3955440000
0.6363320000 0.5362780000 0.4758530000
0.3637450000 0.4592050000 0.4511940000
0.3668120000 0.4630500000 0.4548870000
0.5208360000 0.5301590000 0.5036240000
0.5646750000 0.3988710000 0.3779510000
0.6377660000 0.5388720000 0.4742660000
0.5464710000 0.5619290000 0.4257110000
0.5472040000 0.5624480000 0.4262460000
0.5539330000 0.5671320000 0.4319370000
0.6391850000 0.5895480000 0.4550240000
0.6567640000 0.5782860000 0.4672920000
0.7000690000 0.6943920000 0.5932710000
0.7001300000 0.6944380000 0.5933470000
0.7005870000 0.6950030000 0.5940640000
0.7045550000 0.6998700000 0.6003360000
0.7240560000 0.7169910000 0.6226600000
0.3350120000 0.4058900000 0.5081860000
0.3368890000 0.4081790000 0.5098340000
0.4251770000 0.4526130000 0.5555050000
0.5901580000 0.5062940000 0.5950100000
0.6772870000 0.5969790000 0.6131690000
0.3352560000 0.4064390000 0.5085220000
0.3369500000 0.4084530000 0.5099110000
0.4216070000 0.4523990000 0.5547260000
0.5903410000 0.5066150000 0.5951630000
0.6773630000 0.5971010000 0.6130620000
0.3407950000 0.4147710000 0.5134970000
0.3416190000 0.4158390000 0.5141990000
0.3755250000 0.4429240000 0.5360950000
0.5930420000 0.5108110000 0.5974210000
0.6783090000 0.5985810000 0.6118870000
0.5923550000 0.6564740000 0.6191350000
0.5926600000 0.6567180000 0.6192870000
0.5957120000 0.6590220000 0.6205540000
0.6806130000 0.6861370000 0.6408790000
0.6906230000 0.6316470000 0.6015560000
0.7049970000 0.7015790000 0.6028080000
0.7050280000 0.7016250000 0.6028530000
0.7053030000 0.7020680000 0.6034490000
0.7075610000 0.7059740000 0.6085600000
0.7245590000 0.7185930000 0.6254060000
0.5740140000 0.6313880000 0.6410470000
0.5743500000 0.6315100000 0.6411380000
0.5781640000 0.6331120000 0.6422980000
0.6460670000 0.6516370000 0.6547490000
0.7029980000 0.6682990000 0.6596480000
0.5739680000 0.6313880000 0.6410320000
0.5743040000 0.6315250000 0.6411080000
0.5780730000 0.6331120000 0.6422830000
0.6459300000 0.6516820000 0.6547650000
0.7030140000 0.6683150000 0.6596480000
0.5735410000 0.6315250000 0.6408940000
0.5738460000 0.6316470000 0.6409860000
0.5772340000 0.6331120000 0.6420390000
0.6444340000 0.6520940000 0.6549480000
0.7030900000 0.6684820000 0.6596630000
0.5753570000 0.6349430000 0.6412450000
0.5754330000 0.6349740000 0.6412600000
0.5764710000 0.6354470000 0.6414590000
0.6227510000 0.6520640000 0.6529030000
0.7037460000 0.6701300000 0.6595560000
0.7123220000 0.7267110000 0.6694290000
0.7123370000 0.7267110000 0.6694290000
0.7124280000 0.7267720000 0.6694740000
0.7133140000 0.7271990000 0.6698710000
0.7265130000 0.7314560000 0.6743570000
