bundles/resolve-cinematic-luts/Gamut/_Conversion/Panasonic/Panasonic S5 BaseLUTs/Monitor LUTs/BaseLUTs - Panasonic S5 - V-Log to Rec709 ML.cube
TITLE "BaseLUT - Panasonic S5 - V-Log to Rec709 ML"
# Monitoring LUT. Developed for converting V-Log / V-Gamut to Rec.709. Version 1.0 - 05/01/2025 - Copyright 2025 Gamut, LLC.
LUT_3D_SIZE 17
0.0000000000 0.0000000000 0.0000000000
0.0000000000 0.0000000000 0.0000000000
0.0000000000 0.0000000000 0.0000000000
0.0000000000 0.0000000000 0.0000000000
0.0000000000 0.0000000000 0.0000000000
0.0274242002 0.0026632888 0.0026632888
0.1620443933 0.0205186892 0.0200258004
0.3259570267 0.0442933600 0.0404839418
0.4610350473 0.0710275407 0.0575864357
0.5897255179 0.1112854159 0.0736571319
0.7013120852 0.1731993852 0.0890696110
0.7860360693 0.2441545796 0.1029664311
0.8641864265 0.3101775689 0.1205845763
0.9236710036 0.3646746723 0.1453127704
0.9723610259 0.4136446545 0.1861610506
0.9968899077 0.4618138886 0.2553808937
0.9975139690 0.5015446892 0.3396809819
0.0000000000 0.0000000000 0.0000000000
0.0000000000 0.0000000000 0.0000000000
0.0000000000 0.0000000000 0.0000000000
0.0000000000 0.0000000000 0.0000000000
0.0096177759 0.0003555552 0.0003555552
0.0835487870 0.0098647208 0.0098647208
0.2113054864 0.0272762084 0.0257472521
0.3514276173 0.0484365915 0.0434439096
0.4767151967 0.0747829196 0.0593619705
0.5991864760 0.1153711167 0.0749331353
0.7066674747 0.1773498203 0.0895079178
0.7898369786 0.2476571345 0.1037041908
0.8669463478 0.3128620560 0.1212197311
0.9257069479 0.3664644326 0.1463369632
0.9739399292 0.4155982268 0.1872493995
0.9969372508 0.4629913208 0.2566625169
0.9975139690 0.5020639537 0.3405275239
0.0000000000 0.0000000000 0.0000000000
0.0000000000 0.0000000000 0.0000000000
0.0000000000 0.0000000000 0.0000000000
0.0216038579 0.0034026847 0.0019723687
0.0916484969 0.0113444508 0.0107522335
0.1907925912 0.0244157015 0.0230833378
0.2946406619 0.0391413826 0.0364012206
0.3792990371 0.0534304691 0.0470481835
0.4913826524 0.0788516683 0.0610945786
0.6089252453 0.1196722466 0.0761241260
0.7115997030 0.1811061884 0.0903687325
0.7932461487 0.2507134869 0.1041072998
0.8695092591 0.3154733660 0.1218929715
0.9274958791 0.3680692258 0.1469081767
0.9755782887 0.4172826642 0.1883306306
0.9969406324 0.4641164683 0.2578139073
0.9975139690 0.5027039367 0.3417842956
0.0000000000 0.0019230798 0.0000000000
0.0005962868 0.0072010566 0.0005962868
0.0042415341 0.0415327694 0.0048831028
0.0682549156 0.0792964479 0.0096672525
0.1671562133 0.0691820221 0.0202227683
0.2731947079 0.0448947344 0.0334418856
0.3624761916 0.0522013118 0.0449140622
0.4376191062 0.0660080178 0.0542528680
0.5061110627 0.0831975111 0.0630877763
0.6180312907 0.1240530745 0.0773716766
0.7165115350 0.1854081589 0.0911546984
0.7972512208 0.2539885341 0.1047901925
0.8723987177 0.3182318404 0.1225420493
0.9295071548 0.3702623975 0.1477021332
0.9771169309 0.4191992351 0.1895498487
0.9969913572 0.4651116189 0.2587567500
0.9975139690 0.5032828739 0.3428308879
0.0063132311 0.0530253370 0.0063132311
0.0094206204 0.0796638772 0.0094206204
0.0148956277 0.1233398611 0.0148956277
0.0249086529 0.1759549206 0.0219488802
0.1714035989 0.1889254906 0.0242673970
0.3054344632 0.1585192370 0.0380288172
0.4108534066 0.1033236249 0.0508322316
0.5025909275 0.0906606978 0.0626543092
0.5694988147 0.1059411838 0.0709649914
0.6308467718 0.1305484335 0.0790209796
0.7239664298 0.1916296976 0.0922438318
0.8027646134 0.2593073998 0.1056307336
0.8766308288 0.3215756067 0.1237492992
0.9324487135 0.3735756110 0.1491311745
0.9792196818 0.4215641976 0.1911966621
0.9970420819 0.4663456877 0.2603163532
0.9975139690 0.5041368296 0.3445351139
0.0221957625 0.1765975106 0.0221957625
0.0247610365 0.1962005414 0.0247610365
0.0280159352 0.2198177447 0.0280159352
0.0334418856 0.2580837963 0.0334418856
0.0632119993 0.3039286006 0.0395830435
0.2880796337 0.3082756521 0.0410623982
0.4267702129 0.2641354366 0.0540062359
0.5351206256 0.1881123920 0.0666532769
0.6289706082 0.1521330670 0.0786917658
0.6870409086 0.1680256104 0.0865423621
0.7365730720 0.2032169970 0.0940429156
0.8129180100 0.2684554908 0.1077087117
0.8834207336 0.3282808528 0.1256923497
0.9371665113 0.3786574718 0.1514703727
0.9820749300 0.4248737051 0.1936529278
0.9971231788 0.4679440089 0.2628082280
0.9975139690 0.5051993900 0.3480588360
0.0407731700 0.3079746539 0.0407731700
0.0422377005 0.3183402970 0.0422377005
0.0437687685 0.3298344019 0.0437687685
0.0460704121 0.3432612625 0.0460704121
0.0514071853 0.3759420199 0.0514071853
0.1226829310 0.4155577878 0.0584906804
0.3965835244 0.4173339161 0.0600517558
0.5413495814 0.3672049241 0.0701391523
0.6466935110 0.2817400204 0.0818375588
0.7252441045 0.2300074592 0.0920320680
0.7746487159 0.2425019617 0.0996731633
0.8279074088 0.2825770270 0.1103081552
0.8931651159 0.3369822828 0.1281565884
0.9430202082 0.3845100005 0.1542137449
0.9855343810 0.4291918070 0.1976949071
0.9971781660 0.4708784193 0.2674540239
0.9975434600 0.5072114697 0.3536270945
0.0615344882 0.4291182220 0.0615344882
0.0626913385 0.4348785600 0.0626913385
0.0637583679 0.4398941299 0.0638324263
0.0651030538 0.4463133660 0.0651030538
0.0676745202 0.4583882752 0.0676745202
0.0753965651 0.4892272783 0.0745745636
0.1986309109 0.5255653738 0.0838812591
0.5018191073 0.5232626054 0.0843134473
0.6502025794 0.4688949568 0.0891010613
0.7417079265 0.3830400599 0.0972019598
0.8130980902 0.3212308056 0.1066320549
0.8600818479 0.3174305708 0.1155808203
0.9043039821 0.3485918912 0.1310268517
0.9501419557 0.3924820221 0.1579129172
0.9896391751 0.4352610152 0.2036821128
0.9972565172 0.4750649900 0.2748545450
0.9975434600 0.5098535857 0.3625545271
0.0955309551 0.5535960103 0.0950732361
0.0963163603 0.5562405944 0.0958934840
0.0974969372 0.5590805021 0.0965143070
0.0984569255 0.5618257588 0.0973225292
0.1002952674 0.5667022642 0.0988182165
0.1052123478 0.5786725079 0.1021354729
0.1192306202 0.6081919944 0.1117028985
0.2966871426 0.6405507004 0.1246488677
0.6148170706 0.6353999086 0.1227363481
0.7446431146 0.5820104158 0.1161354335
0.8305227270 0.4967099553 0.1189854822
0.8956641152 0.4157727958 0.1268794315
0.9271925765 0.3828511719 0.1362703041
0.9603374807 0.4042858706 0.1628293844
0.9935839750 0.4437675102 0.2136453377
0.9973653384 0.4810249871 0.2870581609
0.9975434600 0.5147679474 0.3781570898
0.1646349806 0.6720095103 0.1503434455
0.1656769836 0.6730477503 0.1508754154
0.1667112458 0.6739474956 0.1514058153
0.1676443167 0.6750938935 0.1519336405
0.1692894001 0.6767898741 0.1528083043
0.1723878066 0.6801873565 0.1542700128
0.1825415620 0.6899666133 0.1578205399
0.2100433415 0.7132255668 0.1706098542
0.4196820212 0.7378265887 0.1867221768
0.7160870796 0.7324965120 0.1816376996
0.8266474038 0.6927147203 0.1627702906
0.9059475519 0.6228178789 0.1576463356
0.9573896615 0.5265547871 0.1602380484
0.9828240066 0.4495198661 0.1714051213
0.9962133277 0.4572449742 0.2253797431
0.9974436896 0.4895999203 0.3048310152
0.9975876966 0.5217430258 0.4020563045
0.2762346861 0.7580216814 0.2323681625
0.2769077829 0.7584783550 0.2324661309
0.2776500214 0.7589830202 0.2326426744
0.2782896767 0.7594358620 0.2327509027
0.2793793180 0.7601728842 0.2329169362
0.2813686804 0.7615119367 0.2334637705
0.2854119669 0.7640603505 0.2341303442
0.3008377363 0.7738822212 0.2348479665
0.3392814406 0.7988801900 0.2462874932
0.5837398699 0.8212686046 0.2570786738
0.7984760708 0.8148316788 0.2493360161
0.8970092177 0.7825287762 0.2290195918
0.9603270703 0.7325742046 0.2253573467
0.9960579598 0.6527752347 0.2292672031
0.9971519854 0.5229914291 0.2380827411
0.9975158122 0.5037118179 0.3222553977
0.9976171876 0.5313124011 0.4342942258
0.3941911139 0.8335252997 0.3609312948
0.3944810818 0.8337382804 0.3605835175
0.3948073905 0.8340290486 0.3602931288
0.3951861564 0.8343072886 0.3599857616
0.3957597089 0.8347042667 0.3595363639
0.3966343342 0.8353625935 0.3586381951
0.3982892322 0.8368320172 0.3569409090
0.4023864805 0.8397702413 0.3530876669
0.4218140498 0.8538454889 0.3426619847
0.4740882461 0.8833011002 0.3390858323
0.7225202771 0.8967142071 0.3278228103
0.8759375381 0.8913585303 0.3153620836
0.9509816459 0.8654649368 0.3029468898
0.9958516793 0.8224038036 0.3274767739
0.9975231849 0.7579690414 0.3302735531
0.9975231849 0.6045494372 0.3360849511
0.9976461325 0.5457259232 0.4577259614
0.5045743886 0.8964360314 0.5438892711
0.5047356814 0.8965426582 0.5435235878
0.5048050937 0.8966060865 0.5430147270
0.5049425377 0.8966951600 0.5426521020
0.5051497706 0.8968376402 0.5420036212
0.5054498880 0.8970962086 0.5409668633
0.5060745992 0.8976674990 0.5384513548
0.5079572053 0.8988702092 0.5344481278
0.5110030674 0.9011380668 0.5255055056
0.5354377113 0.9162968024 0.5064831415
0.6074735506 0.9468196870 0.4843503182
0.8212148096 0.9538264754 0.4234944081
0.9372727638 0.9498755452 0.3787634060
0.9931240923 0.9314457432 0.3939564005
0.9976769198 0.8991966254 0.4742370463
0.9976769198 0.8450833030 0.4723788126
0.9976769198 0.6880702099 0.4702449822
0.6000715101 0.9430514750 0.6910339660
0.6000384471 0.9430514750 0.6908049302
0.6000809388 0.9430514750 0.6906039575
0.6000617044 0.9430986442 0.6903600092
0.6000648472 0.9430986442 0.6899634122
0.6000547900 0.9431672083 0.6891758813
0.6001085332 0.9432903860 0.6879889220
0.6002020024 0.9435087152 0.6858070410
0.6006166735 0.9440592301 0.6810667543
0.6020234252 0.9456144347 0.6724263855
0.6305908884 0.9633840305 0.6641984349
0.7159232229 0.9926063858 0.6593601375
0.8992945719 0.9946341433 0.5959025761
0.9866670074 0.9936919641 0.4953233993
0.9978923524 0.9811580113 0.5532039272
0.9982035585 0.9531942641 0.6458051479
0.9981407174 0.9144717449 0.6374063952
0.6774544143 0.9844919071 0.7874097349
0.6774828502 0.9844919071 0.7872603784
0.6773987899 0.9844815824 0.7870778453
0.6773293049 0.9844659089 0.7868245025
0.6772932273 0.9844127929 0.7865624942
0.6771063593 0.9843581842 0.7859653157
0.6769361904 0.9843514670 0.7848881909
0.6765460667 0.9842030396 0.7832223922
0.6759034625 0.9839928770 0.7805195211
0.6751485132 0.9837809721 0.7748681706
0.6747874884 0.9843971193 0.7645642507
0.7042969488 0.9966329117 0.7648809207
0.8011962451 0.9985297899 0.7647956802
0.9522784210 0.9984247337 0.7299170198
0.9981359431 0.9981733269 0.6655091367
0.9984250242 0.9979062498 0.7097950623
0.9986593207 0.9921397853 0.7586410656
0.7358669626 0.9983555839 0.8795712238
0.7357529177 0.9983555839 0.8793872825
0.7357756385 0.9983555839 0.8792306336
0.7356639223 0.9983555839 0.8790970010
0.7356086621 0.9983555839 0.8788387285
0.7354798266 0.9983555839 0.8783662665
0.7352322257 0.9983555839 0.8776311929
0.7348772514 0.9983555839 0.8762266356
0.7342153880 0.9983555839 0.8736660246
0.7329057593 0.9982731884 0.8690066452
0.7304257225 0.9982731884 0.8605415385
0.7270444663 0.9982170894 0.8442942435
0.7557988729 0.9985437504 0.8460620227
0.8783471625 0.9990721056 0.8475975678
0.9918294862 0.9989082819 0.8186964782
0.9987052132 0.9986603693 0.7757785889
0.9988766686 0.9988469206 0.8043725374
0.7874935699 0.9987077052 0.9526741579
0.7873811379 0.9987077052 0.9525623211
0.7872697189 0.9987077052 0.9524148675
0.7871877372 0.9987077052 0.9522535843
0.7870739758 0.9987077052 0.9520841269
0.7868943126 0.9987077052 0.9518282427
0.7866028505 0.9987077052 0.9513382651
0.7860175206 0.9987077052 0.9502681507
0.7853097563 0.9987077052 0.9485195647
0.7836974926 0.9987077052 0.9455112728
0.7802706105 0.9987077052 0.9397755038
0.7744592596 0.9986516034 0.9296705768
0.7669611649 0.9986516034 0.9097465270
0.8006737482 0.9988021821 0.9128625835
0.9390556869 0.9994750432 0.9118852276
0.9993447750 0.9993801445 0.8940001524
0.9992462686 0.9992425925 0.8609496853
0.0000000000 0.0000000000 0.0000000000
0.0000000000 0.0000000000 0.0000000000
0.0000000000 0.0000000000 0.0000000000
0.0000000000 0.0000000000 0.0000000000
0.0025152345 0.0000000000 0.0000000000
0.0638286108 0.0073983373 0.0073983373
0.2104025891 0.0270297640 0.0257472521
0.3553724626 0.0491208814 0.0441785694
0.4837452225 0.0764997851 0.0602191379
0.6072840351 0.1189467623 0.0761560836
0.7130349300 0.1821854101 0.0911816308
0.7957563062 0.2526794278 0.1054417058
0.8721249562 0.3178089845 0.1241673039
0.9297936438 0.3704872487 0.1501820522
0.9773977414 0.4194707452 0.1924487214
0.9969913572 0.4652371395 0.2614591740
0.9975139690 0.5034087732 0.3451290504
0.0000000000 0.0000000000 0.0000000000
0.0000000000 0.0000000000 0.0000000000
0.0000000000 0.0000000000 0.0000000000
0.0000000000 0.0000000000 0.0000000000
0.0229848851 0.0020710716 0.0020710716
0.1252675782 0.0156354614 0.0150932836
0.2551959210 0.0335402132 0.0314690791
0.3785443495 0.0534084518 0.0469858218
0.4979345259 0.0804957810 0.0619741476
0.6161162102 0.1229591509 0.0771517779
0.7177474145 0.1862305568 0.0917894260
0.7995269551 0.2559437871 0.1061641202
0.8748472410 0.3200799519 0.1247849143
0.9316874969 0.3726180540 0.1510084864
0.9787063242 0.4209783635 0.1934555488
0.9970387002 0.4659390978 0.2623250781
0.9975139690 0.5039818430 0.3464575904
0.0000000000 0.0000000000 0.0000000000
0.0000000000 0.0000000000 0.0000000000
0.0013809646 0.0027619292 0.0005810266
0.0469113255 0.0062147159 0.0054251554
0.1158148717 0.0144517149 0.0138591270
0.2020326350 0.0260925871 0.0246622710
0.2944777989 0.0392400229 0.0364505720
0.4005024596 0.0576715654 0.0496927701
0.5114141789 0.0844804695 0.0636563499
0.6248897883 0.1269695648 0.0785645695
0.7225963111 0.1901252291 0.0924519628
0.8029642301 0.2592980870 0.1067925218
0.8773321637 0.3220992678 0.1255162820
0.9334352103 0.3746476002 0.1520470554
0.9798122136 0.4222560358 0.1944929945
0.9970470917 0.4665155354 0.2633397303
0.9975416168 0.5043804513 0.3475933369
0.0000000000 0.0046364081 0.0000000000
0.0013809020 0.0164738103 0.0013809020
0.0065599883 0.0596934180 0.0065599883
0.0762636959 0.0858382929 0.0104566878
0.1750279349 0.0654560198 0.0211601954
0.2759739928 0.0438949965 0.0342306955
0.3585528375 0.0511417258 0.0443378225
0.4283095820 0.0638824032 0.0530115761
0.5249077002 0.0887825115 0.0653068396
0.6335039636 0.1314666104 0.0795666681
0.7275703192 0.1942744215 0.0932370107
0.8066216715 0.2625698217 0.1075292219
0.8798062041 0.3245539531 0.1264010377
0.9350443280 0.3765816405 0.1528497517
0.9808459568 0.4235380207 0.1953333744
0.9971181063 0.4670679754 0.2643241701
0.9975379304 0.5048308676 0.3489040645
0.0086310599 0.0711440076 0.0086310599
0.0117389495 0.0985029934 0.0117389495
0.0163752951 0.1315710782 0.0163752951
0.0247606612 0.1787434717 0.0226891517
0.1688849327 0.1833717302 0.0234780242
0.2985762789 0.1468182595 0.0366970790
0.4022602242 0.0971544593 0.0501640795
0.4897267975 0.0857868504 0.0610653055
0.5563505558 0.1008912128 0.0694189591
0.6461682405 0.1385401844 0.0811869303
0.7346918969 0.2005737708 0.0944565470
0.8123272949 0.2675017156 0.1086435200
0.8836198597 0.3283260068 0.1273943330
0.9373058547 0.3787757142 0.1538589308
0.9822130651 0.4249843497 0.1966852110
0.9971231788 0.4680197937 0.2658279771
0.9975416168 0.5053410813 0.3507926876
0.0237743204 0.1875176092 0.0237743204
0.0262899928 0.2062275381 0.0262899928
0.0288528417 0.2261917985 0.0288528417
0.0328990198 0.2550183186 0.0328990198
0.0575946297 0.2964965831 0.0388592850
0.2770183344 0.2950123487 0.0395830435
0.4134388441 0.2470214882 0.0521089890
0.5217522417 0.1764256914 0.0650290579
0.6134540678 0.1423099114 0.0767534495
0.6759825341 0.1601147651 0.0852642489
0.7459030152 0.2110696828 0.0960704236
0.8207479509 0.2754390605 0.1104213505
0.8892299823 0.3333119510 0.1289279966
0.9406800007 0.3820055485 0.1555676903
0.9842908613 0.4274898720 0.1990340277
0.9971732690 0.4698190474 0.2686441973
0.9975434600 0.5064735511 0.3538935504
0.0414834179 0.3148551636 0.0419912561
0.0429834765 0.3245367695 0.0434326473
0.0444537386 0.3344737263 0.0450772535
0.0465943254 0.3467589921 0.0467303703
0.0506593452 0.3721222580 0.0510652905
0.1149013801 0.4074075486 0.0571140630
0.3840128485 0.4032418944 0.0573135954
0.5297790041 0.3529435104 0.0685105548
0.6399096512 0.2741077957 0.0811821747
0.7186722970 0.2231075446 0.0916084153
0.7699915255 0.2380761752 0.0996481099
0.8327843739 0.2866105501 0.1124127884
0.8963481061 0.3399889759 0.1310493381
0.9453795252 0.3870179505 0.1580757549
0.9870640923 0.4312079129 0.2025857853
0.9972222386 0.4724094107 0.2730390453
0.9975434600 0.5081492543 0.3587497770
0.0626537463 0.4340025237 0.0641033275
0.0637953971 0.4393622596 0.0651889341
0.0648851319 0.4445790037 0.0662614052
0.0659615437 0.4505292909 0.0673211164
0.0685076776 0.4617313272 0.0693335166
0.0751705408 0.4886628848 0.0749162688
0.1946098398 0.5226581908 0.0832040626
0.4958617576 0.5162057407 0.0824825440
0.6458521235 0.4623048428 0.0886057187
0.7393491725 0.3793543710 0.0976038162
0.8106936303 0.3179874392 0.1074101244
0.8589620558 0.3161725993 0.1166858011
0.9063053157 0.3503236116 0.1337644453
0.9518946531 0.3940606483 0.1617926993
0.9905354132 0.4367847871 0.2090725460
0.9973145552 0.4760834542 0.2801824055
0.9975434600 0.5107753684 0.3684993824
0.0963430510 0.5562778527 0.0988242293
0.0973122279 0.5589763797 0.0996164800
0.0982950314 0.5617264662 0.1003514838
0.0996153122 0.5645469921 0.1012916748
0.1013328274 0.5688434826 0.1024525235
0.1061330189 0.5806341306 0.1051384972
0.1191880478 0.6082919006 0.1132100877
0.2943458528 0.6394836344 0.1246333837
0.6122331859 0.6322805959 0.1216060186
0.7432836089 0.5786162218 0.1159174717
0.8298508202 0.4945510034 0.1204499033
0.8950516536 0.4140039803 0.1288055083
0.9272075206 0.3826490418 0.1384903983
0.9615605438 0.4054521012 0.1666876264
0.9939952173 0.4448182798 0.2186132230
0.9973653384 0.4818418044 0.2924335639
0.9975655783 0.5155836748 0.3834824431
0.1660117080 0.6733127434 0.1557930758
0.1670444720 0.6742808881 0.1563060804
0.1679756701 0.6753060010 0.1567128920
0.1690186840 0.6764868813 0.1572227567
0.1707002973 0.6781869110 0.1581705813
0.1735397541 0.6813672223 0.1597014314
0.1834813070 0.6909837152 0.1622444749
0.2104322015 0.7134126551 0.1728013498
0.4185147453 0.7376269872 0.1871021718
0.7153271765 0.7314642744 0.1810748251
0.8264612873 0.6914391405 0.1631153080
0.9060217034 0.6217364860 0.1605386670
0.9574175887 0.5254053817 0.1636008067
0.9831077402 0.4495893977 0.1751189694
0.9963080138 0.4580312967 0.2305689454
0.9974436896 0.4903199246 0.3101744312
0.9975876966 0.5223025899 0.4072115199
0.2775321918 0.7587288031 0.2398966597
0.2782011477 0.7591918212 0.2400461295
0.2788684722 0.7596578544 0.2401496050
0.2795959036 0.7601564264 0.2403081312
0.2806903761 0.7608808225 0.2405687736
0.2826863264 0.7622358303 0.2409917738
0.2867508196 0.7647740959 0.2414796762
0.3018639555 0.7744229773 0.2406177159
0.3398103952 0.7991896229 0.2496064899
0.5828586502 0.8214238680 0.2581248521
0.7984022556 0.8145348006 0.2492371843
0.8971804354 0.7820391462 0.2298117227
0.9605421973 0.7323098488 0.2291742393
0.9960579598 0.6522965016 0.2338072859
0.9971519854 0.5230369079 0.2430017114
0.9975158122 0.5042280239 0.3271697347
0.9976171876 0.5317985334 0.4391052988
0.3948968837 0.8337319851 0.3692864706
0.3952430376 0.8340185149 0.3690715140
0.3955894444 0.8342523138 0.3689350595
0.3959666934 0.8345325483 0.3686636541
0.3964182661 0.8349258490 0.3682463339
0.3972579210 0.8355773195 0.3673697797
0.3990695326 0.8371015933 0.3655614129
0.4031113589 0.8399413987 0.3612389127
0.4225951117 0.8540867288 0.3508533967
0.4744102699 0.8834299705 0.3441221620
0.7224602109 0.8969143891 0.3297725411
0.8760996607 0.8913758968 0.3155826443
0.9511932553 0.8654441837 0.3043630985
0.9958668967 0.8223587392 0.3315774253
0.9975231849 0.7577909576 0.3347780402
0.9975231849 0.6044089577 0.3406997824
0.9976461325 0.5460173406 0.4620326787
0.5049280402 0.8964439988 0.5487885155
0.5050430789 0.8964753706 0.5483306469
0.5051456285 0.8965947577 0.5479004276
0.5052150408 0.8966446787 0.5475248205
0.5054571682 0.8967838600 0.5470456687
0.5058290828 0.8970482172 0.5459720866
0.5064772662 0.8976289068 0.5435647810
0.5083537846 0.8988164290 0.5395948177
0.5112252474 0.9010611312 0.5309899850
0.5356518463 0.9161636564 0.5129754328
0.6073697728 0.9466196874 0.4913841523
0.8211933868 0.9538550018 0.4285105648
0.9374420823 0.9499683820 0.3799826720
0.9932118306 0.9314366088 0.3974827612
0.9976769198 0.8990721963 0.4788825047
0.9976769198 0.8448899698 0.4764111910
0.9976769198 0.6879961978 0.4739942168
0.6003681348 0.9430079343 0.6924027697
0.6002331797 0.9430514750 0.6920383259
0.6002724657 0.9430514750 0.6918761761
0.6002785629 0.9430514750 0.6916985474
0.6002563741 0.9430986442 0.6914048908
0.6002593284 0.9431672083 0.6907496218
0.6002500884 0.9432633607 0.6895017540
0.6003444375 0.9434869448 0.6873410148
0.6007513772 0.9440485326 0.6828271841
0.6021514031 0.9455511255 0.6742874182
0.6306132484 0.9632360160 0.6666671390
0.7156352419 0.9925096983 0.6621676318
0.8991276912 0.9946341433 0.6002126808
0.9866670074 0.9937020978 0.4990449376
0.9978923524 0.9810284820 0.5573860979
0.9982035585 0.9531268266 0.6479933643
0.9982035585 0.9143770185 0.6395007105
0.6775720239 0.9844901656 0.7880903501
0.6774965068 0.9844606844 0.7878582997
0.6774155022 0.9844624259 0.7876174600
0.6774272257 0.9844815824 0.7874901386
0.6772820115 0.9844127929 0.7871692666
0.6772261816 0.9843581842 0.7866268666
0.6769474062 0.9843245980 0.7854872263
0.6765513008 0.9842030396 0.7838033362
0.6759399140 0.9839607428 0.7810601893
0.6752019130 0.9837637080 0.7755667054
0.6748516678 0.9843454961 0.7652170118
0.7042757416 0.9965915639 0.7657406319
0.8010233079 0.9985297899 0.7658782032
0.9521742018 0.9984703142 0.7311397218
0.9981359431 0.9981733269 0.6684678297
0.9984250242 0.9979045915 0.7109395125
0.9986593207 0.9921397853 0.7595815847
0.7359375798 0.9983555839 0.8798204408
0.7358258007 0.9983555839 0.8796345500
0.7357050842 0.9983555839 0.8795048792
0.7357354207 0.9983555839 0.8793590467
0.7355400590 0.9983555839 0.8790849898
0.7354795119 0.9983555839 0.8786427759
0.7352904440 0.9983555839 0.8778877675
0.7348726569 0.9983555839 0.8764417055
0.7341852403 0.9983555839 0.8739333785
0.7328268971 0.9982731884 0.8692281907
0.7304106801 0.9982731884 0.8608073676
0.7270703970 0.9982170894 0.8446699575
0.7557655232 0.9985437504 0.8464631211
0.8782893677 0.9990721056 0.8481684436
0.9918277986 0.9989082819 0.8192258199
0.9987052132 0.9986603693 0.7767286612
0.9988766686 0.9988469206 0.8052963381
0.7874584349 0.9987077052 0.9527850533
0.7873436606 0.9987077052 0.9526741579
0.7872531959 0.9987077052 0.9524803240
0.7873025115 0.9987077052 0.9523938661
0.7870830919 0.9987077052 0.9521414721
0.7869617971 0.9987077052 0.9519587460
0.7865653732 0.9987077052 0.9513959941
0.7860015674 0.9987077052 0.9503476063
0.7852722790 0.9987077052 0.9486057198
0.7837653818 0.9987077052 0.9456111402
0.7802752482 0.9987077052 0.9398988101
0.7744238501 0.9986516034 0.9297635788
0.7669135344 0.9986516034 0.9098373396
0.8007468633 0.9988021821 0.9130544719
0.9390828576 0.9994750432 0.9121944261
0.9993447750 0.9993801445 0.8944102310
0.9992462686 0.9992425925 0.8613817211
0.0000000000 0.0000000000 0.0000000000
0.0000000000 0.0000000000 0.0000000000
0.0000000000 0.0000000000 0.0000000000
0.0000000000 0.0000000000 0.0000000000
0.0159806087 0.0013808395 0.0013808395
0.1155732106 0.0141064425 0.0141064425
0.2535781097 0.0332441046 0.0311729705
0.3819664511 0.0540084251 0.0473015709
0.5037130730 0.0822942214 0.0628316992
0.6238721057 0.1264796030 0.0788039978
0.7242740819 0.1913672309 0.0934428869
0.8053766401 0.2612613403 0.1086896572
0.8796209388 0.3242442091 0.1280389096
0.9350185283 0.3765236125 0.1551967997
0.9808729494 0.4234925190 0.1982522789
0.9971130339 0.4671393463 0.2671251000
0.9975397736 0.5048917262 0.3513363128
0.0000000000 0.0000000000 0.0000000000
0.0000000000 0.0000000000 0.0000000000
0.0000000000 0.0000000000 0.0000000000
0.0098151191 0.0003555552 0.0003555552
0.0751474910 0.0090753479 0.0089766451
0.1774173014 0.0222453015 0.0215543814
0.2928710397 0.0389440393 0.0362038774
0.4037491469 0.0582789821 0.0499965723
0.5175270510 0.0862758656 0.0647114949
0.6322986615 0.1306997834 0.0799876332
0.7289129906 0.1952075296 0.0942472886
0.8088393952 0.2643618192 0.1093897937
0.8820293875 0.3266241394 0.1289277468
0.9364383234 0.3778578211 0.1559508267
0.9817581709 0.4245283737 0.1989037362
