bundles/resolve-cinematic-luts/Gamut/_Conversion/Panasonic/Panasonic S5 BaseLUTs/Monitor LUTs/BaseLUTs - Panasonic S5 - V-Log to Rec709 (Bold) ML.cube
TITLE "BaseLUT - Panasonic S5 - V-Log to Rec709 (Bold) ML"
# Monitoring LUT. Developed for converting V-Log / V-Gamut to Rec.709. Version 1.0 - 05/01/2025 - Copyright 2025 Gamut, LLC.
LUT_3D_SIZE 17
0.0000000000 0.0000000000 0.0000000000
0.0000000000 0.0000000000 0.0000000000
0.0000000000 0.0000000000 0.0000000000
0.0000000000 0.0000000000 0.0000000000
0.0001376071 0.0000000000 0.0000000000
0.0294828863 0.0000000000 0.0000000000
0.1732814724 0.0018603070 0.0010578815
0.3475758102 0.0078802793 0.0034152847
0.4908115500 0.0215530624 0.0049707713
0.6256201113 0.0571841772 0.0131767030
0.7399919233 0.1258257487 0.0284033475
0.8257728056 0.2081373306 0.0488911681
0.9033967333 0.2809959559 0.0702073654
0.9633609370 0.3378665109 0.0946921903
0.9984793471 0.3824401412 0.1281736044
1.0000000000 0.4175245990 0.1820487695
1.0000000000 0.4408313271 0.2494206211
0.0000000000 0.0000000000 0.0000000000
0.0000000000 0.0000000000 0.0000000000
0.0000000000 0.0000000000 0.0000000000
0.0000000000 0.0000000000 0.0000000000
0.0111107954 0.0000000000 0.0000000000
0.0895772514 0.0000000000 0.0000000000
0.2259518893 0.0031642643 0.0018603070
0.3747003914 0.0098869155 0.0034152847
0.5073499374 0.0242320844 0.0057733240
0.6355131218 0.0616731388 0.0139563244
0.7455204537 0.1305727761 0.0292125232
0.8295003537 0.2119590806 0.0495988367
0.9063344181 0.2839295242 0.0712182808
0.9652693707 0.3398497385 0.0954836569
0.9986410544 0.3843261781 0.1294212965
1.0000000000 0.4185586698 0.1829015082
1.0000000000 0.4413575827 0.2503182556
0.0000000000 0.0000000000 0.0000000000
0.0000000000 0.0000000000 0.0000000000
0.0000000000 0.0000000000 0.0000000000
0.0233285615 0.0011583914 0.0000000000
0.0974053839 0.0003876032 0.0000369672
0.2043889865 0.0026129228 0.0012586469
0.3146666680 0.0062751103 0.0026629869
0.4045993688 0.0117930697 0.0037661788
0.5229175989 0.0276869954 0.0061748548
0.6456551569 0.0657416583 0.0150764742
0.7505603558 0.1351534069 0.0307294229
0.8330590825 0.2155679415 0.0506987260
0.9090110265 0.2869727280 0.0720953576
0.9670778380 0.3416263444 0.0962690401
0.9988417593 0.3858500238 0.1301530328
1.0000000000 0.4195991910 0.1839804046
1.0000000000 0.4416639571 0.2512320446
0.0000000000 0.0010580723 0.0000000000
0.0000000000 0.0077291963 0.0000000000
0.0000000000 0.0423416640 0.0000000000
0.0675074142 0.0796748136 0.0000000000
0.1747971600 0.0658559276 0.0129335654
0.2910859516 0.0166837022 0.0031145819
0.3867465343 0.0124623859 0.0034654124
0.4659598284 0.0189239401 0.0045692404
0.5386329139 0.0312413700 0.0072278553
0.6548985637 0.0705643301 0.0161476507
0.7556069094 0.1400359255 0.0316395372
0.8370043370 0.2194341097 0.0516836184
0.9120444786 0.2900167490 0.0727922109
0.9692087510 0.3440510168 0.0970487744
0.9991155963 0.3876823332 0.1312917309
1.0000000000 0.4206368314 0.1852128478
1.0000000000 0.4421181869 0.2521322463
0.0000000000 0.0529438113 0.0000000000
0.0000000000 0.0802287246 0.0000000000
0.0000000000 0.1243591916 0.0000000000
0.0016131716 0.1778044797 0.0000000000
0.1698644842 0.1893421013 0.0000000000
0.3171775614 0.1497955748 0.0138588717
0.4339103981 0.0763278200 0.0160992949
0.5338658845 0.0431094355 0.0095855766
0.6041145824 0.0532858704 0.0123759984
0.6687587106 0.0783391574 0.0176575495
0.7632863446 0.1475108233 0.0332582733
0.8427755119 0.2257250389 0.0532432364
0.9164550508 0.2939592375 0.0742021063
0.9721581608 0.3475021220 0.0986864585
0.9994269563 0.3899412066 0.1331014238
1.0000000000 0.4216862454 0.1865282926
1.0000000000 0.4426859118 0.2536691073
0.0000000000 0.1783628376 0.0000000000
0.0000000000 0.1982081018 0.0000000000
0.0000000000 0.2224003550 0.0000000000
0.0000000000 0.2613122775 0.0000000000
0.0152105302 0.3075490779 0.0000000000
0.2835429489 0.3081302384 0.0000000000
0.4400483888 0.2499289197 0.0071278543
0.5603576907 0.1706768093 0.0347752372
0.6635242038 0.1107144272 0.0245243189
0.7243764449 0.1215130232 0.0271052649
0.7767273649 0.1624824276 0.0364941423
0.8532498889 0.2362845484 0.0561377911
0.9234951165 0.3013188119 0.0765312750
0.9766744561 0.3527146103 0.1008841905
0.9999720482 0.3931507695 0.1351605795
1.0000000000 0.4230922769 0.1889087376
1.0000000000 0.4429485095 0.2565247448
0.0000000000 0.3119902823 0.0000000000
0.0000000000 0.3226646734 0.0000000000
0.0000000000 0.3344063391 0.0000000000
0.0000000000 0.3481317452 0.0000000000
0.0000000000 0.3813670934 0.0000000000
0.0659843739 0.4202685314 0.0000000000
0.3868802870 0.4161055073 0.0000000000
0.5550243257 0.3500362914 0.0051214725
0.6727419416 0.2676048282 0.0430856794
0.7603819432 0.2046376385 0.0450066677
0.8135356781 0.2100293433 0.0481790291
0.8684664481 0.2534229347 0.0603899916
0.9330889979 0.3112286150 0.0797129334
0.9819936172 0.3590994682 0.1035814466
1.0000000000 0.3972380996 0.1386477595
1.0000000000 0.4253675578 0.1927331444
1.0000000000 0.4436196896 0.2610943784
0.0000000000 0.4351960461 0.0000000000
0.0000000000 0.4408886982 0.0000000000
0.0000000000 0.4461152722 0.0000000000
0.0000000000 0.4526011808 0.0000000000
0.0000000000 0.4649199689 0.0000000000
0.0000000000 0.4960758005 0.0000000000
0.1312303450 0.5302658391 0.0000000000
0.4869215952 0.5208479935 0.0000000000
0.6637400546 0.4501167227 0.0035655406
0.7685210055 0.3654914461 0.0380064248
0.8476567923 0.3082745438 0.0656056709
0.8989889776 0.2966543968 0.0712131380
0.9442619577 0.3252750351 0.0838674982
0.9880544085 0.3674991703 0.1075310564
1.0000000000 0.4025057107 0.1436162625
1.0000000000 0.4282422888 0.1989697853
1.0000000000 0.4440476035 0.2682824029
0.0000000000 0.5603503055 0.0000000000
0.0000000000 0.5629984083 0.0000000000
0.0000000000 0.5658986919 0.0000000000
0.0000000000 0.5687057858 0.0000000000
0.0000000000 0.5736424653 0.0000000000
0.0000000000 0.5859662947 0.0000000000
0.0019953789 0.6152305135 0.0000000000
0.2124211593 0.6434793571 0.0000000000
0.5969129402 0.6325842796 0.0053717932
0.7587905999 0.5621256228 0.0038670068
0.8571725970 0.4706445502 0.0276949580
0.9290829667 0.4023664944 0.0727363820
0.9665441066 0.3693089822 0.0938262948
0.9946947042 0.3816516990 0.1133447758
1.0000000000 0.4100253315 0.1518916795
1.0000000000 0.4318317895 0.2087705524
1.0000000000 0.4451386531 0.2811086383
0.0097269206 0.6760630594 0.0000000000
0.0097269206 0.6770817330 0.0000000000
0.0104909720 0.6780437139 0.0000000000
0.0111590933 0.6791309093 0.0000000000
0.0119212997 0.6809265789 0.0000000000
0.0138617619 0.6845070223 0.0000000000
0.0224174207 0.6946893337 0.0000000000
0.0528116361 0.7174933178 0.0000000000
0.3286041756 0.7391179596 0.0152225915
0.7017900962 0.7314996984 0.0419510440
0.8401184133 0.6726682791 0.0263751168
0.9294282770 0.5872831068 0.0286564634
0.9862642378 0.4994271542 0.0727563777
0.9999569942 0.4351616234 0.1195364029
1.0000000000 0.4255332482 0.1627650496
1.0000000000 0.4373892453 0.2231189229
1.0000000000 0.4462594484 0.3010725683
0.0860596474 0.7572993267 0.0262289378
0.0869232741 0.7577703882 0.0262289378
0.0875402390 0.7582806210 0.0262289378
0.0884205707 0.7587988891 0.0262289378
0.0897576582 0.7595442760 0.0262289378
0.0921830473 0.7609325388 0.0264722606
0.0978403582 0.7638123582 0.0267155835
0.1179833984 0.7742789504 0.0272028387
0.1736732282 0.7988563275 0.0342278989
0.4928389948 0.8214424688 0.0687594296
0.7903731160 0.8150593748 0.0957764685
0.9091419754 0.7658700210 0.0752624912
0.9793030731 0.6948362085 0.0668397127
1.0000000000 0.6057071082 0.0988920535
1.0000000000 0.4999348460 0.1642635012
1.0000000000 0.4543614169 0.2388377087
1.0000000000 0.4486816956 0.3289914412
0.1710441393 0.8230329322 0.1250255008
0.1715757363 0.8233257104 0.1248617516
0.1721752794 0.8236144472 0.1245377625
0.1729191140 0.8238946661 0.1241286345
0.1739927129 0.8243677493 0.1237178543
0.1757102958 0.8251786247 0.1228072748
0.1789925827 0.8268107586 0.1211603899
0.1877363217 0.8306527487 0.1172697091
0.2198331240 0.8460104423 0.1084686742
0.3136260673 0.8769241486 0.1075570909
0.6467943627 0.8962505582 0.1367899401
0.8691971047 0.8917544646 0.1554315218
0.9617719157 0.8507023741 0.1421744246
0.9992963204 0.7897291622 0.1584609225
1.0000000000 0.7079517395 0.1778030406
1.0000000000 0.5694732615 0.2443019878
1.0000000000 0.4654750594 0.3517796848
0.2667758933 0.8780544349 0.3266725601
0.2669179058 0.8781428034 0.3260625283
0.2671517129 0.8782112827 0.3253858554
0.2673113831 0.8783036794 0.3246823234
0.2676362336 0.8783837398 0.3235776781
0.2680829343 0.8785959753 0.3217810932
0.2690743919 0.8790375661 0.3180198558
0.2715740750 0.8799544209 0.3114015836
0.2784795269 0.8827583590 0.2972206752
0.3175657795 0.8986569522 0.2719527792
0.4510155238 0.9313948650 0.2545861522
0.7605752763 0.9514497300 0.2465403137
0.9337143555 0.9515588138 0.2264793581
0.9958467125 0.9215963546 0.2421800614
1.0000000000 0.8778754320 0.3280400956
1.0000000000 0.8054853366 0.3380232062
1.0000000000 0.6435896581 0.3817473829
0.3848679949 0.9248169571 0.5264922203
0.3847974857 0.9248468640 0.5261894706
0.3847754989 0.9248115024 0.5257937862
0.3847593880 0.9248303117 0.5253712485
0.3847197739 0.9248303117 0.5246837042
0.3846507811 0.9248209070 0.5233619512
0.3844849328 0.9248116904 0.5213065578
0.3843850448 0.9248620369 0.5172883964
0.3843937636 0.9249687487 0.5091753499
0.3870636994 0.9262735544 0.4930884103
0.4229414417 0.9411116232 0.4705005346
0.5701520064 0.9694583786 0.4645686278
0.8514425342 0.9878367094 0.4459860305
0.9819586903 0.9934340414 0.3752825281
1.0000000000 0.9770840331 0.4426997636
1.0000000000 0.9445730107 0.5498470546
1.0000000000 0.8929373765 0.5451947002
0.4895697094 0.9664478408 0.6622770896
0.4893816962 0.9663884170 0.6619223194
0.4894252189 0.9663884170 0.6616842030
0.4891855303 0.9663314952 0.6613292454
0.4890420432 0.9662720713 0.6608185410
0.4887881188 0.9661950079 0.6598411586
0.4882955091 0.9660436335 0.6580735521
0.4875668481 0.9657943035 0.6551226702
0.4863609420 0.9654041077 0.6503655651
0.4844357192 0.9648438345 0.6409404559
0.4843744487 0.9653140336 0.6231480612
0.5247652185 0.9737058084 0.6160619819
0.6945533225 0.9789166830 0.6359583718
0.9287215901 0.9943125929 0.6399467725
0.9986381055 1.0000000000 0.5928237900
1.0000000000 0.9980038317 0.6448751254
1.0000000000 0.9890986164 0.7062275420
0.5897473995 0.9868128696 0.8060390677
0.5896347608 0.9868077079 0.8057870748
0.5895284144 0.9868077079 0.8054981442
0.5893312344 0.9867457676 0.8052521481
0.5890974842 0.9867268834 0.8047919262
0.5888651047 0.9866724339 0.8040491532
0.5883510661 0.9865859441 0.8027109752
0.5873074138 0.9863970389 0.8002133315
0.5856375827 0.9860702159 0.7958876753
0.5825570891 0.9854935545 0.7880397034
0.5768245402 0.9844832419 0.7735958506
0.5714446101 0.9827661677 0.7480322913
0.6191136929 0.9812293769 0.7495718735
0.8110154641 0.9844979838 0.7741464991
0.9854879253 0.9986057999 0.7786597870
1.0000000000 1.0000000000 0.7379586598
1.0000000000 1.0000000000 0.7688913955
0.6914530068 0.9958051385 0.9296099756
0.6913317754 0.9957258336 0.9293756385
0.6912325076 0.9957241462 0.9291403356
0.6909691301 0.9957241462 0.9288822370
0.6908074265 0.9956701513 0.9286049224
0.6904018412 0.9956330299 0.9281977421
0.6896122638 0.9955621616 0.9273181976
0.6885440702 0.9953968023 0.9255771942
0.6868120345 0.9951302027 0.9226562221
0.6834734513 0.9946813703 0.9176993014
0.6762941548 0.9938566080 0.9081390513
0.6642768841 0.9924032302 0.8911133433
0.6482982475 0.9895632942 0.8575148673
0.7031621130 0.9881904110 0.8614499236
0.9117972695 0.9891735238 0.8790386109
1.0000000000 1.0000000000 0.8780400409
1.0000000000 1.0000000000 0.8385160909
0.0000000000 0.0000000000 0.0000000000
0.0000000000 0.0000000000 0.0000000000
0.0000000000 0.0000000000 0.0000000000
0.0000000000 0.0000000000 0.0000000000
0.0040473750 0.0000000000 0.0000000000
0.0690092208 0.0000000000 0.0000000000
0.2249757837 0.0031642643 0.0018603070
0.3790291255 0.0098869155 0.0034152847
0.5147687370 0.0257903390 0.0061748548
0.6439187067 0.0648976566 0.0147353899
0.7519940707 0.1359112019 0.0307800205
0.8354933498 0.2173699202 0.0516396280
0.9116772590 0.2887569460 0.0733917679
0.9693224189 0.3432544152 0.0983154934
0.9991386396 0.3867963298 0.1331013607
1.0000000000 0.4195842235 0.1867006181
1.0000000000 0.4414391495 0.2537537615
0.0000000000 0.0000000000 0.0000000000
0.0000000000 0.0000000000 0.0000000000
0.0000000000 0.0000000000 0.0000000000
0.0000000000 0.0000000000 0.0000000000
0.0262142580 0.0000000000 0.0000000000
0.1339779184 0.0010579451 0.0003978554
0.2723820685 0.0047198781 0.0021109457
0.4037095625 0.0119409700 0.0037661788
0.5298191029 0.0291981440 0.0069267708
0.6531278036 0.0693102888 0.0162449799
0.7567648375 0.1407263720 0.0318922042
0.8392181438 0.2210485887 0.0525245540
0.9144255612 0.2912932313 0.0742667862
0.9711982844 0.3453889713 0.0991747468
0.9993563978 0.3881333815 0.1340221968
1.0000000000 0.4202388469 0.1875578637
1.0000000000 0.4416686964 0.2549146880
0.0000000000 0.0000000000 0.0000000000
0.0000000000 0.0000000000 0.0000000000
0.0011359421 0.0018601798 0.0000000000
0.0494104155 0.0011583278 0.0000000000
0.1238891747 0.0010580087 0.0003876032
0.2159982349 0.0027131783 0.0013088383
0.3146122591 0.0063253016 0.0026629869
0.4267097999 0.0138098983 0.0042179010
0.5439556943 0.0322630447 0.0076795775
0.6620922027 0.0737215227 0.0169753808
0.7617661483 0.1452328880 0.0331570782
0.8428450477 0.2248435585 0.0536283305
0.9170577283 0.2937178948 0.0752497063
0.9729091966 0.3474138711 0.1002300977
0.9994761956 0.3893707429 0.1349218395
1.0000000000 0.4207336503 0.1884111032
1.0000000000 0.4419029204 0.2558191474
0.0000000000 0.0045696221 0.0000000000
0.0000000000 0.0177064611 0.0000000000
0.0000000000 0.0598818643 0.0000000000
0.0753472480 0.0854538342 0.0000000000
0.1833284733 0.0601145659 0.0116425320
0.2941849939 0.0153197354 0.0029138164
0.3822621871 0.0118429945 0.0034654124
0.4562576393 0.0175111235 0.0045692404
0.5579312773 0.0363812717 0.0084316208
0.6708569770 0.0784060498 0.0178037285
0.7668013792 0.1501187430 0.0340166590
0.8466912027 0.2288225151 0.0548712048
0.9197263943 0.2963639103 0.0761905562
0.9745460784 0.3493345311 0.1010753219
0.9998638417 0.3905461737 0.1356434207
1.0000000000 0.4212747338 0.1892599419
1.0000000000 0.4420421078 0.2568214100
0.0000000000 0.0710621687 0.0000000000
0.0000000000 0.0992466577 0.0000000000
0.0000000000 0.1328665397 0.0000000000
0.0000000000 0.1805579724 0.0000000000
0.1678314883 0.1836317475 0.0000000000
0.3107081104 0.1390384344 0.0164884880
0.4252229485 0.0691931612 0.0144916347
0.5204808151 0.0382640801 0.0087827694
0.5908272481 0.0483862445 0.0109901710
0.6837755119 0.0867351130 0.0197030674
0.7740225118 0.1577270778 0.0362415394
0.8525126189 0.2344079840 0.0563305325
0.9235573971 0.3004165906 0.0773979981
0.9767831381 0.3518515874 0.1022044809
0.9999710541 0.3921297584 0.1369756968
1.0000000000 0.4220275539 0.1905839501
1.0000000000 0.4421229886 0.2583531367
0.0000000000 0.1894918925 0.0000000000
0.0000000000 0.2086618090 0.0000000000
0.0000000000 0.2290849769 0.0000000000
0.0000000000 0.2582909851 0.0000000000
0.0122125450 0.2999842997 0.0000000000
0.2732477938 0.2948145657 0.0000000000
0.4271588892 0.2337273647 0.0093848112
0.5470964399 0.1575915697 0.0326003772
0.6481406911 0.0990360331 0.0218453587
0.7143743184 0.1127959903 0.0255470161
0.7854006878 0.1705643518 0.0393862175
0.8611313180 0.2434264088 0.0588231270
0.9291279057 0.3060457509 0.0792296921
0.9798841964 0.3553856218 0.1037010046
1.0000000000 0.3944901381 0.1389784632
1.0000000000 0.4233437934 0.1929407439
1.0000000000 0.4424763824 0.2609044074
0.0000000000 0.3190844074 0.0000000000
0.0000000000 0.3289494766 0.0000000000
0.0000000000 0.3391936560 0.0000000000
0.0000000000 0.3517436627 0.0000000000
0.0000000000 0.3774512451 0.0000000000
0.0580443825 0.4121144525 0.0000000000
0.3757078010 0.4027212674 0.0000000000
0.5440607926 0.3364217387 0.0058733886
0.6658125831 0.2593908002 0.0430048258
0.7539789200 0.1959226215 0.0434942489
0.8101387715 0.2055995240 0.0474587270
0.8727123250 0.2569427301 0.0619573288
0.9362589400 0.3136035264 0.0818832049
0.9840183956 0.3605928637 0.1062138942
1.0000000000 0.3977479331 0.1419330986
1.0000000000 0.4252331721 0.1967586308
1.0000000000 0.4430009542 0.2648833244
0.0000000000 0.4400957292 0.0000000000
0.0000000000 0.4454372949 0.0000000000
0.0000000000 0.4507513892 0.0000000000
0.0000000000 0.4567699644 0.0000000000
0.0000000000 0.4682247939 0.0000000000
0.0000000000 0.4955027393 0.0000000000
0.1273520425 0.5271865762 0.0000000000
0.4813762084 0.5140882898 0.0000000000
0.6596627619 0.4436504331 0.0039168801
0.7659840007 0.3615087248 0.0395944433
0.8451865516 0.3043616046 0.0659112691
0.8982889461 0.2952023395 0.0715706606
0.9461254781 0.3262870329 0.0857779166
0.9892249817 0.3679442972 0.1100404041
1.0000000000 0.4024635012 0.1471387244
1.0000000000 0.4275959280 0.2026528893
1.0000000000 0.4431959538 0.2725781035
0.0000000000 0.5629706788 0.0000000000
0.0000000000 0.5656680417 0.0000000000
0.0000000000 0.5684137192 0.0000000000
0.0000000000 0.5712635985 0.0000000000
0.0000000000 0.5756408291 0.0000000000
0.0000000000 0.5876062644 0.0000000000
0.0015179678 0.6152313250 0.0000000000
0.2096756271 0.6422600538 0.0000000000
0.5945343459 0.6294522811 0.0049702623
0.7574917977 0.5586341654 0.0046193682
0.8564370494 0.4683223737 0.0299709089
0.9284176458 0.4004135836 0.0748590449
0.9667955177 0.3685126507 0.0955384699
0.9952262509 0.3814346598 0.1157361213
1.0000000000 0.4093829827 0.1549948412
1.0000000000 0.4309310625 0.2124521512
1.0000000000 0.4442803308 0.2851857427
0.0075316649 0.6769032130 0.0000000000
0.0079132064 0.6778709140 0.0000000000
0.0086290204 0.6788933344 0.0000000000
0.0092971417 0.6800557266 0.0000000000
0.0103477124 0.6817947847 0.0000000000
0.0119212997 0.6852000622 0.0000000000
0.0202911046 0.6952463364 0.0000000000
0.0514601066 0.7175184893 0.0000000000
0.3269858214 0.7387571935 0.0159530542
0.7009531064 0.7303947108 0.0411886182
0.8399813679 0.6711216728 0.0263751168
0.9294542941 0.5857420001 0.0317408605
0.9862164031 0.4982913534 0.0765504837
0.9999739300 0.4345735068 0.1228321801
1.0000000000 0.4244953916 0.1661421542
1.0000000000 0.4362837906 0.2265832371
1.0000000000 0.4451102170 0.3051324540
0.0824793256 0.7573134510 0.0307540484
0.0833744992 0.7577457177 0.0307540484
0.0840138823 0.7582397547 0.0312094261
0.0848949591 0.7587350472 0.0312094261
0.0863019000 0.7595216771 0.0312094261
0.0889137405 0.7608984521 0.0312599595
0.0945763507 0.7638132885 0.0312599595
0.1154457227 0.7742064053 0.0311204796
0.1720895319 0.7988409902 0.0367157710
0.4914912949 0.8215050278 0.0694737314
0.7903284042 0.8147574674 0.0957764685
0.9093203660 0.7652168657 0.0763540509
0.9793937343 0.6940224428 0.0706446955
1.0000000000 0.6049252528 0.1036591035
1.0000000000 0.4995435054 0.1693492654
1.0000000000 0.4532671774 0.2425708355
1.0000000000 0.4475735594 0.3329540508
0.1677064170 0.8225234150 0.1329074042
0.1683212797 0.8227497289 0.1326204117
0.1688774476 0.8230329322 0.1322331295
0.1695539002 0.8233151407 0.1321328398
0.1704623349 0.8237725561 0.1315975829
0.1721062677 0.8245685718 0.1306763054
0.1756721858 0.8262716465 0.1287415342
0.1845008575 0.8300564363 0.1244523404
0.2169130281 0.8454861493 0.1153301716
0.3115972689 0.8766180688 0.1119414858
0.6461550279 0.8963024012 0.1387635657
0.8693987051 0.8917858677 0.1559296281
0.9619637318 0.8504915811 0.1439647534
0.9993035458 0.7893466660 0.1629164539
1.0000000000 0.7075064357 0.1828442333
1.0000000000 0.5688974820 0.2490547048
1.0000000000 0.4642568368 0.3552568829
0.2669731328 0.8782226120 0.3342209279
0.2671151453 0.8782447670 0.3335394406
0.2672578466 0.8783311215 0.3328642881
0.2673760025 0.8783933067 0.3321947734
0.2676183254 0.8784857034 0.3311936371
0.2681158075 0.8786737698 0.3293315514
0.2690840347 0.8791352498 0.3254763150
0.2715308075 0.8800221450 0.3187581045
0.2777636411 0.8826120223 0.3046729468
0.3159198267 0.8981302844 0.2792380744
0.4490695652 0.9307234540 0.2615733756
0.7599573758 0.9512687160 0.2515942040
0.9338279152 0.9516023473 0.2287477264
0.9959110019 0.9214841881 0.2461668211
1.0000000000 0.8776290197 0.3337797792
1.0000000000 0.8052516199 0.3433521542
1.0000000000 0.6432047595 0.3858572648
0.3852311552 0.9248824137 0.5288329767
0.3852091684 0.9249005961 0.5284607425
0.3851234960 0.9248658614 0.5281091124
0.3851234960 0.9248949532 0.5276975882
0.3850368758 0.9248876803 0.5271199942
0.3850148890 0.9249195935 0.5260264944
0.3848490408 0.9249382775 0.5238672145
0.3847434665 0.9249254244 0.5200333759
0.3847582507 0.9250864326 0.5121459839
0.3873382177 0.9263571934 0.4962736156
0.4228280591 0.9410481695 0.4744221789
0.5694678884 0.9691909713 0.4686735664
0.8510206629 0.9876633522 0.4509197402
0.9819041945 0.9933753089 0.3795664285
1.0000000000 0.9769680418 0.4480955907
1.0000000000 0.9444593609 0.5529224496
1.0000000000 0.8928138081 0.5480095764
0.4896974556 0.9664443379 0.6633391523
0.4895739739 0.9664443379 0.6629830706
0.4894494261 0.9664339544 0.6626635213
0.4894166900 0.9663884170 0.6623613327
0.4892556433 0.9663314952 0.6618895963
0.4889452145 0.9662510540 0.6609596748
0.4884911105 0.9661000549 0.6591755194
0.4876777244 0.9658455331 0.6561676844
0.4864151887 0.9654553998 0.6512842381
0.4846769756 0.9648841176 0.6421049434
0.4845170578 0.9653353011 0.6242965123
0.5248183856 0.9737615417 0.6174877880
0.6943820561 0.9789290705 0.6375764851
0.9285591757 0.9942585980 0.6418706106
0.9986381055 1.0000000000 0.5957022438
1.0000000000 0.9980038317 0.6467482902
1.0000000000 0.9890544273 0.7071783389
0.5899042090 0.9868648012 0.8064644573
0.5897475864 0.9868648012 0.8062444898
0.5895449240 0.9868077079 0.8059669786
0.5894276751 0.9868077079 0.8056750496
0.5892015255 0.9868077079 0.8052636952
0.5889278409 0.9867268834 0.8044525332
0.5883341204 0.9866171031 0.8031130155
0.5874081532 0.9864557059 0.8006776566
0.5857245537 0.9861251060 0.7963595314
0.5826859259 0.9855556836 0.7884948927
0.5768032335 0.9845489383 0.7740925115
0.5715141993 0.9828207224 0.7485845429
0.6190106742 0.9812809911 0.7501663718
0.8109722703 0.9844962710 0.7747998299
0.9854913063 0.9986092453 0.7796050991
1.0000000000 1.0000000000 0.7389960445
1.0000000000 1.0000000000 0.7694526299
0.6915823203 0.9958051385 0.9297597676
0.6913344900 0.9958051385 0.9295512122
0.6911707505 0.9957241462 0.9293182414
0.6910822177 0.9957275209 0.9290846968
0.6907973085 0.9956701513 0.9287202818
0.6904174501 0.9956701513 0.9283078893
0.6897497828 0.9955824097 0.9274657093
0.6884789199 0.9953968023 0.9257099485
0.6868989016 0.9951572001 0.9228323068
0.6835163913 0.9946813703 0.9178230057
0.6763360567 0.9938566080 0.9083016215
0.6643708836 0.9924032302 0.8913179005
0.6483459919 0.9895632942 0.8577812387
0.7031376272 0.9882346000 0.8617209726
0.9118172713 0.9891735238 0.8793163305
1.0000000000 1.0000000000 0.8784329002
1.0000000000 1.0000000000 0.8389919871
0.0000000000 0.0000000000 0.0000000000
0.0000000000 0.0000000000 0.0000000000
0.0000000000 0.0000000000 0.0000000000
0.0000000000 0.0000000000 0.0000000000
0.0173554633 0.0000000000 0.0000000000
0.1235457702 0.0010078174 0.0000000000
0.2709620061 0.0047700059 0.0020608179
0.4072107623 0.0122323927 0.0042179010
0.5358894947 0.0304142324 0.0069768986
0.6609844752 0.0729429290 0.0169753808
0.7634068559 0.1461294793 0.0339661256
0.8452694841 0.2264554656 0.0549556870
0.9193496651 0.2950419030 0.0768398113
0.9745288190 0.3482550342 0.1022530242
0.9998735281 0.3895167716 0.1375285517
1.0000000000 0.4201620682 0.1910653237
1.0000000000 0.4410800186 0.2584453045
0.0000000000 0.0000000000 0.0000000000
0.0000000000 0.0000000000 0.0000000000
0.0000000000 0.0000000000 0.0000000000
0.0107294355 0.0000000000 0.0000000000
0.0804212025 0.0000369672 0.0000000000
0.1897791061 0.0020608179 0.0011080728
0.3129125466 0.0063253016 0.0026629869
0.4303407811 0.0142484353 0.0042179010
0.5503269050 0.0334791331 0.0077799602
0.6695386209 0.0772475424 0.0177550022
0.7681202235 0.1507336881 0.0347751731
0.8489025663 0.2299083694 0.0558059519
0.9217595886 0.2975735620 0.0778273289
0.9759129393 0.3497698523 0.1029917264
0.9999490252 0.3904183047 0.1381479510
