bundles/resolve-cinematic-luts/Gamut/Le Reve/Color - Le Reve IV.cube
TITLE "Contrast - Le Reve IV by Le Reve Films"
# Version 1.0 - 01/22/2022 - Designed for Rec.709 Color Space. Copyright 2023 Gamut, LLC
# 
LUT_3D_SIZE 5
0.0000000000 0.0000000000 0.0000000000
0.2303787105 0.0000000000 0.0045009920
0.4428423061 0.0000000000 0.0062749550
0.6755859033 0.0000000000 0.0160059096
0.9886730000 0.0134060000 0.0726220000
0.0018094280 0.2062309238 0.0230273228
0.1644120498 0.2437363025 0.0480666589
0.4680259153 0.2440432390 0.0015747505
0.7647647550 0.2409639706 0.0376315179
1.0000000000 0.2964945705 0.1521616583
0.0111900157 0.4237004968 0.0608733875
0.1984744534 0.4710948801 0.1323224474
0.3395393251 0.4887754394 0.1029696662
0.6461748050 0.5185076563 0.0161482514
1.0000000000 0.5577398219 0.0929291446
0.0385448695 0.6918415156 0.1487859480
0.2513981366 0.7286825346 0.2403802084
0.3947213564 0.7274820846 0.2228892016
0.5481297905 0.7474857425 0.1861387058
0.9465070247 0.8115954414 0.0309157697
0.2043770000 1.0000000000 0.3838450000
0.4182797767 1.0000000000 0.4714255874
0.5508704806 1.0000000000 0.4516479500
0.6764417712 1.0000000000 0.4107946928
0.8429820000 1.0000000000 0.3615280000
0.0141351425 0.0000000000 0.2160686219
0.1971409072 0.0000000000 0.1991494628
0.3934176453 0.0000000000 0.2030297057
0.6339747637 0.0000000000 0.2333350099
0.9645791162 0.0007890000 0.3082203448
0.0029285432 0.2185372371 0.2344329225
0.2487591784 0.2502723842 0.2491848624
0.4821584255 0.2587502560 0.2777774531
0.7331618603 0.2773080832 0.3255408716
1.0000000000 0.3483027506 0.4417567513
0.0164413417 0.4441964535 0.2631178516
0.2786312060 0.4903417040 0.3222463940
0.4353404115 0.5023398015 0.3202241513
0.7539757706 0.5224833344 0.2966377359
1.0000000000 0.5693545047 0.4420242719
0.0516715866 0.7104154330 0.3595791595
0.3392198110 0.7446091053 0.4224414817
0.4874404808 0.7430879645 0.4448896107
0.6328085776 0.7503860324 0.4040506682
0.9981056404 0.8158162383 0.3476411909
0.2174655774 1.0000000000 0.6110836511
0.5043733832 1.0000000000 0.6344379357
0.6338832532 1.0000000000 0.6640715435
0.7470194488 1.0000000000 0.6312627653
0.8911700105 1.0000000000 0.5794621557
0.0258467600 0.0000000000 0.4347878519
0.1677238698 0.0000000000 0.4139099283
0.3897738206 0.0000000000 0.4054805701
0.6167721112 0.0000000000 0.4075525832
0.9387385273 0.0000000000 0.5018819968
0.0139972129 0.2105913735 0.4624628958
0.2694157759 0.2444710239 0.4770996455
0.4753513709 0.2551250479 0.4877862723
0.7234829928 0.2632598885 0.5306148335
1.0000000000 0.3249270569 0.6423015401
0.0108189158 0.4420260852 0.4749341853
0.2803152791 0.4899172525 0.5066139402
0.4984016992 0.5002461745 0.5038193487
0.7384502840 0.5116758697 0.5407662729
1.0000000000 0.5875387471 0.6422880111
0.0342311689 0.7066419240 0.5386443881
0.3382229158 0.7419589915 0.5749454009
0.5433239711 0.7462142202 0.5912807424
0.6926674028 0.7508578679 0.5846374598
1.0000000000 0.8073959442 0.6364895153
0.1988766426 1.0000000000 0.7500142013
0.5086906373 1.0000000000 0.7599494909
0.6814365382 1.0000000000 0.7648263979
0.7953983159 1.0000000000 0.7728184850
0.9205685563 1.0000000000 0.7177691464
0.0341321699 0.0000000000 0.6624211637
0.1856247079 0.0000000000 0.6330859230
0.3508204065 0.0000000000 0.6344345895
0.6149274449 0.0000000000 0.6291697256
0.9299854289 0.0000000000 0.6752737434
0.0285264288 0.2045532637 0.6980693711
0.2951976987 0.2356377801 0.7019741090
0.4523493009 0.2524554155 0.6986155960
0.7165783166 0.2667391562 0.7270613504
1.0000000000 0.3193261526 0.8135058185
0.0213678559 0.4416853520 0.7050683719
0.2998973810 0.4815372876 0.7282848983
0.5164038624 0.4917789988 0.7217730029
0.7293293750 0.5100065373 0.7373454653
1.0000000000 0.5616391100 0.8302520202
0.0312675977 0.7045029032 0.7445611139
0.3203305784 0.7334763523 0.7585798569
0.5364718320 0.7404991433 0.7543498469
0.7489538136 0.7501380512 0.7523537749
1.0000000000 0.7930982750 0.8216546579
0.1673480061 1.0000000000 0.9011892914
0.4760253457 1.0000000000 0.8878357361
0.6730449219 1.0000000000 0.8800428859
0.8395398155 1.0000000000 0.8798198798
0.9554681064 1.0000000000 0.8521648056
0.0549340000 0.0000000000 0.9447300000
0.2472676199 0.0000000000 0.9205634884
0.3443186057 0.0000000000 0.9125789712
0.5689668110 0.0000000000 0.9206670075
0.9390950000 0.0000000000 0.9520400000
0.0697292916 0.2064632846 0.9775913997
0.3519240144 0.2387942464 0.9786417938
0.5105978688 0.2562416394 0.9683161494
0.6805183677 0.2752247921 0.9811691747
1.0000000000 0.3362235304 1.0000000000
0.0580768367 0.4513509176 0.9897595888
0.3584140660 0.4826187965 0.9960685307
0.5637716121 0.4874011274 0.9844136515
0.7119969389 0.5052891050 0.9771872060
1.0000000000 0.5738659819 1.0000000000
0.0566449510 0.7152715751 0.9994402061
0.3587775916 0.7359755920 1.0000000000
0.5711884767 0.7335678330 0.9991137702
0.7740105444 0.7384192990 0.9901631657
1.0000000000 0.7846346123 1.0000000000
0.1698470000 1.0000000000 1.0000000000
0.4599369000 1.0000000000 1.0000000000
0.6415188384 1.0000000000 1.0000000000
0.8174641008 1.0000000000 1.0000000000
1.0000000000 1.0000000000 1.0000000000
