bundles/resolve-cinematic-luts/Gamut/Le Reve/Color - Le Reve VI.cube
TITLE "Contrast - Le Reve VI by Le Reve Films"
# Version 1.0 - 01/22/2022 - Designed for Rec.709 Color Space. Copyright 2023 Gamut, LLC
# 
LUT_3D_SIZE 33
0.0000000000 0.0000000000 0.0000000000
0.0047436570 0.0047436570 0.0047436570
0.0080279582 0.0080279582 0.0080279582
0.0103713623 0.0103713623 0.0103713623
0.0127585005 0.0127585005 0.0127585005
0.0145657192 0.0145657192 0.0145657192
0.0168909001 0.0168909001 0.0168909001
0.0189474710 0.0189474710 0.0189474710
0.0210008531 0.0210008531 0.0210008531
0.0235485863 0.0235485863 0.0235485863
0.0263161850 0.0263161850 0.0263161850
0.0290940753 0.0290940753 0.0290940753
0.0319301133 0.0319301133 0.0319301133
0.0352537994 0.0352537994 0.0352537994
0.0388056844 0.0388056844 0.0388056844
0.0424565360 0.0424565360 0.0424565360
0.0461309857 0.0461309857 0.0461309857
0.0507372534 0.0507372534 0.0507372534
0.0554179352 0.0554179352 0.0554179352
0.0602388659 0.0602388659 0.0602388659
0.0654485592 0.0654485592 0.0654485592
0.0709221184 0.0709221184 0.0709221184
0.0768691533 0.0768691533 0.0768691533
0.0833024491 0.0833024491 0.0833024491
0.0901932255 0.0901932255 0.0901932255
0.0974553005 0.0974553005 0.0974553005
0.1050532786 0.1050532786 0.1050532786
0.1136002471 0.1136002471 0.1136002471
0.1228464588 0.1228464588 0.1228464588
0.1330277526 0.1330277526 0.1330277526
0.1439123071 0.1439123071 0.1439123071
0.1558412815 0.1558412815 0.1558412815
0.1815660000 0.1815660000 0.1815660000
0.0201301299 0.0201301299 0.0201301299
0.0281990606 0.0281990606 0.0281990606
0.0330082430 0.0330082430 0.0330082430
0.0372677110 0.0372677110 0.0372677110
0.0418081184 0.0418081184 0.0418081184
0.0457407239 0.0457407239 0.0457407239
0.0503880182 0.0503880182 0.0503880182
0.0549725540 0.0549725540 0.0549725540
0.0593711194 0.0593711194 0.0593711194
0.0642211547 0.0642211547 0.0642211547
0.0693400674 0.0693400674 0.0693400674
0.0744658247 0.0744658247 0.0744658247
0.0797621271 0.0797621271 0.0797621271
0.0849893907 0.0849893907 0.0849893907
0.0902027015 0.0902027015 0.0902027015
0.0954783407 0.0954783407 0.0954783407
0.1006815147 0.1006815147 0.1006815147
0.1059817178 0.1059817178 0.1059817178
0.1115231842 0.1115231842 0.1115231842
0.1172376526 0.1172376526 0.1172376526
0.1231429505 0.1231429505 0.1231429505
0.1293504983 0.1293504983 0.1293504983
0.1359452856 0.1359452856 0.1359452856
0.1431065656 0.1431065656 0.1431065656
0.1506713392 0.1506713392 0.1506713392
0.1587903339 0.1587903339 0.1587903339
0.1673987483 0.1673987483 0.1673987483
0.1764724352 0.1764724352 0.1764724352
0.1861431516 0.1861431516 0.1861431516
0.1966270160 0.1966270160 0.1966270160
0.2078767419 0.2078767419 0.2078767419
0.2204097522 0.2204097522 0.2204097522
0.2466201006 0.2466201006 0.2466201006
0.0351933528 0.0351933528 0.0351933528
0.0476832621 0.0476832621 0.0476832621
0.0552200222 0.0552200222 0.0552200222
0.0604121109 0.0604121109 0.0604121109
0.0659175201 0.0659175201 0.0659175201
0.0715723507 0.0715723507 0.0715723507
0.0773360847 0.0773360847 0.0773360847
0.0832586324 0.0832586324 0.0832586324
0.0887094304 0.0887094304 0.0887094304
0.0943476420 0.0943476420 0.0943476420
0.1000630137 0.1000630137 0.1000630137
0.1056674218 0.1056674218 0.1056674218
0.1111356934 0.1111356934 0.1111356934
0.1166779440 0.1166779440 0.1166779440
0.1221095762 0.1221095762 0.1221095762
0.1274548792 0.1274548792 0.1274548792
0.1328764587 0.1328764587 0.1328764587
0.1382835122 0.1382835122 0.1382835122
0.1436513376 0.1436513376 0.1436513376
0.1494070350 0.1494070350 0.1494070350
0.1553711878 0.1553711878 0.1553711878
0.1617280899 0.1617280899 0.1617280899
0.1685608564 0.1685608564 0.1685608564
0.1759064352 0.1759064352 0.1759064352
0.1839371008 0.1839371008 0.1839371008
0.1921890922 0.1921890922 0.1921890922
0.2009392306 0.2009392306 0.2009392306
0.2100246834 0.2100246834 0.2100246834
0.2196967069 0.2196967069 0.2196967069
0.2303502351 0.2303502351 0.2303502351
0.2419195166 0.2419195166 0.2419195166
0.2545680109 0.2545680109 0.2545680109
0.2812058880 0.2812058880 0.2812058880
0.0514390855 0.0514390855 0.0514390855
0.0664876109 0.0664876109 0.0664876109
0.0754385857 0.0754385857 0.0754385857
0.0823034560 0.0823034560 0.0823034560
0.0883611287 0.0883611287 0.0883611287
0.0943771905 0.0943771905 0.0943771905
0.1005730780 0.1005730780 0.1005730780
0.1069566753 0.1069566753 0.1069566753
0.1132851257 0.1132851257 0.1132851257
0.1194194218 0.1194194218 0.1194194218
0.1255191509 0.1255191509 0.1255191509
0.1314786982 0.1314786982 0.1314786982
0.1371408858 0.1371408858 0.1371408858
0.1427387015 0.1427387015 0.1427387015
0.1482714592 0.1482714592 0.1482714592
0.1536841779 0.1536841779 0.1536841779
0.1591201654 0.1591201654 0.1591201654
0.1644969917 0.1644969917 0.1644969917
0.1699585385 0.1699585385 0.1699585385
0.1754624285 0.1754624285 0.1754624285
0.1812997827 0.1812997827 0.1812997827
0.1877020192 0.1877020192 0.1877020192
0.1947730089 0.1947730089 0.1947730089
0.2022463457 0.2022463457 0.2022463457
0.2101541962 0.2101541962 0.2101541962
0.2184898741 0.2184898741 0.2184898741
0.2271413678 0.2271413678 0.2271413678
0.2362653458 0.2362653458 0.2362653458
0.2460949585 0.2460949585 0.2460949585
0.2567226970 0.2567226970 0.2567226970
0.2684013772 0.2684013772 0.2684013772
0.2810030471 0.2810030471 0.2810030471
0.3080068338 0.3080068338 0.3080068338
0.0697325958 0.0697325958 0.0697325958
0.0870640434 0.0870640434 0.0870640434
0.0964816099 0.0964816099 0.0964816099
0.1037549803 0.1037549803 0.1037549803
0.1104774132 0.1104774132 0.1104774132
0.1167416983 0.1167416983 0.1167416983
0.1231897608 0.1231897608 0.1231897608
0.1297403205 0.1297403205 0.1297403205
0.1364987752 0.1364987752 0.1364987752
0.1429900713 0.1429900713 0.1429900713
0.1494542732 0.1494542732 0.1494542732
0.1558361171 0.1558361171 0.1558361171
0.1620127574 0.1620127574 0.1620127574
0.1678727247 0.1678727247 0.1678727247
0.1736911065 0.1736911065 0.1736911065
0.1793571642 0.1793571642 0.1793571642
0.1848399160 0.1848399160 0.1848399160
0.1901951346 0.1901951346 0.1901951346
0.1955641626 0.1955641626 0.1955641626
0.2011003877 0.2011003877 0.2011003877
0.2067753490 0.2067753490 0.2067753490
0.2130320251 0.2130320251 0.2130320251
0.2200005441 0.2200005441 0.2200005441
0.2274880374 0.2274880374 0.2274880374
0.2352807455 0.2352807455 0.2352807455
0.2434316433 0.2434316433 0.2434316433
0.2519634536 0.2519634536 0.2519634536
0.2610841760 0.2610841760 0.2610841760
0.2709824287 0.2709824287 0.2709824287
0.2814196736 0.2814196736 0.2814196736
0.2928595067 0.2928595067 0.2928595067
0.3056800410 0.3056800410 0.3056800410
0.3327268547 0.3327268547 0.3327268547
0.0895865020 0.0895865020 0.0895865020
0.1084543051 0.1084543051 0.1084543051
0.1182114654 0.1182114654 0.1182114654
0.1257176338 0.1257176338 0.1257176338
0.1324926685 0.1324926685 0.1324926685
0.1390481417 0.1390481417 0.1390481417
0.1456120735 0.1456120735 0.1456120735
0.1521165719 0.1521165719 0.1521165719
0.1587331004 0.1587331004 0.1587331004
0.1656693346 0.1656693346 0.1656693346
0.1724543761 0.1724543761 0.1724543761
0.1792229411 0.1792229411 0.1792229411
0.1859567527 0.1859567527 0.1859567527
0.1926363970 0.1926363970 0.1926363970
0.1989777783 0.1989777783 0.1989777783
0.2050930594 0.2050930594 0.2050930594
0.2109629341 0.2109629341 0.2109629341
0.2165091247 0.2165091247 0.2165091247
0.2219598070 0.2219598070 0.2219598070
0.2274703581 0.2274703581 0.2274703581
0.2332719020 0.2332719020 0.2332719020
0.2393980571 0.2393980571 0.2393980571
0.2459119693 0.2459119693 0.2459119693
0.2529928250 0.2529928250 0.2529928250
0.2604780757 0.2604780757 0.2604780757
0.2684703048 0.2684703048 0.2684703048
0.2769140507 0.2769140507 0.2769140507
0.2860081708 0.2860081708 0.2860081708
0.2956188912 0.2956188912 0.2956188912
0.3059600621 0.3059600621 0.3059600621
0.3172044570 0.3172044570 0.3172044570
0.3301960382 0.3301960382 0.3301960382
0.3570879962 0.3570879962 0.3570879962
0.1110040355 0.1110040355 0.1110040355
0.1303541379 0.1303541379 0.1303541379
0.1403148951 0.1403148951 0.1403148951
0.1479313517 0.1479313517 0.1479313517
0.1547783434 0.1547783434 0.1547783434
0.1613949967 0.1613949967 0.1613949967
0.1678429349 0.1678429349 0.1678429349
0.1743381351 0.1743381351 0.1743381351
0.1808400257 0.1808400257 0.1808400257
0.1875569236 0.1875569236 0.1875569236
0.1948044268 0.1948044268 0.1948044268
0.2020161957 0.2020161957 0.2020161957
0.2091852385 0.2091852385 0.2091852385
0.2161981914 0.2161981914 0.2161981914
0.2231250242 0.2231250242 0.2231250242
0.2297724511 0.2297724511 0.2297724511
0.2362316830 0.2362316830 0.2362316830
0.2426624709 0.2426624709 0.2426624709
0.2486810864 0.2486810864 0.2486810864
0.2546065423 0.2546065423 0.2546065423
0.2606255522 0.2606255522 0.2606255522
0.2666159320 0.2666159320 0.2666159320
0.2728987781 0.2728987781 0.2728987781
0.2797955235 0.2797955235 0.2797955235
0.2870043023 0.2870043023 0.2870043023
0.2946748440 0.2946748440 0.2946748440
0.3028364096 0.3028364096 0.3028364096
0.3114515606 0.3114515606 0.3114515606
0.3209355831 0.3209355831 0.3209355831
0.3310103569 0.3310103569 0.3310103569
0.3421447270 0.3421447270 0.3421447270
0.3546774100 0.3546774100 0.3546774100
0.3814655957 0.3814655957 0.3814655957
0.1327194753 0.1327194753 0.1327194753
0.1524352701 0.1524352701 0.1524352701
0.1626748862 0.1626748862 0.1626748862
0.1703391259 0.1703391259 0.1703391259
0.1771869342 0.1771869342 0.1771869342
0.1837612187 0.1837612187 0.1837612187
0.1900692241 0.1900692241 0.1900692241
0.1964551845 0.1964551845 0.1964551845
0.2029323955 0.2029323955 0.2029323955
0.2095379046 0.2095379046 0.2095379046
0.2164667253 0.2164667253 0.2164667253
0.2238596254 0.2238596254 0.2238596254
0.2314264683 0.2314264683 0.2314264683
0.2389484811 0.2389484811 0.2389484811
0.2464213444 0.2464213444 0.2464213444
0.2535694037 0.2535694037 0.2535694037
0.2605344400 0.2605344400 0.2605344400
0.2675386926 0.2675386926 0.2675386926
0.2743959819 0.2743959819 0.2743959819
0.2808801007 0.2808801007 0.2808801007
0.2872499063 0.2872499063 0.2872499063
0.2935742578 0.2935742578 0.2935742578
0.3000930287 0.3000930287 0.3000930287
0.3068727169 0.3068727169 0.3068727169
0.3140735379 0.3140735379 0.3140735379
0.3214674167 0.3214674167 0.3214674167
0.3293775452 0.3293775452 0.3293775452
0.3377725808 0.3377725808 0.3377725808
0.3467789238 0.3467789238 0.3467789238
0.3565632405 0.3565632405 0.3565632405
0.3674274474 0.3674274474 0.3674274474
0.3796489311 0.3796489311 0.3796489311
0.4062458410 0.4062458410 0.4062458410
0.1546597836 0.1546597836 0.1546597836
0.1747227027 0.1747227027 0.1747227027
0.1850765467 0.1850765467 0.1850765467
0.1929507454 0.1929507454 0.1929507454
0.1998083187 0.1998083187 0.1998083187
0.2062682320 0.2062682320 0.2062682320
0.2124275320 0.2124275320 0.2124275320
0.2186416026 0.2186416026 0.2186416026
0.2250046472 0.2250046472 0.2250046472
0.2315823922 0.2315823922 0.2315823922
0.2382706357 0.2382706357 0.2382706357
0.2452923630 0.2452923630 0.2452923630
0.2528389294 0.2528389294 0.2528389294
0.2607765909 0.2607765909 0.2607765909
0.2687690454 0.2687690454 0.2687690454
0.2766517781 0.2766517781 0.2766517781
0.2840620919 0.2840620919 0.2840620919
0.2915087023 0.2915087023 0.2915087023
0.2988670420 0.2988670420 0.2988670420
0.3061583239 0.3061583239 0.3061583239
0.3130069302 0.3130069302 0.3130069302
0.3198171902 0.3198171902 0.3198171902
0.3267666101 0.3267666101 0.3267666101
0.3338659663 0.3338659663 0.3338659663
0.3411071702 0.3411071702 0.3411071702
0.3485759762 0.3485759762 0.3485759762
0.3563154376 0.3563154376 0.3563154376
0.3644982229 0.3644982229 0.3644982229
0.3731908028 0.3731908028 0.3731908028
0.3826432926 0.3826432926 0.3826432926
0.3932651376 0.3932651376 0.3932651376
0.4050231340 0.4050231340 0.4050231340
0.4314135473 0.4314135473 0.4314135473
0.1768952019 0.1768952019 0.1768952019
0.1972382152 0.1972382152 0.1972382152
0.2078485999 0.2078485999 0.2078485999
0.2156378316 0.2156378316 0.2156378316
0.2226012442 0.2226012442 0.2226012442
0.2290869110 0.2290869110 0.2290869110
0.2351011815 0.2351011815 0.2351011815
0.2411481101 0.2411481101 0.2411481101
0.2473222527 0.2473222527 0.2473222527
0.2537133296 0.2537133296 0.2537133296
0.2601438916 0.2601438916 0.2601438916
0.2668751467 0.2668751467 0.2668751467
0.2739913194 0.2739913194 0.2739913194
0.2818852801 0.2818852801 0.2818852801
0.2902162762 0.2902162762 0.2902162762
0.2986035262 0.2986035262 0.2986035262
0.3069652264 0.3069652264 0.3069652264
0.3147735377 0.3147735377 0.3147735377
0.3224815831 0.3224815831 0.3224815831
0.3301337637 0.3301337637 0.3301337637
0.3377734014 0.3377734014 0.3377734014
0.3452083427 0.3452083427 0.3452083427
0.3526574308 0.3526574308 0.3526574308
0.3602429854 0.3602429854 0.3602429854
0.3678056022 0.3678056022 0.3678056022
0.3754701577 0.3754701577 0.3754701577
0.3833592929 0.3833592929 0.3833592929
0.3914642171 0.3914642171 0.3914642171
0.4000914597 0.4000914597 0.4000914597
0.4094313799 0.4094313799 0.4094313799
0.4196609917 0.4196609917 0.4196609917
0.4308263372 0.4308263372 0.4308263372
0.4569541633 0.4569541633 0.4569541633
0.1991835649 0.1991835649 0.1991835649
0.2198473884 0.2198473884 0.2198473884
0.2304521221 0.2304521221 0.2304521221
0.2383446156 0.2383446156 0.2383446156
0.2453948726 0.2453948726 0.2453948726
0.2518723041 0.2518723041 0.2518723041
0.2581279106 0.2581279106 0.2581279106
0.2639923942 0.2639923942 0.2639923942
0.2699525866 0.2699525866 0.2699525866
0.2760756946 0.2760756946 0.2760756946
0.2822585740 0.2822585740 0.2822585740
0.2887043875 0.2887043875 0.2887043875
0.2954829964 0.2954829964 0.2954829964
0.3027405372 0.3027405372 0.3027405372
0.3109336365 0.3109336365 0.3109336365
0.3195390203 0.3195390203 0.3195390203
0.3282569050 0.3282569050 0.3282569050
0.3368935473 0.3368935473 0.3368935473
0.3449655467 0.3449655467 0.3449655467
0.3529750112 0.3529750112 0.3529750112
0.3610122221 0.3610122221 0.3610122221
0.3691298962 0.3691298962 0.3691298962
0.3772322424 0.3772322424 0.3772322424
0.3852652658 0.3852652658 0.3852652658
0.3934121940 0.3934121940 0.3934121940
0.4014011242 0.4014011242 0.4014011242
0.4095578638 0.4095578638 0.4095578638
0.4179732154 0.4179732154 0.4179732154
0.4267069366 0.4267069366 0.4267069366
0.4360922702 0.4360922702 0.4360922702
0.4460316149 0.4460316149 0.4460316149
0.4569541742 0.4569541742 0.4569541742
0.4828557138 0.4828557138 0.4828557138
0.2217871433 0.2217871433 0.2217871433
0.2426391540 0.2426391540 0.2426391540
0.2532099909 0.2532099909 0.2532099909
0.2610650975 0.2610650975 0.2610650975
0.2682524401 0.2682524401 0.2682524401
0.2747884999 0.2747884999 0.2747884999
0.2809871416 0.2809871416 0.2809871416
0.2869361668 0.2869361668 0.2869361668
0.2926917902 0.2926917902 0.2926917902
0.2985803058 0.2985803058 0.2985803058
0.3046324868 0.3046324868 0.3046324868
0.3108199614 0.3108199614 0.3108199614
0.3173226601 0.3173226601 0.3173226601
0.3242630424 0.3242630424 0.3242630424
0.3316638957 0.3316638957 0.3316638957
0.3399889562 0.3399889562 0.3399889562
0.3488262115 0.3488262115 0.3488262115
0.3578226730 0.3578226730 0.3578226730
0.3667474521 0.3667474521 0.3667474521
0.3752587874 0.3752587874 0.3752587874
0.3837672628 0.3837672628 0.3837672628
0.3923110520 0.3923110520 0.3923110520
0.4007902233 0.4007902233 0.4007902233
0.4093333813 0.4093333813 0.4093333813
0.4179101266 0.4179101266 0.4179101266
0.4264907955 0.4264907955 0.4264907955
0.4350668917 0.4350668917 0.4350668917
0.4438048598 0.4438048598 0.4438048598
0.4528330551 0.4528330551 0.4528330551
0.4623438286 0.4623438286 0.4623438286
0.4723530861 0.4723530861 0.4723530861
0.4832492091 0.4832492091 0.4832492091
0.5088248753 0.5088248753 0.5088248753
0.2446708612 0.2446708612 0.2446708612
0.2654475163 0.2654475163 0.2654475163
0.2761665617 0.2761665617 0.2761665617
0.2841086297 0.2841086297 0.2841086297
0.2911217038 0.2911217038 0.2911217038
0.2978358494 0.2978358494 0.2978358494
0.3039816092 0.3039816092 0.3039816092
0.3098379322 0.3098379322 0.3098379322
0.3155559218 0.3155559218 0.3155559218
0.3212148753 0.3212148753 0.3212148753
0.3271522573 0.3271522573 0.3271522573
0.3332308164 0.3332308164 0.3332308164
0.3394491660 0.3394491660 0.3394491660
0.3461601009 0.3461601009 0.3461601009
0.3531589865 0.3531589865 0.3531589865
0.3606184423 0.3606184423 0.3606184423
0.3689790639 0.3689790639 0.3689790639
0.3780985473 0.3780985473 0.3780985473
0.3874050846 0.3874050846 0.3874050846
0.3967362518 0.3967362518 0.3967362518
0.4060289290 0.4060289290 0.4060289290
0.4149810708 0.4149810708 0.4149810708
0.4237884237 0.4237884237 0.4237884237
0.4326681851 0.4326681851 0.4326681851
0.4416476921 0.4416476921 0.4416476921
0.4506796022 0.4506796022 0.4506796022
0.4597993981 0.4597993981 0.4597993981
0.4690253978 0.4690253978 0.4690253978
0.4784011081 0.4784011081 0.4784011081
0.4880933799 0.4880933799 0.4880933799
0.4983315600 0.4983315600 0.4983315600
0.5095398181 0.5095398181 0.5095398181
0.5347559566 0.5347559566 0.5347559566
0.2675287468 0.2675287468 0.2675287468
0.2884960868 0.2884960868 0.2884960868
0.2993870244 0.2993870244 0.2993870244
0.3074792351 0.3074792351 0.3074792351
0.3145407811 0.3145407811 0.3145407811
0.3210995108 0.3210995108 0.3210995108
0.3272399110 0.3272399110 0.3272399110
0.3329747510 0.3329747510 0.3329747510
0.3385732648 0.3385732648 0.3385732648
0.3441880660 0.3441880660 0.3441880660
0.3500075091 0.3500075091 0.3500075091
0.3559764223 0.3559764223 0.3559764223
0.3620757277 0.3620757277 0.3620757277
0.3683476557 0.3683476557 0.3683476557
0.3749751518 0.3749751518 0.3749751518
0.3819749169 0.3819749169 0.3819749169
0.3895125148 0.3895125148 0.3895125148
0.3980459025 0.3980459025 0.3980459025
0.4074767537 0.4074767537 0.4074767537
0.4171711345 0.4171711345 0.4171711345
0.4270344617 0.4270344617 0.4270344617
0.4367512078 0.4367512078 0.4367512078
0.4460349716 0.4460349716 0.4460349716
0.4553338314 0.4553338314 0.4553338314
0.4647131005 0.4647131005 0.4647131005
0.4742327710 0.4742327710 0.4742327710
0.4837476828 0.4837476828 0.4837476828
0.4933057059 0.4933057059 0.4933057059
0.5030300309 0.5030300309 0.5030300309
0.5130085522 0.5130085522 0.5130085522
0.5238329136 0.5238329136 0.5238329136
0.5352284326 0.5352284326 0.5352284326
0.5602136041 0.5602136041 0.5602136041
0.2904159724 0.2904159724 0.2904159724
0.3116797159 0.3116797159 0.3116797159
0.3226234065 0.3226234065 0.3226234065
0.3307819517 0.3307819517 0.3307819517
0.3379258274 0.3379258274 0.3379258274
0.3445521802 0.3445521802 0.3445521802
0.3507107348 0.3507107348 0.3507107348
0.3564755405 0.3564755405 0.3564755405
0.3619594604 0.3619594604 0.3619594604
0.3674787314 0.3674787314 0.3674787314
0.3729325038 0.3729325038 0.3729325038
0.3787591945 0.3787591945 0.3787591945
0.3847389519 0.3847389519 0.3847389519
0.3908863064 0.3908863064 0.3908863064
0.3972047484 0.3972047484 0.3972047484
0.4038135636 0.4038135636 0.4038135636
0.4108616623 0.4108616623 0.4108616623
0.4186851929 0.4186851929 0.4186851929
0.4273755474 0.4273755474 0.4273755474
0.4370689943 0.4370689943 0.4370689943
0.4470611627 0.4470611627 0.4470611627
0.4573516051 0.4573516051 0.4573516051
0.4674787951 0.4674787951 0.4674787951
0.4775248026 0.4775248026 0.4775248026
0.4872761643 0.4872761643 0.4872761643
0.4970085727 0.4970085727 0.4970085727
0.5069702728 0.5069702728 0.5069702728
0.5169026446 0.5169026446 0.5169026446
0.5269989173 0.5269989173 0.5269989173
0.5374884351 0.5374884351 0.5374884351
0.5483456948 0.5483456948 0.5483456948
0.5598888145 0.5598888145 0.5598888145
0.5848549145 0.5848549145 0.5848549145
0.3135058808 0.3135058808 0.3135058808
0.3350002777 0.3350002777 0.3350002777
0.3460816213 0.3460816213 0.3460816213
0.3542323508 0.3542323508 0.3542323508
0.3613667627 0.3613667627 0.3613667627
0.3681130622 0.3681130622 0.3681130622
0.3743687865 0.3743687865 0.3743687865
0.3802297199 0.3802297199 0.3802297199
0.3856705946 0.3856705946 0.3856705946
0.3910637633 0.3910637633 0.3910637633
0.3962901319 0.3962901319 0.3962901319
0.4017152292 0.4017152292 0.4017152292
0.4075288073 0.4075288073 0.4075288073
0.4135344814 0.4135344814 0.4135344814
0.4198002847 0.4198002847 0.4198002847
0.4261567029 0.4261567029 0.4261567029
0.4327932271 0.4327932271 0.4327932271
0.4400720660 0.4400720660 0.4400720660
0.4480368612 0.4480368612 0.4480368612
0.4569029184 0.4569029184 0.4569029184
0.4667839649 0.4667839649 0.4667839649
0.4772891223 0.4772891223 0.4772891223
0.4880912534 0.4880912534 0.4880912534
0.4988525259 0.4988525259 0.4988525259
0.5092430472 0.5092430472 0.5092430472
0.5193423679 0.5193423679 0.5193423679
0.5294909902 0.5294909902 0.5294909902
0.5397906912 0.5397906912 0.5397906912
0.5503053561 0.5503053561 0.5503053561
0.5612154664 0.5612154664 0.5612154664
0.5722125767 0.5722125767 0.5722125767
0.5837120148 0.5837120148 0.5837120148
0.6086304629 0.6086304629 0.6086304629
0.3369931402 0.3369931402 0.3369931402
0.3588501294 0.3588501294 0.3588501294
0.3698112679 0.3698112679 0.3698112679
0.3779479988 0.3779479988 0.3779479988
0.3851629461 0.3851629461 0.3851629461
0.3918336514 0.3918336514 0.3918336514
0.3982299441 0.3982299441 0.3982299441
0.4042401437 0.4042401437 0.4042401437
0.4098478904 0.4098478904 0.4098478904
0.4149746552 0.4149746552 0.4149746552
0.4199898198 0.4199898198 0.4199898198
0.4251748484 0.4251748484 0.4251748484
0.4305876795 0.4305876795 0.4305876795
0.4363656691 0.4363656691 0.4363656691
0.4425747970 0.4425747970 0.4425747970
0.4489403735 0.4489403735 0.4489403735
0.4553385586 0.4553385586 0.4553385586
0.4620527968 0.4620527968 0.4620527968
0.4694017840 0.4694017840 0.4694017840
0.4775256119 0.4775256119 0.4775256119
0.4866196102 0.4866196102 0.4866196102
0.4968728665 0.4968728665 0.4968728665
0.5081322008 0.5081322008 0.5081322008
0.5195499522 0.5195499522 0.5195499522
0.5305061926 0.5305061926 0.5305061926
0.5410971142 0.5410971142 0.5410971142
0.5515802024 0.5515802024 0.5515802024
0.5620291134 0.5620291134 0.5620291134
0.5727822768 0.5727822768 0.5727822768
0.5837017551 0.5837017551 0.5837017551
0.5948787832 0.5948787832 0.5948787832
0.6066519559 0.6066519559 0.6066519559
0.6312593440 0.6312593440 0.6312593440
0.3606154073 0.3606154073 0.3606154073
0.3825515676 0.3825515676 0.3825515676
0.3935797541 0.3935797541 0.3935797541
0.4017900730 0.4017900730 0.4017900730
0.4091135090 0.4091135090 0.4091135090
0.4159357957 0.4159357957 0.4159357957
0.4222851808 0.4222851808 0.4222851808
0.4282046997 0.4282046997 0.4282046997
0.4337984177 0.4337984177 0.4337984177
0.4389794157 0.4389794157 0.4389794157
0.4439007707 0.4439007707 0.4439007707
0.4488821863 0.4488821863 0.4488821863
0.4540809453 0.4540809453 0.4540809453
0.4596218392 0.4596218392 0.4596218392
0.4654236695 0.4654236695 0.4654236695
0.4716322712 0.4716322712 0.4716322712
0.4779704943 0.4779704943 0.4779704943
0.4844016275 0.4844016275 0.4844016275
0.4912604399 0.4912604399 0.4912604399
0.4988077062 0.4988077062 0.4988077062
0.5072263442 0.5072263442 0.5072263442
0.5167947997 0.5167947997 0.5167947997
0.5275523803 0.5275523803 0.5275523803
0.5392589969 0.5392589969 0.5392589969
0.5508146035 0.5508146035 0.5508146035
0.5618226197 0.5618226197 0.5618226197
0.5727780389 0.5727780389 0.5727780389
0.5834388236 0.5834388236 0.5834388236
0.5940747174 0.5940747174 0.5940747174
0.6049841718 0.6049841718 0.6049841718
0.6162555772 0.6162555772 0.6162555772
0.6283858770 0.6283858770 0.6283858770
0.6527859301 0.6527859301 0.6527859301
0.3846330280 0.3846330280 0.3846330280
0.4065943700 0.4065943700 0.4065943700
0.4176998753 0.4176998753 0.4176998753
0.4260631302 0.4260631302 0.4260631302
0.4334675975 0.4334675975 0.4334675975
0.4403720531 0.4403720531 0.4403720531
0.4468166717 0.4468166717 0.4468166717
0.4527708609 0.4527708609 0.4527708609
0.4582941160 0.4582941160 0.4582941160
0.4635033747 0.4635033747 0.4635033747
0.4684217229 0.4684217229 0.4684217229
0.4733388372 0.4733388372 0.4733388372
0.4783247173 0.4783247173 0.4783247173
0.4835992553 0.4835992553 0.4835992553
0.4890946701 0.4890946701 0.4890946701
0.4949217729 0.4949217729 0.4949217729
0.5011049580 0.5011049580 0.5011049580
