bundles/resolve-cinematic-luts/Gamut/Le Reve/Color - Le Reve III.cube
TITLE "Contrast - Le Reve III by Le Reve Films"
# Version 1.0 - 01/22/2022 - Designed for Rec.709 Color Space. Copyright 2023 Gamut, LLC
# 
LUT_3D_SIZE 5
0.0000000000 0.0063090000 0.0000000000
0.2442997286 0.0000000000 0.0000000000
0.4530532046 0.0000000000 0.0000000000
0.6869905927 0.0000000000 0.0000000000
0.9988990000 0.0007890000 0.0015770000
0.0000000000 0.2138164462 0.0015286001
0.1979959866 0.2333769248 0.0002490567
0.4906155622 0.2426293347 0.0000274477
0.7993380419 0.2469471300 0.0050661673
1.0000000000 0.3318105401 0.1055730241
0.0000000000 0.4442386071 0.0254011623
0.2356847743 0.4695617123 0.0440776564
0.4140420571 0.4766985436 0.0166630964
0.7195635036 0.5080879388 0.0022608183
1.0000000000 0.5901610992 0.1053764735
0.0191803006 0.7196633074 0.0874843155
0.3045005348 0.7379380405 0.1174094741
0.4697511441 0.7295615968 0.0927765784
0.6676902222 0.7372669251 0.0505551228
0.9994854224 0.8131512595 0.0339391943
0.2248490000 1.0000000000 0.3655410000
0.5174600208 1.0000000000 0.3581748392
0.6672342522 1.0000000000 0.3289614809
0.7985866832 1.0000000000 0.2864101418
0.9841380000 1.0000000000 0.1712430000
0.0008010655 0.0000053928 0.2554955401
0.2396940791 0.0000000000 0.2492820047
0.4590377704 0.0000000000 0.2208297105
0.6956123352 0.0000000000 0.2335961867
0.9996742259 0.0007625752 0.3389404928
0.0000000000 0.2228029796 0.2483976935
0.2500171237 0.2499699605 0.2499317618
0.4906599045 0.2515223090 0.2753448127
0.7559538489 0.2659201672 0.3130231122
1.0000000000 0.3653358224 0.4292427748
0.0000000000 0.4579900253 0.2732949270
0.2799244202 0.4962413729 0.3116388187
0.4760565900 0.4962274417 0.2911833935
0.7799435333 0.5220337496 0.3024372348
1.0000000000 0.5909999798 0.4430321438
0.0145860080 0.7334828687 0.3589591508
0.3390113762 0.7601109991 0.4038635425
0.5283537401 0.7467766496 0.3930318467
0.7058455709 0.7432721156 0.3336771327
1.0000000000 0.8204455451 0.3849697721
0.2095328180 1.0000000000 0.6491382129
0.5219409344 1.0000000000 0.6367139270
0.6897722830 1.0000000000 0.6154789803
0.8211862953 1.0000000000 0.5819669022
0.9840648580 1.0000000000 0.4648826364
0.0038551224 0.0000000000 0.4822464859
0.1820529607 0.0000000000 0.4850994948
0.4462495932 0.0000000000 0.4688227503
0.7018769457 0.0000000000 0.4500378196
0.9996137428 0.0000000000 0.5515357396
0.0000000000 0.2128439851 0.4873614865
0.2620437616 0.2420878515 0.4915737964
0.5053333715 0.2386258088 0.5174888566
0.7719249350 0.2426572513 0.5524512257
1.0000000000 0.3456374987 0.6899224503
0.0000000000 0.4562344809 0.4917798952
0.2591041933 0.4956922657 0.5115409412
0.4999860848 0.4999975361 0.4999822862
0.7479999038 0.5081070741 0.5410268450
1.0000000000 0.5989185931 0.6430825946
0.0036660627 0.7274995821 0.5388584627
0.3165468619 0.7586380598 0.5748539335
0.5430287574 0.7536669142 0.5767323722
0.7282930273 0.7462354714 0.5412793099
1.0000000000 0.8095868150 0.6513319747
0.1887417710 1.0000000000 0.7867841773
0.5058994030 1.0000000000 0.7732680661
0.6892650993 1.0000000000 0.7555698674
0.8350494195 1.0000000000 0.7359875136
0.9814798609 1.0000000000 0.6349166999
0.0083468561 0.0000000000 0.7167554617
0.1724756260 0.0000000000 0.7090373610
0.3784542485 0.0000000000 0.7173039799
0.6910678737 0.0000000000 0.7109513281
0.9997909644 0.0000000000 0.7614128303
0.0000000000 0.2048932094 0.7268830329
0.2818549023 0.2316427115 0.7344167939
0.4622274640 0.2354952343 0.7438748201
0.7720878341 0.2362498422 0.7849567624
1.0000000000 0.3134650779 0.8825466856
0.0000000000 0.4519497286 0.7428747719
0.2747658253 0.4849067686 0.7474321833
0.5092572487 0.4883152871 0.7407544084
0.7606515741 0.4951108070 0.7696448894
1.0000000000 0.5702504394 0.8665485879
0.0000000000 0.7275126173 0.7633486242
0.2728643924 0.7512633770 0.7731963570
0.5103378056 0.7483876688 0.7608939995
0.7499960402 0.7500042550 0.7500769122
1.0000000000 0.7996175440 0.8211075882
0.1589167273 1.0000000000 0.9237822089
0.4673605070 1.0000000000 0.9010566000
0.6670810991 1.0000000000 0.8819521177
0.8433749376 1.0000000000 0.8718324245
0.9812076742 1.0000000000 0.7977469135
0.0291770000 0.0000000000 1.0000000000
0.2415829411 0.0000000000 0.9881506616
0.3494974259 0.0000000000 0.9861063484
0.6076408341 0.0000000000 0.9917328985
0.9999460000 0.0000000000 1.0000000000
0.0334407592 0.2117078829 1.0000000000
0.3433218406 0.2376328589 1.0000000000
0.5362553259 0.2421675685 1.0000000000
0.7110117475 0.2570542277 1.0000000000
1.0000000000 0.3248841364 1.0000000000
0.0185765011 0.4610365626 1.0000000000
0.3385444616 0.4893295875 1.0000000000
0.5617750242 0.4872340849 1.0000000000
0.7385102261 0.4973424195 1.0000000000
1.0000000000 0.5661194825 1.0000000000
0.0053458658 0.7374726037 1.0000000000
0.3225778434 0.7529603981 1.0000000000
0.5493366070 0.7425452031 1.0000000000
0.7674697418 0.7363441002 1.0000000000
1.0000000000 0.7787827686 1.0000000000
0.1207480000 1.0000000000 1.0000000000
0.4030165103 1.0000000000 1.0000000000
0.6012685596 1.0000000000 1.0000000000
0.7909158289 1.0000000000 1.0000000000
0.9997580000 0.9997580000 0.9997580000
