bundles/resolve-cinematic-luts/Gamut/Le Reve/Color - Le Reve VI.cube
TITLE "Contrast - Le Reve VI by Le Reve Films"
# Version 1.0 - 01/22/2022 - Designed for Rec.709 Color Space. Copyright 2023 Gamut, LLC
# 
LUT_3D_SIZE 5
0.0000000000 0.0000000000 0.0000000000
0.0210008531 0.0210008531 0.0210008531
0.0461309857 0.0461309857 0.0461309857
0.0901932255 0.0901932255 0.0901932255
0.1815660000 0.1815660000 0.1815660000
0.1546597836 0.1546597836 0.1546597836
0.2250046472 0.2250046472 0.2250046472
0.2840620919 0.2840620919 0.2840620919
0.3411071702 0.3411071702 0.3411071702
0.4314135473 0.4314135473 0.4314135473
0.3369931402 0.3369931402 0.3369931402
0.4098478904 0.4098478904 0.4098478904
0.4553385586 0.4553385586 0.4553385586
0.5305061926 0.5305061926 0.5305061926
0.6312593440 0.6312593440 0.6312593440
0.5486787265 0.5486787265 0.5486787265
0.6190500607 0.6190500607 0.6190500607
0.6545805936 0.6545805936 0.6545805936
0.6995787511 0.6995787511 0.6995787511
0.7947468507 0.7947468507 0.7947468507
0.8387990000 0.8387990000 0.8387990000
0.8864970184 0.8864970184 0.8864970184
0.9127566021 0.9127566021 0.9127566021
0.9362502012 0.9362502012 0.9362502012
0.9840010000 0.9840010000 0.9840010000
0.0057911299 0.0057911299 0.0057911299
0.0315234065 0.0315234065 0.0315234065
0.0644386992 0.0644386992 0.0644386992
0.1129708721 0.1129708721 0.1129708721
0.2057346330 0.2057346330 0.2057346330
0.1751870886 0.1751870886 0.1751870886
0.2500000000 0.2500000000 0.2500000000
0.2981135073 0.2981135073 0.2981135073
0.3456466664 0.3456466664 0.3456466664
0.4453783240 0.4453783240 0.4453783240
0.3523789234 0.3523789234 0.3523789234
0.4340000442 0.4340000442 0.4340000442
0.4817108297 0.4817108297 0.4817108297
0.5550028415 0.5550028415 0.5550028415
0.6284903003 0.6284903003 0.6284903003
0.5672996525 0.5672996525 0.5672996525
0.6437668560 0.6437668560 0.6437668560
0.6826343601 0.6826343601 0.6826343601
0.7193356072 0.7193356072 0.7193356072
0.8157340886 0.8157340886 0.8157340886
0.8533028721 0.8533028721 0.8533028721
0.9025169896 0.9025169896 0.9025169896
0.9309801371 0.9309801371 0.9309801371
0.9502188128 0.9502188128 0.9502188128
0.9926150182 0.9926150182 0.9926150182
0.0114317620 0.0114317620 0.0114317620
0.0409927907 0.0409927907 0.0409927907
0.0792137049 0.0792137049 0.0792137049
0.1321736228 0.1321736228 0.1321736228
0.2257472717 0.2257472717 0.2257472717
0.1896463349 0.1896463349 0.1896463349
0.2643271526 0.2643271526 0.2643271526
0.3199523938 0.3199523938 0.3199523938
0.3728232411 0.3728232411 0.3728232411
0.4652146609 0.4652146609 0.4652146609
0.3626878580 0.3626878580 0.3626878580
0.4423357155 0.4423357155 0.4423357155
0.5000000000 0.5000000000 0.5000000000
0.5478960591 0.5478960591 0.5478960591
0.6257825944 0.6257825944 0.6257825944
0.5708251337 0.5708251337 0.5708251337
0.6472926844 0.6472926844 0.6472926844
0.6959529864 0.6959529864 0.6959529864
0.7337477380 0.7337477380 0.7337477380
0.8225024388 0.8225024388 0.8225024388
0.8576990816 0.8576990816 0.8576990816
0.9100116710 0.9100116710 0.9100116710
0.9387836026 0.9387836026 0.9387836026
0.9583982756 0.9583982756 0.9583982756
0.9969133683 0.9969133683 0.9969133683
0.0172913740 0.0172913740 0.0172913740
0.0533709228 0.0533709228 0.0533709228
0.0934615996 0.0934615996 0.0934615996
0.1526177817 0.1526177817 0.1526177817
0.2511918846 0.2511918846 0.2511918846
0.2081002730 0.2081002730 0.2081002730
0.2797525869 0.2797525869 0.2797525869
0.3264736803 0.3264736803 0.3264736803
0.4028238765 0.4028238765 0.4028238765
0.4984184413 0.4984184413 0.4984184413
0.3812426504 0.3812426504 0.3812426504
0.4563804217 0.4563804217 0.4563804217
0.5133377499 0.5133377499 0.5133377499
0.5795154035 0.5795154035 0.5795154035
0.6516765227 0.6516765227 0.6516765227
0.5824289362 0.5824289362 0.5824289362
0.6489954870 0.6489954870 0.6489954870
0.6978587953 0.6978587953 0.6978587953
0.7500000000 0.7500000000 0.7500000000
0.7992289394 0.7992289394 0.7992289394
0.8586190772 0.8586190772 0.8586190772
0.9084953817 0.9084953817 0.9084953817
0.9410720505 0.9410720505 0.9410720505
0.9662902999 0.9662902999 0.9662902999
0.9998702098 0.9998702098 0.9998702098
0.0307540000 0.0307540000 0.0307540000
0.0787313464 0.0787313464 0.0787313464
0.1226069016 0.1226069016 0.1226069016
0.1774223405 0.1774223405 0.1774223405
0.2893040000 0.2893040000 0.2893040000
0.2416382243 0.2416382243 0.2416382243
0.3135665948 0.3135665948 0.3135665948
0.3618915844 0.3618915844 0.3618915844
0.4155391790 0.4155391790 0.4155391790
0.5437621284 0.5437621284 0.5437621284
0.4159962610 0.4159962610 0.4159962610
0.4896049318 0.4896049318 0.4896049318
0.5391130963 0.5391130963 0.5391130963
0.5849634288 0.5849634288 0.5849634288
0.7016583273 0.7016583273 0.7016583273
0.6116841634 0.6116841634 0.6116841634
0.6751679393 0.6751679393 0.6751679393
0.7159638705 0.7159638705 0.7159638705
0.7614375315 0.7614375315 0.7614375315
0.8473882096 0.8473882096 0.8473882096
0.8715260000 0.8715260000 0.8715260000
0.9147281072 0.9147281072 0.9147281072
0.9495039237 0.9495039237 0.9495039237
0.9815598672 0.9815598672 0.9815598672
1.0000000000 1.0000000000 1.0000000000
