bundles/resolve-cinematic-luts/Gamut/Le Reve/Color - Le Reve III.cube
TITLE "Contrast - Le Reve III by Le Reve Films"
# Version 1.0 - 01/22/2022 - Designed for Rec.709 Color Space. Copyright 2023 Gamut, LLC
# 
LUT_3D_SIZE 33
0.0000000000 0.0063090000 0.0000000000
0.0288489961 0.0086669564 0.0000000000
0.0673918841 0.0079046689 0.0000000000
0.1007053604 0.0060261511 0.0000000000
0.1305187477 0.0037243782 0.0000000000
0.1601801555 0.0009186219 0.0000000000
0.1898292078 0.0000875034 0.0000000000
0.2177567367 0.0000008448 0.0000000000
0.2442997286 0.0000000000 0.0000000000
0.2711199037 0.0000000000 0.0000000000
0.2974759392 0.0000000000 0.0000000000
0.3236046377 0.0000000000 0.0000000000
0.3495945663 0.0000000000 0.0000000000
0.3759122327 0.0000000000 0.0000000000
0.4013476093 0.0000000000 0.0000000000
0.4271481861 0.0000000000 0.0000000000
0.4530532046 0.0000000000 0.0000000000
0.4796365076 0.0000000000 0.0000000000
0.5067243602 0.0000000000 0.0000000000
0.5352116694 0.0000000000 0.0000000000
0.5644136965 0.0000000000 0.0000000000
0.5939989138 0.0000000000 0.0000000000
0.6243235985 0.0000000000 0.0000000000
0.6555433947 0.0000000000 0.0000000000
0.6869905927 0.0000000000 0.0000000000
0.7189040838 0.0000000000 0.0000000000
0.7517012021 0.0000000000 0.0000000000
0.7863062894 0.0000000000 0.0000000000
0.8229373468 0.0000000000 0.0000000000
0.8613789331 0.0000000000 0.0000000000
0.9004519518 0.0000000000 0.0000015538
0.9404147816 0.0000009958 0.0004756730
0.9988990000 0.0007890000 0.0015770000
0.0000000000 0.0322016979 0.0007609691
0.0271456535 0.0315228021 0.0000169868
0.0657561852 0.0282153194 0.0000000335
0.1039376400 0.0240182443 0.0000000000
0.1362349321 0.0206576105 0.0000000000
0.1673008078 0.0169072933 0.0000000000
0.1975409925 0.0129519520 0.0000000000
0.2262872613 0.0093289272 0.0000000000
0.2522807342 0.0058663999 0.0000000000
0.2790888470 0.0036680411 0.0000000000
0.3050418447 0.0026655838 0.0000000000
0.3313569116 0.0016653377 0.0000000000
0.3576187146 0.0007986980 0.0000000000
0.3840177060 0.0007772104 0.0000000000
0.4106753581 0.0006838859 0.0000000000
0.4376688959 0.0006744126 0.0000000000
0.4642491239 0.0006698812 0.0000000000
0.4917164835 0.0006565285 0.0000000000
0.5197888399 0.0006433840 0.0000000000
0.5488658504 0.0006340029 0.0000000000
0.5785682823 0.0006267992 0.0000000000
0.6088048470 0.0006219012 0.0000000000
0.6399885078 0.0006193432 0.0000000000
0.6716136506 0.0006207724 0.0000000000
0.7035686622 0.0007246619 0.0000002536
0.7356796621 0.0009056281 0.0000026064
0.7685919219 0.0012109583 0.0000078479
0.8029076535 0.0018153283 0.0000195794
0.8392067001 0.0023225141 0.0000411526
0.8771650754 0.0035233576 0.0003458141
0.9159863436 0.0059692537 0.0009485573
0.9549523809 0.0114039037 0.0028786654
0.9996821079 0.0310328719 0.0119418260
0.0000000000 0.0640900407 0.0028720176
0.0266936736 0.0630640645 0.0017736812
0.0521795528 0.0633758886 0.0000047191
0.0848040738 0.0618273619 0.0000000000
0.1254148187 0.0585811240 0.0000000000
0.1666037388 0.0542472202 0.0000000000
0.2056768950 0.0497116013 0.0000000000
0.2412727090 0.0456172592 0.0000000000
0.2730859105 0.0420597988 0.0000000000
0.3046972200 0.0385634442 0.0000000000
0.3348794320 0.0353566093 0.0000000000
0.3637011474 0.0328191126 0.0000000000
0.3923084430 0.0302706419 0.0000000000
0.4203208063 0.0276153109 0.0000000000
0.4483216392 0.0255613515 0.0000000000
0.4764860399 0.0237144913 0.0000000000
0.5042710951 0.0222261247 0.0000000000
0.5326218065 0.0207925521 0.0000000000
0.5613045527 0.0193712429 0.0000000000
0.5902770050 0.0183606727 0.0000000000
0.6196181329 0.0175745209 0.0000000000
0.6489900975 0.0170377239 0.0000000000
0.6786443252 0.0167629545 0.0000000000
0.7088894733 0.0169204222 0.0000015176
0.7396087886 0.0177026786 0.0000068512
0.7709081534 0.0191788055 0.0001485253
0.8029108113 0.0217216903 0.0004375433
0.8361346469 0.0249825234 0.0011290279
0.8709104888 0.0297575419 0.0026525882
0.9077139067 0.0369801252 0.0061030911
0.9452370179 0.0467392505 0.0110282413
0.9787221761 0.0597582459 0.0207451993
1.0000000000 0.0951968826 0.0453376939
0.0000000000 0.0895495536 0.0013367141
0.0247437616 0.0893726639 0.0025854004
0.0514127236 0.0914165389 0.0000795130
0.0774376968 0.0925288283 0.0000000000
0.1062597864 0.0929744728 0.0000000000
0.1439074687 0.0917609698 0.0000000000
0.1872547548 0.0887755757 0.0000000000
0.2295916088 0.0845935680 0.0000000000
0.2673603580 0.0806607593 0.0000000000
0.3043725351 0.0768809998 0.0000000000
0.3386821083 0.0733184345 0.0000000000
0.3723422525 0.0702830773 0.0000000000
0.4053058457 0.0674082583 0.0000000000
0.4359668060 0.0648051941 0.0000000000
0.4670632394 0.0625031772 0.0000000000
0.4965309817 0.0604416381 0.0000000000
0.5257305980 0.0588313050 0.0000000000
0.5549329930 0.0575186347 0.0000000000
0.5838827458 0.0561735794 0.0000000000
0.6130670084 0.0553229159 0.0000000000
0.6422925536 0.0547760668 0.0000000000
0.6713833079 0.0543500053 0.0000000000
0.7006715349 0.0543609917 0.0000000000
0.7308220072 0.0548975629 0.0001235072
0.7615128487 0.0562630098 0.0004195965
0.7930172143 0.0587654669 0.0012591241
0.8248941817 0.0619704589 0.0033752840
0.8578397951 0.0665152938 0.0061200160
0.8923411588 0.0728417116 0.0107825890
0.9282977698 0.0817607349 0.0188666154
0.9636214707 0.0935284116 0.0287696463
0.9887879038 0.1077813329 0.0413640019
1.0000000000 0.1446708239 0.0688114896
0.0000000000 0.1142415865 0.0010056283
0.0237375421 0.1150810223 0.0039697128
0.0526208881 0.1167802762 0.0038732884
0.0782531243 0.1197219545 0.0000687578
0.1030999859 0.1214904113 0.0000004534
0.1311146714 0.1222443544 0.0000000000
0.1660564867 0.1220089477 0.0000000000
0.2069375268 0.1203100662 0.0000000000
0.2486012279 0.1165590831 0.0000000000
0.2891698989 0.1132219743 0.0000000000
0.3269975051 0.1097091353 0.0000000000
0.3638906118 0.1066559127 0.0000000000
0.4002562018 0.1041128834 0.0000000000
0.4345785673 0.1012576527 0.0000000000
0.4687790299 0.0991225392 0.0000000000
0.5017834626 0.0969027622 0.0000000000
0.5334674809 0.0951890953 0.0000000000
0.5653860267 0.0937794641 0.0000000000
0.5953327020 0.0926543047 0.0000000000
0.6262671036 0.0921607592 0.0000000000
0.6568727992 0.0919078648 0.0000000000
0.6864488758 0.0919602762 0.0000187644
0.7164279058 0.0926661613 0.0001144713
0.7469850752 0.0938362810 0.0005809170
0.7778500891 0.0957231443 0.0017889374
0.8091131344 0.0984489741 0.0039949201
0.8408892016 0.1022808325 0.0075191743
0.8735913412 0.1074405398 0.0130302870
0.9077822221 0.1143456855 0.0203295239
0.9427724084 0.1237596943 0.0301650765
0.9752062726 0.1356868748 0.0421344514
0.9940913248 0.1499471947 0.0563190277
1.0000000000 0.1867244848 0.0850632701
0.0000000000 0.1399867580 0.0014560513
0.0232495594 0.1421083163 0.0061111795
0.0536865415 0.1437751468 0.0069060531
0.0795645061 0.1464187858 0.0031328843
0.1041073523 0.1493284995 0.0002293163
0.1284365392 0.1504969738 0.0000079996
0.1555490892 0.1512592671 0.0000000000
0.1862785120 0.1517231726 0.0000000000
0.2252206341 0.1503726442 0.0000000000
0.2656618635 0.1485118203 0.0000000000
0.3072518107 0.1460463733 0.0000000000
0.3467319636 0.1433381099 0.0000000000
0.3858671270 0.1411188765 0.0000000000
0.4235155271 0.1390563740 0.0000000000
0.4603037326 0.1373836887 0.0000000000
0.4965824081 0.1356902030 0.0000000000
0.5308489119 0.1340404850 0.0000000000
0.5654191743 0.1327500307 0.0000000000
0.5986178875 0.1315963850 0.0000000000
0.6318607962 0.1313436651 0.0000000000
0.6647097374 0.1313644988 0.0000000000
0.6962593237 0.1316999912 0.0000523238
0.7276647087 0.1328321868 0.0003979254
0.7592545959 0.1343684795 0.0014119814
0.7907240975 0.1365382109 0.0036001499
0.8222366184 0.1394539166 0.0073459096
0.8539326180 0.1433438528 0.0126146858
0.8864837845 0.1486534118 0.0193758375
0.9202841641 0.1556287980 0.0280828440
0.9541435206 0.1649599259 0.0386786936
0.9831748326 0.1766389035 0.0515557613
0.9969394555 0.1907092476 0.0664344587
1.0000000000 0.2269016439 0.0957647773
0.0000000000 0.1659077443 0.0015683767
0.0217134788 0.1689739401 0.0069083368
0.0530041688 0.1705531949 0.0084999021
0.0797514114 0.1725986901 0.0074877694
0.1037574099 0.1760999187 0.0016726689
0.1280577050 0.1776460419 0.0001928590
0.1517417659 0.1783599914 0.0000034275
0.1772691614 0.1792229255 0.0000000000
0.2044555438 0.1803947716 0.0000000000
0.2421381150 0.1804851848 0.0000000000
0.2809328329 0.1801628767 0.0000000000
0.3235946014 0.1793194111 0.0000000000
0.3650173470 0.1779491806 0.0000000000
0.4067299508 0.1764994883 0.0000000000
0.4457489236 0.1752638931 0.0000000000
0.4846049207 0.1740788671 0.0000000000
0.5216906292 0.1731299663 0.0000000000
0.5582635859 0.1722265292 0.0000000000
0.5946915568 0.1714758053 0.0000000000
0.6301929600 0.1712741788 0.0000000000
0.6651399411 0.1713293269 0.0000000000
0.6991586259 0.1716828290 0.0000522646
0.7327005670 0.1726585210 0.0007974934
0.7658147508 0.1742373617 0.0025012540
0.7985122735 0.1764565604 0.0055996928
0.8308908148 0.1793594137 0.0102645041
0.8631301231 0.1831733479 0.0162974526
0.8959225439 0.1883263667 0.0238490094
0.9296390299 0.1950399067 0.0328807983
0.9627023555 0.2041027197 0.0441817299
0.9880240523 0.2153824406 0.0573358766
0.9983294029 0.2291481761 0.0724729032
1.0000000000 0.2647737262 0.1015265479
0.0000000000 0.1900116490 0.0015765515
0.0197796013 0.1934527676 0.0066150273
0.0518285748 0.1958719823 0.0092145268
0.0796939517 0.1977066389 0.0092307118
0.1037319046 0.2011735715 0.0058553967
0.1275645604 0.2034715962 0.0009782846
0.1517712531 0.2048271674 0.0000273466
0.1746169440 0.2055895553 0.0000022938
0.1996790695 0.2066675385 0.0000029344
0.2275264091 0.2084377892 0.0000034176
0.2634777963 0.2092134715 0.0000028426
0.3011696004 0.2104589743 0.0000027428
0.3431934775 0.2106365956 0.0000027428
0.3851981697 0.2102263605 0.0000011476
0.4274407600 0.2100203240 0.0000006069
0.4678059385 0.2091494542 0.0000003673
0.5077969198 0.2086711231 0.0000002495
0.5465745946 0.2081140591 0.0000000000
0.5845225519 0.2075770518 0.0000000000
0.6228022161 0.2074726149 0.0000000000
0.6595590449 0.2075542106 0.0000000000
0.6951587675 0.2079078375 0.0000427249
0.7307473990 0.2087307032 0.0006959999
0.7660896231 0.2101167640 0.0023469945
0.8004340608 0.2121537018 0.0057192214
0.8340568260 0.2149822761 0.0107620386
0.8673105116 0.2186330092 0.0173843163
0.9009659239 0.2235534619 0.0254062735
0.9350687491 0.2301471612 0.0352910606
0.9675438631 0.2389434057 0.0468066994
0.9906449713 0.2500393697 0.0603378548
0.9987562082 0.2634862308 0.0754639632
1.0000000000 0.2987095627 0.1039352027
0.0000000000 0.2138164462 0.0015286001
0.0181434133 0.2179718054 0.0066386579
0.0506450446 0.2211925954 0.0098152432
0.0795477006 0.2233597032 0.0108301718
0.1044458016 0.2266171034 0.0092944832
0.1281435421 0.2293093325 0.0041610354
0.1521939779 0.2311900181 0.0009131181
0.1755009307 0.2324147025 0.0002560574
0.1979959866 0.2333769248 0.0002490567
0.2238750562 0.2348865654 0.0004654340
0.2514632982 0.2368206404 0.0003662723
0.2862555452 0.2388236068 0.0003063451
0.3227593193 0.2408074212 0.0002959954
0.3650166932 0.2417840737 0.0002892524
0.4065794761 0.2425972394 0.0001229760
0.4495022648 0.2427742177 0.0000650777
0.4906155622 0.2426293347 0.0000274477
0.5321358627 0.2425038771 0.0000006033
0.5721821663 0.2422659810 0.0000000000
0.6119746641 0.2423107314 0.0000000000
0.6513549812 0.2425011737 0.0000000000
0.6890027181 0.2428920957 0.0000187915
0.7262022143 0.2436854415 0.0005586418
0.7631893473 0.2450209332 0.0020257854
0.7993380419 0.2469471300 0.0050661673
0.8346361925 0.2495995348 0.0101372895
0.8692204835 0.2531531343 0.0170554874
0.9038917747 0.2579149001 0.0257253758
0.9389032659 0.2643140174 0.0363743744
0.9713782077 0.2728909590 0.0487813125
0.9929504219 0.2838208801 0.0625259018
0.9993742200 0.2970161226 0.0778104375
1.0000000000 0.3318105401 0.1055730241
0.0000000000 0.2377627398 0.0013942383
0.0170125108 0.2433464521 0.0073451054
0.0502702783 0.2475461024 0.0112635882
0.0803326060 0.2502274356 0.0132389662
0.1065771733 0.2533013062 0.0134142101
0.1302934581 0.2563960509 0.0088904509
0.1542935349 0.2587742790 0.0035057212
0.1776141212 0.2603004281 0.0014497173
0.2003586933 0.2613973914 0.0009363005
0.2241278486 0.2625070324 0.0014833776
0.2496695587 0.2641105338 0.0016530986
0.2773622664 0.2664222862 0.0012219545
0.3110177409 0.2688268632 0.0011410813
0.3472041203 0.2712087908 0.0011028256
0.3876770071 0.2731086255 0.0006957111
0.4295686238 0.2743226071 0.0004080723
0.4720212737 0.2753025257 0.0001461138
0.5144229918 0.2754867676 0.0000602938
0.5568065899 0.2755971929 0.0000006862
0.5987782091 0.2758760572 0.0000000000
0.6396908418 0.2762037488 0.0000000000
0.6796774411 0.2767342529 0.0000187915
0.7193952726 0.2776793652 0.0002899903
0.7579229616 0.2790579093 0.0014588024
0.7956348888 0.2809830541 0.0039610416
0.8324875688 0.2835780052 0.0085206807
0.8685312472 0.2870197770 0.0153292764
0.9045801545 0.2916486381 0.0245278596
0.9408409727 0.2979515632 0.0361374353
0.9736595548 0.3064785268 0.0493321948
0.9940759304 0.3171667590 0.0640038036
0.9995809724 0.3301415720 0.0793783536
1.0000000000 0.3645641993 0.1063517806
0.0000000000 0.2638503420 0.0028754225
0.0172166913 0.2710667550 0.0093897592
0.0520988109 0.2763499194 0.0142348941
0.0830618622 0.2793767501 0.0169349378
0.1099802820 0.2825884101 0.0178230050
0.1344831359 0.2853303564 0.0150138627
0.1581808823 0.2876882296 0.0098029940
0.1811710479 0.2894501819 0.0050146625
0.2038336310 0.2905891704 0.0035883590
0.2270759380 0.2914463610 0.0026231764
0.2507874915 0.2926243184 0.0032481205
0.2765991243 0.2944623899 0.0034193132
0.3040882048 0.2968595191 0.0030808569
0.3374704618 0.2995305487 0.0029639002
0.3718168928 0.3022951175 0.0017903724
0.4123209829 0.3044289080 0.0012861921
0.4528817186 0.3061735696 0.0008240575
0.4959353735 0.3075357502 0.0004860066
0.5390878122 0.3079950674 0.0003547305
0.5828000001 0.3088869803 0.0000692224
0.6261775172 0.3096370469 0.0000166730
0.6677624325 0.3103594838 0.0000000741
0.7092538440 0.3115474234 0.0001335094
0.7502070255 0.3131571057 0.0008891147
0.7899263508 0.3152009803 0.0026058356
0.8285352778 0.3178619341 0.0062501044
0.8660624445 0.3213021407 0.0125060002
0.9033840824 0.3259105964 0.0218581663
0.9406851215 0.3321612794 0.0339540358
0.9744603077 0.3406023867 0.0487761468
0.9948000349 0.3511463312 0.0645960638
0.9997095577 0.3639161363 0.0807731397
1.0000000000 0.3979309822 0.1074410920
0.0000000000 0.2910459371 0.0051226708
0.0180875996 0.2999117485 0.0121874046
0.0543289326 0.3056718479 0.0177907125
0.0865066722 0.3094823281 0.0210690322
0.1142669229 0.3128768280 0.0228089898
0.1393488065 0.3153357625 0.0213173818
0.1631690942 0.3174077638 0.0168418479
0.1857608704 0.3190165110 0.0118847422
0.2079384691 0.3201974952 0.0076557988
0.2308925053 0.3209780447 0.0056746396
0.2539364342 0.3218324194 0.0046085434
0.2782009446 0.3232154047 0.0053672255
0.3037586432 0.3251134499 0.0056150301
0.3316111815 0.3276237745 0.0053013773
0.3633750067 0.3304470454 0.0040138297
0.3975026819 0.3333715132 0.0025799553
0.4363947264 0.3357906874 0.0019412628
0.4773621023 0.3379523822 0.0013600652
0.5208184160 0.3396258977 0.0009603005
0.5651928073 0.3409975430 0.0004911288
0.6100411957 0.3423449050 0.0001549400
0.6544044092 0.3436566537 0.0000244284
0.6976747256 0.3451028168 0.0000143124
0.7405132044 0.3469618234 0.0004749926
0.7821120612 0.3492065391 0.0017026932
0.8224709232 0.3520040658 0.0044813277
0.8616693087 0.3555570824 0.0097472648
0.9005768554 0.3602106317 0.0184976972
0.9394342984 0.3664602665 0.0309024858
0.9743778737 0.3748433375 0.0473066400
0.9950079062 0.3852438253 0.0643219893
0.9997781028 0.3978504446 0.0816229498
1.0000000000 0.4314085718 0.1086656218
0.0000000000 0.3205917945 0.0083380349
0.0204434866 0.3307101382 0.0166973681
0.0581505376 0.3367957070 0.0223155696
0.0911885352 0.3408596442 0.0259214155
0.1194200338 0.3442952770 0.0283596252
0.1449718074 0.3460992790 0.0279466625
0.1688583946 0.3474325896 0.0244112810
0.1911330271 0.3487962891 0.0192581742
0.2127501034 0.3497984934 0.0143440954
0.2349960852 0.3504573498 0.0102327779
0.2576816157 0.3512103774 0.0081432182
0.2811064073 0.3521883642 0.0070014605
0.3053413266 0.3537085368 0.0075777292
0.3311893457 0.3557055070 0.0077044926
0.3586039818 0.3581598012 0.0068720840
0.3903684043 0.3610209353 0.0054965111
0.4233767870 0.3640474687 0.0039131814
0.4626215858 0.3667459270 0.0030681068
0.5038129540 0.3691290730 0.0023203680
0.5477643918 0.3717108022 0.0014907379
0.5932104124 0.3736042063 0.0009184809
0.6385025316 0.3755096933 0.0005094368
0.6841371488 0.3776615139 0.0001187055
0.7293306747 0.3799539001 0.0000161018
0.7727674041 0.3824617326 0.0006965300
0.8149120462 0.3854890492 0.0025772534
0.8557934987 0.3892671862 0.0065370620
0.8962175666 0.3940660588 0.0140145185
0.9364161079 0.4003534066 0.0261190369
0.9725607366 0.4086893884 0.0431309417
0.9945620676 0.4189672057 0.0623751184
0.9997282105 0.4313554907 0.0814898579
1.0000000000 0.4644298629 0.1099993176
0.0000000000 0.3507949803 0.0120710666
0.0231753591 0.3618120966 0.0213940010
0.0617824672 0.3680381594 0.0268929232
0.0955878107 0.3721981519 0.0307213579
0.1243760170 0.3755616909 0.0334646515
0.1503570452 0.3770879235 0.0336392105
0.1745279899 0.3777944301 0.0311879820
0.1967156416 0.3784026433 0.0269254043
0.2179736902 0.3792682703 0.0216316470
0.2396785037 0.3798654102 0.0166486249
0.2617384464 0.3805272407 0.0127178903
0.2848094383 0.3814354542 0.0106381203
0.3080110615 0.3825075388 0.0093891282
0.3326565689 0.3841628759 0.0098119269
0.3581362454 0.3861418074 0.0094504886
0.3859399802 0.3886465636 0.0085775100
0.4169714121 0.3915465597 0.0072325203
0.4504858139 0.3947624948 0.0055643818
0.4899378994 0.3976855816 0.0045491693
0.5317777519 0.4008205652 0.0032286066
0.5764101114 0.4039065827 0.0020958587
0.6225074471 0.4063822933 0.0014059012
0.6690289389 0.4091024026 0.0006764301
0.7158104274 0.4119610965 0.0002145433
0.7615966258 0.4149778522 0.0001886416
0.8058482047 0.4183325073 0.0013011996
0.8485188793 0.4223060688 0.0040615177
0.8904290998 0.4273118589 0.0099570273
0.9319973157 0.4336859644 0.0208304300
0.9700548352 0.4420125253 0.0376141102
0.9935219208 0.4522160337 0.0582685588
0.9996402754 0.4643344806 0.0795380911
1.0000000000 0.4967528521 0.1109214640
0.0000000000 0.3817239396 0.0162930343
0.0263756457 0.3933504028 0.0262920602
0.0655807822 0.3996360153 0.0317884498
0.0999524429 0.4037869110 0.0356245058
0.1293109020 0.4068987466 0.0384986948
0.1557041619 0.4080992638 0.0390313853
0.1801038195 0.4083690980 0.0373056436
0.2024255804 0.4085270185 0.0338417772
0.2234496943 0.4087209786 0.0292817975
0.2448462351 0.4092843102 0.0238297686
0.2663400320 0.4099045212 0.0189564692
0.2888629324 0.4107684444 0.0153430368
0.3117090165 0.4117868438 0.0131833876
0.3351575297 0.4129596204 0.0118621054
0.3596200945 0.4146728102 0.0116894661
0.3853860922 0.4166765238 0.0113280124
0.4130957492 0.4192359116 0.0105996231
0.4445725521 0.4222775437 0.0092497578
0.4785535278 0.4256263537 0.0075417077
0.5185252346 0.4292393018 0.0057746421
0.5612635331 0.4328275348 0.0041775055
0.6062460850 0.4363526477 0.0027816719
0.6534379532 0.4398419683 0.0015767052
0.7013612246 0.4432782937 0.0007397571
0.7487853625 0.4468286193 0.0001992519
0.7950005301 0.4506327604 0.0005719268
0.8395991864 0.4549007400 0.0023708231
0.8833480129 0.4601037358 0.0066031240
0.9266345667 0.4666552599 0.0153257829
0.9661779466 0.4749968246 0.0308512774
0.9920311978 0.4851585938 0.0526186346
0.9993953458 0.4970489660 0.0759818626
1.0000000000 0.5285846437 0.1114584095
0.0000000000 0.4129515116 0.0208232010
0.0289669662 0.4247136119 0.0308667959
0.0695008796 0.4311046678 0.0367541685
0.1042521632 0.4351984008 0.0408069843
0.1341547962 0.4382909442 0.0438867932
0.1609966357 0.4393216958 0.0445061626
0.1859408793 0.4392524915 0.0435223963
0.2083867727 0.4390667319 0.0407780762
0.2295003037 0.4389807686 0.0368110822
0.2503938627 0.4391809933 0.0316809150
0.2715631156 0.4397344029 0.0263876602
0.2934371431 0.4405170149 0.0216367390
0.3157557421 0.4414487429 0.0182961937
0.3387796995 0.4425362195 0.0161129841
0.3619938698 0.4438386883 0.0145452582
0.3867778644 0.4455999501 0.0141278610
0.4123874660 0.4476930860 0.0136184817
0.4410534576 0.4504511766 0.0127736168
0.4730363573 0.4536285262 0.0113719045
0.5081768307 0.4573290952 0.0093336805
0.5487278637 0.4613298902 0.0073116673
0.5919836947 0.4652861702 0.0055038531
0.6378540203 0.4694945756 0.0036208979
0.6860450808 0.4738428228 0.0018207996
0.7347126403 0.4780316837 0.0008349129
0.7826269711 0.4823494916 0.0005015606
0.8291103227 0.4869908151 0.0011994421
0.8747737842 0.4923821573 0.0034790098
0.9194941702 0.4990470417 0.0101531235
0.9611803025 0.5074825849 0.0233130522
0.9899561152 0.5176079458 0.0443355118
0.9992133075 0.5291656289 0.0692100913
1.0000000000 0.5597240629 0.1092625218
0.0000000000 0.4442386071 0.0254011623
0.0317217687 0.4560678954 0.0354431520
0.0731636496 0.4624728209 0.0415744322
0.1084130295 0.4666042095 0.0459760659
0.1388383666 0.4696254500 0.0492524346
0.1662093228 0.4706420333 0.0501028759
0.1915653137 0.4704995857 0.0492909295
0.2144618882 0.4699599602 0.0473694247
0.2356847743 0.4695617123 0.0440776564
0.2565188625 0.4694708050 0.0395521191
0.2771973921 0.4697266794 0.0344184402
0.2987358655 0.4704167124 0.0292779364
0.3203684580 0.4712440900 0.0246032332
0.3429279881 0.4722492494 0.0214225535
0.3656939686 0.4734516314 0.0190895103
0.3892941389 0.4748289152 0.0174108210
0.4140420571 0.4766985436 0.0166630964
0.4403588901 0.4788912730 0.0160191028
0.4697440782 0.4818048720 0.0150795663
0.5027613517 0.4852730730 0.0134604774
0.5388478636 0.4892335622 0.0113157100
0.5795764947 0.4936203485 0.0090302392
0.6237931734 0.4982305189 0.0066547107
0.6708865798 0.5031421494 0.0042711695
0.7195635036 0.5080879388 0.0022608183
0.7686432593 0.5130549976 0.0011201175
0.8168810839 0.5182086245 0.0009777187
0.8643222487 0.5239003096 0.0020676183
0.9110832751 0.5307301913 0.0062539441
0.9553687041 0.5392647546 0.0161490672
0.9868822065 0.5493598325 0.0354422425
0.9986664970 0.5607449332 0.0604248108
1.0000000000 0.5901610992 0.1053764735
0.0000000000 0.4756422520 0.0300204393
0.0347752778 0.4874605398 0.0400392493
0.0767002868 0.4938111175 0.0464038282
0.1125124897 0.4979982990 0.0511870286
0.1435437388 0.5009605306 0.0546622232
0.1715133619 0.5020458451 0.0558392003
0.1973468509 0.5018943186 0.0552929711
0.2205842104 0.5012986042 0.0536119701
0.2420806035 0.5005410220 0.0511594611
0.2628493360 0.5001919194 0.0471850155
0.2834223245 0.5001104127 0.0427432069
0.3044613937 0.5005437421 0.0374957561
0.3257865291 0.5012536695 0.0325187934
0.3476078135 0.5021246269 0.0277425399
0.3700204835 0.5032470893 0.0248299849
0.3931063796 0.5045062166 0.0223189687
0.4167501667 0.5060137596 0.0204864218
0.4422352456 0.5079598723 0.0194267966
0.4690824183 0.5102132659 0.0186491635
0.4996738740 0.5133539434 0.0176193746
0.5334873538 0.5170561760 0.0159124862
0.5702877143 0.5212681647 0.0136590225
0.6114157138 0.5261589244 0.0107009935
0.6569087926 0.5315141909 0.0077935504
0.7047642571 0.5370374078 0.0049273165
0.7540139495 0.5426233701 0.0025963236
0.8033908637 0.5483142202 0.0012972700
0.8526325460 0.5544238158 0.0012461365
0.9015539302 0.5614977739 0.0032704322
0.9477083557 0.5700785934 0.0103097543
0.9832442802 0.5801439151 0.0262688057
0.9978002209 0.5913821923 0.0503368042
1.0000000000 0.6196622788 0.0992359874
0.0000000000 0.5076832166 0.0352402909
0.0381526066 0.5194572188 0.0455471595
0.0807256228 0.5257436770 0.0519342980
0.1170423879 0.5299305842 0.0569390986
0.1486362824 0.5329413993 0.0606008473
0.1772953611 0.5340591439 0.0620633570
0.2036855551 0.5338674068 0.0619697479
0.2272000335 0.5331706570 0.0605951839
0.2488833408 0.5323075424 0.0584211549
0.2697749821 0.5315716188 0.0552819834
0.2902876547 0.5312779958 0.0512582508
0.3111492191 0.5313870164 0.0465672221
0.3320520096 0.5318835146 0.0413280845
0.3535662139 0.5326142020 0.0362646213
0.3751753850 0.5335444440 0.0317891009
0.3978497873 0.5346851162 0.0286296019
0.4207489270 0.5359418389 0.0257568281
