bundles/resolve-cinematic-luts/Gamut/Le Reve/Color - Le Reve IV.cube
TITLE "Contrast - Le Reve IV by Le Reve Films"
# Version 1.0 - 01/22/2022 - Designed for Rec.709 Color Space. Copyright 2023 Gamut, LLC
# 
LUT_3D_SIZE 33
0.0000000000 0.0000000000 0.0000000000
0.0251388362 0.0055830912 0.0000000000
0.0533155068 0.0101006862 0.0000000000
0.0819784144 0.0079318793 0.0000000000
0.1115858361 0.0057173377 0.0000444950
0.1414726126 0.0027268390 0.0013974450
0.1715849882 0.0002784990 0.0036700796
0.2018900302 0.0000205374 0.0039224626
0.2303787105 0.0000000000 0.0045009920
0.2571384211 0.0000000000 0.0047310000
0.2830643640 0.0000000000 0.0047310000
0.3091625842 0.0000000000 0.0047310000
0.3353949927 0.0000000000 0.0049101459
0.3617278638 0.0000000000 0.0052044909
0.3885573525 0.0000000000 0.0054092571
0.4155838238 0.0000000000 0.0057575698
0.4428423061 0.0000000000 0.0062749550
0.4703742818 0.0000000000 0.0067964255
0.4981328009 0.0000000000 0.0074325982
0.5261729994 0.0000000000 0.0082242527
0.5552135758 0.0000000000 0.0093272890
0.5845538484 0.0000000000 0.0104781586
0.6143356997 0.0000000000 0.0118386202
0.6448579240 0.0000000000 0.0137546566
0.6755859033 0.0000000000 0.0160059096
0.7065694278 0.0000000000 0.0187587823
0.7382839674 0.0000000000 0.0217517858
0.7709436976 0.0000000000 0.0255795031
0.8052417170 0.0000000000 0.0300933091
0.8407524517 0.0000000000 0.0357735469
0.8776110555 0.0000000000 0.0427024354
0.9158533323 0.0000697477 0.0510690794
0.9886730000 0.0134060000 0.0726220000
0.0023902268 0.0268759020 0.0041640119
0.0263809005 0.0309370459 0.0079207525
0.0464709815 0.0347828475 0.0024809526
0.0848660063 0.0305854994 0.0001028593
0.1198843001 0.0268828773 0.0000000000
0.1525874346 0.0238552704 0.0002986262
0.1855157058 0.0212389696 0.0035098061
0.2174680258 0.0196286603 0.0063451168
0.2476839266 0.0178872594 0.0086884061
0.2754650400 0.0161437059 0.0099961874
0.3022618216 0.0143927091 0.0109350145
0.3291910985 0.0128477891 0.0119382159
0.3559748555 0.0114939173 0.0125149581
0.3825397732 0.0104835120 0.0129465511
0.4102013431 0.0090509668 0.0139382609
0.4379494466 0.0084377601 0.0149663734
0.4660502950 0.0079157358 0.0161258450
0.4941876031 0.0071842882 0.0175804796
0.5224631473 0.0068906764 0.0188340766
0.5508986225 0.0067206468 0.0200650275
0.5800521051 0.0066865966 0.0219611580
0.6094181137 0.0067033609 0.0239403827
0.6392429259 0.0068717110 0.0259991578
0.6699082826 0.0073851852 0.0281151038
0.7003628803 0.0082390163 0.0313522525
0.7310935565 0.0097031757 0.0343527005
0.7627728404 0.0114216150 0.0384470864
0.7953364824 0.0139962674 0.0430088405
0.8290665419 0.0170720709 0.0486942919
0.8641640782 0.0223628089 0.0556314012
0.9000905159 0.0284734068 0.0644971088
0.9375380370 0.0362250374 0.0749133566
0.9986503031 0.0561578852 0.1007498780
0.0046736487 0.0523989668 0.0090663708
0.0272440538 0.0570676502 0.0179592072
0.0414988338 0.0625888474 0.0148210229
0.0661703818 0.0633863666 0.0028532920
0.1095597909 0.0581101798 0.0001514109
0.1496939169 0.0532904110 0.0000000000
0.1876552372 0.0505580871 0.0009350072
0.2242737001 0.0478360213 0.0041451016
0.2573976909 0.0455495329 0.0077080300
0.2875007002 0.0436393318 0.0103796700
0.3156352529 0.0416997069 0.0120745097
0.3435161218 0.0399862026 0.0137546292
0.3713512126 0.0384212283 0.0154811554
0.3989384266 0.0368915355 0.0170669971
0.4271323678 0.0357121921 0.0187213860
0.4554289567 0.0347183686 0.0204002232
0.4838661870 0.0337003609 0.0218870704
0.5123407158 0.0327224053 0.0235817075
0.5408496227 0.0317992066 0.0253260695
0.5694791412 0.0312772247 0.0271785598
0.5985366414 0.0309775043 0.0293954327
0.6277873982 0.0308258510 0.0316712600
0.6573771219 0.0308979942 0.0339572419
0.6876259790 0.0312172318 0.0368376942
0.7179814189 0.0324460482 0.0399948087
0.7487834420 0.0339848957 0.0440224329
0.7803735316 0.0362824170 0.0488392637
0.8128313931 0.0394040650 0.0544611418
0.8464980412 0.0437155400 0.0612279830
0.8815583395 0.0494495402 0.0694865515
0.9174786474 0.0567610772 0.0797148611
0.9542592190 0.0660307153 0.0918140526
0.9999863172 0.0885243299 0.1206668702
0.0047310000 0.0769765564 0.0119915708
0.0271498266 0.0835807885 0.0235456331
0.0437673438 0.0890886050 0.0265388109
0.0607375073 0.0926190639 0.0220106057
0.0869511035 0.0936263755 0.0099830966
0.1284567834 0.0906597976 0.0011239708
0.1758130799 0.0863101869 0.0003151786
0.2199880314 0.0822964878 0.0003228368
0.2577458351 0.0791548699 0.0019729685
0.2914824687 0.0760453797 0.0050109469
0.3220055543 0.0739427648 0.0081581093
0.3522306545 0.0714869122 0.0114093866
0.3815089534 0.0695760836 0.0142212276
0.4099614727 0.0680174485 0.0164636667
0.4391160665 0.0663709857 0.0188985325
0.4679635582 0.0649090106 0.0211067360
0.4967750674 0.0638288568 0.0232576166
0.5256114926 0.0628841217 0.0258580635
0.5542049900 0.0620420520 0.0279827655
0.5828159169 0.0612033430 0.0301051971
0.6118934818 0.0607616607 0.0328083596
0.6411591582 0.0606067415 0.0354400123
0.6706695109 0.0606920691 0.0383635956
0.7006834672 0.0610957614 0.0417579038
0.7313238496 0.0623162472 0.0457802381
0.7623179715 0.0640774018 0.0506641278
0.7940923374 0.0666050059 0.0561029328
0.8267181693 0.0700025648 0.0625665288
0.8604927062 0.0747587892 0.0702962383
0.8956945191 0.0810681431 0.0799635813
0.9315087534 0.0892039624 0.0913127331
0.9669009950 0.0988060251 0.1045899231
1.0000000000 0.1227675622 0.1357967769
0.0047310000 0.1031243214 0.0150420659
0.0274690158 0.1116686019 0.0291868545
0.0468796081 0.1176340627 0.0344465551
0.0646187668 0.1206532053 0.0336468454
0.0823596612 0.1236289772 0.0289902626
0.1070982526 0.1256647125 0.0172406443
0.1474073353 0.1247426528 0.0061742422
0.1992232427 0.1206294423 0.0006372898
0.2461824162 0.1161240412 0.0000802928
0.2837991406 0.1127207910 0.0003738151
0.3179832981 0.1095070318 0.0019659492
0.3513796802 0.1067489740 0.0035108066
0.3832861235 0.1041358486 0.0075374055
0.4138913500 0.1020502345 0.0110015024
0.4452033551 0.0999210265 0.0147794410
0.4753001909 0.0983202286 0.0180181250
0.5053132586 0.0969021246 0.0211901427
0.5350834370 0.0957519863 0.0243635511
0.5642019667 0.0948997069 0.0274557702
0.5931893578 0.0941498567 0.0302858311
0.6226753924 0.0937106860 0.0336215020
0.6521018734 0.0934971016 0.0370380907
0.6818171229 0.0935931745 0.0406051723
0.7120952186 0.0941548913 0.0448868660
0.7429545780 0.0954662654 0.0495798705
0.7742443786 0.0975702780 0.0552802562
0.8062756740 0.1004100747 0.0614769492
0.8390693538 0.1041488869 0.0687430981
0.8729777462 0.1092713461 0.0774037789
0.9082344284 0.1158863586 0.0877449272
0.9436140319 0.1243161521 0.1002601355
0.9766111907 0.1343685020 0.1145006397
1.0000000000 0.1585487941 0.1466483460
0.0052231514 0.1298188020 0.0186930819
0.0281885536 0.1397582602 0.0340987301
0.0485696671 0.1459382032 0.0417946783
0.0682407101 0.1486157387 0.0421522398
0.0863920870 0.1509872529 0.0401591886
0.1045313475 0.1542793285 0.0353474393
0.1287462963 0.1570212009 0.0247842939
0.1676945719 0.1573738177 0.0107295756
0.2170951697 0.1543218833 0.0015799044
0.2634203880 0.1499502138 0.0006743458
0.3030561838 0.1462766075 0.0004401524
0.3408200320 0.1431251215 0.0006120997
0.3757100075 0.1405235963 0.0013546528
0.4092994122 0.1380325926 0.0041243497
0.4434976401 0.1361134920 0.0068582371
0.4759217325 0.1341840890 0.0110007388
0.5081322279 0.1326048022 0.0152145356
0.5400126990 0.1311602782 0.0198204597
0.5703319317 0.1300801709 0.0236702652
0.6004671632 0.1292341385 0.0277069404
0.6310388848 0.1288447200 0.0320345458
0.6610448057 0.1285921470 0.0362570485
0.6912249402 0.1287568894 0.0406732708
0.7219749112 0.1294425364 0.0457251034
0.7532579303 0.1309322423 0.0517250499
0.7848459702 0.1330045754 0.0579909646
0.8171150093 0.1360722870 0.0650081506
0.8500496707 0.1400925945 0.0729952163
0.8839634350 0.1452526760 0.0821692901
0.9190993574 0.1519559635 0.0931564607
0.9534651320 0.1604479391 0.1061542294
0.9834586616 0.1705600765 0.1208976753
1.0000000000 0.1943577441 0.1533063378
0.0051963263 0.1565572241 0.0214252232
0.0285852957 0.1669323003 0.0382195466
0.0488016760 0.1737037893 0.0480262959
0.0693733265 0.1761616929 0.0490253099
0.0884378365 0.1781131478 0.0480803477
0.1067856529 0.1812129449 0.0457697740
0.1255579088 0.1846754844 0.0405549351
0.1502787362 0.1876573046 0.0298529211
0.1840664164 0.1891122561 0.0160099822
0.2286708568 0.1874965098 0.0053401398
0.2734653266 0.1840413357 0.0024411772
0.3170852845 0.1808581925 0.0009801289
0.3575356392 0.1778774317 0.0007164112
0.3946902981 0.1753108767 0.0010624676
0.4322701863 0.1734167425 0.0019579013
0.4677807752 0.1716864895 0.0040656961
0.5025849589 0.1700838481 0.0073926609
0.5372366571 0.1688288133 0.0118148349
0.5699826120 0.1676668474 0.0166355749
0.6020168966 0.1667527247 0.0214464013
0.6345074165 0.1661818106 0.0269694137
0.6660726748 0.1659150810 0.0321574453
0.6972106410 0.1659553897 0.0375413217
0.7288679258 0.1666673740 0.0434015105
0.7608860326 0.1680120706 0.0503146880
0.7930430121 0.1700774929 0.0574771546
0.8256480611 0.1729706546 0.0653482428
0.8587992743 0.1769664348 0.0739981146
0.8928145577 0.1820026195 0.0837671398
0.9277567096 0.1886732439 0.0951789995
0.9609476370 0.1968992147 0.1084317801
0.9879114351 0.2068388223 0.1234646674
1.0000000000 0.2298704842 0.1557429227
0.0038468339 0.1821486868 0.0226213764
0.0281975571 0.1928418190 0.0403062207
0.0473906128 0.2002848344 0.0525704899
0.0680721422 0.2028307304 0.0542317677
0.0880731858 0.2047467587 0.0539233816
0.1073968098 0.2075052055 0.0529661105
0.1260721053 0.2107776323 0.0500212202
0.1456999259 0.2144851949 0.0444907524
0.1690595757 0.2175519846 0.0344834920
0.1970007053 0.2198988646 0.0221703375
0.2384601512 0.2191947994 0.0110764110
0.2809658918 0.2177437875 0.0044692938
0.3267468464 0.2155540240 0.0019707522
0.3684894815 0.2127614003 0.0015185886
0.4108665693 0.2107353331 0.0011582702
0.4511013854 0.2089911623 0.0014105045
0.4886100987 0.2074634559 0.0026846542
0.5263710240 0.2063396550 0.0051016866
0.5625313666 0.2053590429 0.0087154003
0.5968155578 0.2045869097 0.0134679071
0.6316089291 0.2039732335 0.0189979251
0.6655602300 0.2035434225 0.0248546876
0.6984226063 0.2034511919 0.0310054425
0.7313919117 0.2039575258 0.0377361163
0.7645923019 0.2049690571 0.0451818065
0.7976722964 0.2067604481 0.0532278140
0.8309864554 0.2094335535 0.0619451770
0.8646370504 0.2130967178 0.0713204812
0.8990084776 0.2179361573 0.0818206837
0.9339790823 0.2243505508 0.0938368013
0.9662895447 0.2321913722 0.1073386083
0.9907144676 0.2418216064 0.1226374235
1.0000000000 0.2639731904 0.1549238392
0.0018094280 0.2062309238 0.0230273228
0.0275106214 0.2178170228 0.0416448499
0.0451859565 0.2258201626 0.0559729144
0.0655293104 0.2288689282 0.0585662021
0.0865534722 0.2307501050 0.0587020892
0.1066960340 0.2331968473 0.0587003411
0.1261135382 0.2362665996 0.0571136752
0.1456499871 0.2402352265 0.0539819287
0.1644120498 0.2437363025 0.0480666589
0.1857526302 0.2468173791 0.0395361602
0.2103907526 0.2495764213 0.0285572509
0.2479379807 0.2505152125 0.0159216687
0.2886870684 0.2506363149 0.0075776587
0.3345480894 0.2491603489 0.0046612568
0.3801323601 0.2474181831 0.0026968878
0.4254372327 0.2456137555 0.0016555919
0.4680259153 0.2440432390 0.0015747505
0.5090009775 0.2429603703 0.0023695633
0.5487167780 0.2420394974 0.0037432741
0.5863273722 0.2413561006 0.0063030167
0.6234799462 0.2407441533 0.0109725079
0.6597046201 0.2402881396 0.0163083970
0.6951709757 0.2400614339 0.0224192114
0.7300826447 0.2402583052 0.0298202802
0.7647647550 0.2409639706 0.0376315179
0.7990742361 0.2423886827 0.0463938276
0.8334223530 0.2447101010 0.0559091563
0.8679193460 0.2479620875 0.0659913207
0.9029325384 0.2525019545 0.0772894142
0.9382741701 0.2584986237 0.0900878068
0.9701693021 0.2660625005 0.1039814391
0.9925393331 0.2752282195 0.1195791150
1.0000000000 0.2964945705 0.1521616583
0.0005823615 0.2297631174 0.0239475956
0.0264518824 0.2419399100 0.0427689471
0.0439444938 0.2508628713 0.0590112155
0.0637717913 0.2545736652 0.0630748126
0.0848044048 0.2568884341 0.0639236982
0.1059001171 0.2590901176 0.0642104352
0.1267420836 0.2621089646 0.0638880149
0.1466273041 0.2657869881 0.0618183196
0.1652193715 0.2693518906 0.0579957748
0.1833059581 0.2727535597 0.0524171388
0.2039427689 0.2758966478 0.0446490775
0.2275644600 0.2789916578 0.0346384709
0.2623654724 0.2808841180 0.0230336397
0.3009681178 0.2819147250 0.0143602416
0.3461509465 0.2821965705 0.0077638019
0.3929519251 0.2810898894 0.0047206720
0.4400551032 0.2798197691 0.0028189799
0.4858525091 0.2786525216 0.0021736245
0.5287728612 0.2776424848 0.0023960811
0.5705025878 0.2767860207 0.0031329023
0.6111507880 0.2761848962 0.0053093905
0.6497093978 0.2757010375 0.0093423722
0.6874495718 0.2754121214 0.0144006381
0.7247570850 0.2754260252 0.0210247295
0.7615800282 0.2758984773 0.0288402905
0.7975219183 0.2769714567 0.0378635482
0.8331709215 0.2789186345 0.0479576724
0.8688063728 0.2818349570 0.0587279143
0.9046465448 0.2860140308 0.0707059207
0.9404919842 0.2916565737 0.0840377905
0.9722827535 0.2987680229 0.0987416768
0.9935682471 0.3075585793 0.1147744322
1.0000000000 0.3280624964 0.1478873851
0.0001224758 0.2544814540 0.0261588430
0.0265246786 0.2674086539 0.0457731957
0.0440910745 0.2770061998 0.0634753113
0.0639012129 0.2813559718 0.0690925938
0.0851452758 0.2840738157 0.0707277583
0.1071058452 0.2864663498 0.0715217532
0.1287944155 0.2894050723 0.0719670789
0.1492849883 0.2927245729 0.0705315575
0.1683240524 0.2961133577 0.0676558602
0.1858847404 0.2993872018 0.0638020381
0.2036698138 0.3027427803 0.0584398306
0.2240135286 0.3060405170 0.0510525857
0.2477658940 0.3094152699 0.0416181123
0.2807343967 0.3118819527 0.0307101946
0.3176053311 0.3142225916 0.0202282802
0.3623296435 0.3150439107 0.0122828846
0.4094284502 0.3146740522 0.0076669234
0.4574415727 0.3143149296 0.0043992468
0.5044129871 0.3133762939 0.0032262728
0.5490660770 0.3125420721 0.0027684369
0.5938204556 0.3118764903 0.0031891321
0.6363463631 0.3113068717 0.0047471859
0.6765596560 0.3109420558 0.0083917177
0.7162185509 0.3108322681 0.0137516151
0.7551757177 0.3111900943 0.0205799863
0.7930415871 0.3120950757 0.0289468239
0.8303577376 0.3137889179 0.0388153051
0.8673695953 0.3164153189 0.0499554894
0.9043782258 0.3202176706 0.0625127830
0.9412012422 0.3254252421 0.0767351199
0.9734114068 0.3321207224 0.0922545544
0.9942352212 0.3406267572 0.1088814798
1.0000000000 0.3604264784 0.1425483597
0.0000958779 0.2799938332 0.0292427757
0.0270571068 0.2938395924 0.0500360195
0.0454046904 0.3040791886 0.0689186851
0.0653090881 0.3089327678 0.0761073214
0.0867529299 0.3120415255 0.0786084860
0.1094376817 0.3147599315 0.0799200729
0.1317753543 0.3176248398 0.0808687704
0.1529022369 0.3205769224 0.0799301070
0.1722932502 0.3237005955 0.0776662962
0.1900562392 0.3267643645 0.0744944827
0.2070904242 0.3298829922 0.0705749743
0.2252861380 0.3332373096 0.0649635384
0.2455180809 0.3367243324 0.0580801692
0.2693831890 0.3402899621 0.0490224800
0.3010594092 0.3435164244 0.0380607385
0.3368857615 0.3464525782 0.0266405676
0.3810700225 0.3479093020 0.0171063397
0.4275348050 0.3486009099 0.0108615834
0.4759416764 0.3487013284 0.0065865897
0.5242013565 0.3480347607 0.0047506510
0.5716557424 0.3475301388 0.0034585989
0.6178934792 0.3469731897 0.0033143195
0.6626066634 0.3464895102 0.0042660314
0.7049041629 0.3462689631 0.0079317485
0.7462928742 0.3465002326 0.0134187809
0.7863169887 0.3472632274 0.0206274190
0.8255258151 0.3487722555 0.0297306044
0.8641659815 0.3511634339 0.0406687157
0.9026052941 0.3546356644 0.0535506212
0.9406702823 0.3594427439 0.0684879676
0.9735925689 0.3658686711 0.0845424827
0.9944701027 0.3739659719 0.1020846235
1.0000000000 0.3931678374 0.1365661445
0.0004345624 0.3063853415 0.0333049724
0.0281587364 0.3215365990 0.0556240356
0.0483576846 0.3325120760 0.0754879414
0.0683256768 0.3375142643 0.0840970567
0.0896577399 0.3410108995 0.0877594069
0.1127103229 0.3439778244 0.0893616014
0.1356345120 0.3467898052 0.0905114707
0.1575255597 0.3493419911 0.0899948751
0.1771511653 0.3520826978 0.0882585039
0.1949614275 0.3548574863 0.0855350498
0.2119337845 0.3576651459 0.0821417589
0.2289862083 0.3606561905 0.0777683261
0.2475297073 0.3640373941 0.0720593694
0.2676712653 0.3675627585 0.0652984390
0.2926130396 0.3714255877 0.0562034000
0.3234698707 0.3750352978 0.0453072768
0.3586776529 0.3784495025 0.0336198071
0.4014534221 0.3806629990 0.0231348657
0.4475979963 0.3819244772 0.0156302993
0.4959970918 0.3826143000 0.0100481447
0.5461181347 0.3825486073 0.0061646059
0.5949890183 0.3822175786 0.0041934401
0.6428113489 0.3818413332 0.0035321611
0.6895224986 0.3815648265 0.0044282739
0.7345820306 0.3815770027 0.0076812549
0.7770804368 0.3821952064 0.0132235812
0.8185137225 0.3835242797 0.0210890504
0.8590127180 0.3857036299 0.0312969345
0.8990524334 0.3889412512 0.0440689141
0.9382205930 0.3935095989 0.0590148886
0.9723344489 0.3995991524 0.0757760848
0.9941331138 0.4072978300 0.0941380717
1.0000000000 0.4261053362 0.1299710039
0.0020732522 0.3342401354 0.0390100476
0.0303936918 0.3505827396 0.0624110469
0.0523126791 0.3618126751 0.0830699482
0.0723746732 0.3670172885 0.0926657742
0.0936129883 0.3706633896 0.0972996880
0.1166295316 0.3739197027 0.0994186339
0.1399621346 0.3766114057 0.1005845406
0.1623229926 0.3788659938 0.1003304371
0.1823610104 0.3810121264 0.0990110408
0.2002935471 0.3832965837 0.0966886583
0.2172083515 0.3858219144 0.0936365452
0.2339624758 0.3884603256 0.0898111998
0.2511919338 0.3915079634 0.0852787179
0.2698260348 0.3948993019 0.0795583866
0.2906309433 0.3986111430 0.0727587242
0.3160084370 0.4026351646 0.0634777443
0.3467989107 0.4065215417 0.0524934193
0.3811957373 0.4103061471 0.0408877856
0.4236417563 0.4128844688 0.0298987878
0.4695528450 0.4146235981 0.0215719089
0.5185170659 0.4160659807 0.0135814772
0.5693427111 0.4164462170 0.0084896952
0.6194885204 0.4163966553 0.0056844248
0.6690616063 0.4163125963 0.0042974828
0.7173892780 0.4163604482 0.0050623748
0.7635950126 0.4168269625 0.0081147439
0.8080317310 0.4179209619 0.0139415940
0.8509337384 0.4199236399 0.0225972689
0.8928402440 0.4229665565 0.0342531412
0.9338662516 0.4273088492 0.0488812444
0.9699071296 0.4331491974 0.0659143386
0.9930943399 0.4405901311 0.0848388559
1.0000000000 0.4589319154 0.1223278380
0.0044714569 0.3630054899 0.0454404250
0.0330682164 0.3802808446 0.0699025401
0.0567576226 0.3916910628 0.0911025942
0.0770399212 0.3970487026 0.1015333877
0.0980894380 0.4007834708 0.1071328774
0.1208758842 0.4042318587 0.1098968832
0.1444785724 0.4068322344 0.1110591517
0.1672613689 0.4088102240 0.1109539183
0.1876013794 0.4105736373 0.1098291813
0.2057820632 0.4123530951 0.1078395770
0.2227512300 0.4143812711 0.1051488437
0.2393659030 0.4167527422 0.1016514061
0.2562110900 0.4194097132 0.0976876481
0.2735720322 0.4224979448 0.0930403897
0.2929159865 0.4260197926 0.0871101309
0.3138600737 0.4298398665 0.0802716505
0.3397507681 0.4340537443 0.0707716649
0.3700957452 0.4381453315 0.0599281456
0.4043279401 0.4421789445 0.0481535513
0.4464606695 0.4451806025 0.0365705746
0.4926884043 0.4476729870 0.0262609208
0.5419973856 0.4494605780 0.0173429677
0.5937085449 0.4503964152 0.0107307376
0.6458095000 0.4506510483 0.0068935937
0.6969663277 0.4509411549 0.0048944361
0.7463970679 0.4514432555 0.0053170072
0.7941249219 0.4523900775 0.0087384385
0.8400721446 0.4541543909 0.0152533967
0.8846294905 0.4569715299 0.0250502397
0.9280036691 0.4611103606 0.0385753999
0.9659653557 0.4667758943 0.0554320827
0.9914751616 0.4739586243 0.0747442664
1.0000000000 0.4918219798 0.1138399069
0.0077494514 0.3928615200 0.0525595773
0.0354151510 0.4109587164 0.0781444075
0.0616530482 0.4223003985 0.0995611206
0.0825587625 0.4276694374 0.1106423706
0.1031603713 0.4315259532 0.1172987422
0.1254599341 0.4349415794 0.1209107605
0.1491522081 0.4375124075 0.1220732861
0.1723356175 0.4392237966 0.1219810591
0.1929741990 0.4406102890 0.1209671337
0.2113583893 0.4420452257 0.1191423158
0.2285212374 0.4436050362 0.1167590102
0.2450580753 0.4455368779 0.1136486719
0.2617502509 0.4479193068 0.1099795761
0.2786184317 0.4505674856 0.1059300850
0.2965925639 0.4537945354 0.1008651699
0.3161945958 0.4573912481 0.0948381194
0.3374043723 0.4613258829 0.0878905807
0.3635481221 0.4656147986 0.0781107510
0.3937284171 0.4699030823 0.0671976736
0.4280444192 0.4741844204 0.0552631676
0.4702154263 0.4778406083 0.0427465939
0.5166727850 0.4807218275 0.0313716360
0.5665970652 0.4829039814 0.0213757936
0.6194748312 0.4844045460 0.0132637257
0.6732048240 0.4853233413 0.0075713541
0.7256824587 0.4860356999 0.0049468730
0.7768252506 0.4869531946 0.0054916477
0.8262341927 0.4884916813 0.0093581342
0.8740319575 0.4910436741 0.0166802533
0.9196576982 0.4950043545 0.0287257747
0.9602495894 0.5005151516 0.0446151257
0.9892832967 0.5074765119 0.0637480234
1.0000000000 0.5248683898 0.1042233850
0.0111900157 0.4237004968 0.0608733875
0.0393063810 0.4422392009 0.0870051182
0.0671462653 0.4532864671 0.1083164562
0.0881685322 0.4586418174 0.1200734842
0.1084997991 0.4626176368 0.1275475927
0.1304623508 0.4660352008 0.1318212174
0.1542170495 0.4685796754 0.1335279861
0.1776066155 0.4701718577 0.1334460774
0.1984744534 0.4710948801 0.1323224474
0.2170649764 0.4721059323 0.1306405456
0.2343528526 0.4733366288 0.1284156727
0.2510164493 0.4747493837 0.1256187160
0.2675572631 0.4767039948 0.1222619969
0.2842522470 0.4790539569 0.1184702849
0.3013482078 0.4817610017 0.1141936164
0.3196557089 0.4850869961 0.1090387561
0.3395393251 0.4887754394 0.1029696662
0.3609951731 0.4928255938 0.0957751072
0.3874058510 0.4972526678 0.0859378685
0.4178034088 0.5017374346 0.0749720266
0.4527444110 0.5063647564 0.0623495807
0.4947341939 0.5104402006 0.0490767851
0.5417739115 0.5137273864 0.0366944581
0.5927733437 0.5163888011 0.0255084992
0.6461748050 0.5185076563 0.0161482514
0.7005377649 0.5200094081 0.0090480772
0.7547402192 0.5212708840 0.0059308382
0.8075653545 0.5228039345 0.0063792474
0.8585772726 0.5251398729 0.0110845292
0.9078003888 0.5287908327 0.0202624963
0.9525504268 0.5339817959 0.0339863387
0.9851997465 0.5407360539 0.0520801106
1.0000000000 0.5577398219 0.0929291446
0.0145526439 0.4548832403 0.0694628001
0.0432050811 0.4736724357 0.0960924816
0.0727134388 0.4843668485 0.1172405991
0.0938519315 0.4896657758 0.1294991686
0.1139530560 0.4937395124 0.1377601534
0.1356731482 0.4971655691 0.1427900019
0.1593089589 0.4997100830 0.1450232789
0.1828953292 0.5011867686 0.1450609081
0.2039332924 0.5018842893 0.1439393394
0.2227267582 0.5024619753 0.1422277894
0.2401976789 0.5032722277 0.1401460945
0.2569737560 0.5043558729 0.1374921618
0.2735376496 0.5057734962 0.1344602682
0.2900877306 0.5077472997 0.1309383933
0.3070262792 0.5101749806 0.1269709889
0.3243648257 0.5129625804 0.1226892874
0.3430433526 0.5163939445 0.1174480554
0.3632015752 0.5201809657 0.1111541686
0.3849687351 0.5243164459 0.1038485625
0.4115881869 0.5289124884 0.0940289723
0.4425260647 0.5337265311 0.0825838998
0.4778986956 0.5386175214 0.0695287760
0.5198098305 0.5431771734 0.0553129884
0.5679710576 0.5469934553 0.0414828213
0.6196130287 0.5502638864 0.0290340643
0.6737363341 0.5528055873 0.0181819971
0.7294188305 0.5548236404 0.0107031159
0.7851144542 0.5566984784 0.0071342505
0.8398279206 0.5589995329 0.0078684630
0.8931269518 0.5623585893 0.0133427349
0.9418696269 0.5671972348 0.0242968938
0.9793893019 0.5736389810 0.0408269674
0.9999914944 0.5902205951 0.0809370709
0.0177863152 0.4863707199 0.0782408140
0.0469514607 0.5052352946 0.1053999405
0.0782841463 0.5155252258 0.1263531673
0.0996320380 0.5207190295 0.1388229959
0.1195032186 0.5248581931 0.1478825225
0.1410844689 0.5282969762 0.1538418778
0.1644058106 0.5308688991 0.1565534302
0.1881675419 0.5322312578 0.1567793731
0.2093840689 0.5327262364 0.1557083476
0.2283261788 0.5330806368 0.1540220440
0.2460098180 0.5334670469 0.1519849364
0.2629492490 0.5341415496 0.1494680370
0.2796050766 0.5352448351 0.1465601543
0.2960768208 0.5366530724 0.1433796313
0.3128918088 0.5387964801 0.1397136229
0.3300980755 0.5412851117 0.1357490595
0.3477794193 0.5442013871 0.1314102003
