bundles/resolve-cinematic-luts/Gamut/Le Reve/Color - Le Reve V.cube
TITLE "Contrast - Le Reve V by Le Reve Films"
# Version 1.0 - 01/22/2022 - Designed for Rec.709 Color Space. Copyright 2023 Gamut, LLC
# 
LUT_3D_SIZE 33
0.0000000000 0.0000000000 0.0000000000
0.0142294404 0.0000000000 0.0000000000
0.0277952314 0.0034889524 0.0000000000
0.0372970446 0.0073622840 0.0016304157
0.0487772350 0.0090052011 0.0015412866
0.0625354422 0.0097064477 0.0006303297
0.0786025864 0.0102080948 0.0000000000
0.0975661538 0.0097329861 0.0000000000
0.1192083406 0.0086587165 0.0000000000
0.1429459438 0.0077620934 0.0000000000
0.1683986934 0.0071611538 0.0000000000
0.1951753934 0.0065676332 0.0000000000
0.2226400628 0.0059864931 0.0000000000
0.2505348375 0.0056587219 0.0000000000
0.2786873763 0.0053543194 0.0000000000
0.3069478795 0.0048110757 0.0000000000
0.3362564993 0.0044770577 0.0000000000
0.3664072567 0.0042017742 0.0000000000
0.3977107861 0.0039658429 0.0000000000
0.4296641633 0.0034276965 0.0000000000
0.4626188259 0.0030048790 0.0000000000
0.4967153079 0.0027049591 0.0000000000
0.5317961938 0.0023660000 0.0000000000
0.5698885831 0.0023660000 0.0000000000
0.6095551539 0.0023660000 0.0000000000
0.6492622745 0.0023660000 0.0000000000
0.6889761606 0.0023723801 0.0000000000
0.7303625100 0.0027473541 0.0000000000
0.7738163909 0.0037315748 0.0000000000
0.8191080623 0.0055245314 0.0000000000
0.8657336426 0.0084306875 0.0000000000
0.9147452779 0.0126656683 0.0000000000
0.9830410000 0.0212920000 0.0000000000
0.0151062088 0.0242509104 0.0166747775
0.0290809492 0.0280888480 0.0187986711
0.0435966230 0.0324055328 0.0212850714
0.0603465071 0.0344107981 0.0225858517
0.0794304379 0.0351228410 0.0222837219
0.1001781385 0.0352431857 0.0214393549
0.1233579674 0.0352659448 0.0204947260
0.1508012899 0.0351377628 0.0189817151
0.1795045201 0.0353586470 0.0170437197
0.2085996888 0.0355979234 0.0156960668
0.2379216494 0.0362350957 0.0140506368
0.2681355740 0.0368945786 0.0126374960
0.2990675599 0.0375223521 0.0120920052
0.3296769468 0.0382141254 0.0113010486
0.3601788812 0.0388038284 0.0106691432
0.3900527649 0.0393858878 0.0098341892
0.4204793523 0.0396552245 0.0083094433
0.4506553483 0.0399951814 0.0073122877
0.4817073471 0.0403377291 0.0060247947
0.5143793314 0.0401423124 0.0036209046
0.5473299186 0.0400215017 0.0025564175
0.5808925532 0.0396541815 0.0015250354
0.6148829389 0.0396323267 0.0011810912
0.6509190894 0.0396249685 0.0009365806
0.6871547707 0.0400607683 0.0009365806
0.7236226046 0.0407333511 0.0007649830
0.7602170062 0.0418677335 0.0004685872
0.7977282385 0.0433362468 0.0004685872
0.8366791424 0.0459060590 0.0004685872
0.8773785965 0.0489069089 0.0004685872
0.9181668534 0.0536567440 0.0005148152
0.9584729475 0.0600610816 0.0009678197
0.9972386243 0.0725367652 0.0009678197
0.0219920064 0.0467983532 0.0252674703
0.0389981097 0.0529994023 0.0280998499
0.0545097995 0.0583629111 0.0311611670
0.0723717483 0.0611545956 0.0327540145
0.0951515310 0.0626651528 0.0336502018
0.1199038546 0.0636999262 0.0334890656
0.1466648377 0.0644492256 0.0329189518
0.1766405183 0.0648482035 0.0322656314
0.2074690355 0.0657053060 0.0314847806
0.2383417282 0.0665843247 0.0305008333
0.2696085751 0.0675412047 0.0296888362
0.3014463213 0.0686996228 0.0285503314
0.3338166358 0.0694504351 0.0279031598
0.3660106701 0.0701539313 0.0269841407
0.3979380247 0.0708212961 0.0257824255
0.4295312685 0.0712636110 0.0243568850
0.4610973451 0.0713680598 0.0223774970
0.4927927786 0.0714456084 0.0205592631
0.5251709091 0.0715534218 0.0187620908
0.5580820342 0.0714398174 0.0165116826
0.5911786952 0.0712327615 0.0139895959
0.6242997345 0.0710729713 0.0116444257
0.6573313208 0.0710640723 0.0096920149
0.6916035639 0.0712100850 0.0079955123
0.7263216143 0.0716735040 0.0064781866
0.7609815891 0.0727469022 0.0052980853
0.7958028593 0.0741801385 0.0039645273
0.8313440217 0.0762826629 0.0033375610
0.8679569186 0.0793932369 0.0031081514
0.9057239832 0.0835837337 0.0036257289
0.9434563705 0.0891650899 0.0039978342
0.9777568855 0.0965168780 0.0046132973
0.9996472657 0.1103849305 0.0055652461
0.0233586125 0.0714472689 0.0286685095
0.0428057278 0.0791311555 0.0322168968
0.0608782051 0.0854880229 0.0361078291
0.0791387516 0.0892509511 0.0382530898
0.1007995470 0.0910813689 0.0387211727
0.1276339828 0.0920152166 0.0390702274
0.1566188440 0.0927852876 0.0388078211
0.1868246768 0.0936848651 0.0382522377
0.2181834389 0.0949048344 0.0375894716
0.2507156175 0.0961563896 0.0367090745
0.2833662071 0.0974082951 0.0359494081
0.3165105347 0.0987125552 0.0350757400
0.3499006611 0.0997110200 0.0344760840
0.3828886861 0.1005901523 0.0337443947
0.4154964393 0.1013114408 0.0326279740
0.4474913473 0.1018300552 0.0312077268
0.4794694299 0.1021185874 0.0297950761
0.5115079729 0.1021689529 0.0278806406
0.5440196862 0.1021689529 0.0261254547
0.5767001846 0.1021689529 0.0241805346
0.6097209894 0.1020862183 0.0221286393
0.6426804824 0.1019909266 0.0199178209
0.6752825446 0.1019676923 0.0176066185
0.7089953582 0.1020217688 0.0156772854
0.7431148357 0.1025002061 0.0137665479
0.7771881587 0.1035747115 0.0126074347
0.8113710280 0.1050978158 0.0111100344
0.8463438408 0.1072451124 0.0103574349
0.8821040059 0.1104653954 0.0101174862
0.9188432801 0.1147363846 0.0103979121
0.9551500997 0.1206467049 0.0113186725
0.9858530429 0.1283447258 0.0119806378
0.9999691368 0.1425214158 0.0142131730
0.0236570000 0.0994088535 0.0312871899
0.0449494044 0.1078019701 0.0351001590
0.0645153902 0.1142312000 0.0387807336
0.0838368147 0.1180342821 0.0407851500
0.1040977400 0.1205311430 0.0411720322
0.1286353466 0.1217437000 0.0409814179
0.1584900843 0.1221156509 0.0408940424
0.1910078763 0.1225196568 0.0406453625
0.2231714782 0.1237163081 0.0404128691
0.2556399918 0.1253808616 0.0398080790
0.2892503060 0.1270169374 0.0389111727
0.3232278185 0.1286890743 0.0382691242
0.3575896374 0.1301818576 0.0376862220
0.3918185934 0.1315267237 0.0370576232
0.4249422415 0.1324263618 0.0363140691
0.4572788584 0.1330841581 0.0352082319
0.4895345697 0.1337847936 0.0341621113
0.5217080268 0.1340862973 0.0328496051
0.5541601129 0.1342145693 0.0312536484
0.5866538893 0.1343793740 0.0294820119
0.6191956659 0.1344648725 0.0277071619
0.6519180053 0.1345038400 0.0259236548
0.6842308287 0.1345144478 0.0239519553
0.7175920099 0.1346330006 0.0222377591
0.7513163302 0.1351263237 0.0205206658
0.7850007401 0.1360746697 0.0193975696
0.8188709649 0.1375508296 0.0182359997
0.8536556520 0.1396954498 0.0178071248
0.8891929964 0.1428322363 0.0177222290
0.9256044672 0.1470804706 0.0181489490
0.9613929327 0.1529351602 0.0192664854
0.9898966502 0.1606077277 0.0205009922
1.0000000000 0.1746605550 0.0235001895
0.0229940283 0.1301748935 0.0331579232
0.0460118327 0.1387094502 0.0364660906
0.0665651950 0.1450876764 0.0400356337
0.0867165696 0.1486053933 0.0416849828
0.1074736603 0.1506481009 0.0420490212
0.1293896628 0.1523453399 0.0413289710
0.1560728457 0.1530070633 0.0407369636
0.1886928666 0.1530345977 0.0405399378
0.2231041583 0.1535386212 0.0405399378
0.2572217074 0.1548013984 0.0407240225
0.2907322356 0.1567152107 0.0402995882
0.3248467929 0.1588619131 0.0397774957
0.3593766220 0.1609052092 0.0394410985
0.3940007752 0.1627967274 0.0388915440
0.4283019688 0.1643800155 0.0383758539
0.4611990993 0.1653250867 0.0377874146
0.4940370939 0.1664250930 0.0370948536
0.5266929559 0.1673127402 0.0362825299
0.5592524212 0.1677485781 0.0351883865
0.5918370063 0.1682354375 0.0338719355
0.6243715040 0.1685952561 0.0325973069
0.6567135705 0.1688248855 0.0310819717
0.6888245646 0.1689759331 0.0295235543
0.7218980687 0.1692579058 0.0281203800
0.7553283289 0.1698145970 0.0267371488
0.7886908760 0.1706389347 0.0255901681
0.8223497262 0.1720394065 0.0247212744
0.8569825148 0.1741934041 0.0245345809
0.8925038258 0.1771951440 0.0246559217
0.9289301036 0.1813886435 0.0252134997
0.9644681964 0.1869728349 0.0266030291
0.9916893378 0.1944482503 0.0282286427
1.0000000000 0.2083682173 0.0318746291
0.0211091766 0.1625933118 0.0336622914
0.0451730028 0.1710398364 0.0365246089
0.0669267883 0.1773404646 0.0398716209
0.0880178634 0.1805199550 0.0412284125
0.1094352211 0.1820658423 0.0418041462
0.1319612364 0.1830190828 0.0415066259
0.1554963158 0.1842346438 0.0403508858
0.1839035903 0.1846362520 0.0396786007
0.2170995080 0.1849330325 0.0393413633
0.2529737187 0.1855146603 0.0396680012
0.2889389510 0.1867834623 0.0403212099
0.3233958858 0.1887931308 0.0402079802
0.3578858804 0.1911358892 0.0402955634
0.3923461633 0.1935142607 0.0401225840
0.4265954341 0.1957640728 0.0397523907
0.4602891698 0.1975262365 0.0395488034
0.4936670797 0.1991709153 0.0391884112
0.5270425913 0.2006567379 0.0387357350
0.5602486703 0.2016933218 0.0380950932
0.5932406268 0.2026751921 0.0372486053
0.6261304537 0.2034833695 0.0364757618
0.6587905029 0.2041206318 0.0357582114
0.6909323531 0.2045721994 0.0344907971
0.7239192179 0.2050219326 0.0334245801
0.7572424870 0.2056935376 0.0324447664
0.7904641205 0.2065618718 0.0315103374
0.8240539215 0.2080421337 0.0309881190
0.8585467374 0.2101127339 0.0304529031
0.8940851274 0.2131104852 0.0306729262
0.9306084683 0.2171526476 0.0312401184
0.9660113106 0.2226439329 0.0325875855
0.9923565705 0.2299958374 0.0344782571
1.0000000000 0.2437121561 0.0385885489
0.0185410385 0.1956717564 0.0331321928
0.0441694135 0.2036756680 0.0361966982
0.0665223394 0.2097575197 0.0396173776
0.0883495016 0.2125884520 0.0407577596
0.1104071335 0.2137380419 0.0414184063
0.1334157929 0.2142215256 0.0415249077
0.1573990787 0.2146401143 0.0408729220
0.1823417087 0.2153225344 0.0396651329
0.2112035798 0.2159295737 0.0385635994
0.2445450010 0.2164929028 0.0383987539
0.2810267359 0.2172864961 0.0391169307
0.3182415210 0.2186929997 0.0401468925
0.3538107893 0.2206952785 0.0405791061
0.3888020490 0.2231304503 0.0408476898
0.4231889749 0.2257281153 0.0409313530
0.4567921054 0.2282700084 0.0408143258
0.4903083337 0.2304566424 0.0407946845
0.5239132083 0.2325023882 0.0407366937
0.5577226103 0.2344213623 0.0406187280
0.5913701513 0.2360792345 0.0400835998
0.6249418199 0.2375458827 0.0395839527
0.6582714919 0.2387982688 0.0391084808
0.6909733884 0.2398381987 0.0384643915
0.7243921717 0.2406331991 0.0377626301
0.7579794354 0.2415240527 0.0372741539
0.7914265130 0.2426993903 0.0364778996
0.8251038857 0.2442591268 0.0362457437
0.8596757913 0.2464728932 0.0360686854
0.8952844915 0.2495617554 0.0362399545
0.9318745110 0.2536986497 0.0363864048
0.9670128243 0.2590832295 0.0376061824
0.9927019477 0.2663530400 0.0396398715
1.0000000000 0.2801320253 0.0430732230
0.0159662192 0.2290782363 0.0331200000
0.0435434367 0.2367508017 0.0361943534
0.0668226188 0.2424658849 0.0396023890
0.0891362625 0.2445620146 0.0407549691
0.1112333607 0.2454165576 0.0409940000
0.1344676799 0.2455617455 0.0411391215
0.1588293056 0.2455411263 0.0409381318
0.1836776473 0.2457136399 0.0402957020
0.2094011188 0.2465507316 0.0390709033
0.2385371243 0.2472473845 0.0382072818
0.2716431073 0.2479421419 0.0382118738
0.3076173781 0.2489399105 0.0389035693
0.3452510369 0.2505886634 0.0400440947
0.3817953403 0.2527641572 0.0409031176
0.4173201502 0.2552471102 0.0415608851
0.4516357556 0.2578411552 0.0420589324
0.4853673836 0.2605919457 0.0424715079
0.5191168374 0.2631688733 0.0427477812
0.5530331108 0.2657310567 0.0429473097
0.5873008518 0.2681938979 0.0430417532
0.6214373827 0.2704197376 0.0428429343
0.6553872619 0.2724420654 0.0425574558
0.6887691272 0.2741577590 0.0420611752
0.7230671124 0.2757731372 0.0415735509
0.7573268194 0.2771740038 0.0411073518
0.7913376899 0.2787880483 0.0405916590
0.8254422748 0.2807317668 0.0402652816
0.8604302636 0.2832863278 0.0402627715
0.8963487317 0.2866207598 0.0406070199
0.9330516679 0.2908999680 0.0410130012
0.9680249372 0.2964754074 0.0423179945
0.9930443786 0.3039298118 0.0441096996
1.0000000000 0.3178454243 0.0482874352
0.0142862292 0.2621519111 0.0331200000
0.0427054663 0.2692428672 0.0364741361
0.0670162216 0.2746113287 0.0399506356
0.0899234120 0.2765370744 0.0410978374
0.1125890194 0.2769755013 0.0413368683
0.1357347002 0.2767897953 0.0411669975
0.1601084199 0.2763602589 0.0409906155
0.1851143046 0.2761944748 0.0407890678
0.2104478103 0.2765540438 0.0401837374
0.2365571404 0.2772816020 0.0391942192
0.2658085146 0.2779684994 0.0385891233
0.2986095468 0.2788149611 0.0386276213
0.3340426003 0.2801834883 0.0391445151
0.3716515913 0.2819588599 0.0402833835
0.4084815834 0.2842389548 0.0413532018
0.4441458837 0.2867788192 0.0422990197
0.4791410273 0.2895630081 0.0434098499
0.5133281054 0.2924534014 0.0440447293
0.5476645965 0.2953546278 0.0445597962
0.5823284016 0.2985246625 0.0452613016
0.6169506842 0.3014295611 0.0455135450
0.6514204974 0.3041825061 0.0455825499
0.6853889203 0.3066279926 0.0454496068
0.7203722462 0.3090514359 0.0452967460
0.7554588996 0.3112887957 0.0450047779
0.7901807752 0.3135902808 0.0445043105
0.8249485189 0.3161331616 0.0443773355
0.8605412921 0.3192584831 0.0446782973
0.8969958226 0.3231334275 0.0451007283
0.9339721534 0.3276974220 0.0457375038
0.9689012161 0.3336482883 0.0471741620
0.9933898300 0.3414016761 0.0493432776
1.0000000000 0.3557011119 0.0543283329
0.0129644332 0.2949848172 0.0336885111
0.0423809857 0.3015691434 0.0368005788
0.0673311570 0.3066915140 0.0404811325
0.0908773369 0.3083354734 0.0416214896
0.1140063144 0.3085673517 0.0418580975
0.1372756430 0.3081296971 0.0416973116
0.1613875905 0.3073371247 0.0413158181
0.1864089186 0.3067752268 0.0412700612
0.2118448613 0.3068043971 0.0410388065
0.2372383751 0.3072046952 0.0404366623
0.2636118805 0.3078054756 0.0395936165
0.2929367837 0.3085667383 0.0389862654
0.3251899197 0.3097065529 0.0390359780
0.3602466482 0.3112149845 0.0395787694
0.3975600986 0.3131419944 0.0407397128
0.4341104268 0.3155251847 0.0419333258
0.4704757941 0.3181489726 0.0432198618
0.5059934538 0.3210842509 0.0446170738
0.5410720138 0.3241696662 0.0456009401
0.5765640484 0.3276038091 0.0467031044
0.6118703640 0.3311611427 0.0476765315
0.6468023335 0.3345610259 0.0482023138
0.6812884605 0.3377279673 0.0485768350
0.7168877485 0.3409318424 0.0488451167
0.7526617828 0.3440736678 0.0488251840
0.7880449534 0.3471973975 0.0486426301
0.8234857171 0.3505400194 0.0488137836
0.8598059745 0.3544679245 0.0494179234
0.8968911917 0.3590274912 0.0499458444
0.9343557972 0.3641352292 0.0509385062
0.9695310336 0.3706779581 0.0525157554
0.9936498142 0.3788107719 0.0552551078
1.0000000000 0.3936065783 0.0610298563
0.0120205964 0.3274448924 0.0346203219
0.0420506073 0.3337850026 0.0378677492
0.0681053455 0.3386076613 0.0412427935
0.0921466732 0.3400477555 0.0423720569
0.1156318544 0.3401315217 0.0426058820
0.1391676928 0.3394551500 0.0422866629
0.1628830822 0.3384681782 0.0419088758
0.1877548291 0.3375424061 0.0418248276
0.2130816884 0.3372188932 0.0417453147
0.2384800053 0.3372913072 0.0414207530
0.2638592774 0.3376849050 0.0408118192
0.2905233111 0.3383019442 0.0397923930
0.3198067289 0.3392425551 0.0394750696
0.3517599431 0.3404938541 0.0396090717
0.3862049496 0.3420938935 0.0400839610
0.4228335439 0.3442184087 0.0412841445
0.4595134205 0.3466651357 0.0426485039
0.4965271944 0.3494313364 0.0440706714
0.5327828660 0.3525751134 0.0458098527
0.5693715877 0.3561395696 0.0474781549
0.6057506149 0.3599387226 0.0489854832
0.6416422453 0.3638730419 0.0503227338
0.6766301289 0.3676957270 0.0512901580
0.7128849999 0.3716301501 0.0520973717
0.7492127673 0.3756310484 0.0525803463
0.7851422607 0.3796367797 0.0529816383
0.8211401917 0.3838932229 0.0535827395
0.8581796785 0.3887707134 0.0543210040
0.8958395354 0.3940951366 0.0553162760
0.9339950598 0.4000129514 0.0566308016
0.9696059721 0.4072021719 0.0587378352
0.9937682270 0.4160318665 0.0618261160
1.0000000000 0.4313692063 0.0684164604
0.0118326538 0.3592631207 0.0352256376
0.0422254536 0.3656402555 0.0390715592
0.0689938573 0.3701423345 0.0424226274
0.0936340541 0.3713439583 0.0435302657
0.1174761676 0.3713514270 0.0437569622
0.1411717730 0.3706618230 0.0433752178
0.1648749778 0.3694868586 0.0425019974
0.1893647834 0.3683603685 0.0423011735
0.2143791597 0.3677613529 0.0422591555
0.2395407201 0.3675200050 0.0420528192
0.2647950729 0.3675913724 0.0416029045
0.2902866576 0.3679884778 0.0409894680
0.3173591665 0.3687693140 0.0404164222
0.3466922740 0.3697876099 0.0402206028
0.3781648443 0.3710857505 0.0403139893
0.4119705508 0.3727607087 0.0406316344
0.4480869971 0.3750211089 0.0419261946
0.4850031864 0.3776409345 0.0434219432
0.5225892440 0.3807110364 0.0449667891
0.5603851964 0.3843011155 0.0471860981
0.5980242360 0.3881933028 0.0493707243
0.6351953749 0.3923444851 0.0514280419
0.6713848227 0.3966072160 0.0533743246
0.7084710171 0.4012212558 0.0549020897
0.7453185841 0.4059653217 0.0563002511
0.7817453623 0.4108830610 0.0573726193
0.8181821029 0.4160284977 0.0584571051
0.8556221747 0.4217846394 0.0596136947
0.8939539174 0.4280793287 0.0609593894
0.9327926698 0.4350157164 0.0626845105
0.9689663067 0.4429660696 0.0654280628
0.9936364396 0.4525593067 0.0690093527
1.0000000000 0.4687213065 0.0766087232
0.0124279369 0.3903957235 0.0369943716
0.0429550259 0.3967236897 0.0407044054
0.0704093073 0.4012223401 0.0438661701
0.0953006295 0.4024215749 0.0449586042
0.1193962911 0.4022032623 0.0449460868
0.1432100201 0.4014087082 0.0444360568
0.1669055213 0.4002187780 0.0434920396
0.1910441400 0.3990853194 0.0429745261
0.2157727483 0.3980859008 0.0428303241
0.2407565525 0.3975017521 0.0428089000
0.2658063471 0.3972879796 0.0425833609
0.2910017244 0.3974844768 0.0421218420
0.3166708958 0.3979552071 0.0415629445
0.3440026746 0.3987466956 0.0410088187
0.3732605497 0.3998044330 0.0407463908
0.4040975211 0.4011664965 0.0406499774
0.4378435051 0.4031083441 0.0412746146
0.4737608127 0.4055225852 0.0424736282
0.5108916572 0.4083826354 0.0438596984
0.5496688098 0.4118466069 0.0462348842
0.5884573296 0.4157528499 0.0486229470
0.6269687006 0.4200082992 0.0510774566
0.6645813572 0.4245008628 0.0537686506
0.7030494697 0.4295581809 0.0563712227
0.7409063219 0.4348546826 0.0589121218
0.7779255740 0.4404475923 0.0608134623
0.8147670239 0.4463613085 0.0627169954
0.8525654738 0.4530053127 0.0646402636
0.8913027307 0.4602860948 0.0667348082
0.9306243577 0.4681562901 0.0690815612
0.9675463881 0.4770583469 0.0722868406
0.9931387948 0.4874540635 0.0766059561
1.0000000000 0.5045630811 0.0849489898
0.0130087096 0.4212409239 0.0389472618
0.0437535745 0.4275324963 0.0423113805
0.0713733059 0.4321154325 0.0454387376
0.0967253883 0.4333017491 0.0462462320
0.1210601415 0.4330783987 0.0461004745
0.1451346030 0.4321566181 0.0454909060
0.1689067254 0.4309239184 0.0445199190
0.1928228809 0.4296683559 0.0439030906
0.2172127815 0.4285408008 0.0435513196
0.2419817216 0.4276322420 0.0434517363
0.2669172807 0.4271235463 0.0434016008
0.2919550071 0.4270785178 0.0430903074
0.3171821036 0.4272882973 0.0426584250
0.3430747677 0.4277786873 0.0419781160
0.3704404921 0.4286169001 0.0414372957
0.3993044787 0.4297541609 0.0411023567
0.4299672947 0.4312428156 0.0411498861
0.4639056666 0.4333513588 0.0418351236
0.4999126460 0.4359703582 0.0429384053
0.5380380836 0.4392318869 0.0448736652
0.5776329879 0.4430249474 0.0474327807
0.6172808975 0.4473138119 0.0500833166
0.6562302716 0.4519497727 0.0531986888
0.6962562700 0.4572591453 0.0565580452
0.7354835178 0.4629460952 0.0600548027
0.7734672037 0.4690348846 0.0631010676
0.8109608435 0.4755733426 0.0660420996
0.8492122217 0.4829532601 0.0690551022
0.8883072538 0.4910964542 0.0721587336
0.9279249106 0.4996931056 0.0750260160
0.9656507758 0.5095958842 0.0789731607
0.9924054712 0.5207818127 0.0837605376
1.0000000000 0.5388971311 0.0926565261
0.0135755478 0.4517772457 0.0408417622
0.0444139814 0.4582091222 0.0439967466
0.0722926694 0.4626944209 0.0469837816
0.0979293956 0.4639608950 0.0476531276
0.1225325651 0.4637560523 0.0473364990
0.1468162742 0.4628485058 0.0466287099
0.1708505031 0.4615679276 0.0456431034
0.1946478788 0.4602004428 0.0449179974
0.2187991615 0.4589397110 0.0444118657
0.2432812752 0.4578594528 0.0442314882
0.2680086130 0.4570334782 0.0440935202
0.2929791577 0.4567140455 0.0439298327
0.3179615557 0.4566792974 0.0435998557
0.3434174871 0.4569247539 0.0430412288
0.3692749119 0.4574497248 0.0423690171
0.3964063296 0.4583793792 0.0418456523
0.4253362343 0.4596372108 0.0416067059
0.4560749462 0.4612334807 0.0416416300
0.4903668827 0.4635522893 0.0423399928
0.5272615659 0.4665609818 0.0438420264
0.5661381573 0.4701140271 0.0458254735
0.6064749868 0.4742769512 0.0486324644
0.6466354568 0.4789805472 0.0519170705
0.6881731436 0.4844227968 0.0557392183
0.7289594123 0.4903770320 0.0599941344
0.7682165114 0.4968185884 0.0642379736
0.8066406188 0.5037845131 0.0682911375
0.8455434933 0.5116836215 0.0726259711
0.8849470488 0.5203440702 0.0765199247
0.9248870010 0.5297735336 0.0803835699
0.9631734426 0.5403891856 0.0850599972
0.9914329084 0.5525047646 0.0905951008
1.0000000000 0.5716178284 0.0999453940
0.0141261886 0.4819169237 0.0424121671
0.0449514382 0.4884491320 0.0459278547
0.0731137667 0.4929143752 0.0485170043
0.0990307028 0.4942485231 0.0491029378
0.1238909082 0.4941245762 0.0487192212
0.1483743002 0.4932859779 0.0479540840
0.1725899917 0.4920565602 0.0470292045
0.1965061457 0.4906293046 0.0460536640
0.2204741906 0.4892571762 0.0453351884
0.2447312420 0.4880315732 0.0450476398
0.2692426414 0.4870284208 0.0449554250
0.2939349833 0.4863275400 0.0446523958
0.3188531266 0.4860267428 0.0444102915
0.3440170790 0.4860426270 0.0439542430
0.3694521407 0.4863429490 0.0433978655
0.3949757055 0.4869258472 0.0428855623
0.4223592176 0.4879793424 0.0423778619
0.4514963954 0.4893609189 0.0421214249
0.4826425167 0.4911482670 0.0421416259
0.5179416618 0.4938474266 0.0431560462
0.5556013874 0.4971130583 0.0446013646
0.5952168110 0.5009970922 0.0467380208
0.6358764521 0.5055429162 0.0500778525
0.6787776823 0.5109770861 0.0539120761
0.7212224682 0.5170821929 0.0586890266
0.7619682365 0.5237489320 0.0640911855
0.8015215113 0.5309260201 0.0690947814
0.8411789183 0.5390860803 0.0743462650
0.8812121070 0.5481612114 0.0797325313
0.9215668956 0.5581965445 0.0848740844
0.9603720215 0.5693695532 0.0903611234
0.9899711857 0.5821374441 0.0965746422
1.0000000000 0.6022861355 0.1069544030
0.0144486331 0.5118991935 0.0443666941
0.0453354708 0.5186394684 0.0478350083
0.0740562550 0.5230995499 0.0503095811
0.1003158861 0.5245567006 0.0507155944
0.1254867104 0.5245501083 0.0504998761
0.1501413290 0.5237765709 0.0497030864
0.1744972342 0.5226050468 0.0487169771
0.1985713657 0.5212910645 0.0474973949
0.2224621782 0.5198335721 0.0466649839
0.2465470098 0.5185135020 0.0461075952
0.2708805656 0.5173481310 0.0458565857
0.2953867039 0.5164172389 0.0454167623
0.3201057032 0.5158348081 0.0453662389
0.3450748665 0.5155552176 0.0450647305
0.3701423993 0.5156327510 0.0445120634
0.3952169489 0.5159962034 0.0438977762
0.4209345190 0.5166615869 0.0434001698
0.4485854426 0.5177706788 0.0428939367
0.4781521171 0.5192486512 0.0426274067
0.5104391615 0.5213796519 0.0426935413
0.5463491902 0.5242906854 0.0437758387
0.5847951416 0.5278553710 0.0453499602
0.6248110291 0.5321041727 0.0480003227
0.6678600359 0.5372907776 0.0515488400
0.7113474065 0.5433097665 0.0564104982
0.7536255642 0.5499655612 0.0620593922
0.7947055703 0.5572041115 0.0681548959
0.8357577154 0.5654554415 0.0746441407
0.8768462164 0.5747110684 0.0814579162
0.9177584190 0.5849345542 0.0877698827
0.9573557123 0.5965619930 0.0944323213
0.9884149430 0.6098152664 0.1015884554
1.0000000000 0.6307598800 0.1130894149
0.0148512464 0.5419989087 0.0463729609
0.0460370820 0.5489790801 0.0500476206
0.0750075221 0.5535817554 0.0524521366
0.1016234337 0.5551082377 0.0528046203
0.1270993621 0.5552661791 0.0523299975
0.1520968030 0.5546670199 0.0516749746
0.1766077928 0.5535506192 0.0506449547
0.2008556564 0.5523102275 0.0493408453
0.2248753601 0.5509341985 0.0482813949
0.2487801232 0.5495473432 0.0474797299
0.2729160469 0.5482699170 0.0470477806
0.2972353729 0.5471364964 0.0465107655
0.3218261612 0.5463147100 0.0463894645
0.3466183988 0.5457600040 0.0462012154
0.3714153382 0.5455108017 0.0458227883
0.3961018265 0.5456534875 0.0451636506
0.4212670687 0.5460666367 0.0446328170
