bundles/resolve-cinematic-luts/Gamut/Le Reve/Color - Le Reve V.cube
TITLE "Contrast - Le Reve V by Le Reve Films"
# Version 1.0 - 01/22/2022 - Designed for Rec.709 Color Space. Copyright 2023 Gamut, LLC
# 
LUT_3D_SIZE 5
0.0000000000 0.0000000000 0.0000000000
0.1192083406 0.0086587165 0.0000000000
0.3362564993 0.0044770577 0.0000000000
0.6095551539 0.0023660000 0.0000000000
0.9830410000 0.0212920000 0.0000000000
0.0159662192 0.2290782363 0.0331200000
0.2094011188 0.2465507316 0.0390709033
0.4853673836 0.2605919457 0.0424715079
0.7573268194 0.2771740038 0.0411073518
1.0000000000 0.3178454243 0.0482874352
0.0141261886 0.4819169237 0.0424121671
0.2204741906 0.4892571762 0.0453351884
0.4223592176 0.4879793424 0.0423778619
0.7212224682 0.5170821929 0.0586890266
1.0000000000 0.6022861355 0.1069544030
0.0254946263 0.7377855704 0.0725967287
0.2507918019 0.7519824942 0.0717487838
0.4403925160 0.7408257924 0.0602296580
0.6567085941 0.7413571913 0.0515356397
0.9994917376 0.8069932985 0.1224302884
0.1086230000 1.0000000000 0.2460690000
0.4007468489 1.0000000000 0.2485605241
0.6356919901 1.0000000000 0.3306686474
0.7979875862 0.9928859726 0.4516641585
0.9533850000 0.9905500000 0.6244540000
0.0132166324 0.0035355528 0.0594610378
0.1219817446 0.0126017165 0.1262366409
0.3569823767 0.0048350855 0.1368478549
0.6469221547 0.0018104302 0.1155845413
0.9987157269 0.0268120000 0.1002240817
0.0342688644 0.2289307092 0.2536728013
0.2493361721 0.2497412756 0.2527851005
0.5019929592 0.2581451183 0.2309746659
0.7594043101 0.2788747258 0.2127818093
1.0000000000 0.3353022618 0.2000428089
0.0287663842 0.4739932094 0.2863621927
0.2583197100 0.4968805566 0.2810984564
0.4713661085 0.4979623875 0.2731520248
0.7602458989 0.5342439731 0.3041453088
1.0000000000 0.6032243924 0.3384337748
0.0378832015 0.7368709202 0.3292927312
0.2841189792 0.7590251051 0.3270978605
0.4908990053 0.7514442279 0.3064825894
0.6923340417 0.7440083921 0.2873475220
1.0000000000 0.8280048590 0.3969102381
0.1284647549 1.0000000000 0.5090226938
0.4596643217 1.0000000000 0.5266148277
0.7002854345 1.0000000000 0.5961747718
0.8328618752 0.9920142722 0.6499423090
0.9679364023 0.9936020669 0.7595126330
0.0206642688 0.0063090000 0.1708880175
0.1237857035 0.0149342324 0.2924247141
0.3442894410 0.0076032497 0.3500133683
0.6312381992 0.0000000000 0.3649838624
0.9977393943 0.0213345319 0.3648634721
0.0469831214 0.2273188320 0.4583366906
0.2729759795 0.2450861529 0.4601743898
0.4782209737 0.2537922780 0.4804547484
0.7492068191 0.2656807596 0.4607961352
1.0000000000 0.3339570817 0.4504146709
0.0427699410 0.4643158605 0.5037088977
0.2816038434 0.4869194995 0.5044547759
0.5009269678 0.4994218531 0.5028836549
0.7597232357 0.5208487143 0.4923724778
1.0000000000 0.6030210690 0.5086138570
0.0457509317 0.7236182235 0.5523032581
0.2952348971 0.7482246229 0.5538870538
0.5206645653 0.7535002319 0.5419152514
0.7244532249 0.7487714379 0.5257400136
1.0000000000 0.8381926590 0.6254599590
0.1497545940 1.0000000000 0.7247473435
0.5065310031 1.0000000000 0.7322012481
0.7328328384 0.9999889626 0.7602241840
0.8612810712 0.9937730950 0.7834550841
0.9801105761 0.9971463529 0.8507551749
0.0221643735 0.0031250334 0.3399872846
0.1388899502 0.0125769226 0.4820680426
0.3320758701 0.0081051782 0.5755263258
0.6183367087 0.0000000000 0.6252248857
0.9763176329 0.0154228334 0.6541556398
0.0608894538 0.2250908029 0.6829525164
0.2973812178 0.2353957595 0.6763302004
0.4515237416 0.2500382762 0.6922630593
0.7140574202 0.2596284397 0.7185242646
1.0000000000 0.3161378661 0.7385088825
0.0588721186 0.4619091958 0.7150487136
0.3139842441 0.4758273130 0.7126053129
0.5237131143 0.4916259869 0.7129941857
0.7357725879 0.5103150980 0.7371168381
1.0000000000 0.5924677805 0.7627354426
0.0590112208 0.7171379470 0.7602562929
0.3156559468 0.7287550384 0.7556327472
0.5389074444 0.7386892174 0.7529565776
0.7509826314 0.7495999488 0.7507616837
1.0000000000 0.8168701731 0.7794661447
0.1901034812 1.0000000000 0.8922440261
0.5488330508 0.9998347057 0.8733744635
0.7511036249 0.9963562578 0.8789033495
0.8794192336 0.9926781214 0.8892311634
0.9899167740 0.9998019633 0.9214891059
0.0362740000 0.0000000000 0.6709400000
0.2088206418 0.0034779385 0.7769550268
0.3457914448 0.0139400577 0.8620579716
0.5939186511 0.0052895040 0.9126241998
0.9582840000 0.0244460000 0.9639120000
0.0998166894 0.2265216569 0.9518887507
0.3511439805 0.2319163798 0.9437917367
0.5063226576 0.2483212533 0.9433956945
0.6742123692 0.2624687543 0.9698650356
0.9999460000 0.3164499393 1.0000000000
0.1053271846 0.4656737678 0.9718590095
0.3727480516 0.4732683142 0.9666394834
0.5719975328 0.4839281082 0.9624527107
0.7160634409 0.5029171480 0.9697229230
1.0000000000 0.5692755841 1.0000000000
0.1097131302 0.7204068106 0.9924496425
0.3813758623 0.7232878037 0.9866608024
0.5895783175 0.7267974261 0.9814182245
0.7770551282 0.7362666644 0.9765441497
0.9985492862 0.7849593013 0.9990106326
0.3063370000 1.0000000000 1.0000000000
0.6298017685 0.9830476705 0.9985215522
0.7851162967 0.9803090986 0.9912799752
0.9018555282 0.9871648718 0.9927290077
1.0000000000 1.0000000000 1.0000000000
