bundles/resolve-cinematic-luts/Gamut/Le Reve/Contrast - Le Reve IV.cube
TITLE "Le Reve IV by Le Reve Films"
# Version 1.0 - 01/22/2022 - Designed for Rec.709 Color Space. Copyright 2023 Gamut, LLC
# 
LUT_3D_SIZE 5
0.0000000000 0.0000000000 0.0000000000
0.1885382500 0.0000000000 0.0000000000
0.5492525000 0.0000000000 0.0000000000
0.8501432500 0.0000000000 0.0000000000
1.0000000000 0.0000000000 0.0000000000
0.0000000000 0.2034292500 0.0000000000
0.1885382500 0.2034292500 0.0000000000
0.5492525000 0.2034292500 0.0000000000
0.8501432500 0.2034292500 0.0000000000
1.0000000000 0.2034292500 0.0000000000
0.0000000000 0.5619660000 0.0000000000
0.1885382500 0.5619660000 0.0000000000
0.5492525000 0.5619660000 0.0000000000
0.8501432500 0.5619660000 0.0000000000
1.0000000000 0.5619660000 0.0000000000
0.0000000000 0.8513710000 0.0000000000
0.1885382500 0.8513710000 0.0000000000
0.5492525000 0.8513710000 0.0000000000
0.8501432500 0.8513710000 0.0000000000
1.0000000000 0.8513710000 0.0000000000
0.0000000000 1.0000000000 0.0000000000
0.1885382500 1.0000000000 0.0000000000
0.5492525000 1.0000000000 0.0000000000
0.8501432500 1.0000000000 0.0000000000
1.0000000000 1.0000000000 0.0000000000
0.0000000000 0.0000000000 0.2240552500
0.1885382500 0.0000000000 0.2240552500
0.5492525000 0.0000000000 0.2240552500
0.8501432500 0.0000000000 0.2240552500
1.0000000000 0.0000000000 0.2240552500
0.0000000000 0.2034292500 0.2240552500
0.1885382500 0.2034292500 0.2240552500
0.5492525000 0.2034292500 0.2240552500
0.8501432500 0.2034292500 0.2240552500
1.0000000000 0.2034292500 0.2240552500
0.0000000000 0.5619660000 0.2240552500
0.1885382500 0.5619660000 0.2240552500
0.5492525000 0.5619660000 0.2240552500
0.8501432500 0.5619660000 0.2240552500
1.0000000000 0.5619660000 0.2240552500
0.0000000000 0.8513710000 0.2240552500
0.1885382500 0.8513710000 0.2240552500
0.5492525000 0.8513710000 0.2240552500
0.8501432500 0.8513710000 0.2240552500
1.0000000000 0.8513710000 0.2240552500
0.0000000000 1.0000000000 0.2240552500
0.1885382500 1.0000000000 0.2240552500
0.5492525000 1.0000000000 0.2240552500
0.8501432500 1.0000000000 0.2240552500
1.0000000000 1.0000000000 0.2240552500
0.0000000000 0.0000000000 0.5787205000
0.1885382500 0.0000000000 0.5787205000
0.5492525000 0.0000000000 0.5787205000
0.8501432500 0.0000000000 0.5787205000
1.0000000000 0.0000000000 0.5787205000
0.0000000000 0.2034292500 0.5787205000
0.1885382500 0.2034292500 0.5787205000
0.5492525000 0.2034292500 0.5787205000
0.8501432500 0.2034292500 0.5787205000
1.0000000000 0.2034292500 0.5787205000
0.0000000000 0.5619660000 0.5787205000
0.1885382500 0.5619660000 0.5787205000
0.5492525000 0.5619660000 0.5787205000
0.8501432500 0.5619660000 0.5787205000
1.0000000000 0.5619660000 0.5787205000
0.0000000000 0.8513710000 0.5787205000
0.1885382500 0.8513710000 0.5787205000
0.5492525000 0.8513710000 0.5787205000
0.8501432500 0.8513710000 0.5787205000
1.0000000000 0.8513710000 0.5787205000
0.0000000000 1.0000000000 0.5787205000
0.1885382500 1.0000000000 0.5787205000
0.5492525000 1.0000000000 0.5787205000
0.8501432500 1.0000000000 0.5787205000
1.0000000000 1.0000000000 0.5787205000
0.0000000000 0.0000000000 0.8545460000
0.1885382500 0.0000000000 0.8545460000
0.5492525000 0.0000000000 0.8545460000
0.8501432500 0.0000000000 0.8545460000
1.0000000000 0.0000000000 0.8545460000
0.0000000000 0.2034292500 0.8545460000
0.1885382500 0.2034292500 0.8545460000
0.5492525000 0.2034292500 0.8545460000
0.8501432500 0.2034292500 0.8545460000
1.0000000000 0.2034292500 0.8545460000
0.0000000000 0.5619660000 0.8545460000
0.1885382500 0.5619660000 0.8545460000
0.5492525000 0.5619660000 0.8545460000
0.8501432500 0.5619660000 0.8545460000
1.0000000000 0.5619660000 0.8545460000
0.0000000000 0.8513710000 0.8545460000
0.1885382500 0.8513710000 0.8545460000
0.5492525000 0.8513710000 0.8545460000
0.8501432500 0.8513710000 0.8545460000
1.0000000000 0.8513710000 0.8545460000
0.0000000000 1.0000000000 0.8545460000
0.1885382500 1.0000000000 0.8545460000
0.5492525000 1.0000000000 0.8545460000
0.8501432500 1.0000000000 0.8545460000
1.0000000000 1.0000000000 0.8545460000
0.0000000000 0.0000000000 1.0000000000
0.1885382500 0.0000000000 1.0000000000
0.5492525000 0.0000000000 1.0000000000
0.8501432500 0.0000000000 1.0000000000
1.0000000000 0.0000000000 1.0000000000
0.0000000000 0.2034292500 1.0000000000
0.1885382500 0.2034292500 1.0000000000
0.5492525000 0.2034292500 1.0000000000
0.8501432500 0.2034292500 1.0000000000
1.0000000000 0.2034292500 1.0000000000
0.0000000000 0.5619660000 1.0000000000
0.1885382500 0.5619660000 1.0000000000
0.5492525000 0.5619660000 1.0000000000
0.8501432500 0.5619660000 1.0000000000
1.0000000000 0.5619660000 1.0000000000
0.0000000000 0.8513710000 1.0000000000
0.1885382500 0.8513710000 1.0000000000
0.5492525000 0.8513710000 1.0000000000
0.8501432500 0.8513710000 1.0000000000
1.0000000000 0.8513710000 1.0000000000
0.0000000000 1.0000000000 1.0000000000
0.1885382500 1.0000000000 1.0000000000
0.5492525000 1.0000000000 1.0000000000
0.8501432500 1.0000000000 1.0000000000
1.0000000000 1.0000000000 1.0000000000
