bundles/resolve-cinematic-luts/Gamut/Le Reve/Contrast - Le Reve IV.cube
TITLE "Le Reve IV by Le Reve Films"
# Version 1.0 - 01/22/2022 - Designed for Rec.709 Color Space. Copyright 2023 Gamut, LLC
# 
LUT_3D_SIZE 33
0.0000000000 0.0000000000 0.0000000000
0.0154506563 0.0000000000 0.0000000000
0.0273043125 0.0000000000 0.0000000000
0.0395516562 0.0000000000 0.0000000000
0.0617527500 0.0000000000 0.0000000000
0.0908861875 0.0000000000 0.0000000000
0.1239722500 0.0000000000 0.0000000000
0.1564164063 0.0000000000 0.0000000000
0.1885382500 0.0000000000 0.0000000000
0.2222611875 0.0000000000 0.0000000000
0.2614341250 0.0000000000 0.0000000000
0.3077689375 0.0000000000 0.0000000000
0.3561248750 0.0000000000 0.0000000000
0.4054835625 0.0000000000 0.0000000000
0.4544008125 0.0000000000 0.0000000000
0.5020563125 0.0000000000 0.0000000000
0.5492525000 0.0000000000 0.0000000000
0.5949785312 0.0000000000 0.0000000000
0.6384564375 0.0000000000 0.0000000000
0.6796693750 0.0000000000 0.0000000000
0.7180121250 0.0000000000 0.0000000000
0.7542688438 0.0000000000 0.0000000000
0.7885325625 0.0000000000 0.0000000000
0.8204284063 0.0000000000 0.0000000000
0.8501432500 0.0000000000 0.0000000000
0.8776388125 0.0000000000 0.0000000000
0.9030793750 0.0000000000 0.0000000000
0.9269783125 0.0000000000 0.0000000000
0.9492406250 0.0000000000 0.0000000000
0.9699306875 0.0000000000 0.0000000000
0.9874666875 0.0000000000 0.0000000000
0.9988810938 0.0000000000 0.0000000000
1.0000000000 0.0000000000 0.0000000000
0.0000000000 0.0154999375 0.0000000000
0.0154506563 0.0154999375 0.0000000000
0.0273043125 0.0154999375 0.0000000000
0.0395516562 0.0154999375 0.0000000000
0.0617527500 0.0154999375 0.0000000000
0.0908861875 0.0154999375 0.0000000000
0.1239722500 0.0154999375 0.0000000000
0.1564164063 0.0154999375 0.0000000000
0.1885382500 0.0154999375 0.0000000000
0.2222611875 0.0154999375 0.0000000000
0.2614341250 0.0154999375 0.0000000000
0.3077689375 0.0154999375 0.0000000000
0.3561248750 0.0154999375 0.0000000000
0.4054835625 0.0154999375 0.0000000000
0.4544008125 0.0154999375 0.0000000000
0.5020563125 0.0154999375 0.0000000000
0.5492525000 0.0154999375 0.0000000000
0.5949785312 0.0154999375 0.0000000000
0.6384564375 0.0154999375 0.0000000000
0.6796693750 0.0154999375 0.0000000000
0.7180121250 0.0154999375 0.0000000000
0.7542688438 0.0154999375 0.0000000000
0.7885325625 0.0154999375 0.0000000000
0.8204284063 0.0154999375 0.0000000000
0.8501432500 0.0154999375 0.0000000000
0.8776388125 0.0154999375 0.0000000000
0.9030793750 0.0154999375 0.0000000000
0.9269783125 0.0154999375 0.0000000000
0.9492406250 0.0154999375 0.0000000000
0.9699306875 0.0154999375 0.0000000000
0.9874666875 0.0154999375 0.0000000000
0.9988810938 0.0154999375 0.0000000000
1.0000000000 0.0154999375 0.0000000000
0.0000000000 0.0356333125 0.0000000000
0.0154506563 0.0356333125 0.0000000000
0.0273043125 0.0356333125 0.0000000000
0.0395516562 0.0356333125 0.0000000000
0.0617527500 0.0356333125 0.0000000000
0.0908861875 0.0356333125 0.0000000000
0.1239722500 0.0356333125 0.0000000000
0.1564164063 0.0356333125 0.0000000000
0.1885382500 0.0356333125 0.0000000000
0.2222611875 0.0356333125 0.0000000000
0.2614341250 0.0356333125 0.0000000000
0.3077689375 0.0356333125 0.0000000000
0.3561248750 0.0356333125 0.0000000000
0.4054835625 0.0356333125 0.0000000000
0.4544008125 0.0356333125 0.0000000000
0.5020563125 0.0356333125 0.0000000000
0.5492525000 0.0356333125 0.0000000000
0.5949785312 0.0356333125 0.0000000000
0.6384564375 0.0356333125 0.0000000000
0.6796693750 0.0356333125 0.0000000000
0.7180121250 0.0356333125 0.0000000000
0.7542688438 0.0356333125 0.0000000000
0.7885325625 0.0356333125 0.0000000000
0.8204284063 0.0356333125 0.0000000000
0.8501432500 0.0356333125 0.0000000000
0.8776388125 0.0356333125 0.0000000000
0.9030793750 0.0356333125 0.0000000000
0.9269783125 0.0356333125 0.0000000000
0.9492406250 0.0356333125 0.0000000000
0.9699306875 0.0356333125 0.0000000000
0.9874666875 0.0356333125 0.0000000000
0.9988810938 0.0356333125 0.0000000000
1.0000000000 0.0356333125 0.0000000000
0.0000000000 0.0570726562 0.0000000000
0.0154506563 0.0570726562 0.0000000000
0.0273043125 0.0570726562 0.0000000000
0.0395516562 0.0570726562 0.0000000000
0.0617527500 0.0570726562 0.0000000000
0.0908861875 0.0570726562 0.0000000000
0.1239722500 0.0570726562 0.0000000000
0.1564164063 0.0570726562 0.0000000000
0.1885382500 0.0570726562 0.0000000000
0.2222611875 0.0570726562 0.0000000000
0.2614341250 0.0570726562 0.0000000000
0.3077689375 0.0570726562 0.0000000000
0.3561248750 0.0570726562 0.0000000000
0.4054835625 0.0570726562 0.0000000000
0.4544008125 0.0570726562 0.0000000000
0.5020563125 0.0570726562 0.0000000000
0.5492525000 0.0570726562 0.0000000000
0.5949785312 0.0570726562 0.0000000000
0.6384564375 0.0570726562 0.0000000000
0.6796693750 0.0570726562 0.0000000000
0.7180121250 0.0570726562 0.0000000000
0.7542688438 0.0570726562 0.0000000000
0.7885325625 0.0570726562 0.0000000000
0.8204284063 0.0570726562 0.0000000000
0.8501432500 0.0570726562 0.0000000000
0.8776388125 0.0570726562 0.0000000000
0.9030793750 0.0570726562 0.0000000000
0.9269783125 0.0570726562 0.0000000000
0.9492406250 0.0570726562 0.0000000000
0.9699306875 0.0570726562 0.0000000000
0.9874666875 0.0570726562 0.0000000000
0.9988810938 0.0570726562 0.0000000000
1.0000000000 0.0570726562 0.0000000000
0.0000000000 0.0813375000 0.0000000000
0.0154506563 0.0813375000 0.0000000000
0.0273043125 0.0813375000 0.0000000000
0.0395516562 0.0813375000 0.0000000000
0.0617527500 0.0813375000 0.0000000000
0.0908861875 0.0813375000 0.0000000000
0.1239722500 0.0813375000 0.0000000000
0.1564164063 0.0813375000 0.0000000000
0.1885382500 0.0813375000 0.0000000000
0.2222611875 0.0813375000 0.0000000000
0.2614341250 0.0813375000 0.0000000000
0.3077689375 0.0813375000 0.0000000000
0.3561248750 0.0813375000 0.0000000000
0.4054835625 0.0813375000 0.0000000000
0.4544008125 0.0813375000 0.0000000000
0.5020563125 0.0813375000 0.0000000000
0.5492525000 0.0813375000 0.0000000000
0.5949785312 0.0813375000 0.0000000000
0.6384564375 0.0813375000 0.0000000000
0.6796693750 0.0813375000 0.0000000000
0.7180121250 0.0813375000 0.0000000000
0.7542688438 0.0813375000 0.0000000000
0.7885325625 0.0813375000 0.0000000000
0.8204284063 0.0813375000 0.0000000000
0.8501432500 0.0813375000 0.0000000000
0.8776388125 0.0813375000 0.0000000000
0.9030793750 0.0813375000 0.0000000000
0.9269783125 0.0813375000 0.0000000000
0.9492406250 0.0813375000 0.0000000000
0.9699306875 0.0813375000 0.0000000000
0.9874666875 0.0813375000 0.0000000000
0.9988810938 0.0813375000 0.0000000000
1.0000000000 0.0813375000 0.0000000000
0.0000000000 0.1075551250 0.0000000000
0.0154506563 0.1075551250 0.0000000000
0.0273043125 0.1075551250 0.0000000000
0.0395516562 0.1075551250 0.0000000000
0.0617527500 0.1075551250 0.0000000000
0.0908861875 0.1075551250 0.0000000000
0.1239722500 0.1075551250 0.0000000000
0.1564164063 0.1075551250 0.0000000000
0.1885382500 0.1075551250 0.0000000000
0.2222611875 0.1075551250 0.0000000000
0.2614341250 0.1075551250 0.0000000000
0.3077689375 0.1075551250 0.0000000000
0.3561248750 0.1075551250 0.0000000000
0.4054835625 0.1075551250 0.0000000000
0.4544008125 0.1075551250 0.0000000000
0.5020563125 0.1075551250 0.0000000000
0.5492525000 0.1075551250 0.0000000000
0.5949785312 0.1075551250 0.0000000000
0.6384564375 0.1075551250 0.0000000000
0.6796693750 0.1075551250 0.0000000000
0.7180121250 0.1075551250 0.0000000000
0.7542688438 0.1075551250 0.0000000000
0.7885325625 0.1075551250 0.0000000000
0.8204284063 0.1075551250 0.0000000000
0.8501432500 0.1075551250 0.0000000000
0.8776388125 0.1075551250 0.0000000000
0.9030793750 0.1075551250 0.0000000000
0.9269783125 0.1075551250 0.0000000000
0.9492406250 0.1075551250 0.0000000000
0.9699306875 0.1075551250 0.0000000000
0.9874666875 0.1075551250 0.0000000000
0.9988810938 0.1075551250 0.0000000000
1.0000000000 0.1075551250 0.0000000000
0.0000000000 0.1363265625 0.0000000000
0.0154506563 0.1363265625 0.0000000000
0.0273043125 0.1363265625 0.0000000000
0.0395516562 0.1363265625 0.0000000000
0.0617527500 0.1363265625 0.0000000000
0.0908861875 0.1363265625 0.0000000000
0.1239722500 0.1363265625 0.0000000000
0.1564164063 0.1363265625 0.0000000000
0.1885382500 0.1363265625 0.0000000000
0.2222611875 0.1363265625 0.0000000000
0.2614341250 0.1363265625 0.0000000000
0.3077689375 0.1363265625 0.0000000000
0.3561248750 0.1363265625 0.0000000000
0.4054835625 0.1363265625 0.0000000000
0.4544008125 0.1363265625 0.0000000000
0.5020563125 0.1363265625 0.0000000000
0.5492525000 0.1363265625 0.0000000000
0.5949785312 0.1363265625 0.0000000000
0.6384564375 0.1363265625 0.0000000000
0.6796693750 0.1363265625 0.0000000000
0.7180121250 0.1363265625 0.0000000000
0.7542688438 0.1363265625 0.0000000000
0.7885325625 0.1363265625 0.0000000000
0.8204284063 0.1363265625 0.0000000000
0.8501432500 0.1363265625 0.0000000000
0.8776388125 0.1363265625 0.0000000000
0.9030793750 0.1363265625 0.0000000000
0.9269783125 0.1363265625 0.0000000000
0.9492406250 0.1363265625 0.0000000000
0.9699306875 0.1363265625 0.0000000000
0.9874666875 0.1363265625 0.0000000000
0.9988810938 0.1363265625 0.0000000000
1.0000000000 0.1363265625 0.0000000000
0.0000000000 0.1682671250 0.0000000000
0.0154506563 0.1682671250 0.0000000000
0.0273043125 0.1682671250 0.0000000000
0.0395516562 0.1682671250 0.0000000000
0.0617527500 0.1682671250 0.0000000000
0.0908861875 0.1682671250 0.0000000000
0.1239722500 0.1682671250 0.0000000000
0.1564164063 0.1682671250 0.0000000000
0.1885382500 0.1682671250 0.0000000000
0.2222611875 0.1682671250 0.0000000000
0.2614341250 0.1682671250 0.0000000000
0.3077689375 0.1682671250 0.0000000000
0.3561248750 0.1682671250 0.0000000000
0.4054835625 0.1682671250 0.0000000000
0.4544008125 0.1682671250 0.0000000000
0.5020563125 0.1682671250 0.0000000000
0.5492525000 0.1682671250 0.0000000000
0.5949785312 0.1682671250 0.0000000000
0.6384564375 0.1682671250 0.0000000000
0.6796693750 0.1682671250 0.0000000000
0.7180121250 0.1682671250 0.0000000000
0.7542688438 0.1682671250 0.0000000000
0.7885325625 0.1682671250 0.0000000000
0.8204284063 0.1682671250 0.0000000000
0.8501432500 0.1682671250 0.0000000000
0.8776388125 0.1682671250 0.0000000000
0.9030793750 0.1682671250 0.0000000000
0.9269783125 0.1682671250 0.0000000000
0.9492406250 0.1682671250 0.0000000000
0.9699306875 0.1682671250 0.0000000000
0.9874666875 0.1682671250 0.0000000000
0.9988810938 0.1682671250 0.0000000000
1.0000000000 0.1682671250 0.0000000000
0.0000000000 0.2034292500 0.0000000000
0.0154506563 0.2034292500 0.0000000000
0.0273043125 0.2034292500 0.0000000000
0.0395516562 0.2034292500 0.0000000000
0.0617527500 0.2034292500 0.0000000000
0.0908861875 0.2034292500 0.0000000000
0.1239722500 0.2034292500 0.0000000000
0.1564164063 0.2034292500 0.0000000000
0.1885382500 0.2034292500 0.0000000000
0.2222611875 0.2034292500 0.0000000000
0.2614341250 0.2034292500 0.0000000000
0.3077689375 0.2034292500 0.0000000000
0.3561248750 0.2034292500 0.0000000000
0.4054835625 0.2034292500 0.0000000000
0.4544008125 0.2034292500 0.0000000000
0.5020563125 0.2034292500 0.0000000000
0.5492525000 0.2034292500 0.0000000000
0.5949785312 0.2034292500 0.0000000000
0.6384564375 0.2034292500 0.0000000000
0.6796693750 0.2034292500 0.0000000000
0.7180121250 0.2034292500 0.0000000000
0.7542688438 0.2034292500 0.0000000000
0.7885325625 0.2034292500 0.0000000000
0.8204284063 0.2034292500 0.0000000000
0.8501432500 0.2034292500 0.0000000000
0.8776388125 0.2034292500 0.0000000000
0.9030793750 0.2034292500 0.0000000000
0.9269783125 0.2034292500 0.0000000000
0.9492406250 0.2034292500 0.0000000000
0.9699306875 0.2034292500 0.0000000000
0.9874666875 0.2034292500 0.0000000000
0.9988810938 0.2034292500 0.0000000000
1.0000000000 0.2034292500 0.0000000000
0.0000000000 0.2446237813 0.0000000000
0.0154506563 0.2446237813 0.0000000000
0.0273043125 0.2446237813 0.0000000000
0.0395516562 0.2446237813 0.0000000000
0.0617527500 0.2446237813 0.0000000000
0.0908861875 0.2446237813 0.0000000000
0.1239722500 0.2446237813 0.0000000000
0.1564164063 0.2446237813 0.0000000000
0.1885382500 0.2446237813 0.0000000000
0.2222611875 0.2446237813 0.0000000000
0.2614341250 0.2446237813 0.0000000000
0.3077689375 0.2446237813 0.0000000000
0.3561248750 0.2446237813 0.0000000000
0.4054835625 0.2446237813 0.0000000000
0.4544008125 0.2446237813 0.0000000000
0.5020563125 0.2446237813 0.0000000000
0.5492525000 0.2446237813 0.0000000000
0.5949785312 0.2446237813 0.0000000000
0.6384564375 0.2446237813 0.0000000000
0.6796693750 0.2446237813 0.0000000000
0.7180121250 0.2446237813 0.0000000000
0.7542688438 0.2446237813 0.0000000000
0.7885325625 0.2446237813 0.0000000000
0.8204284063 0.2446237813 0.0000000000
0.8501432500 0.2446237813 0.0000000000
0.8776388125 0.2446237813 0.0000000000
0.9030793750 0.2446237813 0.0000000000
0.9269783125 0.2446237813 0.0000000000
0.9492406250 0.2446237813 0.0000000000
0.9699306875 0.2446237813 0.0000000000
0.9874666875 0.2446237813 0.0000000000
0.9988810938 0.2446237813 0.0000000000
1.0000000000 0.2446237813 0.0000000000
0.0000000000 0.2898018750 0.0000000000
0.0154506563 0.2898018750 0.0000000000
0.0273043125 0.2898018750 0.0000000000
0.0395516562 0.2898018750 0.0000000000
0.0617527500 0.2898018750 0.0000000000
0.0908861875 0.2898018750 0.0000000000
0.1239722500 0.2898018750 0.0000000000
0.1564164063 0.2898018750 0.0000000000
0.1885382500 0.2898018750 0.0000000000
0.2222611875 0.2898018750 0.0000000000
0.2614341250 0.2898018750 0.0000000000
0.3077689375 0.2898018750 0.0000000000
0.3561248750 0.2898018750 0.0000000000
0.4054835625 0.2898018750 0.0000000000
0.4544008125 0.2898018750 0.0000000000
0.5020563125 0.2898018750 0.0000000000
0.5492525000 0.2898018750 0.0000000000
0.5949785312 0.2898018750 0.0000000000
0.6384564375 0.2898018750 0.0000000000
0.6796693750 0.2898018750 0.0000000000
0.7180121250 0.2898018750 0.0000000000
0.7542688438 0.2898018750 0.0000000000
0.7885325625 0.2898018750 0.0000000000
0.8204284063 0.2898018750 0.0000000000
0.8501432500 0.2898018750 0.0000000000
0.8776388125 0.2898018750 0.0000000000
0.9030793750 0.2898018750 0.0000000000
0.9269783125 0.2898018750 0.0000000000
0.9492406250 0.2898018750 0.0000000000
0.9699306875 0.2898018750 0.0000000000
0.9874666875 0.2898018750 0.0000000000
0.9988810938 0.2898018750 0.0000000000
1.0000000000 0.2898018750 0.0000000000
0.0000000000 0.3349034687 0.0000000000
0.0154506563 0.3349034687 0.0000000000
0.0273043125 0.3349034687 0.0000000000
0.0395516562 0.3349034687 0.0000000000
0.0617527500 0.3349034687 0.0000000000
0.0908861875 0.3349034687 0.0000000000
0.1239722500 0.3349034687 0.0000000000
0.1564164063 0.3349034687 0.0000000000
0.1885382500 0.3349034687 0.0000000000
0.2222611875 0.3349034687 0.0000000000
0.2614341250 0.3349034687 0.0000000000
0.3077689375 0.3349034687 0.0000000000
0.3561248750 0.3349034687 0.0000000000
0.4054835625 0.3349034687 0.0000000000
0.4544008125 0.3349034687 0.0000000000
0.5020563125 0.3349034687 0.0000000000
0.5492525000 0.3349034687 0.0000000000
0.5949785312 0.3349034687 0.0000000000
0.6384564375 0.3349034687 0.0000000000
0.6796693750 0.3349034687 0.0000000000
0.7180121250 0.3349034687 0.0000000000
0.7542688438 0.3349034687 0.0000000000
0.7885325625 0.3349034687 0.0000000000
0.8204284063 0.3349034687 0.0000000000
0.8501432500 0.3349034687 0.0000000000
0.8776388125 0.3349034687 0.0000000000
0.9030793750 0.3349034687 0.0000000000
0.9269783125 0.3349034687 0.0000000000
0.9492406250 0.3349034687 0.0000000000
0.9699306875 0.3349034687 0.0000000000
0.9874666875 0.3349034687 0.0000000000
0.9988810938 0.3349034687 0.0000000000
1.0000000000 0.3349034687 0.0000000000
0.0000000000 0.3804035000 0.0000000000
0.0154506563 0.3804035000 0.0000000000
0.0273043125 0.3804035000 0.0000000000
0.0395516562 0.3804035000 0.0000000000
0.0617527500 0.3804035000 0.0000000000
0.0908861875 0.3804035000 0.0000000000
0.1239722500 0.3804035000 0.0000000000
0.1564164063 0.3804035000 0.0000000000
0.1885382500 0.3804035000 0.0000000000
0.2222611875 0.3804035000 0.0000000000
0.2614341250 0.3804035000 0.0000000000
0.3077689375 0.3804035000 0.0000000000
0.3561248750 0.3804035000 0.0000000000
0.4054835625 0.3804035000 0.0000000000
0.4544008125 0.3804035000 0.0000000000
0.5020563125 0.3804035000 0.0000000000
0.5492525000 0.3804035000 0.0000000000
0.5949785312 0.3804035000 0.0000000000
0.6384564375 0.3804035000 0.0000000000
0.6796693750 0.3804035000 0.0000000000
0.7180121250 0.3804035000 0.0000000000
0.7542688438 0.3804035000 0.0000000000
0.7885325625 0.3804035000 0.0000000000
0.8204284063 0.3804035000 0.0000000000
0.8501432500 0.3804035000 0.0000000000
0.8776388125 0.3804035000 0.0000000000
0.9030793750 0.3804035000 0.0000000000
0.9269783125 0.3804035000 0.0000000000
0.9492406250 0.3804035000 0.0000000000
0.9699306875 0.3804035000 0.0000000000
0.9874666875 0.3804035000 0.0000000000
0.9988810938 0.3804035000 0.0000000000
1.0000000000 0.3804035000 0.0000000000
0.0000000000 0.4263545313 0.0000000000
0.0154506563 0.4263545313 0.0000000000
0.0273043125 0.4263545313 0.0000000000
0.0395516562 0.4263545313 0.0000000000
0.0617527500 0.4263545313 0.0000000000
0.0908861875 0.4263545313 0.0000000000
0.1239722500 0.4263545313 0.0000000000
0.1564164063 0.4263545313 0.0000000000
0.1885382500 0.4263545313 0.0000000000
0.2222611875 0.4263545313 0.0000000000
0.2614341250 0.4263545313 0.0000000000
0.3077689375 0.4263545313 0.0000000000
0.3561248750 0.4263545313 0.0000000000
0.4054835625 0.4263545313 0.0000000000
0.4544008125 0.4263545313 0.0000000000
0.5020563125 0.4263545313 0.0000000000
0.5492525000 0.4263545313 0.0000000000
0.5949785312 0.4263545313 0.0000000000
0.6384564375 0.4263545313 0.0000000000
0.6796693750 0.4263545313 0.0000000000
0.7180121250 0.4263545313 0.0000000000
0.7542688438 0.4263545313 0.0000000000
0.7885325625 0.4263545313 0.0000000000
0.8204284063 0.4263545313 0.0000000000
0.8501432500 0.4263545313 0.0000000000
0.8776388125 0.4263545313 0.0000000000
0.9030793750 0.4263545313 0.0000000000
0.9269783125 0.4263545313 0.0000000000
0.9492406250 0.4263545313 0.0000000000
0.9699306875 0.4263545313 0.0000000000
0.9874666875 0.4263545313 0.0000000000
0.9988810938 0.4263545313 0.0000000000
1.0000000000 0.4263545313 0.0000000000
0.0000000000 0.4719310000 0.0000000000
0.0154506563 0.4719310000 0.0000000000
0.0273043125 0.4719310000 0.0000000000
0.0395516562 0.4719310000 0.0000000000
0.0617527500 0.4719310000 0.0000000000
0.0908861875 0.4719310000 0.0000000000
0.1239722500 0.4719310000 0.0000000000
0.1564164063 0.4719310000 0.0000000000
0.1885382500 0.4719310000 0.0000000000
0.2222611875 0.4719310000 0.0000000000
0.2614341250 0.4719310000 0.0000000000
0.3077689375 0.4719310000 0.0000000000
0.3561248750 0.4719310000 0.0000000000
0.4054835625 0.4719310000 0.0000000000
0.4544008125 0.4719310000 0.0000000000
0.5020563125 0.4719310000 0.0000000000
0.5492525000 0.4719310000 0.0000000000
0.5949785312 0.4719310000 0.0000000000
0.6384564375 0.4719310000 0.0000000000
0.6796693750 0.4719310000 0.0000000000
0.7180121250 0.4719310000 0.0000000000
0.7542688438 0.4719310000 0.0000000000
0.7885325625 0.4719310000 0.0000000000
0.8204284063 0.4719310000 0.0000000000
0.8501432500 0.4719310000 0.0000000000
0.8776388125 0.4719310000 0.0000000000
0.9030793750 0.4719310000 0.0000000000
0.9269783125 0.4719310000 0.0000000000
0.9492406250 0.4719310000 0.0000000000
0.9699306875 0.4719310000 0.0000000000
0.9874666875 0.4719310000 0.0000000000
0.9988810938 0.4719310000 0.0000000000
1.0000000000 0.4719310000 0.0000000000
0.0000000000 0.5171237813 0.0000000000
0.0154506563 0.5171237813 0.0000000000
0.0273043125 0.5171237813 0.0000000000
0.0395516562 0.5171237813 0.0000000000
0.0617527500 0.5171237813 0.0000000000
0.0908861875 0.5171237813 0.0000000000
0.1239722500 0.5171237813 0.0000000000
0.1564164063 0.5171237813 0.0000000000
0.1885382500 0.5171237813 0.0000000000
0.2222611875 0.5171237813 0.0000000000
0.2614341250 0.5171237813 0.0000000000
0.3077689375 0.5171237813 0.0000000000
0.3561248750 0.5171237813 0.0000000000
0.4054835625 0.5171237813 0.0000000000
0.4544008125 0.5171237813 0.0000000000
0.5020563125 0.5171237813 0.0000000000
0.5492525000 0.5171237813 0.0000000000
0.5949785312 0.5171237813 0.0000000000
0.6384564375 0.5171237813 0.0000000000
0.6796693750 0.5171237813 0.0000000000
0.7180121250 0.5171237813 0.0000000000
0.7542688438 0.5171237813 0.0000000000
0.7885325625 0.5171237813 0.0000000000
0.8204284063 0.5171237813 0.0000000000
0.8501432500 0.5171237813 0.0000000000
0.8776388125 0.5171237813 0.0000000000
0.9030793750 0.5171237813 0.0000000000
0.9269783125 0.5171237813 0.0000000000
0.9492406250 0.5171237813 0.0000000000
0.9699306875 0.5171237813 0.0000000000
0.9874666875 0.5171237813 0.0000000000
0.9988810938 0.5171237813 0.0000000000
1.0000000000 0.5171237813 0.0000000000
0.0000000000 0.5619660000 0.0000000000
0.0154506563 0.5619660000 0.0000000000
0.0273043125 0.5619660000 0.0000000000
0.0395516562 0.5619660000 0.0000000000
0.0617527500 0.5619660000 0.0000000000
0.0908861875 0.5619660000 0.0000000000
0.1239722500 0.5619660000 0.0000000000
0.1564164063 0.5619660000 0.0000000000
0.1885382500 0.5619660000 0.0000000000
0.2222611875 0.5619660000 0.0000000000
0.2614341250 0.5619660000 0.0000000000
0.3077689375 0.5619660000 0.0000000000
0.3561248750 0.5619660000 0.0000000000
0.4054835625 0.5619660000 0.0000000000
0.4544008125 0.5619660000 0.0000000000
0.5020563125 0.5619660000 0.0000000000
0.5492525000 0.5619660000 0.0000000000
0.5949785312 0.5619660000 0.0000000000
0.6384564375 0.5619660000 0.0000000000
0.6796693750 0.5619660000 0.0000000000
0.7180121250 0.5619660000 0.0000000000
0.7542688438 0.5619660000 0.0000000000
0.7885325625 0.5619660000 0.0000000000
0.8204284063 0.5619660000 0.0000000000
0.8501432500 0.5619660000 0.0000000000
0.8776388125 0.5619660000 0.0000000000
0.9030793750 0.5619660000 0.0000000000
0.9269783125 0.5619660000 0.0000000000
0.9492406250 0.5619660000 0.0000000000
0.9699306875 0.5619660000 0.0000000000
0.9874666875 0.5619660000 0.0000000000
0.9988810938 0.5619660000 0.0000000000
1.0000000000 0.5619660000 0.0000000000
0.0000000000 0.6051200625 0.0000000000
0.0154506563 0.6051200625 0.0000000000
0.0273043125 0.6051200625 0.0000000000
0.0395516562 0.6051200625 0.0000000000
0.0617527500 0.6051200625 0.0000000000
0.0908861875 0.6051200625 0.0000000000
0.1239722500 0.6051200625 0.0000000000
0.1564164063 0.6051200625 0.0000000000
0.1885382500 0.6051200625 0.0000000000
0.2222611875 0.6051200625 0.0000000000
0.2614341250 0.6051200625 0.0000000000
0.3077689375 0.6051200625 0.0000000000
0.3561248750 0.6051200625 0.0000000000
0.4054835625 0.6051200625 0.0000000000
0.4544008125 0.6051200625 0.0000000000
0.5020563125 0.6051200625 0.0000000000
0.5492525000 0.6051200625 0.0000000000
0.5949785312 0.6051200625 0.0000000000
0.6384564375 0.6051200625 0.0000000000
0.6796693750 0.6051200625 0.0000000000
0.7180121250 0.6051200625 0.0000000000
0.7542688438 0.6051200625 0.0000000000
0.7885325625 0.6051200625 0.0000000000
0.8204284063 0.6051200625 0.0000000000
0.8501432500 0.6051200625 0.0000000000
0.8776388125 0.6051200625 0.0000000000
0.9030793750 0.6051200625 0.0000000000
0.9269783125 0.6051200625 0.0000000000
0.9492406250 0.6051200625 0.0000000000
0.9699306875 0.6051200625 0.0000000000
0.9874666875 0.6051200625 0.0000000000
0.9988810938 0.6051200625 0.0000000000
1.0000000000 0.6051200625 0.0000000000
0.0000000000 0.6465513750 0.0000000000
0.0154506563 0.6465513750 0.0000000000
0.0273043125 0.6465513750 0.0000000000
0.0395516562 0.6465513750 0.0000000000
0.0617527500 0.6465513750 0.0000000000
0.0908861875 0.6465513750 0.0000000000
0.1239722500 0.6465513750 0.0000000000
0.1564164063 0.6465513750 0.0000000000
0.1885382500 0.6465513750 0.0000000000
0.2222611875 0.6465513750 0.0000000000
0.2614341250 0.6465513750 0.0000000000
0.3077689375 0.6465513750 0.0000000000
0.3561248750 0.6465513750 0.0000000000
0.4054835625 0.6465513750 0.0000000000
0.4544008125 0.6465513750 0.0000000000
0.5020563125 0.6465513750 0.0000000000
0.5492525000 0.6465513750 0.0000000000
