bundles/resolve-cinematic-luts/Gamut/Le Reve/Le Reve II.cube
TITLE "Le Reve II by Le Reve Films"
# Version 1.0 - 01/22/2022 - Designed for Rec.709 Color Space. Copyright 2023 Gamut, LLC
LUT_3D_SIZE 33
0.0134060000 0.0126170000 0.0102510000
0.0265409062 0.0149337187 0.0110153437
0.0509199375 0.0188274375 0.0079845625
0.0685698125 0.0234352813 0.0093890312
0.0938053750 0.0259243750 0.0109413750
0.1269391250 0.0232385312 0.0110400000
0.1712213125 0.0135042500 0.0110400000
0.2163845000 0.0108674062 0.0110400000
0.2594200000 0.0201090000 0.0110400000
0.2990040937 0.0237805625 0.0110400000
0.3363973750 0.0305573750 0.0110400000
0.3781105938 0.0325779062 0.0110400000
0.4172032500 0.0413583750 0.0110400000
0.4579646562 0.0441391875 0.0110400000
0.4963908750 0.0513073125 0.0102510000
0.5344204062 0.0617348125 0.0102510000
0.5722600000 0.0630940000 0.0094630000
0.6079315938 0.0687248125 0.0106208438
0.6430233750 0.0831996875 0.0122722500
0.6778348438 0.0983288437 0.0107194687
0.7120308750 0.1079213750 0.0097585000
0.7446469063 0.1158418750 0.0131590937
0.7771055625 0.1256775000 0.0160175625
0.8093229687 0.1370132187 0.0173490000
0.8410685000 0.1486485000 0.0163627500
0.8711825625 0.1592448750 0.0149830000
0.8991711250 0.1673997500 0.0149830000
0.9246301875 0.1726473125 0.0158942812
0.9471692500 0.1754725000 0.0166586250
0.9660023125 0.1767300000 0.0174228750
0.9802853750 0.1771700000 0.0181370000
0.9895563125 0.1776099375 0.0181616563
0.9959380000 0.1778250000 0.0189260000
0.0250368750 0.0288566563 0.0117796875
0.0404522188 0.0296456250 0.0094876250
0.0608468750 0.0297441875 0.0109906875
0.0804174687 0.0320362500 0.0117057500
0.1041716875 0.0344013438 0.0110400000
0.1379821875 0.0302863125 0.0110400000
0.1817735938 0.0205518750 0.0110400000
0.2275565625 0.0134551562 0.0110400000
0.2691412188 0.0245197813 0.0110400000
0.3077119063 0.0286102500 0.0110400000
0.3450670312 0.0346480625 0.0110400000
0.3855639375 0.0382459063 0.0110400000
0.4252310625 0.0468435000 0.0110400000
0.4661641563 0.0487375313 0.0110400000
0.5050995000 0.0573064687 0.0102510000
0.5437854687 0.0656184062 0.0102510000
0.5815155625 0.0669388750 0.0098570000
0.6178562188 0.0757692500 0.0121737187
0.6527234687 0.0914543750 0.0126170000
0.6876652500 0.1046497188 0.0118290000
0.7215776563 0.1131978750 0.0123710625
0.7545606563 0.1216587813 0.0155004375
0.7867704375 0.1321445938 0.0180877188
0.8186348750 0.1435869375 0.0181123750
0.8498884063 0.1550876875 0.0173243438
0.8797552187 0.1652056250 0.0167079375
0.9074141250 0.1728085625 0.0174474375
0.9325310937 0.1773493750 0.0189998437
0.9542689687 0.1800625000 0.0205276875
0.9714338750 0.1815378750 0.0212919375
0.9834370625 0.1823654375 0.0220553750
0.9909698750 0.1829934062 0.0235584375
0.9960713125 0.1836263125 0.0243474375
0.0321841250 0.0611792500 0.0156724375
0.0566545937 0.0583586875 0.0118043125
0.0646071250 0.0617669375 0.0110400000
0.0805856562 0.0629128438 0.0110400000
0.1047393125 0.0624746875 0.0103003125
0.1416049688 0.0582058437 0.0103003125
0.1851559375 0.0495579375 0.0109413750
0.2295063750 0.0446684063 0.0110400000
0.2712131250 0.0445930000 0.0110400000
0.3110112187 0.0471868125 0.0110400000
0.3514416875 0.0498360625 0.0110400000
0.3934475625 0.0547182813 0.0103003125
0.4345901250 0.0593106250 0.0103003125
0.4756490625 0.0623132812 0.0102510000
0.5152833750 0.0718176875 0.0102510000
0.5548291563 0.0745736250 0.0102510000
0.5926038750 0.0777613750 0.0113851875
0.6283117188 0.0888588437 0.0133566875
0.6636684375 0.1034781250 0.0126170000
0.6984993438 0.1135923437 0.0121491250
0.7322383750 0.1213808750 0.0154758125
0.7647067812 0.1302192812 0.0178417813
0.7966321250 0.1409000625 0.0188766875
0.8280890312 0.1521248750 0.0188766875
0.8590956250 0.1632353125 0.0183342500
0.8886127187 0.1725355938 0.0190490625
0.9158690625 0.1793698750 0.0207001250
0.9404655000 0.1835768750 0.0228935625
0.9610442500 0.1862050625 0.0236570625
0.9763920000 0.1878190937 0.0252094062
0.9861798125 0.1890405000 0.0267133750
0.9921561562 0.1900461250 0.0282657500
0.9959987500 0.1910460625 0.0305568750
0.0301138437 0.0827547812 0.0180631250
0.0553619688 0.0813677500 0.0186548750
0.0785120625 0.0801098125 0.0126416875
0.0843723750 0.0853133437 0.0117550312
0.1040077187 0.0870939375 0.0095861562
0.1405502813 0.0834073125 0.0094630000
0.1840565625 0.0791363750 0.0095368750
0.2286268437 0.0751060000 0.0095368750
0.2704010313 0.0733556250 0.0095368750
0.3113081250 0.0723961250 0.0102510000
0.3539294375 0.0735685625 0.0097092500
0.3976135937 0.0771950313 0.0095368750
0.4416696562 0.0788922813 0.0095368750
0.4841170625 0.0832055313 0.0102510000
0.5246635000 0.0899708750 0.0102510000
0.5647518125 0.0900756875 0.0113851875
0.6023112812 0.0951464687 0.0129376250
0.6383933125 0.1068785625 0.0134060000
0.6740242812 0.1179796250 0.0129621875
0.7084882188 0.1254094375 0.0147607813
0.7419270937 0.1328669688 0.0178664063
0.7743992500 0.1422584375 0.0196401250
0.8060325937 0.1526946563 0.0197140000
0.8373151563 0.1636240938 0.0196401250
0.8681044375 0.1741021563 0.0205524063
0.8974231250 0.1824515938 0.0221047500
0.9243839063 0.1883410625 0.0238048437
0.9481428750 0.1924837188 0.0259984375
0.9672565313 0.1950065313 0.0275507812
0.9803354688 0.1967790313 0.0291031250
0.9882871562 0.1983054688 0.0313705000
0.9928307187 0.1996414375 0.0336378438
0.9957371875 0.2009671250 0.0359783125
0.0285861250 0.1093952500 0.0196155000
0.0477615313 0.1089050000 0.0197140000
0.0885094375 0.1068018750 0.0172011250
0.0927728125 0.1112508437 0.0170532500
0.1039676250 0.1156622500 0.0154753750
0.1365638125 0.1157804375 0.0088712187
0.1822144375 0.1118386875 0.0086740000
0.2273613125 0.1091889375 0.0086740000
0.2689513750 0.1088808750 0.0087726250
0.3097751875 0.1080961250 0.0087726250
0.3529656875 0.1092643125 0.0087726250
0.3982086250 0.1110986562 0.0086740000
0.4435947500 0.1114855000 0.0094630000
0.4873978125 0.1149849063 0.0094630000
0.5300918125 0.1161985000 0.0106948125
0.5709146563 0.1162751250 0.0129376562
0.6094086250 0.1223966250 0.0134060000
0.6467105312 0.1318220000 0.0137753750
0.6827845625 0.1380021250 0.0155743125
0.7176635937 0.1436172500 0.0182604062
0.7511398750 0.1509956250 0.0196155000
0.7834537188 0.1598988437 0.0204043750
0.8151088750 0.1697571875 0.0204043750
0.8464562812 0.1798078438 0.0214150000
0.8771208750 0.1887733750 0.0228688750
0.9060754687 0.1958676250 0.0252094688
0.9323817500 0.2011611875 0.0270090625
0.9550438125 0.2050519063 0.0291031563
0.9721471250 0.2077720000 0.0306555000
0.9832002500 0.2099374375 0.0322825938
0.9897755000 0.2117210625 0.0352395000
0.9932148437 0.2133293125 0.0377286562
0.9951685000 0.2148893750 0.0413691250
0.0231154062 0.1423708125 0.0211687187
0.0381885625 0.1430749688 0.0219322187
0.0945885938 0.1401150938 0.0224993125
0.1024124063 0.1435051875 0.0224993125
0.1082489375 0.1487874063 0.0224746562
0.1369282500 0.1515146562 0.0172257188
0.1735875937 0.1505347812 0.0103495938
0.2197695937 0.1474270625 0.0085508750
0.2628491250 0.1450371563 0.0085508750
0.3044030000 0.1446026875 0.0086740000
0.3485746563 0.1457425938 0.0086740000
0.3937376563 0.1470833438 0.0086740000
0.4390042187 0.1482701875 0.0093397187
0.4842769062 0.1497931563 0.0099308750
0.5284805938 0.1509857187 0.0114838125
0.5711165313 0.1525930000 0.0123707500
0.6112305312 0.1578353750 0.0130115000
0.6497911563 0.1623330625 0.0155989375
0.6871540938 0.1651226250 0.0179156562
0.7230174688 0.1696220312 0.0192461250
0.7571178750 0.1763405937 0.0197140000
0.7900519375 0.1843449062 0.0205030000
0.8221119062 0.1928503750 0.0214149687
0.8536038437 0.2011058750 0.0236325000
0.8843178750 0.2083615000 0.0259738437
0.9128820313 0.2143310938 0.0276494687
0.9386917812 0.2191071250 0.0292018125
0.9600674375 0.2226791875 0.0307541562
0.9753642187 0.2255452187 0.0324058438
0.9849860000 0.2279715938 0.0347217187
0.9903341562 0.2299361250 0.0378272813
0.9929996875 0.2318593750 0.0415882500
0.9944268438 0.2337808125 0.0452351875
0.0268606875 0.1799257500 0.0249383125
0.0366193750 0.1813169375 0.0257026563
0.0808371250 0.1787754375 0.0263683750
0.1037263125 0.1799026875 0.0263683750
0.1127019375 0.1839381875 0.0265161250
0.1368595625 0.1853157187 0.0263190937
0.1687005625 0.1854315625 0.0194183125
0.2052365312 0.1848876875 0.0125678125
0.2479857500 0.1823695625 0.0101525625
0.2929104062 0.1807598750 0.0087479687
0.3381888750 0.1812328750 0.0086740000
0.3845010000 0.1823191250 0.0093150625
0.4304768750 0.1837232500 0.0101032500
0.4763271250 0.1851475000 0.0108920625
0.5214428750 0.1884107500 0.0110400000
0.5650667188 0.1911630313 0.0122476250
0.6067582500 0.1946119375 0.0148347500
0.6468975625 0.1974967500 0.0167819062
0.6858026250 0.1995727500 0.0178415000
0.7229013125 0.2032263438 0.0186054687
0.7582070000 0.2087508750 0.0192215000
0.7920745625 0.2147275625 0.0207742188
0.8249311875 0.2210393125 0.0229673125
0.8570043125 0.2272660625 0.0253081562
0.8879172500 0.2331586250 0.0270090000
0.9166831875 0.2382965000 0.0285613750
0.9420738125 0.2426005625 0.0299658125
0.9624349375 0.2460412188 0.0315183438
0.9767701875 0.2489002500 0.0333171250
0.9855964063 0.2514056875 0.0362741875
0.9902837500 0.2536004375 0.0393788750
0.9923929062 0.2558933438 0.0431924687
0.9933349375 0.2578971250 0.0474640000
0.0402141875 0.2163742812 0.0294484375
0.0447285313 0.2185059062 0.0302120000
0.0719534375 0.2164267187 0.0302366563
0.0998940000 0.2157730625 0.0302366563
0.1134025312 0.2177831562 0.0310254375
0.1367931875 0.2191477188 0.0318144375
0.1675096250 0.2188936562 0.0301627188
0.1990893437 0.2192710000 0.0231396562
0.2330393750 0.2199421563 0.0163135937
0.2758247500 0.2185733750 0.0123705937
0.3227264063 0.2181061562 0.0114838125
0.3717708438 0.2185166250 0.0108674062
0.4192163437 0.2203759375 0.0103742812
0.4660744688 0.2225248438 0.0108674062
0.5120656875 0.2258738750 0.0128884375
0.5561743125 0.2290992813 0.0144407812
0.5985999063 0.2324369375 0.0153770000
0.6398973750 0.2356468438 0.0157710000
0.6799341563 0.2382581875 0.0170777813
0.7182090938 0.2412238125 0.0184575312
0.7547257500 0.2449860625 0.0203057500
0.7897317188 0.2491084688 0.0221788437
0.8236175000 0.2535950625 0.0237311875
0.8566345312 0.2583887500 0.0254559063
0.8882344375 0.2630376875 0.0270090000
0.9174036562 0.2674347812 0.0285613750
0.9427176250 0.2711357812 0.0301137500
0.9627990312 0.2743425000 0.0317894062
0.9767515000 0.2771564063 0.0341061250
0.9851909688 0.2797301250 0.0370382500
0.9895359375 0.2821510937 0.0403606875
0.9913731562 0.2844635625 0.0446449687
0.9920131250 0.2867163125 0.0488338438
0.0526555000 0.2508522500 0.0335147500
0.0586716875 0.2543365938 0.0342781250
0.0787065000 0.2534221875 0.0348945000
0.0993661250 0.2527099375 0.0356827500
0.1179848750 0.2534523750 0.0363730000
0.1350693438 0.2536874062 0.0364715000
0.1624055625 0.2539327500 0.0358305000
0.1953424062 0.2539427187 0.0340318125
0.2285947500 0.2555265000 0.0264175000
0.2627871875 0.2569824063 0.0194429688
0.3056805000 0.2567732500 0.0148843125
0.3543642500 0.2569370000 0.0132826250
0.4043130000 0.2579507500 0.0132087500
0.4537915312 0.2597396563 0.0132087500
0.5012263750 0.2628855000 0.0138492500
0.5460329375 0.2663006875 0.0139970000
0.5890345000 0.2700015000 0.0153770000
0.6310490000 0.2734477188 0.0167325938
0.6718378750 0.2762752500 0.0182851875
0.7110682812 0.2790325938 0.0198375312
0.7485358750 0.2820235000 0.0210947500
0.7845796250 0.2851877812 0.0223512187
0.8195420000 0.2887090625 0.0239035625
0.8534529375 0.2925280312 0.0254559063
0.8859210000 0.2964097500 0.0276002500
0.9156774063 0.3001460938 0.0291525938
0.9413606250 0.3034685000 0.0308528750
0.9616136875 0.3065152500 0.0330462812
0.9756086250 0.3091917500 0.0354858750
0.9840430625 0.3117987500 0.0385908438
0.9882559375 0.3143082500 0.0416618125
0.9899185938 0.3167340000 0.0453484063
0.9905705000 0.3190825000 0.0494980000
0.0511187188 0.2857295938 0.0377529375
0.0539894375 0.2897924375 0.0371865625
0.0735591875 0.2903719687 0.0371865625
0.0962404375 0.2906252187 0.0379745625
0.1228082813 0.2907575625 0.0387635625
0.1431729063 0.2905220312 0.0394285625
0.1702588437 0.2902255625 0.0401841875
0.2004405938 0.2903416250 0.0402826875
0.2294890938 0.2908749687 0.0370880000
0.2599505938 0.2923853437 0.0306559375
0.2955395937 0.2942384375 0.0231150625
0.3389505937 0.2945955937 0.0178413438
0.3871983125 0.2954912500 0.0154014375
0.4374575625 0.2972645937 0.0145394687
0.4870615938 0.3000399375 0.0157712812
0.5336125938 0.3033093125 0.0169051875
0.5779160313 0.3066463125 0.0180879687
0.6209361250 0.3098504687 0.0187040937
0.6625221875 0.3127206875 0.0194923750
0.7025151562 0.3154092187 0.0202810937
0.7408047500 0.3181863750 0.0215875000
0.7778257500 0.3212339063 0.0229179687
0.8136114062 0.3243867500 0.0244703437
0.8483340313 0.3277930625 0.0268117187
0.8815131562 0.3312841875 0.0289307188
0.9120655937 0.3347163125 0.0308775625
0.9384194375 0.3379364688 0.0331940625
0.9592115625 0.3409508750 0.0351655938
0.9736012500 0.3437198437 0.0376053125
0.9823098750 0.3463908750 0.0401399375
0.9866343750 0.3489770938 0.0431457500
0.9883266875 0.3514415312 0.0467358438
0.9889887187 0.3539808125 0.0501570312
0.0727108125 0.3229763125 0.0464738125
0.0763404063 0.3280529063 0.0469536875
0.0859937500 0.3301308125 0.0471369375
0.0991271563 0.3312757188 0.0478164062
0.1185187500 0.3309808750 0.0484892500
0.1411239062 0.3294024063 0.0490458125
0.1642106250 0.3281420625 0.0492680000
0.1925995313 0.3276946875 0.0492680000
0.2240641250 0.3282330000 0.0485341250
0.2572755625 0.3289261562 0.0456630312
0.2920490000 0.3304105000 0.0384430625
0.3291245313 0.3321072812 0.0306805938
0.3723342500 0.3332986250 0.0243962500
0.4206793125 0.3345296562 0.0207004687
0.4705315000 0.3365413750 0.0193198125
0.5187886250 0.3390592188 0.0192211875
0.5646765000 0.3419160000 0.0194677500
0.6088340000 0.3448453437 0.0198375938
0.6514492500 0.3476762500 0.0206016250
0.6923282187 0.3504750937 0.0215871875
0.7316776875 0.3533292500 0.0229179375
0.7695802812 0.3562780625 0.0247415313
0.8062664375 0.3594893750 0.0265651250
0.8417964375 0.3628838750 0.0289060938
0.8757356875 0.3664087500 0.0314444375
0.9070231875 0.3698590000 0.0337611563
0.9342223125 0.3732225000 0.0360770625
0.9558041562 0.3763369375 0.0383935937
0.9709271875 0.3793003750 0.0406005625
0.9801071250 0.3820972813 0.0429318750
0.9848170625 0.3848318750 0.0453257500
0.9867445938 0.3875250625 0.0481188437
0.9874583125 0.3900995625 0.0508100000
0.0683740312 0.3598210625 0.0494020000
0.0733528750 0.3646849688 0.0489564063
0.0842910938 0.3679359062 0.0482655313
0.1007169375 0.3695314687 0.0488904062
0.1220705000 0.3695198750 0.0499956875
0.1487035312 0.3675850625 0.0513195625
0.1728600000 0.3656658125 0.0526205937
0.1996168437 0.3645916875 0.0531692188
0.2305753125 0.3646545625 0.0533357188
0.2611782500 0.3651420937 0.0520045000
0.2920648125 0.3655706250 0.0481753125
0.3261377500 0.3671004063 0.0412289375
0.3644076875 0.3689594063 0.0332189062
0.4076420000 0.3702858125 0.0269838125
0.4546888125 0.3718433438 0.0237805313
0.5024469687 0.3740207187 0.0228440313
0.5492520312 0.3763955313 0.0232385312
0.5946638438 0.3789688750 0.0236326875
0.6385053750 0.3816153750 0.0239774375
0.6805832188 0.3843342188 0.0250124375
0.7210925938 0.3871735313 0.0257767812
0.7600532187 0.3902240625 0.0273291250
0.7976905625 0.3934999687 0.0299167187
0.8340193125 0.3970818125 0.0322330937
0.8687500312 0.4007763125 0.0350669375
0.9009249375 0.4044659687 0.0376545312
0.9290670938 0.4080508750 0.0403282500
0.9515874375 0.4114287187 0.0422254688
0.9676920625 0.4146690625 0.0440648125
0.9776947813 0.4177390625 0.0458176250
0.9829402188 0.4207276562 0.0478552500
0.9852232187 0.4235829375 0.0499212812
0.9860971250 0.4263579375 0.0521197812
0.0925588750 0.3962538750 0.0598343750
0.0973175000 0.4010356250 0.0607740312
0.1039080000 0.4051168125 0.0611533750
0.1140921875 0.4073783438 0.0617405000
0.1293476250 0.4078840000 0.0628276250
0.1511295313 0.4058938750 0.0631286250
0.1765918750 0.4031469375 0.0635910000
0.2007645312 0.4014170000 0.0637027500
0.2279307500 0.4005371250 0.0633521250
0.2573295000 0.4005005625 0.0627197812
0.2890087500 0.4007977500 0.0609465625
0.3239258437 0.4015207188 0.0565414062
0.3613845000 0.4031115000 0.0490520000
0.4000821875 0.4046211875 0.0416433750
0.4424813750 0.4060430625 0.0354367500
0.4878153438 0.4078092813 0.0317892188
0.5339825000 0.4098061250 0.0296698750
0.5797883750 0.4119803437 0.0289063750
0.6244507500 0.4142862500 0.0287832500
0.6676685937 0.4169086250 0.0290787500
0.7092506250 0.4197001250 0.0301630000
0.7492769375 0.4227528437 0.0317156250
0.7879040625 0.4261658750 0.0343029375
0.8251431563 0.4299066875 0.0366192812
0.8607232500 0.4338343750 0.0397156250
0.8938672188 0.4378329375 0.0424438125
0.9230931875 0.4417435625 0.0447730000
0.9468502812 0.4454579687 0.0461942500
0.9641731250 0.4490177500 0.0478546250
0.9751883750 0.4524156563 0.0492170312
0.9811820000 0.4557119375 0.0505550000
0.9839031875 0.4589140937 0.0521398750
0.9851782500 0.4619952500 0.0540535000
0.0994337813 0.4301482500 0.0655190938
0.1008193438 0.4345013750 0.0655190938
0.1041185000 0.4385380000 0.0658480312
0.1119380000 0.4413788438 0.0666750313
0.1299449375 0.4422464063 0.0675281250
0.1541326250 0.4406790000 0.0685973437
0.1831982812 0.4378222187 0.0696541875
0.2096771875 0.4357502188 0.0702880625
0.2358339688 0.4344179687 0.0705968125
0.2645579375 0.4340550313 0.0705968125
0.2961099375 0.4341817500 0.0696540000
0.3293300000 0.4346207812 0.0668143125
0.3633142188 0.4353654688 0.0617406875
0.3983323438 0.4366444063 0.0545255625
0.4363569687 0.4382335625 0.0472499063
0.4776755000 0.4398857188 0.0421635937
0.5212724063 0.4416044687 0.0387597188
0.5658108438 0.4435965000 0.0363486562
0.6103037188 0.4457902188 0.0354611563
0.6539190625 0.4483066562 0.0354611563
0.6962700312 0.4510300625 0.0362501562
0.7373243125 0.4540912500 0.0379007813
0.7769152500 0.4574925937 0.0401931875
0.8151285000 0.4613669375 0.0428761875
0.8516897500 0.4654588125 0.0453497187
0.8859078125 0.4696964375 0.0479955000
0.9163842813 0.4739102813 0.0496395625
0.9415819687 0.4779685312 0.0508665938
0.9603077813 0.4818496875 0.0515349062
0.9726428750 0.4856276875 0.0518693125
0.9795631563 0.4892417500 0.0527764687
0.9828770625 0.4927504688 0.0540533438
0.9844792813 0.4961606875 0.0553104375
0.1058312500 0.4617132500 0.0697642500
0.1138006875 0.4659636250 0.0718868437
0.1250477500 0.4702276250 0.0744676250
0.1392861250 0.4735382188 0.0774687187
0.1568525000 0.4749373750 0.0796401875
0.1784015625 0.4740052813 0.0799856250
0.2045116250 0.4714583125 0.0794641875
0.2316832812 0.4689471250 0.0792020625
0.2565426250 0.4674238125 0.0789382500
0.2824961563 0.4665351562 0.0788599688
0.3105663125 0.4661888750 0.0781245000
0.3388857500 0.4662351250 0.0762997813
0.3681628125 0.4666488125 0.0724903750
0.3999352187 0.4675809063 0.0672148750
0.4345397500 0.4689952500 0.0607265625
0.4719306562 0.4706169688 0.0552871562
0.5119756250 0.4724405625 0.0507576250
0.5540548125 0.4742575625 0.0480190625
0.5970903125 0.4764288750 0.0458525000
0.6401780000 0.4787840000 0.0447563125
0.6827310000 0.4814018750 0.0449103125
0.7243431563 0.4844135938 0.0459406875
0.7647728750 0.4877803125 0.0475528750
0.8039863437 0.4915962812 0.0498952187
0.8416024375 0.4957841250 0.0520698750
0.8769970938 0.5001943438 0.0536516875
0.9088678750 0.5045673125 0.0544453750
0.9356794687 0.5089150625 0.0547293125
0.9560906250 0.5131229375 0.0543726875
0.9698722500 0.5171646250 0.0543127812
0.9779488125 0.5211081875 0.0542950000
0.9820603125 0.5248716562 0.0546544375
0.9842470000 0.5286497500 0.0552113750
0.1440960937 0.4933138750 0.0878209375
0.1523077187 0.4978388437 0.0905939688
0.1628450938 0.5023695313 0.0933288438
0.1753466563 0.5057088750 0.0961820000
0.1898269062 0.5073645937 0.0976631250
0.2076216250 0.5069674688 0.0981167500
0.2293517812 0.5048886563 0.0973912188
0.2535999063 0.5023897813 0.0965948750
0.2765130625 0.5003975000 0.0955834375
0.2988095312 0.4989034063 0.0948543125
0.3222460938 0.4980039688 0.0938793125
0.3472427500 0.4976369688 0.0919545000
0.3740389063 0.4977335625 0.0891532188
0.4032467188 0.4983094687 0.0846861875
0.4351003125 0.4993272812 0.0789105625
0.4693731875 0.5007605000 0.0727632187
0.5060773125 0.5024746562 0.0672489062
0.5450231875 0.5043419375 0.0627937188
0.5857846562 0.5063853437 0.0595082500
0.6274041250 0.5086380000 0.0570282812
0.6692453125 0.5111571875 0.0560088750
0.7108799688 0.5140270625 0.0556853438
0.7517651563 0.5173263437 0.0563130938
0.7916856875 0.5210399375 0.0577021250
0.8303139688 0.5251997500 0.0585882500
0.8669818437 0.5295837187 0.0590460312
0.9003867188 0.5340891875 0.0589045312
0.9289405937 0.5386065937 0.0579935625
0.9512322500 0.5429531875 0.0564495000
0.9667808438 0.5472309062 0.0552113750
0.9762813750 0.5513271562 0.0542547500
0.9814575000 0.5553940000 0.0539325938
0.9843621250 0.5594623437 0.0536080938
0.1778955000 0.5251395000 0.1054145000
0.1842268125 0.5296206875 0.1076081563
0.1920365000 0.5340140625 0.1097725000
0.2015866250 0.5372777187 0.1115651875
0.2136930000 0.5390796250 0.1129578750
0.2289703125 0.5391513437 0.1133990000
0.2478604375 0.5376544375 0.1132190000
0.2692104063 0.5352947188 0.1124121250
0.2909947500 0.5330290000 0.1115425000
0.3119695625 0.5312110313 0.1107590625
0.3335540000 0.5298938125 0.1097026250
0.3565952813 0.5290601250 0.1080341563
0.3814755000 0.5287671250 0.1056186250
0.4085822500 0.5289707500 0.1017970313
0.4379374375 0.5296993125 0.0967230625
0.4693603750 0.5307949063 0.0907647188
0.5030410000 0.5322685000 0.0846795000
0.5389384688 0.5339406875 0.0791449687
0.5769046875 0.5359007500 0.0742755000
0.6163675625 0.5380908125 0.0706376562
0.6567173750 0.5404595000 0.0677416250
0.6975155625 0.5432399688 0.0659723750
0.7382447500 0.5463821875 0.0654460625
0.7785392500 0.5500075313 0.0650690000
0.8179645000 0.5540460000 0.0646530000
0.8557457813 0.5583381250 0.0636978750
0.8907054375 0.5628431250 0.0620064375
0.9210862187 0.5672890938 0.0598844375
0.9454130000 0.5716562500 0.0572051250
0.9630461875 0.5760225312 0.0544932812
0.9743597500 0.5802578750 0.0523023750
0.9808685938 0.5845163125 0.0509744063
0.9848090000 0.5887455000 0.0500025000
0.2001574063 0.5564764687 0.1183741563
0.2050876250 0.5608669687 0.1200126563
0.2115232813 0.5650699062 0.1218080000
0.2198627188 0.5683098750 0.1234024375
0.2308978750 0.5703106562 0.1247130938
0.2449225313 0.5707208437 0.1253918438
0.2622560625 0.5696087188 0.1253918437
0.2821340625 0.5676469687 0.1252902812
0.3031949375 0.5653849687 0.1246620000
0.3240563750 0.5633269687 0.1240305625
0.3450350000 0.5616753750 0.1232204375
0.3670104687 0.5605565625 0.1218320313
0.3903382500 0.5598124063 0.1198315625
0.4154870312 0.5596185938 0.1167882813
0.4425140000 0.5599193750 0.1125015313
0.4714541562 0.5606933125 0.1071678438
0.5024240000 0.5618496875 0.1012088750
0.5355179062 0.5633856562 0.0951288125
0.5706703438 0.5651867500 0.0890979062
0.6075955937 0.5672505625 0.0840482500
0.6458935937 0.5695594063 0.0796613438
0.6852463750 0.5722055000 0.0764715625
0.7250581875 0.5752570625 0.0737736875
0.7651243750 0.5787020938 0.0719450625
0.8048017187 0.5826140312 0.0699134375
0.8434325625 0.5867066563 0.0674205937
0.8797343125 0.5910281250 0.0643220937
0.9119740312 0.5953460625 0.0609599063
0.9384678125 0.5996888125 0.0565842500
0.9583963438 0.6039482188 0.0528523437
0.9717824063 0.6081905312 0.0495782813
0.9801038438 0.6124537813 0.0465505938
0.9856149687 0.6167620625 0.0448136563
0.2162170000 0.5876394375 0.1287157500
0.2207510313 0.5918658437 0.1303593125
0.2264350000 0.5959143750 0.1320261875
0.2340912813 0.5991545938 0.1336575000
0.2443566875 0.6012941250 0.1351247500
0.2575936563 0.6019934687 0.1357429375
0.2740075000 0.6012657500 0.1362090000
0.2929596562 0.5996457813 0.1362090000
0.3135300000 0.5975514375 0.1361158750
0.3344900000 0.5953258125 0.1355369687
0.3555086250 0.5934548125 0.1349554375
0.3769807187 0.5919465625 0.1340082187
0.3993523125 0.5908640000 0.1324568750
0.4229949063 0.5902615937 0.1300129688
0.4482288750 0.5902166250 0.1264653125
0.4751540312 0.5905283437 0.1218301250
0.5039900000 0.5914292500 0.1162554375
