bundles/resolve-cinematic-luts/Gamut/Le Reve/Le Reve III.cube
TITLE "Le Reve III by Le Reve Films"
# Version 1.0 - 01/22/2022 - Designed for Rec.709 Color Space. Copyright 2023 Gamut, LLC
LUT_3D_SIZE 5
0.0000000000 0.0063090000 0.0000000000
0.2053655000 0.0000000000 0.0000000000
0.5510980000 0.0000000000 0.0000000000
0.8282432500 0.0000000000 0.0000000000
0.9988990000 0.0007890000 0.0015770000
0.0000000000 0.2051905000 0.0015770000
0.1641445000 0.2218762500 0.0000000000
0.6378702500 0.2301500000 0.0000000000
0.9431902500 0.2531870000 0.0380397500
1.0000000000 0.3200120000 0.1052925000
0.0003945000 0.5729015000 0.0468615000
0.2309057500 0.5982090000 0.0760060000
0.5195070000 0.6016655000 0.0299660000
0.8714077500 0.6492607500 0.0029572500
1.0000000000 0.7036620000 0.0669330000
0.0786757500 0.8904435000 0.1671940000
0.3354212500 0.8988675000 0.1941057500
0.6054865000 0.8766530000 0.1557612500
0.8177730000 0.8826767500 0.0863855000
0.9713437500 0.9166127500 0.0952932500
0.2248490000 1.0000000000 0.3655410000
0.4834992500 1.0000000000 0.3623390000
0.7236900000 1.0000000000 0.3128625000
0.8799020000 1.0000000000 0.2327067500
0.9841380000 1.0000000000 0.1712430000
0.0007890000 0.0000000000 0.2546087500
0.1947837500 0.0000000000 0.2564257500
0.5583990000 0.0000000000 0.2207267500
0.8357012500 0.0000000000 0.2591960000
0.9996712500 0.0007890000 0.3381452500
0.0000000000 0.2134225000 0.2486127500
0.2035195000 0.2389022500 0.2518405000
0.6050875000 0.2420767500 0.2860927500
0.9028292500 0.2831127500 0.3529270000
1.0000000000 0.3552400000 0.4302312500
0.0003945000 0.5875067500 0.3039965000
0.2608550000 0.6238862500 0.3474790000
0.5749442500 0.6164977500 0.3104072500
0.9251050000 0.6670712500 0.3221115000
1.0000000000 0.7050857500 0.4445030000
0.0717887500 0.9009912500 0.4517777500
0.3526377500 0.9106782500 0.4831425000
0.6517690000 0.8845132500 0.4597302500
0.8381052500 0.8800015000 0.3757675000
0.9942760000 0.9222687500 0.3670337500
0.2096082500 1.0000000000 0.6486670000
0.4842175000 1.0000000000 0.6402267500
0.7495537500 1.0000000000 0.6039020000
0.8917155000 1.0000000000 0.5450080000
0.9840762500 1.0000000000 0.4642797500
0.0055200000 0.0000000000 0.6128730000
0.1438952500 0.0000000000 0.6061532500
0.5448540000 0.0000000000 0.6043775000
0.8425415000 0.0000000000 0.5997265000
0.9997320000 0.0000000000 0.6662120000
0.0000000000 0.1973030000 0.6217200000
0.2291217500 0.2239635000 0.6274590000
0.6151755000 0.2223562500 0.6642312500
0.9228305000 0.2433070000 0.7172485000
1.0000000000 0.3090647500 0.8017675000
0.0000000000 0.5832965000 0.6381725000
0.2157787500 0.6164122500 0.6558707500
0.6102795000 0.6244370000 0.6409930000
0.8811595000 0.6393915000 0.6890620000
1.0000000000 0.7007795000 0.7479360000
0.0350915000 0.8930915000 0.7185297500
0.3112192500 0.9062232500 0.7352632500
0.6706452500 0.8918662500 0.7269537500
0.8561237500 0.8754222500 0.6810062500
0.9998990000 0.9232140000 0.7191577500
0.1750175000 1.0000000000 0.8606840000
0.4470975000 1.0000000000 0.8475965000
0.7548935000 1.0000000000 0.8207975000
0.9071450000 1.0000000000 0.7878350000
0.9807040000 1.0000000000 0.7248100000
0.0143912500 0.0000000000 0.8508557500
0.1820450000 0.0000000000 0.8410410000
0.4639072500 0.0000000000 0.8516602500
0.8374880000 0.0000000000 0.8603357500
0.9998457500 0.0000000000 0.8967652500
0.0043370000 0.1929400000 0.8638245000
0.2622642500 0.2193770000 0.8746660000
0.5606760000 0.2266982500 0.8852390000
0.9257830000 0.2429082500 0.9415802500
1.0000000000 0.2996105000 0.9854750000
0.0000000000 0.5825560000 0.8860422500
0.2444690000 0.6106382500 0.8909760000
0.6247172500 0.6081477500 0.8756862500
0.8997542500 0.6266437500 0.9115800000
1.0000000000 0.6724992500 0.9566782500
0.0088717500 0.8952437500 0.9311615000
0.2602537500 0.9049515000 0.9317575000
0.6235957500 0.8824132500 0.8979752500
0.8796285000 0.8804495000 0.8834595000
1.0000000000 0.9015707500 0.9095922500
0.1294312500 1.0000000000 0.9977425000
0.3848650000 1.0000000000 0.9877097500
0.7151230000 1.0000000000 0.9509750000
0.9219022500 1.0000000000 0.9374197500
0.9900675000 1.0000000000 0.9012455000
0.0291770000 0.0000000000 1.0000000000
0.2177657500 0.0000000000 0.9895782500
0.4342955000 0.0000000000 0.9886055000
0.8110305000 0.0000000000 0.9992282500
0.9999460000 0.0000000000 1.0000000000
0.0339090000 0.2007227500 1.0000000000
0.3013687500 0.2263687500 1.0000000000
0.5937907500 0.2402002500 1.0000000000
0.8966315000 0.2535390000 1.0000000000
1.0000000000 0.3134947500 1.0000000000
0.0094625000 0.5919905000 1.0000000000
0.2867252500 0.6172555000 1.0000000000
0.6520870000 0.6099675000 1.0000000000
0.8628882500 0.6194045000 1.0000000000
1.0000000000 0.6724905000 1.0000000000
0.0214887500 0.9030130000 1.0000000000
0.2811212500 0.9079847500 1.0000000000
0.6383347500 0.8792157500 1.0000000000
0.8856445000 0.8738742500 1.0000000000
1.0000000000 0.8907082500 1.0000000000
0.1207480000 1.0000000000 1.0000000000
0.3631875000 1.0000000000 1.0000000000
0.6841495000 1.0000000000 1.0000000000
0.8977710000 1.0000000000 1.0000000000
0.9997580000 0.9997580000 0.9997580000
