bundles/resolve-cinematic-luts/Gamut/Le Reve/Le Reve V.cube
TITLE "Le Reve V by Le Reve Films"
# Version 1.0 - 01/22/2022 - Designed for Rec.709 Color Space. Copyright 2023 Gamut, LLC
LUT_3D_SIZE 5
0.0000000000 0.0000000000 0.0000000000
0.1296692500 0.0080830000 0.0000000000
0.4450260000 0.0031540000 0.0000000000
0.7573977500 0.0033512500 0.0000000000
0.9830410000 0.0212920000 0.0000000000
0.0153772500 0.2367210000 0.0331200000
0.2218462500 0.2539127500 0.0386400000
0.6026825000 0.2765625000 0.0436327500
0.8830937500 0.2936920000 0.0413657500
1.0000000000 0.3264785000 0.0494840000
0.0153770000 0.5709835000 0.0482905000
0.2387552500 0.5805390000 0.0496665000
0.5174095000 0.5783000000 0.0440050000
0.8490667500 0.6218885000 0.0766517500
1.0000000000 0.6835250000 0.1231900000
0.0415615000 0.8656430000 0.1102197500
0.2895270000 0.8750140000 0.1012632500
0.5477160000 0.8560795000 0.0766555000
0.7765345000 0.8559502500 0.0644995000
0.9781685000 0.8864927500 0.1270242500
0.1086230000 1.0000000000 0.2460690000
0.4156005000 1.0000000000 0.2510877500
0.7119805000 0.9999330000 0.3798405000
0.8636117500 0.9855137500 0.5132280000
0.9533850000 0.9905500000 0.6244540000
0.0147857500 0.0045340000 0.0702082500
0.1339462500 0.0120260000 0.1479582500
0.4711230000 0.0033512500 0.1580682500
0.7937642500 0.0033512500 0.1307470000
0.9987987500 0.0268120000 0.1287470000
0.0354860000 0.2359315000 0.2797440000
0.2646365000 0.2571477500 0.2786777500
0.6103430000 0.2716380000 0.2473352500
0.8819222500 0.3035022500 0.2292605000
1.0000000000 0.3450560000 0.2235687500
0.0303597500 0.5634242500 0.3225085000
0.2793200000 0.5890190000 0.3196927500
0.5721315000 0.5891742500 0.3069095000
0.8901955000 0.6483307500 0.3651085000
1.0000000000 0.6958415000 0.3927265000
0.0500022500 0.8654002500 0.3977250000
0.3233422500 0.8800297500 0.3888537500
0.5976105000 0.8627925000 0.3509217500
0.8046062500 0.8529820000 0.3312575000
0.9931450000 0.8974985000 0.4534507500
0.1312687500 1.0000000000 0.5363690000
0.4821645000 1.0000000000 0.5571560000
0.7695357500 0.9996645000 0.6430402500
0.8908575000 0.9862177500 0.7000860000
0.9694612500 0.9939997500 0.7714020000
0.0212920000 0.0055200000 0.2337635000
0.1356180000 0.0143912500 0.3730615000
0.4534965000 0.0035485000 0.4602695000
0.7715155000 0.0000000000 0.4777930000
0.9916360000 0.0181370000 0.4858430000
0.0511850000 0.2332035000 0.5547920000
0.2942582500 0.2487265000 0.5513560000
0.5770425000 0.2619240000 0.5807270000
0.8707960000 0.2848480000 0.5713107500
1.0000000000 0.3363240000 0.5751195000
0.0465365000 0.5506905000 0.6074380000
0.3070620000 0.5725260000 0.6080950000
0.6087410000 0.5924110000 0.6090520000
0.8843282500 0.6268525000 0.6053875000
1.0000000000 0.6859430000 0.6249665000
0.0597087500 0.8468495000 0.6806222500
0.3333997500 0.8622105000 0.6754732500
0.6354670000 0.8641952500 0.6565182500
0.8371070000 0.8542647500 0.6385882500
0.9993827500 0.9163977500 0.7521842500
0.1627930000 1.0000000000 0.7991500000
0.5410057500 1.0000000000 0.7981830000
0.8006135000 0.9985095000 0.8194165000
0.9191650000 0.9908695000 0.8439737500
0.9845350000 0.9985900000 0.8812005000
0.0244460000 0.0007890000 0.4473685000
0.1657602500 0.0100540000 0.5929010000
0.4372427500 0.0043370000 0.7103575000
0.7535370000 0.0000000000 0.7533895000
0.9641722500 0.0157710000 0.7768317500
0.0718412500 0.2315402500 0.7873097500
0.3257380000 0.2398057500 0.7775660000
0.5400617500 0.2571512500 0.7988955000
0.8347625000 0.2783812500 0.8327320000
1.0000000000 0.3162300000 0.8559487500
0.0707932500 0.5500592500 0.8226630000
0.3465277500 0.5614047500 0.8190267500
0.6295780000 0.5816397500 0.8182150000
0.8547742500 0.6087292500 0.8502187500
1.0000000000 0.6615582500 0.8758432500
0.0809957500 0.8391765000 0.8838000000
0.3556117500 0.8412510000 0.8716992500
0.6492772500 0.8451052500 0.8607570000
0.8635332500 0.8555250000 0.8575217500
1.0000000000 0.9033635000 0.8861565000
0.2231527500 1.0000000000 0.9609692500
0.5895587500 0.9946010000 0.9266700000
0.8161327500 0.9885030000 0.9277527500
0.9380910000 0.9935872500 0.9407362500
0.9940675000 1.0000000000 0.9533400000
0.0362740000 0.0000000000 0.6709400000
0.2164127500 0.0043367500 0.7819522500
0.4362465000 0.0110400000 0.8875940000
0.7388367500 0.0065060000 0.9319880000
0.9582840000 0.0244460000 0.9639120000
0.1001122500 0.2333610000 0.9530620000
0.3635367500 0.2392430000 0.9442520000
0.5601940000 0.2640507500 0.9520610000
0.8084370000 0.2790627500 0.9884540000
0.9999460000 0.3242502500 1.0000000000
0.1058560000 0.5545505000 0.9772955000
0.3892227500 0.5622727500 0.9735595000
0.6571960000 0.5751115000 0.9669620000
0.8235892500 0.5957607500 0.9844315000
0.9999460000 0.6495470000 1.0000000000
0.1158675000 0.8412120000 0.9999595000
0.3994602500 0.8377262500 0.9980455000
0.6791195000 0.8355585000 0.9871055000
0.8774110000 0.8510517500 0.9762085000
0.9793947500 0.8840980000 0.9803527500
0.3063370000 1.0000000000 1.0000000000
0.6414107500 0.9823197500 0.9981397500
0.8371200000 0.9821895000 0.9908490000
0.9505825000 0.9935467500 0.9963285000
1.0000000000 1.0000000000 1.0000000000
