bundles/resolve-cinematic-luts/Gamut/Le Reve/Le Reve III.cube
TITLE "Le Reve III by Le Reve Films"
# Version 1.0 - 01/22/2022 - Designed for Rec.709 Color Space. Copyright 2023 Gamut, LLC
LUT_3D_SIZE 33
0.0000000000 0.0063090000 0.0000000000
0.0038197813 0.0086493750 0.0000000000
0.0290295625 0.0086740000 0.0000000000
0.0536988438 0.0086740000 0.0000000000
0.0818768750 0.0070970000 0.0000000000
0.1078084063 0.0056432812 0.0000000000
0.1355641875 0.0033019375 0.0000000000
0.1679185625 0.0001725938 0.0000000000
0.2053655000 0.0000000000 0.0000000000
0.2465884063 0.0000000000 0.0000000000
0.2907433750 0.0000000000 0.0000000000
0.3340256250 0.0000000000 0.0000000000
0.3779727500 0.0000000000 0.0000000000
0.4212565312 0.0000000000 0.0000000000
0.4651450625 0.0000000000 0.0000000000
0.5083487813 0.0000000000 0.0000000000
0.5510980000 0.0000000000 0.0000000000
0.5920600312 0.0000000000 0.0000000000
0.6309137500 0.0000000000 0.0000000000
0.6678619688 0.0000000000 0.0000000000
0.7025027500 0.0000000000 0.0000000000
0.7357970938 0.0000000000 0.0000000000
0.7679946875 0.0000000000 0.0000000000
0.7991278438 0.0000000000 0.0000000000
0.8282432500 0.0000000000 0.0000000000
0.8554567813 0.0000000000 0.0000000000
0.8809706250 0.0000000000 0.0000000000
0.9049338438 0.0000000000 0.0000000000
0.9281052500 0.0000000000 0.0000986250
0.9505916875 0.0000000000 0.0007890000
0.9710462500 0.0000000000 0.0007890000
0.9878170625 0.0000000000 0.0007890000
0.9988990000 0.0007890000 0.0015770000
0.0000000000 0.0264669688 0.0000000000
0.0107689375 0.0272303438 0.0000000000
0.0269839375 0.0257765938 0.0000000000
0.0530233750 0.0242241562 0.0000000000
0.0837026563 0.0204536875 0.0000000000
0.1111095000 0.0180385000 0.0000000000
0.1406396250 0.0150569062 0.0000000000
0.1731113750 0.0105714375 0.0000000000
0.2099345625 0.0059636250 0.0000000000
0.2500965000 0.0005915000 0.0000000000
0.2928772188 0.0000000000 0.0000000000
0.3359088437 0.0000000000 0.0000000000
0.3798986875 0.0000000000 0.0000000000
0.4252294062 0.0000000000 0.0000000000
0.4699357500 0.0000000000 0.0000000000
0.5147029687 0.0000000000 0.0000000000
0.5583643750 0.0000000000 0.0000000000
0.6002561250 0.0000000000 0.0000000000
0.6404437188 0.0000000000 0.0000000000
0.6783574063 0.0000000000 0.0000000000
0.7134120625 0.0000000000 0.0000000000
0.7471420625 0.0000000000 0.0000000000
0.7794496250 0.0002465625 0.0000000000
0.8103450625 0.0007643437 0.0000000000
0.8394918438 0.0007643438 0.0000000000
0.8665043437 0.0009367188 0.0000000000
0.8918588750 0.0015277187 0.0000000000
0.9157062188 0.0024398438 0.0001232812
0.9388481875 0.0039429375 0.0007643437
0.9606102188 0.0062350000 0.0015523750
0.9795611250 0.0086247500 0.0023659688
0.9934785313 0.0140461563 0.0039183437
0.9995575625 0.0209223437 0.0069737812
0.0000000000 0.0434725625 0.0023166875
0.0123459375 0.0427285625 0.0030554375
0.0278468125 0.0427285625 0.0000493125
0.0446755312 0.0420506875 0.0000000000
0.0772756875 0.0376540625 0.0000000000
0.1124031562 0.0336132813 0.0000000000
0.1439831875 0.0297688125 0.0000000000
0.1793873750 0.0259983750 0.0000000000
0.2187790000 0.0207493750 0.0000000000
0.2632379375 0.0151062500 0.0000000000
0.3083101875 0.0097587500 0.0000000000
0.3530120000 0.0044605625 0.0000000000
0.3979965000 0.0017250000 0.0000000000
0.4437882812 0.0014784375 0.0000000000
0.4895088750 0.0014784375 0.0000000000
0.5346596250 0.0014784375 0.0000000000
0.5781906250 0.0014784375 0.0000000000
0.6196465625 0.0014784375 0.0000000000
0.6592062500 0.0014784375 0.0000000000
0.6957094688 0.0014784375 0.0000000000
0.7306746875 0.0017743125 0.0000000000
0.7638106562 0.0022674375 0.0000000000
0.7956531250 0.0030061875 0.0000000000
0.8259415000 0.0039675000 0.0000000000
0.8543146875 0.0047311250 0.0000000000
0.8808378750 0.0062349375 0.0007396875
0.9058075000 0.0086246875 0.0008874375
0.9297400625 0.0127155625 0.0023905625
0.9526704375 0.0179892500 0.0038936250
0.9731607813 0.0241256562 0.0062104063
0.9889011250 0.0317405000 0.0093643750
0.9966700625 0.0402919375 0.0154260312
0.9999376250 0.0506735000 0.0215378750
0.0000000000 0.0602395312 0.0031540000
0.0108921562 0.0602395312 0.0039430000
0.0271071250 0.0590385000 0.0016016875
0.0417829687 0.0591009375 0.0000000000
0.0638535938 0.0589755000 0.0000000000
0.0963586563 0.0560043750 0.0000000000
0.1366810313 0.0522595000 0.0000000000
0.1803685625 0.0470265000 0.0000000000
0.2265449687 0.0414145625 0.0000000000
0.2757763437 0.0359044375 0.0000000000
0.3252237188 0.0303845000 0.0000000000
0.3724284688 0.0262451250 0.0000000000
0.4190799063 0.0217844062 0.0000000000
0.4663337500 0.0185316563 0.0000000000
0.5133252188 0.0160180312 0.0000000000
0.5590623750 0.0137506562 0.0000000000
0.6026206250 0.0122721875 0.0000000000
0.6433820000 0.0115083125 0.0000000000
0.6814920937 0.0111635625 0.0000000000
0.7172347187 0.0114836875 0.0000000000
0.7511329063 0.0122475312 0.0000000000
0.7838397812 0.0144406875 0.0000000000
0.8151167812 0.0169546562 0.0002465625
0.8447666875 0.0199854062 0.0007150312
0.8724112813 0.0239285312 0.0017003750
0.8986374062 0.0286103438 0.0031787500
0.9232446562 0.0338839062 0.0055200000
0.9465254375 0.0407885312 0.0086740312
0.9679108437 0.0479259063 0.0139970000
0.9850945937 0.0556417500 0.0200593750
0.9946227500 0.0648595000 0.0261219687
0.9985045625 0.0756290313 0.0331696875
1.0000000000 0.0873685625 0.0414872813
0.0000000000 0.0801125000 0.0016756250
0.0071955937 0.0796506875 0.0016756250
0.0254808750 0.0796008125 0.0023660000
0.0410230625 0.0809306250 0.0000739688
0.0620026250 0.0814033750 0.0000000000
0.0823580313 0.0817417500 0.0000000000
0.1156684375 0.0816376250 0.0000000000
0.1636155938 0.0780620000 0.0000000000
0.2185581250 0.0722278750 0.0000000000
0.2763369375 0.0661026250 0.0000000000
0.3330121250 0.0599166875 0.0000000000
0.3863025937 0.0550254375 0.0000000000
0.4368467500 0.0507075000 0.0000000000
0.4858685625 0.0470735625 0.0000000000
0.5337165000 0.0444748125 0.0000000000
0.5797628437 0.0423049688 0.0000000000
0.6226302500 0.0408335000 0.0000000000
0.6628924375 0.0400995313 0.0000000000
0.7002851875 0.0396933750 0.0000000000
0.7357849687 0.0400009062 0.0000000000
0.7701547500 0.0421307500 0.0000000000
0.8029050937 0.0445419062 0.0006903750
0.8339706875 0.0480335625 0.0017250625
0.8633882187 0.0520961562 0.0036223125
0.8908195000 0.0576257500 0.0072942500
0.9165714687 0.0635639688 0.0124445625
0.9407916875 0.0708341875 0.0178414375
0.9627323437 0.0781924063 0.0238544375
0.9809621250 0.0862735000 0.0308530000
0.9925275313 0.0949505938 0.0378205000
0.9976283125 0.1048586875 0.0452450625
0.9994741563 0.1160114687 0.0537949062
1.0000000000 0.1279315000 0.0614986250
0.0000000000 0.1046989687 0.0007890000
0.0047310625 0.1046336562 0.0015523750
0.0239284375 0.1050111563 0.0030308750
0.0415878125 0.1060321250 0.0036965938
0.0624844062 0.1081242188 0.0000986250
0.0836712187 0.1100910625 0.0000000000
0.1066744375 0.1111465312 0.0000000000
0.1414566250 0.1117565312 0.0000000000
0.1963984062 0.1091373750 0.0000000000
0.2613692813 0.1031450625 0.0000000000
0.3240348125 0.0969433438 0.0000000000
0.3833229062 0.0917000625 0.0000000000
0.4406195625 0.0868891562 0.0000000000
0.4956609063 0.0829128125 0.0000000000
0.5473182813 0.0800100000 0.0000000000
0.5950482812 0.0782223438 0.0000000000
0.6392857500 0.0771617500 0.0000000000
0.6801480313 0.0771281250 0.0000000000
0.7178419062 0.0777200625 0.0000000000
0.7537111563 0.0790635312 0.0003205313
0.7877603438 0.0814190313 0.0010845000
0.8204653750 0.0847616875 0.0030556875
0.8513121562 0.0889210937 0.0073435625
0.8805216563 0.0939833125 0.0120999688
0.9078339687 0.0998673438 0.0180632500
0.9331370313 0.1065635313 0.0249385312
0.9562992188 0.1138432500 0.0319620625
0.9758658437 0.1217263125 0.0395768438
0.9897650625 0.1297260000 0.0475385937
0.9965188750 0.1385796250 0.0552523750
0.9991345313 0.1483038125 0.0634314062
0.9998533125 0.1593935312 0.0719469062
1.0000000000 0.1715680625 0.0805729688
0.0000000000 0.1338349375 0.0014292500
0.0039675625 0.1352498438 0.0036226563
0.0237560000 0.1357280625 0.0059638750
0.0429890313 0.1371332188 0.0068752812
0.0651290000 0.1378360000 0.0059638750
0.0848105313 0.1411973438 0.0001232812
0.1085188750 0.1433404375 0.0000000000
0.1348208750 0.1442730000 0.0000000000
0.1728510000 0.1452636250 0.0000000000
0.2335293750 0.1431294063 0.0000000000
0.3026435625 0.1382481250 0.0000000000
0.3675886875 0.1334612813 0.0000000000
0.4304290000 0.1299967500 0.0000000000
0.4910073437 0.1268002187 0.0000000000
0.5486222500 0.1238959375 0.0000000000
0.6015168750 0.1220598438 0.0000000000
0.6498914375 0.1217383750 0.0000000000
0.6934066563 0.1221427812 0.0000000000
0.7331111875 0.1236386250 0.0003451875
0.7697497500 0.1255235937 0.0014296562
0.8041160625 0.1283035625 0.0042386875
0.8365371563 0.1317187187 0.0088959375
0.8672191250 0.1361318125 0.0144406250
0.8961544375 0.1414345625 0.0208726562
0.9229538125 0.1473513750 0.0282902500
0.9475194063 0.1540473438 0.0354612812
0.9688185625 0.1611697500 0.0432092500
0.9852519375 0.1688949688 0.0517922812
0.9946224375 0.1768631875 0.0600047500
0.9985713125 0.1855264375 0.0692104375
0.9997751875 0.1952415000 0.0776638125
0.9999898750 0.2060892187 0.0859978125
1.0000000000 0.2179115625 0.0943929375
0.0000000000 0.1677485938 0.0015770000
0.0024398125 0.1695466563 0.0038937188
0.0217349687 0.1708758125 0.0069984375
0.0417286250 0.1723622500 0.0086001250
0.0647935000 0.1725766875 0.0086001250
0.0853551563 0.1751840312 0.0073931563
0.1078816250 0.1785490312 0.0009120937
0.1343576563 0.1798839375 0.0000000000
0.1640286563 0.1805760937 0.0000000000
0.2062880938 0.1824097188 0.0000000000
0.2680392812 0.1827992187 0.0000000000
0.3387678438 0.1814200938 0.0000000000
0.4084678438 0.1789776250 0.0000000000
0.4753367500 0.1770215938 0.0000000000
0.5381675938 0.1754139375 0.0000000000
0.5964991562 0.1742521563 0.0000000000
0.6497218125 0.1740286875 0.0000000000
0.6972757500 0.1744621875 0.0000000000
0.7402245625 0.1757184687 0.0009611562
0.7792378125 0.1777478125 0.0033267812
0.8151277500 0.1805581875 0.0076392812
0.8483933125 0.1838976875 0.0133562187
0.8795830312 0.1881815000 0.0198132188
0.9085438750 0.1932426875 0.0271815000
0.9352054687 0.1988836875 0.0345741875
0.9588944062 0.2052884688 0.0426424375
0.9781822500 0.2121943750 0.0510048750
0.9909979062 0.2195302500 0.0593274063
0.9972914375 0.2273616563 0.0681986562
0.9994792812 0.2356184375 0.0768375938
0.9999318750 0.2451616562 0.0856484062
1.0000000000 0.2559162812 0.0940683125
1.0000000000 0.2674719375 0.1019555938
0.0000000000 0.2051905000 0.0015770000
0.0009367188 0.2070919375 0.0038937188
0.0186302500 0.2088385000 0.0064074375
0.0387863750 0.2112081250 0.0086001250
0.0631516250 0.2120492500 0.0098567500
0.0852778125 0.2142347500 0.0099800313
0.1077728750 0.2176144375 0.0073438750
0.1335330937 0.2201647187 0.0009367188
0.1641445000 0.2218762500 0.0000000000
0.1990811875 0.2233655938 0.0000000000
0.2447059375 0.2264095625 0.0000000000
0.3041780000 0.2296425937 0.0000000000
0.3747028750 0.2312760000 0.0000000000
0.4470342188 0.2311925000 0.0000000000
0.5163081250 0.2306273750 0.0000000000
0.5801097813 0.2302435000 0.0000000000
0.6378702500 0.2301500000 0.0000000000
0.6898105937 0.2306371562 0.0000000000
0.7365911250 0.2316043125 0.0007890000
0.7790485000 0.2333298750 0.0030066563
0.8176550000 0.2357945000 0.0076887500
0.8530528438 0.2390078750 0.0139724062
0.8857678125 0.2429928750 0.0213900000
0.9158910937 0.2477192187 0.0293007188
0.9431902500 0.2531870000 0.0380397500
0.9666360938 0.2592697500 0.0463503438
0.9842245000 0.2659811875 0.0547905625
0.9945167500 0.2731474688 0.0636456875
0.9987547500 0.2806797500 0.0726047500
0.9998515625 0.2887310313 0.0810853750
1.0000000000 0.2979191250 0.0895381250
1.0000000000 0.3084875625 0.0973610625
1.0000000000 0.3200120000 0.1052925000
0.0000000000 0.2446890625 0.0013553750
0.0007643438 0.2477796563 0.0044600937
0.0167575625 0.2506836250 0.0075655313
0.0376050000 0.2543538750 0.0106702500
0.0632332500 0.2559202812 0.0126419375
0.0868367500 0.2586798750 0.0141944375
0.1113125000 0.2616258125 0.0141697187
0.1370798750 0.2649011562 0.0088222812
0.1675570625 0.2678380938 0.0020948125
0.2029791250 0.2695845000 0.0011334688
0.2421559375 0.2714060625 0.0021440938
0.2875847500 0.2752305000 0.0014046875
0.3453823750 0.2797505000 0.0013553750
0.4141464063 0.2832237500 0.0005670937
0.4860700937 0.2848839375 0.0001232812
0.5547935000 0.2852288438 0.0000000000
0.6177255937 0.2856882813 0.0000000000
0.6744388437 0.2864591875 0.0000000000
0.7253696875 0.2876764687 0.0003451875
0.7712588125 0.2894976563 0.0018975312
0.8129416875 0.2919133750 0.0052737812
0.8509631562 0.2949640937 0.0109907187
0.8858106563 0.2987377813 0.0187041875
0.9177544063 0.3032934375 0.0277971250
0.9464213750 0.3086686875 0.0376759063
0.9704113750 0.3146744375 0.0472395313
0.9873742813 0.3212070312 0.0569306250
0.9963313750 0.3281431563 0.0660931875
0.9993753125 0.3354288125 0.0752325312
0.9999510625 0.3432754063 0.0836356875
1.0000000000 0.3523253438 0.0918966563
1.0000000000 0.3626878125 0.0995908125
1.0000000000 0.3740380000 0.1065770313
0.0000000000 0.2880383125 0.0047806250
0.0015277187 0.2924626250 0.0078856250
0.0178417500 0.2968262500 0.0117298125
0.0406886875 0.3011359375 0.0161413438
0.0678175000 0.3039680625 0.0185312500
0.0929133125 0.3072096875 0.0213904063
0.1183493750 0.3102604375 0.0224248125
0.1451980625 0.3128745000 0.0200842500
0.1749190625 0.3155086250 0.0132085000
0.2093519375 0.3173360312 0.0065549062
0.2474117500 0.3185846250 0.0042381875
0.2874694375 0.3208287187 0.0055449688
0.3334980000 0.3249901875 0.0050765000
0.3899255625 0.3300050313 0.0025138438
0.4557942500 0.3341127500 0.0014293750
0.5250954375 0.3367953750 0.0007890000
0.5916638125 0.3386015625 0.0001479375
0.6530726875 0.3403382188 0.0000000000
0.7084541875 0.3421728125 0.0000000000
0.7582471562 0.3444210937 0.0007890000
0.8031048125 0.3470671250 0.0026611875
0.8438733438 0.3502863125 0.0068261250
0.8810393750 0.3541205000 0.0135040625
0.9150198750 0.3587133750 0.0228192188
0.9453224375 0.3640378125 0.0333171875
0.9704896875 0.3699766875 0.0452026563
0.9879527500 0.3763890625 0.0557377500
0.9967426875 0.3831310313 0.0665833437
0.9995233750 0.3902616875 0.0766167500
1.0000000000 0.3979867500 0.0857526250
1.0000000000 0.4067376250 0.0939709375
1.0000000000 0.4170018750 0.1015106250
1.0000000000 0.4281113125 0.1085298125
0.0000000000 0.3353959062 0.0099558125
0.0020455000 0.3409802188 0.0143420000
0.0216368438 0.3461719688 0.0189997187
0.0459085625 0.3507867188 0.0229427500
0.0744742813 0.3539479688 0.0260474688
0.1004307812 0.3574658750 0.0291523750
0.1266429688 0.3605823750 0.0313457812
0.1542528750 0.3621017500 0.0307794688
0.1840624063 0.3633453125 0.0256290312
0.2170773438 0.3647110312 0.0173484687
0.2536043438 0.3656987188 0.0104239688
0.2922371563 0.3672272812 0.0081319062
0.3332468750 0.3699559062 0.0088962500
0.3797505312 0.3741140000 0.0073931563
0.4350350938 0.3793070625 0.0046080625
0.4979250938 0.3839799687 0.0029817500
0.5637247812 0.3879272812 0.0017002812
0.6275750312 0.3912797500 0.0007890000
0.6867445625 0.3942533125 0.0001725938
0.7405272188 0.3972393438 0.0000000000
0.7889610312 0.4003881563 0.0007890000
0.8327492188 0.4039841563 0.0031789688
0.8724397187 0.4081760937 0.0075898125
0.9083574688 0.4129106562 0.0153032812
0.9404284063 0.4182699687 0.0256044062
0.9671638750 0.4241588438 0.0378684375
0.9861044375 0.4304690625 0.0507050000
0.9960072500 0.4370932188 0.0634072187
0.9993367500 0.4440100312 0.0749725313
0.9999510625 0.4515515000 0.0859762812
1.0000000000 0.4600185000 0.0951205000
1.0000000000 0.4699732187 0.1031732188
1.0000000000 0.4809461875 0.1106675938
0.0000000000 0.3843947500 0.0166583750
0.0053231875 0.3902444063 0.0213164375
0.0267131875 0.3961245625 0.0267625000
0.0518323750 0.4008322500 0.0307055313
0.0807861250 0.4039925000 0.0338102500
0.1077168125 0.4074968438 0.0369149687
0.1345986250 0.4101045000 0.0393719375
0.1629299375 0.4110360312 0.0395198750
0.1931063750 0.4110482500 0.0365705000
0.2257518125 0.4113270000 0.0294974687
0.2609428750 0.4122193750 0.0204538125
0.2982116250 0.4136393437 0.0143423438
0.3372300000 0.4155510000 0.0120256250
0.3790472812 0.4185147812 0.0117297500
0.4259812500 0.4228496875 0.0104979375
0.4799223125 0.4282142813 0.0077379688
0.5397952500 0.4336816250 0.0050272500
0.6018253437 0.4387080937 0.0029817813
0.6622959375 0.4431936250 0.0014294375
0.7189175000 0.4473289688 0.0004931250
0.7708976250 0.4513715000 0.0000000000
0.8178588750 0.4555132500 0.0010598750
0.8602635625 0.4599548125 0.0034501875
0.8984131562 0.4650011875 0.0083788125
0.9323077500 0.4704898750 0.0163628750
0.9609566562 0.4763742812 0.0271070937
0.9821309375 0.4826914375 0.0406900000
0.9941088750 0.4892229375 0.0547012500
0.9987882500 0.4959210000 0.0686930000
0.9998498750 0.5031190937 0.0813853750
1.0000000000 0.5113061875 0.0929998750
1.0000000000 0.5207900000 0.1026082812
1.0000000000 0.5313310000 0.1115040000
0.0000000000 0.4322169687 0.0236325625
0.0091177187 0.4385439688 0.0285860937
0.0306315000 0.4441091563 0.0337362812
0.0573588750 0.4488857188 0.0379255625
0.0869284063 0.4521421250 0.0415089062
0.1143108750 0.4555332188 0.0448764375
0.1420533125 0.4581087500 0.0476869375
0.1710924062 0.4587918750 0.0479603125
0.2021053125 0.4582896563 0.0462046250
0.2350657187 0.4576631250 0.0410891563
0.2693649375 0.4579700000 0.0325781563
0.3052479687 0.4592173750 0.0240760312
0.3428526562 0.4608803125 0.0187039062
0.3824320000 0.4631179375 0.0159193437
0.4248715625 0.4664531875 0.0151550000
0.4717735000 0.4711100312 0.0136519062
0.5240128750 0.4766859063 0.0105471875
0.5804960937 0.4827272188 0.0074424688
0.6385395938 0.4885131250 0.0046574375
0.6954811875 0.4940397813 0.0021932187
0.7494602188 0.4991431562 0.0009613750
0.7993225625 0.5041341562 0.0007890000
0.8445845938 0.5090883438 0.0013553750
0.8852393750 0.5143356250 0.0034501875
0.9212212500 0.5199785313 0.0083788125
0.9521135625 0.5260156875 0.0163628750
0.9760274062 0.5323212188 0.0275507188
0.9909641563 0.5388009687 0.0417253750
0.9977209687 0.5453111563 0.0563425312
0.9996821250 0.5521318438 0.0707789375
1.0000000000 0.5598923438 0.0843561562
1.0000000000 0.5688981875 0.0966964062
1.0000000000 0.5788805312 0.1077544062
0.0000000000 0.4796293125 0.0306069375
0.0124942500 0.4858077813 0.0360283437
0.0352393125 0.4915045625 0.0406723750
0.0625284063 0.4961686562 0.0450919375
0.0925883750 0.4995077500 0.0490353750
0.1207296875 0.5029479375 0.0529036563
0.1492781250 0.5053980625 0.0558826250
0.1793238437 0.5062356562 0.0567514375
0.2113271250 0.5056463125 0.0555372500
0.2447247500 0.5044396875 0.0517759375
0.2787988125 0.5038608125 0.0451554375
0.3136225313 0.5045596875 0.0364472187
0.3499440000 0.5059903125 0.0282899375
0.3882153437 0.5079319063 0.0233615937
0.4282728750 0.5104860000 0.0202568750
0.4707239063 0.5139850938 0.0190487187
0.5166545000 0.5187183125 0.0174963750
0.5664647188 0.5244616562 0.0144409062
0.6191764375 0.5307320625 0.0106458125
0.6733363437 0.5372318125 0.0071219375
0.7268777500 0.5434592500 0.0038935000
0.7781224375 0.5493294687 0.0017495938
0.8256959375 0.5549685000 0.0009860000
0.8688161875 0.5605974375 0.0013553750
0.9071930625 0.5664505000 0.0034501875
0.9404938750 0.5725233125 0.0075898125
0.9674870625 0.5788317500 0.0160670000
0.9860575312 0.5852546875 0.0274029688
0.9957819375 0.5916445000 0.0409433750
0.9991880000 0.5982571250 0.0557134062
0.9999093750 0.6056393750 0.0701481875
1.0000000000 0.6141350313 0.0846555000
1.0000000000 0.6234066250 0.0984538750
0.0000000000 0.5266253750 0.0383687188
0.0163136250 0.5329012813 0.0436292812
0.0402804062 0.5384342187 0.0489045625
0.0682249062 0.5428632500 0.0532453438
0.0986778750 0.5463704687 0.0573136875
0.1274966563 0.5497664687 0.0614708125
0.1569191875 0.5522943438 0.0647051250
0.1880428437 0.5532050313 0.0660446250
0.2208105000 0.5525224063 0.0655040312
0.2548014063 0.5510116875 0.0625613437
0.2890610000 0.5497861250 0.0573284062
0.3235260313 0.5497784375 0.0498890313
0.3588297812 0.5506971563 0.0409948125
0.3957093437 0.5522968125 0.0333912187
0.4341437500 0.5543041875 0.0280190938
0.4740593125 0.5568386875 0.0249139375
0.5158551250 0.5603938438 0.0233615625
0.5599902187 0.5650746250 0.0218091875
0.6068305000 0.5709161250 0.0187533437
0.6559749062 0.5774340000 0.0148596563
0.7064037500 0.5841886875 0.0098814688
0.7565624063 0.5908640938 0.0058650000
0.8048714062 0.5972720625 0.0031295937
0.8497618125 0.6034789375 0.0014048750
0.8903300938 0.6096448125 0.0015770000
0.9261243438 0.6158752500 0.0034501875
0.9562570937 0.6221389687 0.0075898125
0.9787853750 0.6284369687 0.0155745000
0.9922639688 0.6347290000 0.0261953437
0.9980836875 0.6412340000 0.0390242187
0.9997322500 0.6483822812 0.0537253125
1.0000000000 0.6563516875 0.0688290000
1.0000000000 0.6650535937 0.0837120313
0.0003945000 0.5729015000 0.0468615000
0.0209465000 0.5791553125 0.0525330000
0.0464033125 0.5843815625 0.0578556250
0.0750118750 0.5886253750 0.0623063437
0.1055548750 0.5920842500 0.0667087500
0.1352262813 0.5954705000 0.0709511875
0.1653815625 0.5979620000 0.0743349375
0.1973071563 0.5988787813 0.0762635000
0.2309057500 0.5982090000 0.0760060000
0.2654541875 0.5965848750 0.0737918438
0.3000306250 0.5949454375 0.0697337500
0.3344160938 0.5941565000 0.0633794688
0.3690540000 0.5944471250 0.0549792500
0.4047890312 0.5955679063 0.0458160000
0.4418446875 0.5971401875 0.0380488750
0.4801559375 0.5990895312 0.0326767188
0.5195070000 0.6016655000 0.0299660000
0.5598185625 0.6051619688 0.0288076250
0.6016648750 0.6098238125 0.0272552500
0.6453611250 0.6155030938 0.0241994375
0.6908972500 0.6220150000 0.0196157500
0.7377073438 0.6288940312 0.0141696875
0.7844866250 0.6358511875 0.0091181250
0.8295899375 0.6426554375 0.0050764688
0.8714077500 0.6492607500 0.0029572500
0.9091499687 0.6557279687 0.0019715000
0.9421468750 0.6620966250 0.0034501875
0.9686288125 0.6683465312 0.0075898125
0.9866068750 0.6745188750 0.0147858750
0.9959337500 0.6808857187 0.0250373750
0.9992150000 0.6877786250 0.0381790000
0.9999101875 0.6954372812 0.0515141250
1.0000000000 0.7036620000 0.0669330000
0.0026860625 0.6180921562 0.0569073437
0.0266633750 0.6240418125 0.0630591562
0.0535870313 0.6289423750 0.0680063125
0.0829230938 0.6330434375 0.0724572813
0.1135918750 0.6365562812 0.0771612500
0.1438625625 0.6397153438 0.0818221562
0.1747774375 0.6420576562 0.0853597500
0.2074482188 0.6429799375 0.0873106875
0.2417194062 0.6423879688 0.0872821875
0.2768000000 0.6406485625 0.0857653125
0.3117494063 0.6386958750 0.0824369688
0.3462535313 0.6373157812 0.0773271563
0.3806417500 0.6368517813 0.0697304063
0.4154184063 0.6373557812 0.0606284375
0.4512032188 0.6384977500 0.0511340937
0.4881418750 0.6400744063 0.0429604688
0.5258440625 0.6419758750 0.0381227813
0.5638520312 0.6444951250 0.0353874375
0.6022415313 0.6478119688 0.0345984375
0.6414247188 0.6523155000 0.0330707500
0.6819765313 0.6577876875 0.0300152812
0.7241019375 0.6641695937 0.0254315313
0.7673893125 0.6710963750 0.0193202500
0.8105458437 0.6781819688 0.0135291563
0.8520541562 0.6851805625 0.0083537813
0.8906662500 0.6919872500 0.0050764688
0.9256524688 0.6985525625 0.0037454688
0.9556515938 0.7049117813 0.0040661250
0.9782897187 0.7111165000 0.0078610312
0.9919246875 0.7173721250 0.0150813750
0.9979259687 0.7240646875 0.0249388750
0.9996820625 0.7314305313 0.0378262812
1.0000000000 0.7392745938 0.0518215000
0.0084768750 0.6619116250 0.0687841250
0.0339582187 0.6673890625 0.0743499375
0.0621344375 0.6719321250 0.0797065625
0.0918595000 0.6758674062 0.0845021875
0.1226707500 0.6792140000 0.0890774375
0.1534099375 0.6822573750 0.0936993125
0.1850221875 0.6844081875 0.0975730000
0.2183782813 0.6851907812 0.0995555625
0.2532155625 0.6845819375 0.0997456250
0.2888428750 0.6828764687 0.0983989063
0.3241832500 0.6807123125 0.0957365000
0.3589233750 0.6787732187 0.0914899688
0.3931189375 0.6776586250 0.0848721875
0.4273418125 0.6774259062 0.0764507813
0.4620997500 0.6780333125 0.0664367500
0.4976855625 0.6792827188 0.0564952500
0.5339565000 0.6807406875 0.0486213750
