bundles/resolve-cinematic-luts/Gamut/Le Reve/Le Reve II.cube
TITLE "Le Reve II by Le Reve Films"
# Version 1.0 - 01/22/2022 - Designed for Rec.709 Color Space. Copyright 2023 Gamut, LLC
LUT_3D_SIZE 5
0.0134060000 0.0126170000 0.0102510000
0.2594200000 0.0201090000 0.0110400000
0.5722600000 0.0630940000 0.0094630000
0.8410685000 0.1486485000 0.0163627500
0.9959380000 0.1778250000 0.0189260000
0.0526555000 0.2508522500 0.0335147500
0.2285947500 0.2555265000 0.0264175000
0.5890345000 0.2700015000 0.0153770000
0.8859210000 0.2964097500 0.0276002500
0.9905705000 0.3190825000 0.0494980000
0.1778955000 0.5251395000 0.1054145000
0.2909947500 0.5330290000 0.1115425000
0.5030410000 0.5322685000 0.0846795000
0.8179645000 0.5540460000 0.0646530000
0.9848090000 0.5887455000 0.0500025000
0.2309470000 0.7783665000 0.1525677500
0.3332090000 0.7938400000 0.1605185000
0.5438227500 0.7751370000 0.1668390000
0.7503352500 0.7815942500 0.1174795000
0.9718455000 0.8036817500 0.0283890000
0.1979530000 0.9670040000 0.0987290000
0.3506075000 0.9754752500 0.1136185000
0.6016870000 0.9833015000 0.1524365000
0.7794477500 0.9818805000 0.1498702500
0.9447010000 0.9995170000 0.2642360000
0.0224742500 0.0096600000 0.1865685000
0.2212830000 0.0025630000 0.2201502500
0.5259827500 0.0553827500 0.2152252500
0.8146367500 0.1314005000 0.2320375000
0.9942835000 0.1654047500 0.2606572500
0.0782005000 0.2497040000 0.2721060000
0.2558240000 0.2669225000 0.2753057500
0.5953012500 0.2553752500 0.2829417500
0.8874070000 0.2790835000 0.3155030000
0.9894085000 0.2986865000 0.3578432500
0.1758380000 0.5295325000 0.3106577500
0.2930937500 0.5460215000 0.3275875000
0.5294262500 0.5414590000 0.2796937500
0.8589850000 0.5668192500 0.2814167500
0.9844662500 0.5936905000 0.3044800000
0.2286812500 0.7856012500 0.3700095000
0.3278422500 0.8033952500 0.3838727500
0.5660207500 0.7907295000 0.3561490000
0.7739117500 0.7857412500 0.2543522500
0.9869002500 0.8168092500 0.2068720000
0.1525730000 0.9673827500 0.3518122500
0.2386165000 0.9700132500 0.3449512500
0.5414102500 0.9793537500 0.2645697500
0.7954315000 0.9833015000 0.1891890000
0.9626647500 0.9988320000 0.2693600000
0.1031925000 0.0189255000 0.4758090000
0.1751587500 0.0266145000 0.4900462500
0.4916430000 0.0446440000 0.5268855000
0.7691537500 0.1077752500 0.5047042500
0.9693830000 0.1519185000 0.5317680000
0.1406570000 0.2353330000 0.5054377500
0.2883287500 0.2528165000 0.5271667500
0.5494265000 0.2485400000 0.5806280000
0.8550100000 0.2634660000 0.6018682500
0.9935465000 0.2751880000 0.6361467500
0.1676100000 0.5165360000 0.5535430000
0.2734530000 0.5358667500 0.5620677500
0.5324215000 0.5462340000 0.5583330000
0.8526050000 0.5467690000 0.5798832500
0.9844940000 0.5655865000 0.6148425000
0.2315297500 0.7756102500 0.5934167500
0.3137725000 0.7957505000 0.6040282500
0.5518807500 0.8033912500 0.5990227500
0.7888720000 0.7878305000 0.5416417500
0.9918870000 0.8309482500 0.5484620000
0.1359760000 0.9710740000 0.6158805000
0.1980832500 0.9734415000 0.6146072500
0.4738465000 0.9813235000 0.5953035000
0.7928262500 0.9834382500 0.4809315000
0.9640250000 0.9853015000 0.3784335000
0.1698290000 0.0632207500 0.6702060000
0.2431012500 0.0668915000 0.6830062500
0.4308712500 0.0526560000 0.7450272500
0.7446222500 0.1156862500 0.7486562500
0.9316865000 0.1447930000 0.7538735000
0.2105310000 0.2320357500 0.6961485000
0.3328522500 0.2429192500 0.7252152500
0.5123340000 0.2480972500 0.7766110000
0.8160085000 0.2581655000 0.8245870000
0.9951280000 0.2689590000 0.8529445000
0.2360095000 0.5057892500 0.7358867500
0.3333542500 0.5214660000 0.7434285000
0.5494840000 0.5321695000 0.7539425000
0.8029482500 0.5367145000 0.8157232500
0.9856435000 0.5494002500 0.8680167500
0.2368630000 0.7654280000 0.8097500000
0.3055235000 0.7792867500 0.8137215000
0.5331410000 0.7859430000 0.8033700000
0.7923677500 0.7948740000 0.7977887500
0.9948850000 0.8068430000 0.8253755000
0.0930080000 0.9724950000 0.8603107500
0.1040530000 0.9733720000 0.8497142500
0.3517537500 0.9813235000 0.8294135000
0.7811532500 0.9912432500 0.7932400000
0.9892450000 0.9949525000 0.6948990000
0.2262200000 0.0800600000 0.8033000000
0.2895490000 0.0805360000 0.8115712500
0.4190795000 0.0636445000 0.8605855000
0.7173657500 0.1182407500 0.9159230000
0.9200020000 0.1383060000 0.9325920000
0.2293945000 0.2251497500 0.8293040000
0.3615192500 0.2362332500 0.8696650000
0.5208865000 0.2503242500 0.9146162500
0.7827005000 0.2518700000 0.9874182500
0.9930325000 0.2533925000 0.9999665000
0.2427810000 0.4988735000 0.8613240000
0.3504710000 0.5143717500 0.8714355000
0.5580225000 0.5224305000 0.9047945000
0.7611935000 0.5259865000 0.9664892500
0.9852880000 0.5348800000 1.0000000000
0.2061847500 0.7568412500 0.9457895000
0.2923302500 0.7681462500 0.9468717500
0.5406035000 0.7695565000 0.9415955000
0.7968205000 0.7786810000 0.9580915000
0.9929102500 0.7789897500 1.0000000000
0.0874090000 0.9728990000 0.9811450000
0.0874090000 0.9735732500 0.9810280000
0.2524590000 0.9792160000 0.9848085000
0.7484165000 0.9916770000 0.9952022500
0.9974470000 0.9979310000 0.9979310000
