bundles/resolve-cinematic-luts/Gamut/Le Reve/Le Reve V.cube
TITLE "Le Reve V by Le Reve Films"
# Version 1.0 - 01/22/2022 - Designed for Rec.709 Color Space. Copyright 2023 Gamut, LLC
LUT_3D_SIZE 33
0.0000000000 0.0000000000 0.0000000000
0.0069984375 0.0000000000 0.0000000000
0.0216364375 0.0000000000 0.0000000000
0.0295963437 0.0045092812 0.0000000000
0.0403055000 0.0084768750 0.0022673750
0.0561180625 0.0094630000 0.0009121250
0.0768900625 0.0102510000 0.0000000000
0.1014622187 0.0096353750 0.0000000000
0.1296692500 0.0080830000 0.0000000000
0.1612816875 0.0073189062 0.0000000000
0.1957340625 0.0065552500 0.0000000000
0.2318778438 0.0057912188 0.0000000000
0.2700683750 0.0055200000 0.0000000000
0.3111135625 0.0047310000 0.0000000000
0.3549999375 0.0042877500 0.0000000000
0.4007415938 0.0039430000 0.0000000000
0.4450260000 0.0031540000 0.0000000000
0.4886036875 0.0027846250 0.0000000000
0.5312283125 0.0023660000 0.0000000000
0.5726956875 0.0023660000 0.0000000000
0.6130028750 0.0023660000 0.0000000000
0.6514288125 0.0023660000 0.0000000000
0.6879613750 0.0023660000 0.0000000000
0.7232117500 0.0025876250 0.0000000000
0.7573977500 0.0033512500 0.0000000000
0.7903850625 0.0041153750 0.0000000000
0.8220311250 0.0056679375 0.0000000000
0.8521215000 0.0073434063 0.0000000000
0.8811255000 0.0096601250 0.0000000000
0.9089619063 0.0119768437 0.0000000000
0.9350291250 0.0150815625 0.0000000000
0.9597518125 0.0181862813 0.0000000000
0.9830410000 0.0212920000 0.0000000000
0.0077381250 0.0139475938 0.0092905000
0.0185563437 0.0162396562 0.0116071875
0.0286841563 0.0192950937 0.0131595625
0.0387143125 0.0216117812 0.0146626250
0.0548904063 0.0225732813 0.0147612188
0.0768624375 0.0226225625 0.0133073438
0.1043023750 0.0226225625 0.0117549688
0.1361718437 0.0220061562 0.0088218437
0.1708949687 0.0218335625 0.0063581563
0.2057739062 0.0223760312 0.0032773438
0.2430579375 0.0225732813 0.0009859687
0.2819623438 0.0230904063 0.0007643438
0.3231604687 0.0238297812 0.0007643437
0.3653400000 0.0248643750 0.0007643438
0.4086855938 0.0253081875 0.0007643438
0.4529873125 0.0256287188 0.0007643438
0.4981556250 0.0256287188 0.0007643438
0.5417151250 0.0248397187 0.0000000000
0.5836987500 0.0248397187 0.0000000000
0.6242933438 0.0248150937 0.0000000000
0.6626939375 0.0248150937 0.0000000000
0.6991408125 0.0251109375 0.0000000000
0.7339925312 0.0258506250 0.0000000000
0.7674444688 0.0266146875 0.0000000000
0.7997155312 0.0279454063 0.0000000000
0.8306106875 0.0296701562 0.0000000000
0.8602183125 0.0313704687 0.0000000000
0.8883694062 0.0336871875 0.0000000000
0.9148689375 0.0367672813 0.0000000000
0.9395594687 0.0399396875 0.0000000000
0.9617698437 0.0436283438 0.0000000000
0.9807667812 0.0478557188 0.0000000000
0.9945635000 0.0524546250 0.0000000000
0.0193690000 0.0302118750 0.0209469375
0.0302118750 0.0325039375 0.0217103437
0.0365701250 0.0356333125 0.0233120000
0.0500038750 0.0394777188 0.0256533437
0.0706764375 0.0416857500 0.0271565000
0.0978148750 0.0425106250 0.0265408750
0.1303206875 0.0425807500 0.0257273125
0.1672416875 0.0425807500 0.0241255625
0.2048330000 0.0430871875 0.0217843750
0.2434183437 0.0438022813 0.0207498125
0.2835985625 0.0451851875 0.0193198125
0.3246598125 0.0460805625 0.0185561875
0.3669628125 0.0472260625 0.0170530625
0.4111077500 0.0479530312 0.0150815313
0.4567445625 0.0482398750 0.0124201250
0.5029569375 0.0488811250 0.0090682187
0.5484989375 0.0485391250 0.0052735625
0.5913070313 0.0482398750 0.0026368125
0.6320906875 0.0481905625 0.0018729375
0.6706612500 0.0481905625 0.0014784375
0.7064915000 0.0488811250 0.0014784375
0.7410303438 0.0497980000 0.0012075625
0.7739659375 0.0510771875 0.0007396875
0.8052839687 0.0523362188 0.0007396875
0.8354633750 0.0543782500 0.0007396875
0.8642293750 0.0568205937 0.0007396875
0.8916236250 0.0593005000 0.0007396875
0.9175685000 0.0627050937 0.0007396875
0.9416459375 0.0660863750 0.0008381875
0.9632524375 0.0702864687 0.0015277500
0.9808494375 0.0743290625 0.0015277500
0.9922253125 0.0791414687 0.0015277500
0.9987863125 0.0841552500 0.0015277500
0.0227950313 0.0518762500 0.0265901875
0.0358551250 0.0555257500 0.0280685938
0.0448952188 0.0613350313 0.0311487500
0.0598595625 0.0652807500 0.0335393437
0.0804724687 0.0679533438 0.0350177187
0.1121567187 0.0695746875 0.0359044375
0.1481137813 0.0710920000 0.0351902187
0.1871641875 0.0716653125 0.0344259688
0.2268605000 0.0730276562 0.0335885000
0.2664912187 0.0743953125 0.0328244062
0.3077613750 0.0759277813 0.0313459375
0.3503703125 0.0769062500 0.0305077188
0.3947215000 0.0778742500 0.0290292500
0.4410234687 0.0784964375 0.0269351563
0.4883010625 0.0785499688 0.0238294375
0.5359710625 0.0785499688 0.0214397500
0.5816741563 0.0783109688 0.0183341250
0.6244780937 0.0780632500 0.0151554375
0.6643963125 0.0780632500 0.0121245937
0.7014253437 0.0782574375 0.0099558125
0.7363955937 0.0787284688 0.0080088437
0.7696331562 0.0798401563 0.0065304375
0.8013554687 0.0811856250 0.0049777500
0.8314792813 0.0829783125 0.0042876563
0.8601859687 0.0853042813 0.0037211875
0.8874412500 0.0879918750 0.0038935625
0.9133457500 0.0913171563 0.0045092812
0.9377585625 0.0946483750 0.0046325625
0.9599825312 0.0989181250 0.0052243125
0.9785793437 0.1031808437 0.0053721562
0.9910645000 0.1078960000 0.0060132188
0.9970109062 0.1131160625 0.0067273437
0.9999108437 0.1184150625 0.0068013125
0.0236570000 0.0818091250 0.0297688750
0.0382950625 0.0869500625 0.0320115937
0.0491360000 0.0931430000 0.0351903125
0.0665962812 0.0975522500 0.0382950313
0.0872891250 0.1016752500 0.0406012500
0.1169108750 0.1036903750 0.0406997500
0.1569468125 0.1041262500 0.0407983750
0.1961147812 0.1054821250 0.0400927187
0.2361172500 0.1072767500 0.0392318750
0.2785065000 0.1090283438 0.0378765000
0.3221663125 0.1108139375 0.0370138125
0.3663079687 0.1121674687 0.0362494687
0.4115418750 0.1134551250 0.0351902500
0.4581029375 0.1142805938 0.0331447812
0.5057175625 0.1146740000 0.0310500000
0.5531119063 0.1146740000 0.0283641250
0.5983140000 0.1146740000 0.0256286250
0.6408374062 0.1146740000 0.0232139062
0.6802805625 0.1146238750 0.0205524375
0.7168370938 0.1146238750 0.0184819688
0.7512472500 0.1151477500 0.0165602500
0.7840543438 0.1162368125 0.0156974063
0.8153599375 0.1176834375 0.0143915000
0.8451993125 0.1193791875 0.0136026250
0.8733770000 0.1216108750 0.0135040000
0.9000851562 0.1244694062 0.0135040000
0.9254135000 0.1276054375 0.0136026250
0.9492488750 0.1314749062 0.0142930000
0.9702981250 0.1355660000 0.0150810000
0.9867546875 0.1400920312 0.0152535937
0.9954465625 0.1447355625 0.0159193125
0.9988764687 0.1499962812 0.0167082812
1.0000000000 0.1552845000 0.0181373750
0.0236570000 0.1177978437 0.0328735937
0.0406015313 0.1231485312 0.0345245937
0.0517923437 0.1295262500 0.0382950313
0.0704199375 0.1336982500 0.0407247500
0.0921165938 0.1374953750 0.0423020937
0.1188299063 0.1400400938 0.0417590000
0.1537424063 0.1409368750 0.0409940000
0.1983710938 0.1407608438 0.0409940000
0.2399812188 0.1422540625 0.0409940000
0.2819665312 0.1446327187 0.0403141250
0.3257846250 0.1474250313 0.0395521250
0.3715500938 0.1497115000 0.0387879375
0.4185222813 0.1517562812 0.0379010937
0.4660807187 0.1529022812 0.0369397188
0.5142092813 0.1540961875 0.0355843437
0.5616767813 0.1546314375 0.0339088438
0.6065344062 0.1549684375 0.0315678125
0.6483008437 0.1551802187 0.0295219687
0.6873475000 0.1552900312 0.0275508437
0.7234410937 0.1555394375 0.0258753750
0.7574071250 0.1560924687 0.0243225625
0.7897720000 0.1569277188 0.0231641875
0.8207922500 0.1582035937 0.0222529063
0.8504726875 0.1599971875 0.0222529063
0.8785714375 0.1621612188 0.0221296250
0.9052435937 0.1649544687 0.0221296250
0.9305879375 0.1680211875 0.0229177813
0.9542080312 0.1715152500 0.0237066250
0.9749164375 0.1755192188 0.0244947813
0.9898551250 0.1798563750 0.0253577500
0.9971827812 0.1846771563 0.0267375000
0.9995533438 0.1896452500 0.0276742500
1.0000000000 0.1949055312 0.0291035000
0.0215876875 0.1564299375 0.0337610625
0.0392810313 0.1617894375 0.0347956563
0.0514245625 0.1682624375 0.0385414375
0.0715441563 0.1721942187 0.0402898437
0.0942861250 0.1755021875 0.0417590000
0.1220920938 0.1768378750 0.0418772812
0.1528893125 0.1785076875 0.0403626875
0.1902493125 0.1789834063 0.0395767500
0.2354695625 0.1792046875 0.0395767500
0.2807410000 0.1806781875 0.0403626875
0.3250751875 0.1832639375 0.0402170000
0.3700626875 0.1864740938 0.0402170000
0.4169730000 0.1894808750 0.0395767500
0.4659093437 0.1920402187 0.0392810625
0.5154048750 0.1941695625 0.0384922500
0.5639265937 0.1956842500 0.0375561250
0.6092289375 0.1967431875 0.0362248750
0.6513456250 0.1974463125 0.0353132500
0.6904265000 0.1979893750 0.0337608750
0.7262511875 0.1984111562 0.0325286250
0.7599869375 0.1990705625 0.0314445625
0.7920932188 0.1998710938 0.0305324687
0.8230081250 0.2012419375 0.0300148750
0.8524492188 0.2028772500 0.0293746250
0.8805436875 0.2050677500 0.0293746250
0.9072941562 0.2075399688 0.0300148750
0.9327202500 0.2106287500 0.0303105625
0.9563516562 0.2140480625 0.0310749063
0.9766060000 0.2179011875 0.0323806875
0.9908050000 0.2221725312 0.0332435625
0.9977006250 0.2268353750 0.0347959375
0.9997142187 0.2318869687 0.0357072813
1.0000000000 0.2369261875 0.0377529375
0.0184819688 0.1964325937 0.0331200000
0.0377040312 0.2013840937 0.0346723750
0.0507314375 0.2075475000 0.0377533750
0.0711232813 0.2113695313 0.0401431250
0.0950681875 0.2141008438 0.0409940000
0.1237262188 0.2147939375 0.0417590000
0.1551903750 0.2152778438 0.0409940000
0.1875099375 0.2161620938 0.0394290000
0.2250875938 0.2169164688 0.0380490000
0.2709464375 0.2176157813 0.0388125937
0.3188418750 0.2194226563 0.0401431250
0.3656575938 0.2220560625 0.0407269063
0.4128623750 0.2256406250 0.0409940000
0.4616671250 0.2293324375 0.0408240313
0.5115188125 0.2325327500 0.0408240313
0.5609221250 0.2353368125 0.0406516563
0.6074547188 0.2376283125 0.0398720313
0.6506869375 0.2393503125 0.0393302813
0.6904761250 0.2406375000 0.0385662500
0.7268558125 0.2415029375 0.0378023125
0.7609032187 0.2424222812 0.0373344375
0.7932687812 0.2435897500 0.0365454375
0.8242778750 0.2450401250 0.0363730625
0.8538097188 0.2468474375 0.0361511562
0.8819776563 0.2490549687 0.0363730625
0.9087677188 0.2517540625 0.0363730625
0.9342569062 0.2548230625 0.0365210000
0.9576936250 0.2581233438 0.0372849687
0.9776048438 0.2619548125 0.0382210625
0.9912474062 0.2661318750 0.0395270625
0.9978413438 0.2708972187 0.0405741875
0.9997655625 0.2759271250 0.0425974687
1.0000000000 0.2809697187 0.0431763750
0.0153772500 0.2367210000 0.0331200000
0.0361262500 0.2413695000 0.0346723750
0.0505352500 0.2473748750 0.0377533750
0.0715376875 0.2507950938 0.0401431250
0.0961208750 0.2525278750 0.0409940000
0.1247011875 0.2528607500 0.0409940000
0.1569123750 0.2526093125 0.0409940000
0.1891046250 0.2528050625 0.0401923750
0.2218462500 0.2539127500 0.0386400000
0.2601239375 0.2547529687 0.0378766250
0.3059480625 0.2558864375 0.0386400000
0.3554593750 0.2580619063 0.0401431250
0.4054085000 0.2611991250 0.0414721250
0.4554000938 0.2649778125 0.0423267500
0.5056321250 0.2691252500 0.0430770000
0.5552259688 0.2730760313 0.0434706563
0.6026825000 0.2765625000 0.0436327500
0.6468961875 0.2796416875 0.0434435000
0.6877360000 0.2819732500 0.0428877500
0.7252193750 0.2838685313 0.0423926250
0.7600836250 0.2854068750 0.0419412500
0.7931376562 0.2871096563 0.0414840312
0.8246496250 0.2890111250 0.0411765000
0.8546334062 0.2911647500 0.0411765000
0.8830937500 0.2936920000 0.0413657500
0.9101502188 0.2964976875 0.0417442500
0.9356750625 0.2996958750 0.0420815000
0.9591016875 0.3031932188 0.0428122813
0.9786840000 0.3070967500 0.0439932500
0.9917546563 0.3114814375 0.0447935625
0.9980015000 0.3162196875 0.0462142500
0.9997655625 0.3213965625 0.0481258750
1.0000000000 0.3264785000 0.0494840000
0.0136276250 0.2775035000 0.0331200000
0.0345492500 0.2815985937 0.0346723750
0.0498585000 0.2872415313 0.0383197500
0.0719078438 0.2902292813 0.0407015938
0.0972571250 0.2918110625 0.0415438437
0.1266725625 0.2917208125 0.0415438437
0.1584071875 0.2907397812 0.0409940000
0.1908910313 0.2903634687 0.0409454375
0.2230396562 0.2908804375 0.0401923750
0.2562950625 0.2916346562 0.0392070937
0.2953712188 0.2926854375 0.0386400000
0.3414073750 0.2944290313 0.0391577813
0.3924891563 0.2969250313 0.0407026250
0.4454885937 0.3005541875 0.0424213750
0.4977158125 0.3047445313 0.0442089062
0.5483698125 0.3092230938 0.0452590938
0.5964412500 0.3137218125 0.0463345625
0.6414240000 0.3179215313 0.0468200937
0.6831290625 0.3214448438 0.0469960938
0.7215153750 0.3244590625 0.0469960937
0.7574495000 0.3271236563 0.0467921875
0.7913845000 0.3297295000 0.0462861875
0.8237142500 0.3323762500 0.0462861875
0.8543579688 0.3351783750 0.0467921875
0.8834232187 0.3382761875 0.0467921875
0.9109416250 0.3415709375 0.0474977813
0.9367250625 0.3450745312 0.0479944375
0.9603027500 0.3489354062 0.0487940938
0.9795872188 0.3530507813 0.0501402500
0.9922804688 0.3576809375 0.0514628438
0.9981727812 0.3626904375 0.0532248438
0.9998026875 0.3679612188 0.0551329688
1.0000000000 0.3733415938 0.0572526562
0.0120752500 0.3184231250 0.0344507500
0.0335393438 0.3221578125 0.0360030937
0.0504885000 0.3274628750 0.0390838750
0.0728733750 0.3303459375 0.0414470937
0.0989926250 0.3315309375 0.0422794375
0.1289889375 0.3310565000 0.0422794375
0.1601062500 0.3297755000 0.0417590000
0.1924555938 0.3286398437 0.0416872812
0.2247435000 0.3286034375 0.0415199375
0.2568181562 0.3291000625 0.0407511875
0.2911560000 0.3298996875 0.0394290000
0.3309878438 0.3312332188 0.0391824375
0.3781744375 0.3333627500 0.0399215000
0.4314457812 0.3364599062 0.0416872812
0.4861658125 0.3403103125 0.0436808125
0.5391436875 0.3449040938 0.0462221563
0.5889468750 0.3498691875 0.0480705000
0.6350956250 0.3548152187 0.0495575937
0.6775640000 0.3594294375 0.0506754375
0.7167657500 0.3634955625 0.0513242187
0.7534373125 0.3673331250 0.0515101250
0.7880460625 0.3709616250 0.0517352813
0.8210571250 0.3746404375 0.0521726250
0.8525501875 0.3783934063 0.0526188125
0.8822879375 0.3823500000 0.0532715625
0.9104064062 0.3863062500 0.0540576875
0.9367538125 0.3904486250 0.0549931875
0.9606352812 0.3947944063 0.0561483750
0.9800031875 0.3994239375 0.0573729375
0.9925007188 0.4044005000 0.0592407812
0.9982486250 0.4096772500 0.0613566875
0.9998178750 0.4152860000 0.0636931562
1.0000000000 0.4207771250 0.0660941875
0.0118290000 0.3590720312 0.0352147812
0.0335393438 0.3629180000 0.0375315000
0.0511128750 0.3680432188 0.0406283438
0.0742118437 0.3705096562 0.0429359062
0.1012074375 0.3714046250 0.0437502813
0.1315500000 0.3709529688 0.0437502813
0.1626530937 0.3694000000 0.0425160000
0.1943859062 0.3679403437 0.0422557812
0.2261516875 0.3673608125 0.0422557812
0.2580152500 0.3673047812 0.0417590000
0.2908141250 0.3678157188 0.0409697188
0.3264789375 0.3688561250 0.0402170000
0.3679029688 0.3704005625 0.0402170000
0.4170019375 0.3728332500 0.0406783437
0.4713782500 0.3763523125 0.0428657812
0.5263001250 0.3808384375 0.0451231563
0.5785882187 0.3858815937 0.0482905000
0.6268635625 0.3911882500 0.0509751875
0.6708652188 0.3963645000 0.0533425313
0.7112372500 0.4013873438 0.0550056563
0.7485360625 0.4061996250 0.0564038125
0.7837545000 0.4109705938 0.0574081250
0.8172800312 0.4156977188 0.0583991563
0.8492854062 0.4205741250 0.0593778750
0.8796627188 0.4254292812 0.0603438750
0.9084072813 0.4303535000 0.0615075000
0.9352889687 0.4352660625 0.0627610313
0.9596939063 0.4402936562 0.0644434063
0.9794668125 0.4455394062 0.0664506875
0.9923330625 0.4510697500 0.0684115313
0.9982137812 0.4568094063 0.0708902813
0.9998178750 0.4626788750 0.0734546250
1.0000000000 0.4685013125 0.0765575313
0.0126170000 0.4002835000 0.0375561250
0.0343027188 0.4041957188 0.0396010000
0.0521886875 0.4091181875 0.0428398125
0.0760855313 0.4116515000 0.0448467813
0.1034326250 0.4125431250 0.0456398750
0.1342254375 0.4116666250 0.0451911250
0.1653848125 0.4100819375 0.0438660625
0.1966089375 0.4086121875 0.0431471250
0.2279171250 0.4073915000 0.0429835000
0.2594969687 0.4067122500 0.0429835000
0.2917606875 0.4068607500 0.0424686875
0.3255285312 0.4074819688 0.0417350937
0.3628780000 0.4085712500 0.0409940000
0.4065800938 0.4104351250 0.0407026250
0.4567850625 0.4133936250 0.0417111875
0.5108155625 0.4174684375 0.0436576562
0.5646167500 0.4223171250 0.0470653750
0.6153669063 0.4277111250 0.0501954063
0.6618370000 0.4332813125 0.0538472500
0.7040605313 0.4388980625 0.0569504063
0.7426953750 0.4444416250 0.0598612500
0.7786980938 0.4501063438 0.0619629062
0.8127475000 0.4558204375 0.0640123125
0.8451236875 0.4616362813 0.0657990000
0.8759273750 0.4674735000 0.0676246250
0.9050179687 0.4733003437 0.0693465313
0.9324186875 0.4791355625 0.0712290625
0.9573643438 0.4850007812 0.0733497187
0.9778687500 0.4909328750 0.0756381250
0.9915251875 0.4970912812 0.0783587188
0.9979245000 0.5034223125 0.0812156250
0.9997655625 0.5097378125 0.0840515938
1.0000000000 0.5159465000 0.0875978750
0.0134060000 0.4424969375 0.0403582188
0.0350917188 0.4466198125 0.0418734063
0.0534305000 0.4512247188 0.0450763437
0.0774854062 0.4540255313 0.0469538438
0.1053969375 0.4548606563 0.0473100000
0.1365014688 0.4539756250 0.0466031562
0.1681551250 0.4523090625 0.0453044062
0.1989549687 0.4505551250 0.0444402188
0.2297433750 0.4490795625 0.0440050000
0.2610730313 0.4479941562 0.0439123750
0.2932059062 0.4475891875 0.0437039688
0.3261007812 0.4476966250 0.0432172500
0.3614360625 0.4483754375 0.0422084687
0.4008590625 0.4497294687 0.0414482188
0.4459570312 0.4518914062 0.0414482188
0.4960654375 0.4552797188 0.0424686875
0.5486728750 0.4597755312 0.0450317812
0.6005212187 0.4650047500 0.0484426563
0.6493081563 0.4707207187 0.0524262188
0.6940981250 0.4766476875 0.0565832188
0.7348253437 0.4826693125 0.0607526250
0.7722505312 0.4888764375 0.0644941250
0.8072363125 0.4952282500 0.0679123750
0.8402170000 0.5017716562 0.0711619687
0.8714091250 0.5084228125 0.0739997500
0.9007895313 0.5150411563 0.0767530625
0.9284650312 0.5216291875 0.0792273125
0.9538958750 0.5282553437 0.0820297813
0.9752212188 0.5349049688 0.0848298125
0.9899966562 0.5417430313 0.0879614687
0.9973847188 0.5486056875 0.0908209062
0.9996371562 0.5554221250 0.0945214062
1.0000000000 0.5621747500 0.0977872500
0.0141940000 0.4856286250 0.0426055625
0.0355595938 0.4898847813 0.0448019688
0.0546533750 0.4945155000 0.0475913125
0.0786484375 0.4972610000 0.0490674375
0.1071326875 0.4982458125 0.0493697500
0.1386908438 0.4975221250 0.0484863750
0.1706444375 0.4959401250 0.0472880000
0.2016339375 0.4940907500 0.0460239375
0.2319465000 0.4923628125 0.0451458125
0.2628390000 0.4909187187 0.0451458125
0.2945737500 0.4899678750 0.0447380000
0.3273472188 0.4895726250 0.0444173125
0.3616896875 0.4897233750 0.0436808125
0.3987597813 0.4905699687 0.0429367500
0.4396366875 0.4921826250 0.0421848125
0.4850114063 0.4947712187 0.0421848125
0.5339756250 0.4985602500 0.0436345000
0.5844100937 0.5032428750 0.0457315938
0.6339113750 0.5087330625 0.0497941875
0.6806526562 0.5146484687 0.0539684687
0.7237533125 0.5208860000 0.0588849375
0.7633088750 0.5274153750 0.0642840625
0.7999105625 0.5340693750 0.0690624375
0.8339710313 0.5409862188 0.0736238125
0.8658605000 0.5480353125 0.0780905000
0.8957446562 0.5551371250 0.0820968438
0.9237164375 0.5623095000 0.0856633750
0.9495368438 0.5694896875 0.0893932813
0.9718245625 0.5767945000 0.0928056875
0.9878937188 0.5841440000 0.0965114375
0.9964417500 0.5915461250 0.1001126250
0.9994044063 0.5988737813 0.1039167813
1.0000000000 0.6060629375 0.1078175625
0.0146131563 0.5288730937 0.0455045938
0.0359043750 0.5333561562 0.0475921563
0.0552700625 0.5381058125 0.0503007812
0.0800266562 0.5408169375 0.0516619687
0.1090835000 0.5420120625 0.0517249688
0.1411294375 0.5414833750 0.0511638125
0.1733976563 0.5400217500 0.0498373437
0.2046809062 0.5383830000 0.0481195000
0.2348394688 0.5365280625 0.0471104687
0.2654194063 0.5349107500 0.0465587188
0.2967590625 0.5334812813 0.0458444375
0.3292153438 0.5326370000 0.0458444375
0.3631804687 0.5322714687 0.0453950313
0.3991209688 0.5325660000 0.0443944063
0.4374434375 0.5335774375 0.0436576562
0.4786692500 0.5353463125 0.0429133750
0.5231915000 0.5382873125 0.0429133750
0.5700685313 0.5422422500 0.0443485938
0.6178731875 0.5470807187 0.0467580312
0.6648030000 0.5525795625 0.0504506250
0.7094004063 0.5586764375 0.0555039688
0.7510402188 0.5651416563 0.0611230937
0.7896448125 0.5718216875 0.0672824063
0.8254704063 0.5787897500 0.0733199687
0.8587000938 0.5859798437 0.0790803438
0.8895114063 0.5932626563 0.0846378125
0.9181618750 0.6006435625 0.0896732188
0.9445583125 0.6081689688 0.0942783438
0.9676625625 0.6157864688 0.0986920000
0.9850901250 0.6235668125 0.1033165938
0.9951160000 0.6313297500 0.1075667500
0.9990376250 0.6390416562 0.1120432813
1.0000000000 0.6467170313 0.1164956562
0.0153770000 0.5709835000 0.0482905000
0.0370878438 0.5758288750 0.0506345313
0.0570868125 0.5807001250 0.0538857500
0.0818958125 0.5837372812 0.0551851250
0.1113378750 0.5851045000 0.0552455000
0.1438465938 0.5849141250 0.0540694063
0.1766047500 0.5837691875 0.0527924375
0.2083219063 0.5822309062 0.0511640000
0.2387552500 0.5805390000 0.0496665000
0.2689407188 0.5788585313 0.0484868125
0.2999175625 0.5772157500 0.0479450000
0.3321224063 0.5758257187 0.0475930000
0.3657800000 0.5749457500 0.0472440000
0.4011372187 0.5746493437 0.0465365000
0.4380555000 0.5750313125 0.0457766875
0.4767640312 0.5762424063 0.0447150938
0.5174095000 0.5783000000 0.0440050000
0.5601656563 0.5812820312 0.0440050000
0.6044547500 0.5852151875 0.0450551875
0.6493784063 0.5900101562 0.0474633437
0.6935230000 0.5954478750 0.0514338750
0.7360326563 0.6015016250 0.0566382500
0.7762873125 0.6080600625 0.0627253125
0.8140285000 0.6148648437 0.0697100938
0.8490667500 0.6218885000 0.0766517500
0.8814001250 0.6291092188 0.0834497500
0.9112496875 0.6364946875 0.0902406875
0.9386155312 0.6440562188 0.0964108125
0.9627803750 0.6517921250 0.1022462500
0.9817625000 0.6596584688 0.1077594688
0.9934427500 0.6675788125 0.1129336250
0.9985455937 0.6756054687 0.1179961562
1.0000000000 0.6835250000 0.1231900000
0.0169298437 0.6117616875 0.0519490625
0.0378517187 0.6168827812 0.0545088438
0.0588629062 0.6219340937 0.0575655625
0.0845291250 0.6252101875 0.0591255937
0.1142271563 0.6268677813 0.0591831563
0.1471233750 0.6268883437 0.0580637500
0.1805026563 0.6261152813 0.0565627812
0.2125630312 0.6248494688 0.0546904687
0.2433628125 0.6233655000 0.0534238750
0.2736305313 0.6216487188 0.0516420312
0.3042023437 0.6198505938 0.0508266562
0.3359683438 0.6181694688 0.0501740313
0.3692933750 0.6168373437 0.0496239063
0.4042374375 0.6159648438 0.0492192500
0.4405668437 0.6157866250 0.0482470937
0.4777838437 0.6163515000 0.0471775625
0.5159587187 0.6177084687 0.0457995625
0.5551732188 0.6197861562 0.0450778437
0.5956086875 0.6227393437 0.0450778437
0.6371026875 0.6265523438 0.0461361250
0.6789371875 0.6311314688 0.0484876875
0.7204386875 0.6364715937 0.0523222813
0.7610318437 0.6424292813 0.0578550312
0.7999210938 0.6488848125 0.0642977812
0.8366187500 0.6556288437 0.0717860625
0.8708300313 0.6626230000 0.0796445938
0.9022842500 0.6698549375 0.0875520312
0.9310930313 0.6773141250 0.0949509688
0.9567271250 0.6849330313 0.1023201875
0.9774842188 0.6926378125 0.1091530312
0.9912139688 0.7005187187 0.1155447813
0.9977857500 0.7085446250 0.1213409687
1.0000000000 0.7166616250 0.1277439687
0.0184821875 0.6514081250 0.0566551875
0.0394040938 0.6567160000 0.0593282813
0.0611523750 0.6617632500 0.0622491875
0.0873324688 0.6652077813 0.0637487812
0.1178058750 0.6669615000 0.0638030625
0.1510615000 0.6672462500 0.0627448750
0.1849412500 0.6667086875 0.0613761250
0.2175432500 0.6657027500 0.0593733750
0.2487595625 0.6643663750 0.0575856250
0.2791374688 0.6628078125 0.0559374375
0.3095105625 0.6609800000 0.0543274375
0.3407841875 0.6590834375 0.0534244063
0.3736375625 0.6572587500 0.0527935625
0.4082976250 0.6559181250 0.0521576875
0.4441782500 0.6551814375 0.0515165625
0.4807138437 0.6551680937 0.0501959375
0.5174906250 0.6559213750 0.0488519375
