bundles/resolve-cinematic-luts/Gamut/Marble/Marble 04.cube
TITLE "Marble 04 by Gamut"
# Version 1.0 - 02/23/2023 - Designed for Rec.709 Color Space. Copyright 2023 Gamut, LLC
LUT_3D_SIZE 5
0.000000 0.000000 0.000000
0.104139 0.008477 0.004140
0.307704 0.025629 0.009069
0.516185 0.056975 0.012223
0.751956 0.111148 0.028389
0.035683 0.156839 0.044913
0.212091 0.176916 0.072604
0.459830 0.174137 0.014983
0.675165 0.221875 0.055077
0.915116 0.258664 0.094364
0.088426 0.396563 0.113929
0.223122 0.418199 0.179911
0.494613 0.441906 0.229963
0.671457 0.429659 0.165746
0.891028 0.414427 0.100789
0.230376 0.587931 0.217828
0.303389 0.600858 0.248823
0.509124 0.645476 0.356083
0.708538 0.660384 0.375782
0.955246 0.605215 0.284434
0.281193 0.772253 0.300499
0.339678 0.776939 0.311869
0.499472 0.796799 0.375895
0.681227 0.856635 0.447140
0.999034 0.843889 0.434240
0.013997 0.019714 0.072030
0.116697 0.008871 0.106867
0.325325 0.026023 0.110008
0.540520 0.052179 0.116630
0.788399 0.109802 0.126622
0.025826 0.177467 0.163942
0.201508 0.200464 0.192823
0.490148 0.216233 0.187851
0.708421 0.245838 0.208879
0.969398 0.259306 0.212019
0.074910 0.428039 0.195017
0.195967 0.438703 0.222307
0.482163 0.456166 0.304599
0.659828 0.436199 0.253914
0.883452 0.433012 0.228993
0.221178 0.607849 0.264206
0.286590 0.611478 0.279131
0.478427 0.639119 0.366910
0.694179 0.671618 0.423513
0.914949 0.614050 0.343790
0.265128 0.787793 0.329074
0.322195 0.786929 0.335135
0.464875 0.784190 0.370879
0.662825 0.858793 0.464792
0.997568 0.884472 0.478191
0.061345 0.080042 0.214305
0.129790 0.079675 0.260354
0.333210 0.013800 0.311422
0.550558 0.059112 0.347902
0.812895 0.105107 0.351129
0.074405 0.231835 0.353905
0.205438 0.255064 0.421627
0.489959 0.220593 0.453424
0.710264 0.242791 0.453871
0.984398 0.240319 0.413214
0.089281 0.458900 0.441996
0.196495 0.475155 0.462744
0.477220 0.466371 0.457865
0.694465 0.473332 0.437252
0.970586 0.474727 0.423365
0.194136 0.655744 0.436743
0.254790 0.661106 0.443839
0.441213 0.647170 0.440944
0.685097 0.675775 0.535627
0.867952 0.605396 0.432285
0.230105 0.831530 0.424194
0.272274 0.823444 0.422555
0.415719 0.782126 0.405776
0.618025 0.825954 0.497636
0.997474 0.926576 0.590388
0.098030 0.141508 0.329642
0.171682 0.164246 0.388968
0.338731 0.149185 0.445455
0.564268 0.081092 0.525980
0.825531 0.125204 0.574215
0.155076 0.310642 0.525949
0.263162 0.339151 0.592653
0.471787 0.311761 0.625429
0.698734 0.268525 0.651138
0.964538 0.255656 0.649888
0.124163 0.491735 0.601785
0.197575 0.508361 0.635238
0.444100 0.490524 0.657613
0.696970 0.476025 0.651434
0.991215 0.463561 0.630569
0.191230 0.676886 0.644439
0.255910 0.694475 0.670288
0.458865 0.688142 0.663690
0.686547 0.679542 0.660631
0.954570 0.658973 0.604233
0.187282 0.881530 0.590680
0.209914 0.891886 0.595019
0.362622 0.846306 0.562800
0.588803 0.833943 0.578634
0.997426 0.967606 0.754137
0.154650 0.218913 0.464037
0.221315 0.254256 0.531731
0.357055 0.245134 0.615879
0.563211 0.257854 0.680270
0.836018 0.164623 0.780492
0.260918 0.409075 0.713110
0.334438 0.436179 0.778732
0.475931 0.402835 0.814800
0.679608 0.382939 0.814277
0.950549 0.284562 0.864506
0.204072 0.548283 0.771253
0.287253 0.561041 0.815393
0.457325 0.543442 0.838302
0.669851 0.518785 0.857424
0.970558 0.457341 0.878090
0.186181 0.700471 0.825264
0.229174 0.718197 0.870316
0.391820 0.714465 0.882777
0.636065 0.696160 0.895856
0.965410 0.654461 0.850228
0.138306 0.903570 0.803873
0.090672 0.925977 0.844233
0.256254 0.920676 0.837037
0.606017 0.943867 0.865834
1.000000 1.000000 0.967341
