bundles/resolve-cinematic-luts/Gamut/Marble/Marble 04.cube
TITLE "Marble 04 by Gamut"
# Version 1.0 - 02/23/2023 - Designed for Rec.709 Color Space. Copyright 2023 Gamut, LLC
LUT_3D_SIZE 33
0.000000 0.000000 0.000000
0.001528 0.000764 0.000000
0.004632 0.001528 0.001528
0.010744 0.001577 0.002366
0.023559 0.004534 0.003154
0.044756 0.005397 0.003943
0.060860 0.007097 0.004731
0.081582 0.006481 0.004731
0.104139 0.008477 0.004140
0.129805 0.005742 0.003376
0.156419 0.006309 0.002612
0.183521 0.006309 0.002883
0.209916 0.008576 0.004436
0.235986 0.013702 0.005988
0.260150 0.019468 0.006752
0.284866 0.021341 0.007516
0.307704 0.025629 0.009069
0.331669 0.029547 0.009463
0.357206 0.029867 0.009118
0.381324 0.034722 0.008674
0.406829 0.040795 0.010547
0.435817 0.041759 0.012100
0.464444 0.043210 0.011829
0.490490 0.050115 0.011829
0.516185 0.056975 0.012223
0.543155 0.056684 0.014367
0.569226 0.056544 0.015919
0.594367 0.061773 0.017349
0.620205 0.072403 0.017349
0.648081 0.085666 0.018285
0.682221 0.094904 0.022179
0.718443 0.102032 0.026048
0.751956 0.111148 0.028389
0.003844 0.006161 0.003105
0.006949 0.008477 0.005397
0.016067 0.008477 0.006161
0.027551 0.010720 0.006235
0.043994 0.015204 0.006949
0.057902 0.017004 0.007713
0.074694 0.017915 0.007812
0.097168 0.017300 0.007196
0.119489 0.017349 0.006457
0.147470 0.012346 0.005693
0.176473 0.012248 0.006777
0.204959 0.013504 0.007541
0.232941 0.019123 0.008600
0.258849 0.024372 0.008625
0.284215 0.026319 0.009069
0.308041 0.030286 0.010202
0.332833 0.034131 0.010991
0.359685 0.035313 0.009857
0.384612 0.040251 0.009808
0.410536 0.045134 0.011631
0.438793 0.045617 0.012864
0.466566 0.049074 0.013110
0.493691 0.056286 0.012592
0.522207 0.061760 0.014367
0.550203 0.062260 0.015894
0.576528 0.064966 0.017472
0.601082 0.072244 0.018877
0.625401 0.082963 0.019911
0.652614 0.094020 0.022968
0.683944 0.102306 0.026812
0.718359 0.110448 0.029867
0.753856 0.120606 0.032258
0.788588 0.131437 0.034574
0.009266 0.019961 0.006161
0.016166 0.022327 0.008526
0.024643 0.024593 0.012321
0.039862 0.026861 0.012371
0.056562 0.030705 0.012371
0.071043 0.033194 0.013086
0.089538 0.035535 0.014737
0.109102 0.035633 0.014786
0.134697 0.035831 0.014145
0.164148 0.031518 0.011853
0.193867 0.030853 0.011089
0.223503 0.031371 0.010152
0.250768 0.037112 0.010941
0.277433 0.039083 0.012198
0.302995 0.042066 0.012469
0.329019 0.044643 0.012568
0.356666 0.046815 0.011780
0.382828 0.051370 0.012149
0.410148 0.054709 0.014046
0.438731 0.055708 0.014884
0.465906 0.060120 0.014145
0.492730 0.067068 0.014416
0.523135 0.070744 0.016659
0.553515 0.071684 0.018950
0.581346 0.076159 0.020552
0.606763 0.084734 0.022277
0.631016 0.095612 0.025283
0.657070 0.104485 0.028463
0.686148 0.112118 0.032233
0.717610 0.120273 0.035338
0.751677 0.130267 0.038394
0.787826 0.141232 0.040747
0.824691 0.151668 0.043670
0.014761 0.040727 0.010029
0.020947 0.043673 0.015401
0.032331 0.047069 0.020700
0.050988 0.050988 0.023781
0.065274 0.054142 0.025259
0.083073 0.056728 0.023189
0.103431 0.058661 0.019714
0.126545 0.058783 0.018088
0.149247 0.058332 0.017989
0.176479 0.055986 0.017201
0.206626 0.055190 0.016412
0.236226 0.054641 0.015032
0.264705 0.055257 0.015328
0.292296 0.056753 0.015623
0.319328 0.058769 0.015180
0.348561 0.059794 0.014120
0.376570 0.063940 0.015155
0.404555 0.067554 0.016708
0.434291 0.068663 0.017201
0.461324 0.072681 0.016807
0.488326 0.079951 0.018211
0.519438 0.082892 0.020749
0.551753 0.084301 0.022819
0.580815 0.089855 0.024594
0.607175 0.099298 0.027625
0.632729 0.110186 0.030828
0.659172 0.118588 0.035264
0.686293 0.125562 0.038443
0.714217 0.133711 0.041507
0.744924 0.143033 0.045105
0.779147 0.152846 0.048534
0.816969 0.162537 0.051810
0.856842 0.170604 0.053797
0.017940 0.063575 0.016166
0.027058 0.065877 0.020035
0.043582 0.068043 0.027699
0.057528 0.070778 0.033859
0.077208 0.072811 0.036965
0.096784 0.074821 0.038443
0.113945 0.077280 0.033515
0.138034 0.078385 0.026787
0.164478 0.078025 0.019320
0.192411 0.076642 0.016683
0.220365 0.073888 0.017891
0.249431 0.073024 0.017349
0.278596 0.072897 0.018038
0.306989 0.074781 0.018038
0.336565 0.076114 0.017250
0.365745 0.079576 0.018260
0.394400 0.084075 0.019418
0.425219 0.085730 0.019147
0.453937 0.090705 0.019862
0.481820 0.098050 0.022745
0.511753 0.100784 0.025431
0.543739 0.102499 0.027748
0.574467 0.108435 0.029966
0.602670 0.117979 0.033194
0.630091 0.127151 0.037556
0.657148 0.133756 0.041403
0.683254 0.141026 0.044577
0.709136 0.148839 0.048680
0.736460 0.157957 0.052647
0.766848 0.166846 0.056948
0.801411 0.175328 0.060877
0.840468 0.182367 0.062751
0.882081 0.187921 0.063864
0.021710 0.085278 0.021587
0.033884 0.088218 0.027551
0.049408 0.090335 0.036817
0.064933 0.092425 0.045002
0.080545 0.095569 0.050531
0.104502 0.096891 0.052595
0.127327 0.098419 0.050214
0.148768 0.099666 0.042936
0.176144 0.099070 0.033145
0.206305 0.097668 0.022647
0.236302 0.094974 0.016930
0.263799 0.093274 0.017201
0.291918 0.092556 0.017472
0.322048 0.094025 0.017940
0.353176 0.096440 0.019246
0.383571 0.100522 0.020380
0.414261 0.103052 0.020109
0.444535 0.107673 0.020750
0.473868 0.114620 0.023977
0.503368 0.118667 0.027871
0.533737 0.121828 0.030976
0.563909 0.128476 0.034229
0.593618 0.137834 0.037975
0.622722 0.145629 0.042956
0.650436 0.151653 0.046137
0.676681 0.158074 0.050134
0.701520 0.165754 0.054581
0.726433 0.174002 0.059866
0.753190 0.182471 0.064925
0.783508 0.190205 0.069255
0.818267 0.196610 0.072290
0.857983 0.201390 0.073868
0.900319 0.204917 0.074361
0.028586 0.107578 0.030656
0.042323 0.110652 0.036077
0.054145 0.112786 0.045058
0.070399 0.114164 0.053294
0.088963 0.117168 0.057842
0.106740 0.120364 0.060281
0.135434 0.121070 0.060493
0.163544 0.121137 0.055815
0.189818 0.120718 0.046965
0.218837 0.119508 0.035287
0.249866 0.117292 0.021587
0.280906 0.114552 0.014071
0.308974 0.113950 0.014835
0.338157 0.114160 0.017176
0.368274 0.116172 0.018285
0.399515 0.119857 0.019074
0.431607 0.124068 0.020651
0.462346 0.130294 0.022671
0.491860 0.136296 0.025777
0.520969 0.140488 0.029030
0.550351 0.147421 0.033515
0.579926 0.156739 0.039154
0.609871 0.164112 0.044264
0.638568 0.169827 0.048475
0.665097 0.176241 0.053019
0.689836 0.183695 0.058005
0.713761 0.191601 0.064273
0.737996 0.199286 0.070554
0.764235 0.206156 0.075554
0.794073 0.212237 0.079370
0.828889 0.216934 0.081671
0.868797 0.220170 0.083384
0.911433 0.222645 0.083844
0.029793 0.131476 0.039354
0.041680 0.134422 0.043845
0.054519 0.137158 0.050309
0.073415 0.139019 0.057286
0.096420 0.140763 0.065092
0.111645 0.144947 0.067458
0.136248 0.148270 0.068511
0.170822 0.147904 0.066143
0.204245 0.146082 0.057453
0.234087 0.144514 0.046722
0.263302 0.142845 0.033711
0.294643 0.140857 0.021982
0.326381 0.139700 0.013455
0.357353 0.139425 0.012790
0.386211 0.141309 0.014638
0.415576 0.143518 0.016535
0.445739 0.146970 0.019098
0.475107 0.152020 0.021218
0.504337 0.157680 0.023287
0.532911 0.164209 0.025752
0.561395 0.172220 0.032110
0.590578 0.180406 0.038837
0.619896 0.186904 0.044338
0.647700 0.193000 0.049931
0.673073 0.200144 0.056688
0.696844 0.207899 0.063294
0.720005 0.215405 0.070120
0.743569 0.221885 0.075799
0.769339 0.227810 0.080884
0.798943 0.232691 0.084939
0.833771 0.236448 0.087887
0.873575 0.238890 0.089905
0.916033 0.240651 0.091085
0.035683 0.156839 0.044913
0.044200 0.159984 0.048394
0.053151 0.163099 0.052671
0.072632 0.165577 0.059371
0.096197 0.168158 0.067631
0.120833 0.171511 0.076608
0.140633 0.176450 0.079903
0.171958 0.179228 0.078162
0.212091 0.176916 0.072604
0.248765 0.174080 0.059180
0.280782 0.172247 0.047441
0.310663 0.171639 0.034893
0.341145 0.170684 0.023165
0.372208 0.170196 0.015870
0.402174 0.170754 0.014145
0.431843 0.171639 0.014194
0.459830 0.174137 0.014983
0.487150 0.178174 0.016314
0.514071 0.182897 0.019221
0.540602 0.188516 0.023238
0.567685 0.195178 0.028586
0.595589 0.202094 0.034205
0.623756 0.208422 0.040440
0.650497 0.214825 0.047690
0.675165 0.221875 0.055077
0.698433 0.228971 0.062251
0.721086 0.235676 0.068451
0.744455 0.241757 0.074625
0.769939 0.246955 0.080235
0.799376 0.251430 0.085154
0.833891 0.254791 0.088946
0.873182 0.257072 0.092102
0.915116 0.258664 0.094364
0.033342 0.184343 0.048594
0.044021 0.187815 0.051910
0.059480 0.191283 0.055088
0.075191 0.194440 0.061028
0.093262 0.197456 0.069615
0.118124 0.200937 0.081048
0.145231 0.205485 0.091273
0.173285 0.210762 0.095027
0.212459 0.212550 0.092705
0.257135 0.210094 0.083516
0.294409 0.207753 0.068334
0.326159 0.205989 0.054325
0.355664 0.204949 0.042056
0.384631 0.204608 0.030902
0.413366 0.204521 0.021587
0.441827 0.204863 0.017324
0.469250 0.206236 0.016462
0.495557 0.208854 0.017250
0.521114 0.212229 0.018827
0.546240 0.216155 0.021390
0.571812 0.220535 0.024470
0.598251 0.225363 0.028561
0.624855 0.230578 0.034451
0.650256 0.236015 0.042139
0.674136 0.242040 0.049742
0.697026 0.248242 0.056040
0.719440 0.254036 0.061568
0.742550 0.259519 0.067782
0.767803 0.264503 0.074139
0.796767 0.268742 0.079999
0.830639 0.272004 0.085191
0.869074 0.274253 0.089718
0.909951 0.275915 0.093363
0.035535 0.213157 0.049455
0.042860 0.217253 0.054451
0.055270 0.221054 0.059146
0.074620 0.224540 0.065733
0.095479 0.228601 0.074627
0.120185 0.232642 0.085615
0.148170 0.237265 0.099160
0.177115 0.243273 0.110147
0.210602 0.249425 0.115474
0.256759 0.250464 0.111844
0.301402 0.247827 0.101459
0.337016 0.245023 0.087578
0.367584 0.242933 0.072323
0.394881 0.241860 0.058347
0.421543 0.241427 0.048045
0.447666 0.241060 0.039524
0.473166 0.241349 0.033662
0.498225 0.242540 0.030385
0.522762 0.244213 0.027945
0.547300 0.246606 0.026664
0.572292 0.249293 0.026664
0.598196 0.252238 0.028980
0.624168 0.255334 0.032824
0.649042 0.259003 0.038197
0.672475 0.263313 0.043766
0.694853 0.268013 0.048909
0.717032 0.272773 0.053719
0.739816 0.277542 0.059225
0.764617 0.281900 0.065201
0.792917 0.285675 0.072116
0.825836 0.288748 0.078085
0.863021 0.290932 0.083659
0.902723 0.292643 0.088801
0.041993 0.243950 0.053398
0.051272 0.248514 0.057735
0.063522 0.253187 0.064084
0.078464 0.257194 0.070993
0.095388 0.261359 0.081204
0.116263 0.265856 0.091785
0.146274 0.271207 0.104973
0.186375 0.276730 0.123697
0.220561 0.283240 0.134341
0.253533 0.288770 0.139757
0.300429 0.288975 0.134710
0.341516 0.286084 0.125854
0.375053 0.283038 0.112495
0.403839 0.280472 0.098925
0.429521 0.278647 0.087102
0.453341 0.277591 0.076608
0.476597 0.277205 0.066278
0.499754 0.277418 0.058042
0.522745 0.277950 0.051605
0.545996 0.278777 0.046818
0.570253 0.279945 0.042904
0.595749 0.281289 0.040565
0.621692 0.282914 0.039603
0.646640 0.284777 0.040900
0.670140 0.287260 0.042932
0.692453 0.290370 0.045776
0.714407 0.293751 0.048917
0.737048 0.297345 0.053421
0.761497 0.300750 0.058652
0.789229 0.303730 0.064668
0.821181 0.306146 0.070928
0.857344 0.307951 0.076760
0.895782 0.309247 0.081816
0.040885 0.276169 0.059467
0.048733 0.281171 0.067273
0.064397 0.285503 0.074833
0.084749 0.289498 0.082708
0.104680 0.293723 0.091051
0.124898 0.298398 0.100103
0.149638 0.303531 0.112964
0.181286 0.309334 0.130767
0.220802 0.315592 0.149747
0.258027 0.323260 0.158213
0.295344 0.327899 0.162348
0.338851 0.326547 0.157957
0.376522 0.322887 0.149425
0.408233 0.319207 0.137852
0.435203 0.316168 0.126188
0.459140 0.313997 0.115271
0.481464 0.312662 0.104061
0.502967 0.311844 0.093847
0.524400 0.311364 0.084904
0.546257 0.311155 0.076694
0.569415 0.311081 0.068755
0.593862 0.311118 0.061428
0.619129 0.311419 0.056038
0.643800 0.312171 0.052616
0.667181 0.313441 0.050954
0.689509 0.315211 0.051117
0.711622 0.317417 0.052680
0.734318 0.319811 0.055192
0.758767 0.322142 0.058805
0.786355 0.324018 0.062803
0.817862 0.325434 0.067098
0.853302 0.326255 0.071711
0.891040 0.326685 0.075598
0.054831 0.308885 0.071072
0.066319 0.313480 0.077549
0.079149 0.317855 0.084497
0.094195 0.321866 0.091254
0.107810 0.325891 0.100172
0.125257 0.329658 0.110412
0.147957 0.333823 0.123132
0.181174 0.338777 0.138813
0.226438 0.345015 0.159215
0.267386 0.352226 0.174388
0.300395 0.358586 0.181602
0.337069 0.361257 0.183029
0.376224 0.359232 0.179134
0.409811 0.355372 0.171230
0.439047 0.351606 0.161335
0.464532 0.348651 0.150984
0.487246 0.346375 0.140528
0.508342 0.344698 0.130416
0.528825 0.343523 0.120894
0.549550 0.342666 0.111635
0.571322 0.341866 0.101957
0.594530 0.341083 0.092472
0.618486 0.340413 0.083341
0.642342 0.340293 0.076007
0.665214 0.340749 0.070873
0.687425 0.341825 0.067820
0.709502 0.343181 0.066584
0.732287 0.344681 0.066290
0.756968 0.345912 0.067313
0.784617 0.346805 0.068597
0.816261 0.346947 0.070010
0.851665 0.346520 0.071482
0.889109 0.345755 0.072831
0.060604 0.340278 0.084442
0.069441 0.344198 0.091601
0.081765 0.347980 0.099315
0.097628 0.351223 0.105745
0.114996 0.354154 0.113615
0.133426 0.357293 0.122574
0.156850 0.360707 0.133318
0.190187 0.365221 0.148032
0.231515 0.371096 0.167443
0.269478 0.377925 0.186964
0.302579 0.385421 0.196746
0.335876 0.391018 0.202334
0.373712 0.392074 0.201031
0.409322 0.389199 0.198134
0.440015 0.385182 0.191224
0.467316 0.381883 0.182820
0.491482 0.379093 0.173406
0.513307 0.376868 0.163981
0.533963 0.375041 0.154826
0.554452 0.373709 0.145350
0.575471 0.372429 0.135360
0.597508 0.371244 0.125082
0.620238 0.370113 0.115097
0.643039 0.369525 0.105954
0.665214 0.369400 0.098775
0.687009 0.369856 0.093275
0.708910 0.370604 0.089183
0.731659 0.371378 0.086433
0.756417 0.371794 0.083929
0.784250 0.371586 0.082001
0.816028 0.370637 0.079856
0.851634 0.368941 0.077860
0.889281 0.366818 0.075567
0.067181 0.368806 0.101455
0.081635 0.371999 0.107942
0.097197 0.375258 0.113594
0.113872 0.377828 0.118806
0.130264 0.380334 0.125131
0.146129 0.383168 0.132915
0.165417 0.386263 0.142447
0.191316 0.390104 0.156099
0.225900 0.395348 0.173946
0.266837 0.402254 0.194239
0.307134 0.409744 0.209018
0.341990 0.416196 0.217418
0.372524 0.420094 0.222908
0.408097 0.419688 0.220508
0.440141 0.416703 0.216838
0.468260 0.413478 0.210454
0.493958 0.410796 0.203202
0.517191 0.408455 0.195169
0.538900 0.406433 0.186845
0.559934 0.404693 0.178091
0.580988 0.403166 0.168764
0.602470 0.401778 0.158910
0.624281 0.400478 0.148840
0.646093 0.399561 0.139503
0.667468 0.399088 0.131277
0.688644 0.399100 0.124485
0.710020 0.399356 0.118457
0.732472 0.399452 0.113210
0.757009 0.399174 0.108091
0.784839 0.398048 0.102767
0.816639 0.396054 0.097107
0.852399 0.393145 0.090941
0.890310 0.389840 0.084865
0.088426 0.396563 0.113929
0.100041 0.399103 0.119451
0.111628 0.401595 0.124605
0.124149 0.403827 0.129827
0.136066 0.405856 0.135678
0.149095 0.408045 0.142894
0.165226 0.410320 0.151855
0.188983 0.413611 0.163809
0.223122 0.418199 0.179911
0.266781 0.424558 0.199538
0.311689 0.431713 0.217971
0.347261 0.438602 0.229652
0.376865 0.443841 0.237310
0.406632 0.446485 0.240976
0.439183 0.445948 0.238715
0.468191 0.443949 0.235028
0.494613 0.441906 0.229963
0.519413 0.439921 0.224088
0.542683 0.437937 0.217356
0.564962 0.436166 0.209825
0.586717 0.434499 0.201438
0.608276 0.432871 0.192505
0.629666 0.431443 0.183206
0.650767 0.430382 0.174129
0.671457 0.429659 0.165746
0.691931 0.429304 0.158128
0.712663 0.429095 0.151152
0.734505 0.428653 0.144398
0.758581 0.427702 0.137136
0.786018 0.425793 0.129176
0.817614 0.422852 0.120255
0.853146 0.418933 0.110814
0.891028 0.414427 0.100789
0.095853 0.422979 0.127831
0.104319 0.425054 0.133239
0.114256 0.426967 0.138167
0.126032 0.428711 0.142537
0.138692 0.430220 0.147229
0.152333 0.431921 0.153408
0.168862 0.433711 0.160936
0.192439 0.436100 0.171208
0.225682 0.439890 0.185506
0.268227 0.445792 0.203854
0.311543 0.452729 0.222740
0.348378 0.459687 0.238174
0.379132 0.466118 0.248502
0.406676 0.471016 0.255428
0.435824 0.473731 0.258540
0.466337 0.474001 0.257108
0.493536 0.472868 0.254092
0.519502 0.471434 0.250279
0.544542 0.469892 0.245495
0.568380 0.468133 0.239681
0.591416 0.466410 0.232900
0.613721 0.464664 0.225127
0.635350 0.463058 0.216845
0.656307 0.461673 0.208328
0.676590 0.460697 0.200157
0.696491 0.460058 0.192398
0.716629 0.459424 0.184821
0.737753 0.458523 0.177049
0.761115 0.456922 0.168506
0.787860 0.454321 0.158746
0.818880 0.450545 0.147575
0.853812 0.445672 0.135317
0.891231 0.440268 0.122683
0.101152 0.448238 0.142790
0.112825 0.449802 0.147003
0.125044 0.451396 0.151112
0.137753 0.452773 0.154954
0.151803 0.453919 0.158701
0.165696 0.455121 0.163495
0.181838 0.456563 0.169990
0.203462 0.458618 0.178641
0.233412 0.461929 0.191294
0.271340 0.467104 0.207868
0.310624 0.473834 0.226564
0.346175 0.481101 0.243680
0.377981 0.488219 0.257165
0.406667 0.494683 0.266891
0.434122 0.499996 0.273956
0.461777 0.503320 0.277664
0.490702 0.503968 0.276470
0.518175 0.502956 0.274186
0.544596 0.501710 0.271255
0.570054 0.500183 0.267237
0.594550 0.498503 0.262060
0.618050 0.496598 0.255827
0.640547 0.494763 0.248567
0.661905 0.493153 0.240958
0.682261 0.491845 0.233200
0.701976 0.490847 0.225534
0.721609 0.489912 0.217844
0.742188 0.488525 0.209594
0.764869 0.486349 0.200160
0.790910 0.483104 0.189245
0.821095 0.478605 0.176614
0.855243 0.472928 0.162691
0.891663 0.466675 0.148147
0.123701 0.472233 0.155582
0.136020 0.473665 0.159214
0.148146 0.475078 0.162859
0.160841 0.476387 0.166059
0.174059 0.477496 0.169527
0.187368 0.478778 0.173785
0.202138 0.480233 0.179550
0.220612 0.482127 0.187462
0.245349 0.485013 0.198407
0.276646 0.489555 0.213401
0.310613 0.495787 0.231101
0.344929 0.503036 0.248973
0.377665 0.510465 0.264524
0.407955 0.517700 0.276932
0.435866 0.524350 0.286461
0.461579 0.529721 0.293417
0.487064 0.533373 0.297394
0.515743 0.534062 0.296157
0.543637 0.532920 0.294426
0.570446 0.531648 0.291928
0.596310 0.530037 0.288395
0.621136 0.528183 0.283667
0.644841 0.526148 0.277783
0.667163 0.524255 0.271148
0.688147 0.522629 0.264027
0.708061 0.521255 0.256717
0.727643 0.519814 0.248926
0.748027 0.518012 0.240421
0.770320 0.515364 0.230469
0.795821 0.511475 0.218936
0.825321 0.506263 0.205460
0.858524 0.499885 0.190593
0.893891 0.492880 0.174946
0.153713 0.495642 0.166845
0.164289 0.497000 0.170317
0.175119 0.498588 0.173945
0.186290 0.500047 0.177435
0.197581 0.501438 0.180883
0.209326 0.502744 0.184934
0.221959 0.504308 0.190371
0.237336 0.506230 0.197471
0.257461 0.508798 0.207415
0.283071 0.512679 0.220830
0.313439 0.518345 0.237350
0.346463 0.525279 0.255177
0.379338 0.532701 0.271707
0.410268 0.540122 0.285785
0.438724 0.547266 0.297191
0.464776 0.553705 0.305964
0.489270 0.559006 0.312421
0.514243 0.562497 0.316200
0.542318 0.563026 0.315370
0.570100 0.561837 0.313620
0.597024 0.560413 0.311461
0.623114 0.558666 0.308236
0.648121 0.556594 0.303827
0.671673 0.554489 0.298411
0.693644 0.552517 0.292216
0.714387 0.550745 0.285268
0.734500 0.548907 0.277613
0.755203 0.546566 0.268883
0.777713 0.543263 0.258511
0.803326 0.538723 0.246501
0.832513 0.532874 0.232532
0.865030 0.525824 0.217171
0.899423 0.518158 0.201138
0.179116 0.518671 0.178900
0.188197 0.520319 0.182412
0.197372 0.521964 0.186007
0.206877 0.523680 0.189572
0.216716 0.525241 0.193036
0.226927 0.526774 0.196918
0.237869 0.528361 0.201848
0.251233 0.530155 0.208368
0.268586 0.532493 0.217400
0.291360 0.535981 0.229739
0.319241 0.540970 0.244977
0.350624 0.547387 0.262157
0.382840 0.554655 0.279145
0.413700 0.562120 0.294383
0.442400 0.569411 0.307120
0.468823 0.576136 0.317023
0.493558 0.582131 0.324600
0.517489 0.586909 0.330043
0.542189 0.589969 0.333121
0.569789 0.590343 0.332632
0.597325 0.589172 0.331440
0.624340 0.587656 0.329597
0.650473 0.585713 0.326544
0.675332 0.583555 0.322468
0.698614 0.581346 0.317265
0.720483 0.579095 0.311002
0.741753 0.576703 0.303611
0.763547 0.573710 0.294701
0.787154 0.569715 0.284091
0.813435 0.564442 0.271504
0.842958 0.557870 0.257223
0.875264 0.550222 0.241545
0.909078 0.541996 0.225353
0.198513 0.541728 0.191946
0.206483 0.543632 0.195332
0.214683 0.545461 0.198866
0.223204 0.547276 0.202325
0.232185 0.548901 0.205589
0.241427 0.550482 0.209270
0.251743 0.552031 0.213803
0.263980 0.553721 0.219795
0.280004 0.555828 0.228054
0.300916 0.558890 0.239196
0.326832 0.563314 0.253362
0.356419 0.569195 0.269708
0.387458 0.576089 0.286670
0.417942 0.583445 0.302586
0.446811 0.590892 0.316387
0.473547 0.597883 0.327443
0.498439 0.604108 0.335923
0.522319 0.609407 0.342224
0.545847 0.613581 0.346679
0.570564 0.616102 0.349286
0.597882 0.616037 0.348996
0.625298 0.614937 0.348074
0.652285 0.613319 0.346303
0.678196 0.611218 0.343428
0.702778 0.608834 0.339410
0.726099 0.606274 0.334015
0.749047 0.603239 0.326933
0.772690 0.599514 0.318075
0.798056 0.594652 0.307023
0.825940 0.588556 0.293985
0.856307 0.581173 0.279264
0.888932 0.572922 0.263398
0.922494 0.564203 0.246983
0.214878 0.564906 0.205086
0.222424 0.566820 0.208427
0.230161 0.568773 0.211720
0.238062 0.570608 0.214952
0.246433 0.572328 0.218131
0.255234 0.573848 0.221406
0.265020 0.575287 0.225582
0.276749 0.576780 0.231110
0.291772 0.578619 0.238656
0.311155 0.581295 0.248858
0.335206 0.585225 0.261968
0.362908 0.590560 0.277423
0.392569 0.596983 0.294019
0.422557 0.604161 0.310251
0.451442 0.611589 0.324883
0.478534 0.618704 0.337036
0.503728 0.625248 0.346472
0.527498 0.630930 0.353642
0.550733 0.635524 0.358911
0.574232 0.639004 0.362673
0.599123 0.640889 0.364701
0.626452 0.640465 0.364490
0.653694 0.639290 0.363611
0.680317 0.637521 0.361743
0.706066 0.635193 0.358773
0.731007 0.632318 0.354285
0.755990 0.628768 0.347860
0.781961 0.624151 0.339041
0.809882 0.618345 0.327747
0.839967 0.611267 0.314180
0.871838 0.603116 0.299047
0.904973 0.594244 0.282882
0.938467 0.585056 0.266452
0.230376 0.587931 0.217828
0.237644 0.589890 0.221124
0.244883 0.591822 0.224174
0.252414 0.593619 0.227080
0.260295 0.595219 0.230030
0.268761 0.596661 0.233118
0.278125 0.597968 0.236900
0.289263 0.599270 0.241940
0.303389 0.600858 0.248823
0.321409 0.603159 0.258247
0.343658 0.606548 0.270304
0.369482 0.611318 0.284810
0.397787 0.617338 0.300899
0.427098 0.624230 0.317183
0.456041 0.631523 0.332427
0.483536 0.638708 0.345501
0.509124 0.645476 0.356083
0.533017 0.651504 0.364144
0.555787 0.656573 0.370239
0.578650 0.660507 0.374607
0.602543 0.663136 0.377491
0.628133 0.664266 0.378838
0.654993 0.663803 0.378803
0.681894 0.662522 0.377909
0.708538 0.660384 0.375782
0.735000 0.657396 0.372195
0.762122 0.653361 0.366349
0.790882 0.648031 0.357877
0.821778 0.641227 0.346526
0.854449 0.633204 0.332733
0.888009 0.624181 0.317150
0.921756 0.614794 0.300822
0.955246 0.605215 0.284434
0.245503 0.610748 0.230242
0.252278 0.612641 0.233182
0.259184 0.614469 0.236092
0.266359 0.616145 0.238795
0.273740 0.617729 0.241464
0.281789 0.619035 0.244355
0.290710 0.620177 0.247788
0.301330 0.621318 0.252369
0.314479 0.622549 0.258680
0.331103 0.624482 0.267228
0.351651 0.627421 0.278350
0.375763 0.631646 0.291868
0.402822 0.637200 0.307227
0.431467 0.643687 0.323316
0.460371 0.650759 0.338864
0.488296 0.657906 0.352718
0.514299 0.664777 0.364374
0.538273 0.671085 0.373440
0.560826 0.676549 0.380363
0.583011 0.681053 0.385404
0.606005 0.684348 0.388938
0.630425 0.686342 0.391174
0.656277 0.686942 0.392068
0.682932 0.686417 0.391884
0.710024 0.684676 0.390616
0.737932 0.681830 0.387724
0.767304 0.677510 0.382757
0.798918 0.671577 0.374763
0.832902 0.663969 0.363688
0.868263 0.655016 0.349858
0.903505 0.645296 0.334313
0.937693 0.635412 0.317943
0.970627 0.625528 0.301425
0.259543 0.633201 0.241972
0.266020 0.635002 0.244752
0.272500 0.636689 0.247507
0.279162 0.638338 0.250043
0.286165 0.639744 0.252472
0.293779 0.640982 0.255081
0.302114 0.641964 0.258182
0.312008 0.642842 0.262307
0.324240 0.643813 0.267946
0.339715 0.645371 0.275705
0.358738 0.647830 0.285888
0.381498 0.651527 0.298467
0.407333 0.656526 0.312966
0.435291 0.662630 0.328642
0.464106 0.669380 0.344237
0.492227 0.676429 0.358700
0.518568 0.683303 0.371157
0.542785 0.689794 0.381144
0.565296 0.695700 0.388977
0.587036 0.700725 0.394814
0.609176 0.704775 0.399110
0.632512 0.707589 0.402028
0.657306 0.709186 0.403610
0.683380 0.709493 0.404107
0.710681 0.708428 0.403471
0.739646 0.705973 0.401349
