bundles/resolve-cinematic-luts/Gamut/Marble/Marble 01.cube
TITLE "Marble 01 by Gamut"
# Version 1.0 - 02/23/2023 - Designed for Rec.709 Color Space. Copyright 2023 Gamut, LLC
# 
LUT_3D_SIZE 5
0.0031540000 0.0031540000 0.0031540000
0.0844235000 0.0070970000 0.0070970000
0.2428730000 0.0177430000 0.0205030000
0.4555677500 0.0238542500 0.0291770000
0.7593660000 0.0331200000 0.0386400000
0.0450985000 0.1327417500 0.0482840000
0.1895090000 0.1611797500 0.0738767500
0.4218452500 0.1638222500 0.0348945000
0.6704730000 0.1955885000 0.0675717500
0.9540632500 0.2185030000 0.0994230000
0.1089415000 0.3632195000 0.1153240000
0.2352810000 0.3881385000 0.1708887500
0.4774760000 0.4250170000 0.2170730000
0.6641642500 0.4180650000 0.1741085000
0.9129410000 0.4043315000 0.1272675000
0.2098667500 0.5762870000 0.2041665000
0.2877717500 0.5926472500 0.2334525000
0.5121780000 0.6533380000 0.3499645000
0.7311437500 0.6803402500 0.3655960000
0.9695952500 0.6374477500 0.2963762500
0.3033130000 0.7941710000 0.2900750000
0.3580245000 0.7994830000 0.3031607500
0.5180305000 0.8255280000 0.3808730000
0.7268070000 0.8929772500 0.4758325000
0.9995970000 0.9082790000 0.4735470000
0.0224747500 0.0264175000 0.0632075000
0.0878942500 0.0147857500 0.0798747500
0.2635100000 0.0153767500 0.0936300000
0.4862577500 0.0167572500 0.1091825000
0.7924865000 0.0216862500 0.1271050000
0.0325290000 0.1548200000 0.1434660000
0.1846715000 0.1813300000 0.1747477500
0.4567185000 0.2015217500 0.1748857500
0.7008130000 0.2235587500 0.1982397500
0.9807045000 0.2308182500 0.2090160000
0.0826172500 0.3972787500 0.1835925000
0.2141365000 0.4100185000 0.2069180000
0.4663200000 0.4388097500 0.2848695000
0.6590855000 0.4246065000 0.2402605000
0.9230955000 0.4226135000 0.2192777500
0.1941765000 0.5998762500 0.2473525000
0.2704147500 0.6053570000 0.2615832500
0.4805145000 0.6437260000 0.3609595000
0.7191022500 0.6932987500 0.4178765000
0.9425215000 0.6446985000 0.3459042500
0.2913850000 0.8105367500 0.3213465000
0.3439325000 0.8103955000 0.3283840000
0.4752720000 0.8095972500 0.3711367500
0.7121917500 0.8946695000 0.4980320000
0.9993560000 0.9399400000 0.5321692500
0.0607555000 0.0681130000 0.1676960000
0.1019867500 0.0649347500 0.1990857500
0.2748990000 0.0295715000 0.2569415000
0.5057195000 0.0281915000 0.3137947500
0.8230555000 0.0126170000 0.3358830000
0.0674110000 0.2071942500 0.3147177500
0.1937680000 0.2331490000 0.3854280000
0.4558807500 0.2053742500 0.4220442500
0.6998700000 0.2214502500 0.4327620000
0.9875487500 0.2171302500 0.4071515000
0.0670095000 0.4350145000 0.4196965000
0.1975110000 0.4545815000 0.4438415000
0.4640075000 0.4503520000 0.4411885000
0.7156682500 0.4620860000 0.4146055000
0.9918805000 0.4837195000 0.4244540000
0.1397265000 0.6611005000 0.4281682500
0.2289235000 0.6685507500 0.4361417500
0.4420960000 0.6525037500 0.4338825000
0.7101995000 0.6951410000 0.5411960000
0.9141937500 0.6273337500 0.4276847500
0.2250840000 0.8621895000 0.4294890000
0.2797427500 0.8532847500 0.4272975000
0.4244110000 0.8060875000 0.4040135000
0.6589262500 0.8556305000 0.5276740000
1.0000000000 0.9650375000 0.6661210000
0.0891625000 0.1115855000 0.2623905000
0.1395737500 0.1295752500 0.3167322500
0.2922532500 0.1307202500 0.3893075000
0.5285707500 0.0635160000 0.4961032500
0.8384015000 0.0542950000 0.5669612500
0.1503882500 0.2851322500 0.4975065000
0.2471630000 0.3154892500 0.5746422500
0.4483742500 0.2906652500 0.6103520000
0.6911855000 0.2448687500 0.6433735000
0.9688740000 0.2350475000 0.6589540000
0.0773947500 0.4727280000 0.5890890000
0.1898867500 0.4946187500 0.6300362500
0.4349745000 0.4786547500 0.6569135000
0.7090517500 0.4675972500 0.6554635000
0.9972180000 0.4691560000 0.6500007500
0.1395815000 0.6880455000 0.6535947500
0.2404212500 0.7111972500 0.6862705000
0.4678405000 0.7060240000 0.6794722500
0.7107897500 0.7021865000 0.6808325000
0.9862995000 0.7017647500 0.6273362500
0.1751837500 0.9138852500 0.6256672500
0.2377300000 0.9240865000 0.6368682500
0.3934267500 0.8790820000 0.5852402500
0.6302977500 0.8668050000 0.6075735000
1.0000000000 0.9842335000 0.8297020000
0.1324070000 0.1771560000 0.3891140000
0.1924055000 0.2132017500 0.4685285000
0.3212845000 0.2200585000 0.5873415000
0.5472067500 0.2417162500 0.6830280000
0.8522940000 0.1252840000 0.8013270000
0.2430955000 0.3900377500 0.7239727500
0.3186407500 0.4207612500 0.7988987500
0.4602030000 0.3819937500 0.8352910000
0.6832732500 0.3661597500 0.8307880000
0.9597732500 0.2671402500 0.8893930000
0.1888650000 0.5390265000 0.7858610000
0.2708745000 0.5578155000 0.8370610000
0.4559060000 0.5406325000 0.8609925000
0.6850422500 0.5182697500 0.8813842500
0.9824230000 0.4675430000 0.9079740000
0.1315702500 0.7180635000 0.8489700000
0.2124727500 0.7434865000 0.8958470000
0.4044707500 0.7406875000 0.9061152500
0.6670832500 0.7261490000 0.9216930000
0.9781597500 0.6969287500 0.8920435000
0.1935410000 0.9332980000 0.8551380000
0.2441680000 0.9534992500 0.8973972500
0.4236730000 0.9502915000 0.8910280000
0.7070210000 0.9734407500 0.9243235000
1.0000000000 1.0000000000 0.9857530000
