bundles/resolve-cinematic-luts/Gamut/Marble/Marble 01.cube
TITLE "Marble 01 by Gamut"
# Version 1.0 - 02/23/2023 - Designed for Rec.709 Color Space. Copyright 2023 Gamut, LLC
# 
LUT_3D_SIZE 33
0.0031540000 0.0031540000 0.0031540000
0.0078120625 0.0039430000 0.0031540000
0.0140461875 0.0054706875 0.0046817500
0.0232873438 0.0055200000 0.0047310000
0.0326271250 0.0063090000 0.0055200000
0.0434131250 0.0063090000 0.0055200000
0.0566083125 0.0069492500 0.0061610625
0.0693804375 0.0069246250 0.0069246250
0.0844235000 0.0070970000 0.0070970000
0.1014538437 0.0076640937 0.0084523750
0.1202068750 0.0092164375 0.0100047500
0.1388927188 0.0099801250 0.0115577812
0.1587365000 0.0123215000 0.0131101250
0.1782974375 0.0130854687 0.0151303438
0.1990646875 0.0146378125 0.0170038125
0.2208700625 0.0161901563 0.0189747812
0.2428730000 0.0177430000 0.0205030000
0.2652231563 0.0189260000 0.0216613750
0.2886956250 0.0200591875 0.0232137500
0.3126880000 0.0212920000 0.0252340000
0.3389998750 0.0223758750 0.0263188750
0.3664240000 0.0228690000 0.0276000000
0.3957986875 0.0228690000 0.0283890000
0.4256489688 0.0228690000 0.0291770000
0.4555677500 0.0238542500 0.0291770000
0.4862324375 0.0254065938 0.0299660000
0.5167438750 0.0269597500 0.0309019375
0.5485694375 0.0285121250 0.0324551250
0.5832063750 0.0299660000 0.0339090000
0.6228737812 0.0307540000 0.0347709687
0.6673518750 0.0315430000 0.0355352500
0.7149775000 0.0315676562 0.0370876562
0.7593660000 0.0331200000 0.0386400000
0.0070230625 0.0116811250 0.0062596875
0.0116811250 0.0116811250 0.0085754375
0.0186549062 0.0132581250 0.0093644375
0.0271317813 0.0140215000 0.0093644375
0.0386157813 0.0147365313 0.0101524375
0.0493103750 0.0147118750 0.0100539375
0.0630948750 0.0154753750 0.0108181562
0.0794735000 0.0163628437 0.0117304062
0.0971270312 0.0169792500 0.0123214062
0.1165116250 0.0179398750 0.0133074063
0.1370853750 0.0192705937 0.0154261875
0.1592296250 0.0203058438 0.0169792188
0.1805678125 0.0216119687 0.0185315625
0.2036974375 0.0236328438 0.0205523750
0.2267939375 0.0254806875 0.0224252500
0.2502072500 0.0270334687 0.0239775937
0.2741694062 0.0285858437 0.0255545938
0.2993524687 0.0293497188 0.0278466250
0.3247495625 0.0309020625 0.0290537813
0.3515635000 0.0324549688 0.0301875625
0.3792889375 0.0332187500 0.0314444375
0.4089017500 0.0339827188 0.0317402813
0.4403473750 0.0355104687 0.0325043125
0.4722147187 0.0370384687 0.0332679688
0.5040877813 0.0387631875 0.0347956875
0.5356569375 0.0410315938 0.0363234063
0.5671330625 0.0432480312 0.0386400937
0.6000791563 0.0453745000 0.0401905625
0.6357976563 0.0480540625 0.0417068750
0.6756715937 0.0494510000 0.0439060625
0.7208358437 0.0513689063 0.0453439375
0.7681634062 0.0532755937 0.0467515000
0.8137651250 0.0551835000 0.0488062187
0.0108921250 0.0194183125 0.0101031875
0.0163382187 0.0209715937 0.0139722500
0.0240024375 0.0224746875 0.0162643125
0.0332682500 0.0240763437 0.0163135625
0.0458111875 0.0263190625 0.0171025625
0.0599985937 0.0278221563 0.0177674375
0.0756655000 0.0285856875 0.0178905625
0.0930410313 0.0300887500 0.0192951875
0.1121882500 0.0309021875 0.0200593125
0.1338248750 0.0318391250 0.0208236562
0.1567256250 0.0331695625 0.0223760000
0.1804768750 0.0339825625 0.0239283438
0.2046745625 0.0355349375 0.0254807500
0.2297414375 0.0370879062 0.0270826875
0.2548975000 0.0386402500 0.0286350625
0.2803229375 0.0401862188 0.0301875000
0.3062056250 0.0416961250 0.0317403750
0.3334483125 0.0431744688 0.0332927188
0.3613880000 0.0445755000 0.0344998750
0.3895898750 0.0469951250 0.0356582500
0.4189173750 0.0489966875 0.0364220625
0.4504443750 0.0506701250 0.0379256875
0.4836482500 0.0526425000 0.0386894375
0.5177389062 0.0546970000 0.0404535625
0.5504719375 0.0571295625 0.0424607500
0.5824994688 0.0596188437 0.0446140313
0.6145631250 0.0625148125 0.0467505000
0.6480475000 0.0657951875 0.0489325312
0.6842122500 0.0689932500 0.0515508750
0.7243809375 0.0720431250 0.0540230313
0.7684357500 0.0744578125 0.0559501875
0.8156002500 0.0768913438 0.0577343125
0.8638702500 0.0783646875 0.0595196875
0.0162643125 0.0316665625 0.0154753125
0.0217596250 0.0340070312 0.0186549062
0.0294238750 0.0362990937 0.0231887813
0.0408012500 0.0378268125 0.0255055000
0.0536324375 0.0401576563 0.0262945000
0.0679469688 0.0430393125 0.0263683750
0.0860138125 0.0458365625 0.0263683750
0.1054189062 0.0460445000 0.0257519687
0.1270670625 0.0467563750 0.0263190625
0.1511828438 0.0479595625 0.0270825938
0.1764025000 0.0493225312 0.0279206250
0.2021005000 0.0501517812 0.0294730625
0.2282167187 0.0513095625 0.0309514375
0.2545660312 0.0529949688 0.0317896562
0.2817815000 0.0545366875 0.0341304375
0.3090245000 0.0560500938 0.0349683125
0.3372603438 0.0584219063 0.0364467813
0.3656025625 0.0607264687 0.0372850000
0.3944735625 0.0629680312 0.0380488125
0.4235781250 0.0657120312 0.0396012812
0.4542393125 0.0680850000 0.0413440625
0.4872467187 0.0704255000 0.0432330625
0.5220912187 0.0729496562 0.0449806250
0.5564904688 0.0755440313 0.0470156562
0.5896795312 0.0785243125 0.0489955625
0.6223096875 0.0818547187 0.0516558750
0.6545172188 0.0858226875 0.0547406875
0.6875009063 0.0896395000 0.0578300000
0.7229597812 0.0936878125 0.0608191250
0.7616930312 0.0968830000 0.0636724062
0.8048420938 0.0995683437 0.0663451562
0.8526255312 0.1014792188 0.0679577500
0.9025175313 0.1026154063 0.0695419375
0.0224746250 0.0465751250 0.0216857500
0.0293499063 0.0504921875 0.0255548125
0.0370633750 0.0525363750 0.0301626250
0.0473517812 0.0556010000 0.0347466563
0.0619200000 0.0579817500 0.0370633750
0.0782170000 0.0597830000 0.0371620000
0.0948783125 0.0625935625 0.0365209375
0.1154720625 0.0644121562 0.0344505938
0.1392140000 0.0648817500 0.0320361250
0.1657670000 0.0659859687 0.0312472500
0.1934860000 0.0664216250 0.0313458750
0.2215730000 0.0671345625 0.0321347500
0.2497486250 0.0682102500 0.0335146250
0.2780938125 0.0700457812 0.0350669687
0.3064273750 0.0721160625 0.0361755000
0.3355403750 0.0747714375 0.0373835312
0.3648262500 0.0776405000 0.0382460000
0.3944573438 0.0803594375 0.0396997500
0.4238280000 0.0833295625 0.0415627500
0.4539160312 0.0863318750 0.0433769062
0.4856257500 0.0895236250 0.0454573750
0.5196695312 0.0925644063 0.0478068437
0.5548118125 0.0953699375 0.0498320625
0.5893241250 0.0986135312 0.0525601250
0.6221690000 0.1019793750 0.0554783750
0.6543126563 0.1057537188 0.0586694375
0.6859502500 0.1099935000 0.0622115000
0.7178146562 0.1141335625 0.0659629375
0.7513748750 0.1180495000 0.0696560000
0.7885522188 0.1215814375 0.0727547812
0.8307979375 0.1241000625 0.0756558750
0.8786180937 0.1253603438 0.0776036250
0.9280063750 0.1263355000 0.0790302500
0.0293499062 0.0647360625 0.0285609063
0.0363236875 0.0683817188 0.0316666250
0.0445907500 0.0719725938 0.0370880313
0.0561729062 0.0744705000 0.0438098750
0.0676402500 0.0773780000 0.0467076250
0.0874232812 0.0792901562 0.0480910938
0.1077181563 0.0811680000 0.0469409375
0.1272241875 0.0837456875 0.0448095938
0.1506940625 0.0851162812 0.0414127500
0.1775301250 0.0849796875 0.0371123437
0.2064852500 0.0849796875 0.0340321250
0.2357511250 0.0849796875 0.0329968750
0.2661660625 0.0862360313 0.0337857187
0.2973514063 0.0884383438 0.0346970000
0.3277127500 0.0909266562 0.0360523750
0.3580290625 0.0937744062 0.0368164375
0.3882647500 0.0968153125 0.0382460000
0.4188547812 0.1004017187 0.0405812188
0.4497530000 0.1040706563 0.0431674375
0.4808319688 0.1079922188 0.0459302500
0.5124750625 0.1114907500 0.0482633750
0.5461485625 0.1148301875 0.0512650625
0.5810445312 0.1184173438 0.0543884375
0.6152790313 0.1221380625 0.0576607812
0.6477413125 0.1261396875 0.0616119687
0.6787066875 0.1305824375 0.0654746875
0.7087784062 0.1347392188 0.0693557500
0.7391700937 0.1391937500 0.0733949375
0.7711720000 0.1430501250 0.0777535000
0.8068759375 0.1464568437 0.0814080937
0.8483761250 0.1485720937 0.0841202813
0.8953491875 0.1496027500 0.0859065313
0.9437235313 0.1503926250 0.0872185000
0.0356826250 0.0853939375 0.0355348750
0.0431715313 0.0900011562 0.0387635312
0.0513190000 0.0936379375 0.0431469375
0.0632374687 0.0960731562 0.0494953438
0.0777083750 0.0984551250 0.0552244375
0.0919082813 0.1024087188 0.0582341250
0.1166890000 0.1039801250 0.0577224375
0.1414931250 0.1054682500 0.0543839375
0.1649568750 0.1067175000 0.0506327500
0.1903739375 0.1071335625 0.0454550312
0.2194042500 0.1068386250 0.0404501250
0.2492838750 0.1062277813 0.0363728125
0.2796606250 0.1065428750 0.0340567500
0.3101630938 0.1077872500 0.0332679375
0.3413857500 0.1096993750 0.0330709375
0.3730116250 0.1126974688 0.0338348437
0.4048306875 0.1162188750 0.0357811875
0.4367243437 0.1202858125 0.0387389687
0.4680496250 0.1245802500 0.0418033125
0.4991941250 0.1291082188 0.0454601562
0.5313948750 0.1335948125 0.0490642500
0.5649281563 0.1379556875 0.0528926875
0.5994143750 0.1421470000 0.0573499375
0.6329013125 0.1464181562 0.0614874375
0.6643309375 0.1508581250 0.0663283125
0.6940638750 0.1553210313 0.0707015625
0.7227413125 0.1597551250 0.0751552500
0.7518061250 0.1640646875 0.0798834375
0.7828403750 0.1679933125 0.0840221250
0.8177063125 0.1711041250 0.0878285312
0.8585945000 0.1728726250 0.0903751250
0.9046437500 0.1735841562 0.0920555937
0.9523627500 0.1739873125 0.0937101875
0.0418407187 0.1078719688 0.0424250937
0.0490567813 0.1127274688 0.0454719688
0.0577990625 0.1170210313 0.0494573750
0.0688269687 0.1201774375 0.0551848438
0.0855408125 0.1220755625 0.0627342812
0.1010890000 0.1260524062 0.0666937187
0.1206142500 0.1300925938 0.0678444063
0.1506293750 0.1314203438 0.0653324687
0.1794840625 0.1315554375 0.0600277812
0.2065786562 0.1318685000 0.0545246562
0.2332289687 0.1318685000 0.0487803750
0.2623280000 0.1316018438 0.0427187812
0.2924533750 0.1310020625 0.0380489375
0.3224375312 0.1315090313 0.0342046875
0.3527826250 0.1325809062 0.0325043750
0.3834829063 0.1348015938 0.0315430000
0.4146671875 0.1377615625 0.0328983750
0.4459350938 0.1412777500 0.0357811875
0.4769769375 0.1455171250 0.0388869062
0.5079457500 0.1500891875 0.0430006563
0.5402489375 0.1551156563 0.0473880313
0.5738509063 0.1600805313 0.0527274375
0.6080143125 0.1647935312 0.0577725000
0.6408605313 0.1694871562 0.0630308125
0.6714145625 0.1740979063 0.0684025938
0.7003127188 0.1786894687 0.0734649063
0.7282790000 0.1832822188 0.0787470625
0.7566564688 0.1876373438 0.0833943750
0.7872171250 0.1914243438 0.0878324687
0.8219677188 0.1943306875 0.0916224375
0.8626100000 0.1960282188 0.0943632187
0.9082138437 0.1966556562 0.0960845313
0.9555972500 0.1968493438 0.0978892188
0.0450985000 0.1327417500 0.0482840000
0.0525451875 0.1377456875 0.0521039688
0.0620255000 0.1427245625 0.0552736250
0.0752625312 0.1463086250 0.0607022188
0.0916233750 0.1489345000 0.0669426250
0.1104229688 0.1514682500 0.0756608125
0.1282318750 0.1563758125 0.0785845000
0.1547520313 0.1605839688 0.0776904688
0.1895090000 0.1611797500 0.0738767500
0.2218670938 0.1607590312 0.0669938750
0.2499275000 0.1603366250 0.0601780625
0.2769824063 0.1603441875 0.0537710000
0.3053823750 0.1605030000 0.0477457500
0.3341388750 0.1603215000 0.0422047187
0.3632535000 0.1604122500 0.0377039375
0.3925699688 0.1617620000 0.0356580937
0.4218452500 0.1638222500 0.0348945000
0.4509542813 0.1663711875 0.0356581250
0.4802679375 0.1695690000 0.0379995000
0.5101407500 0.1735587813 0.0414180625
0.5412592500 0.1776962500 0.0455457500
0.5739865938 0.1820066875 0.0507593125
0.6076956875 0.1864430000 0.0562241875
0.6401026250 0.1909353750 0.0620175313
0.6704730000 0.1955885000 0.0675717500
0.6989602500 0.2001264062 0.0730325000
0.7268250625 0.2045978125 0.0784311250
0.7551551875 0.2088746562 0.0834247812
0.7858033750 0.2127113750 0.0882336250
0.8206622500 0.2156990937 0.0923253125
0.8611660000 0.2173812500 0.0951646875
0.9066335937 0.2181987500 0.0975665000
0.9540632500 0.2185030000 0.0994230000
0.0466920313 0.1597960937 0.0542064062
0.0555167813 0.1654519063 0.0572941875
0.0663170000 0.1702382500 0.0606894688
0.0804441875 0.1740445000 0.0647911875
0.0972221562 0.1770343437 0.0714102812
0.1163697500 0.1804238438 0.0805155625
0.1388567813 0.1849614063 0.0911456250
0.1602900000 0.1908546875 0.0940307500
0.1937790313 0.1941549375 0.0920139687
0.2321105937 0.1943985000 0.0862432187
0.2644953438 0.1936607812 0.0787154375
0.2924159688 0.1929810625 0.0710688750
0.3188212188 0.1926465938 0.0645579062
0.3453158125 0.1928140000 0.0583041875
0.3724189688 0.1929253750 0.0528054375
0.3997635313 0.1931230937 0.0482457812
0.4274543125 0.1940093750 0.0448131562
0.4549365000 0.1956062188 0.0437659375
0.4821962500 0.1979172812 0.0439875625
0.5099065938 0.2006969687 0.0454390625
0.5392522500 0.2034843750 0.0480134063
0.5705402813 0.2062306250 0.0513213437
0.6031095937 0.2094215000 0.0557168125
0.6347321562 0.2127810000 0.0605314687
0.6647320313 0.2166290000 0.0655334062
0.6931681875 0.2206175312 0.0708731875
0.7209710625 0.2248507500 0.0759135937
0.7494136875 0.2288510000 0.0813000937
0.7800617187 0.2325004687 0.0858848125
0.8148992188 0.2353659062 0.0901644687
0.8553978438 0.2373204063 0.0937412187
0.9007519063 0.2382594063 0.0962886250
0.9483316563 0.2386855313 0.0985538750
0.0485509375 0.1882800625 0.0589155000
0.0589291563 0.1943550312 0.0624138125
0.0709003750 0.1996292500 0.0662916250
0.0872640312 0.2037885625 0.0703816250
0.1034985000 0.2073303125 0.0775185625
0.1221375625 0.2108921563 0.0864464688
0.1458195625 0.2152950000 0.0984943125
0.1713360625 0.2216517812 0.1089024063
0.1973619375 0.2281970625 0.1134805625
0.2360777500 0.2309295000 0.1098485625
0.2737618750 0.2304770625 0.1033856250
0.3047880625 0.2291017500 0.0958623750
0.3320999375 0.2279792500 0.0884544375
0.3573151250 0.2274128438 0.0815985000
0.3817672500 0.2272683750 0.0754497500
0.4065727500 0.2271807188 0.0696771250
0.4316679375 0.2272111875 0.0648196875
0.4572553437 0.2276272813 0.0609148437
0.4831647500 0.2286844375 0.0582221875
0.5095707188 0.2301307500 0.0566521563
0.5375006875 0.2319362500 0.0566885625
0.5672037500 0.2334043438 0.0573040312
0.5982495625 0.2349650000 0.0592867500
0.6288813125 0.2369174063 0.0621615000
0.6581928125 0.2395626250 0.0658459375
0.6860650000 0.2426091250 0.0699324375
0.7135429375 0.2458261250 0.0745346875
0.7417224375 0.2492674687 0.0790694688
0.7722211875 0.2523701250 0.0834552500
0.8068152812 0.2549482187 0.0875856250
0.8468034375 0.2567622500 0.0909701875
0.8918863750 0.2575730937 0.0938447188
0.9394065000 0.2578626250 0.0958808750
0.0527465938 0.2184985937 0.0650346250
0.0637119688 0.2242250313 0.0691648125
0.0769754687 0.2299329063 0.0732922500
0.0942107500 0.2342062500 0.0778742812
0.1108900000 0.2381394063 0.0847363437
0.1287100000 0.2416250000 0.0933818125
0.1515099062 0.2463473438 0.1051247812
0.1805387188 0.2521910625 0.1213089687
0.2079712500 0.2600185938 0.1299067500
0.2358054375 0.2659703125 0.1346514688
0.2758520313 0.2675698750 0.1297757187
0.3120502813 0.2668245938 0.1239972500
0.3425475000 0.2650188750 0.1165085313
0.3683531875 0.2631987813 0.1093365000
0.3921125313 0.2620486875 0.1023768750
0.4147616875 0.2614341562 0.0962012812
0.4376373125 0.2610866875 0.0902540625
0.4610633438 0.2608748125 0.0851194688
0.4851765625 0.2610149063 0.0803332188
0.5100536250 0.2614055625 0.0765689687
0.5366242812 0.2618990313 0.0733499063
0.5653145625 0.2623392187 0.0705111562
0.5951086875 0.2628743438 0.0689923437
0.6245340625 0.2636346875 0.0695374375
0.6528175312 0.2650814688 0.0710869375
0.6799423437 0.2669666875 0.0734235938
0.7068782188 0.2692837500 0.0765732187
0.7345761562 0.2717163750 0.0798599687
0.7645370313 0.2740183750 0.0834125625
0.7984707187 0.2758498437 0.0866860313
0.8377529062 0.2771011562 0.0893956562
0.8821759062 0.2775420000 0.0916373750
0.9291402500 0.2775066562 0.0932980312
0.0590975000 0.2488528750 0.0720818750
0.0716530312 0.2550109687 0.0773415000
0.0855365000 0.2602922500 0.0821738750
0.1023873750 0.2645420312 0.0866640625
0.1193475000 0.2683652500 0.0933360000
0.1364358125 0.2717934062 0.1013419375
0.1575713750 0.2761085625 0.1121068750
0.1856718438 0.2819510937 0.1279001250
0.2173858750 0.2891641250 0.1441408750
0.2449024063 0.2969591875 0.1511333437
0.2755501250 0.3022514375 0.1547439375
0.3136315000 0.3029354687 0.1504310312
0.3479373750 0.3013037500 0.1444645000
0.3769816563 0.2990236562 0.1371334063
0.4020419375 0.2969841250 0.1299861875
0.4247516562 0.2955190000 0.1235503750
0.4464065000 0.2944888750 0.1171516250
0.4680512813 0.2938838125 0.1112073750
0.4901313125 0.2935381250 0.1058375625
0.5132437812 0.2933376562 0.1008679063
0.5382751250 0.2930640000 0.0958300000
0.5652517812 0.2925428750 0.0908592187
0.5936674375 0.2920279375 0.0866465625
0.6220717813 0.2920000000 0.0837367187
0.6495038750 0.2925735000 0.0823485000
0.6760250000 0.2936516875 0.0827133750
0.7023785625 0.2950153750 0.0838831250
0.7295006875 0.2966424687 0.0858488125
0.7588226250 0.2981205000 0.0876727500
0.7920722188 0.2991549063 0.0895637500
0.8304569375 0.2996385625 0.0911290625
0.8739454062 0.2993315937 0.0921133750
0.9203108750 0.2986196250 0.0925900000
0.0691716875 0.2792966875 0.0816970000
0.0820198438 0.2846935000 0.0868994063
0.0959442500 0.2898160937 0.0920260313
0.1124031875 0.2939345313 0.0969792187
0.1287413438 0.2972184688 0.1025976875
0.1449421875 0.3002108125 0.1103856250
0.1642010000 0.3038570312 0.1202021563
0.1904590313 0.3091317500 0.1347113125
0.2230700000 0.3162698438 0.1531993750
0.2542389375 0.3247981250 0.1656795000
0.2816999062 0.3319245000 0.1720078750
0.3138409375 0.3355591250 0.1730090938
0.3500521875 0.3354195937 0.1689963125
0.3823164688 0.3334767187 0.1634807187
0.4100543438 0.3311537187 0.1566175000
0.4344184375 0.3291356562 0.1496363750
0.4565875312 0.3275310625 0.1434488437
0.4776597188 0.3263494687 0.1376313125
0.4984491562 0.3256623125 0.1319134063
0.5199951250 0.3250947188 0.1262100313
0.5432049062 0.3243722813 0.1204329688
0.5683746250 0.3233165625 0.1144422812
0.5950722500 0.3222671875 0.1085369375
0.6220797188 0.3215623125 0.1037131562
0.6485981563 0.3215172813 0.1003787812
0.6745544375 0.3221079688 0.0983291250
0.7004587187 0.3230467812 0.0973320000
0.7271850312 0.3239826875 0.0973441875
0.7561711250 0.3249204375 0.0976342812
0.7888167187 0.3252515000 0.0977503125
0.8264646875 0.3248646562 0.0972684375
0.8690472188 0.3236412813 0.0965829375
0.9145525937 0.3220345937 0.0954809688
0.0816234375 0.3084660625 0.0926870000
0.0944037813 0.3134120938 0.0977529688
0.1076187500 0.3181626875 0.1027673125
0.1228897188 0.3215658437 0.1074380312
0.1385815625 0.3241468750 0.1124851250
0.1535174687 0.3266029375 0.1194325938
0.1716073125 0.3297989375 0.1284178750
0.1959927188 0.3345696250 0.1416141250
0.2278645625 0.3417258750 0.1598916875
0.2618976562 0.3498971250 0.1776894375
0.2899532500 0.3581966250 0.1859090000
0.3172622500 0.3643999375 0.1912838125
0.3511318125 0.3669196875 0.1895018125
0.3855175312 0.3661810000 0.1866282500
0.4154266875 0.3641005000 0.1813028125
0.4421400937 0.3619333437 0.1751784375
0.4660396250 0.3601194375 0.1686872500
0.4878057188 0.3585490000 0.1627458750
0.5084794375 0.3574483125 0.1572212500
0.5292987188 0.3565519375 0.1516079687
0.5512471875 0.3556717500 0.1456711250
0.5747646562 0.3544254687 0.1392446875
0.5997900625 0.3532296875 0.1328144375
0.6254050937 0.3523893438 0.1270474375
0.6509186875 0.3521553125 0.1226112500
0.6761375000 0.3523985625 0.1191632500
0.7014728750 0.3530454375 0.1165766875
0.7278288438 0.3536744688 0.1146702812
0.7563416250 0.3539701875 0.1127327500
0.7886164062 0.3536589688 0.1107288125
0.8256561875 0.3523581875 0.1081455000
0.8675720312 0.3502980625 0.1051599687
0.9122325000 0.3477453125 0.1019193750
0.0954552500 0.3362937812 0.1037360937
0.1072735000 0.3407948438 0.1090383125
0.1193175312 0.3449022812 0.1137723438
0.1334565000 0.3476497813 0.1178492500
0.1480553750 0.3496178125 0.1220595938
0.1623464688 0.3518019688 0.1283074063
0.1791604375 0.3544561562 0.1366490312
0.2019596250 0.3586098750 0.1486619375
0.2318544687 0.3651683438 0.1656516250
0.2666386562 0.3737002500 0.1853504687
0.2978302812 0.3826874375 0.1984045000
0.3249102500 0.3902755625 0.2055265313
0.3525206563 0.3954618438 0.2102865938
0.3872025625 0.3967923125 0.2068288438
0.4190122188 0.3957058125 0.2037651250
0.4471644688 0.3939736250 0.1988686250
0.4730571562 0.3923564687 0.1933533125
0.4967009375 0.3908531563 0.1876398437
0.5186652812 0.3896145625 0.1822768750
0.5398745938 0.3886236250 0.1767382188
0.5614668125 0.3876868438 0.1711201562
0.5840688438 0.3865815312 0.1648603750
0.6077265625 0.3855058125 0.1586304688
0.6319705000 0.3847068750 0.1527140625
0.6563089375 0.3843943438 0.1476058750
0.6805660312 0.3844773437 0.1432529062
0.7051700312 0.3848812188 0.1396314063
0.7308329062 0.3851186563 0.1362458750
0.7589040313 0.3849683437 0.1327995625
0.7906037812 0.3839629063 0.1285495313
0.8271215000 0.3818349375 0.1236881250
0.8683334062 0.3788414687 0.1183171562
0.9122970938 0.3752424688 0.1123700000
0.1089415000 0.3632195000 0.1153240000
0.1195223125 0.3672851875 0.1198139375
0.1301979375 0.3706265625 0.1240120000
0.1432904063 0.3730912813 0.1276319063
0.1571575000 0.3748430000 0.1315083750
0.1706085625 0.3764503125 0.1370523750
0.1861899375 0.3785950625 0.1445358750
0.2071786250 0.3821475625 0.1554379687
0.2352810000 0.3881385000 0.1708887500
0.2687561563 0.3964205000 0.1901006250
0.3025663125 0.4055331250 0.2076230625
0.3316129063 0.4144051563 0.2174944375
0.3584123750 0.4211027500 0.2240307500
0.3872586250 0.4249926250 0.2269581562
0.4199948125 0.4260308125 0.2239906250
0.4500371562 0.4257755937 0.2210895312
0.4774760000 0.4250170000 0.2170730000
0.5032128750 0.4240143438 0.2124341563
0.5271433750 0.4230503125 0.2075828750
0.5498847813 0.4220438125 0.2024313437
0.5722297500 0.4211377500 0.1970467500
0.5947955938 0.4201605000 0.1911651250
0.6177903750 0.4192151875 0.1851900625
0.6410155625 0.4184272187 0.1793399063
0.6641642500 0.4180650000 0.1741085000
0.6873674687 0.4180425000 0.1694447188
0.7109070625 0.4182320000 0.1651763750
0.7356397500 0.4181836875 0.1608176875
0.7628092500 0.4174346250 0.1560707500
0.7938075313 0.4157131250 0.1501172813
0.8295288125 0.4128433750 0.1431882500
0.8698802187 0.4088513750 0.1352951562
0.9129410000 0.4043315000 0.1272675000
0.1213373750 0.3899632813 0.1261983125
0.1309573750 0.3936883750 0.1303161875
0.1410456562 0.3966725937 0.1341936250
0.1526095625 0.3989017812 0.1375296875
0.1654493125 0.4001816563 0.1408805000
0.1782922188 0.4015033750 0.1455744688
0.1926225625 0.4029703125 0.1519566875
0.2115263750 0.4057910000 0.1615616875
0.2368780625 0.4108317188 0.1751879375
0.2685997187 0.4186455625 0.1931917813
0.3027747188 0.4276874375 0.2121858750
0.3345312812 0.4370661250 0.2265587500
0.3629436563 0.4455113125 0.2356104687
0.3898615625 0.4517882500 0.2418259688
0.4190002812 0.4558193750 0.2441356875
0.4502369063 0.4575949688 0.2420998750
0.4793025312 0.4581134063 0.2397455000
0.5067930937 0.4579933438 0.2366413438
0.5328805313 0.4575518125 0.2327712500
0.5577352187 0.4568290000 0.2284227500
0.5816773750 0.4559996250 0.2234843125
0.6052319375 0.4550240937 0.2178650937
0.6284369063 0.4540052813 0.2120955000
0.6512822500 0.4532081875 0.2063176875
0.6737181562 0.4527574062 0.2010539688
0.6958484063 0.4526282187 0.1961020313
0.7182357812 0.4525488438 0.1916399688
0.7418366562 0.4521808125 0.1868820312
0.7678544375 0.4510352500 0.1812635625
0.7976770937 0.4486438125 0.1742015625
0.8322198438 0.4450139688 0.1657506250
0.8713725313 0.4401300312 0.1560562500
0.9132120625 0.4346830938 0.1458969688
0.1335002500 0.4171631250 0.1367939375
0.1424388437 0.4202817813 0.1407496563
0.1516568750 0.4233107500 0.1443376875
0.1620780000 0.4253698750 0.1475848125
0.1737503750 0.4264387500 0.1504788125
0.1857795313 0.4271702187 0.1540120313
0.1989242500 0.4281999375 0.1595828750
0.2155549688 0.4301528437 0.1676410000
0.2383393125 0.4343601250 0.1795103125
0.2675795625 0.4412605000 0.1958711250
0.3009868125 0.4503685625 0.2147778125
0.3345976562 0.4600402500 0.2323277813
0.3652526250 0.4694857500 0.2450501875
0.3933791875 0.4778955312 0.2539540625
0.4203793125 0.4846382500 0.2603026875
0.4486508125 0.4893534375 0.2633367187
0.4791186250 0.4915869375 0.2618048750
