bundles/resolve-cinematic-luts/Gamut/Marble/Marble 04.cube
TITLE "Marble 04 by Gamut"
# Version 1.0 - 02/23/2023 - Designed for Rec.709 Color Space. Copyright 2023 Gamut, LLC
LUT_3D_SIZE 9
0.000000 0.000000 0.000000
0.023559 0.004534 0.003154
0.104139 0.008477 0.004140
0.209916 0.008576 0.004436
0.307704 0.025629 0.009069
0.406829 0.040795 0.010547
0.516185 0.056975 0.012223
0.620205 0.072403 0.017349
0.751956 0.111148 0.028389
0.017940 0.063575 0.016166
0.077208 0.072811 0.036965
0.164478 0.078025 0.019320
0.278596 0.072897 0.018038
0.394400 0.084075 0.019418
0.511753 0.100784 0.025431
0.630091 0.127151 0.037556
0.736460 0.157957 0.052647
0.882081 0.187921 0.063864
0.035683 0.156839 0.044913
0.096197 0.168158 0.067631
0.212091 0.176916 0.072604
0.341145 0.170684 0.023165
0.459830 0.174137 0.014983
0.567685 0.195178 0.028586
0.675165 0.221875 0.055077
0.769939 0.246955 0.080235
0.915116 0.258664 0.094364
0.040885 0.276169 0.059467
0.104680 0.293723 0.091051
0.220802 0.315592 0.149747
0.376522 0.322887 0.149425
0.481464 0.312662 0.104061
0.569415 0.311081 0.068755
0.667181 0.313441 0.050954
0.758767 0.322142 0.058805
0.891040 0.326685 0.075598
0.088426 0.396563 0.113929
0.136066 0.405856 0.135678
0.223122 0.418199 0.179911
0.376865 0.443841 0.237310
0.494613 0.441906 0.229963
0.586717 0.434499 0.201438
0.671457 0.429659 0.165746
0.758581 0.427702 0.137136
0.891028 0.414427 0.100789
0.153713 0.495642 0.166845
0.197581 0.501438 0.180883
0.257461 0.508798 0.207415
0.379338 0.532701 0.271707
0.489270 0.559006 0.312421
0.597024 0.560413 0.311461
0.693644 0.552517 0.292216
0.777713 0.543263 0.258511
0.899423 0.518158 0.201138
0.230376 0.587931 0.217828
0.260295 0.595219 0.230030
0.303389 0.600858 0.248823
0.397787 0.617338 0.300899
0.509124 0.645476 0.356083
0.602543 0.663136 0.377491
0.708538 0.660384 0.375782
0.821778 0.641227 0.346526
0.955246 0.605215 0.284434
0.280225 0.677854 0.264033
0.303157 0.683388 0.273034
0.337235 0.685920 0.285030
0.413041 0.694783 0.322588
0.522011 0.719462 0.379781
0.612868 0.744430 0.414546
0.708243 0.755930 0.424453
0.852431 0.737610 0.407603
0.996885 0.695979 0.355196
0.281193 0.772253 0.300499
0.302884 0.777051 0.307342
0.339678 0.776939 0.311869
0.409597 0.778629 0.332716
0.499472 0.796799 0.375895
0.593908 0.825140 0.424104
0.681227 0.856635 0.447140
0.821528 0.868462 0.448918
0.999034 0.843889 0.434240
0.004731 0.005421 0.017644
0.036768 0.006210 0.034402
0.112271 0.007886 0.040105
0.219669 0.009660 0.037556
0.317182 0.026417 0.044141
0.418939 0.039724 0.048082
0.529275 0.054934 0.050401
0.634073 0.073432 0.054994
0.770132 0.110836 0.063789
0.015672 0.071553 0.064794
0.079567 0.080864 0.077067
0.168178 0.087282 0.073396
0.294558 0.079137 0.068943
0.416005 0.086891 0.071055
0.533680 0.101652 0.079785
0.651937 0.128756 0.091689
0.759185 0.158898 0.107106
0.915377 0.183788 0.112102
0.023263 0.170164 0.079547
0.086230 0.184361 0.091057
0.202906 0.189208 0.125600
0.340670 0.185500 0.096342
0.465625 0.196092 0.094314
0.578421 0.218424 0.113284
0.687723 0.239874 0.132278
0.786461 0.258637 0.147283
0.940849 0.263651 0.149368
0.036767 0.292245 0.097768
0.101561 0.310830 0.121935
0.205292 0.324976 0.165912
0.368094 0.334063 0.196368
0.472309 0.321936 0.162128
0.565076 0.317317 0.132065
0.664615 0.322015 0.125563
0.757559 0.334574 0.139203
0.894645 0.340912 0.149846
0.086104 0.408606 0.145566
0.127208 0.417335 0.163248
0.207507 0.424525 0.191161
0.369965 0.447562 0.255121
0.487683 0.449859 0.263155
0.577757 0.440488 0.238943
0.665612 0.433118 0.206252
0.754587 0.431116 0.183904
0.884961 0.420700 0.159467
0.153345 0.503529 0.189248
0.193752 0.508672 0.201406
0.249147 0.513578 0.218365
0.363769 0.532491 0.276009
0.483795 0.564022 0.328143
0.590274 0.568323 0.335248
0.685721 0.558266 0.319312
0.768192 0.547614 0.287340
0.888652 0.521545 0.233080
0.227024 0.595851 0.236564
0.256037 0.601900 0.247018
0.296320 0.604848 0.258971
0.381442 0.615054 0.300690
0.497396 0.644690 0.361128
0.596795 0.668014 0.392725
0.701722 0.666774 0.395521
0.807975 0.648642 0.372184
0.937681 0.611513 0.311809
0.275112 0.684723 0.279786
0.297216 0.689159 0.287585
0.330196 0.689685 0.294658
0.398335 0.692860 0.322693
0.505180 0.715482 0.378057
0.604887 0.745176 0.422175
0.701529 0.761515 0.438537
0.838759 0.746695 0.427496
0.991622 0.702724 0.379154
0.273745 0.778960 0.312443
0.296217 0.782659 0.318768
0.332359 0.781477 0.321009
0.397657 0.778751 0.335254
0.482873 0.791870 0.372354
0.578982 0.821845 0.422995
0.673400 0.860241 0.453800
0.807498 0.882259 0.460817
0.998187 0.863989 0.452168
0.013997 0.019714 0.072030
0.041247 0.018334 0.087155
0.116697 0.008871 0.106867
0.225491 0.009364 0.110682
0.325325 0.026023 0.110008
0.429834 0.037260 0.112108
0.540520 0.052179 0.116630
0.646671 0.074896 0.123508
0.788399 0.109802 0.126622
0.018433 0.085867 0.122921
0.075161 0.093324 0.145698
0.175631 0.084428 0.159251
0.301911 0.076329 0.143793
0.429296 0.074486 0.137533
0.547016 0.088685 0.147803
0.664728 0.119546 0.157900
0.772851 0.149517 0.171582
0.934132 0.174125 0.173162
0.025826 0.177467 0.163942
0.077469 0.193121 0.180383
0.201508 0.200464 0.192823
0.357528 0.203842 0.176626
0.490148 0.216233 0.187851
0.601860 0.231985 0.199902
0.708421 0.245838 0.208879
0.810078 0.260049 0.217217
0.969398 0.259306 0.212019
0.046932 0.313100 0.168644
0.080462 0.331792 0.183765
0.186796 0.343018 0.197472
0.359243 0.343594 0.246592
0.470909 0.332286 0.222608
0.567602 0.331356 0.209084
0.670769 0.340181 0.212460
0.771653 0.353643 0.224655
0.922686 0.355937 0.228198
0.074910 0.428039 0.195017
0.111175 0.434770 0.208648
0.195967 0.438703 0.222307
0.358567 0.448983 0.279424
0.482163 0.456166 0.304599
0.570248 0.445182 0.282751
0.659828 0.436199 0.253914
0.750429 0.437088 0.240412
0.883452 0.433012 0.228993
0.152594 0.516650 0.222034
0.188478 0.520489 0.232605
0.240842 0.523342 0.243052
0.345885 0.533151 0.286428
0.474976 0.566029 0.349388
0.583309 0.576661 0.368163
0.676245 0.561152 0.351469
0.757311 0.548194 0.320222
0.876958 0.523412 0.270770
0.221178 0.607849 0.264206
0.248170 0.611978 0.273303
0.286590 0.611478 0.279131
0.363809 0.613059 0.306061
0.478427 0.639119 0.366910
0.588562 0.670689 0.415118
0.694179 0.671618 0.423513
0.792281 0.653131 0.403170
0.914949 0.614050 0.343790
0.265678 0.694992 0.302661
0.286488 0.697701 0.309804
0.319736 0.695189 0.311977
0.382702 0.691045 0.327763
0.481911 0.706813 0.376276
0.591277 0.740713 0.432155
0.693578 0.764684 0.461102
0.823344 0.753981 0.455652
0.980172 0.706610 0.410567
0.265128 0.787793 0.329074
0.286699 0.790277 0.335027
0.322195 0.786929 0.335135
0.384539 0.778947 0.341936
0.464875 0.784190 0.370879
0.558717 0.812031 0.421217
0.662825 0.858793 0.464792
0.792767 0.895335 0.482234
0.997568 0.884472 0.478191
0.040294 0.054753 0.147686
0.060368 0.056724 0.166740
0.115685 0.053399 0.184130
0.227199 0.011040 0.208602
0.329573 0.015870 0.222793
0.431978 0.038936 0.233112
0.547182 0.052593 0.234218
0.657045 0.074403 0.233219
0.801982 0.105809 0.227775
0.046705 0.116211 0.212654
0.092680 0.124753 0.234265
0.164773 0.117327 0.256429
0.300035 0.078088 0.274783
0.425037 0.081611 0.287014
0.547630 0.099134 0.292694
0.670470 0.113409 0.287126
0.780594 0.135989 0.284969
0.943412 0.157442 0.270438
0.040897 0.198020 0.261146
0.085016 0.214001 0.290455
0.187700 0.217488 0.321560
0.361856 0.199642 0.332017
0.495657 0.210906 0.328636
0.610211 0.227160 0.320936
0.719205 0.238657 0.314328
0.824268 0.249474 0.312592
0.984497 0.242579 0.298766
0.054606 0.326752 0.310327
0.087134 0.345972 0.332592
0.183694 0.356672 0.344165
0.357229 0.350151 0.343232
0.483384 0.353822 0.324646
0.592900 0.352941 0.319325
0.698366 0.361195 0.320082
0.803482 0.370616 0.326584
0.966878 0.363774 0.322398
0.071156 0.450244 0.321240
0.110962 0.459757 0.333743
0.186787 0.463056 0.334320
0.349602 0.456748 0.340623
0.473918 0.458846 0.383032
0.571481 0.453154 0.352056
0.668840 0.450055 0.333219
0.764951 0.456384 0.332042
0.916303 0.457045 0.332176
0.147622 0.542085 0.308921
0.174934 0.547479 0.318083
0.221895 0.548410 0.320419
0.327488 0.547246 0.333183
0.458935 0.563485 0.384884
0.575876 0.581479 0.427312
0.667344 0.560927 0.399448
0.746804 0.544858 0.367268
0.866207 0.526177 0.333437
0.205310 0.631815 0.330337
0.229022 0.634865 0.337939
0.266593 0.630573 0.336414
0.343768 0.622822 0.340385
0.452224 0.634468 0.384288
0.576448 0.668402 0.452150
0.688894 0.674400 0.472044
0.773655 0.651698 0.444891
0.885102 0.609583 0.386014
0.238594 0.716146 0.354738
0.257717 0.717196 0.361195
0.293349 0.710026 0.357333
0.360140 0.696190 0.354501
0.451184 0.698199 0.383989
0.566627 0.727933 0.446389
0.683673 0.763748 0.501192
0.806287 0.757748 0.499758
0.955957 0.705685 0.451119
0.251774 0.804484 0.365076
0.270111 0.805640 0.369368
0.301797 0.798576 0.367011
0.363024 0.783044 0.363166
0.442230 0.776672 0.378207
0.529963 0.793764 0.421885
0.645252 0.845850 0.482404
0.780533 0.902647 0.520578
0.997608 0.905908 0.528343
0.061345 0.080042 0.214305
0.084856 0.087771 0.231544
0.129790 0.079675 0.260354
0.226730 0.060270 0.275422
0.333210 0.013800 0.311422
0.438104 0.029375 0.333902
0.550558 0.059112 0.347902
0.662516 0.080059 0.358063
0.812895 0.105107 0.351129
0.074561 0.152272 0.289513
0.116667 0.163060 0.318029
0.175316 0.159491 0.345015
0.294814 0.144789 0.360531
0.427533 0.097867 0.398403
0.547159 0.105497 0.420502
0.664872 0.132193 0.427442
0.776349 0.148639 0.426668
0.942760 0.158658 0.398269
0.074405 0.231835 0.353905
0.122864 0.248704 0.392785
0.205438 0.255064 0.421627
0.351199 0.239082 0.438364
0.489959 0.220593 0.453424
0.601913 0.225863 0.459451
0.710264 0.242791 0.453871
0.818801 0.253325 0.443291
0.984398 0.240319 0.413214
0.064853 0.345575 0.413612
0.103440 0.363655 0.436564
0.177492 0.373236 0.452181
0.339802 0.360741 0.460116
0.484294 0.350456 0.452724
0.599425 0.351199 0.448267
0.711225 0.361575 0.437143
0.821905 0.369907 0.429139
0.988782 0.357785 0.408644
0.089281 0.458900 0.441996
0.129332 0.469434 0.457304
0.196495 0.475155 0.462744
0.349188 0.467674 0.461867
0.477220 0.466371 0.457865
0.581232 0.476991 0.450522
0.694465 0.473332 0.437252
0.804934 0.479863 0.431900
0.970586 0.474727 0.423365
0.137060 0.560394 0.427995
0.164355 0.570377 0.442660
0.214316 0.575104 0.446512
0.325412 0.571373 0.441777
0.460874 0.569646 0.451262
0.575126 0.578483 0.506093
0.664884 0.566777 0.465213
0.758415 0.555617 0.436884
0.893506 0.541963 0.414866
0.194136 0.655744 0.436743
0.217032 0.662531 0.447392
0.254790 0.661106 0.443839
0.331810 0.650349 0.429817
0.441213 0.647170 0.440944
0.559866 0.664807 0.488284
0.685097 0.675775 0.535627
0.759804 0.650502 0.497109
0.867952 0.605396 0.432285
0.208323 0.743080 0.443757
0.224973 0.746189 0.451152
0.260147 0.738773 0.443580
0.331750 0.718963 0.423423
0.428653 0.709533 0.425178
0.542237 0.722578 0.470508
0.675641 0.760757 0.547197
0.792484 0.761168 0.555923
0.926663 0.703704 0.495180
0.230105 0.831530 0.424194
0.243503 0.833819 0.426475
0.272274 0.823444 0.422555
0.332418 0.799464 0.409591
0.415719 0.782126 0.405776
0.500097 0.783339 0.431878
0.618025 0.825954 0.497636
0.769565 0.903879 0.563179
0.997474 0.926576 0.590388
0.081118 0.110461 0.275038
0.108638 0.122892 0.297677
0.147408 0.121172 0.331572
0.232886 0.113767 0.352170
0.332418 0.091171 0.379976
0.443348 0.043991 0.423412
0.558318 0.060371 0.447568
0.668761 0.087187 0.468126
0.818831 0.113223 0.473512
0.108358 0.190179 0.366886
0.143410 0.203663 0.399489
0.199349 0.208788 0.426180
0.298128 0.191414 0.456433
0.422740 0.179799 0.478399
0.546597 0.141457 0.518462
0.666022 0.138201 0.537951
0.771591 0.162588 0.545529
0.933461 0.174597 0.527761
0.119256 0.272312 0.448084
0.166577 0.289693 0.487139
0.234143 0.298335 0.513318
0.347656 0.277440 0.540358
0.478419 0.270550 0.541529
0.595175 0.248316 0.559486
0.704174 0.243413 0.568016
0.808186 0.256235 0.567375
0.972710 0.252992 0.544926
0.098612 0.376482 0.497571
0.137049 0.391917 0.524531
0.204821 0.397220 0.542122
0.335533 0.382682 0.555038
0.471800 0.368239 0.555947
0.591515 0.357235 0.557588
0.704169 0.354837 0.560893
0.814235 0.363829 0.556636
0.984757 0.358087 0.530015
0.106330 0.471230 0.533745
0.137744 0.482359 0.550032
0.188371 0.489180 0.559653
0.307690 0.485029 0.563791
0.461654 0.477141 0.566930
0.584649 0.475261 0.561048
0.705354 0.473191 0.561321
0.819928 0.480642 0.544636
0.993634 0.472001 0.514314
0.121261 0.569213 0.539064
0.154326 0.581029 0.556864
0.209707 0.589098 0.565537
0.321162 0.588586 0.564609
0.467442 0.586228 0.566714
0.577910 0.584617 0.567242
0.674302 0.591476 0.556287
0.785105 0.583770 0.537227
0.958650 0.568550 0.509357
0.187907 0.669543 0.548049
0.213192 0.679498 0.564024
0.255106 0.683809 0.567871
0.336315 0.678227 0.557809
0.461960 0.670384 0.558083
0.578801 0.663797 0.572921
0.684879 0.671373 0.613663
0.754024 0.657858 0.565502
0.898866 0.620942 0.503019
0.195032 0.762899 0.549668
0.212928 0.770100 0.561776
0.249783 0.768624 0.559473
0.322877 0.753083 0.538376
0.429394 0.737667 0.524375
0.543948 0.732687 0.538267
0.665875 0.755179 0.589666
0.786268 0.763712 0.631300
0.911291 0.708242 0.549513
0.209189 0.860843 0.505962
0.216051 0.867635 0.508808
0.243068 0.859672 0.504879
0.303466 0.831902 0.487373
0.385345 0.806055 0.467830
0.474347 0.796826 0.469776
0.588737 0.818352 0.517903
0.752135 0.898818 0.601611
0.996325 0.949084 0.662361
0.098030 0.141508 0.329642
0.128900 0.156109 0.356474
0.171682 0.164246 0.388968
0.242658 0.150686 0.424458
0.338731 0.149185 0.445455
0.443838 0.124616 0.482405
0.564268 0.081092 0.525980
0.679352 0.091369 0.556509
0.825531 0.125204 0.574215
0.132293 0.225061 0.435737
0.175785 0.240963 0.468847
0.221634 0.249962 0.497015
0.308286 0.231109 0.536724
0.424639 0.232165 0.556480
0.541914 0.215715 0.586468
0.663792 0.175658 0.620940
0.772792 0.171301 0.637275
0.928273 0.180566 0.630483
0.155076 0.310642 0.525949
0.206761 0.330428 0.567257
0.263162 0.339151 0.592653
0.356740 0.321585 0.617053
0.471787 0.311761 0.625429
0.586269 0.297231 0.632141
0.698734 0.268525 0.651138
0.804395 0.259841 0.660266
0.964538 0.255656 0.649888
0.136062 0.407027 0.576874
0.180967 0.419393 0.603692
0.244506 0.423210 0.620478
0.347488 0.410097 0.631276
0.460375 0.391255 0.645122
0.582930 0.382941 0.639812
0.698160 0.366002 0.649891
0.807038 0.361660 0.657765
0.975412 0.355610 0.645473
0.124163 0.491735 0.601785
0.150987 0.502075 0.621701
0.197575 0.508361 0.635238
0.309278 0.502496 0.643340
0.444100 0.490524 0.657613
0.579250 0.483863 0.652770
0.696970 0.476025 0.651434
0.812647 0.473187 0.653138
0.991215 0.463561 0.630569
0.123562 0.579169 0.625358
0.160343 0.591546 0.643845
0.210758 0.600805 0.654903
0.305947 0.601428 0.657940
0.432127 0.598373 0.659420
0.560211 0.597832 0.652629
0.681750 0.590770 0.643539
0.788843 0.593328 0.642737
0.983664 0.576392 0.609946
0.191230 0.676886 0.644439
0.216049 0.687768 0.662245
0.255910 0.694475 0.670288
0.335899 0.692759 0.667120
0.458865 0.688142 0.663690
0.582768 0.683503 0.664517
0.686547 0.679542 0.660631
0.764681 0.686644 0.652085
0.954570 0.658973 0.604233
0.195886 0.774231 0.644356
0.215085 0.783705 0.659440
0.254011 0.786944 0.662902
0.332771 0.779435 0.652511
0.441952 0.768156 0.640227
0.570377 0.754845 0.646225
0.685736 0.746563 0.664232
0.784689 0.764623 0.697203
0.934028 0.730953 0.624331
0.187282 0.881530 0.590680
0.184331 0.893589 0.595850
0.209914 0.891886 0.595019
0.278679 0.871141 0.583288
0.362622 0.846306 0.562800
0.463196 0.829331 0.555318
0.588803 0.833943 0.578634
0.740842 0.896576 0.647532
0.997426 0.967606 0.754137
0.123963 0.173705 0.385167
0.148187 0.190664 0.417602
0.193625 0.203385 0.448618
0.254609 0.186622 0.489775
0.346705 0.191282 0.515493
0.448682 0.189599 0.544979
0.564573 0.159658 0.590904
0.685169 0.125109 0.637950
0.835491 0.128545 0.666055
0.167126 0.262292 0.501925
0.203001 0.279605 0.538562
0.251984 0.291881 0.569183
0.326465 0.279869 0.608900
0.429569 0.276008 0.639493
0.540724 0.274859 0.658493
0.656404 0.247306 0.687298
0.768962 0.212437 0.714417
0.929546 0.180837 0.719596
0.202489 0.351930 0.604978
0.244209 0.371937 0.647637
0.295381 0.380820 0.671194
0.373770 0.367728 0.689367
0.471383 0.349785 0.706853
0.579904 0.342860 0.707454
0.690670 0.318819 0.718959
0.798762 0.288761 0.737393
0.962551 0.255805 0.738721
0.190062 0.439148 0.656643
0.231055 0.450038 0.682371
0.281559 0.453359 0.697941
0.365299 0.441726 0.705296
0.462630 0.422627 0.719601
0.574205 0.412686 0.720303
0.690840 0.398060 0.722026
0.801798 0.378543 0.737689
0.971478 0.352415 0.739456
0.146032 0.515734 0.671476
0.177969 0.525071 0.693589
0.228964 0.530235 0.708600
0.331607 0.524005 0.717636
0.446612 0.512335 0.731222
0.563266 0.498477 0.743886
0.689590 0.492719 0.732005
0.805662 0.479592 0.739278
0.984008 0.454608 0.736953
0.145187 0.595923 0.692892
0.179087 0.608104 0.713516
0.222077 0.617556 0.727856
0.303254 0.617885 0.734494
0.416223 0.612504 0.740904
0.542784 0.606055 0.743969
0.679959 0.598808 0.721369
0.783295 0.590988 0.726189
0.981103 0.562291 0.720763
0.191110 0.685564 0.727523
0.211664 0.696444 0.747502
0.245719 0.703857 0.758262
0.317088 0.703472 0.758921
0.423546 0.699986 0.756554
0.545068 0.695642 0.751893
0.676243 0.688957 0.735878
0.778443 0.684337 0.726199
0.972930 0.667817 0.710448
0.200584 0.781134 0.735533
0.217084 0.791382 0.755336
0.252359 0.796692 0.762881
0.327360 0.793003 0.758695
0.429126 0.787174 0.750430
0.558955 0.780522 0.744987
0.690569 0.772388 0.743659
0.787725 0.775189 0.742843
0.966562 0.767100 0.723465
0.160151 0.896991 0.674938
0.146498 0.911531 0.685382
0.162350 0.914697 0.687940
0.227180 0.904312 0.681524
0.319489 0.892154 0.670014
0.450188 0.879634 0.665846
0.612293 0.872493 0.684380
0.753240 0.899290 0.722338
1.000000 0.983291 0.858741
0.154650 0.218913 0.464037
0.186098 0.239004 0.498901
0.221315 0.254256 0.531731
0.282178 0.251887 0.570121
0.357055 0.245134 0.615879
0.453063 0.255784 0.647563
0.563211 0.257854 0.680270
0.680594 0.236877 0.728268
0.836018 0.164623 0.780492
0.215094 0.315737 0.596393
0.248006 0.335877 0.636924
0.290689 0.350769 0.670129
0.356942 0.350959 0.703456
0.437283 0.334508 0.746734
0.538557 0.336993 0.766773
0.647941 0.331429 0.778462
0.755549 0.302013 0.807750
0.917909 0.220641 0.840659
0.260918 0.409075 0.713110
0.294923 0.428205 0.755397
0.334438 0.436179 0.778732
0.399071 0.427527 0.791332
0.475931 0.402835 0.814800
0.571793 0.392174 0.821013
0.679608 0.382939 0.814277
0.783856 0.355070 0.832741
0.950549 0.284562 0.864506
0.248792 0.484221 0.764532
0.278341 0.493886 0.792868
0.321299 0.496469 0.808125
0.393577 0.486014 0.810621
0.470979 0.465982 0.822069
0.564497 0.448134 0.835784
0.677734 0.442123 0.824999
0.787942 0.423848 0.836917
0.960460 0.366705 0.870974
0.204072 0.548283 0.771253
0.239575 0.556648 0.797465
0.287253 0.561041 0.815393
0.367902 0.554693 0.825327
0.457325 0.543442 0.838302
0.553308 0.527521 0.862857
0.669851 0.518785 0.857424
0.790376 0.507336 0.850820
0.970558 0.457341 0.878090
0.183808 0.620120 0.777203
0.210116 0.631640 0.804714
0.242413 0.640493 0.826249
0.310251 0.639513 0.839786
0.416430 0.631322 0.854222
0.530066 0.619319 0.877326
0.648674 0.604035 0.884385
0.778945 0.596187 0.854824
0.966551 0.554167 0.861620
0.186181 0.700471 0.825264
0.201871 0.710499 0.852824
0.229174 0.718197 0.870316
0.291610 0.718639 0.876646
0.391820 0.714465 0.882777
0.505137 0.707450 0.896237
0.636065 0.696160 0.895856
0.764579 0.689420 0.865144
0.965410 0.654461 0.850228
0.193414 0.786974 0.864587
0.201867 0.796830 0.901567
0.226968 0.803043 0.917315
0.291559 0.800994 0.915376
0.381188 0.797583 0.912967
0.488063 0.795876 0.912826
0.628745 0.793496 0.902721
0.762389 0.787603 0.895815
0.985885 0.763794 0.859668
0.138306 0.903570 0.803873
0.097218 0.919302 0.833792
0.090672 0.925977 0.844233
0.151811 0.921779 0.840016
0.256254 0.920676 0.837037
0.413766 0.927182 0.842611
0.606017 0.943867 0.865834
0.782851 0.980273 0.924487
1.000000 1.000000 0.967341
