bundles/resolve-cinematic-luts/Phantom Luts/S5, S1, S1h LUTs/WB Offset - Green & Warm Boost/IceBlue V-Log WBO Legacy.cube
TITLE "Generated by Resolve"
LUT_3D_SIZE 33
0.0413977 0.0534676 0.055375
0.041413 0.0534524 0.0553445
0.0414282 0.0534524 0.0552987
0.0471656 0.0536812 0.0560006
0.0573129 0.0541238 0.0552377
0.0683909 0.0552071 0.0547799
0.0805676 0.0557412 0.0540475
0.0939651 0.0561837 0.0539406
0.110216 0.0557565 0.0533761
0.132815 0.054963 0.0531319
0.163119 0.0534371 0.0527047
0.201099 0.0529183 0.0551308
0.249104 0.0527504 0.059205
0.308232 0.0513771 0.0620432
0.370626 0.0502022 0.0659342
0.42858 0.0502632 0.0743725
0.47866 0.0517586 0.0857404
0.519875 0.0557412 0.100435
0.558709 0.0609445 0.117357
0.597208 0.0666209 0.136584
0.621744 0.0705425 0.151583
0.626444 0.0709239 0.156146
0.627039 0.0708019 0.158236
0.627543 0.0707103 0.160067
0.627909 0.070634 0.161303
0.628229 0.0705577 0.162554
0.628473 0.0704814 0.163561
0.62884 0.0703899 0.164843
0.629557 0.0703593 0.166552
0.630625 0.0701152 0.16968
0.631754 0.069688 0.173678
0.633387 0.0688487 0.180499
0.635019 0.0679637 0.187945
0.0415351 0.0533608 0.0549935
0.041474 0.0534218 0.0551766
0.0414435 0.0534524 0.0552682
0.0450752 0.0535592 0.0557565
0.0548714 0.0539712 0.0556039
0.0655985 0.0549325 0.0550851
0.0777752 0.0555581 0.0542763
0.091783 0.0561074 0.0541543
0.108614 0.0558633 0.0536049
0.13254 0.0549935 0.0533608
0.164248 0.0534066 0.0531777
0.203616 0.0524605 0.0547951
0.253254 0.0518502 0.0576791
0.312734 0.0504463 0.0593118
0.374426 0.049134 0.0625162
0.432181 0.049073 0.0707103
0.481651 0.0505531 0.0826123
0.522744 0.05449 0.0984512
0.56112 0.0593271 0.115419
0.60145 0.0673686 0.137163
0.622293 0.0708019 0.150454
0.625879 0.0710155 0.154406
0.626505 0.0709239 0.156283
0.627024 0.0708171 0.158145
0.627436 0.0707256 0.159655
0.627741 0.0706645 0.160754
0.62797 0.070634 0.161517
0.628214 0.0704967 0.162707
0.628595 0.0703593 0.164233
0.629374 0.0700236 0.167239
0.630426 0.0695659 0.171267
0.632029 0.0686961 0.178241
0.633692 0.0677806 0.185611
0.0415351 0.0533608 0.0549935
0.041474 0.0534218 0.0551766
0.0414435 0.0534524 0.0552682
0.0415503 0.0533913 0.0551461
0.0500649 0.0544442 0.0564279
0.0607156 0.0553902 0.0554818
0.0726329 0.0561379 0.0551766
0.0870375 0.0566873 0.0550546
0.104677 0.0562905 0.0543221
0.129198 0.0552682 0.0537423
0.161654 0.0535134 0.0534218
0.202197 0.0524453 0.0552224
0.252461 0.0515145 0.0576028
0.312444 0.0502327 0.0593576
0.374273 0.0486458 0.0612497
0.431128 0.0479591 0.0669261
0.47985 0.049134 0.0779583
0.52108 0.0526284 0.0937362
0.559442 0.057084 0.110964
0.600671 0.0665446 0.134142
0.621698 0.0709544 0.148226
0.624994 0.0711681 0.151934
0.625696 0.071046 0.153933
0.626245 0.0709697 0.155474
0.626688 0.0708782 0.15697
0.627039 0.0708019 0.158221
0.627314 0.0707561 0.159197
0.627604 0.0706493 0.160403
0.627894 0.0705119 0.161624
0.628595 0.0701457 0.16463
0.62948 0.0696574 0.168414
0.631037 0.0687572 0.175341
0.632639 0.0677958 0.182666
0.0415351 0.0533608 0.0549935
0.0414588 0.0534218 0.0551919
0.0414282 0.0534524 0.0552987
0.0414282 0.0534524 0.0552834
0.045243 0.0545663 0.0558938
0.0554055 0.0562448 0.0567941
0.0658274 0.057557 0.0565499
0.0796826 0.0582742 0.0562753
0.0979324 0.0579232 0.0556191
0.122713 0.0567025 0.0552529
0.156466 0.0543374 0.0539559
0.198291 0.0526284 0.0551614
0.249714 0.0515297 0.0580301
0.310765 0.0501717 0.0601053
0.373526 0.0485695 0.0618601
0.431037 0.0477607 0.0668803
0.478614 0.0485084 0.0755627
0.517494 0.0505379 0.0880903
0.556878 0.0547951 0.10605
0.597421 0.0639658 0.129107
0.620691 0.0710765 0.145342
0.624002 0.0713054 0.149004
0.624704 0.0712139 0.151034
0.625315 0.071107 0.152819
0.625818 0.0710307 0.154192
0.626184 0.070985 0.15523
0.626474 0.0709239 0.156222
0.626795 0.0708171 0.157382
0.627146 0.0706645 0.158877
0.627817 0.0702983 0.161837
0.628717 0.0697948 0.165728
0.63032 0.0688945 0.172656
0.631937 0.0679484 0.179812
0.0425422 0.0591135 0.0577554
0.0421759 0.0589303 0.0569314
0.0423438 0.0585184 0.0567941
0.043595 0.0577401 0.0564126
0.0454261 0.0569467 0.0563973
0.0518349 0.0583047 0.0574502
0.0601358 0.0594034 0.0572976
0.0715953 0.0599832 0.0571145
0.0893416 0.0598917 0.0568704
0.114382 0.0589151 0.0568246
0.148516 0.0564584 0.0556344
0.192294 0.0538491 0.0552987
0.245655 0.0519722 0.0576791
0.307744 0.0502785 0.0603952
0.372549 0.0484627 0.0625772
0.430167 0.0476234 0.067689
0.478096 0.0483864 0.0759136
0.516854 0.0503395 0.0874037
0.553918 0.0530251 0.101411
0.592737 0.0602121 0.122744
0.618128 0.0697337 0.141238
0.622812 0.0714122 0.14609
0.623606 0.0713207 0.148135
0.624231 0.0712749 0.14966
0.62475 0.0711986 0.151171
0.625177 0.0711376 0.152438
0.625513 0.0710765 0.153384
0.625849 0.070985 0.154482
0.6262 0.0708476 0.155703
0.626978 0.0704509 0.158816
0.627832 0.0699779 0.162524
0.629465 0.0690623 0.169421
0.631144 0.068101 0.176715
0.0446326 0.0688792 0.0642557
0.0438849 0.0684215 0.0625162
0.0436103 0.067628 0.061799
0.0457313 0.0661784 0.0609445
0.0489815 0.064332 0.0593729
0.0535439 0.0635996 0.0591897
0.0606851 0.0646677 0.0603037
0.0705577 0.0649424 0.0600748
0.0865339 0.0646525 0.0599527
0.109285 0.0629129 0.059144
0.141573 0.0597391 0.0577249
0.185275 0.055787 0.0559243
0.239643 0.0531014 0.0572976
0.304967 0.0507973 0.0597391
0.370779 0.0485084 0.0627146
0.429038 0.0474708 0.068574
0.477668 0.048188 0.076936
0.516747 0.0502327 0.0881056
0.553903 0.052903 0.101472
0.590524 0.0584726 0.119753
0.613382 0.0660716 0.135058
0.619944 0.0697948 0.141573
0.622293 0.0714885 0.144869
0.623041 0.0713817 0.1467
0.623621 0.0713207 0.14818
0.624048 0.0713054 0.149142
0.624399 0.0712444 0.150103
0.624765 0.0711528 0.151339
0.625162 0.0710002 0.152773
0.625956 0.0706188 0.155734
0.626886 0.0701152 0.159594
0.628489 0.0692149 0.16643
0.630182 0.0682536 0.173602
0.046128 0.0791485 0.0696269
0.04477 0.0789502 0.0683604
0.0442969 0.0781262 0.0672923
0.0453498 0.076524 0.0663615
0.0507057 0.0738537 0.0643778
0.0556649 0.0720073 0.0631418
0.0631113 0.0719005 0.0629892
0.0730907 0.0724193 0.0628367
0.0890669 0.0727703 0.0635691
0.110552 0.0711528 0.0619211
0.142992 0.0673228 0.0606241
0.18497 0.0612955 0.0585184
0.235859 0.0553445 0.057145
0.300603 0.0517586 0.0588235
0.368078 0.0490425 0.0620737
0.427604 0.0475013 0.0687419
0.477028 0.0480049 0.0778821
0.517098 0.0499886 0.0896925
0.554177 0.0526436 0.103395
0.590402 0.057847 0.121096
0.612329 0.064622 0.13489
0.616587 0.066743 0.138186
0.618448 0.0682689 0.14052
0.62089 0.0700542 0.143664
0.622538 0.0711681 0.14609
0.623163 0.0712291 0.147509
0.62359 0.0711376 0.148669
0.623987 0.071046 0.149798
0.624338 0.0709544 0.150927
0.624872 0.0707103 0.15288
0.625483 0.0704204 0.155215
0.62649 0.0698558 0.159548
0.627512 0.0692607 0.164019
0.0474403 0.0929732 0.0741894
0.045243 0.0928817 0.0722362
0.0441444 0.0922408 0.0711833
0.0444343 0.0908217 0.0708171
0.0488594 0.0884413 0.0695354
0.0557717 0.0850233 0.0672618
0.0621805 0.084123 0.0661631
0.0748913 0.0840772 0.0650645
0.0909743 0.0844129 0.0656596
0.113664 0.0840314 0.0658732
0.147662 0.0798962 0.064332
0.190738 0.0735485 0.0612955
0.242649 0.0645151 0.0588083
0.301305 0.054902 0.0567788
0.365667 0.0501259 0.0606394
0.425788 0.0479744 0.067689
0.476204 0.0480354 0.0778515
0.516533 0.049897 0.0901045
0.554025 0.0524605 0.104555
0.590249 0.0573281 0.12253
0.612909 0.064332 0.137148
0.61619 0.065568 0.139391
0.616342 0.0656901 0.139559
0.617609 0.0667582 0.141024
0.618799 0.0677653 0.142596
0.619852 0.068452 0.144091
0.621012 0.0692302 0.145739
0.621973 0.0698558 0.147066
0.622675 0.0702983 0.148074
0.623316 0.0705272 0.149462
0.623941 0.0704051 0.151583
0.624979 0.0699626 0.15555
0.626032 0.0693217 0.160006
0.0475166 0.111086 0.0791028
0.044831 0.111467 0.076585
0.0431067 0.11107 0.0745861
0.0429389 0.110201 0.0740826
0.04477 0.108675 0.0731823
0.0525521 0.105501 0.071458
0.0605325 0.102388 0.0698253
0.0709239 0.101976 0.0686656
0.0907912 0.101152 0.065919
0.115602 0.101442 0.0670481
0.149706 0.0996109 0.0672618
0.198932 0.0905623 0.065156
0.252033 0.0800031 0.0604868
0.312627 0.0678416 0.0573281
0.373556 0.0552987 0.0568704
0.425742 0.0496529 0.0651865
0.474891 0.0486152 0.0764019
0.515312 0.0498665 0.0895705
0.553246 0.0524147 0.104234
0.588891 0.0568856 0.121691
0.613092 0.0643778 0.137377
0.61622 0.0655375 0.139544
0.616236 0.0655375 0.139544
0.616236 0.0655375 0.139544
0.616449 0.0657054 0.139803
0.617044 0.0661784 0.140505
0.617746 0.0667887 0.141268
0.618265 0.0671855 0.14197
0.618524 0.0674144 0.142336
0.618891 0.0674296 0.143435
0.619516 0.0673381 0.145449
0.620645 0.0669261 0.149493
0.622171 0.0666972 0.154345
0.0470436 0.135454 0.0847334
0.0443427 0.136431 0.0811933
0.0418097 0.137194 0.0783093
0.0411994 0.136492 0.0766918
0.0412604 0.135164 0.0765545
0.0454261 0.133165 0.0748455
0.0541238 0.129717 0.0724804
0.0661479 0.126818 0.0718242
0.0837262 0.125628 0.06981
0.112291 0.124208 0.0658579
0.150027 0.122911 0.0659037
0.198703 0.118761 0.0666667
0.262303 0.104005 0.0643931
0.325734 0.0897688 0.0601511
0.386511 0.0747539 0.0569772
0.438956 0.0584726 0.0598611
0.479149 0.05243 0.0721141
0.515221 0.0512703 0.0876326
0.55111 0.0521706 0.102098
0.587274 0.0563668 0.120546
0.612985 0.0643473 0.137331
0.61622 0.0655375 0.139544
0.616236 0.0655375 0.139544
0.616236 0.0655375 0.139544
0.616251 0.0655375 0.139544
0.616266 0.0655375 0.139544
0.616297 0.0655528 0.139574
0.616434 0.0656596 0.139727
0.616602 0.0657969 0.13994
0.616983 0.0658427 0.140948
0.617685 0.0658579 0.143099
0.618845 0.0654307 0.147295
0.619944 0.0649119 0.151553
0.0457618 0.16849 0.0920729
0.0436408 0.170275 0.0872053
0.0406653 0.17113 0.0836042
0.038819 0.171603 0.0801251
0.0385443 0.171023 0.0787823
0.0386969 0.169711 0.0786297
0.0428473 0.167941 0.0757
0.0529946 0.163989 0.0727245
0.0721294 0.160464 0.0714733
0.0998093 0.158968 0.0696117
0.142458 0.156573 0.0643473
0.196933 0.153033 0.0634318
0.260304 0.145892 0.0653697
0.336645 0.12549 0.0648051
0.402975 0.107332 0.0623789
0.456428 0.0891432 0.0625315
0.497292 0.0687724 0.0690013
0.527062 0.0594034 0.0826276
0.555093 0.0552377 0.099855
0.586023 0.0555428 0.116854
0.613214 0.0632944 0.135897
0.61622 0.0655375 0.139544
0.616236 0.0655375 0.139544
0.616236 0.0655375 0.139544
0.616251 0.0655375 0.139544
0.616266 0.0655375 0.139544
0.616281 0.0655375 0.139544
0.616281 0.0655222 0.139544
0.616281 0.0655222 0.139544
0.616495 0.0654154 0.140429
0.616861 0.0652018 0.142031
0.617823 0.0646677 0.145983
0.618936 0.0640879 0.150301
0.0427253 0.210712 0.101762
0.0410773 0.212421 0.0963455
0.038819 0.213519 0.0912184
0.0363317 0.214069 0.0872206
0.0354009 0.214694 0.0830396
0.035172 0.214527 0.0807507
0.0353094 0.213535 0.0806439
0.0380713 0.211322 0.0770428
0.0497444 0.207111 0.0718547
0.0784466 0.204074 0.0698711
0.119753 0.201862 0.0675975
0.181765 0.198383 0.0603952
0.254902 0.193194 0.0599985
0.331914 0.184039 0.0643168
0.413993 0.161303 0.0686351
0.478523 0.140124 0.0714733
0.523186 0.120287 0.0758831
0.55433 0.09337 0.0845197
0.577951 0.0714275 0.0958419
0.601282 0.0632639 0.113939
0.619898 0.0634623 0.131044
0.618173 0.0628214 0.134691
0.616861 0.0628367 0.135897
0.616861 0.0640116 0.137606
0.616678 0.0649424 0.13872
0.616312 0.0654154 0.139406
0.616281 0.0655375 0.139544
0.616281 0.0655222 0.139544
0.616281 0.0655222 0.139544
0.61651 0.0653391 0.140322
0.617029 0.0648966 0.141497
0.618296 0.0639658 0.145159
0.619577 0.0628061 0.14876
0.0378424 0.260731 0.112703
0.0368963 0.263142 0.107515
0.0356603 0.264485 0.101686
0.034165 0.265003 0.0973526
0.0323796 0.266514 0.0939956
0.0313726 0.267384 0.0888685
0.0310216 0.267292 0.0850538
0.031342 0.265995 0.0852979
0.0329595 0.26334 0.0797131
0.0467231 0.259419 0.0702831
0.0863966 0.257496 0.0667277
0.146471 0.255146 0.0637064
0.229725 0.250217 0.0550698
0.321981 0.243336 0.0557107
0.406409 0.23653 0.0654765
0.489509 0.21503 0.079469
0.552026 0.192416 0.0905928
0.591531 0.17348 0.0999619
0.620996 0.142931 0.109209
0.634073 0.0946212 0.114992
0.648325 0.0753033 0.132601
0.643336 0.070634 0.134676
0.636561 0.0684215 0.134554
0.629206 0.0657359 0.135821
0.622171 0.0635996 0.135073
0.620874 0.0631266 0.135378
0.620005 0.0627146 0.135683
0.619867 0.062562 0.136217
0.620279 0.0625925 0.13695
0.621302 0.0627146 0.137926
0.623255 0.0630961 0.13904
0.6262 0.063447 0.141161
0.630869 0.0643168 0.144152
0.0334936 0.31664 0.127504
0.0328527 0.319051 0.122316
0.032166 0.320821 0.11696
0.0314031 0.321904 0.111376
0.0304265 0.322957 0.107408
0.0296941 0.324193 0.105089
0.0289311 0.325414 0.100252
0.0284276 0.326055 0.0948959
0.0284733 0.325322 0.0942702
0.0294194 0.322271 0.0872663
0.04448 0.318441 0.0695964
0.0968032 0.318578 0.0623331
0.180804 0.316762 0.0587778
0.286763 0.311406 0.0502632
0.394003 0.304921 0.0550088
0.478477 0.302037 0.0719158
0.559686 0.287434 0.0972457
0.626444 0.262806 0.121599
0.66569 0.243473 0.136278
0.697093 0.214069 0.147265
0.705699 0.157305 0.150774
0.687144 0.111559 0.139986
0.674861 0.0955367 0.137148
0.667506 0.0877699 0.138369
0.661677 0.0822919 0.138933
0.65742 0.0790265 0.13901
0.653895 0.0765698 0.138903
0.652659 0.0763256 0.139147
0.652277 0.0767376 0.139239
0.653498 0.0783398 0.139483
0.657038 0.0818647 0.139773
0.66247 0.0862745 0.141146
0.670878 0.0934768 0.144335
0.0318303 0.375174 0.14931
0.0316472 0.378042 0.145098
0.0312657 0.380331 0.1402
0.0308995 0.381338 0.134249
0.030518 0.382162 0.128527
0.0301061 0.382971 0.124361
0.029572 0.384207 0.122652
0.0291752 0.385992 0.120989
0.028687 0.386938 0.113954
0.0286717 0.386069 0.111376
0.0291447 0.382788 0.103075
0.0468299 0.379385 0.0773938
0.116152 0.382162 0.061799
0.226551 0.382071 0.0578317
0.350378 0.377005 0.0518349
0.465156 0.37055 0.0617075
0.547158 0.371878 0.086244
0.62771 0.366339 0.122911
0.700725 0.34284 0.161074
0.746334 0.324102 0.180972
0.773602 0.297322 0.191836
0.774197 0.265949 0.189883
0.762554 0.242969 0.182467
0.751965 0.223514 0.176028
0.742168 0.206317 0.169726
0.734005 0.191806 0.164752
0.728649 0.179629 0.163561
0.72398 0.171511 0.160784
0.721965 0.168017 0.15964
0.723995 0.171313 0.160952
0.729274 0.180362 0.164279
0.738231 0.198077 0.168719
0.753155 0.222583 0.179797
0.0357366 0.437247 0.18381
0.035874 0.440482 0.180636
0.035996 0.442863 0.176471
0.035996 0.444007 0.17084
0.0359808 0.444877 0.165042
0.0359503 0.445594 0.159838
0.0359808 0.446708 0.155184
0.0358129 0.447517 0.151736
0.0354925 0.448981 0.150515
0.0352331 0.450462 0.145068
0.0350805 0.45008 0.140581
0.0356298 0.446845 0.130953
0.0564126 0.443748 0.0970932
0.154208 0.44921 0.071519
0.287449 0.450767 0.0677043
0.419516 0.44567 0.0654154
0.533303 0.440208 0.0819409
0.614984 0.445563 0.116106
0.693767 0.447089 0.158541
0.771649 0.430381 0.203738
0.817334 0.408957 0.227619
0.834791 0.385901 0.23476
0.828367 0.370794 0.229328
0.822232 0.358907 0.224491
0.817075 0.348562 0.220417
0.812955 0.340322 0.217258
0.809918 0.334218 0.215015
0.807935 0.330205 0.213581
0.807721 0.329686 0.213504
0.808988 0.332052 0.214435
0.812436 0.338704 0.217121
0.819272 0.351247 0.222995
0.828305 0.36849 0.230945
0.0472725 0.502525 0.232013
0.0480812 0.505669 0.23006
0.0486915 0.508263 0.227024
0.0491798 0.509728 0.223178
0.0495155 0.510765 0.218204
0.0500801 0.512078 0.213611
0.0504005 0.512795 0.208713
0.05066 0.513359 0.203357
0.0509194 0.513985 0.196841
0.0510414 0.515251 0.193088
0.0509804 0.517632 0.189944
0.050782 0.51751 0.185168
0.0512856 0.513451 0.173571
0.0781415 0.510353 0.124605
0.219532 0.520317 0.0962844
0.362341 0.522698 0.0937209
0.490837 0.516915 0.095613
0.601495 0.512367 0.119387
0.681743 0.518898 0.157992
0.757717 0.52604 0.203113
0.830335 0.518761 0.245823
0.875044 0.496437 0.272068
0.875944 0.481712 0.27126
0.871885 0.471336 0.267323
0.868666 0.463035 0.264271
0.866194 0.457023 0.261906
0.864698 0.452995 0.260563
0.863981 0.451301 0.259937
0.863874 0.451209 0.259861
0.864836 0.453712 0.260746
0.867658 0.460456 0.263478
0.872282 0.471839 0.268132
0.87924 0.489082 0.275441
0.070634 0.570291 0.293629
0.072221 0.573953 0.293416
0.0732738 0.576577 0.291844
0.0741894 0.578836 0.289601
0.0747845 0.580346 0.286091
0.0753185 0.581399 0.282536
0.0758679 0.582269 0.278141
0.0763256 0.583032 0.273243
0.0767529 0.583612 0.266377
0.077409 0.584588 0.257633
0.0777752 0.585458 0.248585
0.0777295 0.587732 0.245274
0.0771038 0.586984 0.24181
0.0786755 0.58233 0.222278
0.124788 0.583032 0.159152
0.308171 0.59527 0.134981
0.441566 0.596551 0.133165
0.561196 0.589044 0.138445
0.668177 0.584817 0.167437
0.746548 0.591791 0.209003
0.815488 0.602991 0.250034
0.876097 0.603052 0.287205
0.900694 0.593225 0.302235
0.899748 0.58436 0.300069
0.898589 0.576745 0.298131
0.897459 0.570947 0.296483
0.896986 0.567544 0.295857
0.896406 0.565087 0.295262
0.896315 0.56524 0.295354
0.896727 0.568063 0.296162
0.897627 0.574472 0.29778
0.898924 0.586236 0.30071
0.90042 0.602014 0.30457
0.106584 0.640757 0.363043
0.108766 0.644465 0.364431
0.110842 0.64799 0.365255
0.112047 0.649958 0.363943
0.112871 0.651453 0.362051
0.113664 0.652811 0.359686
0.114427 0.653895 0.356909
0.115084 0.654978 0.353414
0.115999 0.656397 0.348974
0.116442 0.657023 0.34081
0.116762 0.657374 0.329244
0.116945 0.657832 0.314549
0.116365 0.659464 0.305318
0.115068 0.657053 0.302113
0.120531 0.651759 0.277089
0.209094 0.659861 0.205341
0.404746 0.671138 0.186465
0.517968 0.669993 0.185229
0.630854 0.660655 0.192248
0.732494 0.656046 0.223407
0.807004 0.662806 0.264851
0.862501 0.67541 0.299321
0.904585 0.681025 0.328054
0.909636 0.676036 0.329458
0.90927 0.67097 0.327474
0.90898 0.667079 0.32604
0.908629 0.663935 0.325063
0.908186 0.662348 0.324468
0.907973 0.662593 0.324651
0.908171 0.665187 0.325795
0.908324 0.67042 0.327535
0.908751 0.679072 0.330632
0.909239 0.691264 0.334859
0.154406 0.710979 0.435767
0.156802 0.714946 0.438331
0.158618 0.71809 0.440009
0.159747 0.720104 0.439734
0.160693 0.721691 0.439139
0.161456 0.722911 0.437842
0.162295 0.724269 0.4365
0.162814 0.725322 0.434119
0.163058 0.726085 0.430457
0.163195 0.726848 0.424765
0.163119 0.727352 0.41619
0.163027 0.727642 0.403174
0.163439 0.728557 0.384939
0.162539 0.72781 0.371252
0.161196 0.723293 0.361669
0.175082 0.72018 0.331533
0.315999 0.73666 0.264149
0.496193 0.743923 0.253452
0.591333 0.741817 0.251804
0.698192 0.731273 0.256886
0.795956 0.726894 0.290852
0.86041 0.732662 0.327398
0.902205 0.746136 0.3561
0.921431 0.751797 0.370779
0.920272 0.747509 0.367956
0.919448 0.744228 0.365927
0.918807 0.742123 0.364675
0.918349 0.741054 0.364431
0.918181 0.741421 0.365118
0.918257 0.743694 0.366979
0.918807 0.747753 0.369879
0.919722 0.754711 0.374456
0.92224 0.763638 0.381216
0.199313 0.774014 0.509941
0.201007 0.776822 0.512078
0.202808 0.779568 0.514305
0.203769 0.781201 0.514702
0.204349 0.7823 0.514153
0.204944 0.783307 0.51339
0.205707 0.784421 0.512612
0.206241 0.785214 0.511299
0.2065 0.78587 0.508812
0.206485 0.786435 0.504494
0.206119 0.786831 0.497978
0.205829 0.787457 0.488975
0.205249 0.787411 0.474617
0.20499 0.787396 0.453986
0.203174 0.784756 0.445212
0.207874 0.778027 0.412528
0.237766 0.783047 0.380957
0.423423 0.802045 0.332219
0.576455 0.808621 0.33257
0.660655 0.806714 0.329091
0.763073 0.798779 0.334936
0.854566 0.795468 0.367681
0.908522 0.799908 0.397711
0.93576 0.809918 0.417151
0.939544 0.80975 0.418616
0.93817 0.807157 0.416297
0.937133 0.80528 0.41503
0.936584 0.804913 0.415549
0.936339 0.805097 0.416526
0.936538 0.806653 0.418463
0.937514 0.809842 0.42179
0.939467 0.815122 0.42681
0.943008 0.821759 0.434379
0.236149 0.822187 0.580118
0.237171 0.824155 0.582147
0.238163 0.826001 0.583963
0.238956 0.827298 0.584619
0.239734 0.828473 0.584878
0.240284 0.829175 0.584482
0.240848 0.82977 0.583947
0.241154 0.830259 0.582864
0.241199 0.830701 0.581201
0.241047 0.831281 0.5785
0.240467 0.831601 0.573953
0.239307 0.831556 0.56669
0.238056 0.831373 0.556039
0.236942 0.830976 0.540185
0.235416 0.829496 0.5252
0.236576 0.826322 0.508721
0.255131 0.822675 0.453986
0.337407 0.837949 0.430671
0.520516 0.854032 0.405493
0.654856 0.862425 0.417472
0.73022 0.862547 0.413153
0.828092 0.857755 0.419821
0.905776 0.853605 0.447227
0.950683 0.855436 0.471839
0.964721 0.859037 0.480125
0.963256 0.856825 0.476738
0.962173 0.855467 0.475059
0.961242 0.854688 0.47451
0.960479 0.854871 0.475441
0.960174 0.856367 0.478187
0.960723 0.85893 0.482444
0.962158 0.86305 0.489281
0.964965 0.868971 0.499062
0.265095 0.854795 0.637369
0.266346 0.856184 0.639078
0.267414 0.857588 0.640391
0.268147 0.858564 0.640787
0.268528 0.859052 0.640421
0.269093 0.859495 0.640299
0.269734 0.859876 0.639979
0.270237 0.860243 0.639429
0.270604 0.860716 0.63856
0.270634 0.861189 0.636835
0.270191 0.86154 0.634012
0.26952 0.861936 0.629648
0.268498 0.862242 0.623194
0.267353 0.862425 0.613748
0.265568 0.861845 0.601221
0.262455 0.859174 0.592187
0.268086 0.855268 0.549081
0.318471 0.861463 0.495109
0.443961 0.87982 0.488121
0.613825 0.89482 0.490257
0.741604 0.905486 0.516121
0.805783 0.907622 0.509285
0.882765 0.905028 0.508965
0.943389 0.902647 0.529229
0.975799 0.902083 0.547845
0.979965 0.901076 0.54815
0.979538 0.89926 0.54548
0.978973 0.898283 0.544961
0.978332 0.898177 0.546487
0.977462 0.899138 0.549813
0.977218 0.901381 0.556207
0.976669 0.904768 0.564446
0.977432 0.909743 0.576333
0.279347 0.867079 0.661845
0.279149 0.867109 0.661234
0.278889 0.867262 0.66041
0.278706 0.867369 0.659403
0.278599 0.867445 0.658335
0.278584 0.86743 0.65745
0.278645 0.867338 0.656397
0.27863 0.867231 0.655436
0.278355 0.86717 0.653651
0.277775 0.86714 0.651179
0.27689 0.86714 0.64799
0.275746 0.867155 0.64332
0.274342 0.867155 0.636759
0.272816 0.867079 0.627695
0.271229 0.866957 0.615549
0.270542 0.86685 0.610758
0.271794 0.868254 0.602197
0.298833 0.872236 0.560815
0.403204 0.886839 0.537804
0.533669 0.901854 0.5505
0.701183 0.91693 0.57467
0.823468 0.931792 0.609995
0.870512 0.93666 0.606195
0.928695 0.940581 0.612909
0.968109 0.939971 0.628199
0.982467 0.938277 0.636088
0.982574 0.936919 0.632807
0.982071 0.935805 0.631159
0.981308 0.935393 0.632273
0.980255 0.935988 0.636713
0.979538 0.93727 0.643198
0.979248 0.939742 0.653346
0.979385 0.943511 0.666865
0.280171 0.867124 0.664485
0.279866 0.867216 0.663844
0.279561 0.867369 0.66305
0.279286 0.86746 0.662318
0.279118 0.867521 0.661234
0.279057 0.867491 0.660136
0.279042 0.86743 0.659037
0.279011 0.867338 0.657786
0.278477 0.867369 0.656245
0.277745 0.867384 0.653849
0.276814 0.867414 0.650568
0.275624 0.867384 0.645853
0.274327 0.867338 0.639612
0.272862 0.867247 0.630518
0.271275 0.867063 0.617563
0.270527 0.866987 0.61091
0.271305 0.868238 0.605585
0.292805 0.872282 0.572885
0.387396 0.884459 0.533608
0.506783 0.899763 0.556558
0.660456 0.915068 0.584283
0.801511 0.931044 0.63267
0.876326 0.943038 0.661433
0.913344 0.947646 0.663142
0.955627 0.954314 0.684169
0.980133 0.959335 0.712032
0.981933 0.959213 0.713054
0.981933 0.95906 0.713039
0.98146 0.959014 0.713802
0.980545 0.95906 0.71545
0.979644 0.958755 0.716258
0.978897 0.95877 0.718578
0.978164 0.958953 0.721263
0.280552 0.867338 0.666712
0.280293 0.867399 0.665904
0.279957 0.867491 0.66508
0.279545 0.867582 0.664103
0.279179 0.867704 0.663157
0.278843 0.867765 0.662394
0.278523 0.867796 0.661234
0.278187 0.867781 0.659846
0.27779 0.86775 0.657969
0.277287 0.867704 0.655894
0.276539 0.867643 0.652445
0.275624 0.867567 0.64802
0.274464 0.867445 0.641718
0.273091 0.867292 0.632776
0.271565 0.867094 0.620203
0.270634 0.866987 0.611795
0.271214 0.867994 0.607782
0.28806 0.871717 0.579736
0.371649 0.882124 0.531518
0.49015 0.897765 0.554177
0.639933 0.91342 0.579553
0.785962 0.929091 0.625971
0.868482 0.94197 0.659129
0.905043 0.946731 0.662318
0.94612 0.953307 0.677913
0.973709 0.958953 0.706752
0.978851 0.960388 0.717418
0.9785 0.960388 0.718578
0.977859 0.960418 0.720211
0.976928 0.96051 0.72224
0.976242 0.960494 0.724453
0.975845 0.960433 0.726284
0.975631 0.960372 0.727474
0.280766 0.867567 0.668406
0.280522 0.867582 0.667628
0.280186 0.867613 0.666773
0.279805 0.867674 0.665797
0.279408 0.867765 0.664698
0.279057 0.867826 0.663752
0.278752 0.867857 0.662913
0.278447 0.867842 0.66157
0.278019 0.867826 0.659632
