bundles/resolve-cinematic-luts/Phantom Luts/S5, S1, S1h LUTs/WB Offset - Green & Warm Boost/IceBlue V-Log WBO Legacy.cube
TITLE "Generated by Resolve"
LUT_3D_SIZE 5
0.0413977 0.0534676 0.055375
0.110216 0.0557565 0.0533761
0.47866 0.0517586 0.0857404
0.627909 0.070634 0.161303
0.635019 0.0679637 0.187945
0.0475166 0.111086 0.0791028
0.0907912 0.101152 0.065919
0.474891 0.0486152 0.0764019
0.616449 0.0657054 0.139803
0.622171 0.0666972 0.154345
0.0472725 0.502525 0.232013
0.0509194 0.513985 0.196841
0.490837 0.516915 0.095613
0.868666 0.463035 0.264271
0.87924 0.489082 0.275441
0.280171 0.867124 0.664485
0.278477 0.867369 0.656245
0.271305 0.868238 0.605585
0.955627 0.954314 0.684169
0.978164 0.958953 0.721263
0.281605 0.867857 0.672221
0.27837 0.86746 0.660517
0.299138 0.872236 0.55993
0.97023 0.957137 0.700053
0.973754 0.960708 0.730007
0.0390478 0.0582437 0.100969
0.120745 0.0585946 0.105287
0.506065 0.0556802 0.1402
0.65037 0.073167 0.205219
0.65832 0.0728466 0.22887
0.0460212 0.105592 0.11107
0.079881 0.0957961 0.104662
0.494591 0.0545205 0.111986
0.631891 0.0696574 0.174212
0.638117 0.0688029 0.191455
0.0468452 0.50135 0.276509
0.0501869 0.513359 0.248432
0.485405 0.518608 0.0961318
0.868559 0.463401 0.264149
0.87982 0.488304 0.276173
0.282979 0.866957 0.674342
0.280842 0.867445 0.666682
0.270787 0.867201 0.610254
0.954757 0.953689 0.680323
0.976974 0.957321 0.722728
0.285283 0.868147 0.684718
0.282216 0.867292 0.674571
0.289906 0.870832 0.577966
0.962646 0.95555 0.691356
0.973327 0.96083 0.730205
0.0141451 0.092607 0.384771
0.0816968 0.0726482 0.419181
0.557656 0.0764782 0.377783
0.736049 0.110903 0.373007
0.739971 0.112154 0.414023
0.0144656 0.113985 0.376699
0.0148318 0.095552 0.404364
0.56408 0.0789807 0.387701
0.736996 0.112261 0.364218
0.741375 0.11313 0.40502
0.0507057 0.495857 0.449241
0.0536202 0.508019 0.46154
0.483131 0.516381 0.493202
0.926192 0.436561 0.453285
0.93962 0.45803 0.484077
0.29984 0.868315 0.727214
0.30547 0.867018 0.725505
0.286091 0.867323 0.682185
0.956649 0.959167 0.769711
0.98291 0.962783 0.83125
0.30811 0.871153 0.761669
0.313985 0.869123 0.757641
0.297383 0.871 0.708858
0.960082 0.96965 0.856077
0.983383 0.975692 0.883482
0.0308843 0.283986 0.633661
0.0332952 0.297383 0.644083
0.377752 0.316106 0.842618
0.881071 0.378103 0.870207
0.879286 0.390143 0.884749
0.0324865 0.293751 0.638666
0.0343328 0.305318 0.646342
0.362753 0.349233 0.858534
0.887236 0.388281 0.876493
0.880201 0.389929 0.883772
0.0645762 0.486091 0.66862
0.0684977 0.495552 0.680812
0.206821 0.52578 0.809567
0.953872 0.476677 0.889982
0.950744 0.502556 0.90988
0.33254 0.874739 0.848295
0.343572 0.876997 0.850324
0.325017 0.865187 0.832654
0.945647 0.946609 0.94464
0.981308 0.956039 0.95375
0.332326 0.87808 0.871443
0.342077 0.876402 0.868299
0.338277 0.879377 0.852537
0.966613 0.980713 0.977691
0.990066 0.987579 0.991028
0.0348516 0.305699 0.646601
0.0381933 0.321843 0.658854
0.373327 0.373709 0.874357
0.88217 0.389441 0.882078
0.882048 0.389502 0.881834
0.0357519 0.308339 0.648066
0.0344701 0.306096 0.646738
0.369024 0.372686 0.873075
0.884916 0.3888 0.879026
0.879667 0.390066 0.884321
0.0915236 0.532662 0.730953
0.0918746 0.537224 0.731579
0.187076 0.544182 0.805127
0.949142 0.513954 0.938003
0.943008 0.532586 0.942611
0.331685 0.87834 0.871626
0.341527 0.876463 0.868864
0.320562 0.859907 0.858625
0.915801 0.938399 0.964645
0.980438 0.955428 0.971557
0.327794 0.87924 0.872526
0.341558 0.876448 0.868864
0.342504 0.8766 0.869001
0.935271 0.974762 0.978332
0.996094 0.98613 0.985718
