bundles/resolve-cinematic-luts/Phantom Luts/S5, S1, S1h LUTs/WB Offset - Green & Warm Boost/IceBlue V-Log WBO Legacy.cube
TITLE "Generated by Resolve"
LUT_3D_SIZE 9
0.0413977 0.0534676 0.055375
0.0573129 0.0541238 0.0552377
0.110216 0.0557565 0.0533761
0.249104 0.0527504 0.059205
0.47866 0.0517586 0.0857404
0.621744 0.0705425 0.151583
0.627909 0.070634 0.161303
0.629557 0.0703593 0.166552
0.635019 0.0679637 0.187945
0.0425422 0.0591135 0.0577554
0.0454261 0.0569467 0.0563973
0.0893416 0.0598917 0.0568704
0.245655 0.0519722 0.0576791
0.478096 0.0483864 0.0759136
0.618128 0.0697337 0.141238
0.62475 0.0711986 0.151171
0.6262 0.0708476 0.155703
0.631144 0.068101 0.176715
0.0475166 0.111086 0.0791028
0.04477 0.108675 0.0731823
0.0907912 0.101152 0.065919
0.252033 0.0800031 0.0604868
0.474891 0.0486152 0.0764019
0.613092 0.0643778 0.137377
0.616449 0.0657054 0.139803
0.618524 0.0674144 0.142336
0.622171 0.0666972 0.154345
0.0378424 0.260731 0.112703
0.0323796 0.266514 0.0939956
0.0329595 0.26334 0.0797131
0.229725 0.250217 0.0550698
0.552026 0.192416 0.0905928
0.648325 0.0753033 0.132601
0.622171 0.0635996 0.135073
0.620279 0.0625925 0.13695
0.630869 0.0643168 0.144152
0.0472725 0.502525 0.232013
0.0495155 0.510765 0.218204
0.0509194 0.513985 0.196841
0.0512856 0.513451 0.173571
0.490837 0.516915 0.095613
0.830335 0.518761 0.245823
0.868666 0.463035 0.264271
0.863874 0.451209 0.259861
0.87924 0.489082 0.275441
0.199313 0.774014 0.509941
0.204349 0.7823 0.514153
0.2065 0.78587 0.508812
0.205249 0.787411 0.474617
0.237766 0.783047 0.380957
0.763073 0.798779 0.334936
0.939544 0.80975 0.418616
0.936339 0.805097 0.416526
0.943008 0.821759 0.434379
0.280171 0.867124 0.664485
0.279118 0.867521 0.661234
0.278477 0.867369 0.656245
0.274327 0.867338 0.639612
0.271305 0.868238 0.605585
0.660456 0.915068 0.584283
0.955627 0.954314 0.684169
0.98146 0.959014 0.713802
0.978164 0.958953 0.721263
0.280705 0.867735 0.670451
0.27982 0.867475 0.667048
0.278767 0.867292 0.661814
0.275486 0.866865 0.644358
0.270985 0.866621 0.610269
0.631952 0.912169 0.5794
0.939864 0.950347 0.67245
0.982025 0.959335 0.718029
0.976165 0.960418 0.725338
0.281605 0.867857 0.672221
0.280613 0.867704 0.668681
0.27837 0.86746 0.660517
0.273426 0.866667 0.631769
0.299138 0.872236 0.55993
0.807706 0.931655 0.634272
0.97023 0.957137 0.700053
0.979889 0.95996 0.718471
0.973754 0.960708 0.730007
0.0411841 0.053727 0.0592813
0.0558938 0.0542153 0.0672465
0.115129 0.057145 0.0761578
0.267811 0.0560159 0.086305
0.49305 0.0539101 0.116274
0.629648 0.0687266 0.176333
0.638804 0.0702525 0.187472
0.641184 0.0705577 0.192706
0.644526 0.0689097 0.208453
0.0421302 0.057847 0.0598306
0.0417182 0.0537118 0.0554665
0.0958572 0.0559396 0.0569467
0.252918 0.0529793 0.0686809
0.491386 0.0524453 0.101747
0.627085 0.0690318 0.166766
0.631037 0.0689555 0.175357
0.633631 0.0690471 0.180499
0.637354 0.0673533 0.196078
0.0486152 0.107057 0.0930495
0.0473793 0.104417 0.0792554
0.0856947 0.0981765 0.0664225
0.255299 0.0711528 0.060029
0.476982 0.0477607 0.081651
0.622065 0.0693065 0.151736
0.626398 0.0701457 0.158434
0.627146 0.0700389 0.160754
0.629862 0.068513 0.172732
0.0397955 0.258412 0.137514
0.037171 0.262104 0.115923
0.0320592 0.261952 0.0890211
0.223774 0.24976 0.0547189
0.552956 0.184344 0.0895247
0.647654 0.0736248 0.133516
0.621592 0.0632639 0.135439
0.62031 0.062623 0.137682
0.630488 0.0645914 0.14461
0.0473335 0.503395 0.253056
0.0498817 0.511971 0.241947
0.0510872 0.514717 0.218479
0.0513161 0.516548 0.180514
0.490242 0.519295 0.0967727
0.835554 0.51696 0.24889
0.869337 0.465568 0.264897
0.864866 0.453574 0.260792
0.880232 0.490974 0.276463
0.200519 0.774594 0.519982
0.205722 0.78294 0.524361
0.207691 0.78677 0.519478
0.206302 0.788174 0.486656
0.232029 0.783764 0.39089
0.764599 0.801099 0.337987
0.93959 0.810452 0.418997
0.936385 0.805783 0.416449
0.942794 0.821973 0.434989
0.280735 0.867262 0.668864
0.280064 0.867567 0.6654
0.279561 0.867414 0.660761
0.275395 0.867369 0.64445
0.271244 0.867979 0.607721
0.657115 0.914717 0.583383
0.955932 0.954314 0.683482
0.98143 0.95845 0.711116
0.978012 0.95848 0.719875
0.282643 0.867582 0.674891
0.280873 0.867475 0.671122
0.279942 0.867308 0.66601
0.276265 0.866957 0.649195
0.271183 0.866682 0.609735
0.627939 0.911635 0.578576
0.938567 0.950118 0.671763
0.981537 0.959152 0.721187
0.975769 0.960204 0.728756
0.282551 0.86804 0.676371
0.281682 0.867735 0.67277
0.279591 0.86746 0.664759
0.274342 0.866712 0.637064
0.296468 0.872023 0.564523
0.80209 0.930785 0.632227
0.968353 0.956695 0.697581
0.979858 0.959945 0.718654
0.973846 0.960739 0.729381
0.0390478 0.0582437 0.100969
0.0665904 0.0555123 0.0967269
0.120745 0.0585946 0.105287
0.282017 0.0574655 0.117937
0.506065 0.0556802 0.1402
0.640421 0.0710307 0.194049
0.65037 0.073167 0.205219
0.654002 0.073991 0.211276
0.65832 0.0728466 0.22887
0.0413977 0.0634775 0.0845197
0.0392157 0.0583047 0.098024
0.103761 0.0579538 0.0979782
0.274952 0.0562142 0.104814
0.506203 0.0549325 0.128878
0.635691 0.0695964 0.184939
0.642329 0.071046 0.193851
0.644892 0.071397 0.199008
0.6495 0.0702525 0.21648
0.0460212 0.105592 0.11107
0.0453651 0.102876 0.108186
0.079881 0.0957961 0.104662
0.265675 0.0739147 0.0923171
0.494591 0.0545205 0.111986
0.628229 0.0693523 0.168154
0.631891 0.0696574 0.174212
0.633844 0.0698711 0.177127
0.638117 0.0688029 0.191455
0.0411078 0.254826 0.165087
0.0397192 0.257816 0.152148
0.0386664 0.255055 0.123232
0.221454 0.248737 0.079408
0.553353 0.174792 0.0952773
0.646784 0.0725872 0.138628
0.625788 0.0673838 0.145495
0.629709 0.0705882 0.15523
0.632456 0.0669261 0.157092
0.0468452 0.50135 0.276509
0.0490272 0.510842 0.268147
0.0501869 0.513359 0.248432
0.0503243 0.514748 0.188235
0.485405 0.518608 0.0961318
0.836484 0.513878 0.249226
0.868559 0.463401 0.264149
0.864179 0.451301 0.260166
0.87982 0.488304 0.276173
0.20029 0.772625 0.52871
0.206241 0.781262 0.534005
0.208515 0.784939 0.52987
0.206241 0.786007 0.499046
0.224262 0.783185 0.401602
0.762707 0.800931 0.337407
0.938781 0.809003 0.417227
0.935515 0.80383 0.414252
0.942199 0.819837 0.432486
0.282979 0.866957 0.674342
0.281758 0.867475 0.671153
0.280842 0.867445 0.666682
0.276677 0.867521 0.651255
0.270787 0.867201 0.610254
0.644556 0.913832 0.581094
0.954757 0.953689 0.680323
0.980514 0.956436 0.709056
0.976974 0.957321 0.722728
0.283421 0.867979 0.680339
0.282704 0.867811 0.677195
0.282307 0.866957 0.672435
0.27805 0.867033 0.656245
0.270893 0.86659 0.609949
0.613687 0.910338 0.57586
0.935149 0.949508 0.669902
0.981537 0.959152 0.721187
0.975464 0.960082 0.730846
0.285283 0.868147 0.684718
0.284031 0.868162 0.681865
0.282216 0.867292 0.674571
0.277073 0.866712 0.649287
0.289906 0.870832 0.577966
0.782727 0.927855 0.624933
0.962646 0.95555 0.691356
0.979751 0.959899 0.719371
0.973327 0.96083 0.730205
0.0325475 0.0692454 0.197925
0.0584268 0.0643015 0.20528
0.154086 0.06009 0.191424
0.305074 0.0603952 0.195514
0.531441 0.0617227 0.209567
0.673732 0.0814679 0.245045
0.684001 0.0845502 0.256504
0.686946 0.08542 0.262852
0.69279 0.085481 0.286931
0.0328069 0.0746014 0.190036
0.0319677 0.0700084 0.203845
0.106722 0.0609598 0.21326
0.304662 0.0603494 0.198978
0.53666 0.0614481 0.204685
0.673625 0.0809491 0.241306
0.681056 0.08336 0.251194
0.683864 0.084184 0.257343
0.690105 0.0842908 0.282475
0.0335241 0.113283 0.18706
0.031281 0.106096 0.20267
0.0503395 0.0907454 0.223346
0.284779 0.0670024 0.1991
0.528252 0.0603647 0.186954
0.664973 0.0785534 0.223651
0.671519 0.0805829 0.232136
0.674479 0.081529 0.236713
0.681163 0.0820478 0.257893
0.0358282 0.251621 0.23061
0.0340581 0.254673 0.232349
0.0345922 0.251072 0.229129
0.218448 0.243702 0.2383
0.573587 0.185824 0.201358
0.67512 0.0871595 0.200855
0.658442 0.0774243 0.204211
0.660883 0.0778973 0.211124
0.667857 0.0783703 0.226047
0.0474708 0.499275 0.335225
0.0491493 0.508675 0.334783
0.0498207 0.510903 0.324239
0.0484321 0.506142 0.267521
0.481285 0.525002 0.192584
0.853071 0.50103 0.289937
0.877028 0.442802 0.28867
0.871122 0.427268 0.283589
0.889845 0.470359 0.307027
0.199954 0.766247 0.550851
0.206409 0.774548 0.557336
0.207736 0.777859 0.553994
0.203571 0.778424 0.528984
0.218433 0.776593 0.409277
0.7561 0.798962 0.352438
0.943709 0.806851 0.432731
0.94052 0.80116 0.429358
0.948013 0.817792 0.458228
0.287114 0.867369 0.68864
0.287755 0.867521 0.686961
0.287297 0.867094 0.683391
0.282139 0.867247 0.669902
0.272557 0.866712 0.620752
0.614435 0.91162 0.581872
0.952117 0.951827 0.673411
0.981613 0.952361 0.697826
0.978546 0.955703 0.727275
0.288075 0.868467 0.69601
0.288975 0.86807 0.694148
0.287907 0.867338 0.689937
0.283391 0.866941 0.675761
0.273213 0.866438 0.623941
0.586404 0.907744 0.574411
0.92723 0.948135 0.670039
0.981094 0.959152 0.726635
0.975494 0.960555 0.74229
0.291737 0.86923 0.708919
0.292988 0.868681 0.707469
0.291096 0.868238 0.701579
0.28481 0.867033 0.680476
0.286549 0.871351 0.618708
0.750118 0.927016 0.646418
0.954116 0.956344 0.71017
0.981155 0.962325 0.7449
0.974914 0.962814 0.751034
0.0141451 0.092607 0.384771
0.0278477 0.0869459 0.401831
0.0816968 0.0726482 0.419181
0.339117 0.0614328 0.396719
0.557656 0.0764782 0.377783
0.724224 0.106432 0.363226
0.736049 0.110903 0.373007
0.737545 0.111498 0.380087
0.739971 0.112154 0.414023
0.0135805 0.0970779 0.388815
0.012604 0.0955215 0.397406
0.0430915 0.0841535 0.42414
0.312261 0.0616312 0.424674
0.56762 0.0792248 0.38967
0.732494 0.110124 0.371572
0.738338 0.112398 0.379873
0.73959 0.112764 0.386679
0.74136 0.113008 0.421881
0.0144656 0.113985 0.376699
0.0124361 0.106126 0.392767
0.0148318 0.095552 0.404364
0.238819 0.0633097 0.443885
0.56408 0.0789807 0.387701
0.73257 0.110109 0.358083
0.736996 0.112261 0.364218
0.738582 0.112902 0.371252
0.741375 0.11313 0.40502
0.0123751 0.253147 0.38436
0.0109255 0.251255 0.399054
0.0104372 0.239536 0.409567
0.0978561 0.211398 0.472572
0.579751 0.156619 0.435279
0.724468 0.107927 0.338399
0.732372 0.109834 0.348592
0.733928 0.110597 0.352712
0.737957 0.111788 0.381186
0.0507057 0.495857 0.449241
0.0529183 0.505501 0.459236
0.0536202 0.508019 0.46154
0.051545 0.502434 0.454871
0.483131 0.516381 0.493202
0.892989 0.484184 0.459892
0.926192 0.436561 0.453285
0.921096 0.422217 0.451301
0.93962 0.45803 0.484077
0.203952 0.754894 0.611154
0.211231 0.762768 0.617502
0.213504 0.76582 0.617319
0.208286 0.764355 0.602792
0.207706 0.757733 0.536736
0.751034 0.801358 0.526909
0.973816 0.802182 0.57554
0.972503 0.794064 0.575296
0.964385 0.815183 0.618799
0.29984 0.868315 0.727214
0.305303 0.867292 0.727581
0.30547 0.867018 0.725505
0.301198 0.867063 0.716777
0.286091 0.867323 0.682185
0.630777 0.920577 0.682322
0.956649 0.959167 0.769711
0.985977 0.958129 0.791684
0.98291 0.962783 0.83125
0.30071 0.869871 0.736568
0.30692 0.868177 0.736996
0.306493 0.86804 0.734737
0.301808 0.867491 0.72459
0.289311 0.866712 0.689525
0.603433 0.915221 0.674784
0.941726 0.962127 0.809506
0.988342 0.972625 0.852735
0.982864 0.974289 0.871611
0.30811 0.871153 0.761669
0.314305 0.869551 0.761959
0.313985 0.869123 0.757641
0.30695 0.868559 0.742275
0.297383 0.871 0.708858
0.745022 0.936706 0.777295
0.960082 0.96965 0.856077
0.988739 0.975631 0.880919
0.983383 0.975692 0.883482
0.0117952 0.158206 0.513924
0.0118563 0.160571 0.5187
0.0243534 0.152789 0.541802
0.156954 0.119432 0.610468
0.55935 0.11519 0.601495
0.762966 0.152483 0.570687
0.775876 0.157473 0.581445
0.780652 0.164218 0.592432
0.786969 0.182849 0.635081
0.0123293 0.162295 0.519951
0.0122072 0.16495 0.523735
0.0130922 0.164843 0.529595
0.127733 0.139162 0.617761
0.563653 0.123186 0.622202
0.773678 0.160266 0.586801
0.783551 0.170031 0.604166
0.786618 0.17612 0.616053
0.791501 0.194583 0.658854
0.0126802 0.165835 0.516075
0.0122835 0.16672 0.52459
0.0124208 0.167163 0.52665
0.080293 0.154162 0.602579
0.542992 0.123598 0.634043
0.77792 0.16022 0.580865
0.785733 0.168719 0.596078
0.788769 0.174624 0.608133
0.794766 0.19379 0.650568
0.0146029 0.230564 0.523735
0.0142061 0.229831 0.531334
0.014313 0.221775 0.536278
0.0233768 0.206119 0.557809
0.470817 0.131701 0.655879
0.770474 0.159716 0.579705
0.777554 0.155505 0.570672
0.779934 0.159075 0.577737
0.785626 0.175051 0.616068
0.0455634 0.488746 0.569436
0.0473487 0.496345 0.57763
0.0480964 0.496376 0.583154
0.04654 0.482261 0.590341
0.359091 0.50547 0.77641
0.897749 0.457557 0.740505
0.951003 0.409506 0.689418
0.945693 0.397864 0.685084
0.959182 0.437064 0.72958
0.212589 0.740703 0.700908
0.220035 0.748623 0.707439
0.222629 0.750942 0.709529
0.220066 0.748104 0.706538
0.213443 0.737484 0.694743
0.752651 0.780926 0.766522
0.969757 0.773281 0.751095
0.96817 0.764324 0.750423
0.957656 0.787655 0.779919
0.317983 0.872358 0.790799
0.323964 0.871611 0.792096
0.324819 0.871366 0.79144
0.322332 0.871031 0.786236
0.313802 0.870192 0.76672
0.628382 0.918151 0.801373
0.953506 0.957046 0.881987
0.984131 0.961471 0.902327
0.982696 0.96556 0.92192
0.322118 0.873854 0.80444
0.328542 0.87303 0.804944
0.328771 0.872786 0.803601
0.323781 0.872648 0.796597
0.315022 0.870268 0.772793
0.539986 0.91899 0.795544
0.949615 0.973571 0.930861
0.996094 0.983902 0.960327
0.992218 0.98529 0.969238
0.330907 0.877775 0.833326
0.337942 0.876112 0.833005
0.338735 0.875349 0.82948
0.331273 0.874983 0.81854
0.323949 0.875181 0.794949
0.714015 0.938643 0.867231
0.968765 0.978378 0.955001
0.993515 0.985168 0.969512
0.989731 0.986236 0.973938
0.0308843 0.283986 0.633661
0.031693 0.290196 0.637766
0.0332952 0.297383 0.644083
0.048127 0.306538 0.668544
0.377752 0.316106 0.842618
0.842969 0.340887 0.84596
0.881071 0.378103 0.870207
0.883833 0.389044 0.880369
0.879286 0.390143 0.884749
0.0330205 0.295033 0.640436
0.0335546 0.301015 0.64358
0.0356756 0.310918 0.65098
0.0417487 0.323171 0.666575
0.38204 0.34461 0.861845
0.862287 0.366262 0.866377
0.882704 0.386175 0.878035
0.882277 0.388525 0.881163
0.880644 0.389838 0.883284
0.0324865 0.293751 0.638666
0.0344854 0.305974 0.646586
0.0343328 0.305318 0.646342
0.0385595 0.322286 0.660731
0.362753 0.349233 0.858534
0.861769 0.366201 0.86685
0.887236 0.388281 0.876493
0.886152 0.388525 0.877699
0.880201 0.389929 0.883772
0.0290227 0.286259 0.619959
0.030457 0.295872 0.628382
0.0322728 0.302144 0.636103
0.0335699 0.302388 0.643656
0.296407 0.346563 0.831403
0.839002 0.353704 0.864134
0.886061 0.372381 0.859251
0.886641 0.377569 0.864515
0.880964 0.386679 0.879728
0.0645762 0.486091 0.66862
0.0670939 0.494575 0.675502
0.0684977 0.495552 0.680812
0.0707256 0.490684 0.693324
0.206821 0.52578 0.809567
0.797177 0.491676 0.947158
0.953872 0.476677 0.889982
0.949859 0.46862 0.884627
0.950744 0.502556 0.90988
0.177066 0.722164 0.752972
0.183719 0.728878 0.756954
0.184741 0.730068 0.758846
0.18024 0.72488 0.759289
0.167483 0.704265 0.759365
0.682261 0.774609 0.922545
0.9691 0.763272 0.906783
0.970626 0.756695 0.903777
0.959319 0.7823 0.908766
0.33254 0.874739 0.848295
0.341588 0.877195 0.850675
0.343572 0.876997 0.850324
0.340719 0.877516 0.848585
0.325017 0.865187 0.832654
0.590295 0.916716 0.894347
0.945647 0.946609 0.94464
0.984131 0.950256 0.943862
0.981308 0.956039 0.95375
0.335866 0.878325 0.862379
0.341192 0.877409 0.861143
0.343618 0.876677 0.859922
0.340963 0.878141 0.857252
0.335485 0.878386 0.844327
0.423255 0.916671 0.867628
0.95021 0.976913 0.968383
0.995697 0.985718 0.98378
0.993591 0.986648 0.986862
0.332326 0.87808 0.871443
0.338354 0.877211 0.869795
0.342077 0.876402 0.868299
0.339879 0.877455 0.865171
0.338277 0.879377 0.852537
0.571511 0.938933 0.905959
0.966613 0.980713 0.977691
0.995209 0.985779 0.986389
0.990066 0.987579 0.991028
0.0348821 0.305669 0.646616
0.0349584 0.308095 0.648081
0.0381781 0.321798 0.658824
0.0453651 0.340505 0.675364
0.359762 0.3738 0.869215
0.836194 0.380194 0.891585
0.882185 0.389441 0.882078
0.882933 0.389258 0.881346
0.882322 0.389441 0.881529
0.0349889 0.305531 0.646662
0.0345006 0.306081 0.646632
0.0363775 0.314809 0.652918
0.0425574 0.339529 0.671794
0.371756 0.372625 0.87396
0.861326 0.38558 0.887404
0.882124 0.389456 0.882048
0.881758 0.389532 0.88249
0.878614 0.390295 0.885466
0.0358434 0.308431 0.648142
0.0345159 0.306081 0.646647
0.0344701 0.306096 0.646738
0.0408942 0.3337 0.666789
0.353445 0.373297 0.867506
0.86038 0.384604 0.887633
0.884825 0.38883 0.879149
0.884459 0.388922 0.879484
0.879667 0.390051 0.884321
0.04448 0.356664 0.667384
0.042359 0.350317 0.664393
0.0395972 0.336065 0.658564
0.0373693 0.319982 0.655192
0.280461 0.375143 0.836957
0.828611 0.377722 0.893614
0.88574 0.388602 0.87834
0.886137 0.388525 0.877653
0.88098 0.389746 0.882902
0.0829023 0.513237 0.717144
0.0863508 0.523919 0.723415
0.0887007 0.528954 0.728206
0.0848554 0.517159 0.724804
0.170565 0.533852 0.794171
0.713817 0.530388 0.986435
0.94403 0.506371 0.936553
0.942168 0.499779 0.930556
0.940887 0.523644 0.940337
0.182483 0.722255 0.784024
0.188159 0.728115 0.78645
0.190738 0.729931 0.788815
0.188495 0.725643 0.790768
0.176272 0.705516 0.787305
0.619577 0.785031 0.964187
0.954025 0.769818 0.957458
0.968017 0.764752 0.948104
0.955367 0.788083 0.945785
0.328161 0.874281 0.868788
0.338323 0.877272 0.86978
0.340215 0.876814 0.869154
0.335409 0.875578 0.867964
0.313008 0.858564 0.856764
0.527932 0.909865 0.929717
0.921355 0.938216 0.961761
0.981689 0.948959 0.964691
0.980423 0.954696 0.968261
0.332647 0.877745 0.871519
0.338338 0.877256 0.86978
0.340749 0.876677 0.869047
0.336629 0.877806 0.869947
0.3337 0.878584 0.870039
0.382757 0.903212 0.887556
0.922789 0.972519 0.971786
0.992935 0.98526 0.985855
0.99353 0.986252 0.987442
0.332219 0.878218 0.871397
0.338338 0.877256 0.86978
0.34136 0.876509 0.868894
0.338308 0.877333 0.869734
0.33431 0.878721 0.870604
0.468238 0.929671 0.918532
0.944732 0.976791 0.977401
0.992386 0.986999 0.988876
0.993774 0.986664 0.987671
0.0348516 0.305699 0.646601
0.0349126 0.307866 0.647913
0.0381933 0.321843 0.658854
0.047013 0.341695 0.677836
0.373327 0.373709 0.874357
0.849058 0.382895 0.889693
0.88217 0.389441 0.882078
0.882811 0.389288 0.881453
0.882048 0.389502 0.881834
0.0349889 0.305531 0.646662
0.0345006 0.306081 0.646632
0.0364385 0.315114 0.653086
0.0428626 0.340475 0.672724
0.386419 0.371908 0.878874
0.87628 0.387915 0.882948
0.882109 0.389456 0.882033
0.881743 0.389548 0.882475
0.878248 0.390372 0.885847
0.0357519 0.308339 0.648066
0.0345006 0.306081 0.646632
0.0344701 0.306096 0.646738
0.0410925 0.334646 0.667262
0.369024 0.372686 0.873075
0.869902 0.38645 0.885664
0.884916 0.3888 0.879026
0.884459 0.388922 0.879469
0.879667 0.390066 0.884321
0.0447089 0.357565 0.667872
0.0427253 0.352636 0.665034
0.0404364 0.34052 0.66038
0.0381628 0.325124 0.657115
0.294011 0.375494 0.843244
0.835996 0.379721 0.892927
0.885908 0.388571 0.878172
0.886152 0.388525 0.877653
0.880964 0.389746 0.882902
0.0915236 0.532662 0.730953
0.0923171 0.537972 0.731945
0.0918746 0.537224 0.731579
0.0871443 0.523827 0.727169
0.187076 0.544182 0.805127
0.729091 0.537514 0.984512
0.949142 0.513954 0.938003
0.945373 0.50869 0.934844
0.943008 0.532586 0.942611
0.190463 0.731334 0.795926
0.196353 0.737026 0.797787
0.199191 0.738567 0.798978
0.195911 0.733166 0.797269
0.180606 0.710781 0.788907
0.635355 0.791257 0.959274
0.952193 0.779293 0.956237
0.969223 0.772931 0.948699
0.955596 0.796841 0.94548
0.331685 0.87834 0.871626
0.338262 0.877272 0.86978
0.341527 0.876463 0.868864
0.338933 0.873899 0.867216
0.320562 0.859907 0.858625
0.547112 0.90866 0.931075
0.915801 0.938399 0.964645
0.981888 0.94966 0.969162
0.980438 0.955428 0.971557
0.332464 0.877729 0.871611
0.338216 0.877287 0.869795
0.341527 0.876463 0.868864
0.342138 0.876295 0.868727
0.342138 0.876295 0.868727
0.389654 0.899916 0.890822
0.913344 0.970382 0.974578
0.992432 0.985061 0.986053
0.993454 0.986343 0.987579
0.327794 0.87924 0.872526
0.337469 0.877501 0.869871
0.341558 0.876448 0.868864
0.342138 0.876295 0.868727
0.342504 0.8766 0.869001
0.48539 0.925582 0.918776
0.935271 0.974762 0.978332
0.989288 0.987625 0.991516
0.996094 0.98613 0.985718
