bundles/resolve-cinematic-luts/Phantom Luts/S5, S1, S1h LUTs/WB Offset - Green & Warm Boost/Jamaica V-Log WBO.cube
TITLE "Generated by Resolve"
LUT_3D_SIZE 9
0.00825513 0.0293278 0.00825513
0.0554055 0.0292058 0.00805676
0.168795 0.0278782 0.0170748
0.36286 0.0271763 0.0412451
0.561059 0.0404059 0.104845
0.641138 0.06009 0.186358
0.644495 0.0599374 0.197787
0.646036 0.059968 0.202976
0.64651 0.0601511 0.203876
0.00935378 0.0472267 0.0172274
0.0206149 0.0376135 0.0101625
0.126116 0.0358587 0.0122835
0.343954 0.0273747 0.0354314
0.545907 0.0333104 0.0796979
0.634363 0.0601053 0.165591
0.638437 0.0603037 0.17734
0.64007 0.0601816 0.182712
0.640406 0.0601358 0.183642
0.00653086 0.153826 0.0431067
0.00314336 0.144106 0.0264591
0.123934 0.127642 0.0195621
0.354955 0.078584 0.0304875
0.540566 0.0345312 0.0742657
0.633127 0.0599374 0.162325
0.632883 0.0598917 0.161685
0.632578 0.0598764 0.160891
0.632532 0.0598917 0.160601
0 0.363851 0.115175
0 0.362951 0.0801709
0 0.356252 0.043061
0.324178 0.321843 0.0139467
0.642588 0.252522 0.115785
0.649989 0.0867933 0.144961
0.634394 0.0651713 0.154971
0.634119 0.0633097 0.158175
0.633921 0.0627146 0.158831
0.0818647 0.640421 0.336492
0.0785382 0.640543 0.303471
0.0776074 0.641398 0.270207
0.0834363 0.633844 0.198993
0.608164 0.589395 0.116335
0.897719 0.573724 0.280735
0.907485 0.509041 0.29189
0.896361 0.479255 0.285313
0.890303 0.466087 0.281621
0.288121 0.88986 0.649607
0.287053 0.890639 0.637552
0.286244 0.891356 0.623407
0.289876 0.89633 0.576425
0.439323 0.932082 0.452262
0.855131 0.841596 0.380133
0.967224 0.849332 0.451637
0.96437 0.838254 0.440497
0.964309 0.833112 0.436652
0.382193 0.950362 0.797116
0.382025 0.951507 0.792218
0.382025 0.952667 0.788205
0.382315 0.956176 0.776287
0.387106 0.965408 0.755291
0.783841 0.998932 0.730617
0.980743 0.978973 0.731075
0.997955 0.975219 0.731624
0.997772 0.97377 0.723903
0.382864 0.94995 0.800793
0.381949 0.949874 0.797559
0.381857 0.950835 0.794095
0.381781 0.953979 0.782925
0.383719 0.961517 0.758694
0.703197 0.998932 0.737163
0.959121 0.97966 0.766781
0.995468 0.983825 0.809827
0.992523 0.985122 0.807324
0.383566 0.950515 0.801495
0.382361 0.950134 0.798093
0.38201 0.950668 0.795209
0.381765 0.953567 0.784375
0.383017 0.960739 0.759182
0.688472 0.998932 0.732921
0.953506 0.980011 0.764553
0.994232 0.98439 0.808621
0.991409 0.985656 0.805997
0.00816358 0.0296025 0.0156863
0.05243 0.030518 0.0343938
0.176608 0.0336309 0.0553292
0.381445 0.03299 0.0843824
0.570687 0.0378576 0.13286
0.647791 0.060502 0.207477
0.651911 0.0615702 0.219043
0.653361 0.0618601 0.223789
0.653727 0.0619059 0.224643
0.0103761 0.0408026 0.0249485
0.00875868 0.0312047 0.0087892
0.135729 0.0291905 0.0141756
0.345144 0.0283055 0.0424506
0.557382 0.0412146 0.105577
0.641443 0.0600595 0.187304
0.644724 0.0599069 0.198383
0.646555 0.0601511 0.203876
0.647028 0.0602579 0.204913
0.0154116 0.142153 0.0846418
0.00764477 0.134585 0.0400092
0.113039 0.120577 0.0197604
0.353384 0.0617227 0.026154
0.539834 0.0332036 0.0773022
0.635782 0.0601968 0.169497
0.638407 0.0602884 0.177142
0.63949 0.0602274 0.180621
0.63975 0.0601816 0.181399
0 0.354864 0.15819
0 0.35227 0.11284
0 0.350713 0.061677
0.318349 0.316701 0.0136568
0.638254 0.238346 0.111498
0.646845 0.0820325 0.145861
0.634104 0.0642252 0.156252
0.634073 0.0625162 0.159701
0.63389 0.0618143 0.160571
0.0799268 0.633707 0.359365
0.0758831 0.633921 0.33019
0.0742962 0.633188 0.28809
0.0753185 0.631998 0.222141
0.605814 0.586267 0.114565
0.899245 0.565072 0.281483
0.905303 0.503258 0.29044
0.89369 0.472663 0.283864
0.887495 0.459648 0.280125
0.285252 0.886122 0.654368
0.28397 0.886839 0.642832
0.282765 0.887343 0.629313
0.285039 0.892088 0.585916
0.417655 0.929519 0.457725
0.85388 0.839704 0.377508
0.966552 0.846601 0.44892
0.963745 0.83476 0.437339
0.963149 0.829541 0.433097
0.382177 0.949416 0.8
0.381994 0.950469 0.795483
0.382071 0.951766 0.79144
0.382116 0.955001 0.780133
0.385855 0.963943 0.756649
0.776379 0.998932 0.729534
0.980102 0.978424 0.727367
0.998291 0.97438 0.727337
0.997909 0.972534 0.717662
0.382727 0.949004 0.803204
0.381933 0.948775 0.800961
0.381826 0.949844 0.797192
0.381826 0.952987 0.786664
0.383139 0.960845 0.759304
0.691859 0.998932 0.7364
0.957305 0.979583 0.766308
0.995468 0.983825 0.809827
0.992523 0.985122 0.807324
0.383413 0.949447 0.804288
0.382071 0.948745 0.801358
0.381979 0.94963 0.798367
0.381842 0.952605 0.788067
0.383017 0.960739 0.759182
0.677607 0.998932 0.732052
0.951873 0.979995 0.764416
0.994232 0.98439 0.808621
0.991409 0.985656 0.805997
0.00849927 0.0336614 0.0933089
0.0795758 0.0315709 0.094377
0.186526 0.035523 0.11632
0.401099 0.0344091 0.135821
0.586358 0.0395972 0.169802
0.655756 0.0624399 0.231449
0.659815 0.063859 0.242817
0.661891 0.0647898 0.248188
0.66244 0.0650492 0.249195
0.0107424 0.044831 0.0620737
0.00875868 0.0342565 0.0803388
0.149142 0.0342412 0.0884871
0.372717 0.0333257 0.0999619
0.571298 0.0380407 0.140581
0.649775 0.0610513 0.212985
0.653178 0.0618143 0.22327
0.65478 0.0621958 0.228092
0.6551 0.0622873 0.228702
0.0183719 0.134325 0.120073
0.0181277 0.1243 0.105486
0.105806 0.113695 0.0902876
0.359564 0.0640879 0.0703899
0.558114 0.0394903 0.120424
0.643214 0.0599985 0.193256
0.645335 0.060029 0.20032
0.646616 0.0602579 0.204044
0.646998 0.0603494 0.204959
0.00296025 0.344961 0.199771
0 0.341344 0.168856
0 0.337636 0.108125
0.315679 0.312352 0.0431678
0.634226 0.226581 0.113375
0.643671 0.0765698 0.149218
0.635447 0.0626993 0.163226
0.63801 0.0612497 0.173907
0.638773 0.0607614 0.177203
0.0779278 0.625238 0.382162
0.0734569 0.625574 0.357244
0.071046 0.625513 0.321309
0.068452 0.628199 0.239963
0.603861 0.583154 0.112902
0.898863 0.55938 0.280842
0.903075 0.49688 0.289143
0.890394 0.464607 0.28217
0.884031 0.451728 0.27837
0.281956 0.881682 0.659373
0.280751 0.882567 0.648753
0.279545 0.883177 0.636225
0.279423 0.886641 0.595392
0.390509 0.924743 0.46479
0.852552 0.8374 0.374441
0.965698 0.843214 0.445472
0.962753 0.831205 0.433967
0.962158 0.826505 0.429877
0.382101 0.948425 0.802731
0.381918 0.949416 0.798627
0.381964 0.950576 0.794995
0.381949 0.953704 0.784253
0.385138 0.963058 0.757717
0.76762 0.998932 0.728237
0.979538 0.9776 0.722271
0.998474 0.973083 0.72108
0.998093 0.971359 0.711574
0.382681 0.947967 0.806134
0.381857 0.947753 0.803571
0.381857 0.94876 0.800702
0.381949 0.951965 0.790646
0.383078 0.960739 0.759503
0.679393 0.998932 0.735073
0.955627 0.979477 0.765911
0.995468 0.983825 0.809827
0.992523 0.985122 0.807324
0.383261 0.948272 0.807279
0.381979 0.947784 0.803601
0.381918 0.94847 0.80177
0.381872 0.951537 0.791867
0.38291 0.960372 0.760525
0.664942 0.998932 0.73051
0.950011 0.97998 0.76437
0.994232 0.98439 0.808621
0.99115 0.985763 0.805798
0.00636301 0.0435492 0.224689
0.0729534 0.0392309 0.231632
0.22005 0.0375219 0.239399
0.419821 0.0390936 0.262608
0.614923 0.0484932 0.266056
0.681132 0.0750286 0.295293
0.685206 0.0774548 0.305913
0.686992 0.0785534 0.310536
0.687129 0.078706 0.310658
0.00796521 0.0549935 0.199771
0.00677501 0.0434272 0.216342
0.160876 0.036759 0.2374
0.400717 0.038407 0.240787
0.604685 0.0453803 0.240024
0.673991 0.0710765 0.277073
0.678019 0.0732433 0.287449
0.679835 0.0742962 0.291966
0.679988 0.074464 0.29192
0.00650034 0.133608 0.213809
0.00669871 0.11632 0.220081
0.0756695 0.0941329 0.236698
0.37966 0.0565194 0.226078
0.592248 0.0425269 0.213474
0.664424 0.0661173 0.253895
0.667765 0.0676127 0.262791
0.669856 0.0687572 0.267536
0.670176 0.0690013 0.267964
0.00578317 0.325658 0.281804
0.00535592 0.320272 0.269368
0.00602731 0.312978 0.252171
0.309804 0.304891 0.247532
0.651194 0.226215 0.211734
0.662257 0.0740368 0.213748
0.655238 0.0631571 0.226917
0.657664 0.0632029 0.236469
0.658412 0.063447 0.238514
0.076463 0.608652 0.433616
0.0717632 0.608377 0.41619
0.0684825 0.607111 0.393225
0.0616465 0.607736 0.299504
0.609339 0.580392 0.192386
0.90988 0.539391 0.303349
0.904921 0.462516 0.302083
0.888579 0.43212 0.292103
0.881331 0.420371 0.287404
0.274983 0.871199 0.671901
0.273289 0.871885 0.662135
0.271397 0.871992 0.651118
0.268757 0.874327 0.616739
0.350378 0.912673 0.480842
0.849928 0.832593 0.373434
0.965362 0.837598 0.443336
0.962768 0.825452 0.431266
0.961501 0.820233 0.426017
0.382101 0.945953 0.809842
0.381949 0.947143 0.805386
0.381918 0.948119 0.802502
0.381994 0.951232 0.793011
0.383764 0.960998 0.76141
0.749493 0.998932 0.725917
0.978454 0.975738 0.711101
0.999786 0.970291 0.708751
0.99884 0.968444 0.698878
0.382528 0.94551 0.812665
0.381949 0.945846 0.809033
0.381765 0.946288 0.807675
0.381765 0.94931 0.798703
0.382605 0.958923 0.766018
0.65362 0.998932 0.732235
0.951949 0.97937 0.76556
0.995468 0.983825 0.809827
0.992523 0.985122 0.807324
0.383001 0.945693 0.813886
0.382025 0.945403 0.810483
0.381872 0.94612 0.808286
0.381796 0.948898 0.800076
0.382605 0.958862 0.766323
0.64007 0.998932 0.726497
0.946044 0.980087 0.764614
0.994232 0.98439 0.808621
0.991409 0.985656 0.805997
0 0.0638895 0.409873
0.0419928 0.0569924 0.422126
0.154421 0.0456855 0.441947
0.432837 0.0478676 0.458213
0.633921 0.0687419 0.461433
0.716884 0.100877 0.425666
0.717372 0.101808 0.434852
0.717784 0.102251 0.438285
0.717418 0.10219 0.436957
0 0.0727092 0.402274
0 0.0631723 0.405859
0.0906539 0.0504005 0.429114
0.411154 0.0456703 0.456107
0.628916 0.0665599 0.451438
0.71574 0.0995804 0.413642
0.716503 0.100496 0.422141
0.71667 0.100877 0.425162
0.716472 0.100801 0.423529
0 0.10988 0.395941
0 0.0912795 0.39823
0.00646983 0.0666819 0.407782
0.372763 0.0424964 0.454582
0.621653 0.0634623 0.437705
0.713695 0.0977798 0.397559
0.714992 0.0988632 0.405478
0.715282 0.0991989 0.407965
0.715053 0.0991379 0.40708
0.000503548 0.298375 0.420783
0 0.285985 0.42182
0 0.267033 0.426215
0.239353 0.251392 0.474876
0.668376 0.192416 0.470634
0.706996 0.0928359 0.364187
0.708919 0.0937667 0.377768
0.709651 0.094377 0.380316
0.709499 0.0943465 0.379309
0.0767834 0.574258 0.527367
0.0722057 0.572305 0.51838
0.0691081 0.568322 0.509957
0.0614023 0.558923 0.483131
0.583658 0.560754 0.481331
0.940124 0.514778 0.470146
0.952209 0.449699 0.450309
0.939925 0.418891 0.439155
0.934005 0.407141 0.433005
0.265202 0.84828 0.708598
0.26276 0.848875 0.699992
0.260182 0.848188 0.692027
0.254505 0.847532 0.669337
0.347997 0.889967 0.594202
0.852094 0.821775 0.523522
0.989837 0.819898 0.574914
0.989914 0.804761 0.56231
0.988586 0.798886 0.556405
0.382193 0.939116 0.827588
0.382223 0.940566 0.823575
0.382193 0.941634 0.820798
0.382025 0.944198 0.81387
0.381994 0.952377 0.78912
0.734157 0.998932 0.767376
0.974548 0.970504 0.745266
0.996933 0.965698 0.745602
0.996139 0.963561 0.735927
0.382498 0.938674 0.829709
0.382345 0.93933 0.82681
0.382208 0.940398 0.823896
0.381994 0.942596 0.818235
0.381872 0.950988 0.793637
0.641535 0.998932 0.761532
0.950881 0.978683 0.810849
0.993866 0.983459 0.848676
0.991043 0.98471 0.845396
0.382818 0.938445 0.831693
0.382239 0.938582 0.828305
0.382254 0.939803 0.825422
0.38204 0.942123 0.819562
0.381903 0.950668 0.794781
0.621759 0.998932 0.759213
0.944564 0.979339 0.808362
0.993027 0.983658 0.846235
0.990936 0.984817 0.844099
0.0018616 0.127489 0.548516
0.00218204 0.124575 0.552026
0.0769055 0.1149 0.576455
0.306142 0.0926833 0.628794
0.643229 0.126741 0.646891
0.718746 0.129854 0.589334
0.71986 0.134783 0.601434
0.721279 0.137301 0.606455
0.720897 0.136843 0.60412
0.00170901 0.126955 0.547051
0.00135805 0.126162 0.545846
0.0128176 0.120348 0.556176
0.266224 0.0931716 0.619867
0.635843 0.12401 0.644785
0.71809 0.127321 0.582681
0.71928 0.131518 0.59324
0.718593 0.131975 0.594949
0.717723 0.130953 0.592065
0.00132753 0.135866 0.539467
0.0009308 0.128618 0.541848
0.0009308 0.124361 0.542992
0.215061 0.093431 0.607492
0.625696 0.120241 0.641901
0.717174 0.124285 0.575082
0.718196 0.127443 0.583215
0.718029 0.127932 0.584848
0.717571 0.127291 0.582666
0.00787366 0.254292 0.558556
0.0065919 0.240833 0.558587
0.00657664 0.222522 0.561471
0.102571 0.198993 0.599878
0.610651 0.14815 0.656977
0.714473 0.119814 0.561059
0.715923 0.11899 0.55903
0.716091 0.119219 0.559396
0.716182 0.118975 0.557519
0.0582589 0.532311 0.626078
0.0542763 0.52781 0.621897
0.0514076 0.519875 0.620218
0.046067 0.495705 0.620905
0.517449 0.514199 0.725032
0.954009 0.4692 0.72752
0.970718 0.398459 0.697078
0.956344 0.369696 0.685359
0.948974 0.35787 0.677729
0.254749 0.806088 0.76553
0.251118 0.805432 0.758648
0.247669 0.803021 0.753887
0.240314 0.79765 0.743481
0.296864 0.8177 0.736721
0.818769 0.797009 0.72871
0.976761 0.787213 0.723537
0.978225 0.770748 0.714549
0.977798 0.764599 0.710216
0.38381 0.925368 0.858961
0.383566 0.926772 0.855497
0.383459 0.927855 0.853223
0.383139 0.929931 0.848692
0.375387 0.931258 0.827329
0.72752 0.988144 0.834607
0.963455 0.958816 0.843381
0.986954 0.960418 0.85388
0.986099 0.958572 0.847181
0.383658 0.923842 0.86247
0.383597 0.925216 0.858366
0.383581 0.926406 0.856123
0.383413 0.928832 0.851408
0.382879 0.935393 0.837385
0.576257 0.998932 0.84889
0.950484 0.980163 0.908064
0.992645 0.983261 0.939712
0.990356 0.984329 0.937392
0.383307 0.923583 0.862547
0.383688 0.9243 0.860197
0.383581 0.92546 0.857862
0.383474 0.9281 0.852888
0.38294 0.935012 0.838346
0.561959 0.998932 0.848539
0.940383 0.981033 0.903471
0.990433 0.982971 0.934524
0.989563 0.98468 0.936522
0.0467231 0.238483 0.651453
0.0470588 0.23975 0.652003
0.0480812 0.242802 0.653437
0.190097 0.251102 0.739879
0.553964 0.260792 0.836637
0.863951 0.321202 0.856489
0.888594 0.356847 0.894118
0.894881 0.367803 0.904585
0.895094 0.369543 0.904845
0.045716 0.235767 0.65008
0.0448768 0.234699 0.649195
0.0467231 0.239246 0.651621
0.144152 0.249775 0.718944
0.535454 0.259174 0.832288
0.85919 0.315099 0.849454
0.881651 0.34548 0.882887
0.887694 0.35552 0.892531
0.888167 0.357244 0.89276
0.0415503 0.228931 0.645274
0.0432898 0.231266 0.647196
0.043122 0.230503 0.646891
0.0870527 0.245136 0.683482
0.510628 0.256321 0.825742
0.852445 0.307851 0.841688
0.871992 0.331716 0.868803
0.877501 0.339269 0.876783
0.878218 0.340429 0.87686
0.04065 0.268498 0.650858
0.0407721 0.262867 0.650507
0.0426795 0.256153 0.65153
0.0443732 0.243626 0.650752
0.441398 0.244266 0.803876
0.835508 0.291478 0.825132
0.842329 0.295384 0.826413
0.844358 0.29781 0.82945
0.844465 0.297353 0.828382
0.095964 0.498955 0.706249
0.0931258 0.492943 0.70399
0.0916609 0.483894 0.704021
0.0908217 0.459892 0.706645
0.379721 0.482261 0.849424
0.909987 0.465171 0.914595
0.948699 0.42388 0.89778
0.936736 0.400397 0.885176
0.930465 0.390982 0.877104
0.240192 0.749142 0.797253
0.235859 0.746792 0.79176
0.231968 0.741878 0.789212
0.222827 0.729763 0.783597
0.222889 0.716396 0.795438
0.771908 0.766003 0.881468
0.982727 0.747814 0.897368
0.984634 0.731228 0.894911
0.984634 0.725521 0.892851
0.38233 0.903746 0.88922
0.380377 0.904341 0.884413
0.378408 0.903471 0.881895
0.37438 0.901305 0.877333
0.362936 0.894911 0.864454
0.672526 0.95317 0.906783
0.950912 0.945724 0.924987
0.982742 0.946288 0.931777
0.981247 0.943648 0.926711
0.38854 0.906844 0.89688
0.387854 0.908141 0.893141
0.387655 0.909041 0.891493
0.387167 0.910887 0.888045
0.385718 0.915389 0.878813
0.454353 0.967147 0.905547
0.948806 0.981155 0.961044
0.993729 0.985199 0.982498
0.993973 0.985565 0.982406
0.388556 0.906401 0.897414
0.388342 0.907103 0.895399
0.38793 0.907912 0.893568
0.387411 0.909972 0.889784
0.38584 0.914946 0.879698
0.43621 0.959503 0.899397
0.940124 0.981353 0.957305
0.989471 0.985626 0.97998
0.99176 0.988113 0.983673
0.071931 0.306111 0.68368
0.0727703 0.30927 0.684794
0.0792401 0.32314 0.691905
0.109468 0.348043 0.722499
0.493843 0.385321 0.894896
0.909636 0.417685 0.942641
0.910979 0.417884 0.942901
0.911254 0.417746 0.943252
0.910796 0.41796 0.942672
0.071809 0.306188 0.683574
0.0714275 0.306401 0.683314
0.0761883 0.317113 0.68867
0.0877699 0.34078 0.701122
0.476722 0.382742 0.890364
0.908614 0.417075 0.942473
0.910979 0.417884 0.942901
0.910964 0.417884 0.942885
0.911025 0.417853 0.942962
0.0738994 0.312947 0.68632
0.0714275 0.306432 0.683314
0.0714275 0.306401 0.683314
0.0847334 0.335958 0.69807
0.452613 0.379187 0.884047
0.901762 0.41413 0.941909
0.911513 0.417578 0.943755
0.911421 0.417639 0.943572
0.910613 0.418067 0.942443
0.0834516 0.351217 0.699168
0.0844434 0.352407 0.700038
0.0810407 0.340246 0.695842
0.0776684 0.321157 0.69041
0.381704 0.376272 0.863661
0.874876 0.406821 0.941527
0.911696 0.417487 0.943984
0.911681 0.417487 0.943984
0.910842 0.41796 0.942718
0.128328 0.503075 0.741756
0.127901 0.500374 0.741558
0.128664 0.497246 0.742718
0.132204 0.49337 0.747005
0.251408 0.52079 0.851942
0.774701 0.527016 0.970642
0.947158 0.506645 0.974777
0.943358 0.492775 0.971572
0.939757 0.488472 0.968338
0.235798 0.725277 0.816007
0.23299 0.72224 0.813443
0.230426 0.717372 0.812161
0.22472 0.705364 0.810132
0.214847 0.679896 0.808804
0.682261 0.740566 0.940078
0.968322 0.755993 0.967178
0.972702 0.739055 0.970687
0.96994 0.734508 0.967376
0.370977 0.880842 0.899092
0.368688 0.880278 0.895872
0.366705 0.87866 0.894362
0.361242 0.873915 0.890379
0.343755 0.857435 0.879301
0.584985 0.915892 0.948348
0.937728 0.936812 0.95874
0.9823 0.9364 0.969284
0.980087 0.933257 0.965728
0.387366 0.892576 0.914061
0.386297 0.894118 0.910491
0.386404 0.894652 0.909743
0.387076 0.896056 0.908476
0.388861 0.899947 0.905791
0.414023 0.925566 0.921065
0.931579 0.977905 0.973892
0.992615 0.983246 0.989517
0.997696 0.9823 0.992065
0.38703 0.892012 0.914473
0.385962 0.893385 0.911391
0.385946 0.893584 0.911055
0.386572 0.894957 0.909468
0.388754 0.899535 0.906126
0.412573 0.924575 0.919417
0.914565 0.979309 0.972961
0.990997 0.987518 0.991775
1 0.987381 0.999329
0.0716869 0.306249 0.683497
0.0725261 0.308705 0.684535
0.0790723 0.322866 0.691737
0.106569 0.347173 0.719661
0.492271 0.385077 0.894469
0.909178 0.417563 0.942657
0.910979 0.417884 0.942901
0.910994 0.417868 0.942931
0.911086 0.417823 0.943038
0.071809 0.306188 0.683589
0.0714275 0.306401 0.683314
0.0758831 0.316472 0.688334
0.0875563 0.340475 0.700908
0.474739 0.382559 0.889921
0.908751 0.417044 0.942824
0.910979 0.417884 0.942901
0.910918 0.417914 0.942809
0.91046 0.418143 0.942245
0.0735027 0.311498 0.685771
0.0714275 0.306401 0.683314
0.0714275 0.306401 0.683314
0.084535 0.335622 0.697871
0.449897 0.378912 0.883223
0.900954 0.414069 0.941787
0.911391 0.417655 0.943511
0.911345 0.4177 0.943389
0.910613 0.418067 0.942428
0.0881514 0.360937 0.704005
0.0838788 0.349203 0.699214
0.078706 0.332143 0.692927
0.0771954 0.319478 0.689784
0.376761 0.375998 0.862058
0.871687 0.406287 0.941482
0.911498 0.417609 0.943709
0.911528 0.417578 0.943771
0.910811 0.41796 0.942702
0.145953 0.523583 0.759045
0.14255 0.518242 0.75581
0.139452 0.510781 0.753201
0.131197 0.49015 0.746181
0.240406 0.513848 0.845731
0.764843 0.520516 0.969131
0.944778 0.501091 0.972549
0.940581 0.486992 0.969253
0.937514 0.481682 0.966445
0.239307 0.721569 0.827359
0.236759 0.718486 0.825208
0.234943 0.714794 0.824414
0.229374 0.704234 0.82089
0.215702 0.677638 0.812039
0.657984 0.736812 0.945907
0.961624 0.756359 0.972702
0.965118 0.740887 0.976867
0.963226 0.735943 0.975525
0.365652 0.874754 0.901427
0.362707 0.873289 0.898863
0.359655 0.870787 0.8972
0.350851 0.863142 0.892607
0.327749 0.842298 0.880827
0.509896 0.892714 0.95697
0.910231 0.924895 0.964813
0.977432 0.935225 0.978058
0.976547 0.931365 0.977157
0.386755 0.89218 0.913939
0.385824 0.893248 0.911452
0.385779 0.893309 0.91133
0.385779 0.893309 0.91133
0.385779 0.893309 0.91133
0.401923 0.905959 0.921324
0.896727 0.971283 0.977508
0.988052 0.98291 0.988968
0.990448 0.983902 0.990188
0.386526 0.892439 0.913344
0.385824 0.893248 0.911452
0.385779 0.893309 0.91133
0.385779 0.893309 0.91133
0.385779 0.893309 0.91133
0.400687 0.905577 0.919661
0.858534 0.976364 0.978592
0.989609 0.988464 0.990982
0.999435 0.990143 0.998398
