bundles/resolve-cinematic-luts/Phantom Luts/S5, S1, S1h LUTs/WB Offset - Green & Warm Boost/Jamaica V-Log WBO.cube
TITLE "Generated by Resolve"
LUT_3D_SIZE 5
0.00825513 0.0293278 0.00825513
0.168795 0.0278782 0.0170748
0.561059 0.0404059 0.104845
0.644495 0.0599374 0.197787
0.64651 0.0601511 0.203876
0.00653086 0.153826 0.0431067
0.123934 0.127642 0.0195621
0.540566 0.0345312 0.0742657
0.632883 0.0598917 0.161685
0.632532 0.0598917 0.160601
0.0818647 0.640421 0.336492
0.0776074 0.641398 0.270207
0.608164 0.589395 0.116335
0.907485 0.509041 0.29189
0.890303 0.466087 0.281621
0.382193 0.950362 0.797116
0.382025 0.952667 0.788205
0.387106 0.965408 0.755291
0.980743 0.978973 0.731075
0.997772 0.97377 0.723903
0.383566 0.950515 0.801495
0.38201 0.950668 0.795209
0.383017 0.960739 0.759182
0.953506 0.980011 0.764553
0.991409 0.985656 0.805997
0.00849927 0.0336614 0.0933089
0.186526 0.035523 0.11632
0.586358 0.0395972 0.169802
0.659815 0.063859 0.242817
0.66244 0.0650492 0.249195
0.0183719 0.134325 0.120073
0.105806 0.113695 0.0902876
0.558114 0.0394903 0.120424
0.645335 0.060029 0.20032
0.646998 0.0603494 0.204959
0.0779278 0.625238 0.382162
0.071046 0.625513 0.321309
0.603861 0.583154 0.112902
0.903075 0.49688 0.289143
0.884031 0.451728 0.27837
0.382101 0.948425 0.802731
0.381964 0.950576 0.794995
0.385138 0.963058 0.757717
0.979538 0.9776 0.722271
0.998093 0.971359 0.711574
0.383261 0.948272 0.807279
0.381918 0.94847 0.80177
0.38291 0.960372 0.760525
0.950011 0.97998 0.76437
0.99115 0.985763 0.805798
0 0.0638895 0.409873
0.154421 0.0456855 0.441947
0.633921 0.0687419 0.461433
0.717372 0.101808 0.434852
0.717418 0.10219 0.436957
0 0.10988 0.395941
0.00646983 0.0666819 0.407782
0.621653 0.0634623 0.437705
0.714992 0.0988632 0.405478
0.715053 0.0991379 0.40708
0.0767834 0.574258 0.527367
0.0691081 0.568322 0.509957
0.583658 0.560754 0.481331
0.952209 0.449699 0.450309
0.934005 0.407141 0.433005
0.382193 0.939116 0.827588
0.382193 0.941634 0.820798
0.381994 0.952377 0.78912
0.974548 0.970504 0.745266
0.996139 0.963561 0.735927
0.382818 0.938445 0.831693
0.382254 0.939803 0.825422
0.381903 0.950668 0.794781
0.944564 0.979339 0.808362
0.990936 0.984817 0.844099
0.0467231 0.238483 0.651453
0.0480812 0.242802 0.653437
0.553964 0.260792 0.836637
0.888594 0.356847 0.894118
0.895094 0.369543 0.904845
0.0415503 0.228931 0.645274
0.043122 0.230503 0.646891
0.510628 0.256321 0.825742
0.871992 0.331716 0.868803
0.878218 0.340429 0.87686
0.095964 0.498955 0.706249
0.0916609 0.483894 0.704021
0.379721 0.482261 0.849424
0.948699 0.42388 0.89778
0.930465 0.390982 0.877104
0.38233 0.903746 0.88922
0.378408 0.903471 0.881895
0.362936 0.894911 0.864454
0.950912 0.945724 0.924987
0.981247 0.943648 0.926711
0.388556 0.906401 0.897414
0.38793 0.907912 0.893568
0.38584 0.914946 0.879698
0.940124 0.981353 0.957305
0.99176 0.988113 0.983673
0.0716869 0.306249 0.683497
0.0790723 0.322866 0.691737
0.492271 0.385077 0.894469
0.910979 0.417884 0.942901
0.911086 0.417823 0.943038
0.0735027 0.311498 0.685771
0.0714275 0.306401 0.683314
0.449897 0.378912 0.883223
0.911391 0.417655 0.943511
0.910613 0.418067 0.942428
0.145953 0.523583 0.759045
0.139452 0.510781 0.753201
0.240406 0.513848 0.845731
0.944778 0.501091 0.972549
0.937514 0.481682 0.966445
0.365652 0.874754 0.901427
0.359655 0.870787 0.8972
0.327749 0.842298 0.880827
0.910231 0.924895 0.964813
0.976547 0.931365 0.977157
0.386526 0.892439 0.913344
0.385779 0.893309 0.91133
0.385779 0.893309 0.91133
0.858534 0.976364 0.978592
0.999435 0.990143 0.998398
