bundles/resolve-cinematic-luts/Phantom Luts/S5, S1, S1h LUTs/WB Offset - Green & Warm Boost/Jamaica V-Log WBO.cube
TITLE "Generated by Resolve"
LUT_3D_SIZE 33
0.00825513 0.0293278 0.00825513
0.00822461 0.0292973 0.00822461
0.00819409 0.0292668 0.00817884
0.0259709 0.0294347 0.00781262
0.0554055 0.0292058 0.00805676
0.0865797 0.0289006 0.0091249
0.112459 0.0285954 0.0108339
0.138247 0.0284733 0.0134737
0.168795 0.0278782 0.0170748
0.206043 0.0273747 0.021912
0.250401 0.027039 0.0277714
0.303761 0.0270695 0.0351415
0.36286 0.0271763 0.0412451
0.419059 0.0280156 0.0484932
0.471534 0.0306706 0.0636149
0.51783 0.0347143 0.0823835
0.561059 0.0404059 0.104845
0.599405 0.0465095 0.127932
0.619303 0.0479438 0.14757
0.635828 0.0574502 0.175647
0.641138 0.06009 0.186358
0.642206 0.0600443 0.189899
0.643091 0.0600137 0.192889
0.643839 0.0599832 0.195453
0.644495 0.0599374 0.197787
0.644953 0.0599222 0.199344
0.645289 0.0598306 0.200763
0.645685 0.0598611 0.202014
0.646036 0.059968 0.202976
0.646265 0.0600443 0.203525
0.646433 0.0601053 0.203876
0.646494 0.0601358 0.203967
0.64651 0.0601511 0.203876
0.00819409 0.0292668 0.00817884
0.00820935 0.0292821 0.00820935
0.00819409 0.0292668 0.00817884
0.0173495 0.0294499 0.00802625
0.0433967 0.0295415 0.00799573
0.0751202 0.0293278 0.00854505
0.10341 0.0289464 0.00976577
0.13048 0.0287022 0.0123293
0.162005 0.0281529 0.016144
0.200107 0.0274052 0.0211032
0.245212 0.0270085 0.0271153
0.298833 0.0265965 0.0331121
0.358144 0.0262303 0.0380865
0.413962 0.0258793 0.0393378
0.464576 0.0275425 0.0505379
0.511437 0.0314641 0.0694438
0.555322 0.0365148 0.0937514
0.594827 0.0439612 0.119265
0.616846 0.0475929 0.141649
0.634028 0.0573129 0.170459
0.639735 0.0602121 0.181598
0.640742 0.06009 0.185077
0.641672 0.0600748 0.188113
0.642512 0.0600443 0.19089
0.643137 0.060029 0.193011
0.643671 0.0599985 0.194842
0.643992 0.0599069 0.196155
0.644251 0.0598154 0.197269
0.64445 0.0597696 0.198032
0.644541 0.0597543 0.198398
0.644602 0.0597238 0.198627
0.644617 0.0596933 0.198627
0.644572 0.0596933 0.198459
0.00819409 0.0292668 0.00817884
0.00820935 0.0292821 0.00820935
0.00819409 0.0292668 0.00817884
0.00828565 0.0292058 0.00810254
0.0283665 0.0304723 0.00852979
0.0586404 0.0310216 0.00854505
0.0897993 0.0307012 0.00843824
0.119936 0.0300298 0.0105287
0.153262 0.0289158 0.013901
0.192508 0.0279088 0.0198215
0.238727 0.0273136 0.0261234
0.293584 0.026627 0.0324712
0.354101 0.0261997 0.0377356
0.41181 0.0265049 0.0419165
0.462669 0.0274662 0.0500801
0.507027 0.0296178 0.0612955
0.547707 0.0331121 0.0797894
0.588113 0.0391241 0.107942
0.615808 0.0485695 0.136461
0.631662 0.0569009 0.164248
0.638178 0.0603037 0.176501
0.639261 0.0602274 0.180011
0.640162 0.0601663 0.183062
0.64094 0.06009 0.185733
0.641627 0.06009 0.18793
0.642206 0.0600443 0.189883
0.642634 0.060029 0.191318
0.642954 0.060029 0.192401
0.643198 0.060029 0.193194
0.643366 0.0599985 0.193774
0.643488 0.0599832 0.194171
0.643488 0.0599832 0.194156
0.643442 0.059968 0.193942
0.00849927 0.0312505 0.0100404
0.00796521 0.0305791 0.00834669
0.00860609 0.0302892 0.00857557
0.00923171 0.0300908 0.00828565
0.0199588 0.0314488 0.0087892
0.0427253 0.0334173 0.00993362
0.0715953 0.0342565 0.0103761
0.104356 0.0335393 0.0102235
0.140719 0.0314794 0.0119173
0.181781 0.0296483 0.0165713
0.230503 0.0285801 0.0240635
0.28748 0.0272068 0.0314031
0.349233 0.0264439 0.0371099
0.408804 0.0265354 0.0417029
0.460792 0.0276036 0.0507362
0.506493 0.0302129 0.0637522
0.546777 0.0331731 0.0792248
0.580499 0.0355077 0.0947433
0.608286 0.0444953 0.125963
0.629221 0.0563821 0.158145
0.636393 0.0603037 0.17113
0.637568 0.0603189 0.174624
0.638575 0.0603037 0.177768
0.639399 0.0602426 0.180438
0.64007 0.0601663 0.182727
0.64062 0.0601053 0.184634
0.641032 0.06009 0.185992
0.641352 0.06009 0.18706
0.641642 0.0600748 0.187976
0.641825 0.0600748 0.188571
0.641947 0.0600443 0.188968
0.641993 0.0600443 0.189075
0.641962 0.060029 0.188937
0.00935378 0.0472267 0.0172274
0.00746166 0.0455634 0.0127565
0.00833143 0.0432441 0.0123751
0.0140536 0.040177 0.00994888
0.0206149 0.0376135 0.0101625
0.0349126 0.0393683 0.011429
0.0571603 0.0394598 0.012314
0.0889296 0.0377661 0.012665
0.126116 0.0358587 0.0122835
0.170382 0.032929 0.0146487
0.220951 0.0307012 0.0200504
0.278828 0.0292363 0.0285801
0.343954 0.0273747 0.0354314
0.405188 0.0265965 0.0412146
0.458351 0.0275425 0.0502327
0.504631 0.0301061 0.0631571
0.545907 0.0333104 0.0796979
0.581735 0.0364843 0.098085
0.607599 0.0454719 0.121691
0.626688 0.0559243 0.151781
0.634363 0.0601053 0.165591
0.635645 0.0602426 0.169085
0.636805 0.0603037 0.172381
0.63769 0.0603189 0.174975
0.638437 0.0603037 0.17734
0.639048 0.0602731 0.179278
0.63946 0.0602274 0.180667
0.639811 0.0601968 0.181857
0.64007 0.0601816 0.182712
0.640238 0.0601663 0.183246
0.640345 0.0601358 0.183612
0.640406 0.0601358 0.183734
0.640406 0.0601358 0.183642
0.0103609 0.0665446 0.0261997
0.00688182 0.0643015 0.0204013
0.00709545 0.0616922 0.0187533
0.0146334 0.0578317 0.0159762
0.0271916 0.0529488 0.0132448
0.0420539 0.052079 0.0137942
0.0598764 0.0540169 0.0155642
0.0904707 0.0525216 0.0185245
0.124987 0.0491646 0.0184787
0.166155 0.0434272 0.0177005
0.213413 0.0354162 0.017792
0.270558 0.0321202 0.0252537
0.337819 0.0291295 0.0315709
0.402197 0.0278477 0.0382849
0.456474 0.0278782 0.0490883
0.502983 0.0299687 0.0624552
0.544686 0.0331884 0.0790723
0.580819 0.0363012 0.0974746
0.607553 0.0450599 0.122759
0.626261 0.0559548 0.150454
0.632532 0.0598764 0.160769
0.6336 0.060029 0.163531
0.634806 0.0601511 0.166827
0.635813 0.0602579 0.169512
0.636652 0.0603037 0.171893
0.637308 0.0603189 0.173846
0.637781 0.0603189 0.175265
0.638163 0.0603037 0.17644
0.638453 0.0603037 0.17734
0.638651 0.0602884 0.177951
0.638788 0.0602884 0.178363
0.638849 0.0602731 0.178485
0.638834 0.0602579 0.178408
0.00970474 0.0910353 0.0302739
0.00476081 0.0890211 0.0246128
0.00491341 0.0854353 0.024033
0.00926223 0.0810712 0.0229953
0.0253758 0.0750591 0.0184482
0.0429694 0.0706035 0.016495
0.0649577 0.0702831 0.0173495
0.0916762 0.0718853 0.0199435
0.127443 0.068986 0.0243229
0.169665 0.0621653 0.0248875
0.218601 0.0535286 0.0232853
0.273472 0.0415351 0.0196689
0.333349 0.0327153 0.0276799
0.397772 0.0294347 0.0338445
0.454002 0.0287938 0.0463264
0.501045 0.0299229 0.061738
0.543252 0.0330663 0.0783856
0.579828 0.0361028 0.0968032
0.607034 0.044831 0.122072
0.62591 0.0556344 0.150072
0.632776 0.0598917 0.161425
0.632471 0.0598764 0.160601
0.632746 0.0599069 0.161288
0.633753 0.0600443 0.163958
0.634638 0.0601358 0.166339
0.63534 0.0601816 0.168246
0.635874 0.0602426 0.169726
0.636332 0.0602731 0.170977
0.636637 0.0602884 0.171893
0.636866 0.0602884 0.172534
0.637018 0.0603037 0.172946
0.637095 0.0603037 0.173129
0.63711 0.0603037 0.173144
0.00880446 0.119463 0.0354925
0.00164797 0.117601 0.0275273
0.000549325 0.114961 0.0254368
0.00248722 0.111803 0.0260014
0.0171817 0.107134 0.0225834
0.0373693 0.100206 0.0192264
0.0606088 0.0973831 0.0186465
0.0929274 0.0968643 0.0198062
0.125948 0.097612 0.0227665
0.170977 0.0920272 0.0275273
0.225818 0.0775769 0.0290532
0.281849 0.0653849 0.0265812
0.343328 0.0501717 0.0226902
0.400259 0.035462 0.0265049
0.45153 0.0311894 0.0414588
0.499123 0.03122 0.0586404
0.54197 0.0330205 0.0778515
0.578836 0.035874 0.0962387
0.606363 0.0444953 0.121248
0.625208 0.0552682 0.148791
0.633127 0.0599374 0.162325
0.633097 0.0599222 0.162249
0.632853 0.0598917 0.161639
0.632593 0.0598764 0.160922
0.632502 0.0598764 0.160678
0.632868 0.0599222 0.161593
0.633387 0.0599985 0.162936
0.633844 0.0600443 0.164202
0.63418 0.0600748 0.165118
0.634455 0.0601053 0.16582
0.634638 0.0601053 0.166323
0.634745 0.0601205 0.166583
0.634775 0.0601205 0.166629
0.00653086 0.153826 0.0431067
0 0.15227 0.0328222
0 0.150134 0.0271763
0 0.14728 0.0279698
0.00314336 0.144106 0.0264591
0.0244297 0.138781 0.0208438
0.0505837 0.132921 0.0191806
0.0845502 0.129488 0.0199283
0.123934 0.127642 0.0195621
0.168933 0.126909 0.023621
0.224521 0.118349 0.0298466
0.293462 0.0955367 0.0328985
0.354955 0.078584 0.0304875
0.412284 0.0597238 0.0286717
0.459159 0.0414893 0.0314183
0.498009 0.035172 0.0526131
0.540566 0.0345312 0.0742657
0.57734 0.0357671 0.0953384
0.605447 0.0440528 0.120195
0.624338 0.0547494 0.147311
0.633127 0.0599374 0.162325
0.633127 0.0599374 0.162325
0.633127 0.0599374 0.162325
0.633036 0.0599222 0.162097
0.632883 0.0598917 0.161685
0.632746 0.0598917 0.161349
0.63267 0.0598764 0.161135
0.632624 0.0598764 0.160998
0.632578 0.0598764 0.160891
0.632532 0.0598611 0.160769
0.632517 0.0598764 0.160662
0.632517 0.0598917 0.160632
0.632532 0.0598917 0.160601
0.00466926 0.195056 0.0540322
0 0.193942 0.0413825
0 0.192935 0.033463
0 0.191394 0.0289464
0 0.188052 0.0306554
0.00205997 0.184894 0.0250553
0.0276036 0.17937 0.0183566
0.0672313 0.17351 0.0170443
0.109941 0.16936 0.0186465
0.161807 0.16582 0.0176699
0.220645 0.162371 0.0234531
0.287846 0.151308 0.0322271
0.367803 0.122408 0.0383459
0.428275 0.102434 0.0392004
0.478309 0.0801556 0.0413214
0.51429 0.0556191 0.0459449
0.544579 0.0424048 0.0634318
0.577371 0.0392004 0.0901198
0.603357 0.0437934 0.115618
0.623255 0.0541848 0.145403
0.633127 0.0599374 0.162325
0.633127 0.0599374 0.162325
0.633127 0.0599374 0.162325
0.633127 0.0599374 0.162325
0.633127 0.0599374 0.162325
0.633127 0.0599374 0.162325
0.633097 0.0599222 0.162249
0.633021 0.0599222 0.162066
0.632959 0.0599069 0.161913
0.632898 0.0598917 0.161746
0.632837 0.0598917 0.161563
0.632776 0.0598917 0.161349
0.632731 0.0598917 0.161181
0.000350958 0.243595 0.0709087
0 0.243244 0.056733
0 0.241932 0.0471046
0 0.241657 0.0380407
0 0.239902 0.0341497
0 0.237186 0.0350195
0 0.234699 0.0263676
0.0244297 0.229114 0.0159762
0.0837568 0.223133 0.0146487
0.139345 0.21622 0.0168307
0.206577 0.210437 0.0154879
0.281987 0.204349 0.0237736
0.359121 0.19205 0.0365606
0.443488 0.160128 0.0491493
0.500618 0.140154 0.0552682
0.541131 0.117174 0.0619821
0.569879 0.0838178 0.065568
0.588739 0.0542611 0.077821
0.604135 0.0476844 0.108019
0.621454 0.0550393 0.138933
0.633661 0.060914 0.161852
0.633127 0.0599374 0.162325
0.633127 0.0599374 0.162325
0.633127 0.0599374 0.162325
0.633127 0.0599374 0.162325
0.633127 0.0599374 0.162325
0.633127 0.0599374 0.162325
0.633127 0.0599374 0.162325
0.633127 0.0599374 0.162325
0.633112 0.0599374 0.162295
0.633097 0.0599222 0.162249
0.633066 0.0599222 0.162127
0.633036 0.0599222 0.16199
0 0.301122 0.0905928
0 0.300664 0.0778058
0 0.299367 0.0666361
0 0.299001 0.0591745
0 0.299184 0.0476997
0 0.297871 0.042649
0 0.295796 0.045243
0 0.293004 0.0311894
0.0264439 0.287037 0.0153811
0.10312 0.280797 0.0133516
0.174884 0.270115 0.0158999
0.260884 0.261784 0.0133211
0.351263 0.25417 0.0259403
0.431205 0.244327 0.0447395
0.515846 0.212253 0.0664378
0.569253 0.18941 0.0801251
0.607279 0.168185 0.0897231
0.633417 0.133913 0.0972
0.625086 0.0816815 0.0996109
0.624613 0.0653697 0.12871
0.635264 0.0662852 0.154864
0.634165 0.063386 0.15816
0.634058 0.0623178 0.160082
0.63386 0.0613413 0.161517
0.633524 0.0606851 0.161975
0.633204 0.0600748 0.16228
0.633127 0.0599374 0.162325
0.633127 0.0599374 0.162325
0.633127 0.0599374 0.162325
0.633112 0.0599374 0.162295
0.633097 0.0599222 0.162249
0.633066 0.0599222 0.162127
0.633036 0.0599222 0.16199
0 0.363851 0.115175
0 0.3635 0.103395
0 0.362768 0.0918898
0 0.362203 0.0852064
0 0.362951 0.0801709
0 0.363348 0.06804
0 0.362478 0.062089
0 0.359762 0.0639811
0 0.356252 0.043061
0.0380865 0.352453 0.0184329
0.130312 0.347097 0.0143587
0.219837 0.332204 0.0170291
0.324178 0.321843 0.0139467
0.421637 0.313313 0.0327306
0.500343 0.308003 0.0572519
0.584085 0.282109 0.0910964
0.642588 0.252522 0.115785
0.677562 0.231235 0.127428
0.697948 0.196292 0.137942
0.676112 0.143587 0.141039
0.649989 0.0867933 0.144961
0.642039 0.0753185 0.147204
0.639597 0.0724651 0.150057
0.637354 0.0686351 0.154559
0.634394 0.0651713 0.154971
0.634134 0.0644236 0.155871
0.634058 0.063859 0.156863
0.634104 0.0635386 0.157656
0.634119 0.0633097 0.158175
0.634089 0.0631266 0.15848
0.634043 0.0629587 0.158709
0.633997 0.0628061 0.158846
0.633921 0.0627146 0.158831
0 0.428504 0.151263
0 0.428397 0.140063
0 0.427878 0.128283
0 0.427878 0.118471
0 0.427985 0.113283
0 0.428534 0.109819
0 0.429572 0.100282
0 0.429175 0.0926986
0 0.426444 0.0927291
0 0.422477 0.0671244
0.0577249 0.421378 0.0312505
0.168826 0.415686 0.0218662
0.274891 0.396155 0.0241855
0.391333 0.385092 0.0223087
0.492897 0.377462 0.0479286
0.568948 0.377401 0.0789044
0.652247 0.35964 0.123278
0.717174 0.324422 0.15761
0.751553 0.303288 0.172122
0.76112 0.271351 0.187015
0.736248 0.219928 0.186587
0.707683 0.174517 0.170764
0.680919 0.135485 0.153063
0.6607 0.104952 0.140948
0.655009 0.0947127 0.143908
0.650309 0.087068 0.145556
0.646296 0.081117 0.146288
0.643091 0.0768444 0.146593
0.641611 0.0749828 0.147311
0.641062 0.0743267 0.148074
0.640513 0.0737774 0.148425
0.640146 0.0733806 0.148669
0.639918 0.0731975 0.148775
0.0125582 0.496208 0.199985
0.0114748 0.496284 0.190249
0.0105592 0.496681 0.17966
0.00975052 0.496254 0.169085
0.00883497 0.496101 0.159747
0.00782788 0.496117 0.154406
0.00630198 0.496468 0.152438
0.00535592 0.498024 0.147173
0.00534066 0.498589 0.136797
0.00479133 0.49604 0.134142
0.00831617 0.490654 0.104265
0.091722 0.494026 0.054612
0.221637 0.487343 0.0404364
0.342947 0.464469 0.0426337
0.463813 0.452293 0.0422217
0.564034 0.446067 0.0743877
0.637247 0.44921 0.108492
0.720851 0.437537 0.158541
0.789807 0.405402 0.200732
0.81886 0.378225 0.220874
0.820432 0.34905 0.234989
0.805097 0.318456 0.231373
0.789807 0.295354 0.22211
0.775326 0.273747 0.213275
0.762493 0.25478 0.205386
0.751492 0.238926 0.198322
0.74168 0.224628 0.191943
0.733486 0.213001 0.186572
0.726802 0.203433 0.182254
0.721752 0.196017 0.17911
0.718059 0.190723 0.176761
0.716121 0.186282 0.177081
0.713909 0.183169 0.175708
0.0424964 0.567285 0.262684
0.0416419 0.567788 0.254597
0.0406653 0.56762 0.245136
0.0400549 0.567361 0.23505
0.0394446 0.566979 0.225345
0.0391089 0.566857 0.21651
0.0387427 0.56701 0.209735
0.0378271 0.567712 0.207294
0.0366827 0.568917 0.202914
0.0363622 0.569818 0.193164
0.0351568 0.566674 0.189044
0.040589 0.560784 0.149569
0.147051 0.570214 0.0894331
0.292882 0.56051 0.0720226
0.417517 0.533715 0.0725872
0.53637 0.520882 0.0746319
0.633555 0.51574 0.109941
0.705348 0.520592 0.147814
0.785657 0.515694 0.198108
0.852537 0.490166 0.242069
0.877134 0.462303 0.266255
0.874205 0.431556 0.272877
0.865003 0.415503 0.267201
0.856962 0.401862 0.262196
0.849363 0.389197 0.257664
0.842634 0.378042 0.25362
0.836698 0.368429 0.250065
0.831708 0.360449 0.247059
0.827543 0.353597 0.244694
0.825284 0.349844 0.243503
0.822492 0.345525 0.241794
0.820172 0.342016 0.24036
0.818433 0.339529 0.239155
0.0818647 0.640421 0.336492
0.0809644 0.640757 0.329519
0.0799725 0.640894 0.321248
0.0792096 0.640803 0.312703
0.0785382 0.640543 0.303471
0.0784924 0.640925 0.295018
0.0782177 0.640848 0.286473
0.078172 0.640955 0.277531
0.0776074 0.641398 0.270207
0.0760357 0.64242 0.265843
0.0754101 0.643259 0.259495
0.0737011 0.64004 0.254643
0.0834363 0.633844 0.198993
0.222354 0.648966 0.135439
0.376883 0.631418 0.117113
0.495857 0.602502 0.112963
0.608164 0.589395 0.116335
0.700877 0.585138 0.154818
0.769589 0.5906 0.195575
0.841703 0.590692 0.239475
0.897719 0.573724 0.280735
0.920607 0.548913 0.301854
0.91606 0.53431 0.298039
0.911543 0.520699 0.294667
0.907485 0.509041 0.29189
0.903914 0.499321 0.289616
0.900664 0.490867 0.287617
0.898024 0.483925 0.286122
0.896361 0.479255 0.285313
0.894301 0.474495 0.284108
0.892531 0.470634 0.28304
0.891493 0.468132 0.282506
0.890303 0.466087 0.281621
0.127733 0.712077 0.416281
0.126802 0.712383 0.410697
0.12578 0.712474 0.403815
0.125093 0.712581 0.396841
0.124697 0.712917 0.390112
0.124147 0.712673 0.382361
0.124117 0.712764 0.374426
0.124254 0.712993 0.365423
0.124315 0.713176 0.353628
0.124422 0.713512 0.340566
0.123598 0.714824 0.335821
0.122438 0.714778 0.331914
0.121447 0.71107 0.32166
0.143267 0.709087 0.248203
0.317113 0.727184 0.188647
0.462257 0.701411 0.167391
0.572427 0.670481 0.159411
0.67628 0.655451 0.16733
0.762951 0.65098 0.206867
0.827878 0.657603 0.246677
0.884642 0.661524 0.284169
0.929168 0.652308 0.31841
0.939956 0.637751 0.325567
0.938766 0.627085 0.323003
0.937377 0.61767 0.320577
0.935836 0.609064 0.318273
0.93489 0.603067 0.316899
0.933791 0.597543 0.315435
0.933028 0.593668 0.314443
0.932464 0.590356 0.313664
0.93167 0.587472 0.312673
0.931075 0.58529 0.31191
0.930556 0.584619 0.311315
0.180529 0.780148 0.497337
0.179812 0.780453 0.49305
0.179095 0.780743 0.487663
0.178714 0.781186 0.482994
0.178042 0.781186 0.47747
0.17763 0.781201 0.47187
0.177295 0.781155 0.465812
0.177203 0.781445 0.458915
0.177737 0.782452 0.450263
0.177874 0.782895 0.436652
0.178454 0.783627 0.419821
0.17792 0.784649 0.410208
0.175647 0.782513 0.406455
0.17641 0.779477 0.390478
0.227878 0.789197 0.306767
0.422538 0.80029 0.250416
0.546105 0.766735 0.226291
0.643458 0.734936 0.21503
0.739895 0.71899 0.226841
0.820539 0.715251 0.26508
0.874754 0.722118 0.301274
0.919875 0.729824 0.335576
0.948379 0.725093 0.354986
0.947387 0.716899 0.351141
0.946944 0.709972 0.348455
0.946532 0.70457 0.346334
0.946242 0.699825 0.344671
0.945571 0.695186 0.342763
0.945541 0.692058 0.341817
0.945327 0.689464 0.34078
0.945205 0.687144 0.33991
0.944869 0.685893 0.339086
0.94432 0.684749 0.338201
0.236622 0.842435 0.577569
0.236652 0.843122 0.574578
0.236118 0.843336 0.570581
0.235599 0.843397 0.566293
0.23505 0.843366 0.562097
0.234684 0.843427 0.5579
0.234333 0.843381 0.553567
0.234607 0.843931 0.549249
0.234745 0.844404 0.542657
0.234943 0.845029 0.53315
0.235538 0.845914 0.519554
0.237034 0.847013 0.50106
0.238315 0.847364 0.483803
0.236149 0.844968 0.478126
0.239063 0.843183 0.457572
0.332067 0.867964 0.377661
0.524025 0.864988 0.324132
0.624109 0.83064 0.299046
0.710597 0.797589 0.281804
0.799542 0.781262 0.29485
0.869734 0.777752 0.330892
0.913771 0.784497 0.361868
0.947387 0.794934 0.394263
0.95642 0.791699 0.399649
0.955734 0.786603 0.395636
0.955047 0.781964 0.391897
0.954498 0.777874 0.388785
0.954009 0.774395 0.386145
0.95378 0.771664 0.384207
0.953552 0.769757 0.382773
0.953307 0.768292 0.381552
0.953338 0.767117 0.380667
0.953231 0.766186 0.379904
0.288121 0.88986 0.649607
0.288029 0.890181 0.647089
0.287755 0.890394 0.644038
0.287404 0.890547 0.640742
0.287053 0.890639 0.637552
0.286748 0.890745 0.634394
0.286839 0.891127 0.631754
0.286473 0.891157 0.628153
0.286244 0.891356 0.623407
0.28629 0.891905 0.61709
0.286732 0.892866 0.608316
0.2878 0.894392 0.595728
0.289876 0.89633 0.576425
0.289662 0.89575 0.562066
0.289326 0.894255 0.546487
0.302083 0.899031 0.516365
0.439323 0.932082 0.452262
0.616068 0.919005 0.412955
0.696986 0.8869 0.387503
0.772595 0.856519 0.365164
0.855131 0.841596 0.380133
0.913466 0.837537 0.410071
0.946441 0.844129 0.432258
0.967605 0.852796 0.455116
0.967224 0.849332 0.451637
0.966308 0.845777 0.448096
0.96556 0.842466 0.444846
0.964813 0.839841 0.44213
0.96437 0.838254 0.440497
0.964233 0.837003 0.439414
0.964065 0.835431 0.438132
0.96408 0.834104 0.437186
0.964309 0.833112 0.436652
0.330694 0.921355 0.713207
0.330556 0.921569 0.711513
0.330343 0.921859 0.708995
0.330205 0.922179 0.706508
0.330175 0.922515 0.704509
0.329931 0.922683 0.702159
0.329702 0.92285 0.699855
0.329366 0.922972 0.697276
0.328893 0.923125 0.693431
0.328634 0.923552 0.688823
0.328969 0.92459 0.683268
0.329503 0.92604 0.674876
0.329976 0.927642 0.662257
0.330983 0.929503 0.645762
0.329091 0.928328 0.636194
0.335439 0.93228 0.603128
0.371466 0.948302 0.567941
0.541085 0.978515 0.533578
0.694545 0.962661 0.505653
0.76289 0.933043 0.481788
0.830472 0.905592 0.460624
0.902602 0.89134 0.47097
0.953323 0.886702 0.4963
0.977188 0.892149 0.512276
0.983627 0.89398 0.515633
0.982879 0.891417 0.511147
0.98201 0.889296 0.506859
0.981399 0.887755 0.504036
0.980438 0.886122 0.500969
0.979355 0.884993 0.498543
0.978821 0.884153 0.496788
0.978637 0.883207 0.49572
0.978882 0.882597 0.495277
0.362966 0.940017 0.765438
0.362768 0.940139 0.764096
0.3626 0.940429 0.762142
0.362371 0.940612 0.760418
0.362203 0.940871 0.758694
0.362005 0.9411 0.756893
0.361547 0.941131 0.754971
0.361288 0.941268 0.753231
0.36083 0.941405 0.750774
0.360647 0.941878 0.747875
0.360265 0.942458 0.743542
0.360143 0.943496 0.737911
0.360067 0.94493 0.729992
0.360479 0.947173 0.718318
0.360067 0.94815 0.708782
0.360601 0.950393 0.692973
0.380392 0.964492 0.651987
0.472007 0.994339 0.629633
0.63714 0.998932 0.613413
0.765774 0.991302 0.595209
0.824994 0.964828 0.574151
0.880491 0.943954 0.55375
0.938872 0.93228 0.558862
0.978714 0.927947 0.57821
0.996338 0.929793 0.58999
0.998337 0.928023 0.587335
0.998001 0.925872 0.583291
0.997375 0.923934 0.579629
0.996796 0.922774 0.576532
0.995834 0.921813 0.573892
0.995026 0.921294 0.572274
0.994797 0.920638 0.570916
0.994919 0.920272 0.570916
0.382086 0.95082 0.795132
0.381888 0.950927 0.794018
0.381949 0.951324 0.792752
0.381994 0.951736 0.79144
0.382055 0.952071 0.790433
0.382025 0.952316 0.78941
0.38204 0.95259 0.788525
0.381979 0.952865 0.787366
0.381933 0.953216 0.785962
0.381933 0.953643 0.78439
0.382055 0.954467 0.781811
0.382239 0.95552 0.778576
0.38265 0.957092 0.774014
0.383322 0.959274 0.767514
0.38349 0.960967 0.760311
0.381826 0.960723 0.753552
0.387396 0.968994 0.730953
0.435325 0.995407 0.692897
0.566796 0.998932 0.687388
0.717815 0.998932 0.683619
0.831235 0.998932 0.673838
0.882811 0.979736 0.659968
0.923552 0.968307 0.642832
0.96527 0.962066 0.645289
0.991196 0.959609 0.659709
1 0.958389 0.66421
1 0.956771 0.659495
1 0.955428 0.655238
1 0.95433 0.651286
0.999939 0.953719 0.648539
0.999573 0.953246 0.646677
0.999512 0.952712 0.64506
0.999771 0.952117 0.644358
0.382193 0.950362 0.797116
0.381979 0.950408 0.796017
0.381903 0.950652 0.794797
0.381918 0.951034 0.793454
0.382025 0.951507 0.792218
0.38204 0.951812 0.791226
0.38204 0.952041 0.790433
0.381994 0.95227 0.789487
0.382025 0.952667 0.788205
0.381933 0.953124 0.786282
0.381933 0.95375 0.784054
0.381979 0.954681 0.780789
0.382315 0.956176 0.776287
0.382803 0.958175 0.770047
0.383703 0.960769 0.762188
0.384253 0.961929 0.759182
0.387106 0.965408 0.755291
0.40972 0.985214 0.734981
0.513802 0.998932 0.723171
0.654459 0.998932 0.730694
0.783841 0.998932 0.730617
0.878508 0.992844 0.728969
0.922026 0.982315 0.728313
0.953384 0.980285 0.724453
0.980743 0.978973 0.731075
0.994797 0.977768 0.742748
0.997772 0.976791 0.740856
0.998001 0.976074 0.735988
0.997955 0.975219 0.731624
0.997726 0.974868 0.728756
0.997589 0.974487 0.727184
0.997513 0.974029 0.725048
0.997772 0.97377 0.723903
0.382467 0.950301 0.798321
0.382101 0.950179 0.797192
0.381933 0.950317 0.796017
0.381918 0.950576 0.794965
0.38201 0.950957 0.793942
0.38204 0.951308 0.792859
0.382071 0.951629 0.791882
0.382086 0.951904 0.791028
0.382071 0.952255 0.789837
0.381994 0.952667 0.788144
0.381933 0.953277 0.785702
0.381979 0.954192 0.782635
0.382116 0.955444 0.778363
0.382544 0.957366 0.772274
0.383246 0.960037 0.763546
0.383948 0.961685 0.758862
0.385718 0.96379 0.756786
0.401923 0.979599 0.741466
0.488609 0.998932 0.721996
0.626963 0.998932 0.730419
0.750774 0.998932 0.742
0.856641 0.998932 0.747143
0.916014 0.983383 0.758785
0.945418 0.980652 0.763622
0.969314 0.981796 0.770748
0.987961 0.983749 0.794079
0.993683 0.984726 0.804685
0.994034 0.984909 0.803708
0.994034 0.985046 0.802228
0.993835 0.98526 0.800931
0.993667 0.98529 0.799573
0.993561 0.985168 0.797986
0.993622 0.985077 0.79678
0.382666 0.950408 0.79852
0.3823 0.950271 0.797498
0.382132 0.950317 0.796567
0.381964 0.950362 0.795834
0.381979 0.950622 0.794934
0.381994 0.950866 0.794202
0.381979 0.951156 0.793194
0.382071 0.951522 0.792264
0.38204 0.951858 0.791058
0.382071 0.952316 0.789578
0.381979 0.952926 0.787152
0.381964 0.95378 0.784054
0.382116 0.955077 0.779736
0.38233 0.956741 0.774014
0.382956 0.959319 0.765515
0.383566 0.961166 0.759609
0.385122 0.963088 0.757427
0.397391 0.975799 0.745449
0.467781 0.998932 0.722362
0.603845 0.998932 0.72665
0.730266 0.998932 0.741573
