bundles/resolve-cinematic-luts/Phantom Luts/S5, S1, S1h LUTs/WB Offset - Green & Warm Boost/Neutral V-Log WBO.cube
TITLE "Generated by Resolve"
LUT_3D_SIZE 5
0.0087129 0.0087129 0.0087129
0.175265 0.00531014 0.0238346
0.582864 0.0198825 0.127916
0.804776 0 0.231418
0.808179 0 0.241062
0.0120851 0.14786 0.0371862
0.128283 0.128954 0.0144045
0.56318 0.00695811 0.0918746
0.797223 0 0.182986
0.79736 0 0.183261
0.048249 0.593225 0.276524
0.0442969 0.593164 0.210681
0.577966 0.57525 0.0712902
0.954955 0.479637 0.183261
0.956329 0.440177 0.176226
0.168307 0.943694 0.689784
0.168719 0.944717 0.677836
0.178302 0.952392 0.615839
0.957214 0.964446 0.662257
0.971298 0.955734 0.64651
0.168185 0.942824 0.70013
0.168322 0.943801 0.688472
0.169116 0.949203 0.630457
0.921202 0.970184 0.708003
0.972732 0.976837 0.754559
0.0100252 0.0163729 0.108522
0.191928 0.0219425 0.122911
0.603616 0.0173342 0.199374
0.83534 0 0.293812
0.840986 0.000991836 0.303563
0.0179599 0.131472 0.118944
0.118425 0.112718 0.104677
0.572839 0.0138857 0.145846
0.806561 0 0.238636
0.811337 0 0.246113
0.0464485 0.581872 0.331029
0.0437476 0.579599 0.270481
0.57525 0.568856 0.0683146
0.955184 0.466789 0.180743
0.956786 0.424216 0.173297
0.16817 0.942672 0.700984
0.168292 0.943755 0.690013
0.170733 0.95108 0.624689
0.955215 0.961501 0.64976
0.971099 0.951782 0.632212
0.167971 0.941848 0.711223
0.168185 0.942763 0.700236
0.169116 0.949203 0.630457
0.915923 0.969711 0.70782
0.972732 0.976837 0.754559
0 0.0676738 0.452354
0.173175 0.0379644 0.481392
0.656352 0.0691081 0.486824
0.92137 0.0331884 0.543969
0.922744 0.0335546 0.550729
0 0.108675 0.433188
0.011841 0.061677 0.452003
0.637217 0.0646525 0.466407
0.915099 0.0317082 0.512047
0.916259 0.0319829 0.517968
0.0486458 0.549645 0.510353
0.0455482 0.542336 0.500557
0.570611 0.548943 0.513176
0.948577 0.427482 0.477394
0.943435 0.390082 0.472694
0.16672 0.938003 0.755306
0.16701 0.938643 0.747173
0.168276 0.943511 0.692073
0.950957 0.953246 0.705669
0.971481 0.945403 0.698894
0.166125 0.937179 0.765133
0.16669 0.93785 0.756573
0.168246 0.942946 0.697307
0.92256 0.972305 0.796963
0.976822 0.979995 0.829236
0 0.282155 0.821775
0 0.288472 0.828016
0.570108 0.315236 0.897917
0.936309 0.389883 0.926101
0.934401 0.404868 0.933028
0 0.268147 0.807431
0 0.27248 0.815152
0.53051 0.307729 0.88986
0.943297 0.357549 0.91577
0.939864 0.375494 0.921767
0 0.520638 0.796628
0 0.507301 0.805814
0.389212 0.50042 0.886976
0.955108 0.436805 0.886107
0.951095 0.408576 0.879622
0.144991 0.916564 0.883238
0.142046 0.913375 0.879301
0.129519 0.897246 0.859525
0.937606 0.931334 0.920256
0.967315 0.926055 0.91632
0.151843 0.925551 0.906584
0.153353 0.925902 0.901244
0.160159 0.927825 0.868193
0.931136 0.978943 0.951934
0.990265 0.990402 0.983429
0 0.327581 0.847898
0 0.346517 0.86424
0.532204 0.395834 0.933394
0.934401 0.404868 0.933028
0.934401 0.404868 0.933028
0 0.332052 0.849195
0 0.327581 0.847898
0.489845 0.389456 0.927275
0.934401 0.404868 0.933028
0.934401 0.404868 0.933028
0 0.556848 0.899001
0 0.544442 0.89662
0.247608 0.530159 0.906645
0.947494 0.49575 0.946441
0.945113 0.478202 0.943908
0.0867781 0.907637 0.936996
0.0771344 0.903166 0.93666
0.0343938 0.876982 0.935546
0.906065 0.912245 0.963775
0.969268 0.915679 0.967529
0.125139 0.925719 0.940108
0.125139 0.925719 0.940108
0.125139 0.925719 0.940108
0.846418 0.968444 0.969329
0.994385 0.994385 0.994415
