bundles/resolve-cinematic-luts/Phantom Luts/S5, S1, S1h LUTs/WB Offset - Green & Warm Boost/Neutral V-Log WBO.cube
TITLE "Generated by Resolve"
LUT_3D_SIZE 33
0.0087129 0.0087129 0.0087129
0.0087129 0.0087129 0.0087129
0.0087129 0.0087129 0.0087129
0.0344549 0.00895705 0.00865187
0.0651865 0.00816358 0.00994888
0.0956588 0.0075227 0.0122988
0.119463 0.00708019 0.0150301
0.144686 0.00657664 0.0188602
0.175265 0.00531014 0.0238346
0.212177 0.00440986 0.0304875
0.256275 0.00401312 0.0385443
0.308309 0.00486763 0.0485389
0.365484 0.00440986 0.0562448
0.421332 0.00569162 0.067155
0.475425 0.00975052 0.0856031
0.527489 0.0143587 0.105013
0.582864 0.0198825 0.127916
0.644984 0.0197604 0.150851
0.718151 0.00375372 0.172
0.788632 0 0.204379
0.803571 0 0.217121
0.804013 0 0.221485
0.804334 0 0.225315
0.804593 0 0.22855
0.804776 0 0.231418
0.804898 0 0.233585
0.804959 0 0.235447
0.805585 0 0.237064
0.806424 0 0.238407
0.807126 0 0.239338
0.807614 0 0.240101
0.807965 0 0.240696
0.808179 0 0.241062
0.0087129 0.0087129 0.0087129
0.0087129 0.0087129 0.0087129
0.0087129 0.0087129 0.0087129
0.0226139 0.00921645 0.00865187
0.0539101 0.00827039 0.00924697
0.0857099 0.00769055 0.0113222
0.11133 0.00706493 0.0140383
0.137209 0.00669871 0.0178531
0.16878 0.00576791 0.0227359
0.206363 0.00444038 0.0294499
0.250706 0.00361639 0.0369726
0.302693 0.0024567 0.0447852
0.359747 0.00143435 0.051545
0.415839 0.00111391 0.0568704
0.469078 0.0033875 0.0710307
0.522347 0.00807202 0.0913405
0.579507 0.0125887 0.116136
0.643214 0.0152438 0.141451
0.713481 0.00399786 0.164446
0.785946 0 0.196963
0.802747 0 0.210513
0.803311 0 0.215
0.803769 0 0.218952
0.804074 0 0.222477
0.804334 0 0.225238
0.804532 0 0.227604
0.804654 0 0.229389
0.804715 0 0.230854
0.804776 0 0.232013
0.804837 0 0.232898
0.804898 0 0.233433
0.804898 0 0.233906
0.804898 0 0.234226
0.0087129 0.0087129 0.0087129
0.0087129 0.0087129 0.0087129
0.0087129 0.0087129 0.0087129
0.00895705 0.00869764 0.00869764
0.0380255 0.0115053 0.00941482
0.068925 0.0108949 0.00996414
0.0999771 0.00926223 0.0109407
0.12845 0.00822461 0.0144045
0.161318 0.0065919 0.0208438
0.200305 0.00466926 0.0284886
0.245121 0.00364691 0.035996
0.297765 0.00251774 0.0440833
0.356069 0.00144961 0.0512245
0.41297 0.00114443 0.0564431
0.466026 0.00183108 0.0672465
0.518685 0.00386053 0.0813764
0.574792 0.00595102 0.101884
0.642451 0.00732433 0.130068
0.710567 0.00561532 0.157626
0.782818 0 0.189181
0.801923 0 0.203723
0.802411 0 0.208148
0.802991 0 0.21236
0.803449 0 0.215824
0.803769 0 0.218723
0.803952 0 0.22121
0.804135 0 0.223041
0.804273 0 0.224537
0.80441 0 0.225696
0.804456 0 0.226581
0.804456 0 0.227283
0.804517 0 0.227832
0.804517 0 0.228031
0.0087129 0.0087129 0.0087129
0.0087129 0.0087129 0.0087129
0.0087129 0.0087129 0.0087129
0.0087129 0.0087129 0.0087129
0.0241855 0.0127718 0.00920119
0.0502632 0.0160372 0.0102235
0.0804761 0.0167849 0.0108492
0.114137 0.0148775 0.0119936
0.14995 0.0102083 0.0159915
0.190295 0.0078584 0.0248875
0.23798 0.00572213 0.0341497
0.292821 0.00267033 0.0432288
0.352087 0.00161746 0.0508888
0.410086 0.00111391 0.0560464
0.463996 0.00166323 0.0667124
0.516747 0.00383001 0.0808576
0.572396 0.00454719 0.0979477
0.640085 0 0.116243
0.710262 0 0.147463
0.779141 1.5259e-05 0.18146
0.800885 0 0.196612
0.801663 0 0.201175
0.802106 0 0.20528
0.802548 0 0.208804
0.802945 0 0.211963
0.80325 0 0.214389
0.80351 0 0.216403
0.803632 0 0.217823
0.803769 0 0.219059
0.803891 0 0.220005
0.803952 0 0.220691
0.803952 0 0.22121
0.804013 0 0.221561
0.0102846 0.0343328 0.0147555
0.00898756 0.0317235 0.0120699
0.00999466 0.0283207 0.0115053
0.0148775 0.0237583 0.0099794
0.0218204 0.0209201 0.00975052
0.0385138 0.0261997 0.0109407
0.0633555 0.0243076 0.0117342
0.09691 0.0208591 0.0120241
0.135424 0.0175784 0.0142367
0.179461 0.0115816 0.0195621
0.228946 0.00939956 0.0301366
0.285618 0.0065919 0.0402686
0.347753 0.0028687 0.0492103
0.407004 0.00111391 0.0556039
0.461769 0.0016022 0.0662089
0.514748 0.00375372 0.0803082
0.570642 0.00453193 0.0973678
0.638163 0 0.11574
0.709331 0 0.140719
0.775464 0 0.173419
0.79913 0 0.18938
0.800198 0 0.193957
0.801144 0 0.198154
0.801724 0 0.20174
0.802045 0 0.204746
0.802365 0 0.207309
0.802609 0 0.209262
0.802808 0 0.21091
0.803006 0 0.212177
0.803128 0 0.213001
0.803189 0 0.213748
0.803265 0 0.214282
0.803326 0 0.214649
0.0120851 0.0596323 0.0236362
0.00943008 0.0567636 0.0179141
0.00939956 0.0533303 0.0172274
0.0186007 0.0483406 0.0145571
0.0294804 0.0425422 0.0130312
0.0445716 0.0442359 0.0123751
0.0633097 0.0475013 0.0142672
0.0981613 0.0436408 0.0178378
0.132418 0.0373846 0.0169833
0.173632 0.0285801 0.0185092
0.221576 0.0139925 0.0234684
0.277653 0.0101015 0.0360266
0.342672 0.00605783 0.0451362
0.404074 0.00292973 0.0532082
0.45977 0.00166323 0.0657816
0.512932 0.00366217 0.0796979
0.569085 0.00448615 0.096849
0.636439 0 0.115236
0.707515 0 0.140108
0.774044 0 0.170016
0.797223 0 0.182986
0.798321 0 0.186648
0.799466 0 0.190845
0.800336 0 0.194491
0.801083 0 0.197574
0.801465 0 0.200031
0.801801 0 0.202121
0.801923 0 0.203754
0.802106 0 0.204898
0.802167 0 0.205859
0.802304 0 0.206622
0.802365 0 0.207141
0.802365 0 0.207492
0.0129549 0.0873884 0.0272831
0.00842298 0.0846876 0.0226749
0.00862135 0.080827 0.0224155
0.0145571 0.076173 0.0216678
0.0314794 0.0689403 0.0174105
0.0454566 0.0665293 0.0161898
0.0683299 0.0681163 0.0150301
0.0965133 0.0703899 0.0177615
0.134325 0.0647593 0.0233921
0.177081 0.0547341 0.0234073
0.224323 0.044007 0.0233768
0.28014 0.0237583 0.0256352
0.336828 0.00943008 0.0395514
0.400366 0.00573739 0.0489052
0.45771 0.00318914 0.0631723
0.510887 0.00358587 0.0791638
0.567376 0.00445563 0.0962844
0.634516 0 0.114748
0.70573 0 0.139483
0.772488 0 0.169024
0.797223 0 0.182986
0.797223 0 0.182986
0.797436 0 0.183597
0.798444 0 0.187213
0.799329 0 0.190295
0.799939 0 0.192721
0.800397 0 0.194873
0.800809 0 0.19646
0.801068 0 0.197726
0.801205 0 0.198688
0.801343 0 0.19939
0.801465 0 0.199878
0.801541 0 0.200214
0.0128634 0.115114 0.0310674
0.00621042 0.112947 0.0246281
0.00624094 0.110491 0.0239567
0.0081178 0.107469 0.0238804
0.0253758 0.102632 0.0212863
0.0443732 0.0960861 0.0192416
0.0646067 0.0970779 0.0181888
0.0973983 0.0979019 0.016144
0.130861 0.0988022 0.019852
0.177356 0.0911727 0.0253605
0.233036 0.0721447 0.0274815
0.284413 0.0595254 0.0258183
0.345907 0.0366979 0.0279545
0.40177 0.012604 0.037232
0.454871 0.00643931 0.0576028
0.508888 0.00535592 0.0762951
0.565225 0.00447089 0.0956436
0.632105 3.0518e-05 0.114183
0.703731 0 0.138796
0.77055 0 0.167742
0.797223 0 0.182986
0.797223 0 0.182986
0.797223 0 0.182986
0.797223 0 0.182986
0.797223 0 0.182986
0.797574 0 0.183993
0.798184 0 0.185946
0.798581 0 0.18761
0.798917 0 0.1888
0.799191 0 0.189776
0.79939 0 0.190539
0.799527 0 0.191089
0.799603 0 0.19144
0.0120851 0.14786 0.0371862
0.0040589 0.146075 0.0288396
0.00303655 0.143679 0.0253452
0.00349432 0.141054 0.0254368
0.0134279 0.13814 0.0233158
0.0342412 0.132845 0.0200198
0.0588693 0.129 0.0201419
0.0891432 0.129183 0.0191806
0.128283 0.128954 0.0144045
0.174456 0.127871 0.0199741
0.229496 0.117571 0.0273594
0.298054 0.0910201 0.0309453
0.353445 0.0749371 0.0294041
0.41146 0.049546 0.0332341
0.461952 0.0208591 0.041001
0.505928 0.0099794 0.0685893
0.56318 0.00695811 0.0918746
0.628779 0.000396735 0.113268
0.700908 0 0.137865
0.767773 0 0.165972
0.797223 0 0.182986
0.797223 0 0.182986
0.797223 0 0.182986
0.797223 0 0.182986
0.797223 0 0.182986
0.797223 0 0.182986
0.797223 0 0.182986
0.797223 0 0.182986
0.797223 0 0.182986
0.797223 0 0.182986
0.797223 0 0.182986
0.797299 0 0.183047
0.79736 0 0.183261
0.0120394 0.186999 0.0465705
0.00331121 0.185397 0.0361334
0 0.184024 0.0271305
0 0.181842 0.027039
0.00015259 0.1794 0.026978
0.0162966 0.176547 0.0203708
0.040177 0.171252 0.0182193
0.0794537 0.168811 0.0187076
0.114778 0.168307 0.0178531
0.166278 0.166812 0.0112154
0.225956 0.162921 0.0191348
0.289403 0.150668 0.0286564
0.36759 0.118242 0.0357214
0.421958 0.100511 0.0363928
0.474769 0.07393 0.0425574
0.521248 0.0394293 0.0527047
0.568017 0.0182498 0.0780194
0.626688 0.0061799 0.107012
0.697566 0 0.132235
0.764172 0 0.16376
0.797223 0 0.182986
0.797223 0 0.182986
0.797223 0 0.182986
0.797223 0 0.182986
0.797223 0 0.182986
0.797223 0 0.182986
0.797223 0 0.182986
0.797223 0 0.182986
0.797223 0 0.182986
0.797223 0 0.182986
0.797223 0 0.182986
0.797223 0 0.182986
0.797223 0 0.182986
0.0084535 0.231922 0.0608072
0.00387579 0.230762 0.0468605
0 0.229328 0.0392309
0 0.228794 0.0306096
0 0.226596 0.0304265
0 0.224628 0.029099
0.0114595 0.222095 0.0183871
0.0439155 0.21648 0.0157626
0.0992599 0.215641 0.0167697
0.144717 0.213977 0.0162051
0.2112 0.211231 0.00808728
0.285161 0.204761 0.0181735
0.35552 0.191836 0.0320134
0.436408 0.155901 0.044892
0.489967 0.137606 0.0489662
0.537255 0.112306 0.057496
0.587045 0.0701762 0.0679026
0.64622 0.0248112 0.085069
0.702861 0.00367742 0.121462
0.767163 0 0.154818
0.802228 0 0.18172
0.797223 0 0.182986
0.797223 0 0.182986
0.797223 0 0.182986
0.797223 0 0.182986
0.797223 0 0.182986
0.797223 0 0.182986
0.797223 0 0.182986
0.797223 0 0.182986
0.797223 0 0.182986
0.797223 0 0.182986
0.797223 0 0.182986
0.797223 0 0.182986
0.00263981 0.284596 0.0765087
0.000137331 0.283284 0.0634165
0 0.281682 0.0548714
0 0.281773 0.0460365
0 0.281132 0.0362097
0 0.279408 0.0360876
0 0.277455 0.0357977
0.00138857 0.274434 0.0171817
0.0507668 0.269383 0.0130617
0.120348 0.269413 0.0151827
0.180682 0.266163 0.0150912
0.263264 0.261997 0.00421149
0.349508 0.253681 0.0187228
0.42031 0.244327 0.0374456
0.503075 0.209049 0.0590677
0.557473 0.186572 0.0691539
0.606531 0.16228 0.076585
0.664164 0.118105 0.0856489
0.736706 0.042298 0.0909743
0.799252 0.00540169 0.133425
0.828885 0 0.168811
0.81445 0 0.175174
0.809003 0 0.178439
0.804303 0 0.180987
0.801022 0 0.18201
0.798077 0 0.182773
0.797223 0 0.182986
0.797223 0 0.182986
0.797223 0 0.182986
0.797223 0 0.182986
0.797223 0 0.182986
0.797223 0 0.182986
0.797223 0 0.182986
0 0.341482 0.094667
0 0.340536 0.0837262
0 0.339437 0.0736706
0 0.339132 0.0697337
0 0.339422 0.0612039
0 0.339391 0.0498512
0 0.337835 0.0493019
0 0.335897 0.0489357
0 0.331762 0.0215457
0.0636912 0.32961 0.0116579
0.147356 0.329976 0.0142519
0.224018 0.325643 0.0153201
0.322911 0.320775 0.00213626
0.413642 0.312093 0.0225071
0.483116 0.30811 0.0453956
0.566751 0.279438 0.0781415
0.630488 0.247105 0.0973526
0.681315 0.222721 0.101884
0.753231 0.174609 0.105348
0.828962 0.0953078 0.108339
0.890257 0.0117342 0.13753
0.876295 0 0.149279
0.860655 0 0.15584
0.842512 0 0.16614
0.82385 0 0.169558
0.820401 0 0.171313
0.817777 0 0.1729
0.815869 0 0.174243
0.814633 0 0.175036
0.813489 0 0.175738
0.812528 0 0.176287
0.81181 0 0.17673
0.811368 0 0.177005
0 0.400015 0.122835
0 0.399176 0.111864
0 0.398322 0.101366
0 0.397772 0.0925612
0 0.398169 0.0905165
0 0.398779 0.0841993
0 0.39939 0.0729686
0 0.398062 0.0704051
0 0.396002 0.0696117
0 0.390417 0.035935
0.0826123 0.39118 0.0150454
0.184161 0.39237 0.018616
0.276249 0.387137 0.0197299
0.385016 0.382345 0.00610361
0.478279 0.375006 0.032166
0.546273 0.375448 0.0590982
0.63032 0.35523 0.102037
0.706966 0.316106 0.128008
0.769009 0.289143 0.126986
0.843427 0.242252 0.125277
0.911421 0.166125 0.124086
0.91809 0.112108 0.120699
0.913252 0.0674907 0.117357
0.908263 0.030808 0.115908
0.899931 0.0205081 0.128603
0.892699 0.0126345 0.137057
0.886351 0.00616464 0.142763
0.881224 0.00157168 0.146456
0.876692 0 0.148943
0.873564 0 0.150607
0.870893 0 0.151766
0.868757 0 0.152712
0.867613 0 0.153155
0.00590524 0.461448 0.162722
0.00573739 0.460975 0.153094
0.00552377 0.460426 0.14287
0.00514229 0.460014 0.133333
0.00456245 0.459861 0.124712
0.00323491 0.460075 0.121645
0.0015259 0.460761 0.119524
0.000320439 0.461555 0.109102
0 0.460807 0.100893
0 0.458549 0.0996567
0.00587472 0.452399 0.0622416
0.114595 0.456489 0.027863
0.232868 0.457938 0.032166
0.338567 0.451682 0.0330205
0.449363 0.446174 0.0189975
0.542718 0.44007 0.0498207
0.61033 0.443366 0.0775158
0.695842 0.429191 0.123522
0.782986 0.391699 0.153017
0.852888 0.35584 0.149371
0.918593 0.313405 0.143359
0.940475 0.275731 0.139147
0.937499 0.252338 0.135836
0.934249 0.22974 0.132769
0.931563 0.209339 0.130404
0.928893 0.19118 0.128374
0.926604 0.175784 0.126665
0.924544 0.162814 0.125231
0.923339 0.152834 0.124422
0.922148 0.144274 0.123461
0.921599 0.138079 0.123018
0.92076 0.133135 0.122454
0.920333 0.130037 0.122179
0.0243381 0.526055 0.215
0.0241855 0.525582 0.206607
0.0241245 0.525246 0.197559
0.0241398 0.52488 0.188159
0.0240787 0.524605 0.179568
0.0239567 0.524498 0.171191
0.0232548 0.524483 0.164828
0.0213626 0.525216 0.163882
0.0196384 0.526421 0.155261
0.0186007 0.526375 0.144884
0.0177157 0.523384 0.142657
0.0271153 0.516594 0.0938277
0.164126 0.524086 0.0518349
0.294667 0.524895 0.0559548
0.404532 0.516976 0.0558938
0.513741 0.510781 0.0423438
0.606546 0.505318 0.0730297
0.675532 0.50988 0.103243
0.760555 0.501579 0.145724
0.850935 0.470146 0.170352
0.916381 0.434058 0.171923
0.955001 0.396414 0.166018
0.952941 0.380652 0.161303
0.950988 0.36669 0.157366
0.949477 0.354299 0.154147
0.948226 0.343633 0.151644
0.947036 0.334478 0.149523
0.94638 0.327489 0.14818
0.945617 0.32163 0.14696
0.94522 0.317082 0.146197
0.944839 0.313726 0.145586
0.94461 0.310979 0.145098
0.944396 0.309422 0.144839
0.048249 0.593225 0.276524
0.0481117 0.59321 0.269276
0.0479133 0.593042 0.261494
0.0477302 0.592905 0.253101
0.0475319 0.59263 0.244205
0.0473335 0.592523 0.235447
0.046952 0.592401 0.227253
0.0462959 0.592477 0.217456
0.0442969 0.593164 0.210681
0.0407721 0.594995 0.205936
0.0390478 0.594949 0.195178
0.0379339 0.591531 0.192752
0.0523079 0.58349 0.124132
0.231693 0.593225 0.0885023
0.366766 0.591989 0.0938888
0.471962 0.582132 0.0874952
0.577966 0.57525 0.0712902
0.669459 0.570153 0.103197
0.738476 0.574685 0.135241
0.82121 0.57113 0.162631
0.898787 0.548974 0.187304
0.954589 0.518166 0.192233
0.954955 0.50399 0.188418
0.954849 0.490654 0.185565
0.954955 0.479637 0.183261
0.955139 0.470344 0.18146
0.955123 0.462516 0.179828
0.955535 0.456138 0.178958
0.955566 0.451209 0.177981
0.955703 0.447074 0.177325
0.955886 0.443809 0.176745
0.9561 0.441444 0.176379
0.956329 0.440177 0.176226
0.0752575 0.66215 0.343938
0.0749218 0.661967 0.337896
0.0746166 0.661845 0.331258
0.0742962 0.661753 0.324529
0.0740063 0.661646 0.317205
0.0737316 0.661585 0.309438
0.0734569 0.661494 0.301244
0.073106 0.661524 0.290913
0.0723583 0.66157 0.277836
0.0709239 0.662058 0.26334
0.0662089 0.664271 0.2598
0.0641184 0.663661 0.251759
0.0648966 0.659419 0.241917
0.0931563 0.654643 0.149599
0.314366 0.663386 0.131563
0.436851 0.659297 0.13341
0.538369 0.647166 0.121126
0.640085 0.638331 0.107774
0.729122 0.632853 0.138293
0.79852 0.637675 0.164706
0.867613 0.638376 0.184619
0.928512 0.624292 0.208927
0.950088 0.608164 0.213306
0.9514 0.598123 0.211337
0.952483 0.589456 0.209628
0.95317 0.581735 0.207919
0.95378 0.575814 0.206775
0.954192 0.570977 0.205814
0.95436 0.56759 0.204974
0.954772 0.564965 0.20444
0.954894 0.562951 0.203967
0.955001 0.561166 0.203571
0.955062 0.560342 0.203372
0.104417 0.730251 0.410361
0.103975 0.730205 0.405692
0.103532 0.730236 0.400534
0.103014 0.73019 0.3953
0.102541 0.73022 0.389776
0.102007 0.730236 0.383978
0.101518 0.73048 0.377844
0.100908 0.730755 0.369894
0.0999619 0.731106 0.358312
0.0983749 0.73167 0.342061
0.095552 0.732876 0.321279
0.0874495 0.736217 0.310475
0.0852522 0.733257 0.30724
0.0917983 0.72752 0.28835
0.165072 0.728496 0.184283
0.405859 0.730724 0.182177
0.506691 0.723812 0.178668
0.602136 0.709529 0.1617
0.699519 0.699275 0.15256
0.78587 0.693904 0.179248
0.845991 0.69868 0.20502
0.899779 0.703563 0.230381
0.941054 0.695857 0.241962
0.94139 0.688502 0.238071
0.941924 0.682277 0.235172
0.942412 0.676829 0.232837
0.942885 0.672557 0.23122
0.943175 0.668864 0.229786
0.943297 0.666026 0.228565
0.94374 0.664057 0.228
0.943908 0.662348 0.227344
0.94406 0.661036 0.226932
0.944091 0.660258 0.226627
0.125139 0.798535 0.473487
0.124804 0.798459 0.46981
0.124468 0.798596 0.465705
0.124071 0.798535 0.461631
0.123705 0.79852 0.457221
0.123293 0.798657 0.452842
0.122866 0.798642 0.448066
0.12253 0.799054 0.442008
0.121889 0.799496 0.433478
0.12076 0.799878 0.421271
0.119219 0.800763 0.403128
0.116579 0.802243 0.37879
0.111803 0.80351 0.357946
0.110109 0.799435 0.354726
0.124605 0.792157 0.332357
0.277821 0.797742 0.246876
0.492775 0.793896 0.245975
0.574441 0.78616 0.238453
0.663798 0.770214 0.214847
0.757183 0.758526 0.21062
0.833753 0.753567 0.239399
0.883284 0.75903 0.261112
0.923415 0.767102 0.291493
0.9355 0.762966 0.296376
0.935485 0.757717 0.291814
0.935866 0.753414 0.288212
0.935836 0.749813 0.284749
0.935912 0.746914 0.282506
0.93611 0.74461 0.280583
0.936202 0.743038 0.279042
0.936248 0.74165 0.277821
0.936355 0.740597 0.276936
0.936355 0.740078 0.276371
0.142489 0.854047 0.533578
0.142321 0.854078 0.53048
0.142077 0.854109 0.527413
0.141848 0.853986 0.524178
0.141604 0.854017 0.520714
0.141314 0.85417 0.517433
0.14107 0.854261 0.513741
0.140642 0.854337 0.509194
0.1402 0.854536 0.502861
0.139452 0.854841 0.493935
0.138399 0.85539 0.481224
0.137072 0.856428 0.462348
0.135363 0.858503 0.433967
0.133394 0.857053 0.419501
0.140764 0.851667 0.401999
0.170886 0.848432 0.370382
0.400198 0.852384 0.320912
0.570382 0.846754 0.324956
0.639384 0.840436 0.315007
0.723445 0.826551 0.2878
0.813581 0.816144 0.294621
0.876585 0.8112 0.319905
0.914046 0.81738 0.333837
0.939361 0.824094 0.356313
0.93872 0.820523 0.351873
0.938186 0.817075 0.348394
0.937758 0.814206 0.345495
0.937301 0.812024 0.342931
0.937285 0.810483 0.341619
0.937102 0.80914 0.340215
0.93698 0.807996 0.339223
0.936889 0.807202 0.338399
0.936828 0.806729 0.337972
0.150591 0.897231 0.590631
0.150546 0.897337 0.58822
0.150561 0.897383 0.585931
0.150561 0.897475 0.583368
0.15053 0.897398 0.580621
0.150423 0.897429 0.578103
0.150378 0.897475 0.575265
0.150286 0.897444 0.571756
0.150134 0.897459 0.566705
0.14992 0.897719 0.560006
0.149523 0.898039 0.550698
0.148974 0.898711 0.537148
0.148104 0.899733 0.517708
0.147051 0.900679 0.493523
0.146517 0.897688 0.487556
0.181674 0.889952 0.439796
0.253498 0.892622 0.412161
0.506142 0.895308 0.403265
0.640909 0.892821 0.412222
0.701701 0.887022 0.402106
0.78262 0.875013 0.381521
0.862593 0.864561 0.390768
0.917342 0.85832 0.412818
0.944091 0.864134 0.422293
0.951171 0.865156 0.423087
0.950179 0.862699 0.41796
0.949203 0.860655 0.413245
0.948821 0.859236 0.410071
0.948333 0.857847 0.407401
0.947936 0.856809 0.405249
0.947677 0.856123 0.403662
0.947448 0.855406 0.402533
0.947295 0.855039 0.401846
0.149111 0.928603 0.645808
0.148898 0.928649 0.643961
0.14873 0.928512 0.64184
0.148547 0.928496 0.639673
0.148409 0.928481 0.637613
0.148226 0.928405 0.635325
0.148104 0.928374 0.63299
0.147814 0.928359 0.630213
0.147539 0.928328 0.626215
0.147173 0.928344 0.620966
0.146853 0.928588 0.613794
0.146273 0.928985 0.603662
0.146029 0.929351 0.589487
0.147158 0.930297 0.568978
0.148058 0.928634 0.558419
0.171038 0.924132 0.533715
0.243091 0.919295 0.478218
0.409247 0.92488 0.487739
0.59617 0.929824 0.48365
0.713283 0.927871 0.501366
0.765698 0.924132 0.489632
0.83714 0.914794 0.471702
0.903456 0.905715 0.480064
0.94844 0.899565 0.498009
0.966964 0.901823 0.504677
0.966476 0.899229 0.499565
0.966278 0.897032 0.495583
0.966094 0.895186 0.492317
0.965652 0.893843 0.489723
0.965209 0.892973 0.487541
0.965011 0.892393 0.486046
0.964736 0.891951 0.484779
0.964584 0.891661 0.484169
0.168414 0.944045 0.686549
0.168429 0.944091 0.685283
0.168505 0.944244 0.683986
0.168536 0.944335 0.682673
0.168551 0.944427 0.681529
0.168627 0.94464 0.680171
0.168643 0.944686 0.678737
0.168734 0.944823 0.67686
0.168704 0.945022 0.674601
0.168795 0.945434 0.671168
0.168795 0.945769 0.666667
0.168856 0.94638 0.66041
0.168994 0.947173 0.651652
0.16907 0.948394 0.639139
0.167788 0.948486 0.627146
0.164187 0.946365 0.616922
0.219272 0.941451 0.564065
0.354131 0.941772 0.533944
0.523323 0.951598 0.555428
0.686259 0.95349 0.568704
0.790677 0.952773 0.591058
0.831891 0.951324 0.577813
0.886 0.945357 0.560479
0.934005 0.939635 0.566827
0.964782 0.935912 0.581857
0.969741 0.934554 0.580407
0.969619 0.932586 0.575265
0.969528 0.930907 0.571405
0.969421 0.929732 0.56817
0.969467 0.928817 0.566003
0.969482 0.928161 0.564202
0.969482 0.927642 0.562768
0.969451 0.927321 0.561944
0.168307 0.943694 0.689784
0.168322 0.94374 0.688533
0.168338 0.943954 0.687282
0.168429 0.944045 0.685924
0.168444 0.944198 0.684611
0.168521 0.944228 0.683238
0.168536 0.94432 0.682048
0.168627 0.944533 0.680278
0.168719 0.944717 0.677836
0.168704 0.945022 0.674662
0.16875 0.945464 0.670039
0.168826 0.946014 0.663951
0.168963 0.946822 0.655451
0.169039 0.947982 0.64358
0.169116 0.949203 0.630457
0.169116 0.949203 0.630457
0.178302 0.952392 0.615839
0.288457 0.948577 0.579858
0.476219 0.95491 0.595178
0.612757 0.960174 0.618296
0.762783 0.961089 0.642191
0.851606 0.964034 0.666972
0.883482 0.965896 0.658457
0.92604 0.967391 0.655695
0.957214 0.964446 0.662257
0.971695 0.961807 0.669764
0.971725 0.960433 0.663752
0.971527 0.959197 0.65864
0.97145 0.957946 0.654612
0.971435 0.957168 0.651682
0.971389 0.956451 0.649241
0.971298 0.955978 0.64744
0.971298 0.955734 0.64651
0.168261 0.94345 0.692302
0.168276 0.943603 0.691035
0.168292 0.943755 0.689967
0.168322 0.943801 0.688655
0.168338 0.943954 0.687282
0.168429 0.944045 0.685924
0.168444 0.944198 0.68455
0.168536 0.944274 0.68278
0.168612 0.944533 0.680629
0.168734 0.944778 0.677317
0.168719 0.945174 0.672969
0.168795 0.945708 0.667002
0.168872 0.946517 0.658625
0.169024 0.94757 0.646906
0.169116 0.949203 0.630457
0.169116 0.949203 0.630457
0.171191 0.951919 0.620081
0.267399 0.949218 0.589212
0.456764 0.953277 0.584909
0.584054 0.95964 0.623529
0.726894 0.961532 0.651301
0.836316 0.963714 0.689082
0.89131 0.967529 0.711849
0.915602 0.969711 0.707866
0.94815 0.973205 0.720165
0.971771 0.97644 0.74966
0.97322 0.976623 0.749935
0.973419 0.976654 0.747982
0.973632 0.976547 0.746441
0.973754 0.976547 0.745312
0.973754 0.976287 0.743786
0.973678 0.975875 0.741451
0.973678 0.975723 0.740063
0.168231 0.943252 0.694423
0.168246 0.943404 0.693172
0.168276 0.943496 0.691905
0.168292 0.943603 0.690593
0.168307 0.943755 0.689448
0.168322 0.943847 0.688136
0.168353 0.943999 0.686717
0.168429 0.944137 0.684947
0.168536 0.944381 0.682612
0.168643 0.944579 0.679591
0.16875 0.944976 0.675227
0.168826 0.94551 0.6692
0.168917 0.946273 0.661036
0.169009 0.947372 0.649683
0.1691 0.948959 0.633433
0.169116 0.949203 0.630457
0.17084 0.951293 0.623819
0.248981 0.950042 0.595712
0.432395 0.951736 0.577325
0.564843 0.959091 0.620203
0.707164 0.961303 0.646174
0.823621 0.962921 0.683864
0.885451 0.967086 0.710079
0.909911 0.969085 0.708736
0.941329 0.972503 0.715816
0.966644 0.975509 0.74197
0.972732 0.976837 0.754559
0.972732 0.976837 0.754559
0.972732 0.976837 0.754559
0.972732 0.976837 0.754559
0.972732 0.976837 0.754559
0.972732 0.976837 0.754559
0.972732 0.976837 0.754559
0.1682 0.943099 0.696162
0.168231 0.943206 0.694896
0.168246 0.943358 0.693629
0.168261 0.94345 0.692302
0.168276 0.943603 0.69099
0.168307 0.943694 0.689845
0.168322 0.943801 0.688472
0.168353 0.943999 0.686717
0.168444 0.944183 0.684321
