bundles/resolve-cinematic-luts/Phantom Luts/S5, S1, S1h LUTs/WB Offset - Green & Warm Boost/Neutral V-Log WBO.cube
TITLE "Generated by Resolve"
LUT_3D_SIZE 9
0.0087129 0.0087129 0.0087129
0.0651865 0.00816358 0.00994888
0.175265 0.00531014 0.0238346
0.365484 0.00440986 0.0562448
0.582864 0.0198825 0.127916
0.803571 0 0.217121
0.804776 0 0.231418
0.806424 0 0.238407
0.808179 0 0.241062
0.0102846 0.0343328 0.0147555
0.0218204 0.0209201 0.00975052
0.135424 0.0175784 0.0142367
0.347753 0.0028687 0.0492103
0.570642 0.00453193 0.0973678
0.79913 0 0.18938
0.802045 0 0.204746
0.803006 0 0.212177
0.803326 0 0.214649
0.0120851 0.14786 0.0371862
0.0134279 0.13814 0.0233158
0.128283 0.128954 0.0144045
0.353445 0.0749371 0.0294041
0.56318 0.00695811 0.0918746
0.797223 0 0.182986
0.797223 0 0.182986
0.797223 0 0.182986
0.79736 0 0.183261
0 0.341482 0.094667
0 0.339422 0.0612039
0 0.331762 0.0215457
0.322911 0.320775 0.00213626
0.630488 0.247105 0.0973526
0.890257 0.0117342 0.13753
0.82385 0 0.169558
0.814633 0 0.175036
0.811368 0 0.177005
0.048249 0.593225 0.276524
0.0475319 0.59263 0.244205
0.0442969 0.593164 0.210681
0.0523079 0.58349 0.124132
0.577966 0.57525 0.0712902
0.898787 0.548974 0.187304
0.954955 0.479637 0.183261
0.955566 0.451209 0.177981
0.956329 0.440177 0.176226
0.142489 0.854047 0.533578
0.141604 0.854017 0.520714
0.1402 0.854536 0.502861
0.135363 0.858503 0.433967
0.400198 0.852384 0.320912
0.813581 0.816144 0.294621
0.93872 0.820523 0.351873
0.937285 0.810483 0.341619
0.936828 0.806729 0.337972
0.168307 0.943694 0.689784
0.168444 0.944198 0.684611
0.168719 0.944717 0.677836
0.168963 0.946822 0.655451
0.178302 0.952392 0.615839
0.762783 0.961089 0.642191
0.957214 0.964446 0.662257
0.97145 0.957946 0.654612
0.971298 0.955734 0.64651
0.168246 0.943008 0.697414
0.168261 0.94345 0.692302
0.168414 0.944152 0.685634
0.168811 0.945968 0.664454
0.169986 0.950118 0.627848
0.676966 0.961288 0.639857
0.931121 0.971252 0.711025
0.972732 0.976837 0.754559
0.972732 0.976837 0.754559
0.168185 0.942824 0.70013
0.168215 0.943206 0.695186
0.168322 0.943801 0.688472
0.16878 0.945663 0.667567
0.169116 0.949203 0.630457
0.650477 0.961151 0.635187
0.921202 0.970184 0.708003
0.972732 0.976837 0.754559
0.972732 0.976837 0.754559
0.00866712 0.0090486 0.0205234
0.0618143 0.0119478 0.0404517
0.181827 0.0175326 0.0668345
0.380545 0.0151522 0.103883
0.590188 0.0131685 0.157641
0.8112 0 0.245792
0.817182 0 0.259861
0.819226 0 0.266026
0.819913 0 0.268254
0.010071 0.0247807 0.0225376
0.00952163 0.00869764 0.00869764
0.144213 0.00732433 0.0208438
0.350134 0.00769055 0.0588083
0.576516 0.0226291 0.130266
0.80383 0 0.219776
0.804898 0 0.233783
0.808255 0 0.241199
0.809857 0 0.243885
0.0179599 0.137697 0.0796521
0.0133974 0.129168 0.0373083
0.122072 0.120363 0.0149844
0.353628 0.0531319 0.0286412
0.561669 0.00514229 0.095964
0.800671 0 0.195926
0.802167 0 0.205737
0.802747 0 0.210407
0.80293 0 0.21207
0.00221256 0.334554 0.138994
0 0.330632 0.0965896
0 0.328328 0.0468147
0.320317 0.315084 0.00222782
0.626688 0.234363 0.0923781
0.885481 0.00631724 0.142489
0.819257 0 0.172015
0.809964 0 0.177874
0.80647 0 0.179889
0.0475319 0.588098 0.303319
0.0462196 0.586999 0.27483
0.0450904 0.586221 0.231052
0.0434272 0.583062 0.156588
0.576745 0.572412 0.0699474
0.903243 0.540185 0.187701
0.954803 0.473869 0.181949
0.95584 0.44419 0.176837
0.956481 0.433143 0.174884
0.142199 0.850126 0.542229
0.141344 0.850095 0.530312
0.140093 0.850202 0.513573
0.135546 0.853468 0.451377
0.370779 0.852186 0.320745
0.812589 0.814023 0.291737
0.938216 0.817411 0.348714
0.936843 0.806867 0.338079
0.936233 0.803037 0.334203
0.168231 0.943145 0.694942
0.168307 0.943648 0.690074
0.168521 0.944289 0.683406
0.168841 0.94612 0.66215
0.171252 0.952026 0.619699
0.755123 0.960906 0.638605
0.956191 0.963119 0.656474
0.971374 0.956207 0.648203
0.971176 0.953826 0.639841
0.168139 0.94258 0.702602
0.168231 0.943069 0.697658
0.168276 0.943542 0.691096
0.168811 0.945418 0.670832
0.169116 0.949203 0.630457
0.663951 0.961349 0.637736
0.928756 0.970916 0.710079
0.972732 0.976837 0.754559
0.972732 0.976837 0.754559
0.168093 0.942382 0.705119
0.168185 0.942763 0.700404
0.168246 0.943297 0.693919
0.16878 0.945068 0.673823
0.169116 0.949203 0.630457
0.638086 0.960983 0.632746
0.918868 0.969985 0.70782
0.972732 0.976837 0.754559
0.972732 0.976837 0.754559
0.0100252 0.0163729 0.108522
0.096376 0.0129549 0.102281
0.191928 0.0219425 0.122911
0.394537 0.0200351 0.155123
0.603616 0.0173342 0.199374
0.826276 0 0.278965
0.83534 0 0.293812
0.839475 0.000747692 0.300999
0.840986 0.000991836 0.303563
0.00984207 0.032578 0.0721294
0.0099794 0.0152438 0.098436
0.15613 0.019379 0.0998093
0.371115 0.0171054 0.121736
0.588464 0.0148775 0.168856
0.81561 0 0.255482
0.819776 0 0.267811
0.823148 0 0.274296
0.82475 0 0.276783
0.0179599 0.131472 0.118944
0.0180972 0.121462 0.108507
0.118425 0.112718 0.104677
0.360922 0.0667124 0.0969253
0.572839 0.0138857 0.145846
0.804715 0 0.229908
0.806561 0 0.238636
0.80972 0 0.24361
0.811337 0 0.246113
0.00581369 0.327901 0.184161
0.00514229 0.3234 0.157122
9.15541e-05 0.318563 0.098909
0.324117 0.310643 0.0508736
0.624201 0.221851 0.102205
0.876677 0.00132753 0.156481
0.811215 0 0.186328
0.807202 0 0.203357
0.804547 0 0.208774
0.0464485 0.581872 0.331029
0.0450599 0.580545 0.307469
0.0437476 0.579599 0.270481
0.0362249 0.581292 0.179294
0.57525 0.568856 0.0683146
0.903365 0.53463 0.187137
0.955184 0.466789 0.180743
0.956313 0.436286 0.175448
0.956786 0.424216 0.173297
0.141939 0.845487 0.552224
0.141314 0.845457 0.541527
0.14023 0.845426 0.526223
0.135866 0.847562 0.469932
0.326589 0.851225 0.322942
0.811353 0.811521 0.28809
0.937682 0.813672 0.344884
0.936278 0.803372 0.3346
0.936141 0.799802 0.331075
0.16817 0.942672 0.700984
0.1682 0.943114 0.69633
0.168292 0.943755 0.690013
0.168765 0.945464 0.66981
0.170733 0.95108 0.624689
0.745525 0.960769 0.634028
0.955215 0.961501 0.64976
0.971191 0.95407 0.640696
0.971099 0.951782 0.632212
0.168032 0.942031 0.708492
0.168063 0.942428 0.703914
0.168231 0.943069 0.697597
0.168719 0.944732 0.678172
0.169116 0.949203 0.630457
0.648646 0.961181 0.634836
0.925948 0.970565 0.709087
0.972732 0.976837 0.754559
0.972732 0.976837 0.754559
0.167971 0.941848 0.711223
0.168063 0.94229 0.706462
0.168185 0.942763 0.700236
0.168612 0.944427 0.680964
0.169116 0.949203 0.630457
0.623713 0.960693 0.630396
0.915923 0.969711 0.70782
0.972732 0.976837 0.754559
0.972732 0.976837 0.754559
0.00978103 0.0332494 0.255299
0.0888228 0.0247654 0.262562
0.239796 0.02327 0.252796
0.414969 0.0314946 0.276295
0.627695 0.0368658 0.30576
0.873762 0.0107729 0.369116
0.879271 0.0131533 0.382391
0.881651 0.0143282 0.388434
0.882383 0.0147707 0.390433
0.00901808 0.0487678 0.232517
0.0100862 0.0324254 0.248219
0.181094 0.019913 0.259419
0.397024 0.0300603 0.258595
0.616648 0.0320897 0.281758
0.864866 0.00735485 0.348257
0.870527 0.00944533 0.361074
0.872923 0.0104067 0.367041
0.873701 0.0106966 0.368902
0.00416571 0.131563 0.234745
0.00543221 0.113359 0.246784
0.088014 0.0886854 0.269123
0.375326 0.0482338 0.245991
0.603037 0.0276188 0.255375
0.850309 0.0034638 0.320119
0.856916 0.00514229 0.332509
0.860105 0.00596628 0.338689
0.861189 0.0062562 0.34081
0.00460822 0.313268 0.27985
0.0052491 0.307744 0.272435
0.00604257 0.300175 0.261509
0.320409 0.303639 0.277531
0.640162 0.226307 0.244358
0.875196 0.00404364 0.267964
0.838117 0 0.287175
0.838911 0.000610361 0.300099
0.841749 0.00123598 0.304845
0.0463874 0.571008 0.395895
0.0448005 0.568719 0.381689
0.0428473 0.566278 0.360433
0.038117 0.562371 0.271153
0.58851 0.562707 0.209247
0.897993 0.519265 0.258488
0.964721 0.430228 0.23093
0.964935 0.399374 0.220737
0.964813 0.388296 0.217304
0.141009 0.834714 0.577798
0.140337 0.833936 0.568872
0.139437 0.833295 0.556207
0.136599 0.833478 0.513069
0.271794 0.842985 0.372183
0.810788 0.804944 0.319036
0.940414 0.80705 0.359854
0.938781 0.795422 0.343816
0.938201 0.791318 0.338064
0.16788 0.94136 0.716152
0.167956 0.941802 0.711971
0.168078 0.942229 0.706218
0.168322 0.94374 0.688594
0.169162 0.949157 0.631617
0.728817 0.960479 0.623484
0.95198 0.95761 0.632639
0.97081 0.94934 0.624033
0.97055 0.946593 0.615564
0.167712 0.940795 0.723507
0.167803 0.941131 0.719295
0.167926 0.941604 0.713481
0.1682 0.943099 0.696101
0.169085 0.948913 0.633982
0.62089 0.960678 0.629862
0.919738 0.970047 0.707881
0.972732 0.976837 0.754559
0.972732 0.976837 0.754559
0.167651 0.940475 0.726253
0.167758 0.940887 0.721767
0.16788 0.94136 0.716091
0.168215 0.942916 0.698512
0.16907 0.948486 0.638041
0.594919 0.960052 0.62533
0.910231 0.9691 0.708629
0.972732 0.976837 0.754559
0.972732 0.976837 0.754559
0 0.0676738 0.452354
0.0548257 0.0566873 0.466651
0.173175 0.0379644 0.481392
0.454688 0.0420844 0.468788
0.656352 0.0691081 0.486824
0.919188 0.0327153 0.532113
0.92137 0.0331884 0.543969
0.922438 0.0334325 0.54902
0.922744 0.0335546 0.550729
0 0.0755322 0.445655
0 0.0666972 0.449226
0.107103 0.0471809 0.472404
0.433509 0.0372168 0.468498
0.647929 0.0671702 0.477974
0.916503 0.0320745 0.519219
0.918822 0.0325933 0.530297
0.919814 0.0328374 0.534951
0.920119 0.0329595 0.536599
0 0.108675 0.433188
0 0.0877546 0.438254
0.011841 0.061677 0.452003
0.395926 0.030518 0.47187
0.637217 0.0646525 0.466407
0.912917 0.0312963 0.502281
0.915099 0.0317082 0.512047
0.915953 0.0319524 0.516716
0.916259 0.0319829 0.517968
0 0.293431 0.442557
0 0.280491 0.44744
0 0.261982 0.45565
0.25449 0.243992 0.514199
0.645685 0.191684 0.490623
0.894804 0.0322423 0.46331
0.908598 0.0305791 0.483421
0.909163 0.0307012 0.486122
0.909346 0.0307012 0.48687
0.0486458 0.549645 0.510353
0.0472114 0.546502 0.505928
0.0455482 0.542336 0.500557
0.0409247 0.531533 0.483299
0.570611 0.548943 0.513176
0.908293 0.493767 0.487556
0.948577 0.427482 0.477394
0.944945 0.400153 0.474128
0.943435 0.390082 0.472694
0.138506 0.815579 0.640909
0.138094 0.81413 0.634913
0.137743 0.812421 0.62707
0.135775 0.808362 0.601816
0.325719 0.818936 0.53373
0.821134 0.791669 0.526818
0.96434 0.784161 0.55108
0.96379 0.769955 0.540276
0.963363 0.765576 0.536294
0.16672 0.938003 0.755306
0.166888 0.938247 0.751858
0.16701 0.938643 0.747173
0.167422 0.939879 0.73344
0.168276 0.943511 0.692073
0.700526 0.959213 0.695659
0.950957 0.953246 0.705669
0.971603 0.947692 0.705562
0.971481 0.945403 0.698894
0.166323 0.937362 0.762509
0.166552 0.937652 0.759075
0.166827 0.938048 0.754025
0.167269 0.939345 0.739712
0.168215 0.943206 0.695125
0.628992 0.961547 0.695125
0.927962 0.972671 0.798856
0.977096 0.980133 0.832563
0.97705 0.980087 0.832364
0.166125 0.937179 0.765133
0.16643 0.937407 0.761364
0.16669 0.93785 0.756573
0.167208 0.939132 0.741939
0.168246 0.942946 0.697307
0.60882 0.961074 0.681392
0.92256 0.972305 0.796963
0.976867 0.980041 0.829725
0.976822 0.979995 0.829236
0 0.144564 0.627878
0 0.142931 0.636271
0.0768597 0.133227 0.646922
0.332799 0.109316 0.682765
0.702068 0.12726 0.68716
0.946334 0.0745556 0.740398
0.947829 0.0921798 0.761257
0.948394 0.0987869 0.769207
0.948608 0.101015 0.771634
0 0.143526 0.625422
0 0.143313 0.624949
0.000839246 0.138094 0.638437
0.297292 0.1066 0.677211
0.691493 0.124346 0.684001
0.94551 0.0667124 0.731136
0.946975 0.0820478 0.748989
0.947463 0.0879072 0.756024
0.947616 0.0897993 0.758297
0 0.151125 0.609476
0 0.143862 0.618708
0 0.141726 0.620981
0.243122 0.105486 0.669062
0.677394 0.12018 0.680201
0.944625 0.0579995 0.720027
0.945693 0.0693065 0.734081
0.946288 0.0742809 0.740139
0.946288 0.0760204 0.741772
0 0.258778 0.606302
0 0.245762 0.612879
0 0.228656 0.622553
0.107362 0.206699 0.654887
0.635309 0.137621 0.6757
0.926635 0.0627298 0.697826
0.94258 0.0453803 0.70135
0.942916 0.0470893 0.703777
0.942962 0.0475929 0.704524
0 0.535454 0.650904
0 0.529961 0.651698
0 0.523003 0.65304
0 0.498405 0.662455
0.520546 0.505302 0.758923
0.909422 0.460288 0.733181
0.954681 0.387991 0.713207
0.949874 0.361303 0.706569
0.948043 0.351644 0.704036
0.129473 0.785672 0.739712
0.128817 0.783444 0.736797
0.128115 0.780407 0.733562
0.126482 0.772869 0.72401
0.268711 0.769818 0.715969
0.79559 0.775479 0.741695
0.957702 0.751064 0.725338
0.960281 0.733974 0.720928
0.960815 0.728328 0.718791
0.162615 0.931579 0.81973
0.162768 0.931884 0.817441
0.163027 0.932235 0.814252
0.159609 0.929824 0.803265
0.152468 0.923888 0.766995
0.719738 0.940398 0.798642
0.946593 0.942809 0.830289
0.97081 0.946105 0.84155
0.970153 0.943389 0.837263
0.161883 0.930816 0.828458
0.162127 0.93106 0.825772
0.162402 0.931395 0.822095
0.163256 0.932464 0.811582
0.165301 0.935653 0.781445
0.581811 0.960891 0.797086
0.940093 0.977584 0.909545
0.984527 0.985565 0.940093
0.984497 0.985534 0.939849
0.1617 0.930526 0.831632
0.161883 0.930816 0.82858
0.162158 0.931212 0.824887
0.163043 0.932158 0.813855
0.165209 0.935439 0.782544
0.539422 0.958923 0.785733
0.925811 0.975967 0.900984
0.98146 0.984222 0.931441
0.98436 0.985397 0.938048
0 0.282155 0.821775
0 0.284855 0.825711
0 0.288472 0.828016
0.175616 0.298116 0.849409
0.570108 0.315236 0.897917
0.945708 0.339544 0.909407
0.936309 0.389883 0.926101
0.934401 0.404868 0.933028
0.934401 0.404868 0.933028
0 0.278233 0.81915
0 0.277516 0.818677
0 0.28307 0.825818
0.112337 0.295155 0.846387
0.552254 0.312367 0.894408
0.946258 0.331212 0.906294
0.939956 0.375097 0.92166
0.93608 0.39176 0.926955
0.935302 0.396521 0.928954
0 0.268147 0.807431
0 0.273121 0.815564
0 0.27248 0.815152
0.0212863 0.290806 0.843671
0.53051 0.307729 0.88986
0.943099 0.321492 0.902617
0.943297 0.357549 0.91577
0.940688 0.371084 0.920165
0.939864 0.375494 0.921767
0 0.293477 0.776333
0 0.289555 0.784878
0 0.286564 0.79675
0 0.279133 0.812421
0.473213 0.288441 0.874495
0.929061 0.299397 0.893111
0.948135 0.311498 0.899214
0.947646 0.31751 0.901488
0.947494 0.319707 0.902266
0 0.520638 0.796628
0 0.5149 0.800687
0 0.507301 0.805814
0 0.48835 0.825925
0.389212 0.50042 0.886976
0.898726 0.464652 0.902312
0.955108 0.436805 0.886107
0.952316 0.416159 0.881514
0.951095 0.408576 0.879622
0.00602731 0.769345 0.839719
0.00303655 0.766476 0.839918
0 0.762432 0.840208
0 0.751263 0.84271
0.0335546 0.727596 0.856245
0.756771 0.746471 0.899794
0.963531 0.729732 0.891127
0.964263 0.715175 0.888502
0.964446 0.71017 0.887465
0.144991 0.916564 0.883238
0.143511 0.915022 0.88127
0.142046 0.913375 0.879301
0.137804 0.908324 0.873457
0.129519 0.897246 0.859525
0.678889 0.915496 0.888808
0.937606 0.931334 0.920256
0.967758 0.929656 0.918791
0.967315 0.926055 0.91632
0.153124 0.92575 0.902113
0.153689 0.925978 0.899886
0.154452 0.926223 0.89688
0.156359 0.926619 0.888731
0.160189 0.927932 0.867567
0.353185 0.940139 0.860594
0.945418 0.980224 0.957565
0.986542 0.986389 0.974838
0.987152 0.986007 0.974273
0.151843 0.925551 0.906584
0.152544 0.925704 0.904158
0.153353 0.925902 0.901244
0.155612 0.926375 0.892134
0.160159 0.927825 0.868193
0.32137 0.939895 0.858503
0.931136 0.978943 0.951934
0.985473 0.988342 0.978912
0.990265 0.990402 0.983429
0 0.327581 0.847898
0 0.332555 0.85211
0 0.346792 0.864439
0.047776 0.371237 0.885374
0.532784 0.395926 0.933455
0.934401 0.404868 0.933028
0.934401 0.404868 0.933028
0.934401 0.404868 0.933028
0.934401 0.404868 0.933028
0 0.327581 0.847898
0 0.327581 0.847898
0 0.341787 0.858732
0 0.366781 0.882078
0.515114 0.393225 0.931014
0.932967 0.404211 0.933165
0.934401 0.404868 0.933028
0.934401 0.404868 0.933028
0.934401 0.404868 0.933028
0 0.33344 0.849546
0 0.327581 0.847898
0 0.327581 0.847898
0 0.361898 0.874586
0.491478 0.389609 0.927581
0.925734 0.401679 0.933715
0.934401 0.404868 0.933028
0.934401 0.404868 0.933028
0.934401 0.404868 0.933028
0 0.3906 0.864347
0 0.378378 0.861341
0 0.360357 0.856306
0 0.34406 0.861646
0.419165 0.387686 0.91429
0.897017 0.395834 0.936645
0.934401 0.404868 0.933028
0.934401 0.404868 0.933028
0.934401 0.404868 0.933028
0 0.538552 0.876173
0 0.537591 0.881453
0 0.537697 0.88809
0 0.526818 0.893172
0.260136 0.534966 0.907118
0.785229 0.527153 0.970504
0.948623 0.500603 0.947616
0.946349 0.4878 0.945251
0.945647 0.483192 0.944503
0 0.760159 0.900572
0 0.756756 0.901411
0 0.752499 0.902815
0 0.741299 0.908095
0 0.719722 0.92369
0.675914 0.73962 0.961334
0.960769 0.742275 0.956847
0.961547 0.728985 0.955627
0.961852 0.724468 0.955215
0.100343 0.907408 0.925963
0.0977951 0.905501 0.925048
0.0941787 0.903456 0.924331
0.0840772 0.897276 0.922255
0.0565957 0.881392 0.920806
0.599161 0.891249 0.940169
0.923842 0.920455 0.956939
0.969528 0.923735 0.959319
0.969039 0.920302 0.957977
0.125139 0.925719 0.940108
0.125139 0.925719 0.940108
0.125139 0.925719 0.940108
0.127565 0.925597 0.937682
0.139925 0.924575 0.924636
0.24686 0.936004 0.921019
0.927749 0.972702 0.967758
0.984146 0.982589 0.984558
0.987015 0.982574 0.983948
0.125139 0.925719 0.940108
0.125139 0.925719 0.940108
0.125139 0.925719 0.940108
0.125139 0.925719 0.940108
0.139651 0.924605 0.924971
0.226184 0.936233 0.9187
0.900755 0.975006 0.964843
0.98822 0.989609 0.98999
0.993362 0.992721 0.993576
0 0.327581 0.847898
0 0.331579 0.851362
0 0.346517 0.86424
0.0427863 0.371069 0.885328
0.532204 0.395834 0.933394
0.934401 0.404868 0.933028
0.934401 0.404868 0.933028
0.934401 0.404868 0.933028
0.934401 0.404868 0.933028
0 0.327581 0.847898
0 0.327581 0.847898
0 0.341238 0.858213
0 0.366583 0.881666
0.514229 0.393133 0.930953
0.933333 0.404334 0.933135
0.934401 0.404868 0.933028
0.934401 0.404868 0.933028
0.934401 0.404868 0.933028
0 0.332052 0.849195
0 0.327581 0.847898
0 0.327581 0.847898
0 0.361776 0.87425
0.489845 0.389456 0.927275
0.925734 0.401679 0.933715
0.934401 0.404868 0.933028
0.934401 0.404868 0.933028
0.934401 0.404868 0.933028
0 0.384695 0.862989
0 0.371359 0.859205
0 0.353109 0.854429
0 0.343481 0.861387
0.415259 0.387594 0.913558
0.89543 0.39559 0.936782
0.934401 0.404868 0.933028
0.934401 0.404868 0.933028
0.934401 0.404868 0.933028
0 0.556848 0.899001
0 0.551415 0.897856
0 0.544442 0.89662
0 0.52285 0.892332
0.247608 0.530159 0.906645
0.779171 0.522774 0.970397
0.947494 0.49575 0.946441
0.945525 0.48275 0.944366
0.945113 0.478202 0.943908
0 0.760723 0.92372
0 0.758099 0.925032
0 0.754101 0.924407
0 0.742672 0.92253
0 0.71574 0.923369
0.671122 0.735302 0.961898
0.960143 0.738415 0.957916
0.960098 0.726268 0.957931
0.960388 0.722194 0.958206
0.0867781 0.907637 0.936996
0.0826123 0.905516 0.936614
0.0771344 0.903166 0.93666
0.0631266 0.89601 0.936385
0.0343938 0.876982 0.935546
0.553536 0.879667 0.950668
0.906065 0.912245 0.963775
0.969558 0.919234 0.968063
0.969268 0.915679 0.967529
0.125139 0.925719 0.940108
0.125139 0.925719 0.940108
0.125139 0.925719 0.940108
0.125139 0.925719 0.940108
0.125139 0.925719 0.940108
0.185153 0.933562 0.943633
0.895384 0.963623 0.972183
0.981384 0.98088 0.984421
0.985061 0.9823 0.985656
0.125139 0.925719 0.940108
0.125139 0.925719 0.940108
0.125139 0.925719 0.940108
0.125139 0.925719 0.940108
0.125139 0.925719 0.940108
0.159045 0.933501 0.944091
0.846418 0.968444 0.969329
0.988052 0.989075 0.990082
0.994385 0.994385 0.994415
