bundles/resolve-cinematic-luts/Phantom Luts/S5, S1, S1h LUTs/WB Offset - Green & Warm Boost/Tungsten V-Log WBO.cube
TITLE "Generated by Resolve"
LUT_3D_SIZE 5
0.00746166 0.00784314 0.0142672
0.143557 0.00985733 0.0303807
0.555642 0.0386053 0.144976
0.693614 0.0452888 0.234134
0.697566 0.0467079 0.244312
0.0242771 0.137346 0.0610208
0.119112 0.122591 0.0324254
0.534142 0.0231632 0.110582
0.685389 0.044419 0.194919
0.687358 0.0450141 0.199664
0 0.495079 0.224659
0 0.493416 0.164141
0.597818 0.515084 0.0603952
0.932158 0.496818 0.25565
0.933944 0.503456 0.25803
0.163928 0.817975 0.630137
0.160525 0.816175 0.620905
0.14023 0.803891 0.55021
0.958373 0.927153 0.717815
0.965881 0.930495 0.726833
0.169024 0.82121 0.644114
0.163348 0.817731 0.628626
0.145068 0.80238 0.540017
0.943023 0.922911 0.706661
0.965728 0.935195 0.74374
0 0.0210422 0.0995956
0.148943 0.0280919 0.110262
0.565835 0.0384527 0.202731
0.710109 0.0506142 0.281559
0.714137 0.0525826 0.290974
0.027039 0.128634 0.124987
0.0961929 0.114763 0.114763
0.544549 0.0318303 0.157717
0.695369 0.0458991 0.239261
0.698405 0.0468605 0.246632
0 0.497108 0.283146
0 0.494179 0.233982
0.598856 0.513344 0.0605783
0.932265 0.49482 0.256031
0.934173 0.502297 0.25832
0.168475 0.820676 0.642283
0.165042 0.818875 0.633402
0.14255 0.804486 0.55671
0.957794 0.926818 0.715633
0.965148 0.926116 0.712749
0.173816 0.824079 0.656596
0.168322 0.8206 0.641871
0.139849 0.803937 0.551995
0.937011 0.920424 0.699718
0.965698 0.935241 0.743816
0 0.0984207 0.415946
0.111971 0.0675669 0.468681
0.603113 0.0903029 0.452186
0.769482 0.092134 0.470268
0.771145 0.0936599 0.479988
0 0.142306 0.404974
0 0.099443 0.416098
0.588708 0.0859846 0.435691
0.767056 0.0901045 0.450278
0.768826 0.0915541 0.461723
0.0356909 0.526528 0.487938
0.0348363 0.527703 0.487343
0.578988 0.556756 0.514763
0.982712 0.471473 0.519203
0.984756 0.478126 0.53373
0.191302 0.833997 0.698894
0.189883 0.833356 0.695964
0.164065 0.818387 0.629953
0.959747 0.934462 0.762066
0.973449 0.935546 0.771374
0.202396 0.840406 0.724529
0.198749 0.838376 0.716442
0.168444 0.820645 0.642084
0.937514 0.942946 0.798505
0.977157 0.958373 0.839368
0.0225834 0.375769 0.725429
0.0272526 0.386053 0.732311
0.54963 0.417182 0.979095
0.901915 0.418463 0.915267
0.901946 0.428214 0.922179
0.0181735 0.364996 0.718853
0.0218662 0.373907 0.724453
0.516365 0.421546 0.976806
0.902586 0.402762 0.905882
0.90219 0.416892 0.915648
0.0692912 0.567056 0.74641
0.073167 0.567224 0.754726
0.389502 0.63035 0.95433
0.933684 0.483207 0.894499
0.935668 0.495338 0.903197
0.261555 0.870604 0.846754
0.264988 0.873472 0.850721
0.248219 0.860471 0.830243
0.953353 0.949218 0.940459
0.971176 0.951293 0.943297
0.276265 0.880064 0.873289
0.275944 0.879866 0.871473
0.261128 0.872053 0.841337
0.964263 0.980423 0.970748
0.990921 0.990127 0.986862
0.0299687 0.396109 0.735348
0.0379339 0.413977 0.74609
0.537804 0.486183 1
0.902129 0.427893 0.921508
0.901915 0.428305 0.922332
0.031342 0.400519 0.736919
0.0300145 0.396216 0.73547
0.502861 0.484535 1
0.902327 0.427497 0.920867
0.901976 0.428183 0.922072
0.109071 0.60824 0.80267
0.108003 0.605814 0.802152
0.303029 0.64979 0.935378
0.929625 0.529656 0.944366
0.931273 0.535927 0.947265
0.274128 0.87747 0.881025
0.278996 0.881758 0.883833
0.255863 0.861036 0.872908
0.931701 0.941131 0.965484
0.969223 0.946593 0.967895
0.279347 0.8822 0.883406
0.279835 0.882567 0.884215
0.279835 0.882567 0.884215
0.93077 0.975143 0.974624
0.994003 0.993179 0.992432
