bundles/resolve-cinematic-luts/Phantom Luts/S5, S1, S1h LUTs/WB Offset - Green & Warm Boost/Tungsten V-Log WBO.cube
TITLE "Generated by Resolve"
LUT_3D_SIZE 33
0.00746166 0.00784314 0.0142672
0.00746166 0.00776684 0.0140841
0.00749218 0.00756847 0.0136416
0.00944533 0.00733959 0.0129702
0.0303197 0.00817884 0.0145418
0.0598459 0.00860609 0.01738
0.0883803 0.00888075 0.0207523
0.113527 0.00946059 0.0249638
0.143557 0.00985733 0.0303807
0.180026 0.0102998 0.0376593
0.224796 0.0112917 0.0469978
0.278508 0.0128634 0.057969
0.337835 0.0145571 0.0688182
0.395071 0.0179599 0.0823529
0.449546 0.0239719 0.101061
0.501976 0.0315099 0.121798
0.555642 0.0386053 0.144976
0.608942 0.0388952 0.166491
0.655741 0.0366064 0.189639
0.68603 0.0432288 0.214511
0.691707 0.0450294 0.223026
0.692226 0.0450752 0.226429
0.692638 0.0450752 0.229541
0.693141 0.0451972 0.231876
0.693614 0.0452888 0.234134
0.693965 0.0453498 0.23592
0.694362 0.0454566 0.237308
0.694804 0.0456397 0.238315
0.695247 0.0457618 0.239384
0.69572 0.0459144 0.240452
0.696223 0.0460975 0.241535
0.696925 0.0463874 0.243015
0.697566 0.0467079 0.244312
0.00749218 0.00758373 0.0136873
0.00746166 0.00776684 0.0140993
0.00746166 0.00776684 0.0140841
0.00749218 0.00756847 0.0136416
0.0208591 0.0083772 0.0140841
0.0501869 0.00846876 0.0160983
0.0796521 0.00836194 0.0189364
0.106355 0.00834669 0.0222171
0.13666 0.00820935 0.0270085
0.173449 0.00793469 0.0339818
0.218051 0.00849927 0.0431067
0.272206 0.00972 0.0533761
0.332021 0.010605 0.0628977
0.389502 0.0126955 0.0725567
0.443183 0.0179904 0.0894484
0.496117 0.0252079 0.110521
0.551431 0.0334783 0.135622
0.606958 0.0379492 0.160418
0.653666 0.036286 0.184176
0.684657 0.0429847 0.209323
0.690883 0.0449683 0.218235
0.691508 0.0449989 0.221912
0.691981 0.0450752 0.224735
0.692363 0.0450752 0.227466
0.692638 0.0450752 0.229603
0.692836 0.0451057 0.231128
0.693172 0.0451972 0.232364
0.693477 0.0452583 0.233539
0.693751 0.0453346 0.234516
0.694148 0.0454871 0.235569
0.69456 0.0456397 0.236576
0.695171 0.0459449 0.237797
0.695811 0.0462348 0.239155
0.00749218 0.00758373 0.0136873
0.00746166 0.00776684 0.0140993
0.00746166 0.00776684 0.0140841
0.00749218 0.00756847 0.0136416
0.0112306 0.00822461 0.0133822
0.0375067 0.0108186 0.0154879
0.0678416 0.0107576 0.0179599
0.0980087 0.0100099 0.0205386
0.129412 0.00918593 0.0254826
0.167452 0.00840772 0.0328069
0.212589 0.00794995 0.0414893
0.266728 0.00849927 0.0514839
0.327581 0.00929274 0.0610819
0.385473 0.0109712 0.0689708
0.438483 0.0145113 0.0825818
0.49073 0.0202029 0.100481
0.545663 0.0268254 0.1243
0.6038 0.0340429 0.152361
0.651804 0.0364538 0.178836
0.682979 0.0426795 0.203784
0.689921 0.044892 0.213336
0.690593 0.0449378 0.216861
0.691188 0.0449836 0.220035
0.691646 0.0450141 0.222705
0.691966 0.0450752 0.224613
0.69221 0.0450752 0.226383
0.692409 0.0450752 0.227741
0.692592 0.0451057 0.22887
0.692775 0.0451362 0.22977
0.693065 0.0452583 0.23064
0.693416 0.0454108 0.231632
0.694057 0.0456855 0.233051
0.694697 0.0459754 0.234363
0.00929274 0.0139467 0.0174716
0.00924697 0.0141451 0.017792
0.00875868 0.0132143 0.0163882
0.00903334 0.0118715 0.0155642
0.0105592 0.0102235 0.0145571
0.0261234 0.0144961 0.016144
0.0523079 0.0159152 0.0180362
0.0843366 0.0155642 0.0198825
0.1196 0.0130312 0.0234379
0.159457 0.0106355 0.0305791
0.206561 0.00939956 0.0399481
0.262287 0.00892653 0.0505074
0.323735 0.00933852 0.0608072
0.382742 0.0108949 0.0686351
0.435904 0.0134737 0.0806439
0.487541 0.0180362 0.0959487
0.54139 0.0226749 0.116075
0.598947 0.0273136 0.141665
0.649424 0.0349889 0.172213
0.681285 0.0425269 0.198276
0.688838 0.0447852 0.208209
0.689616 0.0448768 0.21178
0.690227 0.0449073 0.21503
0.690745 0.0449531 0.217609
0.691142 0.0449836 0.219776
0.691463 0.0449989 0.221546
0.691676 0.0450294 0.222858
0.691859 0.0450599 0.223896
0.692073 0.0451209 0.224704
0.692409 0.045243 0.225727
0.69279 0.0453803 0.226734
0.693416 0.045655 0.228138
0.694072 0.0459449 0.22948
0.0148928 0.035462 0.0285649
0.0148623 0.0357061 0.0288701
0.013138 0.0328679 0.0239719
0.0126192 0.0297398 0.0218814
0.0175021 0.024567 0.0193027
0.0266117 0.0230869 0.0191653
0.0445411 0.027451 0.0205539
0.0737621 0.0256046 0.0220798
0.109468 0.0215763 0.0233921
0.151095 0.0167086 0.0291295
0.198932 0.0124819 0.0374304
0.256474 0.0111086 0.0486915
0.319951 0.010071 0.0597543
0.379644 0.0108644 0.0682689
0.43386 0.0133974 0.0803082
0.486137 0.0179294 0.0956588
0.539315 0.0218204 0.114046
0.595254 0.0238804 0.134356
0.646815 0.0331121 0.165316
0.67921 0.0421302 0.192493
0.687526 0.0446479 0.202838
0.688396 0.0447395 0.206455
0.689158 0.044831 0.209659
0.689723 0.044892 0.212314
0.690166 0.0449073 0.214633
0.690501 0.0449378 0.216327
0.690761 0.0449531 0.217685
0.691005 0.0449989 0.218708
0.691234 0.0450446 0.219684
0.691569 0.0451667 0.220706
0.691966 0.045304 0.221775
0.692607 0.045594 0.223026
0.693248 0.0458991 0.224353
0.0196078 0.0584421 0.0393072
0.0195468 0.0587472 0.0397498
0.0172122 0.0557412 0.0336156
0.01561 0.0522927 0.0304875
0.0217441 0.0476844 0.0277867
0.0351568 0.0432746 0.0244907
0.0530709 0.0447852 0.0258183
0.0754253 0.046952 0.0269932
0.110918 0.0416266 0.0295567
0.150179 0.0331731 0.0302281
0.195911 0.0224308 0.0365759
0.252155 0.0153353 0.0457008
0.315572 0.0124056 0.0572824
0.377386 0.0115663 0.0671397
0.432319 0.0133669 0.0799878
0.484291 0.0178073 0.0952163
0.537987 0.0217136 0.11368
0.594049 0.0237125 0.133791
0.64535 0.0328222 0.161913
0.677729 0.0417945 0.188052
0.686061 0.0444038 0.197726
0.687053 0.0445563 0.201099
0.687877 0.0446784 0.204318
0.688548 0.0447547 0.206989
0.689052 0.0448005 0.209262
0.689448 0.0448615 0.211002
0.689723 0.044892 0.212314
0.689982 0.0449073 0.213504
0.690211 0.0449531 0.21442
0.690562 0.0450599 0.215488
0.690974 0.045243 0.216358
0.69163 0.0455177 0.217746
0.692256 0.0458076 0.219135
0.0229343 0.083238 0.0470283
0.0228122 0.0836652 0.047425
0.0199435 0.0808423 0.0409857
0.0170748 0.0771801 0.0375525
0.0211948 0.0729992 0.0361486
0.0372168 0.0670939 0.0314183
0.0561837 0.0655833 0.0286717
0.0840772 0.067277 0.0311742
0.113985 0.0670329 0.0331121
0.15552 0.0590677 0.0354772
0.204227 0.0470893 0.0372473
0.258289 0.0297093 0.0413062
0.315282 0.0181735 0.053727
0.375799 0.0142977 0.0640879
0.430411 0.0139467 0.0787518
0.482689 0.0177768 0.0948043
0.536583 0.0216678 0.113375
0.59292 0.023621 0.133684
0.644831 0.0327611 0.161395
0.676799 0.0416419 0.185779
0.685344 0.0443732 0.194965
0.686 0.04448 0.197086
0.686641 0.0445716 0.199176
0.687434 0.0446784 0.20206
0.687999 0.0447852 0.204211
0.688457 0.044831 0.205997
0.688792 0.0448615 0.207401
0.689052 0.044892 0.208545
0.689265 0.0449378 0.209354
0.689494 0.0449989 0.210086
0.689784 0.0451057 0.210895
0.690227 0.0452735 0.211872
0.690669 0.0454719 0.212833
0.0244755 0.108202 0.0528878
0.0243076 0.108766 0.0537728
0.0205386 0.10663 0.0458381
0.0164492 0.104234 0.0413825
0.0181582 0.101305 0.0406348
0.0332494 0.0971084 0.0379644
0.0541238 0.0934462 0.0343786
0.0846113 0.0937209 0.0322728
0.121233 0.0945144 0.0352789
0.158556 0.0916609 0.0372778
0.211841 0.0784466 0.0406958
0.269734 0.0633097 0.0425116
0.329793 0.0423285 0.0461891
0.380438 0.0225071 0.0581369
0.430091 0.0171664 0.0749828
0.48101 0.0183261 0.0936446
0.534981 0.021561 0.112825
0.591775 0.0234836 0.133394
0.643748 0.0325322 0.160769
0.676265 0.0414893 0.185336
0.685008 0.0443427 0.19379
0.685054 0.044358 0.193927
0.685435 0.044419 0.195087
0.685939 0.0444953 0.196674
0.686397 0.0445716 0.198215
0.68687 0.0446479 0.199634
0.687282 0.0447089 0.20116
0.687572 0.0447395 0.202258
0.68777 0.0448005 0.202945
0.688014 0.0448615 0.203723
0.688304 0.0449531 0.204456
0.688731 0.0451209 0.205371
0.689143 0.045304 0.206241
0.0242771 0.137346 0.0610208
0.0240787 0.137987 0.0621347
0.0196231 0.136141 0.0521706
0.0137942 0.133822 0.0450599
0.0134432 0.131624 0.0432288
0.0216678 0.128725 0.0408331
0.0458686 0.124941 0.0369573
0.0758373 0.123507 0.0348669
0.119112 0.122591 0.0324254
0.164294 0.122835 0.0359503
0.214908 0.117189 0.040116
0.282979 0.0971237 0.0469368
0.344167 0.0789197 0.049424
0.398642 0.0558633 0.0550393
0.441566 0.0303349 0.0650339
0.480919 0.0221866 0.0889601
0.534142 0.0231632 0.110582
0.589563 0.0234379 0.132601
0.64213 0.0321508 0.15964
0.675364 0.0412146 0.184421
0.685023 0.044358 0.193835
0.685023 0.044358 0.193835
0.685023 0.044358 0.193835
0.685176 0.0443885 0.194293
0.685389 0.044419 0.194919
0.685588 0.0444648 0.195438
0.685802 0.0444953 0.196155
0.685985 0.0445258 0.196719
0.686107 0.0445411 0.197162
0.68629 0.0445869 0.197635
0.686519 0.0446632 0.198138
0.686931 0.044831 0.198901
0.687358 0.0450141 0.199664
0.0215152 0.171695 0.0707561
0.0212558 0.172442 0.071931
0.0173342 0.170504 0.0595407
0.00985733 0.168795 0.0492256
0.0080415 0.167086 0.0439155
0.00952163 0.164736 0.0426032
0.0246128 0.162051 0.0370489
0.0587472 0.159167 0.033875
0.102571 0.158938 0.0307164
0.1608 0.156786 0.0284581
0.218631 0.156527 0.0340124
0.280415 0.148257 0.0412451
0.362463 0.12195 0.0543069
0.418875 0.104799 0.0588693
0.467811 0.0791028 0.0678264
0.503746 0.0466011 0.0796979
0.541543 0.032166 0.103059
0.589944 0.0270237 0.128862
0.639567 0.0316014 0.155993
0.674281 0.0408789 0.183246
0.685023 0.044358 0.193835
0.685023 0.044358 0.193835
0.685023 0.044358 0.193835
0.685023 0.044358 0.193835
0.685023 0.044358 0.193835
0.685023 0.044358 0.193835
0.685084 0.0443732 0.193988
0.685176 0.0443885 0.194308
0.685267 0.0444038 0.194553
0.68542 0.0444495 0.194888
0.685618 0.0445411 0.195254
0.686046 0.0447242 0.196002
0.686519 0.0449073 0.196902
0.0131533 0.209735 0.0808881
0.0127871 0.210803 0.0825971
0.00999466 0.209262 0.0690776
0.00492866 0.207233 0.0557259
0.00271611 0.205829 0.0472114
0.00283818 0.204425 0.0430457
0.0030518 0.202274 0.0392309
0.0214694 0.200122 0.0304112
0.0734722 0.19913 0.0268406
0.131731 0.19942 0.0228733
0.211383 0.195438 0.0216526
0.282353 0.195392 0.0302739
0.355032 0.187304 0.0439002
0.440757 0.158114 0.0648356
0.494865 0.141512 0.0733654
0.53843 0.11577 0.0860456
0.574395 0.0740368 0.100679
0.607492 0.0413977 0.118593
0.642344 0.0338903 0.150118
0.674891 0.0413977 0.179675
0.685832 0.0447395 0.193561
0.685023 0.044358 0.193835
0.685023 0.044358 0.193835
0.685023 0.044358 0.193835
0.685023 0.044358 0.193835
0.685023 0.044358 0.193835
0.685023 0.044358 0.193835
0.685023 0.044358 0.193835
0.685023 0.044358 0.193835
0.685115 0.0443885 0.193973
0.685283 0.0444648 0.194263
0.685649 0.0446326 0.194888
0.686046 0.044831 0.195438
0 0.251926 0.0879225
0 0.252872 0.0896773
0 0.251591 0.0774395
0 0.249699 0.0641642
0 0.2486 0.0544137
0 0.247898 0.0440528
0 0.246784 0.0398871
0 0.244343 0.0345769
0.0156558 0.241474 0.0195773
0.0881971 0.243214 0.0148013
0.166629 0.243122 0.0109865
0.270024 0.238666 0.0118105
0.35433 0.240452 0.0269474
0.424582 0.236652 0.0454719
0.515511 0.207813 0.0789807
0.570199 0.189502 0.0945449
0.616617 0.162676 0.108385
0.655161 0.113497 0.121736
0.670222 0.0605783 0.138888
0.685252 0.0486152 0.170367
0.692409 0.0485847 0.18883
0.689097 0.0465705 0.191379
0.687541 0.0456245 0.192859
0.686244 0.0449836 0.193454
0.685252 0.0444648 0.193774
0.685054 0.0443732 0.193835
0.685023 0.044358 0.193835
0.685023 0.044358 0.193835
0.685039 0.044358 0.193851
0.685115 0.0444038 0.193988
0.685283 0.0444648 0.194278
0.685649 0.0446326 0.194903
0.686046 0.044831 0.195453
0 0.295857 0.0941329
0 0.296849 0.0961776
0 0.295689 0.0848554
0 0.294484 0.0728313
0 0.293797 0.06392
0 0.293507 0.0565042
0 0.292897 0.0451057
0 0.291646 0.0409247
0 0.288457 0.0303197
0.0138705 0.286397 0.00561532
0.1084 0.290944 0
0.208362 0.291142 0
0.338216 0.288258 0.00277714
0.425681 0.292256 0.0278172
0.490227 0.296162 0.0497139
0.584161 0.274479 0.0958724
0.650446 0.248814 0.124208
0.699794 0.219379 0.138048
0.736385 0.164721 0.152499
0.729519 0.100237 0.1691
0.712459 0.0643168 0.177951
0.704936 0.0569619 0.181155
0.699809 0.0530861 0.185351
0.694453 0.0497444 0.188067
0.692149 0.0484627 0.189151
0.691203 0.0478828 0.189822
0.690669 0.0475166 0.190478
0.690394 0.0473335 0.190921
0.690181 0.0471809 0.191272
0.690105 0.0471199 0.191562
0.690166 0.0471351 0.191775
0.690532 0.047303 0.192096
0.691447 0.0477913 0.192218
0 0.340291 0.108675
0 0.341344 0.111055
0 0.340215 0.0997787
0 0.339208 0.0879683
0 0.338262 0.0770581
0 0.338018 0.0702983
0 0.338323 0.0647746
0 0.338094 0.0531472
0 0.336797 0.0484016
0 0.333486 0.0338293
0.0180819 0.332341 0
0.134844 0.338659 0
0.260334 0.339605 0
0.402975 0.340383 0
0.495872 0.347799 0.0360571
0.556786 0.35938 0.0625315
0.651148 0.345998 0.119234
0.732128 0.315602 0.15816
0.785779 0.285924 0.172198
0.80975 0.234012 0.188495
0.792981 0.172534 0.194339
0.763409 0.128634 0.18352
0.738109 0.0960861 0.174014
0.725521 0.0798962 0.17438
0.718334 0.0711376 0.176883
0.713191 0.0649424 0.178241
0.709529 0.0607309 0.179004
0.708019 0.059205 0.179843
0.707393 0.0586862 0.180285
0.707118 0.0585031 0.180392
0.707301 0.0586252 0.180346
0.709056 0.0602426 0.180499
0.717357 0.0698405 0.182498
0 0.387152 0.134081
0 0.388281 0.136675
0 0.3879 0.127108
0 0.386908 0.116167
0 0.386007 0.105043
0 0.385306 0.0948959
0 0.385153 0.0887312
0 0.385718 0.085008
0 0.385687 0.0723278
0 0.384497 0.0664988
0 0.379919 0.0456245
0.0349279 0.380697 0
0.175418 0.389242 0
0.320638 0.391943 0
0.468345 0.396399 0.00747692
0.565362 0.406729 0.0542916
0.625315 0.422614 0.0847028
0.720623 0.415259 0.144228
0.809903 0.387793 0.189639
0.858518 0.35758 0.20882
0.871153 0.321233 0.220356
0.860609 0.289021 0.217762
0.847135 0.262577 0.212757
0.833783 0.23856 0.20734
0.823377 0.220645 0.203891
0.815366 0.207172 0.201328
0.808606 0.196521 0.198749
0.803677 0.18912 0.196521
0.801221 0.185397 0.195209
0.800198 0.184207 0.194064
0.802182 0.187243 0.194308
0.807691 0.195544 0.196933
0.815793 0.208011 0.200717
0 0.438712 0.173083
0 0.440146 0.176532
0 0.439521 0.168017
0 0.438895 0.158724
0 0.438209 0.148684
0 0.437537 0.139178
0 0.437171 0.129854
0 0.436973 0.121889
0 0.437568 0.11809
0 0.437873 0.105089
0 0.436271 0.0988479
0 0.430335 0.0667735
0.0703746 0.433463 0
0.226108 0.442771 0
0.382177 0.446967 0.00292973
0.532326 0.454383 0.0286717
0.633539 0.467277 0.0814221
0.69575 0.486534 0.117006
0.787167 0.486809 0.172061
0.871977 0.46482 0.21857
0.909957 0.437537 0.240909
0.914641 0.414237 0.244999
0.908553 0.39852 0.241093
0.903639 0.386175 0.238102
0.899336 0.375051 0.235584
0.895903 0.366583 0.23386
0.89337 0.3608 0.232364
0.892088 0.357687 0.231708
0.892088 0.357504 0.231785
0.89279 0.359167 0.232242
0.894469 0.363012 0.23328
0.897215 0.36968 0.234852
0.901091 0.379278 0.237354
0 0.495079 0.224659
0 0.496559 0.228061
0 0.496178 0.220829
0 0.495674 0.212818
0 0.495094 0.204242
0 0.494911 0.19527
0 0.494362 0.185687
0 0.493889 0.175998
0 0.493416 0.164141
0 0.494011 0.157534
0 0.49543 0.147738
0 0.49395 0.14226
0 0.486122 0.0936751
0.11339 0.488762 0.0201877
0.285374 0.499138 0.0116121
0.446418 0.504585 0.0296941
0.597818 0.515084 0.0603952
0.700374 0.529412 0.118547
0.762798 0.550759 0.156909
0.84007 0.557534 0.198718
0.909728 0.543557 0.242191
0.934554 0.527108 0.258137
0.933776 0.515572 0.257191
0.932769 0.505028 0.256168
0.932158 0.496818 0.25565
0.931655 0.490745 0.255451
0.93135 0.486671 0.255344
0.931151 0.484596 0.255283
0.931319 0.484718 0.255528
0.931609 0.486061 0.255802
0.932357 0.489464 0.256428
0.933074 0.495201 0.25713
0.933944 0.503456 0.25803
0.0037995 0.555871 0.285054
0.00430304 0.557351 0.289097
0.00317388 0.557168 0.28365
0.00215152 0.556985 0.277287
0.00164797 0.556985 0.27071
0.000656138 0.556588 0.263401
0 0.556146 0.255512
0 0.555673 0.246509
0 0.55494 0.234394
0 0.554177 0.218738
0 0.554788 0.206302
0 0.555993 0.198688
0 0.55378 0.191913
0.000823987 0.545357 0.122698
0.163546 0.547311 0.0485237
0.349096 0.557885 0.0430304
0.511131 0.564538 0.0635233
0.66009 0.575723 0.101976
0.762234 0.590753 0.161913
0.822538 0.612741 0.19884
0.879255 0.625406 0.232425
0.921981 0.62121 0.260655
0.931884 0.611749 0.265843
0.93315 0.604242 0.265583
0.933852 0.598138 0.265064
0.934325 0.594095 0.264866
0.934539 0.592096 0.264759
0.934661 0.590982 0.264683
0.934569 0.591043 0.264622
0.934356 0.592386 0.264652
0.93373 0.59501 0.264546
0.93315 0.600031 0.265049
0.931975 0.607279 0.265507
0.0325933 0.617212 0.34786
0.0335088 0.618814 0.351568
0.0325475 0.619043 0.34786
0.0317235 0.619547 0.34374
0.0305791 0.619455 0.338781
0.0294804 0.619348 0.333577
0.0283818 0.619226 0.327672
0.0274815 0.61915 0.321721
0.0262303 0.619318 0.313527
0.023743 0.618509 0.299931
0.0204776 0.617334 0.280354
0.0155032 0.617288 0.259602
0.0115053 0.617655 0.250782
0.0120241 0.613886 0.239963
0.0427253 0.60679 0.159854
0.2365 0.607446 0.0890364
0.421515 0.617212 0.088304
0.575128 0.624033 0.109361
0.719554 0.636179 0.153903
0.818647 0.652094 0.213931
0.870985 0.67277 0.250828
0.911116 0.688991 0.280751
0.928939 0.689082 0.290562
0.928405 0.684062 0.287587
0.928069 0.68011 0.28542
0.927901 0.677714 0.284443
0.927993 0.675929 0.28397
0.9281 0.675074 0.283818
0.928084 0.675105 0.283925
0.928176 0.676127 0.284504
0.928008 0.678096 0.285496
0.928435 0.682094 0.288121
0.928634 0.686839 0.290898
0.0595102 0.677958 0.410208
0.0607004 0.679789 0.413947
0.0602274 0.680079 0.411704
0.0594797 0.680171 0.408545
0.058732 0.680278 0.405066
0.0579538 0.680308 0.401358
0.0572366 0.680491 0.39736
0.0567025 0.680903 0.393744
0.0556649 0.680751 0.387671
0.0538949 0.68014 0.378393
0.051194 0.678996 0.364019
0.0474098 0.677363 0.342657
0.0426032 0.676036 0.316274
0.0398566 0.674205 0.304158
0.0427405 0.66862 0.28716
0.106554 0.662684 0.206546
0.329595 0.663859 0.147677
0.491325 0.67364 0.152361
0.637171 0.682506 0.171496
0.776654 0.696773 0.221973
0.865293 0.7122 0.28014
0.90901 0.729885 0.312047
0.935195 0.74406 0.338109
0.938247 0.742458 0.338323
0.937743 0.740124 0.335866
0.937163 0.737957 0.333654
0.936797 0.736584 0.332204
0.936721 0.736019 0.33167
0.936706 0.736019 0.331701
0.936996 0.73724 0.332982
0.937377 0.738827 0.334676
0.937926 0.741268 0.33724
0.938811 0.745037 0.341161
0.0885023 0.728786 0.47277
0.089601 0.730159 0.476097
0.0893111 0.73048 0.474678
0.0888228 0.730709 0.472511
0.088304 0.730861 0.470222
0.0878004 0.730968 0.467842
0.087541 0.731548 0.466041
0.0870222 0.731746 0.463218
0.086244 0.731716 0.459556
0.0850233 0.731273 0.453239
0.0828565 0.730312 0.443717
0.0798352 0.729152 0.429572
0.0754101 0.726741 0.40647
0.0709697 0.723934 0.381109
0.0697795 0.720378 0.369116
0.0809491 0.711589 0.325368
0.18819 0.706432 0.248814
0.421271 0.713115 0.227405
0.558175 0.72546 0.236316
0.694789 0.736065 0.252979
0.826947 0.753445 0.309056
0.904158 0.767437 0.361242
0.938231 0.782071 0.384985
0.950439 0.788235 0.396109
0.949722 0.785855 0.392691
0.949203 0.784054 0.38996
0.949142 0.783169 0.38851
0.948989 0.782559 0.387533
0.949081 0.782818 0.387808
0.949248 0.783368 0.38854
0.949279 0.784222 0.389746
0.949813 0.78616 0.39234
0.950744 0.788998 0.396017
0.115816 0.76994 0.535164
0.116808 0.771115 0.53814
0.116609 0.77145 0.537453
0.116289 0.77171 0.536446
0.116197 0.772259 0.535973
0.115877 0.772473 0.534539
0.115572 0.772686 0.533242
0.115282 0.772824 0.531929
0.114611 0.772763 0.529305
0.113481 0.772457 0.525261
0.111849 0.772015 0.519417
0.108995 0.770504 0.509331
0.104875 0.768078 0.493278
0.099855 0.764706 0.470634
0.0965591 0.761669 0.456596
0.0994888 0.753536 0.422171
0.134478 0.742947 0.353033
0.31284 0.740215 0.312016
0.510658 0.760601 0.321294
0.631815 0.774563 0.335317
0.75465 0.786236 0.352438
0.868666 0.802915 0.403052
0.936294 0.815824 0.450019
0.959548 0.825116 0.464744
0.961852 0.824491 0.46276
0.96144 0.822629 0.459495
0.96141 0.8215 0.457206
0.96144 0.821241 0.456733
0.96144 0.821271 0.456641
0.961471 0.82179 0.457633
0.961776 0.822889 0.460029
0.962646 0.824735 0.463767
0.963775 0.827665 0.469566
0.142657 0.80148 0.594324
0.143664 0.802243 0.596292
0.143984 0.80267 0.596262
0.144259 0.803052 0.596139
0.14435 0.803281 0.595636
0.144396 0.803433 0.594965
0.144457 0.803616 0.594232
0.144488 0.803815 0.593347
0.144244 0.803784 0.591684
0.143862 0.803723 0.589212
0.142748 0.803159 0.585168
0.140826 0.802121 0.578393
0.137926 0.800427 0.568124
0.133761 0.797818 0.553124
0.129137 0.79472 0.537606
0.125719 0.790387 0.523445
0.137499 0.775174 0.450736
0.238956 0.763226 0.392828
0.434684 0.780728 0.396017
0.618509 0.810925 0.435096
0.724163 0.825635 0.451743
0.81825 0.835065 0.461982
0.903243 0.848341 0.499184
0.954223 0.858778 0.536538
0.965301 0.861402 0.541573
0.965225 0.859617 0.537667
0.965347 0.858381 0.535027
0.965377 0.857649 0.533394
0.965438 0.857603 0.532937
0.965377 0.857939 0.533578
0.96524 0.8589 0.535546
0.965118 0.860792 0.539162
0.965011 0.863066 0.544289
0.16257 0.817166 0.626184
0.162951 0.817411 0.627298
0.1626 0.817288 0.626459
0.162142 0.817044 0.625483
0.161654 0.816831 0.624125
0.161151 0.816541 0.622675
0.160632 0.816266 0.621195
0.160098 0.81593 0.619699
0.159304 0.815442 0.617487
0.158145 0.814755 0.614084
0.156649 0.81384 0.609613
0.154299 0.812451 0.602869
0.151217 0.810636 0.59353
0.147036 0.808164 0.580468
0.142184 0.805158 0.564309
0.140734 0.804166 0.560708
0.139284 0.799512 0.531945
0.200824 0.784115 0.463371
0.365377 0.786923 0.455619
0.561334 0.823056 0.500343
0.730922 0.85832 0.55346
0.812909 0.871733 0.570504
0.87808 0.881224 0.581231
0.932998 0.891127 0.607782
0.96112 0.897093 0.630076
0.963302 0.895842 0.626352
0.963211 0.894133 0.622003
0.963226 0.893111 0.619287
0.963256 0.892668 0.618006
0.96318 0.892882 0.618341
0.963073 0.893996 0.621134
0.962951 0.895537 0.624475
0.963211 0.897841 0.631281
0.163928 0.817975 0.630137
0.16434 0.818235 0.631296
0.163867 0.818006 0.63006
0.16347 0.817838 0.629084
0.163012 0.817655 0.627832
0.162463 0.817349 0.626291
0.161898 0.816999 0.624887
0.161318 0.816648 0.623194
0.160525 0.816175 0.620905
0.159426 0.815534 0.617761
0.157794 0.814542 0.613001
0.15555 0.813214 0.606363
0.152438 0.811383 0.597162
0.148272 0.808911 0.584375
0.142855 0.805585 0.566354
0.141878 0.805005 0.563043
0.14023 0.803891 0.55021
0.187182 0.791104 0.488182
0.338262 0.784939 0.460716
0.512245 0.819318 0.515373
0.699367 0.861402 0.582635
0.822995 0.891035 0.63978
0.875486 0.901595 0.656504
0.921645 0.913161 0.678233
0.958373 0.927153 0.717815
0.965621 0.929488 0.725505
0.96582 0.929076 0.723781
0.965942 0.928923 0.722759
0.966094 0.929213 0.723354
0.966003 0.929458 0.723781
0.965972 0.930114 0.725322
0.965927 0.930419 0.726299
0.965881 0.930495 0.726833
0.165209 0.818891 0.633753
0.165545 0.819104 0.634653
0.165011 0.818769 0.633204
0.164477 0.818448 0.631891
0.163973 0.818204 0.630503
0.163485 0.817945 0.629236
0.162966 0.817639 0.627756
0.162325 0.817273 0.625986
0.161456 0.816724 0.623606
0.160403 0.816129 0.620539
0.158755 0.815106 0.615839
0.156542 0.813764 0.609354
0.153384 0.811917 0.599985
0.149203 0.809445 0.58735
0.143816 0.806165 0.569497
0.141878 0.805005 0.563058
0.141482 0.804318 0.553414
0.178439 0.79382 0.497917
0.31577 0.78201 0.454826
0.488334 0.814557 0.509743
0.67631 0.856733 0.576608
0.810361 0.88922 0.638132
0.871305 0.902983 0.664591
0.912596 0.912657 0.680751
0.950942 0.926818 0.717906
0.965026 0.934112 0.740642
0.965988 0.934737 0.742672
0.965957 0.934752 0.742687
0.965927 0.934829 0.742885
0.965866 0.934951 0.743206
0.96585 0.934997 0.743313
0.965835 0.935027 0.743374
0.965835 0.935027 0.743374
0.166201 0.819516 0.636545
0.166491 0.819669 0.637293
0.165942 0.819348 0.635828
0.165362 0.818998 0.634211
0.164813 0.818692 0.632822
0.164218 0.818357 0.631266
0.163714 0.818082 0.629862
0.163134 0.817746 0.628244
0.162249 0.817212 0.625788
0.161013 0.816495 0.622324
0.159487 0.815564 0.617899
0.157183 0.81416 0.611124
0.154055 0.812314 0.60209
0.149874 0.809888 0.589242
0.144503 0.806577 0.571878
0.141878 0.805005 0.563027
0.142229 0.80444 0.555474
0.172412 0.795392 0.503395
0.295415 0.780514 0.452995
0.472145 0.811093 0.504952
0.661524 0.853254 0.570733
0.800168 0.886885 0.6336
0.865446 0.901732 0.662928
0.906432 0.910765 0.676982
0.944244 0.923766 0.708873
0.963714 0.933532 0.738674
0.965942 0.934829 0.742962
0.965927 0.934859 0.743023
0.965896 0.934905 0.74313
0.96585 0.934981 0.743282
