bundles/resolve-cinematic-luts/Phantom Luts/S5, S1, S1h LUTs/WB Offset - Green & Warm Boost/Tungsten V-Log WBO.cube
TITLE "Generated by Resolve"
LUT_3D_SIZE 9
0.00746166 0.00784314 0.0142672
0.0303197 0.00817884 0.0145418
0.143557 0.00985733 0.0303807
0.337835 0.0145571 0.0688182
0.555642 0.0386053 0.144976
0.691707 0.0450294 0.223026
0.693614 0.0452888 0.234134
0.695247 0.0457618 0.239384
0.697566 0.0467079 0.244312
0.0148928 0.035462 0.0285649
0.0175021 0.024567 0.0193027
0.109468 0.0215763 0.0233921
0.319951 0.010071 0.0597543
0.539315 0.0218204 0.114046
0.687526 0.0446479 0.202838
0.690166 0.0449073 0.214633
0.691234 0.0450446 0.219684
0.693248 0.0458991 0.224353
0.0242771 0.137346 0.0610208
0.0134432 0.131624 0.0432288
0.119112 0.122591 0.0324254
0.344167 0.0789197 0.049424
0.534142 0.0231632 0.110582
0.685023 0.044358 0.193835
0.685389 0.044419 0.194919
0.686107 0.0445411 0.197162
0.687358 0.0450141 0.199664
0 0.295857 0.0941329
0 0.293797 0.06392
0 0.288457 0.0303197
0.338216 0.288258 0.00277714
0.650446 0.248814 0.124208
0.712459 0.0643168 0.177951
0.692149 0.0484627 0.189151
0.690181 0.0471809 0.191272
0.691447 0.0477913 0.192218
0 0.495079 0.224659
0 0.495094 0.204242
0 0.493416 0.164141
0 0.486122 0.0936751
0.597818 0.515084 0.0603952
0.909728 0.543557 0.242191
0.932158 0.496818 0.25565
0.931319 0.484718 0.255528
0.933944 0.503456 0.25803
0.0885023 0.728786 0.47277
0.088304 0.730861 0.470222
0.086244 0.731716 0.459556
0.0754101 0.726741 0.40647
0.18819 0.706432 0.248814
0.826947 0.753445 0.309056
0.949722 0.785855 0.392691
0.949081 0.782818 0.387808
0.950744 0.788998 0.396017
0.163928 0.817975 0.630137
0.163012 0.817655 0.627832
0.160525 0.816175 0.620905
0.152438 0.811383 0.597162
0.14023 0.803891 0.55021
0.699367 0.861402 0.582635
0.958373 0.927153 0.717815
0.966094 0.929213 0.723354
0.965881 0.930495 0.726833
0.167346 0.820127 0.639597
0.165774 0.819135 0.635157
0.162982 0.817441 0.627527
0.154482 0.812329 0.603037
0.142855 0.803967 0.554925
0.650919 0.850248 0.565469
0.936767 0.919753 0.697932
0.966217 0.934371 0.742031
0.965835 0.934997 0.743328
0.169024 0.82121 0.644114
0.166751 0.819898 0.638025
0.163348 0.817731 0.628626
0.152804 0.811353 0.597955
0.145068 0.80238 0.540017
0.719554 0.866407 0.592935
0.943023 0.922911 0.706661
0.966049 0.934661 0.742626
0.965728 0.935195 0.74374
0.00596628 0.0100557 0.0285039
0.0286259 0.0106813 0.0316777
0.145342 0.0217746 0.066453
0.351476 0.0253605 0.109331
0.557534 0.0326848 0.16791
0.698054 0.0466621 0.24596
0.701289 0.0476081 0.256916
0.702495 0.0480049 0.26128
0.703899 0.0486152 0.264973
0.0133822 0.0285496 0.0336156
0.00981155 0.0164187 0.0229801
0.115343 0.0142061 0.0320897
0.325856 0.0176242 0.0725414
0.552743 0.0398871 0.147814
0.693019 0.0455482 0.226383
0.694774 0.0457771 0.237415
0.69688 0.0463569 0.242924
0.698497 0.0469978 0.246525
0.0287938 0.131044 0.0947738
0.0260624 0.124331 0.070222
0.105486 0.117388 0.0337377
0.341299 0.0615244 0.0489204
0.535302 0.0249638 0.118547
0.689082 0.0450752 0.207309
0.69073 0.0452277 0.215076
0.691386 0.0452735 0.218509
0.6925 0.0457465 0.221027
0 0.295003 0.136812
0 0.291814 0.107774
0 0.286656 0.0485542
0.33608 0.284794 0.00376898
0.646952 0.238895 0.121263
0.710216 0.0618601 0.179034
0.691218 0.0477607 0.190738
0.689326 0.0464637 0.193774
0.690455 0.0471504 0.19353
0 0.496254 0.252888
0 0.495933 0.235111
0 0.492882 0.193683
0 0.487831 0.116579
0.598367 0.514351 0.0605173
0.912947 0.541085 0.244373
0.932143 0.496422 0.255741
0.931655 0.48481 0.255924
0.934127 0.503883 0.258213
0.0908675 0.729549 0.483284
0.0909285 0.731792 0.481514
0.0890974 0.732998 0.471687
0.0783703 0.728298 0.422385
0.172366 0.708125 0.258045
0.828351 0.754086 0.310903
0.949554 0.785458 0.39205
0.948684 0.781857 0.386496
0.950393 0.78851 0.394537
0.166033 0.819196 0.635782
0.164996 0.818799 0.633249
0.162585 0.817441 0.626688
0.154589 0.81265 0.603586
0.141619 0.804181 0.552789
0.694575 0.86041 0.581659
0.958236 0.927153 0.717464
0.965759 0.927779 0.718807
0.965576 0.928466 0.72047
0.169497 0.821454 0.645304
0.167803 0.820325 0.640421
0.165011 0.818631 0.633051
0.156695 0.813657 0.609476
0.142275 0.80415 0.556222
0.64361 0.848585 0.562585
0.935012 0.919051 0.696025
0.966217 0.934371 0.742031
0.965835 0.934997 0.743328
0.170962 0.822431 0.649119
0.168719 0.820966 0.643122
0.165377 0.818936 0.634058
0.155001 0.812634 0.60441
0.141787 0.803037 0.544991
0.709377 0.86389 0.588251
0.940383 0.921965 0.703944
0.966049 0.934661 0.742611
0.965728 0.935195 0.74374
0 0.0210422 0.0995956
0.0490578 0.016495 0.103471
0.148943 0.0280919 0.110262
0.35639 0.0332494 0.152636
0.565835 0.0384527 0.202731
0.705776 0.0491188 0.270619
0.710109 0.0506142 0.281559
0.71223 0.051606 0.286595
0.714137 0.0525826 0.290974
0.00740063 0.038819 0.0723888
0.00184634 0.0273289 0.0872053
0.11873 0.024567 0.0937514
0.340368 0.0282597 0.125231
0.556725 0.0345006 0.177859
0.70016 0.047303 0.252674
0.702602 0.0480049 0.262318
0.704448 0.048661 0.266865
0.706157 0.0494392 0.271199
0.027039 0.128634 0.124987
0.0266117 0.121614 0.118807
0.0961929 0.114763 0.114763
0.349645 0.0764477 0.11339
0.544549 0.0318303 0.157717
0.693553 0.0454414 0.232288
0.695369 0.0458991 0.239261
0.696818 0.0462043 0.243244
0.698405 0.0468605 0.246632
0 0.294865 0.181186
0 0.291875 0.163622
0 0.284443 0.111315
0.338445 0.288136 0.060029
0.647013 0.227161 0.13431
0.707912 0.0581674 0.186343
0.692226 0.0467536 0.204974
0.692241 0.0459602 0.214115
0.693599 0.0466011 0.21503
0 0.497108 0.283146
0 0.497276 0.268986
0 0.494179 0.233982
0 0.488014 0.135897
0.598856 0.513344 0.0605783
0.913817 0.539239 0.244938
0.932265 0.49482 0.256031
0.931685 0.482048 0.256107
0.934173 0.502297 0.25832
0.0937057 0.730098 0.494957
0.0937819 0.732815 0.493797
0.0925154 0.734371 0.485496
0.0817273 0.729274 0.439475
0.15288 0.709834 0.271382
0.829175 0.754208 0.311498
0.949416 0.784604 0.390616
0.948272 0.780896 0.384527
0.950027 0.787686 0.392508
0.168475 0.820676 0.642283
0.167498 0.820279 0.639963
0.165042 0.818875 0.633402
0.157259 0.814237 0.611353
0.14255 0.804486 0.55671
0.686015 0.858625 0.579187
0.957794 0.926818 0.715633
0.965652 0.925978 0.712337
0.965148 0.926116 0.712749
0.171862 0.822828 0.651591
0.170413 0.821973 0.647517
0.167636 0.820142 0.640009
0.159319 0.815244 0.617258
0.140948 0.804303 0.558114
0.631418 0.84567 0.557473
0.93225 0.917922 0.693034
0.966217 0.934371 0.742031
0.965835 0.934997 0.743328
0.173816 0.824079 0.656596
0.171649 0.822766 0.651041
0.168322 0.8206 0.641871
0.15819 0.814588 0.61387
0.139849 0.803937 0.551995
0.693568 0.86009 0.581521
0.937011 0.920424 0.699718
0.966049 0.934661 0.742611
0.965698 0.935241 0.743816
0 0.0459144 0.227649
0.032929 0.0384833 0.240803
0.192065 0.0315709 0.231586
0.365255 0.0467842 0.249973
0.576959 0.0594339 0.288624
0.733745 0.0644846 0.336629
0.737514 0.0670329 0.345724
0.738918 0.0679942 0.349859
0.741039 0.0693675 0.3552
0 0.0607614 0.206226
0 0.0459144 0.220951
0.124849 0.0303197 0.247761
0.34992 0.0452277 0.235782
0.569696 0.0544747 0.269108
0.727626 0.0605325 0.321019
0.730892 0.0625925 0.329656
0.732631 0.0636912 0.333761
0.735073 0.0652781 0.339834
0 0.142397 0.214481
0 0.131823 0.223453
0.0439002 0.108919 0.251347
0.33611 0.0670024 0.230564
0.560479 0.0492714 0.247242
0.717998 0.0549172 0.298817
0.721614 0.0568704 0.307591
0.723613 0.0580911 0.311971
0.726299 0.0596475 0.317983
0.00344854 0.299107 0.272389
0.00340276 0.296773 0.2692
0.00454719 0.290074 0.259159
0.315816 0.302296 0.278141
0.667308 0.235523 0.266255
0.722972 0.0580301 0.262364
0.709651 0.0504768 0.275944
0.711269 0.0512398 0.284153
0.715099 0.0530709 0.28893
0.00297551 0.504173 0.352926
0.000686656 0.504768 0.346044
0 0.501427 0.325597
0 0.484672 0.22855
0.606928 0.524193 0.183627
0.93489 0.527047 0.296437
0.950942 0.472816 0.294423
0.947951 0.460639 0.29163
0.953658 0.48426 0.301244
0.0995499 0.730465 0.520027
0.100237 0.733776 0.5205
0.0992599 0.735256 0.514351
0.0891737 0.729976 0.476768
0.134585 0.709087 0.302739
0.828672 0.752544 0.324987
0.949905 0.7832 0.39678
0.948684 0.779004 0.389013
0.950713 0.786694 0.40267
0.174243 0.824109 0.657374
0.173678 0.823987 0.656184
0.171466 0.822629 0.650477
0.164019 0.81825 0.630716
0.142824 0.80473 0.559609
0.663447 0.853346 0.570459
0.955123 0.923186 0.702525
0.964294 0.91899 0.691066
0.964263 0.920165 0.695659
0.178149 0.82652 0.667399
0.177005 0.82591 0.664622
0.174243 0.824079 0.657328
0.166491 0.819501 0.637018
0.142763 0.805386 0.564874
0.601968 0.838895 0.546242
0.925277 0.915801 0.686976
0.966217 0.934371 0.742031
0.965866 0.935027 0.74345
0.181277 0.828412 0.675349
0.17937 0.827314 0.670512
0.17644 0.825483 0.66302
0.166751 0.819654 0.63769
0.142535 0.80531 0.563317
0.66215 0.852903 0.569528
0.928908 0.917372 0.691981
0.966049 0.934661 0.742641
0.965728 0.935195 0.74374
0 0.0984207 0.415946
0 0.0929274 0.43093
0.111971 0.0675669 0.468681
0.404822 0.0576944 0.438834
0.603113 0.0903029 0.452186
0.768902 0.0916457 0.464744
0.769482 0.092134 0.470268
0.769879 0.0924849 0.472541
0.771145 0.0936599 0.479988
0 0.10782 0.410986
0 0.0974594 0.414191
0.0425422 0.0821393 0.45008
0.385519 0.0532387 0.442466
0.597528 0.0885939 0.445899
0.768109 0.0909895 0.457115
0.768582 0.091371 0.462089
0.768948 0.0916915 0.464591
0.770397 0.0929427 0.472618
0 0.142306 0.404974
0 0.127733 0.409461
0 0.099443 0.416098
0.348241 0.0472877 0.450645
0.588708 0.0859846 0.435691
0.766262 0.0894789 0.445075
0.767056 0.0901045 0.450278
0.767437 0.0904555 0.453101
0.768826 0.0915541 0.461723
0 0.32108 0.431006
0 0.315663 0.437263
0 0.30193 0.445167
0.230991 0.281422 0.538537
0.626261 0.20473 0.478447
0.761822 0.087129 0.421057
0.763912 0.0876631 0.431525
0.764492 0.0881056 0.434669
0.766613 0.0898299 0.444434
0.0356909 0.526528 0.487938
0.0354314 0.528435 0.489632
0.0348363 0.527703 0.487343
0.0290532 0.517418 0.470314
0.578988 0.556756 0.514763
0.969543 0.525612 0.524926
0.982712 0.471473 0.519203
0.979294 0.45803 0.518853
0.984756 0.478126 0.53373
0.119463 0.737453 0.589273
0.12105 0.741482 0.592798
0.120974 0.743313 0.590738
0.113542 0.738064 0.568689
0.174228 0.709941 0.453147
0.842344 0.778973 0.524712
0.962432 0.80827 0.571801
0.96231 0.803021 0.568704
0.962005 0.813092 0.583993
0.191302 0.833997 0.698894
0.191363 0.834241 0.699306
0.189883 0.833356 0.695964
0.183719 0.82977 0.681178
0.164065 0.818387 0.629953
0.66128 0.872801 0.662699
0.959747 0.934462 0.762066
0.972519 0.932464 0.760494
0.973449 0.935546 0.771374
0.196216 0.836881 0.710628
0.195666 0.836591 0.709422
0.193988 0.835691 0.70544
0.186847 0.831479 0.688609
0.166262 0.819394 0.636103
0.595956 0.855497 0.635706
0.93434 0.939086 0.783322
0.976883 0.956405 0.832181
0.977005 0.957839 0.837018
0.202396 0.840406 0.724529
0.201099 0.839719 0.72166
0.198749 0.838376 0.716442
0.190204 0.833387 0.696498
0.168444 0.820645 0.642084
0.64683 0.872602 0.67657
0.937514 0.942946 0.798505
0.977615 0.958297 0.840009
0.977157 0.958373 0.839368
0 0.203647 0.588663
0 0.204273 0.59086
0.000717174 0.197421 0.613855
0.276616 0.162692 0.710964
0.651453 0.152773 0.671809
0.79678 0.140154 0.65275
0.803586 0.150439 0.669017
0.805615 0.153536 0.673838
0.810559 0.161898 0.687785
0 0.20264 0.587152
0 0.20293 0.587716
0 0.201556 0.592752
0.239216 0.166949 0.703731
0.643671 0.150729 0.672602
0.794461 0.136675 0.646998
0.800595 0.145693 0.661341
0.802258 0.148394 0.665873
0.808164 0.157931 0.681056
0 0.208347 0.577691
0 0.204273 0.583429
0 0.201389 0.585626
0.180255 0.175067 0.687526
0.631662 0.14757 0.673716
0.79086 0.131304 0.637888
0.795819 0.138415 0.649149
0.798337 0.142138 0.654948
0.804761 0.152209 0.67155
0 0.309667 0.592706
0 0.30277 0.59823
0 0.288319 0.604044
0.0484779 0.269764 0.65211
0.5935 0.155947 0.680766
0.786313 0.126589 0.625071
0.784619 0.122042 0.621256
0.786892 0.125399 0.627176
0.793835 0.135683 0.644953
0.0313268 0.555718 0.638148
0.032578 0.557519 0.643275
0.0332952 0.556512 0.647883
0.0327459 0.543755 0.657969
0.528862 0.575235 0.831754
0.916182 0.485969 0.750088
0.9346 0.428397 0.731945
0.930709 0.416617 0.730358
0.935882 0.437705 0.746105
0.160494 0.755703 0.7131
0.163317 0.760189 0.718135
0.165164 0.762829 0.720607
0.162799 0.760327 0.715999
0.217105 0.756497 0.703975
0.822095 0.805158 0.769772
0.969406 0.803037 0.770138
0.972 0.795041 0.770993
0.969482 0.805005 0.781689
0.226535 0.85333 0.775647
0.227543 0.854078 0.777722
0.227176 0.853895 0.776944
0.223255 0.851698 0.769253
0.2094 0.844175 0.739986
0.708965 0.898131 0.793042
0.963302 0.950149 0.875669
0.977981 0.954543 0.887007
0.978408 0.956252 0.893294
0.233326 0.856992 0.789029
0.233768 0.85742 0.789929
0.232914 0.856962 0.788327
0.227604 0.854139 0.777783
0.211292 0.845136 0.74374
0.59939 0.880415 0.765759
0.958892 0.97261 0.927413
0.987152 0.98143 0.950439
0.987015 0.982361 0.953033
0.242542 0.862135 0.806806
0.241764 0.861753 0.805341
0.240024 0.860777 0.801984
0.233127 0.857038 0.7888
0.214862 0.847105 0.751415
0.659373 0.897185 0.799924
0.959838 0.973999 0.933532
0.987274 0.982238 0.953689
0.986969 0.982589 0.953613
0.0225834 0.375769 0.725429
0.022858 0.37641 0.725856
0.0272526 0.386053 0.732311
0.103151 0.409796 0.797269
0.54963 0.417182 0.979095
0.901106 0.387152 0.898024
0.901915 0.418463 0.915267
0.902281 0.427558 0.920974
0.901946 0.428214 0.922179
0.0222629 0.374929 0.724941
0.0224918 0.375525 0.725338
0.0258335 0.38323 0.730083
0.0577554 0.401099 0.761639
0.535424 0.420157 0.978897
0.900496 0.385855 0.897169
0.902525 0.410407 0.910964
0.90193 0.420035 0.916411
0.901778 0.424048 0.920119
0.0181735 0.364996 0.718853
0.0219425 0.374136 0.724559
0.0218662 0.373907 0.724453
0.0347601 0.394018 0.741192
0.516365 0.421546 0.976806
0.898085 0.381857 0.894652
0.902586 0.402762 0.905882
0.90277 0.410208 0.910414
0.90219 0.416892 0.915648
0.0114595 0.366781 0.705211
0.0137179 0.369162 0.709606
0.0170748 0.371878 0.715587
0.0203708 0.369528 0.722301
0.45864 0.413825 0.960174
0.889326 0.365499 0.886412
0.900496 0.377798 0.890578
0.900893 0.386389 0.895598
0.90161 0.400626 0.905364
0.0692912 0.567056 0.74641
0.0714885 0.568536 0.750393
0.073167 0.567224 0.754726
0.0767071 0.559762 0.766094
0.389502 0.63035 0.95433
0.896559 0.505379 0.916777
0.933684 0.483207 0.894499
0.931838 0.475975 0.893111
0.935668 0.495338 0.903197
0.157458 0.75555 0.788373
0.161089 0.759625 0.79266
0.162661 0.761517 0.795087
0.161746 0.758572 0.797452
0.175814 0.755413 0.815671
0.787488 0.809552 0.931868
0.949081 0.778759 0.900053
0.94931 0.771786 0.899504
0.948638 0.783139 0.904265
0.261555 0.870604 0.846754
0.263905 0.872526 0.849851
0.264988 0.873472 0.850721
0.264042 0.87332 0.847822
0.248219 0.860471 0.830243
0.689616 0.911238 0.888914
0.953353 0.949218 0.940459
0.971069 0.950454 0.940703
0.971176 0.951293 0.943297
0.272419 0.877836 0.863386
0.273213 0.878325 0.864546
0.272648 0.878141 0.863462
0.269322 0.876432 0.857038
0.258869 0.870924 0.837003
0.453025 0.899001 0.848478
0.964111 0.979919 0.969055
0.989685 0.9879 0.982406
0.989792 0.987976 0.983063
0.276265 0.880064 0.873289
0.276387 0.880171 0.87303
0.275944 0.879866 0.871473
0.272847 0.878218 0.864118
0.261128 0.872053 0.841337
0.520134 0.906813 0.861463
0.964263 0.980423 0.970748
0.988418 0.988464 0.983383
0.990921 0.990127 0.986862
0.0299535 0.396078 0.735317
0.0300145 0.396201 0.73547
0.0379797 0.414084 0.746166
0.0695964 0.443626 0.777981
0.534554 0.486244 1
0.902052 0.428046 0.921813
0.902129 0.427893 0.921508
0.902235 0.42768 0.921157
0.902144 0.427848 0.921447
0.0299382 0.396048 0.735286
0.0300145 0.396216 0.73547
0.0336767 0.404685 0.740337
0.0475319 0.435096 0.758495
0.519982 0.485359 1
0.901106 0.427619 0.922011
0.902129 0.427893 0.921508
0.902113 0.427909 0.921538
0.90193 0.42826 0.922255
0.0315862 0.401328 0.737179
0.0300145 0.396201 0.73547
0.0300145 0.396216 0.73547
0.0444953 0.429679 0.754376
0.499077 0.484154 1
0.897231 0.426169 0.922896
0.902327 0.427482 0.920851
0.902281 0.427558 0.920974
0.901976 0.428168 0.922057
0.0486763 0.453437 0.75552
0.0460822 0.445518 0.753094
0.0401923 0.428428 0.746944
0.0368505 0.412146 0.74461
0.430137 0.486931 0.981094
0.884352 0.423163 0.926513
0.902419 0.427298 0.92047
0.902419 0.427314 0.920516
0.902068 0.428016 0.921752
0.098497 0.592523 0.791028
0.101472 0.596521 0.794659
0.105089 0.600839 0.799191
0.101381 0.590494 0.797787
0.29839 0.647852 0.932219
0.839002 0.554772 0.988724
0.929061 0.528267 0.943923
0.928161 0.522698 0.942901
0.93077 0.534218 0.946822
0.177447 0.762203 0.82855
0.17998 0.765576 0.831037
0.182071 0.767803 0.833555
0.18294 0.765621 0.837369
0.179828 0.753002 0.841688
0.737911 0.839246 1
0.947204 0.786725 0.950408
0.947768 0.779889 0.949233
0.947295 0.789776 0.950561
0.271885 0.875578 0.877241
0.274693 0.878035 0.87982
0.276967 0.88011 0.881468
0.275334 0.878721 0.879728
0.256001 0.861128 0.868467
0.638666 0.928359 0.949401
0.940856 0.943832 0.961944
0.969253 0.946975 0.96228
0.96965 0.948394 0.963714
0.279133 0.882017 0.88304
0.279805 0.882551 0.884169
0.279835 0.882567 0.884215
0.279835 0.882567 0.884215
0.277989 0.8813 0.878523
0.351019 0.911284 0.898939
0.952148 0.976776 0.973861
0.987442 0.986282 0.98613
0.988342 0.986587 0.986862
0.279393 0.882216 0.883467
0.279805 0.882536 0.884153
0.279835 0.882567 0.884215
0.279835 0.882567 0.884215
0.278279 0.881483 0.879347
0.361212 0.912352 0.900114
0.950362 0.977707 0.974258
0.990158 0.990234 0.98996
0.993133 0.992081 0.991791
0.0299687 0.396109 0.735348
0.0300145 0.396201 0.73547
0.0379339 0.413977 0.74609
0.0686046 0.443549 0.777188
0.537804 0.486183 1
0.902052 0.428046 0.921798
0.902129 0.427893 0.921508
0.902159 0.427832 0.921401
0.901915 0.428305 0.922332
0.0299382 0.396063 0.735286
0.0300145 0.396216 0.73547
0.033402 0.404242 0.739971
0.0475624 0.435142 0.758541
0.523705 0.485435 1
0.901411 0.427527 0.921614
0.902129 0.427893 0.921508
0.902098 0.427955 0.921599
0.9019 0.428321 0.922377
0.031342 0.400519 0.736919
0.0300145 0.396216 0.73547
0.0300145 0.396216 0.73547
0.0445716 0.429969 0.754452
0.502861 0.484535 1
0.897505 0.426246 0.922789
0.902327 0.427497 0.920867
0.902281 0.427558 0.920974
0.901976 0.428183 0.922072
0.0475319 0.450523 0.754391
0.0446174 0.441825 0.751522
0.0389258 0.424308 0.745556
0.0370489 0.412497 0.744854
0.433646 0.487205 0.982269
0.885283 0.423606 0.92639
0.902403 0.427344 0.920577
0.902403 0.427344 0.920577
0.902068 0.428016 0.921752
0.109071 0.60824 0.80267
0.109224 0.608347 0.802991
0.108003 0.605814 0.802152
0.10164 0.591287 0.797909
0.303029 0.64979 0.935378
0.842008 0.555261 0.987564
0.929625 0.529656 0.944366
0.928847 0.524712 0.943847
0.931273 0.535927 0.947265
0.186465 0.76875 0.842145
0.189059 0.772412 0.844495
0.190021 0.774014 0.845136
0.187854 0.76997 0.844129
0.179843 0.753491 0.841581
0.739834 0.839979 1
0.947295 0.788479 0.951171
0.94757 0.781689 0.949828
0.947463 0.791394 0.950713
0.274128 0.87747 0.881025
0.276783 0.87985 0.882795
0.278996 0.881758 0.883833
0.2757 0.878904 0.882185
0.255863 0.861036 0.872908
0.62002 0.930709 0.960876
0.931701 0.941131 0.965484
0.968856 0.945357 0.967147
0.969223 0.946593 0.967895
0.279469 0.882292 0.883619
0.279805 0.882551 0.884169
0.279835 0.882567 0.884215
0.279835 0.882567 0.884215
0.279835 0.882567 0.884215
0.334966 0.910338 0.909758
0.93492 0.972763 0.974563
0.986343 0.985946 0.986435
0.987686 0.987091 0.98732
0.279347 0.8822 0.883406
0.279805 0.882536 0.884153
0.279835 0.882567 0.884215
0.279835 0.882567 0.884215
0.279835 0.882567 0.884215
0.350805 0.91458 0.913848
0.93077 0.975143 0.974624
0.990295 0.990814 0.991073
0.994003 0.993179 0.992432
