bundles/resolve-cinematic-luts/Phantom Luts/S5, S1, S1h LUTs/WB Offset - Green & Warm Boost/Utopia V-Log WBO.cube
TITLE "Generated by Resolve"
LUT_3D_SIZE 9
0 0.0270237 0.0350347
0.0399329 0.0240482 0.0342107
0.135576 0.0162051 0.0314794
0.319326 0.00807202 0.0366217
0.528008 0.0200351 0.0859998
0.697444 0.021622 0.160113
0.701625 0.0225223 0.176349
0.703014 0.0226902 0.183337
0.709941 0.0211185 0.186358
0 0.0415656 0.0396582
0.0112917 0.0325322 0.035996
0.101106 0.0265202 0.0309758
0.303166 0.00738537 0.0321508
0.514076 0.00798047 0.0562753
0.692454 0.0208743 0.134676
0.69929 0.0218814 0.151934
0.700603 0.0219425 0.159243
0.706844 0.0202182 0.161791
0 0.143557 0.0337377
0 0.134188 0.0216983
0.10515 0.12134 0.034165
0.327565 0.0673533 0.0378729
0.511147 0.0104677 0.0529793
0.69247 0.0206302 0.129305
0.696529 0.0208286 0.13193
0.696712 0.0208591 0.132631
0.700236 0.019913 0.133028
0 0.352163 0.0554208
0 0.350729 0.0189212
0 0.342153 0
0.325628 0.309606 0.033051
0.619791 0.240787 0.111711
0.765881 0.0515602 0.101518
0.721401 0.0242618 0.118776
0.712398 0.0225376 0.123613
0.71313 0.0214694 0.124834
0 0.627375 0.249409
0 0.630259 0.211215
0.00410468 0.633417 0.170748
0.0375067 0.626398 0.0726024
0.612482 0.563806 0.107942
0.874846 0.550805 0.219684
0.925643 0.485328 0.227329
0.923629 0.45948 0.222736
0.923583 0.45069 0.220432
0.0848402 0.878355 0.533364
0.0828717 0.880583 0.520592
0.083772 0.883803 0.501076
0.0910048 0.895552 0.424842
0.43006 0.893797 0.282353
0.848539 0.796414 0.33019
0.950484 0.803586 0.386297
0.947509 0.794965 0.37702
0.947097 0.792309 0.374289
0.117983 0.96347 0.697993
0.114488 0.964889 0.692729
0.114321 0.965957 0.685481
0.115221 0.969573 0.661448
0.13547 0.978408 0.61471
0.791669 0.979019 0.627054
0.978302 0.949889 0.673045
0.991638 0.942779 0.668055
0.991226 0.940475 0.661601
0.114748 0.962905 0.706142
0.11667 0.963287 0.700801
0.117433 0.964248 0.693629
0.118288 0.967544 0.670497
0.127153 0.974685 0.630686
0.70132 0.99237 0.618509
0.954421 0.961929 0.719112
0.990616 0.965896 0.761166
0.988769 0.966308 0.761837
0.111971 0.963073 0.708934
0.113573 0.963409 0.703975
0.11606 0.964019 0.69662
0.118181 0.967132 0.673365
0.125368 0.974075 0.632959
0.679698 0.994492 0.614572
0.946044 0.961852 0.716579
0.989868 0.966049 0.76144
0.988144 0.966415 0.762081
0 0.0280919 0.0408637
0.0330968 0.0269322 0.057435
0.140597 0.0251011 0.0680095
0.335973 0.0168002 0.0797131
0.532982 0.0167391 0.114137
0.705028 0.0217288 0.186511
0.712947 0.0228275 0.202136
0.714672 0.0231174 0.208637
0.719493 0.021912 0.21146
0 0.0360571 0.0448157
7.62951e-05 0.0270237 0.0348974
0.107881 0.0192874 0.0331273
0.306783 0.0111086 0.0411688
0.526085 0.0223545 0.0904555
0.700633 0.0206302 0.16228
0.705119 0.0215305 0.178439
0.707637 0.0218051 0.185626
0.712627 0.0205844 0.188754
0 0.133364 0.0833448
0 0.126116 0.0383917
0.0988632 0.113878 0.0349889
0.324575 0.0497444 0.0317845
0.509789 0.00881972 0.0564584
0.696208 0.0204471 0.140978
0.7019 0.0211643 0.153124
0.702464 0.0212863 0.15758
0.705882 0.0203403 0.159472
0 0.343709 0.110582
0 0.341695 0.0601968
0 0.339605 0.00434882
0.322988 0.304555 0.0331579
0.616526 0.228214 0.1075
0.761074 0.0455177 0.102083
0.717754 0.0237583 0.120851
0.709606 0.0221103 0.125734
0.709789 0.0210575 0.127337
0 0.619745 0.282963
0 0.622354 0.249744
0 0.625956 0.19527
0.022034 0.62652 0.104768
0.611719 0.561685 0.107103
0.878691 0.543648 0.220829
0.925017 0.480781 0.226246
0.923262 0.45388 0.22182
0.923125 0.444968 0.219333
0.083772 0.874266 0.543984
0.081651 0.876295 0.532219
0.0821088 0.878843 0.514092
0.0877699 0.889647 0.44239
0.397116 0.89633 0.281788
0.84799 0.794751 0.328161
0.949798 0.801434 0.383825
0.946731 0.792309 0.374151
0.946029 0.789258 0.371145
0.117815 0.962707 0.703044
0.114305 0.964065 0.69839
0.114076 0.965164 0.691325
0.114885 0.96849 0.668208
0.129168 0.977295 0.619577
0.784482 0.980072 0.623072
0.977874 0.948699 0.668589
0.991562 0.940902 0.662806
0.99115 0.938552 0.656229
0.11426 0.96231 0.711254
0.117144 0.962509 0.70631
0.117235 0.963409 0.699306
0.11809 0.966613 0.676921
0.124865 0.973877 0.633631
0.688716 0.993606 0.616037
0.952682 0.961776 0.718181
0.990616 0.965896 0.761166
0.988769 0.966308 0.761837
0.111879 0.962356 0.714183
0.114199 0.962615 0.709178
0.11606 0.963241 0.702037
0.117983 0.966155 0.679637
0.123079 0.973907 0.633646
0.668132 0.995239 0.6121
0.944015 0.961929 0.716304
0.989868 0.966049 0.76144
0.988144 0.966415 0.762081
0 0.0365606 0.109499
0.05066 0.0276188 0.107286
0.145113 0.0293126 0.117281
0.347402 0.0216983 0.128099
0.544518 0.0211795 0.154604
0.714992 0.0237583 0.216907
0.72372 0.0253452 0.232547
0.727138 0.0260777 0.239948
0.733089 0.0251164 0.243503
0 0.0444953 0.0773327
0 0.0357824 0.101732
0.113771 0.0283665 0.0992599
0.328191 0.0188449 0.0977951
0.534234 0.0181582 0.125719
0.707546 0.0219272 0.194919
0.714443 0.0233005 0.209293
0.71696 0.0236515 0.215885
0.722316 0.0225376 0.218936
0 0.127016 0.126879
0 0.118029 0.116823
0.0861067 0.110277 0.113756
0.333135 0.062974 0.0843519
0.523827 0.0174716 0.104753
0.700236 0.0212406 0.172351
0.704814 0.0221103 0.1832
0.706813 0.0222782 0.187594
0.711101 0.0213321 0.190463
0 0.334401 0.167956
0 0.332113 0.135714
0 0.329839 0.0632792
0.324926 0.302831 0.0690929
0.614389 0.216052 0.114992
0.753277 0.0371252 0.108827
0.711833 0.0226749 0.132082
0.708278 0.0220035 0.147738
0.708629 0.0209964 0.152728
0 0.611032 0.318471
0 0.612558 0.291112
0 0.61619 0.244877
0.00999466 0.624384 0.12871
0.610407 0.558785 0.105806
0.878981 0.538567 0.2206
0.924788 0.474845 0.225498
0.922957 0.447257 0.220676
0.922728 0.437644 0.218296
0.0822461 0.869093 0.555566
0.0801556 0.870985 0.545037
0.080354 0.873167 0.528664
0.084184 0.881895 0.464408
0.346365 0.898604 0.284581
0.847074 0.792615 0.325429
0.948684 0.798245 0.380407
0.945724 0.789395 0.371176
0.945052 0.786648 0.368475
0.116747 0.962112 0.7093
0.114092 0.963211 0.704784
0.113832 0.964248 0.698116
0.114519 0.967254 0.676005
0.126375 0.976074 0.625406
0.775097 0.981414 0.618021
0.97731 0.946944 0.663035
0.991424 0.938643 0.656275
0.991058 0.936248 0.649378
0.113542 0.961593 0.717449
0.11606 0.961761 0.712718
0.117159 0.962539 0.705989
0.117845 0.965484 0.684657
0.122271 0.973663 0.634485
0.673396 0.994965 0.61297
0.950072 0.961669 0.717296
0.990616 0.965896 0.761166
0.988769 0.966308 0.761837
0.111803 0.961547 0.720424
0.112718 0.96202 0.715724
0.116442 0.962249 0.708644
0.117723 0.965057 0.687312
0.12079 0.973602 0.634836
0.653071 0.996033 0.609476
0.941543 0.962264 0.716258
0.989868 0.966049 0.76144
0.987991 0.966445 0.762142
0 0.0556649 0.239872
0.00875868 0.045655 0.256352
0.176135 0.0326696 0.236545
0.356558 0.0347601 0.240848
0.560143 0.0414282 0.258091
0.746105 0.0390631 0.298833
0.754253 0.0423285 0.313802
0.756649 0.0436713 0.320546
0.762722 0.0426337 0.324239
0 0.0665293 0.217563
0 0.0549477 0.236011
0.111666 0.0344701 0.250172
0.341924 0.0336614 0.226093
0.554559 0.0361181 0.235645
0.740276 0.0349737 0.280003
0.747951 0.037644 0.294148
0.750561 0.0390478 0.30103
0.756619 0.0379492 0.304448
0 0.139208 0.217136
0 0.126024 0.227558
0.0104677 0.105455 0.267308
0.330022 0.0539712 0.223346
0.547143 0.0311437 0.211521
0.729671 0.0303349 0.254688
0.73695 0.0323033 0.267308
0.739513 0.033814 0.274052
0.744533 0.033051 0.27744
0 0.317021 0.282551
0 0.312123 0.2748
0 0.305211 0.262028
0.304356 0.304372 0.280644
0.626261 0.227939 0.228946
0.761013 0.0454719 0.214282
0.726848 0.0261082 0.223316
0.72575 0.0267796 0.23595
0.73051 0.0265965 0.240894
0 0.5953 0.396323
0 0.594476 0.381186
0 0.594598 0.355749
0 0.60148 0.244907
0.612451 0.558663 0.224659
0.881559 0.523156 0.281926
0.933791 0.441993 0.266972
0.92987 0.414389 0.257359
0.928573 0.405707 0.25362
0.0794232 0.857084 0.583947
0.0768444 0.857939 0.575616
0.0766461 0.859098 0.56231
0.0772259 0.863844 0.514107
0.272557 0.894682 0.341131
0.843854 0.787869 0.35169
0.948425 0.79324 0.392859
0.945495 0.783062 0.379339
0.944808 0.780133 0.375662
0.11632 0.960021 0.724529
0.112322 0.961242 0.720409
0.113283 0.961776 0.714336
0.113603 0.964248 0.695094
0.122789 0.973739 0.633692
0.759731 0.983719 0.607507
0.975067 0.942458 0.648508
0.991684 0.933562 0.642115
0.991028 0.930892 0.635203
0.113313 0.95967 0.732799
0.112261 0.960388 0.728664
0.116793 0.960342 0.722301
0.117159 0.962829 0.70341
0.120317 0.972854 0.639094
0.644465 0.996506 0.608469
0.944762 0.96173 0.716365
0.9906 0.965927 0.761624
0.988769 0.966339 0.76228
0.111818 0.959518 0.735973
0.11165 0.960098 0.731716
0.114717 0.960327 0.725429
0.117159 0.962493 0.70602
0.119905 0.972122 0.642939
0.623499 0.997436 0.605051
0.936553 0.962432 0.716365
0.989853 0.966064 0.761486
0.988144 0.966415 0.762081
0 0.0956588 0.424353
0 0.0860609 0.447974
0.0576028 0.0631723 0.470176
0.382971 0.0500954 0.433219
0.575586 0.0779431 0.432242
0.773297 0.0706798 0.441428
0.780026 0.072343 0.45272
0.781109 0.0729534 0.458335
0.787335 0.0711681 0.463386
0 0.10338 0.418036
0 0.0955673 0.424033
0 0.0756542 0.462425
0.36202 0.0473487 0.437018
0.571527 0.0762493 0.426123
0.772534 0.0693065 0.432044
0.779049 0.0709544 0.442741
0.78024 0.0715038 0.447974
0.786313 0.069749 0.452796
0 0.138506 0.404639
0 0.119875 0.41355
0 0.0946517 0.43331
0.322438 0.0439155 0.444999
0.565286 0.0734264 0.416648
0.768963 0.0682231 0.417975
0.775158 0.0702678 0.427695
0.776074 0.0708629 0.432547
0.781567 0.0691691 0.437064
0 0.314336 0.427405
0 0.30515 0.428412
0 0.291188 0.430488
0.170611 0.277028 0.519631
0.60882 0.207492 0.468544
0.765988 0.0722362 0.391821
0.771969 0.0662242 0.403174
0.772305 0.0670176 0.407309
0.77705 0.0656748 0.410407
0 0.571466 0.523781
0 0.5691 0.520394
0 0.565759 0.514931
0 0.557534 0.495766
0.57142 0.557656 0.517128
0.893645 0.50399 0.476829
0.928298 0.444007 0.458183
0.923079 0.41976 0.453742
0.920424 0.411337 0.452415
0.076524 0.83595 0.649668
0.0733043 0.835767 0.645029
0.072694 0.835294 0.637522
0.070634 0.833524 0.61059
0.285267 0.861936 0.521904
0.835767 0.783597 0.539406
0.962753 0.779324 0.558145
0.962188 0.766278 0.548928
0.961334 0.762707 0.546288
0.115602 0.954925 0.762219
0.111223 0.956146 0.759441
0.111162 0.956741 0.754681
0.112566 0.958297 0.739986
0.116747 0.963958 0.695842
0.714794 0.987182 0.672053
0.969787 0.941787 0.714855
0.987152 0.936019 0.716167
0.986404 0.933852 0.710948
0.113451 0.954894 0.771206
0.111666 0.955612 0.768078
0.111604 0.956237 0.762982
0.115953 0.957351 0.747265
0.117479 0.963302 0.701564
0.63592 0.996094 0.678721
0.945693 0.967727 0.800122
0.989807 0.97258 0.835386
0.987915 0.972946 0.836484
0.112779 0.954574 0.774716
0.11162 0.95523 0.771206
0.111208 0.955932 0.766262
0.115694 0.957031 0.750088
0.11725 0.962737 0.704067
0.619791 0.99675 0.669154
0.940276 0.968292 0.799313
0.989441 0.972549 0.834348
0.987716 0.972885 0.835019
0 0.175616 0.557122
0 0.173434 0.565805
0 0.164477 0.601267
0.22649 0.124575 0.651743
0.61146 0.141436 0.621729
0.793317 0.114427 0.61735
0.801648 0.119738 0.633646
0.804196 0.125978 0.643107
0.811292 0.126329 0.651698
0 0.175616 0.557305
0 0.175845 0.5579
0 0.170367 0.575509
0.179141 0.128466 0.650965
0.605219 0.139879 0.621988
0.792142 0.110414 0.611475
0.800427 0.116075 0.626062
0.802686 0.119982 0.63418
0.809995 0.119402 0.642573
0 0.184863 0.546868
0 0.178134 0.555138
0 0.175662 0.557885
0.114763 0.132906 0.645655
0.595438 0.137041 0.622202
0.786282 0.105928 0.599847
0.793652 0.111086 0.611551
0.795697 0.114305 0.618616
0.803189 0.113298 0.626398
0 0.302708 0.545388
0 0.290883 0.550729
0 0.274403 0.558251
0 0.257527 0.622751
0.573281 0.16733 0.640055
0.779431 0.108186 0.588602
0.785168 0.0951858 0.582864
0.785931 0.0965591 0.585809
0.791989 0.0947738 0.591348
0 0.558694 0.643198
0 0.555215 0.644999
0 0.550057 0.645853
0 0.530816 0.64828
0.470924 0.546792 0.758404
0.877989 0.484245 0.700343
0.916396 0.418158 0.674128
0.908125 0.395148 0.667262
0.904067 0.387411 0.665675
0.0721294 0.805951 0.748043
0.0683909 0.805203 0.747189
0.0674449 0.803189 0.744564
0.0653239 0.796857 0.735378
0.21651 0.798001 0.726177
0.797299 0.778851 0.736889
0.95613 0.754726 0.717052
0.957321 0.739956 0.710857
0.956847 0.73547 0.709087
0.114504 0.946242 0.824292
0.109651 0.947677 0.823255
0.109331 0.948302 0.820401
0.106905 0.946426 0.80911
0.102083 0.941695 0.77261
0.707774 0.960967 0.781933
0.956268 0.937804 0.828519
0.976699 0.941726 0.83949
0.975631 0.939254 0.836103
0.116182 0.946334 0.834424
0.110613 0.947662 0.833356
0.11014 0.948165 0.829801
0.111391 0.949325 0.818586
0.116121 0.952438 0.787121
0.56408 0.982971 0.790631
0.946822 0.976074 0.900557
0.989792 0.981399 0.935668
0.988205 0.98172 0.936812
0.111864 0.946731 0.839399
0.110536 0.94728 0.836927
0.110048 0.947784 0.833509
0.11107 0.948959 0.821668
0.11603 0.952193 0.78854
0.527382 0.981964 0.783627
0.932647 0.976547 0.891493
0.987121 0.980407 0.929488
0.987274 0.981842 0.936721
0 0.310399 0.702464
0 0.314626 0.706127
0 0.319219 0.708904
0.0337987 0.325872 0.783627
0.495979 0.31368 0.862074
0.864195 0.339162 0.838163
0.878233 0.385229 0.865171
0.880674 0.40354 0.876127
0.879911 0.407736 0.880507
0 0.309529 0.701183
0 0.309911 0.70277
0 0.317586 0.70753
0 0.330358 0.765545
0.47866 0.315511 0.862318
0.864103 0.335576 0.835874
0.877272 0.375509 0.859739
0.879072 0.392554 0.869825
0.878416 0.398154 0.87512
0 0.304189 0.693446
0 0.308507 0.7019
0 0.308675 0.702022
0 0.330861 0.739895
0.455238 0.316625 0.862043
0.861875 0.331289 0.832654
0.876219 0.362997 0.85098
0.877806 0.376425 0.859068
0.877958 0.381552 0.864668
0 0.341268 0.673045
0 0.337896 0.681498
0 0.334997 0.691386
0 0.327474 0.703532
0.382834 0.308522 0.850401
0.847349 0.31574 0.823713
0.86836 0.323186 0.82562
0.870054 0.32961 0.83006
0.870497 0.331563 0.83444
0 0.56321 0.741787
0 0.560327 0.745159
0 0.555306 0.746639
0 0.541146 0.752422
0.295705 0.568276 0.872343
0.862715 0.496468 0.873716
0.913481 0.465599 0.843183
0.907393 0.447272 0.836866
0.904128 0.441474 0.836301
0 0.784298 0.828428
0 0.783719 0.831556
0 0.78085 0.831739
0 0.771389 0.832319
0.0277104 0.760983 0.849439
0.72874 0.76939 0.897917
0.950164 0.740932 0.868559
0.950607 0.728023 0.865187
0.949722 0.724178 0.864729
0.107088 0.930312 0.884184
0.0977493 0.930846 0.884947
0.0957351 0.929656 0.883375
0.0918135 0.92517 0.877974
0.086244 0.914702 0.863355
0.654948 0.926909 0.888411
0.939498 0.930571 0.914183
0.972152 0.929686 0.912902
0.970779 0.926482 0.911101
0.115114 0.94049 0.903212
0.108843 0.941939 0.903197
0.108461 0.94229 0.900587
0.109438 0.942809 0.892714
0.11281 0.943801 0.871458
0.346059 0.961563 0.869047
0.943252 0.980591 0.949126
0.989273 0.984024 0.970611
0.9888 0.98378 0.970687
0.113024 0.940414 0.908476
0.108263 0.941604 0.907851
0.107881 0.941939 0.905394
0.10901 0.942519 0.896452
0.112764 0.94374 0.872221
0.316396 0.960967 0.867735
0.928069 0.980423 0.945235
0.98677 0.985824 0.975006
0.989624 0.987961 0.98056
0 0.393286 0.742123
0 0.398947 0.746838
0 0.414343 0.756863
0 0.443214 0.783047
0.420905 0.452125 0.93434
0.866148 0.440513 0.904204
0.881544 0.442527 0.899733
0.882002 0.442542 0.89929
0.881437 0.442527 0.89984
0 0.39324 0.741863
0 0.39353 0.743511
0 0.408423 0.752224
0 0.435584 0.771069
0.404288 0.451087 0.931914
0.865599 0.440482 0.904356
0.881544 0.442527 0.899733
0.881468 0.442527 0.899809
0.880781 0.442512 0.900526
0 0.3991 0.742199
0 0.39353 0.743511
0 0.39353 0.743511
0 0.430182 0.765393
0.380118 0.449088 0.927291
0.860609 0.438987 0.905303
0.882368 0.442542 0.898955
0.882231 0.442542 0.899077
0.881025 0.442512 0.900267
0 0.443259 0.751583
0 0.444541 0.757
0 0.429969 0.75288
0 0.414176 0.755505
0.295644 0.452796 0.90663
0.83209 0.435279 0.912459
0.882658 0.442542 0.898695
0.882673 0.442542 0.89868
0.881239 0.442527 0.900053
0 0.587243 0.800443
0 0.588022 0.806271
0 0.589136 0.811109
0 0.586999 0.81709
0.141665 0.615778 0.861723
0.731655 0.573861 0.976059
0.914641 0.537209 0.926513
0.911208 0.526329 0.923095
0.907912 0.522774 0.923461
0 0.777905 0.876631
0 0.777371 0.880613
0 0.774563 0.881437
0 0.765423 0.883894
0 0.750469 0.892653
0.627695 0.781643 0.958373
0.946487 0.755077 0.941512
0.94931 0.744274 0.937987
0.947417 0.741115 0.938857
0.0767681 0.918807 0.921309
0.0668498 0.919036 0.923262
0.0638132 0.917296 0.92256
0.05626 0.911192 0.9196
0.0388647 0.895079 0.914199
0.576471 0.910887 0.947234
0.917693 0.923858 0.954574
0.970047 0.9243 0.951415
0.968246 0.921401 0.950545
0.101091 0.937774 0.937819
0.090074 0.9402 0.941253
0.0898299 0.940307 0.940871
0.0925002 0.940291 0.937362
0.102861 0.939925 0.926085
0.227558 0.954192 0.926513
0.923858 0.973785 0.965911
0.988281 0.980148 0.978576
0.991043 0.980392 0.978134
0.0963149 0.938643 0.939971
0.0891127 0.9402 0.942275
0.0885023 0.940368 0.942351
0.0901961 0.940337 0.940414
0.102846 0.93991 0.926314
0.207172 0.953704 0.92398
0.897551 0.977584 0.964141
0.988281 0.987243 0.986358
0.994186 0.990051 0.989456
0 0.393347 0.742489
0 0.397787 0.746029
0 0.414008 0.756695
0 0.442267 0.78175
0.420798 0.452049 0.934325
0.866957 0.440604 0.90399
0.881544 0.442527 0.899733
0.881682 0.442527 0.899596
0.8813 0.442527 0.899977
0 0.39324 0.741833
0 0.39353 0.743511
0 0.407889 0.751812
0 0.43534 0.770825
0.403845 0.451011 0.931884
0.867018 0.440696 0.903746
0.881544 0.442527 0.899733
0.881407 0.442527 0.899886
0.88043 0.442512 0.900893
0 0.397574 0.741833
0 0.39353 0.743511
0 0.39353 0.743511
0 0.429984 0.765103
0.378775 0.449119 0.927062
0.861128 0.439033 0.905211
0.882322 0.442542 0.899016
0.8822 0.442542 0.899107
0.880858 0.442512 0.90045
0 0.451652 0.757275
0 0.439567 0.755856
0 0.421973 0.75079
0 0.412619 0.755047
0.29099 0.452598 0.90518
0.830732 0.434974 0.912779
0.882551 0.442542 0.898817
0.882597 0.442542 0.898756
0.881239 0.442527 0.900053
0 0.610208 0.826276
0 0.607187 0.827543
0 0.601953 0.825223
0 0.583749 0.815442
0.127459 0.610971 0.85861
0.724681 0.569665 0.976181
0.912261 0.532631 0.925109
0.908827 0.521431 0.92195
0.906722 0.518273 0.922332
0 0.779538 0.89543
0 0.77966 0.899855
0 0.777371 0.900221
0 0.768322 0.897826
0 0.748898 0.895491
0.611658 0.781674 0.961501
0.942245 0.754681 0.949081
0.945739 0.744732 0.946593
0.944228 0.741939 0.947738
0.0650492 0.917342 0.932479
0.0552224 0.91722 0.934508
0.0514382 0.915129 0.93431
0.0422675 0.907469 0.932128
0.0249332 0.887053 0.926436
0.517784 0.903517 0.962051
0.890166 0.918746 0.962951
0.967712 0.920989 0.963256
0.966903 0.917967 0.962982
0.0997787 0.937911 0.938796
0.0890364 0.940215 0.942321
0.0883345 0.940368 0.94255
0.0883345 0.940368 0.94255
0.0883345 0.940368 0.94255
0.157 0.950729 0.949874
0.887846 0.967239 0.973831
0.981933 0.979339 0.981262
0.985779 0.980652 0.9823
0.0966659 0.938567 0.939834
0.0890516 0.940215 0.942321
0.0883345 0.940368 0.94255
0.0883345 0.940368 0.94255
0.0883345 0.940368 0.94255
0.141741 0.95053 0.948379
0.840848 0.974105 0.972747
0.986435 0.987488 0.988083
0.995071 0.991775 0.99028
