bundles/resolve-cinematic-luts/Phantom Luts/S5, S1, S1h LUTs/WB Offset - Green & Warm Boost/Utopia V-Log WBO.cube
TITLE "Generated by Resolve"
LUT_3D_SIZE 5
0 0.0270237 0.0350347
0.135576 0.0162051 0.0314794
0.528008 0.0200351 0.0859998
0.701625 0.0225223 0.176349
0.709941 0.0211185 0.186358
0 0.143557 0.0337377
0.10515 0.12134 0.034165
0.511147 0.0104677 0.0529793
0.696529 0.0208286 0.13193
0.700236 0.019913 0.133028
0 0.627375 0.249409
0.00410468 0.633417 0.170748
0.612482 0.563806 0.107942
0.925643 0.485328 0.227329
0.923583 0.45069 0.220432
0.117983 0.96347 0.697993
0.114321 0.965957 0.685481
0.13547 0.978408 0.61471
0.978302 0.949889 0.673045
0.991226 0.940475 0.661601
0.111971 0.963073 0.708934
0.11606 0.964019 0.69662
0.125368 0.974075 0.632959
0.946044 0.961852 0.716579
0.988144 0.966415 0.762081
0 0.0365606 0.109499
0.145113 0.0293126 0.117281
0.544518 0.0211795 0.154604
0.72372 0.0253452 0.232547
0.733089 0.0251164 0.243503
0 0.127016 0.126879
0.0861067 0.110277 0.113756
0.523827 0.0174716 0.104753
0.704814 0.0221103 0.1832
0.711101 0.0213321 0.190463
0 0.611032 0.318471
0 0.61619 0.244877
0.610407 0.558785 0.105806
0.924788 0.474845 0.225498
0.922728 0.437644 0.218296
0.116747 0.962112 0.7093
0.113832 0.964248 0.698116
0.126375 0.976074 0.625406
0.97731 0.946944 0.663035
0.991058 0.936248 0.649378
0.111803 0.961547 0.720424
0.116442 0.962249 0.708644
0.12079 0.973602 0.634836
0.941543 0.962264 0.716258
0.987991 0.966445 0.762142
0 0.0956588 0.424353
0.0576028 0.0631723 0.470176
0.575586 0.0779431 0.432242
0.780026 0.072343 0.45272
0.787335 0.0711681 0.463386
0 0.138506 0.404639
0 0.0946517 0.43331
0.565286 0.0734264 0.416648
0.775158 0.0702678 0.427695
0.781567 0.0691691 0.437064
0 0.571466 0.523781
0 0.565759 0.514931
0.57142 0.557656 0.517128
0.928298 0.444007 0.458183
0.920424 0.411337 0.452415
0.115602 0.954925 0.762219
0.111162 0.956741 0.754681
0.116747 0.963958 0.695842
0.969787 0.941787 0.714855
0.986404 0.933852 0.710948
0.112779 0.954574 0.774716
0.111208 0.955932 0.766262
0.11725 0.962737 0.704067
0.940276 0.968292 0.799313
0.987716 0.972885 0.835019
0 0.310399 0.702464
0 0.319219 0.708904
0.495979 0.31368 0.862074
0.878233 0.385229 0.865171
0.879911 0.407736 0.880507
0 0.304189 0.693446
0 0.308675 0.702022
0.455238 0.316625 0.862043
0.876219 0.362997 0.85098
0.877958 0.381552 0.864668
0 0.56321 0.741787
0 0.555306 0.746639
0.295705 0.568276 0.872343
0.913481 0.465599 0.843183
0.904128 0.441474 0.836301
0.107088 0.930312 0.884184
0.0957351 0.929656 0.883375
0.086244 0.914702 0.863355
0.939498 0.930571 0.914183
0.970779 0.926482 0.911101
0.113024 0.940414 0.908476
0.107881 0.941939 0.905394
0.112764 0.94374 0.872221
0.928069 0.980423 0.945235
0.989624 0.987961 0.98056
0 0.393347 0.742489
0 0.414008 0.756695
0.420798 0.452049 0.934325
0.881544 0.442527 0.899733
0.8813 0.442527 0.899977
0 0.397574 0.741833
0 0.39353 0.743511
0.378775 0.449119 0.927062
0.882322 0.442542 0.899016
0.880858 0.442512 0.90045
0 0.610208 0.826276
0 0.601953 0.825223
0.127459 0.610971 0.85861
0.912261 0.532631 0.925109
0.906722 0.518273 0.922332
0.0650492 0.917342 0.932479
0.0514382 0.915129 0.93431
0.0249332 0.887053 0.926436
0.890166 0.918746 0.962951
0.966903 0.917967 0.962982
0.0966659 0.938567 0.939834
0.0883345 0.940368 0.94255
0.0883345 0.940368 0.94255
0.840848 0.974105 0.972747
0.995071 0.991775 0.99028
