bundles/resolve-cinematic-luts/Phantom Luts/S5, S1, S1h LUTs/WB Offset - Green & Warm Boost/Utopia V-Log WBO Legacy.cube
TITLE "Generated by Resolve"
LUT_3D_SIZE 5
0.0141146 0.0405585 0.0500801
0.109407 0.0396277 0.0470436
0.482506 0.0220493 0.0756542
0.663859 0.0295415 0.152316
0.669612 0.028748 0.159594
0.00601205 0.118776 0.0534371
0.082887 0.102663 0.049012
0.466819 0.0169223 0.0556344
0.654612 0.0234073 0.11725
0.657008 0.0243229 0.119173
0 0.570321 0.182696
0.00320439 0.573571 0.117449
0.552224 0.509544 0.0918898
0.917418 0.411093 0.216541
0.909468 0.383169 0.205875
0.111864 0.964813 0.653986
0.108446 0.968017 0.64062
0.129091 0.984619 0.566979
0.981613 0.949813 0.631983
0.996185 0.937957 0.620645
0.105776 0.963821 0.665721
0.110094 0.965423 0.652491
0.120348 0.978897 0.585824
0.94107 0.965087 0.676356
0.994079 0.967956 0.721111
0 0.0485389 0.0988327
0.115099 0.045594 0.108721
0.503288 0.028336 0.129335
0.691905 0.0330816 0.196017
0.700694 0.0335851 0.204822
0.00872816 0.1075 0.111818
0.0680247 0.094728 0.100664
0.48069 0.0256504 0.0931258
0.666056 0.0291752 0.157107
0.671916 0.0290227 0.162753
0 0.554864 0.245838
0 0.558816 0.17879
0.54963 0.503746 0.0895399
0.914611 0.402533 0.213077
0.906371 0.373251 0.202457
0.110216 0.962921 0.666133
0.107607 0.965606 0.653971
0.121187 0.981613 0.578012
0.979919 0.94638 0.621714
0.996155 0.933196 0.609216
0.105333 0.961791 0.677791
0.109941 0.963058 0.665583
0.116777 0.978378 0.587701
0.935439 0.965331 0.675807
0.993957 0.968002 0.721172
0 0.090486 0.373373
0.0309606 0.0685893 0.412192
0.529641 0.065919 0.374807
0.77055 0.0768292 0.4
0.776257 0.0767071 0.409537
0 0.118227 0.353292
0 0.0899672 0.380514
0.519066 0.0627298 0.358801
0.764233 0.0731212 0.374548
0.770153 0.073579 0.383169
0 0.511284 0.461463
0 0.505638 0.452079
0.51632 0.503517 0.463554
0.911345 0.390951 0.408484
0.904738 0.355947 0.399374
0.108339 0.953414 0.72282
0.104097 0.955642 0.714656
0.109911 0.965255 0.651621
0.971435 0.93933 0.67422
0.992584 0.928847 0.670832
0.105364 0.952712 0.735561
0.103883 0.954391 0.726543
0.110826 0.963851 0.660594
0.935042 0.972061 0.763317
0.993805 0.974945 0.802991
0 0.25655 0.661799
0 0.26424 0.669367
0.416922 0.256428 0.820203
0.863447 0.334249 0.839948
0.864134 0.356497 0.85893
0 0.251194 0.651377
0 0.25536 0.66099
0.374243 0.258595 0.818753
0.86096 0.312688 0.821164
0.863584 0.330465 0.839033
0 0.501137 0.686885
0 0.493111 0.692378
0.220752 0.508766 0.830655
0.898741 0.417624 0.807935
0.889815 0.391791 0.799817
0.102602 0.920439 0.864927
0.0922255 0.918929 0.86331
0.0842603 0.899413 0.838285
0.934905 0.924102 0.903136
0.974273 0.918502 0.899062
0.106813 0.933577 0.895354
0.101823 0.93521 0.890654
0.105089 0.938018 0.849744
0.91751 0.985321 0.94049
0.990677 0.988983 0.982269
0 0.328725 0.71046
0 0.348318 0.727932
0.340337 0.391287 0.902129
0.863981 0.392432 0.883741
0.863813 0.392401 0.884047
0 0.332662 0.710246
0 0.328862 0.71133
0.296696 0.390539 0.892912
0.864469 0.392538 0.882963
0.863523 0.392355 0.884565
0 0.556603 0.793286
0 0.547677 0.791608
0.0539712 0.554452 0.833555
0.896101 0.488182 0.91078
0.889433 0.472801 0.906813
0.0552529 0.903868 0.926802
0.0421149 0.900282 0.927977
0.0180819 0.86656 0.919234
0.872892 0.910002 0.96733
0.969818 0.907927 0.965942
0.0859846 0.931105 0.93611
0.0777142 0.932876 0.938994
0.0777142 0.932876 0.938994
0.811185 0.978393 0.97644
0.992477 0.988708 0.987243
