bundles/resolve-cinematic-luts/Phantom Luts/S5, S1, S1h LUTs/WB Offset - Green & Warm Boost/Utopia V-Log WBO Legacy.cube
TITLE "Generated by Resolve"
LUT_3D_SIZE 33
0.0141146 0.0405585 0.0500801
0.0141146 0.040528 0.0500496
0.0140993 0.0404822 0.0500038
0.0254826 0.0413672 0.050248
0.0391241 0.0417792 0.0518196
0.0561379 0.041825 0.0506294
0.0718853 0.0419013 0.0497902
0.0883955 0.0411841 0.0484321
0.109407 0.0396277 0.0470436
0.1355 0.0365301 0.0453498
0.169162 0.0346838 0.0462348
0.210147 0.033051 0.0490578
0.261677 0.0294194 0.0498817
0.319142 0.0255283 0.0506905
0.37731 0.0227207 0.0554513
0.431754 0.020737 0.0632639
0.482506 0.0220493 0.0756542
0.530449 0.02533 0.0915541
0.581018 0.0282292 0.109453
0.634256 0.0299382 0.129671
0.659129 0.0301366 0.141466
0.663157 0.0299382 0.145663
0.663478 0.0297856 0.14815
0.663706 0.0296483 0.150393
0.663859 0.0295415 0.152316
0.663981 0.0294652 0.153658
0.664042 0.0293889 0.154849
0.664485 0.0293584 0.156054
0.665171 0.0294041 0.157153
0.666194 0.0293736 0.158038
0.667124 0.0292821 0.158724
0.668391 0.0290227 0.159319
0.669612 0.028748 0.159594
0.0140993 0.0404822 0.0500038
0.0140993 0.0404974 0.0500343
0.0140993 0.0404822 0.0500038
0.0212253 0.0409552 0.049958
0.0336309 0.0416266 0.0510872
0.0508736 0.0417639 0.0513313
0.0661021 0.0419776 0.0501869
0.0839094 0.0416419 0.0489967
0.104952 0.0401923 0.0474098
0.131456 0.0370947 0.0457008
0.165042 0.0346685 0.0457465
0.206088 0.0321202 0.0465705
0.256443 0.028809 0.0471199
0.313451 0.0240024 0.0452888
0.371405 0.0201114 0.0478676
0.426673 0.0183108 0.0554665
0.478264 0.0185092 0.0675822
0.526467 0.0213169 0.0832837
0.576593 0.0239109 0.101061
0.631739 0.028809 0.124285
0.658213 0.0305028 0.13785
0.662516 0.0301976 0.142
0.662928 0.0300145 0.144549
0.663279 0.0298924 0.146426
0.663508 0.0297704 0.148394
0.663661 0.0296788 0.150011
0.663783 0.0296025 0.151324
0.663935 0.0295262 0.152316
0.664118 0.0294499 0.153017
0.664515 0.0293126 0.153643
0.664958 0.0291752 0.154131
0.665766 0.0289311 0.15462
0.666697 0.0286412 0.155032
0.0140993 0.0404822 0.0500038
0.0140993 0.0404974 0.0500343
0.0140993 0.0404822 0.0500038
0.0142519 0.0403601 0.0498817
0.0269627 0.042771 0.05037
0.0415808 0.0434577 0.0520638
0.0581521 0.0435798 0.0510719
0.0774548 0.0433051 0.0498054
0.0996872 0.0412299 0.0479286
0.127245 0.0378882 0.0462806
0.160937 0.0348516 0.0455177
0.202304 0.0322881 0.046479
0.253468 0.029099 0.0471809
0.311147 0.024094 0.0451972
0.368566 0.0197147 0.0462501
0.423468 0.0166934 0.0504921
0.473518 0.0156863 0.0597238
0.522957 0.0179904 0.0756847
0.573114 0.0195926 0.0928511
0.629725 0.0280308 0.119081
0.657237 0.0308843 0.133745
0.661723 0.030457 0.138064
0.662211 0.0303044 0.140444
0.662638 0.0301518 0.142763
0.662959 0.0300145 0.144686
0.663203 0.0299229 0.145892
0.663386 0.0298466 0.147204
0.663569 0.0297704 0.148287
0.663767 0.0296788 0.149126
0.664179 0.0295415 0.149828
0.664683 0.0293736 0.150393
0.665446 0.0291295 0.150927
0.666407 0.0288396 0.151293
0.0140993 0.0404822 0.0500038
0.0141146 0.040528 0.0500496
0.0141146 0.040528 0.0500496
0.0140993 0.0404822 0.0500038
0.0224002 0.0430457 0.0505074
0.0326848 0.0457313 0.0512398
0.0480964 0.0460975 0.0525368
0.067689 0.0462501 0.0513619
0.0907759 0.044358 0.049546
0.119097 0.0407416 0.0475319
0.155276 0.0362402 0.0456855
0.198413 0.0326543 0.0462806
0.249989 0.0294347 0.047364
0.308537 0.0243076 0.0453193
0.366857 0.0197452 0.046128
0.422065 0.0166781 0.0501564
0.472114 0.0152743 0.0580911
0.518959 0.014847 0.0686351
0.570352 0.0160372 0.0852064
0.625849 0.0239414 0.111208
0.655406 0.0299382 0.128862
0.660853 0.0307012 0.133913
0.661418 0.0305486 0.136553
0.66186 0.0304265 0.138552
0.662226 0.0303044 0.140475
0.662531 0.0301976 0.142123
0.66276 0.0300908 0.143465
0.662989 0.0300145 0.144503
0.663233 0.0299229 0.145174
0.663706 0.0298009 0.145663
0.66424 0.029633 0.14612
0.66511 0.0293584 0.14667
0.665995 0.029099 0.147112
0.0156405 0.0525368 0.055787
0.0149691 0.0514382 0.0541085
0.0157778 0.0500343 0.0537118
0.0188602 0.0480659 0.0525673
0.0222782 0.0466926 0.0522164
0.0295872 0.049012 0.0532692
0.0391394 0.0495308 0.0525978
0.0576944 0.0484627 0.0525673
0.0813916 0.0474098 0.0510567
0.110521 0.0441444 0.049073
0.147738 0.0395666 0.046891
0.192782 0.0347753 0.046067
0.246372 0.0303349 0.047013
0.305806 0.0247349 0.0452277
0.365026 0.0198672 0.046067
0.420676 0.0167697 0.0500496
0.471183 0.0153658 0.0579385
0.517998 0.0146792 0.0679789
0.56875 0.0141909 0.0816052
0.621668 0.0183871 0.102373
0.65243 0.0272068 0.121965
0.6598 0.0307469 0.129595
0.66041 0.0308385 0.132174
0.66099 0.0306554 0.134493
0.661402 0.0305638 0.136492
0.661692 0.0304723 0.138018
0.661967 0.030396 0.139086
0.662242 0.0303044 0.140169
0.662501 0.0302129 0.141039
0.662989 0.0300603 0.141711
0.663569 0.0299077 0.142229
0.66453 0.0296178 0.142718
0.6654 0.0293736 0.14313
0.0148623 0.0635691 0.0597086
0.0136263 0.0624094 0.0567636
0.0140993 0.0610361 0.0567483
0.0193484 0.0589151 0.0555123
0.0245823 0.0565194 0.0546273
0.0316625 0.0567636 0.054963
0.0407721 0.0576028 0.055314
0.0588388 0.0569619 0.0560006
0.0799725 0.0550851 0.0538796
0.107591 0.0508888 0.0517281
0.141405 0.0440681 0.0485389
0.186648 0.0369421 0.0456397
0.241489 0.032105 0.0462043
0.303258 0.0256504 0.0446174
0.363333 0.0201572 0.0460517
0.419593 0.0167697 0.049897
0.470314 0.0154421 0.0578775
0.517464 0.0146792 0.0678416
0.568154 0.0140383 0.0810864
0.619638 0.0164492 0.0991073
0.649393 0.0227512 0.114824
0.656397 0.0266423 0.121935
0.659129 0.0302586 0.127504
0.659922 0.0309606 0.130205
0.66038 0.0308537 0.132052
0.660822 0.0307164 0.1337
0.661128 0.0306249 0.135058
0.661402 0.0305486 0.136187
0.661677 0.0304723 0.137041
0.66215 0.0303502 0.137606
0.66273 0.0301976 0.138033
0.663706 0.0299229 0.138445
0.664714 0.029633 0.138781
0.0126955 0.0781872 0.0592203
0.0103761 0.0766918 0.0565805
0.0108492 0.0746624 0.056733
0.0146944 0.0720073 0.0564889
0.0230411 0.0685893 0.0550546
0.0289769 0.0674144 0.0542458
0.0421149 0.0669413 0.0540475
0.0602274 0.0673075 0.0547646
0.0828565 0.0658579 0.0576028
0.110765 0.0618601 0.0560464
0.145312 0.0550088 0.0521401
0.188342 0.0452888 0.0477913
0.237629 0.0346532 0.045182
0.299611 0.0272221 0.0434272
0.361334 0.0210575 0.045243
0.418235 0.016968 0.0496376
0.469368 0.0155032 0.0577859
0.516823 0.0146944 0.0677348
0.567514 0.0140841 0.0809949
0.618799 0.0159915 0.0983139
0.649119 0.0220951 0.113924
0.654414 0.0238041 0.117678
0.654963 0.0245975 0.118868
0.656916 0.0269932 0.122621
0.659083 0.0299535 0.127108
0.659846 0.0308995 0.129412
0.660105 0.0308995 0.130709
0.66041 0.0308232 0.131685
0.660761 0.0307317 0.132479
0.661189 0.0306096 0.133165
0.661646 0.0304723 0.133684
0.662333 0.0302892 0.134096
0.663005 0.0301061 0.134386
0.00967422 0.096437 0.056611
0.00616464 0.0950942 0.0528573
0.00650034 0.0935836 0.0531472
0.00823987 0.0915999 0.0538338
0.0178225 0.0885786 0.0526741
0.025864 0.0846418 0.0515602
0.0357519 0.0851301 0.0499275
0.0599374 0.0833753 0.0498817
0.0844434 0.0819562 0.0570687
0.112261 0.0804608 0.0581216
0.152499 0.0706188 0.0572976
0.194659 0.0616922 0.0520027
0.246677 0.0476844 0.0456397
0.302785 0.0315404 0.0403601
0.359655 0.0229801 0.0430457
0.416663 0.0178836 0.0487221
0.468132 0.015671 0.0573587
0.515785 0.0147555 0.0675669
0.566598 0.0141299 0.080827
0.617746 0.01561 0.0976425
0.649287 0.0220035 0.113893
0.654414 0.0232853 0.117021
0.654429 0.023331 0.117067
0.654673 0.0236667 0.117586
0.654978 0.0241398 0.118257
0.655619 0.0250095 0.119539
0.656779 0.0264286 0.121813
0.65803 0.0279393 0.124163
0.658885 0.0291142 0.125978
0.659602 0.0299992 0.127428
0.660151 0.0305486 0.12842
0.660807 0.0306249 0.128985
0.661479 0.0304875 0.129198
0.00601205 0.118776 0.0534371
0.00209049 0.117601 0.0487526
0.00170901 0.116075 0.0471504
0.00239567 0.114702 0.0478218
0.00839246 0.11281 0.0470741
0.0191501 0.109529 0.0458839
0.0310369 0.106813 0.045304
0.049546 0.105989 0.0444648
0.082887 0.102663 0.049012
0.113756 0.101366 0.0572366
0.151888 0.0971847 0.0580301
0.20763 0.0804456 0.0579232
0.257298 0.0675669 0.0511025
0.315526 0.0495613 0.0434577
0.369223 0.0301976 0.0370642
0.416602 0.0207828 0.0451972
0.466819 0.0169223 0.0556344
0.514305 0.0150149 0.0669871
0.565011 0.0142061 0.0804303
0.6159 0.0150912 0.0967117
0.649165 0.0219425 0.113787
0.654505 0.0232548 0.117006
0.654505 0.0232548 0.117006
0.654505 0.0232548 0.117006
0.654612 0.0234073 0.11725
0.65478 0.0236362 0.117586
0.654917 0.0238346 0.117876
0.655039 0.0240024 0.118135
0.655161 0.0241703 0.118379
0.655375 0.0242771 0.118578
0.655726 0.0243229 0.118761
0.656367 0.0242771 0.118914
0.657008 0.0243229 0.119173
0.00292973 0.146975 0.0511788
0 0.146014 0.0452583
0 0.145129 0.0400092
0 0.143618 0.0402075
0 0.141924 0.0403601
0.00840772 0.139986 0.0374762
0.0199435 0.136248 0.0374456
0.0407874 0.134066 0.038407
0.0683757 0.131792 0.0400092
0.111162 0.126772 0.0485542
0.152483 0.1243 0.0550546
0.204349 0.116396 0.0584115
0.273274 0.0935683 0.0584878
0.329641 0.0773022 0.0514992
0.384634 0.0562448 0.0442969
0.432898 0.0333257 0.0381323
0.474113 0.0234684 0.049485
0.515465 0.0181888 0.0644083
0.562966 0.0144198 0.0774548
0.613382 0.0143282 0.0946517
0.648997 0.0218204 0.113588
0.654505 0.0232548 0.117006
0.654505 0.0232548 0.117006
0.654505 0.0232548 0.117006
0.654505 0.0232548 0.117006
0.654505 0.0232548 0.117006
0.654505 0.0232548 0.117006
0.654551 0.0233158 0.117082
0.654643 0.0234379 0.117296
0.654841 0.0234989 0.117433
0.655161 0.0234989 0.11754
0.655787 0.0233921 0.117632
0.656336 0.0232853 0.117754
0 0.183749 0.050248
0 0.183108 0.0415808
0 0.182055 0.0370794
0 0.181765 0.0325017
0 0.180087 0.0325475
0 0.178424 0.0318456
0.00418097 0.176471 0.026978
0.019913 0.171984 0.0274052
0.0542153 0.169711 0.0304875
0.0914778 0.165957 0.0361639
0.148486 0.158465 0.0476234
0.20383 0.15407 0.0534371
0.268727 0.142306 0.0599527
0.347677 0.113954 0.061387
0.404181 0.0959793 0.0564431
0.453727 0.0735637 0.0501717
0.494575 0.046479 0.0469062
0.532418 0.0307927 0.0572213
0.570245 0.0196231 0.0725719
0.615579 0.0137026 0.0891737
0.652094 0.0195926 0.11017
0.655589 0.0226139 0.116182
0.65481 0.0230411 0.116762
0.654704 0.0231174 0.116854
0.654612 0.0231937 0.116945
0.654505 0.0232548 0.117006
0.654505 0.0232548 0.117006
0.654505 0.0232548 0.117006
0.654505 0.0232548 0.117006
0.654643 0.0232242 0.117021
0.654902 0.0231479 0.117021
0.655497 0.0229953 0.117037
0.656062 0.0228428 0.117082
0 0.230701 0.051957
0 0.229877 0.0420539
0 0.228702 0.0358587
0 0.228962 0.0301671
0 0.228641 0.0246738
0 0.227283 0.0245365
0 0.225513 0.0242466
0 0.222614 0.0157626
0.0212558 0.218494 0.0160678
0.0708171 0.216648 0.0217136
0.12166 0.209506 0.0326848
0.196979 0.199725 0.0464942
0.267216 0.1935 0.0530556
0.341421 0.180423 0.0620584
0.424018 0.148257 0.0695354
0.480262 0.129229 0.0691691
0.524147 0.108263 0.0677653
0.562325 0.0753033 0.0647593
0.603479 0.0424201 0.0655375
0.644709 0.0241703 0.0811627
0.67303 0.0189822 0.100542
0.668452 0.0177615 0.106661
0.663417 0.0176699 0.109239
0.660395 0.0195315 0.111925
0.658259 0.0212863 0.114427
0.656031 0.022446 0.115846
0.65539 0.0228428 0.11632
0.655222 0.0229191 0.116442
0.655207 0.0228885 0.116442
0.655329 0.0228122 0.116457
0.655589 0.0227207 0.116442
0.656062 0.0225528 0.116503
0.656733 0.0223392 0.116503
0 0.288167 0.0547036
0 0.287434 0.0457008
0 0.286503 0.0377508
0 0.286442 0.034226
0 0.28716 0.0276341
0 0.287312 0.0198367
0 0.286 0.0193027
0 0.284169 0.0186313
0 0.279606 0.00486763
0.0272984 0.27715 0.00392157
0.0925917 0.274907 0.0129854
0.163485 0.263951 0.0312963
0.257923 0.251179 0.0455634
0.339391 0.243748 0.0533913
0.412863 0.235264 0.0661631
0.499275 0.201068 0.0835889
0.557839 0.179309 0.0918288
0.600061 0.158892 0.094255
0.643931 0.12398 0.090135
0.688334 0.0640726 0.0768444
0.724102 0.032639 0.0913405
0.71783 0.0248875 0.0962692
0.705104 0.0223239 0.0983597
0.692149 0.0206912 0.102266
0.67808 0.0186618 0.103243
0.673014 0.0181582 0.104295
0.671092 0.0179141 0.105318
0.669551 0.0177157 0.106065
0.668437 0.0175937 0.106706
0.667704 0.0174411 0.107164
0.667277 0.0172732 0.107485
0.667506 0.0169833 0.107683
0.668101 0.0166934 0.107729
0 0.353765 0.0638285
0 0.353185 0.0549172
0 0.352514 0.0464332
0 0.352239 0.0395056
0 0.353079 0.0371252
0 0.35404 0.0318456
0 0.35494 0.0231632
0 0.353887 0.0205539
0 0.351507 0.019028
0 0.345663 0
0.0397955 0.345815 0
0.124102 0.342672 0.00648508
0.218875 0.327443 0.033753
0.329351 0.312367 0.0461738
0.413138 0.30547 0.0580911
0.483177 0.303593 0.0731365
0.570733 0.275837 0.102678
0.636912 0.245182 0.123293
0.682811 0.224033 0.128588
0.739269 0.186099 0.124178
0.782498 0.120577 0.108446
0.775998 0.0724804 0.0917067
0.762692 0.0526284 0.0888533
0.752102 0.0433661 0.0912947
0.743282 0.0370184 0.0935683
0.735576 0.0322881 0.0948653
0.728878 0.0284123 0.0951247
0.724041 0.0268864 0.0958572
0.720913 0.0265202 0.0968032
0.718303 0.0260777 0.0972915
0.716472 0.0256046 0.0973068
0.715557 0.0251316 0.0972305
0.715785 0.0246738 0.0970626
0 0.422873 0.0849928
0 0.422629 0.0763409
0 0.42237 0.0675364
0 0.422232 0.0595102
0 0.422354 0.052369
0 0.423026 0.0494392
0 0.424231 0.0467842
0 0.425528 0.0383001
0 0.425086 0.0312963
0 0.422721 0.0293431
0 0.415869 0.00283818
0.0636606 0.418631 0
0.173068 0.413443 0.00921645
0.287739 0.392859 0.0437934
0.40354 0.376516 0.0517433
0.487968 0.370855 0.0683604
0.553857 0.374456 0.0872969
0.638682 0.356573 0.126116
0.716854 0.317861 0.157488
0.776638 0.296193 0.162676
0.8318 0.259556 0.15967
0.848173 0.223529 0.150637
0.840787 0.198795 0.141222
0.830823 0.177523 0.132265
0.821836 0.158312 0.124132
0.814679 0.141024 0.119814
0.807691 0.12697 0.114382
0.80148 0.114687 0.109255
0.796628 0.105196 0.105501
0.792691 0.0979629 0.102434
0.78996 0.0930037 0.10042
0.788571 0.0889754 0.0985733
0.789181 0.0867323 0.0974746
0 0.496025 0.123995
0 0.496025 0.115633
0 0.496056 0.106676
0 0.496086 0.097673
0 0.496239 0.0894789
0 0.496529 0.0819409
0 0.496956 0.0756542
0 0.498222 0.0732738
0 0.499992 0.0656443
0 0.500114 0.0565805
0 0.496696 0.052781
0.00422675 0.489952 0.0170596
0.105837 0.49427 0
0.239414 0.484932 0.0236515
0.365698 0.459617 0.0617685
0.47866 0.442878 0.0651255
0.561685 0.438437 0.088014
0.623789 0.445777 0.112581
0.705684 0.436652 0.152316
0.796277 0.399969 0.18706
0.858503 0.369985 0.195148
0.891859 0.343038 0.192599
0.891005 0.326543 0.187945
0.885847 0.312718 0.182986
0.881514 0.300694 0.178897
0.877668 0.290501 0.175418
0.874357 0.281941 0.172442
0.872007 0.275227 0.170184
0.870085 0.269612 0.168276
0.868544 0.265415 0.166842
0.867247 0.26215 0.165667
0.866697 0.259709 0.164523
0.867155 0.25835 0.163775
0 0.570321 0.182696
0 0.570687 0.175448
0 0.571023 0.167681
0 0.571298 0.159075
0 0.571588 0.150134
0 0.571847 0.141512
0.000335698 0.572152 0.133379
0.0021973 0.572564 0.124086
0.00320439 0.573571 0.117449
0.00376898 0.575616 0.112596
0.00531014 0.575662 0.10312
0.00578317 0.572152 0.0974899
0.0265507 0.564202 0.0447547
0.17319 0.570382 0.0232548
0.323751 0.555261 0.0558785
0.444785 0.526085 0.0885328
0.552224 0.509544 0.0918898
0.632517 0.50602 0.120516
0.692821 0.514656 0.144671
0.771817 0.512947 0.182849
0.85774 0.485618 0.212421
0.919341 0.448325 0.225422
0.923842 0.430961 0.223774
0.92047 0.419867 0.21976
0.917418 0.411093 0.216541
0.915328 0.403967 0.21384
0.913527 0.398276 0.211749
0.911971 0.393545 0.21004
0.91104 0.390112 0.209049
0.910048 0.38732 0.208118
0.909346 0.385153 0.20734
0.909239 0.383764 0.206638
0.909468 0.383169 0.205875
0.00996414 0.643397 0.258045
0.0109407 0.644007 0.251377
0.0118715 0.644556 0.244373
0.0130007 0.645106 0.23714
0.0143587 0.645747 0.229099
0.0158541 0.646403 0.221073
0.0175174 0.647059 0.21239
0.0196536 0.647807 0.201465
0.0221714 0.648768 0.188083
0.024445 0.650126 0.174533
0.0240787 0.652705 0.169818
0.0246738 0.652384 0.162188
0.0275731 0.647898 0.148028
0.0674754 0.64303 0.0728161
0.267933 0.643824 0.0683146
0.41529 0.622751 0.101274
0.523735 0.592493 0.12517
0.62324 0.575433 0.128634
0.700526 0.571893 0.157549
0.759854 0.58117 0.184176
0.830457 0.584543 0.209659
0.901366 0.56846 0.236637
0.92929 0.549355 0.244648
0.932509 0.537575 0.244266
0.932769 0.52784 0.242756
0.932876 0.5196 0.241596
0.932982 0.513268 0.24097
0.932921 0.507607 0.240375
0.932769 0.50399 0.23978
0.932906 0.50132 0.239536
0.932784 0.499184 0.239124
0.932494 0.497826 0.238331
0.932448 0.497292 0.237552
0.0350805 0.715312 0.33669
0.0353704 0.715862 0.331701
0.0358282 0.716503 0.32604
0.0364538 0.717159 0.320363
0.0372015 0.717876 0.314412
0.0382544 0.718715 0.30782
0.0394903 0.719631 0.300908
0.0412451 0.720775 0.291508
0.0437781 0.722133 0.278096
0.0471809 0.723751 0.260121
0.0508583 0.725689 0.239979
0.050782 0.72842 0.229999
0.0497292 0.725765 0.225788
0.0589761 0.721752 0.201038
0.140414 0.722652 0.110552
0.380453 0.713451 0.125292
0.501366 0.689647 0.153704
0.598138 0.657649 0.167788
0.69099 0.639948 0.172183
0.765438 0.635996 0.200504
0.8206 0.644587 0.224414
0.878096 0.651728 0.243442
0.923079 0.645884 0.261875
0.927535 0.63798 0.261845
0.927947 0.631495 0.26041
0.928084 0.625605 0.258854
0.92845 0.621195 0.25803
0.928573 0.617288 0.25716
0.928634 0.614466 0.256443
0.929091 0.612634 0.256352
0.929274 0.610941 0.256138
0.929213 0.609751 0.255787
0.929091 0.609155 0.255329
0.0637675 0.786053 0.411505
0.0635691 0.786603 0.407935
0.063508 0.787289 0.403616
0.0635996 0.787976 0.399405
0.0638437 0.788754 0.394827
0.0642863 0.789578 0.390143
0.0649119 0.790494 0.384939
0.0658122 0.791669 0.378119
0.0669413 0.793225 0.368353
0.0689555 0.795254 0.354086
0.0718547 0.798108 0.333196
0.0756237 0.801633 0.306783
0.0772106 0.803769 0.284932
0.0769055 0.799313 0.28014
0.0966812 0.793957 0.250141
0.249912 0.800793 0.168841
0.486854 0.780453 0.194339
0.580606 0.755673 0.215106
0.668116 0.721172 0.217792
0.75436 0.702327 0.223667
0.82504 0.698054 0.252964
0.871565 0.706279 0.274052
0.914366 0.716579 0.297078
0.929824 0.714504 0.301213
0.93051 0.709468 0.297673
0.930709 0.705501 0.29456
0.930266 0.701946 0.291478
0.930037 0.699031 0.289464
0.930312 0.697215 0.288136
0.930098 0.695842 0.286961
0.929976 0.694697 0.286259
0.929839 0.693858 0.285771
0.929732 0.693416 0.285527
0.0831464 0.852293 0.479408
0.0829328 0.852888 0.476204
0.0825818 0.853483 0.472908
0.082414 0.854063 0.469734
0.0823224 0.854719 0.466178
0.0825208 0.85539 0.462608
0.0827802 0.856123 0.458762
0.0832837 0.857069 0.453422
0.0839399 0.858274 0.446189
0.0849622 0.859953 0.435874
0.0865034 0.862303 0.421088
0.08925 0.865827 0.399145
0.0935836 0.870436 0.369574
0.0954757 0.869474 0.353353
0.104738 0.865095 0.333211
0.146593 0.865583 0.293294
0.382773 0.868223 0.244602
0.575952 0.842268 0.273869
0.651942 0.819303 0.28806
0.733074 0.785092 0.283421
0.816251 0.765682 0.295903
0.877195 0.760494 0.32105
0.915221 0.768597 0.337575
0.941253 0.777844 0.357137
0.942473 0.775113 0.355184
0.941558 0.771786 0.352026
0.940627 0.768795 0.349004
0.939864 0.766506 0.346853
0.939818 0.765133 0.345678
0.939391 0.763851 0.344335
0.939193 0.762798 0.343435
0.939116 0.762066 0.342809
0.939208 0.7617 0.342535
0.0950332 0.904921 0.54168
0.0948501 0.905425 0.539269
0.0941329 0.905943 0.536934
0.0936446 0.906508 0.534295
0.0933089 0.907057 0.531533
0.0932784 0.9075 0.529107
0.0934462 0.908064 0.525994
0.0937972 0.90869 0.522148
0.0943008 0.909575 0.516564
0.0949874 0.910735 0.50901
0.0960708 0.912398 0.498299
0.0978256 0.914931 0.482887
0.100633 0.918746 0.460334
0.104097 0.921965 0.435294
0.107012 0.918776 0.425711
0.142748 0.916136 0.373617
0.22472 0.925338 0.337652
0.498955 0.919509 0.330724
0.651957 0.89662 0.36257
0.717403 0.874983 0.372061
0.794553 0.843534 0.367666
0.872755 0.82446 0.381445
0.924697 0.818753 0.402335
0.952926 0.825895 0.413931
0.961807 0.827863 0.416892
0.961364 0.82533 0.41323
0.960143 0.822965 0.409735
0.959548 0.821195 0.407263
0.958968 0.81976 0.40528
0.958587 0.818845 0.403937
0.958114 0.81796 0.403006
0.957916 0.817365 0.402228
0.957977 0.817075 0.401862
0.0977798 0.942779 0.601038
0.0972305 0.943114 0.599161
0.0959793 0.943587 0.597162
0.0949874 0.944076 0.594995
0.0941634 0.944533 0.592874
0.0938582 0.944915 0.590723
0.0937057 0.945281 0.588403
0.0937972 0.945708 0.585382
0.0939193 0.946273 0.581247
0.0942245 0.947082 0.57528
0.0946365 0.94818 0.567239
0.0952926 0.94966 0.555734
0.0968948 0.95201 0.539635
0.100175 0.955154 0.518456
0.10312 0.954192 0.505852
0.125948 0.953277 0.475181
0.200641 0.958587 0.413016
0.381567 0.967865 0.41503
0.594751 0.960113 0.416007
0.722026 0.939773 0.452171
0.780133 0.920882 0.458167
0.853208 0.892775 0.454109
0.919554 0.874586 0.466438
0.963027 0.867323 0.483116
0.982071 0.871168 0.490318
0.981933 0.869184 0.486381
0.980804 0.866987 0.482383
0.979812 0.865263 0.479194
0.978882 0.863905 0.476814
0.978134 0.862989 0.474952
0.977844 0.862486 0.473793
0.977707 0.862165 0.472999
0.977722 0.861997 0.472618
0.110399 0.963546 0.645914
0.11017 0.963897 0.644678
0.109224 0.96437 0.643503
0.108278 0.964889 0.6421
0.10753 0.965331 0.640833
0.107286 0.965698 0.639658
0.107256 0.966094 0.638102
0.107454 0.966552 0.636027
0.107652 0.967132 0.633356
0.107927 0.96791 0.629664
0.108354 0.968994 0.624399
0.108888 0.970413 0.617304
0.109697 0.972427 0.607187
0.110903 0.975067 0.593317
0.111116 0.975982 0.580423
0.113817 0.974212 0.566064
0.166857 0.97879 0.50724
0.308019 0.990768 0.469123
0.502892 0.996704 0.485954
0.682933 0.985824 0.504112
0.796963 0.965362 0.545007
0.845838 0.950668 0.545541
0.904799 0.929946 0.538277
0.95639 0.917159 0.546059
0.9888 0.911009 0.559197
0.994614 0.909331 0.558953
0.994629 0.907103 0.555032
0.994537 0.905547 0.551934
0.994171 0.904112 0.549264
0.993896 0.903136 0.547723
0.993713 0.902358 0.54638
0.993606 0.901747 0.545403
0.993652 0.901411 0.544839
0.111864 0.964813 0.653986
0.111543 0.965133 0.652598
0.11043 0.965606 0.651225
0.109331 0.96611 0.64976
0.108415 0.966522 0.648539
0.108171 0.966842 0.646998
0.108125 0.967147 0.645533
0.108263 0.967514 0.643488
0.108446 0.968017 0.64062
0.108629 0.968673 0.637064
0.108965 0.96965 0.631815
0.109438 0.970977 0.624903
0.110155 0.9729 0.615274
0.111406 0.975479 0.60235
0.112612 0.978088 0.589151
0.112963 0.978454 0.587335
0.129091 0.984619 0.566979
0.233417 0.993317 0.525017
0.438239 0.999634 0.532479
0.591684 0.999557 0.548806
0.758007 0.988113 0.581445
0.86038 0.970718 0.624491
0.8981 0.964309 0.623743
0.946517 0.957061 0.62472
0.981613 0.949813 0.631983
0.996033 0.945449 0.639063
0.996826 0.943725 0.634836
0.996704 0.942031 0.630335
0.996582 0.940642 0.627192
0.996429 0.93962 0.624628
0.996307 0.938827 0.622736
0.99617 0.938262 0.621408
0.996185 0.937957 0.620645
0.110384 0.964538 0.656886
0.11043 0.964797 0.655482
0.109773 0.965164 0.654261
0.109041 0.96556 0.652827
0.108248 0.965988 0.651377
0.107988 0.966339 0.649836
0.107927 0.966613 0.648478
0.108064 0.96698 0.646418
0.108232 0.967453 0.643748
0.108476 0.968124 0.640009
0.108766 0.969055 0.635019
0.109194 0.970352 0.628214
0.10988 0.972198 0.618738
0.111101 0.974838 0.605524
0.112596 0.978027 0.589944
0.112902 0.978607 0.588388
0.12224 0.983673 0.574884
0.211261 0.991836 0.53753
0.415 0.99942 0.525505
0.555505 0.999924 0.558099
0.715206 0.994781 0.587137
0.839719 0.976745 0.641474
0.902449 0.968612 0.673854
0.931304 0.965576 0.673671
0.968338 0.965057 0.686061
0.993652 0.966674 0.712627
0.995682 0.966766 0.714427
0.995941 0.966659 0.712947
0.996033 0.966628 0.711894
0.996048 0.966659 0.711162
0.995956 0.966293 0.709758
0.995926 0.965805 0.70779
0.995941 0.965454 0.706447
0.108064 0.964553 0.659129
0.108232 0.964767 0.657816
0.108309 0.964996 0.656565
0.108309 0.96527 0.655116
0.108003 0.96556 0.653834
0.107851 0.965881 0.652338
0.10779 0.966201 0.65069
0.107897 0.966537 0.648859
0.10808 0.967041 0.646113
0.108309 0.967681 0.642435
0.108598 0.968597 0.637507
0.109026 0.969879 0.630716
0.109682 0.971679 0.621408
0.110796 0.974258 0.608438
0.112322 0.977462 0.592691
0.112871 0.978515 0.588617
0.120806 0.982376 0.578851
0.195041 0.990524 0.544488
0.390234 0.998993 0.519249
0.535012 0.999969 0.556405
0.693462 0.996262 0.581598
0.824765 0.979583 0.634394
0.89633 0.969345 0.672923
