bundles/resolve-cinematic-luts/Phantom Luts/S5, S1, S1h LUTs/WB Offset - Green & Warm Boost/Utopia V-Log WBO Legacy.cube
TITLE "Generated by Resolve"
LUT_3D_SIZE 9
0.0141146 0.0405585 0.0500801
0.0391241 0.0417792 0.0518196
0.109407 0.0396277 0.0470436
0.261677 0.0294194 0.0498817
0.482506 0.0220493 0.0756542
0.659129 0.0301366 0.141466
0.663859 0.0295415 0.152316
0.665171 0.0294041 0.157153
0.669612 0.028748 0.159594
0.0156405 0.0525368 0.055787
0.0222782 0.0466926 0.0522164
0.0813916 0.0474098 0.0510567
0.246372 0.0303349 0.047013
0.471183 0.0153658 0.0579385
0.65243 0.0272068 0.121965
0.661402 0.0305638 0.136492
0.662501 0.0302129 0.141039
0.6654 0.0293736 0.14313
0.00601205 0.118776 0.0534371
0.00839246 0.11281 0.0470741
0.082887 0.102663 0.049012
0.257298 0.0675669 0.0511025
0.466819 0.0169223 0.0556344
0.649165 0.0219425 0.113787
0.654612 0.0234073 0.11725
0.655161 0.0241703 0.118379
0.657008 0.0243229 0.119173
0 0.288167 0.0547036
0 0.28716 0.0276341
0 0.279606 0.00486763
0.257923 0.251179 0.0455634
0.557839 0.179309 0.0918288
0.724102 0.032639 0.0913405
0.67808 0.0186618 0.103243
0.668437 0.0175937 0.106706
0.668101 0.0166934 0.107729
0 0.570321 0.182696
0 0.571588 0.150134
0.00320439 0.573571 0.117449
0.0265507 0.564202 0.0447547
0.552224 0.509544 0.0918898
0.85774 0.485618 0.212421
0.917418 0.411093 0.216541
0.91104 0.390112 0.209049
0.909468 0.383169 0.205875
0.0831464 0.852293 0.479408
0.0823224 0.854719 0.466178
0.0839399 0.858274 0.446189
0.0935836 0.870436 0.369574
0.382773 0.868223 0.244602
0.816251 0.765682 0.295903
0.942473 0.775113 0.355184
0.939818 0.765133 0.345678
0.939208 0.7617 0.342535
0.111864 0.964813 0.653986
0.108415 0.966522 0.648539
0.108446 0.968017 0.64062
0.110155 0.9729 0.615274
0.129091 0.984619 0.566979
0.758007 0.988113 0.581445
0.981613 0.949813 0.631983
0.996582 0.940642 0.627192
0.996185 0.937957 0.620645
0.108309 0.963912 0.662608
0.110567 0.964446 0.657191
0.11133 0.965789 0.649439
0.112932 0.970336 0.62501
0.122011 0.979965 0.583642
0.664088 0.997925 0.574548
0.951507 0.964446 0.678599
0.995865 0.967422 0.719997
0.994644 0.967803 0.72079
0.105776 0.963821 0.665721
0.107378 0.964477 0.660227
0.110094 0.965423 0.652491
0.112734 0.969772 0.627955
0.120348 0.978897 0.585824
0.642191 0.998825 0.571023
0.94107 0.965087 0.676356
0.995377 0.967575 0.720317
0.994079 0.967956 0.721111
0.0116426 0.0414588 0.0559091
0.0341802 0.0428168 0.068574
0.110994 0.0428931 0.0737621
0.276402 0.0349279 0.0782177
0.491646 0.0259861 0.101228
0.665644 0.02916 0.159747
0.676448 0.0301061 0.171893
0.678782 0.0305333 0.176745
0.681498 0.0300145 0.178943
0.0140536 0.049134 0.0587167
0.0147555 0.040589 0.0499886
0.0888838 0.0413519 0.0496681
0.248997 0.0319524 0.0531472
0.479179 0.0234531 0.0783093
0.660243 0.029633 0.143236
0.6654 0.0290379 0.153887
0.668269 0.0290532 0.159258
0.671641 0.0285954 0.161364
0.00903334 0.111467 0.0824292
0.00799573 0.106783 0.0571908
0.079057 0.0973678 0.049836
0.256504 0.0561227 0.0480659
0.465995 0.0162203 0.057969
0.656123 0.0297856 0.128923
0.662623 0.0302129 0.137331
0.663218 0.0300298 0.140093
0.664927 0.0295262 0.141405
0 0.280659 0.0946365
0 0.278141 0.0591745
0 0.276707 0.0187839
0.254994 0.246281 0.0456092
0.553903 0.16875 0.0881514
0.719051 0.0290074 0.0914626
0.673961 0.0181888 0.104341
0.665156 0.0174258 0.108431
0.665537 0.0183566 0.110338
0 0.5635 0.21268
0 0.56495 0.182879
0 0.566888 0.136797
0.016434 0.564706 0.0671397
0.551141 0.50695 0.090837
0.862303 0.476722 0.213489
0.916197 0.407385 0.215137
0.90956 0.38587 0.207584
0.908248 0.379171 0.204471
0.0812695 0.84683 0.489723
0.0801251 0.849012 0.477607
0.0813764 0.852201 0.459007
0.0898756 0.863813 0.386542
0.35082 0.869718 0.243534
0.815503 0.763714 0.293965
0.941802 0.772412 0.352758
0.938857 0.761685 0.342382
0.938109 0.758038 0.339239
0.111498 0.963836 0.659495
0.10808 0.965454 0.654292
0.108034 0.966918 0.646784
0.10959 0.971435 0.622614
0.123796 0.983368 0.571832
0.750729 0.989013 0.577539
0.980911 0.948379 0.627543
0.996475 0.938491 0.621805
0.996109 0.935637 0.615412
0.107698 0.963043 0.668101
0.110674 0.963394 0.662882
0.110994 0.964706 0.65539
0.11249 0.969039 0.631739
0.119982 0.978622 0.58648
0.65124 0.998489 0.572259
0.949187 0.964324 0.677806
0.995865 0.967422 0.719997
0.994644 0.967803 0.72079
0.105592 0.96289 0.671122
0.107774 0.963409 0.66598
0.109895 0.964385 0.658228
0.112276 0.968475 0.634668
0.118547 0.978744 0.586496
0.630091 0.9991 0.568734
0.938567 0.965255 0.676081
0.995377 0.967575 0.720317
0.994079 0.967956 0.721111
0 0.0485389 0.0988327
0.0465553 0.0440833 0.10042
0.115099 0.045594 0.108721
0.287648 0.0373388 0.113069
0.503288 0.028336 0.129335
0.67985 0.0314183 0.183398
0.691905 0.0330816 0.196017
0.696498 0.0340734 0.20209
0.700694 0.0335851 0.204822
0.007187 0.05449 0.0779583
0.0009308 0.0476081 0.0933852
0.0923629 0.0444648 0.0952926
0.268299 0.0365759 0.0919203
0.492348 0.0267185 0.109041
0.669703 0.0296941 0.1664
0.678843 0.0306554 0.177371
0.681636 0.0308537 0.18233
0.685267 0.0305333 0.184619
0.00872816 0.1075 0.111818
0.00984207 0.101411 0.104891
0.0680247 0.094728 0.100664
0.264363 0.0616312 0.0784161
0.48069 0.0256504 0.0931258
0.660502 0.0292821 0.149645
0.666056 0.0291752 0.157107
0.668833 0.0293126 0.160616
0.671916 0.0290227 0.162753
0 0.27277 0.137987
0 0.270008 0.113848
0 0.266819 0.0626078
0.255619 0.24329 0.0687419
0.551064 0.158724 0.0914931
0.714107 0.0275731 0.098909
0.670192 0.0222782 0.11635
0.669779 0.0305028 0.133684
0.668284 0.0290837 0.136461
0 0.554864 0.245838
0 0.556435 0.220325
0 0.558816 0.17879
0.00793469 0.56347 0.0845197
0.54963 0.503746 0.0895399
0.862547 0.47097 0.213199
0.914611 0.402533 0.213077
0.908125 0.380529 0.205859
0.906371 0.373251 0.202457
0.0790417 0.840436 0.501305
0.0778821 0.842451 0.490547
0.0787518 0.84509 0.473762
0.0855726 0.855192 0.408545
0.305104 0.870436 0.24535
0.814313 0.761181 0.291463
0.940627 0.768765 0.348989
0.937835 0.758206 0.339269
0.937469 0.755245 0.336736
0.110216 0.962921 0.666133
0.107668 0.964279 0.661158
0.107607 0.965606 0.653971
0.108949 0.969711 0.630838
0.121187 0.981613 0.578012
0.741314 0.990539 0.572931
0.979919 0.94638 0.621714
0.996307 0.935729 0.615412
0.996155 0.933196 0.609216
0.106752 0.962081 0.674571
0.109377 0.962448 0.669642
0.110689 0.96347 0.662501
0.111971 0.967498 0.639933
0.117876 0.978424 0.587381
0.63534 0.999008 0.569482
0.94612 0.964584 0.677028
0.995865 0.967422 0.719997
0.994644 0.967803 0.72079
0.105333 0.961791 0.677791
0.106172 0.962509 0.672755
0.109941 0.963058 0.665583
0.111772 0.966995 0.642756
0.116777 0.978378 0.587701
0.614969 0.999344 0.566369
0.935439 0.965331 0.675807
0.995377 0.967575 0.720317
0.993957 0.968002 0.721172
0 0.0636759 0.196033
0.0145571 0.0576028 0.208942
0.137758 0.0480659 0.196872
0.298497 0.0453346 0.197223
0.519554 0.0394751 0.208927
0.721431 0.0432593 0.252216
0.731792 0.0454719 0.265675
0.734829 0.0467842 0.272297
0.739345 0.046128 0.275425
0 0.0693828 0.178302
0 0.063508 0.19263
0.0886702 0.0501717 0.207202
0.283635 0.0453346 0.185733
0.513252 0.0361334 0.190433
0.713176 0.0399481 0.23473
0.723674 0.0421149 0.248127
0.727001 0.0431373 0.254246
0.731289 0.0425574 0.256916
0 0.116869 0.177798
0 0.107347 0.187289
0.0133669 0.0926833 0.214572
0.266712 0.0567788 0.181079
0.505455 0.033463 0.17142
0.70016 0.036408 0.213367
0.710109 0.0381628 0.224308
0.713619 0.0392462 0.230182
0.717098 0.0386816 0.232441
0 0.258106 0.231708
0 0.253452 0.225483
0 0.247333 0.214633
0.236835 0.242969 0.224811
0.560311 0.172595 0.178454
0.729732 0.0466011 0.181308
0.696605 0.034165 0.189654
0.69601 0.034638 0.199344
0.699763 0.0345159 0.203098
0 0.538323 0.326406
0 0.537728 0.310674
0 0.53782 0.284428
0 0.543206 0.178897
0.553155 0.50396 0.186572
0.862943 0.455802 0.256687
0.920439 0.375998 0.238361
0.91426 0.348043 0.227604
0.912917 0.338903 0.223865
0.074815 0.825238 0.530251
0.0730602 0.826139 0.521675
0.0731823 0.82742 0.508232
0.0759747 0.83328 0.458518
0.240604 0.863981 0.2934
0.810849 0.755901 0.31342
0.940536 0.763043 0.362737
0.938537 0.751339 0.347234
0.937789 0.747631 0.342657
0.109316 0.960143 0.682338
0.105531 0.961547 0.67776
0.106706 0.962341 0.67129
0.107546 0.965743 0.650782
0.117617 0.978363 0.58648
0.7252 0.992157 0.562356
0.977264 0.94136 0.607813
0.996201 0.929702 0.60174
0.995666 0.926421 0.5953
0.106157 0.959442 0.691051
0.105165 0.960372 0.686549
0.109819 0.960601 0.679896
0.110796 0.963912 0.659831
0.116243 0.977325 0.592187
0.60647 0.999557 0.565576
0.9393 0.965057 0.676127
0.995865 0.967468 0.720485
0.994644 0.967849 0.721233
0.105074 0.959136 0.694347
0.104692 0.959945 0.689784
0.107622 0.960464 0.683192
0.110689 0.963455 0.662547
0.11574 0.976349 0.596368
0.585046 0.999741 0.562219
0.928695 0.965759 0.675944
0.995392 0.967575 0.720378
0.99411 0.967956 0.721096
0 0.090486 0.373373
0 0.0853895 0.390753
0.0309606 0.0685893 0.412192
0.326543 0.0515908 0.3794
0.529641 0.065919 0.374807
0.760708 0.074815 0.387915
0.77055 0.0768292 0.4
0.771786 0.0776989 0.405585
0.776257 0.0767071 0.409537
0 0.0945144 0.3664
0 0.090425 0.372961
0 0.0787671 0.403525
0.30547 0.0504768 0.383841
0.525078 0.0644846 0.368124
0.759365 0.0732433 0.378408
0.769192 0.0753948 0.390112
0.770687 0.0762493 0.395346
0.775006 0.0750744 0.399054
0 0.118227 0.353292
0 0.104692 0.362142
0 0.0899672 0.380514
0.266346 0.0501106 0.393057
0.519066 0.0627298 0.358801
0.755444 0.0704662 0.364782
0.764233 0.0731212 0.374548
0.765896 0.0745098 0.379538
0.770153 0.073579 0.383169
0 0.256764 0.367163
0 0.248676 0.369009
0 0.236988 0.373739
0.112154 0.220783 0.449195
0.544945 0.160281 0.40032
0.745113 0.0675059 0.337011
0.758663 0.0664683 0.350774
0.759487 0.0674907 0.354665
0.762997 0.0667124 0.357198
0 0.511284 0.461463
0 0.508888 0.457832
0 0.505638 0.452079
0 0.497353 0.432059
0.51632 0.503517 0.463554
0.8663 0.449805 0.425422
0.911345 0.390951 0.408484
0.906554 0.364675 0.401236
0.904738 0.355947 0.399374
0.0699321 0.798779 0.598901
0.0674449 0.798215 0.593759
0.0669108 0.797559 0.585794
0.065156 0.795132 0.557366
0.242588 0.828214 0.471107
0.805829 0.74966 0.493675
0.961105 0.745602 0.515724
0.960189 0.73196 0.506722
0.959182 0.727947 0.504494
0.108339 0.953414 0.72282
0.104143 0.954818 0.719585
0.104097 0.955642 0.714656
0.105699 0.957717 0.699016
0.109911 0.965255 0.651621
0.677348 0.99469 0.629129
0.971435 0.93933 0.67422
0.993011 0.931304 0.675456
0.992584 0.928847 0.670832
0.106401 0.953002 0.732113
0.104295 0.953979 0.728695
0.104204 0.954803 0.723339
0.108598 0.956436 0.706737
0.111116 0.964553 0.657862
0.596201 0.999634 0.636957
0.941115 0.971054 0.763836
0.995315 0.974609 0.80354
0.993912 0.975067 0.804547
0.105364 0.952712 0.735561
0.104234 0.95349 0.732006
0.103883 0.954391 0.726543
0.108324 0.956069 0.709468
0.110826 0.963851 0.660594
0.580118 0.999741 0.627436
0.935042 0.972061 0.763317
0.995117 0.974533 0.80238
0.993805 0.974945 0.802991
0 0.150408 0.514061
0 0.148547 0.523842
0 0.142077 0.552758
0.154345 0.104112 0.600229
0.555169 0.113878 0.566171
0.780606 0.107591 0.56434
0.793256 0.113405 0.581674
0.794659 0.117464 0.590005
0.800763 0.117708 0.597711
0 0.150439 0.514107
0 0.150652 0.514443
0 0.146151 0.533257
0.109224 0.108248 0.598108
0.549126 0.112444 0.566888
0.780194 0.105226 0.559075
0.791669 0.110246 0.573693
0.794034 0.113268 0.581827
0.799649 0.112276 0.588602
0 0.156939 0.505043
0 0.1523 0.512154
0 0.150515 0.514321
0.0532998 0.118227 0.592416
0.539574 0.110353 0.567849
0.77641 0.102693 0.549035
0.78587 0.106523 0.560479
0.788006 0.108949 0.5673
0.793942 0.107912 0.573663
0 0.24448 0.502647
0 0.234638 0.508156
0 0.221424 0.51545
0 0.20737 0.569009
0.512825 0.130999 0.584421
0.762737 0.102647 0.536431
0.78024 0.0970169 0.534386
0.780529 0.097612 0.537362
0.784939 0.0961471 0.541314
0 0.495644 0.585245
0 0.491829 0.586007
0 0.486 0.586755
0 0.46566 0.588403
0.407126 0.489555 0.708354
0.850736 0.431205 0.651545
0.901335 0.367086 0.620096
0.892103 0.342428 0.611749
0.889433 0.334142 0.610239
0.0657206 0.762203 0.702144
0.0627451 0.760891 0.70074
0.0620127 0.758724 0.697963
0.059617 0.751049 0.687694
0.175158 0.756146 0.680995
0.762371 0.742885 0.698802
0.956985 0.717708 0.677073
0.957824 0.701732 0.670115
0.957595 0.69723 0.668528
0.107164 0.941741 0.791638
0.102266 0.943297 0.789929
0.101778 0.944137 0.786435
0.100267 0.941711 0.773587
0.0966354 0.935699 0.733196
0.668574 0.963912 0.745022
0.955886 0.933379 0.797803
0.981308 0.937285 0.810132
0.980163 0.934569 0.806806
0.108492 0.941894 0.803891
0.103075 0.943267 0.801846
0.102464 0.943923 0.797559
0.103685 0.945571 0.784543
0.108354 0.949996 0.749264
0.520882 0.991104 0.755856
0.941863 0.980423 0.882948
0.993606 0.984009 0.925277
0.992386 0.984314 0.926375
0.104433 0.942046 0.809552
0.103059 0.942702 0.80647
0.102419 0.943374 0.801892
0.103426 0.945129 0.7879
0.108263 0.949798 0.750759
0.484916 0.989105 0.748333
0.923888 0.981643 0.871565
0.991211 0.982849 0.916915
0.991516 0.984405 0.926207
0 0.25655 0.661799
0 0.260349 0.666117
0 0.26424 0.669367
0 0.272679 0.736507
0.416922 0.256428 0.820203
0.846143 0.289586 0.804776
0.863447 0.334249 0.839948
0.864561 0.352575 0.853162
0.864134 0.356497 0.85893
0 0.256016 0.660655
0 0.256275 0.661891
0 0.262791 0.667857
0 0.275166 0.721889
0.398642 0.257847 0.819745
0.846403 0.286275 0.802075
0.862654 0.324788 0.832715
0.864179 0.341436 0.845869
0.863828 0.346868 0.852552
0 0.251194 0.651377
0 0.255238 0.660853
0 0.25536 0.66099
0 0.273655 0.702541
0.374243 0.258595 0.818753
0.842664 0.282277 0.798108
0.86096 0.312688 0.821164
0.862776 0.325719 0.831937
0.863584 0.330465 0.839033
0 0.279454 0.626963
0 0.277073 0.636423
0 0.275273 0.647913
0 0.270222 0.662776
0.299718 0.250904 0.804349
0.822919 0.267002 0.786404
0.852857 0.276173 0.789563
0.854276 0.281529 0.794797
0.856046 0.283223 0.800351
0 0.501137 0.686885
0 0.498238 0.690211
0 0.493111 0.692378
0 0.479347 0.701991
0.220752 0.508766 0.830655
0.831418 0.446586 0.843519
0.898741 0.417624 0.807935
0.892302 0.398306 0.800198
0.889815 0.391791 0.799817
0 0.7402 0.792996
0 0.738979 0.79527
0 0.7355 0.795087
0 0.725109 0.795239
0.00675975 0.714595 0.813809
0.686397 0.734951 0.882643
0.9505 0.703014 0.848096
0.951293 0.689616 0.844297
0.9505 0.685573 0.843717
0.102602 0.920439 0.864927
0.093843 0.92047 0.865232
0.0922255 0.918929 0.86331
0.0887465 0.912886 0.856123
0.0842603 0.899413 0.838285
0.609033 0.919722 0.871626
0.934905 0.924102 0.903136
0.97525 0.922133 0.900816
0.974273 0.918502 0.899062
0.108995 0.933806 0.888655
0.102907 0.935241 0.887953
0.10248 0.935668 0.884672
0.103319 0.936416 0.874754
0.10515 0.938079 0.848798
0.306249 0.962585 0.847654
0.935927 0.984894 0.945159
0.991928 0.986267 0.970703
0.991592 0.986099 0.970748
0.106813 0.933577 0.895354
0.102174 0.934783 0.894057
0.101823 0.93521 0.890654
0.103029 0.936065 0.879408
0.105089 0.938018 0.849744
0.278981 0.961837 0.845945
0.91751 0.985321 0.94049
0.988891 0.988083 0.976394
0.990677 0.988983 0.982269
0 0.328679 0.71017
0 0.334035 0.715373
0 0.348653 0.728191
0 0.377478 0.760174
0.340414 0.391348 0.902113
0.842954 0.389776 0.88809
0.863981 0.392432 0.883741
0.864195 0.392477 0.883421
0.863859 0.392401 0.883955
0 0.328618 0.709773
0 0.328862 0.71133
0 0.343038 0.72221
0 0.370733 0.747723
0.323476 0.389639 0.898863
0.842252 0.389807 0.888212
0.863981 0.392432 0.883757
0.863935 0.392416 0.883818
0.86331 0.392309 0.884962
0 0.334112 0.710506
0 0.328862 0.71133
0 0.328862 0.71133
0 0.364797 0.739071
0.297887 0.390555 0.893309
0.835782 0.388098 0.889158
0.864515 0.392538 0.882887
0.864424 0.392523 0.88304
0.86363 0.39237 0.884367
0 0.377279 0.719142
0 0.378592 0.725475
0 0.363684 0.721477
0 0.34844 0.726131
0.211658 0.394064 0.871397
0.797559 0.383536 0.896696
0.864713 0.392569 0.882521
0.864729 0.392584 0.882475
0.863783 0.392401 0.884092
0 0.5308 0.760845
0 0.531777 0.767727
0 0.533455 0.774548
0 0.53167 0.783566
0.0668956 0.559731 0.836789
0.677699 0.52784 0.969436
0.898116 0.492866 0.91194
0.894163 0.481147 0.907897
0.891218 0.477775 0.908431
0 0.735729 0.850752
0 0.735012 0.854627
0 0.732326 0.855985
0 0.722957 0.858991
0 0.705043 0.871458
0.576303 0.749401 0.958999
0.946593 0.719814 0.94052
0.949599 0.708186 0.935912
0.947723 0.704814 0.936675
0.0697642 0.905425 0.912215
0.0602579 0.905303 0.913985
0.0573739 0.903166 0.913176
0.0500801 0.895323 0.909346
0.032929 0.87538 0.903059
0.526772 0.899351 0.944366
0.907591 0.915755 0.955535
0.9729 0.915496 0.951095
0.971374 0.912001 0.950347
0.090898 0.930251 0.933883
0.0796979 0.932769 0.937179
0.0796368 0.932921 0.936614
0.0832837 0.932906 0.932372
0.0959335 0.932692 0.917891
0.200092 0.952071 0.918822
0.912276 0.97734 0.967239
0.991058 0.982895 0.980774
0.993637 0.983093 0.980072
0.0856794 0.931167 0.936263
0.0784924 0.932708 0.938735
0.0779278 0.932891 0.938766
0.0800641 0.932937 0.936049
0.0958419 0.932708 0.918227
0.181552 0.951675 0.915755
0.878508 0.982193 0.965133
0.990936 0.988586 0.987778
0.992401 0.988724 0.987289
0 0.328725 0.71046
0 0.332921 0.714549
0 0.348318 0.727932
0 0.376699 0.759167
0.340337 0.391287 0.902129
0.844099 0.389868 0.887877
0.863981 0.392432 0.883741
0.864073 0.392447 0.883604
0.863813 0.392401 0.884047
0 0.328634 0.709819
0 0.328862 0.71133
0 0.342504 0.721645
0 0.370428 0.747173
0.322927 0.389593 0.898817
0.844022 0.390051 0.887495
0.863981 0.392432 0.883741
0.86389 0.392416 0.883879
0.863218 0.392294 0.8851
0 0.332662 0.710246
0 0.328862 0.71133
0 0.328862 0.71133
0 0.36463 0.738598
0.296696 0.390539 0.892912
0.836515 0.388128 0.889082
0.864469 0.392538 0.882963
0.864393 0.392523 0.883085
0.863523 0.392355 0.884565
0 0.386175 0.726238
0 0.37348 0.724437
0 0.355718 0.719051
0 0.347112 0.725811
0.207141 0.393698 0.870176
0.795407 0.383307 0.897093
0.864637 0.392554 0.882673
0.864683 0.392569 0.882582
0.863783 0.392386 0.884092
0 0.556603 0.793286
0 0.553445 0.794339
0 0.547677 0.791608
0 0.527779 0.781689
0.0539712 0.554452 0.833555
0.669841 0.523583 0.969146
0.896101 0.488182 0.91078
0.892088 0.476387 0.906874
0.889433 0.472801 0.906813
0 0.739879 0.875288
0 0.739727 0.879683
0 0.73695 0.880293
0 0.726268 0.877623
0 0.703899 0.875151
0.558801 0.750088 0.962264
0.941299 0.7196 0.949813
0.945052 0.708965 0.946914
0.943404 0.705974 0.948104
0.0552529 0.903868 0.926802
0.0457465 0.903181 0.928496
0.0421149 0.900282 0.927977
0.0341192 0.890929 0.925475
0.0180819 0.86656 0.919234
0.466148 0.889555 0.96025
0.872892 0.910002 0.96733
0.970993 0.911528 0.966445
0.969818 0.907927 0.965942
0.089128 0.930434 0.934966
0.0784161 0.932723 0.938766
0.0777142 0.932876 0.938994
0.0777142 0.932876 0.938994
0.0777142 0.932876 0.938994
0.13283 0.946929 0.948287
0.867765 0.969863 0.978042
0.984939 0.982101 0.984146
0.988922 0.983276 0.984863
0.0859846 0.931105 0.93611
0.0784161 0.932723 0.938766
0.0777142 0.932876 0.938994
0.0777142 0.932876 0.938994
0.0777142 0.932876 0.938994
0.121462 0.94638 0.946258
0.811185 0.978393 0.97644
0.988678 0.988907 0.989593
0.992477 0.988708 0.987243
