bundles/resolve-cinematic-luts/Phantom Luts/S5, S1, S1h LUTs/WB Offset - Green & Warm Boost/Utopia V-Log WBO.cube
TITLE "Generated by Resolve"
LUT_3D_SIZE 33
0 0.0270237 0.0350347
0 0.0270085 0.0350042
0 0.0269627 0.0349737
0.0182498 0.0255283 0.0342412
0.0399329 0.0240482 0.0342107
0.0641337 0.0219272 0.0327611
0.0849775 0.0200809 0.0315557
0.107759 0.0185702 0.0314183
0.135576 0.0162051 0.0314794
0.169986 0.0139162 0.0320592
0.212161 0.0116426 0.0333104
0.262654 0.00981155 0.0353246
0.319326 0.00807202 0.0366217
0.375158 0.00726329 0.0404212
0.429206 0.00952163 0.051545
0.479316 0.013611 0.0666209
0.528008 0.0200351 0.0859998
0.577447 0.0242313 0.105379
0.626429 0.0196689 0.120485
0.675746 0.0195773 0.143908
0.697444 0.021622 0.160113
0.700954 0.0222782 0.166583
0.701259 0.0223697 0.17023
0.701488 0.0224613 0.173419
0.701625 0.0225223 0.176349
0.701747 0.0225986 0.178332
0.701793 0.0226444 0.180224
0.70222 0.0226749 0.181918
0.703014 0.0226902 0.183337
0.704189 0.0225681 0.184527
0.705669 0.0223087 0.185199
0.707881 0.0217288 0.185733
0.709941 0.0211185 0.186358
0 0.0269627 0.0349737
0 0.0269932 0.0349889
0 0.0269627 0.0349737
0.0104067 0.0263676 0.0336919
0.0323491 0.0243381 0.034699
0.056199 0.0225071 0.033051
0.0779278 0.0205081 0.0317845
0.101045 0.0189822 0.0314794
0.129717 0.0167239 0.0313268
0.164752 0.0141299 0.0318914
0.207034 0.0115358 0.0326696
0.257633 0.00863661 0.0330663
0.313573 0.00573739 0.0325322
0.369467 0.00415045 0.0323033
0.422461 0.00468452 0.0388495
0.473014 0.00852979 0.0530098
0.522683 0.0142824 0.0729992
0.57438 0.0201114 0.09514
0.623728 0.0185702 0.113008
0.673823 0.0193027 0.137545
0.696452 0.0214237 0.153994
0.700328 0.0220951 0.160769
0.700771 0.0222171 0.164324
0.701045 0.0222934 0.167895
0.701289 0.022385 0.170504
0.701457 0.022446 0.172854
0.701564 0.0224918 0.174823
0.701747 0.0224918 0.176379
0.702068 0.0224308 0.177584
0.702922 0.0222324 0.178225
0.703853 0.0219577 0.179019
0.705776 0.0213626 0.179614
0.707805 0.0207218 0.180117
0 0.0269627 0.0349737
0 0.0269932 0.0349889
0 0.0269627 0.0349737
0 0.0269017 0.0348669
0.0211032 0.0267338 0.0348516
0.0433509 0.0251316 0.0338293
0.0686046 0.0226596 0.0314794
0.0932631 0.0204776 0.0303044
0.122789 0.0177005 0.0308385
0.15906 0.0145876 0.0319066
0.201907 0.0117647 0.0324865
0.252995 0.00880446 0.0329595
0.31014 0.00582895 0.0325475
0.367132 0.00411994 0.0320134
0.419562 0.00355535 0.0360418
0.469291 0.00581369 0.0451057
0.517235 0.00927749 0.0603342
0.570352 0.0140688 0.0823682
0.621942 0.0175631 0.105516
0.672358 0.0193484 0.131228
0.695369 0.0212406 0.147463
0.69958 0.0219425 0.154406
0.700069 0.0220493 0.158343
0.700481 0.0221408 0.161898
0.700816 0.0222324 0.164508
0.700999 0.0222782 0.167056
0.701137 0.0223239 0.16907
0.701411 0.0223392 0.170352
0.701778 0.0222934 0.171496
0.702632 0.0220645 0.172503
0.703624 0.0217746 0.173327
0.705531 0.0211948 0.174014
0.707607 0.0205539 0.174441
0 0.0269627 0.0349737
0 0.0270085 0.0350042
0 0.0270085 0.0350042
0 0.0269627 0.0349737
0.0122377 0.0279393 0.0340124
0.0302586 0.0286259 0.0355993
0.0530709 0.027863 0.0336614
0.0814069 0.0254826 0.0310979
0.112978 0.0208591 0.0293889
0.150439 0.017258 0.0307317
0.195651 0.0135958 0.0321355
0.248554 0.00926223 0.0327153
0.30663 0.00611887 0.0327764
0.364614 0.00421149 0.0319982
0.418021 0.00340276 0.0356603
0.468101 0.00556954 0.0444648
0.515038 0.00814832 0.0567941
0.566094 0.00891127 0.0704356
0.618601 0.0126497 0.0937514
0.669749 0.0179599 0.123079
0.694041 0.0210269 0.141085
0.698802 0.0218051 0.147967
0.69929 0.0218814 0.152041
0.699733 0.0219883 0.155184
0.700084 0.0220493 0.158343
0.700359 0.0221103 0.160952
0.700603 0.0221714 0.162722
0.700908 0.0221866 0.164187
0.701274 0.0221256 0.165469
0.702159 0.0218967 0.166522
0.703304 0.0215915 0.167315
0.705165 0.0210269 0.167971
0.707286 0.0203708 0.168414
0 0.0415656 0.0396582
0 0.0400549 0.037995
0.000396735 0.0378119 0.0378882
0.00508125 0.034699 0.0367132
0.0112917 0.0325322 0.035996
0.0228122 0.035111 0.0364843
0.0402991 0.0333715 0.0361639
0.0674754 0.0303349 0.0336156
0.101106 0.0265202 0.0309758
0.140917 0.020737 0.029221
0.187884 0.0166476 0.0309453
0.24271 0.0123445 0.0322118
0.303166 0.00738537 0.0321508
0.362173 0.00437934 0.0317693
0.416327 0.00352483 0.0356298
0.466789 0.00552377 0.0443275
0.514076 0.00798047 0.0562753
0.565454 0.00866712 0.0696422
0.618265 0.0126345 0.0892805
0.668437 0.0180972 0.116899
0.692454 0.0208743 0.134676
0.697704 0.0215305 0.14139
0.698344 0.0216831 0.145647
0.698909 0.0218204 0.148852
0.69929 0.0218814 0.151934
0.69958 0.0219425 0.15433
0.699855 0.0220035 0.156191
0.70016 0.0220035 0.157885
0.700603 0.0219425 0.159243
0.701534 0.0217288 0.16022
0.702693 0.0214084 0.160967
0.704631 0.0208438 0.161593
0.706844 0.0202182 0.161791
0 0.0609445 0.0428168
0 0.0590524 0.0382391
0 0.0562295 0.0381933
0.00456245 0.0519112 0.0363928
0.0144656 0.0471809 0.0359197
0.0251621 0.0487373 0.034699
0.0405432 0.0509499 0.0358282
0.0701152 0.0469673 0.0402228
0.101061 0.0411688 0.0366064
0.138964 0.0332036 0.0327916
0.182712 0.0213474 0.0288548
0.2365 0.0154726 0.0305791
0.299168 0.0099794 0.0305486
0.360311 0.00588998 0.0306249
0.415167 0.00381476 0.0353399
0.465629 0.00547799 0.0441291
0.513329 0.00791943 0.0560769
0.56492 0.00860609 0.0695048
0.617853 0.0126192 0.0887922
0.667948 0.0180056 0.114641
0.691768 0.0209354 0.130144
0.696208 0.0212558 0.135134
0.697154 0.0213931 0.138857
0.697932 0.0215305 0.14226
0.69839 0.0216678 0.145464
0.698772 0.0217746 0.147616
0.699077 0.0218204 0.149752
0.699413 0.0218204 0.151461
0.699809 0.0217594 0.152728
0.70074 0.0215457 0.153643
0.70193 0.0212406 0.154238
0.703929 0.0206912 0.154772
0.706127 0.0200351 0.155154
0 0.0853132 0.0398871
0 0.0830396 0.036286
0 0.0798505 0.0369116
0 0.0756237 0.0369573
0.0125429 0.0693675 0.0337072
0.0237888 0.0674907 0.0329747
0.0443122 0.0679789 0.0327916
0.0710002 0.068452 0.0403296
0.104921 0.0632029 0.0440375
0.145235 0.0537881 0.0409552
0.190677 0.0437171 0.0349432
0.243137 0.0263218 0.0276036
0.296788 0.0138247 0.0277256
0.358007 0.00827039 0.0284276
0.413825 0.0049897 0.0336614
0.464546 0.0055848 0.0436408
0.512367 0.0078584 0.0558938
0.564095 0.00849927 0.0693217
0.617426 0.0125277 0.0886854
0.667826 0.017792 0.113863
0.692287 0.0207523 0.129519
0.696147 0.0209659 0.132204
0.69633 0.0209964 0.132982
0.696971 0.021088 0.135637
0.697734 0.0211948 0.138643
0.698222 0.0213321 0.140856
0.698543 0.0214084 0.143053
0.698894 0.0214389 0.144762
0.69926 0.0214542 0.146059
0.699901 0.0213626 0.146883
0.70071 0.0211795 0.147478
0.702129 0.0208133 0.147967
0.703517 0.0204318 0.148348
0 0.111315 0.0361334
0 0.109758 0.030457
0 0.107469 0.0305028
0 0.10454 0.0311284
0.00445563 0.099733 0.028748
0.0202029 0.0942245 0.0285039
0.0382696 0.0952163 0.0285344
0.0730144 0.0934768 0.0340734
0.104967 0.0932479 0.0421302
0.147967 0.0856489 0.0446326
0.20267 0.0677806 0.0431678
0.254017 0.0551614 0.0361486
0.312703 0.0350958 0.0278782
0.363638 0.0153658 0.0228275
0.413657 0.00813306 0.0301823
0.463828 0.00708019 0.0419013
0.511269 0.00808728 0.0554055
0.562844 0.0083772 0.0690166
0.616587 0.0124361 0.0884565
0.667185 0.0176089 0.113115
0.692592 0.0206455 0.129427
0.696437 0.0208286 0.131838
0.696452 0.0208286 0.131868
0.696529 0.0208591 0.132113
0.696635 0.0208743 0.132555
0.69688 0.0209049 0.133471
0.697307 0.0209506 0.135027
0.697704 0.0209964 0.13669
0.697963 0.0210422 0.137957
0.698436 0.0210269 0.138766
0.699199 0.0209049 0.139315
0.700587 0.0205539 0.139864
0.702052 0.0201572 0.140215
0 0.143557 0.0337377
0 0.142046 0.0258946
0 0.139757 0.0229801
0 0.13724 0.0235904
0 0.134188 0.0216983
0.0096437 0.129107 0.0200809
0.0305638 0.126162 0.0225986
0.0615091 0.125093 0.0254826
0.10515 0.12134 0.034165
0.147997 0.12018 0.0413977
0.202533 0.109453 0.0457008
0.271702 0.0837262 0.0453803
0.327565 0.0673533 0.0378729
0.381369 0.0454414 0.0292515
0.426749 0.0216983 0.0246128
0.464759 0.0118563 0.0368353
0.511147 0.0104677 0.0529793
0.56144 0.00886549 0.0682689
0.615045 0.0123293 0.0877546
0.66566 0.0174411 0.111925
0.69247 0.0206302 0.129305
0.696483 0.0208286 0.131823
0.696483 0.0208286 0.131823
0.696483 0.0208286 0.131823
0.696529 0.0208286 0.13193
0.696574 0.0208438 0.132113
0.69662 0.0208438 0.132296
0.696666 0.0208438 0.132464
0.696712 0.0208591 0.132631
0.697017 0.0207675 0.132723
0.697581 0.0206302 0.13283
0.698772 0.0202945 0.132937
0.700236 0.019913 0.133028
0 0.183658 0.0335393
0 0.181979 0.0232853
0 0.180819 0.0150759
0 0.178698 0.0152132
0 0.176333 0.0151675
0 0.173022 0.00967422
0.0127718 0.168383 0.0101778
0.0491646 0.165881 0.0147097
0.0890211 0.162951 0.0213931
0.146471 0.157 0.0331273
0.20177 0.154009 0.040177
0.266651 0.14049 0.0462348
0.346761 0.1084 0.0497292
0.401434 0.0903639 0.0450294
0.449714 0.0671092 0.0393225
0.48748 0.0387121 0.0361181
0.522057 0.022446 0.0466468
0.563821 0.0141909 0.0639811
0.61384 0.0129091 0.08336
0.663859 0.0171664 0.109438
0.692363 0.0206302 0.129076
0.696483 0.0208286 0.131823
0.696483 0.0208286 0.131823
0.696483 0.0208286 0.131823
0.696483 0.0208286 0.131823
0.696483 0.0208286 0.131823
0.696483 0.0208286 0.131823
0.696498 0.0208286 0.131868
0.696529 0.0208286 0.13196
0.696834 0.0207523 0.132021
0.697414 0.0205997 0.132052
0.698543 0.0202792 0.132113
0.699962 0.0198825 0.132082
0 0.231342 0.0388342
0 0.229999 0.024033
0 0.228885 0.016434
0 0.228199 0.00846876
0 0.226108 0.00831617
0 0.224033 0.00689708
0 0.22089 0
0.0149538 0.216236 0
0.069749 0.214206 0.00640879
0.122942 0.20856 0.018204
0.19678 0.200198 0.0323033
0.265064 0.194919 0.0390478
0.338079 0.181079 0.0487373
0.420935 0.144518 0.0586862
0.474586 0.126162 0.058854
0.516823 0.103807 0.0582589
0.552163 0.0696422 0.0558175
0.587869 0.0357061 0.0564736
0.622766 0.0185397 0.0747845
0.667689 0.0180972 0.10193
0.695888 0.0207828 0.126101
0.697612 0.0209659 0.131441
0.696788 0.0208591 0.131701
0.696681 0.0208438 0.131777
0.69659 0.0208286 0.131807
0.696483 0.0208286 0.131823
0.696483 0.0208286 0.131823
0.696483 0.0208286 0.131823
0.696483 0.0208286 0.131823
0.696757 0.020737 0.131807
0.697322 0.0205844 0.131792
0.698436 0.020264 0.131792
0.69984 0.019852 0.131716
0 0.288563 0.0451362
0 0.287556 0.0312047
0 0.285908 0.0222171
0 0.286 0.0129091
0 0.285222 0.00381476
0 0.283543 0.00331121
0 0.281498 0.00231937
0 0.277882 0
0.0203403 0.273869 0
0.0935378 0.271763 0
0.165942 0.262211 0.0175021
0.256504 0.250462 0.0318151
0.335637 0.244099 0.0400244
0.407721 0.234424 0.0530861
0.4925 0.198322 0.0727245
0.546532 0.175845 0.0804761
0.587503 0.154788 0.0845655
0.626307 0.119432 0.0820478
0.663188 0.0606546 0.070161
0.696193 0.0304417 0.0876631
0.716686 0.0244297 0.114733
0.711604 0.0229343 0.123613
0.706706 0.0222324 0.126864
0.703227 0.0216983 0.129381
0.700267 0.0213169 0.130678
0.698238 0.0210422 0.131212
0.69749 0.0209049 0.131395
0.697307 0.0208896 0.131456
0.697292 0.0208896 0.131472
0.697551 0.0208133 0.131472
0.697978 0.020676 0.131487
0.699214 0.0203403 0.131456
0.700633 0.0199435 0.131365
0 0.352163 0.0554208
0 0.351308 0.0428931
0 0.35053 0.0324102
0 0.350362 0.0278325
0 0.350729 0.0189212
0 0.350637 0.00779736
0 0.349203 0.00657664
0 0.347066 0.00505074
0 0.342153 0
0.0333562 0.341192 0
0.126558 0.337636 0
0.21912 0.323613 0.0194553
0.325628 0.309606 0.033051
0.407706 0.303258 0.0450141
0.474693 0.301152 0.0606241
0.559365 0.271595 0.0910201
0.619791 0.240787 0.111711
0.662181 0.218173 0.11754
0.710246 0.18027 0.115984
0.749157 0.117006 0.102617
0.765881 0.0515602 0.101518
0.754528 0.0325017 0.104051
0.744183 0.028748 0.108553
0.732845 0.0260319 0.114931
0.721401 0.0242618 0.118776
0.716793 0.0234836 0.120592
0.71487 0.0230259 0.121874
0.713359 0.0226749 0.122789
0.712398 0.0225376 0.123613
0.711833 0.022385 0.124193
0.711574 0.0222171 0.124575
0.712077 0.0218814 0.124773
0.71313 0.0214694 0.124834
0 0.418387 0.0788891
0 0.417792 0.0661326
0 0.417075 0.0543069
0 0.416693 0.0447242
0 0.41735 0.0419165
0 0.418235 0.0347448
0 0.418921 0.0234379
0 0.417762 0.0199741
0 0.415579 0.0174868
0 0.409277 0
0.0558633 0.411109 0
0.173663 0.405219 0
0.28365 0.386908 0.0279088
0.398184 0.372168 0.0390478
0.480766 0.367483 0.0560922
0.54258 0.370993 0.0745251
0.622644 0.351888 0.113909
0.693736 0.314488 0.145403
0.745571 0.289708 0.15201
0.796429 0.252033 0.151446
0.830152 0.190646 0.137987
0.82443 0.140688 0.122911
0.806821 0.10045 0.107454
0.789563 0.0684672 0.0959335
0.77995 0.0550851 0.0979477
0.77261 0.0472267 0.101366
0.766354 0.0414282 0.103609
0.76141 0.037171 0.104875
0.757763 0.0350958 0.105699
0.75581 0.0344854 0.106767
0.754376 0.0343481 0.107622
0.754192 0.0340887 0.107958
0.75523 0.0337987 0.108003
0 0.487175 0.118456
0 0.487144 0.106935
0 0.487007 0.0948501
0 0.486931 0.083711
0 0.487129 0.0741283
0 0.487633 0.0700999
0 0.488655 0.0666514
0 0.489769 0.0552377
0 0.489464 0.0461891
0 0.486885 0.0426032
0 0.480415 0.00582895
0.0943313 0.484489 0
0.236851 0.474891 0.0110781
0.359716 0.452064 0.0457771
0.472343 0.43679 0.0517891
0.552331 0.432944 0.0742351
0.609689 0.439887 0.0962997
0.68571 0.429053 0.138231
0.765057 0.393423 0.174655
0.822904 0.361242 0.182681
0.869734 0.325612 0.182345
0.882963 0.292012 0.176684
0.877562 0.268849 0.169543
0.870115 0.248173 0.162539
0.862867 0.229404 0.156008
0.856153 0.213062 0.14963
0.850095 0.198779 0.143862
0.844816 0.187182 0.138888
0.840909 0.177966 0.135241
0.837903 0.170855 0.132479
0.835309 0.16527 0.130175
0.834379 0.161074 0.128374
0.834043 0.158343 0.12578
0 0.557183 0.176272
0 0.557626 0.166537
0 0.558007 0.155886
0 0.558251 0.144717
0 0.55848 0.134508
0 0.558801 0.124971
0 0.559167 0.117662
0 0.560143 0.115129
0 0.561624 0.105364
0 0.561761 0.0933394
0 0.558495 0.0877241
0.00999466 0.552865 0.0378271
0.155535 0.558129 0.00627146
0.315419 0.542275 0.0388495
0.437385 0.516182 0.0710155
0.543709 0.500908 0.0754559
0.620737 0.497902 0.102312
0.676234 0.505989 0.126894
0.747845 0.501717 0.165194
0.828336 0.47332 0.198138
0.883757 0.440436 0.210101
0.913359 0.407324 0.210483
0.913466 0.390555 0.206546
0.909987 0.377584 0.20238
0.906813 0.365972 0.198962
0.904158 0.35613 0.195972
0.9019 0.347799 0.193362
0.899947 0.340932 0.191424
0.898573 0.335912 0.190188
0.897307 0.331807 0.188922
0.89662 0.328801 0.188251
0.896498 0.326772 0.187503
0.896803 0.325429 0.186633
0 0.627375 0.249409
0 0.628138 0.240757
0 0.628794 0.231525
0 0.629511 0.22153
0 0.630259 0.211215
0.000106813 0.631052 0.200916
0.00177005 0.631632 0.190921
0.00360113 0.632364 0.179355
0.00410468 0.633417 0.170748
0.00335698 0.635187 0.164492
0.004654 0.635401 0.152087
0.00535592 0.631952 0.144427
0.0375067 0.626398 0.0726024
0.2392 0.628717 0.0460975
0.402869 0.606851 0.082948
0.513298 0.579034 0.105318
0.612482 0.563806 0.107942
0.686244 0.560967 0.136995
0.740063 0.569253 0.163867
0.807324 0.569528 0.190951
0.874846 0.550805 0.219684
0.923201 0.522744 0.232807
0.927459 0.50753 0.231891
0.926421 0.495537 0.229374
0.925643 0.485328 0.227329
0.924895 0.476616 0.225696
0.924346 0.469581 0.224491
0.92398 0.463905 0.223545
0.923629 0.45948 0.222736
0.923262 0.455772 0.222019
0.923354 0.453178 0.221805
0.923476 0.451453 0.221271
0.923583 0.45069 0.220432
0.0144961 0.695949 0.328023
0.0149233 0.696559 0.321355
0.0155489 0.697261 0.313909
0.0164187 0.698054 0.306172
0.0175021 0.698863 0.297581
0.0189212 0.699794 0.28838
0.0204776 0.70071 0.278462
0.0225071 0.701823 0.266011
0.0249027 0.703136 0.250202
0.0268864 0.704875 0.234119
0.0247807 0.706905 0.228153
0.0250248 0.70692 0.219242
0.0295262 0.70341 0.201953
0.0860304 0.700633 0.102617
0.34052 0.695521 0.0964828
0.485298 0.66949 0.130892
0.58587 0.640803 0.144533
0.677363 0.624781 0.147616
0.747829 0.621225 0.176471
0.800595 0.629053 0.199649
0.856031 0.633066 0.220066
0.907057 0.622629 0.243992
0.928573 0.608255 0.252094
0.930968 0.598566 0.251484
0.931426 0.590677 0.250172
0.93135 0.583429 0.248676
0.931823 0.57818 0.248234
0.931609 0.57377 0.247211
0.931685 0.570687 0.246647
0.931945 0.568658 0.246387
0.931777 0.566934 0.245869
0.931716 0.565637 0.245319
0.931579 0.565118 0.244617
0.0426184 0.761685 0.403037
0.0424811 0.762356 0.39826
0.0424048 0.763088 0.392523
0.0425269 0.763806 0.386755
0.0428168 0.76463 0.380713
0.0434577 0.765515 0.37406
0.0442664 0.766629 0.366918
0.0453803 0.768002 0.357244
0.046952 0.769787 0.343297
0.0491188 0.772152 0.32369
0.0508583 0.775082 0.301045
0.0475776 0.778241 0.288045
0.0462806 0.775769 0.283497
0.0601358 0.773068 0.254231
0.168597 0.775341 0.139391
0.448814 0.755917 0.157214
0.562005 0.729244 0.183169
0.652384 0.699565 0.189014
0.737408 0.682933 0.19408
0.805341 0.678935 0.220401
0.851179 0.686366 0.243458
0.893965 0.693675 0.266545
0.927275 0.689326 0.278874
0.930327 0.683162 0.277211
0.929763 0.677424 0.274113
0.929671 0.672923 0.27219
0.929427 0.668925 0.270558
0.929412 0.666087 0.269429
0.92932 0.6636 0.268467
0.929259 0.66183 0.267796
0.929259 0.660456 0.267353
0.929061 0.65948 0.266804
0.928923 0.65893 0.266499
0.0657664 0.825727 0.471031
0.0654154 0.826307 0.46714
0.0651255 0.827085 0.462959
0.0649882 0.827787 0.45861
0.0648966 0.828565 0.454154
0.065095 0.82945 0.449363
0.0654459 0.830274 0.444266
0.0662699 0.831556 0.437201
0.0671855 0.833173 0.427207
0.0683146 0.835172 0.412955
0.0703593 0.838224 0.391638
0.0727855 0.842161 0.364462
0.0731518 0.844678 0.341726
0.0732891 0.84094 0.336858
0.100404 0.838422 0.30367
0.294972 0.842741 0.204059
0.544182 0.813596 0.229694
0.63154 0.788571 0.246174
0.714015 0.75758 0.243549
0.794568 0.739956 0.251423
0.854841 0.735836 0.279042
0.893355 0.74284 0.299367
0.92517 0.752453 0.325414
0.935805 0.750652 0.331258
0.935836 0.746242 0.327993
0.935546 0.742626 0.324666
0.934859 0.739422 0.321706
0.934508 0.736934 0.31957
0.934569 0.735271 0.318151
0.934234 0.733913 0.316655
0.934112 0.732845 0.315724
0.93402 0.732082 0.315084
0.933959 0.73167 0.314778
0.0848402 0.878355 0.533364
0.0844892 0.878889 0.530404
0.0838178 0.879499 0.52726
0.0832837 0.880003 0.52398
0.0828717 0.880583 0.520592
0.0827955 0.881224 0.517082
0.0828717 0.881849 0.513298
0.0832074 0.882673 0.50808
0.083772 0.883803 0.501076
0.084535 0.885328 0.491142
0.0855573 0.88751 0.476722
0.0875257 0.890867 0.454963
0.0910048 0.895552 0.424842
0.0924697 0.895384 0.408423
0.104036 0.892699 0.387869
0.156527 0.895521 0.345251
0.43006 0.893797 0.282353
0.622156 0.86389 0.31284
0.69424 0.842283 0.32311
0.771237 0.813062 0.31487
0.848539 0.796414 0.33019
0.898894 0.791501 0.354528
0.929549 0.798398 0.368933
0.949828 0.805844 0.388037
0.950484 0.803586 0.386297
0.949599 0.8009 0.383139
0.948684 0.798291 0.380392
0.947921 0.796353 0.378408
0.947509 0.794965 0.37702
0.947036 0.793835 0.375738
0.946868 0.793011 0.374929
0.946944 0.792523 0.374487
0.947097 0.792309 0.374289
0.0972305 0.918578 0.592142
0.0969558 0.919036 0.589868
0.0960708 0.91957 0.587579
0.0953536 0.920073 0.585
0.0947433 0.920485 0.582528
0.0945602 0.920958 0.57995
0.0946059 0.921431 0.576959
0.0947738 0.921889 0.573327
0.095079 0.92256 0.567819
0.0954604 0.923583 0.56051
0.096025 0.924971 0.550134
0.0970016 0.927123 0.535149
0.0988632 0.930434 0.513176
0.101427 0.933455 0.488807
0.104646 0.931197 0.479225
0.149386 0.932036 0.4262
0.248371 0.94139 0.386069
0.541054 0.933333 0.370367
0.689662 0.908934 0.403418
0.752346 0.889052 0.410071
0.826001 0.861875 0.403922
0.894438 0.8448 0.418647
0.93843 0.838529 0.439338
0.961318 0.844327 0.449149
0.968063 0.845945 0.450919
0.967697 0.844083 0.447288
0.966751 0.84213 0.443275
0.966079 0.840757 0.440696
0.965316 0.839551 0.438437
0.964706 0.838621 0.436713
0.964431 0.838041 0.435584
0.964401 0.837644 0.434867
0.964538 0.837476 0.434455
0.0991379 0.946624 0.647913
0.0986648 0.946914 0.646097
0.097322 0.94728 0.64419
0.0961318 0.947738 0.642084
0.0950942 0.948089 0.64033
0.0946212 0.948363 0.638163
0.094377 0.948638 0.635798
0.0942397 0.948928 0.633036
0.0941787 0.949355 0.628901
0.0941329 0.949981 0.623545
0.0942245 0.950942 0.615961
0.0944381 0.952255 0.60499
0.0954147 0.953979 0.589624
0.0980392 0.956573 0.568948
0.101228 0.955993 0.556649
0.128862 0.956207 0.526604
0.219272 0.963943 0.464393
0.416052 0.975311 0.457038
0.632136 0.963516 0.457755
0.756664 0.941344 0.496651
0.810162 0.924773 0.498863
0.87483 0.901671 0.491798
0.932021 0.886809 0.502724
0.968734 0.880125 0.518242
0.984741 0.882353 0.524208
0.985107 0.880278 0.520378
0.984909 0.878462 0.516991
0.984451 0.876768 0.514336
0.983749 0.875486 0.5122
0.983124 0.874723 0.510536
0.982712 0.874266 0.509361
0.982406 0.873869 0.508598
0.982376 0.873701 0.508156
0.115862 0.962188 0.690288
0.115541 0.962417 0.689097
0.114504 0.962921 0.687831
0.113603 0.963333 0.686503
0.112734 0.963714 0.68542
0.112505 0.964111 0.684108
0.112413 0.964324 0.682887
0.112581 0.964645 0.680903
0.112703 0.965072 0.67834
0.112932 0.965728 0.674662
0.113146 0.966445 0.669856
0.113481 0.967559 0.663096
0.114046 0.969085 0.653529
0.114778 0.97113 0.640116
0.114092 0.971756 0.628016
0.116732 0.970474 0.614145
0.180133 0.975372 0.55697
0.338704 0.99025 0.514763
0.538476 0.996384 0.525246
0.719173 0.980026 0.548409
0.827085 0.959808 0.589715
0.868177 0.948363 0.586969
0.917479 0.932235 0.577081
0.959274 0.922194 0.584741
0.985092 0.917784 0.598169
0.990372 0.916213 0.597452
0.990738 0.914595 0.593454
0.990387 0.912993 0.589761
0.990097 0.911788 0.587182
0.989914 0.910994 0.585397
0.989715 0.910307 0.583963
0.989654 0.909819 0.58294
0.989761 0.90959 0.582315
0.117983 0.96347 0.697993
0.117632 0.963653 0.696681
0.116518 0.964141 0.695384
0.115434 0.964523 0.694072
0.114488 0.964889 0.692729
0.114229 0.965072 0.691447
0.114107 0.965286 0.690181
0.114214 0.965591 0.688197
0.114321 0.965957 0.685481
0.114412 0.966461 0.68217
0.114565 0.967193 0.677134
0.114794 0.968154 0.670604
0.115221 0.969573 0.661448
0.115877 0.971572 0.64889
0.11664 0.973449 0.636576
0.117021 0.97377 0.634623
0.13547 0.978408 0.61471
0.257801 0.987579 0.572412
0.470375 0.999176 0.571374
0.630137 0.99704 0.591882
0.791669 0.979019 0.627054
0.880247 0.964782 0.66714
0.91162 0.960067 0.664958
0.950637 0.955398 0.665873
0.978302 0.949889 0.673045
0.990936 0.94667 0.680079
0.991592 0.945083 0.675517
0.99173 0.943954 0.671489
0.991638 0.942779 0.668055
0.99147 0.941878 0.665522
0.991333 0.941192 0.663752
0.99118 0.940703 0.662364
0.991226 0.940475 0.661601
0.115648 0.9635 0.700572
0.115908 0.963623 0.699474
0.115602 0.963912 0.698329
0.115099 0.964141 0.697002
0.114382 0.964508 0.695583
0.114137 0.964721 0.694179
0.114015 0.964965 0.692668
0.114076 0.965179 0.690974
0.114199 0.965576 0.688457
0.114351 0.966064 0.68484
0.114458 0.966751 0.680171
0.114687 0.967712 0.673671
0.115038 0.96907 0.664729
0.115663 0.971038 0.651942
0.11667 0.973404 0.637339
0.116976 0.973846 0.635767
0.12752 0.977478 0.622324
0.233143 0.98529 0.58497
0.447593 0.998871 0.566171
0.594263 0.998383 0.600656
0.750317 0.986526 0.631586
0.863386 0.969467 0.684947
0.914946 0.963836 0.714504
0.93843 0.962386 0.714183
0.967697 0.962524 0.726909
0.988022 0.965057 0.753902
0.990097 0.965301 0.755734
0.990372 0.96527 0.754284
0.990494 0.96524 0.75317
0.990448 0.965255 0.752438
0.990341 0.964965 0.750835
0.99025 0.964538 0.749142
0.990265 0.964218 0.747784
0.113924 0.963485 0.702861
0.114137 0.963653 0.701595
0.114336 0.963821 0.700298
0.114412 0.963943 0.699168
0.114199 0.964172 0.697948
0.114031 0.964385 0.696574
0.113924 0.964645 0.694987
0.114 0.964904 0.693019
0.114107 0.96527 0.6907
0.11426 0.965728 0.687205
0.114397 0.9664 0.682582
0.114641 0.967361 0.675914
0.114977 0.968704 0.667018
0.115526 0.970611 0.654826
0.116518 0.973022 0.63975
0.116945 0.973785 0.636057
0.125887 0.976562 0.6262
0.214679 0.984131 0.591989
0.42182 0.998337 0.560891
0.573205 0.998734 0.598306
0.729229 0.989044 0.625956
0.850889 0.971405 0.678752
0.909957 0.964614 0.714
0.933227 0.962753 0.715908
0.961807 0.962737 0.724453
0.983551 0.964462 0.74876
0.989181 0.96611 0.761135
0.989288 0.966171 0.761563
0.98912 0.966217 0.761624
0.988861 0.966278 0.76173
0.988708 0.966308 0.761807
0.988632 0.966323 0.761868
0.988769 0.966308 0.761837
0.114733 0.963073 0.704768
0.11603 0.963012 0.703365
0.116915 0.963073 0.702083
0.117403 0.963165 0.700694
