bundles/resolve-cinematic-luts/Phantom Luts/Ursa G2 Phntm Film LUTs - V1/Gen4/Standard (No WB Offset)/Ursa G2 Eastman Gen4.cube
TITLE "Generated by Resolve"
LUT_3D_SIZE 5
0.0390021 0.0390021 0.0390021
0.16669 0.0390021 0.0421912
0.384131 0.0478065 0.0401465
0.515618 0.0872511 0.0545968
0.520623 0.106447 0.0670939
0.080293 0.164675 0.0935378
0.173404 0.19855 0.0879072
0.492729 0.169268 0.0955825
0.6421 0.209384 0.115206
0.65774 0.222049 0.120317
0.113268 0.497902 0.267369
0.14316 0.485756 0.179232
0.527077 0.585016 0.171679
0.769421 0.568536 0.202762
0.798383 0.571954 0.21706
0.209369 0.723278 0.472038
0.182132 0.689082 0.396078
0.473838 0.718853 0.259586
0.723095 0.800381 0.331044
0.837507 0.795575 0.367803
0.236927 0.761227 0.526268
0.213413 0.734462 0.452537
0.316365 0.684047 0.261128
0.681529 0.813703 0.336614
0.839292 0.829831 0.407736
0.0402686 0.0390021 0.108293
0.169635 0.040238 0.113436
0.383581 0.0390021 0.144442
0.53228 0.0702983 0.203006
0.545617 0.0915389 0.235325
0.0695506 0.146914 0.123384
0.18262 0.176349 0.175021
0.491142 0.158724 0.164553
0.637201 0.165331 0.168658
0.609155 0.149477 0.148455
0.124788 0.511589 0.337148
0.108751 0.492378 0.284276
0.519921 0.572702 0.185458
0.767117 0.519554 0.227314
0.7888 0.518929 0.220462
0.216541 0.729702 0.511467
0.200397 0.708721 0.464317
0.371252 0.673457 0.243824
0.710109 0.786969 0.320378
0.835081 0.778973 0.356527
0.25095 0.77792 0.569802
0.235752 0.761654 0.516213
0.230594 0.682826 0.317311
0.64802 0.804898 0.334142
0.836362 0.829923 0.406607
0.0616312 0.0511177 0.294011
0.234302 0.0434272 0.30602
0.386084 0.0570993 0.301289
0.562493 0.107942 0.371984
0.582284 0.127672 0.403723
0.0390021 0.0969711 0.262043
0.11368 0.0542306 0.329412
0.397543 0.0711376 0.31548
0.564233 0.10634 0.357122
0.585809 0.123354 0.377523
0.112764 0.506371 0.4103
0.108385 0.502815 0.415259
0.551171 0.569268 0.551202
0.771145 0.50898 0.513512
0.81529 0.477638 0.488243
0.219135 0.728878 0.564111
0.213672 0.719234 0.553674
0.388067 0.713664 0.535897
0.707088 0.784848 0.544945
0.847044 0.755261 0.56025
0.271717 0.795316 0.629343
0.26656 0.791089 0.616495
0.275135 0.773159 0.546746
0.566781 0.784649 0.522454
0.847532 0.861448 0.562325
0.15938 0.0520638 0.413016
0.293904 0.0581216 0.429053
0.426413 0.0836194 0.427344
0.576364 0.145373 0.480812
0.602548 0.159518 0.508949
0.0390021 0.0587778 0.337911
0.197467 0.0539101 0.431113
0.419928 0.0823835 0.434852
0.576623 0.143557 0.479561
0.59997 0.156817 0.496391
0.0727398 0.461204 0.500435
0.0682841 0.443458 0.503288
0.524147 0.464881 0.716731
0.805081 0.514229 0.717525
0.847227 0.494347 0.702983
0.211139 0.721172 0.609354
0.205142 0.711299 0.603876
0.442191 0.742931 0.668116
0.752865 0.779751 0.753628
0.860563 0.746807 0.729625
0.317891 0.812634 0.684153
0.304524 0.808042 0.675654
0.38703 0.821973 0.683207
0.6701 0.864408 0.765423
0.868467 0.91313 0.778531
0.286076 0.0713664 0.492699
0.364248 0.0832837 0.501411
0.495064 0.12372 0.521065
0.611917 0.173281 0.557122
0.615488 0.173693 0.556664
0.130282 0.0631418 0.453376
0.299886 0.0733959 0.495201
0.477806 0.116793 0.517128
0.606592 0.171054 0.5552
0.624628 0.181308 0.566079
0.066743 0.441657 0.559243
0.0716106 0.419379 0.565087
0.594644 0.41181 0.803677
0.829541 0.475532 0.809308
0.85507 0.469902 0.796628
0.225834 0.706783 0.673091
0.211337 0.690028 0.668315
0.397635 0.697612 0.736873
0.768383 0.721843 0.856458
0.880034 0.738964 0.844953
0.350317 0.8224 0.724224
0.338247 0.816846 0.717754
0.408438 0.827558 0.73669
0.711223 0.88455 0.835035
0.88748 0.912856 0.884077
