bundles/resolve-cinematic-luts/Phantom Luts/Ursa G2 Phntm Film LUTs - V1/Gen4/Standard (No WB Offset)/Ursa G2 Eastman Gen4.cube
TITLE "Generated by Resolve"
LUT_3D_SIZE 33
0.0390021 0.0390021 0.0390021
0.0390021 0.0390021 0.0390021
0.0390021 0.0390021 0.0390021
0.0473793 0.0390021 0.0390021
0.0651408 0.0390021 0.0390021
0.0862135 0.0390021 0.0393988
0.109957 0.0390021 0.0408942
0.136522 0.0390021 0.041825
0.16669 0.0390021 0.0421912
0.200626 0.0390021 0.0410925
0.233845 0.039704 0.0390021
0.263264 0.0412604 0.0390021
0.290562 0.0425422 0.0390021
0.316518 0.0438087 0.0390021
0.340581 0.0443122 0.0390021
0.363546 0.0454871 0.0391089
0.384131 0.0478065 0.0401465
0.403632 0.0517128 0.0411383
0.422171 0.0561227 0.043183
0.440055 0.061265 0.044892
0.45687 0.0667735 0.0462043
0.472877 0.071809 0.0480812
0.488655 0.0780346 0.0501564
0.502724 0.0831464 0.0524605
0.515618 0.0872511 0.0545968
0.52755 0.0910658 0.0569772
0.53695 0.0936294 0.058381
0.541497 0.0955367 0.0604257
0.54255 0.0966049 0.0619516
0.540734 0.0977035 0.0630198
0.537316 0.099321 0.0641794
0.529488 0.102708 0.0656748
0.520623 0.106447 0.0670939
0.0390021 0.0390021 0.0390021
0.0390021 0.0390021 0.0390021
0.0390021 0.0390021 0.0390021
0.0425269 0.0390021 0.0390021
0.0566567 0.0390021 0.0390021
0.0767987 0.0390021 0.0390021
0.0993973 0.0390021 0.0402533
0.12575 0.0390021 0.0408789
0.156359 0.0390021 0.0410773
0.191608 0.0390021 0.039765
0.226169 0.040116 0.0390021
0.255909 0.0415503 0.0390021
0.283467 0.0432136 0.0390021
0.310826 0.0454566 0.0390021
0.335073 0.0465553 0.0390021
0.357534 0.0483864 0.0390021
0.377829 0.0497292 0.0390021
0.397192 0.0519875 0.0390021
0.415518 0.0560311 0.0390021
0.432395 0.0599985 0.0404212
0.449454 0.0646067 0.0426032
0.465232 0.0695964 0.0442054
0.48014 0.0746471 0.0455482
0.493431 0.0800031 0.0470283
0.506127 0.084947 0.0487221
0.51754 0.0891127 0.0497597
0.527062 0.0923171 0.0506752
0.531014 0.093843 0.0518807
0.531685 0.0945602 0.052842
0.530175 0.0959945 0.053666
0.527718 0.0979324 0.0547189
0.519875 0.101213 0.0552834
0.51136 0.104738 0.0556954
0.0390021 0.0390021 0.0390021
0.0390021 0.0390021 0.0390021
0.0390021 0.0390021 0.0390021
0.042237 0.0390021 0.0390021
0.0528878 0.0390021 0.0390021
0.0719158 0.0390021 0.0412451
0.0931258 0.0390021 0.0428321
0.118898 0.0390021 0.0432441
0.149676 0.0390021 0.0424811
0.185168 0.0406653 0.0407874
0.220768 0.0417945 0.0390021
0.251942 0.0429847 0.0390021
0.280629 0.04477 0.0390021
0.307057 0.0471962 0.0390021
0.332753 0.0487221 0.0390021
0.355596 0.0504311 0.0390021
0.376562 0.0521859 0.0390021
0.395941 0.0542611 0.0390021
0.413611 0.0580301 0.0390021
0.429892 0.0621195 0.0393988
0.445502 0.0664073 0.0406806
0.4607 0.0709544 0.0420844
0.474388 0.0758526 0.0430304
0.487816 0.0806897 0.0449989
0.499947 0.0851148 0.0460517
0.511391 0.0893263 0.0472877
0.520943 0.0932631 0.0483558
0.523934 0.0942702 0.0484474
0.525292 0.0952163 0.0489357
0.523873 0.0966354 0.0492866
0.520897 0.0980392 0.0494392
0.512978 0.100999 0.0491798
0.504036 0.104097 0.0487678
0.0458534 0.0426642 0.0440223
0.0442664 0.042298 0.0431373
0.0449989 0.0416266 0.0421607
0.0500954 0.0436866 0.0430915
0.0619974 0.0464485 0.0449073
0.0802777 0.0464332 0.047303
0.0999619 0.0464332 0.0488441
0.123537 0.0478981 0.0494087
0.151217 0.0495003 0.048249
0.18468 0.0508888 0.045304
0.220752 0.0508888 0.0400549
0.253513 0.0497444 0.0390021
0.282139 0.0502327 0.0390021
0.307424 0.0512551 0.0390021
0.331365 0.0515755 0.0390021
0.354223 0.0527657 0.0390021
0.375586 0.0547951 0.0390021
0.394827 0.0570687 0.0390021
0.412238 0.06009 0.0390021
0.428809 0.0649882 0.0392309
0.444663 0.0694438 0.0407874
0.45948 0.0740826 0.0416876
0.473869 0.0792096 0.043122
0.486122 0.0834211 0.043946
0.498116 0.0884871 0.0455634
0.508522 0.0922408 0.0460212
0.517418 0.0957809 0.0464637
0.520409 0.0974441 0.0466926
0.52079 0.0980087 0.0467231
0.518807 0.0988479 0.0464942
0.514916 0.100084 0.0461128
0.507103 0.102663 0.0457313
0.497795 0.105745 0.0450141
0.0552834 0.0654917 0.0560769
0.053315 0.0652476 0.0547494
0.0534218 0.0634012 0.0516823
0.0600595 0.065095 0.0519417
0.0682841 0.0683452 0.0530098
0.0886397 0.0704204 0.053666
0.111055 0.0677043 0.0561685
0.136599 0.0648356 0.0569162
0.165194 0.0619364 0.0543832
0.198337 0.0616465 0.0507362
0.230655 0.06215 0.0463264
0.262913 0.0627298 0.0431525
0.29163 0.06421 0.0407263
0.317052 0.0647746 0.0395666
0.340749 0.0643778 0.0390021
0.361059 0.0644846 0.0390021
0.380072 0.0644541 0.0390021
0.39733 0.0647746 0.0390021
0.413962 0.0671702 0.0390021
0.429541 0.0695506 0.0400702
0.44596 0.0752575 0.0413062
0.460853 0.0793011 0.0423438
0.474281 0.0841077 0.043595
0.486564 0.0876478 0.0444343
0.497612 0.0921492 0.0453803
0.509026 0.0968032 0.0465095
0.517296 0.0998398 0.0463874
0.521935 0.102205 0.0471351
0.522301 0.102937 0.0470893
0.519982 0.103746 0.0468605
0.516793 0.104814 0.04654
0.508583 0.107393 0.0457465
0.498833 0.110567 0.0449989
0.0613413 0.0864576 0.0650187
0.0593576 0.0872053 0.0635233
0.0603037 0.0861372 0.0612955
0.0649882 0.0857099 0.058854
0.0768902 0.089601 0.0598611
0.0887007 0.0922255 0.0602274
0.113375 0.0927443 0.0593881
0.143954 0.0902419 0.0614786
0.179095 0.0813611 0.0615702
0.216159 0.0782635 0.0590677
0.249775 0.0771344 0.0548409
0.279362 0.0785687 0.0516365
0.306905 0.0802167 0.049134
0.333715 0.0820935 0.0476234
0.357702 0.0845197 0.0466011
0.379095 0.087953 0.0462348
0.397696 0.0907301 0.0458991
0.415213 0.0932937 0.0458991
0.43183 0.0943618 0.0464942
0.446448 0.0954299 0.046479
0.460761 0.0978714 0.0471199
0.473655 0.0990921 0.0471351
0.486015 0.101366 0.0480049
0.497917 0.104387 0.0488289
0.508858 0.10753 0.0497597
0.518456 0.109636 0.0502174
0.526558 0.112001 0.0505226
0.529458 0.111849 0.0497139
0.528939 0.111406 0.0492866
0.526528 0.111772 0.0489052
0.523476 0.113054 0.0487068
0.515633 0.11574 0.0479744
0.506477 0.119402 0.0474403
0.0661784 0.107622 0.0739452
0.0648814 0.109148 0.0713359
0.0657969 0.108293 0.0688029
0.0689555 0.107027 0.0657359
0.08159 0.109529 0.0650187
0.0970779 0.115145 0.0669566
0.11252 0.118944 0.0673991
0.144991 0.118486 0.0668498
0.187579 0.115389 0.0684367
0.233661 0.104189 0.0690013
0.273732 0.098024 0.0661631
0.305623 0.0958114 0.0630503
0.334096 0.0978866 0.0606394
0.359457 0.100603 0.0592203
0.382803 0.103853 0.0581826
0.404929 0.107164 0.0580148
0.425772 0.110735 0.0582132
0.444114 0.114626 0.0586404
0.461677 0.118059 0.0595865
0.478172 0.121752 0.0607309
0.494179 0.125643 0.0625315
0.509483 0.129717 0.0642863
0.524071 0.133501 0.0662089
0.536004 0.136553 0.0673228
0.547814 0.140566 0.0690471
0.559472 0.14374 0.0731212
0.567559 0.14609 0.0737316
0.572152 0.146487 0.0724804
0.568338 0.144259 0.0706493
0.563912 0.142199 0.0685435
0.558358 0.140383 0.066392
0.550179 0.139574 0.0642557
0.540246 0.137926 0.061265
0.0753948 0.132967 0.0830701
0.0746014 0.134707 0.079469
0.0743267 0.135271 0.0776074
0.0762798 0.13434 0.0743572
0.0870069 0.135683 0.0721294
0.104707 0.142672 0.0733043
0.120912 0.149401 0.0756847
0.139528 0.153429 0.0765698
0.182773 0.151369 0.0751507
0.237903 0.149325 0.0758831
0.288716 0.136278 0.0788891
0.328725 0.128527 0.0789349
0.358801 0.124971 0.0767529
0.385794 0.12488 0.0751507
0.411582 0.128038 0.0743267
0.436072 0.132036 0.0747845
0.458183 0.136385 0.0754253
0.478019 0.141344 0.0766461
0.497475 0.145983 0.0779431
0.51632 0.150744 0.0802472
0.534279 0.155779 0.0830549
0.551904 0.160662 0.0861219
0.569024 0.165148 0.08925
0.584527 0.169848 0.0924086
0.598413 0.1738 0.0952773
0.611139 0.177768 0.0979629
0.622538 0.181582 0.100603
0.629541 0.183185 0.101106
0.627344 0.182498 0.100465
0.624002 0.182055 0.0994278
0.619471 0.181369 0.0982223
0.611643 0.181537 0.0968032
0.603418 0.181964 0.0953078
0.080293 0.164675 0.0935378
0.0788128 0.166598 0.0900435
0.0786755 0.168078 0.0868238
0.0819715 0.168231 0.0837873
0.088014 0.167468 0.0791028
0.105257 0.172259 0.0783703
0.127901 0.183734 0.0829633
0.148577 0.192828 0.0867018
0.173404 0.19855 0.0879072
0.230411 0.1953 0.0860304
0.294865 0.196292 0.0866102
0.345815 0.186694 0.0909133
0.385016 0.174762 0.0962081
0.416541 0.169177 0.0958572
0.443015 0.164279 0.0949874
0.468254 0.165988 0.0948043
0.492729 0.169268 0.0955825
0.515953 0.173541 0.0971389
0.536034 0.17879 0.0988327
0.554833 0.183642 0.10045
0.572992 0.188739 0.102449
0.590677 0.193988 0.105257
0.609079 0.199252 0.108553
0.626291 0.204334 0.111513
0.6421 0.209384 0.115206
0.656596 0.213962 0.118395
0.668925 0.217945 0.120348
0.67744 0.220706 0.121904
0.67747 0.220768 0.121843
0.675074 0.220691 0.121645
0.671748 0.220386 0.121233
0.665263 0.221057 0.120775
0.65774 0.222049 0.120317
0.0874647 0.202228 0.107012
0.08542 0.204288 0.103319
0.0878767 0.208148 0.100969
0.0910353 0.209491 0.0984665
0.0959335 0.208942 0.0939498
0.106447 0.209689 0.0889601
0.127855 0.218738 0.0898299
0.159716 0.234989 0.0968032
0.1888 0.246296 0.102052
0.224216 0.254948 0.103304
0.288273 0.250935 0.100969
0.354177 0.252033 0.100526
0.402899 0.245548 0.102068
0.441382 0.234943 0.10663
0.473487 0.223453 0.114336
0.500114 0.218158 0.113603
0.525277 0.215335 0.113771
0.54876 0.214008 0.114519
0.570657 0.215198 0.115801
0.591134 0.218921 0.116854
0.610178 0.223575 0.118318
0.628138 0.228885 0.120027
0.644816 0.234318 0.12192
0.661021 0.239826 0.124239
0.676509 0.245014 0.126848
0.690913 0.250126 0.129641
0.704707 0.255131 0.132464
0.713893 0.258488 0.134295
0.716335 0.259251 0.134722
0.714519 0.259144 0.134539
0.712261 0.259098 0.134234
0.705913 0.259968 0.134051
0.699214 0.261418 0.134142
0.098558 0.246662 0.125216
0.096437 0.249088 0.121981
0.0979629 0.253178 0.11989
0.103471 0.257328 0.117647
0.108431 0.25774 0.113115
0.11574 0.256611 0.107424
0.133196 0.26157 0.102724
0.164614 0.275914 0.105364
0.200748 0.292119 0.111467
0.240345 0.304555 0.116213
0.281132 0.312673 0.11458
0.34548 0.307897 0.112627
0.40882 0.307958 0.110353
0.457481 0.304738 0.109453
0.495201 0.296529 0.110918
0.525429 0.284382 0.118425
0.551583 0.273976 0.125139
0.576486 0.268208 0.127291
0.599756 0.265431 0.127886
0.621836 0.262745 0.129351
0.642344 0.262608 0.130816
0.660395 0.264225 0.132723
0.677989 0.26865 0.134325
0.692607 0.272816 0.136202
0.707149 0.278386 0.138827
0.721111 0.284092 0.141772
0.733684 0.289372 0.144244
0.743069 0.293523 0.146761
0.746212 0.294789 0.147494
0.744854 0.294881 0.147494
0.743236 0.295216 0.147387
0.737942 0.296635 0.147539
0.731334 0.298161 0.147585
0.107744 0.29305 0.144915
0.104875 0.29456 0.140978
0.105379 0.298177 0.138659
0.11136 0.302708 0.135927
0.118425 0.305821 0.13228
0.12604 0.30576 0.126528
0.135866 0.305669 0.118212
0.163439 0.314839 0.113024
0.203464 0.331456 0.115328
0.245808 0.347127 0.119814
0.292393 0.359884 0.124117
0.333104 0.367956 0.121263
0.395926 0.362585 0.120851
0.45742 0.361608 0.118395
0.505104 0.359457 0.114488
0.542199 0.352041 0.115221
0.570886 0.34168 0.119966
0.594873 0.330968 0.125643
0.618875 0.322133 0.133562
0.642023 0.315602 0.14081
0.664317 0.31281 0.141939
0.685374 0.311589 0.144457
0.702998 0.310613 0.146853
0.718044 0.31191 0.150072
0.73106 0.314076 0.152682
0.743847 0.31986 0.156481
0.754208 0.32401 0.159487
0.761395 0.32874 0.161852
0.765209 0.330877 0.162676
0.76437 0.33106 0.162707
0.762524 0.331197 0.162905
0.757778 0.332021 0.162997
0.751415 0.333181 0.163302
0.111147 0.336706 0.16379
0.107042 0.337224 0.158404
0.106661 0.339986 0.155917
0.111223 0.343389 0.151369
0.120668 0.347936 0.147768
0.128985 0.34902 0.141604
0.137667 0.349126 0.134615
0.154223 0.351247 0.123751
0.193698 0.363851 0.117342
0.242237 0.38265 0.119997
0.289509 0.399329 0.125994
0.339208 0.4121 0.129549
0.380346 0.419974 0.125994
0.441077 0.412558 0.127214
0.499901 0.410315 0.125063
0.545327 0.408545 0.121401
0.581537 0.40325 0.121431
0.609934 0.39649 0.126177
0.632746 0.38732 0.132036
0.653239 0.377676 0.139971
0.673854 0.371221 0.147127
0.693935 0.365637 0.154757
0.71458 0.361791 0.162799
0.731319 0.361166 0.165652
0.7458 0.361776 0.16817
0.75906 0.363409 0.171176
0.769268 0.365698 0.174838
0.775402 0.369406 0.176684
0.77789 0.372335 0.177401
0.776913 0.372457 0.177401
0.775387 0.372732 0.177493
0.770916 0.373754 0.17789
0.765194 0.375051 0.178134
0.111666 0.379492 0.184863
0.107713 0.37879 0.178515
0.105745 0.379751 0.173327
0.108904 0.381888 0.167865
0.117571 0.386114 0.162127
0.127733 0.38909 0.155489
0.136172 0.389425 0.148913
0.146761 0.389425 0.139605
0.171115 0.392554 0.123293
0.226383 0.410315 0.119371
0.279881 0.430777 0.124254
0.33051 0.447257 0.13022
0.381491 0.459495 0.132616
0.42266 0.466361 0.130434
0.479652 0.458839 0.135576
0.53518 0.455695 0.136156
0.578515 0.454231 0.134096
0.614618 0.450187 0.134844
0.641993 0.44683 0.138247
0.664302 0.439384 0.143648
0.683604 0.43183 0.151156
0.701106 0.425711 0.157382
0.718746 0.420706 0.16408
0.734798 0.417563 0.169772
0.750805 0.415183 0.175006
0.765454 0.413901 0.180209
0.776562 0.413687 0.184924
0.782742 0.417395 0.187671
0.784543 0.420325 0.18822
0.783719 0.420737 0.188037
0.782422 0.420935 0.188281
0.778363 0.421881 0.188846
0.773159 0.423255 0.189395
0.109438 0.420264 0.20911
0.105821 0.418967 0.203143
0.10161 0.417868 0.196384
0.101961 0.418509 0.189212
0.107591 0.420401 0.180819
0.118288 0.423117 0.17142
0.129305 0.424308 0.162081
0.140093 0.42443 0.152544
0.155795 0.425818 0.140063
0.201221 0.433875 0.12108
0.262333 0.454292 0.123095
0.318151 0.475166 0.130678
0.370642 0.491432 0.138476
0.421439 0.502586 0.141192
0.461387 0.508797 0.141161
0.514061 0.501945 0.148562
0.566583 0.498054 0.151064
0.607675 0.496513 0.15053
0.641703 0.49366 0.151827
0.669062 0.491188 0.154131
0.691691 0.487526 0.159091
0.710643 0.483543 0.164721
0.726497 0.478599 0.170367
0.740414 0.474098 0.176287
0.754314 0.471061 0.180819
0.767514 0.469169 0.185092
0.779538 0.467353 0.189105
0.785519 0.468742 0.191882
0.788571 0.470863 0.192798
0.788373 0.472679 0.192813
0.787182 0.472953 0.192905
0.784115 0.473777 0.193057
0.779187 0.474723 0.19382
0.108324 0.459464 0.236896
0.104585 0.457542 0.230747
0.100862 0.456336 0.225406
0.0974899 0.454932 0.216571
0.0981308 0.45417 0.206409
0.107393 0.455085 0.193164
0.119707 0.455604 0.17995
0.13228 0.456123 0.169299
0.148608 0.45713 0.156069
0.180148 0.460914 0.138933
0.244877 0.475135 0.12578
0.30515 0.497124 0.133379
0.357015 0.516655 0.143984
0.409354 0.532738 0.152209
0.458595 0.542748 0.154223
0.495521 0.548196 0.155062
0.544915 0.541848 0.163195
0.594522 0.53753 0.167422
0.633692 0.536187 0.167742
0.666377 0.534127 0.16994
0.693492 0.532265 0.172671
0.716274 0.530205 0.175875
0.734524 0.528984 0.180819
0.749218 0.526284 0.185336
0.762676 0.524102 0.190249
0.773892 0.521737 0.194217
0.783886 0.520256 0.197406
0.790906 0.520256 0.201083
0.793698 0.522011 0.202792
0.793881 0.523735 0.203159
0.793622 0.523827 0.20322
0.791394 0.523919 0.203586
0.787854 0.524254 0.204349
0.113268 0.497902 0.267369
0.110124 0.49575 0.262791
0.106752 0.494179 0.258076
0.103243 0.491569 0.249836
0.0995346 0.488777 0.238972
0.101228 0.486686 0.225391
0.112322 0.48603 0.208209
0.12668 0.485832 0.193774
0.14316 0.485756 0.179232
0.166445 0.4869 0.159792
0.218219 0.494194 0.141283
0.295155 0.516701 0.136645
0.348165 0.538491 0.147387
0.398444 0.556802 0.161791
0.445701 0.570825 0.168002
0.490486 0.579828 0.169055
0.527077 0.585016 0.171679
0.573754 0.579324 0.180087
0.619821 0.575296 0.184985
0.65713 0.573678 0.186343
0.687861 0.572381 0.188876
0.714733 0.57116 0.191989
0.737331 0.569482 0.195117
0.755367 0.569162 0.19884
0.769421 0.568536 0.202762
0.781933 0.568338 0.206668
0.792386 0.567681 0.209964
0.80145 0.56846 0.213046
0.802655 0.570382 0.21529
0.802808 0.571878 0.216236
0.802625 0.571832 0.216266
0.801144 0.57171 0.216556
0.798383 0.571954 0.21706
0.122271 0.533883 0.298573
0.119585 0.531563 0.294041
0.116838 0.529885 0.290562
0.11339 0.527153 0.283513
0.110079 0.524315 0.274784
0.107759 0.520882 0.261021
0.110826 0.517311 0.242878
0.123766 0.515358 0.224948
0.137911 0.513817 0.208499
0.158068 0.513146 0.188006
0.193439 0.515282 0.160769
0.260914 0.528328 0.146487
0.337972 0.5561 0.152911
0.389136 0.576791 0.166293
0.435645 0.593301 0.180179
0.479423 0.606546 0.185992
0.520577 0.615 0.186053
0.556085 0.619257 0.189044
0.59968 0.614572 0.197269
0.642649 0.610376 0.202457
0.678782 0.609262 0.205386
0.707851 0.608637 0.208972
0.733761 0.607797 0.212055
0.755856 0.606668 0.215641
0.773327 0.605936 0.218891
0.787717 0.60589 0.222782
0.799435 0.607156 0.225895
0.808865 0.607187 0.22826
0.811658 0.608454 0.231037
0.812039 0.609537 0.232929
0.811902 0.6094 0.233173
0.810758 0.609262 0.233341
0.808194 0.609506 0.23415
0.132815 0.567452 0.327672
0.130861 0.565499 0.324483
0.12813 0.563577 0.321172
0.1252 0.561074 0.315511
0.122072 0.558206 0.308095
0.118029 0.554025 0.295644
0.117494 0.549401 0.279088
0.123201 0.544869 0.2589
0.134951 0.541695 0.241291
0.150179 0.53933 0.221103
0.177829 0.538827 0.191775
0.233631 0.543862 0.160525
0.308843 0.565072 0.157305
0.382879 0.594568 0.172457
0.429923 0.613184 0.186862
0.470634 0.628046 0.19791
0.51162 0.639567 0.202976
0.548257 0.647349 0.20412
0.582788 0.651316 0.208011
0.623163 0.64744 0.215579
0.664393 0.643778 0.221698
0.698512 0.643458 0.226078
0.726299 0.643534 0.230228
0.750912 0.64358 0.233738
0.772137 0.642527 0.237736
0.789364 0.641794 0.240803
0.803494 0.64126 0.2439
0.814328 0.642008 0.246799
0.819059 0.642283 0.249699
0.819699 0.642344 0.252323
0.819699 0.642603 0.252964
0.818616 0.642329 0.25304
0.816464 0.642267 0.253529
0.144656 0.599207 0.355322
0.142748 0.596963 0.352575
0.14052 0.595422 0.350134
0.138094 0.593179 0.345434
0.134874 0.590066 0.338811
0.131197 0.586191 0.328313
0.126619 0.580819 0.312428
0.127901 0.575097 0.2925
0.135866 0.570077 0.274174
0.146532 0.565515 0.253986
0.166018 0.56199 0.228214
0.208133 0.563302 0.190646
0.28455 0.577356 0.168048
0.36379 0.60592 0.17821
0.423529 0.630518 0.193729
0.465736 0.646983 0.207797
0.503975 0.660319 0.216815
0.541619 0.670649 0.221408
0.574884 0.677989 0.223529
0.608164 0.682414 0.228199
0.645426 0.679805 0.236347
0.684031 0.676677 0.24239
0.717693 0.676448 0.248356
0.743801 0.677226 0.25301
0.767056 0.67808 0.257359
0.786267 0.676402 0.26099
0.802945 0.675425 0.264073
0.816709 0.675044 0.266697
0.824811 0.675074 0.26923
0.826658 0.674846 0.272679
0.826535 0.674495 0.27454
0.825208 0.673976 0.274372
0.823102 0.673503 0.27451
0.157366 0.628946 0.381796
0.155673 0.627024 0.3794
0.153582 0.625269 0.376928
0.151095 0.622812 0.372488
0.148425 0.619989 0.36669
0.144594 0.6159 0.356863
0.140688 0.611353 0.343923
0.135637 0.60473 0.324193
0.140108 0.598093 0.305119
0.148013 0.592096 0.285878
0.161639 0.586786 0.262562
0.192752 0.584329 0.226581
0.257939 0.590188 0.189212
0.344427 0.615946 0.184909
0.415427 0.644556 0.201755
0.460853 0.66331 0.216388
0.497841 0.677546 0.228504
0.534768 0.690211 0.235706
0.570108 0.699825 0.241413
0.600305 0.706859 0.245014
0.631327 0.711177 0.250309
0.666697 0.710201 0.258534
0.704616 0.709117 0.264988
0.736477 0.708324 0.271504
0.761563 0.708644 0.27718
0.782284 0.708736 0.281376
0.799207 0.708568 0.285328
0.814542 0.708293 0.288624
0.826856 0.707805 0.290623
0.829496 0.70663 0.294301
0.830411 0.705547 0.295628
0.829984 0.704646 0.295705
0.82887 0.704265 0.29575
0.170535 0.65658 0.40557
0.168856 0.654337 0.401602
0.167147 0.652232 0.39794
0.16466 0.649363 0.392035
0.162173 0.646693 0.385199
0.158984 0.642725 0.375784
0.154833 0.637888 0.362905
0.149813 0.631342 0.345251
0.147738 0.624033 0.325704
0.154742 0.617273 0.307866
0.164004 0.610407 0.285969
0.186221 0.605142 0.255253
0.23621 0.605142 0.208667
0.321981 0.62356 0.191409
0.407797 0.656794 0.205829
0.464836 0.680247 0.222568
0.501884 0.69482 0.236225
0.538064 0.707713 0.245243
0.572946 0.718944 0.251026
0.604303 0.727306 0.257038
0.632578 0.733486 0.261875
0.662058 0.737438 0.267582
0.695323 0.737255 0.274784
0.731258 0.735393 0.281544
0.761761 0.733913 0.288899
0.786084 0.734096 0.294606
0.805341 0.734066 0.298619
0.819974 0.734478 0.303532
0.830228 0.734356 0.307134
0.832364 0.734462 0.313176
0.831052 0.734295 0.316854
0.829877 0.733547 0.317586
0.829877 0.732601 0.316686
0.184009 0.681743 0.43003
0.182208 0.679561 0.425467
0.179965 0.677226 0.421027
0.178378 0.674815 0.415747
0.175586 0.671687 0.408896
0.172381 0.667842 0.400015
0.168276 0.66276 0.387778
0.163088 0.656245 0.370825
0.158877 0.648493 0.351812
0.161013 0.641077 0.333852
0.167971 0.633295 0.313191
0.181308 0.625849 0.286381
0.218891 0.622568 0.246418
0.296117 0.631373 0.203723
0.380133 0.658946 0.210483
0.451316 0.688563 0.229541
0.496132 0.706584 0.245991
0.530907 0.720485 0.25745
0.567071 0.733257 0.26566
0.600107 0.743481 0.271794
0.627741 0.751247 0.277836
0.654948 0.757122 0.283314
0.683375 0.761242 0.290211
0.71632 0.761318 0.29839
0.75021 0.760143 0.303853
0.778881 0.758267 0.310399
0.800763 0.758297 0.315389
0.817349 0.758343 0.320119
0.82974 0.759228 0.325002
0.833906 0.759304 0.330907
0.833127 0.75874 0.335027
0.832135 0.758083 0.3364
0.832364 0.757153 0.335637
0.196597 0.703517 0.451698
0.194873 0.701274 0.446784
0.193362 0.699153 0.442954
0.190967 0.696345 0.437186
0.188373 0.693278 0.430274
0.185382 0.689204 0.421424
0.181231 0.684718 0.410239
0.176181 0.678187 0.394415
0.170871 0.670283 0.375204
0.169131 0.662058 0.35729
0.173053 0.653758 0.337652
0.182788 0.645457 0.312901
0.207996 0.638575 0.276432
0.265599 0.639948 0.229999
0.361639 0.663798 0.216648
0.434195 0.692363 0.235904
0.48484 0.713527 0.253376
0.523278 0.729259 0.268421
0.557961 0.743236 0.277943
0.592584 0.755566 0.285374
0.624079 0.765209 0.291951
0.649577 0.772412 0.298085
0.67628 0.778332 0.304463
0.704219 0.782315 0.311879
0.734905 0.783001 0.3187
0.767498 0.781826 0.324132
0.793851 0.780301 0.330785
0.813489 0.780087 0.335973
0.827878 0.780468 0.341192
0.837186 0.780209 0.347127
0.836271 0.779385 0.351629
0.835401 0.778714 0.353094
0.83537 0.77792 0.352361
0.209369 0.723278 0.472038
0.20737 0.72079 0.467063
0.205219 0.718395 0.462486
0.20322 0.715633 0.456992
0.20061 0.712291 0.449912
0.197528 0.708629 0.441398
0.193179 0.703563 0.430243
0.188128 0.697292 0.415564
0.182132 0.689082 0.396078
0.179049 0.680873 0.37847
0.179797 0.672908 0.361044
0.185733 0.663798 0.338003
0.202396 0.655421 0.306508
0.244785 0.65124 0.260502
0.329503 0.664363 0.22945
0.412467 0.693233 0.239612
0.473838 0.718853 0.259586
0.514153 0.735653 0.27657
0.548653 0.750179 0.288853
0.58262 0.763455 0.297566
0.615366 0.774884 0.304402
0.646128 0.784253 0.311284
0.670451 0.790951 0.316716
0.696956 0.796551 0.32314
0.723095 0.800381 0.331044
0.753933 0.800824 0.339055
0.784283 0.799634 0.344594
0.807431 0.798962 0.350378
0.82417 0.798733 0.355184
0.835889 0.798611 0.361761
0.838605 0.797116 0.366537
0.837522 0.796262 0.368185
0.837507 0.795575 0.367803
0.220829 0.740551 0.490486
0.219013 0.738216 0.485924
0.21738 0.735866 0.481468
0.21471 0.733059 0.475288
0.212253 0.72961 0.468528
0.208835 0.72578 0.459525
0.204608 0.720592 0.448554
0.199298 0.714549 0.434699
0.19324 0.70634 0.416052
0.188602 0.697932 0.39826
0.187503 0.689876 0.381292
0.190631 0.680491 0.360143
0.201419 0.671244 0.332418
0.230457 0.664103 0.292515
0.297551 0.667659 0.247135
0.38143 0.689921 0.246601
0.450996 0.717601 0.262623
0.504036 0.739986 0.282017
0.538979 0.754711 0.296559
0.572503 0.768856 0.307301
0.604532 0.78117 0.314611
0.636088 0.791806 0.321584
0.664881 0.800519 0.328023
0.690272 0.807095 0.333669
0.716121 0.812558 0.34049
0.741299 0.816037 0.348974
0.771542 0.816159 0.356451
0.797909 0.815503 0.362829
0.818418 0.814786 0.369955
0.832486 0.814343 0.375692
0.838926 0.812451 0.380209
0.839673 0.811322 0.382254
0.839521 0.810666 0.382376
0.229953 0.753491 0.505913
0.22858 0.751476 0.501808
0.227176 0.749722 0.497932
0.224643 0.74696 0.491524
0.221851 0.743816 0.484398
0.218997 0.7402 0.475639
0.21503 0.735561 0.465568
0.209995 0.729519 0.452018
0.203815 0.722072 0.435294
0.198718 0.713115 0.416495
0.1953 0.705013 0.400488
0.196536 0.69601 0.380911
0.203143 0.686107 0.355093
0.223606 0.676524 0.318883
0.267552 0.673701 0.274815
0.354879 0.689311 0.257633
0.425223 0.713314 0.266804
0.483772 0.738094 0.283482
0.528695 0.757198 0.30103
0.561456 0.771298 0.313237
