bundles/resolve-cinematic-luts/Phantom Luts/Ursa G2 Phntm Film LUTs - V1/Gen4/Standard (No WB Offset)/Ursa G2 Bleach Legacy Gen4.cube
TITLE "Generated by Resolve"
LUT_3D_SIZE 33
0.0252842 0.0381628 0.0269627
0.0252842 0.0381628 0.0269627
0.0252842 0.0381628 0.0269627
0.0274052 0.0386358 0.0275273
0.0331731 0.0396582 0.028809
0.0389715 0.0413977 0.0302281
0.0492866 0.0425727 0.0310063
0.0612345 0.0441291 0.0327916
0.0742046 0.0457008 0.0348669
0.0879835 0.046479 0.0376898
0.104494 0.0479133 0.0409552
0.123552 0.0494392 0.042649
0.145678 0.0513161 0.0441444
0.170916 0.0532998 0.0461585
0.200046 0.0557717 0.0483101
0.230091 0.0585489 0.0508125
0.2598 0.0607462 0.0533761
0.288945 0.0628214 0.0554208
0.319677 0.0644846 0.0581521
0.352087 0.0661021 0.060914
0.389029 0.0667582 0.0628519
0.428275 0.0666056 0.0639506
0.467063 0.0664683 0.0654612
0.502541 0.0668498 0.0675364
0.535592 0.0676432 0.0699016
0.566522 0.0686198 0.0733196
0.597147 0.0695048 0.0770733
0.625055 0.0708476 0.0807202
0.65098 0.0718547 0.0847791
0.670863 0.0723583 0.0877546
0.688289 0.0731975 0.0906539
0.69897 0.0734112 0.0917525
0.704936 0.0736553 0.0928359
0.0252842 0.0381628 0.0269627
0.0252842 0.0381628 0.0269627
0.0252842 0.0381628 0.0269627
0.0272526 0.0386053 0.0274815
0.0335088 0.0399939 0.0291447
0.0411841 0.0421149 0.0306859
0.053315 0.0433509 0.0318761
0.0670176 0.0451057 0.0337682
0.08159 0.0462501 0.0367132
0.099321 0.0477455 0.0401617
0.119005 0.0493019 0.042359
0.142061 0.0514229 0.0440528
0.167849 0.0533303 0.046067
0.197452 0.0557565 0.0481117
0.227481 0.0583658 0.049836
0.257786 0.0605783 0.0529335
0.287633 0.0625925 0.0547341
0.318563 0.0641031 0.0573892
0.351797 0.0657511 0.060029
0.38793 0.0661936 0.061677
0.427024 0.0660563 0.0627756
0.465507 0.0658122 0.0639048
0.501442 0.0659495 0.0658579
0.534066 0.0665446 0.0685893
0.564141 0.0674449 0.0712444
0.5944 0.0684825 0.0745403
0.621286 0.0691844 0.0778821
0.646357 0.0699626 0.0809491
0.666423 0.0707713 0.0838026
0.683619 0.0709087 0.085893
0.694286 0.0709239 0.0871138
0.701991 0.0710155 0.0881819
0.702953 0.071458 0.0887007
0.0252842 0.0381628 0.0269627
0.0252842 0.0381628 0.0269627
0.0252842 0.0381628 0.0269627
0.0260014 0.0383154 0.0271153
0.0330205 0.0403601 0.029221
0.0423133 0.0430457 0.0310674
0.0562142 0.0449226 0.0328832
0.0711833 0.0469368 0.0354467
0.08748 0.0476539 0.0376593
0.106676 0.0489967 0.0404669
0.128801 0.0506752 0.0424811
0.154482 0.0524605 0.0441444
0.182498 0.054139 0.046067
0.212543 0.0564736 0.0478218
0.242344 0.058732 0.0494698
0.272145 0.060441 0.051606
0.302449 0.0618753 0.0535286
0.334157 0.0632181 0.0551614
0.367895 0.0636149 0.0562448
0.404761 0.0638437 0.0577554
0.443854 0.0631571 0.0585031
0.481254 0.0628824 0.0599222
0.514641 0.0632639 0.0620127
0.545693 0.0639048 0.0642863
0.575082 0.0644388 0.0673228
0.602548 0.0654002 0.0702068
0.628321 0.0657359 0.0727398
0.65098 0.0660105 0.075227
0.669184 0.0662394 0.0772717
0.683009 0.0665446 0.0787823
0.693156 0.066331 0.0793469
0.697856 0.0664836 0.0795911
0.699168 0.0666361 0.0795758
0.0259556 0.0402686 0.0280308
0.0259403 0.0401465 0.0279393
0.0258335 0.039704 0.0275425
0.0258183 0.0389563 0.0272831
0.032166 0.0420386 0.0296788
0.0404364 0.0452277 0.0321813
0.0523232 0.0485084 0.0331121
0.0695811 0.0498665 0.0348974
0.0873884 0.0510567 0.0371252
0.107485 0.0510567 0.0390326
0.13135 0.0522164 0.0419318
0.156466 0.0531472 0.0437018
0.183719 0.0544137 0.0453498
0.213977 0.0564736 0.0469215
0.243824 0.0581979 0.048127
0.273854 0.0599832 0.0493629
0.304372 0.0611429 0.0514534
0.335637 0.0621042 0.0528267
0.369085 0.0627451 0.0538186
0.404593 0.0626078 0.0545968
0.443305 0.0618448 0.0551308
0.479545 0.0612497 0.0556649
0.512825 0.0615091 0.0575113
0.542611 0.0618906 0.0592508
0.571725 0.0627146 0.0616312
0.597665 0.0631876 0.063447
0.623148 0.0635843 0.0654765
0.645655 0.0640726 0.067689
0.664729 0.064332 0.0691691
0.678813 0.0645762 0.0703136
0.691585 0.0649577 0.0714427
0.695674 0.0651102 0.071519
0.698054 0.065156 0.0714275
0.0297246 0.0484779 0.0332189
0.0307774 0.0511635 0.0348821
0.0315404 0.0524147 0.0357214
0.0326696 0.0525368 0.0340429
0.0390326 0.053727 0.0348821
0.0466011 0.0559854 0.0374456
0.0571145 0.0585794 0.0378729
0.0747539 0.0590982 0.03888
0.0912795 0.0593576 0.0400549
0.111116 0.0593729 0.0413062
0.134188 0.0586862 0.0428473
0.160159 0.0587472 0.0449989
0.187839 0.0590524 0.0464942
0.216724 0.0590829 0.0469673
0.246387 0.0605936 0.0484779
0.276188 0.0617838 0.049485
0.305196 0.0628367 0.0505531
0.33724 0.0639048 0.052491
0.369268 0.0639353 0.0527199
0.405081 0.0638743 0.0537423
0.442054 0.062974 0.0538949
0.477714 0.0621805 0.0543832
0.510323 0.0620737 0.0554208
0.540139 0.0627146 0.0573434
0.569451 0.0635233 0.0592966
0.596155 0.0641947 0.0614023
0.621988 0.0648508 0.0634623
0.644602 0.0656748 0.0655222
0.665125 0.0661326 0.0674601
0.679591 0.0666209 0.0683909
0.692668 0.066865 0.0691539
0.696986 0.0665446 0.068101
0.700633 0.0665141 0.0674296
0.0353704 0.0634165 0.0420233
0.0362097 0.066331 0.0431373
0.0366827 0.0680247 0.0431678
0.0380713 0.0680552 0.0415656
0.0443427 0.0683909 0.0401312
0.0521859 0.0704509 0.0411688
0.0653239 0.0729381 0.043473
0.081529 0.0740063 0.0430762
0.103059 0.0738537 0.0449531
0.124208 0.0723125 0.0463111
0.146731 0.0721294 0.0474861
0.171771 0.0715343 0.0486763
0.200031 0.0715801 0.0508431
0.229725 0.0714885 0.0524453
0.260136 0.0714122 0.0534981
0.289387 0.071809 0.0545815
0.31957 0.0719158 0.055024
0.34992 0.0716564 0.0551156
0.382757 0.071458 0.0553902
0.419409 0.0700542 0.0544442
0.456077 0.0690166 0.0549325
0.488899 0.0675364 0.0543221
0.51931 0.0675975 0.0550393
0.547021 0.0669261 0.0559091
0.575143 0.0683146 0.0584573
0.602716 0.0690929 0.0607614
0.629358 0.0709544 0.063447
0.650599 0.0701152 0.0640269
0.672389 0.0715496 0.0661021
0.685863 0.0713207 0.0670634
0.697246 0.0714275 0.0677806
0.704189 0.0723278 0.068452
0.708812 0.0732128 0.0688792
0.0402228 0.0817578 0.0495613
0.0404822 0.0850996 0.0505226
0.0407416 0.087541 0.0501259
0.0416876 0.0877546 0.0477455
0.0470893 0.0874495 0.0455177
0.0589151 0.089601 0.0452125
0.0694285 0.0917372 0.0472114
0.0854963 0.0941939 0.0469673
0.106828 0.0949111 0.0462196
0.135897 0.0922713 0.0491188
0.163531 0.0884871 0.0517891
0.192569 0.0874342 0.0538491
0.221714 0.086717 0.0560311
0.250996 0.0866102 0.0581064
0.279088 0.0874189 0.0599374
0.310338 0.0872663 0.0619516
0.341802 0.0875715 0.0634928
0.376623 0.0870375 0.0640879
0.414343 0.0861372 0.0640421
0.452888 0.085069 0.0635691
0.487465 0.0840314 0.0624399
0.518471 0.0836652 0.0623636
0.547601 0.0839857 0.0629892
0.574472 0.0842908 0.0636149
0.601877 0.0858473 0.0665446
0.628977 0.0869459 0.0682689
0.653819 0.088365 0.0702831
0.675364 0.0893263 0.0720073
0.694301 0.0904555 0.0737621
0.710475 0.0925154 0.0758068
0.721401 0.0943008 0.0771191
0.730037 0.0968185 0.0786297
0.734371 0.0992447 0.0796979
0.0426795 0.100359 0.0555734
0.0431525 0.104295 0.0567941
0.0432288 0.106996 0.0563058
0.0443122 0.107744 0.0529641
0.0496986 0.10695 0.0499123
0.0632792 0.108629 0.0482032
0.0753796 0.111528 0.0497902
0.0869306 0.114 0.0516365
0.106371 0.116167 0.0493019
0.135363 0.117113 0.0480354
0.172992 0.114107 0.051194
0.208453 0.109621 0.0571756
0.241611 0.106233 0.0603494
0.27451 0.104784 0.0633249
0.307652 0.105013 0.0661326
0.34049 0.105638 0.0688487
0.375021 0.106126 0.0708324
0.413046 0.106111 0.0717021
0.452811 0.105501 0.072343
0.490303 0.105577 0.073579
0.524269 0.106142 0.0749828
0.554513 0.107118 0.0767071
0.583551 0.109209 0.0785687
0.610529 0.110933 0.0805524
0.63682 0.113893 0.0831464
0.662593 0.116167 0.0851301
0.686885 0.118944 0.088014
0.7084 0.121401 0.0900435
0.726955 0.125521 0.0927749
0.743816 0.129488 0.0961624
0.755016 0.133761 0.0987869
0.766461 0.138582 0.101839
0.768658 0.141146 0.103227
0.0452888 0.120546 0.0628061
0.0458381 0.124834 0.0638743
0.0467536 0.128237 0.0629435
0.0480201 0.130007 0.0598154
0.0516213 0.129259 0.0562295
0.0631876 0.129366 0.051957
0.0814679 0.132998 0.0509041
0.094728 0.13666 0.0534524
0.107073 0.1402 0.0560159
0.132937 0.142779 0.0523232
0.16997 0.144015 0.0504463
0.216846 0.141726 0.0542306
0.257221 0.136736 0.0623026
0.295171 0.131609 0.0674601
0.33312 0.128985 0.0717632
0.37409 0.128511 0.0741436
0.417395 0.12784 0.0764324
0.459693 0.127932 0.0784466
0.497902 0.129229 0.0808728
0.52987 0.131624 0.083772
0.560357 0.134447 0.0869764
0.589059 0.137789 0.0905165
0.615396 0.14107 0.0940566
0.642985 0.144427 0.0982071
0.669245 0.148211 0.102174
0.695247 0.152621 0.106416
0.719829 0.157305 0.110857
0.743694 0.162966 0.115328
0.762081 0.16875 0.119524
0.778729 0.174136 0.123674
0.790814 0.180987 0.127474
0.801373 0.187213 0.131426
0.805447 0.192432 0.135012
0.047715 0.143709 0.0714122
0.0486 0.149203 0.0730907
0.0491035 0.152987 0.0713512
0.0522164 0.155367 0.0668498
0.0561837 0.155077 0.0625772
0.061799 0.153994 0.057435
0.0818494 0.157168 0.0529335
0.100755 0.162295 0.0533913
0.116075 0.167315 0.057435
0.130724 0.172137 0.0599527
0.164218 0.175906 0.0562448
0.209705 0.17911 0.0538643
0.265965 0.1785 0.0576486
0.312047 0.174807 0.0664836
0.357382 0.168734 0.0731518
0.408042 0.162905 0.0783246
0.457801 0.158862 0.0828565
0.499504 0.158633 0.0859846
0.535531 0.160464 0.0902724
0.566857 0.163577 0.0944991
0.595193 0.167987 0.0984665
0.623484 0.172381 0.10396
0.649409 0.177279 0.108827
0.675013 0.183352 0.114153
0.701732 0.189364 0.11989
0.728038 0.197269 0.126192
0.752575 0.204486 0.13283
0.775692 0.212741 0.139544
0.795239 0.220951 0.145678
0.812207 0.229313 0.15172
0.826764 0.239506 0.158053
0.836667 0.247578 0.162814
0.841566 0.253712 0.166369
0.0502174 0.170672 0.0805219
0.0508583 0.176974 0.0821698
0.0508583 0.18114 0.0801862
0.0537728 0.183337 0.0753948
0.06009 0.184543 0.0695201
0.0657816 0.183368 0.0645151
0.0775158 0.184237 0.0568093
0.103304 0.190417 0.0542763
0.122866 0.197467 0.0576028
0.140734 0.204211 0.0624857
0.160922 0.211139 0.0662242
0.202045 0.216434 0.0619516
0.255528 0.221149 0.0589151
0.320165 0.221866 0.0602731
0.375357 0.219043 0.0688792
0.433738 0.212726 0.0761578
0.485832 0.206531 0.0836042
0.527184 0.201312 0.0907759
0.562829 0.203876 0.0966659
0.596292 0.205127 0.104677
0.625422 0.210422 0.110826
0.654322 0.216236 0.117952
0.682353 0.222171 0.124941
0.709941 0.229404 0.132326
0.738796 0.237308 0.140169
0.765225 0.246052 0.148577
0.788815 0.25687 0.15729
0.810162 0.26775 0.165728
0.831113 0.279301 0.175235
0.847562 0.292393 0.183917
0.863966 0.304738 0.193011
0.872175 0.314412 0.198672
0.878325 0.323445 0.203754
0.0517891 0.201526 0.0902113
0.0513313 0.208103 0.0911269
0.0518959 0.212604 0.0896468
0.0544747 0.215152 0.0844129
0.0613107 0.216449 0.0778821
0.0693065 0.216526 0.0717174
0.079118 0.216571 0.0645151
0.102647 0.220172 0.0552834
0.126894 0.229145 0.0573892
0.147738 0.237736 0.0625162
0.170092 0.246143 0.0687114
0.195926 0.25449 0.0721447
0.244312 0.261387 0.0678721
0.302632 0.267353 0.0624399
0.375769 0.268009 0.0619211
0.445487 0.265293 0.0677043
0.500847 0.263569 0.0771038
0.547478 0.263539 0.08925
0.58529 0.263905 0.100114
0.619486 0.264942 0.112001
0.651606 0.265156 0.123369
0.681498 0.272068 0.132998
0.713695 0.277363 0.144991
0.743664 0.285603 0.15552
0.774411 0.295674 0.167132
0.802182 0.306828 0.178424
0.829496 0.318914 0.190768
0.849622 0.331426 0.201312
0.869352 0.344778 0.211734
0.882445 0.357076 0.219776
0.894118 0.370321 0.227298
0.898619 0.379629 0.230762
0.901976 0.387411 0.233982
0.0506447 0.23473 0.0989242
0.0502632 0.24152 0.100175
0.0507973 0.246265 0.0985122
0.0536202 0.248478 0.0931868
0.0618296 0.251423 0.0863508
0.0710918 0.252216 0.079057
0.0804303 0.252262 0.0722515
0.0968032 0.254047 0.063508
0.127459 0.260853 0.0563668
0.150622 0.271077 0.0608835
0.17528 0.281147 0.0674144
0.202731 0.29073 0.073228
0.231479 0.300298 0.0753796
0.285771 0.30837 0.0715953
0.351019 0.314382 0.0657664
0.435782 0.316442 0.0627604
0.505089 0.320073 0.0666819
0.557275 0.324742 0.0798505
0.599649 0.330541 0.0976883
0.636622 0.335134 0.113237
0.673808 0.342016 0.131411
0.708446 0.347143 0.148913
0.742916 0.354696 0.166781
0.775845 0.358511 0.183444
0.808179 0.36614 0.199542
0.836011 0.375982 0.211673
0.860914 0.385992 0.222812
0.87866 0.397375 0.231647
0.892317 0.408606 0.238819
0.901808 0.419059 0.244587
0.907729 0.42916 0.248219
0.909682 0.438483 0.248905
0.910613 0.446525 0.249195
0.0473487 0.269474 0.106844
0.0468452 0.276387 0.108171
0.0464485 0.280369 0.105699
0.0502327 0.28246 0.100511
0.0584421 0.28542 0.0936904
0.0700236 0.287907 0.0856184
0.080354 0.288045 0.0790112
0.0920882 0.288563 0.0707256
0.117464 0.293156 0.0614023
0.151858 0.303319 0.0582132
0.175616 0.314076 0.0622568
0.204166 0.324178 0.0694896
0.235508 0.335439 0.076585
0.267155 0.347601 0.0780346
0.328954 0.357824 0.0748913
0.407553 0.365408 0.0691539
0.490654 0.372808 0.0650797
0.554818 0.383291 0.0733349
0.606317 0.397284 0.0895247
0.64831 0.4094 0.111284
0.687007 0.420401 0.13164
0.723629 0.430076 0.155001
0.758068 0.437293 0.174136
0.791394 0.443778 0.193683
0.822629 0.446006 0.21033
0.849317 0.451942 0.224231
0.870054 0.459266 0.232654
0.886213 0.464027 0.239918
0.896254 0.471504 0.244968
0.90399 0.48014 0.248692
0.906447 0.491386 0.248569
0.906813 0.50251 0.246372
0.906126 0.511345 0.244785
0.0427405 0.302739 0.115328
0.041474 0.308843 0.11606
0.0411078 0.313298 0.113466
0.0441291 0.315496 0.107301
0.0522469 0.317617 0.0997482
0.0643473 0.320897 0.0914626
0.0773785 0.322637 0.0839704
0.089128 0.322972 0.0772106
0.110567 0.326574 0.0665599
0.140566 0.333684 0.0580606
0.175998 0.345708 0.057496
0.201541 0.357519 0.0627146
0.234379 0.371221 0.0718395
0.267933 0.386084 0.0785992
0.30457 0.40119 0.0795911
0.375265 0.414649 0.0776379
0.46331 0.426764 0.0738231
0.539879 0.443305 0.0749981
0.597894 0.458335 0.0859998
0.645228 0.47393 0.100221
0.684657 0.486946 0.119234
0.720607 0.497642 0.139254
0.754772 0.505104 0.161257
0.787808 0.511193 0.181781
0.817884 0.517952 0.198962
0.844434 0.522301 0.213062
0.863752 0.52755 0.222232
0.880827 0.532418 0.230106
0.890394 0.539773 0.234852
0.899779 0.547372 0.239216
0.901442 0.556069 0.239551
0.903899 0.563394 0.240375
0.90338 0.569558 0.239185
0.0385595 0.336187 0.123781
0.0375372 0.342824 0.124498
0.0367742 0.346593 0.121798
0.0387427 0.348058 0.114229
0.0446021 0.350195 0.105653
0.0560616 0.353536 0.0963302
0.0716259 0.357473 0.0878614
0.0865644 0.358877 0.0820325
0.103944 0.361212 0.0736095
0.126528 0.365515 0.0589456
0.161547 0.376577 0.0531777
0.198093 0.392187 0.0559854
0.226535 0.407385 0.0617227
0.263645 0.424811 0.0728466
0.303822 0.443641 0.0806134
0.351171 0.463722 0.0863966
0.436652 0.479301 0.0892195
0.517632 0.493736 0.0901198
0.581704 0.510643 0.0923476
0.634287 0.523949 0.101747
0.679255 0.53579 0.113802
0.716167 0.546899 0.128908
0.75111 0.557122 0.146654
0.785657 0.564126 0.170108
0.814801 0.570077 0.189334
0.841703 0.575036 0.205051
0.861997 0.580835 0.216571
0.877867 0.586114 0.224445
0.88957 0.591882 0.229953
0.897124 0.597742 0.233951
0.901045 0.604166 0.236515
0.903716 0.610132 0.237995
0.903883 0.615228 0.237812
0.0333104 0.37084 0.13135
0.032517 0.377676 0.132326
0.0314488 0.381018 0.128069
0.032578 0.382101 0.120592
0.0374609 0.384604 0.112383
0.0484932 0.388663 0.101686
0.0650034 0.39324 0.0914778
0.0806134 0.395651 0.0840314
0.0950637 0.397955 0.076173
0.114061 0.40174 0.0652934
0.144244 0.410132 0.05066
0.186435 0.426673 0.0504158
0.224735 0.44538 0.0574655
0.261707 0.464424 0.0685283
0.308431 0.486656 0.0845502
0.358938 0.507195 0.0969253
0.416861 0.525139 0.104234
0.49929 0.53846 0.108782
0.565011 0.551003 0.11075
0.619593 0.564569 0.1122
0.66746 0.575967 0.120058
0.710811 0.586007 0.131594
0.747478 0.596399 0.144976
0.780697 0.605768 0.157153
0.812512 0.612024 0.179904
0.839811 0.618051 0.197864
0.860578 0.622843 0.210193
0.877531 0.627955 0.22063
0.889296 0.633753 0.226703
0.897383 0.639048 0.230579
0.903395 0.644266 0.234455
0.905287 0.649241 0.236072
0.905333 0.654658 0.236835
0.0257267 0.406943 0.136751
0.0247196 0.414023 0.137255
0.0237888 0.417624 0.133196
0.0238499 0.41857 0.125643
0.0271458 0.419806 0.116701
0.0369268 0.423377 0.106538
0.0530251 0.429175 0.0959793
0.070573 0.432929 0.0869917
0.0852674 0.434546 0.0799878
0.104463 0.438712 0.0703593
0.13228 0.447059 0.0591897
0.177508 0.46247 0.0502327
0.223819 0.482628 0.0576638
0.269947 0.50457 0.0726635
0.316823 0.526711 0.0915389
0.369314 0.547387 0.108248
0.425025 0.562814 0.118105
0.481926 0.575601 0.123796
0.547784 0.58645 0.129244
0.604212 0.598123 0.133257
0.653346 0.609812 0.133471
0.698528 0.620081 0.140932
0.740459 0.629129 0.151934
0.776761 0.637781 0.164202
0.809384 0.646143 0.176318
0.836301 0.652644 0.191196
0.859907 0.659144 0.204074
0.876005 0.664469 0.213901
0.88983 0.668971 0.223529
0.89868 0.674357 0.227741
0.904967 0.679469 0.231189
0.907423 0.683986 0.234134
0.907973 0.688182 0.235279
0.0203098 0.444343 0.145785
0.0200961 0.451377 0.147005
0.0200504 0.454597 0.144274
0.0200351 0.455222 0.136141
0.0212711 0.45594 0.126131
0.0283818 0.458778 0.115572
0.0426642 0.46334 0.10518
0.0626383 0.468956 0.0957504
0.0790875 0.471855 0.0888075
0.0972152 0.475303 0.0809339
0.123705 0.482338 0.0695659
0.16614 0.49633 0.0611734
0.234287 0.522606 0.0651102
0.281575 0.544472 0.0811933
0.329931 0.564431 0.100252
0.380896 0.581842 0.119249
0.434287 0.595499 0.130068
0.487663 0.606958 0.137423
0.535668 0.618448 0.144686
0.589883 0.628443 0.150652
0.639735 0.638712 0.155215
0.685695 0.649866 0.156527
0.728374 0.659525 0.163348
0.768521 0.667506 0.173129
0.804715 0.675486 0.184634
0.834379 0.682612 0.196185
0.859434 0.688731 0.207828
0.875608 0.695445 0.214389
0.889952 0.701122 0.220737
0.899107 0.705867 0.226413
0.906416 0.710857 0.230869
0.909438 0.715038 0.235355
0.911131 0.718425 0.239322
0.0198825 0.481682 0.162127
0.0201724 0.488853 0.164813
0.0204929 0.492363 0.16228
0.0205844 0.492988 0.153994
0.0210117 0.493278 0.143252
0.0247044 0.494865 0.13254
0.0382391 0.499672 0.120882
0.0584726 0.505837 0.110979
0.0762493 0.508904 0.103426
0.0959945 0.512367 0.0965744
0.12369 0.520378 0.088426
0.163958 0.53315 0.0765087
0.225971 0.555642 0.0765545
0.294896 0.581674 0.0920577
0.341955 0.598978 0.108919
0.391867 0.613596 0.128374
0.444999 0.624628 0.142931
0.493141 0.634516 0.149844
0.537911 0.64567 0.15729
0.578485 0.656397 0.165164
0.625986 0.665629 0.172183
0.670924 0.675975 0.176669
0.714885 0.687236 0.177813
0.756237 0.695445 0.18555
0.795331 0.703593 0.195148
0.829129 0.711223 0.205707
0.855192 0.717128 0.215534
0.875822 0.722789 0.224338
0.889967 0.728405 0.231312
0.900252 0.733959 0.236789
0.90724 0.738308 0.241581
0.911299 0.742229 0.245518
0.914061 0.745937 0.250019
0.0238041 0.521798 0.187427
0.0251774 0.529427 0.191379
0.0258183 0.532982 0.188693
0.0259251 0.533181 0.17998
0.0259861 0.533471 0.169131
0.0294347 0.535317 0.158038
0.0397345 0.539239 0.145556
0.0594186 0.545647 0.134508
0.07953 0.549554 0.126253
0.100542 0.55288 0.119188
0.127764 0.558801 0.11133
0.169802 0.572168 0.101579
0.226413 0.58999 0.0927596
0.294148 0.612589 0.103304
0.354238 0.630625 0.119707
0.403113 0.642557 0.135012
0.455756 0.651972 0.151522
0.501396 0.660792 0.16434
0.54049 0.670573 0.16994
0.578622 0.680613 0.17818
0.615015 0.691142 0.186419
0.65832 0.702022 0.191836
0.701869 0.712856 0.197055
0.743114 0.722347 0.201831
0.78291 0.730297 0.209339
0.818875 0.738384 0.2177
0.848402 0.745739 0.226047
0.871077 0.751705 0.234684
0.887709 0.757198 0.241856
0.899504 0.762768 0.248402
0.907347 0.767391 0.253269
0.912871 0.771725 0.257115
0.915114 0.775082 0.262684
0.0349279 0.567239 0.221805
0.0376593 0.575525 0.226856
0.0390021 0.579004 0.22501
0.0390936 0.579812 0.217182
0.0393988 0.580652 0.207599
0.0398718 0.581704 0.19527
0.0479438 0.584009 0.180804
0.0673075 0.589349 0.167391
0.0882887 0.592187 0.155978
0.109285 0.593713 0.146487
0.13492 0.597864 0.137621
0.175143 0.608454 0.128222
0.229923 0.623453 0.116472
0.297917 0.643656 0.114977
0.36321 0.660029 0.130938
0.416831 0.670207 0.144259
0.466316 0.678035 0.157092
0.510124 0.685634 0.172183
0.547005 0.694484 0.182818
0.580453 0.704082 0.189532
0.61442 0.714122 0.198703
0.647334 0.7252 0.207675
0.688579 0.737041 0.214405
0.727382 0.747982 0.220172
0.76846 0.757534 0.225772
0.808194 0.765301 0.234043
0.836408 0.772992 0.23975
0.863783 0.780529 0.246296
0.880537 0.78555 0.252964
0.895766 0.790249 0.26009
0.904082 0.795239 0.264637
0.911101 0.799832 0.269261
0.913314 0.802838 0.273838
0.0517433 0.615473 0.261326
0.0547799 0.623117 0.266026
0.0562905 0.626078 0.263996
0.0565805 0.626688 0.256153
0.0566567 0.626993 0.245899
0.0573281 0.628428 0.23447
0.0627451 0.630579 0.221057
0.0806592 0.634211 0.206149
0.100694 0.635615 0.190692
0.121065 0.635218 0.17818
0.146349 0.636606 0.166293
0.179736 0.64184 0.155276
0.231098 0.654078 0.14049
0.296788 0.671122 0.135653
0.368002 0.687587 0.141085
0.428916 0.696651 0.153643
0.478264 0.702434 0.165209
0.518547 0.709346 0.178485
0.553445 0.716991 0.192203
0.585504 0.726452 0.201999
0.615946 0.736126 0.210117
0.647166 0.746593 0.219837
0.678492 0.757351 0.228687
0.716167 0.769055 0.23624
0.754192 0.780545 0.243259
0.792966 0.7897 0.248997
0.828092 0.796887 0.257084
0.853635 0.804578 0.26273
0.873762 0.810895 0.267506
0.888487 0.81622 0.272816
0.8981 0.821134 0.277256
0.905928 0.825254 0.281743
0.909255 0.82707 0.286671
0.0697185 0.659083 0.297856
0.0720836 0.665324 0.301106
0.0730144 0.667292 0.297795
0.0730907 0.667613 0.28954
0.0730755 0.667536 0.279332
0.0731975 0.668055 0.267964
0.0782177 0.669734 0.254673
0.0927138 0.671916 0.239292
0.112764 0.672679 0.223148
0.131563 0.670985 0.208713
0.154391 0.670344 0.195224
0.187762 0.673808 0.180789
0.232044 0.682429 0.166461
0.291417 0.696468 0.149737
0.363394 0.710964 0.154284
0.435157 0.719478 0.162509
0.490776 0.724941 0.17351
0.527825 0.730755 0.185946
0.560372 0.73814 0.199435
0.590555 0.74641 0.211719
0.619776 0.75584 0.221637
0.64744 0.765682 0.230289
0.677836 0.776135 0.240757
0.708339 0.78677 0.2495
0.744961 0.79855 0.257496
0.781064 0.809781 0.264118
0.816556 0.817914 0.269917
0.845106 0.823774 0.277073
0.867582 0.829953 0.282765
0.882719 0.834943 0.286824
0.894469 0.83975 0.290745
0.902434 0.843412 0.295705
0.907744 0.845823 0.299779
0.084535 0.693812 0.328191
0.0866712 0.698024 0.330159
0.0869917 0.698894 0.325093
0.0867781 0.698528 0.316518
0.0867628 0.698604 0.306844
0.0868391 0.698741 0.295399
0.0891432 0.699702 0.281529
0.101457 0.701198 0.265461
0.120424 0.701045 0.248508
0.138781 0.699107 0.233738
0.160143 0.697475 0.219944
0.189517 0.698589 0.205447
0.23357 0.705638 0.1888
0.286671 0.715541 0.171023
0.357275 0.72903 0.164218
0.434546 0.737224 0.171893
0.494102 0.741985 0.18143
0.535729 0.748196 0.193866
0.565377 0.754223 0.207019
0.593668 0.761379 0.219959
0.622644 0.770932 0.230228
0.649516 0.780545 0.239887
0.675944 0.79028 0.249485
0.706966 0.801556 0.260166
0.737362 0.812268 0.269215
0.773068 0.82414 0.276234
0.808392 0.834546 0.282963
0.834897 0.84033 0.288624
0.861418 0.845609 0.296284
0.877043 0.850187 0.300496
0.890257 0.854276 0.304234
0.898665 0.857176 0.307866
0.90486 0.859388 0.312703
0.0968338 0.720119 0.353994
0.097612 0.72221 0.353643
0.0976883 0.722591 0.347951
0.0975052 0.722194 0.33904
0.0974899 0.722194 0.329229
0.0975967 0.722301 0.317769
0.0980392 0.72285 0.304524
0.108263 0.723262 0.286793
0.126146 0.722988 0.269596
0.143832 0.721325 0.255467
0.164019 0.719646 0.241154
0.191318 0.71957 0.225437
0.232349 0.723766 0.208423
0.283574 0.731594 0.189929
0.350256 0.74345 0.177417
0.427588 0.751461 0.180362
0.498604 0.75639 0.189532
0.53904 0.761425 0.20116
0.570214 0.767361 0.213977
0.596933 0.773526 0.227344
0.624796 0.781857 0.238499
0.65069 0.791287 0.247715
0.67657 0.800778 0.257572
0.70277 0.810605 0.267384
0.733883 0.821485 0.277592
0.766018 0.832715 0.285237
0.799405 0.842725 0.292836
0.828931 0.850095 0.300023
0.853727 0.856077 0.306432
0.871168 0.8607 0.311711
0.886046 0.864805 0.316823
0.89427 0.867353 0.320592
0.902541 0.869749 0.324193
0.10515 0.739269 0.376654
0.105562 0.740642 0.37528
0.105608 0.740536 0.367971
0.105653 0.740276 0.358709
0.105516 0.739849 0.348089
0.105898 0.739727 0.336385
