bundles/resolve-cinematic-luts/Phantom Luts/Ursa G2 Phntm Film LUTs - V1/Gen4/Standard (No WB Offset)/Ursa G2 Eastman Legacy Gen4.cube
TITLE "Generated by Resolve"
LUT_3D_SIZE 33
0.0390021 0.0390021 0.0390021
0.0390021 0.0390021 0.0390021
0.0415351 0.0390021 0.0390021
0.049073 0.0390021 0.0391852
0.0607004 0.0390021 0.041886
0.0749828 0.0390021 0.0442664
0.092134 0.0390021 0.0464942
0.112306 0.0390021 0.047776
0.136065 0.0390021 0.0480812
0.16289 0.0390021 0.0484169
0.192569 0.0404822 0.0475776
0.224353 0.0425727 0.0447242
0.254948 0.0446326 0.0433204
0.282597 0.0457313 0.0421607
0.308141 0.0470436 0.0416571
0.333639 0.0482338 0.0420844
0.357168 0.0503395 0.0422065
0.379294 0.0528573 0.0429694
0.399939 0.0570382 0.0439918
0.420172 0.060853 0.0449531
0.439078 0.0656138 0.0457465
0.457481 0.0701915 0.0468299
0.476143 0.0759289 0.0480659
0.494545 0.0813458 0.0500191
0.509972 0.0860304 0.0520333
0.523247 0.0902876 0.0540322
0.530541 0.0920424 0.0545815
0.533593 0.0931258 0.0555123
0.533669 0.0938125 0.0563211
0.53138 0.0952926 0.0570535
0.527474 0.0970474 0.057496
0.518853 0.100404 0.0578317
0.509544 0.103929 0.0583505
0.0390021 0.0390021 0.0390021
0.0390021 0.0390021 0.0390021
0.0390021 0.0390021 0.0390021
0.0463417 0.0390021 0.0390021
0.0559396 0.0390021 0.0415503
0.0697948 0.0390021 0.0443427
0.0870832 0.0390021 0.0462348
0.10721 0.0390021 0.0470283
0.130098 0.0390021 0.047715
0.156985 0.040589 0.048127
0.186114 0.0428321 0.0467079
0.218708 0.0442512 0.0441749
0.248936 0.0461891 0.0416114
0.276463 0.0473335 0.039826
0.302525 0.0481422 0.0390173
0.327733 0.049424 0.0390021
0.351217 0.0505837 0.0390021
0.373388 0.0523842 0.0393683
0.393484 0.0546731 0.0401007
0.413184 0.0587015 0.0412299
0.432303 0.0630045 0.0431678
0.450523 0.0677043 0.0439765
0.468986 0.072755 0.0454871
0.486671 0.0783856 0.0468605
0.50219 0.0835431 0.0481575
0.515343 0.0880293 0.0495155
0.523949 0.0910811 0.0506294
0.526604 0.092134 0.0507057
0.526726 0.092607 0.051194
0.524254 0.0938125 0.0517128
0.520439 0.095552 0.0519722
0.512139 0.0987411 0.0519722
0.502968 0.102144 0.0518196
0.0421759 0.0390021 0.0390021
0.0405127 0.0390021 0.0390021
0.0406806 0.0390021 0.0390021
0.0465095 0.0390021 0.0405432
0.0540017 0.0390021 0.0432136
0.0667277 0.0396582 0.0459602
0.0823529 0.0411994 0.0479744
0.101061 0.041886 0.0494698
0.123903 0.0422827 0.0494392
0.150378 0.0424659 0.0486
0.180209 0.0438544 0.0477913
0.212192 0.0451209 0.0446021
0.243122 0.0471656 0.0417334
0.271702 0.0486458 0.0397498
0.29836 0.0493935 0.0390021
0.3243 0.0507057 0.0390021
0.348486 0.052079 0.0390021
0.370306 0.053666 0.0391089
0.390204 0.0558938 0.0392462
0.408896 0.0598611 0.0401923
0.427802 0.0635996 0.0416114
0.444938 0.0677958 0.0424201
0.462745 0.0724498 0.0436255
0.480964 0.0780499 0.0451667
0.496757 0.0831769 0.0464485
0.509896 0.0878004 0.0475319
0.519509 0.0913863 0.0487526
0.522286 0.0926223 0.0491951
0.522438 0.0931258 0.0493324
0.52015 0.0941482 0.0493935
0.516503 0.0955215 0.0491798
0.508186 0.098436 0.0486915
0.49839 0.101762 0.0482185
0.0495766 0.0446784 0.0476692
0.0478676 0.0443427 0.0471351
0.0483101 0.0439918 0.0458839
0.0522621 0.0457313 0.0465705
0.0596475 0.0473182 0.048127
0.0716869 0.0488441 0.0503395
0.0860456 0.0496986 0.0523232
0.102541 0.049836 0.0535897
0.122301 0.0499275 0.0535744
0.147997 0.0505379 0.0529488
0.176791 0.0500343 0.0502174
0.208499 0.0493477 0.046067
0.239857 0.0501869 0.0425727
0.268482 0.0512703 0.040116
0.294835 0.0515145 0.0390021
0.321019 0.0520943 0.0390478
0.345144 0.0536965 0.0390021
0.367544 0.0552377 0.0390021
0.387549 0.0575113 0.0390784
0.406653 0.0610971 0.040116
0.425147 0.0652934 0.0413062
0.443137 0.0694743 0.0424201
0.460456 0.074342 0.0433204
0.478584 0.0797742 0.04477
0.493904 0.0849622 0.0459297
0.507301 0.089662 0.0471656
0.517739 0.0937057 0.0482643
0.519509 0.0944839 0.0478828
0.519417 0.0948501 0.0477455
0.517021 0.0957504 0.0475471
0.513039 0.0969711 0.0472572
0.504707 0.0998245 0.0464027
0.495796 0.102953 0.0459754
0.0557717 0.0599374 0.0557259
0.0541085 0.0600137 0.0552682
0.0538796 0.059144 0.0538643
0.0578775 0.0597391 0.0530709
0.0640421 0.0624399 0.0541543
0.0776074 0.0635691 0.0551919
0.0934768 0.0638285 0.0580148
0.110307 0.0629129 0.0592355
0.12932 0.0605783 0.0588693
0.153704 0.0596017 0.0579538
0.180453 0.0586862 0.0547951
0.212131 0.0582589 0.0509346
0.243717 0.0590829 0.0476844
0.271855 0.0593881 0.0440986
0.298131 0.0592355 0.0415961
0.322621 0.059678 0.0407568
0.344991 0.0593118 0.0395972
0.366781 0.0597848 0.0394903
0.386892 0.0612039 0.0399176
0.405173 0.0638437 0.040177
0.423774 0.0682536 0.0412451
0.441886 0.072221 0.042298
0.459297 0.0774395 0.0435798
0.47715 0.0825513 0.0449073
0.493416 0.0879988 0.0462043
0.506798 0.0927138 0.047364
0.517372 0.0965591 0.0480507
0.520607 0.0979629 0.0480812
0.5205 0.0984665 0.0479438
0.518166 0.099321 0.0476081
0.514351 0.100587 0.0472419
0.50605 0.103136 0.0464942
0.496437 0.106126 0.045594
0.0614481 0.0766613 0.0636759
0.0594797 0.0773327 0.0631723
0.0590524 0.0766918 0.0616465
0.0633402 0.0764782 0.059968
0.0698253 0.0780804 0.0599985
0.078233 0.0801556 0.060441
0.095201 0.0800793 0.0599069
0.114122 0.0791028 0.0619974
0.136797 0.0743267 0.0630961
0.163577 0.0711833 0.0627604
0.192203 0.0682383 0.0595865
0.223438 0.0679332 0.0566415
0.253239 0.068574 0.0534676
0.281788 0.0699779 0.0507973
0.30753 0.0721447 0.0484627
0.331746 0.0750896 0.0472267
0.354726 0.0776532 0.0458991
0.377066 0.0777142 0.0448157
0.39649 0.0780194 0.0442664
0.41471 0.0793927 0.0440223
0.431754 0.0812848 0.0441901
0.448753 0.084596 0.0448768
0.465644 0.0876478 0.045655
0.483772 0.0930495 0.0472877
0.498329 0.096376 0.0478828
0.510719 0.0999466 0.0484016
0.520836 0.103151 0.0494087
0.524346 0.103593 0.0492714
0.523903 0.103563 0.0491798
0.521416 0.104204 0.0489815
0.518257 0.105257 0.0486305
0.509926 0.107851 0.0476081
0.500206 0.111055 0.0466316
0.0646677 0.0910353 0.0697032
0.0627909 0.092195 0.0683909
0.0624399 0.0918746 0.0670634
0.0651102 0.0912337 0.0650187
0.0740368 0.0920424 0.0636759
0.0825666 0.0949111 0.0646525
0.0926528 0.0966049 0.0641642
0.113741 0.0964981 0.0640116
0.139406 0.0946975 0.0654765
0.172 0.087892 0.0675059
0.205875 0.0825055 0.06598
0.240467 0.0805829 0.0633249
0.272343 0.0809491 0.0604105
0.299901 0.0824598 0.0581826
0.325093 0.0846113 0.0558022
0.349615 0.0876478 0.0544594
0.372763 0.0910048 0.0535286
0.395117 0.0946365 0.0528573
0.416266 0.0982834 0.0528573
0.436316 0.10219 0.0535439
0.454856 0.106508 0.0542306
0.474083 0.1093 0.0561685
0.49163 0.112673 0.0569772
0.508309 0.115984 0.0576486
0.522744 0.118471 0.05832
0.534722 0.120912 0.0589761
0.54258 0.122164 0.0590677
0.547356 0.12314 0.0590219
0.544671 0.121584 0.0578317
0.541573 0.120989 0.0572061
0.537087 0.119982 0.0558175
0.529442 0.11928 0.0538643
0.521096 0.119387 0.0523079
0.0721141 0.10634 0.0756542
0.0697795 0.108019 0.0738994
0.0681773 0.108736 0.0728771
0.0680858 0.108003 0.0710918
0.0747082 0.108598 0.0689097
0.0895705 0.112123 0.0687877
0.0989395 0.115282 0.0701915
0.111269 0.118059 0.0709697
0.137591 0.116503 0.0699321
0.173693 0.114107 0.0709544
0.21503 0.104875 0.0735637
0.254292 0.0995651 0.0719615
0.288258 0.096788 0.0692454
0.319219 0.0983139 0.0670787
0.347295 0.100862 0.0654612
0.373053 0.104356 0.0645457
0.397818 0.108659 0.0649271
0.420218 0.113649 0.065156
0.442863 0.118593 0.0661021
0.464454 0.123537 0.0673686
0.485191 0.128679 0.0689097
0.505211 0.133547 0.0711376
0.525429 0.139025 0.0737163
0.545357 0.144762 0.0773022
0.56173 0.149081 0.0800183
0.575219 0.154055 0.083299
0.585077 0.156725 0.0843671
0.592248 0.158968 0.0885786
0.589975 0.158282 0.0876783
0.586984 0.157992 0.0867781
0.582223 0.157565 0.0857252
0.57499 0.157824 0.0843519
0.566445 0.158495 0.0827649
0.0771649 0.127016 0.0843214
0.0743725 0.12842 0.0817426
0.0728618 0.129732 0.080293
0.0734264 0.129564 0.0783246
0.0755016 0.128847 0.0755474
0.088777 0.131395 0.0741283
0.105852 0.137377 0.0751202
0.117617 0.142397 0.0775769
0.132692 0.145434 0.078584
0.168902 0.144381 0.0781872
0.218006 0.141558 0.0790417
0.266819 0.133165 0.0827344
0.308217 0.126741 0.0833143
0.342 0.123919 0.0818189
0.372519 0.124575 0.0801709
0.401022 0.128267 0.0797894
0.42974 0.132906 0.0808576
0.45481 0.137881 0.0816205
0.477791 0.143343 0.0832532
0.499672 0.149477 0.0853895
0.521096 0.155795 0.0882734
0.542306 0.16173 0.0914626
0.564767 0.167681 0.094789
0.586038 0.17351 0.0988174
0.604746 0.179034 0.102724
0.62034 0.183932 0.107301
0.632486 0.18819 0.110109
0.639155 0.190143 0.111391
0.638285 0.190112 0.111177
0.63534 0.190112 0.11075
0.632074 0.190219 0.110246
0.625498 0.191318 0.109789
0.617975 0.19266 0.109148
0.0814679 0.152331 0.0925917
0.0784161 0.154269 0.0905318
0.0779278 0.157321 0.0888228
0.0785992 0.157565 0.0869001
0.0808881 0.157 0.0845197
0.0877394 0.156725 0.0797742
0.105806 0.162112 0.0791485
0.124086 0.171267 0.0829938
0.140688 0.179278 0.0875715
0.162692 0.186206 0.0906539
0.21178 0.184985 0.090425
0.27158 0.18526 0.0917678
0.323552 0.179156 0.0945602
0.366201 0.169924 0.0997024
0.401205 0.166918 0.100435
0.431052 0.163729 0.100069
0.459754 0.165911 0.100343
0.486854 0.169039 0.100542
0.512459 0.173342 0.101778
0.536126 0.178607 0.103593
0.558206 0.184344 0.10576
0.580316 0.19089 0.108858
0.602411 0.197711 0.11249
0.622431 0.203998 0.115801
0.641978 0.210056 0.119234
0.658213 0.215503 0.123095
0.671397 0.220813 0.12575
0.678981 0.223423 0.127459
0.680308 0.224048 0.127733
0.678172 0.223819 0.127443
0.675258 0.223972 0.12726
0.669032 0.22501 0.126604
0.66212 0.226734 0.12639
0.0867933 0.18471 0.103258
0.0833143 0.18613 0.100557
0.0829175 0.189609 0.099443
0.0850843 0.192294 0.0981613
0.0882429 0.192493 0.0953231
0.091722 0.191348 0.0916457
0.107332 0.194903 0.0881666
0.130495 0.205524 0.0905013
0.151598 0.218753 0.0971389
0.176303 0.230121 0.10428
0.209323 0.240101 0.108156
0.266392 0.23946 0.10692
0.330983 0.240772 0.106859
0.383215 0.236744 0.107881
0.424964 0.229236 0.111528
0.459617 0.21915 0.118166
0.488914 0.21503 0.117556
0.516411 0.212619 0.117601
0.542458 0.210529 0.118303
0.568872 0.21387 0.119478
0.593408 0.218036 0.120775
0.616434 0.22295 0.122988
0.638865 0.228382 0.125505
0.658656 0.234516 0.128145
0.676005 0.240742 0.131228
0.692302 0.246998 0.1346
0.704311 0.25272 0.136721
0.71223 0.256275 0.138384
0.714549 0.257847 0.138933
0.712932 0.257786 0.138781
0.711162 0.257954 0.138537
0.705516 0.259495 0.138613
0.698756 0.261051 0.138674
0.0965133 0.225986 0.119295
0.09308 0.22826 0.11696
0.0924392 0.231693 0.11635
0.0955673 0.235615 0.114565
0.100191 0.238102 0.112474
0.104692 0.237583 0.108904
0.110765 0.237659 0.104829
0.134356 0.246387 0.102922
0.16289 0.262104 0.10837
0.190295 0.276493 0.116411
0.225132 0.289052 0.1234
0.265629 0.298848 0.123888
0.324758 0.297429 0.121508
0.388952 0.297688 0.119219
0.439307 0.295216 0.117189
0.479896 0.288746 0.116976
0.512459 0.277211 0.123262
0.541482 0.267048 0.129549
0.569039 0.262074 0.130297
0.597009 0.259388 0.132006
0.62208 0.257511 0.132845
0.646494 0.258015 0.134981
0.670375 0.262455 0.137209
0.69015 0.266911 0.139788
0.707866 0.272236 0.142977
0.722011 0.277714 0.145846
0.73257 0.282582 0.148119
0.738796 0.286641 0.14966
0.741802 0.288731 0.150301
0.740856 0.289067 0.150378
0.738827 0.289479 0.150469
0.733852 0.2907 0.150347
0.727337 0.292409 0.150423
0.108202 0.274846 0.139788
0.103975 0.275959 0.137194
0.102373 0.279255 0.136187
0.106035 0.28368 0.134829
0.11136 0.287358 0.132403
0.117372 0.288411 0.129229
0.123934 0.288655 0.124941
0.134066 0.290486 0.118547
0.166323 0.303151 0.118227
0.198642 0.318563 0.12369
0.234165 0.333135 0.130251
0.276295 0.346685 0.135561
0.318944 0.356695 0.133913
0.377096 0.353674 0.131456
0.439918 0.352926 0.128435
0.489937 0.350973 0.122911
0.529717 0.344259 0.121157
0.561196 0.333471 0.12607
0.58883 0.322148 0.131243
0.616434 0.311971 0.139803
0.643214 0.306706 0.142733
0.669932 0.303502 0.1449
0.694652 0.300572 0.148501
0.715114 0.302983 0.151583
0.731212 0.305501 0.154925
0.744228 0.310094 0.158679
0.753368 0.314382 0.161959
0.758785 0.318517 0.164248
0.760601 0.320958 0.165118
0.759777 0.321279 0.165118
0.758206 0.321355 0.165148
0.753216 0.322362 0.165286
0.747112 0.323934 0.165423
0.114946 0.320806 0.159686
0.110735 0.321691 0.156176
0.109758 0.324392 0.154406
0.111986 0.327398 0.151461
0.117205 0.332479 0.148928
0.124498 0.335256 0.145418
0.130663 0.33576 0.14139
0.140322 0.336294 0.135744
0.160922 0.341207 0.126757
0.197635 0.355566 0.126955
0.236576 0.371817 0.131853
0.280049 0.387793 0.138598
0.326055 0.401221 0.14258
0.367224 0.409796 0.138216
0.423392 0.405936 0.137575
0.484062 0.403204 0.134585
0.532418 0.401419 0.128634
0.571664 0.39617 0.12668
0.60235 0.387488 0.131029
0.628702 0.37702 0.136492
0.653971 0.365881 0.145449
0.679225 0.357626 0.154131
0.705074 0.351354 0.162356
0.728069 0.349966 0.166064
0.745602 0.349294 0.169436
0.759747 0.349691 0.172961
0.768811 0.35198 0.176272
0.773632 0.356527 0.178653
0.775036 0.359335 0.179065
0.774166 0.359945 0.179065
0.772366 0.360235 0.17908
0.767834 0.361242 0.179263
0.76231 0.362951 0.179583
0.119036 0.366644 0.181201
0.11458 0.366491 0.176684
0.111849 0.367727 0.1729
0.112856 0.370459 0.169467
0.116197 0.373404 0.164996
0.124117 0.37705 0.159823
0.133532 0.378775 0.155108
0.144472 0.379843 0.149554
0.158358 0.381933 0.141711
0.185809 0.388464 0.129274
0.23093 0.404562 0.131075
0.275334 0.422004 0.136049
0.322911 0.438453 0.142641
0.370367 0.451133 0.144869
0.411429 0.459281 0.141207
0.46392 0.454643 0.143908
0.522011 0.450248 0.143755
0.567941 0.448127 0.13991
0.607248 0.44387 0.139849
0.637308 0.438651 0.142275
0.66331 0.43154 0.147295
0.686641 0.419944 0.155215
0.70901 0.411078 0.16318
0.731426 0.404425 0.172381
0.749325 0.400885 0.178927
0.765209 0.399832 0.185138
0.777325 0.399756 0.190036
0.782223 0.402518 0.191653
0.78407 0.405051 0.192905
0.783444 0.406989 0.192538
0.782071 0.407187 0.192676
0.777844 0.408103 0.19321
0.772656 0.409125 0.193835
0.119234 0.410132 0.204288
0.115862 0.409598 0.199557
0.112383 0.409812 0.195636
0.112917 0.411002 0.190692
0.115221 0.412573 0.183932
0.123796 0.416098 0.176089
0.1337 0.418036 0.168353
0.14342 0.418723 0.161425
0.154696 0.419348 0.152987
0.175875 0.422049 0.140612
0.219318 0.432654 0.129671
0.267308 0.450599 0.133593
0.314031 0.469032 0.140719
0.363607 0.485466 0.148455
0.412329 0.497139 0.151522
0.450431 0.50399 0.150042
0.49984 0.49929 0.155077
0.555108 0.49453 0.157229
0.599054 0.492668 0.154772
0.636606 0.489082 0.155215
0.667338 0.486351 0.157473
0.694194 0.481849 0.16112
0.716365 0.471656 0.168215
0.73666 0.463142 0.175387
0.753307 0.458122 0.181598
0.76672 0.455695 0.186664
0.777859 0.455009 0.191119
0.783688 0.456718 0.194064
0.785657 0.459174 0.194995
0.785595 0.461585 0.195148
0.785382 0.46154 0.195148
0.783001 0.461723 0.195575
0.778775 0.462165 0.196384
0.117845 0.450782 0.228031
0.114565 0.449897 0.223896
0.11078 0.449241 0.21973
0.108751 0.448676 0.213916
0.110445 0.44921 0.206668
0.117189 0.450492 0.196735
0.127962 0.452857 0.184604
0.138659 0.452949 0.174563
0.150118 0.452598 0.165209
0.165805 0.453696 0.152239
0.203128 0.459525 0.138888
0.262165 0.476478 0.134752
0.30692 0.494865 0.142748
0.353796 0.513329 0.153246
0.402045 0.528893 0.160754
0.448676 0.539605 0.162509
0.485863 0.545708 0.162142
0.532753 0.54136 0.168368
0.584009 0.536461 0.171725
0.627543 0.534295 0.171466
0.663874 0.532036 0.173236
0.695155 0.529137 0.174945
0.722271 0.527199 0.177584
0.744045 0.520378 0.183886
0.760922 0.516625 0.18851
0.77409 0.512505 0.193576
0.784604 0.510307 0.197665
0.791745 0.511574 0.200916
0.793256 0.514199 0.202701
0.793622 0.51577 0.203632
0.793469 0.51574 0.203662
0.791485 0.515663 0.203876
0.787976 0.515908 0.204425
0.119905 0.489723 0.255116
0.116716 0.488045 0.251118
0.113527 0.487022 0.247623
0.110597 0.485817 0.241276
0.110536 0.484977 0.233829
0.114961 0.484932 0.223651
0.124437 0.485374 0.209979
0.136477 0.485466 0.196948
0.147814 0.484611 0.184726
0.162631 0.484154 0.171084
0.190005 0.48632 0.153323
0.241032 0.496696 0.142473
0.3037 0.518761 0.146181
0.348058 0.537774 0.155734
0.39379 0.555566 0.168856
0.438651 0.569574 0.174746
0.483879 0.579736 0.176608
0.518441 0.585367 0.176776
0.561685 0.581521 0.183612
0.611597 0.577325 0.188525
0.654063 0.574731 0.189487
0.688991 0.573312 0.192172
0.721263 0.571069 0.194293
0.748074 0.569253 0.196948
0.768368 0.567132 0.20119
0.783032 0.566278 0.204837
0.794263 0.564843 0.209354
0.802213 0.565209 0.211612
0.804288 0.566903 0.214221
0.804547 0.568551 0.215518
0.804456 0.568505 0.215763
0.802915 0.568399 0.216236
0.800168 0.568383 0.216815
0.126833 0.526665 0.283284
0.123812 0.524773 0.279911
0.120836 0.523339 0.276402
0.118151 0.521813 0.270817
0.115663 0.520272 0.263828
0.117342 0.518685 0.253697
0.124575 0.517739 0.239734
0.135042 0.516838 0.223392
0.146136 0.515175 0.20943
0.15993 0.513848 0.194736
0.181613 0.514061 0.174701
0.225788 0.519402 0.15375
0.285435 0.536706 0.150408
0.345541 0.560647 0.161456
0.389349 0.579431 0.173327
0.430961 0.595392 0.186069
0.473259 0.608438 0.19205
0.514916 0.617624 0.192477
0.548119 0.62269 0.193301
0.589487 0.621241 0.20061
0.636805 0.6177 0.205249
0.678416 0.614847 0.209522
0.713497 0.613321 0.212421
0.745373 0.612299 0.21532
0.771344 0.610636 0.218341
0.789456 0.610224 0.221485
0.802457 0.610513 0.224674
0.811215 0.611811 0.22678
0.814252 0.613016 0.229465
0.815167 0.613458 0.231632
0.815167 0.613703 0.232242
0.813733 0.613275 0.232425
0.811215 0.612772 0.2327
0.135714 0.562127 0.310567
0.133318 0.560143 0.307424
0.130877 0.558923 0.305135
0.128008 0.556909 0.300206
0.125002 0.55491 0.293751
0.123491 0.552407 0.283909
0.128191 0.550317 0.270161
0.13698 0.548623 0.253025
0.146944 0.545785 0.236988
0.158923 0.542962 0.221027
0.177157 0.541283 0.200748
0.213855 0.543862 0.175906
0.271443 0.556298 0.160769
0.335073 0.579538 0.167239
0.3897 0.602655 0.179706
0.428824 0.619028 0.192645
0.466209 0.633249 0.204852
0.505669 0.645228 0.209369
0.544732 0.654292 0.211063
0.576867 0.659739 0.212619
0.615702 0.661036 0.219257
0.66157 0.658885 0.224857
0.702876 0.654688 0.231189
0.737819 0.653605 0.235798
0.768063 0.652781 0.238437
0.790051 0.651499 0.241001
0.806332 0.650736 0.243503
0.81825 0.651255 0.246174
0.823667 0.652369 0.249073
0.824598 0.652262 0.251301
0.824231 0.65182 0.252399
0.822782 0.651408 0.252445
0.820508 0.650935 0.252857
0.146441 0.596063 0.336568
0.14461 0.594446 0.334096
0.142077 0.592905 0.331914
0.139803 0.590951 0.328222
0.137179 0.588769 0.322316
0.134447 0.585931 0.31284
0.13521 0.583124 0.30016
0.142138 0.580224 0.282765
0.150683 0.576593 0.264927
0.161303 0.572931 0.249195
0.176654 0.569268 0.228183
0.204517 0.569421 0.201099
0.258274 0.577035 0.178454
0.32639 0.598886 0.17586
0.38529 0.622919 0.188022
0.429191 0.641932 0.200687
0.464942 0.656779 0.212879
0.500481 0.670176 0.225101
0.538186 0.682017 0.229435
0.574151 0.690654 0.231769
0.605402 0.696941 0.235065
0.641489 0.699489 0.241505
0.683894 0.698924 0.247837
0.727153 0.694652 0.255406
0.760311 0.69366 0.260685
0.78677 0.694133 0.263859
0.805234 0.692988 0.266865
0.82002 0.692409 0.269108
0.829725 0.692592 0.270954
0.831556 0.691264 0.273106
0.832288 0.69015 0.27396
0.83154 0.68957 0.274372
0.829618 0.689265 0.274662
0.158877 0.629129 0.361486
0.156786 0.626932 0.358572
0.154681 0.625193 0.355322
0.153216 0.623301 0.350713
0.150378 0.620478 0.343374
0.147616 0.617594 0.333059
0.147433 0.614527 0.320912
0.151919 0.610498 0.303731
0.159472 0.606134 0.285084
0.168292 0.601434 0.268818
0.182864 0.596902 0.248264
0.206073 0.594705 0.223163
0.252461 0.59881 0.193179
0.317876 0.616236 0.183505
0.387945 0.644205 0.194385
0.439857 0.666514 0.207904
0.475898 0.681727 0.220005
0.508995 0.694774 0.231342
0.542397 0.706538 0.240955
0.576974 0.716976 0.245014
0.610605 0.725368 0.249699
0.639887 0.730999 0.25275
0.674617 0.733394 0.258961
0.716472 0.73283 0.266392
0.758297 0.728206 0.273732
0.790311 0.727489 0.279774
0.811719 0.727581 0.28304
0.825467 0.727062 0.287037
0.833875 0.728298 0.290776
0.83415 0.728023 0.295399
0.832761 0.727581 0.298161
0.831815 0.726497 0.298405
0.831052 0.725322 0.297673
0.171496 0.660227 0.387366
0.170062 0.658198 0.38381
0.1682 0.656275 0.380011
0.16585 0.653788 0.374792
0.163485 0.651209 0.368383
0.161181 0.648203 0.359091
0.158572 0.644205 0.346517
0.161517 0.639902 0.329717
0.167529 0.634836 0.311467
0.174884 0.629206 0.294179
0.186084 0.623789 0.274647
0.206149 0.619333 0.250111
0.240146 0.620737 0.220523
0.303563 0.632227 0.195666
0.370199 0.655604 0.202258
0.431464 0.681361 0.217716
0.474327 0.699504 0.230793
0.506676 0.713405 0.24271
0.539635 0.725933 0.253285
0.573129 0.737636 0.261616
0.606256 0.747616 0.267506
0.637034 0.75523 0.271748
0.666316 0.760693 0.275563
0.70045 0.76347 0.282597
0.742306 0.763012 0.289769
0.781964 0.758389 0.297246
0.807065 0.757519 0.301747
0.823972 0.757321 0.305745
0.834195 0.758312 0.31014
0.835904 0.758099 0.314595
0.834653 0.75761 0.317861
0.833555 0.756832 0.319005
0.833509 0.755703 0.31812
0.185275 0.68658 0.411399
0.183856 0.684459 0.407538
0.181796 0.682292 0.404059
0.179583 0.679591 0.398627
0.177325 0.676768 0.391928
0.174075 0.672892 0.381857
0.171176 0.668833 0.369848
0.170016 0.66392 0.354635
0.175067 0.658061 0.335027
0.180163 0.65182 0.317693
0.18909 0.645685 0.298909
0.205753 0.640055 0.27509
0.23447 0.638651 0.245991
0.286854 0.644205 0.216358
0.356497 0.665019 0.209796
0.418769 0.689433 0.224537
0.467048 0.710338 0.239063
0.502281 0.725612 0.25211
0.533867 0.738415 0.2645
0.567697 0.751232 0.273503
0.600076 0.762448 0.279896
0.632029 0.771679 0.287083
0.661387 0.779293 0.291661
0.691875 0.785092 0.297551
0.726894 0.787564 0.304753
0.76791 0.786755 0.31043
0.799542 0.782513 0.316472
0.819791 0.782025 0.321843
0.832456 0.782269 0.326543
0.837873 0.781888 0.331182
0.83653 0.781018 0.334554
0.835737 0.780163 0.335958
0.835706 0.779278 0.335286
0.197726 0.708461 0.433265
0.19588 0.705867 0.429129
0.193896 0.703288 0.424949
0.191699 0.70074 0.419944
0.189105 0.697475 0.413123
0.186252 0.693828 0.403433
0.182223 0.688945 0.391165
0.17966 0.683436 0.375891
0.18175 0.677119 0.356939
0.185748 0.670237 0.338674
0.19173 0.664256 0.321416
0.204623 0.657679 0.299138
0.228428 0.653742 0.27097
0.269001 0.655283 0.238453
0.33669 0.669749 0.220844
0.403876 0.694194 0.228855
0.458671 0.717144 0.245655
0.495567 0.733181 0.259388
0.526955 0.746288 0.272648
0.558282 0.758938 0.283207
0.592264 0.771527 0.291051
0.624598 0.782254 0.297551
0.654612 0.790799 0.303899
0.682887 0.79765 0.308919
0.716106 0.802762 0.314946
0.752758 0.803571 0.32314
0.789807 0.800305 0.328679
0.814313 0.798871 0.334051
0.828794 0.798749 0.338796
0.836622 0.798581 0.34435
0.837293 0.797833 0.347234
0.836378 0.797223 0.349111
0.836332 0.796536 0.348669
0.209125 0.726192 0.453346
0.206806 0.723644 0.448692
0.204669 0.720928 0.444617
0.203067 0.718166 0.438972
0.200046 0.714794 0.431952
0.196841 0.710842 0.422721
0.192752 0.705699 0.410422
0.1879 0.699733 0.395453
0.187396 0.692897 0.376898
0.190555 0.685557 0.358236
0.195209 0.679133 0.340887
0.203937 0.672587 0.320806
0.222156 0.666682 0.294148
0.255207 0.665721 0.262806
0.314092 0.673198 0.233616
0.381338 0.693462 0.235172
0.440253 0.717281 0.248264
0.487846 0.737484 0.264561
0.518303 0.750729 0.277607
0.549157 0.763272 0.289815
0.580484 0.775418 0.299489
0.61387 0.787701 0.305669
0.646357 0.797726 0.311986
0.674601 0.805493 0.317464
0.706447 0.811887 0.323262
0.738766 0.815717 0.331456
0.775784 0.814603 0.33872
0.804746 0.8121 0.343664
0.824186 0.811749 0.349783
0.834134 0.811658 0.355032
0.836255 0.810849 0.35906
0.836332 0.810346 0.361028
0.836393 0.81004 0.361288
0.217868 0.738628 0.469123
0.216083 0.736645 0.4654
0.214282 0.734478 0.461631
0.211887 0.731716 0.455955
0.209354 0.728237 0.448585
0.205707 0.723934 0.43859
0.20145 0.71902 0.426963
0.196963 0.713039 0.412741
0.192233 0.70573 0.395193
0.194247 0.697917 0.376394
0.198032 0.691585 0.359854
0.204181 0.685069 0.340368
0.217441 0.678218 0.315602
0.243732 0.67422 0.285191
0.287648 0.675761 0.252613
0.357458 0.691386 0.242985
0.417029 0.712474 0.250889
0.468727 0.734234 0.265293
