bundles/resolve-cinematic-luts/Phantom Luts/Ursa G2 Phntm Film LUTs - V1/Gen4/Standard (No WB Offset)/Ursa G2 Eastman Legacy Gen4.cube
TITLE "Generated by Resolve"
LUT_3D_SIZE 5
0.0390021 0.0390021 0.0390021
0.136065 0.0390021 0.0480812
0.357168 0.0503395 0.0422065
0.509972 0.0860304 0.0520333
0.509544 0.103929 0.0583505
0.0771649 0.127016 0.0843214
0.132692 0.145434 0.078584
0.42974 0.132906 0.0808576
0.604746 0.179034 0.102724
0.617975 0.19266 0.109148
0.117845 0.450782 0.228031
0.150118 0.452598 0.165209
0.485863 0.545708 0.162142
0.760922 0.516625 0.18851
0.787976 0.515908 0.204425
0.197726 0.708461 0.433265
0.18175 0.677119 0.356939
0.458671 0.717144 0.245655
0.716106 0.802762 0.314946
0.836332 0.796536 0.348669
0.225223 0.747738 0.49218
0.199802 0.71722 0.413901
0.331014 0.686717 0.24184
0.663828 0.808118 0.317082
0.831083 0.822309 0.380163
0.0443427 0.0390021 0.0899519
0.137377 0.0444648 0.098146
0.35555 0.0390021 0.10927
0.530404 0.0666667 0.154711
0.538628 0.0842298 0.187457
0.0675212 0.114595 0.101106
0.136461 0.130144 0.130251
0.422538 0.126238 0.120912
0.599664 0.144717 0.132448
0.569787 0.135012 0.114321
0.132723 0.458793 0.29601
0.112169 0.442222 0.243061
0.47808 0.530816 0.174548
0.761288 0.461051 0.209186
0.780911 0.460029 0.208499
0.207416 0.716884 0.476799
0.18909 0.692302 0.42565
0.370047 0.676585 0.230121
0.69987 0.789334 0.304463
0.835554 0.779583 0.338018
0.241917 0.769436 0.54168
0.224567 0.748043 0.481956
0.246113 0.678538 0.282246
0.627253 0.798138 0.313771
0.829175 0.822446 0.380011
0.0547036 0.0525673 0.258534
0.187823 0.0449683 0.273167
0.358572 0.0576333 0.268925
0.562188 0.109621 0.339712
0.577493 0.127947 0.373739
0.0390021 0.0858167 0.225223
0.0826123 0.0586557 0.289784
0.362478 0.0671702 0.277485
0.564813 0.106203 0.32256
0.579339 0.121218 0.34287
0.119387 0.454856 0.369406
0.112734 0.45095 0.372824
0.501991 0.516686 0.501213
0.76556 0.450263 0.459693
0.806424 0.424903 0.440024
0.213245 0.721111 0.539651
0.206989 0.708324 0.527703
0.335317 0.690501 0.486137
0.686076 0.773175 0.494362
0.842268 0.738476 0.510735
0.264012 0.796399 0.616037
0.260212 0.790784 0.600397
0.253147 0.76054 0.511559
0.51606 0.761944 0.463905
0.836027 0.842802 0.511772
0.109133 0.0557412 0.38851
0.242908 0.0552071 0.412711
0.401816 0.0837568 0.415488
0.578775 0.147204 0.470558
0.599664 0.161074 0.505989
0.0390021 0.0619974 0.33228
0.142275 0.0556344 0.410269
0.3935 0.0822614 0.424994
0.579705 0.145357 0.469245
0.596216 0.157031 0.48838
0.061738 0.405676 0.465003
0.0549477 0.385138 0.466819
0.461769 0.407324 0.685618
0.79939 0.464683 0.693065
0.838102 0.447257 0.680171
0.203632 0.712551 0.596735
0.197147 0.699794 0.589502
0.392706 0.72343 0.641733
0.734676 0.761624 0.73611
0.855253 0.720165 0.706447
0.298314 0.81355 0.68246
0.288716 0.809674 0.673487
0.354696 0.819776 0.67126
0.629969 0.857389 0.74902
0.864103 0.898207 0.749889
0.225193 0.0683604 0.481758
0.31458 0.0793469 0.499428
0.476982 0.125109 0.526726
0.611383 0.175479 0.557321
0.611093 0.174884 0.556725
0.0825208 0.067628 0.435874
0.239994 0.0699016 0.485557
0.456977 0.118608 0.523903
0.606729 0.173754 0.555993
0.615961 0.179217 0.561913
0.0542763 0.38436 0.533257
0.0573281 0.360494 0.533837
0.531075 0.355047 0.76524
0.817166 0.430976 0.787243
0.836286 0.426917 0.777584
0.199588 0.689357 0.665476
0.183337 0.666987 0.657664
0.338964 0.668879 0.722545
0.767086 0.69337 0.860258
0.881865 0.711574 0.84567
0.323827 0.819806 0.720623
0.313573 0.81593 0.715053
0.372259 0.825254 0.730327
0.672862 0.879576 0.825528
0.883345 0.909178 0.880125
