bundles/resolve-cinematic-luts/Phantom Luts/Ursa G2 Phntm Film LUTs - V1/Gen4/Standard (No WB Offset)/Ursa G2 Eastman Gen4.cube
TITLE "Generated by Resolve"
LUT_3D_SIZE 9
0.0390021 0.0390021 0.0390021
0.0651408 0.0390021 0.0390021
0.16669 0.0390021 0.0421912
0.290562 0.0425422 0.0390021
0.384131 0.0478065 0.0401465
0.45687 0.0667735 0.0462043
0.515618 0.0872511 0.0545968
0.54255 0.0966049 0.0619516
0.520623 0.106447 0.0670939
0.0552834 0.0654917 0.0560769
0.0682841 0.0683452 0.0530098
0.165194 0.0619364 0.0543832
0.29163 0.06421 0.0407263
0.380072 0.0644541 0.0390021
0.44596 0.0752575 0.0413062
0.497612 0.0921492 0.0453803
0.522301 0.102937 0.0470893
0.498833 0.110567 0.0449989
0.080293 0.164675 0.0935378
0.088014 0.167468 0.0791028
0.173404 0.19855 0.0879072
0.385016 0.174762 0.0962081
0.492729 0.169268 0.0955825
0.572992 0.188739 0.102449
0.6421 0.209384 0.115206
0.67747 0.220768 0.121843
0.65774 0.222049 0.120317
0.111147 0.336706 0.16379
0.120668 0.347936 0.147768
0.193698 0.363851 0.117342
0.380346 0.419974 0.125994
0.581537 0.40325 0.121431
0.673854 0.371221 0.147127
0.7458 0.361776 0.16817
0.77789 0.372335 0.177401
0.765194 0.375051 0.178134
0.113268 0.497902 0.267369
0.0995346 0.488777 0.238972
0.14316 0.485756 0.179232
0.348165 0.538491 0.147387
0.527077 0.585016 0.171679
0.687861 0.572381 0.188876
0.769421 0.568536 0.202762
0.802655 0.570382 0.21529
0.798383 0.571954 0.21706
0.157366 0.628946 0.381796
0.148425 0.619989 0.36669
0.140108 0.598093 0.305119
0.257939 0.590188 0.189212
0.497841 0.677546 0.228504
0.631327 0.711177 0.250309
0.761563 0.708644 0.27718
0.826856 0.707805 0.290623
0.82887 0.704265 0.29575
0.209369 0.723278 0.472038
0.20061 0.712291 0.449912
0.182132 0.689082 0.396078
0.202396 0.655421 0.306508
0.473838 0.718853 0.259586
0.615366 0.774884 0.304402
0.723095 0.800381 0.331044
0.82417 0.798733 0.355184
0.837507 0.795575 0.367803
0.23418 0.757992 0.516579
0.225711 0.748486 0.488075
0.206104 0.725689 0.428229
0.202319 0.698146 0.365621
0.374945 0.697902 0.256794
0.58822 0.78323 0.314595
0.700435 0.818479 0.336721
0.807126 0.829419 0.363897
0.841184 0.829633 0.406683
0.236927 0.761227 0.526268
0.229725 0.753277 0.505028
0.213413 0.734462 0.452537
0.199573 0.703014 0.379904
0.316365 0.684047 0.261128
0.563439 0.773602 0.308492
0.681529 0.813703 0.336614
0.787182 0.829236 0.363699
0.839292 0.829831 0.407736
0.0390021 0.0390021 0.0492409
0.0682994 0.0390021 0.0568551
0.16437 0.0390021 0.0741131
0.290364 0.0390021 0.0603952
0.380591 0.0390021 0.0508431
0.452003 0.0424659 0.0599069
0.514687 0.0562753 0.0821393
0.540612 0.0595865 0.0974746
0.525246 0.0662242 0.110582
0.0481422 0.0539101 0.0564889
0.0634165 0.0559548 0.0630808
0.164584 0.0550851 0.063386
0.287022 0.0527047 0.0443275
0.370062 0.0555581 0.0407111
0.44152 0.0752422 0.0460975
0.497734 0.0949569 0.0547494
0.522454 0.103288 0.0617838
0.513237 0.109895 0.068574
0.0764782 0.153399 0.106905
0.0702831 0.155642 0.0959793
0.167193 0.187778 0.0926223
0.374746 0.153002 0.0963912
0.472404 0.155077 0.0886854
0.548562 0.171939 0.0938582
0.611276 0.189578 0.10515
0.63624 0.19707 0.110018
0.613581 0.196796 0.105486
0.11162 0.333425 0.195834
0.0984054 0.332418 0.170428
0.156222 0.349828 0.1234
0.374578 0.412406 0.126696
0.584619 0.386145 0.120623
0.676036 0.348653 0.149691
0.745571 0.343908 0.163195
0.774166 0.353506 0.17145
0.760678 0.356741 0.17171
0.119982 0.504875 0.299611
0.108659 0.496925 0.280903
0.117723 0.481331 0.19884
0.326558 0.52781 0.142031
0.524132 0.579538 0.168994
0.691676 0.563684 0.185779
0.769696 0.557412 0.199573
0.799969 0.556313 0.211093
0.794629 0.556039 0.212375
0.162219 0.633387 0.402762
0.155001 0.626093 0.392035
0.13785 0.604685 0.335897
0.215213 0.583307 0.20441
0.487098 0.671092 0.222965
0.628611 0.70576 0.246403
0.762066 0.700267 0.271992
0.827863 0.697078 0.283406
0.827558 0.693401 0.288014
0.212573 0.726528 0.488396
0.205554 0.71751 0.469581
0.189654 0.69749 0.424125
0.18732 0.658183 0.326726
0.452338 0.707881 0.250156
0.606317 0.7691 0.298192
0.717906 0.7953 0.326574
0.823514 0.792355 0.350729
0.836393 0.7897 0.361791
0.240223 0.765591 0.535027
0.233387 0.757946 0.51046
0.217456 0.739986 0.459129
0.199054 0.704555 0.381842
0.334585 0.687526 0.255421
0.575906 0.778271 0.310475
0.692882 0.816388 0.334173
0.801694 0.829709 0.362844
0.841291 0.829648 0.407019
0.242664 0.768277 0.544091
0.237034 0.761578 0.525643
0.223133 0.745968 0.478508
0.198566 0.709438 0.395041
0.275853 0.679393 0.274083
0.54612 0.766506 0.302129
0.671199 0.810941 0.334539
0.779217 0.829892 0.361227
0.838743 0.82974 0.406668
0.0402686 0.0390021 0.108293
0.0922713 0.0390021 0.113039
0.169635 0.040238 0.113436
0.290074 0.0390021 0.125551
0.383581 0.0390021 0.144442
0.461997 0.0489662 0.171847
0.53228 0.0702983 0.203006
0.558785 0.0831464 0.224704
0.545617 0.0915389 0.235325
0.0390021 0.0494087 0.0911269
0.0528878 0.041474 0.119097
0.158999 0.0445869 0.113832
0.284627 0.0390021 0.106844
0.381476 0.0390021 0.106432
0.457069 0.0413519 0.123812
0.523156 0.0616465 0.153536
0.54847 0.0734722 0.175418
0.536141 0.0796368 0.187243
0.0695506 0.146914 0.123384
0.0635843 0.145571 0.124941
0.18262 0.176349 0.175021
0.372488 0.165759 0.179049
0.491142 0.158724 0.164553
0.577951 0.163928 0.165331
0.637201 0.165331 0.168658
0.634821 0.154925 0.157015
0.609155 0.149477 0.148455
0.10985 0.334798 0.230991
0.102571 0.334234 0.224338
0.124071 0.345037 0.204669
0.384375 0.413382 0.207294
0.586084 0.357412 0.208927
0.6766 0.335927 0.201984
0.746288 0.333989 0.199939
0.77171 0.332601 0.192157
0.75581 0.331685 0.189273
0.124788 0.511589 0.337148
0.118715 0.508659 0.333303
0.108751 0.492378 0.284276
0.232654 0.499153 0.173693
0.519921 0.572702 0.185458
0.699657 0.544274 0.210315
0.767117 0.519554 0.227314
0.795514 0.520378 0.222766
0.7888 0.518929 0.220462
0.166445 0.637018 0.430564
0.162249 0.632746 0.42768
0.152544 0.619135 0.392233
0.153277 0.58262 0.271626
0.455589 0.656016 0.219181
0.622812 0.696773 0.241321
0.765499 0.685374 0.269657
0.826902 0.677577 0.282567
0.824247 0.673961 0.281956
0.216541 0.729702 0.511467
0.211627 0.723079 0.502281
0.200397 0.708721 0.464317
0.174365 0.668879 0.36968
0.371252 0.673457 0.243824
0.584421 0.757794 0.294591
0.710109 0.786969 0.320378
0.822843 0.781689 0.345342
0.835081 0.778973 0.356527
0.24889 0.775708 0.560418
0.244862 0.771054 0.550271
0.232425 0.757931 0.504204
0.206043 0.72253 0.422385
0.261326 0.680171 0.290303
0.542458 0.764965 0.304143
0.677134 0.812573 0.336019
0.790875 0.830152 0.363714
0.842084 0.829618 0.406867
0.25095 0.77792 0.569802
0.246769 0.772931 0.557244
0.235752 0.761654 0.516213
0.211841 0.730724 0.440711
0.230594 0.682826 0.317311
0.498085 0.745754 0.291798
0.64802 0.804898 0.334142
0.761242 0.82945 0.361349
0.836362 0.829923 0.406607
0.0467231 0.0461585 0.209293
0.103685 0.0449226 0.22121
0.19382 0.0417182 0.214252
0.287755 0.0414435 0.209293
0.388495 0.0455787 0.225147
0.469581 0.0657206 0.260746
0.548409 0.0949111 0.294591
0.578607 0.108965 0.319188
0.566049 0.115007 0.3252
0.0390021 0.0446632 0.182284
0.0526741 0.0469062 0.219532
0.173449 0.0416266 0.22385
0.283574 0.0417182 0.207767
0.385077 0.0457313 0.218082
0.467597 0.0654154 0.248295
0.545281 0.093843 0.282109
0.573663 0.107057 0.305547
0.56228 0.113069 0.312139
0.0391699 0.124727 0.196735
0.0390021 0.114839 0.207492
0.144442 0.114687 0.281315
0.341405 0.134585 0.283558
0.461906 0.124269 0.288823
0.547845 0.123507 0.292958
0.601999 0.126436 0.297917
0.600519 0.116945 0.290532
0.575555 0.110033 0.280156
0.0956588 0.326696 0.266468
0.0881971 0.327382 0.26952
0.123064 0.349554 0.295537
0.398871 0.405173 0.395438
0.572763 0.377554 0.388235
0.690959 0.340948 0.365927
0.766522 0.324346 0.352972
0.791562 0.322072 0.346792
0.776944 0.317968 0.340795
0.122148 0.512383 0.374502
0.117693 0.511177 0.378607
0.118639 0.507698 0.364477
0.27628 0.535775 0.396201
0.524971 0.578622 0.394675
0.692302 0.532158 0.394354
0.762951 0.5066 0.368917
0.81178 0.489372 0.358053
0.803281 0.486244 0.353674
0.168322 0.639063 0.463447
0.16585 0.636194 0.465675
0.162905 0.630808 0.451408
0.169833 0.618387 0.404089
0.382589 0.628733 0.370962
0.616419 0.694392 0.380621
0.772076 0.670054 0.403937
0.818296 0.638437 0.398093
0.815747 0.633143 0.387717
0.219898 0.732097 0.539513
0.217655 0.727642 0.537972
0.21178 0.719799 0.5205
0.198535 0.698955 0.461738
0.286931 0.666804 0.370398
0.509606 0.721035 0.373312
0.697673 0.78175 0.389563
0.8271 0.772992 0.422629
0.838514 0.766659 0.428519
0.258869 0.78555 0.592798
0.256138 0.782086 0.588067
0.249729 0.774899 0.570123
0.232929 0.755001 0.510979
0.233646 0.712077 0.406271
0.436591 0.725109 0.358343
0.628595 0.801907 0.392264
0.776959 0.834257 0.3935
0.846326 0.830091 0.430488
0.261341 0.787869 0.601038
0.259007 0.785183 0.593149
0.252796 0.779828 0.576181
0.238956 0.763836 0.525231
0.218494 0.721325 0.42208
0.385504 0.709834 0.339208
0.57998 0.781643 0.374472
0.738552 0.830106 0.382239
0.834409 0.830427 0.408804
0.0616312 0.0511177 0.294011
0.13489 0.04477 0.308736
0.234302 0.0434272 0.30602
0.30547 0.047776 0.295506
0.386084 0.0570993 0.301289
0.4795 0.0768292 0.324559
0.562493 0.107942 0.371984
0.594522 0.12224 0.397925
0.582284 0.127672 0.403723
0.0390021 0.0497902 0.260761
0.0690166 0.0512856 0.303609
0.208804 0.0431067 0.317082
0.301518 0.0480354 0.301366
0.386435 0.0571298 0.301778
0.479088 0.076997 0.322896
0.561257 0.108583 0.369345
0.591043 0.122469 0.391241
0.580285 0.127306 0.396201
0.0390021 0.0969711 0.262043
0.0390021 0.0805982 0.269017
0.11368 0.0542306 0.329412
0.304128 0.0613107 0.325765
0.397543 0.0711376 0.31548
0.49633 0.0907301 0.33286
0.564233 0.10634 0.357122
0.594766 0.119295 0.374044
0.585809 0.123354 0.377523
0.051133 0.287205 0.321492
0.0454719 0.279942 0.325765
0.0503395 0.27715 0.34493
0.370657 0.326345 0.500359
0.568353 0.360647 0.509819
0.691875 0.338857 0.514931
0.779309 0.322621 0.513817
0.805524 0.313802 0.513344
0.789593 0.309804 0.508141
0.112764 0.506371 0.4103
0.108995 0.505272 0.416266
0.108385 0.502815 0.415259
0.295048 0.544472 0.483528
0.551171 0.569268 0.551202
0.684199 0.542718 0.538476
0.771145 0.50898 0.513512
0.820401 0.485451 0.494118
0.81529 0.477638 0.488243
0.164691 0.636164 0.491753
0.162753 0.633249 0.495613
0.161242 0.629099 0.489342
0.222889 0.641611 0.498207
0.473686 0.662165 0.552682
0.636728 0.695842 0.549035
0.765377 0.664042 0.544442
0.817838 0.635889 0.513558
0.824613 0.623789 0.50251
0.219135 0.728878 0.564111
0.217502 0.724697 0.563714
0.213672 0.719234 0.553674
0.211673 0.711223 0.532052
0.388067 0.713664 0.535897
0.53959 0.73341 0.534325
0.707088 0.784848 0.544945
0.835142 0.767071 0.563745
0.847044 0.755261 0.56025
0.26566 0.789075 0.619913
0.261845 0.784009 0.615106
0.256947 0.779034 0.60441
0.2486 0.769635 0.5785
0.310674 0.757824 0.538842
0.459586 0.749218 0.509529
0.618875 0.795087 0.528511
0.78265 0.850248 0.54316
0.863981 0.847288 0.587259
0.271717 0.795316 0.629343
0.270207 0.79353 0.626078
0.26656 0.791089 0.616495
0.2607 0.786053 0.595346
0.275135 0.773159 0.546746
0.408225 0.750378 0.502281
0.566781 0.784649 0.522454
0.735958 0.848875 0.546426
0.847532 0.861448 0.562325
0.103487 0.0508278 0.360342
0.181689 0.0463569 0.374548
0.266667 0.0489509 0.376623
0.33695 0.0558938 0.366995
0.400015 0.068574 0.367208
0.484382 0.0949111 0.389746
0.570489 0.125978 0.424872
0.597528 0.138888 0.446662
0.591897 0.143053 0.452399
0.0390021 0.0561379 0.333394
0.112261 0.0502785 0.367834
0.24155 0.0484627 0.384253
0.331731 0.0559396 0.373236
0.399573 0.068864 0.370489
0.484154 0.096025 0.39086
0.571466 0.125963 0.42388
0.597101 0.138415 0.444617
0.590845 0.142718 0.448814
0.0390021 0.0642557 0.302602
0.0390021 0.0539254 0.307713
0.150576 0.0486 0.383093
0.314183 0.0541238 0.382467
0.395758 0.0685435 0.374914
0.484092 0.0964675 0.390982
0.570535 0.125063 0.419593
0.600443 0.135454 0.43856
0.592935 0.139422 0.440116
0.0390021 0.258167 0.366857
0.0390021 0.245487 0.366491
0.0390021 0.225208 0.376242
0.355917 0.236347 0.549279
0.569375 0.296849 0.582971
0.675456 0.3084 0.580331
0.763134 0.305058 0.584833
0.782422 0.290089 0.590158
0.763821 0.283421 0.579477
0.0834058 0.480552 0.457923
0.0808881 0.475715 0.461448
0.0774853 0.464424 0.463111
0.221485 0.498817 0.543236
0.535515 0.518227 0.651118
0.696849 0.539025 0.645304
0.787839 0.515831 0.6392
0.841657 0.493446 0.628367
0.835279 0.488182 0.623438
0.157931 0.630686 0.522103
0.155993 0.627527 0.525338
0.154894 0.624353 0.522911
0.19588 0.634668 0.538186
0.492302 0.672648 0.62118
0.663066 0.687892 0.664668
0.766171 0.666453 0.652262
0.825956 0.634592 0.626856
0.832425 0.621912 0.615518
0.215824 0.72604 0.584634
0.214191 0.721736 0.585306
0.21091 0.716197 0.578546
0.218128 0.711803 0.57026
0.461555 0.743786 0.633173
0.609689 0.75758 0.667689
0.730831 0.78558 0.664897
0.830091 0.76527 0.660594
0.851057 0.747921 0.642115
0.27042 0.787243 0.639063
0.265843 0.781872 0.636576
0.258885 0.776379 0.62678
0.254643 0.7691 0.609766
0.394598 0.787243 0.631998
0.542763 0.793057 0.653727
0.655665 0.815442 0.661936
0.793683 0.858427 0.667979
0.880751 0.855131 0.701076
0.287221 0.803159 0.657252
0.284428 0.801221 0.654063
0.278447 0.798306 0.646128
0.2748 0.795819 0.633967
0.331945 0.803143 0.629908
0.494499 0.812634 0.649729
0.611505 0.825605 0.662943
0.744396 0.862684 0.680644
0.861234 0.892638 0.683513
0.15938 0.0520638 0.413016
0.220478 0.0526894 0.423835
0.293904 0.0581216 0.429053
0.363439 0.0670329 0.423331
0.426413 0.0836194 0.427344
0.499809 0.111894 0.447395
0.576364 0.145373 0.480812
0.600351 0.156924 0.499306
0.602548 0.159518 0.508949
0.0808576 0.0574197 0.394781
0.166781 0.0530098 0.419562
0.271473 0.0571756 0.434241
0.356909 0.066804 0.428931
0.425406 0.0837262 0.430549
0.501839 0.1131 0.450767
0.577752 0.145296 0.481621
0.600336 0.156374 0.498207
0.60119 0.158862 0.505837
0.0390021 0.0587778 0.337911
0.0390021 0.0599069 0.364584
0.197467 0.0539101 0.431113
0.336492 0.0646525 0.43714
0.419928 0.0823835 0.434852
0.499275 0.112871 0.452369
0.576623 0.143557 0.479561
0.602945 0.153994 0.492927
0.59997 0.156817 0.496391
0.0390021 0.22388 0.392386
0.0390021 0.206867 0.390448
0.0390021 0.177401 0.404273
0.34818 0.171054 0.557412
0.545617 0.22739 0.599954
0.645075 0.260426 0.61091
0.717342 0.272343 0.612848
0.735912 0.267338 0.606592
0.721416 0.259144 0.595102
0.0727398 0.461204 0.500435
0.0711376 0.455406 0.501747
0.0682841 0.443458 0.503288
0.174868 0.470283 0.583978
0.524147 0.464881 0.716731
0.723354 0.516381 0.735668
0.805081 0.514229 0.717525
0.854597 0.500648 0.708995
0.847227 0.494347 0.702983
0.138247 0.615793 0.556268
0.134676 0.610132 0.557061
0.128756 0.601526 0.555367
0.166308 0.605753 0.584329
0.451438 0.640513 0.673518
0.654643 0.652628 0.745022
0.774823 0.664759 0.734432
0.845167 0.640848 0.725963
0.854871 0.628046 0.717662
0.211139 0.721172 0.609354
0.208545 0.71632 0.608545
0.205142 0.711299 0.603876
0.206119 0.705211 0.598993
0.442191 0.742931 0.668116
0.625956 0.766461 0.722255
0.752865 0.779751 0.753628
0.833524 0.762905 0.742962
0.860563 0.746807 0.729625
0.270008 0.785214 0.653788
0.265721 0.779782 0.651225
0.260517 0.775036 0.645045
0.261357 0.769558 0.636194
0.421973 0.794858 0.676402
0.599893 0.820401 0.73138
0.707927 0.835431 0.7608
0.810956 0.860395 0.759594
0.885069 0.855589 0.770031
0.317891 0.812634 0.684153
0.312612 0.810513 0.68188
0.304524 0.808042 0.675654
0.300969 0.806088 0.66685
0.38703 0.821973 0.683207
0.556466 0.850614 0.734813
0.6701 0.864408 0.765423
0.773587 0.887404 0.782528
0.868467 0.91313 0.778531
0.219791 0.0597696 0.459907
0.264317 0.0634012 0.46714
0.325124 0.0701762 0.473381
0.391989 0.0821241 0.475105
0.461326 0.104982 0.485267
0.531579 0.134203 0.5066
0.592157 0.159609 0.528878
0.610773 0.169085 0.544869
0.613458 0.171359 0.552285
0.166278 0.0590829 0.450019
0.226062 0.0608835 0.463691
0.30692 0.0688487 0.475792
0.384131 0.0810254 0.477928
0.459617 0.104677 0.487327
0.531289 0.134325 0.507744
0.593347 0.160327 0.5308
0.611139 0.16939 0.544823
0.612634 0.17113 0.550332
0.0390021 0.06392 0.393133
0.106218 0.0608835 0.43331
0.249409 0.0634775 0.471809
0.36466 0.0784009 0.481849
0.450599 0.101061 0.487617
0.527535 0.133043 0.50808
0.592493 0.161028 0.531884
0.613016 0.170886 0.543862
0.615717 0.173312 0.549416
0.0390021 0.182895 0.414069
0.0390021 0.165408 0.415885
0.0426947 0.136019 0.439353
0.335363 0.11696 0.534157
0.491768 0.158785 0.563943
0.598321 0.202899 0.593362
0.669032 0.230243 0.611902
0.681102 0.225803 0.604059
0.669093 0.217197 0.593042
0.0687877 0.450309 0.533745
0.0669413 0.442191 0.533242
0.0631723 0.427008 0.532448
0.190356 0.440864 0.631479
0.545174 0.426459 0.77322
0.753445 0.484596 0.805692
0.818616 0.498695 0.784054
0.857298 0.493736 0.769589
0.852995 0.485832 0.762951
0.120897 0.595438 0.58706
0.117983 0.589609 0.586908
0.11281 0.579797 0.585946
0.153063 0.586572 0.619547
0.403433 0.610269 0.710246
0.650217 0.610407 0.797238
0.801694 0.647074 0.808484
0.858305 0.641062 0.789578
0.865278 0.631037 0.778363
0.20267 0.71104 0.636103
0.197833 0.704463 0.634318
0.191196 0.695583 0.631052
0.193561 0.685908 0.635004
0.418448 0.715862 0.712123
0.598077 0.740764 0.761028
0.753262 0.750195 0.817945
0.840253 0.757778 0.807492
0.872679 0.745296 0.801846
0.26389 0.779248 0.669718
0.259663 0.774411 0.667597
0.254002 0.769223 0.662303
0.253361 0.764401 0.657877
0.403265 0.790585 0.702358
0.590845 0.821561 0.760632
0.725521 0.842939 0.803021
0.829206 0.85655 0.828443
0.886717 0.849989 0.825147
0.340978 0.82063 0.706172
0.339025 0.819257 0.705028
0.33518 0.817731 0.701625
0.334356 0.815305 0.696178
0.416968 0.83064 0.718257
0.588586 0.861677 0.774304
0.714809 0.883589 0.817014
0.807691 0.899199 0.844541
0.878782 0.916732 0.843198
0.286076 0.0713664 0.492699
0.315953 0.0753338 0.496559
0.364248 0.0832837 0.501411
0.422995 0.0968032 0.505745
0.495064 0.12372 0.521065
0.557534 0.149187 0.537667
0.611917 0.173281 0.557122
0.61532 0.173739 0.556588
0.615488 0.173693 0.556664
0.246357 0.0671702 0.485344
0.287037 0.071397 0.492592
0.348333 0.0809644 0.501076
0.413993 0.0942092 0.504906
0.490364 0.12166 0.519936
0.55523 0.148302 0.536736
0.610147 0.172534 0.55642
0.617502 0.175463 0.558877
0.615869 0.174121 0.557076
0.130282 0.0631418 0.453376
0.20148 0.0637064 0.474617
0.299886 0.0733959 0.495201
0.392645 0.0890669 0.503716
0.477806 0.116793 0.517128
0.549569 0.146181 0.53547
0.606592 0.171054 0.5552
0.625376 0.181918 0.566812
0.624628 0.181308 0.566079
0.0585489 0.157687 0.466682
0.0694438 0.136782 0.46598
0.105272 0.0930343 0.462791
0.326238 0.079408 0.501976
0.457862 0.119524 0.528572
0.562387 0.166079 0.563714
0.639719 0.203861 0.596948
0.651774 0.203922 0.59321
0.643275 0.196674 0.584695
0.066743 0.441657 0.559243
0.0667582 0.433219 0.560555
0.0716106 0.419379 0.565087
0.248005 0.411994 0.674754
0.594644 0.41181 0.803677
0.768414 0.457954 0.825696
0.829541 0.475532 0.809308
0.857633 0.478523 0.799603
0.85507 0.469902 0.796628
0.119829 0.590875 0.610742
0.116472 0.584924 0.61004
0.113848 0.576318 0.6112
0.164065 0.581109 0.648569
0.41178 0.585168 0.743114
0.68687 0.589303 0.837674
0.829252 0.626352 0.853895
0.872526 0.628687 0.8365
0.876646 0.622354 0.83241
0.225834 0.706783 0.673091
0.219074 0.699733 0.670832
0.211337 0.690028 0.668315
0.213123 0.677623 0.671122
0.397635 0.697612 0.736873
0.573465 0.71606 0.788724
0.768383 0.721843 0.856458
0.859434 0.740307 0.853803
0.880034 0.738964 0.844953
0.285573 0.77734 0.697902
0.277211 0.771176 0.694087
0.271199 0.765148 0.691142
0.271962 0.756527 0.690547
0.412192 0.776745 0.739315
0.582559 0.804227 0.790143
0.7075 0.826612 0.826429
0.838804 0.839429 0.871992
0.888502 0.844404 0.866972
0.350317 0.8224 0.724224
0.345083 0.819944 0.721874
0.338247 0.816846 0.717754
0.335103 0.813382 0.713954
0.408438 0.827558 0.73669
0.576074 0.859327 0.790738
0.711223 0.88455 0.835035
0.820829 0.901656 0.869932
0.88748 0.912856 0.884077
