bundles/resolve-cinematic-luts/Phantom Luts/Ursa G2 Phntm Film LUTs - V1/Gen4/Standard (No WB Offset)/Ursa G2 Bleach Legacy Gen4.cube
TITLE "Generated by Resolve"
LUT_3D_SIZE 5
0.0252842 0.0381628 0.0269627
0.0742046 0.0457008 0.0348669
0.2598 0.0607462 0.0533761
0.535592 0.0676432 0.0699016
0.704936 0.0736553 0.0928359
0.0452888 0.120546 0.0628061
0.107073 0.1402 0.0560159
0.417395 0.12784 0.0764324
0.669245 0.148211 0.102174
0.805447 0.192432 0.135012
0.0333104 0.37084 0.13135
0.0950637 0.397955 0.076173
0.416861 0.525139 0.104234
0.812512 0.612024 0.179904
0.905333 0.654658 0.236835
0.084535 0.693812 0.328191
0.120424 0.701045 0.248508
0.494102 0.741985 0.18143
0.737362 0.812268 0.269215
0.90486 0.859388 0.312703
0.11693 0.760586 0.428794
0.12932 0.756848 0.312322
0.479912 0.775647 0.213901
0.72459 0.832105 0.291325
0.894377 0.877836 0.340398
0.0329747 0.0423743 0.0633402
0.0805524 0.0475471 0.06804
0.288731 0.062089 0.10779
0.579919 0.076524 0.147112
0.738781 0.0980392 0.210895
0.0420233 0.111635 0.0926528
0.119448 0.130648 0.117281
0.417411 0.135943 0.119814
0.68867 0.149645 0.144091
0.768582 0.161227 0.163272
0.0345617 0.362905 0.203265
0.0336156 0.375921 0.142306
0.424125 0.519081 0.139605
0.834897 0.589639 0.264363
0.910338 0.624125 0.294743
0.0784009 0.672557 0.390555
0.0773938 0.676173 0.322835
0.377142 0.727031 0.189075
0.722393 0.798703 0.264027
0.907729 0.846265 0.310369
0.120623 0.760876 0.533211
0.117098 0.760449 0.436454
0.298344 0.762463 0.247425
0.682231 0.816312 0.285618
0.881376 0.874784 0.335637
0.0567025 0.0498512 0.193103
0.132479 0.0519722 0.203708
0.328283 0.067216 0.249393
0.617044 0.0859998 0.345678
0.767208 0.109941 0.47068
0.0255436 0.0839246 0.21976
0.110918 0.0688029 0.298634
0.427619 0.0870527 0.315999
0.679911 0.0999313 0.382681
0.770855 0.115816 0.44567
0.0349279 0.349432 0.307774
0.0346838 0.3579 0.315312
0.530938 0.517281 0.494667
0.8103 0.566064 0.540612
0.912337 0.603265 0.576379
0.0777905 0.649882 0.50248
0.0739147 0.644907 0.472847
0.343236 0.709346 0.497459
0.740627 0.784665 0.553674
0.933211 0.823087 0.636545
0.140307 0.765438 0.632914
0.132189 0.763134 0.599649
0.282841 0.770687 0.52726
0.67332 0.82739 0.572427
0.880095 0.886732 0.604013
0.107012 0.0585489 0.364157
0.211215 0.0623331 0.412528
0.420035 0.0723735 0.453239
0.661311 0.0982376 0.538903
0.786511 0.124743 0.626352
0.0200198 0.0596475 0.378622
0.17528 0.0647135 0.509636
0.482643 0.0756542 0.529747
0.708125 0.107637 0.581445
0.786999 0.125307 0.626657
0.0110933 0.311086 0.503395
0.01178 0.307317 0.532952
0.586557 0.446265 0.74168
0.850752 0.536706 0.751369
0.93225 0.566522 0.772213
0.0806897 0.640452 0.589471
0.0782025 0.633692 0.583078
0.399603 0.706722 0.666926
0.79736 0.776608 0.752392
0.934691 0.79826 0.778576
0.177584 0.76762 0.692729
0.15993 0.760586 0.674037
0.392782 0.786465 0.689937
0.75172 0.872679 0.775174
0.908812 0.906889 0.782879
0.177829 0.0671244 0.549844
0.295537 0.0725261 0.594156
0.523735 0.0811627 0.618814
0.723217 0.115267 0.672862
0.810361 0.139315 0.728969
0.0665141 0.063508 0.567605
0.261967 0.0762493 0.645991
0.557061 0.087068 0.666743
0.753521 0.123339 0.700847
0.812329 0.14136 0.730678
0.0146792 0.312886 0.621546
0.0166781 0.305455 0.647242
0.650294 0.419745 0.859251
0.900343 0.527962 0.863996
0.946014 0.562448 0.86508
0.0726635 0.632273 0.674311
0.0634165 0.616724 0.675776
0.391974 0.677882 0.761883
0.837964 0.754376 0.862333
0.941817 0.78294 0.86717
0.183902 0.765911 0.720806
0.168444 0.758618 0.71284
0.391211 0.781674 0.737423
0.777783 0.878523 0.837125
0.929778 0.906783 0.868284
