bundles/resolve-cinematic-luts/Phantom Luts/Ursa G2 Phntm Film LUTs - V1/Gen4/Standard (No WB Offset)/Ursa G2 Bleach Legacy Gen4.cube
TITLE "Generated by Resolve"
LUT_3D_SIZE 9
0.0252842 0.0381628 0.0269627
0.0331731 0.0396582 0.028809
0.0742046 0.0457008 0.0348669
0.145678 0.0513161 0.0441444
0.2598 0.0607462 0.0533761
0.389029 0.0667582 0.0628519
0.535592 0.0676432 0.0699016
0.65098 0.0718547 0.0847791
0.704936 0.0736553 0.0928359
0.0297246 0.0484779 0.0332189
0.0390326 0.053727 0.0348821
0.0912795 0.0593576 0.0400549
0.187839 0.0590524 0.0464942
0.305196 0.0628367 0.0505531
0.442054 0.062974 0.0538949
0.569451 0.0635233 0.0592966
0.665125 0.0661326 0.0674601
0.700633 0.0665141 0.0674296
0.0452888 0.120546 0.0628061
0.0516213 0.129259 0.0562295
0.107073 0.1402 0.0560159
0.257221 0.136736 0.0623026
0.417395 0.12784 0.0764324
0.560357 0.134447 0.0869764
0.669245 0.148211 0.102174
0.762081 0.16875 0.119524
0.805447 0.192432 0.135012
0.0506447 0.23473 0.0989242
0.0618296 0.251423 0.0863508
0.127459 0.260853 0.0563668
0.231479 0.300298 0.0753796
0.505089 0.320073 0.0666819
0.673808 0.342016 0.131411
0.808179 0.36614 0.199542
0.892317 0.408606 0.238819
0.910613 0.446525 0.249195
0.0333104 0.37084 0.13135
0.0374609 0.384604 0.112383
0.0950637 0.397955 0.076173
0.224735 0.44538 0.0574655
0.416861 0.525139 0.104234
0.66746 0.575967 0.120058
0.812512 0.612024 0.179904
0.889296 0.633753 0.226703
0.905333 0.654658 0.236835
0.0238041 0.521798 0.187427
0.0259861 0.533471 0.169131
0.07953 0.549554 0.126253
0.226413 0.58999 0.0927596
0.455756 0.651972 0.151522
0.615015 0.691142 0.186419
0.78291 0.730297 0.209339
0.887709 0.757198 0.241856
0.915114 0.775082 0.262684
0.084535 0.693812 0.328191
0.0867628 0.698604 0.306844
0.120424 0.701045 0.248508
0.23357 0.705638 0.1888
0.494102 0.741985 0.18143
0.622644 0.770932 0.230228
0.737362 0.812268 0.269215
0.861418 0.845609 0.296284
0.90486 0.859388 0.312703
0.115587 0.758328 0.410193
0.115221 0.757977 0.375921
0.127687 0.755901 0.310994
0.21825 0.753491 0.249668
0.476982 0.775586 0.208804
0.626642 0.79826 0.253574
0.724651 0.832151 0.290272
0.839902 0.867063 0.317952
0.896056 0.877943 0.340444
0.11693 0.760586 0.428794
0.116411 0.759869 0.384512
0.12932 0.756848 0.312322
0.220768 0.756313 0.254108
0.479912 0.775647 0.213901
0.631296 0.7991 0.258427
0.72459 0.832105 0.291325
0.832792 0.865599 0.316899
0.894377 0.877836 0.340398
0.025742 0.0384833 0.0305333
0.0332799 0.040177 0.0343328
0.0749371 0.0468147 0.0451057
0.154864 0.0528573 0.0562142
0.272908 0.0610361 0.0697795
0.410346 0.0675212 0.0831159
0.558541 0.074342 0.0964065
0.676188 0.0877089 0.120653
0.722972 0.0945449 0.137118
0.0285954 0.0456092 0.0335851
0.038056 0.0513924 0.0394141
0.100114 0.0561227 0.0456245
0.204868 0.060914 0.0523384
0.323995 0.0666514 0.0600748
0.469215 0.0673533 0.0665904
0.593957 0.0702525 0.0778363
0.683009 0.0740215 0.0908217
0.707073 0.0758984 0.0953994
0.0444343 0.116182 0.0751049
0.0456703 0.125521 0.0675669
0.107378 0.13817 0.0607767
0.266636 0.127687 0.0685893
0.41854 0.122545 0.0773327
0.561288 0.124788 0.0856031
0.669322 0.13312 0.0959029
0.753017 0.146136 0.106859
0.782452 0.159487 0.116197
0.049424 0.231373 0.116381
0.0499733 0.246067 0.104921
0.103014 0.258762 0.0613107
0.231754 0.300175 0.0762188
0.519982 0.31368 0.0735637
0.681895 0.329213 0.136248
0.813916 0.352438 0.19855
0.893278 0.39469 0.236072
0.909438 0.426627 0.246937
0.0337835 0.36968 0.15581
0.0314031 0.38117 0.136904
0.0784772 0.39649 0.0844434
0.214466 0.442405 0.0553902
0.418433 0.52491 0.105364
0.677501 0.575174 0.122087
0.820432 0.608606 0.185428
0.89305 0.626719 0.229053
0.905074 0.645014 0.237049
0.0233463 0.519158 0.212573
0.0253605 0.529854 0.197086
0.0502327 0.540902 0.137865
0.198596 0.58265 0.0960403
0.445075 0.649943 0.148531
0.613428 0.68896 0.186465
0.78854 0.727962 0.208423
0.890486 0.752102 0.241001
0.915343 0.768093 0.260548
0.0826429 0.68716 0.351415
0.0838941 0.691768 0.330327
0.0907607 0.694667 0.271748
0.206592 0.700725 0.198688
0.47512 0.739666 0.177478
0.615991 0.7673 0.228031
0.733501 0.809079 0.268223
0.861494 0.841749 0.294102
0.905364 0.855772 0.308858
0.114336 0.755825 0.44445
0.113817 0.755673 0.408637
0.114168 0.754437 0.342443
0.18999 0.751446 0.262608
0.442725 0.773693 0.205386
0.617182 0.795102 0.248676
0.716518 0.828519 0.288624
0.833066 0.865583 0.31783
0.894896 0.877302 0.339376
0.117128 0.760266 0.475486
0.11696 0.76054 0.431754
0.117235 0.759396 0.355383
0.186999 0.755642 0.272358
0.428687 0.773648 0.214893
0.616739 0.795132 0.252476
0.710582 0.827008 0.288334
0.819791 0.862272 0.316976
0.890288 0.876951 0.33843
0.0329747 0.0423743 0.0633402
0.0463722 0.044007 0.0598154
0.0805524 0.0475471 0.06804
0.166079 0.0535744 0.0905165
0.288731 0.062089 0.10779
0.433982 0.0676127 0.125429
0.579919 0.076524 0.147112
0.695705 0.0908827 0.182254
0.738781 0.0980392 0.210895
0.0260166 0.0469673 0.0600748
0.0381781 0.0444343 0.0783246
0.104662 0.0506294 0.0852216
0.215534 0.0574655 0.0995804
0.344381 0.0656901 0.111299
0.501015 0.0701305 0.123125
0.627161 0.0819257 0.145129
0.715434 0.0938888 0.169116
0.733532 0.0968795 0.182742
0.0420233 0.111635 0.0926528
0.0424353 0.117937 0.0984054
0.119448 0.130648 0.117281
0.25539 0.134081 0.121889
0.417411 0.135943 0.119814
0.568246 0.139116 0.125261
0.68867 0.149645 0.144091
0.760525 0.154864 0.15697
0.768582 0.161227 0.163272
0.0467689 0.224262 0.149264
0.047013 0.235538 0.148348
0.0778668 0.255299 0.13164
0.253254 0.300908 0.141436
0.529 0.293339 0.15816
0.666835 0.318318 0.194354
0.802319 0.35906 0.246326
0.893767 0.391943 0.283223
0.90985 0.414893 0.295369
0.0345617 0.362905 0.203265
0.032517 0.373159 0.196628
0.0336156 0.375921 0.142306
0.15761 0.428641 0.098497
0.424125 0.519081 0.139605
0.700999 0.563012 0.192279
0.834897 0.589639 0.264363
0.901152 0.607111 0.295964
0.910338 0.624125 0.294743
0.0232242 0.509285 0.255589
0.024033 0.518471 0.247608
0.0237278 0.519539 0.196658
0.103059 0.55021 0.122057
0.396338 0.638148 0.155779
0.605127 0.678904 0.186175
0.800671 0.71722 0.221607
0.900145 0.736797 0.280766
0.918547 0.750378 0.29395
0.0784009 0.672557 0.390555
0.0788128 0.676249 0.374334
0.0773938 0.676173 0.322835
0.125002 0.68661 0.235203
0.377142 0.727031 0.189075
0.592844 0.755673 0.224765
0.722393 0.798703 0.264027
0.863157 0.832502 0.289784
0.907729 0.846265 0.310369
0.114199 0.751003 0.496086
0.112383 0.750118 0.46772
0.110765 0.749142 0.404089
0.13167 0.749203 0.305837
0.325154 0.762387 0.231022
0.587198 0.786999 0.244755
0.697368 0.820508 0.285695
0.8177 0.860594 0.318273
0.892851 0.876143 0.339254
0.120623 0.760876 0.533211
0.118151 0.760388 0.503441
0.117098 0.760449 0.436454
0.125933 0.757916 0.325048
0.298344 0.762463 0.247425
0.569589 0.784787 0.25272
0.682231 0.816312 0.285618
0.79263 0.854704 0.317128
0.881376 0.874784 0.335637
0.0400244 0.0455329 0.115434
0.062211 0.0466163 0.111711
0.100175 0.0495003 0.11632
0.18085 0.0549935 0.137591
0.307073 0.0639353 0.172534
0.459327 0.0695659 0.207538
0.601862 0.081178 0.237751
0.716426 0.0971847 0.284443
0.757626 0.105089 0.327794
0.0221714 0.0471046 0.120287
0.0519417 0.0475624 0.151614
0.123491 0.051133 0.161089
0.234318 0.0593423 0.177111
0.367895 0.0677043 0.202838
0.526619 0.0735027 0.230793
0.650843 0.0877394 0.257282
0.739147 0.100893 0.293568
0.756649 0.104707 0.318349
0.0306096 0.0987106 0.144244
0.0306249 0.0996262 0.161425
0.114504 0.101457 0.20795
0.265293 0.113939 0.21442
0.426566 0.110948 0.223835
0.574868 0.112291 0.226978
0.694209 0.12256 0.24686
0.763363 0.129656 0.268147
0.770825 0.13286 0.284215
0.04477 0.216144 0.188724
0.0442359 0.227131 0.199054
0.0817884 0.24564 0.219791
0.286015 0.290074 0.275181
0.513237 0.290715 0.275013
0.666636 0.322652 0.301793
0.809796 0.378744 0.352636
0.893294 0.418769 0.387015
0.902541 0.437736 0.404105
0.0347295 0.358175 0.254047
0.0332647 0.367239 0.255482
0.0350042 0.367544 0.237308
0.175051 0.446189 0.262837
0.479988 0.53109 0.29984
0.700771 0.55671 0.358297
0.816953 0.585779 0.404196
0.896071 0.604883 0.443061
0.91841 0.618021 0.466575
0.0252689 0.503914 0.307485
0.026154 0.511681 0.3066
0.0247349 0.508537 0.279576
0.0689555 0.535866 0.242405
0.364904 0.638697 0.305364
0.621927 0.676966 0.333654
0.820157 0.704524 0.416358
0.905058 0.721202 0.490211
0.927825 0.736965 0.511345
0.0774701 0.660365 0.447425
0.0773938 0.662196 0.437186
0.0733501 0.657786 0.397253
0.0808423 0.662593 0.322454
0.284947 0.704662 0.305486
0.553597 0.74052 0.327932
0.719448 0.786557 0.375509
0.87332 0.822309 0.441489
0.920043 0.833448 0.50312
0.116457 0.745083 0.546975
0.114092 0.742931 0.529702
0.10898 0.739803 0.489235
0.113649 0.741314 0.400351
0.255039 0.749599 0.336828
0.516167 0.774792 0.347601
0.674449 0.808057 0.389761
0.804822 0.852872 0.432547
0.894713 0.874449 0.479698
0.12987 0.763561 0.588556
0.126284 0.762676 0.570169
0.12079 0.760876 0.533104
0.123857 0.760723 0.443381
0.241856 0.762768 0.366873
0.496071 0.781704 0.374777
0.654658 0.808454 0.40618
0.772045 0.847547 0.442237
0.873137 0.875517 0.458259
0.0567025 0.0498512 0.193103
0.0812238 0.0503243 0.193103
0.132479 0.0519722 0.203708
0.214557 0.0576486 0.220066
0.328283 0.067216 0.249393
0.486671 0.0733196 0.284504
0.617044 0.0859998 0.345678
0.730404 0.102632 0.417838
0.767208 0.109941 0.47068
0.028687 0.0493019 0.212314
0.073106 0.0528878 0.249287
0.157549 0.0551766 0.266545
0.265293 0.0623026 0.274815
0.396246 0.0713512 0.293919
0.548012 0.0788891 0.326253
0.665309 0.0931716 0.390494
0.752529 0.106737 0.445045
0.767697 0.110384 0.476814
0.0255436 0.0839246 0.21976
0.0245212 0.0811322 0.238788
0.110918 0.0688029 0.298634
0.271763 0.0820172 0.314015
0.427619 0.0870527 0.315999
0.567483 0.0890211 0.335348
0.679911 0.0999313 0.382681
0.755978 0.108858 0.411292
0.770855 0.115816 0.44567
0.0285954 0.191531 0.26775
0.0263676 0.19588 0.283696
0.0494698 0.199222 0.316106
0.292653 0.23592 0.439658
0.5299 0.255329 0.443809
0.67454 0.277989 0.483879
0.815366 0.32488 0.516915
0.898009 0.361288 0.548928
0.908904 0.378408 0.572885
0.0349279 0.349432 0.307774
0.0339818 0.358846 0.316197
0.0346838 0.3579 0.315312
0.193668 0.439063 0.394186
0.530938 0.517281 0.494667
0.689967 0.537591 0.517067
0.8103 0.566064 0.540612
0.892042 0.589944 0.562127
0.912337 0.603265 0.576379
0.0262303 0.497688 0.362753
0.0272374 0.504829 0.367224
0.0266728 0.501411 0.352819
0.128344 0.554574 0.401679
0.450248 0.64654 0.518578
0.652567 0.677043 0.528328
0.81117 0.691035 0.575799
0.896513 0.711543 0.599908
0.930938 0.728756 0.615061
0.0777905 0.649882 0.50248
0.0778515 0.650904 0.497612
0.0739147 0.644907 0.472847
0.0958572 0.646601 0.437354
0.343236 0.709346 0.497459
0.579934 0.743984 0.520287
0.740627 0.784665 0.553674
0.892226 0.809979 0.603433
0.933211 0.823087 0.636545
0.120043 0.738216 0.586511
0.117647 0.736202 0.57615
0.112184 0.731426 0.553323
0.112978 0.72726 0.510369
0.29929 0.750973 0.499596
0.530449 0.778912 0.51841
0.695354 0.815854 0.555688
0.815076 0.8551 0.580972
0.909194 0.876936 0.614221
0.140307 0.765438 0.632914
0.137148 0.764584 0.621149
0.132189 0.763134 0.599649
0.130404 0.760861 0.557137
0.282841 0.770687 0.52726
0.510872 0.795041 0.541054
0.67332 0.82739 0.572427
0.788739 0.861448 0.598611
0.880095 0.886732 0.604013
0.0786908 0.0542 0.276951
0.108873 0.0552529 0.286213
0.169131 0.0573739 0.303426
0.255131 0.0626535 0.318532
0.365484 0.0705272 0.337072
0.514382 0.0771038 0.376196
0.638819 0.0916152 0.446815
0.744121 0.108171 0.513405
0.776074 0.116716 0.563317
0.0547951 0.0546578 0.30959
0.102266 0.0580453 0.348013
0.196796 0.0609445 0.375814
0.304524 0.0670024 0.385641
0.437842 0.0732738 0.399359
0.569955 0.0834516 0.440391
0.684947 0.099382 0.494987
0.764019 0.113039 0.54078
0.776791 0.117601 0.568032
0.0207675 0.0641947 0.294697
0.0199741 0.0567178 0.311101
0.134691 0.0602426 0.394171
0.286122 0.0657511 0.414374
0.438102 0.0733959 0.418219
0.576425 0.0850538 0.448264
0.690517 0.101472 0.49308
0.764767 0.112856 0.533288
0.775998 0.11693 0.559472
0.0233616 0.173083 0.349218
0.022797 0.176181 0.36878
0.0353094 0.168048 0.406027
0.295232 0.182101 0.554147
0.54963 0.209888 0.563592
0.681971 0.247349 0.588861
0.816983 0.29189 0.630121
0.893904 0.315587 0.668162
0.90724 0.335088 0.689723
0.0194553 0.327092 0.401221
0.0171054 0.332616 0.416724
0.0157168 0.323583 0.43299
0.161486 0.37818 0.525719
0.554559 0.476081 0.637156
0.709484 0.517983 0.643702
0.82707 0.540795 0.654215
0.903532 0.563104 0.65861
0.920913 0.576547 0.669306
0.026566 0.489967 0.4318
0.0278172 0.497368 0.440192
0.0278325 0.494224 0.436484
0.107698 0.535454 0.48571
0.471199 0.639963 0.608804
0.681987 0.665904 0.644968
0.801373 0.677089 0.659281
0.893751 0.694728 0.674601
0.929305 0.709194 0.688014
0.0785992 0.645502 0.54403
0.0786297 0.64593 0.542458
0.0751965 0.638498 0.528542
0.115053 0.642298 0.525887
0.421958 0.714794 0.617914
0.64596 0.75581 0.660288
0.771664 0.786313 0.665797
0.895842 0.798566 0.69778
0.934005 0.814664 0.709819
0.12578 0.73312 0.622797
0.122759 0.730175 0.614969
0.117327 0.724269 0.599313
0.133257 0.721172 0.577737
0.371679 0.760739 0.619883
0.597772 0.796033 0.650111
0.726284 0.832609 0.670848
0.841413 0.863981 0.681102
0.926284 0.877989 0.71252
0.159915 0.768292 0.670954
0.152758 0.765927 0.661097
0.144686 0.76257 0.643626
0.149371 0.759579 0.617212
0.346822 0.78233 0.635203
0.568505 0.812802 0.656031
0.702861 0.850111 0.679713
0.818326 0.879866 0.701457
0.890425 0.897704 0.69987
0.107012 0.0585489 0.364157
0.144198 0.0602274 0.385168
0.211215 0.0623331 0.412528
0.302113 0.0670939 0.434852
0.420035 0.0723735 0.453239
0.54522 0.0809949 0.483116
0.661311 0.0982376 0.538903
0.762753 0.116945 0.592508
0.786511 0.124743 0.626352
0.0880903 0.0592813 0.417411
0.13933 0.0625467 0.463172
0.239414 0.0656291 0.496132
0.34905 0.070161 0.507042
0.486046 0.0755932 0.513497
0.595728 0.0885328 0.535912
0.704875 0.106752 0.57937
0.778912 0.12192 0.615595
0.788815 0.126177 0.63592
0.0200198 0.0596475 0.378622
0.0373388 0.0571298 0.41561
0.17528 0.0647135 0.509636
0.326787 0.069749 0.5308
0.482643 0.0756542 0.529747
0.599771 0.0895399 0.547036
0.708125 0.107637 0.581445
0.778607 0.121736 0.611704
0.786999 0.125307 0.626657
0.0221103 0.156283 0.432853
0.0218509 0.157534 0.455146
0.0362097 0.141802 0.49929
0.303319 0.141955 0.618479
0.554452 0.164355 0.63386
0.686397 0.207187 0.654398
0.812696 0.252094 0.692622
0.887953 0.288853 0.721874
0.901549 0.308186 0.744533
0.0110933 0.311086 0.503395
0.0107729 0.31667 0.517906
0.01178 0.307317 0.532952
0.138338 0.352132 0.60737
0.586557 0.446265 0.74168
0.751049 0.50692 0.746212
0.850752 0.536706 0.751369
0.916457 0.554574 0.756161
0.93225 0.566522 0.772213
0.0177462 0.478279 0.509453
0.0179294 0.483528 0.518486
0.0145571 0.474449 0.523018
0.0860761 0.498238 0.573404
0.438804 0.610132 0.680858
0.697398 0.644663 0.738521
0.813336 0.665644 0.741665
0.90074 0.680491 0.747738
0.93373 0.692897 0.759045
0.0806897 0.640452 0.589471
0.0807355 0.640558 0.589731
0.0782025 0.633692 0.583078
0.106462 0.635355 0.585443
0.399603 0.706722 0.666926
0.66006 0.753979 0.723201
0.79736 0.776608 0.752392
0.891768 0.786801 0.76611
0.934691 0.79826 0.778576
0.126757 0.730755 0.651255
0.124483 0.727245 0.64535
0.12079 0.722026 0.634867
0.141054 0.717891 0.623468
0.398093 0.760967 0.674968
0.642115 0.808179 0.72929
0.77789 0.849439 0.771878
0.870298 0.868879 0.767376
0.932052 0.874464 0.790936
0.177584 0.76762 0.692729
0.168307 0.764599 0.685374
0.15993 0.760586 0.674037
0.177371 0.756603 0.659281
0.392782 0.786465 0.689937
0.618769 0.828763 0.734691
0.75172 0.872679 0.775174
0.849943 0.895186 0.790799
0.908812 0.906889 0.782879
0.138705 0.0625315 0.463798
0.181918 0.0641184 0.492378
0.25391 0.0669261 0.518761
0.348028 0.0709087 0.535805
0.475792 0.0755322 0.545953
0.583307 0.0879225 0.570016
0.688365 0.105425 0.606455
0.783871 0.126635 0.659129
0.801678 0.133364 0.688441
0.127245 0.0640574 0.521828
0.180835 0.0674601 0.553948
0.279286 0.071107 0.577859
0.397635 0.073579 0.586862
0.528237 0.0809033 0.592447
0.626795 0.0958877 0.613031
0.727855 0.11429 0.642161
0.79704 0.131044 0.679042
0.80354 0.134493 0.695979
0.0315709 0.0582132 0.477989
0.0726787 0.0618448 0.525826
0.219043 0.0706645 0.589136
0.368383 0.0742809 0.60618
0.522179 0.0805524 0.606256
0.628031 0.0964523 0.622522
0.730449 0.115129 0.647776
0.79527 0.130724 0.676799
0.802136 0.133944 0.689601
0.0210727 0.13991 0.503853
0.0210727 0.140291 0.522957
0.0498512 0.122271 0.571649
0.317327 0.117998 0.665354
0.55697 0.133806 0.684413
0.692943 0.176043 0.709361
0.811032 0.219608 0.736263
0.879927 0.25449 0.766003
0.894636 0.278233 0.785107
0.0129397 0.309773 0.570153
0.0129549 0.315297 0.582803
0.0140688 0.305013 0.59794
0.15317 0.344381 0.680858
0.6168 0.427588 0.818708
0.78732 0.495109 0.83151
0.877943 0.533684 0.822751
0.928389 0.55375 0.827695
0.939162 0.565698 0.829389
0.00471504 0.467948 0.57528
0.00500496 0.471778 0.583764
0.00491341 0.461707 0.591577
0.0826581 0.490166 0.642191
0.401755 0.596902 0.741009
0.717769 0.634821 0.818082
0.849104 0.665843 0.819608
0.914809 0.681163 0.826429
0.942962 0.692134 0.833265
0.0784466 0.637293 0.636545
0.0771038 0.635294 0.637385
0.0708171 0.625071 0.635111
0.104402 0.623087 0.648905
0.39501 0.687587 0.725933
0.650553 0.733089 0.773495
0.814404 0.760754 0.819654
0.896025 0.776577 0.821073
0.935531 0.786679 0.824353
0.129122 0.727825 0.679347
0.126207 0.72433 0.675441
0.123781 0.718944 0.670192
0.142306 0.71545 0.666133
0.380011 0.754147 0.709529
0.631418 0.801846 0.762448
0.790265 0.849439 0.815076
0.887755 0.863828 0.830488
0.930968 0.868833 0.837079
0.181201 0.766888 0.707897
0.171054 0.763867 0.702358
0.164721 0.759701 0.69424
0.183017 0.755856 0.6851
0.400305 0.785229 0.717769
0.633219 0.831495 0.767758
0.784451 0.881224 0.822629
0.879438 0.9019 0.846555
0.923323 0.909224 0.83856
0.177829 0.0671244 0.549844
0.224979 0.0697185 0.574289
0.295537 0.0725261 0.594156
0.39794 0.0743877 0.607706
0.523735 0.0811627 0.618814
0.622751 0.0962692 0.642802
0.723217 0.115267 0.672862
0.798856 0.133822 0.708614
0.810361 0.139315 0.728969
0.172564 0.0705272 0.598932
0.225544 0.073579 0.620951
0.31957 0.0766308 0.64033
0.445426 0.0770581 0.647272
0.565988 0.0881208 0.656794
0.661067 0.103914 0.675303
0.754681 0.123278 0.698375
0.808667 0.137896 0.721553
0.811475 0.1402 0.733181
0.0665141 0.063508 0.567605
0.120562 0.0681315 0.602228
0.261967 0.0762493 0.645991
0.413794 0.0776074 0.66038
0.557061 0.087068 0.666743
0.65922 0.103822 0.681132
0.753521 0.123339 0.700847
0.80737 0.138567 0.721538
0.812329 0.14136 0.730678
0.0260624 0.127703 0.565408
0.0303349 0.127687 0.584939
0.0778363 0.107225 0.622614
0.344381 0.104555 0.694316
0.560311 0.113436 0.709773
0.695705 0.150027 0.733913
0.809033 0.197498 0.762554
0.87303 0.232776 0.789563
0.88719 0.25568 0.807233
0.0146792 0.312886 0.621546
0.0149081 0.316594 0.632471
0.0166781 0.305455 0.647242
0.196933 0.346197 0.739116
0.650294 0.419745 0.859251
0.815045 0.485313 0.874525
0.900343 0.527962 0.863996
0.937896 0.55021 0.86305
0.946014 0.562448 0.86508
0.00715648 0.47332 0.623453
0.00781262 0.475792 0.63032
0.00794995 0.466163 0.63772
0.0899062 0.497337 0.685695
0.418402 0.591745 0.786084
0.742504 0.631098 0.861158
0.881697 0.664668 0.867338
0.928878 0.682643 0.866728
0.949432 0.693568 0.870512
0.0726635 0.632273 0.674311
0.0702373 0.628931 0.675715
0.0634165 0.616724 0.675776
0.119081 0.619348 0.696559
0.391974 0.677882 0.761883
0.633677 0.722133 0.805585
0.837964 0.754376 0.862333
0.913039 0.773342 0.865797
0.941817 0.78294 0.86717
0.134096 0.72694 0.703716
0.130159 0.722454 0.701411
0.125277 0.715404 0.698909
0.149828 0.710414 0.702464
0.387381 0.746181 0.746365
0.635218 0.791318 0.796399
0.786297 0.83682 0.839292
0.894163 0.852216 0.861433
0.929885 0.862333 0.858183
0.183902 0.765911 0.720806
0.173877 0.762631 0.717479
0.168444 0.758618 0.71284
0.186481 0.754696 0.708598
0.391211 0.781674 0.737423
0.622492 0.825574 0.783551
0.777783 0.878523 0.837125
0.88687 0.901076 0.864713
0.929778 0.906783 0.868284
