bundles/resolve-cinematic-luts/Phantom Luts/Ursa G2 Phntm Film LUTs - V1/Gen4/Standard (No WB Offset)/Ursa G2 Eastman Legacy Gen4.cube
TITLE "Generated by Resolve"
LUT_3D_SIZE 9
0.0390021 0.0390021 0.0390021
0.0607004 0.0390021 0.041886
0.136065 0.0390021 0.0480812
0.254948 0.0446326 0.0433204
0.357168 0.0503395 0.0422065
0.439078 0.0656138 0.0457465
0.509972 0.0860304 0.0520333
0.533669 0.0938125 0.0563211
0.509544 0.103929 0.0583505
0.0557717 0.0599374 0.0557259
0.0640421 0.0624399 0.0541543
0.12932 0.0605783 0.0588693
0.243717 0.0590829 0.0476844
0.344991 0.0593118 0.0395972
0.423774 0.0682536 0.0412451
0.493416 0.0879988 0.0462043
0.5205 0.0984665 0.0479438
0.496437 0.106126 0.045594
0.0771649 0.127016 0.0843214
0.0755016 0.128847 0.0755474
0.132692 0.145434 0.078584
0.308217 0.126741 0.0833143
0.42974 0.132906 0.0808576
0.521096 0.155795 0.0882734
0.604746 0.179034 0.102724
0.638285 0.190112 0.111177
0.617975 0.19266 0.109148
0.108202 0.274846 0.139788
0.11136 0.287358 0.132403
0.166323 0.303151 0.118227
0.318944 0.356695 0.133913
0.529717 0.344259 0.121157
0.643214 0.306706 0.142733
0.731212 0.305501 0.154925
0.760601 0.320958 0.165118
0.747112 0.323934 0.165423
0.117845 0.450782 0.228031
0.110445 0.44921 0.206668
0.150118 0.452598 0.165209
0.30692 0.494865 0.142748
0.485863 0.545708 0.162142
0.663874 0.532036 0.173236
0.760922 0.516625 0.18851
0.793256 0.514199 0.202701
0.787976 0.515908 0.204425
0.146441 0.596063 0.336568
0.137179 0.588769 0.322316
0.150683 0.576593 0.264927
0.258274 0.577035 0.178454
0.464942 0.656779 0.212879
0.605402 0.696941 0.235065
0.760311 0.69366 0.260685
0.829725 0.692592 0.270954
0.829618 0.689265 0.274662
0.197726 0.708461 0.433265
0.189105 0.697475 0.413123
0.18175 0.677119 0.356939
0.228428 0.653742 0.27097
0.458671 0.717144 0.245655
0.592264 0.771527 0.291051
0.716106 0.802762 0.314946
0.828794 0.798749 0.338796
0.836332 0.796536 0.348669
0.221195 0.743465 0.480858
0.21268 0.732891 0.454612
0.194171 0.708812 0.388602
0.210681 0.686 0.323903
0.379522 0.700359 0.240513
0.56762 0.776608 0.29395
0.68571 0.813291 0.317479
0.813764 0.819318 0.342428
0.832746 0.822095 0.379187
0.225223 0.747738 0.49218
0.217456 0.738094 0.470695
0.199802 0.71722 0.413901
0.204593 0.689448 0.337804
0.331014 0.686717 0.24184
0.544198 0.767163 0.287037
0.663828 0.808118 0.317082
0.792248 0.822126 0.343481
0.831083 0.822309 0.380163
0.0411994 0.0390021 0.049424
0.0634318 0.0390021 0.0551919
0.133318 0.0417945 0.0720378
0.251926 0.0390021 0.0619516
0.351965 0.0390021 0.0512703
0.436896 0.0604105 0.0568246
0.516136 0.0838788 0.0767681
0.539284 0.088716 0.0877852
0.522133 0.0890211 0.0908675
0.0504768 0.0515755 0.0555428
0.0611887 0.0536965 0.0605631
0.130831 0.0561074 0.0653239
0.246845 0.0526131 0.049958
0.342077 0.0565957 0.0424659
0.42356 0.072755 0.0453803
0.492393 0.0940261 0.0518196
0.513634 0.101015 0.0559091
0.501518 0.107698 0.0591745
0.0722667 0.118837 0.0914015
0.0675669 0.120897 0.0853742
0.128878 0.137896 0.0825055
0.301045 0.115145 0.0822309
0.410605 0.122683 0.0734264
0.498878 0.14258 0.0776379
0.57554 0.163973 0.0902724
0.596139 0.170153 0.0936446
0.574289 0.171221 0.0897383
0.10454 0.264271 0.155459
0.0939956 0.268711 0.142245
0.138918 0.29015 0.119066
0.311498 0.348196 0.133288
0.530312 0.325643 0.12105
0.643183 0.289006 0.140276
0.727794 0.293339 0.150912
0.753368 0.307561 0.158511
0.739803 0.310658 0.158785
0.12546 0.454185 0.258991
0.111711 0.448737 0.240085
0.132036 0.4477 0.178866
0.289097 0.485161 0.138216
0.482689 0.539666 0.16051
0.666896 0.52224 0.169604
0.761028 0.500008 0.187625
0.790188 0.497826 0.199924
0.784268 0.497169 0.200763
0.151705 0.599557 0.358831
0.143282 0.592416 0.347662
0.134905 0.576104 0.292226
0.227436 0.569482 0.187182
0.45362 0.649287 0.208026
0.600504 0.689418 0.230228
0.760922 0.682704 0.254536
0.828809 0.679774 0.263416
0.826993 0.675242 0.266896
0.202136 0.712459 0.451255
0.194415 0.702525 0.433402
0.17937 0.682658 0.384665
0.208606 0.652949 0.288289
0.43801 0.706386 0.237095
0.582177 0.765484 0.285878
0.709529 0.79765 0.31075
0.828656 0.793332 0.335119
0.836088 0.790524 0.344167
0.228946 0.75314 0.500999
0.221302 0.743755 0.479133
0.204608 0.722957 0.420859
0.202823 0.690761 0.340352
0.346548 0.69044 0.238514
0.555581 0.772107 0.28925
0.677333 0.810895 0.315435
0.809873 0.821332 0.340841
0.832853 0.82211 0.379294
0.232395 0.757046 0.512703
0.225879 0.748379 0.493614
0.209903 0.729458 0.441093
0.19855 0.694896 0.353872
0.293797 0.680201 0.249104
0.528344 0.760952 0.281071
0.651621 0.805035 0.314733
0.783154 0.822095 0.341192
0.831357 0.822232 0.379477
0.0443427 0.0390021 0.0899519
0.0820935 0.0392767 0.0944533
0.137377 0.0444648 0.098146
0.252995 0.0393378 0.104601
0.35555 0.0390021 0.10927
0.446082 0.0460365 0.12668
0.530404 0.0666667 0.154711
0.552544 0.0764782 0.175311
0.538628 0.0842298 0.187457
0.0420844 0.0489052 0.0789349
0.0540322 0.0430304 0.0980545
0.129809 0.0494392 0.0983139
0.247425 0.0394141 0.0919509
0.354223 0.0390021 0.0778058
0.443 0.0413214 0.0806134
0.522698 0.0602426 0.10544
0.543557 0.068986 0.126055
0.530129 0.0754406 0.137148
0.0675212 0.114595 0.101106
0.0620432 0.114061 0.102373
0.136461 0.130144 0.130251
0.293599 0.11931 0.129229
0.422538 0.126238 0.120912
0.526726 0.138979 0.125887
0.599664 0.144717 0.132448
0.593698 0.137392 0.121126
0.569787 0.135012 0.114321
0.103197 0.259968 0.177752
0.0949874 0.259632 0.171954
0.11696 0.277607 0.165301
0.318334 0.343954 0.183581
0.528847 0.299107 0.186633
0.63624 0.284993 0.177554
0.725475 0.290272 0.176394
0.746944 0.292027 0.172641
0.729931 0.292317 0.169757
0.132723 0.458793 0.29601
0.123476 0.456016 0.291188
0.112169 0.442222 0.243061
0.217655 0.462531 0.163607
0.47808 0.530816 0.174548
0.674556 0.49897 0.186023
0.761288 0.461051 0.209186
0.788113 0.461738 0.209964
0.780911 0.460029 0.208499
0.157717 0.603311 0.389715
0.152346 0.598413 0.385657
0.140902 0.583825 0.347982
0.164462 0.561959 0.236515
0.424414 0.63299 0.20235
0.594141 0.677821 0.225284
0.765316 0.663478 0.249104
0.825132 0.65568 0.258976
0.821561 0.651209 0.258
0.207416 0.716884 0.476799
0.202121 0.709163 0.467475
0.18909 0.692302 0.42565
0.179721 0.657526 0.33022
0.370047 0.676585 0.230121
0.560708 0.753613 0.280552
0.69987 0.789334 0.304463
0.828244 0.782406 0.329595
0.835554 0.779583 0.338018
0.239109 0.766567 0.530617
0.234852 0.760052 0.519814
0.220584 0.743633 0.468772
0.195651 0.706096 0.381643
0.277424 0.679393 0.260273
0.525673 0.75996 0.282078
0.65864 0.806683 0.314977
0.79971 0.822843 0.341543
0.833936 0.821973 0.378729
0.241917 0.769436 0.54168
0.2374 0.763149 0.527749
0.224567 0.748043 0.481956
0.198871 0.713436 0.400198
0.246113 0.678538 0.282246
0.484657 0.742367 0.270802
0.627253 0.798138 0.313771
0.762005 0.824399 0.340398
0.829175 0.822446 0.380011
0.0487831 0.0460212 0.170367
0.0885176 0.0458991 0.177462
0.155718 0.0456855 0.177829
0.250187 0.0440681 0.171786
0.359075 0.0480964 0.188602
0.452552 0.0653849 0.223865
0.54786 0.0928664 0.256184
0.573846 0.105165 0.280491
0.560388 0.111467 0.287465
0.0390021 0.0478981 0.147784
0.0529488 0.0469368 0.17995
0.137499 0.0455634 0.186603
0.245228 0.0446326 0.170962
0.356054 0.0480507 0.181933
0.452216 0.065156 0.211765
0.544442 0.0899367 0.242725
0.567987 0.101183 0.26511
0.555688 0.108186 0.27245
0.0444648 0.102281 0.153231
0.0394903 0.0968795 0.16463
0.105333 0.0953994 0.218845
0.27013 0.101884 0.213031
0.399847 0.0935683 0.217899
0.504921 0.0961624 0.226688
0.582803 0.106294 0.240131
0.582071 0.100114 0.237385
0.562036 0.0976425 0.231571
0.0883955 0.25182 0.205905
0.0814679 0.253361 0.20856
0.111238 0.273945 0.232944
0.328176 0.330266 0.323705
0.514473 0.315862 0.328862
0.648249 0.286503 0.311955
0.745907 0.285618 0.301274
0.765148 0.287083 0.299809
0.748791 0.284825 0.293782
0.130404 0.460868 0.333104
0.123247 0.459632 0.335714
0.124605 0.455238 0.321386
0.239963 0.484871 0.34815
0.48275 0.529961 0.346899
0.66569 0.479164 0.345708
0.759167 0.448127 0.326284
0.807675 0.436164 0.319097
0.797162 0.433463 0.315465
0.161044 0.607416 0.425956
0.157794 0.603906 0.427741
0.154299 0.596445 0.411627
0.154681 0.580453 0.358953
0.347005 0.599664 0.325628
0.588144 0.667063 0.338521
0.767208 0.631006 0.354269
0.814389 0.597528 0.349889
0.81117 0.592325 0.34107
0.212879 0.72166 0.509239
0.209857 0.715541 0.507088
0.202991 0.705165 0.486824
0.185763 0.679728 0.42089
0.266468 0.657526 0.332021
0.481498 0.712215 0.331838
0.684947 0.779339 0.355077
0.829435 0.768643 0.387869
0.836576 0.76347 0.394171
0.250843 0.781537 0.570016
0.248432 0.776364 0.563806
0.241138 0.767071 0.542306
0.220356 0.740887 0.471855
0.220798 0.699367 0.366659
0.41384 0.71632 0.320424
0.605798 0.792569 0.357183
0.783123 0.827039 0.364416
0.837568 0.823026 0.398566
0.254353 0.784466 0.580224
0.25037 0.780026 0.569757
0.244358 0.772366 0.549676
0.22652 0.75021 0.487144
0.203433 0.70576 0.381903
0.364828 0.702525 0.304723
0.559609 0.773541 0.342123
0.733471 0.824521 0.354238
0.829602 0.82266 0.381628
0.0547036 0.0525673 0.258534
0.0992294 0.0498207 0.26949
0.187823 0.0449683 0.273167
0.26659 0.0489204 0.262211
0.358572 0.0576333 0.268925
0.465537 0.0762951 0.291539
0.562188 0.109621 0.339712
0.590204 0.122377 0.366949
0.577493 0.127947 0.373739
0.0390021 0.0507057 0.235447
0.0579538 0.0525673 0.267323
0.159731 0.0459602 0.282902
0.261936 0.0485389 0.26836
0.358328 0.057908 0.269703
0.464836 0.0769513 0.288914
0.561456 0.110079 0.33695
0.586831 0.122042 0.359426
0.574304 0.127489 0.365591
0.0390021 0.0858167 0.225223
0.0390021 0.0750744 0.237232
0.0826123 0.0586557 0.289784
0.257939 0.0597238 0.289601
0.362478 0.0671702 0.277485
0.474723 0.0824903 0.289097
0.564813 0.106203 0.32256
0.589014 0.116579 0.338735
0.579339 0.121218 0.34287
0.0460517 0.218097 0.263127
0.0402838 0.212177 0.269429
0.0461128 0.210636 0.290135
0.296925 0.257603 0.422232
0.497734 0.296056 0.439048
0.642603 0.282429 0.452934
0.753399 0.271427 0.454627
0.769635 0.267704 0.456413
0.751247 0.265141 0.451911
0.119387 0.454856 0.369406
0.112947 0.453635 0.373693
0.112734 0.45095 0.372824
0.253178 0.490791 0.432792
0.501991 0.516686 0.501213
0.653315 0.491264 0.49073
0.76556 0.450263 0.459693
0.815457 0.43064 0.446097
0.806424 0.424903 0.440024
0.157717 0.605722 0.458488
0.154711 0.602472 0.461646
0.153292 0.597604 0.454627
0.200931 0.607385 0.459617
0.425605 0.625452 0.50724
0.601663 0.662257 0.503929
0.755047 0.617853 0.492042
0.816266 0.588678 0.461921
0.819715 0.578882 0.453178
0.213245 0.721111 0.539651
0.210925 0.715633 0.539879
0.206989 0.708324 0.527703
0.202319 0.694682 0.499916
0.335317 0.690501 0.486137
0.483635 0.709407 0.4757
0.686076 0.773175 0.494362
0.835691 0.747509 0.510994
0.842268 0.738476 0.510735
0.258793 0.790127 0.60499
0.256443 0.78526 0.59997
0.251209 0.778408 0.58587
0.241398 0.764324 0.553246
0.277958 0.744488 0.49839
0.406348 0.730846 0.451987
0.572457 0.775677 0.469215
0.778439 0.840864 0.489738
0.84892 0.837827 0.536339
0.264012 0.796399 0.616037
0.263127 0.794308 0.611978
0.260212 0.790784 0.600397
0.25211 0.781079 0.57203
0.253147 0.76054 0.511559
0.360678 0.732723 0.452949
0.51606 0.761944 0.463905
0.716564 0.835431 0.494865
0.836027 0.842802 0.511772
0.0719005 0.0552529 0.329259
0.129809 0.0498207 0.342748
0.218845 0.0482185 0.351522
0.299214 0.0543374 0.342962
0.373159 0.0689555 0.344579
0.471214 0.0924544 0.365026
0.57702 0.122972 0.402808
0.598749 0.134463 0.426474
0.588983 0.140566 0.432319
0.0390021 0.0568246 0.310811
0.0773632 0.0548104 0.337285
0.189776 0.0480964 0.357412
0.292882 0.0533761 0.349233
0.372793 0.0692912 0.348363
0.470542 0.0935531 0.366232
0.578256 0.123262 0.402075
0.59791 0.133562 0.422904
0.587381 0.13959 0.428107
0.0390021 0.0656748 0.283421
0.0390021 0.0567178 0.293629
0.103685 0.0528573 0.352575
0.271656 0.0515145 0.360159
0.367956 0.0688334 0.353323
0.468482 0.0939193 0.365606
0.576806 0.12137 0.395514
0.60177 0.130037 0.415763
0.591409 0.134752 0.417639
0.0390021 0.196017 0.318303
0.0390021 0.186297 0.322271
0.0390021 0.171176 0.337118
0.273365 0.179477 0.475074
0.495613 0.237903 0.514336
0.619898 0.257816 0.520241
0.734493 0.260304 0.532784
0.747707 0.249165 0.54313
0.727596 0.244678 0.53167
0.0805219 0.426261 0.417182
0.074464 0.42092 0.419806
0.0685588 0.407996 0.420249
0.179843 0.443503 0.496056
0.481956 0.463325 0.607904
0.664439 0.487709 0.60592
0.78378 0.459052 0.59884
0.840284 0.439979 0.592065
0.831601 0.435431 0.586648
0.149447 0.599741 0.491737
0.147143 0.596582 0.495964
0.145083 0.592218 0.492287
0.177478 0.600336 0.505211
0.44416 0.635676 0.582483
0.628748 0.651499 0.629679
0.753033 0.622568 0.612833
0.825269 0.584344 0.581445
0.827863 0.573144 0.571664
0.209659 0.7187 0.564584
0.207324 0.712581 0.565164
0.204105 0.705776 0.557778
0.207202 0.697459 0.545296
0.411643 0.723491 0.596811
0.564034 0.734966 0.628443
0.708522 0.769482 0.626429
0.827802 0.737163 0.61471
0.843915 0.724102 0.598581
0.262287 0.790677 0.630869
0.258228 0.785016 0.626795
0.252995 0.778912 0.614618
0.248493 0.770214 0.59353
0.353628 0.780392 0.601984
0.482872 0.775631 0.604166
0.607233 0.79707 0.608652
0.786877 0.852674 0.621286
0.868681 0.850645 0.662776
0.276371 0.805325 0.65182
0.274037 0.803418 0.647608
0.269871 0.800244 0.637522
0.266514 0.79678 0.621241
0.308186 0.799176 0.609308
0.43975 0.797009 0.608118
0.558785 0.80235 0.612848
0.72311 0.847288 0.636301
0.851179 0.870863 0.63447
0.109133 0.0557412 0.38851
0.164965 0.0531014 0.401587
0.242908 0.0552071 0.412711
0.326772 0.0638285 0.410834
0.401816 0.0837568 0.415488
0.485527 0.111681 0.433036
0.578775 0.147204 0.470558
0.597452 0.157534 0.492912
0.599664 0.161074 0.505989
0.0525978 0.0609293 0.373373
0.115251 0.0561227 0.39556
0.216464 0.0544137 0.416068
0.317266 0.0625315 0.41648
0.400793 0.0840009 0.419913
0.487892 0.112657 0.437064
0.58088 0.146944 0.471702
0.598032 0.156725 0.491371
0.59826 0.160235 0.501823
0.0390021 0.0619974 0.33228
0.0390021 0.0611124 0.352621
0.142275 0.0556344 0.410269
0.29189 0.0604257 0.42533
0.3935 0.0822614 0.424994
0.48484 0.112596 0.439612
0.579705 0.145357 0.469245
0.599588 0.153429 0.483345
0.596216 0.157031 0.48838
0.0390021 0.171237 0.358373
0.0390021 0.160067 0.360739
0.0390021 0.13933 0.376333
0.253712 0.13022 0.498192
0.475181 0.184375 0.551049
0.595331 0.223331 0.567605
0.690074 0.242756 0.576394
0.700923 0.238071 0.570291
0.685222 0.231464 0.558434
0.061738 0.405676 0.465003
0.0592355 0.398764 0.465721
0.0549477 0.385138 0.466819
0.136004 0.412818 0.54313
0.461769 0.407324 0.685618
0.693111 0.46566 0.715175
0.79939 0.464683 0.693065
0.847776 0.453437 0.687709
0.838102 0.447257 0.680171
0.124819 0.581796 0.534401
0.120836 0.575479 0.534661
0.114351 0.56527 0.532982
0.139406 0.564935 0.559258
0.391974 0.597681 0.645563
0.612711 0.609018 0.724178
0.766155 0.624979 0.714702
0.848035 0.596292 0.704631
0.853422 0.585153 0.696544
0.203632 0.712551 0.596735
0.201007 0.706096 0.595132
0.197147 0.699794 0.589502
0.196078 0.690822 0.582071
0.392706 0.72343 0.641733
0.583673 0.746487 0.697505
0.734676 0.761624 0.73611
0.833402 0.735439 0.71809
0.855253 0.720165 0.706447
0.261372 0.789319 0.650965
0.25835 0.783703 0.647654
0.253437 0.778424 0.639261
0.252323 0.772198 0.626703
0.380987 0.79205 0.656855
0.551156 0.815061 0.708431
0.671077 0.828275 0.73872
0.806027 0.859388 0.736492
0.880568 0.856199 0.754467
0.298314 0.81355 0.68246
0.294408 0.811582 0.679393
0.288716 0.809674 0.673487
0.286168 0.807752 0.662669
0.354696 0.819776 0.67126
0.506218 0.844968 0.717144
0.629969 0.857389 0.74902
0.753643 0.874495 0.764477
0.864103 0.898207 0.749889
0.159869 0.061326 0.44564
0.202136 0.0621042 0.455604
0.269032 0.0665446 0.468086
0.353002 0.080354 0.477653
0.439826 0.10692 0.491341
0.524468 0.136995 0.509407
0.595911 0.164874 0.532952
0.607874 0.171756 0.547601
0.610452 0.173342 0.554009
0.113008 0.0634623 0.434424
0.165072 0.0618601 0.450141
0.247303 0.0657816 0.468681
0.341787 0.0783856 0.480186
0.436957 0.106249 0.493416
0.524605 0.137346 0.511635
0.596338 0.165362 0.534844
0.608011 0.171832 0.547234
0.609644 0.173129 0.551858
0.0390021 0.0657816 0.386175
0.0632792 0.0657359 0.416907
0.186999 0.0632334 0.459419
0.315312 0.0744488 0.481147
0.426535 0.103288 0.495445
0.519844 0.136095 0.512901
0.594842 0.165133 0.534676
0.608957 0.172137 0.544961
0.61062 0.174105 0.550179
0.0390021 0.144457 0.395087
0.0390021 0.132921 0.397604
0.0390021 0.11342 0.414359
0.253086 0.0970932 0.503639
0.434623 0.135943 0.543862
0.565454 0.184161 0.574914
0.650339 0.215167 0.593698
0.656809 0.2121 0.58854
0.647623 0.204929 0.580163
0.0548257 0.393088 0.50547
0.0520943 0.383719 0.504326
0.0479438 0.367483 0.503487
0.146166 0.385245 0.5953
0.47631 0.369192 0.743755
0.720958 0.433448 0.794797
0.811231 0.453635 0.773449
0.847562 0.451972 0.762051
0.841001 0.444266 0.753765
0.102419 0.557519 0.574334
0.0996109 0.551278 0.574319
0.0956741 0.541085 0.574762
0.124132 0.544244 0.604883
0.335592 0.563943 0.693629
0.60087 0.558907 0.78854
0.802457 0.608179 0.812528
0.865492 0.602167 0.789853
0.870359 0.59263 0.779446
0.190204 0.698161 0.632151
0.184405 0.689357 0.628855
0.176394 0.677897 0.625223
0.172564 0.663142 0.62681
0.358251 0.688014 0.699077
0.540093 0.71104 0.750072
0.731762 0.721035 0.818509
0.84625 0.733166 0.807172
0.872618 0.722499 0.80209
0.256092 0.783413 0.671427
0.252461 0.777829 0.66862
0.247364 0.772702 0.66302
0.245899 0.76669 0.657115
0.363455 0.788769 0.693172
0.540185 0.817258 0.747814
0.693782 0.841154 0.79585
0.831052 0.857923 0.830198
0.884916 0.851072 0.826551
0.315694 0.818738 0.704295
0.314076 0.817868 0.703212
0.310872 0.816648 0.699641
0.310628 0.815 0.693843
0.379187 0.827573 0.711391
0.536278 0.856107 0.761883
0.677577 0.87892 0.808133
0.799649 0.895262 0.842878
0.873335 0.909163 0.838453
0.225193 0.0683604 0.481758
0.257572 0.071519 0.488716
0.31458 0.0793469 0.499428
0.390677 0.0979934 0.51252
0.476982 0.125109 0.526726
0.557763 0.154086 0.541543
0.611383 0.175479 0.557321
0.610956 0.174945 0.556649
0.611093 0.174884 0.556725
0.185733 0.0665141 0.471809
0.226123 0.0683757 0.481819
0.293645 0.0759747 0.496025
0.379217 0.0946975 0.511116
0.471077 0.123293 0.525795
0.555367 0.152895 0.540764
0.609186 0.174517 0.556558
0.612161 0.176181 0.558343
0.611246 0.175158 0.556924
0.0825208 0.067628 0.435874
0.145327 0.0660258 0.459693
0.239994 0.0699016 0.485557
0.351095 0.0876631 0.506096
0.456977 0.118608 0.523903
0.547951 0.14995 0.539513
0.606729 0.173754 0.555993
0.616327 0.179538 0.56228
0.615961 0.179217 0.561913
0.0390021 0.126864 0.434348
0.0390021 0.114595 0.433692
0.0569009 0.0882887 0.434669
0.269551 0.0787976 0.49691
0.424903 0.116564 0.529946
0.545907 0.160372 0.556802
0.629068 0.195697 0.583261
0.634348 0.194675 0.580331
0.628183 0.18967 0.574792
0.0542763 0.38436 0.533257
0.0543221 0.375631 0.532967
0.0573281 0.360494 0.533837
0.197971 0.358648 0.630488
0.531075 0.355047 0.76524
0.739574 0.40943 0.800092
0.817166 0.430976 0.787243
0.840803 0.435477 0.782391
0.836286 0.426917 0.777584
0.103532 0.555093 0.60267
0.100923 0.54844 0.602121
0.0978866 0.53814 0.601877
0.133074 0.53782 0.630335
0.351232 0.538964 0.72462
0.653254 0.540825 0.831205
0.834592 0.586526 0.850187
0.876799 0.588922 0.83386
0.878981 0.582773 0.829953
0.199588 0.689357 0.665476
0.192081 0.679652 0.661616
0.183337 0.666987 0.657664
0.17995 0.651118 0.657588
0.338964 0.668879 0.722545
0.515297 0.682231 0.775021
0.767086 0.69337 0.860258
0.866453 0.712276 0.852995
0.881865 0.711574 0.84567
0.269413 0.780194 0.697322
0.262379 0.773571 0.693889
0.25626 0.766323 0.690562
0.252506 0.75584 0.689387
0.367025 0.77145 0.730373
0.529137 0.79704 0.779232
0.674372 0.822446 0.819715
0.843946 0.837003 0.873289
0.886595 0.843168 0.868437
0.323827 0.819806 0.720623
0.319234 0.818204 0.718639
0.313573 0.81593 0.715053
0.311116 0.81326 0.711681
0.372259 0.825254 0.730327
0.524086 0.853483 0.778668
0.672862 0.879576 0.825528
0.814572 0.899306 0.867094
0.883345 0.909178 0.880125
