bundles/resolve-cinematic-luts/Phantom Luts/Komodo Phantom FILM LUTs G2/Komodo Phantom FILM LUTs G2/65x/Standard (No WB Offset)/Eastman_Komodo_G2_65x.cube
TITLE "Generated by Resolve"
LUT_3D_SIZE 65
0.0418555 0.0390021 0.0390021
0.0418402 0.0390021 0.0390021
0.0417945 0.0390021 0.0390021
0.0416571 0.0390021 0.0390021
0.0421759 0.0390021 0.0390021
0.0456245 0.0390021 0.0390021
0.0509346 0.0390021 0.0390021
0.0588846 0.0390021 0.0390021
0.068513 0.0390021 0.0393988
0.0793011 0.0390021 0.0404059
0.0915847 0.0390021 0.0404059
0.105653 0.0390021 0.0410925
0.119844 0.0390021 0.04094
0.136309 0.0390021 0.0409094
0.153536 0.0390021 0.0404059
0.174182 0.0390021 0.0399786
0.195865 0.0390021 0.0390021
0.218463 0.0390021 0.0390021
0.241123 0.0390021 0.0390021
0.263523 0.0390021 0.0390021
0.285863 0.0390021 0.0390021
0.307866 0.0390021 0.0390021
0.330327 0.0390021 0.0390021
0.351675 0.0390021 0.0390021
0.37409 0.0390021 0.0390021
0.394888 0.0390021 0.0397345
0.414969 0.0390021 0.0412909
0.432883 0.039353 0.0431373
0.448951 0.0406806 0.0442817
0.464485 0.0424811 0.0460059
0.478706 0.0444953 0.0479591
0.491737 0.0476234 0.0500954
0.504768 0.0520333 0.0528878
0.513405 0.0561227 0.0545815
0.519982 0.0582589 0.0579385
0.52047 0.0582132 0.0606088
0.517952 0.0570687 0.0617533
0.516335 0.0551919 0.0626383
0.51722 0.0529335 0.0638895
0.517861 0.05037 0.0651713
0.51809 0.0482338 0.0661021
0.519081 0.0465248 0.0678111
0.519463 0.0442817 0.0690166
0.519844 0.0421607 0.0696727
0.52079 0.0400397 0.070634
0.522225 0.0390021 0.0717327
0.524742 0.0390021 0.0727855
0.528206 0.0390021 0.0747082
0.531807 0.0390021 0.0775921
0.535454 0.0390021 0.080293
0.538216 0.0390021 0.0822614
0.539925 0.0390021 0.0849775
0.540688 0.0390021 0.0872816
0.540902 0.0390021 0.0897231
0.541085 0.0390021 0.0921645
0.541268 0.0390021 0.0938277
0.54136 0.0390021 0.095613
0.54139 0.0390021 0.0972152
0.54139 0.0390021 0.0987259
0.541405 0.0390021 0.100145
0.541405 0.0390021 0.101289
0.54139 0.0390021 0.102281
0.541344 0.0390021 0.103014
0.538445 0.0390021 0.103716
0.53286 0.0390021 0.104616
0.043534 0.0390021 0.0390021
0.0422675 0.0390021 0.0390021
0.0415351 0.0390021 0.0390021
0.0414282 0.0390021 0.0390021
0.0416266 0.0390021 0.0390021
0.0446937 0.0390021 0.0390021
0.0501717 0.0390021 0.0390021
0.0580453 0.0390021 0.0390021
0.0672923 0.0390021 0.0392309
0.0782483 0.0390021 0.0402533
0.0908217 0.0390021 0.0403601
0.104829 0.0390021 0.041001
0.119188 0.0390021 0.0408026
0.135195 0.0390021 0.0406958
0.152789 0.0390021 0.0400397
0.172885 0.0390021 0.0394293
0.194217 0.0390021 0.0390021
0.216938 0.0390021 0.0390021
0.239292 0.0390021 0.0390021
0.262394 0.0390021 0.0390021
0.284138 0.0390021 0.0390021
0.306706 0.0394141 0.0390021
0.328939 0.0395819 0.0390021
0.350683 0.0390021 0.0390021
0.371786 0.0390021 0.0390021
0.392355 0.0390021 0.0390021
0.412482 0.0390021 0.0403754
0.430137 0.0400702 0.0421302
0.44683 0.0414435 0.0433356
0.462409 0.0440223 0.0449836
0.47776 0.0465705 0.0471199
0.491478 0.0498054 0.0496071
0.504097 0.0538643 0.051606
0.51281 0.0594034 0.0536049
0.519081 0.0610971 0.0563821
0.51928 0.061265 0.0588693
0.516258 0.0596323 0.0601053
0.515343 0.0583658 0.061387
0.515648 0.0559701 0.0623331
0.516304 0.0537881 0.0635843
0.517067 0.051545 0.0646677
0.517571 0.0492714 0.0657054
0.517876 0.047715 0.0665904
0.518685 0.0462348 0.0680858
0.518975 0.0440681 0.0691691
0.519921 0.0420844 0.069688
0.52224 0.0396887 0.0706798
0.52575 0.0390021 0.0717784
0.529625 0.0390021 0.0725719
0.533867 0.0390021 0.0738537
0.536721 0.0390021 0.0755322
0.537972 0.0390021 0.0777752
0.538598 0.0390021 0.0796063
0.538796 0.0390021 0.0813458
0.53901 0.0390021 0.0826886
0.539193 0.0390021 0.0846723
0.539376 0.0390021 0.0859998
0.539483 0.0390021 0.0877394
0.53962 0.0390021 0.089128
0.539696 0.0390021 0.0908522
0.539757 0.0390021 0.092134
0.539803 0.0390021 0.092958
0.539788 0.0390021 0.0937667
0.536919 0.0390021 0.0945296
0.531243 0.0390021 0.0952926
0.0433814 0.0390021 0.0390021
0.0420539 0.0390021 0.0390021
0.0413214 0.0390021 0.0390021
0.0412451 0.0390021 0.0390021
0.0413672 0.0390021 0.0390021
0.0436866 0.0390021 0.0390021
0.0488289 0.0390021 0.0390021
0.0564431 0.0390021 0.0390021
0.0659342 0.0390021 0.0390021
0.0768902 0.0390021 0.0401617
0.0895857 0.0390021 0.0404669
0.103731 0.0390021 0.0410925
0.118395 0.0390021 0.04094
0.134997 0.0390021 0.0407416
0.152529 0.0390021 0.0400092
0.172854 0.0390021 0.0392767
0.193973 0.0390021 0.0390021
0.216175 0.0390021 0.0390021
0.23827 0.0390021 0.0390021
0.260166 0.0390021 0.0390021
0.282765 0.0396429 0.0390021
0.305348 0.0404059 0.0390021
0.327993 0.0408026 0.0390021
0.349447 0.0403906 0.0390021
0.370489 0.0390021 0.0390021
0.390753 0.0390784 0.0390021
0.40972 0.039292 0.0390326
0.427893 0.0410163 0.0409705
0.445029 0.0430152 0.0426795
0.46125 0.0457313 0.044007
0.477134 0.0495155 0.046479
0.490578 0.0529335 0.0486152
0.503334 0.057084 0.0508888
0.511421 0.0619516 0.0521553
0.518685 0.0648508 0.0551003
0.518257 0.0652171 0.057496
0.515099 0.0634928 0.0585336
0.513466 0.0613565 0.0593118
0.514549 0.0594644 0.0608988
0.515007 0.0572976 0.0618143
0.515297 0.055314 0.0627146
0.515999 0.0533913 0.063798
0.516579 0.0513313 0.0648203
0.517021 0.049485 0.0656596
0.517266 0.0480659 0.0663462
0.518151 0.0467689 0.0677348
0.519203 0.0448005 0.0687419
0.52224 0.0422065 0.0695506
0.526818 0.0395361 0.0700236
0.531624 0.0390021 0.0712444
0.535073 0.0390021 0.0719768
0.536416 0.0390021 0.0724804
0.536904 0.0390021 0.0731975
0.537148 0.0390021 0.0739757
0.537301 0.0390021 0.0747082
0.537362 0.0390021 0.0759594
0.537377 0.0390021 0.0773327
0.537408 0.0390021 0.0785382
0.537499 0.0390021 0.0798047
0.537606 0.0390021 0.0809949
0.537697 0.0390021 0.0816052
0.537758 0.0390021 0.0821546
0.537774 0.0390021 0.0827802
0.53489 0.0390021 0.0831006
0.528954 0.0390021 0.0834363
0.0433051 0.0390021 0.0390021
0.0419623 0.0390021 0.0390021
0.0411994 0.0390021 0.0390021
0.0411383 0.0390021 0.0390021
0.0410925 0.0390021 0.0390021
0.0426795 0.0390021 0.0390021
0.0471962 0.0390021 0.0390021
0.0539254 0.0390021 0.0390021
0.063447 0.0390021 0.0392157
0.0741588 0.0390021 0.0400244
0.0867933 0.0390021 0.0406806
0.101381 0.0390021 0.0412757
0.116655 0.0390021 0.0412146
0.133227 0.0390021 0.0410925
0.151354 0.0390021 0.0402533
0.171847 0.0390021 0.0396429
0.193866 0.0390021 0.0390021
0.216281 0.0390021 0.0390021
0.23827 0.0390021 0.0390021
0.26038 0.0395819 0.0390021
0.281895 0.0400854 0.0390021
0.304295 0.0417639 0.0390021
0.325872 0.0421759 0.0390021
0.347997 0.041886 0.0390021
0.368811 0.0408331 0.0390021
0.389563 0.0405585 0.0390021
0.408179 0.0411231 0.0390021
0.426017 0.043122 0.0397498
0.443656 0.0455024 0.0417029
0.460533 0.0487221 0.0437781
0.476097 0.0521859 0.0453651
0.490318 0.0562905 0.0479438
0.502693 0.0603494 0.0498512
0.510948 0.0654002 0.0513313
0.517006 0.0691081 0.0533761
0.515923 0.0702373 0.0547646
0.512688 0.0691081 0.0555734
0.512474 0.0657969 0.0577554
0.512779 0.0633097 0.0587015
0.513146 0.060914 0.0595712
0.514275 0.0593576 0.0610666
0.514595 0.0574655 0.0617838
0.5149 0.0556954 0.062501
0.515328 0.0541238 0.0635538
0.515923 0.0525368 0.0642557
0.516274 0.0508888 0.0650492
0.51667 0.0492866 0.0658122
0.518135 0.0476844 0.0665446
0.522072 0.0458228 0.0676127
0.527459 0.0433204 0.0687114
0.532097 0.040589 0.0694133
0.53489 0.0390021 0.06981
0.535576 0.0390021 0.0700694
0.535592 0.0390021 0.0705882
0.535698 0.0390021 0.0712139
0.535729 0.0390021 0.0717021
0.535607 0.0390021 0.0719463
0.53547 0.0390021 0.0721599
0.535424 0.0390021 0.0724041
0.535439 0.0390021 0.072755
0.535546 0.0390021 0.0730755
0.535637 0.0390021 0.0732738
0.535729 0.0390021 0.0734417
0.532708 0.0390021 0.0734417
0.526955 0.0390021 0.0732128
0.043534 0.0390021 0.0390021
0.0421912 0.0390021 0.0390021
0.041413 0.0390021 0.0390021
0.0412909 0.0390021 0.0390021
0.0410315 0.0390021 0.0390021
0.0417334 0.0390021 0.0390021
0.045243 0.0390021 0.0390021
0.0509346 0.0390021 0.0390021
0.0595254 0.0390021 0.0390936
0.070634 0.0390021 0.0402686
0.0829938 0.0390021 0.041062
0.0979934 0.0390021 0.0416724
0.113375 0.0390021 0.0416876
0.130663 0.0390021 0.0416114
0.148516 0.0390021 0.0408331
0.170092 0.0390021 0.0402838
0.192752 0.0390021 0.0390021
0.21529 0.0390021 0.0390021
0.238132 0.0391852 0.0390021
0.260121 0.0402533 0.0390021
0.282521 0.0412146 0.0390021
0.304448 0.0428931 0.0390021
0.325689 0.0433814 0.0390021
0.347417 0.0435798 0.0390021
0.367468 0.0431983 0.0390021
0.387442 0.0437171 0.0390021
0.406104 0.0441749 0.0390021
0.424414 0.046128 0.0390021
0.441917 0.049073 0.0410925
0.45832 0.052491 0.0426032
0.47454 0.0560159 0.0449531
0.488701 0.0597086 0.0463417
0.501549 0.064271 0.0488594
0.50956 0.0691691 0.0500191
0.515267 0.0732128 0.0517433
0.512993 0.0742809 0.0526284
0.511269 0.0736706 0.0537118
0.510216 0.0720836 0.0545663
0.510857 0.0694438 0.0556802
0.512093 0.0666209 0.0575265
0.512428 0.0642405 0.058381
0.512657 0.0622873 0.0589456
0.5131 0.060502 0.0599374
0.514122 0.0593118 0.0611582
0.514351 0.0576028 0.0617533
0.514702 0.0561379 0.0623484
0.514916 0.054963 0.062974
0.515343 0.0537118 0.0637675
0.517388 0.0522164 0.064271
0.520806 0.0503395 0.0650187
0.526177 0.0477913 0.0657511
0.530526 0.045594 0.0662852
0.532998 0.0440833 0.0669413
0.533425 0.0434272 0.0671855
0.533562 0.0428321 0.0676585
0.533776 0.042359 0.0682994
0.533898 0.0419928 0.0687266
0.533867 0.0415808 0.0690013
0.533761 0.0411841 0.0691539
0.533684 0.0407721 0.0692302
0.533684 0.0403906 0.0693828
0.53373 0.0400397 0.0694896
0.533806 0.039826 0.0695506
0.530877 0.0405127 0.0694896
0.525231 0.0421302 0.0694133
0.0457618 0.0390021 0.0390021
0.0443275 0.0390021 0.0390021
0.0434272 0.0390021 0.0390021
0.0433814 0.0390021 0.0390021
0.0433204 0.0390021 0.0390021
0.043595 0.0390021 0.0390021
0.0457008 0.0390021 0.0390021
0.0506142 0.0390021 0.0390021
0.0580148 0.0390021 0.0399939
0.0677348 0.0390021 0.041001
0.0795911 0.0390021 0.0417182
0.093431 0.0390021 0.0423896
0.109865 0.0390021 0.0422827
0.127489 0.0390021 0.0425422
0.146014 0.0390021 0.0416266
0.167712 0.0390021 0.0410925
0.191257 0.039292 0.0395056
0.214725 0.0397955 0.0390021
0.237156 0.0405737 0.0390021
0.259937 0.0414435 0.0390021
0.282948 0.04271 0.0390021
0.305486 0.0441596 0.0390021
0.326802 0.0442206 0.0390021
0.348211 0.044831 0.0390021
0.367956 0.0451514 0.0390021
0.386206 0.0451209 0.0390021
0.405219 0.0469215 0.0390021
0.422126 0.0496986 0.0390021
0.438773 0.0525216 0.0391546
0.45539 0.0561379 0.0419623
0.471061 0.0603952 0.0435187
0.485328 0.0643931 0.045594
0.497505 0.0684825 0.0466316
0.507134 0.0738689 0.0483711
0.511879 0.0785992 0.0494698
0.509331 0.0796826 0.0500038
0.507134 0.0792401 0.050721
0.506371 0.0779126 0.0515145
0.507256 0.0759747 0.0522774
0.509163 0.0741436 0.0536965
0.509987 0.072282 0.0545052
0.510521 0.0702373 0.0554055
0.510857 0.0685283 0.0560922
0.511925 0.066392 0.0575723
0.512276 0.064683 0.0581979
0.512489 0.0628061 0.0587625
0.512734 0.061677 0.0592813
0.512963 0.0605783 0.0599069
0.513512 0.0599527 0.0606394
0.515358 0.0588235 0.0612345
0.518837 0.0570687 0.0617075
0.523873 0.0548867 0.0622568
0.528054 0.052842 0.0628214
0.530526 0.0514992 0.0632334
0.530983 0.0508431 0.0635386
0.530953 0.0505074 0.0636912
0.530922 0.0502327 0.0638132
0.530892 0.049897 0.0639506
0.530861 0.0496071 0.0641337
0.5308 0.0493935 0.0642863
0.53077 0.049134 0.0644541
0.530739 0.049012 0.0645304
0.530739 0.0489052 0.0646067
0.52784 0.0497749 0.0646067
0.52195 0.0516213 0.0640574
0.0496986 0.0390021 0.0401617
0.0480049 0.0390021 0.0404364
0.0470893 0.0390021 0.0405127
0.047013 0.0390021 0.0403449
0.0470893 0.0390021 0.040177
0.0472725 0.0390021 0.0398871
0.0495308 0.0390021 0.0399634
0.0536965 0.0390021 0.0413214
0.0603799 0.0390021 0.0424353
0.0703441 0.0390021 0.0434424
0.08159 0.0390021 0.0441444
0.0942397 0.0390021 0.044358
0.109667 0.0390021 0.0444648
0.1252 0.0390021 0.0440375
0.142763 0.0390021 0.0430304
0.164553 0.0390021 0.0421302
0.188846 0.0411078 0.0404364
0.213107 0.0417945 0.0390021
0.236301 0.0423285 0.0390021
0.259739 0.0432288 0.0390021
0.283177 0.0441138 0.0390021
0.305913 0.0457008 0.0390021
0.328145 0.0458991 0.0390021
0.348989 0.0456703 0.0390021
0.368887 0.0462196 0.0390021
0.387457 0.046128 0.0390021
0.405509 0.0478676 0.0390021
0.422065 0.0508736 0.0390021
0.437766 0.0548409 0.0390021
0.452842 0.0585489 0.0404212
0.468055 0.0635691 0.0425574
0.480919 0.0675364 0.0439612
0.493217 0.071931 0.0456397
0.502068 0.0771191 0.0467842
0.506508 0.0813916 0.0475013
0.504005 0.0831159 0.047776
0.50222 0.0838483 0.0479896
0.501717 0.0836652 0.0484016
0.502846 0.0822461 0.0491188
0.503929 0.0809491 0.049897
0.504845 0.0797742 0.0505989
0.505714 0.0784314 0.0512856
0.506355 0.0769055 0.0517739
0.507195 0.0756237 0.0525521
0.508431 0.0745403 0.0534981
0.509194 0.0735485 0.0539254
0.509789 0.0721141 0.0546273
0.51014 0.0708324 0.0552224
0.510231 0.0699626 0.0555428
0.510307 0.0693065 0.0557412
0.511589 0.0681163 0.0563973
0.514382 0.0670176 0.0569009
0.519173 0.0650797 0.057496
0.52398 0.0631113 0.0580301
0.526757 0.0618143 0.0584573
0.527413 0.0613413 0.0585489
0.527642 0.0604257 0.0589456
0.527565 0.06009 0.0590982
0.527504 0.0598917 0.059205
0.527459 0.0594797 0.0593881
0.527367 0.0591745 0.0594949
0.527291 0.0588388 0.0596017
0.527245 0.0592508 0.0594339
0.524025 0.0606088 0.0589151
0.517861 0.062623 0.0585489
0.0535744 0.0470283 0.0443122
0.0520027 0.0472572 0.0446326
0.0512093 0.0470588 0.0446937
0.0513008 0.0467842 0.0446021
0.0516213 0.0458991 0.0444648
0.051957 0.0448005 0.0441901
0.0530709 0.0441291 0.0441596
0.0581674 0.0449378 0.0442664
0.0653544 0.0462348 0.0455634
0.0747539 0.0470283 0.0471504
0.0868849 0.0471199 0.0485389
0.0995346 0.0465705 0.0489052
0.114855 0.0463569 0.0485695
0.130739 0.0463722 0.0480201
0.147951 0.0457771 0.0460059
0.168109 0.0462196 0.0447852
0.18822 0.0453346 0.0419928
0.212711 0.0446632 0.0390021
0.235691 0.0446021 0.0390021
0.259693 0.0450599 0.0390021
0.283299 0.0460365 0.0390021
0.306172 0.0471809 0.0390021
0.32871 0.0471199 0.0390021
0.349706 0.0473335 0.0390021
0.369833 0.0479896 0.0390021
0.388571 0.0476844 0.0390021
0.406302 0.0486915 0.0390021
0.422812 0.0513619 0.0390021
0.43888 0.0554818 0.0390173
0.453147 0.0597086 0.0402075
0.467628 0.0645457 0.0419928
0.479957 0.0694133 0.0435645
0.490562 0.0735485 0.0449683
0.498299 0.0786145 0.0459449
0.501274 0.0825971 0.0462348
0.497978 0.084596 0.0461585
0.496071 0.0855268 0.0463417
0.495583 0.0857862 0.04654
0.496864 0.0855879 0.0469062
0.497795 0.0852827 0.0472877
0.498726 0.0849775 0.0475471
0.499779 0.0845808 0.0478218
0.500755 0.0838026 0.0482185
0.501579 0.0835279 0.0484932
0.502251 0.0826429 0.0489052
0.502785 0.0819867 0.0493324
0.503441 0.0812085 0.0497902
0.50399 0.0807813 0.0500954
0.504417 0.0801251 0.0504158
0.50457 0.0796216 0.0506294
0.504707 0.0793164 0.050782
0.505455 0.0788434 0.0510414
0.507881 0.0779126 0.0513008
0.512093 0.0764935 0.0517586
0.517189 0.0747234 0.0523232
0.520119 0.0737469 0.0526589
0.521538 0.0728618 0.0530556
0.521462 0.0727092 0.0531014
0.521355 0.0726177 0.0531319
0.521218 0.0726177 0.0531319
0.52108 0.0726635 0.0531319
0.520974 0.0726787 0.0531319
0.520729 0.0728923 0.0530251
0.517494 0.0739452 0.0527504
0.510674 0.0762493 0.0518807
0.0576791 0.059205 0.0489662
0.0558938 0.0592355 0.0492103
0.055024 0.059266 0.0493782
0.0551003 0.0588846 0.0492866
0.055375 0.0582895 0.0490425
0.0561227 0.057084 0.048661
0.0575875 0.0561685 0.0487831
0.0608682 0.056611 0.0491798
0.0686503 0.0577554 0.0491493
0.0795911 0.0590829 0.0508736
0.0915236 0.059144 0.0519722
0.105852 0.0584726 0.0532692
0.12163 0.0570993 0.0535897
0.138399 0.055848 0.0522774
0.156374 0.0543221 0.050721
0.176287 0.053666 0.0482338
0.19736 0.0522316 0.0440833
0.218448 0.0517739 0.0404517
0.239933 0.0517586 0.0390021
0.260822 0.0493629 0.0390021
0.283543 0.0489509 0.0390021
0.305974 0.0487831 0.0390021
0.328771 0.0490578 0.0390021
0.350042 0.0494545 0.0390021
0.369665 0.0496376 0.0390021
0.389548 0.0498054 0.0390021
0.406195 0.0499428 0.0390021
0.422675 0.0525368 0.0390021
0.439063 0.05626 0.0390021
0.453544 0.0605631 0.0402533
0.451682 0.0700847 0.0402533
0.464012 0.0753338 0.0418708
0.474983 0.0797742 0.0433814
0.482094 0.0847181 0.0440833
0.485786 0.088304 0.04477
0.483421 0.090135 0.0445411
0.481117 0.090486 0.0442054
0.480888 0.0903487 0.0441901
0.482307 0.0897688 0.0444648
0.48542 0.0890974 0.0450752
0.487861 0.0883192 0.0454871
0.490852 0.0874342 0.0457313
0.494392 0.0864881 0.0461128
0.497642 0.0854963 0.0465248
0.500832 0.0846571 0.0467231
0.502831 0.0840467 0.0469978
0.503822 0.0838483 0.0471504
0.50425 0.0838026 0.047303
0.504463 0.0838178 0.0474708
0.504677 0.0838941 0.0476234
0.504631 0.0838331 0.0476539
0.504509 0.0838178 0.0476692
0.504723 0.0836652 0.047776
0.505928 0.0832837 0.0478981
0.508278 0.0826123 0.0481117
0.511345 0.0816663 0.0484169
0.513039 0.0811322 0.0485389
0.513863 0.0809339 0.0486
0.513588 0.081117 0.0485542
0.513283 0.0813001 0.0485237
0.512947 0.0815137 0.0484779
0.512566 0.0817731 0.0484169
0.512428 0.0819104 0.0484321
0.51043 0.0825818 0.0482185
0.506325 0.0838941 0.0477913
0.0640574 0.0707408 0.0520943
0.0627604 0.0708019 0.0520638
0.0621042 0.0704204 0.0519722
0.0621042 0.0703288 0.051957
0.0622721 0.0698558 0.0519417
0.0632181 0.0691844 0.051957
0.0649424 0.0682841 0.0521096
0.0679484 0.0675669 0.0523384
0.0748455 0.069276 0.0530251
0.0851911 0.0700847 0.0526589
0.098085 0.0700389 0.0534524
0.113313 0.0700694 0.0552987
0.129671 0.0679942 0.0564584
0.147112 0.0655985 0.0566567
0.166262 0.0639658 0.0554055
0.185977 0.0619974 0.052079
0.207156 0.060853 0.0486763
0.228779 0.0596475 0.0443885
0.24947 0.0593118 0.0407721
0.269215 0.0580453 0.0390021
0.288914 0.057084 0.0390021
0.308782 0.0536507 0.0390021
0.328511 0.0518654 0.0390021
0.349035 0.052018 0.0390021
0.3691 0.0520638 0.0390021
0.388525 0.0521553 0.0390021
0.406348 0.0525521 0.0390021
0.422599 0.0542763 0.0390021
0.436484 0.0578317 0.0390021
0.448478 0.0632181 0.0399786
0.456657 0.069688 0.0406195
0.465492 0.0759289 0.0417029
0.474876 0.0810864 0.0433051
0.483207 0.0863508 0.0444495
0.487236 0.0899672 0.0451057
0.48629 0.0922408 0.0451667
0.484138 0.092546 0.0450294
0.483391 0.0924239 0.0448768
0.484138 0.0919203 0.0447852
0.485603 0.0911727 0.0449226
0.487633 0.0903639 0.0451667
0.490043 0.0894636 0.0455024
0.492882 0.0884413 0.0457008
0.495781 0.08748 0.0458991
0.498177 0.0866407 0.0461128
0.500191 0.0860914 0.0463111
0.500771 0.0858167 0.0463417
0.500557 0.0857404 0.0462959
0.50013 0.0857862 0.0462501
0.499916 0.085832 0.0462348
0.499901 0.0859236 0.0462501
0.499855 0.0859693 0.0462654
0.500008 0.0860456 0.0463264
0.500313 0.0861372 0.0463722
0.501137 0.0859693 0.0464637
0.502892 0.0855726 0.0466621
0.505318 0.0849622 0.0468605
0.507607 0.0843519 0.0469673
0.508598 0.0840467 0.0470436
0.508705 0.0840467 0.0470588
0.508431 0.0841535 0.0469978
0.50811 0.0842298 0.0469368
0.507713 0.0843671 0.046891
0.505577 0.0850843 0.0468452
0.501839 0.0863203 0.046479
0.0673533 0.0833753 0.0558022
0.0659495 0.0831464 0.0554818
0.0652476 0.0832227 0.0555276
0.0651865 0.0830396 0.0554818
0.0652018 0.082887 0.0554665
0.0661326 0.0823072 0.0555276
0.067689 0.0815595 0.0556191
0.0706035 0.080705 0.0559091
0.0767529 0.081239 0.0566567
0.0854658 0.0824903 0.0565957
0.0979477 0.0826429 0.0556344
0.113848 0.082414 0.0564279
0.132479 0.0821698 0.0578164
0.151934 0.0792248 0.0590829
0.173983 0.0757916 0.0599069
0.196841 0.0732891 0.0584115
0.219699 0.0709239 0.0543526
0.242344 0.0690623 0.0506752
0.26305 0.0679789 0.0463569
0.282826 0.0674296 0.0426032
0.301183 0.0659037 0.0400854
0.318425 0.0644694 0.0390021
0.336202 0.0608377 0.0390021
0.353246 0.05832 0.0390021
0.369909 0.056199 0.0390021
0.389013 0.0554208 0.0390021
0.406195 0.0556649 0.0390021
0.421942 0.0567178 0.0390021
0.435691 0.0592355 0.0390021
0.447517 0.0645304 0.0397345
0.456428 0.0710613 0.0406653
0.464698 0.0770123 0.0414588
0.474937 0.0831922 0.0432288
0.48368 0.0878614 0.0444953
0.488441 0.0918441 0.0454108
0.48864 0.0937514 0.0453346
0.486854 0.0939498 0.0450294
0.486168 0.093904 0.0449683
0.487098 0.0934157 0.0450446
0.48838 0.0928817 0.0453193
0.490272 0.0922255 0.0453651
0.492927 0.091371 0.0456092
0.496025 0.0903944 0.0459144
0.499092 0.0894179 0.0462806
0.501884 0.0885634 0.0464332
0.50341 0.0880903 0.0466011
0.504143 0.0878614 0.0466926
0.504265 0.0878462 0.0467079
0.504097 0.087892 0.0466926
0.50396 0.0879683 0.0466621
0.503792 0.0880446 0.0466316
0.503685 0.0881208 0.0466163
0.503609 0.0881971 0.0465858
0.503517 0.0882582 0.0465705
0.503502 0.0883497 0.0465553
0.503853 0.0882887 0.0466011
0.505074 0.0879988 0.0467384
0.507439 0.0873732 0.0469215
0.50985 0.0867628 0.0471199
0.511269 0.0864424 0.0472877
0.511696 0.0863813 0.0473182
0.51162 0.0865187 0.047303
0.511528 0.0866407 0.047303
0.509453 0.0873884 0.0471351
0.505348 0.0887312 0.0468757
0.069398 0.0964675 0.0580911
0.0680552 0.0966049 0.0577249
0.0673381 0.096376 0.057557
0.0673381 0.0963302 0.057557
0.0672465 0.0960555 0.0575418
0.0676738 0.0957504 0.0576486
0.0693065 0.0953536 0.0579232
0.0722515 0.0945449 0.0582589
0.0776226 0.0943923 0.0588235
0.0865949 0.0957656 0.0594797
0.0979934 0.0973678 0.059205
0.11313 0.0978561 0.0585336
0.13315 0.0973373 0.059617
0.15552 0.0971695 0.0613107
0.180957 0.0937667 0.0639658
0.207752 0.0892958 0.0651102
0.23267 0.0864271 0.0627909
0.257374 0.0847639 0.059205
0.279179 0.0830549 0.055375
0.300069 0.0820172 0.0513924
0.320165 0.0814984 0.0475166
0.336126 0.0800183 0.0436561
0.351553 0.0771801 0.041413
0.365423 0.0748913 0.0398871
0.379614 0.0681163 0.0390021
0.393805 0.0643931 0.0390021
0.408621 0.0619211 0.0390021
0.423468 0.0617075 0.0390021
0.43595 0.0621653 0.0390021
0.446769 0.065919 0.0393835
0.455528 0.0724956 0.0403906
0.4645 0.0786145 0.0413825
0.475074 0.0849928 0.0432593
0.483894 0.0893721 0.0443732
0.489921 0.0932631 0.0453956
0.491661 0.0957656 0.0458381
0.489998 0.0961166 0.0457771
0.489509 0.0961624 0.0457771
0.490349 0.0957809 0.0458076
0.491753 0.0952316 0.0458534
0.49369 0.0945144 0.0459602
0.496345 0.0936599 0.0462043
0.499214 0.0927443 0.0464179
0.50248 0.0917525 0.0465858
0.505196 0.0909133 0.047013
0.507317 0.0903182 0.0472419
0.508278 0.0900893 0.047364
0.508522 0.0900893 0.0473793
0.508507 0.0901961 0.0473945
0.508415 0.0903182 0.0473793
0.508278 0.090425 0.0473335
0.508202 0.0905623 0.047303
0.508095 0.0906386 0.0472725
0.508034 0.0907759 0.0472419
0.507942 0.0908522 0.0472267
0.507927 0.090959 0.0471962
0.508156 0.0909895 0.0472114
0.509071 0.0907607 0.0472877
0.510857 0.0903182 0.0474708
0.512871 0.0897536 0.0477302
0.514504 0.0893416 0.0477913
0.515145 0.0892195 0.0478065
0.515221 0.0892653 0.0478218
0.513115 0.090013 0.047715
0.509071 0.0913558 0.0472267
0.0720989 0.111223 0.0606546
0.0706493 0.111299 0.0603037
0.0697948 0.111452 0.0600443
0.0697642 0.111223 0.060029
0.0696727 0.111147 0.0600443
0.0695964 0.11104 0.0600748
0.071107 0.110597 0.0602426
0.0740978 0.110338 0.0604868
0.0780194 0.109575 0.0611734
0.0870527 0.110109 0.0623026
0.0992905 0.113222 0.0636606
0.113512 0.11548 0.0641947
0.131441 0.115206 0.062623
0.156466 0.115023 0.0648508
0.183307 0.1149 0.0661479
0.214435 0.11078 0.0690623
0.244953 0.105165 0.0706645
0.272068 0.103487 0.0693217
0.295781 0.101183 0.0660105
0.319188 0.0999161 0.0627756
0.338872 0.098436 0.0588083
0.357809 0.0977798 0.0550698
0.374258 0.0969711 0.0514382
0.389013 0.0958267 0.0480964
0.401785 0.0933089 0.0453651
0.410101 0.0883803 0.04271
0.421286 0.0815442 0.0411383
0.431327 0.0750439 0.0399329
0.440299 0.0712139 0.0396735
0.447852 0.0700542 0.0397345
0.454963 0.0745556 0.0399939
0.464149 0.0804761 0.0411688
0.473991 0.0862898 0.0424506
0.484337 0.0916152 0.0442054
0.49189 0.0955673 0.0455787
0.493767 0.0977493 0.0458381
0.492805 0.0983291 0.0457923
0.492317 0.0982986 0.0457465
0.493019 0.0979782 0.0458228
0.494377 0.0974594 0.0459144
0.496391 0.0968338 0.046128
0.498756 0.0960708 0.0463264
0.502052 0.09514 0.0465705
0.505302 0.0942245 0.047013
0.508583 0.0932937 0.0473335
0.510872 0.0927443 0.0474861
0.511757 0.0925612 0.0476081
0.512032 0.0925765 0.0476539
0.511971 0.092668 0.0476539
0.511986 0.0928206 0.0476844
