bundles/resolve-cinematic-luts/Phantom Luts/Komodo Phantom FILM LUTs G2/Komodo Phantom FILM LUTs G2/65x/Standard (No WB Offset)/Eastman_Komodo_Legacy_G2_65x.cube
TITLE "Generated by Resolve"
LUT_3D_SIZE 65
0.0562142 0.0403601 0.0475624
0.0561685 0.0403754 0.0475624
0.0560922 0.0403906 0.0475929
0.0559091 0.0404517 0.0476539
0.0561685 0.040589 0.0478218
0.0585184 0.0413214 0.0486152
0.0612955 0.0419013 0.0492866
0.0652171 0.0419776 0.0497597
0.0694743 0.0419471 0.0501869
0.0754711 0.0421759 0.0508431
0.0826886 0.0420386 0.0512245
0.091371 0.0421454 0.0521553
0.101122 0.0421149 0.0530098
0.112322 0.0416114 0.0533913
0.125719 0.0408637 0.0526589
0.141085 0.0402991 0.0521248
0.157504 0.0396277 0.0510719
0.176654 0.0405432 0.0504311
0.196414 0.0412604 0.0485695
0.218128 0.0424506 0.0465248
0.24097 0.0442664 0.0450446
0.262867 0.0454719 0.0436561
0.285695 0.0460975 0.042771
0.309239 0.0461585 0.0420539
0.335088 0.0459754 0.042359
0.359548 0.046891 0.0427405
0.383154 0.0486458 0.0433661
0.403143 0.0507362 0.0435798
0.422477 0.0539406 0.0449989
0.440558 0.0566567 0.0456245
0.456092 0.0587625 0.046479
0.470741 0.0611887 0.0477607
0.483223 0.0626841 0.0484627
0.49781 0.0745556 0.0519722
0.507195 0.0810864 0.0547189
0.50901 0.0843977 0.0568856
0.505776 0.0845808 0.0572824
0.504646 0.0841382 0.0578622
0.50544 0.0831617 0.0586709
0.506294 0.0821393 0.0592966
0.506874 0.081117 0.0598459
0.507256 0.0799725 0.0602884
0.507988 0.0791638 0.0607614
0.508583 0.0782635 0.061387
0.50927 0.0771649 0.0618753
0.510231 0.0759289 0.0626993
0.511833 0.0746624 0.063508
0.513726 0.0731212 0.0641031
0.516274 0.0715496 0.0649729
0.519341 0.0701762 0.0657206
0.522927 0.0688029 0.0663157
0.526741 0.0668803 0.0672313
0.529046 0.0646067 0.0675364
0.529839 0.0617227 0.0670329
0.530831 0.0608225 0.0676585
0.531289 0.0601511 0.0682231
0.527565 0.0553292 0.0652781
0.526375 0.0526589 0.0643931
0.526406 0.0520485 0.0647898
0.526314 0.051545 0.0650339
0.526253 0.0511025 0.0652781
0.526299 0.050721 0.0656596
0.52636 0.0504311 0.0660105
0.523323 0.0510872 0.066041
0.517342 0.0527199 0.0658579
0.0582284 0.0397498 0.0468757
0.0567788 0.0401923 0.047364
0.055848 0.0404669 0.0476692
0.0556802 0.0405127 0.0477302
0.0557259 0.0406195 0.0478523
0.0580148 0.0411688 0.0484627
0.0608682 0.0418402 0.0491798
0.0647135 0.0420233 0.0497444
0.0690166 0.0419013 0.0500801
0.0749218 0.0421607 0.050782
0.0822614 0.0419165 0.0510262
0.090837 0.0421149 0.0520333
0.100603 0.0419776 0.0527352
0.111833 0.0414435 0.0530098
0.125277 0.040528 0.0519875
0.14052 0.0398566 0.0512398
0.156405 0.039765 0.0508278
0.175433 0.04065 0.0497749
0.194797 0.0414282 0.0480507
0.217014 0.0426032 0.0457923
0.239628 0.044358 0.0442969
0.26183 0.0457465 0.0427558
0.284291 0.0464485 0.0419318
0.307729 0.0467536 0.0411841
0.332372 0.0468452 0.0414282
0.357275 0.0476692 0.0417792
0.381018 0.0486915 0.0422522
0.400992 0.0509499 0.0428016
0.421286 0.0537423 0.0442359
0.438483 0.0565194 0.0450599
0.454795 0.0589456 0.0456245
0.469718 0.0613107 0.046952
0.482506 0.063447 0.0477607
0.49723 0.0765393 0.0515297
0.506264 0.0825666 0.0542306
0.507546 0.0856031 0.0559091
0.504631 0.0858473 0.0566567
0.503365 0.0854658 0.0570382
0.50396 0.0845502 0.0576181
0.504662 0.0835737 0.058381
0.505364 0.0827344 0.0590372
0.506065 0.0817884 0.059556
0.506432 0.080705 0.0599832
0.506874 0.0800031 0.0603494
0.5075 0.0791791 0.0608377
0.508339 0.0783246 0.061387
0.50959 0.0771191 0.0618906
0.511666 0.075639 0.0626841
0.514321 0.0742199 0.0634775
0.517372 0.0725872 0.0639963
0.520958 0.0707713 0.0647288
0.52491 0.0690013 0.0652934
0.528069 0.0677043 0.0659342
0.52987 0.0668498 0.0665293
0.530709 0.0663767 0.0669413
0.530877 0.0657969 0.0673533
0.530983 0.0651255 0.0677653
0.529213 0.062562 0.0665293
0.529366 0.0619974 0.0669566
0.529488 0.0615702 0.0673228
0.529503 0.0612345 0.0676585
0.529473 0.0609598 0.0679026
0.529488 0.0607309 0.0681468
0.526543 0.0614481 0.068101
0.520043 0.0632181 0.0679332
0.0581064 0.0397955 0.0469215
0.0565347 0.0402686 0.0474403
0.0556039 0.0405432 0.0477607
0.0554513 0.040589 0.0478065
0.0554055 0.0406806 0.0478981
0.0571756 0.0411078 0.0483406
0.0601205 0.0418708 0.0491035
0.0638895 0.0422065 0.0497444
0.0680858 0.0421454 0.0501106
0.0742657 0.042298 0.0506294
0.0813916 0.0420386 0.0509194
0.0904707 0.0422675 0.052018
0.100069 0.0420996 0.0527199
0.111788 0.0414893 0.0529946
0.125078 0.040528 0.0519417
0.140597 0.0397955 0.0511025
0.156237 0.0398108 0.0507515
0.17496 0.0407416 0.0494392
0.194217 0.0416876 0.0476081
0.215351 0.043061 0.0453193
0.238392 0.0444953 0.0437018
0.260456 0.0457618 0.0419928
0.283787 0.0466316 0.041001
0.30663 0.0471504 0.0401923
0.331395 0.0474098 0.0403906
0.355383 0.0484321 0.0406195
0.378149 0.0495003 0.0411231
0.399069 0.051545 0.0418555
0.419654 0.0538643 0.0433661
0.437613 0.0565499 0.044419
0.453162 0.0592203 0.044892
0.468559 0.0618296 0.0460059
0.481666 0.0649577 0.0471351
0.496193 0.0784009 0.0508583
0.505409 0.0846571 0.0536355
0.505562 0.0868544 0.0548257
0.502968 0.0872511 0.055314
0.501945 0.0869764 0.0560616
0.502632 0.0860761 0.0567636
0.503105 0.0851759 0.0572824
0.503639 0.0843671 0.057847
0.504326 0.0835431 0.0585031
0.50486 0.0827497 0.0590677
0.505425 0.0819867 0.0595254
0.505699 0.0810101 0.0599069
0.506127 0.080293 0.0602731
0.507073 0.0795605 0.0605936
0.508888 0.0784924 0.0611429
0.511742 0.0771191 0.0616007
0.515328 0.0753796 0.0623941
0.519463 0.073518 0.0630961
0.523278 0.0718547 0.0637064
0.526314 0.0704967 0.0640726
0.527703 0.0695659 0.0643931
0.528222 0.0689097 0.0648203
0.528328 0.0684367 0.0652018
0.528511 0.06804 0.0654459
0.52871 0.0677043 0.0657206
0.528893 0.0673991 0.0660868
0.529 0.067155 0.0664225
0.529046 0.0670329 0.0666209
0.529061 0.0669413 0.0667735
0.529046 0.0668193 0.0669413
0.526131 0.0675975 0.0668956
0.519493 0.0694133 0.0665293
0.0579995 0.039826 0.046952
0.0563516 0.0403143 0.0475013
0.0554055 0.040589 0.0478218
0.0552682 0.0406348 0.0478676
0.0551156 0.0407111 0.0479286
0.056199 0.0411536 0.0482643
0.0589151 0.0420386 0.0490272
0.0625315 0.0424964 0.0497139
0.0668803 0.0424048 0.0500343
0.0729381 0.0427558 0.0506294
0.0797742 0.0424811 0.050782
0.0892195 0.0424811 0.0517281
0.0989395 0.0425879 0.052781
0.110719 0.0419471 0.0531319
0.124193 0.0410163 0.0521401
0.139818 0.0403449 0.0512551
0.155978 0.0401465 0.0507362
0.174945 0.0411841 0.0495003
0.194186 0.0419776 0.0474708
0.215473 0.0432746 0.0449226
0.237537 0.0446021 0.0433356
0.259739 0.0460975 0.0413519
0.282445 0.0470436 0.0400854
0.305928 0.0476692 0.0391852
0.330373 0.0484779 0.039353
0.354253 0.0490425 0.0396887
0.376501 0.0502022 0.0401312
0.39733 0.0521248 0.0407263
0.4177 0.0543984 0.0425422
0.435904 0.0567941 0.043534
0.452186 0.0595254 0.0441596
0.468681 0.0651713 0.0457618
0.48481 0.0730449 0.0481727
0.495735 0.0809186 0.0501106
0.504189 0.0866712 0.0527962
0.502922 0.0887617 0.0533913
0.500008 0.0891432 0.0538186
0.499794 0.0884718 0.0547341
0.50071 0.0877546 0.055436
0.501534 0.0869612 0.0562448
0.502174 0.0861067 0.0567788
0.502586 0.0853437 0.0572366
0.503029 0.0846723 0.0576944
0.503487 0.0839399 0.0582284
0.504112 0.0833448 0.0587472
0.504524 0.0826734 0.0591592
0.504936 0.0820172 0.0595712
0.505867 0.0808881 0.0599222
0.50811 0.0798047 0.0602731
0.511986 0.0784161 0.0606394
0.516823 0.0765698 0.0610513
0.521309 0.0748608 0.0617533
0.524498 0.0735637 0.062211
0.526024 0.072755 0.0626688
0.526528 0.0721904 0.062974
0.526543 0.0717784 0.0632334
0.526589 0.0714275 0.0634928
0.526635 0.0710765 0.0637369
0.52665 0.0708476 0.063859
0.526665 0.0706645 0.0639658
0.526665 0.0703899 0.0640726
0.526635 0.0702525 0.0641337
0.526604 0.0701305 0.0641947
0.523507 0.0709544 0.06421
0.517067 0.0727855 0.0639048
0.0580606 0.0402686 0.0471656
0.0563363 0.0406958 0.0476844
0.0553597 0.0408789 0.0479744
0.0552682 0.0407721 0.0479438
0.0550088 0.0407263 0.0479591
0.055375 0.0411078 0.048188
0.0579232 0.0420539 0.0488289
0.0611429 0.0428016 0.0496681
0.0653544 0.0427253 0.0499123
0.0710155 0.0432288 0.050721
0.0776379 0.0432898 0.0510567
0.087068 0.0431067 0.051545
0.0973373 0.0431525 0.0526894
0.108843 0.0426642 0.0532082
0.122393 0.0417639 0.0525368
0.138369 0.0414435 0.0517891
0.154818 0.0410925 0.0509041
0.173983 0.0420996 0.0499275
0.193805 0.0428168 0.0476997
0.215213 0.0437324 0.0452125
0.238178 0.0453956 0.0434882
0.259678 0.0469825 0.0412757
0.2822 0.0477302 0.039826
0.305592 0.0483864 0.0390021
0.329061 0.0493019 0.0390021
0.352239 0.0498817 0.0390021
0.374441 0.0509499 0.0390021
0.39498 0.0524605 0.0395361
0.414527 0.0552224 0.0413672
0.432807 0.0574655 0.0423743
0.449607 0.0601511 0.0430152
0.467582 0.0675364 0.0454566
0.485222 0.0778668 0.0480964
0.494774 0.0837262 0.0493019
0.501793 0.0886244 0.0508125
0.499779 0.0910658 0.0517586
0.497536 0.0915389 0.0524605
0.496864 0.090898 0.0531472
0.497871 0.0898604 0.0538033
0.499092 0.0888228 0.054551
0.499779 0.0881819 0.0551614
0.500572 0.0875715 0.0557565
0.501213 0.0868391 0.0563821
0.501762 0.0861677 0.0567941
0.50219 0.0854658 0.0571756
0.502541 0.084947 0.057557
0.502846 0.0843824 0.057908
0.503243 0.0838788 0.0583352
0.504479 0.0832532 0.0587472
0.507576 0.0820478 0.059205
0.512352 0.0803235 0.0596475
0.5178 0.0783856 0.0601358
0.521614 0.076936 0.060441
0.523552 0.0760662 0.0607309
0.523995 0.075349 0.0609293
0.523995 0.0750744 0.0610666
0.52401 0.0749218 0.0611734
0.523995 0.0748455 0.0612345
0.523995 0.0747387 0.0613107
0.523995 0.0746014 0.0614023
0.52401 0.0744945 0.0614939
0.52401 0.0743877 0.0615854
0.523995 0.0743267 0.0616312
0.520668 0.0752575 0.0614786
0.514214 0.0771649 0.0610819
0.0591135 0.0430762 0.0486458
0.0577554 0.0433204 0.0491035
0.0567636 0.0433967 0.0493172
0.0566415 0.0432441 0.0492409
0.0563973 0.0429389 0.0490578
0.0565957 0.0427558 0.0489357
0.0583963 0.0435798 0.0497139
0.0608377 0.0439307 0.0502022
0.0648814 0.0443427 0.0507973
0.069688 0.0444343 0.0511482
0.0760204 0.0444343 0.051545
0.0842451 0.0443732 0.0521248
0.0952468 0.0441596 0.0526284
0.106493 0.0436103 0.0533303
0.120745 0.0428473 0.0529335
0.13666 0.0429694 0.0527199
0.153277 0.0425727 0.0513008
0.173404 0.0434424 0.0507668
0.193164 0.043946 0.0486152
0.215396 0.0449073 0.0459144
0.238025 0.0462806 0.0435187
0.260471 0.0483711 0.0414435
0.282933 0.0488289 0.0400854
0.305989 0.0492409 0.0390021
0.329152 0.0501869 0.0390021
0.351553 0.0508736 0.0390021
0.3729 0.0521553 0.0390021
0.392615 0.0535286 0.0390021
0.411551 0.0564584 0.0397955
0.428382 0.0586404 0.0408789
0.44799 0.0657359 0.0432288
0.465721 0.0720836 0.0452735
0.481758 0.0800183 0.047303
0.492012 0.0855726 0.0482948
0.49781 0.0911727 0.049134
0.495857 0.09337 0.0497444
0.493706 0.0941939 0.0501411
0.492912 0.0939651 0.0508125
0.494148 0.0929274 0.051606
0.495262 0.0921492 0.0522927
0.496345 0.0911421 0.0530709
0.497002 0.0903792 0.0534981
0.497612 0.089601 0.0539559
0.498634 0.088838 0.0545663
0.499382 0.0883803 0.0550546
0.499962 0.0878462 0.0555581
0.50042 0.0874647 0.0559701
0.500862 0.0869764 0.0563516
0.501183 0.0865949 0.0565957
0.502754 0.085832 0.0569009
0.506127 0.084596 0.0572366
0.511955 0.0826276 0.0579995
0.517189 0.0807507 0.0584878
0.520088 0.0796826 0.0589151
0.52105 0.0792096 0.0590982
0.521065 0.079057 0.0591897
0.521035 0.0789654 0.0592508
0.520989 0.0788739 0.0593118
0.520958 0.0787823 0.0593729
0.520882 0.0786908 0.0594186
0.520851 0.0786145 0.0594644
0.520775 0.0786145 0.0594949
0.520729 0.0785992 0.0595254
0.517555 0.07953 0.0593423
0.511101 0.0814679 0.0590066
0.060853 0.0471656 0.0503548
0.0591592 0.0474403 0.050721
0.0583352 0.0475166 0.0508888
0.0583047 0.0472877 0.0508431
0.0584421 0.0469825 0.0508583
0.0587167 0.0466316 0.0508736
0.0599069 0.0466773 0.0508583
0.0623636 0.0474098 0.0513924
0.066331 0.0478981 0.0522164
0.0711986 0.0480964 0.0529641
0.0772717 0.0483406 0.0536507
0.0851301 0.0481575 0.0538491
0.0949569 0.0476539 0.0539254
0.104707 0.0465248 0.0539406
0.11809 0.0445869 0.0537423
0.134279 0.0446479 0.0536507
0.151431 0.0444648 0.0525063
0.171679 0.0452277 0.0515755
0.192447 0.0455482 0.0494545
0.214908 0.0462806 0.0466621
0.238087 0.0477302 0.0439002
0.260304 0.0492256 0.041474
0.283589 0.0499123 0.0403754
0.307134 0.0504921 0.0392157
0.329686 0.0510414 0.0390021
0.352728 0.0520638 0.0390021
0.374166 0.0531624 0.0390021
0.392813 0.0548562 0.0390021
0.409995 0.0577096 0.0391699
0.426062 0.0600137 0.0398108
0.446174 0.0700694 0.0433204
0.462196 0.0765698 0.0446326
0.476905 0.0816052 0.0461128
0.487129 0.0865644 0.0472725
0.49247 0.0914473 0.0478523
0.490074 0.0941482 0.0482032
0.488411 0.0956283 0.0484627
0.487984 0.0962692 0.048661
0.488945 0.0958114 0.0491188
0.489967 0.0952773 0.0496376
0.49131 0.0948043 0.0500649
0.49221 0.0941482 0.0505989
0.493111 0.0934768 0.051194
0.494057 0.0928054 0.0517128
0.494835 0.0923476 0.0521248
0.495293 0.0917067 0.0525521
0.4963 0.0911269 0.0531167
0.496864 0.0906233 0.0534218
0.497108 0.0902419 0.0536202
0.497307 0.0899214 0.0537881
0.499199 0.0891737 0.0541238
0.502632 0.0880751 0.0542916
0.508324 0.0861677 0.0549325
0.513008 0.0846265 0.0552529
0.515831 0.0836805 0.0556649
0.516533 0.0834058 0.055787
0.517143 0.0831769 0.0561685
0.517113 0.0831159 0.0562905
0.517006 0.0831159 0.0563516
0.516976 0.0830396 0.0564736
0.516899 0.0829786 0.0565957
0.516869 0.0829023 0.0566873
0.516579 0.0830854 0.0565347
0.512886 0.0842603 0.0560616
0.506569 0.0861677 0.0556191
0.062974 0.0525216 0.0526741
0.0612039 0.0528725 0.0530556
0.0603037 0.0528267 0.053193
0.0602731 0.0526589 0.0531319
0.0604562 0.0521859 0.0530861
0.0609293 0.0518044 0.053193
0.0618753 0.0515297 0.053193
0.0649119 0.0520943 0.0534218
0.0684825 0.0528115 0.0541695
0.07364 0.0532235 0.0550851
0.0799268 0.0532387 0.0557565
0.0881514 0.0531472 0.0563668
0.0982528 0.0530556 0.0569162
0.10837 0.0521248 0.0567788
0.121263 0.0509651 0.0561685
0.135897 0.0505379 0.0556497
0.151141 0.0497139 0.0546731
0.170306 0.047715 0.0522621
0.19118 0.0477913 0.0504921
0.214099 0.0480812 0.0473793
0.237583 0.0493477 0.044358
0.26096 0.0505074 0.0420996
0.284688 0.0513619 0.0409857
0.308171 0.0516976 0.0397955
0.33138 0.0523537 0.0390173
0.354147 0.053193 0.0390021
0.375479 0.05449 0.0390021
0.394125 0.0561227 0.0390021
0.411582 0.0590372 0.0393225
0.427588 0.0619211 0.0403449
0.444999 0.0695048 0.0426032
0.461036 0.0775158 0.0441749
0.473899 0.0826276 0.0456397
0.483116 0.0874342 0.0465705
0.487465 0.091783 0.0471504
0.484291 0.0936904 0.047013
0.481956 0.0949111 0.047013
0.481453 0.0955673 0.0471504
0.482673 0.0958114 0.0474708
0.48397 0.0961318 0.047715
0.485054 0.0962692 0.0479591
0.486137 0.0963302 0.0482948
0.487144 0.0961776 0.0485542
0.488014 0.0961776 0.0487373
0.488624 0.0959182 0.0490272
0.489052 0.0957504 0.0492561
0.489616 0.0955062 0.0495613
0.490303 0.0953384 0.0497749
0.490852 0.0950332 0.0499733
0.491066 0.094667 0.0500954
0.491264 0.0944381 0.0502022
0.492729 0.0938735 0.0505074
0.496147 0.0928054 0.0508583
0.501411 0.0913252 0.0513008
0.506279 0.0898451 0.0519875
0.50898 0.0890059 0.0521248
0.510216 0.0887007 0.0524453
0.510018 0.0887007 0.0524605
0.509865 0.0887007 0.052491
0.509667 0.0887312 0.052491
0.509499 0.0887617 0.052491
0.509407 0.088777 0.052491
0.509163 0.0888228 0.0524147
0.505608 0.0898299 0.0522011
0.498711 0.0919051 0.0513466
0.0652018 0.0587015 0.0552834
0.0632486 0.0590066 0.0556497
0.0622568 0.0591745 0.0558175
0.0621958 0.0589303 0.0557412
0.0624247 0.0585794 0.0556649
0.0630198 0.0580148 0.0555428
0.0638285 0.0576028 0.0554971
0.0660105 0.0579232 0.055787
0.0703288 0.0585641 0.0561379
0.0760052 0.0594339 0.057145
0.0829786 0.0598154 0.0583047
0.0915541 0.0594949 0.0589914
0.101244 0.058793 0.0594186
0.112612 0.0581674 0.0594492
0.126513 0.0569009 0.0590982
0.140139 0.0558022 0.0579232
0.156512 0.0549325 0.0564279
0.17467 0.0539559 0.0541848
0.19379 0.0534371 0.0517891
0.215412 0.0515755 0.0489357
0.237781 0.0512093 0.0453498
0.261067 0.0519875 0.0431678
0.284504 0.0526894 0.0413062
0.308354 0.0531472 0.0402075
0.331518 0.0540322 0.0394141
0.354574 0.054551 0.0390021
0.376013 0.05626 0.0390021
0.39498 0.0578317 0.0390326
0.412161 0.06009 0.0392615
0.428305 0.0627298 0.040528
0.427131 0.0701915 0.0397345
0.444266 0.0818952 0.0423133
0.458457 0.0889296 0.0444343
0.466804 0.0934768 0.0452277
0.47129 0.0972152 0.0457313
0.468925 0.0986343 0.0452735
0.466712 0.0989853 0.0450904
0.466194 0.0990311 0.0450752
0.466789 0.0988174 0.0452125
0.468589 0.0986954 0.0454566
0.469902 0.0984207 0.045594
0.471595 0.0981003 0.0457771
0.473899 0.0976272 0.046067
0.476448 0.0969558 0.0464027
0.480064 0.0961624 0.046891
0.483482 0.0953231 0.0473182
0.486793 0.0945602 0.0474708
0.489158 0.0940871 0.0478065
0.490867 0.0938735 0.0480354
0.491722 0.093904 0.048188
0.491707 0.0941024 0.0481727
0.491554 0.0941024 0.0481727
0.492149 0.0940414 0.0482948
0.493889 0.0935531 0.0484474
0.496681 0.0927749 0.0486458
0.499733 0.0919509 0.0487831
0.501701 0.0913252 0.0489509
0.502266 0.0911879 0.0489967
0.501854 0.0913405 0.0489357
0.501442 0.0914778 0.0488746
0.50106 0.0915999 0.0488289
0.500618 0.0917372 0.0487526
0.500404 0.0918746 0.0487373
0.498314 0.0926223 0.0486763
0.494408 0.0938277 0.0484321
0.0699779 0.0652934 0.057023
0.0686961 0.0655222 0.0572366
0.0679789 0.0654612 0.0573281
0.0679179 0.0654307 0.0573281
0.0680247 0.0651713 0.0572671
0.0686656 0.0648051 0.0573587
0.0699779 0.0643168 0.0574655
0.0714275 0.063859 0.0576333
0.0747387 0.0646677 0.0578317
0.0805066 0.0651255 0.0577249
0.0886244 0.0656596 0.0585794
0.0982223 0.0658885 0.0601053
0.108278 0.065095 0.0611429
0.119738 0.0636606 0.0615549
0.133593 0.0626078 0.0617838
0.148257 0.0608988 0.0609903
0.164096 0.0597086 0.0591745
0.181781 0.058854 0.0569924
0.199969 0.0581369 0.0534371
0.221714 0.0579538 0.0504616
0.242115 0.0572518 0.0471504
0.262913 0.0560464 0.0440833
0.283986 0.0549477 0.0417029
0.306889 0.0555276 0.0406653
0.330922 0.0563363 0.039765
0.353902 0.0566262 0.0391241
0.375723 0.0579232 0.0390021
0.395209 0.0598306 0.039353
0.410849 0.0624857 0.0397803
0.423423 0.0662852 0.0400397
0.433478 0.0713817 0.0406958
0.447196 0.0835126 0.0425574
0.458671 0.0899672 0.0442054
0.468498 0.0951095 0.0455787
0.472816 0.0986801 0.0456703
0.47219 0.10103 0.0459144
0.469795 0.10132 0.0457618
0.468635 0.101259 0.0456703
0.468971 0.100832 0.0455787
0.469474 0.100343 0.0455024
0.470375 0.0998398 0.0455787
0.47155 0.099321 0.0456092
0.473121 0.0986496 0.0456855
0.475166 0.0979477 0.0459602
0.478065 0.0969711 0.0461738
0.481422 0.0960708 0.0465858
0.484062 0.0951553 0.0467994
0.485954 0.0944228 0.0468757
0.486793 0.0940414 0.046891
0.487022 0.0939651 0.046891
0.487037 0.0940566 0.0469215
0.487007 0.0941482 0.046952
0.487175 0.0943008 0.047013
0.487648 0.0944076 0.0470741
0.48867 0.0941939 0.0472572
0.491264 0.0935836 0.0474861
0.494545 0.0927443 0.0476844
0.496269 0.0923171 0.0477455
0.496818 0.0921187 0.0477607
0.496574 0.0922103 0.0477455
0.496254 0.0923018 0.0476844
0.495918 0.0923476 0.0476234
0.495491 0.0924392 0.0475929
0.493355 0.0931563 0.0476081
0.488975 0.0945602 0.047303
0.072755 0.0740063 0.0598306
0.071397 0.0741894 0.0598459
0.0706951 0.074342 0.0599832
0.0706188 0.0742504 0.0599985
0.0705882 0.0742046 0.0600137
0.0712749 0.0738689 0.0601816
0.0726482 0.0733349 0.0603342
0.0740215 0.0727703 0.0603799
0.0765545 0.072755 0.0606394
0.0812543 0.0735485 0.060914
0.0886854 0.0735027 0.0602426
0.0992752 0.073991 0.0614176
0.110399 0.0737011 0.0624247
0.123171 0.0724651 0.0634165
0.13846 0.0707256 0.064332
0.153414 0.0682841 0.0638285
0.171176 0.0665751 0.0625315
0.190616 0.064622 0.0599069
0.209964 0.0631266 0.0565652
0.230884 0.062623 0.0531777
0.250645 0.0619974 0.0495155
0.270863 0.0628824 0.0467536
0.290837 0.0610513 0.0433814
0.312062 0.0606241 0.0419471
0.331456 0.059266 0.0404517
0.354742 0.0597238 0.0400092
0.375479 0.0601511 0.0394598
0.39498 0.062623 0.0400244
0.410941 0.0649882 0.0400092
0.423087 0.0679026 0.0398871
0.433219 0.0725567 0.0405127
0.445075 0.0803082 0.0417029
0.458915 0.0912337 0.0439002
0.469596 0.0965896 0.045655
0.474708 0.100572 0.0460822
0.475593 0.103243 0.0464332
0.473411 0.103487 0.0461128
0.47219 0.103517 0.0460212
0.472389 0.103166 0.0460059
0.473014 0.102785 0.0460212
0.473869 0.102358 0.0460975
0.475013 0.101884 0.0461738
0.476844 0.101274 0.0462959
0.479088 0.100481 0.0464027
0.481666 0.0996414 0.0466621
0.484962 0.0986343 0.0469368
0.488075 0.0976883 0.0472572
0.490089 0.0971084 0.0475776
0.491203 0.0967727 0.0476539
0.491539 0.0967575 0.0476844
0.491432 0.0968643 0.0476692
0.491356 0.0970016 0.0476844
0.491295 0.0971389 0.0476844
0.491157 0.0972457 0.0476692
0.491218 0.0973678 0.0476844
0.492058 0.0972 0.0477607
0.494087 0.0967422 0.0479286
0.496757 0.0960403 0.048127
0.498909 0.0955367 0.0482795
0.500114 0.0953231 0.0484169
0.500252 0.0953689 0.0484321
0.50013 0.095552 0.0484321
0.499962 0.0957046 0.0484321
0.49781 0.0964675 0.0483711
0.493706 0.0978408 0.0479896
0.0748608 0.0827955 0.0621958
0.0733959 0.0830854 0.0620584
0.0725872 0.0831769 0.0620584
0.0725567 0.0831922 0.062089
0.0724804 0.0831006 0.0621195
0.0727703 0.0829633 0.0621958
0.0741741 0.0826276 0.0624094
0.0758984 0.0821088 0.062562
0.0780957 0.0817884 0.0628214
0.0824598 0.0824598 0.0633402
0.0885481 0.0832837 0.0632792
0.0986801 0.083711 0.0629587
0.110887 0.083299 0.0633707
0.125383 0.0836042 0.0646067
0.141939 0.0816052 0.066041
0.160479 0.0787976 0.067216
0.180194 0.0769665 0.0669108
0.20032 0.0748913 0.0644388
0.2224 0.0728008 0.0619669
0.244434 0.0716564 0.057908
0.26453 0.0710918 0.0543221
0.283299 0.0704356 0.0508888
0.302266 0.0703136 0.0468757
0.321172 0.0710307 0.044358
0.340658 0.0675364 0.0415503
0.359319 0.0660105 0.0407263
0.377844 0.0656138 0.0401007
0.395758 0.0661936 0.0399939
0.411002 0.0676127 0.0403906
0.424002 0.0707408 0.0407111
0.432944 0.0747997 0.0402228
0.444434 0.0807202 0.0412299
0.45919 0.0922713 0.0439155
0.469917 0.0978408 0.0453956
0.477363 0.102525 0.046479
0.479072 0.105379 0.0468605
0.476967 0.105806 0.0466468
0.475975 0.105928 0.0465248
0.476081 0.10573 0.04654
0.476478 0.10547 0.0466011
0.477317 0.105089 0.0466773
0.478706 0.104601 0.0468299
0.480659 0.103975 0.047013
0.482811 0.103304 0.0473335
0.485832 0.102434 0.0474861
0.489082 0.101503 0.0478676
0.492241 0.100649 0.0480812
0.494621 0.100023 0.0481575
0.495872 0.0997635 0.0482185
0.496162 0.0997482 0.0482643
0.496056 0.0998703 0.048249
0.496025 0.0999771 0.048249
0.495933 0.100084 0.0482643
0.495888 0.100221 0.0482643
0.495811 0.100313 0.0482795
0.495842 0.10045 0.0483101
0.496284 0.10042 0.0483406
0.497429 0.100114 0.0484627
0.500038 0.0994278 0.0486152
0.502617 0.0987259 0.0487831
0.50396 0.0984054 0.0488899
0.504189 0.0983902 0.0489204
0.504051 0.0985275 0.0488746
0.501839 0.0992752 0.0486152
0.497429 0.100649 0.0483711
0.0769665 0.0931106 0.064622
0.0754864 0.09308 0.0643778
0.0747692 0.0931563 0.0641489
0.0746777 0.092958 0.0641031
0.0745861 0.0929122 0.0641184
0.0744793 0.0928511 0.0641489
0.0753948 0.0925917 0.0643473
0.077409 0.0924392 0.0645609
0.0796674 0.0918441 0.0647746
0.0834974 0.0919966 0.0654307
0.0894789 0.093431 0.0662089
0.0978408 0.0942702 0.0659342
0.110033 0.0944686 0.0650645
0.126146 0.0945144 0.0664988
0.144106 0.0948043 0.0677195
0.165408 0.0924697 0.069749
0.188968 0.0880751 0.0707408
0.212146 0.0865034 0.0701915
0.234699 0.0845045 0.0674449
0.258213 0.083772 0.064683
0.278172 0.0825055 0.0612345
0.299092 0.0823682 0.057847
0.318853 0.0822919 0.0538796
0.337758 0.0822461 0.0502785
0.356344 0.0825666 0.0469978
0.371923 0.0816968 0.0437781
0.389639 0.0793317 0.0430762
0.403693 0.0763256 0.0420844
0.415885 0.0748913 0.0409857
0.425589 0.0753948 0.0408942
0.434424 0.0779736 0.0408789
0.443976 0.082063 0.0408026
0.456382 0.0893416 0.0425727
0.470588 0.0995041 0.0452125
0.479759 0.104738 0.0467384
0.481453 0.107149 0.0466011
0.480323 0.107836 0.0465095
0.479362 0.107912 0.0464332
0.479484 0.107759 0.0464179
0.479835 0.10753 0.0464179
0.480751 0.10724 0.0464942
0.481758 0.106859 0.0467079
0.483574 0.106355 0.0469368
0.486229 0.105669 0.0472114
0.489158 0.104845 0.0476081
0.492729 0.103944 0.0479744
0.496101 0.103014 0.0482185
0.498299 0.10248 0.0484474
0.499641 0.102159 0.0485389
0.500206 0.102159 0.0485847
0.500343 0.102342 0.0486152
