bundles/resolve-cinematic-luts/Phantom Luts/Komodo Phantom FILM LUTs G2/Komodo Phantom FILM LUTs G2/65x/Standard (No WB Offset)/EastmanRM_Komodo_Legacy_G2_65x.cube
TITLE "Generated by Resolve"
LUT_3D_SIZE 9
0.0549783 0.0563363 0.0502022
0.0763256 0.0516518 0.0457313
0.15613 0.044831 0.0487831
0.323369 0.0400702 0.0574807
0.509773 0.0344091 0.08159
0.536645 0.0430304 0.114046
0.553231 0.0417792 0.11017
0.548318 0.0387274 0.111269
0.542489 0.0399634 0.119127
0.0589303 0.0699931 0.050309
0.0617838 0.0700999 0.0522316
0.157702 0.0553292 0.047776
0.330892 0.0401007 0.0538033
0.490959 0.0386358 0.07776
0.523064 0.042298 0.0880293
0.531411 0.0425422 0.100267
0.541817 0.0415656 0.0964981
0.53817 0.0421912 0.101274
0.0729534 0.160342 0.0634318
0.0725567 0.161883 0.0620279
0.162005 0.172122 0.0660716
0.428931 0.142916 0.071809
0.527886 0.0628977 0.0745403
0.526482 0.0476692 0.0870527
0.53048 0.0467994 0.083772
0.530831 0.046891 0.083772
0.523964 0.0483253 0.0888685
0.0621195 0.380377 0.0586404
0.0610056 0.387045 0.0489662
0.0907149 0.398962 0.0512245
0.478767 0.505531 0.0959029
0.755871 0.524468 0.185
0.809369 0.52253 0.210681
0.811444 0.509636 0.20502
0.815229 0.514427 0.201373
0.809232 0.532189 0.214267
0.146197 0.615122 0.151797
0.173678 0.621424 0.138506
0.213428 0.632074 0.134646
0.441428 0.698955 0.172793
0.785138 0.831281 0.362768
0.894026 0.83624 0.45005
0.894255 0.837568 0.450996
0.894377 0.841688 0.453895
0.895994 0.847318 0.455467
0.224552 0.698421 0.304646
0.225223 0.697719 0.301015
0.225956 0.696605 0.29546
0.329366 0.700236 0.229648
0.754177 0.871199 0.419409
0.896635 0.907744 0.527626
0.898756 0.908217 0.533867
0.898756 0.908217 0.533867
0.897505 0.908629 0.537758
0.224384 0.698817 0.306996
0.225193 0.697978 0.302296
0.22887 0.695735 0.29102
0.326909 0.699336 0.226658
0.750408 0.869703 0.416968
0.893919 0.907683 0.523766
0.898756 0.908217 0.533867
0.898756 0.908217 0.533867
0.898756 0.908217 0.533867
0.227131 0.698054 0.302495
0.224826 0.698116 0.302983
0.228519 0.695827 0.291508
0.36051 0.708476 0.23389
0.770871 0.876875 0.429297
0.897627 0.90721 0.519432
0.901686 0.907256 0.523171
0.901686 0.907256 0.523171
0.901686 0.907256 0.523171
0.234318 0.695888 0.290623
0.230884 0.696117 0.292103
0.231876 0.694896 0.284947
0.417655 0.728023 0.24181
0.8 0.88629 0.43357
0.897978 0.907744 0.529458
0.901686 0.907256 0.523171
0.901686 0.907256 0.523171
0.901686 0.907256 0.523171
0.0526589 0.0577859 0.057145
0.0664683 0.057496 0.0581826
0.145876 0.0553597 0.064622
0.318364 0.0450599 0.0775616
0.504417 0.0368963 0.106493
0.530373 0.0427863 0.137606
0.543465 0.0436561 0.137285
0.545754 0.044892 0.140627
0.54229 0.0460975 0.14696
0.0558022 0.0675212 0.0563973
0.0589303 0.0662089 0.0572518
0.145815 0.0502022 0.0559701
0.324117 0.0432746 0.0690471
0.50106 0.0366827 0.101396
0.535515 0.0433967 0.119799
0.538949 0.0434119 0.126619
0.544182 0.0401617 0.119951
0.540383 0.0411536 0.125307
0.0691539 0.157824 0.0765087
0.0676585 0.158877 0.0684215
0.153933 0.167437 0.0667124
0.415763 0.124651 0.0691234
0.51046 0.0477455 0.0737774
0.52105 0.0462959 0.0884413
0.521218 0.0457771 0.0877546
0.521279 0.0458076 0.0877241
0.517494 0.0466621 0.0906691
0.062089 0.379904 0.0765545
0.060914 0.384817 0.0619974
0.0762646 0.392203 0.0500801
0.477638 0.502495 0.0954299
0.758267 0.514519 0.183017
0.810056 0.508492 0.207355
0.811704 0.493782 0.202579
0.814694 0.498634 0.199512
0.808881 0.514717 0.210025
0.127352 0.616236 0.180743
0.147265 0.61886 0.161578
0.211795 0.631403 0.133837
0.423728 0.691173 0.165347
0.784253 0.830427 0.361501
0.893706 0.833402 0.447623
0.89366 0.833616 0.447761
0.89424 0.838117 0.451545
0.896193 0.843442 0.451377
0.224414 0.699229 0.308873
0.22446 0.698573 0.305592
0.225849 0.696803 0.296483
0.299413 0.693385 0.225452
0.749264 0.869215 0.416388
0.896147 0.90779 0.527138
0.898756 0.908217 0.533867
0.898756 0.908217 0.533867
0.897505 0.908629 0.537758
0.22446 0.699748 0.311086
0.224384 0.699001 0.307851
0.228672 0.696086 0.29247
0.291188 0.691737 0.223194
0.742428 0.866865 0.412345
0.892409 0.907591 0.52192
0.898756 0.908217 0.533867
0.898756 0.908217 0.533867
0.898756 0.908217 0.533867
0.226871 0.699611 0.309728
0.224414 0.699229 0.308873
0.228565 0.69604 0.292363
0.325765 0.699107 0.226612
0.760922 0.873487 0.422919
0.894148 0.907683 0.523949
0.901686 0.907256 0.523171
0.901686 0.907256 0.523171
0.901686 0.907256 0.523171
0.233371 0.698512 0.303029
0.230304 0.697337 0.298512
0.231754 0.694987 0.285527
0.382269 0.714931 0.229282
0.791775 0.882856 0.427985
0.897017 0.907713 0.527916
0.901686 0.907256 0.523171
0.901686 0.907256 0.523171
0.901686 0.907256 0.523156
0.0478676 0.0666667 0.0927291
0.0583047 0.0620279 0.106752
0.148089 0.0633707 0.115419
0.331792 0.057435 0.112474
0.522362 0.0472877 0.144137
0.557916 0.0593576 0.184756
0.564675 0.0647135 0.196445
0.57644 0.066041 0.194553
0.575097 0.0690776 0.204257
0.0461585 0.0720073 0.0857252
0.0486305 0.065919 0.101503
0.148577 0.0636149 0.117876
0.342458 0.0576181 0.113695
0.525963 0.0464637 0.147524
0.55198 0.0569772 0.181247
0.566506 0.0594797 0.180957
0.581018 0.0604105 0.176226
0.57821 0.0632486 0.18587
0.0656138 0.143496 0.109346
0.0623178 0.144411 0.113878
0.157595 0.157412 0.133135
0.412375 0.0917525 0.109239
0.523796 0.0440986 0.120378
0.527184 0.0447547 0.132631
0.532265 0.0414893 0.129763
0.534569 0.0423133 0.132906
0.531624 0.0429084 0.137575
0.0648051 0.374945 0.142947
0.0610208 0.380819 0.134966
0.0624094 0.373236 0.0778515
0.460624 0.483085 0.0969863
0.763363 0.469306 0.173098
0.805386 0.452171 0.198749
0.807263 0.433051 0.187579
0.809964 0.436942 0.188769
0.803845 0.450523 0.200244
0.102754 0.621271 0.258427
0.108385 0.622431 0.243793
0.13106 0.61445 0.170642
0.348486 0.658228 0.132342
0.77554 0.820645 0.347311
0.892302 0.820157 0.437537
0.891752 0.818158 0.435691
0.892653 0.821546 0.438102
0.895521 0.826719 0.436179
0.222263 0.713573 0.367102
0.222507 0.708202 0.346029
0.224384 0.699031 0.307942
0.236057 0.688396 0.249821
0.72398 0.860365 0.402274
0.894408 0.907622 0.524163
0.898756 0.908217 0.533913
0.898756 0.908217 0.533867
0.89749 0.908629 0.537743
0.223697 0.721294 0.39617
0.222568 0.715984 0.375937
0.22446 0.699596 0.310414
0.231861 0.690806 0.264027
0.708324 0.854566 0.393927
0.885695 0.907515 0.514778
0.898756 0.908217 0.533867
0.898756 0.908217 0.533867
0.898756 0.908217 0.533867
0.227619 0.725093 0.408774
0.223484 0.720623 0.393133
0.22446 0.700053 0.31249
0.236423 0.68864 0.250416
0.726345 0.860945 0.403494
0.886168 0.907515 0.515282
0.898756 0.908217 0.533867
0.901686 0.907256 0.523171
0.901686 0.907256 0.523171
0.235233 0.725933 0.410758
0.229999 0.721859 0.396674
0.230213 0.698375 0.303059
0.262531 0.687907 0.225284
0.758618 0.871382 0.407538
0.889845 0.907729 0.519493
0.898756 0.908217 0.533867
0.901686 0.907256 0.523171
0.901686 0.907256 0.523171
0.043946 0.0823224 0.174395
0.0512093 0.0784466 0.19144
0.123857 0.0679332 0.239353
0.344656 0.069749 0.268498
0.527184 0.0605936 0.267933
0.563348 0.080415 0.306828
0.56408 0.0835431 0.320623
0.568414 0.089128 0.332921
0.576837 0.0935531 0.339055
0.0426337 0.0948196 0.174884
0.0437171 0.0831159 0.194827
0.109987 0.0672465 0.25124
0.362158 0.0705577 0.286671
0.538598 0.0644236 0.280491
0.559853 0.0806134 0.314092
0.571176 0.0911269 0.33312
0.57818 0.090013 0.331365
0.581186 0.0892195 0.331395
0.0485695 0.136187 0.171527
0.0464332 0.131884 0.179934
0.0602121 0.0992905 0.235904
0.368872 0.0733196 0.276493
0.538781 0.0645304 0.26627
0.564157 0.0815137 0.299107
0.561135 0.0814984 0.306767
0.570886 0.0819409 0.304601
0.577737 0.0836194 0.305791
0.066453 0.346334 0.28014
0.0630808 0.352392 0.289235
0.0632181 0.349065 0.287694
0.434485 0.430945 0.400183
0.75816 0.347036 0.397513
0.813306 0.272496 0.382254
0.799268 0.249638 0.373846
0.807248 0.247959 0.368368
0.805859 0.261158 0.386435
0.0965591 0.635248 0.406104
0.0982223 0.638804 0.404822
0.0971847 0.635859 0.378515
0.113436 0.600122 0.206729
0.711528 0.758068 0.34995
0.890303 0.764248 0.422858
0.88748 0.757656 0.416388
0.892638 0.757275 0.411124
0.893507 0.761593 0.423743
0.225254 0.740246 0.475029
0.225055 0.738949 0.470268
0.224765 0.733669 0.446647
0.227268 0.700633 0.314824
0.648569 0.831296 0.362737
0.887068 0.907576 0.516777
0.898924 0.908339 0.534752
0.898787 0.908232 0.534142
0.897581 0.90869 0.538231
0.226963 0.745876 0.496437
0.226291 0.744366 0.490776
0.224384 0.737438 0.463722
0.222675 0.706676 0.340475
0.598276 0.809354 0.335485
0.863752 0.905653 0.495216
0.898787 0.90808 0.532433
0.898878 0.908141 0.533013
0.898711 0.908202 0.533623
0.231968 0.749081 0.508492
0.228244 0.748379 0.506035
0.224842 0.740963 0.477745
0.222141 0.711009 0.356237
0.613321 0.815946 0.344564
0.860578 0.90518 0.493767
0.898344 0.907973 0.531304
0.898726 0.908171 0.533455
0.901625 0.90721 0.522789
0.24004 0.749981 0.513802
0.235569 0.749691 0.511635
0.230686 0.741985 0.481437
0.227634 0.711482 0.358557
0.661311 0.83595 0.356603
0.866941 0.906218 0.498482
0.898283 0.907942 0.530953
0.898695 0.908156 0.533272
0.901579 0.907195 0.522576
0.0419471 0.101228 0.319921
0.0432136 0.0945907 0.325917
0.0852979 0.0958877 0.367086
0.323674 0.0795148 0.440177
0.561013 0.121172 0.489219
0.622904 0.150256 0.519158
0.631144 0.158312 0.53904
0.631983 0.161013 0.547417
0.631296 0.163226 0.55491
0.0419928 0.112596 0.331212
0.0419623 0.10219 0.336019
0.0751812 0.0979934 0.375235
0.334325 0.0813916 0.455039
0.577493 0.130999 0.50631
0.631128 0.157351 0.537453
0.634577 0.162112 0.550134
0.634318 0.163684 0.556619
0.639048 0.163638 0.55761
0.0420996 0.138888 0.341772
0.0420081 0.136431 0.348745
0.043122 0.0978408 0.344961
0.305852 0.0816052 0.450843
0.582956 0.132265 0.508186
0.627451 0.156405 0.535653
0.631144 0.160555 0.546242
0.632441 0.163149 0.553414
0.635843 0.163027 0.554238
0.0434424 0.330694 0.411246
0.0432136 0.332021 0.418097
0.0434577 0.315709 0.423697
0.219562 0.268589 0.531746
0.749966 0.301472 0.673045
0.742504 0.234043 0.60856
0.713283 0.211154 0.581903
0.712779 0.211643 0.584894
0.728054 0.223728 0.60209
0.0847181 0.599863 0.518364
0.0830396 0.604242 0.526436
0.0827802 0.603983 0.526528
0.0831006 0.597345 0.521843
0.684886 0.704692 0.675959
0.874464 0.661234 0.658854
0.875242 0.651576 0.656184
0.874632 0.654292 0.661006
0.875135 0.662226 0.667536
0.229877 0.750256 0.574487
0.234028 0.752209 0.575631
0.229191 0.749279 0.567727
0.219959 0.742168 0.541604
0.492958 0.776638 0.527291
0.859831 0.905516 0.707713
0.913878 0.907607 0.735317
0.91397 0.905653 0.740749
0.915129 0.906538 0.743938
0.244694 0.766506 0.607111
0.244587 0.76643 0.605661
0.242863 0.765255 0.593317
0.236942 0.758984 0.554681
0.301778 0.73901 0.410208
0.830411 0.903822 0.534264
0.898894 0.907485 0.526696
0.899107 0.907759 0.528664
0.897749 0.908171 0.533593
0.247623 0.76672 0.619623
0.245914 0.766857 0.618326
0.244495 0.766369 0.60531
0.238178 0.760449 0.562783
0.314763 0.746883 0.434867
0.818143 0.902129 0.577874
0.897124 0.907729 0.529793
0.897688 0.908171 0.533623
0.897795 0.908141 0.533227
0.249699 0.766537 0.631006
0.250584 0.766369 0.626123
0.248798 0.766186 0.611627
0.242206 0.76112 0.567254
0.371405 0.759869 0.466804
0.823941 0.905989 0.628305
0.897108 0.907698 0.529458
0.897734 0.908156 0.533272
0.897826 0.908095 0.532815
0.0422522 0.109056 0.395377
0.0424201 0.10425 0.401419
0.0643473 0.108019 0.439368
0.239796 0.0854963 0.510231
0.542245 0.142565 0.574655
0.626444 0.174853 0.602319
0.626535 0.174823 0.602243
0.62652 0.174838 0.602258
0.625895 0.17499 0.602686
0.0424048 0.116243 0.393591
0.0423438 0.107012 0.396551
0.0605783 0.108019 0.437293
0.260746 0.0875868 0.514153
0.563485 0.150973 0.581811
0.626184 0.174914 0.602518
0.626596 0.174823 0.602213
0.626566 0.174823 0.602243
0.626429 0.174868 0.602335
0.0426337 0.146273 0.423468
0.0425727 0.139101 0.41735
0.0425116 0.104067 0.401297
0.220996 0.0835126 0.506172
0.562982 0.150744 0.581537
0.62591 0.174975 0.60267
0.62678 0.174777 0.602075
0.627024 0.174716 0.601907
0.627176 0.174685 0.601801
0.0435645 0.262638 0.469749
0.0435492 0.260578 0.471168
0.0432441 0.236103 0.464088
0.0937514 0.15378 0.497642
0.577173 0.187961 0.646845
0.649073 0.19173 0.625422
0.629923 0.176822 0.604105
0.642451 0.185962 0.617029
0.649729 0.192401 0.626093
0.0640116 0.561639 0.581201
0.0643626 0.563867 0.585046
0.0639048 0.557702 0.581323
0.0588693 0.537331 0.584131
0.538125 0.571878 0.754223
0.887083 0.639536 0.846525
0.891066 0.632013 0.842115
0.891737 0.635813 0.842588
0.887816 0.644038 0.845701
0.181415 0.71162 0.639277
0.182406 0.708553 0.633387
0.177218 0.704555 0.629877
0.16762 0.696818 0.623529
0.387869 0.764431 0.702098
0.842023 0.876478 0.846357
0.902708 0.872999 0.843778
0.902541 0.872328 0.843824
0.899519 0.876692 0.851225
0.251759 0.764019 0.683253
0.258625 0.76286 0.677913
0.258656 0.76379 0.671855
0.256962 0.765316 0.653941
0.26923 0.781186 0.648417
0.804746 0.909773 0.814496
0.901625 0.944366 0.877836
0.904082 0.945632 0.882979
0.903777 0.945846 0.886198
0.252079 0.762387 0.691691
0.251835 0.762692 0.690211
0.251759 0.764096 0.682948
0.250797 0.766247 0.661692
0.272053 0.783246 0.653483
0.78851 0.904463 0.802609
0.893141 0.94052 0.854627
0.904356 0.935988 0.78407
0.903792 0.934874 0.773419
0.250706 0.760525 0.696834
0.251865 0.761166 0.694759
0.252583 0.76318 0.686946
0.251728 0.765911 0.663828
0.279225 0.786557 0.662867
0.803479 0.911299 0.820966
0.892943 0.941131 0.867765
0.901183 0.941955 0.851331
0.901564 0.940642 0.82681
0.0426032 0.103868 0.40383
0.0451209 0.104082 0.413825
0.0789044 0.108965 0.449409
0.272068 0.0887465 0.516182
0.560204 0.149432 0.580499
0.626474 0.174853 0.602304
0.626535 0.174838 0.602243
0.62652 0.174838 0.602258
0.625895 0.17499 0.602686
0.0423285 0.107057 0.396353
0.0429999 0.103548 0.405386
0.0734874 0.108782 0.446113
0.289738 0.090959 0.519631
0.579095 0.156939 0.586526
0.626154 0.174914 0.602533
0.626596 0.174823 0.602213
0.626551 0.174838 0.602228
0.626673 0.174807 0.602152
0.0424811 0.14139 0.420172
0.0424506 0.126482 0.404639
0.0443885 0.103883 0.410101
0.245777 0.0859388 0.510109
0.57496 0.155138 0.585107
0.62591 0.174975 0.60267
0.626413 0.174868 0.60235
0.626444 0.174853 0.602319
0.626841 0.174762 0.602029
0.0430915 0.221576 0.458274
0.0430915 0.220829 0.458
0.0428168 0.202976 0.450401
0.078233 0.126406 0.468101
0.520714 0.145998 0.588693
0.627344 0.175479 0.60296
0.627634 0.175479 0.60293
0.627527 0.175647 0.603128
0.627146 0.175921 0.603494
0.0608377 0.542855 0.599466
0.0615091 0.54548 0.600397
0.0611276 0.540581 0.596796
0.053727 0.516228 0.588968
0.494102 0.5196 0.75053
0.876219 0.604898 0.867094
0.880842 0.599832 0.866789
0.881392 0.603922 0.867124
0.880552 0.612421 0.868269
0.149691 0.670405 0.654093
0.148913 0.671183 0.654963
0.146609 0.668284 0.654719
0.128008 0.655329 0.650446
0.216648 0.690623 0.700557
0.795132 0.826612 0.871427
0.901717 0.849302 0.887266
0.90222 0.850065 0.886732
0.898573 0.855329 0.890227
0.246403 0.758785 0.702739
0.247517 0.758556 0.7019
0.252445 0.757565 0.698299
0.252491 0.757565 0.698283
0.269749 0.774838 0.707332
0.751232 0.899443 0.855665
0.899474 0.940215 0.904784
0.906767 0.942977 0.907927
0.906386 0.943053 0.908431
0.247028 0.758648 0.702281
0.246403 0.75877 0.702739
0.246403 0.75877 0.702739
0.247059 0.75903 0.701885
0.276448 0.780255 0.705852
0.508934 0.847715 0.766506
0.900954 0.947677 0.906661
0.910521 0.95137 0.911803
0.909728 0.951751 0.913878
0.247044 0.758648 0.702266
0.247669 0.758526 0.701808
0.247669 0.758526 0.701808
0.248463 0.758785 0.700923
0.280522 0.782574 0.707362
0.585122 0.867445 0.793378
0.900374 0.948013 0.908156
0.90959 0.951644 0.913207
0.909667 0.95169 0.913573
0.0437171 0.103868 0.409751
0.048127 0.105257 0.421363
0.0874647 0.108614 0.453391
0.290745 0.0910964 0.519844
0.569558 0.153109 0.58323
0.62649 0.174838 0.602289
0.626535 0.174838 0.602258
0.62652 0.174838 0.602258
0.625895 0.17499 0.602686
0.0423438 0.104631 0.4
0.0442969 0.10396 0.411337
0.0810712 0.108812 0.450568
0.304829 0.0925002 0.522469
0.587259 0.160189 0.589426
0.626154 0.174914 0.602533
0.626627 0.174823 0.602182
0.626551 0.174838 0.602243
0.626795 0.174777 0.60206
0.0424964 0.1364 0.415152
0.0424048 0.121859 0.398856
0.0460822 0.104204 0.415244
0.25977 0.0874037 0.512596
0.581308 0.157626 0.58703
0.62591 0.174975 0.60267
0.626413 0.174868 0.60235
0.626459 0.174853 0.602304
0.626963 0.174731 0.601953
0.0428473 0.209552 0.45304
0.0428473 0.209277 0.452583
0.0427558 0.192355 0.445472
0.0734264 0.118791 0.457633
0.505241 0.133196 0.57142
0.627161 0.175311 0.602808
0.62739 0.175357 0.602792
0.627222 0.175448 0.60293
0.626932 0.175677 0.603204
0.0595102 0.5393 0.598123
0.0601511 0.541741 0.59939
0.0597391 0.537316 0.59588
0.0526131 0.510597 0.587274
0.492393 0.510735 0.749493
0.874189 0.596994 0.866331
0.880293 0.592111 0.865782
0.880842 0.59762 0.866621
0.880537 0.606943 0.867903
0.146792 0.666819 0.652735
0.148714 0.670954 0.655543
0.143557 0.664912 0.652842
0.125933 0.652827 0.649866
0.225574 0.687251 0.702144
0.790326 0.817639 0.870176
0.900801 0.841596 0.88751
0.900999 0.842023 0.887312
0.897337 0.846769 0.890745
0.246403 0.75877 0.702739
0.247349 0.758587 0.702022
0.252171 0.757626 0.698497
0.252186 0.75761 0.698497
0.24152 0.754894 0.703548
0.686564 0.871443 0.84239
0.894255 0.932494 0.90782
0.906905 0.939086 0.912673
0.906783 0.939529 0.913069
0.247028 0.758648 0.702281
0.246403 0.758785 0.702739
0.246403 0.75877 0.702739
0.246403 0.75877 0.702739
0.273045 0.778286 0.718059
0.295125 0.791928 0.729076
0.892287 0.945296 0.908324
0.911513 0.952026 0.916457
0.910521 0.95227 0.917128
0.247059 0.758648 0.702251
0.247669 0.758526 0.701808
0.247669 0.758526 0.701808
0.247669 0.758526 0.701808
0.277623 0.780636 0.719722
0.323079 0.797436 0.733791
0.887404 0.94493 0.907637
0.910521 0.95227 0.917128
0.910521 0.95227 0.917128
0.0444495 0.104067 0.412741
0.0498817 0.105913 0.424735
0.0916457 0.108614 0.455467
0.300603 0.0920424 0.52163
0.576165 0.15555 0.585367
0.626505 0.174838 0.602274
0.626535 0.174838 0.602258
0.62652 0.174838 0.602258
0.625895 0.17499 0.602686
0.0424506 0.104189 0.401724
0.0449073 0.104036 0.413336
0.0840314 0.108766 0.452216
0.313878 0.0935225 0.524117
0.592416 0.161944 0.590845
0.626169 0.174914 0.602518
0.626627 0.174823 0.602197
0.626551 0.174838 0.602243
0.626871 0.174762 0.602014
0.0424964 0.134798 0.41387
0.0422217 0.120592 0.396292
0.047013 0.104585 0.41738
0.267842 0.0880446 0.513893
0.585565 0.159304 0.588525
0.62591 0.174975 0.60267
0.626413 0.174868 0.60235
0.626459 0.174853 0.602304
0.627024 0.174716 0.601907
0.0428321 0.208133 0.45243
0.0428168 0.207355 0.451804
0.0428016 0.190982 0.445274
0.0755932 0.118456 0.458381
0.506188 0.132784 0.570535
0.627115 0.17528 0.602777
0.627329 0.175326 0.602762
0.627222 0.175448 0.602914
0.626993 0.175662 0.603189
0.0596323 0.539544 0.598154
0.0604715 0.54255 0.599588
0.0598611 0.537774 0.595926
0.052491 0.510277 0.587137
0.495872 0.510857 0.750957
0.87425 0.597025 0.866361
0.880186 0.593072 0.865766
0.880964 0.598489 0.866773
0.880858 0.607965 0.868406
0.146761 0.666804 0.652705
0.14963 0.672267 0.656153
0.143175 0.66453 0.652628
0.125521 0.652506 0.649653
0.232914 0.687282 0.703273
0.790692 0.816342 0.87042
0.900832 0.840803 0.887587
0.901076 0.841459 0.887449
0.897353 0.846418 0.890776
0.246403 0.758785 0.702739
0.247318 0.758602 0.702037
0.252155 0.757626 0.698497
0.252155 0.757626 0.698512
0.238056 0.752102 0.702464
0.697215 0.873411 0.845945
0.893568 0.931136 0.907332
0.906157 0.938109 0.912413
0.905959 0.938506 0.912764
0.246403 0.75877 0.702739
0.246403 0.75877 0.702739
0.246403 0.75877 0.702739
0.246403 0.75877 0.702739
0.273396 0.778775 0.718425
0.29633 0.792004 0.730007
0.886778 0.942306 0.907576
0.911238 0.952087 0.916671
0.910292 0.952331 0.917311
0.246403 0.75877 0.702739
0.246403 0.758785 0.702739
0.246403 0.75877 0.702739
0.246433 0.758801 0.702754
0.276951 0.781292 0.720714
0.307805 0.795178 0.733654
0.869429 0.939727 0.902937
0.910292 0.952331 0.917311
0.910292 0.952331 0.917311
