bundles/resolve-cinematic-luts/Phantom Luts/Komodo Phantom FILM LUTs G2/Komodo Phantom FILM LUTs G2/65x/Standard (No WB Offset)/Eastman_Komodo_Legacy_G2_65x.cube
TITLE "Generated by Resolve"
LUT_3D_SIZE 9
0.0562142 0.0403601 0.0475624
0.0694743 0.0419471 0.0501869
0.157504 0.0396277 0.0510719
0.335088 0.0459754 0.042359
0.483223 0.0626841 0.0484627
0.506874 0.081117 0.0598459
0.516274 0.0715496 0.0649729
0.527565 0.0553292 0.0652781
0.517342 0.0527199 0.0658579
0.0652018 0.0587015 0.0552834
0.0703288 0.0585641 0.0561379
0.156512 0.0549325 0.0564279
0.331518 0.0540322 0.0394141
0.458457 0.0889296 0.0444343
0.469902 0.0984207 0.045594
0.490867 0.0938735 0.0480354
0.501701 0.0913252 0.0489509
0.494408 0.0938277 0.0484321
0.0881056 0.156085 0.076936
0.0860914 0.156634 0.0747845
0.189059 0.178271 0.0859388
0.455253 0.176242 0.103273
0.551751 0.171435 0.0830854
0.515709 0.134829 0.051133
0.530968 0.124086 0.0511788
0.549294 0.140032 0.0605631
0.544182 0.149004 0.0606546
0.114504 0.410101 0.120668
0.113878 0.413931 0.105669
0.160143 0.427604 0.109209
0.500511 0.513939 0.143832
0.716136 0.548028 0.176989
0.767498 0.572427 0.186175
0.780362 0.582315 0.185458
0.791104 0.594156 0.18526
0.781567 0.606104 0.191959
0.161013 0.613931 0.197848
0.173556 0.620615 0.179553
0.192355 0.631876 0.172229
0.513085 0.716518 0.224552
0.747692 0.801022 0.293462
0.839017 0.810605 0.325536
0.839826 0.816175 0.330419
0.840726 0.821942 0.334066
0.84155 0.823957 0.335943
0.172534 0.67219 0.282856
0.172412 0.671275 0.277043
0.172427 0.670512 0.272755
0.383749 0.703426 0.225849
0.735668 0.836606 0.332464
0.842451 0.853895 0.373312
0.845396 0.854383 0.379828
0.845273 0.854398 0.379934
0.842466 0.854856 0.383169
0.172519 0.672557 0.285145
0.172427 0.671366 0.277607
0.172854 0.670466 0.270802
0.418402 0.716625 0.231159
0.744793 0.838285 0.329717
0.844205 0.853361 0.36759
0.849149 0.853788 0.375357
0.84921 0.853773 0.375296
0.849256 0.853773 0.375235
0.17406 0.672312 0.277546
0.172427 0.671397 0.277806
0.172656 0.670497 0.271656
0.420661 0.717388 0.231922
0.741207 0.837369 0.328634
0.841398 0.853193 0.36524
0.855268 0.852796 0.368368
0.864576 0.85127 0.357961
0.863645 0.851408 0.359091
0.177218 0.67187 0.26041
0.175769 0.67097 0.261463
0.176074 0.670222 0.255924
0.405982 0.712963 0.216205
0.744793 0.834043 0.31223
0.837705 0.853254 0.36405
0.85304 0.853132 0.370916
0.864256 0.851316 0.358373
0.863264 0.851484 0.359487
0.0531472 0.0426947 0.0554055
0.0696422 0.0443427 0.0606394
0.158251 0.0478828 0.0700236
0.334874 0.0390021 0.0500038
0.478065 0.0513771 0.0566873
0.504433 0.0421454 0.0761883
0.512657 0.045304 0.100816
0.523903 0.0459754 0.117006
0.520058 0.050248 0.126635
0.0608072 0.0546883 0.0586252
0.0650034 0.0538338 0.0602274
0.154925 0.0447089 0.0563363
0.328939 0.0503243 0.0429236
0.471931 0.0760662 0.0499428
0.49575 0.0817578 0.0609903
0.51017 0.0680858 0.0661631
0.517754 0.0522011 0.0663462
0.511864 0.0507515 0.0682536
0.0850843 0.151308 0.0892042
0.081529 0.150637 0.079881
0.17818 0.170138 0.0840925
0.439292 0.157733 0.0927901
0.514 0.144854 0.0610361
0.499413 0.122179 0.0481575
0.510903 0.116152 0.0493477
0.512566 0.119112 0.0492866
0.510231 0.122621 0.0486
0.115328 0.409384 0.14641
0.113924 0.409506 0.126223
0.139727 0.417899 0.10576
0.49781 0.509102 0.142733
0.716487 0.537865 0.175738
0.764584 0.555871 0.183276
0.779736 0.565301 0.180545
0.78735 0.57792 0.180591
0.776898 0.589502 0.187427
0.150362 0.610224 0.232853
0.157702 0.610224 0.201846
0.190646 0.627222 0.16997
0.4925 0.705959 0.216953
0.743313 0.796933 0.29015
0.837674 0.80444 0.321004
0.839094 0.809628 0.325002
0.839673 0.814237 0.327886
0.839994 0.815518 0.328923
0.172503 0.673213 0.288975
0.172534 0.672389 0.284108
0.172427 0.670512 0.272755
0.343725 0.690501 0.215656
0.727962 0.833844 0.330694
0.840986 0.853895 0.37203
0.845579 0.854353 0.37966
0.845472 0.854368 0.379767
0.842466 0.854856 0.383169
0.173449 0.676722 0.303136
0.172519 0.672801 0.28629
0.172778 0.670481 0.271122
0.365377 0.697566 0.216297
0.733684 0.834501 0.327108
0.840711 0.853239 0.364584
0.849241 0.853773 0.37525
0.849195 0.853773 0.375311
0.849149 0.853788 0.375372
0.175982 0.680018 0.310933
0.172519 0.672938 0.287251
0.172656 0.670497 0.271656
0.361761 0.696208 0.215213
0.727794 0.832517 0.325216
0.836103 0.853269 0.362661
0.854429 0.852934 0.368948
0.864729 0.851255 0.357794
0.863874 0.851377 0.358862
0.17789 0.67921 0.294041
0.175647 0.672221 0.270344
0.176135 0.670222 0.255528
0.348409 0.693523 0.198764
0.732021 0.829679 0.308309
0.83212 0.853101 0.360952
0.85362 0.85301 0.369665
0.864393 0.851301 0.358206
0.863447 0.851453 0.359304
0.0486763 0.0517433 0.0961471
0.0669108 0.0499886 0.110521
0.163958 0.0510109 0.12192
0.34345 0.0434882 0.131182
0.505211 0.0599985 0.172686
0.54107 0.0822309 0.215534
0.545892 0.0890364 0.237995
0.556573 0.0866865 0.252003
0.549737 0.0880598 0.259312
0.0475166 0.057557 0.0898909
0.0502632 0.050782 0.104524
0.16202 0.0511635 0.121553
0.34995 0.0447852 0.122026
0.503655 0.0554818 0.155505
0.53106 0.0747082 0.19501
0.548211 0.0814221 0.218372
0.565393 0.0846113 0.234745
0.558877 0.0869917 0.243259
0.0766918 0.134493 0.116335
0.0732738 0.133532 0.116793
0.17174 0.154559 0.155886
0.426505 0.114687 0.128237
0.514427 0.0878157 0.0890822
0.498711 0.0749676 0.0652171
0.506676 0.0595407 0.0661173
0.510735 0.0541085 0.0698558
0.508507 0.0521553 0.0715343
0.124254 0.410086 0.223148
0.120073 0.408591 0.209232
0.118425 0.396139 0.141421
0.482719 0.490043 0.144091
0.714977 0.493187 0.173754
0.757275 0.498558 0.176989
0.768429 0.503944 0.174655
0.777935 0.515221 0.17435
0.765377 0.527703 0.178897
0.150393 0.620111 0.3234
0.147387 0.61326 0.300542
0.149798 0.597757 0.212192
0.418296 0.668772 0.193317
0.731777 0.78381 0.280903
0.835187 0.788022 0.309194
0.83563 0.790555 0.31107
0.838468 0.793347 0.312108
0.837674 0.794278 0.31342
0.187366 0.702647 0.385916
0.180804 0.692256 0.358068
0.172519 0.672892 0.286931
0.219043 0.667857 0.202304
0.706081 0.826215 0.324086
0.836347 0.853758 0.368078
0.846235 0.854292 0.379416
0.846128 0.854292 0.379446
0.842588 0.854902 0.383551
0.19411 0.714153 0.415564
0.188617 0.704036 0.389609
0.172549 0.673548 0.290425
0.215854 0.667521 0.201053
0.703151 0.823758 0.319203
0.829358 0.85301 0.359701
0.848737 0.853803 0.375387
0.848829 0.853834 0.375723
0.848829 0.853834 0.375723
0.194125 0.717433 0.417594
0.191638 0.709026 0.401251
0.172702 0.674311 0.293584
0.211231 0.667323 0.204181
0.693294 0.821088 0.316335
0.821363 0.852384 0.35613
0.848478 0.853681 0.373983
0.863905 0.851377 0.358831
0.862898 0.85153 0.359884
0.193103 0.715068 0.399542
0.190494 0.706355 0.383169
0.175479 0.673442 0.276905
0.202564 0.66659 0.194598
0.696361 0.818952 0.300374
0.816938 0.852201 0.353735
0.848737 0.853574 0.372763
0.864424 0.851301 0.35816
0.863355 0.851469 0.359411
0.0390021 0.0606088 0.198047
0.0463111 0.057084 0.215351
0.14168 0.0520333 0.258854
0.351232 0.0564736 0.279332
0.500587 0.0667735 0.298268
0.536599 0.0832837 0.33286
0.542626 0.0879683 0.35816
0.545815 0.0924086 0.376989
0.554818 0.0962539 0.391867
0.0390021 0.0739757 0.2
0.0390021 0.0598306 0.214969
0.120958 0.0535744 0.264561
0.359884 0.0568246 0.286473
0.509407 0.0680858 0.301152
0.53814 0.0877546 0.335744
0.540108 0.0880598 0.355016
0.545022 0.0911269 0.372946
0.560555 0.0917067 0.386892
0.0448768 0.124651 0.20029
0.0414282 0.11841 0.205035
0.0539864 0.0793774 0.262058
0.365011 0.0657359 0.292744
0.498161 0.0657816 0.276524
0.529076 0.0829938 0.30518
0.535485 0.0877546 0.320882
0.537011 0.0856184 0.330098
0.542809 0.0819562 0.335286
0.110338 0.394232 0.32462
0.109239 0.396353 0.326314
0.107515 0.390372 0.323308
0.466377 0.455543 0.449912
0.712123 0.379522 0.403342
0.76669 0.341375 0.382895
0.76614 0.343236 0.389975
0.771282 0.349523 0.398642
0.773861 0.354452 0.404791
0.162203 0.654566 0.438361
0.161746 0.652064 0.433188
0.158907 0.641062 0.409674
0.192767 0.592172 0.289601
0.667643 0.714977 0.371756
0.838224 0.696757 0.365225
0.840406 0.69958 0.365209
0.848585 0.697093 0.366293
0.842206 0.698268 0.369299
0.206485 0.750317 0.484977
0.204135 0.744808 0.474022
0.19765 0.729763 0.444877
0.175448 0.679057 0.305623
0.667567 0.813413 0.312627
0.828763 0.853346 0.363546
0.846555 0.854078 0.377203
0.846326 0.854047 0.376364
0.84329 0.854398 0.379171
0.214023 0.764401 0.518227
0.210483 0.757153 0.503243
0.202319 0.739498 0.468391
0.177371 0.685893 0.338033
0.617609 0.797024 0.299992
0.804135 0.851225 0.347219
0.848859 0.853437 0.371679
0.847852 0.853956 0.376165
0.844999 0.854383 0.379736
0.216297 0.769848 0.527977
0.212848 0.761944 0.512901
0.203754 0.742458 0.473945
0.17937 0.688914 0.347478
0.588922 0.786984 0.293507
0.785702 0.849439 0.343984
0.846494 0.853513 0.371679
0.846204 0.854185 0.378408
0.85185 0.8533 0.371756
0.212985 0.767636 0.51284
0.209247 0.758846 0.494636
0.201495 0.739834 0.4598
0.179553 0.688106 0.338766
0.573129 0.780774 0.281895
0.777447 0.847837 0.341604
0.845212 0.853376 0.368399
0.848585 0.853758 0.374685
0.854948 0.852796 0.368032
0.0390021 0.0652781 0.310338
0.0390021 0.0596628 0.319799
0.102815 0.0578317 0.364294
0.351598 0.069337 0.411536
0.543542 0.124224 0.459098
0.596201 0.147021 0.498039
0.59823 0.150057 0.513207
0.600061 0.152575 0.523522
0.6009 0.154299 0.530022
0.0390021 0.0780041 0.32256
0.0390021 0.0643473 0.321004
0.0836042 0.0594339 0.364111
0.35375 0.070573 0.419196
0.552361 0.128756 0.46772
0.597925 0.147219 0.501717
0.600565 0.149584 0.515175
0.602106 0.151965 0.524834
0.602869 0.153506 0.530541
0.0390021 0.112535 0.327291
0.0390021 0.107439 0.333532
0.0390021 0.0602426 0.332341
0.324346 0.0664378 0.421836
0.554604 0.128069 0.468727
0.594812 0.146014 0.495094
0.597436 0.148898 0.505531
0.597971 0.149783 0.511971
0.598764 0.150637 0.515816
0.0682231 0.385611 0.431083
0.0668956 0.382162 0.433921
0.0599222 0.360052 0.434852
0.287037 0.318151 0.56173
0.723751 0.350942 0.640375
0.760708 0.309865 0.620142
0.762341 0.311711 0.624262
0.768124 0.320516 0.6327
0.771359 0.326619 0.637156
0.140764 0.631479 0.524636
0.140429 0.629892 0.524712
0.138933 0.625269 0.520928
0.163287 0.624292 0.526314
0.671443 0.695445 0.674464
0.820661 0.642817 0.63331
0.830411 0.636316 0.630869
0.831556 0.636301 0.633036
0.831098 0.635569 0.632715
0.213886 0.775616 0.580102
0.210636 0.769512 0.573068
0.202823 0.754253 0.552453
0.201404 0.749538 0.533089
0.527398 0.767987 0.578805
0.817304 0.859052 0.655573
0.893431 0.849042 0.663462
0.891737 0.843137 0.661784
0.891966 0.837186 0.654566
0.225406 0.794614 0.615412
0.22504 0.793194 0.604837
0.223575 0.788388 0.583551
0.217319 0.772152 0.534371
0.33579 0.724208 0.435233
0.75407 0.854932 0.480613
0.842863 0.854032 0.374563
0.844022 0.854383 0.379385
0.84213 0.854734 0.381781
0.225559 0.796139 0.62565
0.225406 0.794308 0.613291
0.224445 0.78941 0.589334
0.217502 0.771984 0.535973
0.29688 0.718502 0.427085
0.728191 0.846555 0.476524
0.840665 0.854231 0.375433
0.842466 0.854475 0.379416
0.841932 0.854658 0.380865
0.225513 0.795758 0.623331
0.225437 0.793927 0.610407
0.224109 0.788739 0.586252
0.217441 0.771237 0.534005
0.27425 0.715236 0.420432
0.71519 0.842573 0.478294
0.837247 0.855238 0.388769
0.841489 0.854475 0.379156
0.841932 0.854643 0.380743
0.0390021 0.0662852 0.365911
0.0390021 0.0616464 0.373083
0.0836805 0.0631723 0.412329
0.315831 0.0739147 0.475914
0.556512 0.14136 0.527214
0.601877 0.157015 0.542092
0.601877 0.157015 0.542092
0.601877 0.157015 0.542092
0.601877 0.157015 0.542092
0.0390021 0.0761273 0.368322
0.0390021 0.0644541 0.367544
0.071107 0.0637369 0.40798
0.318929 0.0747997 0.477577
0.564187 0.144274 0.529809
0.601877 0.157015 0.542092
0.601877 0.157015 0.542092
0.601877 0.157015 0.542092
0.601877 0.157015 0.542092
0.0390021 0.116594 0.395605
0.0390021 0.109407 0.391989
0.0390021 0.0615854 0.374075
0.280995 0.0692607 0.470832
0.558923 0.142168 0.528023
0.601877 0.157015 0.542092
0.601938 0.157 0.542107
0.602029 0.15697 0.542153
0.602029 0.15697 0.542153
0.0460212 0.330205 0.465797
0.0439307 0.322057 0.465614
0.0390021 0.287037 0.459281
0.180438 0.194461 0.533532
0.641794 0.26508 0.669047
0.725505 0.269032 0.660273
0.728435 0.271962 0.662089
0.736507 0.28098 0.671183
0.741329 0.286397 0.675959
0.122408 0.597635 0.57528
0.121279 0.595087 0.574792
0.118303 0.587152 0.572442
0.111498 0.568353 0.576867
0.560342 0.604425 0.756344
0.858274 0.634012 0.795193
0.87776 0.629145 0.794034
0.877958 0.630671 0.7944
0.874449 0.629358 0.79176
0.190967 0.745434 0.628183
0.183108 0.73225 0.613382
0.177707 0.72224 0.605173
0.173388 0.714199 0.599451
0.50544 0.796368 0.726787
0.820569 0.848508 0.821881
0.895201 0.835126 0.812802
0.893828 0.82884 0.808331
0.891508 0.823331 0.803632
0.222629 0.797848 0.674922
0.223194 0.798581 0.668238
0.224079 0.79884 0.656321
0.225452 0.797086 0.629862
0.251926 0.817151 0.638346
0.776623 0.894133 0.799603
0.897978 0.927428 0.828412
0.922423 0.927626 0.838285
0.921218 0.924956 0.835111
0.221042 0.796613 0.681468
0.222904 0.797986 0.674662
0.224338 0.798672 0.659678
0.225528 0.796475 0.627543
0.241917 0.818357 0.625971
0.680552 0.863157 0.722652
0.872435 0.926024 0.77351
0.890105 0.904341 0.668956
0.845563 0.855787 0.39649
0.22182 0.797086 0.680949
0.223011 0.797971 0.673274
0.224445 0.798672 0.65832
0.225574 0.796063 0.624933
0.24065 0.815824 0.620264
0.661601 0.856016 0.711803
0.864408 0.924254 0.776242
0.901778 0.919036 0.730159
0.852308 0.860441 0.447623
0.0390021 0.0621805 0.371893
0.0390021 0.0618296 0.381476
0.105165 0.0619974 0.422126
0.341634 0.0785992 0.481025
0.574624 0.148318 0.532769
0.601877 0.157015 0.542092
0.601877 0.157015 0.542092
0.601877 0.157015 0.542092
0.601877 0.157015 0.542092
0.0390021 0.0680552 0.367132
0.0390021 0.0617075 0.373739
0.0901961 0.0631723 0.416541
0.341512 0.0785077 0.480888
0.578805 0.149508 0.534279
0.601877 0.157015 0.542092
0.601877 0.157015 0.542092
0.601877 0.157015 0.542092
0.601877 0.157015 0.542092
0.0390021 0.111742 0.392935
0.0390021 0.101671 0.388403
0.0390021 0.0617075 0.380468
0.301167 0.0717632 0.474159
0.569375 0.145968 0.531136
0.601877 0.157015 0.542092
0.601877 0.157015 0.542092
0.601877 0.157015 0.542092
0.601877 0.157015 0.542092
0.0390021 0.293706 0.465644
0.0390021 0.287068 0.46247
0.0390021 0.253346 0.448203
0.167239 0.157427 0.507652
0.606302 0.22829 0.63267
0.688411 0.233814 0.626337
0.69807 0.242512 0.635248
0.70808 0.25211 0.645014
0.714763 0.258869 0.651774
0.116503 0.581353 0.593286
0.115465 0.578439 0.592279
0.112184 0.569604 0.589334
0.105486 0.549722 0.592279
0.506569 0.547799 0.76112
0.852155 0.601907 0.829419
0.875212 0.604395 0.825788
0.875532 0.606744 0.826612
0.87509 0.604669 0.825833
0.172793 0.715084 0.648463
0.167193 0.703639 0.643748
0.158267 0.683894 0.634745
0.150103 0.665324 0.629664
0.372381 0.722622 0.725063
0.772244 0.806485 0.861341
0.902281 0.818433 0.873716
0.90367 0.812726 0.870115
0.901915 0.807782 0.867231
0.216739 0.793133 0.688823
0.216846 0.793088 0.689036
0.216556 0.793423 0.687694
0.219837 0.795407 0.677378
0.223987 0.795804 0.68127
0.752026 0.897795 0.854261
0.895766 0.921645 0.893385
0.92163 0.920592 0.892424
0.920577 0.917937 0.890517
0.216846 0.793088 0.689036
0.216846 0.793088 0.689036
0.216739 0.793225 0.688533
0.222599 0.797925 0.674846
0.238361 0.820752 0.677714
0.489693 0.871168 0.747936
0.882994 0.942336 0.889677
0.925185 0.952087 0.898604
0.926024 0.952667 0.902815
0.216846 0.793088 0.689036
0.216846 0.793088 0.689036
0.216892 0.793118 0.68896
0.223163 0.798123 0.672847
0.237736 0.819532 0.672221
0.484413 0.868544 0.741604
0.861753 0.937331 0.876204
0.919539 0.950744 0.890669
0.924941 0.950454 0.884779
0.0390021 0.0612497 0.376013
0.0390021 0.0631418 0.38883
0.121645 0.0613565 0.428016
0.360342 0.0823377 0.48394
0.584955 0.151324 0.536294
0.601877 0.157015 0.542092
0.601877 0.157015 0.542092
0.601877 0.157015 0.542092
0.601877 0.157015 0.542092
0.0390021 0.0641642 0.36817
0.0390021 0.0613413 0.377691
0.103456 0.062089 0.421469
0.359243 0.0822003 0.483833
0.588495 0.152331 0.537392
0.601877 0.157015 0.542092
0.601877 0.157015 0.542092
0.601877 0.157015 0.542092
0.601877 0.157015 0.542092
0.0390021 0.110506 0.392248
0.0390021 0.0956283 0.384497
0.0390021 0.0625467 0.385489
0.315373 0.073991 0.476661
0.577768 0.149157 0.53373
0.601877 0.157015 0.542092
0.601877 0.157015 0.542092
0.601877 0.157015 0.542092
0.601877 0.157015 0.542092
0.0390021 0.282307 0.460151
0.0390021 0.273014 0.456489
0.0390021 0.239231 0.442573
0.161578 0.140703 0.495949
0.589426 0.209751 0.61268
0.671641 0.218448 0.609873
0.679835 0.225834 0.61825
0.694286 0.238972 0.631739
0.701289 0.24538 0.638086
0.11603 0.579782 0.592691
0.114717 0.575723 0.591501
0.111391 0.566232 0.588846
0.103273 0.543572 0.590387
0.505714 0.535836 0.76051
0.849897 0.591455 0.826535
0.873732 0.595209 0.823346
0.873884 0.596613 0.82388
0.874067 0.594171 0.823407
0.1729 0.715846 0.649683
0.165301 0.700984 0.642664
0.156069 0.67866 0.634272
0.14786 0.65948 0.628626
0.356863 0.70808 0.722179
0.744976 0.776562 0.860563
0.898253 0.797559 0.878187
0.902785 0.793774 0.877455
0.901274 0.787961 0.875319
0.216739 0.793133 0.688807
0.216846 0.793088 0.689036
0.216541 0.79324 0.68838
0.208469 0.780636 0.68162
0.195499 0.763027 0.683574
0.663035 0.85507 0.841352
0.879713 0.902892 0.90634
0.921126 0.908568 0.911284
0.920439 0.905394 0.909972
0.216846 0.793088 0.689036
0.216846 0.793088 0.689036
0.216678 0.793179 0.688685
0.216663 0.793179 0.688624
0.234318 0.820096 0.707942
0.348333 0.84387 0.741375
0.863264 0.936477 0.906661
0.922683 0.949569 0.920699
0.928115 0.950286 0.921599
0.216846 0.793088 0.689036
0.216846 0.793088 0.689036
0.216846 0.793088 0.689036
0.216846 0.793088 0.689036
0.236316 0.819837 0.703487
0.254536 0.839246 0.713497
0.796094 0.934447 0.884489
0.921157 0.953811 0.921233
0.926909 0.954467 0.922881
0.0390021 0.0615854 0.379477
0.0423133 0.0632792 0.391989
0.13193 0.0611582 0.43209
0.371633 0.0844892 0.485618
0.590814 0.153246 0.538216
0.601877 0.157015 0.542092
0.601877 0.157015 0.542092
0.601877 0.157015 0.542092
0.601877 0.157015 0.542092
0.0390021 0.0629892 0.369955
0.0390021 0.0616922 0.380713
0.1122 0.0616464 0.424842
0.36936 0.0840162 0.485176
0.594736 0.154803 0.539712
0.601877 0.157015 0.542092
0.601877 0.157015 0.542092
0.601877 0.157015 0.542092
0.601877 0.157015 0.542092
0.0390021 0.108888 0.391638
0.0390021 0.0925307 0.382681
0.0390021 0.0630961 0.388388
0.325124 0.0760052 0.478676
0.582574 0.150622 0.535332
0.601877 0.157015 0.542092
0.601877 0.157015 0.542092
0.601877 0.157015 0.542092
0.601877 0.157015 0.542092
0.0390021 0.278935 0.459174
0.0390021 0.269688 0.455238
0.0390021 0.234409 0.440925
0.159335 0.13228 0.490517
0.583017 0.203281 0.605417
0.663813 0.211429 0.602564
0.674525 0.220951 0.613108
0.687617 0.232868 0.625345
0.695506 0.239918 0.632502
0.11603 0.579782 0.592599
0.114641 0.575586 0.59144
0.110979 0.565469 0.588434
0.102052 0.540948 0.589502
0.50573 0.531518 0.759976
0.848951 0.58732 0.82562
0.872953 0.590723 0.822065
0.873793 0.592096 0.822858
0.872709 0.589014 0.821485
0.173434 0.717906 0.650782
0.162982 0.696803 0.64062
0.15523 0.676814 0.633692
0.146639 0.657252 0.62771
0.358892 0.70454 0.721736
0.740887 0.769223 0.858976
0.896666 0.791287 0.876738
0.901686 0.78703 0.875242
0.900389 0.780835 0.873014
0.216739 0.793149 0.688792
0.216846 0.793088 0.689036
0.216632 0.793194 0.688563
0.204822 0.77499 0.678599
0.195727 0.759304 0.683742
0.664424 0.850477 0.841077
0.872419 0.894835 0.905425
0.918929 0.900649 0.910704
0.91873 0.897383 0.91014
0.2168 0.793118 0.68893
0.216846 0.793088 0.689036
0.216693 0.793164 0.688716
0.216632 0.793194 0.688594
0.23299 0.819226 0.709087
0.354803 0.833463 0.749584
0.829679 0.925475 0.899214
0.919127 0.944366 0.925353
0.9281 0.946487 0.925124
0.216846 0.793088 0.689036
0.216846 0.793088 0.689036
0.216846 0.793088 0.689036
0.216785 0.793118 0.688899
0.232563 0.818753 0.708507
0.239963 0.831357 0.719036
0.626734 0.905196 0.839277
0.916213 0.95378 0.927352
0.927169 0.954742 0.925917
