bundles/resolve-cinematic-luts/Phantom Luts/Komodo Phantom FILM LUTs G2/Komodo Phantom FILM LUTs G2/65x/Standard (No WB Offset)/EastmanRM_Komodo_Legacy_G2_65x.cube
TITLE "Generated by Resolve"
LUT_3D_SIZE 65
0.0549783 0.0563363 0.0502022
0.0549783 0.0563363 0.0502022
0.0549783 0.0563363 0.0502022
0.0556802 0.0559548 0.0497902
0.0571145 0.0551919 0.0485847
0.0610666 0.0538796 0.0470436
0.066392 0.0531319 0.0461738
0.0715496 0.0523079 0.0456855
0.0763256 0.0516518 0.0457313
0.0824598 0.0510567 0.0458534
0.0906844 0.0504616 0.0459144
0.100099 0.0496376 0.0462501
0.110597 0.0484627 0.0464027
0.120424 0.0474403 0.0466773
0.130938 0.0462348 0.0470436
0.143923 0.0455329 0.0478523
0.15613 0.044831 0.0487831
0.170001 0.0445411 0.0499428
0.184695 0.0439918 0.0508125
0.20116 0.0434119 0.0517128
0.22031 0.04271 0.0529183
0.243259 0.042298 0.0538796
0.268101 0.0417945 0.0548257
0.294789 0.0412146 0.0558785
0.323369 0.0400702 0.0574807
0.352667 0.0393835 0.058732
0.381628 0.0376745 0.0608682
0.409216 0.0366522 0.0640116
0.434684 0.0362097 0.0671397
0.456977 0.0352941 0.0704814
0.478172 0.0350347 0.0742199
0.495644 0.0344549 0.0782483
0.509773 0.0344091 0.08159
0.518456 0.0346075 0.086244
0.527276 0.0380865 0.0929732
0.532692 0.0412909 0.101427
0.534798 0.0428321 0.107927
0.53431 0.043061 0.11046
0.535042 0.0430915 0.11165
0.535882 0.043061 0.113039
0.536645 0.0430304 0.114046
0.537285 0.0430304 0.115129
0.537896 0.0430304 0.116014
0.538476 0.0429999 0.117067
0.540444 0.0427863 0.116747
0.543679 0.0425116 0.115053
0.548455 0.0420844 0.111925
0.551965 0.0418097 0.110277
0.553231 0.0417792 0.11017
0.553643 0.0418555 0.110597
0.553994 0.0419013 0.111131
0.55436 0.0419471 0.111772
0.552773 0.0413214 0.111696
0.553109 0.0413825 0.112352
0.552361 0.0409705 0.112352
0.548043 0.0386358 0.110979
0.548318 0.0387274 0.111269
0.548531 0.038819 0.111559
0.548714 0.03888 0.111879
0.548898 0.038941 0.1122
0.549065 0.0390021 0.11249
0.549233 0.0390326 0.112734
0.549355 0.0390631 0.112932
0.547433 0.039353 0.114794
0.542489 0.0399634 0.119127
0.0573892 0.0549172 0.0481575
0.0558633 0.0558328 0.0496681
0.0549783 0.0563363 0.0502022
0.0556802 0.0559548 0.0497902
0.0569924 0.0551766 0.0486152
0.0608225 0.0538643 0.047013
0.0657969 0.0531624 0.0461585
0.0711833 0.052369 0.0456855
0.0760662 0.0516823 0.045716
0.0820478 0.0511025 0.0458381
0.0905165 0.0504311 0.0458839
0.100038 0.0495613 0.0461433
0.11075 0.0483406 0.0463264
0.120516 0.0473182 0.0465248
0.13138 0.0460517 0.0468299
0.144289 0.0452583 0.0475624
0.156619 0.0445258 0.0484321
0.170184 0.0441749 0.0496071
0.185046 0.0436255 0.0504158
0.20145 0.0429694 0.0511177
0.220951 0.042298 0.0523995
0.244053 0.0415351 0.0531624
0.268971 0.0410315 0.0541085
0.295644 0.0406806 0.0555886
0.323247 0.0397192 0.0572213
0.35227 0.0391089 0.058732
0.382681 0.0372931 0.0606546
0.410895 0.036286 0.0630655
0.435813 0.0356909 0.0663462
0.458152 0.0348516 0.0694896
0.478935 0.0345922 0.0735943
0.495964 0.0341039 0.0769055
0.510277 0.0341497 0.0811322
0.518486 0.0343938 0.0856336
0.528405 0.0386206 0.092546
0.532967 0.0415351 0.100938
0.534203 0.0427863 0.107073
0.533715 0.0430152 0.109865
0.534463 0.0430915 0.110811
0.535225 0.0430915 0.112169
0.536034 0.043061 0.113405
0.536767 0.0430304 0.114366
0.537377 0.0430304 0.115328
0.537957 0.0430304 0.116167
0.538476 0.0429999 0.117113
0.540307 0.0428016 0.116808
0.543404 0.0425269 0.115084
0.548104 0.0420844 0.111894
0.551644 0.0417639 0.110109
0.552972 0.0417334 0.10985
0.553338 0.0417945 0.110292
0.553643 0.0418555 0.110597
0.553964 0.0419013 0.11104
0.553429 0.0416419 0.111284
0.553399 0.0415961 0.11165
0.552071 0.0408179 0.111315
0.552178 0.0408789 0.111635
0.55227 0.0409094 0.112016
0.552331 0.04094 0.112322
0.552392 0.0409705 0.112612
0.551705 0.0404059 0.112413
0.548226 0.0386969 0.111162
0.548333 0.0387427 0.111284
0.546258 0.0390173 0.113283
0.541451 0.0395972 0.117571
0.0573739 0.0549172 0.0481727
0.0558633 0.0558328 0.0496834
0.054963 0.0563516 0.0502022
0.0553902 0.0561532 0.0499886
0.0564279 0.0554971 0.0491646
0.0594339 0.0544137 0.0475776
0.0642405 0.0535439 0.0465095
0.0700542 0.0526436 0.0459449
0.0754559 0.0518807 0.0457465
0.0814221 0.0512703 0.0458534
0.0899519 0.0505684 0.0458839
0.0995804 0.0496681 0.046128
0.110552 0.0484321 0.0463417
0.120531 0.0473487 0.0465248
0.131777 0.0460212 0.0467842
0.144778 0.045182 0.0475013
0.157244 0.0443885 0.0483101
0.170489 0.0440223 0.0494087
0.185336 0.0433661 0.0500954
0.201602 0.0426795 0.050721
0.221164 0.0419623 0.0518196
0.244526 0.0408179 0.0526741
0.269886 0.0403143 0.0534524
0.296941 0.0397955 0.0549325
0.323781 0.0390936 0.0565499
0.352193 0.0386358 0.0583505
0.381872 0.0369421 0.0603952
0.410559 0.035996 0.0627298
0.436622 0.0351415 0.0654459
0.45951 0.0343938 0.0683604
0.47953 0.0340734 0.0725414
0.496635 0.033753 0.0760815
0.509743 0.0338293 0.0799115
0.518227 0.0342718 0.08365
0.528618 0.0392462 0.0911116
0.532784 0.0417639 0.099855
0.533486 0.0427405 0.105806
0.532677 0.0430304 0.108858
0.5337 0.0430457 0.110216
0.534401 0.0431067 0.111147
0.535134 0.043122 0.11249
0.535912 0.0430915 0.113573
0.536568 0.043061 0.114443
0.537194 0.0430457 0.115312
0.537697 0.0430457 0.116106
0.538277 0.0430152 0.116945
0.539773 0.0428473 0.116732
0.542687 0.0425422 0.115053
0.54696 0.0421302 0.112032
0.550744 0.0417639 0.109941
0.552575 0.0416571 0.108965
0.552819 0.0417182 0.109575
0.55314 0.0417639 0.110048
0.553414 0.0418097 0.110369
0.553674 0.0418555 0.110628
0.553857 0.041886 0.110887
0.554009 0.0419013 0.111101
0.554162 0.0419165 0.11136
0.554314 0.0419318 0.11165
0.554437 0.0419471 0.11191
0.551553 0.0405737 0.111009
0.550942 0.0402991 0.111025
0.551034 0.0403296 0.111131
0.549081 0.0405585 0.112993
0.544152 0.0411841 0.117372
0.0573587 0.0549325 0.048188
0.0558175 0.0558633 0.0496986
0.0549172 0.0563668 0.0502327
0.0547189 0.0564584 0.05037
0.0553292 0.0561837 0.0500191
0.0569314 0.0555123 0.0490425
0.0618296 0.0543526 0.0473487
0.0678111 0.0533455 0.0463264
0.0742199 0.0522621 0.0457313
0.0806134 0.051606 0.0457618
0.0885328 0.0510414 0.0458381
0.0979629 0.0501869 0.046067
0.109606 0.0488594 0.0463417
0.119844 0.0476692 0.0465248
0.131579 0.0463264 0.0467536
0.144732 0.0453956 0.0474556
0.157473 0.0445563 0.0483406
0.170916 0.0441749 0.0494698
0.185794 0.0433814 0.0500343
0.202029 0.0426337 0.0504921
0.221729 0.0418402 0.0513313
0.244495 0.0403906 0.0521706
0.270359 0.0398108 0.052781
0.297276 0.0390784 0.0538949
0.324483 0.0383459 0.0554055
0.353201 0.0380865 0.0572671
0.38172 0.0364843 0.0597238
0.409857 0.0356603 0.0624094
0.435782 0.0346532 0.0650645
0.459663 0.0340429 0.0679484
0.480049 0.0335241 0.0711833
0.496498 0.0333715 0.0743877
0.509056 0.0333867 0.0779736
0.520119 0.0356756 0.0827344
0.528786 0.0397955 0.0894179
0.53257 0.0420081 0.0987259
0.531884 0.04271 0.104051
0.531685 0.0430152 0.107454
0.532311 0.0430762 0.109148
0.533288 0.0431067 0.110338
0.534127 0.0431373 0.111269
0.534722 0.0431525 0.112551
0.535424 0.0431373 0.113542
0.536034 0.0431067 0.11429
0.536675 0.0430915 0.11516
0.537194 0.0430762 0.115877
0.537636 0.0430762 0.116564
0.538903 0.0429389 0.116487
0.541756 0.0426032 0.1149
0.545647 0.0421759 0.111833
0.549828 0.0417182 0.109346
0.552087 0.0415351 0.107881
0.5523 0.0415808 0.108232
0.552483 0.0416266 0.108751
0.552636 0.0416724 0.109148
0.552773 0.0417029 0.109468
0.552911 0.0417334 0.109743
0.553079 0.0417487 0.109957
0.553216 0.0417792 0.11014
0.553338 0.0418097 0.110292
0.55346 0.041825 0.110414
0.553567 0.0418402 0.110521
0.553643 0.0418555 0.110597
0.551843 0.0420996 0.112367
0.54699 0.0426947 0.117159
0.0572061 0.0550088 0.0483406
0.0555734 0.0560159 0.0498512
0.0546273 0.0565042 0.0504311
0.0544747 0.0565805 0.0505684
0.0550698 0.0562905 0.0501564
0.0563516 0.0556191 0.0493019
0.0606241 0.0546426 0.0474708
0.0657816 0.0539406 0.0464637
0.0721904 0.0528725 0.0457465
0.0785077 0.0522316 0.0457618
0.0865492 0.0517128 0.0458076
0.0960555 0.0509041 0.0459602
0.107759 0.0496986 0.0462959
0.118486 0.0483253 0.046479
0.130526 0.0469825 0.0467231
0.143709 0.0460822 0.0473487
0.157031 0.0451667 0.048249
0.170825 0.0446479 0.0494087
0.186099 0.0437781 0.0501106
0.202777 0.0429847 0.05066
0.222583 0.0419471 0.0513619
0.245319 0.040528 0.0520333
0.270985 0.0396429 0.0526131
0.297078 0.0387274 0.052903
0.325063 0.0378271 0.0543679
0.353964 0.0372625 0.0558175
0.381689 0.0358129 0.057847
0.409293 0.0350805 0.060853
0.434852 0.0340887 0.0640574
0.458015 0.0335851 0.0674601
0.477989 0.0331273 0.0700542
0.495674 0.032929 0.0731975
0.511437 0.0345006 0.0773022
0.523522 0.0377508 0.081651
0.528283 0.0400244 0.0878004
0.53109 0.0420844 0.0958572
0.529351 0.0425879 0.100786
0.529854 0.0429847 0.105425
0.531136 0.0430457 0.107408
0.531807 0.0430915 0.109056
0.532525 0.0431525 0.110262
0.533394 0.043183 0.111192
0.534112 0.043183 0.112261
0.5346 0.0431983 0.113298
0.53518 0.043183 0.114061
0.535714 0.0431525 0.114809
0.536217 0.0431525 0.115358
0.536721 0.043122 0.11603
0.53782 0.0430304 0.115877
0.54049 0.0427253 0.114366
0.544411 0.0422827 0.111192
0.548669 0.0417639 0.108263
0.551278 0.041474 0.106447
0.551781 0.0414282 0.106523
0.551904 0.0414435 0.106889
0.551995 0.041474 0.107256
0.552071 0.0415045 0.107576
0.552132 0.0415351 0.107774
0.552209 0.0415503 0.107973
0.55227 0.0415656 0.108141
0.552316 0.0415961 0.108263
0.552377 0.0415961 0.108431
0.552422 0.0416114 0.108553
0.550591 0.0418402 0.110399
0.545525 0.0424811 0.115084
0.0571603 0.0560464 0.0486458
0.0554971 0.0569314 0.0501259
0.0545815 0.0572061 0.0508888
0.0544289 0.057084 0.0509499
0.0542458 0.0569619 0.0510719
0.054612 0.0565499 0.0504921
0.0567941 0.056199 0.0494392
0.0623789 0.0551919 0.0476081
0.0687724 0.0540169 0.0464027
0.0759289 0.0531167 0.0457923
0.0833143 0.0527199 0.0458381
0.0931716 0.0518502 0.0459297
0.104616 0.0509041 0.0462654
0.116243 0.0492866 0.0463569
0.129305 0.047837 0.0467079
0.142504 0.0469673 0.0472572
0.156069 0.0461128 0.048127
0.170382 0.0453346 0.0492256
0.185901 0.0444343 0.0499733
0.203189 0.0437629 0.0508125
0.222721 0.0424659 0.0512398
0.246815 0.0413367 0.051957
0.272511 0.0403143 0.0522316
0.299046 0.0391852 0.0530709
0.326101 0.0377966 0.0538796
0.354116 0.0369268 0.0546578
0.381201 0.0353399 0.0560769
0.408133 0.0342565 0.0585489
0.433616 0.033463 0.0616617
0.456382 0.033051 0.0653697
0.475517 0.032578 0.0685588
0.492638 0.0325933 0.0723278
0.509636 0.0348363 0.0760204
0.521737 0.0379644 0.0806744
0.526925 0.0402838 0.0850385
0.528618 0.0420233 0.0921492
0.527413 0.0426947 0.0979019
0.527123 0.0429541 0.102007
0.52903 0.0430457 0.104723
0.530205 0.0430915 0.106691
0.531029 0.0431067 0.108263
0.531685 0.0431373 0.109712
0.532326 0.0432136 0.110643
0.533059 0.0432441 0.111589
0.53373 0.0432136 0.112474
0.534203 0.0432136 0.113313
0.534585 0.0432441 0.113939
0.534951 0.0432288 0.114641
0.535363 0.0431983 0.115129
0.536202 0.0431373 0.115129
0.538582 0.0428626 0.113787
0.542428 0.0424201 0.11078
0.546914 0.041886 0.107408
0.550027 0.0415351 0.105165
0.550744 0.041474 0.104814
0.550896 0.041474 0.105089
0.551034 0.0414588 0.105303
0.551125 0.0414588 0.105501
0.551232 0.0414435 0.105638
0.551308 0.0414435 0.105745
0.551369 0.0414435 0.105821
0.551446 0.0414282 0.105898
0.551492 0.0414282 0.105959
0.549416 0.0416724 0.107912
0.544152 0.0423133 0.112612
0.0574502 0.059556 0.0491188
0.0555428 0.0604257 0.0503548
0.0545815 0.0608072 0.0510567
0.054551 0.0607004 0.0511025
0.0546273 0.0604562 0.0512551
0.0545968 0.0601816 0.0514534
0.0558785 0.0594949 0.0510414
0.0597391 0.0590829 0.0500038
0.0662699 0.0576791 0.0483253
0.07364 0.0565194 0.0468605
0.0817121 0.0551614 0.0462806
0.090959 0.0541085 0.0463111
0.101823 0.052491 0.0461891
0.11429 0.0511482 0.0463417
0.126833 0.0495155 0.0464027
0.141161 0.0479896 0.0471809
0.155215 0.0473945 0.0480507
0.169421 0.04654 0.0489509
0.185534 0.0455177 0.0498054
0.203204 0.0449226 0.050721
0.224018 0.0435035 0.0514839
0.248203 0.0425116 0.0519265
0.273716 0.0411994 0.0520333
0.300572 0.0402075 0.0529946
0.32784 0.0385443 0.0538491
0.35613 0.0374151 0.0545968
0.382498 0.0355383 0.0555734
0.408759 0.0341802 0.0572061
0.433112 0.0331884 0.0597238
0.453513 0.0324407 0.0618906
0.472663 0.032166 0.0654307
0.493278 0.0348363 0.0700084
0.507683 0.0362249 0.07393
0.517968 0.0382086 0.0779126
0.523262 0.0405127 0.0816815
0.524376 0.0420081 0.0877546
0.523995 0.0425269 0.0928664
0.523995 0.0428626 0.0967422
0.525597 0.0429236 0.0996109
0.526894 0.0430152 0.102388
0.52842 0.043061 0.104662
0.529732 0.043122 0.106538
0.530526 0.0431525 0.108019
0.531121 0.0431678 0.109377
0.531762 0.0431983 0.110262
0.532235 0.0432441 0.110964
0.532753 0.0432746 0.111788
0.533211 0.0432593 0.112352
0.533654 0.0432441 0.112963
0.533974 0.0432441 0.11342
0.534646 0.0431983 0.113451
0.537224 0.0428931 0.111818
0.541222 0.0424201 0.108888
0.545571 0.0419013 0.105318
0.548608 0.0415351 0.10312
0.549355 0.0414588 0.102861
0.549462 0.0414588 0.102983
0.549569 0.0414588 0.103105
0.549676 0.0414588 0.103212
0.549752 0.0414588 0.103288
0.549813 0.0414435 0.10338
0.549859 0.0414435 0.103441
0.549874 0.0414588 0.103471
0.547631 0.0417182 0.105486
0.542306 0.0423743 0.11014
0.0585336 0.0645151 0.0500191
0.0563973 0.0654612 0.0513619
0.0554055 0.0657969 0.0518807
0.055375 0.0656596 0.0519265
0.0555123 0.0653849 0.0520333
0.0557717 0.0649882 0.0522621
0.0562448 0.0646677 0.0524758
0.0586862 0.0643473 0.0519112
0.0642405 0.0637064 0.0510567
0.0727245 0.0617838 0.0492714
0.0815137 0.0603494 0.047837
0.0921798 0.0591287 0.0469673
0.10312 0.057969 0.0469215
0.114366 0.0564584 0.0467842
0.126116 0.053254 0.0465705
0.140536 0.0508736 0.047013
0.154284 0.0495766 0.0475013
0.168978 0.048188 0.0488594
0.184741 0.0471504 0.0496681
0.202792 0.0461891 0.0504005
0.224399 0.0446937 0.0512093
0.249287 0.0435492 0.0519722
0.274342 0.0422675 0.0518196
0.301747 0.041001 0.0528115
0.329778 0.039353 0.0538949
0.357443 0.0382239 0.0545815
0.384756 0.0359503 0.0555276
0.411093 0.0346227 0.0571298
0.434699 0.0333867 0.0591897
0.454368 0.0325322 0.060914
0.472328 0.0320287 0.063447
0.491707 0.0351415 0.0670634
0.505714 0.0369268 0.0709087
0.51458 0.0382544 0.0749981
0.518563 0.0404517 0.0798199
0.519219 0.0420539 0.0844282
0.518807 0.0425727 0.0887312
0.519188 0.0428473 0.0913863
0.521096 0.0428168 0.0933089
0.522744 0.0428779 0.0955825
0.524163 0.0429541 0.0982528
0.525368 0.0429847 0.100557
0.526665 0.0430762 0.102724
0.527626 0.0430915 0.104356
0.528984 0.0431525 0.106203
0.529656 0.0431525 0.10721
0.530129 0.0431525 0.108064
0.530648 0.0432136 0.109133
0.531044 0.0432288 0.109789
0.531472 0.0432288 0.110246
0.531807 0.0432441 0.110597
0.532708 0.043183 0.110475
0.535302 0.0428779 0.109071
0.539467 0.0423896 0.10573
0.543969 0.0418708 0.102373
0.546685 0.0415656 0.0999924
0.547417 0.0414893 0.0996262
0.547509 0.0414893 0.099733
0.547585 0.0414893 0.0998245
0.547631 0.0414893 0.0999008
0.547677 0.0414893 0.0999619
0.547707 0.0414893 0.100008
0.547753 0.0414893 0.100038
0.545144 0.0417945 0.102541
0.539788 0.0424659 0.107118
0.0589303 0.0699931 0.050309
0.0564889 0.071046 0.0514534
0.0555886 0.0714275 0.0521248
0.0555581 0.0712596 0.0521096
0.0557259 0.0709697 0.0521859
0.0562142 0.0705119 0.05243
0.056672 0.0701457 0.0526589
0.0575265 0.0699931 0.0528267
0.0617838 0.0700999 0.0522316
0.0697185 0.0690623 0.0515755
0.0807965 0.0671397 0.0502632
0.0927749 0.0655833 0.0492714
0.105089 0.0641031 0.048188
0.116991 0.062562 0.048127
0.128847 0.0606394 0.0478676
0.143465 0.0583658 0.0478218
0.157702 0.0553292 0.047776
0.171206 0.052781 0.0482948
0.186297 0.0502022 0.0491188
0.20322 0.0483711 0.0503243
0.224613 0.0464179 0.0510872
0.249729 0.0448463 0.0517586
0.275547 0.0435035 0.0518807
0.302403 0.0418708 0.0525368
0.330892 0.0401007 0.0538033
0.358877 0.0388495 0.054551
0.386862 0.0364996 0.0555276
0.413046 0.0352331 0.0570993
0.436072 0.033753 0.0590219
0.456703 0.0329595 0.0612497
0.458366 0.0340581 0.0708629
0.475074 0.0353246 0.0739452
0.490959 0.0386358 0.07776
0.500725 0.0398871 0.0803388
0.508614 0.0412604 0.0814832
0.514168 0.0420691 0.0826734
0.516976 0.0420996 0.0832685
0.518502 0.0421607 0.0841382
0.519829 0.0421607 0.0853895
0.521492 0.0421912 0.0868696
0.523064 0.042298 0.0880293
0.524498 0.0422675 0.0898299
0.52578 0.0423133 0.091783
0.526802 0.0424048 0.0937514
0.527855 0.0424659 0.0951247
0.528939 0.0424811 0.0967727
0.529717 0.0424811 0.0979324
0.530831 0.0425574 0.0993668
0.531411 0.0425422 0.100267
0.531792 0.0425574 0.101152
0.532372 0.0425879 0.102159
0.532723 0.0425727 0.102617
0.53344 0.0425116 0.102617
0.534798 0.0423896 0.101732
0.537316 0.0421149 0.0996262
0.540063 0.0417945 0.0975662
0.541817 0.0415656 0.0964981
0.542428 0.0415198 0.0960861
0.542412 0.0415045 0.0961166
0.542763 0.0415808 0.0967269
0.542916 0.0416266 0.0969863
0.542885 0.0416266 0.0970779
0.542855 0.0416419 0.0971389
0.541299 0.0418097 0.0984817
0.53817 0.0421912 0.101274
0.0631113 0.076051 0.0498054
0.0612039 0.0767224 0.0505226
0.0604562 0.0768902 0.0508431
0.0604257 0.0768292 0.0508431
0.0603799 0.0766613 0.0508583
0.0609445 0.0762646 0.0510414
0.0621195 0.0756542 0.0512398
0.0634165 0.0751812 0.0513924
0.0654917 0.0755322 0.0515602
0.0715496 0.0754711 0.0510262
0.0812238 0.0738689 0.0507668
0.0948959 0.0726177 0.0502327
0.1075 0.0714733 0.0501411
0.119692 0.0699016 0.0497292
0.132494 0.0682689 0.0496986
0.14757 0.0656138 0.0496376
0.161181 0.0638743 0.0496071
0.175021 0.0612802 0.0496834
0.191897 0.0569467 0.0491035
0.208682 0.0535439 0.0493324
0.229007 0.0501869 0.0503243
0.251087 0.0468605 0.0513619
0.276829 0.0448615 0.0519875
0.303014 0.043061 0.0521859
0.331289 0.0414588 0.0534981
0.359564 0.0392309 0.0541085
0.388296 0.037171 0.0554818
0.414252 0.0357977 0.0569467
0.435782 0.0345159 0.0596017
0.453269 0.0339513 0.0634623
0.465064 0.0335546 0.0679942
0.476631 0.0337835 0.0729686
0.491905 0.0385748 0.0777752
0.502083 0.0399634 0.0803235
0.50988 0.0416419 0.0815442
0.513817 0.0421759 0.081529
0.515129 0.0421302 0.0811627
0.515862 0.0420386 0.0811475
0.516167 0.0420233 0.0814221
0.516838 0.0420386 0.0822003
0.517754 0.0421149 0.08336
0.518349 0.0422217 0.0843519
0.519142 0.0422522 0.0857252
0.520058 0.0422675 0.0868544
0.521202 0.042359 0.0878157
0.52221 0.0424048 0.0887617
0.522896 0.0424201 0.0898299
0.523705 0.0424048 0.0910964
0.524315 0.0423896 0.0920729
0.52488 0.0424201 0.0932021
0.525338 0.0424506 0.0938888
0.525719 0.0424659 0.0943923
0.525979 0.0424811 0.0947433
0.52636 0.0424811 0.0949569
0.527489 0.0423743 0.0946365
0.529747 0.0421302 0.0932631
0.532418 0.041825 0.09131
0.534432 0.0416114 0.0897993
0.535348 0.0415045 0.0891585
0.535515 0.041474 0.0890516
0.536065 0.0415503 0.0896315
0.536004 0.0415503 0.0896162
0.535927 0.0415503 0.0895552
0.534279 0.0417334 0.0907454
0.531212 0.0420996 0.0932021
0.0636454 0.0835737 0.0506142
0.0618601 0.0841993 0.0512245
0.0609293 0.0844739 0.0516213
0.0609293 0.0844129 0.0516213
0.0608988 0.0843061 0.0516213
0.0615091 0.0839399 0.0516365
0.0629892 0.08336 0.0517739
0.0645914 0.0826886 0.0520638
0.0664225 0.082536 0.0523995
0.0702678 0.0835126 0.0525063
0.0780499 0.083299 0.0516976
0.0922713 0.0813916 0.051667
0.107637 0.0806287 0.0516823
0.122194 0.0789197 0.0515908
0.136614 0.0776684 0.0512093
0.151492 0.0755779 0.0510262
0.165713 0.072694 0.0510719
0.180957 0.0697642 0.0512245
0.196719 0.066743 0.0510872
0.215534 0.0627451 0.051133
0.237537 0.0564736 0.0502022
0.2598 0.0521096 0.0504311
0.282048 0.0483558 0.0510567
0.305318 0.0448005 0.0522316
0.33283 0.0429541 0.053315
0.360265 0.0400549 0.0537881
0.388876 0.0381628 0.055314
0.415229 0.0363317 0.056611
0.437018 0.0351568 0.0593576
0.454276 0.0344549 0.062974
0.466575 0.0339818 0.067628
0.478645 0.0349432 0.0730449
0.493339 0.0390631 0.077821
0.502693 0.0403906 0.0807355
0.510521 0.0422827 0.0834058
0.51426 0.0428473 0.0838788
0.516045 0.042649 0.0827344
0.516808 0.0424201 0.0817426
0.51693 0.0422827 0.0812085
0.516564 0.0422065 0.0811322
0.51635 0.0421607 0.0811322
0.515908 0.0420996 0.0810254
0.51574 0.0420539 0.0810407
0.516075 0.0420691 0.0813153
0.516457 0.0420844 0.0817578
0.517052 0.0421149 0.0824903
0.517632 0.0421607 0.0832227
0.517937 0.0422065 0.0837568
0.518242 0.0422827 0.0843214
0.518517 0.0423285 0.0847639
0.518776 0.0423285 0.08542
0.518959 0.0423285 0.0857252
0.519127 0.0423133 0.0860151
0.519265 0.0423133 0.0862593
0.519539 0.042298 0.0864424
0.52047 0.0422217 0.0861067
0.522301 0.0420233 0.0846723
0.524804 0.0417334 0.0830243
0.527123 0.041474 0.0814069
0.528634 0.0412451 0.0810559
0.529183 0.0411688 0.0808576
0.529198 0.0411536 0.0808118
0.529137 0.0411536 0.080766
0.527276 0.0413825 0.0811475
0.524147 0.0417487 0.0830243
0.0645151 0.0938582 0.0516365
0.0628519 0.0944839 0.052369
0.0621653 0.0944381 0.0527504
0.0622263 0.0945144 0.052781
0.0622873 0.0945144 0.0527962
0.0624247 0.0943465 0.0527962
0.0640116 0.0940871 0.0528572
0.0654307 0.0935531 0.0530556
0.0675669 0.0929427 0.0532998
0.071107 0.0932479 0.053727
0.0761578 0.0937362 0.0538949
0.0866865 0.0936446 0.0530098
0.105318 0.091783 0.0538033
0.121859 0.0904555 0.0538796
0.139345 0.0884871 0.0539864
0.155886 0.0869154 0.0537423
0.170794 0.0840162 0.0535897
0.186801 0.0807202 0.0536202
0.205234 0.0765087 0.0534829
0.224964 0.0716869 0.0531167
0.246845 0.0666667 0.052903
0.270344 0.0594492 0.0512398
0.29308 0.0536202 0.0506447
0.316014 0.0489967 0.0506752
0.339681 0.044831 0.0524758
0.363348 0.0418097 0.0533608
0.390875 0.0395819 0.0547799
0.415961 0.0371557 0.0562753
0.43798 0.0360723 0.0589151
0.45539 0.0350805 0.0624094
0.468193 0.0346075 0.0673686
0.479026 0.0346227 0.0725261
0.492332 0.0375677 0.0771801
0.50277 0.0408637 0.0810559
0.510124 0.0429541 0.0853285
0.513069 0.0437018 0.0869917
0.515984 0.0434272 0.0849012
0.517754 0.0430304 0.0834363
0.518608 0.042771 0.0822614
0.518349 0.0426795 0.0821241
0.518227 0.0426032 0.082002
0.518105 0.0425422 0.0818952
0.517937 0.0424811 0.0817273
0.517754 0.0424353 0.08159
0.517555 0.0423743 0.0814527
0.517357 0.0423438 0.0813916
0.517113 0.0423133 0.0812848
0.516915 0.0422675 0.0811933
0.516716 0.0422522 0.0811475
0.516594 0.0422217 0.0811017
0.516472 0.0422065 0.0810712
0.516396 0.0421912 0.0810559
0.516457 0.0421912 0.081117
0.516564 0.0422065 0.0812085
0.51667 0.0422065 0.0812848
0.516793 0.0422217 0.0813764
0.517357 0.0421759 0.0812848
0.518227 0.0421149 0.0809644
0.520607 0.0418402 0.0799725
0.523217 0.0415351 0.078294
0.525216 0.0412909 0.0771801
0.526207 0.0411841 0.0766003
0.526497 0.0411536 0.0764477
0.524865 0.0413672 0.0775006
0.521675 0.0417792 0.0795758
0.0665751 0.104173 0.0530556
0.0645151 0.104906 0.0536812
0.0638132 0.105196 0.0538949
0.063859 0.105196 0.0538186
0.0638895 0.105226 0.0538796
0.0638132 0.105196 0.0539559
0.0644388 0.105043 0.0541848
0.0663767 0.104616 0.0543679
0.0687724 0.103883 0.05449
0.0716411 0.10367 0.0547646
0.077409 0.104646 0.055314
0.0834363 0.105623 0.0554208
0.098909 0.10602 0.055024
0.118959 0.103593 0.0555123
0.139055 0.102617 0.0562448
0.159457 0.100282 0.0563668
0.177539 0.0987106 0.0568856
0.194568 0.0962844 0.0560922
0.213413 0.0918898 0.0557565
0.235615 0.0858167 0.0552834
0.259739 0.0793164 0.0548562
0.283177 0.0729534 0.0546883
0.305348 0.0669108 0.0542611
0.329519 0.0574044 0.0523995
0.352346 0.0505379 0.0510567
0.375463 0.0454108 0.052079
0.397772 0.0419165 0.0534218
0.420325 0.0391241 0.0552377
0.44065 0.0372473 0.0582437
0.455955 0.0358587 0.0617838
0.469352 0.0354772 0.0670481
0.48014 0.0354009 0.0719158
0.490791 0.0366674 0.0762493
0.503304 0.0412299 0.0809339
0.510582 0.0433356 0.0856641
0.515099 0.0444343 0.0878157
0.517861 0.0440681 0.0865339
0.519661 0.0437476 0.0846418
0.521141 0.0434119 0.0834058
0.520989 0.0433356 0.0831617
0.520714 0.0432746 0.0830549
0.520455 0.0432288 0.0829786
0.520195 0.0431678 0.0828717
0.519951 0.0431067 0.0827955
0.519707 0.0430457 0.0827039
0.519478 0.0429847 0.0825971
0.519295 0.0429541 0.082536
0.519173 0.0429084 0.0825055
0.519051 0.0428779 0.0824598
0.518959 0.0428626 0.0824292
0.518853 0.0428321 0.0823682
0.518791 0.0428168 0.0823529
0.518776 0.0428168 0.0823529
0.518761 0.0428016 0.0823377
0.518761 0.0428016 0.0823377
0.518776 0.0428168 0.0823377
0.518791 0.0428168 0.0823377
0.51902 0.0428016 0.0822156
