bundles/resolve-cinematic-luts/Phantom Luts/Komodo Phantom FILM LUTs G2/Komodo Phantom FILM LUTs G2/65x/Standard (No WB Offset)/EastmanRM_Komodo_Legacy_G2_65x.cube
TITLE "Generated by Resolve"
LUT_3D_SIZE 5
0.0549783 0.0563363 0.0502022
0.15613 0.044831 0.0487831
0.509773 0.0344091 0.08159
0.553231 0.0417792 0.11017
0.542489 0.0399634 0.119127
0.0729534 0.160342 0.0634318
0.162005 0.172122 0.0660716
0.527886 0.0628977 0.0745403
0.53048 0.0467994 0.083772
0.523964 0.0483253 0.0888685
0.146197 0.615122 0.151797
0.213428 0.632074 0.134646
0.785138 0.831281 0.362768
0.894255 0.837568 0.450996
0.895994 0.847318 0.455467
0.224384 0.698817 0.306996
0.22887 0.695735 0.29102
0.750408 0.869703 0.416968
0.898756 0.908217 0.533867
0.898756 0.908217 0.533867
0.234318 0.695888 0.290623
0.231876 0.694896 0.284947
0.8 0.88629 0.43357
0.901686 0.907256 0.523171
0.901686 0.907256 0.523171
0.0478676 0.0666667 0.0927291
0.148089 0.0633707 0.115419
0.522362 0.0472877 0.144137
0.564675 0.0647135 0.196445
0.575097 0.0690776 0.204257
0.0656138 0.143496 0.109346
0.157595 0.157412 0.133135
0.523796 0.0440986 0.120378
0.532265 0.0414893 0.129763
0.531624 0.0429084 0.137575
0.102754 0.621271 0.258427
0.13106 0.61445 0.170642
0.77554 0.820645 0.347311
0.891752 0.818158 0.435691
0.895521 0.826719 0.436179
0.223697 0.721294 0.39617
0.22446 0.699596 0.310414
0.708324 0.854566 0.393927
0.898756 0.908217 0.533867
0.898756 0.908217 0.533867
0.235233 0.725933 0.410758
0.230213 0.698375 0.303059
0.758618 0.871382 0.407538
0.898756 0.908217 0.533867
0.901686 0.907256 0.523171
0.0419471 0.101228 0.319921
0.0852979 0.0958877 0.367086
0.561013 0.121172 0.489219
0.631144 0.158312 0.53904
0.631296 0.163226 0.55491
0.0420996 0.138888 0.341772
0.043122 0.0978408 0.344961
0.582956 0.132265 0.508186
0.631144 0.160555 0.546242
0.635843 0.163027 0.554238
0.0847181 0.599863 0.518364
0.0827802 0.603983 0.526528
0.684886 0.704692 0.675959
0.875242 0.651576 0.656184
0.875135 0.662226 0.667536
0.244694 0.766506 0.607111
0.242863 0.765255 0.593317
0.301778 0.73901 0.410208
0.898894 0.907485 0.526696
0.897749 0.908171 0.533593
0.249699 0.766537 0.631006
0.248798 0.766186 0.611627
0.371405 0.759869 0.466804
0.897108 0.907698 0.529458
0.897826 0.908095 0.532815
0.0426032 0.103868 0.40383
0.0789044 0.108965 0.449409
0.560204 0.149432 0.580499
0.626535 0.174838 0.602243
0.625895 0.17499 0.602686
0.0424811 0.14139 0.420172
0.0443885 0.103883 0.410101
0.57496 0.155138 0.585107
0.626413 0.174868 0.60235
0.626841 0.174762 0.602029
0.0608377 0.542855 0.599466
0.0611276 0.540581 0.596796
0.494102 0.5196 0.75053
0.880842 0.599832 0.866789
0.880552 0.612421 0.868269
0.246403 0.758785 0.702739
0.252445 0.757565 0.698299
0.269749 0.774838 0.707332
0.899474 0.940215 0.904784
0.906386 0.943053 0.908431
0.247044 0.758648 0.702266
0.247669 0.758526 0.701808
0.280522 0.782574 0.707362
0.900374 0.948013 0.908156
0.909667 0.95169 0.913573
0.0444495 0.104067 0.412741
0.0916457 0.108614 0.455467
0.576165 0.15555 0.585367
0.626535 0.174838 0.602258
0.625895 0.17499 0.602686
0.0424964 0.134798 0.41387
0.047013 0.104585 0.41738
0.585565 0.159304 0.588525
0.626413 0.174868 0.60235
0.627024 0.174716 0.601907
0.0596323 0.539544 0.598154
0.0598611 0.537774 0.595926
0.495872 0.510857 0.750957
0.880186 0.593072 0.865766
0.880858 0.607965 0.868406
0.246403 0.758785 0.702739
0.252155 0.757626 0.698497
0.238056 0.752102 0.702464
0.893568 0.931136 0.907332
0.905959 0.938506 0.912764
0.246403 0.75877 0.702739
0.246403 0.75877 0.702739
0.276951 0.781292 0.720714
0.869429 0.939727 0.902937
0.910292 0.952331 0.917311
