bundles/resolve-cinematic-luts/Phantom Luts/Komodo Phantom FILM LUTs G2/Komodo Phantom FILM LUTs G2/65x/Standard (No WB Offset)/Eastman_Komodo_G2_65x.cube
TITLE "Generated by Resolve"
LUT_3D_SIZE 9
0.0418555 0.0390021 0.0390021
0.068513 0.0390021 0.0393988
0.195865 0.0390021 0.0390021
0.37409 0.0390021 0.0390021
0.504768 0.0520333 0.0528878
0.51809 0.0482338 0.0661021
0.531807 0.0390021 0.0775921
0.54136 0.0390021 0.095613
0.53286 0.0390021 0.104616
0.0576791 0.059205 0.0489662
0.0686503 0.0577554 0.0491493
0.19736 0.0522316 0.0440833
0.369665 0.0496376 0.0390021
0.474983 0.0797742 0.0433814
0.487861 0.0883192 0.0454871
0.504463 0.0838178 0.0474708
0.513039 0.0811322 0.0485389
0.506325 0.0838941 0.0477913
0.0821088 0.195956 0.0742962
0.0803998 0.196002 0.0701457
0.243839 0.23415 0.0897993
0.523384 0.220676 0.12015
0.593256 0.195209 0.100374
0.521737 0.130541 0.0469368
0.534035 0.116304 0.0467079
0.556207 0.139101 0.058793
0.555413 0.152499 0.0632486
0.108003 0.452949 0.125719
0.112245 0.454124 0.101015
0.179767 0.472313 0.107942
0.553613 0.564614 0.155795
0.747066 0.598672 0.196963
0.788281 0.622354 0.199893
0.797391 0.631022 0.199115
0.808179 0.64065 0.196323
0.796887 0.651835 0.204013
0.170336 0.633249 0.218891
0.186297 0.637491 0.191852
0.208225 0.646296 0.181033
0.562905 0.747631 0.247562
0.771817 0.811215 0.311192
0.840284 0.81825 0.343755
0.840787 0.822599 0.348089
0.841917 0.826841 0.353262
0.841505 0.828397 0.355276
0.178408 0.682078 0.314305
0.177707 0.680232 0.3075
0.17734 0.679179 0.30222
0.431067 0.724498 0.247349
0.756008 0.839506 0.357534
0.842191 0.853635 0.394339
0.844724 0.854276 0.401984
0.844663 0.854292 0.402075
0.842374 0.854658 0.404654
0.178729 0.682765 0.316762
0.177783 0.6804 0.308186
0.177951 0.678935 0.29752
0.469474 0.740444 0.254917
0.764401 0.840528 0.353368
0.844343 0.852796 0.387442
0.849027 0.85359 0.396902
0.848997 0.853605 0.396933
0.848966 0.853605 0.396979
0.179843 0.682536 0.309407
0.177798 0.680446 0.308446
0.177615 0.679042 0.299748
0.471916 0.741558 0.25597
0.761746 0.839872 0.352789
0.842145 0.852598 0.384985
0.860685 0.851698 0.383658
0.863828 0.851179 0.380179
0.862898 0.851347 0.381201
0.182223 0.681743 0.292714
0.180224 0.679774 0.292027
0.179797 0.67837 0.285252
0.455131 0.7355 0.239475
0.76614 0.837049 0.337667
0.838514 0.852644 0.383902
0.857481 0.852201 0.387228
0.863416 0.851255 0.380667
0.862333 0.851438 0.38172
0.0395514 0.0390021 0.0480201
0.0694285 0.0390021 0.057908
0.1991 0.0390021 0.0666972
0.374548 0.0390021 0.0504158
0.497704 0.0390021 0.0833753
0.519631 0.0455482 0.138064
0.529381 0.0468452 0.159716
0.53521 0.0478676 0.172763
0.530022 0.0510414 0.180072
0.0515602 0.0504768 0.0538949
0.0593881 0.0479591 0.0557259
0.193072 0.0390021 0.043595
0.367849 0.0393225 0.0395666
0.490089 0.056611 0.0536965
0.509606 0.0445106 0.0695811
0.522042 0.0390021 0.0895399
0.531579 0.0390021 0.106126
0.526894 0.0394446 0.113878
0.0796368 0.191638 0.0966506
0.0751507 0.189014 0.0787823
0.229297 0.223499 0.0872053
0.504723 0.197253 0.109957
0.541619 0.157916 0.0683757
0.507195 0.113481 0.0455024
0.518029 0.107393 0.0466011
0.518135 0.110964 0.0459602
0.514153 0.115206 0.0455329
0.107027 0.454856 0.161639
0.108812 0.452476 0.131487
0.146899 0.461082 0.100816
0.550668 0.560296 0.154482
0.747997 0.589609 0.196155
0.786236 0.608392 0.198734
0.797421 0.616373 0.19469
0.805356 0.626322 0.19295
0.795666 0.636271 0.199268
0.159258 0.634867 0.270191
0.167117 0.631434 0.227771
0.206851 0.643091 0.178866
0.542992 0.738491 0.240589
0.768551 0.807706 0.30837
0.839246 0.813947 0.338918
0.840406 0.817655 0.343099
0.840787 0.820951 0.346548
0.840177 0.822065 0.347768
0.179126 0.683909 0.321263
0.178576 0.682445 0.315816
0.17734 0.679179 0.30222
0.386954 0.708064 0.233402
0.749462 0.837552 0.356069
0.840574 0.853452 0.392386
0.844846 0.854261 0.401801
0.84477 0.854261 0.401907
0.842374 0.854658 0.404654
0.181506 0.688258 0.337362
0.178958 0.683207 0.318547
0.177752 0.679011 0.298909
0.411597 0.717388 0.235447
0.75552 0.837858 0.352041
0.84126 0.852628 0.384527
0.848844 0.85362 0.397086
0.848814 0.853635 0.397131
0.848783 0.853635 0.397162
0.185489 0.693553 0.347845
0.179034 0.683482 0.319631
0.177615 0.679042 0.299779
0.407996 0.715862 0.234302
0.750652 0.836316 0.350515
0.83769 0.852491 0.38201
0.859327 0.851896 0.385046
0.86392 0.851164 0.380087
0.863035 0.851316 0.381079
0.186511 0.692363 0.331136
0.181003 0.682506 0.302556
0.179812 0.67837 0.285222
0.392752 0.711391 0.21735
0.755093 0.833722 0.334646
0.834669 0.852476 0.380697
0.858213 0.852033 0.386038
0.863676 0.851209 0.380377
0.862699 0.851377 0.381384
0.0390021 0.0425879 0.111147
0.0650187 0.0401617 0.1364
0.202579 0.0390021 0.150393
0.382437 0.0390021 0.16672
0.526238 0.0667277 0.221912
0.558831 0.0917983 0.26537
0.566659 0.100755 0.287831
0.574029 0.0945602 0.297902
0.564508 0.092546 0.301518
0.0390021 0.05449 0.105165
0.0390021 0.0413672 0.124086
0.200519 0.0390021 0.149279
0.389395 0.0426184 0.159274
0.520363 0.0594034 0.205112
0.544884 0.0803693 0.243229
0.564599 0.0924392 0.268437
0.587091 0.0987869 0.287419
0.579385 0.0988479 0.293004
0.068574 0.171298 0.141161
0.0650797 0.169329 0.141039
0.223102 0.205676 0.207034
0.494408 0.147997 0.181201
0.539925 0.0749523 0.131487
0.511894 0.0414435 0.0856031
0.52134 0.0407721 0.103349
0.525307 0.0412757 0.115343
0.522332 0.0435035 0.121981
0.117479 0.469551 0.264073
0.113451 0.465263 0.248478
0.108614 0.442756 0.154116
0.5364 0.543008 0.156039
0.746303 0.551446 0.196399
0.77882 0.557412 0.196307
0.792615 0.561898 0.191867
0.798611 0.5729 0.191012
0.788144 0.584314 0.19588
0.168368 0.658396 0.374029
0.163409 0.649149 0.349737
0.158022 0.624018 0.248188
0.473716 0.706905 0.218051
0.758953 0.798016 0.300038
0.837797 0.80206 0.327611
0.83772 0.803357 0.328893
0.838727 0.805524 0.330022
0.837812 0.806531 0.331212
0.205356 0.723308 0.430213
0.195743 0.710399 0.400259
0.179004 0.683406 0.31928
0.24181 0.673426 0.207721
0.731228 0.831678 0.350393
0.836774 0.853193 0.388342
0.84538 0.854231 0.40174
0.845289 0.854246 0.401755
0.842466 0.854719 0.405188
0.213199 0.736889 0.460136
0.206531 0.724987 0.433539
0.179126 0.684245 0.322835
0.234348 0.672816 0.207752
0.729442 0.829999 0.344854
0.832197 0.852537 0.379843
0.848219 0.853681 0.397208
0.848371 0.853712 0.397543
0.848417 0.853697 0.397498
0.211673 0.740749 0.462364
0.21059 0.730587 0.445899
0.179477 0.685145 0.326452
0.226291 0.672602 0.211734
0.72105 0.82771 0.341451
0.826932 0.852079 0.376349
0.847929 0.853559 0.395514
0.86186 0.851514 0.382376
0.861784 0.85153 0.382498
0.209903 0.738399 0.444984
0.208347 0.727611 0.428046
0.181399 0.684153 0.310414
0.211734 0.671321 0.202731
0.724437 0.826307 0.325933
0.823453 0.851774 0.374243
0.848325 0.853391 0.394339
0.862882 0.851347 0.381216
0.862119 0.851484 0.381994
0.0390021 0.0528572 0.233967
0.0415045 0.0479591 0.257771
0.186481 0.0396887 0.304616
0.386969 0.0530404 0.315892
0.516197 0.0708934 0.334981
0.54992 0.0855573 0.368414
0.550866 0.0892042 0.387823
0.553567 0.0940261 0.403265
0.558755 0.0961624 0.414939
0.0390021 0.0766613 0.238483
0.0390021 0.0517586 0.250172
0.162112 0.0404669 0.310933
0.396796 0.0538491 0.322545
0.526436 0.0723735 0.338811
0.547646 0.086244 0.367971
0.54847 0.089601 0.385519
0.551263 0.0935683 0.399588
0.56556 0.0922713 0.411627
0.0390021 0.154925 0.244419
0.0390021 0.145495 0.249271
0.0590219 0.0849775 0.311437
0.406394 0.0720531 0.336736
0.518425 0.0705272 0.316182
0.54197 0.0831617 0.3402
0.544396 0.0844739 0.352255
0.546807 0.0857404 0.363394
0.554879 0.0842451 0.370932
0.102037 0.461158 0.376562
0.101152 0.46244 0.378698
0.0995804 0.45745 0.376501
0.523507 0.524529 0.514672
0.749538 0.43859 0.457862
0.791897 0.398871 0.437217
0.791669 0.400977 0.444572
0.794125 0.408316 0.452674
0.800275 0.412238 0.459571
0.171466 0.692454 0.483116
0.171572 0.690471 0.47805
0.170855 0.681834 0.456809
0.221546 0.627726 0.334249
0.705592 0.750225 0.419577
0.845579 0.736538 0.412161
0.845823 0.738888 0.411994
0.851652 0.737575 0.414664
0.84828 0.738079 0.417243
0.215503 0.770047 0.525414
0.214755 0.765454 0.51577
0.212787 0.752789 0.489586
0.184344 0.691981 0.343496
0.697459 0.8224 0.337209
0.830991 0.852949 0.383795
0.845762 0.854032 0.399115
0.845518 0.853956 0.398383
0.84268 0.854292 0.400671
0.217746 0.780331 0.553445
0.217304 0.775067 0.541131
0.21474 0.761257 0.509804
0.189609 0.701747 0.377493
0.658198 0.810971 0.326848
0.812741 0.850965 0.370001
0.846281 0.853635 0.395377
0.845502 0.854124 0.400168
0.843366 0.854444 0.402869
0.218311 0.784176 0.563531
0.217502 0.778363 0.548928
0.215122 0.763775 0.51519
0.192844 0.705669 0.388342
0.631846 0.803021 0.320287
0.798733 0.849683 0.366781
0.844297 0.853651 0.394568
0.84419 0.854307 0.401953
0.847089 0.853864 0.398276
0.216327 0.783062 0.55346
0.215167 0.776654 0.536828
0.213703 0.76199 0.506294
0.192645 0.704997 0.383795
0.613031 0.796765 0.31075
0.794369 0.848386 0.362753
0.844068 0.853101 0.389838
0.846098 0.853941 0.398688
0.84947 0.853468 0.395499
0.0390021 0.0586862 0.329213
0.0390021 0.0516976 0.345525
0.145327 0.0466621 0.398245
0.388479 0.0688487 0.431891
0.559884 0.125429 0.479805
0.601038 0.143786 0.512627
0.603525 0.146822 0.525109
0.605356 0.149218 0.533379
0.606714 0.151156 0.539254
0.0390021 0.080766 0.34197
0.0390021 0.0576333 0.338872
0.121492 0.0484474 0.397559
0.390936 0.0702373 0.439231
0.566217 0.128466 0.486259
0.602502 0.143954 0.515511
0.605081 0.146624 0.526635
0.606592 0.148974 0.534188
0.607782 0.150668 0.539361
0.0390021 0.135653 0.356374
0.0390021 0.128328 0.361013
0.0390021 0.0527047 0.355459
0.364889 0.0650339 0.441321
0.567346 0.128176 0.487388
0.599771 0.142763 0.510063
0.602502 0.145434 0.518761
0.603403 0.14667 0.524147
0.6038 0.14725 0.526757
0.0720073 0.451743 0.479912
0.0713512 0.448981 0.483192
0.0657054 0.428824 0.485283
0.351278 0.382025 0.631251
0.775235 0.411017 0.695247
0.803632 0.36434 0.675349
0.804288 0.364965 0.678569
0.80975 0.37496 0.686564
0.812528 0.381567 0.690944
0.149432 0.669841 0.560174
0.149233 0.668498 0.560479
0.147951 0.664744 0.557244
0.182467 0.668116 0.567285
0.714351 0.740551 0.718013
0.840436 0.697597 0.684443
0.847501 0.692836 0.683635
0.847761 0.694301 0.686763
0.846906 0.693355 0.686275
0.211292 0.787533 0.60824
0.209018 0.783001 0.602884
0.20325 0.771817 0.584695
0.203387 0.76849 0.568093
0.58555 0.79884 0.63473
0.838773 0.875807 0.702373
0.900984 0.869688 0.713222
0.900465 0.866285 0.712993
0.899855 0.861082 0.706569
0.220325 0.801617 0.637568
0.220035 0.800412 0.62887
0.219745 0.79704 0.610773
0.218494 0.785748 0.568124
0.385061 0.743343 0.483879
0.780499 0.863981 0.528771
0.842481 0.853849 0.395315
0.843397 0.854292 0.401053
0.842039 0.854536 0.403052
0.220005 0.802396 0.646006
0.220279 0.801328 0.636103
0.220111 0.797757 0.615351
0.218677 0.785626 0.569085
0.338811 0.735897 0.470832
0.75938 0.857557 0.524895
0.840513 0.853941 0.395636
0.842283 0.854292 0.400336
0.841825 0.854444 0.40209
0.220081 0.802182 0.644129
0.220264 0.800961 0.633295
0.22005 0.797269 0.613169
0.218738 0.785031 0.567514
0.311772 0.732204 0.462089
0.749279 0.854917 0.527291
0.837766 0.855116 0.411475
0.841398 0.854292 0.399466
0.841794 0.854429 0.401938
0.0390021 0.0593423 0.374258
0.0390021 0.0562753 0.389471
0.123766 0.0528572 0.438895
0.36112 0.0732586 0.488258
0.574517 0.142977 0.538445
0.609079 0.154696 0.549981
0.609079 0.154696 0.549981
0.609079 0.154696 0.549981
0.609079 0.154696 0.549981
0.0390021 0.073991 0.377005
0.0390021 0.0569467 0.378058
0.107637 0.0533608 0.433875
0.36376 0.0739757 0.489036
0.580697 0.145388 0.540581
0.609079 0.154696 0.549981
0.609079 0.154696 0.549981
0.609079 0.154696 0.549981
0.609079 0.154696 0.549981
0.0390021 0.139467 0.414649
0.0390021 0.128206 0.409552
0.0390021 0.0563363 0.391104
0.331228 0.0676432 0.484962
0.576486 0.143618 0.539178
0.609079 0.154696 0.549981
0.609079 0.154696 0.549981
0.609079 0.154696 0.549981
0.609079 0.154696 0.549981
0.05626 0.399985 0.514839
0.0542763 0.391882 0.513893
0.0441901 0.354437 0.504295
0.241901 0.2448 0.597223
0.709133 0.315038 0.72195
0.770504 0.307927 0.704494
0.77351 0.312062 0.706828
0.781811 0.322393 0.715892
0.78677 0.329061 0.72076
0.13344 0.641611 0.603586
0.132937 0.639216 0.603647
0.1299 0.632227 0.601785
0.123751 0.61619 0.605127
0.616648 0.657389 0.790845
0.870741 0.681559 0.817884
0.884489 0.678416 0.817502
0.884459 0.679759 0.8177
0.882216 0.678523 0.815503
0.192966 0.764126 0.647364
0.187213 0.754147 0.636301
0.183307 0.746624 0.629801
0.180209 0.740353 0.62536
0.55758 0.824201 0.75993
0.841749 0.869139 0.841871
0.900221 0.86099 0.83711
0.899855 0.856123 0.834073
0.8981 0.85214 0.83061
0.216693 0.802655 0.682612
0.216983 0.80322 0.677958
0.218006 0.80354 0.669017
0.219638 0.802915 0.649104
0.254994 0.822965 0.661006
0.811048 0.906859 0.82916
0.901869 0.931365 0.849363
0.924605 0.931868 0.856931
0.923583 0.929351 0.854566
0.215656 0.801724 0.687648
0.216861 0.802777 0.682475
0.218219 0.803357 0.671504
0.219837 0.802579 0.64712
0.236286 0.820859 0.646571
0.733516 0.883894 0.769055
0.883421 0.931716 0.807614
0.901961 0.914153 0.719005
0.844923 0.855497 0.420676
0.216098 0.802106 0.687129
0.216892 0.802762 0.68159
0.218296 0.803372 0.670573
0.22005 0.802365 0.645441
0.235355 0.819348 0.641825
0.717052 0.87808 0.76022
0.877562 0.93019 0.8094
0.910353 0.928145 0.772274
0.852079 0.861662 0.477485
0.0390021 0.0563363 0.386892
0.0390021 0.0552377 0.401221
0.149554 0.052369 0.447608
0.383597 0.0780041 0.492073
0.589899 0.149355 0.54403
0.609079 0.154696 0.549981
0.609079 0.154696 0.549981
0.609079 0.154696 0.549981
0.609079 0.154696 0.549981
0.0390021 0.061387 0.374182
0.0390021 0.0564279 0.389838
0.131258 0.0525063 0.44184
0.383551 0.0779736 0.491951
0.592096 0.149279 0.544091
0.609079 0.154696 0.549981
0.609079 0.154696 0.549981
0.609079 0.154696 0.549981
0.609079 0.154696 0.549981
0.0390021 0.132113 0.41146
0.0390021 0.115587 0.403738
0.0390021 0.0554208 0.399542
0.349386 0.0713512 0.48777
0.585641 0.14757 0.542306
0.609079 0.154696 0.549981
0.609079 0.154696 0.549981
0.609079 0.154696 0.549981
0.609079 0.154696 0.549981
0.0459602 0.361776 0.510628
0.0441444 0.354253 0.506828
0.0390021 0.317479 0.490059
0.232624 0.200046 0.570016
0.673091 0.272572 0.684352
0.731594 0.265782 0.668452
0.742397 0.27628 0.678386
0.753323 0.288426 0.689418
0.760311 0.29633 0.69601
0.12842 0.627878 0.618463
0.127626 0.625788 0.618296
0.124269 0.617868 0.615732
0.117754 0.600641 0.618036
0.567727 0.604303 0.79266
0.867109 0.649851 0.843214
0.883421 0.652598 0.840299
0.883589 0.65481 0.840589
0.883589 0.652903 0.840513
0.179019 0.74081 0.663005
0.174563 0.731685 0.659175
0.166888 0.716136 0.652155
0.159579 0.700572 0.647837
0.427924 0.762097 0.752132
0.807416 0.837827 0.872633
0.902693 0.845838 0.880323
0.904311 0.840864 0.877852
0.903258 0.837415 0.876066
0.211933 0.79913 0.692515
0.211994 0.7991 0.692592
0.211841 0.799374 0.691829
0.215167 0.80116 0.685084
0.222232 0.802762 0.689616
0.789181 0.906264 0.867811
0.899321 0.925139 0.896864
0.92076 0.924559 0.896025
0.920073 0.922576 0.89456
0.212039 0.799084 0.692683
0.212039 0.799084 0.692683
0.211963 0.799207 0.692348
0.216632 0.802716 0.682475
0.231296 0.820493 0.68632
0.539696 0.880568 0.774197
0.891218 0.943679 0.895796
0.924712 0.954055 0.903044
0.931563 0.954299 0.906416
0.212039 0.799084 0.692683
0.212039 0.799084 0.692683
0.2121 0.7991 0.692638
0.216968 0.802884 0.681254
0.23061 0.819486 0.682017
0.534127 0.878584 0.769314
0.876432 0.940246 0.886183
0.920317 0.953994 0.896651
0.930724 0.956146 0.892561
0.0390021 0.0561685 0.394614
0.0525826 0.0542306 0.410147
0.168643 0.0521859 0.452659
0.399268 0.0821546 0.49427
0.597147 0.151263 0.546105
0.609079 0.154696 0.549981
0.609079 0.154696 0.549981
0.609079 0.154696 0.549981
0.609079 0.154696 0.549981
0.0390021 0.0567178 0.379019
0.0390021 0.0557717 0.396445
0.14789 0.0523842 0.447196
0.398199 0.0818036 0.494057
0.599954 0.152041 0.547082
0.609079 0.154696 0.549981
0.609079 0.154696 0.549981
0.609079 0.154696 0.549981
0.609079 0.154696 0.549981
0.0390021 0.129931 0.410269
0.0390021 0.106157 0.398199
0.0445869 0.0548867 0.405463
0.360678 0.0733349 0.48867
0.591501 0.149203 0.543954
0.609079 0.154696 0.549981
0.609079 0.154696 0.549981
0.609079 0.154696 0.549981
0.609079 0.154696 0.549981
0.0425422 0.349004 0.504616
0.0400092 0.338689 0.499565
0.0390021 0.301259 0.48188
0.228367 0.176699 0.555611
0.653376 0.250126 0.662226
0.710094 0.244862 0.647562
0.723186 0.25742 0.66041
0.737163 0.271458 0.674006
0.7449 0.279393 0.681117
0.127886 0.626642 0.618235
0.126726 0.623468 0.617823
0.1234 0.614984 0.615427
0.115908 0.5953 0.616602
0.566781 0.592569 0.792096
0.865873 0.640238 0.841382
0.88278 0.6439 0.838422
0.883238 0.645441 0.83917
0.883101 0.642832 0.838529
0.17908 0.741207 0.663447
0.173556 0.729854 0.658915
0.164782 0.711543 0.651179
0.157122 0.695705 0.646952
0.411902 0.749157 0.74905
0.785977 0.814466 0.87332
0.899763 0.829023 0.883879
0.90309 0.825696 0.882918
0.901732 0.820829 0.881132
0.211933 0.79913 0.692515
0.212039 0.799084 0.692683
0.211597 0.799283 0.691936
0.20499 0.790082 0.686656
0.198489 0.778225 0.689967
0.712474 0.87512 0.855222
0.888121 0.910811 0.906981
0.92015 0.915328 0.911345
0.919387 0.912627 0.909911
0.212039 0.799084 0.692683
0.212039 0.799084 0.692683
0.211856 0.799161 0.692378
0.211841 0.799176 0.692348
0.225177 0.818296 0.706127
0.377234 0.850843 0.753002
0.876783 0.937743 0.910277
0.922576 0.949386 0.920394
0.930007 0.950454 0.921553
0.212039 0.799084 0.692683
0.212039 0.799084 0.692683
0.212039 0.799084 0.692683
0.212039 0.799084 0.692683
0.229603 0.818952 0.704494
0.253285 0.837461 0.716411
0.825574 0.936126 0.892821
0.92195 0.957366 0.922484
0.932158 0.961822 0.923735
0.0390021 0.0555123 0.39826
0.0616464 0.0537423 0.414679
0.180591 0.0523079 0.45623
0.408377 0.0841535 0.495003
0.601541 0.15256 0.547677
0.609079 0.154696 0.549981
0.609079 0.154696 0.549981
0.609079 0.154696 0.549981
0.609079 0.154696 0.549981
0.0390021 0.0559854 0.382376
0.0390021 0.0553597 0.4
0.15816 0.0524147 0.450019
0.406744 0.0837568 0.49485
0.604456 0.153445 0.548882
0.609079 0.154696 0.549981
0.609079 0.154696 0.549981
0.609079 0.154696 0.549981
0.609079 0.154696 0.549981
0.0390021 0.127337 0.409018
0.0390021 0.101534 0.395697
0.0510262 0.0542916 0.409201
0.369116 0.0752422 0.490043
0.595071 0.150423 0.545129
0.609079 0.154696 0.549981
0.609079 0.154696 0.549981
0.609079 0.154696 0.549981
0.609079 0.154696 0.549981
0.0417945 0.345937 0.503319
0.0394141 0.335119 0.498344
0.0390021 0.295674 0.479683
0.227222 0.16759 0.549599
0.644785 0.24126 0.65243
0.700526 0.236301 0.638437
0.71397 0.248966 0.651987
0.730022 0.263951 0.666972
0.738643 0.272374 0.674891
0.127871 0.626627 0.618173
0.126696 0.623331 0.617807
0.123186 0.61445 0.615244
0.115038 0.592599 0.615793
0.566964 0.588205 0.791836
0.865049 0.635859 0.840726
0.882948 0.639368 0.83801
0.88304 0.640894 0.838285
0.882856 0.638148 0.837537
0.180148 0.742931 0.66479
0.172183 0.726696 0.657343
0.164157 0.710124 0.650767
0.156298 0.693675 0.645945
0.414435 0.746029 0.749325
0.783383 0.808606 0.872358
0.897688 0.823178 0.881636
0.902434 0.820172 0.881315
0.900877 0.814572 0.878889
0.211933 0.79913 0.6925
0.212024 0.7991 0.692653
0.211551 0.799298 0.691875
0.202914 0.786145 0.684627
0.196704 0.774685 0.688701
0.714702 0.871672 0.855558
0.883238 0.905135 0.90631
0.918822 0.909758 0.911254
0.918135 0.907149 0.910613
0.212009 0.7991 0.692622
0.212039 0.799084 0.692683
0.211841 0.799176 0.692348
0.211841 0.799176 0.692332
0.223774 0.817487 0.706752
0.387182 0.8448 0.76051
0.852537 0.928512 0.904005
0.919295 0.944671 0.92398
0.929091 0.947005 0.925963
0.212039 0.799084 0.692683
0.212039 0.799084 0.692683
0.212039 0.799084 0.692683
0.212024 0.7991 0.692653
0.223529 0.817197 0.706508
0.229099 0.826963 0.714366
0.678508 0.911269 0.85304
0.917693 0.955398 0.92845
0.931746 0.960342 0.931197
