bundles/resolve-cinematic-luts/Phantom Luts/Komodo Phantom FILM LUTs G2/Komodo Phantom FILM LUTs G2/65x/Standard (No WB Offset)/Eastman_Komodo_Legacy_G2_65x.cube
TITLE "Generated by Resolve"
LUT_3D_SIZE 5
0.0562142 0.0403601 0.0475624
0.157504 0.0396277 0.0510719
0.483223 0.0626841 0.0484627
0.516274 0.0715496 0.0649729
0.517342 0.0527199 0.0658579
0.0881056 0.156085 0.076936
0.189059 0.178271 0.0859388
0.551751 0.171435 0.0830854
0.530968 0.124086 0.0511788
0.544182 0.149004 0.0606546
0.161013 0.613931 0.197848
0.192355 0.631876 0.172229
0.747692 0.801022 0.293462
0.839826 0.816175 0.330419
0.84155 0.823957 0.335943
0.172519 0.672557 0.285145
0.172854 0.670466 0.270802
0.744793 0.838285 0.329717
0.849149 0.853788 0.375357
0.849256 0.853773 0.375235
0.177218 0.67187 0.26041
0.176074 0.670222 0.255924
0.744793 0.834043 0.31223
0.85304 0.853132 0.370916
0.863264 0.851484 0.359487
0.0486763 0.0517433 0.0961471
0.163958 0.0510109 0.12192
0.505211 0.0599985 0.172686
0.545892 0.0890364 0.237995
0.549737 0.0880598 0.259312
0.0766918 0.134493 0.116335
0.17174 0.154559 0.155886
0.514427 0.0878157 0.0890822
0.506676 0.0595407 0.0661173
0.508507 0.0521553 0.0715343
0.150393 0.620111 0.3234
0.149798 0.597757 0.212192
0.731777 0.78381 0.280903
0.83563 0.790555 0.31107
0.837674 0.794278 0.31342
0.19411 0.714153 0.415564
0.172549 0.673548 0.290425
0.703151 0.823758 0.319203
0.848737 0.853803 0.375387
0.848829 0.853834 0.375723
0.193103 0.715068 0.399542
0.175479 0.673442 0.276905
0.696361 0.818952 0.300374
0.848737 0.853574 0.372763
0.863355 0.851469 0.359411
0.0390021 0.0652781 0.310338
0.102815 0.0578317 0.364294
0.543542 0.124224 0.459098
0.59823 0.150057 0.513207
0.6009 0.154299 0.530022
0.0390021 0.112535 0.327291
0.0390021 0.0602426 0.332341
0.554604 0.128069 0.468727
0.597436 0.148898 0.505531
0.598764 0.150637 0.515816
0.140764 0.631479 0.524636
0.138933 0.625269 0.520928
0.671443 0.695445 0.674464
0.830411 0.636316 0.630869
0.831098 0.635569 0.632715
0.225406 0.794614 0.615412
0.223575 0.788388 0.583551
0.33579 0.724208 0.435233
0.842863 0.854032 0.374563
0.84213 0.854734 0.381781
0.225513 0.795758 0.623331
0.224109 0.788739 0.586252
0.27425 0.715236 0.420432
0.837247 0.855238 0.388769
0.841932 0.854643 0.380743
0.0390021 0.0621805 0.371893
0.105165 0.0619974 0.422126
0.574624 0.148318 0.532769
0.601877 0.157015 0.542092
0.601877 0.157015 0.542092
0.0390021 0.111742 0.392935
0.0390021 0.0617075 0.380468
0.569375 0.145968 0.531136
0.601877 0.157015 0.542092
0.601877 0.157015 0.542092
0.116503 0.581353 0.593286
0.112184 0.569604 0.589334
0.506569 0.547799 0.76112
0.875212 0.604395 0.825788
0.87509 0.604669 0.825833
0.216739 0.793133 0.688823
0.216556 0.793423 0.687694
0.223987 0.795804 0.68127
0.895766 0.921645 0.893385
0.920577 0.917937 0.890517
0.216846 0.793088 0.689036
0.216892 0.793118 0.68896
0.237736 0.819532 0.672221
0.861753 0.937331 0.876204
0.924941 0.950454 0.884779
0.0390021 0.0615854 0.379477
0.13193 0.0611582 0.43209
0.590814 0.153246 0.538216
0.601877 0.157015 0.542092
0.601877 0.157015 0.542092
0.0390021 0.108888 0.391638
0.0390021 0.0630961 0.388388
0.582574 0.150622 0.535332
0.601877 0.157015 0.542092
0.601877 0.157015 0.542092
0.11603 0.579782 0.592599
0.110979 0.565469 0.588434
0.50573 0.531518 0.759976
0.872953 0.590723 0.822065
0.872709 0.589014 0.821485
0.216739 0.793149 0.688792
0.216632 0.793194 0.688563
0.195727 0.759304 0.683742
0.872419 0.894835 0.905425
0.91873 0.897383 0.91014
0.216846 0.793088 0.689036
0.216846 0.793088 0.689036
0.232563 0.818753 0.708507
0.626734 0.905196 0.839277
0.927169 0.954742 0.925917
