bundles/resolve-cinematic-luts/Phantom Luts/Komodo Phantom FILM LUTs G2/Komodo Phantom FILM LUTs G2/65x/Standard (No WB Offset)/Eastman_Komodo_G2_65x.cube
TITLE "Generated by Resolve"
LUT_3D_SIZE 5
0.0418555 0.0390021 0.0390021
0.195865 0.0390021 0.0390021
0.504768 0.0520333 0.0528878
0.531807 0.0390021 0.0775921
0.53286 0.0390021 0.104616
0.0821088 0.195956 0.0742962
0.243839 0.23415 0.0897993
0.593256 0.195209 0.100374
0.534035 0.116304 0.0467079
0.555413 0.152499 0.0632486
0.170336 0.633249 0.218891
0.208225 0.646296 0.181033
0.771817 0.811215 0.311192
0.840787 0.822599 0.348089
0.841505 0.828397 0.355276
0.178729 0.682765 0.316762
0.177951 0.678935 0.29752
0.764401 0.840528 0.353368
0.849027 0.85359 0.396902
0.848966 0.853605 0.396979
0.182223 0.681743 0.292714
0.179797 0.67837 0.285252
0.76614 0.837049 0.337667
0.857481 0.852201 0.387228
0.862333 0.851438 0.38172
0.0390021 0.0425879 0.111147
0.202579 0.0390021 0.150393
0.526238 0.0667277 0.221912
0.566659 0.100755 0.287831
0.564508 0.092546 0.301518
0.068574 0.171298 0.141161
0.223102 0.205676 0.207034
0.539925 0.0749523 0.131487
0.52134 0.0407721 0.103349
0.522332 0.0435035 0.121981
0.168368 0.658396 0.374029
0.158022 0.624018 0.248188
0.758953 0.798016 0.300038
0.83772 0.803357 0.328893
0.837812 0.806531 0.331212
0.213199 0.736889 0.460136
0.179126 0.684245 0.322835
0.729442 0.829999 0.344854
0.848219 0.853681 0.397208
0.848417 0.853697 0.397498
0.209903 0.738399 0.444984
0.181399 0.684153 0.310414
0.724437 0.826307 0.325933
0.848325 0.853391 0.394339
0.862119 0.851484 0.381994
0.0390021 0.0586862 0.329213
0.145327 0.0466621 0.398245
0.559884 0.125429 0.479805
0.603525 0.146822 0.525109
0.606714 0.151156 0.539254
0.0390021 0.135653 0.356374
0.0390021 0.0527047 0.355459
0.567346 0.128176 0.487388
0.602502 0.145434 0.518761
0.6038 0.14725 0.526757
0.149432 0.669841 0.560174
0.147951 0.664744 0.557244
0.714351 0.740551 0.718013
0.847501 0.692836 0.683635
0.846906 0.693355 0.686275
0.220325 0.801617 0.637568
0.219745 0.79704 0.610773
0.385061 0.743343 0.483879
0.842481 0.853849 0.395315
0.842039 0.854536 0.403052
0.220081 0.802182 0.644129
0.22005 0.797269 0.613169
0.311772 0.732204 0.462089
0.837766 0.855116 0.411475
0.841794 0.854429 0.401938
0.0390021 0.0563363 0.386892
0.149554 0.052369 0.447608
0.589899 0.149355 0.54403
0.609079 0.154696 0.549981
0.609079 0.154696 0.549981
0.0390021 0.132113 0.41146
0.0390021 0.0554208 0.399542
0.585641 0.14757 0.542306
0.609079 0.154696 0.549981
0.609079 0.154696 0.549981
0.12842 0.627878 0.618463
0.124269 0.617868 0.615732
0.567727 0.604303 0.79266
0.883421 0.652598 0.840299
0.883589 0.652903 0.840513
0.211933 0.79913 0.692515
0.211841 0.799374 0.691829
0.222232 0.802762 0.689616
0.899321 0.925139 0.896864
0.920073 0.922576 0.89456
0.212039 0.799084 0.692683
0.2121 0.7991 0.692638
0.23061 0.819486 0.682017
0.876432 0.940246 0.886183
0.930724 0.956146 0.892561
0.0390021 0.0555123 0.39826
0.180591 0.0523079 0.45623
0.601541 0.15256 0.547677
0.609079 0.154696 0.549981
0.609079 0.154696 0.549981
0.0390021 0.127337 0.409018
0.0510262 0.0542916 0.409201
0.595071 0.150423 0.545129
0.609079 0.154696 0.549981
0.609079 0.154696 0.549981
0.127871 0.626627 0.618173
0.123186 0.61445 0.615244
0.566964 0.588205 0.791836
0.882948 0.639368 0.83801
0.882856 0.638148 0.837537
0.211933 0.79913 0.6925
0.211551 0.799298 0.691875
0.196704 0.774685 0.688701
0.883238 0.905135 0.90631
0.918135 0.907149 0.910613
0.212039 0.799084 0.692683
0.212039 0.799084 0.692683
0.223529 0.817197 0.706508
0.678508 0.911269 0.85304
0.931746 0.960342 0.931197
