bundles/resolve-cinematic-luts/Phantom Luts/Komodo Phantom FILM LUTs G2/Komodo Phantom FILM LUTs G2/65x/Standard (No WB Offset)/Eterna_Komodo_Legacy_G2_65x.cube
TITLE "Generated by Resolve"
LUT_3D_SIZE 65
0.0460212 0.0634928 0.0574502
0.0459907 0.063508 0.057496
0.0459144 0.0635538 0.0576181
0.0457313 0.0636301 0.057908
0.0460822 0.0638285 0.0583505
0.0488441 0.0643931 0.059144
0.0531472 0.0649271 0.0597391
0.0587472 0.0649729 0.0593729
0.0649882 0.0646525 0.0585946
0.0726024 0.0644236 0.0577249
0.0809644 0.0643626 0.0570535
0.0899214 0.0642405 0.0568399
0.0988479 0.0643778 0.0574807
0.107301 0.0642405 0.0583047
0.118975 0.0654917 0.0615396
0.130358 0.0659953 0.0628672
0.142077 0.0667124 0.0653391
0.156512 0.0680552 0.0682994
0.172778 0.0696422 0.0715801
0.189532 0.0717937 0.0757153
0.209384 0.0744793 0.0795148
0.231159 0.0774548 0.0851148
0.255055 0.0803845 0.0910811
0.281468 0.0829786 0.097612
0.309575 0.0851453 0.1028
0.342245 0.0883192 0.111192
0.376165 0.0913863 0.119905
0.409125 0.0937667 0.127871
0.443381 0.0954147 0.136614
0.47631 0.0957351 0.145617
0.505745 0.0945449 0.152605
0.536614 0.0984817 0.159792
0.56759 0.104646 0.167834
0.585519 0.105943 0.174456
0.590326 0.105089 0.177615
0.59585 0.104189 0.180819
0.600778 0.103532 0.184482
0.604669 0.103105 0.187182
0.606928 0.103029 0.189731
0.608377 0.103105 0.191989
0.609735 0.103243 0.193957
0.612207 0.103532 0.197894
0.612634 0.10367 0.198886
0.604685 0.0942245 0.198047
0.603403 0.0945144 0.198947
0.608316 0.103334 0.201633
0.604685 0.103471 0.201465
0.597833 0.100664 0.200336
0.59295 0.0988022 0.199649
0.592447 0.0993515 0.200397
0.593164 0.0995804 0.201221
0.593683 0.099733 0.201892
0.594186 0.0998703 0.202686
0.59443 0.0999466 0.203067
0.594812 0.100053 0.203616
0.595132 0.100145 0.204105
0.595392 0.100206 0.204562
0.595666 0.100267 0.20502
0.595911 0.100313 0.205447
0.596109 0.100343 0.205829
0.596292 0.100359 0.206134
0.59646 0.100389 0.206424
0.596979 0.100343 0.206851
0.599817 0.0996567 0.20827
0.60444 0.0985733 0.21004
0.0480507 0.0625467 0.0542763
0.0469368 0.0630655 0.0560159
0.0463722 0.0633249 0.0569009
0.0458686 0.0635691 0.0576944
0.0463111 0.0638285 0.05832
0.0493324 0.0644236 0.0590982
0.0537423 0.0649271 0.0596628
0.0593576 0.0649729 0.0592966
0.0660868 0.0646372 0.0585489
0.0738384 0.0644541 0.0577401
0.082475 0.0643931 0.0572213
0.0917678 0.0643931 0.0572366
0.100664 0.0643778 0.0578164
0.109926 0.0644694 0.0590372
0.120516 0.065095 0.0608682
0.131823 0.0656138 0.0624552
0.144137 0.0663767 0.0648508
0.158404 0.0677806 0.0678569
0.174701 0.0692302 0.0709392
0.191791 0.0710765 0.0746777
0.21181 0.0737011 0.0787366
0.234302 0.0768749 0.0841077
0.258412 0.0798047 0.0902876
0.285298 0.0825208 0.0969863
0.31577 0.085359 0.104921
0.349599 0.088777 0.113878
0.383825 0.0916152 0.122499
0.417258 0.0939193 0.130785
0.45005 0.095079 0.139071
0.482292 0.0955978 0.147799
0.510704 0.0943618 0.154269
0.542153 0.099794 0.161456
0.573068 0.105211 0.170169
0.586267 0.105943 0.175525
0.590982 0.105043 0.178683
0.596658 0.104234 0.181842
0.601572 0.103563 0.185534
0.605463 0.10312 0.188281
0.607614 0.103059 0.190753
0.609171 0.103105 0.193027
0.610483 0.103243 0.194934
0.61178 0.10338 0.196811
0.612726 0.103502 0.198413
0.612375 0.102388 0.199634
0.612131 0.102327 0.200793
0.608728 0.100649 0.20087
0.605035 0.100572 0.200641
0.597742 0.0978714 0.199268
0.593561 0.0981613 0.198779
0.591699 0.0990616 0.199069
0.592325 0.0992905 0.200168
0.59295 0.0995041 0.200946
0.593423 0.0996414 0.201511
0.59382 0.0997635 0.20206
0.594186 0.0998703 0.202655
0.594507 0.0999619 0.203174
0.594842 0.100069 0.203662
0.595117 0.100145 0.204105
0.595361 0.100191 0.204532
0.59559 0.100252 0.204883
0.595789 0.100298 0.205234
0.595972 0.100328 0.20557
0.596445 0.100252 0.205951
0.599405 0.0995346 0.207416
0.603998 0.0984207 0.20914
0.0481727 0.062501 0.0541085
0.047013 0.063035 0.0559091
0.0463874 0.0633249 0.0568856
0.0458686 0.0635691 0.0576944
0.045716 0.0637522 0.0582589
0.0485389 0.064332 0.0590524
0.0529488 0.0649119 0.0596933
0.0588846 0.0649424 0.059266
0.0655528 0.0646067 0.0583963
0.0734569 0.0643626 0.0574655
0.0824598 0.06421 0.0567025
0.0918593 0.0641337 0.0565652
0.101289 0.0641642 0.057145
0.10988 0.0640269 0.0579538
0.121401 0.0646677 0.0600137
0.13257 0.0652628 0.0619364
0.145037 0.0659342 0.0640726
0.159426 0.0672618 0.0669566
0.174777 0.0684367 0.0695201
0.19295 0.0700847 0.073167
0.213169 0.0729229 0.0777447
0.235477 0.076112 0.0827039
0.260044 0.0789807 0.088777
0.287022 0.0819409 0.0955673
0.317311 0.0846265 0.10338
0.351125 0.0876631 0.112413
0.386603 0.0905165 0.122026
0.421134 0.0925154 0.130465
0.454154 0.0936446 0.138735
0.485969 0.0942855 0.14725
0.51281 0.0933852 0.153231
0.544579 0.100526 0.160433
0.57406 0.105272 0.169039
0.58526 0.105913 0.174014
0.590219 0.105074 0.177279
0.595666 0.104112 0.180468
0.600748 0.103426 0.183948
0.604578 0.102998 0.186694
0.606806 0.102907 0.189136
0.608194 0.102983 0.191196
0.609415 0.10309 0.193179
0.61059 0.103212 0.194934
0.61178 0.103319 0.196628
0.612619 0.103441 0.198062
0.613275 0.103563 0.199405
0.612406 0.102937 0.200366
0.610498 0.103212 0.200732
0.607019 0.103807 0.200473
0.596674 0.098085 0.197818
0.591897 0.0980087 0.196979
0.590692 0.0986801 0.197284
0.591302 0.0988785 0.198276
0.591775 0.0990921 0.199207
0.592218 0.0992599 0.200015
0.59263 0.0994125 0.200626
0.593027 0.0995193 0.201068
0.593347 0.0996262 0.201465
0.593668 0.0997177 0.201831
0.593942 0.099794 0.202258
0.594171 0.099855 0.202609
0.5944 0.0999313 0.202976
0.594583 0.0999771 0.203281
0.595117 0.0999619 0.203723
0.598291 0.0992447 0.205081
0.602823 0.0981918 0.207065
0.0481117 0.0625162 0.0542
0.0469368 0.0630655 0.0560311
0.0462654 0.063386 0.057084
0.045716 0.0636301 0.0579232
0.0454414 0.0637827 0.0584268
0.047425 0.064271 0.0590677
0.051957 0.0649119 0.0597696
0.0580301 0.0650339 0.0593881
0.0647746 0.0646677 0.0584726
0.0729839 0.0643931 0.0575418
0.0821241 0.0642405 0.056733
0.0918898 0.0641489 0.0566262
0.101671 0.0641184 0.0571603
0.110674 0.0640269 0.0579385
0.122866 0.064622 0.0599069
0.133776 0.0650034 0.0616007
0.145998 0.0656443 0.0632944
0.160571 0.066865 0.0660716
0.176501 0.0680095 0.0688487
0.194751 0.0695964 0.0724498
0.215091 0.0722972 0.0767987
0.237522 0.0755016 0.0817121
0.262379 0.0784161 0.0877699
0.290318 0.0813306 0.0945602
0.320699 0.0840162 0.102419
0.354498 0.0869917 0.111498
0.389456 0.0895399 0.120897
0.424186 0.0912795 0.129732
0.458961 0.092134 0.138216
0.491707 0.0924392 0.14728
0.518959 0.0914626 0.153094
0.550576 0.100908 0.160067
0.577905 0.105241 0.168795
0.584817 0.105714 0.172824
0.589548 0.105104 0.176104
0.59498 0.104021 0.1794
0.600137 0.103273 0.182757
0.603983 0.102831 0.185657
0.606332 0.102724 0.187778
0.60763 0.102831 0.189837
0.608774 0.102922 0.19173
0.609918 0.103029 0.193469
0.611032 0.10312 0.195148
0.612085 0.103227 0.196643
0.612894 0.103334 0.198077
0.613489 0.103471 0.199298
0.61326 0.103777 0.200153
0.611673 0.104448 0.200549
0.605463 0.10193 0.199374
0.600885 0.1028 0.198489
0.592401 0.0985428 0.196323
0.58967 0.098436 0.195865
0.590372 0.0986038 0.196841
0.590951 0.0987564 0.197681
0.591379 0.098909 0.198444
0.591714 0.0990616 0.1991
0.592096 0.0992142 0.199771
0.592401 0.0993362 0.200351
0.592737 0.099443 0.200748
0.593042 0.0995499 0.201099
0.593301 0.0996109 0.201404
0.593545 0.0996872 0.201694
0.594095 0.0996414 0.20206
0.59733 0.098909 0.203494
0.601953 0.0978561 0.205447
0.0478981 0.062623 0.0545357
0.0466926 0.0631723 0.0563973
0.0459907 0.063508 0.057496
0.0454566 0.0637522 0.05832
0.045182 0.0638895 0.0587778
0.0461738 0.0642405 0.059205
0.0504616 0.0650034 0.0598764
0.0562448 0.0652781 0.0596628
0.0630961 0.0649882 0.058793
0.0713817 0.0647288 0.0577859
0.0808423 0.0645151 0.0569314
0.091249 0.0643626 0.056733
0.10135 0.064271 0.0572061
0.111543 0.0641947 0.0581369
0.123705 0.064744 0.06009
0.13521 0.0649271 0.0616617
0.147494 0.0657206 0.063508
0.162081 0.0667887 0.0658732
0.177951 0.0678111 0.0683909
0.195422 0.0691234 0.0713664
0.216617 0.0717327 0.0758831
0.239017 0.0746319 0.0803388
0.264637 0.0775616 0.0863813
0.293034 0.0805219 0.0932937
0.323552 0.0831159 0.100877
0.357443 0.0859846 0.109773
0.391012 0.0884565 0.119158
0.426291 0.0901808 0.128069
0.460746 0.0908827 0.1364
0.494926 0.090837 0.145495
0.523476 0.0894789 0.151812
0.557412 0.101045 0.159503
0.583947 0.104555 0.168627
0.586648 0.10486 0.171954
0.590524 0.10457 0.175067
0.595163 0.103761 0.178302
0.599695 0.102998 0.181277
0.603479 0.102586 0.184146
0.605676 0.102495 0.186282
0.607034 0.102586 0.188174
0.608179 0.102693 0.190021
0.609262 0.102785 0.191775
0.610269 0.102861 0.193347
0.611276 0.102953 0.194797
0.612131 0.103044 0.196139
0.612924 0.103136 0.197345
0.613489 0.103243 0.198505
0.613413 0.103471 0.199222
0.612131 0.104005 0.199603
0.609262 0.104921 0.199435
0.6009 0.101061 0.197162
0.596216 0.101411 0.196231
0.593042 0.102007 0.195758
0.592401 0.101961 0.196017
0.592523 0.101747 0.196628
0.592538 0.101427 0.197177
0.592493 0.101045 0.19765
0.590677 0.0986954 0.197284
0.591043 0.0987869 0.197818
0.591318 0.0988937 0.198322
0.591577 0.0990005 0.198795
0.591775 0.0990921 0.199222
0.592371 0.0990768 0.19971
0.595636 0.0983902 0.200961
0.600443 0.097322 0.203006
0.0476997 0.0627146 0.0548257
0.0464942 0.0632792 0.0567178
0.0457618 0.0636149 0.0578622
0.0452277 0.063859 0.0586862
0.0449683 0.0639963 0.0590982
0.045182 0.0641794 0.0593729
0.0483253 0.0650797 0.0600137
0.0538796 0.0656748 0.0601511
0.060502 0.0655375 0.0593118
0.068986 0.0653239 0.0582895
0.0785992 0.065156 0.0572671
0.0894026 0.0650034 0.0569009
0.100175 0.0647898 0.0572061
0.110994 0.0648051 0.0582132
0.123644 0.0653391 0.0601358
0.13521 0.0653849 0.0616007
0.148379 0.0662547 0.063798
0.163439 0.0671855 0.0661173
0.179629 0.068101 0.0684825
0.197284 0.0692607 0.0712749
0.217456 0.0712139 0.0750591
0.240421 0.074052 0.0789654
0.265721 0.0766461 0.0842145
0.294209 0.0794385 0.0910353
0.32546 0.0820172 0.0985428
0.358862 0.0846876 0.107424
0.393469 0.0871138 0.116884
0.427787 0.0887922 0.125933
0.462409 0.089601 0.134493
0.49601 0.0892348 0.142443
0.52665 0.0907759 0.149645
0.560525 0.100954 0.15729
0.586557 0.10338 0.166674
0.590951 0.103334 0.170977
0.594888 0.102983 0.17464
0.599359 0.102419 0.177935
0.603265 0.101762 0.180591
0.606119 0.101488 0.183154
0.607492 0.101579 0.185306
0.608377 0.101793 0.186816
0.609201 0.101961 0.188479
0.610056 0.102083 0.190112
0.610941 0.102205 0.191562
0.611765 0.102281 0.192981
0.612589 0.102358 0.194125
0.613443 0.102434 0.195407
0.614176 0.10248 0.196536
0.614862 0.10251 0.197467
0.615091 0.102647 0.198215
0.61442 0.103014 0.198795
0.612207 0.103731 0.198764
0.608545 0.104784 0.198093
0.604822 0.105852 0.197345
0.601587 0.106767 0.196658
0.599985 0.107301 0.196628
0.599695 0.1075 0.196994
0.599924 0.107591 0.197391
0.59498 0.101732 0.196033
0.591592 0.0978561 0.195254
0.591485 0.0974136 0.195529
0.591836 0.0974594 0.195956
0.592599 0.0973983 0.196414
0.594568 0.0970626 0.19736
0.598276 0.0962692 0.198978
0.603677 0.095079 0.201099
0.0475929 0.0639506 0.0562448
0.0463417 0.0644999 0.0580606
0.0457465 0.0648051 0.0589914
0.045304 0.0649119 0.059617
0.0451362 0.0645762 0.0597238
0.04477 0.0643473 0.0598001
0.0461128 0.0648966 0.0601053
0.0512398 0.0659495 0.0605478
0.0575875 0.0661326 0.0599374
0.0659648 0.0660563 0.0588846
0.0755474 0.065919 0.0577401
0.0866255 0.0658274 0.057084
0.0979629 0.0655222 0.0570535
0.109499 0.0655985 0.0580911
0.122728 0.0661173 0.0599985
0.135103 0.0662547 0.0616312
0.148913 0.0670787 0.0639353
0.163851 0.0677348 0.0660105
0.180713 0.0689708 0.0687572
0.198688 0.0700236 0.0714275
0.219562 0.0717479 0.0749676
0.242054 0.0743877 0.078584
0.26685 0.0764019 0.0830396
0.295354 0.078584 0.0886244
0.326101 0.0809644 0.0956588
0.359838 0.0831922 0.104143
0.394568 0.0853895 0.113512
0.429191 0.0870069 0.122927
0.463188 0.0877699 0.131411
0.497658 0.0893416 0.139544
0.534661 0.0986648 0.148669
0.561151 0.10103 0.153964
0.582864 0.102708 0.161089
0.588632 0.102693 0.166262
0.595148 0.102342 0.171771
0.600244 0.101656 0.175875
0.605264 0.100847 0.179171
0.608774 0.100328 0.18175
0.611109 0.100145 0.184115
0.612589 0.100175 0.186023
0.613703 0.100298 0.187579
0.614664 0.100389 0.189212
0.615503 0.100465 0.190509
0.61619 0.100572 0.191943
0.616953 0.100633 0.193103
0.617685 0.10071 0.194064
0.618326 0.100755 0.195163
0.618891 0.100801 0.196124
0.619471 0.100847 0.19707
0.619852 0.100938 0.19791
0.619501 0.101198 0.198459
0.617655 0.101778 0.198322
0.614435 0.102693 0.197528
0.610071 0.103853 0.19646
0.606439 0.104845 0.195483
0.604089 0.105501 0.195056
0.603189 0.105791 0.195117
0.603067 0.105898 0.195377
0.60296 0.105608 0.195651
0.602701 0.10518 0.195865
0.602472 0.10486 0.196002
0.602594 0.104372 0.196307
0.60383 0.103548 0.197009
0.606943 0.102266 0.198398
0.6121 0.10042 0.200427
0.0482032 0.0681621 0.0595102
0.0474708 0.0686656 0.0605173
0.0466163 0.0690929 0.0617533
0.0466011 0.0692149 0.0618448
0.0465705 0.068864 0.0618601
0.0468452 0.0679789 0.0616922
0.0472725 0.0669718 0.0613718
0.0500343 0.0675975 0.0614786
0.0555428 0.0681163 0.0612345
0.0630655 0.0679637 0.0602121
0.0723888 0.0675975 0.0587778
0.0830396 0.0669413 0.0574655
0.0950942 0.0666056 0.0570687
0.107271 0.0667124 0.0578775
0.120974 0.0672618 0.0597543
0.134264 0.0675212 0.0615091
0.148379 0.0683146 0.0638132
0.164294 0.0688334 0.0661021
0.181231 0.0701457 0.0688334
0.200107 0.0714275 0.0716106
0.221561 0.0733349 0.0752575
0.244251 0.0755627 0.078645
0.269642 0.0774548 0.08336
0.297292 0.0788128 0.0878157
0.327031 0.0802014 0.0930495
0.358694 0.0818799 0.0998398
0.39353 0.0834363 0.108568
0.428031 0.0846876 0.117815
0.462074 0.0853742 0.126711
0.4981 0.0894026 0.135424
0.534234 0.0985885 0.143465
0.560601 0.100984 0.148867
0.579049 0.102373 0.15494
0.585245 0.102327 0.160571
0.591699 0.101961 0.166232
0.59826 0.101335 0.171344
0.603037 0.10071 0.175326
0.606668 0.100267 0.178378
0.60882 0.100069 0.180606
0.610285 0.100023 0.182437
0.611368 0.100069 0.184131
0.61239 0.100145 0.185626
0.613321 0.100221 0.186755
0.614023 0.100298 0.187976
0.614725 0.100359 0.189181
0.615381 0.10042 0.190204
0.615839 0.100496 0.191196
0.616327 0.100542 0.192035
0.616846 0.100587 0.192828
0.61735 0.100618 0.193484
0.617716 0.100679 0.194034
0.617502 0.100847 0.194476
0.616083 0.101289 0.19443
0.613443 0.102022 0.193881
0.609781 0.102983 0.193225
0.6065 0.103838 0.192386
0.604212 0.104479 0.191943
0.603052 0.104829 0.191821
0.602808 0.104952 0.19202
0.60293 0.104982 0.192264
0.603037 0.104997 0.192447
0.603265 0.104997 0.192721
0.60415 0.104845 0.193149
0.606867 0.104234 0.19408
0.611704 0.103105 0.195865
0.0502327 0.073518 0.0614023
0.0494545 0.0741283 0.0621042
0.0485847 0.0747692 0.0633707
0.0485542 0.0748913 0.063508
0.0484779 0.0748455 0.0636149
0.0489509 0.0738842 0.063447
0.049897 0.0725567 0.0631723
0.0521248 0.0717632 0.063035
0.0564584 0.0724041 0.0633249
0.0632639 0.0725567 0.0629435
0.0719463 0.0718242 0.0615549
0.0816815 0.0709697 0.0596475
0.0935225 0.0700389 0.0582742
0.105394 0.0691386 0.0581216
0.118532 0.0689097 0.0595407
0.132601 0.0690623 0.0613718
0.147829 0.0699168 0.0637064
0.164294 0.0705425 0.0661631
0.181933 0.07187 0.0689403
0.201434 0.0733043 0.0718242
0.223239 0.075349 0.0755016
0.247028 0.0771954 0.0793927
0.271992 0.0785687 0.0834211
0.300649 0.0798505 0.0879377
0.32961 0.0810101 0.0928054
0.360616 0.0818952 0.0981308
0.392538 0.0825513 0.104128
0.425177 0.0829938 0.111345
0.461494 0.0872358 0.120638
0.500084 0.0950942 0.130266
0.544396 0.095552 0.13933
0.569482 0.0976883 0.143603
0.585672 0.0988327 0.148989
0.592447 0.098909 0.15465
0.598581 0.0985275 0.160311
0.604547 0.098146 0.165972
0.608698 0.0979324 0.170687
0.611688 0.0981765 0.174777
0.611032 0.0987259 0.177096
0.608942 0.0995651 0.178378
0.60679 0.100374 0.17908
0.60502 0.101061 0.179568
0.603876 0.101518 0.18027
0.603571 0.101762 0.181048
0.603784 0.101884 0.181903
0.604273 0.101946 0.182773
0.604837 0.102007 0.18352
0.605356 0.102037 0.184268
0.605844 0.102083 0.185061
0.606195 0.102129 0.185657
0.606485 0.102174 0.186114
0.606683 0.102235 0.186435
0.606699 0.102327 0.186694
0.606149 0.102525 0.186786
0.604486 0.102983 0.186526
0.602014 0.103624 0.186191
0.599207 0.104341 0.185595
0.597101 0.104906 0.185077
0.595819 0.105241 0.184894
0.595331 0.105394 0.184878
0.595315 0.10544 0.185046
0.595621 0.105394 0.18526
0.596597 0.105211 0.185687
0.598627 0.104768 0.186267
0.60177 0.104036 0.18732
0.054551 0.0784466 0.0598764
0.0538949 0.0791943 0.0605936
0.0534676 0.0796521 0.0610819
0.0532845 0.0800641 0.0614481
0.0532692 0.0802319 0.0615396
0.0533608 0.079881 0.0615091
0.0547341 0.0785534 0.0614481
0.0567178 0.0769665 0.061387
0.0603952 0.0764477 0.0614023
0.0663005 0.0769513 0.061738
0.0746624 0.0771649 0.0620432
0.0847791 0.076997 0.0616312
0.0960861 0.076112 0.0602579
0.107561 0.0754711 0.0595102
0.120058 0.0743877 0.0595254
0.133715 0.0734569 0.0608682
0.147494 0.0727245 0.0625315
0.163592 0.0729076 0.0652476
0.181338 0.0735485 0.0679789
0.201862 0.0753948 0.071397
0.224506 0.0774395 0.0753643
0.24802 0.078996 0.0791028
0.273884 0.0804303 0.0833295
0.301762 0.0817121 0.0878157
0.331838 0.0826734 0.0927291
0.363378 0.0833906 0.0982528
0.394293 0.083711 0.103838
0.425788 0.0834974 0.109438
0.460685 0.0877699 0.115953
0.49984 0.0945144 0.124605
0.533181 0.0963607 0.131502
0.560296 0.0977188 0.136233
0.576288 0.0984207 0.140856
0.583856 0.0984207 0.144762
0.59028 0.0978103 0.148775
0.596658 0.0974594 0.153552
0.601343 0.0973373 0.158373
0.603601 0.0975814 0.162448
0.603677 0.0982681 0.165621
0.60267 0.0991684 0.168261
0.601282 0.100099 0.170428
0.599512 0.100816 0.171283
0.598718 0.101259 0.17229
0.599176 0.101656 0.173983
0.599435 0.101808 0.175128
0.599924 0.101884 0.176181
0.600443 0.101946 0.176959
0.600916 0.10193 0.177798
0.601282 0.10193 0.178347
0.601617 0.10193 0.178882
0.601907 0.10193 0.179217
0.60209 0.101915 0.179461
0.602289 0.101915 0.179629
0.602304 0.10193 0.179812
0.601953 0.102052 0.179995
0.600717 0.102388 0.179797
0.598718 0.102907 0.179385
0.59588 0.103624 0.178836
0.593194 0.104311 0.17818
0.591394 0.104784 0.177707
0.590646 0.104967 0.177508
0.590646 0.104997 0.1776
0.591333 0.104829 0.177905
0.593362 0.104326 0.178561
0.59675 0.103502 0.179431
0.0571145 0.0862135 0.0619669
0.0562905 0.0870069 0.0624399
0.055787 0.0876478 0.0627604
0.0555581 0.0880903 0.063035
0.0555734 0.088365 0.0631571
0.0555581 0.0883803 0.0631571
0.05626 0.0875715 0.0631418
0.058732 0.0859083 0.0633555
0.0611429 0.0842451 0.0634623
0.0670481 0.0839857 0.0635843
0.0750439 0.0844434 0.0641337
0.0859388 0.0846571 0.0650034
0.0987869 0.0843519 0.0648356
0.110918 0.0830701 0.0637369
0.124605 0.0823987 0.0636149
0.138262 0.0816968 0.0636149
0.152361 0.0806592 0.0640574
0.167025 0.0788586 0.0651408
0.183612 0.0780041 0.0682536
0.202533 0.0777295 0.0712444
0.22504 0.07953 0.0753643
0.250004 0.0809644 0.0794385
0.275929 0.0822461 0.0835126
0.304448 0.0834211 0.0882887
0.335042 0.0845197 0.0934462
0.366552 0.0851606 0.0987869
0.398184 0.0852216 0.104402
0.428931 0.0843824 0.109483
0.461112 0.0833906 0.114961
0.501106 0.0935683 0.123156
0.533242 0.0963302 0.128435
0.557336 0.0975357 0.132097
0.568032 0.0975662 0.134386
0.57435 0.0973831 0.137102
0.580331 0.0970474 0.139925
0.586267 0.0966964 0.142718
0.591134 0.0965591 0.145724
0.59324 0.0966812 0.148425
0.593637 0.0973831 0.150484
0.592676 0.0982834 0.152941
0.591241 0.0991379 0.154986
0.590234 0.0998856 0.156725
0.589624 0.100404 0.157855
0.590585 0.100771 0.160113
0.591363 0.100999 0.161959
0.591989 0.101106 0.163348
0.592569 0.101167 0.164294
0.592721 0.101183 0.164904
0.593683 0.101259 0.166186
0.595178 0.101396 0.167803
0.595331 0.101396 0.168078
0.595376 0.101411 0.168261
0.595361 0.101411 0.168383
0.595544 0.101411 0.16875
0.595499 0.101427 0.168826
0.595193 0.101503 0.168887
0.594186 0.101701 0.168597
0.592309 0.102113 0.168063
0.589883 0.102693 0.167407
0.586892 0.103365 0.166506
0.584543 0.103929 0.165957
0.583337 0.104173 0.165454
0.583673 0.104158 0.165789
0.585748 0.103731 0.166583
0.589181 0.102968 0.167666
0.0595712 0.0956283 0.0647898
0.0587472 0.0965133 0.0650339
0.0582132 0.0971695 0.0651102
0.0580148 0.0977798 0.0651408
0.0580758 0.0981613 0.0653239
0.0581064 0.0982834 0.0653391
0.0581674 0.0981003 0.0652934
0.0596475 0.0970016 0.0654612
0.0629129 0.0950027 0.0657969
0.0666972 0.0933394 0.0659648
0.0745251 0.0933852 0.0662699
0.0852216 0.0937209 0.0670787
0.0996414 0.0940414 0.0686503
0.113848 0.09308 0.068864
0.128969 0.0919509 0.0689555
0.143862 0.0907607 0.0689403
0.158236 0.0894484 0.0688945
0.173602 0.0882734 0.0691081
0.19028 0.0864424 0.0693828
0.209003 0.084596 0.0717784
0.228412 0.0833906 0.0755474
0.250736 0.0833143 0.07953
0.277516 0.0844282 0.0838636
0.306676 0.0855116 0.0884718
0.337179 0.0863203 0.0935073
0.369787 0.0869306 0.0990463
0.400977 0.0868238 0.104555
0.432776 0.0860151 0.109987
0.464912 0.0843519 0.115129
0.504143 0.0930343 0.123095
0.537942 0.0968185 0.128908
0.562371 0.0978256 0.132509
0.570871 0.0977646 0.13344
0.572473 0.0971084 0.133639
0.57438 0.096376 0.134142
0.577798 0.0958267 0.135317
0.58117 0.095552 0.136934
0.58262 0.0957656 0.138262
0.581933 0.0963912 0.139132
0.580056 0.0972763 0.139712
0.578454 0.0981613 0.140658
0.577539 0.098909 0.141695
0.577264 0.0995193 0.142779
0.577264 0.0998093 0.143526
0.577874 0.0999619 0.144152
0.578729 0.100023 0.144808
0.579416 0.100038 0.145327
0.580118 0.100038 0.1458
0.580545 0.100023 0.146136
0.580819 0.0999924 0.146792
0.581048 0.0999924 0.147402
0.58114 0.0999924 0.147723
0.581308 0.0999924 0.147936
0.581262 0.100008 0.147753
0.581323 0.100008 0.147707
0.581353 0.100008 0.147768
0.581231 0.100023 0.147707
0.580987 0.100099 0.147768
0.579797 0.100313 0.147295
0.577966 0.100755 0.147066
0.575204 0.101396 0.146349
0.573022 0.101961 0.14583
0.57171 0.102281 0.145418
0.572534 0.102098 0.145403
0.57525 0.101488 0.14609
0.0622416 0.106981 0.0678569
0.0614786 0.108232 0.0682078
0.0610361 0.109438 0.0682689
0.0608835 0.110384 0.0680552
0.060914 0.110933 0.0681315
0.0610208 0.111513 0.0682536
0.0610208 0.111559 0.0682841
0.0613107 0.110994 0.0682689
0.0643473 0.109316 0.0684825
0.0675517 0.106569 0.0685283
0.0732586 0.105226 0.0687419
0.0838483 0.105364 0.0694743
0.0977493 0.105364 0.0705272
0.114717 0.105959 0.0727703
0.13254 0.104936 0.0742657
0.149752 0.103197 0.0750134
0.16556 0.10135 0.0751049
0.182803 0.0991684 0.0756085
0.19942 0.0969406 0.075761
0.217899 0.0941482 0.0757916
0.237232 0.091371 0.0768292
0.258122 0.0895705 0.0797436
0.281544 0.0884565 0.0838483
0.307546 0.087541 0.0882887
0.339376 0.088304 0.0933089
0.371893 0.0889296 0.0988479
0.403708 0.088716 0.104448
0.436332 0.0877394 0.109972
0.468833 0.0858625 0.115129
0.509163 0.0949416 0.123278
0.542214 0.0971695 0.129091
0.568948 0.0984207 0.133669
0.579309 0.0985428 0.135012
0.580743 0.0979324 0.135073
0.58233 0.0971542 0.135286
0.583917 0.0964065 0.135622
0.584817 0.0958724 0.135744
0.58381 0.0957809 0.135561
0.581247 0.0961471 0.135134
0.577462 0.096849 0.134722
0.574243 0.097612 0.134463
0.571954 0.0982681 0.134569
0.570062 0.0986954 0.134524
0.568475 0.0988632 0.134188
0.567452 0.0988632 0.133898
0.566659 0.0987564 0.13344
0.566445 0.0987259 0.13341
0.567193 0.0988632 0.133928
0.567987 0.09897 0.134401
0.568994 0.0990616 0.134768
0.56936 0.0991073 0.134874
0.569528 0.0991226 0.13492
0.56968 0.0991379 0.13492
0.569635 0.0991379 0.134859
0.569451 0.0991226 0.134737
0.569451 0.0991226 0.134676
0.569619 0.0991379 0.134752
0.569635 0.0991379 0.134722
0.569604 0.0991531 0.134722
0.568978 0.0991989 0.134524
0.56759 0.0993362 0.134112
0.56611 0.0995651 0.133654
0.56434 0.0998093 0.13312
0.563745 0.0998856 0.132967
0.565209 0.0997024 0.133318
0.0650645 0.12018 0.0718242
0.0647135 0.121752 0.0719768
0.0643168 0.123064 0.0720378
0.0641184 0.123827 0.0714733
0.0640421 0.124651 0.0711376
0.0641031 0.125231 0.0711376
0.0641031 0.125734 0.0712596
0.0640879 0.125795 0.0713207
0.0648966 0.124849 0.0713207
0.0689555 0.123003 0.0716259
0.0732891 0.120409 0.0718547
0.0814221 0.119829 0.0724346
0.0946822 0.120012 0.0734722
0.112581 0.120165 0.0753033
