bundles/resolve-cinematic-luts/Phantom Luts/Komodo Phantom FILM LUTs G2/Komodo Phantom FILM LUTs G2/65x/Standard (No WB Offset)/Eterna_Komodo_G2_65x.cube
TITLE "Generated by Resolve"
LUT_3D_SIZE 9
0.0239719 0.0437324 0.0379034
0.0618601 0.0455177 0.037705
0.164569 0.049546 0.0544747
0.355016 0.0713054 0.111391
0.590005 0.088365 0.188495
0.62974 0.0863508 0.220539
0.617609 0.092256 0.229053
0.62005 0.0924086 0.235019
0.628656 0.0906539 0.241688
0.0308232 0.0618906 0.0441596
0.044419 0.0581674 0.0448768
0.171984 0.0542611 0.0505531
0.371511 0.0631113 0.092958
0.609705 0.081529 0.166369
0.623316 0.0841993 0.200641
0.62681 0.0851453 0.21004
0.620539 0.0874037 0.210742
0.621805 0.0873426 0.212558
0.0629282 0.209674 0.084123
0.0618296 0.225818 0.0758679
0.210697 0.220584 0.0830396
0.496529 0.183459 0.125963
0.638788 0.0817731 0.14609
0.627237 0.0852674 0.146197
0.620996 0.0874495 0.143664
0.622873 0.0880446 0.142428
0.639399 0.0843061 0.144427
0.078294 0.551308 0.145739
0.0984207 0.582528 0.133944
0.108843 0.599161 0.1066
0.549386 0.595178 0.127825
0.857557 0.663386 0.202869
0.872129 0.672831 0.206699
0.871778 0.682383 0.205524
0.87361 0.686458 0.208133
0.870878 0.684382 0.204181
0.249134 0.888472 0.319326
0.252079 0.899046 0.327123
0.259983 0.896544 0.337255
0.449165 0.90724 0.270634
0.889311 0.932097 0.385489
0.94464 0.933043 0.436118
0.944274 0.932357 0.433249
0.943755 0.930922 0.428855
0.939559 0.927886 0.411139
0.245869 0.90486 0.395315
0.248569 0.903883 0.393118
0.2486 0.903655 0.384283
0.248981 0.903212 0.377829
0.793423 0.929458 0.374792
0.94786 0.952224 0.513848
0.949996 0.951522 0.525002
0.950103 0.951461 0.5252
0.95053 0.951217 0.525872
0.24329 0.905974 0.398138
0.245212 0.905089 0.395575
0.252674 0.902251 0.388479
0.253758 0.901396 0.378698
0.650874 0.919066 0.315328
0.938735 0.949676 0.486748
0.950835 0.951064 0.526268
0.95169 0.950622 0.527199
0.951583 0.950668 0.527077
0.252201 0.902724 0.400412
0.24419 0.905577 0.39733
0.250187 0.903288 0.390997
0.25301 0.901671 0.378576
0.48983 0.914885 0.280125
0.90341 0.945327 0.440894
0.955154 0.948684 0.531991
0.955139 0.948699 0.531945
0.955886 0.948257 0.533165
0.264988 0.898146 0.403265
0.254887 0.901747 0.399786
0.255375 0.901457 0.394125
0.261646 0.89839 0.380453
0.367666 0.897688 0.276616
0.845487 0.93463 0.405798
0.95462 0.948653 0.52517
0.955139 0.948714 0.531945
0.955291 0.948623 0.532174
0.0207828 0.0449531 0.060502
0.0643626 0.0464179 0.0594186
0.170214 0.0560616 0.0820325
0.355581 0.072221 0.134585
0.60592 0.0805524 0.213565
0.661402 0.0826429 0.26041
0.652949 0.0866102 0.269551
0.654887 0.0869612 0.278355
0.661265 0.08542 0.287266
0.0265049 0.0544594 0.0496376
0.0372931 0.0504463 0.0501869
0.186099 0.0537728 0.0729686
0.401099 0.0735485 0.137392
0.63209 0.0815137 0.214755
0.653361 0.0832227 0.246937
0.657969 0.0840772 0.262837
0.651194 0.0869306 0.267582
0.654978 0.0865797 0.275151
0.057145 0.199863 0.109407
0.0560922 0.213916 0.0946975
0.209918 0.216693 0.0833906
0.488396 0.16437 0.119722
0.634028 0.0786908 0.148989
0.627955 0.081117 0.150118
0.623453 0.0821088 0.149432
0.623789 0.0822156 0.149264
0.628031 0.0810559 0.150149
0.0711223 0.530877 0.184329
0.0873732 0.563928 0.171679
0.105852 0.596826 0.10486
0.546899 0.592264 0.126223
0.853117 0.655543 0.201755
0.871687 0.671595 0.205646
0.870497 0.680858 0.203525
0.87364 0.681559 0.208301
0.871992 0.675166 0.206363
0.2177 0.871855 0.361807
0.237415 0.884718 0.344594
0.266056 0.894911 0.305989
0.43563 0.905608 0.267826
0.883574 0.928557 0.373968
0.943282 0.93106 0.427771
0.943313 0.931731 0.428962
0.942702 0.929854 0.423468
0.938933 0.925994 0.405417
0.244236 0.906569 0.417487
0.247623 0.904509 0.401633
0.247776 0.904143 0.390799
0.248859 0.903258 0.377737
0.785153 0.928679 0.370596
0.947845 0.952193 0.513237
0.94992 0.951553 0.52488
0.950057 0.951476 0.525109
0.950484 0.951232 0.525811
0.238788 0.910628 0.471489
0.242603 0.908324 0.441444
0.252171 0.902647 0.397055
0.254002 0.901289 0.378744
0.661662 0.919356 0.31931
0.937057 0.949477 0.483757
0.950866 0.951034 0.526314
0.95169 0.950607 0.527199
0.951583 0.950668 0.527092
0.24715 0.9084 0.495781
0.23975 0.910155 0.467658
0.249348 0.903777 0.400092
0.25301 0.901671 0.378576
0.52256 0.916304 0.2851
0.900801 0.945037 0.438514
0.9552 0.948653 0.531594
0.955169 0.948684 0.531991
0.955947 0.948211 0.533303
0.259983 0.904189 0.505974
0.250416 0.906844 0.482139
0.253605 0.902968 0.415122
0.26302 0.898085 0.384451
0.426764 0.904479 0.27805
0.853254 0.936355 0.409171
0.954574 0.948623 0.524315
0.955139 0.948714 0.531945
0.955291 0.948623 0.532174
0.0244907 0.052079 0.13518
0.0703746 0.0510109 0.157504
0.191028 0.056672 0.133059
0.374395 0.0818494 0.172473
0.610178 0.0805829 0.251881
0.674617 0.0866712 0.305455
0.692531 0.101747 0.336522
0.696483 0.117906 0.35317
0.711177 0.125216 0.376211
0.0159762 0.0600137 0.107378
0.0170138 0.0568399 0.15465
0.204822 0.0586862 0.153155
0.40911 0.0870222 0.197696
0.637308 0.083299 0.278782
0.694621 0.0959182 0.33315
0.705776 0.117906 0.362509
0.700984 0.124758 0.37937
0.697078 0.11368 0.397604
0.0560769 0.181857 0.151751
0.0543221 0.188037 0.165301
0.199664 0.194095 0.188006
0.481086 0.135378 0.200763
0.65919 0.0796063 0.240146
0.673762 0.0808118 0.276417
0.667704 0.0865797 0.29633
0.680232 0.0964523 0.320211
0.697108 0.106401 0.344686
0.0654459 0.498436 0.25005
0.0694743 0.532357 0.264485
0.08365 0.556161 0.20618
0.536858 0.578836 0.12166
0.8598 0.625315 0.209094
0.878096 0.628733 0.21239
0.87982 0.633509 0.215
0.8804 0.629435 0.215259
0.881117 0.613931 0.214817
0.177203 0.843885 0.45568
0.184543 0.852277 0.46276
0.20882 0.861402 0.401724
0.358343 0.89305 0.260471
0.872663 0.920836 0.353613
0.939864 0.92018 0.398947
0.940459 0.92105 0.40177
0.939895 0.919203 0.397406
0.935882 0.913176 0.378515
0.236393 0.911559 0.549813
0.240253 0.911101 0.548577
0.24181 0.910201 0.494118
0.247761 0.903731 0.379232
0.746944 0.926207 0.351888
0.946334 0.951812 0.506798
0.949401 0.951843 0.524132
0.950301 0.951339 0.525551
0.950271 0.951354 0.525505
0.21973 0.905669 0.58912
0.223407 0.905867 0.582376
0.238437 0.910887 0.548211
0.254337 0.901747 0.390845
0.646632 0.918669 0.314382
0.929335 0.948837 0.471336
0.950652 0.951156 0.526024
0.951247 0.950851 0.526741
0.951614 0.950668 0.527108
0.219379 0.901732 0.611337
0.21326 0.905531 0.601511
0.225879 0.909148 0.567727
0.251179 0.903227 0.402777
0.495979 0.915175 0.281071
0.890852 0.943587 0.430579
0.951339 0.950637 0.524132
0.955291 0.948623 0.532174
0.955932 0.948226 0.533288
0.230961 0.896819 0.618341
0.222599 0.900984 0.609308
0.231525 0.903441 0.580682
0.261448 0.902708 0.474937
0.350835 0.89543 0.274754
0.849119 0.935592 0.407019
0.949264 0.951095 0.513542
0.955139 0.948714 0.531945
0.955291 0.948623 0.532174
0.0358282 0.0587015 0.260639
0.0616312 0.053193 0.300435
0.205417 0.063447 0.291249
0.414359 0.0732128 0.271839
0.670756 0.118105 0.343755
0.71458 0.120211 0.392721
0.696574 0.0982223 0.422049
0.681376 0.0890669 0.4439
0.681208 0.0914473 0.4701
0.0217899 0.0759442 0.224613
0.0188907 0.071931 0.285893
0.181003 0.0621347 0.336736
0.434562 0.0736858 0.313771
0.675502 0.114122 0.376623
0.692988 0.0940719 0.426612
0.685847 0.0889296 0.463981
0.675441 0.0959945 0.492699
0.673762 0.100465 0.520485
0.0466621 0.168627 0.216709
0.0433967 0.169284 0.257191
0.0350805 0.117891 0.313481
0.448524 0.0817273 0.345037
0.681025 0.0989242 0.408942
0.694163 0.085069 0.456977
0.695918 0.0879072 0.502922
0.686244 0.0950484 0.527657
0.681285 0.100359 0.544335
0.0674907 0.451743 0.347341
0.059678 0.477836 0.391165
0.0628519 0.490883 0.417365
0.490074 0.49633 0.450126
0.871199 0.461189 0.486717
0.905379 0.438437 0.508721
0.901869 0.437903 0.539467
0.897169 0.421485 0.558694
0.892348 0.39089 0.570932
0.151522 0.801511 0.546899
0.152331 0.806912 0.576288
0.156695 0.813245 0.576654
0.186023 0.81677 0.45742
0.824155 0.883833 0.33225
0.935668 0.888731 0.367498
0.944976 0.86421 0.442252
0.94815 0.853712 0.472709
0.944869 0.839033 0.473686
0.206104 0.902373 0.645411
0.206073 0.901106 0.658579
0.208865 0.90161 0.643778
0.243168 0.90631 0.558282
0.624186 0.918288 0.307942
0.940703 0.949874 0.490883
0.951537 0.950774 0.528679
0.951751 0.950637 0.528618
0.950225 0.951385 0.525689
0.202899 0.898558 0.702251
0.203769 0.897841 0.707881
0.20412 0.899046 0.688792
0.21384 0.904143 0.609796
0.506813 0.915434 0.282719
0.898589 0.944259 0.437049
0.950698 0.950957 0.522713
0.951156 0.950866 0.52636
0.952193 0.950332 0.52752
0.211429 0.893675 0.728908
0.20267 0.896864 0.730282
0.201007 0.898589 0.710857
0.205097 0.903151 0.642084
0.333852 0.905394 0.299702
0.850462 0.934661 0.40885
0.94905 0.951034 0.512047
0.952667 0.950072 0.52842
0.956191 0.948058 0.533471
0.226429 0.887816 0.73492
0.216419 0.891539 0.734539
0.215122 0.893156 0.716579
0.21677 0.8972 0.660899
0.26331 0.902007 0.47245
0.808377 0.93019 0.382895
0.937423 0.950378 0.485069
0.950942 0.950988 0.526375
0.955077 0.94873 0.531807
0.0501106 0.0653544 0.456733
0.0656138 0.059144 0.478019
0.187793 0.0661784 0.490105
0.486061 0.0915389 0.524453
0.685832 0.0902113 0.514015
0.689143 0.0917372 0.511879
0.691615 0.0931868 0.534813
0.698802 0.0975814 0.575662
0.715434 0.112779 0.622171
0.0261997 0.0920577 0.427665
0.0256657 0.0813611 0.457191
0.132509 0.0524453 0.488197
0.470909 0.0901961 0.561639
0.687327 0.0910353 0.549783
0.690394 0.0959793 0.552178
0.705211 0.107652 0.600183
0.727123 0.127901 0.657145
0.720699 0.133669 0.670558
0.0385595 0.142412 0.365286
0.0450446 0.150164 0.411337
0.0413977 0.129259 0.487617
0.406744 0.0874647 0.570077
0.699062 0.103548 0.591638
0.707469 0.102907 0.600458
0.7299 0.123659 0.658152
0.732784 0.129076 0.692882
0.722667 0.134615 0.690959
0.0400397 0.402808 0.471702
0.0418708 0.428855 0.51606
0.0400244 0.460822 0.591455
0.0577096 0.4038 0.690364
0.840909 0.301442 0.724346
0.86363 0.279957 0.718837
0.858366 0.264149 0.738811
0.854444 0.253468 0.759625
0.842252 0.239902 0.758785
0.139803 0.747417 0.634592
0.130831 0.752483 0.661128
0.129305 0.754894 0.679286
0.124926 0.745739 0.673518
0.741253 0.768612 0.726909
0.936584 0.762509 0.743832
0.937209 0.75787 0.759564
0.936828 0.753536 0.772656
0.934447 0.733654 0.772686
0.218219 0.891569 0.725795
0.223758 0.888716 0.738842
0.223026 0.887755 0.739223
0.211551 0.87863 0.703426
0.449073 0.918318 0.652323
0.932219 0.948547 0.739239
0.95996 0.946303 0.799146
0.959823 0.940108 0.824872
0.960937 0.935302 0.824704
0.207828 0.891203 0.789059
0.210086 0.889967 0.796582
0.208286 0.891188 0.789166
0.202213 0.896101 0.742687
0.246052 0.91986 0.677134
0.858289 0.93727 0.618326
0.952743 0.949462 0.518563
0.953216 0.949538 0.5252
0.949828 0.9514 0.520256
0.213519 0.887129 0.815412
0.213657 0.886854 0.818982
0.212284 0.888136 0.809354
0.205005 0.893736 0.766491
0.220233 0.920134 0.71751
0.817929 0.940688 0.704356
0.94461 0.951171 0.499367
0.948745 0.95198 0.519173
0.951904 0.950271 0.523476
0.218448 0.884672 0.822705
0.226062 0.881788 0.82266
0.222324 0.884016 0.814862
0.21236 0.890196 0.780972
0.209812 0.907195 0.718059
0.77438 0.941253 0.732464
0.932464 0.95259 0.650248
0.947417 0.952499 0.51458
0.948867 0.951919 0.519341
0.0743114 0.0519265 0.56524
0.0922713 0.0493019 0.564157
0.167758 0.0546731 0.575433
0.447181 0.089128 0.660655
0.729793 0.130831 0.712825
0.733333 0.130144 0.708324
0.733577 0.129671 0.705852
0.732906 0.130419 0.709834
0.73164 0.132235 0.717906
0.0267491 0.0826429 0.579004
0.0343328 0.0717327 0.573449
0.120287 0.0509957 0.56701
0.394324 0.0834821 0.644282
0.726131 0.132494 0.720638
0.731075 0.13283 0.719707
0.730953 0.133181 0.721233
0.730678 0.133715 0.72372
0.730724 0.133684 0.723827
0.0429541 0.168063 0.6094
0.0444648 0.165423 0.630198
0.0387884 0.133608 0.61529
0.284108 0.0729381 0.610452
0.720027 0.13228 0.722225
0.730755 0.133654 0.72369
0.730465 0.133791 0.723247
0.73051 0.133761 0.723369
0.730312 0.133852 0.722911
0.0404669 0.405875 0.654795
0.044007 0.409781 0.676997
0.0525673 0.407919 0.699031
0.0599069 0.329595 0.717342
0.688396 0.184344 0.78146
0.777432 0.175433 0.755169
0.813642 0.212833 0.783413
0.795941 0.197009 0.777722
0.762722 0.164797 0.754101
0.108629 0.698756 0.720272
0.109224 0.69839 0.73521
0.123217 0.695262 0.746242
0.123552 0.680339 0.761181
0.50045 0.684199 0.838178
0.933944 0.684169 0.878111
0.936202 0.688518 0.87039
0.936431 0.678111 0.877394
0.933272 0.659907 0.888579
0.200977 0.882597 0.798917
0.214374 0.8692 0.796994
0.204593 0.856489 0.79324
0.180682 0.831937 0.769619
0.306691 0.879606 0.821118
0.899229 0.911345 0.896483
0.957809 0.91133 0.898344
0.957855 0.908827 0.901732
0.953658 0.908324 0.905974
0.212726 0.884565 0.842481
0.222965 0.880705 0.842802
0.229709 0.878813 0.836637
0.226398 0.882643 0.812924
0.220645 0.906691 0.799695
0.80705 0.945785 0.863066
0.963378 0.962737 0.916442
0.968627 0.965484 0.944137
0.966003 0.964431 0.94667
0.216983 0.87985 0.862486
0.217929 0.878889 0.864729
0.216724 0.880278 0.860334
0.212039 0.885771 0.834699
0.221439 0.90544 0.814313
0.730541 0.944884 0.860975
0.948913 0.95729 0.902281
0.958572 0.953765 0.678996
0.952667 0.954208 0.614603
0.216495 0.877867 0.869963
0.218128 0.875547 0.870604
0.219409 0.877363 0.867124
0.215183 0.883207 0.84651
0.221973 0.902312 0.826688
0.664073 0.944808 0.874022
0.945068 0.959945 0.927504
0.964294 0.963638 0.907073
0.951247 0.953811 0.592416
0.115496 0.0508125 0.566735
0.121645 0.0510262 0.566796
0.172366 0.0545663 0.576104
0.405722 0.0847944 0.647669
0.730205 0.133623 0.723751
0.730724 0.133684 0.723827
0.730724 0.133684 0.723827
0.730724 0.133684 0.723827
0.730724 0.133684 0.723827
0.0635538 0.0563363 0.566964
0.0728313 0.0525521 0.565515
0.131334 0.051667 0.568399
0.338735 0.0781109 0.626856
0.727993 0.133318 0.723354
0.730602 0.133745 0.723552
0.730632 0.133715 0.723613
0.730724 0.133684 0.723827
0.730724 0.133684 0.723827
0.0442512 0.16286 0.631876
0.0441749 0.16231 0.631861
0.0367895 0.124346 0.609049
0.216083 0.0663462 0.591058
0.689036 0.126726 0.718044
0.730724 0.133684 0.723827
0.730724 0.133684 0.723827
0.730724 0.133684 0.723827
0.730724 0.133684 0.723827
0.0589303 0.359182 0.724483
0.0593881 0.35552 0.72578
0.0593576 0.350271 0.724193
0.0580148 0.310552 0.709651
0.513466 0.141527 0.723003
0.731762 0.134829 0.724865
0.732021 0.135103 0.725124
0.7364 0.139666 0.729473
0.736446 0.139681 0.729625
0.117647 0.677348 0.780789
0.118486 0.675013 0.784985
0.120562 0.670039 0.787213
0.125536 0.655512 0.789883
0.124285 0.629831 0.816022
0.900999 0.617853 0.91902
0.924865 0.616419 0.919966
0.926726 0.63714 0.921141
0.924636 0.615778 0.919722
0.194965 0.850965 0.839384
0.187457 0.843854 0.840375
0.179232 0.828 0.833585
0.16379 0.795743 0.817807
0.165911 0.786877 0.83856
0.777005 0.863371 0.921263
0.953658 0.879561 0.931792
0.955871 0.879622 0.928542
0.950134 0.872587 0.932555
0.213214 0.875395 0.874296
0.212146 0.874495 0.875334
0.226658 0.871702 0.868208
0.227909 0.876493 0.857023
0.223545 0.895308 0.85301
0.729686 0.936782 0.919341
0.953597 0.955444 0.953079
0.961486 0.957687 0.955749
0.961364 0.957198 0.955932
0.211078 0.873701 0.876356
0.211078 0.873701 0.876356
0.211078 0.873701 0.876356
0.215854 0.878096 0.869993
0.228809 0.898802 0.861509
0.377691 0.93846 0.893324
0.946715 0.960128 0.949264
0.970535 0.967987 0.960586
0.969772 0.96968 0.96556
0.211078 0.873701 0.876356
0.211612 0.873518 0.876081
0.212741 0.873137 0.875471
0.212207 0.874052 0.875395
0.23035 0.897261 0.870329
0.346517 0.934844 0.898589
0.937728 0.961303 0.95256
0.96614 0.967697 0.962661
0.969406 0.969284 0.963684
0.132021 0.0517128 0.56846
0.135836 0.0520027 0.569146
0.168734 0.0540475 0.575738
0.345022 0.0786603 0.628824
0.724681 0.132906 0.722835
0.730724 0.133684 0.723827
0.730724 0.133684 0.723827
0.730724 0.133684 0.723827
0.730724 0.133684 0.723827
0.0844587 0.0491646 0.564294
0.0909438 0.0492256 0.564446
0.129137 0.0515297 0.568063
0.284489 0.0729839 0.610544
0.699809 0.128969 0.719661
0.730724 0.133684 0.723827
0.730724 0.133684 0.723827
0.730724 0.133684 0.723827
0.730724 0.133684 0.723827
0.0436561 0.159075 0.630533
0.0435798 0.158145 0.629969
0.0395056 0.136049 0.616831
0.145556 0.0526894 0.571283
0.614237 0.110719 0.705821
0.730724 0.133684 0.723827
0.730724 0.133684 0.723827
0.730724 0.133684 0.723827
0.730724 0.133684 0.723827
0.0594949 0.35697 0.726345
0.0597391 0.360327 0.727306
0.0593729 0.353033 0.724926
0.0580148 0.311208 0.709865
0.357565 0.114702 0.662776
0.730831 0.133822 0.723934
0.730892 0.133898 0.723995
0.731044 0.134096 0.724147
0.73135 0.134432 0.724453
0.121813 0.669718 0.799573
0.122271 0.670924 0.8
0.12108 0.66717 0.799222
0.117388 0.655085 0.796826
0.109911 0.616617 0.798978
0.811032 0.587427 0.910307
0.920668 0.567254 0.915297
0.920012 0.561975 0.914565
0.920226 0.564233 0.914809
0.190768 0.840726 0.862394
0.18912 0.836957 0.861143
0.183825 0.825238 0.856748
0.163928 0.780865 0.837736
0.150912 0.745907 0.829572
0.640757 0.824674 0.913375
0.940459 0.852995 0.940993
0.942016 0.846723 0.940505
0.942733 0.853101 0.941299
0.2112 0.873655 0.876295
0.211078 0.873701 0.876356
0.211078 0.873701 0.876356
0.211078 0.873701 0.876356
0.20647 0.867903 0.873426
0.333776 0.893736 0.914748
0.919753 0.940246 0.950607
0.959625 0.950103 0.9579
0.959731 0.950225 0.957641
0.211078 0.873701 0.876356
0.211078 0.873701 0.876356
0.211078 0.873701 0.876356
0.211292 0.873625 0.876234
0.220325 0.882979 0.876783
0.246876 0.90959 0.889281
0.897368 0.956146 0.951782
0.967422 0.967834 0.967666
0.969039 0.968688 0.968383
0.211078 0.873701 0.876356
0.211078 0.873701 0.876356
0.211078 0.873701 0.876356
0.211078 0.873701 0.876356
0.220249 0.884276 0.881422
0.252064 0.912398 0.896666
0.89926 0.956985 0.953231
0.967712 0.968917 0.968048
0.971191 0.971191 0.970642
0.138521 0.0521706 0.569589
0.140856 0.0523842 0.570108
0.161776 0.0535744 0.57435
0.289372 0.0733349 0.611963
0.680598 0.124773 0.716731
0.730724 0.133684 0.723827
0.730724 0.133684 0.723827
0.730724 0.133684 0.723827
0.730724 0.133684 0.723827
0.0908064 0.0492409 0.564492
0.0950942 0.0494545 0.564736
0.121157 0.0509957 0.567056
0.237186 0.0684215 0.597162
0.628702 0.113405 0.708629
0.730724 0.133684 0.723827
0.730724 0.133684 0.723827
0.730724 0.133684 0.723827
0.730724 0.133684 0.723827
0.0443732 0.163638 0.632288
0.044358 0.163394 0.632349
0.042649 0.152056 0.626841
0.0855726 0.0513619 0.565469
0.517891 0.0968795 0.682704
0.730724 0.133684 0.723827
0.730724 0.133684 0.723827
0.730724 0.133684 0.723827
0.730724 0.133684 0.723827
0.0600137 0.373342 0.729992
0.0602274 0.378851 0.731395
0.0602884 0.377935 0.731441
0.0590829 0.344625 0.722271
0.2056 0.11104 0.630961
0.730907 0.133913 0.72401
0.730724 0.133684 0.723827
0.73077 0.133745 0.723873
0.730816 0.133791 0.723918
0.124117 0.677134 0.80148
0.124559 0.67866 0.801709
0.123629 0.675898 0.800778
0.119844 0.663249 0.798291
0.108324 0.621057 0.792157
0.701625 0.56408 0.902678
0.917372 0.530617 0.911543
0.915267 0.503151 0.909072
0.914015 0.490318 0.907698
0.193469 0.84593 0.86453
0.191867 0.842603 0.863264
0.187716 0.83357 0.859815
0.168933 0.792966 0.841978
0.151812 0.748775 0.829755
0.457649 0.7879 0.900542
0.911528 0.829526 0.935943
0.939849 0.82034 0.93817
0.939132 0.809888 0.937301
0.211078 0.873701 0.876356
0.211078 0.873701 0.876356
0.211078 0.873701 0.876356
0.211078 0.873701 0.876356
0.2094 0.871824 0.875334
0.203174 0.852644 0.880201
0.870573 0.925902 0.944289
0.95697 0.944183 0.956649
0.956054 0.94107 0.955779
0.211078 0.873701 0.876356
0.211078 0.873701 0.876356
0.211078 0.873701 0.876356
0.211078 0.873701 0.876356
0.211078 0.873701 0.876356
0.234974 0.903822 0.898512
0.678309 0.938384 0.939712
0.961913 0.964034 0.965042
0.967712 0.966751 0.967681
0.211078 0.873701 0.876356
0.211078 0.873701 0.876356
0.211078 0.873701 0.876356
0.211078 0.873701 0.876356
0.211276 0.873915 0.87657
0.238544 0.907912 0.9019
0.644785 0.942641 0.939376
0.964599 0.967605 0.967391
0.971496 0.971496 0.971511
