bundles/resolve-cinematic-luts/Phantom Luts/Komodo Phantom FILM LUTs G2/Komodo Phantom FILM LUTs G2/65x/Standard (No WB Offset)/Eterna_Komodo_Legacy_G2_65x.cube
TITLE "Generated by Resolve"
LUT_3D_SIZE 5
0.0460212 0.0634928 0.0574502
0.142077 0.0667124 0.0653391
0.56759 0.104646 0.167834
0.59295 0.0988022 0.199649
0.60444 0.0985733 0.21004
0.072755 0.174594 0.0894484
0.169375 0.182666 0.0923323
0.622934 0.0990768 0.135637
0.608377 0.104082 0.134279
0.627482 0.101198 0.134783
0.238621 0.875746 0.294759
0.254643 0.890089 0.314504
0.865736 0.929122 0.35346
0.94284 0.929183 0.402396
0.937819 0.922484 0.380728
0.240116 0.897581 0.36228
0.246952 0.894789 0.354101
0.598962 0.911711 0.285512
0.950637 0.952148 0.489784
0.951476 0.951705 0.491081
0.259464 0.890043 0.366796
0.250111 0.893477 0.358862
0.341741 0.889509 0.267781
0.954192 0.950088 0.490166
0.955245 0.949722 0.496773
0.0456092 0.0690929 0.119142
0.160632 0.0724498 0.116655
0.57792 0.0962844 0.218051
0.668956 0.112779 0.292332
0.677775 0.125963 0.325322
0.0665904 0.151949 0.128023
0.160037 0.161349 0.155947
0.63061 0.0897078 0.207935
0.649119 0.102358 0.258366
0.671199 0.115099 0.298711
0.165133 0.812116 0.394354
0.201526 0.836378 0.352209
0.845182 0.913054 0.323995
0.938323 0.913146 0.372625
0.932982 0.901167 0.351186
0.214359 0.901076 0.538338
0.229191 0.903807 0.498146
0.594446 0.911208 0.284703
0.950561 0.952193 0.489662
0.951766 0.951537 0.491508
0.228931 0.894286 0.569253
0.225467 0.898024 0.530373
0.327123 0.887572 0.266178
0.949203 0.952316 0.479149
0.955245 0.949722 0.496773
0.0631418 0.0802319 0.412863
0.157504 0.0814374 0.440848
0.672145 0.0997024 0.475151
0.68481 0.102861 0.500816
0.715373 0.122362 0.596475
0.0563821 0.123476 0.309239
0.0602731 0.115892 0.431983
0.696208 0.115068 0.563531
0.726726 0.129778 0.631937
0.716503 0.138567 0.676921
0.123262 0.707698 0.579217
0.115999 0.716274 0.628275
0.688472 0.718654 0.672374
0.932265 0.707454 0.709728
0.92784 0.681224 0.724788
0.213672 0.890883 0.755596
0.215122 0.890562 0.755428
0.245884 0.921767 0.632517
0.952865 0.950576 0.484977
0.950256 0.952163 0.485847
0.227771 0.881636 0.797284
0.231907 0.881209 0.787518
0.218036 0.909529 0.675273
0.92575 0.952956 0.600931
0.949538 0.95256 0.484825
0.10135 0.0685588 0.532509
0.146242 0.0747845 0.540551
0.722118 0.13666 0.713146
0.722835 0.136797 0.713268
0.722835 0.136797 0.713268
0.0600595 0.139986 0.590936
0.055024 0.114092 0.575051
0.668635 0.127108 0.705974
0.722835 0.136797 0.713268
0.722835 0.136797 0.713252
0.106401 0.627832 0.750179
0.109606 0.619577 0.758968
0.121401 0.576303 0.798733
0.913497 0.557031 0.906249
0.913237 0.556283 0.905913
0.223194 0.868574 0.866957
0.236011 0.86508 0.86067
0.231434 0.895918 0.83653
0.952148 0.954574 0.951492
0.961776 0.956237 0.954681
0.221851 0.86659 0.870558
0.22388 0.865919 0.869718
0.238788 0.898222 0.85951
0.927611 0.961517 0.95021
0.966094 0.966094 0.957
0.117418 0.0691844 0.533822
0.137758 0.0726787 0.538567
0.658579 0.125536 0.70457
0.722835 0.136797 0.713268
0.722835 0.136797 0.713268
0.0601511 0.140505 0.591119
0.0589151 0.132952 0.588281
0.469566 0.106371 0.650935
0.722835 0.136797 0.713268
0.722835 0.136797 0.713268
0.115694 0.626429 0.77554
0.115206 0.625055 0.774685
0.099794 0.564813 0.76553
0.898283 0.468864 0.889601
0.89134 0.427817 0.882063
0.221851 0.86659 0.870558
0.221851 0.86659 0.870558
0.220264 0.864179 0.869413
0.836713 0.916152 0.943358
0.95639 0.935576 0.955962
0.221851 0.86659 0.870558
0.221851 0.86659 0.870558
0.22208 0.866926 0.870817
0.589548 0.94258 0.938643
0.967269 0.967269 0.967269
