bundles/resolve-cinematic-luts/Phantom Luts/Komodo Phantom FILM LUTs G2/Komodo Phantom FILM LUTs G2/65x/Standard (No WB Offset)/Eterna_Komodo_Legacy_G2_65x.cube
TITLE "Generated by Resolve"
LUT_3D_SIZE 9
0.0460212 0.0634928 0.0574502
0.0649882 0.0646525 0.0585946
0.142077 0.0667124 0.0653391
0.309575 0.0851453 0.1028
0.56759 0.104646 0.167834
0.609735 0.103243 0.193957
0.59295 0.0988022 0.199649
0.595392 0.100206 0.204562
0.60444 0.0985733 0.21004
0.0502327 0.073518 0.0614023
0.0564584 0.0724041 0.0633249
0.147829 0.0699168 0.0637064
0.32961 0.0810101 0.0928054
0.585672 0.0988327 0.148989
0.60679 0.100374 0.17908
0.605844 0.102083 0.185061
0.599207 0.104341 0.185595
0.60177 0.104036 0.18732
0.072755 0.174594 0.0894484
0.0724193 0.187396 0.0862593
0.169375 0.182666 0.0923323
0.424094 0.157168 0.11751
0.622934 0.0990768 0.135637
0.618387 0.100954 0.136507
0.608377 0.104082 0.134279
0.611368 0.104341 0.133257
0.627482 0.101198 0.134783
0.0865492 0.484154 0.132647
0.0978256 0.518761 0.122103
0.103182 0.53756 0.104784
0.483528 0.532189 0.117494
0.832135 0.606394 0.180392
0.852461 0.617411 0.188586
0.852323 0.627466 0.188571
0.854368 0.632471 0.191333
0.851652 0.63006 0.187732
0.238621 0.875746 0.294759
0.247135 0.892805 0.305486
0.254643 0.890089 0.314504
0.405142 0.895308 0.258442
0.865736 0.929122 0.35346
0.943252 0.930037 0.404883
0.94284 0.929183 0.402396
0.942336 0.927398 0.398215
0.937819 0.922484 0.380728
0.240909 0.897154 0.359579
0.243519 0.896056 0.357977
0.243824 0.896101 0.350729
0.244129 0.89575 0.345693
0.750011 0.925597 0.334005
0.947723 0.953338 0.478477
0.949569 0.952758 0.487892
0.950011 0.952499 0.488701
0.950347 0.952316 0.489326
0.240116 0.897581 0.36228
0.241535 0.896925 0.359915
0.246952 0.894789 0.354101
0.249516 0.893614 0.346761
0.598962 0.911711 0.285512
0.935454 0.950774 0.453101
0.950637 0.952148 0.489784
0.951583 0.951644 0.491234
0.951476 0.951705 0.491081
0.246967 0.894942 0.364233
0.239139 0.897902 0.361166
0.242985 0.8963 0.355917
0.248432 0.894041 0.346563
0.442939 0.905119 0.26566
0.883604 0.946044 0.402914
0.955169 0.949767 0.496651
0.955139 0.949783 0.496605
0.955947 0.949325 0.498085
0.259464 0.890043 0.366796
0.249668 0.893828 0.363775
0.250111 0.893477 0.358862
0.257633 0.890364 0.348623
0.341741 0.889509 0.267781
0.810346 0.932723 0.362783
0.954192 0.950088 0.490166
0.955093 0.949798 0.496529
0.955245 0.949722 0.496773
0.0433814 0.0645609 0.0703441
0.0652781 0.0657206 0.0717174
0.143664 0.0715801 0.0827344
0.30576 0.085359 0.119509
0.570138 0.0897688 0.184695
0.635584 0.0922713 0.224994
0.63209 0.0982223 0.234272
0.634958 0.100679 0.242206
0.642893 0.101137 0.250568
0.0467384 0.0702983 0.0661479
0.0515297 0.0683757 0.0674907
0.156664 0.0704051 0.0781415
0.351461 0.0874495 0.122866
0.608423 0.0991836 0.188678
0.629068 0.0906081 0.214817
0.633051 0.094377 0.227253
0.628412 0.0988327 0.231693
0.633951 0.0995041 0.238849
0.0681315 0.166629 0.101762
0.0676738 0.177554 0.0958419
0.168765 0.179187 0.0925002
0.419638 0.143511 0.113405
0.612772 0.0964828 0.137011
0.611383 0.0978256 0.138552
0.604257 0.099321 0.137514
0.604913 0.0994125 0.137407
0.608331 0.0984512 0.138231
0.0838026 0.461921 0.160586
0.0924086 0.497856 0.149462
0.100435 0.53463 0.103731
0.481147 0.529137 0.116365
0.825757 0.598077 0.178302
0.851972 0.615732 0.18761
0.851194 0.625513 0.186969
0.853849 0.626886 0.190692
0.852277 0.619913 0.188464
0.205509 0.850904 0.321492
0.227253 0.869368 0.312764
0.259617 0.888991 0.289921
0.392737 0.893065 0.255772
0.858778 0.924575 0.342992
0.941878 0.92752 0.397253
0.941955 0.928649 0.398749
0.941299 0.926101 0.393591
0.937087 0.919722 0.375448
0.238437 0.898634 0.377844
0.242603 0.896727 0.365072
0.242786 0.896376 0.356039
0.243992 0.895796 0.345602
0.740841 0.92462 0.330144
0.947753 0.953307 0.478065
0.949538 0.952773 0.487846
0.949981 0.952529 0.488624
0.950301 0.952331 0.48925
0.23415 0.901976 0.425452
0.237873 0.899855 0.398535
0.24654 0.894972 0.361105
0.249882 0.893462 0.346838
0.609445 0.912001 0.288197
0.933059 0.950576 0.449699
0.950637 0.952148 0.489784
0.951583 0.951644 0.491234
0.951476 0.95169 0.491081
0.239429 0.90071 0.448142
0.233173 0.902159 0.42179
0.242084 0.896849 0.363516
0.248478 0.894026 0.346563
0.472831 0.906859 0.267369
0.880293 0.945403 0.400244
0.955169 0.949752 0.49633
0.955169 0.949767 0.496635
0.955978 0.949294 0.498146
0.251652 0.896468 0.458289
0.243076 0.898878 0.435508
0.248096 0.895003 0.376394
0.258869 0.890028 0.351812
0.390311 0.894789 0.268147
0.82031 0.934752 0.366674
0.954101 0.950088 0.489403
0.955093 0.949798 0.496529
0.955245 0.949722 0.496773
0.0456092 0.0690929 0.119142
0.0692912 0.0684367 0.136828
0.160632 0.0724498 0.116655
0.323384 0.0920272 0.148516
0.57792 0.0962844 0.218051
0.656077 0.103059 0.26659
0.668956 0.112779 0.292332
0.667338 0.122484 0.30576
0.677775 0.125963 0.325322
0.0403601 0.0734417 0.098909
0.0405432 0.0725567 0.135103
0.171481 0.0738994 0.132189
0.355871 0.0962539 0.168582
0.608774 0.099855 0.241627
0.671427 0.108629 0.289235
0.674983 0.121843 0.313115
0.669154 0.126833 0.329076
0.672267 0.120378 0.349264
0.0665904 0.151949 0.128023
0.065507 0.157412 0.138354
0.160037 0.161349 0.155947
0.415641 0.124178 0.169024
0.63061 0.0897078 0.207935
0.649622 0.0927596 0.238697
0.649119 0.102358 0.258366
0.659083 0.109392 0.278874
0.671199 0.115099 0.298711
0.0868391 0.42652 0.21265
0.0838026 0.463737 0.223957
0.0914626 0.489189 0.17705
0.470817 0.51519 0.113405
0.831144 0.565637 0.183764
0.856962 0.570077 0.191669
0.858167 0.575387 0.193713
0.858763 0.571298 0.193912
0.859586 0.554726 0.193561
0.165133 0.812116 0.394354
0.1738 0.823453 0.402655
0.201526 0.836378 0.352209
0.333593 0.878294 0.252522
0.845182 0.913054 0.323995
0.937774 0.912032 0.370153
0.938323 0.913146 0.372625
0.937591 0.91043 0.368429
0.932982 0.901167 0.351186
0.227237 0.904479 0.499657
0.230961 0.904173 0.49868
0.234287 0.902525 0.446113
0.243366 0.896101 0.346822
0.701564 0.920363 0.315969
0.946929 0.952483 0.473854
0.950149 0.952422 0.48896
0.951553 0.951659 0.491188
0.950195 0.952392 0.489052
0.214359 0.901076 0.538338
0.217472 0.900633 0.531518
0.229191 0.903807 0.498146
0.249134 0.893904 0.356359
0.594446 0.911208 0.284703
0.921523 0.949752 0.436332
0.950561 0.952193 0.489662
0.951232 0.951827 0.490684
0.951766 0.951537 0.491508
0.216663 0.898772 0.561486
0.209644 0.901839 0.550973
0.21825 0.902892 0.517006
0.245945 0.895445 0.366094
0.448356 0.905547 0.265995
0.867781 0.943603 0.392004
0.951385 0.951644 0.48867
0.955245 0.949722 0.496773
0.956008 0.949279 0.498222
0.228931 0.894286 0.569253
0.219791 0.897826 0.559472
0.225467 0.898024 0.530373
0.254078 0.894484 0.429496
0.327123 0.887572 0.266178
0.81561 0.933867 0.364843
0.949203 0.952316 0.479149
0.955093 0.949798 0.496529
0.955245 0.949722 0.496773
0.0533608 0.0739605 0.223713
0.0661784 0.0706493 0.258045
0.170306 0.0778363 0.246342
0.364355 0.0884565 0.231083
0.631647 0.121752 0.295964
0.683116 0.122545 0.340703
0.678843 0.110201 0.375723
0.669398 0.102968 0.403021
0.67364 0.105898 0.433555
0.0379339 0.0811627 0.190295
0.0390173 0.0808423 0.24448
0.150896 0.0771954 0.28954
0.384466 0.0894026 0.268437
0.638178 0.119203 0.326345
0.6766 0.107485 0.381216
0.675303 0.103746 0.424292
0.664866 0.103365 0.456504
0.671641 0.109819 0.493248
0.0617838 0.141634 0.178958
0.059617 0.141787 0.211475
0.0535439 0.106798 0.263874
0.398978 0.0950179 0.297734
0.656031 0.110567 0.361425
0.67866 0.0962234 0.413184
0.683833 0.096849 0.46302
0.681132 0.104143 0.496284
0.682307 0.111299 0.519539
0.0889296 0.381079 0.29102
0.0813458 0.407401 0.328542
0.0829633 0.420966 0.35108
0.422095 0.429252 0.382879
0.830076 0.396735 0.42182
0.874311 0.376074 0.44419
0.869642 0.375326 0.475288
0.863005 0.360159 0.494148
0.856565 0.332967 0.505699
0.133547 0.767697 0.482872
0.136797 0.777646 0.514916
0.142718 0.785763 0.515511
0.16524 0.781689 0.3944
0.783429 0.860319 0.289982
0.932128 0.866758 0.336538
0.944335 0.834073 0.386038
0.947402 0.821225 0.413306
0.944015 0.802808 0.412695
0.207172 0.90164 0.596719
0.208362 0.90103 0.61091
0.209796 0.900786 0.595102
0.234394 0.899413 0.508186
0.572091 0.910201 0.280201
0.938048 0.950957 0.456825
0.951492 0.951782 0.492485
0.951614 0.95169 0.492424
0.950164 0.952422 0.489235
0.208057 0.900008 0.657969
0.209018 0.899336 0.664179
0.208408 0.900267 0.64358
0.211444 0.901015 0.559625
0.458824 0.90602 0.266865
0.877455 0.944289 0.398672
0.950484 0.952087 0.4869
0.951034 0.951919 0.490135
0.952102 0.951354 0.491798
0.216999 0.895064 0.687831
0.208331 0.898283 0.688594
0.206104 0.900099 0.667216
0.205768 0.902419 0.593164
0.312337 0.896544 0.284932
0.816907 0.932799 0.3664
0.948928 0.952209 0.477928
0.952972 0.950912 0.493324
0.956374 0.949065 0.498695
0.233036 0.888899 0.695384
0.222141 0.892897 0.694209
0.220493 0.894835 0.674617
0.218845 0.8972 0.613947
0.256077 0.893645 0.427893
0.766903 0.926909 0.341772
0.933822 0.951507 0.450706
0.951019 0.951934 0.490333
0.955245 0.949722 0.496712
0.0631418 0.0802319 0.412863
0.0708934 0.0762036 0.438178
0.157504 0.0814374 0.440848
0.43003 0.102556 0.467643
0.672145 0.0997024 0.475151
0.677897 0.0997482 0.473793
0.68481 0.102861 0.500816
0.698955 0.109575 0.548775
0.715373 0.122362 0.596475
0.0437018 0.0923018 0.37435
0.0461891 0.0877241 0.41149
0.113649 0.0726329 0.441596
0.415091 0.101244 0.507637
0.680125 0.10312 0.51838
0.689967 0.107179 0.525063
0.706508 0.118563 0.575143
0.722744 0.133425 0.631495
0.71548 0.138384 0.651301
0.0563821 0.123476 0.309239
0.0616312 0.129122 0.353841
0.0602731 0.115892 0.431983
0.351659 0.0993362 0.51606
0.696208 0.115068 0.563531
0.708995 0.114473 0.575082
0.726726 0.129778 0.631937
0.72723 0.133806 0.67248
0.716503 0.138567 0.676921
0.0726635 0.336126 0.397681
0.0739757 0.359991 0.44239
0.0678111 0.391531 0.521798
0.0767681 0.340444 0.630518
0.791821 0.256184 0.662303
0.823026 0.239307 0.656504
0.819257 0.227253 0.677287
0.817823 0.219059 0.700847
0.808408 0.209445 0.703929
0.123262 0.707698 0.579217
0.115496 0.713268 0.607965
0.115999 0.716274 0.628275
0.112627 0.704631 0.621408
0.688472 0.718654 0.672374
0.931258 0.712963 0.692058
0.932265 0.707454 0.709728
0.931731 0.702815 0.724376
0.92784 0.681224 0.724788
0.223896 0.893126 0.684794
0.229526 0.889921 0.699718
0.228504 0.888655 0.699931
0.215122 0.875669 0.65977
0.395804 0.909178 0.59765
0.923873 0.947906 0.690852
0.960815 0.943938 0.755871
0.960632 0.935256 0.782208
0.960967 0.929229 0.781476
0.213672 0.890883 0.755596
0.21677 0.889082 0.764446
0.215122 0.890562 0.755428
0.209018 0.89688 0.702068
0.245884 0.921767 0.632517
0.82298 0.935943 0.560006
0.952865 0.950576 0.484977
0.953613 0.950469 0.490929
0.950256 0.952163 0.485847
0.22118 0.885084 0.787945
0.22092 0.88481 0.792691
0.219043 0.886687 0.780621
0.211215 0.894118 0.728679
0.224842 0.924422 0.675288
0.775036 0.939651 0.64889
0.94432 0.951949 0.466865
0.949401 0.952636 0.484535
0.952789 0.950896 0.489708
0.227771 0.881636 0.797284
0.233738 0.879164 0.79852
0.231907 0.881209 0.787518
0.221958 0.888823 0.745251
0.218036 0.909529 0.675273
0.726787 0.940398 0.679622
0.92575 0.952956 0.600931
0.947677 0.953399 0.479469
0.949538 0.95256 0.484825
0.0755627 0.0730907 0.5364
0.0864118 0.0700084 0.533333
0.142275 0.0738384 0.539315
0.395285 0.100496 0.623758
0.722988 0.134279 0.700191
0.727916 0.134249 0.69398
0.72813 0.133974 0.690333
0.72752 0.134371 0.695994
0.725017 0.135683 0.706218
0.0445869 0.090486 0.5514
0.0538491 0.0856184 0.547753
0.104494 0.0683757 0.532235
0.341253 0.0961013 0.605402
0.716747 0.13521 0.709224
0.72398 0.136187 0.70837
0.723339 0.136507 0.709987
0.722683 0.136858 0.712886
0.722774 0.136828 0.7131
0.0592203 0.143114 0.560281
0.0601511 0.141619 0.587152
0.0564889 0.12018 0.578546
0.23859 0.0877089 0.570565
0.708309 0.13431 0.711315
0.722896 0.136767 0.7131
0.722408 0.13695 0.712413
0.722423 0.13695 0.712444
0.722011 0.137087 0.711635
0.0642863 0.340414 0.587457
0.0656901 0.343969 0.613275
0.0698711 0.343435 0.641108
0.0746319 0.275135 0.666392
0.632425 0.163577 0.740581
0.755993 0.161593 0.726467
0.785122 0.189059 0.744808
0.768627 0.176349 0.744732
0.743313 0.155322 0.731609
0.0919814 0.65272 0.677211
0.0880598 0.65127 0.693263
0.108934 0.649241 0.709178
0.109071 0.632898 0.728328
0.436744 0.627024 0.798489
0.927718 0.628153 0.852872
0.930343 0.633234 0.844739
0.930755 0.621881 0.852384
0.927001 0.602319 0.864225
0.205814 0.879118 0.767285
0.220172 0.862242 0.766522
0.20911 0.844739 0.761608
0.180911 0.811337 0.731991
0.266819 0.854398 0.781125
0.876158 0.894438 0.871687
0.957214 0.895048 0.876554
0.957244 0.891157 0.881331
0.95317 0.889632 0.886824
0.219944 0.881239 0.823102
0.233921 0.876005 0.823926
0.237461 0.875471 0.817548
0.233036 0.880858 0.786343
0.227237 0.910231 0.768063
0.760723 0.945769 0.82948
0.962798 0.961791 0.893874
0.966659 0.963455 0.929351
0.964309 0.963348 0.936934
0.225956 0.874662 0.850187
0.226749 0.873426 0.853529
0.225544 0.875273 0.847501
0.219104 0.882994 0.81294
0.227893 0.90866 0.785901
0.678813 0.945373 0.828672
0.943969 0.95729 0.877607
0.959106 0.954528 0.638239
0.953231 0.955062 0.575036
0.225834 0.871794 0.860288
0.227375 0.869093 0.861982
0.228122 0.871687 0.857099
0.222431 0.879591 0.828336
0.228885 0.904845 0.801831
0.607996 0.945449 0.845975
0.939452 0.959854 0.912566
0.962982 0.962982 0.879332
0.951797 0.954879 0.552529
0.10135 0.0685588 0.532509
0.105364 0.0682689 0.531792
0.146242 0.0747845 0.540551
0.352529 0.0971237 0.60885
0.722118 0.13666 0.713146
0.722835 0.136797 0.713268
0.722835 0.136797 0.713268
0.722835 0.136797 0.713268
0.722835 0.136797 0.713268
0.0695506 0.0757458 0.538872
0.0747997 0.0734264 0.536706
0.112001 0.0686503 0.532815
0.287709 0.091722 0.586969
0.719142 0.136034 0.712612
0.722728 0.136843 0.712993
0.722759 0.136828 0.713054
0.722835 0.136797 0.713252
0.722835 0.136797 0.713268
0.0600595 0.139986 0.590936
0.060029 0.139635 0.591089
0.055024 0.114092 0.575051
0.181018 0.0827497 0.552178
0.668635 0.127108 0.705974
0.722835 0.136797 0.713268
0.722835 0.136797 0.713268
0.722835 0.136797 0.713268
0.722835 0.136797 0.713252
0.0732433 0.300999 0.674159
0.0736706 0.297856 0.676463
0.0736248 0.29308 0.674159
0.0733806 0.258701 0.657221
0.451331 0.13286 0.674449
0.723079 0.137301 0.713497
0.723125 0.137423 0.713542
0.725856 0.139971 0.716335
0.725734 0.139864 0.716274
0.106401 0.627832 0.750179
0.107774 0.62501 0.755383
0.109606 0.619577 0.758968
0.114412 0.603342 0.763439
0.121401 0.576303 0.798733
0.878416 0.558282 0.90457
0.913497 0.557031 0.906249
0.917525 0.578332 0.908904
0.913237 0.556283 0.905913
0.199649 0.836149 0.820279
0.191806 0.826429 0.821546
0.179965 0.805356 0.812741
0.155673 0.762646 0.791287
0.161273 0.751781 0.818982
0.72668 0.831907 0.913436
0.95314 0.851606 0.929564
0.955428 0.852003 0.925399
0.950027 0.841932 0.930251
0.223194 0.868574 0.866957
0.2224 0.867552 0.868772
0.236011 0.86508 0.86067
0.235752 0.871763 0.844617
0.231434 0.895918 0.83653
0.676432 0.934783 0.908324
0.952148 0.954574 0.951492
0.962371 0.956649 0.95407
0.961776 0.956237 0.954681
0.221851 0.86659 0.870558
0.221851 0.86659 0.870558
0.221866 0.86659 0.870558
0.224857 0.872114 0.860304
0.236912 0.900374 0.847822
0.34609 0.936492 0.873549
0.939605 0.960464 0.946151
0.968002 0.96527 0.953704
0.966339 0.966339 0.959792
0.221851 0.86659 0.870558
0.222461 0.866392 0.870314
0.22388 0.865919 0.869718
0.222583 0.867018 0.868971
0.238788 0.898222 0.85951
0.324544 0.93196 0.8813
0.927611 0.961517 0.95021
0.965042 0.965927 0.959701
0.966094 0.966094 0.957
0.112291 0.0686198 0.532769
0.115251 0.0688945 0.533288
0.143267 0.074052 0.540246
0.293706 0.0922408 0.589105
0.714626 0.135271 0.712123
0.722835 0.136797 0.713268
0.722835 0.136797 0.713268
0.722835 0.136797 0.713268
0.722835 0.136797 0.713268
0.081651 0.0710918 0.534615
0.0854505 0.0702373 0.533883
0.110307 0.068513 0.532464
0.238972 0.0877394 0.570626
0.682277 0.129656 0.708095
0.722835 0.136797 0.713268
0.722835 0.136797 0.713268
0.722835 0.136797 0.713268
0.722835 0.136797 0.713268
0.0596933 0.137514 0.590372
0.0597086 0.136995 0.590066
0.056733 0.121935 0.581033
0.124041 0.0704204 0.535439
0.577691 0.115129 0.686
0.722835 0.136797 0.713268
0.722835 0.136797 0.713268
0.722835 0.136797 0.713268
0.722835 0.136797 0.713268
0.0737621 0.298985 0.677302
0.0734417 0.301961 0.678264
0.0735637 0.295659 0.67509
0.0733806 0.259037 0.657191
0.299535 0.112505 0.612802
0.722881 0.136858 0.713298
0.722896 0.136873 0.713314
0.722942 0.136965 0.713359
0.723033 0.137118 0.713451
0.113085 0.618219 0.773083
0.113542 0.619471 0.773587
0.112184 0.615381 0.772549
0.108446 0.601785 0.770062
0.102632 0.559838 0.774182
0.764294 0.526253 0.889311
0.905089 0.506233 0.89688
0.904067 0.500954 0.895827
0.904402 0.502922 0.896162
0.194858 0.821515 0.851057
0.191974 0.816358 0.849088
0.183886 0.800565 0.842893
0.160693 0.744686 0.818647
0.146059 0.703197 0.808835
0.580652 0.783627 0.900572
0.94052 0.816663 0.941207
0.942733 0.808881 0.940795
0.943358 0.816663 0.941512
0.222431 0.866392 0.870314
0.221851 0.86659 0.870558
0.221851 0.86659 0.870558
0.221851 0.86659 0.870558
0.216693 0.858442 0.866209
0.305516 0.872847 0.903105
0.903929 0.935851 0.950072
0.960967 0.947387 0.957412
0.961089 0.947585 0.957092
0.221851 0.86659 0.870558
0.221851 0.86659 0.870558
0.221851 0.86659 0.870558
0.222812 0.86627 0.870161
0.230137 0.879011 0.869902
0.254841 0.912245 0.884825
0.870253 0.956207 0.9505
0.96698 0.967147 0.967102
0.967254 0.967254 0.967224
0.221851 0.86659 0.870558
0.221851 0.86659 0.870558
0.221851 0.86659 0.870558
0.221851 0.86659 0.870558
0.231907 0.881209 0.876966
0.260334 0.915541 0.895216
0.872587 0.957183 0.952285
0.966033 0.966522 0.966262
0.967208 0.967208 0.96698
0.117418 0.0691844 0.533822
0.119677 0.0694591 0.534295
0.137758 0.0726787 0.538567
0.243595 0.0881361 0.572198
0.658579 0.125536 0.70457
0.722835 0.136797 0.713268
0.722835 0.136797 0.713268
0.722835 0.136797 0.713268
0.722835 0.136797 0.713268
0.08542 0.0702983 0.533989
0.0882124 0.069749 0.533471
0.105043 0.0683146 0.532204
0.198581 0.0841382 0.557977
0.594705 0.116762 0.690455
0.722835 0.136797 0.713268
0.722835 0.136797 0.713268
0.722835 0.136797 0.713268
0.722835 0.136797 0.713268
0.0601511 0.140505 0.591119
0.0601511 0.140352 0.591257
0.0589151 0.132952 0.588281
0.0827955 0.0715496 0.535058
0.469566 0.106371 0.650935
0.722835 0.136797 0.713268
0.722835 0.136797 0.713268
0.722835 0.136797 0.713268
0.722835 0.136797 0.713268
0.0731975 0.31339 0.682094
0.0730602 0.318441 0.684184
0.0731365 0.317479 0.684199
0.0737316 0.288426 0.671916
0.169604 0.107698 0.583688
0.722911 0.136889 0.713314
0.722835 0.136797 0.713268
0.722866 0.136828 0.713268
0.722881 0.136843 0.713283
0.115694 0.626429 0.77554
0.11606 0.628122 0.775769
0.115206 0.625055 0.774685
0.110964 0.610986 0.771649
0.099794 0.564813 0.76553
0.643473 0.501625 0.875944
0.898283 0.468864 0.889601
0.893599 0.440589 0.884443
0.89134 0.427817 0.882063
0.198459 0.828412 0.853986
0.196277 0.82417 0.852079
0.189502 0.811719 0.847333
0.1626 0.75877 0.82295
0.147158 0.706538 0.809125
0.396475 0.739895 0.879393
0.897856 0.788296 0.935409
0.940291 0.776928 0.938079
0.939467 0.765057 0.937041
0.221851 0.86659 0.870558
0.221851 0.86659 0.870558
0.221851 0.86659 0.870558
0.221851 0.86659 0.870558
0.220264 0.864179 0.869413
0.206638 0.836194 0.874861
0.836713 0.916152 0.943358
0.957321 0.939788 0.956909
0.95639 0.935576 0.955962
0.221851 0.86659 0.870558
0.221851 0.86659 0.870558
0.221851 0.86659 0.870558
0.221851 0.86659 0.870558
0.221851 0.86659 0.870558
0.251392 0.907423 0.901122
0.623178 0.937148 0.938949
0.961501 0.964157 0.965042
0.966674 0.9664 0.966674
0.221851 0.86659 0.870558
0.221851 0.86659 0.870558
0.221851 0.86659 0.870558
0.221851 0.86659 0.870558
0.22208 0.866926 0.870817
0.25507 0.912245 0.904891
0.589548 0.94258 0.938643
0.962493 0.965896 0.965896
0.967269 0.967269 0.967269
