bundles/resolve-cinematic-luts/Phantom Luts/Komodo Phantom FILM LUTs G2/Komodo Phantom FILM LUTs G2/65x/Standard (No WB Offset)/Eterna_Komodo_G2_65x.cube
TITLE "Generated by Resolve"
LUT_3D_SIZE 65
0.0239719 0.0437324 0.0379034
0.0239567 0.0437476 0.0379492
0.0238956 0.0437781 0.0380407
0.0238041 0.0438087 0.0381781
0.0248417 0.0440375 0.0383917
0.0295415 0.0446174 0.0388037
0.0384527 0.0449531 0.0383917
0.0499123 0.0453193 0.038056
0.0618601 0.0455177 0.037705
0.0734264 0.0455177 0.0372473
0.0850996 0.0460517 0.0380713
0.0970169 0.0465095 0.0395819
0.108492 0.0466011 0.0412146
0.120729 0.0470436 0.0437171
0.135103 0.0482338 0.0480201
0.149142 0.0488899 0.0508125
0.164569 0.049546 0.0544747
0.182528 0.0510109 0.0591135
0.201846 0.0528725 0.0644083
0.222629 0.055787 0.0715953
0.245899 0.0594492 0.0779431
0.270741 0.0631876 0.0859236
0.297581 0.0663462 0.0945449
0.326375 0.0695811 0.104723
0.355016 0.0713054 0.111391
0.386969 0.0745556 0.122164
0.419486 0.0772412 0.13344
0.450385 0.0788739 0.143679
0.481086 0.0792859 0.154131
0.511025 0.0797589 0.163912
0.540749 0.0827344 0.172808
0.566964 0.0857404 0.180621
0.590005 0.088365 0.188495
0.604334 0.0893111 0.195712
0.609735 0.0885634 0.20029
0.615824 0.0876173 0.204807
0.621286 0.0867933 0.209094
0.62501 0.086305 0.212619
0.627283 0.086183 0.215564
0.628626 0.0862287 0.21799
0.62974 0.0863508 0.220539
0.631632 0.086717 0.224887
0.631647 0.0870069 0.226093
0.631052 0.0875868 0.227802
0.628458 0.0885939 0.228367
0.624628 0.0899214 0.228412
0.62092 0.0911574 0.228092
0.618021 0.0920577 0.228153
0.617609 0.092256 0.229053
0.618051 0.0922408 0.230091
0.618463 0.092256 0.231174
0.618799 0.0922408 0.232059
0.61915 0.0922713 0.232822
0.619379 0.0923171 0.23328
0.619638 0.0923323 0.233875
0.619852 0.0923781 0.234455
0.62005 0.0924086 0.235019
0.620218 0.0924392 0.235599
0.620386 0.0924697 0.236118
0.620539 0.0925002 0.236622
0.620661 0.0925154 0.237018
0.620798 0.0925307 0.2374
0.621241 0.0924849 0.237812
0.624125 0.091783 0.239414
0.628656 0.0906539 0.241688
0.0258488 0.0428473 0.0349584
0.0248264 0.0433356 0.0365759
0.0243229 0.0435645 0.0373541
0.0239567 0.0437324 0.0379339
0.0252079 0.0440681 0.0383459
0.0302892 0.0446174 0.0386969
0.039704 0.0449683 0.0382849
0.0512398 0.0453498 0.037995
0.0634775 0.0454719 0.037705
0.0751965 0.0456397 0.0375525
0.087068 0.0462348 0.0386664
0.0996414 0.0465553 0.0401312
0.111589 0.0467842 0.0420539
0.124315 0.047364 0.044831
0.136828 0.0474403 0.0468147
0.151095 0.0480812 0.0497749
0.166751 0.048661 0.053315
0.184405 0.0502022 0.0577707
0.204166 0.0519875 0.0628824
0.224979 0.05449 0.0693217
0.248417 0.0579843 0.0763104
0.274128 0.0622416 0.0842298
0.300893 0.0652934 0.0928511
0.330007 0.0686351 0.103136
0.360876 0.0715953 0.113725
0.39443 0.0749371 0.125704
0.427741 0.0772564 0.136934
0.459174 0.0787823 0.147616
0.488746 0.0789807 0.157397
0.517601 0.0799268 0.166445
0.546304 0.083238 0.17528
0.571389 0.0862745 0.182437
0.594278 0.0890059 0.191211
0.605112 0.0893873 0.197162
0.610559 0.0886397 0.201602
0.616464 0.0876936 0.206012
0.622065 0.0868086 0.21033
0.625818 0.0862898 0.213947
0.628092 0.0861524 0.216617
0.629465 0.0861982 0.219242
0.630549 0.0863203 0.221637
0.63151 0.0864881 0.223713
0.632349 0.0866407 0.225696
0.632914 0.0868238 0.227543
0.6327 0.0872206 0.229038
0.630976 0.088014 0.229694
0.627375 0.0892653 0.229725
0.622995 0.0906233 0.228977
0.619318 0.0917067 0.228611
0.617563 0.092256 0.228916
0.61796 0.0922408 0.229908
0.618341 0.092256 0.230793
0.618647 0.0922408 0.231601
0.618906 0.092256 0.232288
0.619196 0.0922866 0.232822
0.61944 0.0923171 0.233371
0.619669 0.0923476 0.233951
0.619837 0.0923781 0.234455
0.620005 0.0923934 0.234974
0.620157 0.0924392 0.235431
0.620279 0.0924544 0.235843
0.620432 0.0924849 0.236286
0.620829 0.0924239 0.236774
0.623896 0.0916915 0.238407
0.62855 0.090547 0.240726
0.0259709 0.0428016 0.0347601
0.0248722 0.0433051 0.0364843
0.0243229 0.0435645 0.0373541
0.0239109 0.0437629 0.0380102
0.024155 0.0439002 0.0382696
0.0289006 0.0446021 0.0387884
0.0380865 0.0449531 0.0383764
0.0502174 0.0453193 0.0380255
0.0626383 0.0454566 0.0375677
0.0746624 0.0455024 0.0371099
0.0870375 0.0459754 0.0379797
0.0998093 0.0463111 0.0393988
0.11223 0.0463417 0.0410163
0.124559 0.0467079 0.0432746
0.137758 0.0466316 0.0455177
0.15227 0.0472114 0.0485237
0.167727 0.0476692 0.0516518
0.185367 0.0490883 0.055787
0.204211 0.0505379 0.0603494
0.225788 0.0527962 0.0662547
0.24947 0.0561227 0.0737011
0.274693 0.0604257 0.081117
0.301991 0.0638895 0.0904097
0.331014 0.0672618 0.100374
0.362341 0.0702525 0.111482
0.395499 0.0731823 0.123095
0.429923 0.0755627 0.135607
0.462699 0.0764935 0.14696
0.493477 0.0768902 0.157107
0.52311 0.0790875 0.166674
0.550164 0.0827192 0.174594
0.573754 0.0860304 0.18114
0.595376 0.0889906 0.189807
0.604227 0.0892195 0.195331
0.609628 0.0884871 0.199893
0.615854 0.0875105 0.204532
0.621408 0.0866255 0.208606
0.625254 0.0861219 0.212161
0.627497 0.0859693 0.215
0.628809 0.0860304 0.217182
0.629801 0.0861372 0.219516
0.630762 0.0862593 0.221698
0.631601 0.0864271 0.223545
0.63238 0.0865339 0.225269
0.632853 0.086717 0.226902
0.6327 0.087068 0.228244
0.631128 0.0877699 0.228885
0.627695 0.0889448 0.228717
0.623346 0.0903334 0.228
0.619486 0.0914931 0.227405
0.616922 0.0923171 0.227161
0.617304 0.0922866 0.228153
0.617609 0.092256 0.229053
0.617899 0.0922408 0.229816
0.618189 0.092256 0.230365
0.618433 0.0922408 0.230991
0.618631 0.092256 0.23154
0.618845 0.092256 0.232059
0.619028 0.092256 0.232486
0.619196 0.0922866 0.232807
0.619364 0.0923171 0.233173
0.619501 0.0923323 0.233524
0.619944 0.092256 0.233997
0.623194 0.0914473 0.235676
0.627832 0.0903029 0.237903
0.0258488 0.0428473 0.0349584
0.0247196 0.0433814 0.0367285
0.0240635 0.0436866 0.0377508
0.0236515 0.0438849 0.0384222
0.0236362 0.043946 0.0385748
0.0271611 0.0446326 0.0390021
0.0360113 0.0449836 0.0386053
0.0484016 0.0453651 0.0381628
0.0612345 0.0456092 0.0377203
0.0739605 0.0455482 0.0372168
0.086656 0.0459907 0.037995
0.099855 0.0463111 0.0394293
0.112856 0.0463569 0.041062
0.125811 0.0466926 0.0432288
0.139422 0.0464637 0.0452277
0.153796 0.0467384 0.0475471
0.169039 0.0470436 0.0500038
0.18674 0.0483101 0.0539712
0.205875 0.0497749 0.0587472
0.227619 0.0517586 0.0645762
0.251072 0.0547951 0.0714275
0.276814 0.0590066 0.0791485
0.304341 0.0626841 0.0883955
0.33402 0.0661021 0.0986038
0.36527 0.0691997 0.109895
0.398077 0.0716716 0.121248
0.431678 0.0737774 0.133791
0.464485 0.0744488 0.144854
0.497444 0.0754864 0.156115
0.529747 0.0782788 0.167102
0.5579 0.0818341 0.175296
0.579843 0.0851606 0.180774
0.600122 0.0885634 0.189975
0.60499 0.0887465 0.194293
0.609491 0.0882124 0.198459
0.615549 0.0872816 0.203037
0.621134 0.0864118 0.207355
0.624994 0.0859083 0.210773
0.627283 0.0857404 0.213565
0.628641 0.0858015 0.215778
0.629618 0.0859083 0.217914
0.630564 0.0859998 0.220035
0.631373 0.0861219 0.222065
0.632151 0.0862593 0.223713
0.632929 0.0863661 0.225391
0.633463 0.0865034 0.226917
0.633433 0.0867475 0.228031
0.632212 0.0873426 0.228687
0.629404 0.088304 0.228519
0.62504 0.089662 0.227802
0.620768 0.0909743 0.226825
0.617533 0.0919661 0.226383
0.616739 0.0923018 0.226703
0.617075 0.0923018 0.227558
0.617334 0.0922866 0.228305
0.617578 0.092256 0.228962
0.617792 0.0922408 0.229618
0.618021 0.0922408 0.23006
0.618219 0.0922408 0.230518
0.618402 0.0922408 0.231006
0.61857 0.0922408 0.231434
0.618723 0.092256 0.231861
0.619196 0.0921492 0.232288
0.622538 0.0913252 0.233982
0.627375 0.0901198 0.236378
0.0255741 0.0429694 0.0353704
0.024445 0.0435187 0.037171
0.0237583 0.0438239 0.0382544
0.0233158 0.0440375 0.038941
0.0232242 0.0440833 0.0390784
0.0253147 0.0446021 0.0392462
0.0327001 0.045304 0.0391546
0.0445411 0.045716 0.0385595
0.0584115 0.0460365 0.038056
0.0715496 0.0459754 0.0374304
0.0849928 0.0463874 0.0380255
0.09897 0.0466163 0.0394446
0.112627 0.0466011 0.0411078
0.126833 0.0468605 0.0434272
0.14049 0.0466163 0.0454871
0.155734 0.0467689 0.0478828
0.170733 0.0470893 0.050248
0.188373 0.0481422 0.0536049
0.207401 0.0492256 0.0572518
0.228229 0.0508431 0.0623178
0.252323 0.0535744 0.0689708
0.277913 0.0572671 0.0764172
0.305974 0.0610513 0.0855116
0.335927 0.0644846 0.0960403
0.36733 0.0675517 0.107179
0.400046 0.069688 0.118883
0.432532 0.0715953 0.130587
0.465827 0.0727703 0.14226
0.499123 0.074876 0.15378
0.533349 0.078172 0.165469
0.562463 0.0813458 0.174151
0.585321 0.0841993 0.179461
0.606699 0.0875563 0.190082
0.60914 0.0873884 0.193957
0.613001 0.0869459 0.198077
0.617777 0.0863355 0.202014
0.622415 0.0856794 0.206149
0.625574 0.0854047 0.209384
0.627405 0.085359 0.211933
0.628504 0.0854505 0.214115
0.629435 0.0856031 0.216007
0.63032 0.0856947 0.218036
0.631098 0.0857862 0.219944
0.631754 0.0859236 0.22182
0.632517 0.0860151 0.223148
0.633219 0.0860914 0.224613
0.633829 0.086183 0.226032
0.633982 0.0863508 0.22707
0.633219 0.0867628 0.227756
0.630884 0.0875868 0.227573
0.626627 0.0888991 0.226749
0.621805 0.0903334 0.225498
0.617823 0.0915389 0.224704
0.615839 0.0922103 0.224537
0.616114 0.092256 0.22533
0.616388 0.0922866 0.226017
0.616678 0.0923018 0.226551
0.616907 0.0923171 0.227146
0.617136 0.0923018 0.22771
0.617304 0.0922866 0.228199
0.617472 0.0922713 0.228656
0.617624 0.092256 0.229068
0.618692 0.0919966 0.229786
0.622095 0.0911116 0.231312
0.627131 0.0897841 0.233845
0.0254063 0.043061 0.0356603
0.0242466 0.043595 0.0374762
0.0235599 0.0439307 0.0385595
0.0231022 0.0441444 0.0392462
0.0229801 0.0442054 0.0393988
0.0237278 0.0444343 0.0394141
0.0287938 0.0455787 0.0395972
0.0397345 0.0462043 0.0391241
0.0536812 0.0466773 0.0386664
0.0679942 0.0467079 0.0379797
0.0822156 0.0471809 0.0381018
0.0963302 0.0474708 0.0393072
0.111101 0.0476081 0.0410468
0.126009 0.0478828 0.0434272
0.140673 0.0476387 0.045594
0.155901 0.0477302 0.0479591
0.172076 0.0479133 0.0504768
0.190051 0.0488289 0.0538491
0.209415 0.0496376 0.0573129
0.230304 0.0508278 0.061738
0.253193 0.0528878 0.0674907
0.279026 0.0561379 0.0733501
0.306615 0.059205 0.0817426
0.336629 0.0622873 0.0917372
0.368612 0.0653239 0.103456
0.401022 0.0677958 0.115114
0.434699 0.0697642 0.12781
0.467384 0.0716869 0.139483
0.501793 0.0749371 0.151431
0.534966 0.0783093 0.162585
0.563546 0.0813611 0.170855
0.586908 0.0840009 0.176669
0.607965 0.086656 0.186954
0.612436 0.086305 0.19263
0.617136 0.08542 0.197131
0.622843 0.0845502 0.201602
0.627756 0.0838483 0.205783
0.631189 0.0834821 0.209171
0.632853 0.0835279 0.211933
0.633692 0.0836957 0.213993
0.634348 0.0838788 0.215824
0.635019 0.0840314 0.217609
0.635737 0.0841535 0.219318
0.636378 0.0842451 0.220966
0.637034 0.0843061 0.222553
0.637736 0.0843824 0.223819
0.638422 0.0844282 0.225055
0.639048 0.0844587 0.226322
0.639445 0.0845502 0.227375
0.639277 0.0847791 0.22826
0.637629 0.0853742 0.228443
0.634211 0.0864118 0.227802
0.629969 0.0876631 0.226566
0.625864 0.0888685 0.22536
0.623362 0.089662 0.224887
0.622385 0.0900435 0.22504
0.622339 0.0901656 0.225544
0.622675 0.0901808 0.226139
0.623011 0.0901808 0.226719
0.623255 0.0902113 0.227253
0.623468 0.0902419 0.227771
0.624002 0.0901656 0.228382
0.62594 0.0897078 0.229557
0.629908 0.0886702 0.231312
0.635737 0.0871138 0.234134
0.0250706 0.0452125 0.0383001
0.0242161 0.0455329 0.0393225
0.0233921 0.0458839 0.0403449
0.0233005 0.0458381 0.0404974
0.023331 0.0452888 0.0404517
0.0230106 0.0447547 0.040116
0.0252995 0.0454414 0.0400244
0.0343481 0.0466316 0.0397803
0.0478065 0.0474708 0.0394903
0.063035 0.0476692 0.0385748
0.0779126 0.0481727 0.0382391
0.0928359 0.0485695 0.0390631
0.108034 0.0488136 0.04065
0.123827 0.0492256 0.0430762
0.139742 0.049073 0.0453803
0.15581 0.0493019 0.0479744
0.172686 0.0494087 0.0506447
0.19086 0.0500801 0.0538186
0.211093 0.0510109 0.0574044
0.232197 0.0521248 0.0618448
0.255711 0.0538491 0.0674754
0.280964 0.056611 0.0725567
0.307805 0.0586862 0.0792248
0.337179 0.0605936 0.0873121
0.368002 0.0626993 0.0977493
0.401297 0.0654917 0.109987
0.435508 0.0687114 0.122972
0.469551 0.0716259 0.135561
0.503243 0.0751049 0.147799
0.536355 0.0784619 0.15874
0.564721 0.081529 0.166827
0.587045 0.084123 0.172564
0.604471 0.0860609 0.18027
0.610056 0.0859388 0.186648
0.61622 0.0852979 0.193484
0.621881 0.084184 0.198291
0.627161 0.0833753 0.202747
0.631052 0.0829023 0.20618
0.633295 0.0828107 0.209049
0.634745 0.0828412 0.211536
0.635721 0.0829633 0.213642
0.636652 0.0830396 0.215534
0.637446 0.0831311 0.216876
0.638148 0.0831922 0.218494
0.638804 0.0832532 0.219867
0.639292 0.0833448 0.221271
0.63978 0.0834058 0.222553
0.64033 0.0834516 0.223484
0.640925 0.0834516 0.224628
0.641489 0.0834821 0.225711
0.641657 0.0835889 0.226505
0.640864 0.0839399 0.226841
0.638605 0.0846418 0.226383
0.634638 0.085771 0.225284
0.63035 0.0869764 0.22388
0.626871 0.0879683 0.222965
0.62504 0.0885176 0.222721
0.624506 0.0887465 0.222873
0.624445 0.0888533 0.223178
0.624109 0.0890211 0.223438
0.623529 0.0892348 0.223438
0.623255 0.0893721 0.223575
0.624414 0.0891432 0.224399
0.628244 0.0882124 0.226184
0.634211 0.086717 0.229053
0.0271305 0.0512551 0.0408637
0.0266423 0.0519875 0.0417639
0.0258946 0.0525673 0.043061
0.0258793 0.0527352 0.0432288
0.0259251 0.0518959 0.043122
0.0262608 0.049958 0.0424811
0.0268254 0.0483711 0.0418555
0.0319677 0.0494392 0.0417792
0.0432746 0.0503853 0.0412604
0.0580606 0.0503548 0.0399176
0.0734112 0.0504768 0.0392767
0.0882277 0.0499733 0.0390326
0.104723 0.0504616 0.0403754
0.121004 0.050721 0.0423896
0.137789 0.0510414 0.0450599
0.15465 0.0510872 0.0474556
0.172351 0.0515297 0.0505226
0.191379 0.0519875 0.0536355
0.212024 0.0531472 0.0574044
0.234348 0.0544594 0.06215
0.258885 0.0565499 0.0680247
0.284398 0.0592203 0.0731212
0.311055 0.0603342 0.0796521
0.339147 0.060914 0.0857099
0.368673 0.0617533 0.0931868
0.400275 0.0649577 0.103487
0.435172 0.0685283 0.116075
0.469566 0.071519 0.129152
0.503182 0.0750286 0.141649
0.536416 0.0784314 0.153017
0.563958 0.0814679 0.160876
0.586114 0.0841077 0.166629
0.601144 0.0856641 0.173419
0.607172 0.0855116 0.179858
0.613901 0.0849012 0.186709
0.620432 0.0840772 0.19324
0.625452 0.0831006 0.197955
0.629252 0.0825666 0.201572
0.631495 0.0824445 0.204852
0.632959 0.0824903 0.207233
0.634073 0.0825971 0.209232
0.63505 0.0826734 0.2112
0.635874 0.0827497 0.212787
0.636576 0.082826 0.214298
0.637232 0.0829023 0.215625
0.637827 0.0829633 0.216693
0.638376 0.0829938 0.217823
0.638956 0.0830091 0.21886
0.63978 0.082948 0.219989
0.640925 0.0827955 0.221149
0.641917 0.0826734 0.222187
0.642115 0.0827344 0.222766
0.641001 0.0831006 0.222873
0.638422 0.0838331 0.222431
0.634012 0.0850385 0.22118
0.629252 0.0863355 0.219577
0.625269 0.0874342 0.218433
0.623117 0.0880446 0.217807
0.622293 0.0883345 0.217777
0.622187 0.0884108 0.21799
0.622293 0.0884413 0.218173
0.622812 0.0883497 0.21857
0.62417 0.0880598 0.219379
0.627283 0.0872969 0.220813
0.632273 0.0860609 0.22295
0.0308232 0.0618906 0.0441596
0.0301213 0.0627604 0.0449226
0.0292973 0.0636301 0.0461433
0.0293126 0.0638743 0.0463111
0.0292668 0.0637369 0.0463874
0.0299229 0.0616922 0.0459449
0.0312505 0.058854 0.0453498
0.0355688 0.0571603 0.044892
0.044419 0.0581674 0.0448768
0.057908 0.0582742 0.0442969
0.0729839 0.0574044 0.0429694
0.0876631 0.0569009 0.0420233
0.102953 0.0555581 0.0415198
0.118883 0.0543526 0.0424353
0.135424 0.0537423 0.0448463
0.152682 0.0536507 0.0471656
0.171984 0.0542611 0.0505531
0.191913 0.0547951 0.0538186
0.212909 0.0556802 0.0574807
0.236423 0.0576486 0.0624552
0.261402 0.0599985 0.0682689
0.287785 0.0620279 0.0739147
0.314351 0.0628367 0.0803845
0.343221 0.0632334 0.0866865
0.371511 0.0631113 0.092958
0.402167 0.0650645 0.100603
0.434318 0.0682841 0.109468
0.467613 0.071519 0.120409
0.500969 0.0746014 0.132036
0.533547 0.0780346 0.142992
0.57586 0.0776379 0.15462
0.596796 0.0801556 0.159915
0.609705 0.081529 0.166369
0.616037 0.0816205 0.17351
0.621759 0.081239 0.180133
0.626719 0.0809644 0.186542
0.629038 0.081117 0.191501
0.629099 0.0818189 0.195499
0.626566 0.0827497 0.19765
0.624338 0.0835737 0.199252
0.623316 0.0841993 0.200641
0.623255 0.0845502 0.20206
0.623636 0.0847334 0.203586
0.624247 0.0848249 0.205035
0.624887 0.0849012 0.206302
0.625452 0.084947 0.207507
0.625956 0.085008 0.208423
0.626398 0.0850843 0.209079
0.62681 0.0851453 0.21004
0.627146 0.0851911 0.210773
0.627451 0.0852216 0.211353
0.62771 0.0852522 0.211826
0.627802 0.0853132 0.212268
0.627405 0.085481 0.212482
0.625986 0.085893 0.212207
0.623606 0.0865644 0.211688
0.620539 0.0874037 0.210742
0.617594 0.0882124 0.209918
0.615656 0.0887465 0.209354
0.614771 0.0889906 0.209094
0.614542 0.0890974 0.209201
0.614816 0.0890516 0.209461
0.615778 0.0888533 0.210086
0.618067 0.0882734 0.211078
0.621805 0.0873426 0.212558
0.0370489 0.07364 0.0442969
0.0362402 0.0746929 0.0447547
0.0357671 0.0753338 0.0451362
0.0357671 0.0760204 0.0456703
0.0357977 0.0762493 0.0458228
0.0357671 0.0756542 0.0456092
0.038056 0.0730297 0.0455329
0.0412451 0.0695506 0.045243
0.0495155 0.0685435 0.0452125
0.0611582 0.0693065 0.0460212
0.0765087 0.069749 0.0471046
0.0917372 0.0689097 0.0467384
0.107469 0.0679026 0.0463417
0.123262 0.0663157 0.0462959
0.138308 0.0635843 0.0460822
0.154437 0.0605783 0.0468299
0.171725 0.059144 0.0495918
0.19118 0.0587778 0.0530556
0.212772 0.0592355 0.0567483
0.236362 0.0608835 0.0615549
0.262425 0.0632334 0.0677043
0.288716 0.0646372 0.0734874
0.316503 0.0656901 0.080354
0.344793 0.0661936 0.0866407
0.373754 0.0658274 0.0931716
0.404028 0.0662852 0.10071
0.435386 0.0690013 0.109087
0.467414 0.0719158 0.117113
0.499138 0.0741894 0.124865
0.533242 0.0766918 0.13463
0.56379 0.0787366 0.143465
0.587564 0.0802625 0.149462
0.601373 0.0811017 0.15523
0.608362 0.0809033 0.160632
0.614374 0.080415 0.165988
0.619562 0.0802777 0.172015
0.622202 0.0805371 0.177554
0.621912 0.0813764 0.181262
0.62031 0.082475 0.184466
0.61912 0.0834058 0.187366
0.618967 0.0840925 0.190372
0.61883 0.0843366 0.192172
0.619181 0.0844282 0.19382
0.620188 0.0843977 0.195804
0.620768 0.0844282 0.197253
0.621332 0.0844587 0.198596
0.621805 0.0845045 0.199725
0.622293 0.0845502 0.200702
0.622644 0.084596 0.201373
0.62298 0.0846418 0.201984
0.62324 0.0846723 0.202579
0.623377 0.0847028 0.202991
0.623529 0.0847334 0.203296
0.62359 0.0847639 0.203586
0.623438 0.0848707 0.203876
0.622553 0.0851301 0.203738
0.620554 0.0856947 0.203281
0.617563 0.0864729 0.202396
0.614572 0.0872511 0.201358
0.612009 0.0879072 0.200626
0.610498 0.0882887 0.200275
0.610208 0.0883955 0.20029
0.611078 0.0882124 0.200549
0.613443 0.0876326 0.201358
0.617075 0.0867475 0.202914
0.0414435 0.088014 0.0483253
0.0406806 0.0892653 0.0484932
0.040238 0.0903029 0.048661
0.0401465 0.0910201 0.0489815
0.0402075 0.0913863 0.0491493
0.040177 0.0913863 0.0491188
0.0411383 0.0900587 0.0489357
0.0445716 0.0868849 0.0489815
0.0495308 0.0834363 0.0488136
0.0622721 0.0834669 0.0497902
0.0771496 0.0842451 0.0512093
0.0950027 0.084596 0.0536049
0.112718 0.0836042 0.0540322
0.129885 0.0817273 0.053727
0.146502 0.0794537 0.0535134
0.1626 0.0767681 0.0528572
0.179538 0.0731975 0.0522621
0.19707 0.0690318 0.0535134
0.215702 0.0658885 0.0564126
0.238163 0.0652476 0.0615396
0.263432 0.0665751 0.0674144
0.29131 0.0677653 0.0738537
0.318868 0.0684825 0.0803998
0.347723 0.0687114 0.0869001
0.377096 0.068452 0.0936904
0.406912 0.0676585 0.101106
0.438499 0.069337 0.109407
0.469825 0.0719005 0.11696
0.502281 0.0746014 0.124895
0.534646 0.0768597 0.132738
0.563531 0.0786603 0.139467
0.584421 0.0798962 0.143206
0.594324 0.0800793 0.146319
0.600275 0.079881 0.150072
0.605905 0.07953 0.153872
0.610651 0.0793622 0.157595
0.613291 0.0795148 0.161166
0.613123 0.0802625 0.164263
0.611612 0.0813764 0.166781
0.610407 0.082414 0.169848
0.609979 0.0830701 0.172229
0.610437 0.0834211 0.174868
0.6112 0.0836042 0.177005
0.612818 0.0838178 0.179736
0.613931 0.0839246 0.181811
0.614603 0.0839857 0.183337
0.615183 0.0840467 0.184756
0.615396 0.0840467 0.185565
0.616068 0.0841993 0.186847
0.617258 0.0843366 0.188678
0.61738 0.0843519 0.189014
0.617441 0.0843519 0.189288
0.617456 0.0843519 0.189425
0.617609 0.0843671 0.189822
0.617639 0.0843824 0.18996
0.617578 0.0843977 0.190127
0.616983 0.084535 0.189914
0.615702 0.0848249 0.18938
0.613413 0.0853895 0.188708
0.610147 0.0861677 0.187503
0.607095 0.0869459 0.186618
0.60499 0.0874189 0.18587
0.604807 0.0875105 0.186053
0.606806 0.0870985 0.186801
0.610452 0.0862287 0.188251
0.0453651 0.10309 0.0525978
0.0445563 0.104677 0.0527657
0.0441749 0.105638 0.0527199
0.0440986 0.106691 0.0527047
0.0442359 0.107408 0.0529488
0.0442969 0.107622 0.0529946
0.044358 0.107301 0.052903
0.0468452 0.105318 0.0527962
0.0517128 0.102022 0.052903
0.0597696 0.0992599 0.0531472
0.0762493 0.100145 0.0543221
0.0943618 0.100465 0.05626
0.115587 0.10103 0.059968
0.135775 0.0996719 0.0618753
0.154116 0.0971695 0.0620279
0.172351 0.0941482 0.0617075
0.190005 0.0910658 0.0610208
0.207782 0.0873579 0.0601511
0.22652 0.0816815 0.0591897
0.246754 0.0761425 0.0614023
0.268132 0.0727092 0.0670176
0.292729 0.0714427 0.0737316
0.321187 0.0719158 0.0805219
0.350515 0.0721599 0.0870985
0.380392 0.0714885 0.0939345
0.41062 0.0701152 0.101274
0.440558 0.0697032 0.109102
0.47248 0.0721752 0.116884
0.505486 0.0749676 0.124926
0.53817 0.0773022 0.132982
0.56759 0.0791638 0.139849
0.588907 0.0803693 0.143694
0.596643 0.080293 0.144884
0.598657 0.07953 0.145159
0.600534 0.0787976 0.145769
0.603357 0.0783093 0.147356
0.604929 0.0784161 0.149203
0.604166 0.0791638 0.150408
0.601633 0.0802319 0.151354
0.599344 0.081239 0.152239
0.598764 0.0819409 0.153841
0.599115 0.0823987 0.15555
0.600107 0.0826734 0.157488
0.600839 0.0827192 0.158633
0.601587 0.0827344 0.159518
0.602258 0.0827344 0.160449
0.602762 0.0827497 0.161227
0.603418 0.0827955 0.162051
0.603861 0.082826 0.162692
0.604227 0.0828412 0.163684
0.604532 0.082887 0.164324
0.604639 0.082887 0.164553
0.604746 0.0829023 0.164691
0.604669 0.0829023 0.164355
0.6047 0.0829023 0.164248
0.604685 0.0829023 0.164202
0.604578 0.0829023 0.16405
0.604501 0.082948 0.164096
0.603754 0.0830396 0.163684
0.602533 0.0833448 0.163546
0.600107 0.0838788 0.162722
0.597757 0.0845197 0.162203
0.59585 0.0849928 0.161685
0.596017 0.0849775 0.161654
0.598688 0.0844129 0.162554
0.0500343 0.120562 0.0577401
0.0493324 0.12221 0.0576944
0.0489052 0.123873 0.0573892
0.0488136 0.125231 0.0568246
0.0488746 0.12604 0.0568856
0.0490425 0.126909 0.0570993
0.0490272 0.12697 0.057145
0.0494698 0.126207 0.057084
0.0538491 0.123873 0.0574044
0.0601663 0.120089 0.0573739
0.0727855 0.118471 0.0582437
0.091722 0.118639 0.059678
0.113451 0.119127 0.062211
0.137881 0.120073 0.0665293
0.160983 0.118349 0.0703593
0.182055 0.115206 0.0717174
0.201724 0.111406 0.070985
0.221881 0.106798 0.0708019
0.241077 0.101671 0.0699321
0.261341 0.0956741 0.0692302
0.281285 0.0878614 0.0690623
0.302358 0.081529 0.0729076
0.326696 0.0781415 0.0801099
0.352224 0.0755627 0.0865644
0.383398 0.0751812 0.0937819
0.413382 0.0737316 0.100877
0.442695 0.0710918 0.108019
0.474769 0.0723583 0.116182
0.508446 0.0752422 0.124376
0.541711 0.0776532 0.132631
0.571313 0.0796063 0.140002
0.594156 0.0810864 0.144945
0.603174 0.0812238 0.1467
0.605234 0.0804303 0.147036
0.607065 0.0796216 0.147402
0.608652 0.0788739 0.147677
0.608362 0.0786297 0.147539
0.605661 0.0789807 0.146838
0.601129 0.0798505 0.145998
0.597101 0.0806744 0.145266
0.594568 0.0813306 0.145159
0.593744 0.0817121 0.145586
0.593317 0.0818189 0.145785
0.592782 0.0817884 0.145541
0.592248 0.0817121 0.145296
0.591516 0.0816052 0.144762
0.591363 0.0815747 0.144717
0.592111 0.0816815 0.145342
0.592844 0.0817731 0.145907
0.593668 0.0818952 0.146517
0.593957 0.0819257 0.146685
0.594095 0.0819409 0.146777
0.594202 0.0819715 0.146792
0.594171 0.0819715 0.146715
0.593988 0.0819409 0.146487
0.593988 0.0819409 0.146395
0.594125 0.0819715 0.146517
0.594141 0.0819715 0.146471
0.594156 0.0819715 0.146502
0.59379 0.0819715 0.146212
0.592996 0.082002 0.145724
0.592203 0.0820935 0.145357
0.59147 0.0821088 0.144839
0.591546 0.0820478 0.144778
0.593149 0.0818036 0.145251
0.0530098 0.140337 0.0642252
0.0529488 0.142428 0.0637217
0.0528267 0.144183 0.0632792
0.0530404 0.145342 0.0622568
