bundles/resolve-cinematic-luts/Phantom Luts/Komodo Phantom FILM LUTs G2/Komodo Phantom FILM LUTs G2/65x/Standard (No WB Offset)/Eterna_Komodo_G2_65x.cube
TITLE "Generated by Resolve"
LUT_3D_SIZE 5
0.0239719 0.0437324 0.0379034
0.164569 0.049546 0.0544747
0.590005 0.088365 0.188495
0.617609 0.092256 0.229053
0.628656 0.0906539 0.241688
0.0629282 0.209674 0.084123
0.210697 0.220584 0.0830396
0.638788 0.0817731 0.14609
0.620996 0.0874495 0.143664
0.639399 0.0843061 0.144427
0.249134 0.888472 0.319326
0.259983 0.896544 0.337255
0.889311 0.932097 0.385489
0.944274 0.932357 0.433249
0.939559 0.927886 0.411139
0.24329 0.905974 0.398138
0.252674 0.902251 0.388479
0.650874 0.919066 0.315328
0.950835 0.951064 0.526268
0.951583 0.950668 0.527077
0.264988 0.898146 0.403265
0.255375 0.901457 0.394125
0.367666 0.897688 0.276616
0.95462 0.948653 0.52517
0.955291 0.948623 0.532174
0.0244907 0.052079 0.13518
0.191028 0.056672 0.133059
0.610178 0.0805829 0.251881
0.692531 0.101747 0.336522
0.711177 0.125216 0.376211
0.0560769 0.181857 0.151751
0.199664 0.194095 0.188006
0.65919 0.0796063 0.240146
0.667704 0.0865797 0.29633
0.697108 0.106401 0.344686
0.177203 0.843885 0.45568
0.20882 0.861402 0.401724
0.872663 0.920836 0.353613
0.940459 0.92105 0.40177
0.935882 0.913176 0.378515
0.21973 0.905669 0.58912
0.238437 0.910887 0.548211
0.646632 0.918669 0.314382
0.950652 0.951156 0.526024
0.951614 0.950668 0.527108
0.230961 0.896819 0.618341
0.231525 0.903441 0.580682
0.350835 0.89543 0.274754
0.949264 0.951095 0.513542
0.955291 0.948623 0.532174
0.0501106 0.0653544 0.456733
0.187793 0.0661784 0.490105
0.685832 0.0902113 0.514015
0.691615 0.0931868 0.534813
0.715434 0.112779 0.622171
0.0385595 0.142412 0.365286
0.0413977 0.129259 0.487617
0.699062 0.103548 0.591638
0.7299 0.123659 0.658152
0.722667 0.134615 0.690959
0.139803 0.747417 0.634592
0.129305 0.754894 0.679286
0.741253 0.768612 0.726909
0.937209 0.75787 0.759564
0.934447 0.733654 0.772686
0.207828 0.891203 0.789059
0.208286 0.891188 0.789166
0.246052 0.91986 0.677134
0.952743 0.949462 0.518563
0.949828 0.9514 0.520256
0.218448 0.884672 0.822705
0.222324 0.884016 0.814862
0.209812 0.907195 0.718059
0.932464 0.95259 0.650248
0.948867 0.951919 0.519341
0.115496 0.0508125 0.566735
0.172366 0.0545663 0.576104
0.730205 0.133623 0.723751
0.730724 0.133684 0.723827
0.730724 0.133684 0.723827
0.0442512 0.16286 0.631876
0.0367895 0.124346 0.609049
0.689036 0.126726 0.718044
0.730724 0.133684 0.723827
0.730724 0.133684 0.723827
0.117647 0.677348 0.780789
0.120562 0.670039 0.787213
0.124285 0.629831 0.816022
0.924865 0.616419 0.919966
0.924636 0.615778 0.919722
0.213214 0.875395 0.874296
0.226658 0.871702 0.868208
0.223545 0.895308 0.85301
0.953597 0.955444 0.953079
0.961364 0.957198 0.955932
0.211078 0.873701 0.876356
0.212741 0.873137 0.875471
0.23035 0.897261 0.870329
0.937728 0.961303 0.95256
0.969406 0.969284 0.963684
0.138521 0.0521706 0.569589
0.161776 0.0535744 0.57435
0.680598 0.124773 0.716731
0.730724 0.133684 0.723827
0.730724 0.133684 0.723827
0.0443732 0.163638 0.632288
0.042649 0.152056 0.626841
0.517891 0.0968795 0.682704
0.730724 0.133684 0.723827
0.730724 0.133684 0.723827
0.124117 0.677134 0.80148
0.123629 0.675898 0.800778
0.108324 0.621057 0.792157
0.917372 0.530617 0.911543
0.914015 0.490318 0.907698
0.211078 0.873701 0.876356
0.211078 0.873701 0.876356
0.2094 0.871824 0.875334
0.870573 0.925902 0.944289
0.956054 0.94107 0.955779
0.211078 0.873701 0.876356
0.211078 0.873701 0.876356
0.211276 0.873915 0.87657
0.644785 0.942641 0.939376
0.971496 0.971496 0.971511
