bundles/resolve-cinematic-luts/Phantom Luts/Komodo Phantom FILM LUTs G2/Komodo Phantom FILM LUTs G2/65x/Standard (No WB Offset)/VisionTeal_Komodo_Legacy_G2_65x.cube
TITLE "Generated by Resolve"
LUT_3D_SIZE 65
0.0328679 0.049073 0.0471351
0.0328374 0.049073 0.0471656
0.0327611 0.0490883 0.0471962
0.0326696 0.0491188 0.0472267
0.032639 0.0491493 0.0472877
0.0347448 0.0489662 0.0472267
0.0389715 0.0488441 0.0471351
0.0447242 0.0482185 0.0468757
0.0512551 0.0470436 0.0454871
0.0600137 0.0457313 0.0439765
0.0686656 0.0440223 0.0425727
0.0801556 0.0426337 0.0416266
0.0929274 0.0411383 0.0408789
0.105638 0.0391699 0.0396124
0.12282 0.0366064 0.0381933
0.141039 0.034638 0.0366522
0.162936 0.0331579 0.03505
0.186343 0.031693 0.0327611
0.209354 0.0312352 0.0320287
0.234592 0.0305791 0.0312963
0.262974 0.0308385 0.0314336
0.290532 0.0308537 0.0314183
0.321126 0.0312657 0.0319371
0.352987 0.0305791 0.0314336
0.385367 0.0302129 0.0318456
0.417899 0.0290532 0.0324865
0.450248 0.0269169 0.0344244
0.480293 0.0245212 0.0360266
0.5131 0.0285039 0.0409705
0.545281 0.0324712 0.0467231
0.575372 0.0424353 0.0534981
0.599634 0.0482338 0.059205
0.613642 0.0508736 0.0631723
0.615625 0.0485847 0.0640726
0.615412 0.0449378 0.0642405
0.616083 0.0412451 0.0648356
0.617212 0.0394598 0.0657359
0.616922 0.037171 0.0656443
0.617517 0.0373693 0.0678721
0.617914 0.0375372 0.0692302
0.617533 0.0373846 0.0686656
0.617197 0.0372778 0.0673381
0.616724 0.0371405 0.0656596
0.616419 0.0378424 0.0654154
0.61532 0.0401007 0.0654307
0.613794 0.0419623 0.0640574
0.61413 0.0463569 0.0637217
0.614099 0.050721 0.063386
0.612421 0.0527504 0.0623484
0.610651 0.0543832 0.0614481
0.608637 0.0564431 0.060441
0.606729 0.0576944 0.0594492
0.606714 0.0583047 0.0591897
0.606622 0.0594034 0.0589914
0.606134 0.0604105 0.058732
0.606989 0.0614176 0.0589456
0.610086 0.0620584 0.0596933
0.612528 0.0627298 0.0605631
0.614939 0.0634012 0.0610208
0.618051 0.0641337 0.0614176
0.620478 0.064622 0.0617685
0.62327 0.0656901 0.0623941
0.626108 0.0662089 0.0626841
0.629755 0.0675669 0.063798
0.632517 0.0683452 0.064332
0.034638 0.0486305 0.0461738
0.0336919 0.0488594 0.0466926
0.0330205 0.0490272 0.0470436
0.0326543 0.0491188 0.0472419
0.0325933 0.0491493 0.047303
0.0351873 0.0489815 0.0472419
0.0400702 0.0488136 0.0471962
0.0461891 0.0479744 0.0468147
0.0527199 0.0468299 0.045304
0.0608225 0.0457465 0.0438697
0.0707103 0.0438849 0.0424811
0.0827192 0.0424964 0.0415198
0.0950637 0.0409247 0.0407568
0.108751 0.0390326 0.0396124
0.126406 0.0363165 0.0379644
0.14435 0.0347906 0.0367285
0.166461 0.0336461 0.0349279
0.190372 0.0324559 0.0331579
0.213291 0.0321965 0.0322881
0.239353 0.0318608 0.0318303
0.26537 0.0312963 0.0311894
0.294575 0.0314946 0.0315862
0.324239 0.0313878 0.0320592
0.355596 0.0308385 0.0317388
0.38764 0.0304265 0.0319371
0.419348 0.0293889 0.0323186
0.450675 0.0280919 0.0333867
0.480323 0.0262913 0.0351263
0.515984 0.0333257 0.0420539
0.548226 0.0398413 0.0485084
0.574792 0.0450446 0.0530251
0.598596 0.0514687 0.0583505
0.610727 0.053315 0.0616617
0.613519 0.0519265 0.0628519
0.614343 0.0498512 0.0638437
0.614313 0.0466468 0.0638132
0.614206 0.0441749 0.0640269
0.614267 0.0424048 0.0642405
0.614298 0.0412757 0.064622
0.614359 0.0410773 0.0647746
0.614237 0.0415656 0.0644541
0.614282 0.0422522 0.0642405
0.613519 0.0421454 0.0638895
0.612833 0.0433356 0.0636149
0.612268 0.0456397 0.0633707
0.612177 0.0489357 0.0631571
0.610986 0.0508888 0.0621805
0.609659 0.0531624 0.0613413
0.608331 0.0558785 0.0604105
0.606088 0.0576944 0.0594034
0.60621 0.0582589 0.0591287
0.606485 0.0590677 0.0590066
0.606531 0.0600443 0.0588235
0.606287 0.0610056 0.0588083
0.608606 0.0616922 0.0592508
0.611353 0.0623636 0.0601511
0.61323 0.0629282 0.0607309
0.616098 0.0636454 0.0610971
0.618585 0.0643015 0.0615396
0.621164 0.0648966 0.0619516
0.623713 0.0657511 0.0623941
0.626307 0.0662699 0.0627146
0.629877 0.0679637 0.0638285
0.632761 0.0689097 0.0643778
0.636362 0.0696422 0.0652323
0.0345617 0.0486458 0.0462196
0.0335851 0.0488899 0.0467384
0.032929 0.0490578 0.0471046
0.032578 0.0491493 0.0472725
0.0324712 0.0491646 0.047303
0.0347601 0.0489204 0.0470741
0.0399634 0.0488899 0.0472725
0.0459449 0.0481422 0.0469062
0.0526436 0.0471199 0.0454566
0.0607462 0.0458991 0.0437781
0.0711681 0.0440528 0.0424201
0.0835737 0.0427253 0.0416419
0.0957351 0.0411994 0.0407416
0.110246 0.0392157 0.0396277
0.127306 0.0366674 0.0379644
0.146227 0.0352331 0.0369268
0.168551 0.0340124 0.0349737
0.191791 0.0330358 0.0335088
0.215976 0.0326238 0.0325017
0.241733 0.032639 0.0322118
0.269108 0.0331426 0.0321202
0.296956 0.0325475 0.0319371
0.326574 0.0319677 0.0319219
0.357275 0.0311284 0.0317388
0.388708 0.0308537 0.0319677
0.419532 0.0301823 0.0320745
0.449531 0.0289616 0.0327001
0.480034 0.0275578 0.0347448
0.51458 0.0360723 0.0411688
0.54641 0.0421759 0.0471656
0.574319 0.0478828 0.0527657
0.597055 0.0534981 0.0576638
0.60763 0.0555581 0.0603494
0.609964 0.0543069 0.0612955
0.610849 0.052781 0.0619059
0.611978 0.0510719 0.0626078
0.612192 0.049073 0.0632334
0.61236 0.0480354 0.0631571
0.6121 0.0467994 0.0632486
0.612512 0.047425 0.0633097
0.612467 0.0475013 0.0632486
0.611795 0.047715 0.0629587
0.611032 0.048188 0.0626688
0.610483 0.0497597 0.0621805
0.609308 0.0506752 0.0617838
0.608377 0.0520485 0.0612955
0.606912 0.0537881 0.0606088
0.605142 0.0558785 0.0597391
0.605127 0.0573281 0.0593576
0.605875 0.0584421 0.0589761
0.606516 0.0598306 0.0588693
0.606806 0.0605783 0.0588388
0.607645 0.0614939 0.0590524
0.610147 0.0620737 0.0597086
0.612436 0.0626993 0.0605325
0.614267 0.0632486 0.0608988
0.617121 0.0638895 0.0612192
0.619318 0.0644388 0.0616159
0.621988 0.0652476 0.0621805
0.624414 0.0658579 0.0624247
0.626886 0.0664836 0.0628824
0.629938 0.06804 0.063859
0.632792 0.0690929 0.0643626
0.636332 0.0702525 0.0652018
0.639902 0.0715343 0.0662394
0.0344701 0.0486763 0.0462806
0.0334936 0.0489204 0.0467994
0.0328222 0.049073 0.0471656
0.0325017 0.0491646 0.0472877
0.0322881 0.0491951 0.0473487
0.0326848 0.0487373 0.0465705
0.0385748 0.0490578 0.0473182
0.0449683 0.0484932 0.0470283
0.0516365 0.0475166 0.0456245
0.0602884 0.0461128 0.0436866
0.0705272 0.0444953 0.0424506
0.0834363 0.0431678 0.0417639
0.0957656 0.0415656 0.0408026
0.11043 0.0397192 0.0397192
0.127565 0.0371405 0.0378576
0.146807 0.0359503 0.0369879
0.16939 0.0344854 0.0350347
0.193759 0.0336004 0.0335393
0.216892 0.0334783 0.0325628
0.243397 0.0335088 0.0324712
0.270283 0.0341802 0.0322423
0.298695 0.0337377 0.0324254
0.328725 0.0327611 0.0322423
0.358389 0.0322118 0.0319219
0.390143 0.0318761 0.0320439
0.420508 0.0307164 0.0323644
0.45095 0.0298161 0.0331579
0.479179 0.0284886 0.0342718
0.514 0.0388647 0.0412604
0.546212 0.0450904 0.0465858
0.573175 0.0504311 0.0524453
0.595331 0.055787 0.0567483
0.604028 0.0569772 0.0590524
0.606149 0.0565957 0.0599374
0.607431 0.0551919 0.0604715
0.608194 0.0534981 0.0609751
0.608606 0.0522469 0.0613565
0.60885 0.0512093 0.0616007
0.60882 0.0507973 0.0616007
0.608774 0.0507668 0.0616007
0.608728 0.0509957 0.0615549
0.608331 0.0517433 0.0613413
0.607843 0.0526894 0.0610666
0.607065 0.0533761 0.0607156
0.605798 0.0541085 0.0604105
0.604349 0.0551308 0.0597391
0.60293 0.0560922 0.0588846
0.604654 0.0566873 0.0592966
0.605692 0.0577554 0.0593423
0.606241 0.0588846 0.0589914
0.607111 0.0606394 0.0589151
0.609506 0.0619059 0.0594949
0.611643 0.0624704 0.0602884
0.613382 0.0630198 0.0607767
0.615793 0.0635691 0.0610819
0.618219 0.0641794 0.0614786
0.620356 0.064622 0.061738
0.622599 0.0656138 0.0623789
0.624933 0.0659495 0.062501
0.627573 0.0667735 0.0630808
0.630091 0.0681926 0.0639048
0.633082 0.0692149 0.0644541
0.636439 0.0704967 0.0651865
0.639948 0.0720989 0.0662089
0.643702 0.0732433 0.0669871
0.0344091 0.0487526 0.0464027
0.0334173 0.049012 0.0469215
0.0327611 0.0491646 0.0472419
0.0324254 0.0492103 0.0473335
0.0322118 0.0492409 0.0473793
0.0322576 0.0491798 0.0472725
0.0352483 0.049073 0.0470436
0.041825 0.0493324 0.0476539
0.0492866 0.048249 0.0465553
0.0582742 0.0466926 0.0442054
0.0686046 0.0452125 0.042649
0.0823072 0.0439155 0.0419471
0.0949264 0.0423438 0.0408331
0.109499 0.0406806 0.0400397
0.127352 0.0379644 0.0379339
0.147295 0.0368658 0.0372473
0.169986 0.0353552 0.0350347
0.193698 0.0344854 0.033463
0.217487 0.0348516 0.0328832
0.244144 0.0348363 0.0328222
0.271611 0.0354009 0.032639
0.299641 0.0346075 0.0327306
0.329351 0.0334478 0.0323796
0.360647 0.033051 0.0323796
0.39176 0.032639 0.0325017
0.422354 0.0314031 0.032639
0.453223 0.0308995 0.0339361
0.47985 0.0289769 0.0343481
0.515251 0.0397803 0.0417487
0.546258 0.0458228 0.04654
0.57232 0.0514687 0.0518502
0.593912 0.0575723 0.0564584
0.60235 0.0585641 0.0582589
0.603128 0.0581369 0.0585641
0.603403 0.0568093 0.0589609
0.604212 0.0557717 0.0594797
0.605112 0.0547494 0.0601816
0.605097 0.0542611 0.0602884
0.605173 0.0540627 0.0603189
0.605097 0.0540475 0.0603037
0.605188 0.0543069 0.0602884
0.60528 0.0545968 0.0602579
0.604807 0.0551614 0.0598917
0.603449 0.0557107 0.059266
0.601709 0.0562448 0.0585946
0.603342 0.0565347 0.0589761
0.604929 0.0568551 0.0593576
0.605951 0.0574044 0.0595712
0.606531 0.057969 0.0593118
0.60798 0.0591135 0.0593881
0.610407 0.0605478 0.060029
0.613031 0.0623331 0.0608988
0.614816 0.0634012 0.0609903
0.617151 0.0638895 0.0612192
0.619181 0.0644083 0.0616007
0.621653 0.0650645 0.0620432
0.623514 0.0657206 0.0623941
0.625681 0.0661021 0.062623
0.628473 0.0672465 0.0634318
0.63064 0.0684215 0.0639353
0.633402 0.0693675 0.0644999
0.636637 0.0706035 0.0652628
0.639918 0.0723278 0.0661631
0.643458 0.0738079 0.0668345
0.646128 0.0747387 0.0671702
0.0346532 0.0506752 0.0464637
0.0334478 0.0508583 0.0467536
0.0327459 0.0508431 0.0469368
0.0325933 0.05066 0.0471504
0.0327916 0.0502022 0.0474403
0.0326848 0.0499428 0.0475624
0.0331426 0.0494545 0.046952
0.0385443 0.0498207 0.047425
0.0464485 0.0493477 0.0476081
0.0541695 0.0479286 0.045304
0.0650797 0.0463569 0.0429847
0.0798505 0.0449073 0.0422217
0.0935988 0.0433204 0.0411994
0.108339 0.0416876 0.0402228
0.126879 0.0397955 0.0386664
0.14609 0.0382239 0.0373388
0.169116 0.0369268 0.0354467
0.194141 0.0360418 0.0338445
0.21799 0.0354925 0.0331426
0.245548 0.0359045 0.0331579
0.272618 0.0364996 0.0328985
0.30042 0.0356756 0.0331426
0.33109 0.0347448 0.0330816
0.361639 0.0336767 0.0326238
0.393515 0.0334325 0.0327459
0.424872 0.0322728 0.0332341
0.454276 0.0318303 0.0346075
0.481895 0.0299992 0.035111
0.517098 0.0408637 0.0421454
0.547189 0.0461891 0.046891
0.5729 0.051667 0.0521706
0.595331 0.0578317 0.0566873
0.600717 0.059556 0.0577401
0.600366 0.0594644 0.0576944
0.601953 0.0583047 0.05832
0.603052 0.0569314 0.0587778
0.602548 0.0562295 0.058732
0.601602 0.0559548 0.0586099
0.601587 0.0557412 0.0586557
0.603326 0.0557565 0.059205
0.603784 0.0558938 0.0593118
0.603525 0.0561227 0.059144
0.602289 0.056733 0.0586404
0.602243 0.0572366 0.0585641
0.604044 0.0572518 0.0590982
0.605829 0.0573892 0.0595407
0.606928 0.0575723 0.0595712
0.607767 0.057847 0.0594797
0.609537 0.0583963 0.0599527
0.611246 0.0591745 0.0603037
0.613596 0.0607156 0.0609445
0.616342 0.0620737 0.0613413
0.618204 0.0635691 0.0615091
0.620554 0.0646982 0.061799
0.622538 0.0656291 0.0623636
0.624598 0.0659037 0.0624247
0.626978 0.0664988 0.0628977
0.629679 0.0677501 0.0637369
0.631617 0.0686656 0.0640421
0.634226 0.0698558 0.0647746
0.63743 0.071046 0.065507
0.640635 0.0726024 0.0662699
0.643702 0.0742504 0.0667582
0.64593 0.0752117 0.0667277
0.649821 0.0763409 0.0673991
0.034287 0.0544442 0.0459907
0.0331731 0.054551 0.046128
0.0324559 0.054612 0.0462348
0.0322728 0.0543679 0.0464027
0.0326085 0.0540932 0.0465705
0.0332952 0.0536812 0.0469215
0.0352636 0.0531014 0.0471046
0.0384527 0.0529641 0.047364
0.0438544 0.0528878 0.0480354
0.0525826 0.0513771 0.0468299
0.0619821 0.0496834 0.0456245
0.0753948 0.0471351 0.0428016
0.0907301 0.0448463 0.0411688
0.10605 0.0428473 0.0401923
0.125307 0.0412757 0.0392309
0.144701 0.0400092 0.0377813
0.169055 0.0386816 0.035996
0.193942 0.0374456 0.0345769
0.218677 0.0374304 0.0339208
0.245808 0.0372625 0.0331884
0.27274 0.0373999 0.032929
0.301793 0.0365911 0.0335851
0.331624 0.0356603 0.0334783
0.363119 0.0346685 0.0330205
0.39498 0.0339971 0.0328679
0.426047 0.033341 0.0337072
0.455161 0.0323491 0.0345922
0.483772 0.0311131 0.0357824
0.51545 0.0361486 0.0398108
0.549432 0.0467536 0.0476539
0.575708 0.0524453 0.0529488
0.596689 0.057847 0.0570535
0.602243 0.0594339 0.0579538
0.602716 0.0593576 0.0579995
0.603037 0.0587625 0.0583352
0.602609 0.0582742 0.0584878
0.601633 0.0578164 0.0583047
0.602411 0.0572213 0.0585946
0.603235 0.0568856 0.0588693
0.603723 0.0568093 0.0590982
0.60354 0.057145 0.0589609
0.603693 0.057557 0.0589761
0.604898 0.0577249 0.0591745
0.606012 0.0577859 0.0593729
0.607492 0.0576486 0.0595102
0.608499 0.057969 0.0597238
0.610193 0.0584421 0.0601663
0.611826 0.0590524 0.0604562
0.613809 0.0600748 0.0609598
0.61619 0.0607767 0.0615549
0.617899 0.0614176 0.0619211
0.619745 0.0623026 0.0621042
0.621851 0.0637522 0.0623484
0.624262 0.0652781 0.0627298
0.626093 0.0662089 0.0626841
0.628702 0.0673533 0.063508
0.630488 0.0683604 0.0639353
0.633112 0.0692302 0.0644694
0.636011 0.0703136 0.065095
0.638346 0.0716869 0.0658274
0.641749 0.0731212 0.0664988
0.644419 0.0746014 0.066743
0.646418 0.0757 0.0667277
0.650141 0.0771496 0.0673075
0.654353 0.0789654 0.0681621
0.034638 0.0594339 0.0464179
0.0335393 0.059678 0.046479
0.0329442 0.0596017 0.0466926
0.0325628 0.0595407 0.0467842
0.0331426 0.0589761 0.047013
0.0343938 0.05832 0.0473182
0.0363012 0.0576181 0.0478981
0.0402991 0.0571908 0.0486152
0.044892 0.0572061 0.0490883
0.0515755 0.0563363 0.0488746
0.0614481 0.0548562 0.0472419
0.0731212 0.0527199 0.0451057
0.0881056 0.0499123 0.0424506
0.103258 0.0468757 0.0399176
0.122148 0.0442817 0.0390478
0.143221 0.0420081 0.0378882
0.168734 0.0402075 0.03682
0.193256 0.0393835 0.0350347
0.218784 0.0393988 0.0343786
0.246448 0.0392004 0.0340276
0.273655 0.0383001 0.0335393
0.302373 0.0377356 0.0341192
0.333074 0.0368353 0.0338903
0.364202 0.0361334 0.0334325
0.395743 0.0357671 0.0333257
0.426596 0.0343481 0.0338445
0.455817 0.0335241 0.0349432
0.485618 0.0319982 0.0361486
0.513512 0.0304112 0.0369573
0.549676 0.0460365 0.0470283
0.578119 0.0528572 0.0529793
0.59942 0.0580148 0.0577707
0.605859 0.0595865 0.0588998
0.605615 0.0593423 0.0588846
0.605158 0.0587167 0.0588998
0.605188 0.0582895 0.0590982
0.605295 0.0579538 0.0592813
0.605432 0.0577707 0.0593576
0.605768 0.0576638 0.0594339
0.60621 0.0577249 0.0594644
0.60705 0.0576944 0.0594797
0.608026 0.0577707 0.0596017
0.609155 0.0580453 0.0598611
0.61033 0.0584115 0.0601968
0.611627 0.0589151 0.0604257
0.61323 0.0597238 0.0608225
0.615106 0.0603494 0.0612345
0.617319 0.0609445 0.0618753
0.618601 0.0610819 0.0620737
0.620172 0.061326 0.0622416
0.621927 0.0620584 0.0628214
0.624033 0.0629587 0.0632792
0.626261 0.064332 0.0638132
0.62797 0.0657054 0.0635233
0.630274 0.0678111 0.0641947
0.632624 0.068925 0.0643626
0.635233 0.0701305 0.0650034
0.637766 0.0713512 0.0656291
0.640574 0.0725719 0.0662699
0.643244 0.074052 0.0667582
0.64535 0.0750286 0.0665751
0.648066 0.0764019 0.0669718
0.651637 0.0783246 0.0675517
0.655085 0.0801556 0.0683909
0.659068 0.0816205 0.0692454
0.0341802 0.0646677 0.046128
0.0330663 0.0647746 0.0463111
0.032517 0.0648051 0.0464637
0.0322576 0.0647135 0.0465248
0.0324254 0.0644236 0.0466926
0.0341497 0.0637217 0.0472267
0.0362402 0.0627756 0.0480201
0.0390478 0.0621042 0.0483253
0.0445258 0.0619211 0.0485389
0.0508888 0.0621042 0.049073
0.060853 0.060914 0.0483253
0.0733196 0.0589456 0.0471199
0.0879988 0.0564889 0.0457008
0.103334 0.0536202 0.0425269
0.122011 0.0506447 0.0396582
0.143145 0.0480201 0.0375677
0.16643 0.0448005 0.0358434
0.191531 0.0422065 0.0345769
0.218204 0.04094 0.0346532
0.246479 0.0405737 0.0343938
0.274113 0.0398108 0.0341344
0.303456 0.0386816 0.0341344
0.333593 0.0382086 0.033814
0.364675 0.0377356 0.0338293
0.397024 0.0373693 0.0337377
0.427359 0.0358587 0.0340887
0.456855 0.0348821 0.0352941
0.48661 0.0332341 0.036408
0.51577 0.0323796 0.037995
0.552712 0.0476844 0.0480812
0.579416 0.0506752 0.054078
0.602548 0.0558785 0.058854
0.610941 0.0580606 0.060502
0.609491 0.0574655 0.0601968
0.609323 0.0570687 0.0603037
0.609384 0.0567941 0.060441
0.609598 0.0567025 0.0604105
0.609705 0.057023 0.0602426
0.610498 0.0578927 0.0602426
0.611185 0.0586709 0.0603037
0.611978 0.0593881 0.0604105
0.613169 0.0602426 0.0607767
0.614435 0.0607767 0.0612039
0.616236 0.061265 0.0616312
0.617487 0.0616159 0.0617838
0.618494 0.0619059 0.0619364
0.620142 0.0623178 0.0621958
0.621576 0.0628977 0.062501
0.623041 0.063508 0.0628977
0.624949 0.0640879 0.0634623
0.626871 0.0644541 0.0638895
0.628397 0.0651102 0.063859
0.630304 0.0666361 0.0643626
0.632502 0.0678111 0.0646372
0.634745 0.0690623 0.0651255
0.637507 0.0707408 0.0657969
0.640223 0.0722972 0.0663767
0.642771 0.0737621 0.0667735
0.645151 0.0748455 0.0665904
0.646952 0.0758984 0.066804
0.650324 0.0776226 0.0673381
0.653941 0.0796826 0.0678721
0.656886 0.0817731 0.0685893
0.65951 0.0828717 0.0682994
0.663264 0.0846723 0.0686809
0.0363317 0.071107 0.0458534
0.0354925 0.0712749 0.0459602
0.0348821 0.0710918 0.0460517
0.0345769 0.0708171 0.046067
0.0344701 0.0704967 0.0461128
0.0357977 0.0699168 0.046479
0.0381781 0.0690929 0.0471351
0.0406806 0.0679789 0.048188
0.0449378 0.0675364 0.0482185
0.052781 0.0676127 0.0486915
0.0605173 0.0670939 0.0484932
0.0751354 0.0661784 0.0473182
0.088716 0.0637064 0.0471656
0.104753 0.0608682 0.0458076
0.124422 0.057496 0.0422827
0.144793 0.0545968 0.0395209
0.169482 0.0514687 0.0365454
0.1944 0.0483253 0.0339513
0.219089 0.0457008 0.03299
0.245457 0.0440223 0.0333104
0.274784 0.0421302 0.0339208
0.304356 0.0408331 0.0342412
0.333883 0.040238 0.0338903
0.365743 0.0395056 0.0338445
0.397269 0.0388342 0.0336614
0.429084 0.0381476 0.0347753
0.458213 0.0365606 0.0354772
0.48838 0.0352178 0.0369421
0.517647 0.034638 0.0387732
0.553567 0.0477607 0.048188
0.581399 0.05243 0.053666
0.606256 0.0572976 0.0597086
0.616358 0.0597086 0.0616922
0.615869 0.0590066 0.0616464
0.613947 0.0580148 0.061326
0.613931 0.0575875 0.0614328
0.613947 0.057496 0.0614023
0.614572 0.0579385 0.0613107
0.616022 0.059144 0.0615244
0.616846 0.0605173 0.0616617
0.617899 0.0612345 0.0619669
0.618585 0.0615702 0.0619974
0.619486 0.0618753 0.06215
0.620829 0.0622721 0.0624247
0.621927 0.0627451 0.0627756
0.623102 0.0632334 0.0630808
0.624689 0.0636912 0.063447
0.626459 0.0641642 0.0639506
0.627985 0.0645151 0.0641184
0.629511 0.0652018 0.0641642
0.631327 0.0663462 0.0646677
0.633356 0.067155 0.0652018
0.635523 0.0678569 0.0654765
0.637629 0.0689097 0.0661479
0.640406 0.0706645 0.066804
0.642802 0.0724498 0.0671855
0.645243 0.074342 0.0673381
0.646647 0.0755016 0.0671702
0.649744 0.0770123 0.0674144
0.653147 0.0789502 0.0678569
0.656153 0.081117 0.0685588
0.658579 0.0827497 0.068513
0.661967 0.0842756 0.0683909
0.665293 0.086244 0.0688029
0.669764 0.0882734 0.0692149
0.0359197 0.079881 0.0458534
0.03505 0.0798657 0.045716
0.0345312 0.0798352 0.0458839
0.0343633 0.0796979 0.0460059
0.0342565 0.0793927 0.0460059
0.0346838 0.0790417 0.0460059
0.0370489 0.0781109 0.0467231
0.0397192 0.0766461 0.0473182
0.0431983 0.0752575 0.0485237
0.0504158 0.0748455 0.0489357
0.0596475 0.0747997 0.0491035
0.0708324 0.0740826 0.048127
0.0875105 0.0733043 0.0471809
0.104738 0.0710002 0.0478065
0.124712 0.0675975 0.0466773
0.147265 0.0637369 0.0426795
0.172702 0.0588998 0.0394903
0.198993 0.0557259 0.0371862
0.223239 0.0523232 0.0343633
0.250034 0.0493324 0.0332647
0.275547 0.0463111 0.0331884
0.303929 0.0434882 0.0343786
0.333928 0.0420844 0.0344396
0.366094 0.0415503 0.0343633
0.398108 0.041062 0.0344244
0.430198 0.0398108 0.0349584
0.460227 0.0384527 0.0364996
0.489998 0.0369573 0.0372931
0.519478 0.0374456 0.039765
0.555444 0.0483101 0.0478828
0.583581 0.0533303 0.0540017
0.608316 0.0577249 0.0597391
0.621027 0.0607156 0.0626535
0.620691 0.0603189 0.0627604
0.620905 0.0598154 0.0630655
0.620523 0.0592203 0.0631113
0.619638 0.0586252 0.0626383
0.620493 0.0592966 0.0629587
0.62118 0.0602731 0.0626688
0.622019 0.0613413 0.0629587
0.622873 0.0622568 0.0631418
0.623789 0.0629282 0.0632944
0.624582 0.063386 0.063447
0.625696 0.0638743 0.0638285
0.627039 0.0641947 0.0640879
0.628321 0.0644388 0.0642252
0.629602 0.0650034 0.0643015
0.631251 0.0660258 0.0647288
0.633249 0.0669261 0.0653086
0.635019 0.0673228 0.0653849
0.636835 0.0680858 0.0658427
0.639261 0.0691539 0.0666209
0.641581 0.0703288 0.0670329
0.644099 0.0715648 0.0673838
0.64622 0.0734264 0.0681163
0.647852 0.0744335 0.0677195
0.650507 0.0765393 0.0678874
0.653361 0.0780499 0.0681163
0.65626 0.0805371 0.0688029
0.658701 0.0825208 0.0687572
0.661646 0.0839857 0.0684215
0.664744 0.0862287 0.0687724
0.668345 0.0880293 0.0687877
0.671763 0.0895094 0.068986
0.675303 0.0904097 0.0682689
0.0353246 0.0910811 0.0458381
0.0343786 0.0910811 0.0454108
0.0338903 0.0910201 0.0454261
0.0336767 0.0903944 0.0454871
0.0336461 0.090074 0.0455177
0.0335241 0.0893721 0.0454566
0.0352789 0.0887617 0.0458991
0.0395514 0.0875563 0.0476844
0.0424811 0.0860151 0.0483406
0.0484627 0.0852369 0.049134
0.0572061 0.0851911 0.0500649
0.0691691 0.0851148 0.049546
0.082414 0.083711 0.047837
0.102785 0.0836652 0.0475319
0.125124 0.0797131 0.0483253
0.148013 0.0753643 0.0471504
0.176974 0.0698558 0.0424659
0.204654 0.0649119 0.0399023
0.230961 0.0604562 0.0373693
0.257343 0.056733 0.035935
0.282506 0.0530861 0.0343023
0.30898 0.049485 0.0332189
0.336858 0.0466773 0.0336004
0.366384 0.044831 0.0344854
0.398474 0.0433051 0.0345464
0.430762 0.0422522 0.0356603
0.461479 0.0408026 0.0369573
0.492149 0.0397498 0.0381781
0.520943 0.0379339 0.0395514
0.551431 0.0408484 0.0441444
0.58613 0.0546883 0.0542763
0.611749 0.0592203 0.0604257
0.626307 0.0622416 0.0641031
0.62591 0.0617838 0.0641031
0.625727 0.0610666 0.0641337
0.625635 0.0605173 0.0641947
0.626047 0.0603799 0.0643015
0.626093 0.0607004 0.0641794
0.627115 0.0617838 0.064271
0.628 0.0631113 0.0643168
0.628595 0.0639963 0.064271
0.629175 0.0644236 0.0642863
0.629709 0.0648356 0.0643778
0.630854 0.0656291 0.0646677
0.632395 0.0663615 0.0650492
0.63418 0.0669718 0.0654459
0.635767 0.0674296 0.0656138
0.637339 0.0681163 0.0660105
0.639628 0.0690471 0.0666667
0.641566 0.0699321 0.0670024
0.644099 0.0713207 0.0673533
0.645991 0.0727855 0.0681163
0.64799 0.0737163 0.0681468
0.649927 0.0748455 0.0677653
0.652537 0.0762188 0.0680858
0.654612 0.0779889 0.0686046
0.657328 0.0796979 0.0691691
0.660227 0.08159 0.0695201
0.662287 0.0834669 0.0686503
0.665187 0.0858778 0.0689097
0.668879 0.0881361 0.0689555
0.671504 0.0895705 0.0688792
0.674464 0.0905623 0.0679789
0.67776 0.0917525 0.0674907
0.681514 0.0932631 0.0667582
0.0368963 0.102754 0.0481422
0.0356603 0.1028 0.0474556
0.0351415 0.102342 0.0469215
0.0347143 0.102312 0.0467079
0.0345922 0.101884 0.0466621
0.0343481 0.101595 0.04654
0.0349737 0.100999 0.0467842
0.0390631 0.0999161 0.0481575
0.0421149 0.0990768 0.0484627
0.0464179 0.0972152 0.0493019
0.0550393 0.0969406 0.0512703
0.0654917 0.0965744 0.0514534
0.0813764 0.0968185 0.0497444
0.0973831 0.0955673 0.0484627
0.121401 0.0946822 0.0471351
0.149599 0.0909438 0.048661
0.179568 0.0849012 0.0471656
0.208392 0.0793469 0.0439307
0.237613 0.0747845 0.0412909
0.265995 0.0692454 0.0395972
0.293584 0.065156 0.0379644
0.319036 0.0609598 0.0359197
0.345724 0.0567025 0.0342718
0.373266 0.0526436 0.0331426
0.402518 0.0496681 0.0347753
0.431617 0.047715 0.0367285
0.462425 0.0444343 0.0375982
0.493904 0.0428473 0.038819
0.523751 0.0409552 0.0402686
0.553338 0.0435645 0.0445563
0.588861 0.0571298 0.0549325
0.614694 0.0611276 0.0612345
0.631067 0.0641031 0.0649424
0.630976 0.0636759 0.0651255
0.631525 0.0632181 0.0654917
0.632029 0.0628061 0.0658885
0.632364 0.0626078 0.0660868
0.632792 0.0628367 0.066041
0.632761 0.0634623 0.0657511
0.632929 0.0644236 0.065568
0.634302 0.0660868 0.0657054
0.635416 0.066865 0.0656138
0.636851 0.0677195 0.0659037
0.637598 0.0682231 0.0661326
0.639261 0.0687724 0.0666209
0.64126 0.0695354 0.0668956
0.642954 0.0705577 0.0671092
0.645289 0.0719158 0.0677195
0.646815 0.073167 0.0682689
