bundles/resolve-cinematic-luts/Phantom Luts/Komodo Phantom FILM LUTs G2/Komodo Phantom FILM LUTs G2/65x/Standard (No WB Offset)/VisionTeal_Komodo_G2_65x.cube
TITLE "Generated by Resolve"
LUT_3D_SIZE 65
0.0222629 0.0351263 0.0329137
0.0222629 0.0351415 0.0329137
0.0222629 0.0351415 0.032929
0.0222629 0.0351568 0.0329442
0.0222629 0.0351568 0.0329442
0.0222934 0.0350958 0.033341
0.0292058 0.0341802 0.032929
0.039292 0.0335546 0.0328832
0.0509194 0.0323033 0.0314946
0.0649271 0.030518 0.0298161
0.0797436 0.0296178 0.0283818
0.0952621 0.0287633 0.0270848
0.111971 0.0281987 0.0264897
0.129381 0.0273747 0.0248722
0.15082 0.0261997 0.0236362
0.175799 0.0240787 0.0206607
0.200916 0.0218051 0.0191958
0.22623 0.0201572 0.0183719
0.252308 0.0184024 0.0181125
0.279805 0.0166934 0.0184634
0.309575 0.0148318 0.019379
0.337179 0.0132143 0.0200809
0.366506 0.0123751 0.0211185
0.396887 0.0120851 0.0217136
0.427771 0.0120546 0.0250858
0.459632 0.0121157 0.0306401
0.491417 0.0122988 0.0391089
0.521248 0.0140536 0.047776
0.551186 0.0162051 0.057435
0.580377 0.0181888 0.0649729
0.605127 0.0207218 0.0695506
0.625895 0.0233463 0.0730297
0.637675 0.0246891 0.0784924
0.640009 0.0257572 0.0840772
0.6421 0.026566 0.0901198
0.643641 0.027039 0.0959335
0.644556 0.0274052 0.0996262
0.645182 0.027512 0.10277
0.645472 0.0275425 0.104692
0.645594 0.027512 0.105821
0.645487 0.0275273 0.105226
0.645335 0.0274968 0.10399
0.645197 0.0274815 0.102785
0.644785 0.0273899 0.10074
0.643168 0.0268406 0.095964
0.641474 0.0263523 0.0910658
0.639536 0.025452 0.0842145
0.637995 0.0247807 0.078233
0.635645 0.0241245 0.072694
0.633326 0.0235904 0.0678111
0.63122 0.0233616 0.0632181
0.63003 0.0231022 0.0581064
0.630014 0.0230259 0.0563821
0.629847 0.0228428 0.0543374
0.629191 0.0224308 0.051606
0.62948 0.0226444 0.0501411
0.631266 0.0230869 0.0510414
0.633524 0.0231937 0.0514076
0.635691 0.0232853 0.0516976
0.637675 0.0236057 0.0522316
0.640085 0.0240787 0.0528878
0.642954 0.0244602 0.0535897
0.645624 0.0251316 0.0543984
0.648524 0.0263371 0.0552224
0.651865 0.0269017 0.0562753
0.0223392 0.0348058 0.0325933
0.0222934 0.0350042 0.0327764
0.0222782 0.0351263 0.0328985
0.0222629 0.0351415 0.0329442
0.0222629 0.0351415 0.032929
0.023743 0.0349584 0.0333257
0.0319829 0.0338903 0.0330053
0.0424811 0.0330358 0.0324559
0.0544442 0.0318151 0.0308843
0.067689 0.0304875 0.0295415
0.082826 0.0295109 0.0280003
0.0981765 0.0287327 0.026978
0.115145 0.028336 0.0265202
0.13283 0.0271153 0.0245365
0.155184 0.0261082 0.0230411
0.179828 0.0237583 0.0203861
0.204211 0.0227359 0.0193027
0.230426 0.0214542 0.0185855
0.256199 0.0200351 0.018555
0.285115 0.0178225 0.0187686
0.312459 0.0156405 0.0196384
0.341665 0.0138705 0.0206607
0.36997 0.0124971 0.0214694
0.398947 0.0121462 0.0216373
0.429633 0.0119631 0.0247501
0.461494 0.0121004 0.0292821
0.492485 0.0122835 0.0350958
0.521324 0.0138552 0.0422675
0.551766 0.0160067 0.0515297
0.580545 0.0180667 0.0591287
0.604257 0.0203861 0.0632181
0.624094 0.022858 0.0662089
0.633875 0.0237583 0.0706493
0.637003 0.0244144 0.0755779
0.638346 0.0251621 0.0808728
0.639658 0.0256046 0.085832
0.640955 0.0261082 0.0888533
0.642374 0.0265202 0.0925154
0.642557 0.026627 0.0941329
0.642512 0.0266117 0.0940566
0.642481 0.0265507 0.0936751
0.642496 0.0265049 0.0929122
0.641184 0.026215 0.0912184
0.639628 0.0256046 0.0876936
0.638453 0.0251164 0.0839399
0.637247 0.0243381 0.0784161
0.634913 0.0239872 0.0740826
0.632944 0.0235447 0.0683604
0.631098 0.023331 0.0634775
0.629709 0.0229648 0.0577401
0.629801 0.0229191 0.0562448
0.629831 0.022858 0.0549783
0.629618 0.0226444 0.052903
0.629038 0.0223087 0.0501564
0.630259 0.0229496 0.0506752
0.632334 0.0231632 0.0512703
0.634195 0.0232395 0.051545
0.636332 0.0233616 0.0518807
0.63801 0.0237278 0.0523995
0.640726 0.0241703 0.0530098
0.64329 0.0245365 0.0537118
0.645792 0.0252232 0.0544442
0.648707 0.0267796 0.0552834
0.651865 0.027924 0.0560616
0.654948 0.0284886 0.0569772
0.0223392 0.0348211 0.0326085
0.0222934 0.0350347 0.0327764
0.0222629 0.0351263 0.0328985
0.0222477 0.035172 0.0329747
0.0222629 0.0351263 0.032929
0.0232853 0.0350805 0.0333257
0.031754 0.0340734 0.0330053
0.0421454 0.0332494 0.0325017
0.0542306 0.0320897 0.0309453
0.0681621 0.0308995 0.0294041
0.0837415 0.0298161 0.0280613
0.0992905 0.02916 0.027039
0.116304 0.0289616 0.0264744
0.134371 0.0275731 0.0246433
0.156939 0.0266423 0.0232395
0.182727 0.0242161 0.020676
0.207248 0.0232242 0.0196536
0.23238 0.0222934 0.0191196
0.259525 0.0205997 0.0189059
0.287404 0.0188754 0.0196078
0.316152 0.0176394 0.0205234
0.344732 0.0160983 0.0217594
0.373922 0.0145266 0.0225071
0.401236 0.0121614 0.021561
0.43093 0.0119783 0.0242771
0.461707 0.0120699 0.0268254
0.491371 0.012192 0.0316625
0.52105 0.0137484 0.0382239
0.550271 0.0156405 0.0443732
0.577981 0.0175631 0.0522011
0.602396 0.0199588 0.0567483
0.622034 0.022034 0.0599374
0.630518 0.0233616 0.0640879
0.632609 0.023621 0.0678569
0.634272 0.0238804 0.0715496
0.635843 0.0241398 0.0753948
0.637186 0.0244297 0.0788739
0.637873 0.0247196 0.0808118
0.638102 0.0249027 0.0824445
0.638193 0.024918 0.0818952
0.638132 0.0248569 0.0816968
0.637583 0.0245365 0.0804913
0.636347 0.0242313 0.0786145
0.635096 0.0239567 0.0753338
0.633997 0.0236667 0.072343
0.632197 0.0234379 0.0693217
0.630655 0.0232242 0.0654307
0.629557 0.0229343 0.0607309
0.628901 0.0227512 0.0567636
0.629541 0.0227512 0.0552071
0.629679 0.0227054 0.0536049
0.629526 0.0225223 0.051545
0.629755 0.0227359 0.0503243
0.631312 0.0231022 0.0510567
0.633433 0.0231937 0.0513924
0.635203 0.0233005 0.051667
0.637217 0.0234989 0.0520485
0.638849 0.0238193 0.0525368
0.641611 0.0242618 0.0531624
0.64387 0.0246128 0.0538796
0.646281 0.0254368 0.054551
0.648859 0.0268559 0.0553292
0.651896 0.0281834 0.0560616
0.65478 0.0293126 0.0567178
0.657435 0.0296941 0.0569619
0.0223392 0.0348363 0.0326238
0.0222934 0.03505 0.0327916
0.0222629 0.0351415 0.032929
0.0222629 0.0351873 0.03299
0.0222629 0.0351415 0.0329747
0.0222782 0.0350652 0.0328374
0.0294957 0.0345159 0.0328679
0.0404974 0.0337224 0.032578
0.052903 0.0324865 0.0311742
0.067155 0.0314183 0.0295262
0.0828565 0.030518 0.0279698
0.0989853 0.029984 0.0271916
0.116365 0.0296788 0.0264744
0.135027 0.0285191 0.0249943
0.157977 0.0273442 0.0234836
0.184115 0.0254978 0.0214847
0.208576 0.0242466 0.0200504
0.234607 0.0231022 0.0192111
0.26125 0.0218051 0.0194247
0.289479 0.0204623 0.020264
0.318196 0.0196994 0.0211337
0.346578 0.0176547 0.0222477
0.375738 0.0160525 0.0233463
0.404303 0.0130465 0.0228428
0.432563 0.0119478 0.0235447
0.462272 0.0120851 0.0266423
0.49279 0.0122377 0.0310826
0.520424 0.0135805 0.0349126
0.548959 0.0151827 0.0395361
0.57702 0.0174258 0.046952
0.600824 0.0193942 0.0514534
0.61976 0.0214084 0.0547341
0.627802 0.0227512 0.0579843
0.629831 0.0231479 0.0616617
0.630564 0.023331 0.0642863
0.63154 0.0234531 0.0676585
0.632197 0.0234836 0.0696574
0.632868 0.0234989 0.0712749
0.633387 0.0235752 0.0718242
0.633387 0.0235599 0.07187
0.63299 0.0234989 0.071458
0.632212 0.0234226 0.0697337
0.631662 0.0233616 0.068101
0.630961 0.023209 0.0663615
0.630045 0.0230869 0.064332
0.629038 0.0228275 0.061387
0.627359 0.0223392 0.0570535
0.628901 0.0226291 0.0571908
0.629648 0.0227359 0.0561379
0.629786 0.0227359 0.0541238
0.629664 0.0225528 0.0513924
0.6309 0.0230411 0.0509194
0.632624 0.0231479 0.0512856
0.634394 0.0232547 0.0515908
0.636164 0.0233768 0.0518349
0.637766 0.0236362 0.0522774
0.639963 0.0240787 0.0528572
0.64242 0.0243839 0.0533761
0.64448 0.0247807 0.0540932
0.646693 0.0256504 0.0546731
0.649302 0.0270695 0.0554513
0.65214 0.0283055 0.0561227
0.65478 0.0295415 0.0566567
0.657511 0.030518 0.0569009
0.661524 0.0315404 0.0581216
0.0223239 0.0348974 0.0326085
0.0222629 0.0351415 0.0327459
0.0222477 0.0352026 0.0328832
0.0222477 0.0352483 0.0330053
0.0222324 0.0352331 0.033051
0.0222629 0.0351415 0.0328222
0.0242008 0.0356298 0.033402
0.0349737 0.0348974 0.0333562
0.0485542 0.0336004 0.0321508
0.0644541 0.0321813 0.0302129
0.0806134 0.0311437 0.0282292
0.0981003 0.0306706 0.0274052
0.115526 0.0307012 0.0268406
0.135027 0.0298924 0.0255894
0.158053 0.0285191 0.0237278
0.184756 0.0264897 0.0216983
0.209598 0.0253452 0.0206149
0.23566 0.0245518 0.0198367
0.262547 0.0233005 0.0196536
0.29073 0.0229801 0.0209812
0.319509 0.0221408 0.0221561
0.347967 0.01944 0.0227054
0.376211 0.0172274 0.0237278
0.406195 0.0150149 0.0233768
0.433661 0.0119326 0.0233005
0.463905 0.0121462 0.0268254
0.494362 0.0123598 0.0307774
0.52137 0.0135958 0.0341192
0.549905 0.0153353 0.0393072
0.577005 0.0173648 0.0446326
0.59968 0.0193332 0.0479286
0.617304 0.0211032 0.0501717
0.625132 0.0220645 0.053666
0.625925 0.0222782 0.054902
0.627344 0.0225681 0.0573129
0.628641 0.0228885 0.0606546
0.629648 0.0229953 0.0631723
0.629694 0.0229953 0.0638285
0.629816 0.0230259 0.0641184
0.629816 0.0230259 0.0640421
0.629847 0.0229953 0.0636149
0.629877 0.0229801 0.0630655
0.629511 0.022858 0.0615549
0.628107 0.0225834 0.0591745
0.625879 0.0220645 0.0560769
0.627726 0.0223087 0.05626
0.629328 0.0225681 0.0565347
0.629938 0.0227665 0.0563821
0.630243 0.0228275 0.0556039
0.630884 0.0229038 0.0541543
0.632334 0.0230259 0.0532235
0.63389 0.0230869 0.0522011
0.635569 0.023331 0.0516823
0.637247 0.0234989 0.0520485
0.638697 0.0237888 0.0525063
0.641154 0.0242161 0.0530861
0.643183 0.024567 0.0536812
0.645274 0.0249943 0.0543069
0.647288 0.0260166 0.054902
0.650202 0.027451 0.0556649
0.652537 0.0284886 0.05626
0.654887 0.029572 0.0566567
0.657618 0.0308843 0.0569924
0.661494 0.0324407 0.0580606
0.664729 0.0337835 0.0592203
0.0222629 0.0373083 0.0323339
0.0222629 0.0372931 0.0324559
0.0222629 0.0370489 0.0325475
0.0222477 0.0368048 0.0327153
0.0221408 0.0362554 0.0329747
0.0221408 0.035874 0.0330816
0.0221408 0.0361639 0.0330968
0.0306401 0.0360723 0.0337835
0.0422217 0.0353246 0.0329442
0.0582132 0.0336919 0.0309148
0.0773938 0.0318914 0.0285344
0.0959335 0.0315251 0.0272679
0.113558 0.0317998 0.0267948
0.133883 0.0315404 0.0260777
0.156924 0.0299687 0.0240787
0.183932 0.028336 0.0221256
0.209369 0.0274815 0.0212863
0.236545 0.0261387 0.0207218
0.263752 0.0253452 0.0208133
0.292058 0.0242771 0.0213474
0.320943 0.0234684 0.0226596
0.349371 0.0211337 0.0234073
0.378012 0.0188754 0.0238346
0.406973 0.0161135 0.0239567
0.436316 0.0123598 0.0243381
0.465431 0.0121157 0.0263371
0.494865 0.0124514 0.0307012
0.523232 0.0136873 0.0339666
0.551431 0.01561 0.0393835
0.577874 0.0173495 0.0442206
0.600595 0.0193484 0.047776
0.618906 0.0210574 0.05037
0.623606 0.0217746 0.0505531
0.623331 0.0216831 0.0501411
0.625101 0.0219425 0.0535134
0.626963 0.0223392 0.0562753
0.626627 0.0222934 0.0568246
0.625788 0.0221256 0.0565347
0.625879 0.0221408 0.0567025
0.628046 0.0225376 0.0587625
0.628519 0.0226291 0.0589609
0.628138 0.0224765 0.057557
0.626368 0.0220493 0.055436
0.626139 0.0219425 0.0543832
0.628275 0.0223087 0.0555276
0.629892 0.0227054 0.0562295
0.63061 0.022858 0.056199
0.631205 0.0229191 0.0558938
0.6327 0.0229496 0.0557717
0.633997 0.0229953 0.0554513
0.635416 0.0230869 0.0547951
0.636759 0.02327 0.054078
0.637888 0.0234836 0.052903
0.64004 0.0240177 0.0528725
0.64239 0.0243839 0.0533608
0.644099 0.0247196 0.0539559
0.646326 0.0254368 0.0545663
0.648341 0.026566 0.0551766
0.651026 0.0278019 0.0558328
0.653284 0.0288243 0.0564431
0.655192 0.0297551 0.056611
0.658351 0.0312352 0.0572061
0.661768 0.0330205 0.0582132
0.664942 0.03505 0.0593881
0.669017 0.0363317 0.0601205
0.0222171 0.0435492 0.0322118
0.0222324 0.0433509 0.0323033
0.0222324 0.0432746 0.0324102
0.0222629 0.0427863 0.0324407
0.0221561 0.0420233 0.0324559
0.0223392 0.0412909 0.0330816
0.0243229 0.0405432 0.0340581
0.0299535 0.0404059 0.0349279
0.0394751 0.0400549 0.0347753
0.0529335 0.038056 0.0331579
0.0697948 0.0357671 0.0305028
0.0896468 0.0337072 0.0280613
0.109834 0.0331273 0.0266728
0.132418 0.0332036 0.0266575
0.155077 0.0322728 0.0250553
0.182605 0.030518 0.0230716
0.209766 0.0296788 0.0222782
0.236683 0.0286107 0.021561
0.264485 0.0281987 0.0216831
0.293721 0.0270848 0.0221866
0.321767 0.0251316 0.0231937
0.351247 0.0229648 0.0243076
0.379812 0.0203403 0.024445
0.408545 0.0178988 0.0244144
0.437995 0.01355 0.0247349
0.466316 0.0121004 0.0260777
0.495552 0.0125124 0.0304112
0.524437 0.0137942 0.0339055
0.552529 0.0157626 0.0394446
0.580011 0.0173495 0.0440986
0.602686 0.01944 0.0484016
0.620966 0.0213321 0.0509957
0.625177 0.021912 0.0511025
0.625528 0.021973 0.0514076
0.625956 0.0220798 0.0531472
0.625834 0.0220188 0.0536202
0.625223 0.0218204 0.0534981
0.626139 0.0219883 0.0545968
0.62739 0.0221866 0.0556802
0.628138 0.0223392 0.0560922
0.627863 0.0222324 0.0554665
0.627878 0.0221714 0.0548409
0.629038 0.0223545 0.0550851
0.629953 0.0226902 0.0556191
0.631022 0.0228885 0.0560769
0.631998 0.0229343 0.0560311
0.633341 0.0229191 0.0559701
0.634546 0.0229953 0.0560616
0.636103 0.0230716 0.0562448
0.637369 0.0232242 0.0564279
0.638453 0.0234531 0.0564889
0.640009 0.023621 0.0560922
0.641947 0.0237888 0.0552377
0.643381 0.0239414 0.0542916
0.64538 0.0248112 0.0542916
0.647486 0.0261234 0.054963
0.650004 0.0273442 0.0556191
0.652186 0.0283207 0.0561379
0.65449 0.0294499 0.0566567
0.656092 0.0302129 0.0566415
0.659617 0.0318608 0.0575265
0.662608 0.0336309 0.0584878
0.665599 0.0356909 0.0596475
0.669123 0.0373693 0.0600595
0.672389 0.0389105 0.0604715
0.0214542 0.0522011 0.0321355
0.0214694 0.052079 0.0321508
0.0215152 0.0515145 0.0321202
0.0215305 0.0512551 0.0321508
0.0216526 0.0501411 0.032578
0.022034 0.049134 0.0338293
0.0241703 0.0479744 0.0341802
0.0310369 0.0471656 0.0349432
0.0394751 0.047425 0.0362402
0.0525216 0.046891 0.0351415
0.068574 0.0443885 0.0344854
0.0878157 0.0420081 0.0315404
0.108003 0.0403296 0.0287327
0.12874 0.0378882 0.0261082
0.152087 0.0359655 0.0250858
0.181353 0.0333562 0.0241398
0.208316 0.0319829 0.022858
0.235584 0.0311894 0.0219883
0.264897 0.0309606 0.0223239
0.294362 0.0297704 0.0229648
0.323033 0.0272831 0.0238346
0.351507 0.0245975 0.0245212
0.381521 0.022446 0.0247807
0.410254 0.0197452 0.0249485
0.439078 0.0162966 0.0258488
0.467048 0.0121462 0.025803
0.495781 0.0125277 0.0299077
0.525444 0.013901 0.0336461
0.554101 0.0157626 0.038941
0.580987 0.0173953 0.0438239
0.605295 0.0196384 0.0483711
0.623117 0.0216983 0.0525216
0.629389 0.0225528 0.0531167
0.629328 0.0225681 0.0534676
0.629038 0.0225528 0.0538949
0.629236 0.0225681 0.0548257
0.629374 0.0225834 0.0554971
0.629557 0.0226139 0.0559091
0.629816 0.0227207 0.0561532
0.630091 0.022797 0.056199
0.630671 0.0229038 0.05626
0.631434 0.0229801 0.0562905
0.632471 0.0229801 0.0562753
0.633402 0.0229648 0.0563058
0.634394 0.0230259 0.0563516
0.635691 0.0230564 0.0564126
0.63679 0.023209 0.0567178
0.637888 0.0233768 0.0573129
0.639353 0.0235294 0.0577859
0.641032 0.0236667 0.0580606
0.642542 0.0238499 0.05832
0.644114 0.0240787 0.0583658
0.645594 0.0242618 0.0575723
0.646983 0.0246128 0.0563821
0.64892 0.0254826 0.0556497
0.65153 0.0276646 0.0562753
0.653971 0.0291142 0.0565957
0.655436 0.0298924 0.056611
0.658259 0.0311742 0.0571756
0.661311 0.0326543 0.0580606
0.663874 0.0344854 0.0589761
0.666911 0.0362707 0.0600137
0.669917 0.0383459 0.060502
0.672953 0.0399939 0.0608377
0.67686 0.0423896 0.0619059
0.0208896 0.0634623 0.0324865
0.0209049 0.0629129 0.0324712
0.0209049 0.062562 0.0324712
0.020798 0.0619211 0.0323033
0.020798 0.0611582 0.0323949
0.0214237 0.0600595 0.0333257
0.0239261 0.0582895 0.0339971
0.0290837 0.0569772 0.0351263
0.0407874 0.0566567 0.0371099
0.0510567 0.0570993 0.0374609
0.0672618 0.055848 0.0353399
0.0871595 0.0534676 0.0350958
0.108614 0.0505684 0.0324712
0.130404 0.0480964 0.0295872
0.154665 0.0455024 0.0265049
0.183017 0.0406806 0.0231327
0.208667 0.0379034 0.0224765
0.235218 0.0351568 0.02327
0.264515 0.0335241 0.0231937
0.294881 0.0320439 0.0238041
0.324147 0.0301518 0.0246433
0.353109 0.0272374 0.0252079
0.382681 0.0250706 0.0254215
0.411658 0.0228733 0.0257725
0.44094 0.0186465 0.026688
0.468437 0.0132296 0.0263981
0.496147 0.0125124 0.0292363
0.526314 0.0139467 0.0330205
0.555291 0.0157015 0.0379492
0.582864 0.0176547 0.0436866
0.606851 0.0199435 0.0526284
0.627085 0.0221714 0.0564736
0.634165 0.0229953 0.0573892
0.633234 0.0229496 0.0576486
0.633112 0.0229496 0.0581674
0.633173 0.0229038 0.0584573
0.633341 0.0228733 0.0580301
0.633509 0.0228428 0.057145
0.633844 0.0228885 0.0562142
0.634028 0.0229648 0.0557412
0.634333 0.0230564 0.0555886
0.635126 0.0231174 0.0555123
0.635981 0.0231632 0.0554818
0.636866 0.0232853 0.0556649
0.63772 0.0234073 0.0558938
0.638849 0.0235294 0.0561227
0.640406 0.023743 0.0563363
0.641855 0.0238041 0.0564126
0.643229 0.0239872 0.0566567
0.644526 0.024155 0.0568856
0.646067 0.0243534 0.0572366
0.647639 0.0246586 0.0570535
0.649485 0.0247959 0.0565347
0.65095 0.0251469 0.0561074
0.653284 0.0269627 0.056672
0.655375 0.0290074 0.0574044
0.657191 0.0302586 0.0572061
0.660456 0.0320439 0.0579385
0.663249 0.0338598 0.058793
0.665888 0.0357061 0.0598611
0.669017 0.037705 0.0601511
0.671626 0.0397803 0.0605478
0.674586 0.042649 0.0614176
0.678019 0.0452125 0.0619364
0.682582 0.0482795 0.0626535
0.0219272 0.0746929 0.0328679
0.0211643 0.0748455 0.0328374
0.0207675 0.0743725 0.0328069
0.0207065 0.0739757 0.0326696
0.020737 0.0732128 0.0328222
0.022446 0.0720836 0.0332494
0.0255741 0.0707866 0.0338293
0.0309606 0.0681773 0.0356756
0.039765 0.0677501 0.0371557
0.054139 0.0676585 0.037171
0.0660258 0.066865 0.0352941
0.0876783 0.066453 0.0355383
0.108659 0.0633249 0.0358282
0.133257 0.0597543 0.0337987
0.159747 0.0560311 0.0299992
0.187564 0.0523842 0.0268864
0.21355 0.0485542 0.0239567
0.239979 0.0444038 0.0220188
0.266819 0.0404212 0.0219425
0.295827 0.0371557 0.0243381
0.325002 0.0333257 0.0250858
0.355215 0.0310063 0.0263066
0.383719 0.0283665 0.0260929
0.413825 0.0258793 0.0265202
0.441947 0.0220188 0.0271
0.470558 0.016968 0.0273289
0.496971 0.0134432 0.0287175
0.526772 0.0142672 0.0321965
0.55639 0.0156252 0.0368505
0.583764 0.0177462 0.0434882
0.60885 0.0201267 0.0499123
0.630091 0.0227665 0.0562905
0.637781 0.023331 0.0580606
0.637659 0.0233005 0.0587015
0.636912 0.0231632 0.0591745
0.636973 0.0231785 0.0594797
0.636851 0.0231937 0.0592813
0.637064 0.0232395 0.058381
0.6374 0.0232853 0.0574655
0.637598 0.0233768 0.0567025
0.638132 0.0235142 0.0565805
0.638972 0.0235599 0.0565805
0.639963 0.0237278 0.056733
0.641291 0.0237888 0.0569619
0.642344 0.0238956 0.0571603
0.643458 0.024033 0.0573892
0.644572 0.0241703 0.0575723
0.645838 0.0243229 0.0577859
0.647227 0.0246281 0.0581674
0.648859 0.0247501 0.0576638
0.650599 0.024918 0.0573129
0.652277 0.0252842 0.0571145
0.654047 0.0256352 0.0569162
0.655756 0.0266575 0.0571603
0.658183 0.0284428 0.0575723
0.659953 0.0299687 0.0577096
0.662745 0.0321508 0.0588998
0.665553 0.0346075 0.060029
0.66865 0.0367742 0.0603037
0.671061 0.0388952 0.0604868
0.673838 0.0416876 0.0612192
0.67689 0.0444495 0.061738
0.681025 0.0479591 0.0626383
0.684367 0.0509651 0.0625925
0.687968 0.0536507 0.0631876
0.0215457 0.0894026 0.0330816
0.0206455 0.0892195 0.0326696
0.0203861 0.0887922 0.0326696
0.0203098 0.0883803 0.0326085
0.0202335 0.0877546 0.0325628
0.0208286 0.0870527 0.0327611
0.0260166 0.085069 0.0349889
0.030045 0.0834211 0.0355535
0.0366979 0.0809186 0.0370031
0.0493935 0.0814069 0.0386664
0.067155 0.0817121 0.0369116
0.0821088 0.0801556 0.0355688
0.107164 0.0799878 0.0363928
0.132143 0.0762341 0.0373999
0.161852 0.0698405 0.035172
0.193515 0.0648814 0.0317082
0.220691 0.0608682 0.0287175
0.247761 0.0564736 0.026154
0.27454 0.0516518 0.0245518
0.30135 0.0463569 0.0238041
0.326925 0.041825 0.0246586
0.355856 0.0367285 0.0276493
0.385046 0.0320897 0.0273442
0.414527 0.0289158 0.0270695
0.44361 0.0252689 0.0281682
0.472221 0.0206455 0.0284733
0.499153 0.0162509 0.0293431
0.527672 0.0152895 0.0320897
0.556848 0.0162509 0.0361181
0.585595 0.0178988 0.0422827
0.610483 0.0202945 0.0489204
0.631769 0.0229191 0.0560464
0.642329 0.0237583 0.0589761
0.642252 0.0237278 0.0596017
0.642451 0.0237583 0.0603647
0.642298 0.023743 0.0605936
0.641596 0.023682 0.0603647
0.641932 0.023743 0.0596475
0.64213 0.0238041 0.0586862
0.642557 0.0238956 0.0581674
0.64329 0.0240024 0.0579995
0.643961 0.0240635 0.0577707
0.644678 0.0241398 0.0577401
0.645594 0.0242313 0.0577401
0.646601 0.0244602 0.0581521
0.647822 0.0246281 0.0584421
0.649226 0.0247196 0.057969
0.650706 0.024918 0.0576791
0.652293 0.0252537 0.0574197
0.653941 0.0255436 0.0571908
0.655161 0.0259098 0.0570993
0.657771 0.0272831 0.057496
0.659373 0.0282597 0.0576028
0.661021 0.029221 0.0576791
0.663584 0.0308995 0.0589456
0.666316 0.0327916 0.0600137
0.669306 0.0355688 0.0606546
0.671489 0.0380255 0.0606394
0.673991 0.0407416 0.0612192
0.676936 0.0440986 0.0617227
0.680537 0.0475013 0.0625315
0.683726 0.0508125 0.0624857
0.686732 0.0535286 0.062974
0.690806 0.0563821 0.063447
0.694728 0.0603799 0.0637522
0.0243229 0.104555 0.0361181
0.0236515 0.104265 0.0352178
0.02327 0.104097 0.0350805
0.022858 0.103227 0.0347295
0.0225681 0.102846 0.0345769
0.0225528 0.102235 0.0346685
0.0255741 0.101167 0.0356146
0.030045 0.099794 0.0363012
0.0352178 0.098085 0.0371252
0.0453346 0.096849 0.0392004
0.0633097 0.0965896 0.0402686
0.0818494 0.0972152 0.0369116
0.101366 0.0953689 0.0363165
0.128923 0.0948196 0.0367895
0.161807 0.0889143 0.0388647
0.195651 0.0817884 0.0379187
0.228153 0.0769207 0.0345006
0.257572 0.0711223 0.0319829
0.285451 0.0662089 0.0299229
0.312627 0.0608225 0.0286717
0.338064 0.0547341 0.0273136
0.363622 0.0482948 0.0265507
0.389578 0.0426795 0.0288701
0.415915 0.0361334 0.0289769
0.445029 0.0293278 0.0291447
0.47425 0.0252995 0.0299077
0.500633 0.0191043 0.0297093
0.52929 0.0171969 0.0324102
0.558434 0.0175631 0.0362249
0.586252 0.0188449 0.0410315
0.612207 0.020325 0.0475166
0.634455 0.0229343 0.0551919
0.646418 0.0242924 0.0595407
0.646403 0.0242771 0.0601205
0.646494 0.0243076 0.0608988
0.646616 0.0243534 0.0614786
0.646891 0.0243992 0.0615091
0.646662 0.0243839 0.060502
0.646815 0.0244297 0.0593729
0.647242 0.024506 0.0586862
0.647944 0.0245823 0.0583047
0.648615 0.0246586 0.0582284
0.649622 0.0247044 0.0581674
0.65066 0.0248722 0.0578927
0.651713 0.0251011 0.0576791
0.653346 0.0253758 0.0573739
0.654521 0.0256504 0.0572061
0.655818 0.0259556 0.0570535
0.658198 0.0273289 0.0575265
0.65951 0.0282139 0.0576028
0.661112 0.0291295 0.0576638
0.663325 0.0305028 0.0586709
0.665797 0.0317388 0.0595102
0.669154 0.0342107 0.0605478
0.670909 0.0358129 0.0607919
0.672648 0.0377356 0.0608072
0.675258 0.0397955 0.0612955
0.678096 0.0430457 0.0621958
0.681331 0.0465553 0.062562
0.684321 0.0503395 0.0626841
0.687144 0.0535897 0.0630961
0.690684 0.0565652 0.0634623
0.69398 0.0605478 0.0637369
0.697292 0.0647746 0.0632639
0.70161 0.069398 0.0638285
0.0246891 0.121614 0.0372931
0.0243229 0.121492 0.0364233
0.024033 0.120867 0.035874
0.024094 0.12076 0.0359655
0.0242618 0.120317 0.0362249
0.0242771 0.119936 0.036347
0.0247807 0.119081 0.0362402
0.0289921 0.117906 0.0370336
0.0346685 0.116869 0.0379492
0.0421149 0.114565 0.0395666
0.0560616 0.114199 0.0415351
0.078294 0.113756 0.0415045
0.0995346 0.114656 0.0362249
0.121645 0.112154 0.0364233
0.154238 0.11162 0.0362707
0.197757 0.105379 0.0403143
0.230411 0.0993515 0.0413977
0.265446 0.0927291 0.0392309
0.297704 0.0876936 0.0373541
0.326711 0.0815442 0.035172
0.354406 0.0767834 0.0343023
0.37911 0.0699626 0.0328832
0.403113 0.0620432 0.0314336
0.426169 0.0533608 0.0298772
0.452613 0.0458534 0.0322423
0.476585 0.0340124 0.0319219
0.50309 0.0248112 0.031693
0.530556 0.0193332 0.0323949
0.559564 0.0198672 0.0362402
0.587549 0.0212558 0.0407263
0.613916 0.0214389 0.0463722
0.636164 0.0229496 0.0536355
0.651087 0.0248722 0.0598459
0.651118 0.0248722 0.0604715
0.651713 0.0249485 0.0612802
0.652247 0.0250248 0.0619211
0.652689 0.0251011 0.0620432
0.653117 0.0251774 0.0614328
0.653025 0.0251774 0.0602121
0.652842 0.0251926 0.0590066
0.653635 0.0253452 0.0578164
0.654368 0.0255436 0.0572976
0.655344 0.0258335 0.0570687
0.656306 0.0261845 0.0570993
0.657893 0.0269017 0.0573892
0.659419 0.0280308 0.0576333
0.660456 0.0286107 0.057557
0.662257 0.0298924 0.0579995
0.664302 0.0309148 0.0589151
0.666819 0.0322423 0.0597696
0.669474 0.0344244 0.0606088
