bundles/resolve-cinematic-luts/Phantom Luts/Komodo Phantom FILM LUTs G2/Komodo Phantom FILM LUTs G2/65x/Standard (No WB Offset)/Vision_Komodo_Legacy_G2_65x.cube
TITLE "Generated by Resolve"
LUT_3D_SIZE 65
0.0360266 0.0486763 0.0390173
0.0360418 0.048661 0.0390326
0.0360418 0.048661 0.0390326
0.0360418 0.048661 0.0390631
0.0361334 0.048661 0.0390784
0.0375372 0.0487984 0.039292
0.0401007 0.0490578 0.0395514
0.0420539 0.0494392 0.0387274
0.0476692 0.0491951 0.0362097
0.0547494 0.0484016 0.0353399
0.0617838 0.0469368 0.0355077
0.0711986 0.0462654 0.0357671
0.0830243 0.0453193 0.0359045
0.0962692 0.0442512 0.0354314
0.111925 0.0431678 0.0345006
0.128862 0.0432136 0.0343938
0.147845 0.0427405 0.033463
0.172519 0.0419928 0.0324254
0.19646 0.0415961 0.0316472
0.222766 0.0422217 0.0317082
0.250706 0.04271 0.0322728
0.278386 0.043183 0.0323491
0.312352 0.043595 0.0343481
0.343984 0.0432746 0.0346075
0.376974 0.0427253 0.0350652
0.412741 0.0425727 0.0365301
0.446586 0.0419928 0.0386816
0.47953 0.0404364 0.0408026
0.512139 0.0407874 0.0440833
0.548379 0.0504311 0.0510109
0.584253 0.0608377 0.0608682
0.60943 0.066804 0.065568
0.622141 0.0676127 0.0683299
0.624781 0.0652171 0.0696727
0.627222 0.0630655 0.0712444
0.628122 0.0601968 0.07187
0.629206 0.0579995 0.0724346
0.630259 0.0560616 0.0733501
0.631022 0.0547951 0.0737469
0.631479 0.0534218 0.0739147
0.631113 0.0529793 0.0737316
0.630838 0.052781 0.0736095
0.630716 0.054078 0.0736248
0.631601 0.0547189 0.0738384
0.630777 0.0559854 0.0733959
0.629572 0.057435 0.072694
0.628016 0.0590982 0.0719158
0.626993 0.061799 0.0713512
0.62504 0.0648508 0.0699779
0.623377 0.067155 0.068864
0.622248 0.0690166 0.0681926
0.620401 0.0708019 0.067155
0.617533 0.072221 0.0660716
0.614359 0.0745098 0.064332
0.612741 0.075761 0.0632792
0.612253 0.0764477 0.0629892
0.611505 0.0773175 0.0628367
0.610269 0.0782025 0.0623026
0.609354 0.0790417 0.0619059
0.612161 0.0797131 0.0621347
0.614496 0.0805524 0.0628367
0.617792 0.0813153 0.0634775
0.620813 0.0819104 0.0638437
0.62298 0.0820783 0.0639048
0.626368 0.0823377 0.0640421
0.035996 0.0486915 0.0387579
0.0360113 0.0486763 0.0388952
0.0360266 0.0486763 0.0389868
0.0360418 0.048661 0.0390631
0.0361639 0.048661 0.0390936
0.0379644 0.0489052 0.0394446
0.0405127 0.0491798 0.0396277
0.0427558 0.049546 0.0382239
0.0493477 0.0491493 0.0359045
0.0560616 0.048127 0.0355077
0.0631876 0.0469825 0.0355535
0.0733349 0.0463722 0.0360723
0.0850843 0.0451667 0.0357977
0.0995346 0.043946 0.0352026
0.114809 0.0433967 0.0345617
0.131624 0.0429847 0.0340581
0.152331 0.0429389 0.0334783
0.176699 0.0420386 0.0323491
0.20058 0.0417334 0.0316472
0.226917 0.0419776 0.0314488
0.253819 0.0427405 0.0318761
0.283452 0.0433661 0.0327306
0.315084 0.043473 0.0340734
0.347402 0.043061 0.0340887
0.379965 0.0428779 0.0345617
0.414206 0.0430457 0.0360113
0.447517 0.0423743 0.0382544
0.478874 0.0419165 0.0398413
0.516365 0.049958 0.0462043
0.550744 0.0568551 0.0525978
0.582269 0.0648814 0.059266
0.608774 0.0699168 0.0645457
0.619928 0.0708324 0.0671092
0.622354 0.0696574 0.0683757
0.623652 0.0669871 0.0687877
0.625895 0.0647288 0.0696117
0.627649 0.0634165 0.0704662
0.628336 0.061799 0.0711681
0.628626 0.0605478 0.071519
0.629129 0.059266 0.0717784
0.628962 0.0593423 0.0717327
0.628748 0.0598306 0.0716411
0.628504 0.0604868 0.0714733
0.628687 0.0612192 0.0712749
0.628092 0.0621042 0.0708324
0.626535 0.0637827 0.0697948
0.624537 0.0653391 0.0688487
0.622736 0.0684215 0.0680705
0.621866 0.0704509 0.0674754
0.619791 0.0712139 0.0668498
0.616861 0.0729839 0.065568
0.614282 0.0745708 0.0642863
0.612329 0.0757 0.0632029
0.611887 0.0764172 0.0629282
0.611612 0.0771801 0.0628672
0.610803 0.0779736 0.062501
0.60972 0.0787671 0.0620432
0.610971 0.0795453 0.0621347
0.613413 0.0800641 0.0623484
0.615747 0.0808881 0.0631876
0.618845 0.0816815 0.0637369
0.621515 0.0819409 0.0638285
0.623224 0.0821851 0.0639658
0.626398 0.0825818 0.0641642
0.630213 0.0830243 0.0645304
0.035996 0.0486915 0.0387732
0.0360113 0.0486763 0.0389105
0.0360266 0.048661 0.0390021
0.0360418 0.048661 0.0390784
0.0361334 0.048661 0.0391241
0.0377661 0.0489357 0.0394446
0.0405127 0.0492561 0.0397345
0.0426642 0.0496529 0.0383459
0.0493324 0.0493477 0.0361028
0.0561227 0.0482643 0.0353857
0.0635538 0.0471809 0.0355535
0.0742657 0.0466163 0.0362097
0.0858625 0.0453651 0.0358129
0.10045 0.0442664 0.0352941
0.115892 0.0436103 0.0345769
0.133745 0.0432136 0.0341344
0.153979 0.0429847 0.0333257
0.178531 0.0423133 0.0323491
0.203525 0.0421454 0.0317845
0.228962 0.0422522 0.0314336
0.257115 0.0431678 0.0320745
0.28571 0.0433661 0.0326238
0.317418 0.043534 0.033875
0.34995 0.043473 0.034226
0.382422 0.0429999 0.0348516
0.415366 0.0435492 0.0358434
0.446113 0.043595 0.0369879
0.477943 0.0431983 0.0386969
0.516167 0.0528878 0.0460517
0.550668 0.0612192 0.0528267
0.580255 0.0671092 0.0579995
0.60177 0.0728313 0.0617685
0.615122 0.0733806 0.0649424
0.618418 0.0720684 0.066331
0.620844 0.0707103 0.0671092
0.622385 0.0696574 0.0678874
0.623423 0.0683757 0.0679332
0.624628 0.0667735 0.0683146
0.62501 0.065568 0.0686351
0.62536 0.0654002 0.0686961
0.62565 0.0653697 0.0687114
0.625742 0.0658274 0.0686351
0.624826 0.0659495 0.068513
0.623713 0.0664836 0.0680705
0.622568 0.0675822 0.0675669
0.622339 0.0695201 0.0673533
0.621118 0.0709239 0.0665293
0.619242 0.0719768 0.0656901
0.616556 0.0734569 0.0648203
0.613947 0.0748455 0.0639963
0.612055 0.0756542 0.0631723
0.611337 0.0764782 0.0628519
0.611353 0.0772412 0.0628367
0.611002 0.0778668 0.062562
0.61033 0.0785992 0.062211
0.6103 0.0793622 0.0620737
0.612726 0.0798657 0.0621653
0.614649 0.0805982 0.0628977
0.617594 0.0812695 0.0634318
0.620356 0.0818647 0.0638285
0.622019 0.0819867 0.0638437
0.624063 0.0823072 0.0640269
0.626841 0.0826886 0.0642252
0.630106 0.0832837 0.064683
0.633616 0.084184 0.0651408
0.035996 0.0486915 0.0387884
0.0360113 0.0486763 0.0389258
0.0360418 0.048661 0.0390326
0.0360418 0.048661 0.0390936
0.0360571 0.0486458 0.0391394
0.0370031 0.0488899 0.0393225
0.0401312 0.0493629 0.0397955
0.0422675 0.0497902 0.038819
0.0482185 0.0497139 0.036347
0.0558328 0.0485084 0.0352636
0.0632334 0.0475013 0.0354925
0.0742351 0.047013 0.0362554
0.0860304 0.0457618 0.0359655
0.100542 0.0446021 0.0353399
0.116609 0.0440528 0.0347295
0.134478 0.0436866 0.0343175
0.1552 0.0432898 0.033341
0.180301 0.0425574 0.0322423
0.204562 0.0424964 0.0318151
0.230976 0.0428473 0.031754
0.258305 0.043473 0.0321202
0.287358 0.0436713 0.0327001
0.319265 0.044007 0.0338903
0.350744 0.0444495 0.0344244
0.383551 0.0438087 0.0347906
0.416007 0.0438392 0.035523
0.449317 0.0438544 0.0374609
0.480079 0.0435492 0.0389868
0.515297 0.0565194 0.0456703
0.548592 0.0635538 0.0511788
0.578607 0.0688029 0.0569162
0.599786 0.0742046 0.0608682
0.611322 0.0746166 0.0632486
0.613733 0.074403 0.0640421
0.6159 0.0737011 0.0647898
0.618112 0.0724498 0.0654917
0.619928 0.0714427 0.06598
0.621149 0.0706951 0.0666361
0.621637 0.0703136 0.0668956
0.621927 0.0704662 0.0667887
0.622156 0.0702831 0.0669566
0.621759 0.0703593 0.0668498
0.621164 0.0704356 0.0667582
0.620233 0.0713207 0.0658274
0.618982 0.0725414 0.065095
0.61738 0.0731365 0.0644541
0.615473 0.0739605 0.0639658
0.613764 0.0747387 0.0632334
0.611933 0.0755932 0.0626535
0.611078 0.0764477 0.0625467
0.611261 0.0772106 0.0627298
0.610956 0.0779278 0.0625315
0.610727 0.0785382 0.0622873
0.610132 0.0793011 0.0620432
0.612284 0.0797284 0.06215
0.614206 0.0803998 0.0626993
0.616434 0.0810101 0.0632792
0.61912 0.0817273 0.0637675
0.621408 0.0819409 0.0638437
0.622827 0.0820935 0.06392
0.625177 0.0823835 0.0640421
0.628031 0.082887 0.0643931
0.630503 0.0836194 0.0648966
0.633646 0.0845655 0.0653544
0.637156 0.0855573 0.0660258
0.0360266 0.0487373 0.03888
0.0360571 0.0487373 0.0390326
0.0360571 0.0487068 0.0391241
0.0360571 0.0486763 0.0391546
0.0360571 0.0486458 0.0391394
0.036347 0.0487526 0.0392767
0.0386969 0.049546 0.0399176
0.0412451 0.0499886 0.0397498
0.0451362 0.050248 0.037171
0.0550088 0.0488594 0.0350347
0.062211 0.0479438 0.0353704
0.0734569 0.0475319 0.0362402
0.0857099 0.0463111 0.0361028
0.100038 0.0451209 0.0353399
0.116503 0.0446021 0.0348211
0.134752 0.0441749 0.0343938
0.156054 0.0438544 0.0334936
0.180606 0.0431067 0.0322576
0.205158 0.0431525 0.0319219
0.231388 0.0436561 0.0319829
0.258976 0.0441138 0.0321508
0.288792 0.0441596 0.0327764
0.320134 0.0445869 0.0340276
0.352392 0.045304 0.0346838
0.385122 0.0447242 0.0350195
0.419013 0.0446784 0.035935
0.450355 0.0445258 0.0373083
0.479988 0.0448005 0.0386358
0.518242 0.0578317 0.0465095
0.55079 0.0643626 0.0517586
0.577111 0.0704051 0.0562753
0.597742 0.0754101 0.0597086
0.606897 0.0758679 0.062211
0.60972 0.0754559 0.0627604
0.611811 0.0749676 0.063035
0.613489 0.0744793 0.0634165
0.614313 0.0741588 0.0638132
0.615518 0.0738231 0.0640116
0.616251 0.0735485 0.0641337
0.616617 0.0734112 0.06421
0.616403 0.073579 0.0641489
0.615991 0.0737621 0.0640421
0.615412 0.0743114 0.063798
0.614435 0.0746166 0.0634318
0.613703 0.074815 0.0630045
0.61265 0.0750896 0.062623
0.610544 0.0760357 0.0620584
0.610681 0.0765545 0.0619669
0.611963 0.0769513 0.06215
0.612253 0.0775464 0.0622263
0.611841 0.0783093 0.0621805
0.611048 0.0791638 0.06215
0.612329 0.0797284 0.06215
0.613977 0.0803082 0.0626078
0.615976 0.0809186 0.0632181
0.618479 0.0815747 0.0636454
0.620783 0.0819104 0.0638437
0.622171 0.082002 0.0638437
0.62388 0.0823072 0.0640116
0.626261 0.0826276 0.0641947
0.628824 0.0830549 0.0645304
0.63122 0.0839704 0.0651408
0.634012 0.0848707 0.065568
0.637034 0.0859083 0.0662089
0.640879 0.0870222 0.0668345
0.0363165 0.0506752 0.0395361
0.0363775 0.0504768 0.0396887
0.0364385 0.050248 0.039765
0.0366217 0.0499886 0.039826
0.0368353 0.049485 0.0397955
0.0367742 0.0492103 0.0397498
0.0376898 0.0497597 0.0399176
0.0404059 0.0504005 0.0401007
0.0427863 0.0509651 0.038941
0.0513466 0.0500343 0.0353857
0.0604257 0.0486458 0.0356451
0.0719158 0.0481117 0.0360418
0.0843214 0.0471351 0.0363775
0.0988174 0.0457923 0.0354467
0.11577 0.0453193 0.0349584
0.133883 0.0449836 0.0344854
0.155215 0.0446937 0.033814
0.180774 0.0435798 0.0323186
0.205768 0.0438849 0.0321202
0.233066 0.0442206 0.032166
0.259907 0.0448005 0.0323949
0.289265 0.0446632 0.0327916
0.321569 0.0449989 0.0340429
0.352758 0.0457923 0.0346532
0.386877 0.045594 0.0353246
0.420462 0.0456092 0.0363928
0.45156 0.0455787 0.0378882
0.482033 0.0451972 0.0387427
0.519219 0.0584115 0.0464332
0.551583 0.0654002 0.0517586
0.579187 0.0712749 0.0563516
0.600748 0.0762951 0.0604715
0.607004 0.077409 0.0619821
0.606119 0.0770275 0.0616159
0.606867 0.0765545 0.0619059
0.609506 0.0757458 0.0622721
0.611093 0.0753948 0.0624704
0.611337 0.0752422 0.0623941
0.611963 0.0750591 0.0624247
0.612055 0.0750896 0.0624247
0.612558 0.0751965 0.0625772
0.612726 0.0753643 0.0626078
0.611811 0.0757916 0.0622416
0.61059 0.076173 0.0619974
0.608957 0.0766766 0.0616617
0.609308 0.0770886 0.0616159
0.611307 0.0773327 0.0619059
0.612589 0.0775311 0.0620432
0.613077 0.0780652 0.0620584
0.613199 0.0786755 0.0621347
0.613703 0.0792859 0.0621653
0.614664 0.0801251 0.0626078
0.616266 0.080827 0.0631571
0.618189 0.0814984 0.0635843
0.620584 0.0818952 0.0638285
0.621897 0.0819715 0.0638285
0.623194 0.0822003 0.0639506
0.625589 0.0824445 0.0640421
0.627939 0.082887 0.0643626
0.629999 0.0833448 0.0647288
0.632242 0.0842756 0.0652171
0.635142 0.0853132 0.0658274
0.637537 0.0862745 0.0664225
0.640909 0.0874189 0.0669871
0.64358 0.0878004 0.0666514
0.035996 0.0543526 0.039704
0.0359503 0.0541085 0.0397345
0.0359808 0.0539864 0.0397803
0.0361639 0.053727 0.039826
0.0365454 0.0534829 0.0398718
0.0372015 0.0530861 0.0400397
0.038468 0.0527504 0.040116
0.0400549 0.0531014 0.0401617
0.0423438 0.0536355 0.0401007
0.046952 0.0535897 0.0373236
0.0588083 0.0521096 0.0352483
0.0685435 0.0495155 0.0360876
0.0814679 0.0484016 0.0362707
0.0968032 0.0467536 0.0356909
0.114351 0.0462501 0.0352331
0.132433 0.0458839 0.034699
0.15433 0.0453956 0.033875
0.180377 0.044358 0.032578
0.206256 0.0446326 0.0323033
0.233494 0.0451362 0.0322576
0.260914 0.0454566 0.0326543
0.290105 0.0451514 0.0329442
0.320806 0.0458381 0.0335241
0.354894 0.0463111 0.0348516
0.388785 0.046479 0.0356298
0.421271 0.0464942 0.0366674
0.452918 0.0465248 0.0382086
0.483558 0.0461585 0.0391394
0.519417 0.0561227 0.0454566
0.553338 0.066041 0.0520943
0.582055 0.0719005 0.0570687
0.602914 0.0768139 0.0606546
0.606653 0.0782788 0.0614633
0.605966 0.0778058 0.0610208
0.607187 0.0775158 0.061677
0.608454 0.0771344 0.061738
0.607446 0.0770886 0.061387
0.606821 0.0770428 0.0611429
0.608865 0.0768444 0.0615702
0.610269 0.0767071 0.0618296
0.610422 0.0768292 0.0618143
0.609888 0.0771496 0.061677
0.608347 0.0774243 0.0611734
0.608927 0.0776684 0.061265
0.610651 0.0778515 0.0616922
0.61268 0.0780957 0.0619211
0.613809 0.0784466 0.0621653
0.61416 0.0789197 0.0621958
0.615183 0.0793317 0.0622873
0.616999 0.0798505 0.0626078
0.618662 0.0804608 0.0630808
0.62031 0.0810559 0.0634928
0.621668 0.0816358 0.0637827
0.622324 0.0819104 0.0638285
0.623224 0.0822003 0.0639506
0.625605 0.0824445 0.0640421
0.627665 0.0828412 0.0643168
0.629709 0.0832532 0.0646982
0.631769 0.0840925 0.0652018
0.634165 0.084947 0.0656291
0.636545 0.0858473 0.0661631
0.638865 0.0868849 0.066804
0.641794 0.0877241 0.0669718
0.643931 0.0881056 0.0666209
0.647456 0.0891432 0.066743
0.0364233 0.0593271 0.0405432
0.0365148 0.0592203 0.0407721
0.0365911 0.0589303 0.0408789
0.0366522 0.0587625 0.04094
0.0371557 0.0581674 0.04094
0.0379492 0.0575723 0.0411994
0.0393683 0.057023 0.0413062
0.0415198 0.0572518 0.0415961
0.0436866 0.0578775 0.0419471
0.0471962 0.0580758 0.0405737
0.0583963 0.0569009 0.0370642
0.0688029 0.0547189 0.0369879
0.0803693 0.052491 0.0363928
0.0940414 0.0501411 0.0364538
0.111543 0.0482948 0.0354772
0.130846 0.0471046 0.0347448
0.152773 0.0462196 0.0341192
0.17937 0.0455024 0.032929
0.205753 0.0454566 0.0323491
0.233326 0.0460517 0.0323949
0.261311 0.0460975 0.0328374
0.290272 0.0458991 0.0330968
0.322072 0.0462806 0.0335851
0.35613 0.0471351 0.0351415
0.3897 0.0479591 0.0360876
0.421927 0.0476081 0.0369421
0.453437 0.0474098 0.0383154
0.484916 0.0470283 0.0395056
0.516121 0.0482185 0.0413367
0.555489 0.0664683 0.0523079
0.583886 0.0722362 0.0572518
0.6056 0.0771954 0.0609598
0.611734 0.079118 0.0620584
0.611658 0.0790265 0.0620279
0.609293 0.0783856 0.0616464
0.609384 0.0782483 0.0615244
0.609537 0.0780957 0.0614481
0.610254 0.0779736 0.0616159
0.610697 0.0779431 0.0616617
0.611002 0.0779583 0.061677
0.610788 0.0781415 0.0615854
0.61178 0.0782483 0.061677
0.612726 0.0785077 0.0618753
0.613825 0.0788128 0.062089
0.614664 0.0791028 0.0622721
0.615839 0.0794232 0.0623484
0.617395 0.0798352 0.0626535
0.619043 0.0803082 0.0630045
0.620935 0.0806897 0.0633402
0.622446 0.0810864 0.0636759
0.623255 0.0813306 0.0638132
0.624369 0.0814984 0.0637522
0.625818 0.0818341 0.063798
0.626902 0.0823377 0.0640116
0.628611 0.0828565 0.0643778
0.630076 0.0833295 0.0647288
0.631952 0.0841535 0.0652171
0.634272 0.0849928 0.0656596
0.636378 0.0858015 0.0661326
0.638605 0.086717 0.0667124
0.641108 0.0875715 0.0670176
0.643107 0.088014 0.0667277
0.645396 0.0887465 0.0667735
0.648386 0.0898146 0.0668803
0.651942 0.0910201 0.0670634
0.0363775 0.0645457 0.0412604
0.0364233 0.064271 0.0413672
0.0364843 0.0641337 0.041474
0.0365454 0.06392 0.0415503
0.0367895 0.0636149 0.0416114
0.0378271 0.0630961 0.0417945
0.0394903 0.0622568 0.0420691
0.0408637 0.0619974 0.0422065
0.043946 0.0623789 0.042237
0.0474098 0.0630808 0.0421454
0.054612 0.0633402 0.0397192
0.0706798 0.0608225 0.0370642
0.0818952 0.0582437 0.0384527
0.0948043 0.05626 0.0382086
0.111406 0.053727 0.0366064
0.130541 0.0515908 0.0352331
0.151598 0.0493782 0.0345922
0.177371 0.0470283 0.0329747
0.204852 0.0465095 0.0324559
0.232547 0.046891 0.0326543
0.261067 0.046952 0.0330816
0.291081 0.0469673 0.0334478
0.322728 0.0472725 0.0337224
0.356207 0.047776 0.0352026
0.390402 0.0492561 0.0363928
0.422858 0.0491798 0.0375677
0.454292 0.0486915 0.038468
0.486244 0.0485237 0.0398108
0.517601 0.0492866 0.0417945
0.558068 0.0672313 0.0526741
0.587716 0.0721599 0.0572976
0.610193 0.0773632 0.0614939
0.617533 0.0795911 0.0625315
0.617029 0.0794537 0.0623331
0.61735 0.0792401 0.0623941
0.615671 0.0787366 0.06215
0.615824 0.0786297 0.0621347
0.615732 0.0786603 0.0621347
0.615488 0.0788739 0.0621653
0.61529 0.0791638 0.062211
0.615564 0.07953 0.0623789
0.616281 0.079881 0.0626383
0.617197 0.0801251 0.0628367
0.61828 0.0805219 0.0631266
0.619745 0.0808576 0.063386
0.621241 0.0811933 0.0636149
0.622278 0.0814221 0.0637675
0.62298 0.081529 0.0638132
0.624109 0.0816663 0.0638132
0.625528 0.0817578 0.0637675
0.626902 0.0820935 0.0638895
0.628733 0.0824445 0.0641184
0.630228 0.0828412 0.0644083
0.631983 0.0835889 0.0649119
0.633539 0.0842298 0.0651713
0.635279 0.0851759 0.0657664
0.637186 0.0860914 0.0663157
0.639063 0.0869764 0.066865
0.64152 0.0876478 0.0670176
0.643122 0.0879988 0.066743
0.645335 0.0887007 0.066743
0.647517 0.0897383 0.0669261
0.649866 0.0907759 0.0670787
0.653544 0.0925154 0.0674907
0.656947 0.0941634 0.0676585
0.0368963 0.0715496 0.0423743
0.0368811 0.0714885 0.0423896
0.0368658 0.0711223 0.0423896
0.0368048 0.0707408 0.0423285
0.0368048 0.0703288 0.0422827
0.0377356 0.0698405 0.0424964
0.0395361 0.0691386 0.0427558
0.0410163 0.0683146 0.0432746
0.0432898 0.0684672 0.043122
0.0478676 0.0695506 0.0431067
0.0524147 0.0696422 0.041886
0.0708629 0.0686503 0.0375982
0.0843824 0.0654917 0.0393378
0.0966354 0.0627298 0.0396735
0.113146 0.0602274 0.0399176
0.131548 0.0577859 0.0380255
0.152499 0.0551461 0.0355535
0.178103 0.0519875 0.0335393
0.204257 0.0495308 0.0323491
0.231296 0.0486763 0.0328069
0.260334 0.0480507 0.0331579
0.290898 0.0478218 0.0333867
0.322255 0.0480812 0.0339361
0.355581 0.0489509 0.0345464
0.3906 0.0502785 0.0363928
0.42359 0.0511635 0.0378271
0.455299 0.0506294 0.0389868
0.487297 0.0501869 0.0401312
0.519356 0.051606 0.0424659
0.55906 0.0679637 0.0529641
0.58909 0.0732738 0.0576486
0.61355 0.0783246 0.0620127
0.622675 0.0809186 0.0635996
0.62269 0.0806897 0.0635691
0.622827 0.0806134 0.0635233
0.621729 0.0800946 0.0630503
0.621698 0.0800031 0.0629892
0.621714 0.0800946 0.063035
0.621744 0.0803082 0.0631723
0.621759 0.0806287 0.063386
0.622019 0.0809644 0.0635996
0.62237 0.0812238 0.0637369
0.622934 0.0814221 0.063798
0.62327 0.0815442 0.0638132
0.624186 0.08159 0.0637827
0.625574 0.0816663 0.0637522
0.626413 0.0819409 0.063859
0.627894 0.0822003 0.0639353
0.629404 0.0825208 0.0641642
0.63061 0.0828412 0.0644083
0.632517 0.0833295 0.064744
0.634104 0.0838483 0.0649882
0.636149 0.0845197 0.0653849
0.637934 0.0853437 0.0659342
0.639612 0.0862593 0.066453
0.64152 0.0871595 0.0668956
0.642863 0.0876936 0.0668345
0.644053 0.0881361 0.0666209
0.646097 0.0889906 0.0667887
0.648157 0.0899519 0.0669108
0.650309 0.090959 0.0671702
0.653315 0.0925154 0.0675212
0.656016 0.0941939 0.0678111
0.658732 0.095079 0.0675212
0.661677 0.0961929 0.0670329
0.0373541 0.0799725 0.044358
0.0371862 0.0797131 0.0439307
0.0371405 0.0794842 0.0438697
0.0371099 0.0793011 0.0437934
0.0372015 0.0790112 0.0438392
0.0377508 0.0787213 0.0440375
0.0394293 0.0780194 0.0443275
0.0409552 0.0769818 0.0446479
0.0429999 0.0756085 0.0449531
0.0471351 0.0764477 0.0448005
0.0524758 0.077821 0.0440223
0.0613413 0.0772259 0.0407111
0.0855879 0.0758526 0.0359503
0.0996262 0.0713512 0.0411078
0.115892 0.0691844 0.0415045
0.133913 0.0664225 0.0419013
0.156344 0.0622263 0.0393072
0.182345 0.0587167 0.036759
0.207156 0.055787 0.0348363
0.2336 0.0526741 0.0330205
0.260212 0.0508431 0.0331273
0.28983 0.0496529 0.0336614
0.321462 0.0492561 0.0343786
0.3552 0.0499428 0.034638
0.390082 0.0510109 0.0360571
0.424079 0.0527047 0.0378271
0.456199 0.0525063 0.0392157
0.489204 0.0523384 0.0404974
0.521981 0.0547036 0.0439307
0.560754 0.0691539 0.0532692
0.59118 0.0742962 0.0581064
0.616159 0.0793774 0.0623331
0.626856 0.0813306 0.0637064
0.626719 0.0812085 0.0636301
0.627176 0.0810712 0.0636301
0.627634 0.0809339 0.0636149
0.626551 0.0808118 0.0635691
0.626719 0.0808728 0.0635843
0.626581 0.0810254 0.0636454
0.626551 0.0812848 0.0636759
0.62652 0.08159 0.0637675
0.627024 0.0818189 0.0638437
0.627695 0.0820478 0.0638743
0.628412 0.0822461 0.0639353
0.629725 0.0826123 0.0641642
0.630549 0.0828412 0.064332
0.631785 0.0831464 0.0645457
0.633646 0.0835431 0.0648814
0.635065 0.0839857 0.0651102
0.636927 0.0846876 0.065507
0.638544 0.0854353 0.0660105
0.640452 0.0861067 0.0663462
0.642527 0.0868086 0.0667124
0.643961 0.0873121 0.066743
0.645274 0.0876936 0.0664073
0.646799 0.0885481 0.0665904
0.6486 0.0894179 0.0667735
0.650126 0.0903487 0.0669566
0.652491 0.0915847 0.0673838
0.654856 0.0933089 0.0677653
0.656947 0.0944991 0.0677958
0.658976 0.0953536 0.0674144
0.661158 0.0963149 0.0671244
0.663722 0.0971237 0.0667124
0.666987 0.0976883 0.0659953
0.0381933 0.0907607 0.0467689
0.0380255 0.0905318 0.0463722
0.037995 0.0903639 0.0463264
0.0379797 0.0898604 0.0462348
0.0379187 0.0895399 0.0461433
0.0378882 0.0888075 0.0460059
0.0392309 0.0883192 0.0463264
0.0411383 0.0876936 0.0467079
0.0427558 0.0864118 0.0468147
0.0466163 0.0861677 0.0472114
0.0519722 0.0874189 0.0474403
0.0596323 0.0885023 0.0455329
0.0751202 0.0874495 0.0405585
0.101106 0.0857557 0.0366217
0.119936 0.079942 0.0429541
0.137652 0.0767681 0.043061
0.161151 0.0719768 0.0431983
0.188632 0.0668803 0.0403143
0.214496 0.063508 0.0385901
0.239963 0.0595407 0.0365911
0.265721 0.0569162 0.0350652
0.292927 0.0537575 0.0337072
0.322667 0.0525673 0.0338903
0.353643 0.0517281 0.0341039
0.3879 0.052369 0.035172
0.424048 0.0538643 0.0380255
0.457679 0.0550393 0.039765
0.490425 0.0546731 0.0411078
0.522896 0.0543374 0.0434577
0.556924 0.0608072 0.0485237
0.592706 0.0752728 0.0580911
0.619257 0.080766 0.0628824
0.631495 0.0826429 0.0642557
0.631403 0.0825513 0.0641337
0.6318 0.0823682 0.0641184
0.632273 0.0821546 0.0641031
0.633082 0.0820935 0.0641489
0.633417 0.0822003 0.0642405
0.632227 0.0822461 0.0641794
0.632029 0.0826581 0.0642557
0.632197 0.0830091 0.0643931
0.632883 0.0833295 0.0645762
0.633524 0.0835279 0.0647288
0.634165 0.0837415 0.0648966
0.635523 0.0841077 0.0651408
0.637095 0.0846571 0.0654765
0.63856 0.0853285 0.0659648
0.640314 0.0859541 0.0662699
0.6421 0.0865492 0.0665904
0.643412 0.0870375 0.0667582
0.644831 0.0873274 0.0665141
0.646036 0.0878004 0.0663005
0.64799 0.0885786 0.0664836
0.649775 0.0893263 0.0666819
0.651637 0.0901656 0.066804
0.653941 0.0912032 0.0670481
0.655772 0.0927443 0.0674754
0.657572 0.0940414 0.0676127
0.659159 0.0948806 0.0674601
0.660471 0.0957351 0.0670329
0.662654 0.0966812 0.0668345
0.664714 0.0973526 0.0664683
0.667048 0.0979477 0.065919
0.669932 0.0989853 0.0655528
0.673579 0.0996872 0.065156
0.0394751 0.102617 0.049546
0.0394293 0.10248 0.0489662
0.0392309 0.101808 0.0485542
0.0392004 0.101671 0.0485237
0.0391699 0.101076 0.0484474
0.0391699 0.100725 0.0484321
0.0394751 0.100267 0.0484474
0.0413214 0.0998093 0.0487373
0.043122 0.0993515 0.0487831
0.046128 0.0978714 0.0491493
0.0514687 0.0986038 0.0497444
0.0572061 0.0994888 0.049073
0.0691691 0.100755 0.0459144
0.0930953 0.0993362 0.0403906
0.120089 0.0955825 0.0382696
0.14284 0.0900282 0.0446021
0.167056 0.0858625 0.0450752
0.192523 0.0809949 0.0453956
0.22034 0.0763561 0.043061
0.247898 0.0716106 0.0411383
0.275395 0.0676585 0.0399176
0.301762 0.0636606 0.0381476
0.328725 0.0604257 0.0358129
0.359091 0.057435 0.034699
0.3897 0.0562753 0.0350195
0.423545 0.0561227 0.0378271
0.457465 0.0572061 0.0399176
0.491951 0.0577859 0.0415045
0.524498 0.0574502 0.0439002
0.557809 0.062211 0.0483406
0.594812 0.0765698 0.0578164
0.621759 0.082002 0.0627604
0.637369 0.084184 0.0651713
0.637369 0.0840314 0.0650492
0.63798 0.0840467 0.0650797
0.638544 0.0841535 0.065156
0.639216 0.0842756 0.0651865
0.639414 0.0843977 0.0652323
0.639323 0.084596 0.0653239
0.638498 0.0845502 0.0654154
0.638865 0.085008 0.0657511
0.63975 0.0855116 0.066041
0.640772 0.0860151 0.0662852
0.641901 0.0864271 0.0664988
0.643061 0.0869001 0.0667277
0.644022 0.0871138 0.0667582
0.645167 0.0873274 0.0664683
0.646189 0.0877852 0.0663005
0.647807 0.0884413 0.0664225
0.649607 0.089189 0.0666209
