bundles/resolve-cinematic-luts/Phantom Luts/Komodo Phantom FILM LUTs G2/Komodo Phantom FILM LUTs G2/65x/Standard (No WB Offset)/VisionTeal_Komodo_Legacy_G2_65x.cube
TITLE "Generated by Resolve"
LUT_3D_SIZE 5
0.0328679 0.049073 0.0471351
0.162936 0.0331579 0.03505
0.613642 0.0508736 0.0631723
0.612421 0.0527504 0.0623484
0.632517 0.0683452 0.064332
0.0348058 0.176577 0.0499886
0.15172 0.177096 0.0479133
0.674388 0.0915999 0.063386
0.685817 0.0942855 0.0671702
0.763836 0.25124 0.112825
0.239139 0.759014 0.272679
0.270085 0.766278 0.239857
0.739834 0.776959 0.246769
0.814343 0.78764 0.291539
0.814054 0.781125 0.283421
0.257206 0.8215 0.376593
0.259541 0.817136 0.360845
0.689479 0.781918 0.297246
0.816022 0.819944 0.359319
0.816175 0.819928 0.359335
0.260533 0.818601 0.374258
0.259937 0.817548 0.363806
0.59234 0.757763 0.291905
0.816373 0.819883 0.359365
0.816434 0.819898 0.359411
0.0203861 0.0670329 0.162341
0.19295 0.0413977 0.18674
0.658976 0.0643931 0.265095
0.654154 0.0558328 0.24303
0.641779 0.0436255 0.166629
0.0219577 0.151232 0.119112
0.15285 0.165728 0.149096
0.622889 0.0498512 0.0660868
0.635203 0.0637675 0.0664378
0.753582 0.206699 0.100313
0.186114 0.755016 0.377829
0.218341 0.727733 0.280446
0.726757 0.764263 0.234974
0.814435 0.773159 0.274968
0.81445 0.772992 0.274815
0.230335 0.845441 0.460883
0.25742 0.821576 0.3785
0.654551 0.772152 0.294835
0.815991 0.819928 0.359365
0.816159 0.819928 0.359335
0.251392 0.83447 0.437858
0.259236 0.820478 0.377157
0.556939 0.7523 0.291707
0.815869 0.819959 0.358633
0.816434 0.819898 0.359411
0.01944 0.146319 0.557214
0.123522 0.13164 0.592004
0.722087 0.11725 0.737392
0.720302 0.120439 0.761898
0.72018 0.119341 0.685649
0.0194553 0.213352 0.564279
0.0193027 0.130388 0.541833
0.716243 0.113634 0.716579
0.723079 0.116228 0.733242
0.710338 0.111513 0.636606
0.0860304 0.706935 0.634089
0.0844282 0.69546 0.624414
0.699718 0.697643 0.669581
0.856046 0.672511 0.635096
0.836728 0.686763 0.542473
0.143038 0.912093 0.740658
0.159792 0.905394 0.708385
0.281529 0.836271 0.471977
0.815686 0.820035 0.354864
0.815564 0.819974 0.357885
0.163378 0.903792 0.703212
0.185687 0.894987 0.670817
0.237751 0.843503 0.458717
0.811307 0.819654 0.347173
0.815579 0.819944 0.358389
0.0194705 0.140871 0.592035
0.164965 0.140551 0.63798
0.720195 0.120546 0.762921
0.720195 0.120546 0.762921
0.720195 0.120546 0.762921
0.0195468 0.218662 0.627039
0.0195621 0.141176 0.596246
0.719326 0.1205 0.762737
0.720195 0.120546 0.76289
0.720195 0.120546 0.762921
0.0210269 0.667277 0.73286
0.0209506 0.653315 0.73019
0.567758 0.549065 0.833875
0.835904 0.54165 0.844404
0.823011 0.502617 0.833844
0.164813 0.912734 0.858351
0.16437 0.912932 0.858549
0.17734 0.92697 0.851759
0.915618 0.928359 0.906828
0.925521 0.916747 0.891386
0.164279 0.912993 0.858534
0.164279 0.912993 0.858534
0.152102 0.919097 0.82208
0.857252 0.929488 0.861692
0.922026 0.933089 0.862318
0.0194705 0.140536 0.594614
0.177554 0.138613 0.638758
0.720195 0.120546 0.762921
0.720195 0.120546 0.762921
0.720195 0.120546 0.762921
0.0193637 0.214191 0.626001
0.0268864 0.142229 0.59942
0.720195 0.120546 0.762921
0.72018 0.120546 0.762905
0.72018 0.120546 0.762905
0.0208286 0.660822 0.731441
0.0210574 0.646464 0.729503
0.558511 0.529534 0.828992
0.82771 0.5178 0.837232
0.815473 0.480171 0.827512
0.164553 0.91284 0.858534
0.16434 0.912963 0.858518
0.155688 0.910277 0.86128
0.895872 0.905226 0.913817
0.926482 0.898497 0.917662
0.164279 0.912993 0.858534
0.164279 0.912993 0.858534
0.164614 0.914748 0.858671
0.575036 0.905867 0.856657
0.935164 0.946029 0.928191
