bundles/resolve-cinematic-luts/Phantom Luts/Komodo Phantom FILM LUTs G2/Komodo Phantom FILM LUTs G2/65x/Standard (No WB Offset)/VisionTeal_Komodo_Legacy_G2_65x.cube
TITLE "Generated by Resolve"
LUT_3D_SIZE 9
0.0328679 0.049073 0.0471351
0.0512551 0.0470436 0.0454871
0.162936 0.0331579 0.03505
0.385367 0.0302129 0.0318456
0.613642 0.0508736 0.0631723
0.617533 0.0373846 0.0686656
0.612421 0.0527504 0.0623484
0.610086 0.0620584 0.0596933
0.632517 0.0683452 0.064332
0.0341802 0.0646677 0.046128
0.0445258 0.0619211 0.0485389
0.16643 0.0448005 0.0358434
0.397024 0.0373693 0.0337377
0.610941 0.0580606 0.060502
0.611978 0.0593881 0.0604105
0.623041 0.063508 0.0628977
0.640223 0.0722972 0.0663767
0.663264 0.0846723 0.0686809
0.0348058 0.176577 0.0499886
0.0339971 0.171527 0.0467689
0.15172 0.177096 0.0479133
0.475685 0.160647 0.0725872
0.674388 0.0915999 0.063386
0.669047 0.0834669 0.069398
0.685817 0.0942855 0.0671702
0.725856 0.138293 0.0790723
0.763836 0.25124 0.112825
0.0976425 0.460197 0.123674
0.0978561 0.456321 0.107897
0.116823 0.447837 0.102983
0.432914 0.456107 0.0940108
0.733303 0.540734 0.152956
0.772335 0.539895 0.165347
0.771801 0.538827 0.166812
0.771878 0.55993 0.158419
0.774975 0.599695 0.145586
0.239139 0.759014 0.272679
0.244282 0.761608 0.24976
0.270085 0.766278 0.239857
0.460578 0.690059 0.229297
0.739834 0.776959 0.246769
0.814786 0.785306 0.288334
0.814343 0.78764 0.291539
0.813947 0.78909 0.293751
0.814054 0.781125 0.283421
0.257664 0.821164 0.374838
0.258289 0.820188 0.370382
0.258564 0.818143 0.361318
0.303166 0.791485 0.260533
0.70631 0.787121 0.300206
0.815763 0.820035 0.354925
0.816175 0.819928 0.359335
0.81619 0.819913 0.35938
0.815991 0.819959 0.359258
0.257206 0.8215 0.376593
0.258228 0.82063 0.372274
0.259541 0.817136 0.360845
0.282445 0.79794 0.269871
0.689479 0.781918 0.297246
0.813184 0.819593 0.350668
0.816022 0.819944 0.359319
0.816144 0.819913 0.359365
0.816175 0.819928 0.359335
0.258701 0.820569 0.376043
0.257694 0.821103 0.373816
0.258595 0.81825 0.362219
0.26862 0.805035 0.290944
0.670222 0.776669 0.295277
0.808865 0.819226 0.34612
0.816434 0.819898 0.359411
0.816434 0.819898 0.359411
0.816526 0.819867 0.359472
0.260533 0.818601 0.374258
0.259327 0.819577 0.372488
0.259937 0.817548 0.363806
0.261097 0.814145 0.353353
0.59234 0.757763 0.291905
0.790494 0.819272 0.327214
0.816373 0.819883 0.359365
0.816434 0.819898 0.359426
0.816434 0.819898 0.359411
0.0252689 0.0508431 0.0632792
0.0535897 0.047715 0.069688
0.187732 0.0378729 0.063798
0.431205 0.0299992 0.0640269
0.632273 0.0430762 0.114015
0.635386 0.0439765 0.127321
0.631479 0.0428931 0.111864
0.613169 0.041886 0.0638743
0.624414 0.0610208 0.0638132
0.0311284 0.0613107 0.0563211
0.0389715 0.0591287 0.0560464
0.165515 0.0345922 0.0402075
0.390249 0.027924 0.0344244
0.604501 0.0497597 0.0604562
0.606851 0.0513771 0.0611734
0.612299 0.0582895 0.0607004
0.632532 0.0674754 0.0647898
0.662425 0.0816205 0.0695811
0.0278172 0.174456 0.0607156
0.0317693 0.167178 0.0524605
0.142 0.168399 0.049134
0.46894 0.139605 0.0682994
0.662287 0.0850538 0.0670024
0.66041 0.0775464 0.0694591
0.679652 0.0907149 0.0686961
0.726513 0.132067 0.0767529
0.765087 0.260853 0.11574
0.0945602 0.460349 0.1458
0.0949874 0.453239 0.124666
0.103395 0.442542 0.101335
0.428397 0.451713 0.0933852
0.734127 0.533333 0.156374
0.773037 0.528557 0.169574
0.771969 0.526024 0.170687
0.772107 0.56347 0.155962
0.774289 0.604196 0.144137
0.227832 0.753017 0.297627
0.232197 0.750652 0.27332
0.268833 0.762905 0.23769
0.442893 0.68751 0.225269
0.73637 0.773663 0.243412
0.814054 0.782269 0.284977
0.814679 0.784344 0.287282
0.814511 0.785748 0.288853
0.814282 0.777188 0.279377
0.257053 0.821729 0.37792
0.258122 0.820813 0.374792
0.258473 0.81886 0.364157
0.280964 0.798444 0.271122
0.70071 0.785199 0.299931
0.815747 0.82005 0.354421
0.816098 0.819928 0.359319
0.816175 0.819898 0.359396
0.816007 0.819959 0.359289
0.256718 0.822141 0.380056
0.257633 0.821256 0.376883
0.258976 0.81857 0.364584
0.268559 0.805158 0.294545
0.679835 0.779889 0.295903
0.812146 0.819532 0.349096
0.816022 0.819944 0.359319
0.816144 0.819913 0.359365
0.816175 0.819928 0.359335
0.258335 0.821149 0.379385
0.257023 0.821729 0.377752
0.258549 0.819059 0.365454
0.260319 0.809247 0.314076
0.661143 0.774014 0.295155
0.806424 0.818738 0.344335
0.816281 0.819837 0.359564
0.816434 0.819898 0.359411
0.816541 0.819867 0.359487
0.260456 0.819486 0.37705
0.259113 0.820249 0.375921
0.25977 0.818051 0.366491
0.261265 0.814832 0.357382
0.582986 0.756237 0.292012
0.789151 0.819471 0.324041
0.816373 0.819898 0.359213
0.816434 0.819898 0.359426
0.816434 0.819898 0.359411
0.0203861 0.0670329 0.162341
0.0411994 0.060502 0.182528
0.19295 0.0413977 0.18674
0.435294 0.0471504 0.207294
0.658976 0.0643931 0.265095
0.656748 0.0603342 0.256062
0.654154 0.0558328 0.24303
0.650217 0.0492103 0.213367
0.641779 0.0436255 0.166629
0.0205081 0.0717021 0.133715
0.0205692 0.063798 0.160601
0.176516 0.0422827 0.173342
0.431449 0.0466773 0.181338
0.653956 0.0548714 0.236057
0.652094 0.0522927 0.227863
0.647883 0.0474861 0.207187
0.640024 0.0407263 0.160357
0.616953 0.0495613 0.0645457
0.0219577 0.151232 0.119112
0.0211643 0.147555 0.117968
0.15285 0.165728 0.149096
0.464363 0.073167 0.0897688
0.622889 0.0498512 0.0660868
0.6224 0.054078 0.0642863
0.635203 0.0637675 0.0664378
0.679835 0.0928817 0.0712749
0.753582 0.206699 0.100313
0.0638743 0.45951 0.215549
0.0609598 0.455253 0.199329
0.0848859 0.429023 0.130266
0.412497 0.434501 0.0884108
0.736919 0.503227 0.166934
0.774411 0.481834 0.173465
0.773754 0.501244 0.173678
0.771649 0.546273 0.164248
0.773617 0.594522 0.145327
0.186114 0.755016 0.377829
0.193866 0.747662 0.358938
0.218341 0.727733 0.280446
0.375265 0.681544 0.208118
0.726757 0.764263 0.234974
0.814359 0.773312 0.27512
0.814435 0.773159 0.274968
0.814435 0.773785 0.276005
0.81445 0.772992 0.274815
0.249088 0.835813 0.434379
0.254856 0.829145 0.410422
0.257801 0.821164 0.376577
0.259922 0.811978 0.330694
0.682078 0.78027 0.296376
0.815671 0.820081 0.353094
0.816114 0.819928 0.359335
0.816083 0.819913 0.359396
0.815991 0.819959 0.359304
0.230335 0.845441 0.460883
0.248753 0.836683 0.437522
0.25742 0.821576 0.3785
0.259159 0.815671 0.351888
0.654551 0.772152 0.294835
0.806943 0.818769 0.344594
0.815991 0.819928 0.359365
0.816007 0.819898 0.359442
0.816159 0.819928 0.359335
0.222766 0.846876 0.463569
0.247227 0.838727 0.443275
0.256886 0.822049 0.379339
0.258762 0.817792 0.360998
0.632868 0.766979 0.294087
0.799893 0.817868 0.340368
0.816007 0.819959 0.359289
0.816114 0.81976 0.359716
0.816556 0.819867 0.359472
0.251392 0.83447 0.437858
0.255161 0.829282 0.415259
0.259236 0.820478 0.377157
0.261265 0.815 0.358541
0.556939 0.7523 0.291707
0.782345 0.818067 0.318151
0.815869 0.819959 0.358633
0.81619 0.819806 0.359625
0.816434 0.819898 0.359411
0.0195773 0.0993668 0.359777
0.0207523 0.0906081 0.369299
0.142947 0.0543069 0.398108
0.455955 0.0545663 0.434012
0.659831 0.0563973 0.501915
0.661585 0.0571756 0.507546
0.656184 0.0575418 0.459251
0.654978 0.0641031 0.42182
0.662089 0.0882582 0.375219
0.0194553 0.112764 0.347738
0.01944 0.0973831 0.358038
0.114046 0.0568246 0.393668
0.44712 0.053727 0.425834
0.660777 0.0598001 0.488807
0.656321 0.0549172 0.478004
0.653361 0.0590524 0.43212
0.656321 0.0702831 0.410468
0.663264 0.0953994 0.358541
0.0191348 0.145525 0.285817
0.0194095 0.139971 0.292699
0.0271153 0.0982834 0.363134
0.410208 0.0477455 0.382315
0.653208 0.0605325 0.437919
0.656565 0.0670634 0.416678
0.661768 0.0816663 0.390036
0.664973 0.094728 0.350515
0.654719 0.0590829 0.249622
0.0356146 0.420371 0.353231
0.0340124 0.416037 0.350988
0.0329137 0.40264 0.338888
0.440909 0.434379 0.399008
0.753811 0.371695 0.369879
0.780575 0.305669 0.298497
0.781582 0.307744 0.24947
0.779965 0.373632 0.235477
0.773693 0.500725 0.214939
0.139406 0.754131 0.508583
0.137987 0.749905 0.499153
0.137209 0.737713 0.468788
0.17734 0.686168 0.316121
0.659892 0.695186 0.234287
0.813672 0.745739 0.247837
0.813458 0.741344 0.243992
0.81442 0.743557 0.246479
0.813962 0.750484 0.254078
0.206729 0.870405 0.566964
0.207767 0.86804 0.559518
0.21561 0.86186 0.533288
0.258717 0.820844 0.380316
0.618158 0.764157 0.293904
0.809796 0.819364 0.347295
0.816037 0.819913 0.360265
0.816083 0.819898 0.36051
0.815763 0.819913 0.359564
0.203845 0.875212 0.585519
0.205097 0.87248 0.574929
0.210101 0.864622 0.544213
0.255467 0.823545 0.388739
0.578531 0.756588 0.294179
0.792279 0.81828 0.332662
0.815488 0.819745 0.359899
0.815717 0.819791 0.359716
0.81593 0.819883 0.359503
0.206119 0.874586 0.587335
0.204822 0.872801 0.576608
0.209552 0.864729 0.544274
0.255314 0.824338 0.391608
0.55021 0.753567 0.292561
0.784314 0.818662 0.319768
0.815473 0.819837 0.358236
0.815793 0.819883 0.359518
0.815351 0.819471 0.360433
0.21033 0.866545 0.559106
0.210513 0.864622 0.548486
0.219791 0.860243 0.523323
0.258137 0.821286 0.38265
0.436286 0.760433 0.269459
0.762844 0.811231 0.308766
0.815549 0.82002 0.35581
0.8159 0.819944 0.359335
0.815518 0.819562 0.360235
0.01944 0.146319 0.557214
0.019379 0.132082 0.553063
0.123522 0.13164 0.592004
0.440986 0.0900587 0.637171
0.722087 0.11725 0.737392
0.721233 0.119356 0.753002
0.720302 0.120439 0.761898
0.721279 0.11902 0.75108
0.72018 0.119341 0.685649
0.0193637 0.163714 0.561975
0.0192416 0.142885 0.554391
0.0937057 0.132403 0.583291
0.42649 0.0859693 0.630518
0.722194 0.116854 0.734127
0.721218 0.118807 0.748791
0.720546 0.119921 0.757214
0.722103 0.117647 0.740261
0.714397 0.12163 0.666911
0.0194553 0.213352 0.564279
0.0191501 0.205844 0.570138
0.0193027 0.130388 0.541833
0.357977 0.0715038 0.600534
0.716243 0.113634 0.716579
0.723171 0.115908 0.731517
0.723079 0.116228 0.733242
0.723735 0.113298 0.708614
0.710338 0.111513 0.636606
0.0198672 0.421485 0.555566
0.0202792 0.415778 0.557824
0.0200656 0.394018 0.561852
0.247684 0.296269 0.666026
0.715297 0.235828 0.697627
0.740078 0.176562 0.685679
0.726864 0.144381 0.64863
0.701839 0.108751 0.595315
0.680507 0.082826 0.500114
0.0860304 0.706935 0.634089
0.0844282 0.704234 0.632212
0.0844282 0.69546 0.624414
0.0842145 0.674144 0.605539
0.699718 0.697643 0.669581
0.862654 0.677607 0.656123
0.856046 0.672511 0.635096
0.848569 0.6813 0.608316
0.836728 0.686763 0.542473
0.157092 0.905837 0.715648
0.160464 0.904479 0.710597
0.172656 0.899931 0.693935
0.195666 0.882033 0.647349
0.46775 0.814099 0.535943
0.80766 0.833753 0.565682
0.835538 0.831312 0.530678
0.837903 0.830152 0.536919
0.821866 0.816693 0.439506
0.143038 0.912093 0.740658
0.145052 0.910552 0.730526
0.159792 0.905394 0.708385
0.19884 0.889372 0.652888
0.281529 0.836271 0.471977
0.772564 0.814832 0.312261
0.815686 0.820035 0.354864
0.815824 0.819944 0.357595
0.815564 0.819974 0.357885
0.143297 0.911955 0.741695
0.145449 0.91046 0.730327
0.161334 0.904723 0.705974
0.200931 0.888472 0.649058
0.226764 0.848051 0.471214
0.752956 0.807248 0.305333
0.815152 0.820142 0.351934
0.815579 0.819974 0.357809
0.815656 0.819959 0.358022
0.163378 0.903792 0.703212
0.171603 0.900832 0.69192
0.185687 0.894987 0.670817
0.205341 0.881926 0.622873
0.237751 0.843503 0.458717
0.712596 0.789776 0.30277
0.811307 0.819654 0.347173
0.815595 0.819989 0.3579
0.815579 0.819944 0.358389
0.01944 0.142962 0.589075
0.0194858 0.140871 0.595499
0.143542 0.143832 0.635691
0.441611 0.0899214 0.674479
0.720195 0.120546 0.762921
0.720195 0.120546 0.762921
0.720195 0.120546 0.762921
0.720195 0.120546 0.762905
0.72018 0.120546 0.762905
0.0195163 0.154437 0.591211
0.0194553 0.142611 0.589334
0.111543 0.146563 0.629297
0.422736 0.0860304 0.66891
0.720134 0.120562 0.76286
0.72018 0.120546 0.762875
0.720195 0.120546 0.76289
0.720195 0.120546 0.762921
0.720195 0.120546 0.762921
0.0192569 0.223072 0.627649
0.0193637 0.209659 0.624109
0.0194705 0.141238 0.591287
0.345922 0.0806439 0.654749
0.715785 0.119982 0.761273
0.720195 0.120546 0.762921
0.720165 0.120562 0.76289
0.720165 0.120562 0.76289
0.720027 0.120592 0.762814
0.0198825 0.379294 0.653361
0.0199588 0.371374 0.652384
0.0196078 0.343023 0.648905
0.123659 0.209628 0.676005
0.639277 0.158679 0.748012
0.719676 0.121172 0.762417
0.719509 0.121157 0.762341
0.720256 0.122179 0.762905
0.720043 0.120806 0.762753
0.0209964 0.673961 0.717037
0.0211643 0.670604 0.715434
0.0209506 0.660334 0.710246
0.0208896 0.635691 0.719631
0.583886 0.580041 0.834257
0.853468 0.587366 0.84506
0.851286 0.579232 0.840497
0.850217 0.573053 0.830045
0.836713 0.525765 0.797772
0.157809 0.896788 0.825422
0.156313 0.892546 0.821958
0.147936 0.878889 0.809796
0.122972 0.832959 0.763882
0.283223 0.832029 0.776623
0.846296 0.855634 0.833967
0.909621 0.846021 0.826993
0.904372 0.836393 0.814511
0.881468 0.819135 0.771679
0.17232 0.913481 0.847181
0.172686 0.91252 0.840955
0.165087 0.914061 0.830488
0.142306 0.917189 0.805112
0.145586 0.925582 0.763821
0.763363 0.890394 0.773053
0.898589 0.914214 0.802899
0.9019 0.9131 0.803662
0.89752 0.908705 0.79205
0.17348 0.913207 0.84979
0.170535 0.914122 0.843976
0.161028 0.916106 0.831525
0.137087 0.91902 0.803967
0.146502 0.921309 0.747829
0.706889 0.87631 0.733776
0.85127 0.882231 0.711543
0.815763 0.82002 0.35494
0.815488 0.820096 0.355428
0.159976 0.916152 0.830045
0.154696 0.916457 0.822904
0.144488 0.917723 0.81236
0.137774 0.916564 0.782467
0.161074 0.906874 0.709377
0.614588 0.857664 0.668025
0.820737 0.86038 0.649378
0.816159 0.81976 0.371054
0.815518 0.820066 0.355581
0.0194705 0.140871 0.592035
0.033753 0.144137 0.603723
0.164965 0.140551 0.63798
0.460945 0.0941176 0.679606
0.720195 0.120546 0.762921
0.720195 0.120546 0.762921
0.720195 0.120546 0.762921
0.720195 0.120546 0.762921
0.720195 0.120546 0.762921
0.0193637 0.145525 0.588769
0.0194705 0.140612 0.592813
0.131289 0.14464 0.63267
0.441382 0.0899062 0.674342
0.720195 0.120546 0.762921
0.720195 0.120546 0.762921
0.720195 0.120546 0.762921
0.720195 0.120546 0.762921
0.720195 0.120546 0.762921
0.0195468 0.218662 0.627039
0.0196078 0.195666 0.615946
0.0195621 0.141176 0.596246
0.362631 0.0815747 0.658366
0.719326 0.1205 0.762737
0.720195 0.120546 0.762921
0.720195 0.120546 0.76289
0.720195 0.120546 0.762921
0.720195 0.120546 0.762921
0.0197452 0.357351 0.650538
0.0197452 0.347021 0.649241
0.0196231 0.315648 0.644038
0.106462 0.179248 0.652735
0.627283 0.138811 0.73611
0.71989 0.120928 0.762615
0.71989 0.120928 0.762646
0.719829 0.120974 0.76257
0.720012 0.120836 0.762722
0.0210269 0.667277 0.73286
0.0211948 0.662974 0.732189
0.0209506 0.653315 0.73019
0.0208743 0.620096 0.722606
0.567758 0.549065 0.833875
0.839689 0.551659 0.847807
0.835904 0.54165 0.844404
0.834684 0.537072 0.84329
0.823011 0.502617 0.833844
0.133135 0.880751 0.84535
0.126925 0.874266 0.842283
0.106249 0.850935 0.828916
0.0550851 0.78735 0.7906
0.0889601 0.80119 0.819394
0.798444 0.802777 0.899733
0.9066 0.804181 0.901259
0.905531 0.798764 0.899382
0.902663 0.780468 0.889448
0.164813 0.912734 0.858351
0.164279 0.912993 0.858534
0.16437 0.912932 0.858549
0.16437 0.912932 0.858534
0.17734 0.92697 0.851759
0.686854 0.896162 0.852308
0.915618 0.928359 0.906828
0.931334 0.925948 0.903716
0.925521 0.916747 0.891386
0.164279 0.912993 0.858534
0.164279 0.912993 0.858534
0.165209 0.912581 0.858198
0.166308 0.912123 0.857466
0.166384 0.925124 0.838361
0.252323 0.930526 0.820859
0.894118 0.938155 0.890532
0.929717 0.940597 0.895735
0.929519 0.940459 0.894804
0.164279 0.912993 0.858534
0.164279 0.912993 0.858534
0.164279 0.912993 0.858534
0.165805 0.91284 0.856458
0.152102 0.919097 0.82208
0.159564 0.950423 0.814466
0.857252 0.929488 0.861692
0.923659 0.936263 0.875593
0.922026 0.933089 0.862318
0.0194705 0.140688 0.594171
0.0396124 0.14461 0.605722
0.176562 0.138766 0.638682
0.471153 0.0971695 0.683742
0.720195 0.120546 0.762921
0.720195 0.120546 0.762921
0.720195 0.120546 0.762921
0.720195 0.120546 0.762921
0.720195 0.120546 0.762921
0.0194095 0.143771 0.588907
0.0194705 0.14052 0.594614
0.140917 0.143984 0.634882
0.451301 0.0923171 0.677302
0.720195 0.120546 0.762921
0.720195 0.120546 0.762921
0.720195 0.120546 0.762921
0.720195 0.120546 0.762921
0.720195 0.120546 0.762921
0.0195468 0.217182 0.626749
0.0192569 0.18996 0.611811
0.0251011 0.141878 0.598444
0.369985 0.0815137 0.658854
0.720195 0.120546 0.762921
0.720195 0.120546 0.762921
0.72018 0.120546 0.762905
0.720195 0.120546 0.762921
0.720195 0.120546 0.762905
0.019852 0.349676 0.64979
0.0198367 0.339239 0.647791
0.0197147 0.307179 0.642557
0.101823 0.170306 0.645396
0.629084 0.136187 0.735576
0.720027 0.120806 0.762753
0.719966 0.120851 0.762707
0.719844 0.120912 0.762631
0.720073 0.12076 0.762798
0.0211948 0.664866 0.732525
0.0208286 0.660945 0.731441
0.0209354 0.650965 0.730282
0.0209964 0.614984 0.721569
0.565087 0.53904 0.8318
0.836011 0.541863 0.844556
0.831922 0.53048 0.841276
0.830182 0.525765 0.839841
0.820935 0.495781 0.832303
0.13022 0.877577 0.844297
0.123247 0.869383 0.839597
0.099855 0.839399 0.822156
0.0498512 0.780407 0.787808
0.0892348 0.792844 0.815442
0.794598 0.792065 0.899489
0.903929 0.794293 0.900511
0.902708 0.787167 0.900145
0.898528 0.770275 0.89752
0.164599 0.912825 0.858534
0.164279 0.912993 0.858534
0.164355 0.912947 0.858534
0.16434 0.912963 0.858534
0.162463 0.917754 0.862913
0.615885 0.872145 0.859861
0.900236 0.912154 0.91548
0.92932 0.913725 0.920836
0.928145 0.905577 0.91841
0.164279 0.912993 0.858534
0.164279 0.912993 0.858534
0.16463 0.91281 0.858534
0.165652 0.912383 0.858228
0.169696 0.923415 0.861616
0.186679 0.945022 0.867704
0.845579 0.934493 0.904845
0.935149 0.946029 0.928206
0.934798 0.9458 0.927947
0.164279 0.912993 0.858534
0.164279 0.912993 0.858534
0.164279 0.912993 0.858534
0.164279 0.912993 0.858534
0.164981 0.915236 0.858885
0.187213 0.942046 0.857969
0.739757 0.919966 0.868299
0.931426 0.945495 0.926604
0.935164 0.946029 0.928191
0.0194705 0.140536 0.594614
0.0416571 0.144793 0.606165
0.177554 0.138613 0.638758
0.469261 0.0965744 0.683101
0.720195 0.120546 0.762921
0.720195 0.120546 0.762921
0.720195 0.120546 0.762921
0.720195 0.120546 0.762921
0.720195 0.120546 0.762921
0.01944 0.143282 0.589059
0.0194858 0.140917 0.595636
0.141329 0.143999 0.635065
0.449378 0.0918746 0.676875
0.720195 0.120546 0.762921
0.720195 0.120546 0.762921
0.720195 0.120546 0.762921
0.720195 0.120546 0.762921
0.720195 0.120546 0.762921
0.0193637 0.214191 0.626001
0.0195163 0.187213 0.610147
0.0268864 0.142229 0.59942
0.368521 0.0815442 0.658732
0.720195 0.120546 0.762921
0.720195 0.120546 0.762921
0.72018 0.120546 0.762905
0.720195 0.120546 0.762921
0.72018 0.120546 0.762905
0.0195926 0.341451 0.648402
0.0197147 0.330587 0.646632
0.0193179 0.299931 0.641474
0.0966659 0.164858 0.639475
0.627512 0.135348 0.734585
0.720088 0.120745 0.762798
0.720043 0.12079 0.762768
0.719966 0.120836 0.762707
0.720119 0.120699 0.762829
0.0208286 0.660822 0.731441
0.0210727 0.656992 0.731579
0.0210574 0.646464 0.729503
0.0209964 0.609369 0.719875
0.558511 0.529534 0.828992
0.831739 0.529335 0.841169
0.82771 0.5178 0.837232
0.826093 0.511803 0.83621
0.815473 0.480171 0.827512
0.125002 0.871717 0.840757
0.116716 0.862074 0.836118
0.0919356 0.826932 0.814054
0.0471199 0.776287 0.786603
0.0734722 0.788006 0.813214
0.789502 0.783581 0.898817
0.901976 0.785916 0.899825
0.900313 0.778332 0.898848
0.896147 0.761151 0.896666
0.164553 0.91284 0.858534
0.164279 0.912993 0.858534
0.16434 0.912963 0.858518
0.164324 0.912963 0.858534
0.155688 0.910277 0.86128
0.615106 0.867567 0.860182
0.895872 0.905226 0.913817
0.927962 0.90811 0.91931
0.926482 0.898497 0.917662
0.164279 0.912993 0.858534
0.164279 0.912993 0.858534
0.164508 0.912871 0.858534
0.165591 0.912413 0.858259
0.169039 0.922438 0.861158
0.184741 0.944579 0.868406
0.825376 0.92578 0.901411
0.933745 0.944106 0.928283
0.934981 0.943801 0.928222
0.164279 0.912993 0.858534
0.164279 0.912993 0.858534
0.164279 0.912993 0.858534
0.164279 0.912993 0.858534
0.164614 0.914748 0.858671
0.187381 0.947311 0.868452
0.575036 0.905867 0.856657
0.923751 0.946105 0.926772
0.935164 0.946029 0.928191
