bundles/resolve-cinematic-luts/Phantom Luts/Komodo Phantom FILM LUTs G2/Komodo Phantom FILM LUTs G2/65x/Standard (No WB Offset)/VisionTeal_Komodo_G2_65x.cube
TITLE "Generated by Resolve"
LUT_3D_SIZE 5
0.0222629 0.0351263 0.0329137
0.200916 0.0218051 0.0191958
0.637675 0.0246891 0.0784924
0.635645 0.0241245 0.072694
0.651865 0.0269017 0.0562753
0.0264439 0.220706 0.0438849
0.200473 0.222583 0.0363012
0.696895 0.072343 0.0599527
0.704555 0.071107 0.0626993
0.781338 0.290181 0.130327
0.25658 0.776486 0.298299
0.290883 0.775433 0.249165
0.755657 0.783322 0.277531
0.812894 0.792447 0.314244
0.812375 0.787655 0.306264
0.262119 0.831632 0.41326
0.26537 0.827176 0.396155
0.712657 0.786816 0.323491
0.812772 0.81706 0.388022
0.81297 0.817044 0.388022
0.265263 0.828687 0.41091
0.265034 0.827497 0.399603
0.624796 0.765637 0.308431
0.81323 0.817029 0.388006
0.81326 0.817014 0.388037
0.0198978 0.0631113 0.208942
0.236835 0.0270848 0.228382
0.677165 0.0618448 0.335729
0.673762 0.0514534 0.310704
0.668238 0.0399329 0.230625
0.0191348 0.192035 0.142947
0.206241 0.216617 0.195178
0.647318 0.0261234 0.083299
0.655024 0.025864 0.0627146
0.773754 0.236027 0.112047
0.174487 0.796201 0.431281
0.237125 0.756817 0.315557
0.746273 0.774624 0.26659
0.813092 0.782254 0.296407
0.813275 0.782086 0.296254
0.230884 0.860746 0.510292
0.262333 0.832197 0.416007
0.685252 0.779232 0.317143
0.812757 0.817044 0.388022
0.81294 0.817029 0.388022
0.231952 0.851881 0.479637
0.263432 0.830594 0.414603
0.590723 0.760632 0.306996
0.812665 0.81706 0.386847
0.81326 0.817029 0.388037
0.0193332 0.148547 0.595315
0.180545 0.11606 0.634058
0.73959 0.113512 0.767086
0.738399 0.11783 0.784634
0.736049 0.10396 0.725277
0.0192874 0.256046 0.611444
0.0191806 0.127382 0.585489
0.733257 0.109743 0.749462
0.740566 0.112581 0.763714
0.718105 0.098085 0.673136
0.0821546 0.763455 0.691325
0.0809033 0.753124 0.68191
0.742901 0.744564 0.718578
0.871214 0.720958 0.685237
0.850843 0.733379 0.593118
0.122591 0.924804 0.775692
0.126482 0.921447 0.749859
0.296391 0.848447 0.516854
0.812848 0.817151 0.382696
0.812512 0.817105 0.385687
0.127169 0.920958 0.745571
0.144625 0.913451 0.716609
0.230365 0.86009 0.505241
0.808652 0.816526 0.373175
0.812482 0.81709 0.386175
0.0209201 0.139635 0.63563
0.210025 0.0991531 0.670848
0.738369 0.118166 0.785702
0.738369 0.118166 0.785702
0.738369 0.118166 0.785702
0.0192874 0.251911 0.664973
0.0339971 0.140246 0.64152
0.737697 0.118029 0.785351
0.738369 0.118166 0.785687
0.738369 0.118181 0.785702
0.0213474 0.728511 0.770825
0.02121 0.717403 0.768215
0.631128 0.604196 0.86186
0.856718 0.597925 0.865049
0.846799 0.560983 0.857176
0.145953 0.926879 0.864927
0.145663 0.927016 0.86511
0.164843 0.934325 0.858946
0.916579 0.929564 0.908415
0.925185 0.919417 0.894484
0.145357 0.927184 0.865202
0.145373 0.927169 0.865202
0.14255 0.929595 0.83711
0.873716 0.932189 0.875471
0.929686 0.939529 0.874983
0.0299992 0.140017 0.639612
0.212757 0.0863966 0.669261
0.738369 0.118166 0.785702
0.738369 0.118166 0.785702
0.738369 0.118166 0.785702
0.0195621 0.245319 0.664347
0.0443122 0.139712 0.644312
0.738369 0.118166 0.785702
0.738354 0.118166 0.785687
0.738354 0.118166 0.785672
0.0209812 0.723354 0.76994
0.0211032 0.711696 0.767178
0.623392 0.585199 0.858396
0.851545 0.575784 0.860624
0.84062 0.540673 0.851575
0.145846 0.926925 0.86508
0.145571 0.927077 0.865141
0.137224 0.925353 0.868269
0.901167 0.911315 0.912505
0.925536 0.906508 0.916487
0.145357 0.927184 0.865202
0.145373 0.927169 0.865187
0.146441 0.928267 0.865507
0.621698 0.906111 0.859617
0.943771 0.952392 0.93492
