bundles/resolve-cinematic-luts/Phantom Luts/Komodo Phantom FILM LUTs G2/Komodo Phantom FILM LUTs G2/65x/Standard (No WB Offset)/Vision_Komodo_Legacy_G2_65x.cube
TITLE "Generated by Resolve"
LUT_3D_SIZE 9
0.0360266 0.0486763 0.0390173
0.0476692 0.0491951 0.0362097
0.147845 0.0427405 0.033463
0.376974 0.0427253 0.0350652
0.622141 0.0676127 0.0683299
0.631113 0.0529793 0.0737316
0.62504 0.0648508 0.0699779
0.611505 0.0773175 0.0628367
0.626368 0.0823377 0.0640421
0.0363775 0.0645457 0.0412604
0.043946 0.0623789 0.042237
0.151598 0.0493782 0.0345922
0.390402 0.0492561 0.0363928
0.617533 0.0795911 0.0625315
0.615564 0.07953 0.0623789
0.624109 0.0816663 0.0638132
0.637186 0.0860914 0.0663157
0.656947 0.0941634 0.0676585
0.040528 0.176959 0.0621958
0.0400549 0.171862 0.0581826
0.133242 0.185367 0.0473945
0.454582 0.153979 0.0801404
0.674907 0.0999924 0.0591745
0.671077 0.0977646 0.0656443
0.6813 0.101076 0.0633097
0.704982 0.12134 0.0667582
0.740093 0.188403 0.096788
0.105776 0.469245 0.178714
0.103868 0.46772 0.161593
0.122362 0.464057 0.156985
0.442145 0.487144 0.0985122
0.72871 0.501305 0.163943
0.757702 0.493675 0.165118
0.756786 0.493278 0.166812
0.759869 0.511025 0.165347
0.768719 0.545434 0.155962
0.239628 0.755657 0.351675
0.241032 0.760555 0.338064
0.262562 0.769711 0.337133
0.412757 0.735805 0.32932
0.731197 0.801511 0.271244
0.827146 0.792874 0.255512
0.82681 0.796094 0.260548
0.826185 0.798413 0.2645
0.826825 0.787579 0.247745
0.264561 0.801495 0.428397
0.264302 0.801099 0.425971
0.263325 0.800076 0.419181
0.294392 0.794461 0.358358
0.657557 0.826978 0.368765
0.824857 0.842786 0.354788
0.825315 0.843076 0.360754
0.825299 0.843061 0.360922
0.825345 0.843122 0.360204
0.264851 0.801663 0.429969
0.264515 0.801282 0.427314
0.263615 0.799908 0.419745
0.274891 0.795377 0.361135
0.635676 0.824567 0.371405
0.822049 0.842954 0.350484
0.825345 0.843107 0.360281
0.825315 0.843076 0.360739
0.825315 0.843076 0.360739
0.265476 0.801389 0.430915
0.264378 0.801434 0.427787
0.263416 0.800183 0.419745
0.262303 0.796185 0.371481
0.614328 0.821042 0.375402
0.817166 0.843503 0.346792
0.825238 0.842939 0.362142
0.825238 0.842939 0.362142
0.825193 0.842893 0.362661
0.266407 0.80087 0.431342
0.265354 0.801022 0.428901
0.264179 0.800275 0.422568
0.263325 0.798779 0.41532
0.532265 0.804669 0.394308
0.789563 0.845472 0.341131
0.825238 0.842969 0.361837
0.825238 0.842939 0.362066
0.825238 0.842939 0.362142
0.0311742 0.0493324 0.0527199
0.055314 0.0489662 0.0531472
0.191043 0.0388342 0.0457465
0.434028 0.0350042 0.0515602
0.642466 0.0488746 0.0979324
0.648463 0.0505531 0.109712
0.644221 0.0495308 0.102373
0.632929 0.0497292 0.0745403
0.619883 0.0797131 0.0628061
0.0358892 0.0605936 0.0482795
0.0442664 0.0580453 0.0483101
0.162112 0.0429541 0.0343786
0.396567 0.0411383 0.0370336
0.619898 0.0719768 0.0646677
0.620295 0.0726177 0.0648508
0.613443 0.0784009 0.0618601
0.629175 0.0827039 0.0642405
0.65391 0.0911879 0.0668956
0.0409094 0.17229 0.0737621
0.0406958 0.166278 0.063447
0.125856 0.174929 0.0465095
0.450523 0.133928 0.0727092
0.664668 0.0964218 0.0630045
0.663706 0.0944533 0.0666361
0.675883 0.099382 0.0644388
0.702968 0.117433 0.0664378
0.738979 0.183688 0.0949721
0.104662 0.464698 0.197894
0.103212 0.461128 0.177951
0.109606 0.455589 0.151888
0.436698 0.481666 0.0967117
0.727077 0.493233 0.164202
0.756039 0.482643 0.165087
0.75491 0.48098 0.166751
0.760037 0.510277 0.163821
0.768963 0.546197 0.155459
0.234745 0.747478 0.367102
0.23537 0.748074 0.351034
0.262837 0.767086 0.335439
0.39794 0.731609 0.324132
0.728023 0.798703 0.267781
0.827085 0.789014 0.249226
0.826932 0.791272 0.252964
0.826963 0.793622 0.256184
0.827192 0.781796 0.239216
0.265141 0.801801 0.431312
0.264805 0.801434 0.428855
0.263615 0.800473 0.42118
0.273167 0.795438 0.361456
0.649958 0.826291 0.369848
0.824826 0.842756 0.353933
0.82533 0.843076 0.360662
0.825299 0.843061 0.360922
0.825345 0.843122 0.36022
0.265522 0.802029 0.433127
0.26511 0.801633 0.430671
0.263981 0.800351 0.422217
0.26273 0.796399 0.373922
0.62475 0.823011 0.373404
0.820829 0.843091 0.348943
0.825345 0.843107 0.360296
0.825315 0.843076 0.360739
0.825315 0.843076 0.360739
0.266102 0.801755 0.433738
0.265064 0.801816 0.431098
0.263844 0.800549 0.422385
0.258335 0.797375 0.386572
0.603281 0.818814 0.377371
0.814969 0.844434 0.344411
0.825238 0.842939 0.362142
0.825238 0.842939 0.362142
0.825193 0.842878 0.362692
0.266865 0.801221 0.433738
0.265812 0.801328 0.431327
0.26453 0.800504 0.424125
0.26389 0.799268 0.418555
0.524178 0.803052 0.395636
0.785611 0.845212 0.341726
0.825208 0.842954 0.361837
0.825238 0.842939 0.362066
0.825238 0.842939 0.362142
0.0376898 0.0541695 0.162097
0.0628367 0.0511025 0.164157
0.197467 0.0454261 0.148348
0.441642 0.0581369 0.191913
0.671916 0.0762646 0.246784
0.671489 0.0706188 0.232502
0.66865 0.0660563 0.21944
0.662135 0.0601053 0.195392
0.653742 0.05066 0.152834
0.0297704 0.059556 0.13576
0.0415045 0.0520943 0.154009
0.180087 0.0456092 0.136339
0.43827 0.0548562 0.159808
0.665156 0.0624094 0.204532
0.665095 0.0609293 0.200244
0.661189 0.0576944 0.18497
0.65098 0.0508888 0.150683
0.632654 0.0557259 0.0738384
0.0296635 0.147097 0.128634
0.0298924 0.14342 0.1252
0.147921 0.166903 0.14583
0.470878 0.0917067 0.093019
0.636179 0.0718547 0.0690929
0.631785 0.0770123 0.0660105
0.634882 0.083238 0.0644541
0.66041 0.0937819 0.0669261
0.713588 0.128405 0.0707561
0.0972305 0.453239 0.255467
0.0996719 0.449928 0.242512
0.095079 0.433234 0.17612
0.422004 0.463447 0.090837
0.722942 0.464042 0.165698
0.751568 0.437156 0.162356
0.751614 0.451621 0.164675
0.755917 0.48719 0.165774
0.764523 0.526589 0.162829
0.225605 0.733959 0.42533
0.223331 0.729839 0.409232
0.224048 0.725612 0.350912
0.349157 0.719722 0.309483
0.720256 0.789441 0.258152
0.828092 0.777066 0.230274
0.828153 0.776852 0.230472
0.82771 0.777691 0.231998
0.828061 0.774182 0.228016
0.276249 0.806775 0.476112
0.268772 0.804242 0.455863
0.26508 0.801602 0.430411
0.259236 0.797894 0.397879
0.627588 0.823346 0.372824
0.824704 0.84268 0.352453
0.82533 0.843076 0.360555
0.82533 0.843076 0.360616
0.825345 0.843122 0.360189
0.281224 0.811048 0.500328
0.276722 0.806867 0.478965
0.2654 0.801816 0.43209
0.262257 0.798871 0.412024
0.59791 0.817899 0.379736
0.815503 0.843931 0.345434
0.825345 0.843122 0.360281
0.82533 0.843091 0.360494
0.825315 0.843076 0.360739
0.282826 0.811475 0.505013
0.277394 0.807523 0.482643
0.26537 0.801968 0.432441
0.263401 0.799939 0.418982
0.574166 0.813764 0.385428
0.808927 0.84622 0.34049
0.825345 0.843122 0.360235
0.825238 0.842939 0.362142
0.825193 0.842863 0.36289
0.278767 0.806394 0.482383
0.272633 0.804822 0.462791
0.266041 0.80148 0.43241
0.264134 0.799359 0.419867
0.501747 0.79794 0.398154
0.772869 0.843595 0.343282
0.825269 0.843122 0.359075
0.825223 0.842939 0.362066
0.825238 0.842939 0.362142
0.0539101 0.0673228 0.367269
0.0760967 0.0616464 0.362982
0.192615 0.0551919 0.353124
0.467094 0.0661173 0.388861
0.668284 0.0772717 0.449928
0.670497 0.0777447 0.453025
0.667033 0.0833295 0.420462
0.668849 0.0909133 0.392569
0.679454 0.106859 0.354757
0.045243 0.080766 0.366873
0.0555428 0.0654612 0.364157
0.167285 0.0550393 0.353429
0.458198 0.0648966 0.381003
0.669139 0.0809033 0.44239
0.666377 0.0795148 0.429221
0.667369 0.0885328 0.395483
0.671275 0.0983444 0.382818
0.681315 0.106126 0.333562
0.0393225 0.120623 0.321126
0.0404517 0.112978 0.325063
0.0784772 0.0718853 0.362448
0.416159 0.0584573 0.342779
0.665049 0.0862898 0.404547
0.676127 0.101274 0.378012
0.680919 0.105989 0.357565
0.684169 0.102235 0.317479
0.669306 0.0700084 0.229511
0.0311589 0.402533 0.397955
0.0302892 0.398703 0.392859
0.0310369 0.385992 0.381247
0.422965 0.438758 0.410803
0.767697 0.371023 0.362234
0.798032 0.303929 0.298268
0.789029 0.288487 0.251698
0.770504 0.310475 0.226093
0.746319 0.411948 0.212329
0.161044 0.721675 0.532097
0.162493 0.717922 0.522408
0.172839 0.708858 0.495537
0.205097 0.677729 0.370291
0.660288 0.731472 0.266484
0.828016 0.740383 0.176074
0.827634 0.735012 0.174578
0.827543 0.735409 0.175189
0.827558 0.739895 0.173983
0.260243 0.823056 0.580072
0.263874 0.822019 0.574807
0.281086 0.818616 0.555688
0.266514 0.801663 0.434455
0.558328 0.81033 0.388983
0.817853 0.843488 0.347768
0.825437 0.843122 0.361501
0.825437 0.843107 0.362127
0.825391 0.843153 0.360037
0.250278 0.825864 0.595376
0.255467 0.824445 0.586954
0.273304 0.820096 0.563012
0.266392 0.802396 0.439521
0.520943 0.802747 0.395056
0.795712 0.845762 0.340566
0.82533 0.843091 0.360418
0.82533 0.843091 0.360494
0.825345 0.843107 0.360433
0.248951 0.826169 0.59823
0.254856 0.824552 0.588281
0.273075 0.820081 0.562905
0.266453 0.802563 0.441321
0.498116 0.797894 0.396643
0.777234 0.84416 0.343221
0.825147 0.84303 0.358343
0.825345 0.843122 0.360204
0.825223 0.842924 0.362249
0.263737 0.821775 0.576303
0.27097 0.820356 0.566979
0.288197 0.81767 0.550118
0.266758 0.801816 0.43592
0.411612 0.794217 0.37731
0.739803 0.839857 0.349569
0.824964 0.842939 0.3552
0.825376 0.843137 0.360067
0.825238 0.842954 0.362005
0.0783093 0.0914931 0.567529
0.0985885 0.0816663 0.549569
0.199756 0.0695506 0.547951
0.4766 0.10811 0.578485
0.736294 0.132265 0.664317
0.734813 0.137148 0.677409
0.734752 0.136217 0.686152
0.734844 0.137316 0.674907
0.733776 0.125185 0.621164
0.0668193 0.104265 0.588281
0.0804456 0.0895247 0.563729
0.175128 0.0685283 0.546792
0.463096 0.103883 0.573281
0.736004 0.131243 0.661341
0.734676 0.137575 0.672816
0.734661 0.136828 0.680888
0.736355 0.132113 0.663874
0.725231 0.122454 0.597864
0.0801404 0.15024 0.606836
0.0802625 0.142962 0.610834
0.0929122 0.0811933 0.540749
0.402701 0.0890669 0.548989
0.728985 0.126558 0.645212
0.736217 0.129595 0.658442
0.736171 0.129442 0.658
0.735805 0.123919 0.629389
0.70985 0.122515 0.554498
0.0475471 0.380484 0.62739
0.0503853 0.374914 0.62916
0.0645457 0.351141 0.635737
0.32401 0.260212 0.670039
0.730785 0.251896 0.65185
0.752102 0.183886 0.629648
0.734295 0.170138 0.584909
0.71107 0.12604 0.521889
0.699092 0.11014 0.454093
0.0503243 0.662242 0.677684
0.0501411 0.659632 0.674678
0.0510567 0.652201 0.667613
0.0536812 0.633844 0.648875
0.683543 0.701839 0.680873
0.854902 0.673671 0.65716
0.841413 0.669627 0.637186
0.826703 0.673808 0.613474
0.812894 0.661509 0.547036
0.136721 0.845624 0.727962
0.142947 0.845136 0.722469
0.164706 0.843931 0.704402
0.207172 0.831327 0.65626
0.516335 0.819654 0.605844
0.81117 0.864988 0.604257
0.846586 0.857557 0.55494
0.84889 0.854994 0.560189
0.837858 0.843442 0.473655
0.114015 0.84741 0.752361
0.121492 0.847211 0.742535
0.148165 0.845045 0.717449
0.215686 0.836652 0.657389
0.325551 0.810269 0.517143
0.756008 0.841794 0.346166
0.824887 0.842817 0.354299
0.825116 0.843015 0.358144
0.825208 0.843122 0.357412
0.112703 0.84715 0.755306
0.121599 0.847211 0.742565
0.150423 0.845075 0.715267
0.218906 0.836057 0.654429
0.292927 0.811612 0.511757
0.724239 0.837858 0.352972
0.824643 0.842695 0.349447
0.825193 0.843122 0.357305
0.825177 0.843076 0.358068
0.154131 0.844907 0.711925
0.168933 0.843854 0.699245
0.194965 0.840574 0.677409
0.235218 0.831571 0.628351
0.280293 0.810162 0.496254
0.665614 0.828244 0.367529
0.819562 0.84332 0.345647
0.825208 0.843137 0.357504
0.825223 0.843122 0.358221
0.103868 0.08748 0.586618
0.126452 0.0874647 0.583062
0.221912 0.0743267 0.586282
0.483604 0.108537 0.615717
0.734737 0.13611 0.687144
0.734737 0.13611 0.687144
0.734737 0.13611 0.687144
0.734737 0.13611 0.687144
0.734737 0.13611 0.687144
0.0861372 0.0951095 0.60177
0.10573 0.0872358 0.586038
0.197848 0.0726635 0.585977
0.467536 0.10425 0.612314
0.734722 0.136126 0.687129
0.734707 0.136126 0.687129
0.734722 0.136126 0.687129
0.734722 0.13611 0.687144
0.734737 0.13611 0.687144
0.0911421 0.15317 0.668299
0.0877852 0.13994 0.660319
0.114412 0.0867933 0.583581
0.403784 0.0953689 0.601984
0.730144 0.134936 0.685466
0.734737 0.13611 0.687144
0.734737 0.13611 0.687144
0.734737 0.13611 0.687144
0.734707 0.136126 0.687114
0.0990311 0.313985 0.725917
0.0992752 0.305394 0.725093
0.0984054 0.274388 0.717281
0.247623 0.150759 0.664393
0.660868 0.165454 0.680812
0.734295 0.136767 0.686717
0.734188 0.136721 0.68658
0.734462 0.137713 0.687022
0.734371 0.136782 0.68545
0.0283665 0.607614 0.772931
0.0277867 0.604257 0.771939
0.0265507 0.593988 0.769635
0.0357977 0.568643 0.78027
0.607279 0.564324 0.838254
0.856779 0.605554 0.825757
0.855009 0.598062 0.821653
0.853559 0.598428 0.810529
0.839155 0.55375 0.772213
0.0802167 0.827375 0.843763
0.0781415 0.822675 0.838849
0.0713664 0.810941 0.82623
0.0581826 0.77113 0.787243
0.2551 0.78967 0.800885
0.83299 0.859144 0.842191
0.888777 0.851575 0.835157
0.885328 0.847303 0.822553
0.88101 0.838743 0.793103
0.101472 0.84271 0.86865
0.095201 0.844083 0.863432
0.0840772 0.845914 0.853422
0.0703136 0.846494 0.824445
0.117342 0.858763 0.779538
0.781521 0.894942 0.807416
0.876905 0.93019 0.82472
0.881941 0.930282 0.823499
0.880766 0.927062 0.812497
0.105943 0.841917 0.871427
0.0953384 0.844129 0.865431
0.0809949 0.846479 0.853178
0.0694133 0.847044 0.821057
0.119509 0.856275 0.761578
0.739651 0.878202 0.778775
0.838926 0.908522 0.745556
0.824857 0.842786 0.354711
0.824994 0.843 0.354116
0.0798657 0.846326 0.851484
0.0724193 0.84654 0.844175
0.0701762 0.84654 0.830488
0.0875868 0.847333 0.799115
0.150927 0.84773 0.719158
0.65864 0.858289 0.722545
0.809903 0.890745 0.692363
0.826978 0.843778 0.37499
0.825025 0.843 0.35433
0.116426 0.0870832 0.583627
0.144335 0.0897078 0.584741
0.237552 0.0753185 0.585946
0.499947 0.112932 0.620584
0.734737 0.13611 0.687144
0.734737 0.13611 0.687144
0.734737 0.13611 0.687144
0.734737 0.13611 0.687144
0.734737 0.13611 0.687144
0.0966812 0.0890516 0.590661
0.11899 0.0869459 0.583246
0.212787 0.0738689 0.586221
0.483345 0.108507 0.615579
0.734737 0.13611 0.687144
0.734737 0.13611 0.687144
0.734737 0.13611 0.687144
0.734737 0.13611 0.687144
0.734737 0.13611 0.687144
0.090959 0.149264 0.666682
0.08365 0.127077 0.646525
0.127504 0.0875868 0.5832
0.417578 0.0971695 0.603876
0.734035 0.136004 0.6869
0.734737 0.13611 0.687144
0.734737 0.13611 0.687144
0.734737 0.13611 0.687144
0.734737 0.13611 0.687144
0.0990158 0.288594 0.720836
0.0979782 0.278569 0.71754
0.0969558 0.247181 0.707973
0.223178 0.121996 0.630106
0.648508 0.145388 0.667277
0.734478 0.136492 0.6869
0.734493 0.136477 0.6869
0.734417 0.136553 0.686839
0.734554 0.1364 0.686976
0.0295109 0.596826 0.788693
0.0304112 0.592981 0.788464
0.0325628 0.583597 0.787884
0.0441291 0.555245 0.784787
0.597757 0.534157 0.834806
0.845808 0.569512 0.824979
0.843122 0.559442 0.821714
0.842283 0.55581 0.820951
0.835218 0.527062 0.812314
0.0835584 0.804044 0.863462
0.0798199 0.797024 0.860578
0.0648356 0.774762 0.851881
0.0425269 0.714199 0.82771
0.0824445 0.727871 0.853208
0.794217 0.800412 0.907805
0.893034 0.812787 0.8972
0.892653 0.807385 0.894118
0.891432 0.793835 0.882017
0.104616 0.838972 0.88011
0.104616 0.838972 0.88011
0.104616 0.838972 0.88011
0.104616 0.838972 0.88011
0.105653 0.857664 0.88069
0.671458 0.884916 0.877531
0.895903 0.932708 0.915267
0.913466 0.930098 0.915801
0.910414 0.926024 0.908583
0.104616 0.838972 0.88011
0.104616 0.838972 0.88011
0.104616 0.838972 0.88011
0.104616 0.838972 0.88011
0.0884718 0.855634 0.863706
0.211124 0.877913 0.857618
0.882353 0.941634 0.905608
0.915496 0.945159 0.914366
0.915053 0.944976 0.913481
0.104616 0.838972 0.88011
0.104616 0.838972 0.88011
0.104616 0.838972 0.88011
0.105348 0.839323 0.878279
0.0695506 0.849058 0.842542
0.100557 0.8851 0.85359
0.852857 0.932189 0.8813
0.907744 0.942519 0.899107
0.903227 0.941176 0.88687
0.122469 0.0868849 0.58291
0.151003 0.0903029 0.585168
0.24477 0.0760815 0.586191
0.509071 0.11574 0.622827
0.734737 0.13611 0.687144
0.734737 0.13611 0.687144
0.734737 0.13611 0.687144
0.734737 0.13611 0.687144
0.734737 0.13611 0.687144
0.100893 0.0879072 0.587915
0.123903 0.0870222 0.582803
0.219944 0.0740368 0.586053
0.491661 0.110857 0.618524
0.734737 0.13611 0.687144
0.734737 0.13611 0.687144
0.734737 0.13611 0.687144
0.734737 0.13611 0.687144
0.734737 0.13611 0.687144
0.0906691 0.147692 0.665888
0.0822309 0.122881 0.642252
0.133501 0.0882429 0.583597
0.424231 0.0979934 0.604929
0.734737 0.13611 0.687144
0.734737 0.13611 0.687144
0.734737 0.13611 0.687144
0.734737 0.13611 0.687144
0.734737 0.13611 0.687144
0.0992447 0.281651 0.719356
0.098497 0.27129 0.71635
0.0964523 0.238788 0.704097
0.213703 0.111208 0.618463
0.649195 0.142061 0.665125
0.734585 0.13637 0.687007
0.734524 0.136416 0.686946
0.734432 0.136477 0.686854
0.734615 0.136324 0.687037
0.0299535 0.594537 0.788556
0.0309606 0.590845 0.788327
0.0331731 0.581262 0.78764
0.0458534 0.550668 0.783963
0.594568 0.525093 0.831998
0.843107 0.559686 0.821775
0.840177 0.548974 0.818326
0.83949 0.544015 0.817197
0.831968 0.513939 0.808454
0.0823682 0.800641 0.862531
0.0780194 0.792859 0.859327
0.0612955 0.765042 0.846326
0.0408179 0.706813 0.825223
0.0881819 0.720562 0.851255
0.790845 0.789715 0.905913
0.891798 0.802502 0.894499
0.890898 0.795895 0.8925
0.888808 0.779751 0.888121
0.104616 0.838972 0.88011
0.104616 0.838972 0.88011
0.104616 0.838972 0.88011
0.104616 0.838972 0.88011
0.104433 0.842512 0.887144
0.606043 0.853712 0.888899
0.877821 0.916472 0.925383
0.907469 0.919478 0.928206
0.906569 0.911437 0.927016
0.104616 0.838972 0.88011
0.104616 0.838972 0.88011
0.104616 0.838972 0.88011
0.104616 0.838972 0.88011
0.109468 0.849668 0.888823
0.130465 0.876112 0.91104
0.826902 0.933989 0.917159
0.915068 0.950881 0.933501
0.914656 0.950698 0.933364
0.104616 0.838972 0.88011
0.104616 0.838972 0.88011
0.104616 0.838972 0.88011
0.104616 0.838972 0.88011
0.105287 0.840696 0.881437
0.118151 0.875929 0.899794
0.722698 0.912383 0.891478
0.910826 0.950439 0.93257
0.915068 0.950881 0.933501
0.123888 0.0870222 0.582803
0.153475 0.090547 0.585412
0.245319 0.076112 0.586221
0.507042 0.115465 0.622583
0.734737 0.13611 0.687144
0.734737 0.13611 0.687144
0.734737 0.13611 0.687144
0.734737 0.13611 0.687144
0.734737 0.13611 0.687144
0.102953 0.0875715 0.586923
0.12665 0.08748 0.583093
0.220279 0.0740673 0.586099
0.490333 0.110521 0.618173
0.734737 0.13611 0.687144
0.734737 0.13611 0.687144
0.734737 0.13611 0.687144
0.734737 0.13611 0.687144
0.734737 0.13611 0.687144
0.0895705 0.145098 0.663539
0.0808881 0.119722 0.638392
0.135882 0.0884871 0.583795
0.423301 0.0979019 0.604746
0.734737 0.13611 0.687144
0.734737 0.13611 0.687144
0.734737 0.13611 0.687144
0.734737 0.13611 0.687144
0.734737 0.13611 0.687144
0.0987564 0.273121 0.717235
0.0980087 0.262119 0.712932
0.0967575 0.232456 0.702235
0.20766 0.106355 0.611322
0.648066 0.141711 0.664439
0.734646 0.136309 0.687068
0.7346 0.136339 0.687022
0.734524 0.136385 0.686961
0.734661 0.136263 0.687083
0.0309758 0.590768 0.788312
0.0319524 0.587228 0.788449
0.03505 0.5776 0.787579
0.0475929 0.545922 0.782666
0.589395 0.514687 0.82884
0.840528 0.548348 0.818647
0.837644 0.536736 0.81503
0.835721 0.529717 0.812818
0.827802 0.498787 0.803418
0.0788739 0.794842 0.859968
0.0717937 0.785687 0.855863
0.0567178 0.75346 0.841489
0.0394751 0.701701 0.824369
0.0739452 0.713756 0.850278
0.786282 0.781155 0.903624
0.890211 0.794369 0.891905
0.889647 0.787228 0.890089
0.887861 0.770947 0.88542
0.104616 0.838972 0.88011
0.104616 0.838972 0.88011
0.104616 0.838972 0.88011
0.104616 0.838972 0.88011
0.0990921 0.833555 0.882963
0.605951 0.848951 0.887984
0.874083 0.909377 0.924392
0.906996 0.913741 0.927794
0.905791 0.904616 0.92491
0.104616 0.838972 0.88011
0.104616 0.838972 0.88011
0.104616 0.838972 0.88011
0.104616 0.838972 0.88011
0.109392 0.848554 0.887922
0.129152 0.874815 0.911147
0.808774 0.925063 0.91809
0.913237 0.949035 0.934844
0.914839 0.948699 0.934859
0.104616 0.838972 0.88011
0.104616 0.838972 0.88011
0.104616 0.838972 0.88011
0.104616 0.838972 0.88011
0.10518 0.840299 0.881148
0.134508 0.878645 0.913954
0.556039 0.885618 0.892912
0.901518 0.950378 0.932555
0.915068 0.950881 0.933501
