bundles/resolve-cinematic-luts/Phantom Luts/Komodo Phantom FILM LUTs G2/Komodo Phantom FILM LUTs G2/65x/Standard (No WB Offset)/VisionTeal_Komodo_G2_65x.cube
TITLE "Generated by Resolve"
LUT_3D_SIZE 9
0.0222629 0.0351263 0.0329137
0.0509194 0.0323033 0.0314946
0.200916 0.0218051 0.0191958
0.427771 0.0120546 0.0250858
0.637675 0.0246891 0.0784924
0.645487 0.0275273 0.105226
0.635645 0.0241245 0.072694
0.631266 0.0230869 0.0510414
0.651865 0.0269017 0.0562753
0.0208896 0.0634623 0.0324865
0.0407874 0.0566567 0.0371099
0.208667 0.0379034 0.0224765
0.44094 0.0186465 0.026688
0.634165 0.0229953 0.0573892
0.634333 0.0230564 0.0555886
0.643229 0.0239872 0.0566567
0.657191 0.0302586 0.0572061
0.682582 0.0482795 0.0626535
0.0264439 0.220706 0.0438849
0.0246586 0.213519 0.0373236
0.200473 0.222583 0.0363012
0.532326 0.204303 0.0865034
0.696895 0.072343 0.0599527
0.68809 0.0484779 0.0631571
0.704555 0.071107 0.0626993
0.749447 0.145312 0.0833753
0.781338 0.290181 0.130327
0.110369 0.516472 0.148501
0.110292 0.509529 0.119783
0.141909 0.499062 0.111543
0.485588 0.504784 0.10956
0.76199 0.590997 0.171191
0.790631 0.591089 0.181369
0.789883 0.590463 0.183078
0.789868 0.608392 0.1664
0.791394 0.642283 0.150317
0.25658 0.776486 0.298299
0.262623 0.776028 0.268742
0.290883 0.775433 0.249165
0.510903 0.712291 0.253056
0.755657 0.783322 0.277531
0.81297 0.790448 0.311406
0.812894 0.792447 0.314244
0.812299 0.793759 0.316426
0.812375 0.787655 0.306264
0.262257 0.830823 0.410605
0.263157 0.829572 0.406683
0.264149 0.82797 0.396689
0.324208 0.791714 0.268299
0.727077 0.79118 0.327962
0.812909 0.817151 0.382773
0.813001 0.817029 0.388006
0.812848 0.816983 0.38819
0.812757 0.81706 0.387991
0.262119 0.831632 0.41326
0.262654 0.830076 0.408896
0.26537 0.827176 0.396155
0.296468 0.799344 0.280735
0.712657 0.786816 0.323491
0.811093 0.816846 0.377539
0.812772 0.81706 0.388022
0.81294 0.817029 0.388037
0.81297 0.817044 0.388022
0.263157 0.830442 0.412619
0.262181 0.830594 0.409903
0.264149 0.827985 0.397452
0.27744 0.807965 0.305669
0.698314 0.782757 0.320317
0.807126 0.815976 0.372
0.81326 0.817029 0.388037
0.81326 0.817029 0.388037
0.813321 0.816999 0.388128
0.265263 0.828687 0.41091
0.263981 0.829267 0.409384
0.265034 0.827497 0.399603
0.267536 0.823224 0.386938
0.624796 0.765637 0.308431
0.789929 0.813428 0.357809
0.81323 0.817029 0.388006
0.81326 0.817029 0.388052
0.81326 0.817014 0.388037
0.021973 0.0398566 0.0629282
0.0565957 0.0330663 0.072282
0.232975 0.0244907 0.0685588
0.475105 0.021973 0.0906233
0.657191 0.0330053 0.168994
0.660914 0.0350958 0.188067
0.656657 0.032578 0.165652
0.640711 0.0259709 0.0905013
0.645548 0.024155 0.0605478
0.0213931 0.0552377 0.0486
0.0318151 0.0506142 0.0486305
0.208209 0.0190738 0.0235904
0.433021 0.0122377 0.0331426
0.630396 0.0231479 0.0697337
0.63151 0.0233463 0.0685893
0.635233 0.0230869 0.0582284
0.651164 0.0251621 0.0566415
0.680354 0.0435492 0.062211
0.0187228 0.220844 0.063035
0.0212406 0.208179 0.0462959
0.189349 0.213413 0.0366369
0.527886 0.178256 0.0808728
0.683528 0.0534676 0.0604868
0.677546 0.0376593 0.0611276
0.699413 0.0619516 0.0632181
0.748943 0.13724 0.0791333
0.78204 0.300938 0.134737
0.104982 0.519356 0.186511
0.107362 0.510475 0.150973
0.121172 0.494453 0.109422
0.480659 0.500145 0.108248
0.762081 0.584054 0.173571
0.791165 0.580468 0.187762
0.790692 0.578439 0.189944
0.790539 0.611933 0.163104
0.791379 0.647044 0.147478
0.245808 0.776593 0.333471
0.251377 0.771801 0.302693
0.290333 0.772702 0.247196
0.493278 0.709682 0.247211
0.753231 0.781857 0.274769
0.812451 0.788525 0.307408
0.812512 0.789654 0.309621
0.812787 0.790845 0.311727
0.812863 0.785061 0.302327
0.262104 0.832181 0.415122
0.262608 0.830533 0.410803
0.263706 0.828275 0.399481
0.295109 0.799664 0.280446
0.72192 0.789166 0.32668
0.812924 0.817136 0.382406
0.812879 0.817044 0.388037
0.812818 0.816983 0.38822
0.812741 0.81706 0.387991
0.261997 0.833097 0.41828
0.262379 0.831449 0.413672
0.263905 0.828122 0.400351
0.27747 0.808576 0.310887
0.705058 0.784283 0.321309
0.809949 0.816709 0.375952
0.812802 0.81706 0.388022
0.81294 0.817029 0.388037
0.81297 0.817044 0.388022
0.26302 0.83183 0.41709
0.262058 0.832105 0.414847
0.263539 0.828412 0.401083
0.267338 0.815045 0.337942
0.68986 0.78027 0.318547
0.805158 0.815839 0.36994
0.813077 0.816938 0.388281
0.81326 0.817029 0.388037
0.813321 0.817014 0.388113
0.264851 0.829496 0.414572
0.263584 0.83006 0.412787
0.264485 0.827848 0.401999
0.26775 0.82443 0.391806
0.616495 0.764721 0.308553
0.789364 0.813672 0.355413
0.813199 0.817014 0.387839
0.81326 0.817029 0.388052
0.81326 0.817029 0.388037
0.0198978 0.0631113 0.208942
0.0451057 0.0517128 0.232105
0.236835 0.0270848 0.228382
0.484977 0.0443427 0.265431
0.677165 0.0618448 0.335729
0.674968 0.0552682 0.324605
0.673762 0.0514534 0.310704
0.672358 0.0466316 0.281086
0.668238 0.0399329 0.230625
0.0204471 0.0745861 0.173098
0.0202182 0.0575265 0.207858
0.218296 0.0269322 0.213291
0.481117 0.0491035 0.240833
0.673503 0.0502937 0.303227
0.673411 0.0486915 0.295201
0.671702 0.0461891 0.275471
0.667521 0.0399329 0.226566
0.641459 0.0253147 0.0805524
0.0191348 0.192035 0.142947
0.0193027 0.187442 0.140291
0.206241 0.216617 0.195178
0.532448 0.102754 0.133013
0.647318 0.0261234 0.083299
0.646082 0.0245823 0.0714275
0.655024 0.025864 0.0627146
0.701503 0.0668956 0.0692302
0.773754 0.236027 0.112047
0.070161 0.522942 0.273182
0.0670176 0.519051 0.254978
0.0935531 0.488716 0.163073
0.466331 0.48394 0.10309
0.764508 0.557351 0.191348
0.792309 0.536492 0.199222
0.792096 0.555108 0.197559
0.789044 0.596368 0.178363
0.790677 0.638209 0.151354
0.174487 0.796201 0.431281
0.192599 0.787091 0.410986
0.237125 0.756817 0.315557
0.429206 0.705043 0.229572
0.746273 0.774624 0.26659
0.81297 0.782284 0.296513
0.813092 0.782254 0.296407
0.813062 0.782803 0.297765
0.813275 0.782086 0.296254
0.227253 0.853223 0.474845
0.253986 0.842191 0.451911
0.262394 0.831357 0.413291
0.26659 0.819272 0.358602
0.706813 0.784741 0.321996
0.81297 0.817136 0.380911
0.812894 0.817044 0.388022
0.812772 0.816999 0.388159
0.812696 0.817044 0.388052
0.230884 0.860746 0.510292
0.227924 0.853697 0.478813
0.262333 0.832197 0.416007
0.265217 0.824674 0.385061
0.685252 0.779232 0.317143
0.805631 0.815915 0.370611
0.812757 0.817044 0.388022
0.812787 0.817029 0.388083
0.81294 0.817029 0.388022
0.233326 0.860899 0.51516
0.227588 0.854765 0.484764
0.261952 0.832853 0.417273
0.264286 0.827787 0.396307
0.66482 0.774975 0.314107
0.800458 0.814923 0.365896
0.812711 0.817044 0.388006
0.812696 0.816831 0.388678
0.813336 0.816999 0.388128
0.231952 0.851881 0.479637
0.252735 0.843626 0.458579
0.263432 0.830594 0.414603
0.267872 0.824735 0.393378
0.590723 0.760632 0.306996
0.786755 0.814755 0.347738
0.812665 0.81706 0.386847
0.812818 0.816892 0.388525
0.81326 0.817029 0.388037
0.0192569 0.102617 0.412222
0.0220798 0.0874342 0.426047
0.193729 0.0407874 0.445121
0.504494 0.0509346 0.49395
0.690791 0.0601968 0.565667
0.69218 0.0602579 0.570275
0.677928 0.0446937 0.518578
0.676158 0.0476539 0.479271
0.688792 0.0805982 0.4374
0.0194247 0.128862 0.400031
0.0192569 0.0988022 0.411872
0.154284 0.0429541 0.443778
0.495369 0.0488441 0.48397
0.687312 0.0560464 0.550835
0.684092 0.0514382 0.541085
0.675746 0.0458686 0.491829
0.677256 0.0533913 0.468544
0.689586 0.0893873 0.421073
0.0189364 0.185641 0.33666
0.0191501 0.177661 0.343236
0.0299535 0.102846 0.423468
0.459663 0.0429541 0.442679
0.674647 0.0454871 0.497353
0.677256 0.0492866 0.473579
0.686687 0.0704356 0.450278
0.692302 0.0915999 0.413046
0.673884 0.0555428 0.319448
0.035111 0.48983 0.422293
0.0324407 0.485954 0.41912
0.0311894 0.472648 0.406394
0.512413 0.503517 0.470054
0.787869 0.438788 0.437842
0.800473 0.363561 0.361517
0.796155 0.36379 0.305333
0.793667 0.432746 0.288533
0.793912 0.552834 0.248127
0.131807 0.79942 0.570397
0.136202 0.795056 0.560983
0.151019 0.782376 0.53228
0.19202 0.734615 0.369085
0.693141 0.724285 0.275135
0.812451 0.762188 0.268772
0.813123 0.758938 0.264591
0.813458 0.760281 0.266163
0.813565 0.766033 0.273854
0.21619 0.879179 0.612055
0.219409 0.877058 0.605005
0.231907 0.869657 0.57908
0.263066 0.831876 0.418448
0.650446 0.771832 0.312291
0.807507 0.816098 0.373053
0.812772 0.81706 0.389319
0.812757 0.817014 0.38996
0.812421 0.816999 0.388403
0.211826 0.884535 0.63154
0.214069 0.881422 0.621027
0.225666 0.87335 0.590356
0.260975 0.836469 0.429297
0.611383 0.764477 0.309697
0.79237 0.813336 0.360662
0.812268 0.816892 0.388586
0.81236 0.816907 0.388525
0.812497 0.816938 0.388388
0.212772 0.884489 0.633753
0.213474 0.882033 0.622599
0.224994 0.873549 0.590509
0.260349 0.837247 0.432715
0.585245 0.760571 0.308583
0.787564 0.814527 0.350652
0.812375 0.816983 0.386084
0.81236 0.816938 0.388418
0.812009 0.816617 0.389502
0.221897 0.875517 0.604837
0.224628 0.873838 0.594369
0.238956 0.866773 0.569512
0.262821 0.832868 0.421759
0.478599 0.762387 0.287419
0.77232 0.810849 0.336263
0.812543 0.817075 0.38381
0.812528 0.817014 0.38819
0.812268 0.816754 0.389044
0.0193332 0.148547 0.595315
0.01944 0.129839 0.59765
0.180545 0.11606 0.634058
0.49752 0.09337 0.682078
0.73959 0.113512 0.767086
0.738567 0.115526 0.777798
0.738399 0.11783 0.784634
0.738643 0.115053 0.77583
0.736049 0.10396 0.725277
0.0195163 0.177096 0.601633
0.0193027 0.14432 0.594308
0.143435 0.126589 0.629953
0.483925 0.0891127 0.676585
0.739742 0.113024 0.764813
0.738567 0.114885 0.774426
0.738201 0.116564 0.781369
0.739605 0.11397 0.768322
0.728847 0.101686 0.706859
0.0192874 0.256046 0.611444
0.0192416 0.245838 0.616693
0.0191806 0.127382 0.585489
0.421775 0.0717479 0.647288
0.733257 0.109743 0.749462
0.740581 0.112367 0.762219
0.740566 0.112581 0.763714
0.740261 0.108965 0.743008
0.718105 0.098085 0.673136
0.0204623 0.496788 0.611368
0.0204013 0.490654 0.611704
0.0204471 0.464591 0.616175
0.328389 0.347005 0.723461
0.751293 0.28629 0.74316
0.764462 0.19234 0.733486
0.744686 0.152453 0.694682
0.730129 0.11693 0.650156
0.71252 0.0907149 0.565896
0.0821546 0.763455 0.691325
0.0805524 0.761181 0.689357
0.0809033 0.753124 0.68191
0.0817273 0.733516 0.66302
0.742901 0.744564 0.718578
0.87718 0.72462 0.704112
0.871214 0.720958 0.685237
0.86453 0.728496 0.658595
0.850843 0.733379 0.593118
0.128267 0.920928 0.756283
0.129091 0.920424 0.751614
0.131701 0.918242 0.737087
0.156329 0.902754 0.694682
0.517968 0.829389 0.58497
0.821637 0.845457 0.614786
0.841505 0.840223 0.578866
0.844358 0.839628 0.585321
0.824186 0.821073 0.482094
0.122591 0.924804 0.775692
0.123583 0.923506 0.766888
0.126482 0.921447 0.749859
0.158648 0.907759 0.697734
0.296391 0.848447 0.516854
0.780301 0.813779 0.340017
0.812848 0.817151 0.382696
0.812741 0.817075 0.385519
0.812512 0.817105 0.385687
0.122805 0.924788 0.777554
0.123949 0.9234 0.766751
0.126848 0.921157 0.748348
0.161883 0.906615 0.694759
0.248219 0.860655 0.52462
0.765209 0.807874 0.333623
0.81268 0.817151 0.378866
0.812497 0.817105 0.385687
0.812589 0.81709 0.385855
0.127169 0.920958 0.745571
0.130861 0.918837 0.734936
0.144625 0.913451 0.716609
0.185092 0.897124 0.667948
0.230365 0.86009 0.505241
0.732372 0.793408 0.329763
0.808652 0.816526 0.373175
0.812512 0.817121 0.385748
0.812482 0.81709 0.386175
0.0194553 0.141573 0.630655
0.0330358 0.140093 0.640833
0.202716 0.12015 0.672145
0.499077 0.0922408 0.71371
0.738369 0.118166 0.785702
0.738369 0.118166 0.785702
0.738369 0.118166 0.785702
0.738369 0.118166 0.785702
0.738369 0.118181 0.785702
0.0193637 0.154253 0.626947
0.0194553 0.141192 0.631251
0.171466 0.137514 0.670665
0.482216 0.0871138 0.708278
0.738338 0.118181 0.785641
0.738338 0.118181 0.785641
0.738354 0.118166 0.785672
0.738369 0.118181 0.785702
0.738369 0.118166 0.785702
0.0196078 0.257679 0.665797
0.0194705 0.239063 0.662501
0.0195468 0.139666 0.634363
0.407416 0.0723278 0.689113
0.735088 0.117403 0.784009
0.738369 0.118166 0.785702
0.738354 0.118166 0.785702
0.738354 0.118166 0.785702
0.738293 0.118196 0.785611
0.0202487 0.443595 0.697856
0.0203555 0.435111 0.697292
0.0200656 0.404425 0.692088
0.19646 0.227802 0.725933
0.682094 0.169726 0.779431
0.73959 0.120104 0.786603
0.739437 0.120043 0.786435
0.741054 0.122713 0.788037
0.738842 0.11899 0.786053
0.0209964 0.732891 0.759136
0.0212406 0.730312 0.757565
0.021149 0.721004 0.754162
0.0210574 0.701213 0.759777
0.645457 0.635645 0.861708
0.871611 0.642145 0.865171
0.869535 0.634485 0.861463
0.86836 0.628183 0.852872
0.859556 0.583841 0.829435
0.14551 0.915755 0.84448
0.143389 0.912352 0.842222
0.13727 0.903716 0.834455
0.122042 0.869291 0.804257
0.33077 0.854444 0.803021
0.861173 0.872877 0.85037
0.912459 0.865797 0.845258
0.90695 0.855879 0.833478
0.882429 0.835828 0.794171
0.157839 0.926284 0.857145
0.159136 0.925582 0.852934
0.153094 0.925872 0.844831
0.135241 0.927398 0.824308
0.126864 0.934874 0.790616
0.79443 0.900145 0.800732
0.906767 0.924071 0.82739
0.914015 0.923003 0.826886
0.911971 0.9178 0.818845
0.156313 0.926345 0.859312
0.15697 0.926711 0.854536
0.149233 0.927779 0.845167
0.130282 0.929 0.822141
0.126711 0.93164 0.779599
0.746624 0.885771 0.767575
0.865171 0.894057 0.752972
0.812894 0.817151 0.382788
0.812634 0.817182 0.383276
0.148409 0.927626 0.844373
0.144427 0.928069 0.838773
0.136873 0.928634 0.829831
0.120867 0.930068 0.808499
0.126833 0.922881 0.750088
0.663798 0.86836 0.711223
0.836896 0.873579 0.697688
0.813611 0.817639 0.402029
0.812619 0.817166 0.383444
0.0209201 0.139635 0.63563
0.0566873 0.139025 0.646494
0.210025 0.0991531 0.670848
0.517006 0.0977798 0.718685
0.738369 0.118166 0.785702
0.738369 0.118166 0.785702
0.738369 0.118166 0.785702
0.738369 0.118166 0.785702
0.738369 0.118166 0.785702
0.0193179 0.143328 0.628382
0.0234531 0.13991 0.63682
0.19733 0.131975 0.672343
0.498894 0.0921798 0.713619
0.738369 0.118166 0.785702
0.738369 0.118181 0.785702
0.738369 0.118181 0.785702
0.738369 0.118166 0.785702
0.738369 0.118166 0.785702
0.0192874 0.251911 0.664973
0.0194553 0.218601 0.653758
0.0339971 0.140246 0.64152
0.422797 0.0738384 0.692058
0.737697 0.118029 0.785351
0.738369 0.118166 0.785702
0.738369 0.118166 0.785687
0.738369 0.118181 0.785702
0.738369 0.118181 0.785702
0.0200809 0.418494 0.694362
0.0201724 0.407645 0.692882
0.0200656 0.375494 0.687236
0.167788 0.186282 0.701762
0.667643 0.138399 0.76704
0.739132 0.119417 0.786267
0.739116 0.119371 0.786236
0.739223 0.119585 0.786313
0.738949 0.119097 0.786114
0.0213474 0.728511 0.770825
0.0211185 0.7252 0.770169
0.02121 0.717403 0.768215
0.0209659 0.689036 0.763149
0.631128 0.604196 0.86186
0.859754 0.607355 0.867628
0.856718 0.597925 0.865049
0.856199 0.594476 0.864897
0.846799 0.560983 0.857176
0.125048 0.904784 0.860609
0.121782 0.900221 0.859159
0.109697 0.883375 0.851621
0.0718853 0.831312 0.823133
0.114427 0.838895 0.842588
0.822736 0.828214 0.898726
0.909224 0.829602 0.90164
0.908385 0.825254 0.899748
0.905348 0.809445 0.891218
0.145953 0.926879 0.864927
0.145373 0.927169 0.865202
0.145663 0.927016 0.86511
0.145632 0.927031 0.865125
0.164843 0.934325 0.858946
0.727214 0.899351 0.85774
0.916579 0.929564 0.908415
0.93051 0.927794 0.905104
0.925185 0.919417 0.894484
0.145357 0.927184 0.865202
0.145357 0.927184 0.865202
0.145846 0.926925 0.865049
0.14789 0.925902 0.864393
0.15555 0.933242 0.849271
0.281666 0.925994 0.830274
0.900664 0.939391 0.896223
0.935775 0.945891 0.901289
0.936446 0.945754 0.900191
0.145357 0.927184 0.865202
0.145373 0.927169 0.865202
0.145373 0.927169 0.865202
0.148135 0.926848 0.86389
0.14255 0.929595 0.83711
0.164462 0.949203 0.828824
0.873716 0.932189 0.875471
0.925704 0.9411 0.886229
0.929686 0.939529 0.874983
0.0278935 0.13991 0.638498
0.0686198 0.13991 0.650599
0.21239 0.0869306 0.669139
0.526864 0.101427 0.72314
0.738369 0.118166 0.785702
0.738369 0.118166 0.785702
0.738369 0.118166 0.785702
0.738369 0.118166 0.785702
0.738369 0.118166 0.785702
0.01944 0.142382 0.62977
0.0300145 0.140017 0.639597
0.201373 0.123568 0.67245
0.5084 0.0955062 0.717083
0.738369 0.118166 0.785702
0.738369 0.118166 0.785702
0.738369 0.118166 0.785702
0.738369 0.118166 0.785702
0.738369 0.118166 0.785702
0.0195621 0.249546 0.664836
0.0193484 0.210864 0.649287
0.0412604 0.140017 0.643885
0.430945 0.0754101 0.693919
0.738369 0.118166 0.785702
0.738354 0.118166 0.785702
0.738354 0.118166 0.785672
0.738369 0.118181 0.785702
0.738354 0.118166 0.785702
0.0201724 0.411017 0.693599
0.020264 0.400183 0.691569
0.0197604 0.364828 0.684367
0.160525 0.174517 0.694179
0.668803 0.135058 0.766629
0.738872 0.11902 0.786068
0.738979 0.119158 0.786145
0.739055 0.119341 0.78616
0.738735 0.118837 0.785946
0.0213474 0.726574 0.770474
0.0209812 0.723568 0.770092
0.0211185 0.715343 0.767727
0.0210574 0.685283 0.762554
0.629831 0.594675 0.860334
0.856916 0.598245 0.865263
0.853544 0.587884 0.863005
0.853452 0.58352 0.862684
0.844526 0.554513 0.855253
0.123613 0.902464 0.859922
0.119554 0.897337 0.857694
0.103273 0.874464 0.84654
0.0593271 0.825498 0.820493
0.115984 0.830137 0.837659
0.819516 0.819516 0.898741
0.906645 0.820935 0.90013
0.905272 0.814893 0.89926
0.902266 0.800244 0.897154
0.14583 0.92694 0.86508
0.145373 0.927169 0.865202
0.145602 0.927062 0.865141
0.145571 0.927077 0.865141
0.142306 0.929946 0.86807
0.662867 0.881514 0.862974
0.904143 0.91603 0.913664
0.929198 0.917967 0.918013
0.927581 0.912108 0.917342
0.145357 0.927184 0.865202
0.145357 0.927184 0.865202
0.14609 0.926787 0.864988
0.147387 0.926162 0.864744
0.15079 0.933333 0.867323
0.164767 0.948287 0.870512
0.86334 0.934783 0.908049
0.936172 0.946578 0.929503
0.938003 0.945342 0.928939
0.145357 0.927184 0.865202
0.145373 0.927169 0.865202
0.145373 0.927169 0.865202
0.145357 0.927184 0.865202
0.146578 0.928389 0.865568
0.177935 0.944335 0.86247
0.773281 0.921569 0.875059
0.932723 0.949203 0.92636
0.941909 0.951568 0.927428
0.0299992 0.140017 0.639612
0.0724804 0.140475 0.652049
0.212757 0.0863966 0.669261
0.52488 0.100801 0.722423
0.738369 0.118166 0.785702
0.738369 0.118166 0.785702
0.738369 0.118166 0.785702
0.738369 0.118166 0.785702
0.738369 0.118166 0.785702
0.01944 0.141726 0.630274
0.0331731 0.140124 0.641001
0.201724 0.123171 0.672541
0.506752 0.0949874 0.716777
0.738369 0.118166 0.785702
0.738369 0.118166 0.785702
0.738369 0.118166 0.785702
0.738369 0.118166 0.785702
0.738369 0.118166 0.785702
0.0195621 0.245319 0.664347
0.019501 0.205829 0.64654
0.0443122 0.139712 0.644312
0.429862 0.0753185 0.693767
0.738369 0.118166 0.785702
0.738354 0.118166 0.785702
0.738354 0.118166 0.785687
0.738369 0.118181 0.785702
0.738354 0.118166 0.785672
0.020264 0.402579 0.691554
0.0203555 0.390997 0.690196
0.019852 0.356771 0.683391
0.152728 0.167575 0.689204
0.666453 0.133455 0.765423
0.738705 0.118807 0.785946
0.738811 0.118944 0.786023
0.738903 0.119081 0.786084
0.738643 0.118685 0.785885
0.0209812 0.723354 0.76994
0.0212253 0.720012 0.768902
0.0211032 0.711696 0.767178
0.021088 0.679713 0.761196
0.623392 0.585199 0.858396
0.853544 0.586938 0.86305
0.851545 0.575784 0.860624
0.84918 0.569741 0.858854
0.84062 0.540673 0.851575
0.121065 0.898955 0.859068
0.116472 0.891859 0.85568
0.096849 0.865003 0.842008
0.0549172 0.821241 0.818631
0.0960708 0.827298 0.836484
0.815213 0.812451 0.898848
0.90486 0.813657 0.898924
0.903655 0.806821 0.897673
0.900298 0.792706 0.896315
0.145846 0.926925 0.86508
0.145373 0.927169 0.865187
0.145571 0.927077 0.865141
0.145541 0.927092 0.865171
0.137224 0.925353 0.868269
0.662547 0.878096 0.863401
0.901167 0.911315 0.912505
0.92755 0.913603 0.917586
0.925536 0.906508 0.916487
0.145357 0.927184 0.865202
0.145357 0.927184 0.865202
0.145907 0.926894 0.865064
0.147341 0.926192 0.864866
0.150103 0.932677 0.867063
0.162127 0.948165 0.871107
0.846464 0.928176 0.904265
0.933455 0.943954 0.930373
0.937514 0.943328 0.930373
0.145357 0.927184 0.865202
0.145373 0.927169 0.865187
0.145373 0.927169 0.865187
0.145357 0.927184 0.865202
0.146441 0.928267 0.865507
0.165194 0.949752 0.871748
0.621698 0.906111 0.859617
0.924315 0.948074 0.929793
0.943771 0.952392 0.93492
