bundles/resolve-cinematic-luts/Phantom Luts/Komodo Phantom FILM LUTs G2/Komodo Phantom FILM LUTs G2/65x/Standard (No WB Offset)/Vision_Komodo_Legacy_G2_65x.cube
TITLE "Generated by Resolve"
LUT_3D_SIZE 5
0.0360266 0.0486763 0.0390173
0.147845 0.0427405 0.033463
0.622141 0.0676127 0.0683299
0.62504 0.0648508 0.0699779
0.626368 0.0823377 0.0640421
0.040528 0.176959 0.0621958
0.133242 0.185367 0.0473945
0.674907 0.0999924 0.0591745
0.6813 0.101076 0.0633097
0.740093 0.188403 0.096788
0.239628 0.755657 0.351675
0.262562 0.769711 0.337133
0.731197 0.801511 0.271244
0.82681 0.796094 0.260548
0.826825 0.787579 0.247745
0.264851 0.801663 0.429969
0.263615 0.799908 0.419745
0.635676 0.824567 0.371405
0.825345 0.843107 0.360281
0.825315 0.843076 0.360739
0.266407 0.80087 0.431342
0.264179 0.800275 0.422568
0.532265 0.804669 0.394308
0.825238 0.842969 0.361837
0.825238 0.842939 0.362142
0.0376898 0.0541695 0.162097
0.197467 0.0454261 0.148348
0.671916 0.0762646 0.246784
0.66865 0.0660563 0.21944
0.653742 0.05066 0.152834
0.0296635 0.147097 0.128634
0.147921 0.166903 0.14583
0.636179 0.0718547 0.0690929
0.634882 0.083238 0.0644541
0.713588 0.128405 0.0707561
0.225605 0.733959 0.42533
0.224048 0.725612 0.350912
0.720256 0.789441 0.258152
0.828153 0.776852 0.230472
0.828061 0.774182 0.228016
0.281224 0.811048 0.500328
0.2654 0.801816 0.43209
0.59791 0.817899 0.379736
0.825345 0.843122 0.360281
0.825315 0.843076 0.360739
0.278767 0.806394 0.482383
0.266041 0.80148 0.43241
0.501747 0.79794 0.398154
0.825269 0.843122 0.359075
0.825238 0.842939 0.362142
0.0783093 0.0914931 0.567529
0.199756 0.0695506 0.547951
0.736294 0.132265 0.664317
0.734752 0.136217 0.686152
0.733776 0.125185 0.621164
0.0801404 0.15024 0.606836
0.0929122 0.0811933 0.540749
0.728985 0.126558 0.645212
0.736171 0.129442 0.658
0.70985 0.122515 0.554498
0.0503243 0.662242 0.677684
0.0510567 0.652201 0.667613
0.683543 0.701839 0.680873
0.841413 0.669627 0.637186
0.812894 0.661509 0.547036
0.114015 0.84741 0.752361
0.148165 0.845045 0.717449
0.325551 0.810269 0.517143
0.824887 0.842817 0.354299
0.825208 0.843122 0.357412
0.154131 0.844907 0.711925
0.194965 0.840574 0.677409
0.280293 0.810162 0.496254
0.819562 0.84332 0.345647
0.825223 0.843122 0.358221
0.116426 0.0870832 0.583627
0.237552 0.0753185 0.585946
0.734737 0.13611 0.687144
0.734737 0.13611 0.687144
0.734737 0.13611 0.687144
0.090959 0.149264 0.666682
0.127504 0.0875868 0.5832
0.734035 0.136004 0.6869
0.734737 0.13611 0.687144
0.734737 0.13611 0.687144
0.0295109 0.596826 0.788693
0.0325628 0.583597 0.787884
0.597757 0.534157 0.834806
0.843122 0.559442 0.821714
0.835218 0.527062 0.812314
0.104616 0.838972 0.88011
0.104616 0.838972 0.88011
0.105653 0.857664 0.88069
0.895903 0.932708 0.915267
0.910414 0.926024 0.908583
0.104616 0.838972 0.88011
0.104616 0.838972 0.88011
0.0695506 0.849058 0.842542
0.852857 0.932189 0.8813
0.903227 0.941176 0.88687
0.123888 0.0870222 0.582803
0.245319 0.076112 0.586221
0.734737 0.13611 0.687144
0.734737 0.13611 0.687144
0.734737 0.13611 0.687144
0.0895705 0.145098 0.663539
0.135882 0.0884871 0.583795
0.734737 0.13611 0.687144
0.734737 0.13611 0.687144
0.734737 0.13611 0.687144
0.0309758 0.590768 0.788312
0.03505 0.5776 0.787579
0.589395 0.514687 0.82884
0.837644 0.536736 0.81503
0.827802 0.498787 0.803418
0.104616 0.838972 0.88011
0.104616 0.838972 0.88011
0.0990921 0.833555 0.882963
0.874083 0.909377 0.924392
0.905791 0.904616 0.92491
0.104616 0.838972 0.88011
0.104616 0.838972 0.88011
0.10518 0.840299 0.881148
0.556039 0.885618 0.892912
0.915068 0.950881 0.933501
