bundles/resolve-cinematic-luts/Phantom Luts/DJI/DJI Phntm Film LUTs - G3/Vivid Finishing LUT/Mav3 Vivid LUT.cube
TITLE "Generated by Resolve"
LUT_3D_SIZE 9
0 0 0
0.0891737 0 0.0100862
0.19826 0 0.0252232
0.310826 0 0.0336767
0.42443 0 0.0322118
0.541543 0 0.0139467
0.660044 0 0.0104829
0.772534 0 0.0155642
0.878798 0 0.0232395
0.0332189 0.0808118 0
0.0860914 0.0828107 0
0.213748 0.0432593 0
0.335286 0.0142061 0
0.45565 0 0
0.576623 0 0
0.696727 0 0.000381476
0.808942 0 0.00849927
0.91632 0 0.0187076
0.0778515 0.187655 0
0.127337 0.195468 0
0.206851 0.199008 0
0.346181 0.175326 0.0125734
0.479454 0.123278 0.018616
0.603037 0.0951553 0.0138247
0.72462 0.0632334 0.0117647
0.839399 0.0346227 0.0128481
0.948318 0.00866712 0.0163729
0.139528 0.308827 0
0.178607 0.317693 0
0.246555 0.320287 0
0.338994 0.32668 0
0.478691 0.313863 0.0168307
0.621988 0.277623 0.0434577
0.754803 0.229587 0.0545205
0.870176 0.211551 0.0489052
0.979324 0.1953 0.0479591
0.200641 0.437125 0
0.231525 0.446738 0
0.293706 0.450629 0
0.376349 0.452873 0
0.475975 0.459449 0.00363165
0.610986 0.450904 0.0185092
0.751232 0.427832 0.0597391
0.878447 0.397452 0.0869154
0.996994 0.361181 0.105928
0.262577 0.568063 0
0.286122 0.577142 0
0.341634 0.579843 0
0.421546 0.58146 0
0.507454 0.586496 0
0.612543 0.591867 0.0123903
0.73991 0.586542 0.0195773
0.868391 0.575952 0.0670939
0.987549 0.556512 0.106538
0.323751 0.697704 0
0.344671 0.706752 0
0.392569 0.708568 0
0.467628 0.709834 0
0.555947 0.709514 0
0.640986 0.717449 0
0.745983 0.721096 0.0228428
0.861692 0.717144 0.0312657
0.976043 0.71191 0.064332
0.383886 0.823606 0
0.402258 0.831617 0
0.444999 0.832685 0
0.515038 0.831388 0
0.599832 0.8309 0
0.686229 0.830091 0
0.768338 0.838224 0
0.868284 0.839658 0.035172
0.974411 0.835157 0.0427558
0.441154 0.943679 0
0.457603 0.949676 0
0.495491 0.948699 0
0.560494 0.945281 0
0.640192 0.941848 0
0.727428 0.938155 0
0.806027 0.940124 0
0.883604 0.94815 0
0.979431 0.947738 0.0453956
0 0.00939956 0.0851301
0.0863661 0 0.0864881
0.197314 0 0.0728923
0.31191 0 0.0623941
0.426596 0 0.0632792
0.545922 0 0.071397
0.667109 0 0.0843671
0.781857 0 0.0997787
0.890623 0 0.115541
0 0.0860609 0.0827955
0.0923781 0.0923781 0.0923629
0.216205 0.0809033 0.0844587
0.339406 0.065095 0.08365
0.461723 0.0491951 0.0868391
0.583535 0.0301061 0.0908217
0.704128 0.00834669 0.0956283
0.818067 0 0.102342
0.926757 0 0.111025
0.0456397 0.200671 0.0442817
0.109987 0.2094 0.0769513
0.215503 0.209705 0.0826734
0.355535 0.185367 0.0935225
0.487312 0.151858 0.0944839
0.611383 0.13051 0.0923934
0.732494 0.107149 0.0917067
0.848463 0.0827192 0.0934768
0.958206 0.0567941 0.0972763
0.121874 0.321981 0.0559396
0.160998 0.33135 0.0641184
0.242222 0.333852 0.0672618
0.347189 0.3364 0.0808118
0.488518 0.321904 0.0992599
0.63035 0.286397 0.119097
0.758968 0.25098 0.124071
0.87361 0.234195 0.121126
0.983078 0.220066 0.122042
0.187686 0.448722 0.0456092
0.218112 0.459098 0.0557412
0.282704 0.462531 0.0584573
0.377432 0.463493 0.0644083
0.482902 0.467658 0.087541
0.618341 0.457679 0.102312
0.756329 0.435157 0.133486
0.882902 0.405493 0.151446
1 0.370565 0.165164
0.251987 0.577768 0.0369726
0.27689 0.587076 0.0483101
0.329458 0.590417 0.052781
0.417472 0.592386 0.0577859
0.510582 0.594888 0.058381
0.618753 0.599268 0.0981003
0.745373 0.593408 0.105058
0.87219 0.581781 0.140032
0.991196 0.562478 0.166567
0.315129 0.706523 0.0281071
0.336263 0.715038 0.0411688
0.380896 0.717739 0.0498665
0.461082 0.718212 0.0516365
0.554559 0.717983 0.065156
0.644266 0.724025 0.0577554
0.750484 0.726711 0.10779
0.865156 0.722271 0.113893
0.979507 0.716701 0.139193
0.376211 0.83125 0.0257572
0.394858 0.8392 0.0385748
0.433631 0.840253 0.0494087
0.507301 0.838621 0.0464637
0.596353 0.83772 0.0549477
0.686671 0.836255 0.0591135
0.771664 0.843107 0.0614939
0.871595 0.844007 0.117723
0.977111 0.838941 0.122866
0.43386 0.950042 0.0242161
0.450797 0.95581 0.0365759
0.484642 0.95494 0.0485542
0.552132 0.951339 0.0404212
0.635081 0.94725 0.044419
0.725002 0.943664 0.0590829
0.806607 0.944564 0.042359
0.885954 0.951797 0.0655833
0.981735 0.951019 0.125246
0 0.0235447 0.197452
0.0712902 0 0.203189
0.193408 0 0.195254
0.31043 0 0.1841
0.426902 0 0.167483
0.547799 0 0.15256
0.669551 0 0.158282
0.784573 0 0.169009
0.893812 0 0.181979
0 0.107622 0.178302
0.0802014 0.097673 0.208667
0.214023 0.0849622 0.215274
0.341375 0.0838178 0.206394
0.464958 0.0857252 0.192584
0.588357 0.0796063 0.188006
0.709682 0.0682383 0.194934
0.826078 0.059205 0.205264
0.937652 0.0523232 0.21799
0 0.203128 0.196933
0.080415 0.216587 0.213367
0.221225 0.221225 0.221225
0.358892 0.213321 0.21326
0.489036 0.200412 0.206271
0.615717 0.185412 0.20383
0.736141 0.174258 0.207401
0.850996 0.163897 0.213077
0.962341 0.153948 0.220768
0.00454719 0.336217 0.156924
0.0850996 0.351629 0.168795
0.214267 0.352956 0.203357
0.355871 0.349752 0.206577
0.497353 0.33257 0.211734
0.636637 0.303761 0.219532
0.759182 0.286976 0.220111
0.872404 0.274769 0.222339
0.982406 0.263325 0.225559
0.142 0.461463 0.162799
0.190997 0.474571 0.190799
0.250477 0.478859 0.192935
0.364431 0.479652 0.192798
0.490333 0.477897 0.204852
0.627405 0.465675 0.213733
0.7617 0.444038 0.23151
0.885039 0.418311 0.245518
0.99939 0.397284 0.252201
0.225696 0.590478 0.174319
0.255177 0.599802 0.182727
0.303609 0.604074 0.188128
0.398489 0.605753 0.187167
0.507362 0.606699 0.190463
0.624964 0.607553 0.211231
0.750576 0.600412 0.217502
0.875288 0.58822 0.241032
0.992432 0.570016 0.258549
0.294682 0.716747 0.17026
0.318578 0.725567 0.181552
0.359411 0.728267 0.189044
0.441016 0.729519 0.188388
0.543191 0.729625 0.193088
0.644572 0.732143 0.193591
0.754223 0.732433 0.221317
0.868025 0.727489 0.225925
0.981674 0.721019 0.242649
0.358251 0.84004 0.173663
0.378439 0.847333 0.184207
0.415061 0.848432 0.192767
0.486885 0.847425 0.193774
0.581781 0.845304 0.19443
0.680156 0.843198 0.199329
0.771908 0.847669 0.198581
0.872862 0.847517 0.229206
0.978607 0.842283 0.231907
0.417594 0.956878 0.178637
0.435401 0.962386 0.18761
0.467994 0.961288 0.194385
0.531197 0.957931 0.195056
0.61912 0.95349 0.191379
0.714504 0.950088 0.196551
0.802792 0.949371 0.190951
0.886427 0.955001 0.200534
0.982513 0.953719 0.234195
0 0.0439002 0.311101
0.0576944 0.0120851 0.321035
0.182635 0 0.317632
0.30576 0 0.308766
0.426917 0 0.301778
0.549172 0 0.294667
0.671138 0 0.28719
0.787717 0 0.281529
0.89984 0.000106813 0.279271
0 0.129915 0.299336
0.0702983 0.116548 0.326452
0.201053 0.0867018 0.342611
0.33875 0.082414 0.341207
0.466636 0.0808881 0.33518
0.590204 0.0872511 0.325689
0.711086 0.0930648 0.317327
0.828931 0.0993362 0.311986
0.940963 0.100771 0.312917
0 0.223041 0.291539
0.0407874 0.23154 0.313512
0.206424 0.220874 0.351949
0.357717 0.212436 0.359152
0.490776 0.208301 0.349325
0.615686 0.209491 0.336141
0.736049 0.212589 0.326574
0.850172 0.213153 0.328969
0.961379 0.212207 0.338155
0 0.333043 0.324605
0.0716411 0.347478 0.340993
0.205951 0.357809 0.354833
0.36025 0.36025 0.36025
0.503685 0.35462 0.351919
0.633143 0.346136 0.344472
0.754955 0.337469 0.342763
0.866575 0.331731 0.344915
0.975891 0.325261 0.348775
0.00257877 0.470558 0.307805
0.0948348 0.485145 0.318608
0.20473 0.495171 0.327977
0.342611 0.499687 0.343267
0.498985 0.492592 0.345205
0.635294 0.480186 0.344854
0.766751 0.461418 0.352346
0.882872 0.448814 0.357992
0.991135 0.440879 0.362615
0.0659648 0.609445 0.25156
0.161944 0.619455 0.280674
0.264408 0.62179 0.327352
0.363561 0.624445 0.333013
0.494987 0.624445 0.331319
0.632013 0.619669 0.341451
0.75877 0.610529 0.346181
0.879377 0.598047 0.359808
0.992828 0.583047 0.372412
0.23534 0.730114 0.294591
0.2766 0.739406 0.324422
0.330053 0.743404 0.331319
0.403723 0.745449 0.332677
0.518669 0.745953 0.328725
0.640192 0.743938 0.330999
0.759152 0.741482 0.347387
0.872267 0.734768 0.351675
0.984085 0.72726 0.365057
0.32018 0.852552 0.325368
0.342931 0.8598 0.333104
0.384344 0.860533 0.334905
0.446952 0.860349 0.338262
0.549081 0.859083 0.333043
0.66244 0.855909 0.334157
0.769528 0.855238 0.335149
0.875578 0.853407 0.355901
0.979797 0.847196 0.358099
0.383505 0.967147 0.329564
0.403143 0.972442 0.335698
0.439551 0.970901 0.33669
0.494377 0.968154 0.340581
0.58616 0.964019 0.336004
0.691249 0.960235 0.333989
0.790967 0.957321 0.334096
0.884459 0.959731 0.338537
0.983734 0.957748 0.360555
0 0.0751507 0.425849
0.0531624 0.0476692 0.435874
0.162936 0 0.438453
0.298299 0 0.432166
0.424521 0 0.428794
0.550134 0 0.426963
0.67393 0 0.428931
0.788708 0 0.427131
0.900481 0.00352483 0.427817
0 0.152239 0.421775
0.0603952 0.140719 0.444511
0.183047 0.0892653 0.468391
0.32932 0.085832 0.468513
0.463447 0.0819562 0.467155
0.591287 0.0809339 0.463645
0.714076 0.0845502 0.462898
0.829145 0.0972305 0.460243
0.940948 0.108034 0.459968
0 0.246052 0.402991
0.0365759 0.248936 0.431189
0.193637 0.231754 0.471153
0.342367 0.210742 0.490349
0.486656 0.207797 0.489387
0.61767 0.20676 0.483223
0.737682 0.210773 0.477012
0.849515 0.218997 0.472755
0.959243 0.226719 0.470878
0 0.348486 0.422766
0.0176852 0.360937 0.441245
0.164172 0.366659 0.460655
0.347127 0.357961 0.499397
0.503273 0.352316 0.504692
0.637644 0.347097 0.494896
0.755535 0.347356 0.482475
0.865141 0.351614 0.476295
0.971252 0.357565 0.473014
0 0.469154 0.458549
0.0691844 0.483253 0.474128
0.198962 0.49276 0.486442
0.34548 0.501366 0.498573
0.501381 0.501381 0.501381
0.646143 0.49781 0.494957
0.767147 0.491615 0.487572
0.877226 0.489021 0.486702
0.982803 0.487449 0.489342
0 0.604929 0.449897
0.0896773 0.618677 0.462837
0.210101 0.628321 0.469581
0.341939 0.636637 0.478584
0.474372 0.645228 0.486671
0.641764 0.634974 0.488167
0.765637 0.625589 0.484398
0.882185 0.614847 0.488884
0.991943 0.604929 0.495659
0.0558938 0.744076 0.414389
0.131853 0.755322 0.42771
0.226764 0.762631 0.436713
0.349798 0.767208 0.463401
0.489738 0.763561 0.478294
0.623652 0.762234 0.474464
0.765026 0.753338 0.482368
0.874311 0.747875 0.482246
0.986221 0.737148 0.491417
0.131807 0.874723 0.385489
0.201953 0.882277 0.407874
0.302724 0.880552 0.44332
0.417182 0.87509 0.482567
0.515038 0.873793 0.478874
0.641169 0.87129 0.471641
0.765103 0.866041 0.473365
0.878538 0.862364 0.48542
0.981277 0.855695 0.486656
0.292546 0.984253 0.42649
0.327672 0.989441 0.447578
0.396948 0.983795 0.481437
0.467353 0.979232 0.481819
0.549645 0.976211 0.479866
0.662898 0.972671 0.471
0.776333 0.968811 0.471565
0.882521 0.967361 0.474525
0.985351 0.964416 0.490532
0 0.11104 0.543694
0.0406195 0.0880751 0.55172
0.146334 0.00862135 0.557641
0.284825 0 0.555413
0.421775 0 0.554223
0.550362 0 0.555917
0.675563 0 0.559533
0.790661 0 0.563912
0.901747 0 0.569772
0 0.177752 0.543633
0.0489509 0.167941 0.563195
0.183429 0.132067 0.583459
0.314855 0.0921035 0.593057
0.457832 0.0830854 0.593286
0.589609 0.0823682 0.594278
0.715709 0.0830701 0.596536
0.832349 0.0861982 0.600855
0.943343 0.0962997 0.605615
0 0.268482 0.524514
0.0306554 0.268132 0.554238
0.183352 0.249928 0.588266
0.326177 0.212192 0.617456
0.476585 0.208087 0.617655
0.61387 0.207904 0.617563
0.739116 0.209842 0.616281
0.852888 0.213733 0.617517
0.960723 0.222507 0.61796
0 0.373144 0.519783
0 0.381476 0.54226
0.147677 0.380163 0.572778
0.33109 0.363012 0.618051
0.487114 0.348165 0.636042
0.632212 0.346456 0.63476
0.757229 0.346303 0.629572
0.867597 0.349187 0.626535
0.971023 0.357153 0.622614
0 0.481682 0.55726
0 0.49398 0.573892
0.151308 0.501518 0.587839
0.309346 0.505043 0.607569
0.490425 0.49929 0.642985
0.64567 0.495201 0.647135
0.773007 0.490776 0.639017
0.881209 0.491554 0.629725
0.984771 0.495354 0.624537
0 0.60592 0.592599
0.0685588 0.618341 0.606836
0.199329 0.626917 0.617594
0.338491 0.634958 0.629191
0.489448 0.643671 0.641688
0.641306 0.641306 0.641306
0.778424 0.640192 0.637415
0.888411 0.634989 0.630549
0.990967 0.632975 0.627741
0.0159304 0.738582 0.594171
0.10808 0.749783 0.606455
0.222599 0.757076 0.613657
0.349691 0.764935 0.620081
0.484413 0.770596 0.629664
0.6177 0.778088 0.629831
0.773068 0.766552 0.629862
0.883879 0.758892 0.624216
0.990341 0.749615 0.624628
0.0593729 0.870558 0.584283
0.140703 0.879561 0.594705
0.246479 0.88249 0.598947
0.360769 0.885756 0.605417
0.486961 0.888655 0.619043
0.615976 0.886671 0.620295
0.748196 0.883299 0.615961
0.883131 0.872435 0.622003
0.983764 0.867079 0.618357
0.109712 0.994812 0.556313
0.169741 1 0.564904
0.259113 1 0.570077
0.364904 1 0.583276
0.520195 0.990311 0.624048
0.631861 0.986572 0.615991
0.75172 0.98529 0.607767
0.873747 0.979126 0.612222
0.988418 0.973571 0.621454
0 0.145968 0.660517
0.0260777 0.127779 0.667979
0.152361 0.0739605 0.672953
0.270832 0 0.676188
0.414313 0 0.6757
0.551232 0 0.679011
0.676204 0 0.682811
0.794705 0 0.690776
0.903944 0 0.696315
0 0.205325 0.663676
0.035111 0.197223 0.681056
0.173693 0.166812 0.697643
0.300252 0.0962692 0.713085
0.447837 0.0937819 0.714015
0.587945 0.0839246 0.71751
0.715679 0.0841535 0.721843
0.836576 0.0879835 0.730068
0.946014 0.0928511 0.734691
0 0.291447 0.646601
0.0212711 0.289143 0.67451
0.174029 0.271015 0.700877
0.31548 0.223133 0.73254
0.463203 0.213657 0.737224
0.607813 0.209079 0.739132
0.73637 0.211139 0.741222
0.854963 0.216037 0.746487
0.964126 0.22034 0.749889
0 0.394278 0.631693
0 0.400443 0.653986
0.143069 0.395605 0.686336
0.320424 0.374594 0.727626
0.472175 0.348638 0.756481
0.621942 0.344701 0.756085
0.752697 0.347127 0.756512
0.868406 0.351308 0.757
0.974701 0.355703 0.757565
0 0.503212 0.648936
0 0.51342 0.663752
0.0963455 0.51841 0.680339
0.285847 0.515694 0.709926
0.474296 0.499443 0.754788
0.63032 0.489219 0.769833
0.767895 0.49015 0.770596
0.883131 0.491829 0.767559
0.988052 0.494072 0.765423
0 0.616266 0.687083
0 0.627192 0.700328
0.147311 0.634012 0.712642
0.303502 0.639887 0.727199
0.460136 0.642908 0.746441
0.63389 0.639994 0.775906
0.778073 0.637629 0.779446
0.894179 0.633997 0.773007
0.996323 0.632181 0.763439
0 0.741253 0.725902
0.0699321 0.752468 0.73846
0.205234 0.758236 0.746563
0.342168 0.763989 0.755261
0.483055 0.770092 0.764843
0.631922 0.774639 0.773114
0.77055 0.77055 0.77055
0.895445 0.770367 0.767926
1 0.764569 0.762127
0.0341192 0.866148 0.737377
0.122866 0.875212 0.74699
0.236973 0.878431 0.750881
0.363119 0.881483 0.754208
0.492332 0.885847 0.7579
0.624155 0.888395 0.765393
0.750896 0.89546 0.761547
0.890806 0.885039 0.761456
0.995453 0.876844 0.754147
0.0358282 0.989609 0.73492
0.123064 0.996185 0.742245
0.243275 0.996307 0.742916
0.370733 0.994949 0.742855
0.495796 0.99559 0.744762
0.621225 0.995361 0.758526
0.731487 0.999435 0.74905
0.857069 0.997009 0.745617
0.994949 0.984604 0.751904
0 0.178225 0.767681
0.0106813 0.163333 0.77525
0.142779 0.123125 0.782223
0.255772 0 0.787793
0.407126 0 0.789334
0.548653 0 0.790646
0.67892 0 0.796811
0.795361 0 0.803113
0.910994 0 0.814832
0 0.232776 0.774517
0.0204166 0.225772 0.791241
0.164416 0.199298 0.8065
0.288945 0.106859 0.825772
0.439734 0.100298 0.827817
0.583917 0.0923476 0.829389
0.717617 0.0864424 0.836912
0.836454 0.0898909 0.843473
0.952712 0.0958114 0.854536
0 0.314183 0.760525
0.00848402 0.311131 0.786557
0.164691 0.293675 0.808118
0.316106 0.255421 0.83212
0.452766 0.21799 0.847913
0.599847 0.214847 0.848692
0.735058 0.213184 0.854246
0.854002 0.217411 0.860182
0.968887 0.223606 0.868925
0 0.415763 0.740124
0 0.420508 0.762798
0.139025 0.412375 0.793942
0.312474 0.389593 0.82797
0.459861 0.350439 0.864622
0.609583 0.348653 0.863447
0.746883 0.347906 0.866377
0.865064 0.352758 0.870039
0.977829 0.359396 0.875746
0 0.526101 0.738796
0 0.533867 0.756115
0.0793317 0.534218 0.776303
0.280827 0.526055 0.810468
0.463127 0.506416 0.852995
0.616968 0.489006 0.87866
0.758251 0.487678 0.87985
0.878996 0.492607 0.88249
0.98909 0.497215 0.88397
0 0.633814 0.773327
0 0.643824 0.785519
0.0821698 0.649104 0.795087
0.264454 0.652552 0.81088
0.4336 0.650935 0.83801
0.618845 0.637171 0.878721
0.76437 0.630961 0.89015
0.889311 0.633097 0.891783
0.998199 0.633127 0.888197
0 0.749752 0.810513
0 0.759976 0.822995
0.151583 0.764904 0.832425
0.308659 0.768124 0.842969
0.45716 0.771191 0.855329
0.606241 0.773007 0.869322
0.766369 0.770108 0.894926
0.895674 0.768627 0.896864
1 0.762966 0.888685
0 0.870436 0.85301
0.0755627 0.879362 0.863203
0.211933 0.882002 0.868025
0.349722 0.883192 0.87216
0.485344 0.885557 0.877836
0.624674 0.888197 0.883665
0.761654 0.890593 0.889158
0.886915 0.886915 0.886915
1 0.885405 0.884352
0.0478218 0.985489 0.865064
0.133165 0.99202 0.871885
0.245045 0.99234 0.872801
0.371298 0.991211 0.872572
0.498772 0.992401 0.872999
0.627207 0.99472 0.874739
0.752621 0.998642 0.880735
0.866194 1 0.87628
1 0.996841 0.87805
0 0.208942 0.868788
0 0.19617 0.876387
0.132357 0.164187 0.884978
0.264393 0.0649577 0.893324
0.398825 0.0030518 0.895964
0.54435 0 0.897597
0.678676 0 0.900725
0.79855 0 0.91075
0.911589 0 0.920394
0 0.259785 0.878691
0.00511177 0.253788 0.89485
0.154604 0.230076 0.909392
0.302358 0.17113 0.926726
0.431281 0.105745 0.935805
0.578866 0.102861 0.937224
0.716701 0.0901045 0.941649
0.838651 0.0927596 0.951644
0.952087 0.0982986 0.960128
0 0.336492 0.867262
0 0.333684 0.891279
0.155062 0.317464 0.910964
0.308858 0.281132 0.932204
0.443229 0.221912 0.955444
0.593439 0.2215 0.955917
0.732479 0.215915 0.958968
0.854765 0.21976 0.967773
0.96762 0.22533 0.974563
0 0.436667 0.843626
0 0.440299 0.86743
0.132342 0.430488 0.897948
0.305623 0.407111 0.92604
0.457679 0.368765 0.95819
0.600458 0.352667 0.966583
0.739879 0.350576 0.968048
0.862943 0.354696 0.975433
0.975906 0.36051 0.981613
0 0.54519 0.834699
0 0.552224 0.85275
0.0667124 0.550912 0.873365
0.278065 0.538506 0.908263
0.455024 0.51693 0.94609
0.605798 0.490196 0.979767
0.747311 0.489403 0.980392
0.872847 0.492699 0.986297
0.985275 0.497978 0.989731
0 0.653681 0.851011
0 0.663066 0.864012
0.00646983 0.667109 0.876112
0.237034 0.66743 0.89546
0.424216 0.658442 0.929412
0.607004 0.640482 0.971481
0.751385 0.629252 0.992905
0.879683 0.629404 0.995331
0.993439 0.632822 0.996674
0 0.764263 0.89395
0 0.774029 0.90518
0.0738537 0.778714 0.912657
0.266102 0.780194 0.920607
0.423484 0.780301 0.934966
0.583871 0.77583 0.959243
0.751354 0.765911 0.992813
0.882246 0.761608 1
1 0.761608 1
0 0.877287 0.93193
0 0.885695 0.942199
0.155779 0.887892 0.948104
0.314351 0.887617 0.954009
0.459495 0.887434 0.961868
0.602182 0.887556 0.971405
0.740368 0.888884 0.984237
0.88426 0.887175 1
1 0.883558 1
0 0.990265 0.970962
0.0779583 0.996841 0.97821
0.214466 0.996674 0.980591
0.352087 0.994583 0.981094
0.488167 0.993835 0.983856
0.621515 0.994629 0.987579
0.753948 0.998215 0.994858
0.876432 1 0.998642
0.998154 0.998154 0.998154
