bundles/resolve-cinematic-luts/Phantom Luts/DJI/DJI Phntm Film LUTs - G3/Vivid Finishing LUT/Mav3 Vivid LUT.cube
TITLE "Generated by Resolve"
LUT_3D_SIZE 5
0 0 0
0.19826 0 0.0252232
0.42443 0 0.0322118
0.660044 0 0.0104829
0.878798 0 0.0232395
0.0778515 0.187655 0
0.206851 0.199008 0
0.479454 0.123278 0.018616
0.72462 0.0632334 0.0117647
0.948318 0.00866712 0.0163729
0.200641 0.437125 0
0.293706 0.450629 0
0.475975 0.459449 0.00363165
0.751232 0.427832 0.0597391
0.996994 0.361181 0.105928
0.323751 0.697704 0
0.392569 0.708568 0
0.555947 0.709514 0
0.745983 0.721096 0.0228428
0.976043 0.71191 0.064332
0.441154 0.943679 0
0.495491 0.948699 0
0.640192 0.941848 0
0.806027 0.940124 0
0.979431 0.947738 0.0453956
0 0.0235447 0.197452
0.193408 0 0.195254
0.426902 0 0.167483
0.669551 0 0.158282
0.893812 0 0.181979
0 0.203128 0.196933
0.221225 0.221225 0.221225
0.489036 0.200412 0.206271
0.736141 0.174258 0.207401
0.962341 0.153948 0.220768
0.142 0.461463 0.162799
0.250477 0.478859 0.192935
0.490333 0.477897 0.204852
0.7617 0.444038 0.23151
0.99939 0.397284 0.252201
0.294682 0.716747 0.17026
0.359411 0.728267 0.189044
0.543191 0.729625 0.193088
0.754223 0.732433 0.221317
0.981674 0.721019 0.242649
0.417594 0.956878 0.178637
0.467994 0.961288 0.194385
0.61912 0.95349 0.191379
0.802792 0.949371 0.190951
0.982513 0.953719 0.234195
0 0.0751507 0.425849
0.162936 0 0.438453
0.424521 0 0.428794
0.67393 0 0.428931
0.900481 0.00352483 0.427817
0 0.246052 0.402991
0.193637 0.231754 0.471153
0.486656 0.207797 0.489387
0.737682 0.210773 0.477012
0.959243 0.226719 0.470878
0 0.469154 0.458549
0.198962 0.49276 0.486442
0.501381 0.501381 0.501381
0.767147 0.491615 0.487572
0.982803 0.487449 0.489342
0.0558938 0.744076 0.414389
0.226764 0.762631 0.436713
0.489738 0.763561 0.478294
0.765026 0.753338 0.482368
0.986221 0.737148 0.491417
0.292546 0.984253 0.42649
0.396948 0.983795 0.481437
0.549645 0.976211 0.479866
0.776333 0.968811 0.471565
0.985351 0.964416 0.490532
0 0.145968 0.660517
0.152361 0.0739605 0.672953
0.414313 0 0.6757
0.676204 0 0.682811
0.903944 0 0.696315
0 0.291447 0.646601
0.174029 0.271015 0.700877
0.463203 0.213657 0.737224
0.73637 0.211139 0.741222
0.964126 0.22034 0.749889
0 0.503212 0.648936
0.0963455 0.51841 0.680339
0.474296 0.499443 0.754788
0.767895 0.49015 0.770596
0.988052 0.494072 0.765423
0 0.741253 0.725902
0.205234 0.758236 0.746563
0.483055 0.770092 0.764843
0.77055 0.77055 0.77055
1 0.764569 0.762127
0.0358282 0.989609 0.73492
0.243275 0.996307 0.742916
0.495796 0.99559 0.744762
0.731487 0.999435 0.74905
0.994949 0.984604 0.751904
0 0.208942 0.868788
0.132357 0.164187 0.884978
0.398825 0.0030518 0.895964
0.678676 0 0.900725
0.911589 0 0.920394
0 0.336492 0.867262
0.155062 0.317464 0.910964
0.443229 0.221912 0.955444
0.732479 0.215915 0.958968
0.96762 0.22533 0.974563
0 0.54519 0.834699
0.0667124 0.550912 0.873365
0.455024 0.51693 0.94609
0.747311 0.489403 0.980392
0.985275 0.497978 0.989731
0 0.764263 0.89395
0.0738537 0.778714 0.912657
0.423484 0.780301 0.934966
0.751354 0.765911 0.992813
1 0.761608 1
0 0.990265 0.970962
0.214466 0.996674 0.980591
0.488167 0.993835 0.983856
0.753948 0.998215 0.994858
0.998154 0.998154 0.998154
