bundles/resolve-cinematic-luts/Phantom Luts/DJI/DJI Phntm Film LUTs - G3/Vivid Finishing LUT/Mav3 Vivid LUT.cube
TITLE "Generated by Resolve"
LUT_3D_SIZE 33
0 0 0
0.0198215 0 0.00184634
0.0420844 0 0.00422675
0.0648508 0 0.00708019
0.0891737 0 0.0100862
0.115953 0 0.0137026
0.143053 0 0.0180667
0.170336 0 0.0217746
0.19826 0 0.0252232
0.226001 0 0.0281376
0.254078 0 0.0306249
0.282231 0 0.0325628
0.310826 0 0.0336767
0.339193 0 0.0343481
0.367681 0 0.0342565
0.396094 0 0.033463
0.42443 0 0.0322118
0.452827 0 0.0301213
0.482292 0 0.0267338
0.512398 0 0.0222019
0.541543 0 0.0139467
0.571237 0 0.0112154
0.601251 0 0.010193
0.631113 0 0.0101015
0.660044 0 0.0104829
0.688945 0 0.011429
0.717418 0 0.0126345
0.745281 0 0.0141604
0.772534 0 0.0155642
0.799222 0 0.0172732
0.826291 0 0.0194247
0.852537 0 0.021088
0.878798 0 0.0232395
0.0074464 0.0187076 0
0.0198825 0.0191043 0
0.0453651 0.0121004 0
0.0700389 0.00833143 0
0.0962997 0.000457771 0
0.123766 0 0.00604257
0.150362 0 0.0128481
0.176715 0 0.0174868
0.203784 0 0.0210727
0.231601 0 0.0239261
0.259434 0 0.0260014
0.287587 0 0.0275578
0.316106 0 0.0283513
0.344915 0 0.0282597
0.373495 0 0.0277104
0.402304 0 0.0261082
0.431952 0 0.023682
0.461494 0 0.0199741
0.489921 0 0.0125734
0.519524 0 0.00932326
0.549722 0 0.00843824
0.580118 0 0.00802625
0.610574 0 0.00830091
0.640757 0 0.00909438
0.670207 0 0.0102541
0.69897 0 0.0113985
0.727398 0 0.0129397
0.755261 0 0.0145876
0.782574 0 0.0163272
0.809522 0 0.0184176
0.836088 0 0.020325
0.862715 0 0.0223697
0.889296 0 0.0249638
0.0158846 0.0386816 0
0.0256809 0.0392004 0
0.0410773 0.0392462 0
0.0662394 0.0346685 0.00151064
0.0948348 0.0236057 0
0.122591 0.0183871 0
0.15172 0.00881972 0
0.182055 0 0
0.210727 0 0.00425727
0.237629 0 0.0102541
0.265675 0 0.0131685
0.294011 0 0.0155489
0.323171 0 0.0162051
0.35288 0 0.0154116
0.3823 0 0.0136568
0.411566 0 0.0105135
0.439338 0 0.00500496
0.468727 0 0.00337224
0.498222 0 0.00294499
0.528328 0 0.00318914
0.558862 0 0.00366217
0.589517 0 0.00448615
0.620111 0 0.00550851
0.650095 0 0.00672923
0.679377 0 0.0080415
0.708476 0 0.00949111
0.736675 0 0.011017
0.764538 0 0.0129397
0.791897 0 0.0149386
0.818998 0 0.0171054
0.845716 0 0.0192721
0.872328 0 0.0215152
0.898787 0 0.0239719
0.0243534 0.0589914 0
0.0327153 0.0591897 0
0.0456703 0.0598306 0
0.0635386 0.0603647 0
0.0887617 0.0564889 0.000732433
0.120592 0.0441291 0.00157168
0.152255 0.0322881 0
0.181079 0.0264744 0
0.21033 0.0182193 0
0.240009 0.00866712 0
0.270115 0 0
0.301076 0 0
0.33193 0 0
0.363073 0 0
0.390311 0 0
0.418708 0 0
0.447944 0 0
0.477409 0 0
0.507622 0 0
0.537835 0 0
0.568063 0 0
0.59855 0 0.000579843
0.629374 0 0.00224308
0.659159 0 0.00334173
0.688533 0 0.005066
0.71751 0 0.00686656
0.745876 0 0.00860609
0.773846 0 0.0106661
0.801236 0 0.0129091
0.82797 0 0.0149538
0.854887 0 0.0172885
0.881529 0 0.0198215
0.908095 0 0.0222477
0.0332189 0.0808118 0
0.040589 0.0806287 0
0.0530556 0.0820935 0
0.066743 0.0835279 0
0.0860914 0.0828107 0
0.116335 0.0776379 0.000717174
0.150484 0.0653544 0.00320439
0.183642 0.0489357 0
0.213748 0.0432593 0
0.243824 0.0369268 0
0.274052 0.0298009 0
0.304616 0.021973 0
0.335286 0.0142061 0
0.365576 0.0061799 0
0.395407 0 0
0.425574 0 0
0.45565 0 0
0.485664 0 0
0.515618 0 0
0.546059 0 0
0.576623 0 0
0.607019 0 0
0.637339 0 0
0.667063 0 0
0.696727 0 0.000381476
0.72546 0 0.00209049
0.753918 0 0.00421149
0.781796 0 0.00650034
0.808942 0 0.00849927
0.836133 0 0.0110018
0.863279 0 0.0137789
0.88986 0 0.0159762
0.91632 0 0.0187076
0.0437629 0.104585 0
0.0509804 0.104707 0
0.0616465 0.105852 0
0.0754406 0.107546 0
0.0908064 0.110109 0
0.113497 0.109407 0
0.145373 0.105684 0
0.179995 0.0967575 0.00448615
0.214023 0.0836042 0.00527962
0.247288 0.0666056 0.00361639
0.27808 0.0587015 0
0.308751 0.0512703 0
0.339483 0.0432593 0
0.370459 0.0357671 0
0.400809 0.0277714 0
0.430991 0.0202182 0
0.461082 0.013138 0
0.491554 0.00616464 0
0.521675 0 0
0.552026 0 0
0.582223 0 0
0.612528 0 0
0.643198 0 0
0.673152 0 0
0.702724 0 0
0.731716 0 0
0.759991 0 0
0.788098 0 0
0.815457 0 0
0.842771 0 0.00178531
0.869612 0 0.00451667
0.8963 0 0.00706493
0.923018 0 0.00958267
0.0547189 0.130785 0
0.0615396 0.131807 0
0.0711376 0.132799 0
0.0863966 0.135241 0
0.101717 0.135988 0
0.118715 0.138827 0
0.143481 0.138155 0
0.175235 0.136309 0
0.210559 0.129061 0.00447089
0.245502 0.119005 0.00823987
0.279881 0.105135 0.00929274
0.313558 0.0872206 0.00943008
0.344884 0.076051 0.0065156
0.375433 0.0676738 0.00401312
0.405859 0.0596933 0.00321965
0.436362 0.0527199 0.00320439
0.466468 0.0454566 0.00285344
0.496757 0.0380713 0.00257877
0.527352 0.0305943 0.00224308
0.557824 0.0229648 0.00192264
0.588373 0.0154269 0.00138857
0.618814 0.00750744 0.00103761
0.648844 0 0.000335698
0.67895 0 3.0518e-05
0.708507 0 0
0.737957 0 0.00015259
0.766629 0 0.000686656
0.79469 0 0.00123598
0.822126 0 0.00183108
0.849256 0 0.00242618
0.876371 0 0.00334173
0.903273 0 0.00430304
0.929839 0 0.00535592
0.0647593 0.158465 0
0.0733501 0.159747 0
0.084596 0.161349 0
0.0992752 0.16379 0
0.113802 0.165515 0
0.130465 0.165545 0
0.149035 0.168872 0
0.175082 0.16849 0
0.206744 0.166262 0
0.241657 0.161089 0.00331121
0.278004 0.152667 0.00886549
0.312917 0.140703 0.0117342
0.347372 0.126131 0.0133669
0.381216 0.108293 0.0143587
0.412482 0.0987869 0.012665
0.442588 0.0911421 0.0106813
0.472862 0.0836805 0.00946059
0.503243 0.0756237 0.00851453
0.53402 0.0680247 0.00801099
0.564645 0.0601663 0.0074464
0.595254 0.0521706 0.0069276
0.625803 0.0441901 0.00648508
0.656474 0.0360113 0.00595102
0.686702 0.0280003 0.00561532
0.716426 0.0203555 0.00552377
0.7458 0.0128023 0.00556954
0.774502 0.00570687 0.00590524
0.802487 0 0.00605783
0.830076 0 0.00680552
0.857557 0 0.00758373
0.88481 0 0.0084535
0.911696 0 0.00924697
0.938598 0 0.0102541
0.0778515 0.187655 0
0.0884871 0.189212 0
0.0992142 0.19089 0
0.113024 0.193103 0
0.127337 0.195468 0
0.142596 0.195331 0
0.160494 0.196551 0
0.179614 0.19939 0
0.206851 0.199008 0
0.238804 0.196887 0
0.273304 0.192935 0.000640879
0.309957 0.185367 0.00738537
0.346181 0.175326 0.0125734
0.381231 0.163104 0.0158846
0.415549 0.148577 0.0183261
0.448753 0.131701 0.0203708
0.479454 0.123278 0.018616
0.510491 0.116701 0.0171511
0.541451 0.109697 0.0157626
0.572259 0.102556 0.0146792
0.603037 0.0951553 0.0138247
0.633738 0.0875257 0.0131991
0.664134 0.0793622 0.0124514
0.694667 0.0711986 0.0120699
0.72462 0.0632334 0.0117647
0.754192 0.0554665 0.0116121
0.78294 0.0482185 0.0116732
0.811505 0.0412299 0.0120851
0.839399 0.0346227 0.0128481
0.867063 0.027985 0.01355
0.894163 0.0214389 0.0142977
0.921492 0.0151827 0.0153506
0.948318 0.00866712 0.0163729
0.093904 0.217197 0
0.1037 0.21883 0
0.113619 0.221057 0
0.126833 0.22298 0
0.140139 0.225071 0
0.154955 0.225727 0
0.173236 0.225681 0
0.190875 0.22768 0
0.210666 0.230655 0
0.238651 0.229786 0
0.27158 0.227817 0
0.305943 0.224872 0
0.343023 0.218387 0.00762951
0.379721 0.209766 0.0139315
0.415137 0.198947 0.0186313
0.449683 0.186709 0.0221103
0.484001 0.173037 0.0254826
0.517647 0.156298 0.0280156
0.548882 0.14876 0.0262303
0.579858 0.142473 0.0243229
0.610971 0.136049 0.0229191
0.641672 0.129412 0.0215
0.67277 0.123095 0.0205997
0.703365 0.116472 0.0198062
0.733425 0.109911 0.0192569
0.763195 0.103273 0.018967
0.792172 0.0965744 0.0187228
0.820737 0.090135 0.0187991
0.848798 0.0839094 0.0192721
0.876616 0.0776837 0.0200961
0.904173 0.0708171 0.0208438
0.931365 0.0641337 0.0218814
0.958206 0.0572213 0.0225376
0.109682 0.247242 0
0.11899 0.249348 0
0.128145 0.251438 0
0.140154 0.25333 0
0.15285 0.255238 0
0.167559 0.256596 0
0.184604 0.256657 0
0.20383 0.256413 0
0.221515 0.259144 0
0.242237 0.262394 0
0.271763 0.261769 0
0.304891 0.259464 0
0.338842 0.25713 0
0.375952 0.251469 0.00723278
0.41294 0.244175 0.014786
0.448768 0.23505 0.0211643
0.484016 0.224552 0.0261845
0.518685 0.212161 0.0298772
0.553338 0.198184 0.0334478
0.587182 0.18201 0.0363928
0.618692 0.174609 0.0346685
0.649927 0.168994 0.0329137
0.680415 0.162875 0.0309148
0.710948 0.157061 0.0294041
0.741268 0.151308 0.028397
0.771038 0.145541 0.0274052
0.8 0.140185 0.0269627
0.829023 0.134859 0.026978
0.856977 0.129885 0.0271916
0.884886 0.124895 0.0275578
0.912581 0.11986 0.0283513
0.940002 0.114565 0.0289311
0.967315 0.109163 0.0297551
0.124788 0.277729 0
0.133516 0.280018 0
0.142031 0.282078 0
0.153399 0.284581 0
0.165667 0.286168 0
0.17969 0.287419 0
0.196399 0.288014 0
0.214817 0.287968 0
0.234516 0.288869 0
0.253468 0.292088 0
0.275013 0.295369 0
0.305135 0.29395 0
0.338537 0.291691 0
0.372442 0.289799 0
0.409018 0.285252 0.00679026
0.446097 0.279026 0.0161593
0.482582 0.271305 0.0235599
0.517937 0.261692 0.0295109
0.55314 0.250706 0.0344701
0.588067 0.2383 0.0385138
0.622171 0.224506 0.0421302
0.656474 0.209628 0.0455634
0.687755 0.201862 0.0440681
0.718181 0.196048 0.0417334
0.748409 0.190692 0.0400244
0.778134 0.185595 0.0386206
0.807157 0.180514 0.0375677
0.835859 0.175891 0.0370336
0.864164 0.171832 0.0370642
0.891829 0.167239 0.0370336
0.919417 0.162982 0.0372778
0.946853 0.158556 0.0377813
0.973693 0.153872 0.0379644
0.139528 0.308827 0
0.148043 0.311223 0
0.156359 0.31368 0
0.166827 0.316014 0
0.178607 0.317693 0
0.192172 0.318959 0
0.208408 0.319783 0
0.226581 0.320211 0
0.246555 0.320287 0
0.266148 0.322026 0
0.285695 0.325093 0
0.308049 0.328405 0
0.338994 0.32668 0
0.372427 0.324483 0
0.406607 0.323095 0
0.442145 0.319478 0.00657664
0.478691 0.313863 0.0168307
0.515923 0.307271 0.0255131
0.551492 0.298543 0.0327001
0.586831 0.288518 0.038468
0.621988 0.277623 0.0434577
0.656611 0.265965 0.0480659
0.690562 0.252705 0.0515145
0.723873 0.2383 0.0549935
0.754803 0.229587 0.0545205
0.784604 0.224537 0.0522316
0.813352 0.219867 0.0505074
0.842084 0.215259 0.0492866
0.870176 0.211551 0.0489052
0.897795 0.207248 0.0482948
0.925048 0.203342 0.0480507
0.952483 0.19942 0.0481117
0.979324 0.1953 0.0479591
0.15462 0.340429 0
0.162768 0.342947 0
0.170764 0.345525 0
0.180346 0.347936 0
0.191638 0.349691 0
0.205066 0.350896 0
0.220859 0.351781 0
0.238758 0.353017 0
0.257939 0.352911 0
0.279347 0.352667 0
0.298268 0.355291 0
0.318669 0.358404 0
0.341421 0.361776 0
0.373068 0.359747 0
0.406668 0.357748 0
0.440375 0.356359 0.000701915
0.474907 0.353735 0.00598154
0.511467 0.348516 0.0173495
0.548989 0.342458 0.0271458
0.584848 0.334646 0.0352941
0.62031 0.325795 0.0423285
0.655238 0.316243 0.0482032
0.689677 0.305547 0.0531319
0.723461 0.293996 0.0573892
0.756268 0.281804 0.0612192
0.788724 0.269001 0.0651408
0.819272 0.258579 0.0665446
0.847822 0.254185 0.0647746
0.875639 0.250202 0.063508
0.903288 0.246387 0.0626688
0.930419 0.242466 0.0616312
0.957824 0.238819 0.061265
0.98468 0.235386 0.0611734
0.170062 0.372656 0
0.177707 0.375021 0
0.185321 0.377707 0
0.193713 0.37998 0
0.20499 0.381979 0
0.217716 0.38294 0
0.233356 0.384085 0
0.250858 0.385061 0
0.269825 0.385809 0
0.290425 0.385428 0
0.31191 0.386038 0
0.33106 0.388708 0
0.352026 0.391897 0
0.375143 0.39527 0
0.407355 0.393057 0
0.440818 0.391302 0.000823987
0.474128 0.389624 0.00274662
0.508019 0.387701 0.00564584
0.54464 0.382788 0.0178988
0.581781 0.377279 0.0286259
0.617884 0.370474 0.037705
0.653178 0.362661 0.0457465
0.687785 0.353872 0.0523384
0.722026 0.344259 0.0579538
0.755261 0.334234 0.0630655
0.787533 0.323812 0.0675212
0.819608 0.312963 0.0721752
0.850675 0.301488 0.0768597
0.880613 0.289708 0.0807813
0.908675 0.285023 0.0799268
0.935805 0.281407 0.078706
0.96289 0.277714 0.0776989
0.989807 0.274449 0.0769818
0.185183 0.404654 0
0.192721 0.407324 0
0.199817 0.409873 0
0.207477 0.412436 0
0.218235 0.414374 0
0.230915 0.415579 0
0.246143 0.416571 0
0.263081 0.41735 0
0.282094 0.418585 0
0.301961 0.418372 0
0.323339 0.418067 0
0.343984 0.419486 0
0.364034 0.422141 0
0.385367 0.425452 0
0.409003 0.42855 0
0.441764 0.426337 0.00120546
0.475074 0.42443 0.00335698
0.508461 0.422538 0.00508125
0.541802 0.42089 0.00686656
0.577966 0.416846 0.0184939
0.614511 0.411582 0.0299229
0.65095 0.405737 0.0402533
0.685695 0.398611 0.0488746
0.719783 0.390814 0.0562448
0.753323 0.382422 0.0627604
0.785794 0.373632 0.0685435
0.81796 0.364645 0.0740826
0.849149 0.355642 0.0795758
0.879713 0.345922 0.0845502
0.909941 0.335714 0.0889448
0.939513 0.325002 0.0934005
0.968109 0.316411 0.0956436
0.994888 0.31313 0.0946517
0.200641 0.437125 0
0.207843 0.439811 0
0.214542 0.442329 0
0.221515 0.444984 0
0.231525 0.446738 0
0.244099 0.448218 0
0.258885 0.448798 0
0.275593 0.449744 0
0.293706 0.450629 0
0.313848 0.451392 0
0.334325 0.450996 0
0.356588 0.450996 0
0.376349 0.452873 0
0.396918 0.455589 0
0.418936 0.459113 0
0.443153 0.461784 0.0018616
0.475975 0.459449 0.00363165
0.509041 0.457221 0.00535592
0.542351 0.455299 0.00726329
0.575677 0.453773 0.00917067
0.610986 0.450904 0.0185092
0.647044 0.446082 0.0307927
0.682857 0.440803 0.0415808
0.717586 0.434821 0.0512093
0.751232 0.427832 0.0597391
0.783627 0.420493 0.0670634
0.81593 0.413153 0.0741436
0.847471 0.405554 0.080827
0.878447 0.397452 0.0869154
0.908614 0.38909 0.0921187
0.938277 0.380346 0.0968643
0.967712 0.37113 0.10161
0.996994 0.361181 0.105928
0.216159 0.46981 0
0.222782 0.472267 0
0.229419 0.475044 0
0.235981 0.477577 0
0.245106 0.479484 0
0.25742 0.480842 0
0.271656 0.481422 0
0.288014 0.482246 0
0.305715 0.482963 0
0.325246 0.484047 0
0.345632 0.483894 0
0.366995 0.483619 0
0.389105 0.483879 0
0.408881 0.48629 0
0.429664 0.489067 0
0.45214 0.492515 0
0.477134 0.494621 0.00395209
0.509957 0.492332 0.00573739
0.542977 0.490166 0.00755322
0.57615 0.488304 0.00944533
0.609674 0.487297 0.0116732
0.643397 0.485023 0.0178683
0.679072 0.48069 0.0308385
0.714275 0.476234 0.0424048
0.748882 0.471199 0.053254
0.781552 0.465034 0.0628061
0.81387 0.45864 0.0715801
0.845319 0.452338 0.0797436
0.876112 0.44564 0.0868696
0.90631 0.438331 0.0930495
0.936263 0.431037 0.0986648
0.965728 0.423346 0.103929
0.995254 0.415167 0.109148
0.23151 0.502403 0
0.23801 0.505074 0
0.244343 0.507805 0
0.250629 0.510109 0
0.258885 0.512337 0
0.270359 0.513252 0
0.284352 0.514015 0
0.300191 0.514656 0
0.317449 0.515312 0
0.336355 0.515892 0
0.356832 0.516716 0
0.377707 0.516091 0
0.400092 0.516213 0
0.421256 0.517098 0
0.441444 0.519463 0
0.46273 0.522683 0
0.485527 0.52604 0
0.511574 0.527871 0.00671397
0.543999 0.525444 0.00810254
0.576822 0.523354 0.00987259
0.609964 0.521889 0.0117037
0.643 0.520684 0.0137484
0.675746 0.519203 0.0170443
0.710384 0.515541 0.0300145
0.745159 0.511696 0.0428626
0.778897 0.507424 0.0543832
0.811078 0.502251 0.0649271
0.842741 0.496818 0.0748608
0.873579 0.491096 0.0839246
0.903868 0.484871 0.0913405
0.933745 0.478706 0.0983597
0.9635 0.472084 0.104662
0.993423 0.465263 0.110719
0.247044 0.535241 0
0.253254 0.537881 0
0.259052 0.540291 0
0.265324 0.542748 0
0.272633 0.544961 0
0.283619 0.545739 0
0.297307 0.54638 0
0.312505 0.546746 0
0.329488 0.547478 0
0.347799 0.548043 0
0.368048 0.548898 0
0.3888 0.548943 0
0.410742 0.54876 0
0.43328 0.548714 0
0.45362 0.550347 0
0.474449 0.553094 0
0.495888 0.556161 0
0.519112 0.559518 0
0.545876 0.560967 0.0091249
0.578164 0.558602 0.0103456
0.611017 0.556863 0.0120241
0.643793 0.555444 0.0139162
0.676051 0.554116 0.0156558
0.707912 0.553079 0.0175784
0.741192 0.550347 0.0287175
0.77499 0.547066 0.0423743
0.807736 0.54342 0.0548104
0.84004 0.53933 0.0664836
0.870939 0.534386 0.0774395
0.901137 0.529351 0.0872358
0.930831 0.523735 0.0953689
0.960708 0.518029 0.102785
0.990692 0.512169 0.109957
0.262577 0.568063 0
0.268376 0.570504 0
0.274006 0.572885 0
0.280018 0.575296 0
0.286122 0.577142 0
0.297169 0.578088 0
0.310231 0.578775 0
0.325048 0.579126 0
0.341634 0.579843 0
0.35967 0.580285 0
0.379553 0.581048 0
0.400351 0.581765 0
0.421546 0.58146 0
0.444007 0.581353 0
0.466392 0.581491 0
0.486427 0.583947 0
0.507454 0.586496 0
0.52932 0.589578 0
0.552926 0.592905 0
0.580438 0.593927 0.0111849
0.612543 0.591867 0.0123903
0.645014 0.590265 0.0142061
0.676997 0.588693 0.0158999
0.708553 0.587503 0.0177462
0.73991 0.586542 0.0195773
0.771908 0.585168 0.0273289
0.804471 0.582422 0.0414588
0.836713 0.579171 0.0548409
0.868391 0.575952 0.0670939
0.898283 0.57142 0.0790875
0.928298 0.566751 0.0892195
0.95787 0.561563 0.0982986
0.987549 0.556512 0.106538
0.277974 0.600656 0
0.283421 0.602914 0
0.289189 0.605386 0
0.294728 0.607858 0
0.300618 0.609644 0
0.310719 0.610605 0
0.323217 0.611002 0
0.337865 0.611582 0
0.354253 0.612207 0
0.371679 0.612634 0
0.391089 0.613214 0
0.41181 0.613931 0
0.433143 0.614343 0
0.454948 0.614069 0
0.477501 0.613733 0
0.499153 0.614862 0
0.519326 0.617121 0
0.540688 0.61973 0
0.56289 0.622827 0
0.586755 0.626017 0
0.614771 0.626749 0.0133211
0.646723 0.624903 0.0146944
0.67837 0.623178 0.0163424
0.709621 0.621729 0.0180209
0.740475 0.62063 0.019913
0.771588 0.620295 0.0225528
0.801633 0.619532 0.0263981
0.833112 0.617044 0.0400549
0.864424 0.614206 0.0538491
0.895674 0.61146 0.0670939
0.92549 0.607538 0.0796826
0.955337 0.603418 0.0910964
0.984619 0.598444 0.100618
0.293156 0.633021 0
0.298634 0.635447 0
0.304219 0.637949 0
0.309499 0.640345 0
0.315236 0.642222 0
0.324407 0.643183 0
0.336767 0.643473 0
0.351003 0.644022 0
0.366629 0.644343 0
0.384131 0.644907 0
0.402823 0.645212 0
0.423255 0.645945 0
0.444587 0.646723 0
0.466423 0.646632 0
0.488396 0.646159 0
0.510994 0.646006 0
0.531868 0.647776 0
0.552422 0.650034 0
0.574029 0.652659 0
0.59649 0.655772 0
0.62034 0.658854 0
0.648997 0.659388 0.0157931
0.680323 0.657481 0.0171206
0.711162 0.655741 0.018555
0.741604 0.654398 0.0204623
0.772503 0.653819 0.0229801
0.801968 0.653132 0.0252079
0.831052 0.652689 0.0274357
0.861402 0.650935 0.0380407
0.89189 0.648783 0.052491
0.922362 0.645975 0.0663005
0.952804 0.642817 0.0799878
0.981933 0.638651 0.091783
0.3084 0.665415 0
0.313848 0.667887 0
0.319081 0.670222 0
0.324346 0.67277 0
0.329824 0.674632 0
0.337911 0.675349 0
0.350317 0.675837 0
0.364187 0.676356 0
0.379431 0.676631 0
0.396628 0.677165 0
0.415229 0.67744 0
0.435187 0.678004 0
0.456031 0.678416 0
0.477867 0.67892 0
0.499763 0.678355 0
0.521935 0.677974 0
0.544503 0.678416 0
0.564752 0.680232 0
0.585824 0.682765 0
0.607874 0.685634 0
0.630396 0.68864 0
0.654215 0.691646 7.62951e-05
0.682902 0.691539 0.0183871
0.713298 0.689448 0.0195621
0.743465 0.687907 0.0214084
0.773724 0.686961 0.0237278
0.803021 0.686 0.0256199
0.831876 0.685313 0.0278935
0.86067 0.685069 0.0305028
0.88925 0.684642 0.036286
0.91928 0.682246 0.0508736
0.949248 0.679545 0.0652934
0.979446 0.676783 0.0798505
0.323751 0.697704 0
0.329015 0.70016 0
0.334051 0.70251 0
0.339147 0.704982 0
0.344671 0.706752 0
0.351812 0.707515 0
0.363806 0.707988 0
0.377554 0.708324 0
0.392569 0.708568 0
0.409384 0.708949 0
0.427527 0.70927 0
0.447211 0.70959 0
0.467628 0.709834 0
0.489342 0.710323 0
0.511162 0.710262 0
0.53315 0.709651 0
0.555947 0.709514 0
0.57734 0.710445 0
0.597894 0.712398 0
0.618997 0.714931 0
0.640986 0.717449 0
0.663493 0.720424 0
0.687114 0.723247 0.00636301
0.715831 0.72282 0.0210575
0.745983 0.721096 0.0228428
0.775525 0.719585 0.0246891
0.804517 0.718318 0.0263981
0.833021 0.717372 0.0285344
0.861692 0.717144 0.0312657
0.889281 0.716731 0.0336767
0.917052 0.716258 0.0365301
0.946227 0.714641 0.0491951
0.976043 0.71191 0.064332
0.33901 0.729763 0
0.34403 0.731899 0
0.34905 0.734646 0
0.353887 0.736934 0
0.359045 0.738369 0
0.365621 0.739406 0
0.377386 0.739834 0
0.390631 0.73991 0
0.405432 0.740398 0
0.42208 0.740841 0
0.439918 0.740734 0
0.459159 0.740932 0
0.479301 0.740978 0
0.500435 0.741115 0
0.522911 0.741665 0
0.544305 0.740963 0
0.566751 0.740826 0
0.589654 0.740551 0
0.610208 0.742046 0
0.630793 0.743893 0
0.651698 0.74612 0
0.673686 0.748547 0
0.696147 0.751476 0
0.719478 0.754009 0.0135348
0.748531 0.753597 0.0243839
0.77763 0.751751 0.025742
0.806119 0.750195 0.0272679
0.834867 0.749447 0.0297093
0.862547 0.748531 0.031754
0.88983 0.747875 0.033753
0.917494 0.747524 0.0362097
0.945037 0.74728 0.0388342
0.973053 0.745953 0.0471809
0.354131 0.761471 0
0.358831 0.763638 0
0.36379 0.766171 0
0.368444 0.768414 0
0.373556 0.769863 0
0.37995 0.770825 0
0.391135 0.771176 0
0.403998 0.771191 0
0.418692 0.771771 0
0.434775 0.771893 0
0.452323 0.77171 0
0.471351 0.77174 0
0.491188 0.771572 0
0.512032 0.771695 0
0.533669 0.771984 0
0.555611 0.771801 0
0.577874 0.771511 0
0.60032 0.770809 0
0.622477 0.77113 0
0.64242 0.77258 0
0.663127 0.774289 0
0.684367 0.776883 0
0.706065 0.779446 0
0.728344 0.782177 0
0.751431 0.784573 0.021149
0.780163 0.783444 0.0271305
0.808423 0.781628 0.0287175
0.836591 0.780468 0.0306096
0.863767 0.779293 0.0326085
0.891417 0.778607 0.0347448
0.918746 0.777951 0.0370794
0.945602 0.777279 0.0393225
0.972732 0.776822 0.0416266
0.36907 0.792828 0
0.373678 0.795041 0
0.378424 0.797589 0
0.382956 0.79942 0
0.387991 0.800977 0
0.394232 0.801862 0
0.404669 0.802152 0
0.417426 0.802228 0
0.431968 0.802487 0
