bundles/resolve-cinematic-luts/Phantom Luts/Apple Log Phantom LUTS/iPhone 15 Phantom ARRI LUTs/33x/IceBlue_Legacy iPhone15_33x.cube
TITLE "Generated by Resolve"
LUT_3D_SIZE 9
0.0390631 0.0509499 0.051667
0.0390784 0.0509499 0.0516365
0.112581 0.053315 0.0529641
0.307759 0.0489357 0.0451362
0.507118 0.0538033 0.0627604
0.668864 0.100191 0.155993
0.711604 0.112734 0.226246
0.756359 0.131807 0.364645
0.750591 0.117861 0.502251
0.0391394 0.0508888 0.0514839
0.0389868 0.0510567 0.0518654
0.0576944 0.0545968 0.0532998
0.219409 0.0552224 0.0488899
0.510018 0.046952 0.0614633
0.62681 0.0661173 0.104463
0.709499 0.122194 0.212955
0.755779 0.132067 0.360754
0.750988 0.117632 0.501671
0.0394446 0.0747692 0.064271
0.04065 0.0675822 0.0586252
0.0620584 0.0713359 0.0598459
0.193683 0.0742504 0.0577859
0.491554 0.0457923 0.0569009
0.625727 0.0642252 0.105074
0.694865 0.114534 0.191302
0.753124 0.133639 0.341543
0.751095 0.11902 0.499046
0.0249943 0.219577 0.104326
0.0247501 0.230259 0.0648661
0.0276646 0.208408 0.0675822
0.206424 0.218738 0.0510872
0.528679 0.19855 0.0938277
0.642954 0.0990921 0.110185
0.622354 0.0659495 0.0952163
0.731456 0.1178 0.278798
0.754635 0.122301 0.458076
0.0238193 0.448051 0.171267
0.0258793 0.477211 0.140749
0.0289616 0.487022 0.0838178
0.02916 0.484886 0.0734569
0.435523 0.486641 0.0396429
0.796887 0.482673 0.212253
0.837308 0.393851 0.244419
0.67747 0.120989 0.126268
0.689723 0.110246 0.186587
0.119295 0.733822 0.438071
0.129122 0.748684 0.432135
0.135821 0.757549 0.42472
0.170031 0.786007 0.396414
0.218326 0.784939 0.241062
0.724529 0.783352 0.229358
0.926696 0.779797 0.331502
0.915724 0.749874 0.316899
0.91281 0.743618 0.313161
0.23386 0.858869 0.68748
0.233341 0.859007 0.683848
0.230686 0.859937 0.67657
0.228 0.860441 0.652811
0.220203 0.86389 0.547707
0.374334 0.869062 0.299321
0.921508 0.914855 0.393149
0.972168 0.925826 0.437217
0.974472 0.929732 0.452552
0.255283 0.851987 0.800488
0.25478 0.852369 0.799878
0.251911 0.852827 0.795987
0.249912 0.852613 0.786679
0.244724 0.851896 0.75845
0.229847 0.869291 0.609659
0.791699 0.935637 0.47013
0.985428 0.952895 0.544717
0.988342 0.954345 0.562173
0.258946 0.852995 0.819226
0.258122 0.853178 0.818067
0.257755 0.853025 0.815167
0.255467 0.852506 0.806256
0.248051 0.85153 0.771588
0.390509 0.919219 0.635843
0.913512 0.953155 0.592859
0.98822 0.959609 0.617899
0.987274 0.959381 0.623652
0.0390936 0.0509499 0.051606
0.0390936 0.0509499 0.051606
0.145998 0.0522774 0.112352
0.35404 0.0528267 0.139528
0.562356 0.0734569 0.155657
0.706401 0.117556 0.215702
0.726177 0.114183 0.268605
0.75758 0.12726 0.41146
0.74432 0.114992 0.525017
0.0390936 0.0509499 0.0516213
0.0390478 0.0510262 0.0517586
0.117754 0.0530556 0.0551156
0.322942 0.0510262 0.0619059
0.537957 0.0628214 0.10251
0.684108 0.106661 0.181109
0.717174 0.11104 0.24686
0.757519 0.128115 0.404578
0.74461 0.115007 0.523949
0.0349432 0.101305 0.100038
0.0363622 0.101335 0.0766155
0.0738994 0.0895399 0.0635691
0.249012 0.0661784 0.0537728
0.512337 0.046479 0.0626535
0.647593 0.0754711 0.138872
0.715572 0.119844 0.231754
0.756344 0.129488 0.388586
0.747448 0.117067 0.514412
0.0241398 0.226551 0.155642
0.0251011 0.23537 0.105943
0.0244907 0.243992 0.0636149
0.204135 0.231693 0.046891
0.548791 0.18967 0.0996567
0.643259 0.0936446 0.113985
0.653376 0.08159 0.143069
0.741726 0.123293 0.313313
0.752941 0.120882 0.47541
0.0239109 0.439658 0.209354
0.0246738 0.464515 0.177783
0.0260624 0.48069 0.156939
0.0323186 0.501259 0.0790417
0.429007 0.490105 0.039704
0.800153 0.479912 0.215015
0.837873 0.39237 0.246509
0.680903 0.122835 0.131258
0.70309 0.113771 0.211063
0.118822 0.732265 0.458412
0.126772 0.74461 0.449714
0.131289 0.750927 0.44062
0.149493 0.772152 0.414603
0.216968 0.783185 0.240253
0.721935 0.782544 0.228611
0.92491 0.778546 0.332418
0.91519 0.748547 0.316579
0.913039 0.742336 0.311452
0.235447 0.858076 0.695262
0.235508 0.858076 0.692134
0.233616 0.858976 0.685893
0.229557 0.860304 0.663844
0.218875 0.862318 0.561685
0.361654 0.873686 0.327062
0.922652 0.918761 0.406409
0.975326 0.929198 0.450828
0.97583 0.932448 0.46331
0.255711 0.852033 0.80264
0.255421 0.852369 0.801816
0.252628 0.852735 0.797879
0.25095 0.852491 0.78854
0.245823 0.851652 0.760494
0.232395 0.869825 0.617288
0.784237 0.934936 0.481773
0.985885 0.953475 0.549081
0.988907 0.954681 0.564935
0.259983 0.852781 0.82034
0.259693 0.852842 0.819074
0.258457 0.852964 0.816464
0.255756 0.852598 0.807675
0.248646 0.851621 0.774395
0.375372 0.918364 0.645472
0.902129 0.95227 0.596124
0.988602 0.960174 0.626032
0.987503 0.959838 0.631785
0.0364385 0.0521248 0.087129
0.0719463 0.0500343 0.0890516
0.149294 0.0510567 0.139849
0.35024 0.0470436 0.196231
0.570184 0.0652781 0.185641
0.716381 0.119066 0.235492
0.734508 0.117861 0.293004
0.756939 0.12491 0.430488
0.740673 0.112596 0.535683
0.0386969 0.055314 0.0615702
0.0354925 0.0522621 0.101854
0.137011 0.0505989 0.135988
0.35259 0.0538338 0.122988
0.563195 0.0728161 0.141756
0.700618 0.114534 0.206104
0.725643 0.113558 0.268269
0.757107 0.125551 0.424826
0.740902 0.112474 0.534859
0.0328832 0.108446 0.117357
0.0330053 0.105867 0.115419
0.0657206 0.0887007 0.100862
0.255528 0.0730907 0.0903029
0.548043 0.0689555 0.124285
0.685145 0.105776 0.18584
0.717678 0.111086 0.24831
0.757214 0.127367 0.412177
0.743557 0.114717 0.527382
0.0229191 0.227222 0.181506
0.0244907 0.233021 0.151537
0.0251774 0.23534 0.118807
0.188968 0.230549 0.0791638
0.548638 0.183963 0.119615
0.645624 0.0924849 0.122713
0.687526 0.108415 0.18584
0.749676 0.129641 0.339193
0.751553 0.120012 0.491524
0.0239261 0.433722 0.237049
0.0240787 0.454231 0.205447
0.0248569 0.467094 0.183764
0.0292515 0.4878 0.0816205
0.419364 0.483909 0.0379797
0.796353 0.472404 0.214267
0.836225 0.384161 0.248234
0.690715 0.126833 0.148455
0.71664 0.116732 0.237919
0.118807 0.730343 0.473182
0.125475 0.741497 0.464942
0.128237 0.745968 0.454551
0.1393 0.761501 0.425391
0.195712 0.771176 0.242115
0.71458 0.775357 0.222522
0.923873 0.771695 0.332326
0.915343 0.74081 0.321386
0.920241 0.735943 0.331502
0.236408 0.857496 0.701167
0.23621 0.857603 0.698543
0.234592 0.858351 0.692576
0.231556 0.8598 0.672526
0.218738 0.860105 0.575082
0.349691 0.876844 0.351415
0.921553 0.921904 0.415381
0.977127 0.932296 0.461128
0.977691 0.935866 0.474861
0.256519 0.852018 0.804517
0.256123 0.852338 0.80351
0.253178 0.852781 0.799588
0.251377 0.852537 0.790204
0.246509 0.851545 0.762478
0.231846 0.869627 0.623728
0.770871 0.934005 0.491203
0.986007 0.953796 0.558541
0.989044 0.955169 0.570947
0.261021 0.852842 0.823499
0.261036 0.852811 0.822461
0.260441 0.852735 0.819547
0.257221 0.852598 0.811719
0.250538 0.851774 0.780865
0.350134 0.914702 0.661906
0.881788 0.95256 0.607263
0.989273 0.961486 0.64065
0.988602 0.961181 0.64303
0.0242008 0.0466316 0.242023
0.156298 0.0395361 0.269627
0.242161 0.0374914 0.269642
0.34165 0.0373236 0.271153
0.574502 0.058732 0.28159
0.729259 0.11487 0.280827
0.751034 0.130266 0.346014
0.753811 0.120806 0.475013
0.731121 0.105455 0.556909
0.0289006 0.0777142 0.178759
0.0214389 0.0454719 0.269154
0.112764 0.0396429 0.300862
0.344411 0.0370947 0.283314
0.587594 0.0667277 0.24271
0.722377 0.112062 0.261158
0.747097 0.127749 0.33051
0.753994 0.120897 0.474098
0.730526 0.104555 0.55787
0.0241245 0.139254 0.184649
0.0211337 0.107668 0.22388
0.0348974 0.0836957 0.233265
0.26743 0.0557259 0.239902
0.581338 0.065568 0.238499
0.716442 0.10956 0.249088
0.741268 0.122026 0.315267
0.754559 0.121675 0.4645
0.732097 0.106172 0.553826
0.0199588 0.228336 0.226383
0.0197604 0.229633 0.228779
0.0198367 0.227512 0.228443
0.189654 0.236561 0.245121
0.581598 0.216052 0.238453
0.724834 0.163714 0.232807
0.720653 0.111284 0.257694
0.756954 0.127077 0.413733
0.741176 0.114168 0.535088
0.023682 0.423133 0.302922
0.0241245 0.438254 0.290517
0.0244297 0.4439 0.274144
0.0241703 0.451957 0.215412
0.392294 0.493584 0.174472
0.838361 0.490089 0.307729
0.882521 0.405402 0.336706
0.77023 0.200366 0.260151
0.743374 0.124376 0.319463
0.121187 0.727687 0.512459
0.126589 0.737224 0.507637
0.127016 0.739101 0.498589
0.126375 0.742031 0.464195
0.14966 0.760815 0.358129
0.704738 0.778927 0.253864
0.948531 0.763973 0.395346
0.948287 0.734081 0.396292
0.956832 0.729381 0.414694
0.240085 0.855406 0.716793
0.239841 0.85568 0.715145
0.237995 0.856504 0.710857
0.235294 0.857877 0.69546
0.222385 0.858671 0.616342
0.324804 0.884291 0.424857
0.916259 0.93022 0.442771
0.980957 0.94107 0.493828
0.979889 0.944152 0.511406
0.258473 0.852247 0.810788
0.259373 0.852033 0.809812
0.255741 0.852674 0.806043
0.254261 0.852232 0.796933
0.25008 0.851118 0.771099
0.234577 0.866682 0.650935
0.750912 0.933791 0.530739
0.987366 0.956069 0.588922
0.989364 0.957519 0.602747
0.26537 0.852598 0.831693
0.264973 0.852567 0.831113
0.264378 0.852522 0.828733
0.260563 0.852888 0.821744
0.254719 0.851835 0.796658
0.30808 0.898436 0.696315
0.853666 0.952728 0.654292
0.988556 0.96466 0.684825
0.989288 0.96376 0.684779
0.0141451 0.0514992 0.453605
0.0734569 0.0475624 0.492439
0.180972 0.0442969 0.507942
0.371115 0.04271 0.499672
0.566888 0.0507668 0.457038
0.752483 0.120348 0.462669
0.749599 0.118196 0.503517
0.728893 0.10396 0.561929
0.725063 0.102174 0.601389
0.0099031 0.0783703 0.388952
0.0101625 0.0505379 0.428504
0.0272679 0.0493324 0.456382
0.276585 0.0438239 0.522622
0.568963 0.0523079 0.473991
0.752544 0.1205 0.46775
0.747143 0.117235 0.514382
0.725124 0.101091 0.568414
0.725719 0.102953 0.606424
0.0102998 0.125994 0.382132
0.00968948 0.0882277 0.424216
0.00968948 0.0738079 0.427649
0.165011 0.0463417 0.468086
0.52517 0.0454261 0.44004
0.751354 0.119936 0.47129
0.748241 0.11809 0.510002
0.725567 0.102159 0.56817
0.725063 0.102876 0.606424
0.0128023 0.240375 0.355932
0.0111849 0.221057 0.386725
0.0106203 0.206592 0.405859
0.0638437 0.202747 0.436851
0.534859 0.13463 0.480278
0.768566 0.158572 0.434607
0.752316 0.12018 0.484382
0.733532 0.107759 0.551705
0.72462 0.101061 0.594995
0.0237736 0.423072 0.409445
0.0246128 0.431464 0.418296
0.0248722 0.432258 0.419638
0.0244907 0.428031 0.417624
0.420218 0.490547 0.494759
0.904921 0.510353 0.530175
0.944411 0.43888 0.516213
0.804349 0.190692 0.457313
0.739116 0.111696 0.539544
0.125383 0.710674 0.593393
0.131197 0.719005 0.598718
0.131853 0.720729 0.59675
0.129854 0.721965 0.583398
0.109087 0.707683 0.500557
0.651209 0.780819 0.45893
0.989715 0.779614 0.568475
0.992676 0.761471 0.581109
0.994049 0.763409 0.621973
0.245563 0.851682 0.748089
0.246799 0.850935 0.748318
0.244694 0.851362 0.745586
0.242878 0.851957 0.738125
0.238621 0.856565 0.703578
0.375784 0.909651 0.58854
0.893645 0.943191 0.54934
0.985611 0.949798 0.605432
0.984955 0.952575 0.633402
0.266819 0.851926 0.827497
0.266957 0.851987 0.827054
0.26421 0.852415 0.824247
0.261738 0.852384 0.817502
0.258122 0.851423 0.797864
0.245762 0.861646 0.719066
0.752468 0.939773 0.651865
0.989288 0.963928 0.688151
0.99057 0.965423 0.707256
0.271748 0.853864 0.845579
0.271626 0.85359 0.845289
0.270451 0.853574 0.843809
0.269215 0.853284 0.839857
0.266224 0.852033 0.827619
0.275532 0.869963 0.758526
0.838544 0.956832 0.763958
0.992111 0.97229 0.772793
0.992569 0.971435 0.769253
0.0113527 0.0586099 0.520928
0.0111086 0.0516365 0.52134
0.0296483 0.0570382 0.548592
0.145785 0.0591592 0.612833
0.488624 0.0682078 0.653284
0.715038 0.103563 0.62826
0.721782 0.107622 0.641871
0.717189 0.112047 0.674571
0.711345 0.116243 0.702983
0.0183719 0.165164 0.58175
0.0180209 0.142962 0.587808
0.0171969 0.129183 0.580758
0.0855573 0.106844 0.620737
0.442435 0.0744335 0.658595
0.688045 0.0927749 0.606287
0.720455 0.109071 0.652064
0.714397 0.114122 0.688624
0.711437 0.116243 0.70277
0.0209049 0.209445 0.590585
0.0216068 0.189853 0.601205
0.0218357 0.186542 0.602472
0.0693523 0.160845 0.631525
0.437049 0.112184 0.692912
0.688396 0.0964981 0.617777
0.719356 0.109331 0.6551
0.713634 0.114275 0.69015
0.710857 0.11632 0.703532
0.0263676 0.300252 0.598337
0.0281682 0.290364 0.612253
0.0288701 0.282551 0.617655
0.0311589 0.26363 0.611658
0.394476 0.216709 0.738064
0.743938 0.181292 0.677913
0.723476 0.104234 0.618921
0.716976 0.112032 0.674571
0.710079 0.116411 0.704646
0.0522469 0.493248 0.605722
0.0550546 0.495506 0.61796
0.0560311 0.493339 0.623819
0.0556344 0.481727 0.633051
0.269551 0.492287 0.705959
0.797604 0.401617 0.765881
0.90959 0.351614 0.755962
0.815244 0.22031 0.69894
0.722805 0.111192 0.649287
0.154009 0.711406 0.705852
0.159762 0.717845 0.712779
0.158999 0.716869 0.712276
0.156954 0.713985 0.710216
0.13611 0.687297 0.683604
0.697551 0.765988 0.778775
0.990326 0.786465 0.818051
0.996506 0.736599 0.820279
0.997589 0.705791 0.845609
0.26363 0.851514 0.812573
0.264927 0.851102 0.814298
0.262989 0.851331 0.813001
0.260945 0.851514 0.809033
0.256748 0.851331 0.78941
0.341772 0.883146 0.765545
0.882063 0.952926 0.796674
0.992615 0.943053 0.822965
0.991012 0.947753 0.847105
0.276661 0.853941 0.850217
0.276448 0.85417 0.850385
0.273762 0.854551 0.849424
0.271763 0.854322 0.846754
0.271946 0.852934 0.839734
0.255161 0.851911 0.781811
0.808515 0.959823 0.846571
0.99144 0.979782 0.845029
0.98999 0.980743 0.856718
0.276173 0.855116 0.854566
0.276616 0.854856 0.854566
0.276555 0.854749 0.854719
0.27628 0.854871 0.854734
0.277043 0.854719 0.85449
0.306127 0.864103 0.81912
0.864302 0.972244 0.905074
0.989441 0.983886 0.891203
0.988846 0.983276 0.883726
0.0511025 0.357198 0.701228
0.0504005 0.353567 0.700664
0.049134 0.34435 0.698619
0.114397 0.357504 0.753079
0.361501 0.331868 0.852796
0.723415 0.276738 0.841352
0.807218 0.238224 0.783551
0.710979 0.116838 0.707317
0.710674 0.116381 0.704463
0.063035 0.417288 0.714672
0.0632944 0.420478 0.715251
0.0608377 0.406683 0.712764
0.118563 0.424018 0.760174
0.376638 0.415579 0.882292
0.754803 0.335973 0.876204
0.851026 0.300114 0.823102
0.763043 0.185336 0.752728
0.71313 0.12108 0.710887
0.0683452 0.440833 0.719722
0.0689708 0.445274 0.720272
0.0656596 0.42826 0.71722
0.113542 0.447135 0.757137
0.373678 0.448814 0.886976
0.757092 0.360906 0.891783
0.864332 0.322927 0.837095
0.794461 0.224369 0.776989
0.730846 0.14519 0.728252
0.081529 0.495415 0.729168
0.0822309 0.499367 0.729381
0.0788128 0.484672 0.727123
0.0869917 0.484779 0.735698
0.354864 0.508949 0.881148
0.759854 0.417441 0.918883
0.88777 0.366873 0.860151
0.847242 0.292851 0.817655
0.808011 0.242725 0.789349
0.119173 0.60473 0.749081
0.119966 0.607019 0.749416
0.119646 0.605676 0.749432
0.110246 0.583841 0.742596
0.288304 0.617136 0.839918
0.722789 0.566796 0.956847
0.93077 0.481025 0.905394
0.911223 0.417227 0.881056
0.902983 0.400504 0.875059
0.201968 0.751659 0.798154
0.204135 0.75462 0.800549
0.203464 0.75285 0.800137
0.200168 0.747982 0.798718
0.184604 0.726207 0.783169
0.654337 0.77583 0.912795
0.956115 0.737453 0.942565
0.962631 0.696941 0.937591
0.960037 0.701259 0.947066
0.278508 0.854551 0.85391
0.278431 0.854612 0.853895
0.279011 0.854246 0.853941
0.278202 0.854429 0.85417
0.277562 0.854871 0.853941
0.40267 0.869352 0.867262
0.910079 0.945251 0.954009
0.990555 0.942443 0.95819
0.987274 0.944686 0.969924
0.279347 0.854337 0.853697
0.280797 0.853971 0.8533
0.279789 0.854093 0.853681
0.278035 0.854414 0.854261
0.278721 0.854536 0.853819
0.276005 0.854215 0.8448
0.834714 0.958083 0.951614
0.992096 0.988495 0.969192
0.991516 0.988891 0.973053
0.278386 0.854627 0.85391
0.278477 0.854597 0.853895
0.27834 0.85449 0.854047
0.278004 0.854551 0.85417
0.279728 0.854124 0.853681
0.350622 0.872557 0.869566
0.871412 0.967102 0.972778
0.99321 0.989013 0.981842
0.991638 0.989013 0.976822
0.126085 0.620386 0.752255
0.128328 0.626245 0.752499
0.157763 0.634638 0.768277
0.237629 0.652598 0.8112
0.416052 0.672343 0.876539
0.732433 0.636393 0.961685
0.946105 0.5673 0.922881
0.94255 0.524529 0.913558
0.939803 0.529183 0.915785
0.141222 0.649805 0.759945
0.143404 0.655802 0.759441
0.171923 0.664942 0.773983
0.258488 0.685359 0.818311
0.455131 0.704646 0.882048
0.758083 0.680507 0.963378
0.94931 0.618097 0.931517
0.946273 0.576928 0.924086
0.946258 0.583535 0.925124
0.146288 0.659953 0.762371
0.148577 0.665629 0.762356
0.168887 0.672129 0.771969
0.259648 0.694286 0.817945
0.458854 0.713664 0.881331
0.756725 0.694987 0.963363
0.950408 0.632517 0.933684
0.947631 0.594232 0.926818
0.947814 0.602899 0.928054
0.155016 0.676219 0.765866
0.158099 0.682399 0.767727
0.159686 0.6822 0.767773
0.247944 0.706432 0.811994
0.45182 0.728298 0.879683
0.755886 0.720684 0.96408
0.954498 0.660533 0.937819
0.951858 0.62475 0.930282
0.949264 0.633127 0.932342
0.173754 0.70898 0.775372
0.179309 0.716869 0.780407
0.180148 0.717968 0.781735
0.192935 0.720424 0.785885
0.409949 0.759441 0.870878
0.743038 0.772717 0.950256
0.959579 0.723033 0.949142
0.960296 0.692836 0.942519
0.961151 0.702815 0.944823
0.237369 0.799329 0.824247
0.233921 0.794446 0.821714
0.226261 0.784268 0.816266
0.223941 0.781521 0.814069
0.305867 0.80206 0.846067
0.706798 0.838239 0.931563
0.945998 0.845014 0.965759
0.971923 0.823346 0.961135
0.971023 0.834119 0.96463
0.279545 0.854368 0.853559
0.280293 0.854154 0.853391
0.28011 0.854032 0.85359
0.279988 0.854002 0.853666
0.276844 0.852003 0.848936
0.520073 0.896498 0.905013
0.914519 0.955856 0.975326
0.98909 0.95494 0.981857
0.988403 0.960159 0.984482
0.279957 0.854185 0.853513
0.281743 0.853742 0.85304
0.280888 0.853941 0.853269
0.279454 0.854154 0.853803
0.279896 0.854261 0.853483
0.35761 0.874083 0.871153
0.855131 0.963653 0.971252
0.993347 0.989731 0.992416
0.992752 0.989868 0.992966
0.280186 0.854154 0.853437
0.280003 0.854261 0.853422
0.279835 0.8542 0.853559
0.279179 0.854246 0.853849
0.280461 0.853925 0.853498
0.462364 0.89308 0.893935
0.880644 0.968933 0.975769
0.993454 0.98967 0.992325
0.992691 0.989883 0.993011
0.181506 0.710475 0.778653
0.249256 0.733562 0.81207
0.27686 0.739803 0.824704
0.337652 0.749554 0.84828
0.515908 0.761059 0.891249
0.765301 0.774273 0.95671
0.96144 0.732006 0.950698
0.963699 0.711116 0.94464
0.956115 0.683574 0.93991
0.21825 0.734859 0.798672
0.27483 0.753872 0.825391
0.300435 0.759319 0.835721
0.366094 0.769985 0.859602
0.551232 0.780438 0.897597
0.789822 0.800824 0.95581
0.966064 0.763836 0.955795
0.962798 0.725887 0.948302
0.956436 0.689097 0.940993
0.226429 0.742184 0.803586
0.279774 0.760327 0.828626
0.303716 0.764675 0.837995
0.369223 0.775021 0.860716
0.554284 0.784894 0.897261
0.789822 0.806271 0.953765
0.965957 0.768261 0.956283
0.962722 0.73341 0.948821
0.955932 0.696895 0.941405
0.225391 0.749828 0.804685
0.274647 0.766644 0.827558
0.299077 0.771939 0.837674
0.3626 0.781765 0.85864
0.54995 0.793072 0.897002
0.790433 0.818112 0.949325
0.966949 0.784024 0.957397
0.965362 0.749844 0.950118
0.957244 0.720287 0.944976
0.214664 0.764828 0.805722
0.24593 0.776089 0.818387
0.273533 0.784451 0.831128
0.333272 0.795666 0.852216
0.514366 0.812329 0.892302
0.782132 0.840711 0.941772
0.96463 0.822644 0.960555
0.968093 0.797406 0.955825
0.966003 0.778058 0.954482
0.248463 0.811658 0.827741
0.250904 0.814893 0.83035
0.250751 0.814496 0.830533
0.259846 0.813474 0.831434
0.409155 0.842008 0.875471
0.754009 0.877012 0.940597
0.950759 0.897017 0.970581
0.975036 0.881514 0.966659
0.971923 0.880217 0.969406
0.277272 0.855222 0.853895
0.281834 0.85391 0.852934
0.282811 0.853147 0.853056
0.283513 0.854032 0.852216
0.293873 0.857374 0.851774
0.612451 0.91458 0.920104
0.927794 0.970275 0.98024
0.991348 0.971878 0.985687
0.988922 0.974273 0.988464
0.283757 0.853635 0.85214
0.283482 0.853498 0.852399
0.282429 0.853544 0.852872
0.278248 0.854643 0.853956
0.277745 0.855192 0.853697
0.43621 0.887221 0.887236
0.8822 0.966735 0.972641
0.993484 0.98967 0.99234
0.990921 0.990326 0.99469
0.280339 0.854566 0.852979
0.283635 0.853437 0.852384
0.283558 0.853239 0.852598
0.283314 0.853574 0.852415
0.284123 0.853544 0.852049
0.489067 0.895949 0.897734
0.889296 0.970443 0.976974
0.992569 0.989929 0.993103
0.990875 0.990341 0.994659
