bundles/resolve-cinematic-luts/Phantom Luts/Apple Log Phantom LUTS/iPhone 15 Phantom ARRI LUTs/33x/IceBlue_Legacy iPhone15_33x.cube
TITLE "Generated by Resolve"
LUT_3D_SIZE 33
0.0390631 0.0509499 0.051667
0.0390631 0.0509499 0.0516518
0.0390631 0.0509499 0.0516518
0.0390784 0.0509499 0.0516518
0.0390784 0.0509499 0.0516365
0.0393683 0.0509346 0.0516213
0.0526284 0.0514229 0.0525826
0.0778973 0.0525826 0.052903
0.112581 0.053315 0.0529641
0.15581 0.0523995 0.0515908
0.204303 0.0510567 0.0495918
0.254994 0.0496834 0.0469825
0.307759 0.0489357 0.0451362
0.361501 0.0485542 0.043595
0.414405 0.0480659 0.0432593
0.462242 0.0481117 0.0449378
0.507118 0.0538033 0.0627604
0.547814 0.0606851 0.0814984
0.58938 0.0703746 0.103639
0.629587 0.0830243 0.128054
0.668864 0.100191 0.155993
0.683528 0.109499 0.173785
0.695003 0.114733 0.191043
0.709148 0.122072 0.212985
0.711604 0.112734 0.226246
0.721553 0.114366 0.250645
0.733608 0.120226 0.280064
0.747463 0.131044 0.317311
0.756359 0.131807 0.364645
0.75845 0.126757 0.409216
0.757259 0.122683 0.446616
0.75494 0.120333 0.477562
0.750591 0.117861 0.502251
0.0391699 0.0508583 0.0514229
0.0391089 0.0509194 0.0515755
0.0390631 0.0509651 0.051667
0.0390478 0.0509804 0.0517128
0.0390631 0.0509804 0.0516976
0.0390936 0.0509499 0.0516213
0.04448 0.0508278 0.0521248
0.0616465 0.0519722 0.0525521
0.0918441 0.0532845 0.0526589
0.130953 0.0535744 0.0521706
0.181506 0.0519417 0.0498207
0.239002 0.0502785 0.0472419
0.299199 0.0486763 0.0446632
0.35996 0.0480812 0.0425422
0.417624 0.0474708 0.0425727
0.467765 0.0476081 0.0441749
0.505379 0.0485084 0.0479438
0.53695 0.0503548 0.0554208
0.572824 0.0565957 0.0752728
0.614923 0.0691691 0.105989
0.652979 0.0853742 0.135973
0.677043 0.106004 0.165209
0.689708 0.112215 0.183185
0.704662 0.119081 0.206302
0.712215 0.115724 0.224643
0.720699 0.11397 0.248829
0.733532 0.119951 0.280247
0.748425 0.132052 0.319356
0.756771 0.131243 0.37023
0.758328 0.126009 0.415381
0.756924 0.122179 0.453056
0.754025 0.119768 0.485145
0.748898 0.116701 0.508736
0.0391699 0.0508583 0.0514382
0.0390936 0.0509346 0.0515908
0.0390478 0.0509804 0.0517128
0.0390326 0.0510109 0.0517739
0.0390326 0.0510109 0.0517586
0.0390478 0.0509804 0.0517128
0.0415503 0.0508125 0.0517433
0.0530404 0.0515908 0.0525826
0.076051 0.0537881 0.0533761
0.105715 0.0552071 0.0532998
0.145968 0.0546883 0.0518349
0.201953 0.0526741 0.0489357
0.266758 0.0502174 0.0456092
0.339956 0.0486 0.0428016
0.411566 0.0473793 0.0426642
0.46714 0.0475319 0.0449683
0.506432 0.0489662 0.0500801
0.540124 0.051545 0.0586099
0.570489 0.0542458 0.0676127
0.603174 0.0610056 0.0877089
0.640421 0.0756237 0.120912
0.666255 0.0964218 0.152407
0.6851 0.109941 0.176532
0.699931 0.116716 0.1991
0.713191 0.120165 0.222705
0.718791 0.113191 0.244724
0.732311 0.118959 0.278065
0.747265 0.13048 0.318563
0.756573 0.131151 0.370626
0.758129 0.125948 0.416846
0.756542 0.122011 0.455329
0.753506 0.119692 0.488121
0.748363 0.11664 0.511269
0.0391546 0.0508888 0.0514839
0.0390784 0.0509499 0.0516365
0.0390326 0.0509957 0.0517586
0.0390021 0.0510262 0.0518196
0.0390021 0.0510414 0.0518349
0.0390173 0.0510262 0.0518044
0.0397955 0.0509957 0.0518196
0.0476539 0.0513161 0.0528267
0.0652781 0.0542 0.0532692
0.0895857 0.0565957 0.054551
0.123491 0.0576181 0.0541695
0.173602 0.0560769 0.0515908
0.238422 0.0527962 0.0473793
0.317418 0.0498817 0.0439002
0.394278 0.0478828 0.0423438
0.462409 0.0466011 0.0430915
0.506004 0.0487526 0.0507362
0.540154 0.0514839 0.0592355
0.571527 0.0547646 0.069337
0.602731 0.0618753 0.0821851
0.630198 0.0691081 0.107256
0.654566 0.0862287 0.138537
0.680491 0.107561 0.170382
0.696071 0.115068 0.192844
0.713024 0.123217 0.219776
0.716762 0.112764 0.239506
0.730755 0.118349 0.273213
0.745754 0.129198 0.314305
0.756283 0.131487 0.366873
0.758221 0.126223 0.414755
0.756527 0.122057 0.454261
0.753445 0.119631 0.487221
0.748348 0.116808 0.511681
0.0391394 0.0508888 0.0514839
0.0390784 0.0509499 0.0516518
0.0390326 0.0510109 0.0517739
0.0390021 0.0510414 0.0518502
0.0389868 0.0510567 0.0518654
0.0390021 0.0510414 0.0518502
0.0391852 0.0510109 0.0517739
0.0440986 0.0513008 0.0523232
0.0576944 0.0545968 0.0532998
0.0787671 0.0578012 0.0547799
0.109178 0.0597086 0.0553902
0.155718 0.0586557 0.0533608
0.219409 0.0552224 0.0488899
0.298726 0.051133 0.0447852
0.383078 0.0483711 0.0426642
0.458076 0.0452277 0.0522164
0.510018 0.046952 0.0614633
0.54432 0.0497139 0.0703136
0.575692 0.0529946 0.0805829
0.606302 0.0601358 0.0922255
0.62681 0.0661173 0.104463
0.645289 0.0767529 0.130724
0.673976 0.101823 0.163363
0.691691 0.113237 0.185962
0.709499 0.122194 0.212955
0.714855 0.112871 0.234104
0.728817 0.117449 0.268025
0.743786 0.127672 0.308858
0.755779 0.132067 0.360754
0.758465 0.126848 0.40885
0.757214 0.122499 0.448112
0.754772 0.120027 0.480049
0.750988 0.117632 0.501671
0.0392615 0.0507515 0.0511635
0.0392309 0.050782 0.0512245
0.0392157 0.0508125 0.0512856
0.0392004 0.0508278 0.0513466
0.0391852 0.0508431 0.0513771
0.0391852 0.0508583 0.0513924
0.0391852 0.0508431 0.0513771
0.0420233 0.0511788 0.0515908
0.0528115 0.0546578 0.0538186
0.0715038 0.0588235 0.0550698
0.100359 0.0610971 0.0559548
0.144366 0.0602426 0.0543221
0.207752 0.0566873 0.0504616
0.284321 0.0523079 0.0461128
0.371252 0.0487221 0.0449378
0.450019 0.0457923 0.0484321
0.505333 0.0464179 0.0577554
0.543725 0.0495766 0.0710002
0.575921 0.052842 0.0819409
0.606409 0.0598764 0.0931258
0.62504 0.0652323 0.101946
0.636927 0.0707561 0.120241
0.665766 0.0940414 0.154467
0.68806 0.111192 0.181491
0.706676 0.120729 0.208576
0.712886 0.112245 0.229694
0.727092 0.116365 0.264607
0.742153 0.125963 0.30602
0.755245 0.132204 0.358572
0.758328 0.127092 0.407492
0.757229 0.122698 0.44651
0.755032 0.120211 0.477684
0.751659 0.11809 0.498711
0.0392615 0.0508888 0.0512245
0.0392462 0.0508888 0.0512703
0.0392309 0.0508888 0.0513313
0.0392004 0.0508736 0.0513619
0.0392004 0.0508583 0.0513924
0.0391852 0.0508583 0.0513924
0.039292 0.0509651 0.0514534
0.0414282 0.051667 0.0517433
0.050248 0.0554208 0.0542916
0.0668193 0.0600443 0.055848
0.0944839 0.06215 0.0569924
0.136568 0.0613718 0.0555428
0.199557 0.0576944 0.0515297
0.275212 0.0532692 0.046952
0.361517 0.0495613 0.0455024
0.444495 0.0458381 0.0483253
0.502846 0.0462501 0.0579232
0.543481 0.0493629 0.0718853
0.575784 0.0525216 0.0832532
0.606958 0.0596017 0.0948043
0.62475 0.0648661 0.101884
0.631067 0.0674449 0.112047
0.658274 0.0869764 0.14667
0.685191 0.109361 0.178073
0.703609 0.118791 0.204334
0.711437 0.112367 0.226047
0.725505 0.115648 0.260975
0.74139 0.125246 0.303593
0.754772 0.13228 0.35642
0.758068 0.127337 0.405783
0.757183 0.122896 0.44509
0.755154 0.120378 0.476005
0.752285 0.118532 0.49572
0.0391699 0.0539559 0.0524605
0.0390936 0.0542153 0.0520027
0.0390784 0.054139 0.0520333
0.0390478 0.0536507 0.0519112
0.0390936 0.053254 0.0517739
0.0394141 0.0529793 0.0517281
0.0404974 0.0534524 0.0519265
0.0442206 0.0554818 0.0530709
0.0529793 0.0591287 0.0560159
0.0674601 0.0641794 0.0583505
0.0922255 0.0663462 0.0586709
0.131762 0.0658732 0.0568399
0.191363 0.0608988 0.0525826
0.264866 0.0558938 0.0485389
0.34728 0.0510872 0.0469673
0.437705 0.0459754 0.0488594
0.499992 0.0458076 0.0580453
0.542641 0.049012 0.0726787
0.575814 0.0521706 0.0847944
0.607156 0.0591287 0.0967269
0.625208 0.0644541 0.1037
0.62707 0.0651102 0.106706
0.648646 0.078584 0.13608
0.680842 0.106386 0.173007
0.699626 0.116716 0.198459
0.713069 0.117571 0.224323
0.723491 0.115038 0.255558
0.739681 0.124056 0.297917
0.754131 0.132906 0.350118
0.758007 0.127825 0.401816
0.757275 0.123217 0.4421
0.755428 0.120668 0.472801
0.752987 0.11902 0.491905
0.0394446 0.0747692 0.064271
0.0388952 0.0766461 0.0624399
0.0390631 0.0739605 0.0616007
0.0395514 0.0707713 0.0602121
0.04065 0.0675822 0.0586252
0.0429389 0.0653544 0.057145
0.0460059 0.0656138 0.0571756
0.0514992 0.0677958 0.0581369
0.0620584 0.0713359 0.0598459
0.0789349 0.0766766 0.063447
0.101564 0.082414 0.0654154
0.137667 0.0817731 0.0636606
0.193683 0.0742504 0.0577859
0.25951 0.0657664 0.0504768
0.334646 0.0578622 0.0474098
0.414389 0.0495613 0.0489357
0.491554 0.0457923 0.0569009
0.538979 0.048188 0.0705882
0.574838 0.0518959 0.0848249
0.606561 0.0586862 0.0973068
0.625727 0.0642252 0.105074
0.625162 0.0645457 0.103471
0.636469 0.0697337 0.120989
0.672435 0.099733 0.163012
0.694865 0.114534 0.191302
0.714092 0.122805 0.221759
0.72105 0.114336 0.249088
0.737148 0.122148 0.290822
0.753124 0.133639 0.341543
0.7579 0.128618 0.396155
0.75584 0.12285 0.450477
0.753384 0.120363 0.481453
0.751095 0.11902 0.499046
0.0356298 0.104646 0.0779583
0.0339208 0.110018 0.0711833
0.0341497 0.107698 0.0703746
0.0359655 0.100649 0.0691386
0.0396887 0.0941482 0.067216
0.0442969 0.0895094 0.0659037
0.048661 0.0887312 0.0648661
0.0552834 0.090837 0.0645304
0.0679942 0.0932631 0.0640116
0.0878462 0.0964523 0.0646067
0.114748 0.102495 0.0684825
0.149126 0.107118 0.0709544
0.20032 0.100603 0.0656138
0.268208 0.0863813 0.0586557
0.33817 0.0745098 0.051194
0.406226 0.0646525 0.0489662
0.468208 0.0537881 0.0501717
0.520043 0.0488746 0.0577249
0.567498 0.052491 0.0738842
0.602197 0.0597696 0.0880598
0.622797 0.065568 0.0968795
0.62269 0.0656291 0.0965744
0.623835 0.0659648 0.0982834
0.653132 0.0839551 0.138842
0.686915 0.110826 0.179522
0.708553 0.120592 0.212406
0.717189 0.113176 0.239963
0.733455 0.119783 0.281056
0.750317 0.132067 0.331304
0.757626 0.129366 0.391119
0.756725 0.123919 0.438621
0.754284 0.121004 0.472969
0.751904 0.119646 0.493141
0.0299687 0.139345 0.0903182
0.0276341 0.146914 0.074815
0.0280156 0.146792 0.0732128
0.0293889 0.140154 0.0729076
0.0326238 0.132296 0.0725414
0.0369268 0.125261 0.0720684
0.0428931 0.122271 0.0713207
0.0504921 0.123903 0.0703899
0.06392 0.126223 0.068101
0.0894331 0.12755 0.0655222
0.121065 0.129183 0.0655222
0.162264 0.136324 0.0695201
0.211734 0.137026 0.0717327
0.276432 0.125612 0.067689
0.353429 0.108888 0.0639963
0.424384 0.0929732 0.0610056
0.482887 0.078172 0.0580301
0.522255 0.0636759 0.0626078
0.548394 0.0538033 0.0667735
0.592264 0.0572976 0.0828107
0.622461 0.0654612 0.0967269
0.622827 0.065568 0.09691
0.62266 0.0656443 0.0964828
0.629404 0.0669261 0.109071
0.674449 0.101946 0.164645
0.700435 0.116777 0.200656
0.71371 0.113924 0.230762
0.728969 0.116991 0.27071
0.745983 0.128145 0.320012
0.756634 0.130373 0.379141
0.757137 0.125063 0.428779
0.754757 0.121584 0.464195
0.752743 0.120256 0.485176
0.0260471 0.17789 0.0983444
0.0259098 0.184588 0.0765545
0.0258793 0.187274 0.0711833
0.0260014 0.185855 0.0697337
0.0264591 0.178256 0.070985
0.0284581 0.171878 0.0714275
0.0310979 0.165057 0.0721752
0.0349584 0.163424 0.0720989
0.0459754 0.165331 0.0696422
0.0681926 0.168246 0.0654002
0.109834 0.169299 0.0612345
0.160494 0.170199 0.0606394
0.22002 0.177951 0.0651408
0.285756 0.17496 0.0720684
0.362722 0.162799 0.0728618
0.442252 0.148409 0.0766308
0.514412 0.127779 0.0802167
0.556649 0.108583 0.0805829
0.579339 0.0872511 0.0842298
0.590188 0.0677958 0.0839704
0.609628 0.0619516 0.0895552
0.622843 0.065568 0.0968643
0.62269 0.0656291 0.0964218
0.622461 0.0657664 0.0957046
0.641627 0.0752422 0.124346
0.686839 0.11017 0.180545
0.710414 0.1187 0.219074
0.722347 0.113954 0.255177
0.740383 0.123613 0.30367
0.754665 0.131792 0.36144
0.757229 0.126772 0.415
0.755291 0.122698 0.45272
0.753231 0.120882 0.475151
0.0249943 0.219577 0.104326
0.0247044 0.225818 0.0810101
0.024445 0.230701 0.0689403
0.024506 0.230915 0.0658274
0.0247501 0.230259 0.0648661
0.0251164 0.223987 0.0660105
0.0255283 0.218173 0.0670481
0.0258335 0.211948 0.0677043
0.0276646 0.208408 0.0675822
0.0331121 0.212284 0.0644388
0.0634928 0.217502 0.0578775
0.125017 0.220844 0.0530709
0.206424 0.218738 0.0510872
0.285283 0.227268 0.0577401
0.367971 0.22266 0.0724804
0.449882 0.211795 0.0821851
0.528679 0.19855 0.0938277
0.59205 0.176913 0.106081
0.626108 0.158373 0.111879
0.641886 0.134279 0.112505
0.642954 0.0990921 0.110185
0.630121 0.0687572 0.0964981
0.622034 0.0657511 0.094316
0.622354 0.0657816 0.0955215
0.622354 0.0659495 0.0952163
0.651438 0.0830243 0.135988
0.696025 0.114763 0.193835
0.715694 0.116045 0.233631
0.731456 0.1178 0.278798
0.749493 0.130724 0.332204
0.756802 0.129335 0.389975
0.756542 0.125017 0.43212
0.754635 0.122301 0.458076
0.0244602 0.2654 0.112367
0.0241245 0.272663 0.0903639
0.0235904 0.277363 0.0751659
0.0234531 0.280308 0.064744
0.0234379 0.280568 0.0603494
0.0234073 0.28011 0.057023
0.0234836 0.278096 0.0577096
0.0238041 0.274601 0.0589609
0.0238193 0.269825 0.0594186
0.0241855 0.26006 0.0603952
0.0242618 0.263294 0.0556191
0.0530556 0.271794 0.0511025
0.141543 0.277333 0.0420691
0.255924 0.274372 0.0389563
0.355169 0.284642 0.0494545
0.44773 0.280446 0.0734112
0.532753 0.268742 0.0964065
0.608408 0.253132 0.119341
0.661845 0.238361 0.140246
0.694057 0.216739 0.152728
0.70782 0.195987 0.152026
0.705089 0.162707 0.144289
0.667613 0.106737 0.121447
0.62855 0.0682536 0.0957351
0.622156 0.0657969 0.0951553
0.622156 0.0659648 0.0948348
0.654063 0.0846876 0.139345
0.701961 0.117708 0.202609
0.717815 0.112734 0.24329
0.73666 0.12108 0.292714
0.7523 0.132052 0.344427
0.757122 0.129381 0.390188
0.757198 0.126223 0.419715
0.0232242 0.317617 0.121416
0.0228733 0.325963 0.102861
0.0225986 0.331914 0.0894026
0.0223087 0.335088 0.0732738
0.0221561 0.336477 0.062089
0.0221866 0.337514 0.0556802
0.0222171 0.337423 0.0549935
0.0221714 0.338048 0.0551461
0.0222171 0.337011 0.0554055
0.0222934 0.332738 0.0555123
0.022446 0.318227 0.0551766
0.0223392 0.320562 0.054963
0.043473 0.332723 0.0504005
0.157092 0.341817 0.0385443
0.310811 0.338262 0.0333257
0.423011 0.346548 0.0472419
0.524147 0.347539 0.0764324
0.609873 0.336492 0.113268
0.67866 0.321843 0.148165
0.725811 0.308064 0.174289
0.756802 0.28571 0.192203
0.770764 0.263188 0.19556
0.752804 0.231296 0.17908
0.720424 0.183703 0.154833
0.670573 0.110033 0.123842
0.624506 0.0665751 0.0944686
0.622065 0.065919 0.0947585
0.644938 0.0775311 0.128542
0.701991 0.117433 0.203006
0.719097 0.113603 0.246113
0.736263 0.12047 0.292363
0.749645 0.130526 0.334051
0.754711 0.131258 0.364736
0.0227817 0.378012 0.139528
0.0225071 0.388296 0.124895
0.0224308 0.395087 0.114412
0.0223087 0.399741 0.103548
0.0222477 0.402914 0.0858625
0.0222324 0.404318 0.0697948
0.0222477 0.40618 0.0620127
0.0222934 0.408133 0.0584726
0.0223697 0.409888 0.0580453
0.0224155 0.412329 0.05832
0.0223697 0.410895 0.0581216
0.0220645 0.395727 0.0567941
0.0218967 0.393011 0.0561227
0.0437018 0.404364 0.0509041
0.186847 0.41352 0.0356756
0.371283 0.409003 0.0330205
0.491814 0.413291 0.0544594
0.59559 0.422049 0.0906386
0.675975 0.412055 0.139956
0.739162 0.399252 0.178927
0.785183 0.381415 0.20972
0.815213 0.36643 0.230091
0.814572 0.338781 0.229831
0.798215 0.305303 0.216938
0.773556 0.262272 0.196643
0.734737 0.204685 0.165545
0.669871 0.109361 0.12311
0.62324 0.0666056 0.0944991
0.626261 0.0666209 0.102632
0.687358 0.10869 0.182528
0.711406 0.112612 0.227512
0.72488 0.114275 0.263218
0.732845 0.118181 0.285496
0.0238193 0.448051 0.171267
0.0242924 0.459495 0.160525
0.0248417 0.46743 0.154391
0.0252689 0.472831 0.147997
0.0258793 0.477211 0.140749
0.0264897 0.481102 0.129091
0.0271305 0.483711 0.114961
0.0279088 0.485283 0.0996262
0.0289616 0.487022 0.0838178
0.0301366 0.491157 0.0786297
0.03122 0.496605 0.0779736
0.0315862 0.498207 0.0785534
0.02916 0.484886 0.0734569
0.0278477 0.476783 0.0702525
0.0625467 0.486915 0.0572061
0.23389 0.493996 0.0370336
0.435523 0.486641 0.0396429
0.562554 0.485328 0.0781567
0.664164 0.496803 0.125185
0.737804 0.492988 0.174578
0.796887 0.482673 0.212253
0.841337 0.465934 0.245274
0.858045 0.446616 0.258381
0.849317 0.422431 0.252705
0.837308 0.393851 0.244419
0.820127 0.352956 0.232792
0.79382 0.297841 0.212879
0.750484 0.229084 0.176425
0.67747 0.120989 0.126268
0.6224 0.0666514 0.0920577
0.633799 0.0710307 0.112703
0.674876 0.101289 0.163729
0.689723 0.110246 0.186587
0.0318303 0.523674 0.223651
0.0340276 0.534569 0.217243
0.0358129 0.542672 0.21413
0.0371862 0.548379 0.210254
0.0384985 0.553002 0.206882
0.0395056 0.556573 0.203204
0.0406043 0.55967 0.197177
0.041825 0.562371 0.188998
0.0434424 0.564981 0.17348
0.0461585 0.567468 0.149813
0.049424 0.570047 0.127657
0.0532235 0.575448 0.116396
0.0549783 0.579446 0.117464
0.0513619 0.569574 0.111879
0.0476997 0.558953 0.106004
0.113069 0.573404 0.081651
0.303517 0.579232 0.0549172
0.509224 0.567224 0.0699168
0.634516 0.561196 0.119036
0.730709 0.572854 0.169207
0.797971 0.575814 0.212924
0.850721 0.569635 0.250446
0.885939 0.557336 0.275319
0.882658 0.538064 0.273365
0.877775 0.515068 0.270573
0.870054 0.48574 0.26598
0.859556 0.449531 0.259861
0.843809 0.408713 0.249378
0.821561 0.354376 0.234882
0.789471 0.288136 0.210361
0.74432 0.218387 0.174975
0.705287 0.159182 0.146899
0.708217 0.16582 0.148089
0.0504158 0.598154 0.289754
0.0537881 0.607446 0.286534
0.0564431 0.614481 0.284642
0.0585336 0.619669 0.282872
0.0602274 0.623667 0.280385
0.0618296 0.627237 0.278141
0.0632944 0.630396 0.275944
0.0649119 0.633616 0.273457
0.0671855 0.637964 0.269856
0.0697948 0.642084 0.259342
0.0739605 0.645289 0.231891
0.078706 0.645838 0.198398
0.0864729 0.649439 0.170962
0.100313 0.657694 0.161181
0.0888075 0.641337 0.151644
0.0943923 0.640192 0.146319
0.193286 0.656992 0.118624
0.389715 0.661402 0.0959029
0.582345 0.646097 0.116899
0.701564 0.637171 0.1673
0.79147 0.647822 0.217334
0.850828 0.655116 0.253117
0.897093 0.652186 0.288808
0.897246 0.641886 0.288746
0.89572 0.628473 0.286412
0.893492 0.611765 0.283421
0.890425 0.589639 0.279667
0.886015 0.560555 0.276432
0.879576 0.527321 0.272297
0.871626 0.490806 0.267994
0.861295 0.458351 0.260945
0.854994 0.437278 0.257481
0.857328 0.441581 0.259556
0.0800336 0.668666 0.362432
0.0840467 0.676448 0.361227
0.0870527 0.682078 0.360052
0.0894942 0.686275 0.358511
0.0912032 0.689342 0.356237
0.092958 0.692195 0.354574
0.0948501 0.695201 0.35314
0.0963302 0.697749 0.351568
0.0989395 0.701793 0.349645
0.10219 0.706584 0.346242
0.110048 0.713893 0.339178
0.115953 0.719875 0.32311
0.118685 0.718196 0.272068
0.129839 0.721981 0.236835
0.166888 0.732998 0.207004
0.147936 0.711559 0.192538
0.167605 0.718883 0.190433
0.279576 0.735851 0.164858
0.48217 0.736996 0.148852
0.65597 0.718837 0.172457
0.763775 0.708965 0.21944
0.842618 0.717494 0.26482
0.898802 0.72604 0.29836
0.907607 0.722515 0.304265
0.905821 0.714382 0.301411
0.903578 0.70489 0.298497
0.901488 0.692607 0.296345
0.899489 0.678157 0.294255
0.897154 0.66215 0.291707
0.895277 0.645136 0.289281
0.89398 0.630884 0.287251
0.893095 0.624826 0.286381
0.893935 0.632959 0.286976
0.119295 0.733822 0.438071
0.122576 0.73901 0.436149
0.12578 0.743755 0.435828
0.127489 0.746334 0.433936
0.129122 0.748684 0.432135
0.130846 0.750973 0.430549
0.132601 0.753231 0.42945
0.133898 0.755032 0.427222
0.135821 0.757549 0.42472
0.138643 0.761105 0.42121
0.142473 0.765942 0.416754
0.152972 0.774884 0.409934
0.170031 0.786007 0.396414
0.166796 0.784802 0.347829
0.176745 0.787915 0.300481
0.230015 0.800839 0.255283
0.218326 0.784939 0.241062
0.249805 0.792416 0.235615
0.366705 0.805692 0.212863
0.571344 0.800702 0.203754
0.724529 0.783352 0.229358
0.820249 0.775006 0.272343
0.884443 0.780118 0.310063
0.928557 0.786526 0.334997
0.926696 0.779797 0.331502
0.924773 0.773373 0.32813
0.922301 0.76614 0.324697
0.919127 0.758221 0.320821
0.915724 0.749874 0.316899
0.912749 0.742184 0.313451
0.910811 0.737514 0.311131
0.910414 0.737102 0.310338
0.91281 0.743618 0.313161
0.164096 0.791012 0.513283
0.166613 0.795026 0.51162
0.168719 0.798199 0.510842
0.169894 0.800137 0.508476
0.171054 0.801862 0.506844
0.172091 0.803265 0.504997
0.172549 0.803967 0.502663
0.173175 0.804883 0.500145
0.174243 0.806394 0.497292
0.175967 0.808698 0.493568
0.179721 0.811749 0.489067
0.183673 0.816815 0.482643
0.192401 0.825284 0.473823
0.209827 0.837156 0.458381
0.213474 0.842313 0.420188
0.217212 0.838834 0.348196
0.27042 0.842756 0.286549
0.273121 0.839719 0.279667
0.334493 0.849439 0.26775
0.464012 0.860227 0.251606
0.659876 0.853986 0.256336
0.786206 0.841001 0.283375
0.869627 0.834028 0.322301
0.92224 0.835889 0.351049
0.941817 0.83624 0.363088
0.941222 0.831968 0.360098
0.938979 0.826398 0.357046
0.935851 0.819989 0.353582
0.937057 0.817349 0.351446
0.938979 0.815747 0.349691
0.937514 0.813321 0.348135
0.935714 0.813199 0.348196
0.935149 0.818067 0.350759
0.205188 0.84004 0.587457
0.206668 0.842649 0.585946
0.207858 0.844465 0.585229
0.20853 0.845609 0.583963
0.208789 0.846189 0.581308
0.208927 0.846479 0.578973
0.209277 0.846967 0.576822
0.209567 0.847349 0.574441
0.210071 0.847959 0.571054
0.211048 0.849195 0.567025
0.212131 0.85066 0.560449
0.213764 0.852872 0.552377
0.216938 0.856992 0.541787
0.221134 0.862486 0.52871
0.223377 0.861891 0.504463
0.230121 0.858976 0.459953
0.219272 0.842573 0.356283
0.270985 0.842756 0.286275
0.28043 0.843641 0.281086
0.37882 0.859556 0.265858
0.558038 0.87512 0.262501
0.736171 0.887114 0.296468
0.842237 0.890288 0.331884
0.9122 0.885222 0.366506
0.953719 0.885313 0.387442
0.955734 0.882368 0.386069
0.954787 0.878416 0.383368
0.954192 0.875242 0.381613
0.952819 0.871809 0.379477
0.95172 0.869139 0.377874
0.951293 0.868147 0.377493
0.951064 0.869001 0.377844
0.952773 0.873747 0.381125
0.226841 0.860029 0.643153
0.226719 0.859892 0.642374
0.226581 0.859739 0.641566
0.226169 0.859648 0.639353
0.225711 0.859571 0.637507
0.225193 0.85951 0.635081
0.224781 0.859434 0.632944
0.224491 0.859312 0.631235
0.224109 0.859113 0.627741
0.223682 0.858808 0.623331
0.223087 0.858503 0.617334
0.222263 0.858244 0.608835
0.221347 0.858289 0.597101
0.220691 0.859129 0.58056
0.22153 0.862135 0.557458
0.222431 0.863966 0.528222
0.231067 0.861387 0.478889
0.219532 0.842939 0.359838
0.252033 0.842222 0.306676
0.324941 0.852552 0.276677
0.457115 0.867369 0.258915
0.635065 0.881239 0.272786
0.781277 0.894331 0.31284
0.87602 0.904494 0.352026
0.940612 0.915236 0.397513
0.966186 0.919142 0.414008
0.965774 0.915877 0.411643
0.966186 0.914 0.410971
0.96611 0.91194 0.410346
0.966293 0.911696 0.411551
0.9673 0.913176 0.414755
0.968521 0.916762 0.420096
0.970657 0.922972 0.428412
0.23386 0.858869 0.68748
0.234134 0.858808 0.687114
0.234211 0.858778 0.686671
0.233921 0.858854 0.685359
0.233341 0.859007 0.683848
0.232639 0.859236 0.682277
0.231922 0.859495 0.681041
0.23122 0.859709 0.679164
0.230686 0.859937 0.67657
0.230365 0.860121 0.673381
0.23003 0.860349 0.668589
0.229252 0.860304 0.662089
0.228 0.860441 0.652811
0.225544 0.859937 0.638743
0.222202 0.859037 0.619196
0.21912 0.859205 0.588708
0.220203 0.86389 0.547707
0.22536 0.862058 0.49102
0.216327 0.846952 0.386587
0.231495 0.845975 0.350378
0.374334 0.869062 0.299321
0.569787 0.883604 0.283146
0.738109 0.893034 0.305501
0.84744 0.904799 0.348516
0.921508 0.914855 0.393149
0.967269 0.924163 0.431266
0.97084 0.925048 0.434043
0.971511 0.925353 0.435492
0.972168 0.925826 0.437217
0.972671 0.926436 0.439368
0.973129 0.927291 0.442481
0.973861 0.928435 0.447028
0.974472 0.929732 0.452552
0.239231 0.85478 0.721706
0.239765 0.854612 0.721843
0.240085 0.854566 0.721782
0.239933 0.854765 0.720913
0.239445 0.855024 0.720195
0.238697 0.855451 0.719051
0.237903 0.855817 0.71812
0.237446 0.856153 0.717174
0.237003 0.856397 0.715511
0.236789 0.856641 0.7131
0.236759 0.856886 0.710628
0.236347 0.857176 0.706249
0.235569 0.857725 0.700145
0.234409 0.858503 0.691966
0.232425 0.859541 0.678782
0.229099 0.860304 0.657649
0.222858 0.859083 0.621225
0.219608 0.861402 0.56733
0.224033 0.862272 0.49839
0.222126 0.856031 0.447044
0.293446 0.8692 0.378103
0.477882 0.889586 0.325277
0.661753 0.899321 0.323629
0.80708 0.910506 0.359045
0.901091 0.919905 0.402258
0.958694 0.929381 0.448737
0.976074 0.932448 0.460166
0.976669 0.932815 0.461646
0.977218 0.933272 0.462959
0.977752 0.933837 0.464942
0.97818 0.934722 0.467964
0.978729 0.935836 0.472465
0.978759 0.937148 0.478172
0.242924 0.851957 0.747112
0.243305 0.85185 0.747097
0.243687 0.851804 0.747173
0.243565 0.851865 0.746685
0.243015 0.852049 0.745846
0.242176 0.852293 0.745068
0.241443 0.852491 0.744335
0.240742 0.852628 0.743511
0.240177 0.85275 0.742351
