bundles/resolve-cinematic-luts/Phantom Luts/Apple Log Phantom LUTS/iPhone 15 Phantom ARRI LUTs/33x/IceBlue iPhone15_33x.cube
TITLE "Generated by Resolve"
LUT_3D_SIZE 33
0.0285954 0.0409094 0.0389105
0.0285954 0.0409094 0.0389105
0.0285954 0.0409094 0.0388952
0.0286107 0.0409094 0.03888
0.0286259 0.0408942 0.0388037
0.0290227 0.0408789 0.0387732
0.0511482 0.0408179 0.0401007
0.0927596 0.0418402 0.0407111
0.145541 0.0424201 0.0410773
0.201633 0.0421607 0.0404059
0.255756 0.0420233 0.0396887
0.308843 0.042298 0.0392462
0.361166 0.0432441 0.0393835
0.410574 0.0446326 0.0405432
0.455787 0.0458686 0.0431373
0.494041 0.049012 0.0522774
0.542779 0.0629435 0.0865492
0.589487 0.0783551 0.115175
0.632654 0.0915847 0.141451
0.673335 0.106889 0.168811
0.71133 0.12256 0.197543
0.724697 0.129152 0.21825
0.724529 0.121553 0.231876
0.726635 0.116915 0.253056
0.734203 0.120195 0.281147
0.74583 0.12929 0.315007
0.755413 0.132219 0.359228
0.759594 0.128054 0.4065
0.761654 0.125246 0.449256
0.76141 0.123659 0.490043
0.756451 0.119799 0.523171
0.748608 0.114153 0.545007
0.74107 0.10898 0.560174
0.0287022 0.0408331 0.0385901
0.0286412 0.0408789 0.0387884
0.0285954 0.0409094 0.0389105
0.0285649 0.04094 0.0389715
0.0285954 0.0409247 0.0389258
0.0286259 0.0408942 0.0388037
0.0371099 0.0406348 0.0401617
0.0673991 0.0411231 0.0400397
0.114427 0.0425574 0.0407568
0.171954 0.0428779 0.0402686
0.230594 0.0420386 0.0383917
0.29279 0.0420691 0.0378119
0.352438 0.0424353 0.037644
0.408316 0.0432288 0.0380255
0.456901 0.0447395 0.0409247
0.494423 0.0467536 0.0450752
0.524422 0.0483101 0.0493172
0.553994 0.0510109 0.0582895
0.604425 0.0683604 0.100374
0.662181 0.0987411 0.149386
0.702174 0.117968 0.182544
0.719066 0.125841 0.2065
0.730343 0.133104 0.230961
0.724895 0.116533 0.245991
0.732754 0.119295 0.275959
0.744411 0.127825 0.312169
0.755261 0.132204 0.35938
0.759518 0.127794 0.409812
0.761456 0.125017 0.455192
0.760601 0.123278 0.496941
0.754742 0.118776 0.528771
0.746487 0.112596 0.54995
0.738125 0.106691 0.564034
0.028687 0.0408331 0.0386206
0.0286259 0.0408942 0.038819
0.0285801 0.0409247 0.0389563
0.0285496 0.0409552 0.0390478
0.0285496 0.0409552 0.0390326
0.0285801 0.0409247 0.0389258
0.0319829 0.041001 0.0395666
0.0523232 0.0409247 0.0401007
0.0907301 0.0436255 0.041474
0.135363 0.0459449 0.0413367
0.18967 0.0462348 0.0402075
0.252338 0.0451514 0.037705
0.319814 0.0441749 0.0367895
0.3906 0.0437476 0.0370336
0.452049 0.0441901 0.0403143
0.494331 0.0466773 0.046128
0.52752 0.049836 0.0543984
0.558663 0.0531777 0.063447
0.587198 0.0575418 0.0720226
0.635569 0.0743877 0.116228
0.690303 0.109087 0.167636
0.710567 0.121782 0.195224
0.726864 0.130831 0.222766
0.723796 0.11751 0.238483
0.730892 0.118486 0.268971
0.742107 0.125841 0.305852
0.754681 0.132692 0.353964
0.759304 0.127977 0.407492
0.761288 0.125017 0.454734
0.760357 0.123171 0.497078
0.75436 0.118776 0.530221
0.745815 0.11249 0.551919
0.73724 0.106523 0.566125
0.028687 0.0408484 0.0386664
0.0286107 0.0409094 0.0388647
0.0285649 0.04094 0.0390021
0.0285344 0.0409705 0.0390936
0.0285191 0.0409857 0.0391089
0.0285496 0.0409705 0.0390326
0.0296025 0.0409857 0.0391394
0.0429084 0.0409094 0.0401923
0.0739605 0.0444648 0.0418097
0.111528 0.0488289 0.0431067
0.161181 0.0507973 0.0422675
0.219944 0.05037 0.0399176
0.290196 0.0484016 0.0377661
0.368566 0.0458534 0.0368963
0.437812 0.04448 0.0388037
0.490578 0.0457618 0.0446632
0.527291 0.0495918 0.0552224
0.559045 0.053254 0.0644388
0.589822 0.0586404 0.0760204
0.6215 0.067277 0.0911879
0.669413 0.0896315 0.143313
0.70312 0.117845 0.185046
0.721813 0.127337 0.213169
0.725124 0.12163 0.234241
0.729122 0.117723 0.262455
0.74049 0.124529 0.300725
0.753841 0.132708 0.349325
0.759045 0.128252 0.404028
0.761212 0.125078 0.452232
0.76054 0.123293 0.495155
0.754879 0.119173 0.528969
0.745983 0.112612 0.551308
0.737575 0.106889 0.56611
0.028687 0.0408484 0.0386664
0.0286107 0.0409094 0.0388647
0.0285496 0.04094 0.0390173
0.0285191 0.0409705 0.0391089
0.0285191 0.0409857 0.0391394
0.0285191 0.0409857 0.0391089
0.0287327 0.0409705 0.0390478
0.0363012 0.0411688 0.0404059
0.062089 0.0452735 0.0423438
0.0972305 0.0509346 0.0447089
0.14226 0.0544137 0.0445411
0.200229 0.0543679 0.0407263
0.270512 0.0516518 0.0387121
0.349554 0.0484169 0.037171
0.42826 0.0450599 0.0384375
0.488151 0.0437781 0.0525673
0.53138 0.0476692 0.0661784
0.563195 0.0512703 0.0762951
0.593545 0.0567483 0.0870985
0.624384 0.0654154 0.100145
0.652201 0.0760815 0.122866
0.692393 0.107759 0.1738
0.716091 0.124163 0.204547
0.726635 0.127153 0.229206
0.727031 0.117525 0.253727
0.738186 0.123156 0.29279
0.753033 0.133639 0.34107
0.758724 0.128786 0.398077
0.761303 0.125277 0.447242
0.761227 0.123568 0.489998
0.756252 0.1196 0.524239
0.747845 0.112993 0.546075
0.741085 0.107958 0.55877
0.0288243 0.0407416 0.0382544
0.0287938 0.0407568 0.0383307
0.0287785 0.0407874 0.038407
0.028748 0.0408026 0.0384833
0.0287327 0.0408179 0.0385138
0.0287327 0.0408179 0.038529
0.028748 0.0408179 0.0385138
0.0328527 0.0415656 0.0396735
0.0534524 0.0459297 0.0425574
0.0862745 0.0533913 0.0457465
0.130236 0.0567025 0.0460975
0.188235 0.0565805 0.0413214
0.257465 0.054078 0.0388037
0.335714 0.0505379 0.0383764
0.418097 0.0457923 0.0402991
0.481865 0.0443732 0.048188
0.52726 0.0471656 0.0625162
0.562432 0.0510262 0.0767224
0.593866 0.0563821 0.0889448
0.624308 0.0650034 0.100771
0.64596 0.0725719 0.113771
0.67747 0.0937514 0.157107
0.710536 0.121004 0.197009
0.727672 0.130449 0.226719
0.725582 0.117113 0.248157
0.736217 0.121706 0.286992
0.752422 0.134493 0.334707
0.758251 0.129137 0.394263
0.760906 0.125353 0.444984
0.761166 0.12369 0.488457
0.756512 0.11989 0.522881
0.748486 0.113558 0.54461
0.74229 0.108934 0.557244
0.0288701 0.0409705 0.0384222
0.0288243 0.0409094 0.0384375
0.0287938 0.0408942 0.0384833
0.0287938 0.0408484 0.0385138
0.028748 0.0408331 0.038529
0.0287327 0.0408179 0.0385443
0.0289006 0.0409705 0.0386664
0.0320287 0.0421912 0.0398108
0.0489052 0.0480507 0.0439002
0.0784466 0.0565042 0.0470741
0.121126 0.0587472 0.0470588
0.179889 0.057969 0.043122
0.249668 0.0555734 0.0400702
0.326436 0.0522774 0.0382391
0.409308 0.0469825 0.0410925
0.477867 0.0443275 0.0482948
0.525399 0.0469062 0.0628519
0.562417 0.0508125 0.0778515
0.593805 0.0560311 0.0902571
0.62501 0.0646067 0.103059
0.643336 0.0703441 0.111055
0.663676 0.0831464 0.139376
0.704448 0.116411 0.18999
0.725643 0.129473 0.222004
0.724636 0.11725 0.243442
0.734462 0.120577 0.281453
0.750225 0.132479 0.329473
0.75787 0.129458 0.390417
0.760555 0.125399 0.443458
0.760983 0.123812 0.4869
0.756634 0.120226 0.521859
0.748943 0.114137 0.543816
0.743435 0.109895 0.55555
0.0290532 0.0457771 0.0412909
0.0291142 0.0466163 0.0408942
0.0293431 0.0466773 0.04094
0.0290227 0.0459907 0.0405737
0.0290379 0.0452735 0.0402686
0.0294041 0.0447547 0.0399634
0.031342 0.0455482 0.0405127
0.0371405 0.0485084 0.0420691
0.0536202 0.0559243 0.0462043
0.0799115 0.065156 0.0499428
0.118868 0.067277 0.0500649
0.175677 0.0649119 0.0463417
0.243687 0.061265 0.041062
0.316548 0.0568399 0.0379492
0.395544 0.049958 0.0411536
0.472816 0.0444648 0.0479744
0.522683 0.0464027 0.0620432
0.561624 0.0504463 0.0786297
0.593835 0.0556191 0.0918593
0.625254 0.0641031 0.105089
0.643198 0.0697185 0.111711
0.652262 0.0747387 0.125124
0.695827 0.109285 0.180392
0.722347 0.127153 0.215427
0.722957 0.117037 0.236591
0.73257 0.119738 0.274159
0.748165 0.1308 0.322789
0.757443 0.130068 0.383383
0.760388 0.125719 0.43801
0.76109 0.124041 0.483223
0.757076 0.12076 0.519341
0.749905 0.115007 0.541787
0.744762 0.110964 0.553582
0.0294804 0.0863508 0.0612802
0.0296941 0.089128 0.0571145
0.030045 0.0840162 0.0558328
0.0303807 0.0776226 0.0539254
0.0317998 0.0720073 0.0518959
0.0349889 0.0681163 0.0503395
0.0405585 0.0682841 0.0495613
0.0525673 0.0716716 0.0502174
0.0705119 0.0792096 0.051133
0.0981613 0.0895399 0.0542
0.135485 0.0939651 0.0563211
0.18613 0.0902876 0.0535439
0.249943 0.0806592 0.0479133
0.320577 0.0709697 0.0431373
0.387457 0.0618296 0.0409094
0.456046 0.0509651 0.046952
0.514885 0.0462196 0.0589456
0.558297 0.049897 0.0764172
0.592813 0.0552987 0.0914778
0.62446 0.0637369 0.105165
0.643748 0.0694591 0.113283
0.643503 0.0698253 0.112276
0.677394 0.0926833 0.15906
0.715251 0.122347 0.206088
0.726452 0.124086 0.234287
0.730495 0.118715 0.266789
0.745007 0.128344 0.313359
0.756603 0.130907 0.373404
0.760128 0.126177 0.431235
0.761196 0.124346 0.47747
0.755001 0.121111 0.52549
0.747814 0.115892 0.549081
0.742718 0.112062 0.560296
0.0271611 0.130755 0.0775616
0.0272221 0.138308 0.0629435
0.0274662 0.135256 0.0622568
0.0280613 0.125048 0.0614481
0.0316167 0.115877 0.0599527
0.0363775 0.109422 0.0587472
0.0436866 0.107836 0.0568399
0.05832 0.110307 0.05626
0.0848554 0.112551 0.0530861
0.110918 0.118135 0.0529183
0.14963 0.128588 0.0550851
0.202411 0.125719 0.0572519
0.263203 0.117678 0.0546426
0.334005 0.104738 0.0525216
0.40531 0.0894789 0.0508736
0.462669 0.0778821 0.0491493
0.502419 0.0627909 0.0514229
0.541131 0.0520027 0.0618601
0.585595 0.0557412 0.0804456
0.620218 0.0648508 0.0958114
0.640665 0.0709544 0.104479
0.640558 0.0710155 0.104189
0.645426 0.0719005 0.113787
0.701473 0.115343 0.184878
0.726772 0.129305 0.225589
0.727245 0.117388 0.254963
0.741176 0.125338 0.301808
0.755261 0.132067 0.360403
0.759609 0.126818 0.422263
0.760662 0.124376 0.472587
0.757 0.121935 0.515358
0.749996 0.117449 0.543297
0.744289 0.113573 0.556741
0.0261387 0.172686 0.094667
0.0260166 0.183612 0.0638132
0.0260471 0.183612 0.0612192
0.0263676 0.175692 0.0612192
0.026978 0.165957 0.0613718
0.0310063 0.157183 0.0610819
0.0342107 0.153765 0.0593423
0.0458839 0.155322 0.0567483
0.0748913 0.157717 0.0549783
0.11458 0.158297 0.0498817
0.155016 0.161639 0.049424
0.20943 0.172702 0.0509804
0.278065 0.166369 0.0559243
0.34815 0.15819 0.0584573
0.422339 0.14609 0.0630655
0.491234 0.127398 0.0687572
0.538125 0.108904 0.0715953
0.559945 0.0870527 0.0707713
0.573938 0.0644846 0.0755779
0.609842 0.0620584 0.0893721
0.64033 0.0708171 0.104402
0.640665 0.0709697 0.104433
0.640467 0.0710613 0.103944
0.664744 0.0843214 0.140414
0.716503 0.123857 0.206851
0.724361 0.117723 0.240726
0.735637 0.120806 0.287037
0.752987 0.132982 0.344533
0.758633 0.127703 0.4112
0.759854 0.124376 0.464424
0.757687 0.122683 0.507866
0.75201 0.119219 0.537499
0.746563 0.115755 0.552773
0.0250095 0.217273 0.106218
0.0245518 0.227909 0.0685283
0.0242924 0.231662 0.0590829
0.0244602 0.23032 0.0561379
0.024918 0.220813 0.0572824
0.0253147 0.212955 0.0577859
0.0263371 0.204379 0.0581521
0.0289311 0.202014 0.0561379
0.0384985 0.204913 0.0544594
0.0771954 0.209415 0.0511482
0.140398 0.211063 0.0443885
0.205112 0.212329 0.0423743
0.274388 0.222934 0.0446937
0.357214 0.215198 0.0549172
0.431968 0.208499 0.0657816
0.504051 0.197238 0.0785382
0.566781 0.179644 0.0913863
0.607828 0.157412 0.102419
0.625879 0.133257 0.104463
0.62739 0.096376 0.102739
0.626413 0.0675975 0.095079
0.64062 0.0710002 0.104219
0.640375 0.0711223 0.103502
0.640131 0.0713359 0.102693
0.684733 0.100847 0.164187
0.72433 0.12604 0.223239
0.729488 0.117876 0.26392
0.746349 0.128435 0.320974
0.757321 0.129503 0.389166
0.759487 0.125017 0.448859
0.75877 0.123476 0.494057
0.754437 0.121233 0.527291
0.749371 0.118334 0.545556
0.0237888 0.26392 0.117922
0.0234836 0.273716 0.0842603
0.0229038 0.280125 0.0599374
0.0229343 0.280934 0.0547951
0.0230564 0.280125 0.0536507
0.0235294 0.273487 0.0547646
0.0237888 0.266392 0.0552224
0.0241093 0.258946 0.0556497
0.0245212 0.25391 0.0556802
0.0304265 0.258274 0.0549935
0.0703136 0.265721 0.0497292
0.164996 0.26833 0.0406653
0.257115 0.266743 0.0381323
0.340597 0.276692 0.0408026
0.435203 0.271183 0.0557412
0.510628 0.265614 0.0766155
0.579736 0.253925 0.0988022
0.634165 0.240558 0.119097
0.670741 0.215213 0.13608
0.689616 0.192386 0.140658
0.690089 0.156512 0.13518
0.664897 0.095201 0.117052
0.638972 0.0708629 0.100954
0.640345 0.0711223 0.103563
0.641032 0.071397 0.104692
0.696132 0.109575 0.179019
0.727916 0.125231 0.238087
0.735943 0.121065 0.287541
0.754208 0.132448 0.35407
0.758862 0.126772 0.422599
0.75935 0.124163 0.472206
0.757183 0.122911 0.508629
0.75346 0.121065 0.531167
0.0235904 0.312703 0.132052
0.0229953 0.323064 0.104768
0.0225223 0.330816 0.0799725
0.0222019 0.335592 0.0635386
0.0220951 0.336416 0.0543832
0.0222171 0.337209 0.054963
0.0221714 0.334936 0.0550546
0.0223697 0.330266 0.0555123
0.0224308 0.324346 0.0554818
0.0225986 0.311299 0.0552682
0.0227512 0.314488 0.0552224
0.0637827 0.324865 0.0482795
0.189319 0.32961 0.0366064
0.311482 0.326848 0.0340887
0.40798 0.336339 0.0391699
0.505501 0.336004 0.0590829
0.582376 0.328786 0.0934157
0.648264 0.317067 0.125582
0.698192 0.303044 0.153429
0.733043 0.284627 0.17322
0.751842 0.255619 0.182239
0.753216 0.225772 0.17612
0.716258 0.168856 0.148745
0.651438 0.0803235 0.107362
0.64007 0.0711376 0.102953
0.640497 0.0713817 0.103532
0.701625 0.114672 0.185595
0.724819 0.117693 0.242695
0.741543 0.125063 0.304753
0.756359 0.130755 0.374929
0.759457 0.125994 0.433875
0.75993 0.124239 0.47187
0.758831 0.123445 0.497963
0.0229038 0.367636 0.151202
0.0226291 0.379416 0.129427
0.0223697 0.388449 0.113924
0.0222629 0.394095 0.0890516
0.0221714 0.39884 0.0715343
0.0221408 0.402182 0.0582437
0.0222324 0.404608 0.0574655
0.0222629 0.406455 0.0578164
0.0222324 0.404944 0.0578164
0.0220798 0.399573 0.0574197
0.0218051 0.380285 0.0561532
0.0217441 0.380285 0.0559548
0.0624552 0.392004 0.0474861
0.216373 0.398352 0.0340429
0.370367 0.393668 0.0333257
0.475822 0.399893 0.04477
0.571038 0.406485 0.072343
0.646189 0.399344 0.116869
0.708644 0.389258 0.154269
0.756191 0.371908 0.186191
0.789624 0.355718 0.208255
0.808331 0.329198 0.221317
0.794797 0.292653 0.210208
0.767422 0.245731 0.187488
0.71899 0.172427 0.15108
0.6439 0.0745251 0.102953
0.640009 0.0712902 0.102586
0.692668 0.108186 0.173968
0.724224 0.11667 0.242664
0.742229 0.125612 0.307332
0.756115 0.130755 0.374533
0.758923 0.126711 0.424033
0.759274 0.124926 0.451652
0.0235752 0.429709 0.183948
0.023621 0.442878 0.166491
0.0238651 0.452613 0.155535
0.0243229 0.46009 0.145159
0.0248569 0.466072 0.131914
0.0256352 0.469734 0.109026
0.0266117 0.473396 0.0901808
0.0275883 0.477287 0.0776532
0.0285954 0.481727 0.0739452
0.0291447 0.484916 0.0738537
0.0290532 0.483925 0.0735637
0.0263371 0.46569 0.0675975
0.025452 0.458824 0.0652781
0.0780499 0.46865 0.0493477
0.264073 0.471641 0.0338598
0.432441 0.464897 0.0376898
0.540581 0.466957 0.0638132
0.633631 0.478126 0.101961
0.70425 0.474098 0.147601
0.762676 0.462898 0.185214
0.808576 0.446265 0.217823
0.841199 0.426596 0.242527
0.844038 0.404761 0.245045
0.831525 0.374029 0.236835
0.811765 0.32694 0.223789
0.779706 0.26566 0.198001
0.716609 0.16907 0.149416
0.642893 0.0742809 0.103197
0.655955 0.0792554 0.127001
0.719448 0.119402 0.223026
0.733989 0.119539 0.281773
0.749538 0.131273 0.330755
0.753704 0.129961 0.362478
0.0281071 0.498894 0.232425
0.0296178 0.510338 0.220096
0.0310674 0.519493 0.213291
0.0324559 0.526787 0.206867
0.0339055 0.533165 0.200427
0.0352026 0.538689 0.194583
0.0366674 0.543267 0.18497
0.0379492 0.545815 0.168673
0.040238 0.548714 0.144762
0.0442664 0.553216 0.115312
0.0482948 0.561257 0.107393
0.0492561 0.563897 0.108797
0.0445106 0.549432 0.101152
0.0422217 0.536385 0.0929885
0.12134 0.547967 0.0645609
0.326879 0.548272 0.0434424
0.497017 0.537804 0.0593118
0.606394 0.534859 0.0992905
0.695735 0.545968 0.142535
0.760586 0.548028 0.181842
0.815564 0.538857 0.220935
0.859205 0.524315 0.251362
0.874266 0.506645 0.263386
0.869047 0.481468 0.26041
0.861173 0.452125 0.255894
0.848112 0.415366 0.247196
0.827848 0.366522 0.233509
0.792782 0.29102 0.207446
0.721157 0.176883 0.151492
0.6392 0.0718547 0.0982681
0.673533 0.0939193 0.14757
0.7122 0.118669 0.203403
0.72256 0.122164 0.228626
0.0417334 0.56846 0.293873
0.0441291 0.577417 0.28452
0.0463264 0.584955 0.279713
0.0481117 0.590845 0.27538
0.0499123 0.596078 0.271092
0.0516213 0.600732 0.267033
0.0534218 0.605127 0.263371
0.0552071 0.609567 0.259312
0.057557 0.614633 0.25127
0.0612039 0.620203 0.231998
0.066331 0.623194 0.193118
0.0768749 0.630869 0.158389
0.0865492 0.637873 0.149859
0.0798047 0.62652 0.142824
0.0806744 0.611536 0.127489
0.189395 0.625559 0.0953841
0.400168 0.624002 0.0759747
0.564355 0.609873 0.0979629
0.671382 0.603876 0.143267
0.755932 0.613779 0.186938
0.8159 0.620676 0.221271
0.865522 0.614588 0.258625
0.889601 0.605615 0.275593
0.887907 0.589456 0.273472
0.884962 0.569223 0.27013
0.880705 0.542992 0.267445
0.875059 0.511009 0.264332
0.865736 0.466468 0.259434
0.848936 0.416602 0.248554
0.824369 0.355779 0.232425
0.788312 0.283085 0.204288
0.749905 0.21944 0.176928
0.751156 0.219425 0.177356
0.0653086 0.636271 0.361746
0.0678569 0.642786 0.354482
0.0703899 0.648646 0.350927
0.0723735 0.653056 0.347127
0.0740215 0.656687 0.343328
0.0757763 0.660166 0.340337
0.0774243 0.663432 0.337407
0.0793164 0.666972 0.334661
0.0821241 0.672099 0.33135
0.0859236 0.678676 0.326223
0.0914321 0.686885 0.314305
0.0972763 0.691783 0.281971
0.112291 0.696345 0.222171
0.14583 0.709758 0.191806
0.131365 0.692638 0.180453
0.141695 0.683925 0.165194
0.267491 0.698421 0.133959
0.475547 0.695232 0.121157
0.630533 0.679484 0.145937
0.73138 0.671534 0.191135
0.809705 0.679698 0.233066
0.865705 0.687495 0.264332
0.896941 0.687465 0.286168
0.896925 0.677348 0.286915
0.895888 0.665415 0.285618
0.894514 0.651026 0.283894
0.892164 0.632593 0.280781
0.889342 0.608698 0.276844
0.885649 0.579797 0.272435
0.880903 0.548241 0.268681
0.875517 0.515511 0.265095
0.871626 0.497063 0.262699
0.873518 0.503334 0.264454
0.0991379 0.700679 0.433463
0.1019 0.706127 0.428824
0.104158 0.710246 0.425498
0.105837 0.713146 0.421714
0.107012 0.715343 0.418021
0.108293 0.717433 0.41471
0.109621 0.719631 0.41178
0.110933 0.721889 0.409369
0.113161 0.725368 0.406043
0.115938 0.729732 0.400702
0.121202 0.737057 0.394598
0.12961 0.746487 0.384604
0.15024 0.759197 0.362387
0.151675 0.759152 0.290852
0.208728 0.776669 0.23592
0.188983 0.75285 0.218097
0.218845 0.753826 0.204883
0.348318 0.765896 0.177798
0.552331 0.759655 0.172015
0.693874 0.743008 0.197498
0.786831 0.734813 0.240787
0.857038 0.742947 0.279164
0.908995 0.749035 0.308263
0.911421 0.743206 0.308461
0.909255 0.736278 0.304784
0.906615 0.728115 0.301122
0.903716 0.718578 0.297505
0.900359 0.707362 0.293629
0.897353 0.693736 0.290715
0.894835 0.680079 0.287922
0.892943 0.668238 0.285451
0.89305 0.662989 0.285664
0.893797 0.6692 0.286183
0.14197 0.76112 0.506569
0.14403 0.764843 0.503258
0.1458 0.767865 0.500877
0.146883 0.769711 0.497704
0.147555 0.770916 0.494163
0.148196 0.77203 0.490883
0.149187 0.773419 0.488655
0.149966 0.774639 0.485359
0.150912 0.776196 0.4804
0.152407 0.778439 0.474449
0.154864 0.782132 0.467048
0.160159 0.78912 0.459174
0.169299 0.798978 0.447501
0.19237 0.813672 0.424949
0.193545 0.816785 0.352163
0.262181 0.8336 0.27808
0.249348 0.814572 0.26067
0.302739 0.819013 0.244526
0.433646 0.825345 0.221454
0.62742 0.814832 0.2224
0.753155 0.800671 0.249149
0.837583 0.793942 0.289693
0.892454 0.796185 0.320287
0.932494 0.802197 0.340246
0.930846 0.795926 0.336339
0.928756 0.789654 0.332647
0.92639 0.782925 0.329152
0.92369 0.776059 0.325811
0.920363 0.768124 0.321843
0.916945 0.760937 0.317937
0.9149 0.75668 0.315587
0.914519 0.7561 0.314839
0.91693 0.762264 0.317571
0.18645 0.813809 0.576394
0.187945 0.816953 0.574426
0.189258 0.819501 0.573175
0.189364 0.820447 0.570321
0.189761 0.821393 0.568063
0.190143 0.822187 0.565637
0.190295 0.822583 0.563073
0.190433 0.823072 0.559915
0.190494 0.823606 0.555749
0.190906 0.824628 0.550378
0.193103 0.826017 0.542916
0.194156 0.828443 0.53167
0.19823 0.834394 0.518853
0.205356 0.843214 0.502983
0.22652 0.85713 0.476921
0.218662 0.847044 0.387701
0.271855 0.842908 0.285176
0.278141 0.843259 0.28127
0.366613 0.858305 0.267582
0.524681 0.868513 0.256306
0.701518 0.864042 0.272435
0.80734 0.853086 0.29836
0.881666 0.847028 0.334936
0.930816 0.848463 0.360143
0.946685 0.84651 0.368399
0.944259 0.84155 0.36466
0.94229 0.837186 0.361501
0.940734 0.832746 0.358465
0.938155 0.827268 0.355474
0.934813 0.822492 0.352621
0.936202 0.822553 0.351781
0.938476 0.825528 0.352712
0.940322 0.831479 0.35642
0.225132 0.858534 0.640543
0.226551 0.860914 0.639307
0.227237 0.862165 0.638575
0.227756 0.863203 0.637369
0.227665 0.863569 0.634974
0.227481 0.863676 0.632975
0.227451 0.863905 0.6309
0.227314 0.863951 0.628382
0.227359 0.864164 0.625299
0.227649 0.864683 0.621332
0.227543 0.865095 0.614679
0.227619 0.865888 0.605524
0.227924 0.867491 0.592081
0.227344 0.86862 0.571756
0.223819 0.865721 0.543435
0.224125 0.861875 0.501808
0.223957 0.849409 0.396948
0.274128 0.842863 0.283665
0.300572 0.847486 0.277638
0.411521 0.863233 0.262272
0.601755 0.878599 0.268223
0.759243 0.890608 0.305409
0.856336 0.897368 0.341878
0.92079 0.894118 0.37583
0.960433 0.893919 0.395178
0.962417 0.891005 0.393515
0.961547 0.887205 0.390677
0.961044 0.884321 0.388983
0.959823 0.881209 0.386999
0.958709 0.878767 0.385473
0.957992 0.877714 0.384909
0.957839 0.878294 0.38555
0.959075 0.882231 0.389029
0.245167 0.875288 0.689158
0.245396 0.875166 0.68835
0.245563 0.874937 0.687694
0.245365 0.874846 0.685802
0.244907 0.874861 0.683894
0.244327 0.874952 0.682185
0.243793 0.875074 0.680354
0.24332 0.875212 0.678431
0.242832 0.875212 0.675608
0.242329 0.875059 0.671626
0.241657 0.874815 0.66627
0.24065 0.874464 0.658473
0.239017 0.873976 0.647852
0.236667 0.873472 0.632486
0.233875 0.873274 0.608438
0.228 0.86949 0.569696
0.22295 0.863218 0.518334
0.225391 0.850568 0.403296
0.24007 0.841627 0.319844
0.353597 0.857786 0.274968
0.507439 0.871733 0.260166
0.672084 0.883879 0.280049
0.79704 0.895888 0.319036
0.883635 0.905425 0.356161
0.944503 0.916381 0.401602
0.969696 0.921599 0.41767
0.970733 0.920882 0.417838
0.970855 0.918761 0.417136
0.970718 0.91664 0.416892
0.970855 0.916197 0.418753
0.971633 0.917281 0.422782
0.97322 0.921401 0.429999
0.975158 0.927337 0.439521
0.24979 0.872328 0.722866
0.250294 0.872206 0.722545
0.250614 0.872084 0.72221
0.250492 0.872114 0.721279
0.249989 0.872312 0.720104
0.249195 0.872618 0.718975
0.248432 0.872923 0.718105
0.247761 0.873213 0.716686
0.247395 0.873396 0.714839
0.247089 0.873487 0.712352
0.246769 0.873655 0.708629
0.246479 0.874098 0.703716
0.245747 0.874846 0.696712
0.244099 0.875593 0.685512
0.240742 0.875425 0.667536
0.235721 0.874357 0.64007
0.230152 0.873167 0.596155
0.221302 0.864881 0.530037
0.222614 0.855253 0.437827
0.254139 0.855344 0.365057
0.411841 0.877775 0.309545
0.598428 0.889311 0.297566
0.752773 0.898528 0.321263
0.856001 0.909239 0.3626
0.926543 0.918669 0.405753
0.97116 0.927398 0.441444
0.974823 0.928328 0.444694
0.975555 0.92871 0.446387
0.97612 0.929198 0.448371
0.97641 0.929778 0.450706
0.976638 0.930709 0.454231
0.97702 0.931975 0.459281
0.977676 0.933669 0.465934
0.253773 0.868513 0.749249
0.254429 0.868376 0.749172
0.254871 0.86833 0.74902
0.254795 0.868482 0.748455
0.254307 0.868696 0.748012
0.253376 0.869001 0.74728
0.252506 0.869291 0.746593
0.251835 0.869535 0.745922
0.251453 0.869688 0.744854
0.251331 0.869902 0.743023
0.251484 0.870115 0.740612
0.251514 0.870451 0.737331
0.251255 0.871061 0.732677
0.250401 0.8719 0.726299
0.248859 0.873045 0.716411
0.246189 0.87451 0.700313
0.241154 0.875273 0.669856
0.233387 0.873915 0.618723
0.222492 0.86569 0.537575
0.229511 0.862409 0.484703
0.314778 0.87808 0.397345
0.507805 0.897398 0.345678
0.674113 0.905745 0.344121
0.812482 0.916381 0.37763
0.90483 0.925139 0.418753
0.961334 0.9337 0.463478
0.978988 0.93666 0.474998
0.979568 0.937041 0.476524
0.980102 0.937484 0.477974
0.980346 0.937987 0.479957
0.980438 0.938827 0.483101
0.980362 0.940078 0.488075
0.980606 0.941619 0.494759
0.257969 0.866835 0.771862
0.258503 0.866697 0.771862
0.258946 0.866621 0.771969
0.258808 0.866712 0.771466
0.258167 0.866926 0.770733
0.257191 0.867231 0.770077
0.256245 0.867475 0.769589
0.255512 0.867643 0.768704
0.254871 0.867781 0.767575
0.254475 0.867842 0.766308
0.254185 0.867903 0.76437
0.253895 0.86807 0.761898
0.253422 0.86833 0.758633
0.252628 0.86865 0.754131
