bundles/resolve-cinematic-luts/Phantom Luts/Apple Log Phantom LUTS/iPhone 15 Phantom ARRI LUTs/33x/IceBlue iPhone15_33x.cube
TITLE "Generated by Resolve"
LUT_3D_SIZE 9
0.0285954 0.0409094 0.0389105
0.0286259 0.0408942 0.0388037
0.145541 0.0424201 0.0410773
0.361166 0.0432441 0.0393835
0.542779 0.0629435 0.0865492
0.71133 0.12256 0.197543
0.734203 0.120195 0.281147
0.761654 0.125246 0.449256
0.74107 0.10898 0.560174
0.028687 0.0408484 0.0386664
0.0285191 0.0409857 0.0391394
0.062089 0.0452735 0.0423438
0.270512 0.0516518 0.0387121
0.53138 0.0476692 0.0661784
0.652201 0.0760815 0.122866
0.727031 0.117525 0.253727
0.761303 0.125277 0.447242
0.741085 0.107958 0.55877
0.0294804 0.0863508 0.0612802
0.0317998 0.0720073 0.0518959
0.0705119 0.0792096 0.051133
0.249943 0.0806592 0.0479133
0.514885 0.0462196 0.0589456
0.643748 0.0694591 0.113283
0.726452 0.124086 0.234287
0.760128 0.126177 0.431235
0.742718 0.112062 0.560296
0.0237888 0.26392 0.117922
0.0230564 0.280125 0.0536507
0.0245212 0.25391 0.0556802
0.257115 0.266743 0.0381323
0.579736 0.253925 0.0988022
0.690089 0.156512 0.13518
0.641032 0.071397 0.104692
0.754208 0.132448 0.35407
0.75346 0.121065 0.531167
0.0281071 0.498894 0.232425
0.0339055 0.533165 0.200427
0.040238 0.548714 0.144762
0.0445106 0.549432 0.101152
0.497017 0.537804 0.0593118
0.815564 0.538857 0.220935
0.861173 0.452125 0.255894
0.721157 0.176883 0.151492
0.72256 0.122164 0.228626
0.14197 0.76112 0.506569
0.147555 0.770916 0.494163
0.150912 0.776196 0.4804
0.169299 0.798978 0.447501
0.249348 0.814572 0.26067
0.753155 0.800671 0.249149
0.930846 0.795926 0.336339
0.920363 0.768124 0.321843
0.91693 0.762264 0.317571
0.24979 0.872328 0.722866
0.249989 0.872312 0.720104
0.247395 0.873396 0.714839
0.245747 0.874846 0.696712
0.230152 0.873167 0.596155
0.411841 0.877775 0.309545
0.926543 0.918669 0.405753
0.97612 0.929198 0.448371
0.977676 0.933669 0.465934
0.268956 0.867079 0.821057
0.26862 0.867399 0.820493
0.265614 0.86807 0.817166
0.263905 0.867887 0.808927
0.259998 0.866865 0.782391
0.241108 0.877043 0.643839
0.796353 0.938491 0.510918
0.987121 0.956054 0.574273
0.990448 0.957336 0.59176
0.272892 0.867613 0.837537
0.271656 0.867948 0.83682
0.271061 0.868009 0.834028
0.268986 0.867643 0.826169
0.262821 0.86688 0.794766
0.426612 0.924361 0.655451
0.916899 0.956405 0.62829
0.990646 0.962509 0.649348
0.989517 0.962173 0.656458
0.0286259 0.0408942 0.0388037
0.0286259 0.0408942 0.0388037
0.191852 0.0422065 0.143618
0.416297 0.0473945 0.190326
0.600275 0.0698863 0.199802
0.725567 0.113939 0.255894
0.750301 0.130892 0.338094
0.759304 0.123674 0.490425
0.732097 0.103838 0.574472
0.0286259 0.0409094 0.038819
0.0285649 0.0409552 0.0389715
0.154772 0.0426184 0.0454566
0.380331 0.0493629 0.0687877
0.578332 0.0734112 0.132418
0.725032 0.12639 0.224857
0.740169 0.122255 0.308248
0.759518 0.12401 0.484733
0.732296 0.103502 0.573358
0.0254978 0.126177 0.119722
0.0272374 0.126146 0.0772869
0.0920424 0.108827 0.0526131
0.310719 0.070985 0.0463722
0.533654 0.0474403 0.0674754
0.696513 0.108049 0.185901
0.732158 0.117311 0.279164
0.758709 0.124071 0.471382
0.736843 0.10779 0.568933
0.0230869 0.268971 0.186633
0.0240482 0.281025 0.121798
0.0229191 0.295415 0.0542763
0.255146 0.28072 0.0365759
0.596643 0.24596 0.106538
0.690501 0.149004 0.139178
0.701854 0.113039 0.190356
0.757122 0.128557 0.400473
0.749432 0.118639 0.545357
0.0281682 0.493599 0.281056
0.0301976 0.514199 0.240955
0.0335546 0.532616 0.217441
0.0502632 0.566308 0.109407
0.491447 0.540917 0.0589761
0.818341 0.53669 0.222889
0.861448 0.449683 0.257527
0.727443 0.184054 0.158206
0.729305 0.119768 0.256413
0.144717 0.762478 0.528939
0.149462 0.770871 0.517586
0.151019 0.773907 0.504662
0.159106 0.786786 0.463661
0.249149 0.813825 0.260471
0.750973 0.799878 0.248615
0.929152 0.794842 0.337285
0.91957 0.766934 0.321233
0.917281 0.761196 0.315801
0.251057 0.871519 0.728664
0.251972 0.871336 0.726513
0.249958 0.872267 0.721706
0.246616 0.874006 0.704982
0.231891 0.874128 0.613153
0.398077 0.883467 0.340887
0.926863 0.923262 0.42118
0.9785 0.932952 0.464317
0.978469 0.936751 0.478477
0.269337 0.867109 0.822965
0.26923 0.867399 0.822232
0.26656 0.867796 0.818891
0.265019 0.867689 0.810636
0.261036 0.866667 0.784329
0.242161 0.876692 0.650095
0.790448 0.937575 0.524147
0.987472 0.956436 0.579568
0.990814 0.957488 0.595376
0.273777 0.86746 0.83856
0.273655 0.86746 0.837491
0.272312 0.867765 0.835111
0.269398 0.867643 0.827527
0.26331 0.866957 0.797421
0.409506 0.924071 0.663325
0.906279 0.955535 0.632624
0.9906 0.962798 0.656733
0.989471 0.962402 0.66331
0.0261997 0.04065 0.0992294
0.0901808 0.0403906 0.106691
0.202106 0.0403296 0.174121
0.404471 0.0394446 0.248783
0.610529 0.0724193 0.244709
0.73341 0.117464 0.284718
0.755077 0.130831 0.372992
0.757794 0.122698 0.508019
0.728496 0.101472 0.581064
0.0282597 0.0484169 0.0548409
0.0253758 0.0401923 0.11809
0.18706 0.0402228 0.169665
0.419196 0.0483711 0.160327
0.602045 0.0727855 0.178698
0.725444 0.117144 0.245502
0.749996 0.130663 0.337346
0.75845 0.123186 0.503304
0.727275 0.0996567 0.579278
0.0229648 0.134463 0.142382
0.0226902 0.13138 0.140063
0.0780804 0.107103 0.121599
0.319814 0.0839094 0.109117
0.590356 0.0764172 0.157687
0.726223 0.125444 0.23032
0.740703 0.122637 0.310063
0.758602 0.123674 0.490761
0.7308 0.102831 0.575692
0.0220798 0.268513 0.213138
0.0234379 0.276066 0.181292
0.0241245 0.279881 0.137484
0.237293 0.27985 0.0812848
0.60325 0.246265 0.147433
0.704631 0.158709 0.167712
0.727001 0.126497 0.230701
0.758282 0.126329 0.429282
0.74493 0.115267 0.55671
0.028336 0.490288 0.310826
0.0295109 0.506767 0.277638
0.0306706 0.516625 0.248676
0.0407568 0.549081 0.139864
0.482628 0.534585 0.0556344
0.815152 0.530221 0.223423
0.863035 0.443549 0.264775
0.753185 0.203494 0.2009
0.735759 0.119677 0.290364
0.146395 0.761898 0.543496
0.150805 0.770138 0.534157
0.151446 0.772381 0.522362
0.153414 0.778775 0.479408
0.214527 0.799527 0.272358
0.744503 0.792584 0.24271
0.928878 0.787961 0.33994
0.922164 0.759396 0.333227
0.928817 0.753613 0.349371
0.252049 0.870832 0.733394
0.252522 0.870771 0.731456
0.250751 0.871595 0.726909
0.248157 0.873228 0.711528
0.234241 0.874067 0.627604
0.385382 0.887114 0.367864
0.924681 0.926574 0.431342
0.980011 0.936461 0.4766
0.979492 0.939986 0.491203
0.270222 0.867002 0.824552
0.26981 0.867353 0.823758
0.267216 0.867765 0.820203
0.26566 0.867658 0.811933
0.26183 0.866575 0.786328
0.240986 0.875578 0.655848
0.780087 0.936568 0.533989
0.987488 0.956649 0.589929
0.990738 0.957824 0.602869
0.274769 0.867521 0.841581
0.274983 0.867475 0.840482
0.274357 0.867445 0.837858
0.271031 0.867445 0.831037
0.26511 0.867033 0.803677
0.380255 0.920043 0.676753
0.886305 0.955459 0.64361
0.991165 0.96405 0.67097
0.990555 0.963699 0.673777
0.0162203 0.044007 0.289403
0.217517 0.0386511 0.325048
0.311727 0.0377356 0.324483
0.412039 0.0382391 0.324819
0.606424 0.0604562 0.348333
0.755123 0.134722 0.354253
0.758465 0.125765 0.436637
0.749752 0.117418 0.544274
0.726177 0.102022 0.598276
0.016434 0.0876173 0.213474
0.0142214 0.0453193 0.319646
0.164553 0.0400092 0.360296
0.414008 0.0382239 0.338766
0.620111 0.0678569 0.319585
0.745235 0.125917 0.326101
0.758068 0.126909 0.420981
0.749737 0.117372 0.544472
0.72668 0.102312 0.599268
0.0176547 0.166537 0.215747
0.0136721 0.128084 0.260288
0.0317845 0.0966049 0.272587
0.325673 0.0570077 0.285847
0.613993 0.066453 0.316014
0.739254 0.120241 0.309804
0.756832 0.128359 0.402365
0.752178 0.119356 0.536614
0.726421 0.101732 0.595682
0.0192111 0.267201 0.26302
0.0191501 0.268681 0.26566
0.0190738 0.266224 0.26508
0.239796 0.286488 0.291707
0.643122 0.276844 0.292836
0.787823 0.222568 0.2972
0.743374 0.123964 0.32134
0.758328 0.123552 0.492424
0.727749 0.101686 0.580636
0.0286259 0.479942 0.366369
0.0298924 0.493736 0.360662
0.0303502 0.499489 0.349111
0.0296941 0.505959 0.288975
0.447883 0.543206 0.224735
0.863798 0.549508 0.344732
0.918563 0.477897 0.379553
0.814725 0.25449 0.31693
0.75758 0.127871 0.40853
0.150057 0.757397 0.582315
0.155642 0.766903 0.578073
0.155932 0.769268 0.568841
0.151934 0.770306 0.533303
0.163272 0.783078 0.414038
0.728222 0.796063 0.289326
0.958114 0.776974 0.421836
0.959594 0.751034 0.424414
0.968353 0.748379 0.446403
0.255924 0.868605 0.745281
0.256031 0.868513 0.744228
0.253742 0.869413 0.740795
0.25185 0.870985 0.729015
0.241993 0.874449 0.665858
0.367269 0.895842 0.447044
0.916899 0.935088 0.464363
0.982132 0.945144 0.514015
0.981109 0.947799 0.536187
0.273808 0.866667 0.829969
0.274388 0.866575 0.829129
0.270039 0.867475 0.82594
0.268833 0.867185 0.817853
0.266224 0.866056 0.794018
0.244251 0.872297 0.679652
0.766262 0.936858 0.575265
0.988724 0.958679 0.626551
0.990707 0.960342 0.64181
0.27982 0.867308 0.848249
0.279423 0.867262 0.847715
0.278965 0.867063 0.84567
0.275486 0.867247 0.839704
0.270359 0.866529 0.817578
0.336431 0.904997 0.708965
0.862699 0.955276 0.687266
0.990982 0.967178 0.714244
0.991547 0.9664 0.715465
0.0145266 0.0539406 0.481331
0.129198 0.0487068 0.541039
0.260182 0.0463722 0.553033
0.440986 0.0475166 0.541222
0.604334 0.0604257 0.50576
0.752636 0.119509 0.534554
0.740917 0.110857 0.56289
0.725383 0.10251 0.603037
0.72192 0.107805 0.642634
0.00962844 0.0986038 0.424842
0.00991836 0.0534524 0.453971
0.0396735 0.0510414 0.494911
0.35314 0.0472267 0.562066
0.605112 0.062089 0.520333
0.751308 0.11902 0.538781
0.736965 0.108553 0.569421
0.724514 0.10312 0.60943
0.722362 0.108766 0.647852
0.00999466 0.163287 0.41648
0.0100252 0.117113 0.458091
0.0101167 0.0971542 0.46183
0.219699 0.0552071 0.510964
0.563424 0.0524453 0.485512
0.750515 0.119188 0.541512
0.739116 0.110597 0.567376
0.72398 0.102968 0.608804
0.721691 0.108583 0.647562
0.0138247 0.292592 0.395514
0.0126192 0.277836 0.422782
0.0122225 0.265553 0.439567
0.0968338 0.256657 0.475608
0.581689 0.186038 0.530373
0.809796 0.197498 0.505104
0.747036 0.116381 0.551171
0.725689 0.101198 0.593561
0.722087 0.106905 0.637079
0.0349432 0.48716 0.474983
0.0370031 0.495171 0.484245
0.0372473 0.495735 0.4851
0.0364385 0.491691 0.482933
0.474632 0.537514 0.543359
0.919524 0.556832 0.580072
0.97229 0.491035 0.575525
0.834958 0.226932 0.53167
0.72874 0.102449 0.584619
0.154376 0.742824 0.641764
0.15967 0.74995 0.645548
0.15993 0.75111 0.643488
0.157382 0.750912 0.632563
0.132952 0.733471 0.562158
0.684215 0.796841 0.513664
0.990677 0.796704 0.607752
0.992584 0.781399 0.620233
0.993118 0.783093 0.656535
0.26125 0.866361 0.772595
0.262516 0.865599 0.772793
0.260548 0.866026 0.770474
0.258564 0.866651 0.763531
0.25478 0.869718 0.735348
0.413993 0.915465 0.611307
0.896498 0.946136 0.588235
0.987457 0.952758 0.640833
0.986893 0.955306 0.667155
0.281178 0.866529 0.84477
0.280812 0.866773 0.844358
0.277913 0.867109 0.841978
0.275868 0.866987 0.835935
0.272892 0.866224 0.818433
0.253254 0.866606 0.73727
0.773007 0.943648 0.686183
0.99173 0.966659 0.71635
0.993088 0.967865 0.734615
0.285649 0.869276 0.861906
0.286168 0.868894 0.861479
0.284749 0.86891 0.859892
0.283085 0.868437 0.856168
0.280171 0.866758 0.844923
0.304112 0.877684 0.767086
0.849058 0.959884 0.78381
0.99266 0.974823 0.792493
0.993362 0.973785 0.787991
0.0136721 0.0846571 0.55465
0.0116274 0.0587625 0.537728
0.0370947 0.0486915 0.549828
0.201022 0.0526436 0.62388
0.540627 0.0776837 0.67039
0.717983 0.110567 0.665156
0.716304 0.112779 0.679591
0.709789 0.117082 0.709499
0.70576 0.11873 0.722423
0.0233921 0.225986 0.606043
0.023209 0.201709 0.613382
0.021973 0.185824 0.607385
0.128252 0.153628 0.66186
0.500099 0.11046 0.69366
0.707164 0.102342 0.632136
0.714275 0.114168 0.689021
0.706737 0.118349 0.719692
0.705852 0.118715 0.72224
0.0273594 0.273625 0.613779
0.0279088 0.253086 0.624567
0.0280003 0.249622 0.625864
0.106355 0.217227 0.669474
0.492882 0.159304 0.727016
0.721798 0.129152 0.655451
0.713252 0.114458 0.691524
0.706462 0.118288 0.719387
0.705638 0.118746 0.722515
0.0370642 0.370275 0.624323
0.0384833 0.357763 0.637079
0.0387884 0.349874 0.641642
0.0524453 0.325353 0.640284
0.45539 0.277424 0.772366
0.778973 0.229953 0.715267
0.735821 0.125582 0.657221
0.709545 0.117082 0.70956
0.704753 0.118853 0.723751
0.0738384 0.551675 0.642725
0.0770886 0.553841 0.653635
0.0777447 0.552087 0.65803
0.0768597 0.542397 0.665309
0.343435 0.546487 0.733837
0.816861 0.459098 0.788205
0.93315 0.396704 0.782696
0.850538 0.268452 0.735058
0.744442 0.144289 0.688258
0.181506 0.745083 0.740459
0.18674 0.750698 0.746532
0.185977 0.749859 0.746075
0.184085 0.747326 0.744152
0.155886 0.712322 0.708019
0.724834 0.783963 0.795682
0.988067 0.80209 0.830701
0.993301 0.758007 0.833387
0.993896 0.731456 0.856046
0.278233 0.866117 0.83125
0.279286 0.865782 0.832853
0.277119 0.866102 0.831785
0.275395 0.866285 0.828519
0.272023 0.8663 0.81091
0.382818 0.890105 0.775799
0.889769 0.956909 0.814328
0.992218 0.947524 0.83827
0.990723 0.952026 0.859922
0.293782 0.872282 0.870512
0.295369 0.873884 0.872847
0.288365 0.869718 0.865232
0.286213 0.869535 0.862654
0.286046 0.868269 0.855894
0.260655 0.856886 0.790585
0.8215 0.962295 0.857511
0.992782 0.982055 0.858198
0.991577 0.9832 0.868742
0.299962 0.879896 0.885908
0.30042 0.879606 0.885939
0.300481 0.879515 0.885985
0.30042 0.879606 0.885939
0.301137 0.879484 0.885649
0.330968 0.868864 0.823819
0.874159 0.97348 0.912184
0.991791 0.986664 0.901167
0.991196 0.985916 0.893477
0.0664225 0.424201 0.726177
0.0655375 0.420188 0.725109
0.0617838 0.405463 0.717586
0.165042 0.418814 0.78851
0.417197 0.388983 0.887785
0.751415 0.322469 0.868879
0.843458 0.284443 0.813748
0.726192 0.142458 0.735348
0.705653 0.11873 0.722683
0.0820783 0.485664 0.740185
0.0825971 0.489296 0.740658
0.0755779 0.464637 0.731868
0.169329 0.481849 0.793317
0.431022 0.470375 0.911254
0.779751 0.383856 0.900175
0.875395 0.340078 0.847257
0.799268 0.233387 0.788006
0.732097 0.152071 0.742138
0.0895094 0.511421 0.74519
0.0907301 0.516762 0.745785
0.0823835 0.489677 0.736812
0.163134 0.50312 0.789273
0.428153 0.502419 0.912261
0.781155 0.410651 0.914153
0.885405 0.361013 0.858488
0.830442 0.271077 0.808835
0.765942 0.194064 0.766506
0.10486 0.559213 0.753933
0.105806 0.562707 0.754314
0.10071 0.547982 0.750179
0.135119 0.541955 0.768612
0.409812 0.558511 0.900557
0.781064 0.467704 0.934188
0.904112 0.403357 0.876783
0.872709 0.333547 0.842969
0.840208 0.287312 0.819669
0.145464 0.65127 0.774289
0.146426 0.653208 0.774594
0.145876 0.651957 0.774411
0.129702 0.624155 0.758877
0.34345 0.653178 0.859464
0.743465 0.605402 0.960342
0.939132 0.521157 0.915251
0.925917 0.45684 0.896498
0.918502 0.439307 0.890898
0.223239 0.778714 0.821622
0.225223 0.781399 0.823804
0.224613 0.77969 0.823392
0.221485 0.775479 0.822446
0.193866 0.739284 0.791745
0.68835 0.790967 0.921096
0.959701 0.758053 0.947265
0.966796 0.721218 0.943099
0.963775 0.724712 0.95201
0.302434 0.879255 0.885084
0.302358 0.879316 0.885084
0.30312 0.87892 0.885069
0.302052 0.879149 0.88539
0.301335 0.879576 0.885115
0.449958 0.87834 0.877775
0.916533 0.94934 0.957778
0.990845 0.946426 0.961318
0.988449 0.949035 0.97348
0.303487 0.878981 0.88481
0.305333 0.878508 0.884428
0.30399 0.878737 0.884794
0.301793 0.879179 0.885496
0.302724 0.87921 0.884993
0.29369 0.858473 0.849104
0.847593 0.962631 0.956374
0.994598 0.991241 0.972854
0.994079 0.991592 0.976593
0.302358 0.879301 0.885084
0.302434 0.879286 0.885069
0.302235 0.879194 0.885252
0.301747 0.879301 0.88542
0.303975 0.878737 0.884794
0.38201 0.877729 0.875746
0.881056 0.970733 0.976349
0.995682 0.991653 0.985107
0.994171 0.991714 0.980117
0.143267 0.651331 0.765652
0.170642 0.660151 0.77615
0.215503 0.671382 0.800198
0.290745 0.682277 0.834211
0.477333 0.696773 0.890242
0.752865 0.667628 0.964096
0.95021 0.602899 0.929076
0.947188 0.563302 0.920363
0.94432 0.56759 0.921904
0.155734 0.674403 0.770535
0.186816 0.685985 0.782971
0.232258 0.698604 0.806745
0.312322 0.710765 0.841138
0.512612 0.723842 0.895125
0.776425 0.707378 0.965652
0.953231 0.649516 0.937072
0.950027 0.611688 0.929717
0.950057 0.618143 0.930861
0.160143 0.68304 0.772793
0.18497 0.692699 0.782223
0.232197 0.706004 0.806195
0.313664 0.718486 0.840818
0.515862 0.731456 0.894041
0.775677 0.720165 0.965972
0.954482 0.662776 0.939178
0.951736 0.627848 0.932479
0.952087 0.635676 0.933593
0.169055 0.698177 0.777249
0.170962 0.700557 0.775708
0.213062 0.712245 0.796216
0.303273 0.730236 0.836698
0.509178 0.744503 0.892348
0.775479 0.743252 0.96701
0.958144 0.687816 0.943099
0.955444 0.655604 0.93611
0.953231 0.663371 0.937713
0.18854 0.729412 0.790387
0.19115 0.73312 0.792035
0.189883 0.731762 0.790494
0.25742 0.748928 0.819257
0.472435 0.772778 0.885573
0.763439 0.789837 0.953475
0.962951 0.744396 0.953628
0.963623 0.716945 0.947402
0.964904 0.726024 0.949523
0.255726 0.821073 0.844358
0.250095 0.814008 0.839094
0.238224 0.799237 0.82858
0.23241 0.792264 0.822828
0.354559 0.814755 0.862379
0.734768 0.848554 0.938369
0.949493 0.855909 0.968963
0.974014 0.835691 0.963973
0.973358 0.845701 0.967605
0.303716 0.879011 0.884703
0.304631 0.878737 0.884581
0.304341 0.878645 0.884749
0.304204 0.87863 0.88481
0.278248 0.853712 0.850126
0.567086 0.903487 0.913085
0.920577 0.959808 0.978424
0.991363 0.958831 0.985046
0.99025 0.963348 0.987076
0.304189 0.878798 0.884688
0.306462 0.878233 0.884108
0.305394 0.878492 0.884413
0.303563 0.878813 0.884932
0.304128 0.878889 0.884657
0.392111 0.880842 0.879179
0.865797 0.967437 0.974487
0.995758 0.992294 0.995026
0.995087 0.992462 0.995621
0.304494 0.878737 0.884642
0.304173 0.878889 0.884627
0.304021 0.878843 0.884718
0.303243 0.87892 0.884993
0.304906 0.878477 0.884672
0.510521 0.899992 0.902174
0.889281 0.97261 0.979202
0.995819 0.992264 0.994965
0.995026 0.992477 0.995682
0.253117 0.74226 0.816297
0.307805 0.755276 0.838712
0.333654 0.75938 0.848432
0.398169 0.767346 0.869322
0.566812 0.774929 0.902342
0.783215 0.79147 0.958724
0.96527 0.752636 0.955245
0.967361 0.733379 0.949203
0.959472 0.708644 0.944656
0.284398 0.761578 0.831449
0.331502 0.772488 0.848722
0.357321 0.777111 0.857954
0.426978 0.784344 0.877485
0.598901 0.793271 0.908186
0.805127 0.815808 0.958068
0.968231 0.781582 0.959167
0.966628 0.747021 0.953048
0.960128 0.713878 0.94583
0.290333 0.767361 0.834531
0.335103 0.777508 0.850675
0.359884 0.781643 0.859327
0.430106 0.788922 0.877897
0.601694 0.79707 0.907546
0.805371 0.820645 0.956832
0.968093 0.785473 0.959442
0.966186 0.753597 0.953155
0.959686 0.721141 0.946227
0.289342 0.774945 0.83537
0.329625 0.784237 0.849897
0.353918 0.787976 0.858198
0.422156 0.795605 0.876051
0.598123 0.804715 0.907485
0.805829 0.831342 0.952285
0.969085 0.80029 0.960281
0.968917 0.768872 0.954665
0.960708 0.742336 0.949691
0.262745 0.784405 0.827588
0.304753 0.79736 0.844434
0.326329 0.801144 0.852125
0.38735 0.80911 0.86894
0.567178 0.822492 0.902724
0.798749 0.852018 0.946105
0.966705 0.835233 0.963394
0.97052 0.812436 0.958846
0.967651 0.794446 0.957183
0.253895 0.81799 0.832868
0.253056 0.817655 0.831662
0.25301 0.815961 0.830549
0.310903 0.829618 0.850629
0.463081 0.851911 0.887572
0.775586 0.885054 0.945052
0.954559 0.90396 0.973556
0.977615 0.889387 0.969528
0.974426 0.888304 0.972152
0.300969 0.879988 0.885313
0.306584 0.878386 0.883909
0.307942 0.877501 0.884001
0.287129 0.858045 0.855665
0.327306 0.865721 0.861234
0.651499 0.921324 0.928115
0.933104 0.973404 0.982834
0.993362 0.974716 0.988174
0.991196 0.977478 0.991043
0.30901 0.877989 0.88304
0.308705 0.877867 0.883314
0.307393 0.877958 0.883879
0.302129 0.879362 0.885161
0.301549 0.879927 0.885069
0.482719 0.894484 0.89604
0.891157 0.97026 0.975952
0.995926 0.992248 0.994919
0.993332 0.992889 0.997314
0.304723 0.879149 0.884169
0.308873 0.877791 0.883284
0.308782 0.877577 0.883497
0.308461 0.877943 0.88336
0.309483 0.877867 0.882918
0.538155 0.902464 0.905547
0.897139 0.973709 0.980011
0.994842 0.992523 0.995804
0.993286 0.992905 0.997299
