bundles/resolve-cinematic-luts/Phantom Luts/Apple Log Phantom LUTS/iPhone 15 Phantom ARRI LUTs/33x/IceBlue iPhone15_33x.cube
TITLE "Generated by Resolve"
LUT_3D_SIZE 5
0.0285954 0.0409094 0.0389105
0.145541 0.0424201 0.0410773
0.542779 0.0629435 0.0865492
0.734203 0.120195 0.281147
0.74107 0.10898 0.560174
0.0294804 0.0863508 0.0612802
0.0705119 0.0792096 0.051133
0.514885 0.0462196 0.0589456
0.726452 0.124086 0.234287
0.742718 0.112062 0.560296
0.0281071 0.498894 0.232425
0.040238 0.548714 0.144762
0.497017 0.537804 0.0593118
0.861173 0.452125 0.255894
0.72256 0.122164 0.228626
0.24979 0.872328 0.722866
0.247395 0.873396 0.714839
0.230152 0.873167 0.596155
0.926543 0.918669 0.405753
0.977676 0.933669 0.465934
0.272892 0.867613 0.837537
0.271061 0.868009 0.834028
0.262821 0.86688 0.794766
0.916899 0.956405 0.62829
0.989517 0.962173 0.656458
0.0261997 0.04065 0.0992294
0.202106 0.0403296 0.174121
0.610529 0.0724193 0.244709
0.755077 0.130831 0.372992
0.728496 0.101472 0.581064
0.0229648 0.134463 0.142382
0.0780804 0.107103 0.121599
0.590356 0.0764172 0.157687
0.740703 0.122637 0.310063
0.7308 0.102831 0.575692
0.028336 0.490288 0.310826
0.0306706 0.516625 0.248676
0.482628 0.534585 0.0556344
0.863035 0.443549 0.264775
0.735759 0.119677 0.290364
0.252049 0.870832 0.733394
0.250751 0.871595 0.726909
0.234241 0.874067 0.627604
0.924681 0.926574 0.431342
0.979492 0.939986 0.491203
0.274769 0.867521 0.841581
0.274357 0.867445 0.837858
0.26511 0.867033 0.803677
0.886305 0.955459 0.64361
0.990555 0.963699 0.673777
0.0145266 0.0539406 0.481331
0.260182 0.0463722 0.553033
0.604334 0.0604257 0.50576
0.740917 0.110857 0.56289
0.72192 0.107805 0.642634
0.00999466 0.163287 0.41648
0.0101167 0.0971542 0.46183
0.563424 0.0524453 0.485512
0.739116 0.110597 0.567376
0.721691 0.108583 0.647562
0.0349432 0.48716 0.474983
0.0372473 0.495735 0.4851
0.474632 0.537514 0.543359
0.97229 0.491035 0.575525
0.72874 0.102449 0.584619
0.26125 0.866361 0.772595
0.260548 0.866026 0.770474
0.25478 0.869718 0.735348
0.896498 0.946136 0.588235
0.986893 0.955306 0.667155
0.285649 0.869276 0.861906
0.284749 0.86891 0.859892
0.280171 0.866758 0.844923
0.849058 0.959884 0.78381
0.993362 0.973785 0.787991
0.0664225 0.424201 0.726177
0.0617838 0.405463 0.717586
0.417197 0.388983 0.887785
0.843458 0.284443 0.813748
0.705653 0.11873 0.722683
0.0895094 0.511421 0.74519
0.0823835 0.489677 0.736812
0.428153 0.502419 0.912261
0.885405 0.361013 0.858488
0.765942 0.194064 0.766506
0.145464 0.65127 0.774289
0.145876 0.651957 0.774411
0.34345 0.653178 0.859464
0.939132 0.521157 0.915251
0.918502 0.439307 0.890898
0.302434 0.879255 0.885084
0.30312 0.87892 0.885069
0.301335 0.879576 0.885115
0.916533 0.94934 0.957778
0.988449 0.949035 0.97348
0.302358 0.879301 0.885084
0.302235 0.879194 0.885252
0.303975 0.878737 0.884794
0.881056 0.970733 0.976349
0.994171 0.991714 0.980117
0.253117 0.74226 0.816297
0.333654 0.75938 0.848432
0.566812 0.774929 0.902342
0.96527 0.752636 0.955245
0.959472 0.708644 0.944656
0.290333 0.767361 0.834531
0.359884 0.781643 0.859327
0.601694 0.79707 0.907546
0.968093 0.785473 0.959442
0.959686 0.721141 0.946227
0.262745 0.784405 0.827588
0.326329 0.801144 0.852125
0.567178 0.822492 0.902724
0.966705 0.835233 0.963394
0.967651 0.794446 0.957183
0.300969 0.879988 0.885313
0.307942 0.877501 0.884001
0.327306 0.865721 0.861234
0.933104 0.973404 0.982834
0.991196 0.977478 0.991043
0.304723 0.879149 0.884169
0.308782 0.877577 0.883497
0.309483 0.877867 0.882918
0.897139 0.973709 0.980011
0.993286 0.992905 0.997299
