bundles/resolve-cinematic-luts/Phantom Luts/Apple Log Phantom LUTS/iPhone 15 Phantom ARRI LUTs/33x/Jamaica iPhone15_33x.cube
TITLE "Generated by Resolve"
LUT_3D_SIZE 33
0.00874342 0.0295262 0.00872816
0.00874342 0.0295262 0.00872816
0.00875868 0.0295415 0.00874342
0.00875868 0.0295567 0.00875868
0.00874342 0.0295262 0.00872816
0.0115969 0.0296025 0.00862135
0.0620279 0.029984 0.00886549
0.123568 0.031342 0.0110781
0.183825 0.0319524 0.0123903
0.24065 0.0314946 0.0115816
0.296986 0.0315099 0.0118563
0.351568 0.0320287 0.0146639
0.403403 0.0327001 0.0166934
0.452186 0.0331579 0.020325
0.494652 0.032578 0.0217594
0.534539 0.0372168 0.0395819
0.572168 0.0467689 0.0633097
0.612741 0.0638895 0.102052
0.647791 0.0882582 0.141436
0.675959 0.114122 0.176974
0.69659 0.129 0.205112
0.716777 0.144869 0.232959
0.702663 0.11902 0.239338
0.711025 0.118547 0.268391
0.722759 0.122271 0.304143
0.740841 0.132921 0.349508
0.742748 0.127153 0.411368
0.737758 0.123049 0.467247
0.730709 0.122026 0.514672
0.71696 0.118578 0.55761
0.697429 0.107622 0.585397
0.687266 0.100175 0.592767
0.686732 0.100298 0.59173
0.00868238 0.0294804 0.00866712
0.00872816 0.0295262 0.0087129
0.00875868 0.0295567 0.00875868
0.00877394 0.029572 0.00877394
0.00877394 0.029572 0.00877394
0.00672923 0.0294957 0.00880446
0.021622 0.0297551 0.00839246
0.071809 0.030808 0.00891127
0.124804 0.0337377 0.011017
0.177523 0.0343786 0.00987259
0.235035 0.0335546 0.00637827
0.300694 0.0328679 0.0059968
0.370199 0.0326848 0.00994888
0.443534 0.0328832 0.0187991
0.491997 0.0338903 0.0252842
0.528801 0.0342107 0.0280308
0.547311 0.0323186 0.0226444
0.551354 0.0310674 0.0231479
0.598703 0.0548104 0.084535
0.652461 0.0970779 0.145464
0.681163 0.120638 0.180453
0.702007 0.134432 0.210681
0.70547 0.129061 0.228824
0.706081 0.118318 0.251865
0.71722 0.119982 0.288441
0.735775 0.130617 0.333059
0.743008 0.128359 0.397208
0.738872 0.123537 0.458671
0.731853 0.122103 0.508614
0.718425 0.119051 0.554208
0.699168 0.108446 0.584543
0.690333 0.101778 0.591806
0.689464 0.102022 0.590417
0.00868238 0.0294804 0.00865187
0.00872816 0.0295262 0.0087129
0.00877394 0.0295567 0.00875868
0.0087892 0.029572 0.0087892
0.0087892 0.0295872 0.0087892
0.0084535 0.0295415 0.00875868
0.0120394 0.0296941 0.00856031
0.0462806 0.0310063 0.00933852
0.0964981 0.0366217 0.0132906
0.137957 0.041062 0.0147402
0.18793 0.0427405 0.0129244
0.24799 0.0412451 0.00988785
0.32726 0.0374609 0.00848402
0.412345 0.0337072 0.0113527
0.484504 0.0337224 0.023682
0.526635 0.0355077 0.032517
0.558267 0.0388952 0.0433509
0.575235 0.0424964 0.0518196
0.571435 0.0445106 0.0453803
0.606714 0.0593271 0.0956588
0.669566 0.113039 0.163699
0.688914 0.124956 0.192126
0.711482 0.140917 0.225452
0.702846 0.1187 0.240482
0.713191 0.11873 0.276173
0.730785 0.127626 0.320974
0.74287 0.129549 0.383963
0.73994 0.124132 0.449409
0.732738 0.122072 0.502739
0.720088 0.119631 0.550179
0.701137 0.109804 0.582345
0.6925 0.103151 0.590677
0.691798 0.103197 0.589868
0.00868238 0.0294804 0.00866712
0.00874342 0.0295262 0.00872816
0.00877394 0.0295567 0.00875868
0.00880446 0.0295872 0.0087892
0.00880446 0.0295872 0.00880446
0.0087892 0.029572 0.00877394
0.0089723 0.0296178 0.0087129
0.03122 0.0310674 0.00918593
0.0787823 0.0373846 0.0138094
0.121447 0.0438087 0.0167849
0.16965 0.0477607 0.016144
0.225147 0.0476387 0.0130007
0.295293 0.0438392 0.0106508
0.381918 0.0376287 0.00959792
0.456077 0.033875 0.014023
0.522911 0.0352483 0.0311284
0.557046 0.0387732 0.0429389
0.578119 0.0437934 0.0561379
0.590982 0.0543984 0.068986
0.588769 0.0556497 0.0602274
0.639567 0.085359 0.130312
0.678416 0.11899 0.176333
0.705318 0.137896 0.21442
0.701381 0.12192 0.231327
0.709804 0.118303 0.265949
0.725155 0.123278 0.310643
0.74255 0.130739 0.37116
0.740795 0.124712 0.440803
0.733684 0.122133 0.496666
0.721721 0.120119 0.545892
0.702739 0.110842 0.57995
0.694072 0.104356 0.589441
0.69369 0.104265 0.588846
0.00868238 0.0294804 0.00866712
0.00874342 0.0295262 0.00872816
0.00877394 0.029572 0.00877394
0.00880446 0.0295872 0.0087892
0.00881972 0.0296025 0.00880446
0.0087892 0.0295872 0.0087892
0.00852979 0.0295262 0.0087892
0.0227359 0.0310063 0.00929274
0.0643015 0.0385443 0.0141756
0.111894 0.0457313 0.0187381
0.162203 0.0489357 0.0183261
0.221714 0.0477607 0.0140383
0.289265 0.0450141 0.0109102
0.367056 0.0404669 0.0109407
0.447852 0.0350347 0.0151217
0.510109 0.0342412 0.0237736
0.554437 0.0385138 0.0418555
0.577081 0.0434577 0.0550698
0.591867 0.053727 0.0713359
0.603876 0.0660105 0.0796216
0.60209 0.0565042 0.0843366
0.667796 0.111635 0.161501
0.692149 0.126833 0.197528
0.707073 0.132113 0.228748
0.706783 0.118135 0.256184
0.721584 0.12163 0.300725
0.742138 0.131884 0.359884
0.741634 0.125353 0.431891
0.734524 0.122271 0.489845
0.723369 0.120638 0.541238
0.704875 0.112306 0.577249
0.695384 0.105562 0.58822
0.695201 0.105425 0.588113
0.00863661 0.0294347 0.00862135
0.00865187 0.0294499 0.00863661
0.00866712 0.0294652 0.00865187
0.00868238 0.0294804 0.00866712
0.00869764 0.0294957 0.00868238
0.00868238 0.0294804 0.00866712
0.00859083 0.0293889 0.00859083
0.0173495 0.0311742 0.00944533
0.0528267 0.0394446 0.014023
0.100557 0.049073 0.0186923
0.153887 0.049012 0.0192874
0.213001 0.0490425 0.0151522
0.280827 0.0467994 0.0118105
0.357046 0.0429084 0.0115969
0.44213 0.0357824 0.0155795
0.505211 0.034287 0.0232395
0.551965 0.0381628 0.0406195
0.576272 0.0432136 0.0543832
0.591302 0.0532235 0.0706035
0.607172 0.0659495 0.0872206
0.589837 0.0529641 0.0619669
0.645365 0.0910353 0.136263
0.684672 0.122728 0.185321
0.707958 0.136553 0.223392
0.704631 0.118532 0.248142
0.718898 0.120638 0.293095
0.740932 0.132509 0.34905
0.742306 0.125948 0.423758
0.735164 0.122271 0.483818
0.72488 0.121111 0.535805
0.706645 0.113451 0.574639
0.696727 0.106722 0.587091
0.696513 0.1066 0.587213
0.0087892 0.0248722 0.00831617
0.00956741 0.0228885 0.00753796
0.00918593 0.0243534 0.00724804
0.00910964 0.0262913 0.00791943
0.00880446 0.0272221 0.00807202
0.0078584 0.0273136 0.00819409
0.00241093 0.0255436 0.00753796
0.00436408 0.0262303 0.00822461
0.036347 0.0360571 0.0124666
0.0846723 0.0454566 0.0169375
0.139666 0.0464485 0.0180972
0.201862 0.0478523 0.0153353
0.274098 0.0473335 0.0123445
0.34583 0.0452583 0.011902
0.4262 0.0386664 0.0126955
0.499825 0.034165 0.0218204
0.546014 0.0368963 0.0348516
0.575494 0.0429999 0.0537728
0.591043 0.0529488 0.070161
0.606439 0.0655222 0.0866102
0.597375 0.0619821 0.0664836
0.615152 0.0649729 0.10248
0.676509 0.117876 0.173312
0.710994 0.143023 0.220798
0.702815 0.1187 0.240803
0.715877 0.11957 0.284672
0.738094 0.131075 0.340703
0.742901 0.126665 0.414694
0.736019 0.122408 0.477791
0.725902 0.121447 0.531121
0.708034 0.11458 0.57145
0.697887 0.107591 0.58558
0.697704 0.107485 0.585779
0.0056611 0.0503853 0.0191806
0.00634775 0.0431525 0.0126802
0.00854505 0.0310063 0.00972
0.00958267 0.0286412 0.0087892
0.00888075 0.0274052 0.00827039
0.00650034 0.0267185 0.00828565
0.00895705 0.0294499 0.0087892
0.0245975 0.0373388 0.0121157
0.0529335 0.0485237 0.016083
0.0919661 0.0593423 0.0208591
0.135271 0.0587167 0.0226749
0.195727 0.0532387 0.0196689
0.262135 0.0493324 0.0126955
0.336767 0.0439612 0.0107881
0.418906 0.0382849 0.0122072
0.492363 0.0346075 0.0205386
0.543938 0.0370947 0.0357214
0.574929 0.0428779 0.053254
0.590326 0.0522164 0.0691386
0.605478 0.0650339 0.0858625
0.612024 0.0701152 0.0884413
0.591775 0.0525826 0.0668956
0.662974 0.107134 0.156176
0.699077 0.132952 0.205463
0.70193 0.121233 0.232334
0.712764 0.118669 0.275013
0.734295 0.129732 0.32871
0.74316 0.127626 0.403906
0.737118 0.122713 0.470954
0.727596 0.121859 0.524285
0.709606 0.115938 0.566995
0.698985 0.109041 0.583001
0.699367 0.108766 0.583749
0 0.104005 0.0349279
0 0.105257 0.0198367
0 0.0844892 0.0202029
0.00561532 0.071107 0.0177768
0.0188602 0.0658427 0.0153048
0.0226749 0.0617075 0.0115053
0.040528 0.0615091 0.0145876
0.0549783 0.065156 0.0142824
0.0771649 0.0759136 0.0180972
0.11194 0.0892195 0.0227512
0.153017 0.0953078 0.0279545
0.205005 0.0860609 0.0295262
0.269841 0.0711833 0.026688
0.338399 0.0615396 0.0211795
0.402914 0.0514229 0.0171511
0.470115 0.0407568 0.0200504
0.539727 0.036759 0.0336004
0.569863 0.0411383 0.0469978
0.589426 0.0515297 0.0681468
0.604501 0.0643473 0.084947
0.613947 0.0705577 0.0926833
0.598321 0.0629892 0.0677195
0.627268 0.0751354 0.116152
0.685206 0.123033 0.185977
0.707332 0.132662 0.227573
0.70901 0.117937 0.26247
0.728603 0.12639 0.315602
0.743053 0.128908 0.390082
0.73846 0.123232 0.461372
0.72929 0.122072 0.51667
0.712428 0.117388 0.560967
0.700389 0.110719 0.578408
0.701076 0.110353 0.579431
0 0.149996 0.0543221
0 0.160525 0.0130617
0 0.144869 0.0225376
0 0.122835 0.0219425
0.00830091 0.114763 0.0187533
0.026566 0.113054 0.0138552
0.0446784 0.112169 0.0110781
0.0774548 0.111147 0.0164797
0.101183 0.112871 0.0162051
0.126345 0.121981 0.0194705
0.164828 0.133318 0.0244297
0.218982 0.129915 0.0323644
0.28072 0.116503 0.0357214
0.351125 0.0989853 0.0380255
0.425086 0.0817273 0.0383917
0.480781 0.0690166 0.0342565
0.52137 0.0517281 0.0304723
0.561517 0.0407568 0.0410163
0.586954 0.0503548 0.0644999
0.603876 0.0637675 0.0844434
0.613947 0.0705577 0.0928664
0.614191 0.0705272 0.0928664
0.590219 0.0520485 0.0644388
0.663294 0.107179 0.156695
0.709743 0.142275 0.218738
0.704814 0.118379 0.247105
0.721279 0.121553 0.300191
0.742412 0.130877 0.370306
0.739986 0.124117 0.448508
0.731548 0.122164 0.506661
0.715953 0.118944 0.554681
0.702541 0.112734 0.573922
0.703182 0.112398 0.574777
0 0.195193 0.0699779
0 0.214359 3.0518e-05
0 0.203098 0.0149081
0 0.18439 0.0180209
0 0.162707 0.0165103
0 0.160037 0.0153658
0.018265 0.161929 0.00488289
0.0641489 0.16463 0.00549325
0.112535 0.161379 0.0138857
0.142794 0.160311 0.0113069
0.1729 0.16669 0.0153811
0.225376 0.177996 0.0230716
0.29456 0.172335 0.0368963
0.366033 0.159564 0.0467994
0.442878 0.144823 0.055848
0.513237 0.123644 0.0630503
0.558389 0.102739 0.0611734
0.579355 0.0770581 0.0556039
0.584451 0.0543832 0.0550088
0.598215 0.0601053 0.0775311
0.614023 0.0705577 0.0928969
0.614084 0.0705425 0.0928817
0.613977 0.0704662 0.0923629
0.604196 0.0610208 0.083299
0.684276 0.12253 0.184466
0.705516 0.127672 0.23122
0.714153 0.118975 0.278874
0.73872 0.13135 0.345037
0.741711 0.125551 0.429496
0.733867 0.122164 0.493645
0.719997 0.119921 0.546227
0.706569 0.114992 0.568841
0.706737 0.114916 0.568627
0 0.245365 0.0853742
0 0.263554 0.0109712
0 0.263813 0
0 0.253269 0.00849927
0 0.23447 0.00936904
0 0.210681 0.00732433
0 0.207553 0.00585946
0 0.215076 0.00218204
0.0551003 0.221317 0
0.12546 0.218845 0
0.183963 0.213626 0.00418097
0.226566 0.218921 0.00910964
0.293294 0.229709 0.0216373
0.374136 0.222507 0.0426337
0.452827 0.210971 0.0592966
0.527169 0.195819 0.0756847
0.589944 0.17464 0.0895552
0.631861 0.153399 0.0966354
0.641535 0.128985 0.0939651
0.623484 0.0900893 0.0872663
0.605463 0.0661631 0.0833753
0.613809 0.0706035 0.0929427
0.613764 0.0706188 0.0929274
0.611948 0.0701762 0.088838
0.630564 0.0788128 0.119005
0.707271 0.141558 0.213718
0.705882 0.118196 0.251148
0.728313 0.126375 0.314351
0.742901 0.127932 0.400916
0.736278 0.122454 0.476234
0.725216 0.121096 0.533227
0.712016 0.117144 0.561776
0.711879 0.117281 0.560861
0 0.298436 0.101472
0 0.316777 0.0407111
0 0.325399 0
0 0.31899 0.00807202
0 0.309911 0.0075227
0 0.299428 0.00680552
0 0.273671 0.00529488
0 0.262745 0.00469978
0 0.272938 0.00521859
0.0293736 0.283589 0.00259403
0.134874 0.282689 0
0.223392 0.272999 0.00448615
0.284337 0.275944 0.00791943
0.363851 0.28661 0.0223239
0.454841 0.279042 0.0511788
0.534142 0.267597 0.0756847
0.606226 0.250996 0.101244
0.661265 0.234257 0.12047
0.692622 0.205631 0.133974
0.696666 0.186725 0.13785
0.674403 0.152193 0.129778
0.63331 0.0943008 0.105776
0.611811 0.0705425 0.0905623
0.613306 0.0707103 0.09308
0.610483 0.0700999 0.0864881
0.646845 0.0920424 0.13846
0.702983 0.129412 0.221103
0.713878 0.119005 0.277867
0.7411 0.131579 0.357519
0.739895 0.124071 0.448676
0.730587 0.121813 0.512764
0.718837 0.119295 0.549905
0.71873 0.119509 0.548409
0 0.357321 0.121233
0 0.37644 0.0772259
0 0.388418 0.0266575
0 0.39173 0
0 0.389624 0.0151522
0 0.378347 0.0138247
0 0.372793 0.0132296
0 0.359045 0.0116121
0 0.326604 0.00856031
0 0.337392 0.00959792
0.011841 0.350774 0.00883497
0.140658 0.353658 0.000518807
0.263813 0.337972 0.00535592
0.346273 0.337346 0.010956
0.437934 0.350271 0.0267796
0.532692 0.345068 0.0627146
0.611368 0.332906 0.0966812
0.678569 0.314961 0.129397
0.726009 0.295583 0.15465
0.751385 0.271473 0.175341
0.749981 0.247837 0.185763
0.731167 0.219272 0.177996
0.682963 0.158358 0.141466
0.617212 0.0758526 0.0941329
0.613321 0.0707103 0.0930648
0.61207 0.0702983 0.0897078
0.656474 0.0996414 0.15053
0.706874 0.127382 0.235874
0.723644 0.122759 0.306355
0.74287 0.127749 0.402731
0.735164 0.122194 0.48397
0.726406 0.121279 0.5299
0.726589 0.121355 0.528222
0 0.42327 0.151904
0 0.444541 0.118715
0 0.457618 0.0925765
0.00192264 0.464668 0.0386053
0.00605783 0.466056 0
0.00563058 0.474067 0.0151827
0.00337224 0.468238 0.0288243
0.00149538 0.456275 0.0262608
0.00106813 0.452201 0.0254826
0 0.415198 0.0187228
0 0.413626 0.0184634
0.0200656 0.427131 0.0180514
0.158907 0.431861 0.00622568
0.312078 0.410925 0.00851453
0.414466 0.405631 0.0198215
0.512886 0.418769 0.04094
0.605203 0.416159 0.0796216
0.681865 0.403983 0.123186
0.742794 0.385977 0.159594
0.787533 0.363073 0.193408
0.808103 0.344854 0.218036
0.805386 0.31548 0.232334
0.778454 0.277958 0.214755
0.738689 0.228321 0.18407
0.672953 0.144198 0.135439
0.61236 0.0708019 0.0904707
0.613886 0.0705882 0.0929122
0.657328 0.0994583 0.152361
0.70515 0.120089 0.244846
0.734478 0.129335 0.331838
0.741054 0.12491 0.437491
0.733333 0.121889 0.496559
0.733516 0.12192 0.494835
0.00611887 0.496742 0.199115
0.00924697 0.518624 0.173037
0.0124819 0.532464 0.156069
0.0157168 0.541787 0.13991
0.01944 0.54725 0.109758
0.0268254 0.544411 0.0473335
0.0324559 0.545022 0.0250858
0.0341497 0.554665 0.0410925
0.0287327 0.552346 0.0571603
0.024567 0.54255 0.0526741
0.0175784 0.523598 0.0450141
0.0116884 0.503578 0.0383459
0.0493324 0.516091 0.0357519
0.200031 0.519051 0.0182803
0.373892 0.487526 0.0174868
0.485298 0.476188 0.038468
0.585367 0.487251 0.0670024
0.672679 0.489784 0.105516
0.744991 0.478355 0.154421
0.802502 0.461601 0.193362
0.841031 0.439673 0.229755
0.859327 0.416846 0.257969
0.851194 0.39118 0.258412
0.830289 0.353857 0.247227
0.79469 0.298482 0.226551
0.741939 0.232166 0.186709
0.65127 0.116686 0.118959
0.613962 0.070573 0.0928969
0.64509 0.0910811 0.134936
0.70634 0.11957 0.249775
0.738109 0.129458 0.350713
0.740902 0.124788 0.439094
0.741024 0.12488 0.437522
0.0238956 0.576608 0.261204
0.0295872 0.593515 0.241825
0.0350347 0.606104 0.230411
0.0406195 0.615915 0.220539
0.0457313 0.62327 0.209918
0.0504921 0.628687 0.198932
0.0558328 0.629419 0.170993
0.0661173 0.622858 0.118563
0.0797742 0.621118 0.0897841
0.0925612 0.633997 0.100175
0.0767071 0.626627 0.106233
0.0646525 0.611429 0.0940414
0.0498665 0.590509 0.0792706
0.117433 0.606241 0.0661479
0.263218 0.605768 0.0417639
0.441138 0.564767 0.0364233
0.556268 0.549249 0.0673533
0.656168 0.556252 0.104311
0.73901 0.560555 0.146044
0.803616 0.551751 0.192538
0.853056 0.536828 0.231022
0.888029 0.51783 0.267552
0.895506 0.493263 0.280797
0.886 0.46154 0.277501
0.871687 0.430457 0.269566
0.849119 0.386587 0.25742
0.808515 0.319127 0.23476
0.734142 0.222248 0.180911
0.621805 0.0794842 0.0970474
0.63151 0.0818036 0.116472
0.70956 0.126268 0.246082
0.730129 0.125399 0.326482
0.72961 0.125109 0.325109
0.0554055 0.65272 0.334997
0.0616922 0.663722 0.318547
0.0682689 0.673075 0.309117
0.0747997 0.680919 0.302998
0.0814527 0.68809 0.297765
0.0875257 0.693889 0.292103
0.0925765 0.698283 0.285557
0.0984512 0.702373 0.27744
0.109117 0.703639 0.247654
0.130755 0.693828 0.18349
0.160342 0.702968 0.171725
0.154849 0.705043 0.180926
0.137163 0.68893 0.165377
0.115282 0.667903 0.144625
0.196918 0.690486 0.118273
0.343343 0.686824 0.0817731
0.513832 0.642298 0.0721447
0.628214 0.622507 0.107881
0.722118 0.626871 0.151507
0.796796 0.629541 0.196323
0.853117 0.625834 0.239445
0.896315 0.616007 0.276738
0.914 0.600595 0.293248
0.911772 0.576837 0.290074
0.907515 0.54902 0.286381
0.900847 0.513985 0.282979
0.887694 0.467247 0.277806
0.863264 0.413535 0.264897
0.815259 0.329686 0.238666
0.715267 0.198611 0.166217
0.615412 0.0709087 0.0940719
0.680873 0.11812 0.18349
0.677104 0.115419 0.178286
0.102831 0.722255 0.415991
0.108949 0.729335 0.401328
0.114473 0.734874 0.392554
0.120195 0.7402 0.38764
0.126513 0.745708 0.383429
0.132769 0.750988 0.380636
0.138201 0.755306 0.37734
0.143893 0.759396 0.372503
0.152209 0.765072 0.367041
0.165393 0.772641 0.356146
0.18526 0.770199 0.302098
0.223667 0.776349 0.259312
0.250248 0.787808 0.254795
0.225345 0.767224 0.238041
0.205753 0.747967 0.217456
0.291798 0.771756 0.191608
0.435264 0.762249 0.144564
0.590265 0.713954 0.129488
0.696712 0.692546 0.162921
0.774929 0.691157 0.205295
0.84799 0.698543 0.25684
0.893309 0.700923 0.294331
0.92134 0.691859 0.315114
0.921157 0.676997 0.311162
0.919982 0.658106 0.306127
0.918441 0.63621 0.301045
0.915145 0.606271 0.294591
0.910506 0.566308 0.288746
0.900298 0.512123 0.282643
0.876554 0.44007 0.272328
0.824872 0.346197 0.243626
0.743297 0.233845 0.187976
0.74931 0.241291 0.192752
0.164034 0.783856 0.501076
0.168948 0.788952 0.490135
0.17232 0.792065 0.480797
0.17554 0.794797 0.473991
0.179141 0.797833 0.468864
0.183993 0.802014 0.46656
0.188312 0.805539 0.463355
0.193378 0.809506 0.460578
0.200381 0.814649 0.456626
0.21001 0.821424 0.451865
0.227924 0.833738 0.444007
0.253208 0.845273 0.414618
0.275868 0.841184 0.346654
0.341024 0.863981 0.31957
0.307164 0.840711 0.307347
0.296269 0.824109 0.286946
0.387182 0.844251 0.265431
0.525719 0.825971 0.214633
0.66334 0.777646 0.199145
0.758236 0.757488 0.227924
0.827909 0.754559 0.267109
0.890105 0.762005 0.315343
0.924498 0.765408 0.343694
0.925139 0.756909 0.340658
0.923522 0.746487 0.33518
0.922164 0.73344 0.329061
0.922164 0.715496 0.322576
0.922118 0.692027 0.315435
0.920623 0.662974 0.307378
0.917205 0.624109 0.298161
0.910338 0.569818 0.288502
0.898924 0.510719 0.281254
0.899718 0.516884 0.281178
0.229755 0.839643 0.585046
0.232029 0.842542 0.576364
0.233448 0.844312 0.569116
0.234195 0.845319 0.562112
0.23534 0.846647 0.555734
0.237369 0.848783 0.550927
0.240116 0.851469 0.547509
0.243168 0.854276 0.543526
0.247929 0.858305 0.539788
0.254719 0.863767 0.535195
0.26511 0.871824 0.529946
0.284047 0.886137 0.5243
0.31284 0.90428 0.506508
0.331624 0.902174 0.422461
0.414679 0.929839 0.384726
0.381338 0.908705 0.372808
0.381796 0.894087 0.350256
0.475792 0.907042 0.332479
0.610864 0.878279 0.281361
0.72874 0.83447 0.269841
0.812253 0.815763 0.295064
0.87306 0.812848 0.330205
0.924254 0.820371 0.37084
0.940169 0.817441 0.380575
0.938186 0.809537 0.375051
0.935988 0.800671 0.369162
0.933272 0.790921 0.36231
0.93022 0.779385 0.354345
0.927337 0.764935 0.345434
0.924346 0.747051 0.335424
0.922789 0.723201 0.325154
0.921859 0.693996 0.31548
0.921782 0.697414 0.316457
0.290745 0.88983 0.657572
0.290303 0.890272 0.653819
0.290028 0.891112 0.647776
0.288991 0.891188 0.641688
0.288823 0.891676 0.636988
0.28957 0.892531 0.632761
0.291173 0.893889 0.629633
0.292424 0.895079 0.62504
0.294774 0.897444 0.620325
0.2981 0.900679 0.613809
0.304051 0.905974 0.607095
0.314626 0.9149 0.60209
0.332464 0.928817 0.596796
0.368994 0.952392 0.582605
0.377249 0.949004 0.486275
0.439902 0.960739 0.427237
0.434348 0.955627 0.418219
0.459297 0.952667 0.406607
0.555444 0.958419 0.391165
0.684932 0.923262 0.34461
0.787823 0.884901 0.338003
0.860197 0.868894 0.360265
0.913741 0.866926 0.390051
0.951598 0.871626 0.416724
0.956283 0.86714 0.416938
0.954253 0.860334 0.412161
0.951827 0.852644 0.406912
0.949477 0.84506 0.401679
0.946059 0.835126 0.394446
0.94226 0.823575 0.385733
0.937942 0.810529 0.375647
0.934249 0.79675 0.365637
0.934615 0.799435 0.367346
0.343603 0.928771 0.726406
0.342489 0.928939 0.724056
0.340337 0.929351 0.718563
0.337957 0.929686 0.713741
0.336461 0.929824 0.709346
0.336446 0.929961 0.705348
0.337652 0.93022 0.702678
0.339376 0.930861 0.699519
0.339712 0.930541 0.698177
0.341527 0.932372 0.693645
0.343862 0.935073 0.686854
0.348043 0.939513 0.678141
0.355917 0.947005 0.668101
0.368322 0.9579 0.65713
0.383352 0.968429 0.635142
0.381216 0.962676 0.55639
0.434928 0.960693 0.425391
0.43624 0.960662 0.415488
0.497063 0.971298 0.416785
0.607492 0.979522 0.410193
0.748547 0.957366 0.391089
0.839582 0.93022 0.394553
0.902312 0.915694 0.412894
0.947997 0.913512 0.43743
0.973007 0.914412 0.452491
0.973388 0.909911 0.450309
0.970459 0.904356 0.445838
0.967025 0.897978 0.440757
0.963317 0.890929 0.434745
0.959335 0.88304 0.42797
0.956466 0.87599 0.4224
0.957366 0.872221 0.42118
0.956954 0.873518 0.421546
0.373541 0.945434 0.777508
0.372427 0.94583 0.775845
0.370214 0.947066 0.771588
0.366934 0.948348 0.767514
0.364553 0.949493 0.763882
0.36405 0.950301 0.760937
0.36527 0.950744 0.758495
0.367666 0.951049 0.756634
0.370367 0.951751 0.754101
0.372427 0.952941 0.750744
0.374075 0.95462 0.745846
0.376089 0.957259 0.739055
0.378408 0.960967 0.728939
0.378164 0.963226 0.711971
0.376547 0.964279 0.687114
0.37641 0.965255 0.6533
0.380575 0.965087 0.582635
0.425544 0.960403 0.421408
0.431327 0.960891 0.40856
0.527199 0.975021 0.414069
0.659388 0.976028 0.402564
0.791333 0.955657 0.399283
0.879499 0.954223 0.427848
0.93962 0.953094 0.454002
0.978805 0.955123 0.478477
0.990692 0.952636 0.483314
0.989197 0.948592 0.480415
0.987655 0.944595 0.477699
0.985718 0.940368 0.474556
0.983536 0.935927 0.470909
0.981353 0.931563 0.467308
0.979065 0.926513 0.463218
0.979355 0.927962 0.464179
0.36701 0.932097 0.799512
0.366552 0.932372 0.799161
0.366155 0.933883 0.797192
0.364462 0.935454 0.794705
0.361868 0.937041 0.792233
0.360327 0.938552 0.789868
0.360479 0.93959 0.788128
0.362768 0.940322 0.786664
0.366323 0.941268 0.78471
0.369253 0.942641 0.782254
0.371435 0.944625 0.778408
0.372854 0.946838 0.772793
0.374289 0.94963 0.765408
0.375555 0.953231 0.754513
0.377447 0.958358 0.738415
0.378256 0.963073 0.71165
0.376043 0.964569 0.670771
0.382055 0.966644 0.593408
0.390448 0.958785 0.457404
0.464836 0.968551 0.42356
0.58117 0.980926 0.41709
0.715175 0.969116 0.398062
0.828717 0.953277 0.408896
0.904005 0.95465 0.438956
0.95819 0.960723 0.469444
0.994827 0.970901 0.496574
0.998657 0.971466 0.499046
0.999847 0.971527 0.499733
1 0.971038 0.499748
0.998978 0.968231 0.497383
0.997757 0.965591 0.495232
0.996612 0.962921 0.49308
0.996963 0.963378 0.493431
0.357427 0.918318 0.815976
0.357076 0.918654 0.815717
0.357595 0.920058 0.814282
0.35787 0.921355 0.812833
0.357427 0.922713 0.811582
0.356207 0.923934 0.810727
0.355291 0.9252 0.80972
0.355505 0.926055 0.808392
0.357687 0.926848 0.80705
0.360739 0.927962 0.805188
0.36318 0.929625 0.802884
0.365332 0.931899 0.799924
0.367529 0.935058 0.795254
0.370047 0.939498 0.78819
0.372503 0.945113 0.777584
0.373938 0.951263 0.759945
0.376608 0.959854 0.732448
0.373388 0.963729 0.683955
0.379843 0.967376 0.602686
0.366262 0.959121 0.512032
0.503227 0.99144 0.47866
0.652155 0.998932 0.433249
0.775662 0.972732 0.410529
0.872862 0.962219 0.432319
0.940414 0.964584 0.464027
0.985077 0.974365 0.492027
1 0.977905 0.505013
1 0.977966 0.505302
1 0.97818 0.505623
1 0.978515 0.505821
1 0.979019 0.506035
1 0.979492 0.506401
1 0.980056 0.50695
0.350408 0.90753 0.828473
0.350317 0.90779 0.828214
0.351278 0.908629 0.826932
0.352178 0.909438 0.82562
0.352255 0.910216 0.824826
0.351934 0.911177 0.824002
0.351232 0.912093 0.823362
0.350866 0.912932 0.822812
0.351659 0.913497 0.821836
0.353841 0.914244 0.8206
0.356008 0.915343 0.818936
0.357733 0.917128 0.816907
0.359426 0.9196 0.814221
0.361807 0.923156 0.810407
0.364218 0.927626 0.804837
0.367468 0.934127 0.796719
0.370657 0.943587 0.779919
0.372045 0.954604 0.747662
0.370001 0.963211 0.692927
0.372198 0.96585 0.629648
0.424079 0.985168 0.569955
0.559014 0.998932 0.502449
0.708812 0.998932 0.44686
0.82678 0.985443 0.433433
0.917403 0.97734 0.459312
