bundles/resolve-cinematic-luts/Phantom Luts/Apple Log Phantom LUTS/iPhone 15 Phantom ARRI LUTs/33x/Jamaica iPhone15_33x.cube
TITLE "Generated by Resolve"
LUT_3D_SIZE 5
0.00874342 0.0295262 0.00872816
0.183825 0.0319524 0.0123903
0.572168 0.0467689 0.0633097
0.722759 0.122271 0.304143
0.686732 0.100298 0.59173
0 0.104005 0.0349279
0.0771649 0.0759136 0.0180972
0.539727 0.036759 0.0336004
0.707332 0.132662 0.227573
0.701076 0.110353 0.579431
0.0238956 0.576608 0.261204
0.0797742 0.621118 0.0897841
0.556268 0.549249 0.0673533
0.871687 0.430457 0.269566
0.72961 0.125109 0.325109
0.36701 0.932097 0.799512
0.366323 0.941268 0.78471
0.376043 0.964569 0.670771
0.95819 0.960723 0.469444
0.996963 0.963378 0.493431
0.345144 0.876143 0.877989
0.346716 0.876661 0.87538
0.340352 0.886748 0.864607
0.788251 0.998932 0.72015
1 0.998932 0.689113
0.00880446 0.0288396 0.0614939
0.236759 0.0275425 0.202228
0.652934 0.0647288 0.239872
0.742931 0.12842 0.394537
0.682094 0.0987869 0.602075
0.000839246 0.140429 0.143114
0.0935378 0.111833 0.0967117
0.60798 0.0685588 0.131518
0.722881 0.122606 0.303548
0.688136 0.0996872 0.592264
0.01944 0.541161 0.346365
0.0225681 0.572442 0.251362
0.551308 0.544991 0.0652171
0.862394 0.41239 0.264347
0.742275 0.126329 0.419181
0.364172 0.92755 0.804883
0.363104 0.936248 0.793545
0.377249 0.963882 0.700816
0.962158 0.969711 0.477607
1 0.962493 0.495033
0.344594 0.875349 0.87985
0.34583 0.876097 0.877455
0.339284 0.885084 0.867536
0.762097 0.998932 0.743618
1 0.998932 0.703059
0 0.0271305 0.483528
0.275776 0.0287175 0.550332
0.610437 0.0476539 0.525612
0.706676 0.113283 0.57171
0.681117 0.104219 0.644938
0 0.143893 0.374426
0 0.0607767 0.420706
0.588937 0.0364385 0.500664
0.721813 0.11989 0.541726
0.682658 0.102586 0.636667
0.019028 0.48455 0.486809
0.0161898 0.474418 0.467628
0.518273 0.527749 0.482292
0.969146 0.462486 0.503944
0.702327 0.110506 0.578088
0.351873 0.911498 0.823484
0.351125 0.917128 0.818906
0.370657 0.94548 0.776089
0.958358 0.98764 0.528954
1 0.952331 0.583947
0.343099 0.872587 0.887449
0.34522 0.872511 0.885115
0.336675 0.879515 0.877775
0.751934 0.998932 0.816709
1 0.998718 0.756436
0.0822156 0.297917 0.689464
0.071809 0.26006 0.673381
0.487358 0.235248 0.824567
0.693599 0.137942 0.712062
0.677607 0.113085 0.712139
0.0959029 0.36643 0.710948
0.0881971 0.332876 0.700359
0.451362 0.303548 0.828397
0.75462 0.216403 0.754437
0.677699 0.113085 0.712398
0.147738 0.567086 0.752407
0.141741 0.541207 0.751019
0.352911 0.518502 0.800595
0.924178 0.387579 0.877974
0.702022 0.152316 0.718853
0.341466 0.872557 0.890028
0.332525 0.872938 0.88867
0.335058 0.864652 0.872633
0.908721 0.942428 0.895766
1 0.920928 0.911315
0.349493 0.87718 0.911513
0.346059 0.877745 0.913848
0.342565 0.878935 0.914076
0.726848 0.982727 0.947524
0.997421 0.995529 0.918639
0.304707 0.756863 0.879667
0.367361 0.759503 0.892409
0.613275 0.771801 0.918837
0.985306 0.784588 0.985992
0.976074 0.700542 0.977539
0.302495 0.763607 0.880049
0.357595 0.765545 0.893278
0.601541 0.774746 0.9187
0.984344 0.789136 0.985473
0.977508 0.713985 0.978851
0.293141 0.77702 0.863111
0.318471 0.785626 0.889418
0.546181 0.789471 0.917144
0.975814 0.823789 0.985962
0.984573 0.773098 0.985351
0.340017 0.879744 0.91458
0.333974 0.871244 0.904509
0.343603 0.854658 0.886076
0.919173 0.952148 0.985077
0.996658 0.942489 0.996811
0.339712 0.879988 0.914153
0.340032 0.879728 0.914595
0.339712 0.879988 0.914153
0.778943 0.960037 0.981262
0.995254 0.993652 0.995254
