bundles/resolve-cinematic-luts/Phantom Luts/Apple Log Phantom LUTS/iPhone 15 Phantom ARRI LUTs/33x/Jamaica iPhone15_33x.cube
TITLE "Generated by Resolve"
LUT_3D_SIZE 9
0.00874342 0.0295262 0.00872816
0.00874342 0.0295262 0.00872816
0.183825 0.0319524 0.0123903
0.403403 0.0327001 0.0166934
0.572168 0.0467689 0.0633097
0.69659 0.129 0.205112
0.722759 0.122271 0.304143
0.730709 0.122026 0.514672
0.686732 0.100298 0.59173
0.00868238 0.0294804 0.00866712
0.00881972 0.0296025 0.00880446
0.0643015 0.0385443 0.0141756
0.289265 0.0450141 0.0109102
0.554437 0.0385138 0.0418555
0.60209 0.0565042 0.0843366
0.706783 0.118135 0.256184
0.734524 0.122271 0.489845
0.695201 0.105425 0.588113
0 0.104005 0.0349279
0.0188602 0.0658427 0.0153048
0.0771649 0.0759136 0.0180972
0.269841 0.0711833 0.026688
0.539727 0.036759 0.0336004
0.613947 0.0705577 0.0926833
0.707332 0.132662 0.227573
0.73846 0.123232 0.461372
0.701076 0.110353 0.579431
0 0.298436 0.101472
0 0.309911 0.0075227
0 0.272938 0.00521859
0.284337 0.275944 0.00791943
0.606226 0.250996 0.101244
0.674403 0.152193 0.129778
0.610483 0.0700999 0.0864881
0.7411 0.131579 0.357519
0.71873 0.119509 0.548409
0.0238956 0.576608 0.261204
0.0457313 0.62327 0.209918
0.0797742 0.621118 0.0897841
0.0498665 0.590509 0.0792706
0.556268 0.549249 0.0673533
0.853056 0.536828 0.231022
0.871687 0.430457 0.269566
0.621805 0.0794842 0.0970474
0.72961 0.125109 0.325109
0.229755 0.839643 0.585046
0.23534 0.846647 0.555734
0.247929 0.858305 0.539788
0.31284 0.90428 0.506508
0.381796 0.894087 0.350256
0.812253 0.815763 0.295064
0.938186 0.809537 0.375051
0.927337 0.764935 0.345434
0.921782 0.697414 0.316457
0.36701 0.932097 0.799512
0.361868 0.937041 0.792233
0.366323 0.941268 0.78471
0.374289 0.94963 0.765408
0.376043 0.964569 0.670771
0.58117 0.980926 0.41709
0.95819 0.960723 0.469444
1 0.971038 0.499748
0.996963 0.963378 0.493431
0.343496 0.888975 0.8589
0.346334 0.890333 0.853819
0.34728 0.892744 0.849622
0.351492 0.896345 0.841917
0.354391 0.908309 0.826093
0.367453 0.960952 0.713039
0.829267 0.998932 0.525826
1 0.997925 0.564416
1 0.998383 0.572625
0.345144 0.876143 0.877989
0.337087 0.878782 0.87895
0.346716 0.876661 0.87538
0.346197 0.878508 0.873014
0.340352 0.886748 0.864607
0.356847 0.919997 0.814191
0.788251 0.998932 0.72015
1 0.998932 0.692073
1 0.998932 0.689113
0.00877394 0.0295567 0.00875868
0.0090486 0.0295567 0.00874342
0.236774 0.030045 0.153933
0.463401 0.0371405 0.17818
0.639857 0.0642405 0.19321
0.707118 0.118624 0.255085
0.741802 0.132097 0.358679
0.723934 0.120562 0.537499
0.682322 0.0979934 0.596521
0.00834669 0.0302739 0.0099031
0.00880446 0.0295872 0.00880446
0.182712 0.0321355 0.013611
0.402243 0.0364233 0.0288243
0.60029 0.066331 0.112245
0.702968 0.132235 0.216632
0.725048 0.123659 0.309224
0.729809 0.121813 0.515816
0.687861 0.0992752 0.592935
0.00047303 0.137575 0.12047
0 0.141131 0.0421454
0.108995 0.115908 0.0173495
0.335927 0.0670176 0.0251011
0.55288 0.0381323 0.0389258
0.666178 0.10782 0.162814
0.712657 0.11931 0.273106
0.733898 0.122103 0.491829
0.693507 0.104555 0.58735
0 0.287846 0.195758
0 0.309209 0.0998856
0 0.329549 0.00894179
0.290944 0.291936 0.00796521
0.62475 0.244572 0.107195
0.670985 0.147753 0.128161
0.669795 0.110018 0.168399
0.74255 0.126848 0.412894
0.710643 0.116396 0.5635
0.0199893 0.55285 0.318135
0.0245212 0.579461 0.25893
0.0323796 0.599863 0.222782
0.0661784 0.613672 0.0958724
0.555077 0.549798 0.067216
0.855741 0.523476 0.233967
0.866606 0.420706 0.266606
0.625208 0.0776684 0.106477
0.742672 0.129793 0.379995
0.224201 0.831586 0.603098
0.224628 0.835142 0.577554
0.227253 0.839887 0.557931
0.259434 0.866636 0.521157
0.366964 0.88867 0.34815
0.807111 0.810132 0.288182
0.93637 0.802991 0.370382
0.926024 0.758114 0.341527
0.921614 0.686809 0.313527
0.365393 0.929473 0.802731
0.360464 0.934417 0.796719
0.364446 0.938201 0.790249
0.373068 0.946715 0.773251
0.376394 0.964065 0.689128
0.569574 0.993545 0.445808
0.960433 0.965194 0.474571
1 0.970428 0.501305
1 0.964523 0.496345
0.343328 0.888518 0.859724
0.346288 0.889891 0.854612
0.347005 0.89218 0.850813
0.351202 0.895735 0.842939
0.35375 0.907271 0.827268
0.367315 0.959991 0.721599
0.820294 0.998932 0.542641
1 0.998627 0.57351
1 0.998932 0.580835
0.344945 0.875837 0.878859
0.336583 0.878584 0.87982
0.345907 0.876463 0.87657
0.346136 0.877882 0.87422
0.33991 0.885878 0.866056
0.355169 0.917037 0.817304
0.777966 0.998932 0.732631
1 0.998932 0.699962
1 0.998932 0.696605
0.00880446 0.0288396 0.0614939
0.110109 0.0285039 0.116899
0.236759 0.0275425 0.202228
0.456611 0.027863 0.267231
0.652934 0.0647288 0.239872
0.716381 0.12018 0.284764
0.742931 0.12842 0.394537
0.718944 0.119097 0.550866
0.682094 0.0987869 0.602075
0.00619516 0.0505989 0.0487221
0.00941482 0.0272526 0.0997024
0.206317 0.0289921 0.172427
0.448402 0.0383764 0.133455
0.630137 0.0694591 0.165072
0.702663 0.120256 0.236789
0.736858 0.1299 0.340932
0.725521 0.121126 0.53225
0.684901 0.0971695 0.598459
0.000839246 0.140429 0.143114
0.00135805 0.134173 0.128313
0.0935378 0.111833 0.0967117
0.336706 0.0773632 0.0783551
0.60798 0.0685588 0.131518
0.699077 0.130449 0.210101
0.722881 0.122606 0.303548
0.730968 0.121828 0.509239
0.688136 0.0996872 0.592264
0 0.280278 0.221149
0 0.294377 0.165316
0 0.30425 0.102541
0.279377 0.284138 0.0490272
0.623499 0.23856 0.133425
0.67425 0.143481 0.13756
0.702007 0.13167 0.215641
0.740673 0.124605 0.441138
0.704707 0.113115 0.572366
0.01944 0.541161 0.346365
0.0201267 0.560327 0.293019
0.0225681 0.572442 0.251362
0.0657969 0.613169 0.095491
0.551308 0.544991 0.0652171
0.853773 0.517235 0.232456
0.862394 0.41239 0.264347
0.664485 0.106737 0.158526
0.742275 0.126329 0.419181
0.220432 0.826047 0.611811
0.219806 0.829084 0.588281
0.219501 0.831739 0.569665
0.238926 0.850141 0.524269
0.35845 0.882856 0.343069
0.804211 0.806119 0.283696
0.93489 0.798657 0.367102
0.925231 0.752728 0.338659
0.929061 0.670161 0.316289
0.364172 0.92755 0.804883
0.35938 0.932403 0.79971
0.363104 0.936248 0.793545
0.372427 0.944717 0.778683
0.377249 0.963882 0.700816
0.551904 0.998932 0.470207
0.962158 0.969711 0.477607
1 0.970886 0.502098
1 0.962493 0.495033
0.343206 0.888258 0.860227
0.345892 0.889738 0.855253
0.34641 0.892287 0.850706
0.351019 0.895476 0.843427
0.353429 0.906676 0.827955
0.367559 0.959472 0.727733
0.811978 0.998932 0.553567
1 0.998932 0.578851
1 0.998932 0.585534
0.344594 0.875349 0.87985
0.336217 0.878248 0.880751
0.34583 0.876097 0.877455
0.34583 0.877379 0.875303
0.339284 0.885084 0.867536
0.353185 0.913649 0.82089
0.762097 0.998932 0.743618
1 0.998932 0.706691
1 0.998932 0.703059
0.00297551 0.0257115 0.264042
0.20972 0.0257877 0.340383
0.315557 0.0246586 0.354269
0.441718 0.0239719 0.372076
0.655985 0.0549325 0.370474
0.741573 0.131609 0.359747
0.738369 0.123217 0.460945
0.705104 0.112337 0.574609
0.682399 0.100374 0.615686
0.00334173 0.0888228 0.190982
0.00120546 0.0258946 0.301915
0.198703 0.0260166 0.352132
0.424674 0.0238041 0.354101
0.658106 0.0630808 0.296666
0.725063 0.123644 0.309499
0.742168 0.126024 0.422675
0.712566 0.116747 0.562921
0.684291 0.0991989 0.612375
0.000976577 0.164065 0.201984
0.000549325 0.123995 0.234257
0.0584878 0.093019 0.238178
0.342184 0.0550393 0.281147
0.649363 0.0620737 0.274296
0.713512 0.119463 0.275944
0.742809 0.129488 0.382864
0.720211 0.119509 0.546838
0.684474 0.0983749 0.606699
0.000381476 0.270375 0.268925
0.000381476 0.268589 0.258518
0.000534066 0.265583 0.24921
0.269902 0.288991 0.256992
0.651576 0.267552 0.263294
0.767559 0.207248 0.258534
0.715862 0.120165 0.282795
0.734112 0.122042 0.492302
0.690517 0.10248 0.588403
0.0174105 0.512337 0.395132
0.0174105 0.525093 0.369665
0.0169985 0.530663 0.341405
0.0176699 0.553429 0.252781
0.535088 0.537621 0.202274
0.891722 0.525216 0.328237
0.919814 0.423682 0.354864
0.722301 0.139483 0.258442
0.735348 0.122225 0.482597
0.213275 0.811963 0.636439
0.213321 0.816983 0.616342
0.210147 0.818112 0.598611
0.210819 0.82475 0.554742
0.266804 0.854093 0.411032
0.799451 0.801801 0.286442
0.974456 0.780896 0.397681
0.975753 0.734356 0.392554
0.976837 0.668376 0.395087
0.3608 0.922652 0.810895
0.355581 0.927214 0.806775
0.359686 0.930709 0.801877
0.369268 0.938704 0.789914
0.37702 0.961044 0.726665
0.521691 0.998932 0.518624
0.96527 0.978836 0.482902
1 0.97145 0.506218
1 0.960708 0.502998
0.342733 0.886671 0.862699
0.345205 0.888426 0.858274
0.345586 0.89099 0.853284
0.350042 0.894331 0.845304
0.352178 0.904387 0.830777
0.365042 0.954681 0.742794
0.799558 0.998932 0.585214
1 0.998932 0.596078
1 0.998932 0.603037
0.343435 0.874128 0.882597
0.335698 0.876814 0.883513
0.34548 0.874876 0.879988
0.345434 0.876371 0.877317
0.338338 0.883345 0.870771
0.350607 0.909056 0.826368
0.753292 0.998932 0.769818
1 0.998932 0.721386
1 0.998932 0.718547
0 0.0271305 0.483528
0.143816 0.0282292 0.530831
0.275776 0.0287175 0.550332
0.472236 0.0309758 0.556374
0.610437 0.0476539 0.525612
0.723827 0.120455 0.537072
0.706676 0.113283 0.57171
0.68394 0.099382 0.613642
0.681117 0.104219 0.644938
0 0.0815595 0.386419
0 0.0269169 0.469642
0.0946212 0.0275883 0.505669
0.415885 0.0296941 0.558556
0.6056 0.043946 0.518318
0.729976 0.121614 0.514885
0.71458 0.117556 0.558053
0.683406 0.0988174 0.606546
0.682475 0.103395 0.642191
0 0.143893 0.374426
0 0.0863661 0.418952
0 0.0607767 0.420706
0.285298 0.0341955 0.478264
0.588937 0.0364385 0.500664
0.732891 0.12195 0.499474
0.721813 0.11989 0.541726
0.686091 0.0988327 0.598703
0.682658 0.102586 0.636667
0 0.269474 0.369192
0 0.246571 0.383078
0 0.230381 0.392004
0.194018 0.248997 0.429755
0.615167 0.179034 0.520806
0.810697 0.196124 0.43331
0.732448 0.121904 0.501732
0.701274 0.109743 0.579522
0.683268 0.100649 0.623392
0.019028 0.48455 0.486809
0.0175326 0.481407 0.477287
0.0161898 0.474418 0.467628
0.0141756 0.465064 0.447959
0.518273 0.527749 0.482292
0.936126 0.55285 0.522927
0.969146 0.462486 0.503944
0.748623 0.132586 0.456458
0.702327 0.110506 0.578088
0.197604 0.777508 0.673472
0.195331 0.778607 0.664286
0.190616 0.777768 0.654429
0.187594 0.782574 0.633402
0.179202 0.796338 0.536034
0.782177 0.796246 0.45214
1 0.787015 0.553933
1 0.755291 0.558495
1 0.693874 0.572
0.351873 0.911498 0.823484
0.348226 0.914351 0.822477
0.351125 0.917128 0.818906
0.360006 0.92285 0.811307
0.370657 0.94548 0.776089
0.49929 0.998932 0.656428
0.958358 0.98764 0.528954
1 0.965759 0.574014
1 0.952331 0.583947
0.341558 0.882124 0.870115
0.342184 0.884001 0.866697
0.342336 0.886824 0.862287
0.346944 0.889601 0.854551
0.349081 0.898253 0.840146
0.360372 0.941482 0.780316
0.792096 0.998932 0.665431
1 0.998932 0.650233
1 0.998932 0.657176
0.343099 0.872587 0.887449
0.334676 0.875013 0.889021
0.34522 0.872511 0.885115
0.345266 0.873091 0.883024
0.336675 0.879515 0.877775
0.346258 0.900603 0.83859
0.751934 0.998932 0.816709
1 0.998932 0.759365
1 0.998718 0.756436
0.00526436 0.0462196 0.553903
0.0189212 0.0378576 0.553292
0.142565 0.0418708 0.609812
0.349325 0.0490578 0.656977
0.575448 0.0775464 0.64062
0.681758 0.10428 0.647898
0.681071 0.106691 0.665293
0.679484 0.109651 0.688167
0.677882 0.112474 0.705486
0.0133974 0.149157 0.594354
0.0161898 0.103258 0.588891
0.0108034 0.0772869 0.574685
0.21796 0.0612039 0.630976
0.524926 0.0530709 0.62208
0.681834 0.10396 0.64564
0.679713 0.106096 0.655772
0.678004 0.109789 0.683223
0.678614 0.112032 0.704051
0.0147097 0.196414 0.598566
0.0186923 0.156435 0.605325
0.018616 0.144488 0.602945
0.172778 0.100999 0.625605
0.533898 0.0736248 0.654932
0.677989 0.0980087 0.614649
0.680964 0.104768 0.649119
0.678965 0.10869 0.678126
0.678874 0.111482 0.699565
0.0193637 0.307118 0.604242
0.0217136 0.272099 0.615641
0.0226139 0.255222 0.619058
0.0916762 0.226535 0.599985
0.517342 0.191623 0.695933
0.743313 0.172488 0.662959
0.68188 0.103075 0.638178
0.680873 0.107027 0.66775
0.679194 0.110201 0.691402
0.0537118 0.50811 0.631891
0.0506905 0.496071 0.631083
0.0483253 0.485756 0.630106
0.0457618 0.465507 0.63357
0.441917 0.489265 0.678859
0.866224 0.41146 0.760616
0.957122 0.371237 0.745022
0.710231 0.133669 0.632212
0.680903 0.1066 0.664561
0.205859 0.737697 0.745754
0.201251 0.733349 0.741253
0.194324 0.72781 0.73431
0.185504 0.72166 0.723629
0.134066 0.683345 0.66424
0.758495 0.769436 0.719615
1 0.795453 0.77142
1 0.737453 0.765301
1 0.627634 0.769574
0.344396 0.892256 0.851972
0.339879 0.894972 0.850843
0.34049 0.896971 0.847257
0.349203 0.898268 0.840406
0.350607 0.90808 0.824308
0.487907 0.998932 0.802411
0.935882 0.966171 0.714458
1 0.940307 0.742855
1 0.923598 0.752667
0.340734 0.874144 0.885344
0.336263 0.876265 0.884001
0.335653 0.877791 0.881514
0.343755 0.878096 0.874907
0.345312 0.884153 0.864256
0.344656 0.911192 0.823133
0.790402 0.998932 0.807111
1 0.99823 0.76701
1 0.998642 0.769482
0.342641 0.870665 0.895598
0.334188 0.872908 0.897414
0.344884 0.870146 0.894316
0.346532 0.870314 0.891829
0.335729 0.87451 0.88986
0.34023 0.886458 0.864057
0.757717 0.998932 0.891402
1 0.996612 0.830839
1 0.997208 0.826642
0.0822156 0.297917 0.689464
0.0805982 0.284688 0.685512
0.071809 0.26006 0.673381
0.205295 0.265644 0.761135
0.487358 0.235248 0.824567
0.738994 0.224887 0.779263
0.693599 0.137942 0.712062
0.677897 0.113069 0.712917
0.677607 0.113085 0.712139
0.0914015 0.344274 0.704524
0.0904707 0.330419 0.701701
0.0795758 0.303853 0.688746
0.181079 0.312123 0.763088
0.467094 0.280934 0.830808
0.766125 0.254093 0.814908
0.731365 0.19202 0.73962
0.677806 0.113069 0.712688
0.677577 0.113085 0.712062
0.0959029 0.36643 0.710948
0.0951858 0.351156 0.708522
0.0881971 0.332876 0.700359
0.163745 0.330739 0.757961
0.451362 0.303548 0.828397
0.774014 0.266636 0.829023
0.75462 0.216403 0.754437
0.677791 0.113085 0.712627
0.677699 0.113085 0.712398
0.108614 0.432288 0.725841
0.107652 0.409781 0.724468
0.106203 0.401526 0.722774
0.120851 0.376745 0.736965
0.421942 0.368215 0.825345
0.786831 0.310307 0.858808
0.820478 0.273228 0.798688
0.679301 0.114031 0.706325
0.677607 0.113085 0.712154
0.147738 0.567086 0.752407
0.144472 0.552758 0.751858
0.141741 0.541207 0.751019
0.125902 0.511269 0.738033
0.352911 0.518502 0.800595
0.785885 0.469871 0.899016
0.924178 0.387579 0.877974
0.855009 0.301335 0.82501
0.702022 0.152316 0.718853
0.241825 0.738293 0.813092
0.235157 0.730694 0.80972
0.230137 0.722911 0.805615
0.223468 0.711391 0.801831
0.181689 0.664515 0.7608
0.717479 0.741909 0.876127
1 0.6869 0.937362
0.988373 0.611536 0.927611
0.965957 0.52253 0.913085
0.341466 0.872557 0.890028
0.333715 0.874189 0.89044
0.332525 0.872938 0.88867
0.339742 0.868147 0.882383
0.335058 0.864652 0.872633
0.42414 0.887785 0.866438
0.908721 0.942428 0.895766
1 0.932494 0.911009
1 0.920928 0.911315
0.348486 0.877302 0.910948
0.339071 0.878645 0.911635
0.33846 0.876936 0.908644
0.341085 0.872908 0.900313
0.344381 0.871 0.89218
0.329061 0.877882 0.859922
0.810803 0.998932 0.942931
1 0.995315 0.900893
0.999176 0.996094 0.899458
0.349493 0.87718 0.911513
0.340261 0.879561 0.9149
0.346059 0.877745 0.913848
0.355123 0.875456 0.91046
0.342565 0.878935 0.914076
0.333379 0.87451 0.893156
0.726848 0.982727 0.947524
0.984985 0.994965 0.922484
0.997421 0.995529 0.918639
0.156664 0.554681 0.766567
0.154299 0.552865 0.764004
0.179553 0.561517 0.796185
0.266575 0.568795 0.843458
0.490364 0.585367 0.879316
0.79884 0.547707 0.952514
0.943542 0.483848 0.9467
0.924605 0.416938 0.928298
0.909438 0.385061 0.913069
0.164538 0.573831 0.77258
0.161059 0.570352 0.768688
0.172213 0.573388 0.782895
0.256641 0.585473 0.84332
0.484504 0.601175 0.877729
0.794781 0.567193 0.953063
0.946258 0.499763 0.949172
0.928954 0.430426 0.932372
0.913725 0.393347 0.917266
0.171283 0.588159 0.777951
0.164309 0.577676 0.771282
0.167269 0.575509 0.77528
0.246326 0.590158 0.84181
0.472847 0.604959 0.875731
0.78587 0.572625 0.952239
0.946609 0.501869 0.949493
0.929702 0.432471 0.933104
0.910704 0.387396 0.914321
0.193454 0.630823 0.796368
0.172869 0.598566 0.776944
0.170916 0.593103 0.775814
0.223636 0.607706 0.833783
0.449226 0.620539 0.873137
0.770886 0.596689 0.951156
0.950729 0.522393 0.95375
0.936599 0.453925 0.940017
0.91693 0.400565 0.920272
0.217472 0.683894 0.810636
0.207233 0.665934 0.802716
0.195178 0.645487 0.792416
0.189975 0.636316 0.787808
0.399069 0.662028 0.872602
0.741802 0.668849 0.946456
0.962051 0.595224 0.964462
0.953109 0.533196 0.9561
0.94168 0.47686 0.944778
0.276799 0.777188 0.853559
0.269398 0.771023 0.851148
0.265354 0.763745 0.848447
0.256001 0.747784 0.840833
0.274113 0.740414 0.861051
0.700191 0.771939 0.928679
0.962386 0.755413 0.980697
0.977646 0.707515 0.979004
0.971023 0.667597 0.972869
0.345174 0.878294 0.913039
0.340566 0.879545 0.914565
0.340124 0.878645 0.914992
0.341283 0.874968 0.912108
0.341588 0.865995 0.902708
0.466682 0.866316 0.92784
0.908003 0.927016 0.977661
0.998871 0.911864 0.997467
0.994736 0.89659 0.994644
0.345983 0.878019 0.912993
0.340124 0.879667 0.914717
0.340291 0.87953 0.914961
0.340795 0.879088 0.91574
0.34902 0.877333 0.91162
0.3234 0.859968 0.885344
0.805447 0.966278 0.982483
0.99733 0.992691 0.990448
0.99649 0.992981 0.989944
0.346624 0.877852 0.912795
0.340032 0.879728 0.914595
0.340566 0.879362 0.91519
0.351446 0.876326 0.912047
0.341833 0.878981 0.914839
0.337896 0.877409 0.910796
0.723735 0.95079 0.973556
0.982406 0.992584 0.994797
0.996368 0.993088 0.990433
0.304707 0.756863 0.879667
0.34226 0.759548 0.888045
0.367361 0.759503 0.892409
0.44004 0.759182 0.901366
0.613275 0.771801 0.918837
0.819562 0.815106 0.956771
0.985306 0.784588 0.985992
0.982086 0.739223 0.983078
0.976074 0.700542 0.977539
0.305669 0.761944 0.881285
0.34052 0.765255 0.888869
0.364385 0.764874 0.893202
0.435523 0.764385 0.902281
0.610529 0.775433 0.919585
0.81886 0.81976 0.955566
0.98497 0.789868 0.985656
0.981765 0.746319 0.982742
0.976898 0.70782 0.978286
0.302495 0.763607 0.880049
0.334951 0.766613 0.888304
0.357595 0.765545 0.893278
0.426535 0.764401 0.902296
0.601541 0.774746 0.9187
0.813535 0.819547 0.953597
0.984344 0.789136 0.985473
0.982788 0.753948 0.983658
0.977508 0.713985 0.978851
0.298497 0.769467 0.877684
0.324239 0.772366 0.887236
0.343435 0.770397 0.892241
0.407446 0.769238 0.901381
0.584573 0.776226 0.917662
0.806271 0.822065 0.950561
0.981674 0.796887 0.985855
0.984833 0.764706 0.985611
0.979263 0.731487 0.980346
0.293141 0.77702 0.863111
0.308232 0.786618 0.881926
0.318471 0.785626 0.889418
0.369574 0.785733 0.9019
0.546181 0.789471 0.917144
0.794125 0.834485 0.947463
0.975814 0.823789 0.985962
0.986954 0.794186 0.987488
0.984573 0.773098 0.985351
0.287495 0.804532 0.859251
0.284901 0.799786 0.855924
0.291875 0.797818 0.857893
0.321614 0.811627 0.88394
0.442496 0.827085 0.918517
0.76109 0.855406 0.951171
0.957321 0.884565 0.987427
0.992599 0.859907 0.99263
0.989227 0.847532 0.989548
0.340017 0.879744 0.91458
0.335775 0.874922 0.906767
0.333974 0.871244 0.904509
0.320912 0.854597 0.886046
0.343603 0.854658 0.886076
0.593072 0.907454 0.948241
0.919173 0.952148 0.985077
0.999619 0.949325 0.999527
0.996658 0.942489 0.996811
0.339712 0.879988 0.914153
0.339879 0.87985 0.914382
0.340215 0.879591 0.914839
0.340658 0.87924 0.915465
0.339803 0.879911 0.914275
0.401358 0.896513 0.9243
0.838712 0.971817 0.988327
0.996796 0.993011 0.996521
0.995254 0.993652 0.995254
0.339712 0.879988 0.914153
0.339803 0.879896 0.91429
0.340032 0.879728 0.914595
0.339895 0.879835 0.914412
0.339712 0.879988 0.914153
0.339101 0.862608 0.887861
0.778943 0.960037 0.981262
0.983322 0.99237 0.997177
0.995254 0.993652 0.995254
