bundles/resolve-cinematic-luts/Phantom Luts/Apple Log Phantom LUTS/iPhone 15 Phantom ARRI LUTs/33x/Jamaica_Legacy iPhone15_33x.cube
TITLE "Generated by Resolve"
LUT_3D_SIZE 9
0.0273747 0.0403143 0.0273289
0.0273899 0.0403143 0.0273442
0.142184 0.0434272 0.0283055
0.351141 0.0382544 0.0234379
0.545663 0.0401617 0.0456397
0.664057 0.10547 0.159701
0.697627 0.112825 0.238621
0.741268 0.125109 0.431296
0.708568 0.112261 0.549844
0.0273747 0.040238 0.0273289
0.0273747 0.0404059 0.0273594
0.0547494 0.0468757 0.0300145
0.238865 0.046891 0.0257572
0.534524 0.0376135 0.0364538
0.591516 0.0547189 0.0711223
0.700511 0.128466 0.215045
0.74313 0.128313 0.398978
0.715526 0.114748 0.538811
0.019028 0.0805066 0.0430457
0.0330663 0.0578775 0.0309758
0.0626535 0.0640116 0.0343023
0.213642 0.0649271 0.0365759
0.515557 0.0361486 0.0293736
0.602396 0.0628061 0.0826886
0.67538 0.112245 0.177676
0.741939 0.131762 0.359701
0.721538 0.116701 0.52372
0 0.246281 0.0805371
0 0.24921 0.0255131
0 0.220935 0.0259251
0.231403 0.224231 0.0295415
0.551049 0.194842 0.0930648
0.628382 0.0932326 0.0960708
0.601617 0.0626535 0.0812848
0.711666 0.117021 0.275593
0.733654 0.120058 0.475257
0.00929274 0.519158 0.184604
0.0203708 0.553552 0.129961
0.0299992 0.548806 0.0424506
0.0159762 0.518639 0.0433051
0.498116 0.490379 0.0465095
0.833936 0.470573 0.222156
0.838697 0.364965 0.252918
0.603693 0.064683 0.0824903
0.703456 0.114534 0.253391
0.203113 0.819364 0.512352
0.217151 0.830167 0.491783
0.234623 0.844053 0.484031
0.282216 0.86183 0.40058
0.330159 0.858701 0.321538
0.786862 0.793057 0.265614
0.936141 0.788998 0.363561
0.927794 0.737362 0.334081
0.924544 0.653712 0.309194
0.352148 0.927169 0.765942
0.348058 0.931334 0.755596
0.351385 0.9346 0.745449
0.358083 0.942458 0.723171
0.382528 0.968078 0.637491
0.547616 0.977478 0.416693
0.954223 0.959548 0.466346
0.995163 0.966094 0.494072
0.991821 0.958465 0.487572
0.328252 0.876707 0.837736
0.330419 0.87866 0.832578
0.331258 0.881224 0.828016
0.334264 0.885466 0.819852
0.337667 0.898772 0.802258
0.36112 0.958404 0.676371
0.826108 0.998932 0.48748
1 0.995132 0.541863
1 0.995972 0.547662
0.330282 0.862913 0.860761
0.324315 0.86511 0.861128
0.331655 0.863706 0.858259
0.331228 0.865721 0.855329
0.325795 0.874205 0.8439
0.342397 0.913405 0.78616
0.771145 0.998932 0.690288
1 0.998932 0.662196
1 0.998932 0.659373
0.0273747 0.0403449 0.0273442
0.0275731 0.0403296 0.0273442
0.185168 0.041413 0.108431
0.396445 0.043473 0.123995
0.599313 0.0672923 0.143938
0.694102 0.121996 0.210224
0.7122 0.117266 0.277119
0.736904 0.121813 0.46009
0.701854 0.109514 0.55903
0.0273594 0.0408026 0.0279393
0.0273899 0.0404059 0.0273594
0.141695 0.0435035 0.028748
0.348531 0.0401923 0.0289158
0.558801 0.0519417 0.0764782
0.669322 0.108659 0.167819
0.699123 0.113329 0.242313
0.740963 0.124727 0.433371
0.708507 0.11191 0.550347
0.0160525 0.108583 0.0952926
0.0111391 0.109529 0.0480964
0.0839857 0.090547 0.0357061
0.274571 0.0604868 0.0313268
0.532784 0.0368505 0.0332799
0.622843 0.0717327 0.114229
0.69958 0.123293 0.223331
0.742977 0.127749 0.401801
0.714443 0.11429 0.53962
0 0.243458 0.153658
0 0.256168 0.0780346
0 0.266728 0.0232395
0.237339 0.238727 0.0256809
0.573327 0.185046 0.0968643
0.62536 0.0898604 0.0948501
0.628992 0.0763256 0.12105
0.726284 0.124025 0.313634
0.728832 0.118471 0.496712
0.00627146 0.493721 0.231098
0.00950637 0.522362 0.183032
0.0132143 0.535531 0.149722
0.0222629 0.536782 0.0503395
0.496773 0.491005 0.0463264
0.835721 0.45594 0.225528
0.831373 0.353033 0.248646
0.605661 0.0648661 0.0864424
0.717601 0.119768 0.290806
0.191119 0.808011 0.528771
0.19791 0.814481 0.504082
0.206882 0.822416 0.490639
0.250614 0.853498 0.46334
0.321157 0.853101 0.317388
0.780713 0.78648 0.257939
0.934447 0.781964 0.358816
0.927764 0.728496 0.330831
0.92343 0.641703 0.30634
0.350668 0.924453 0.770687
0.346593 0.92845 0.761807
0.350454 0.93225 0.752804
0.356588 0.93962 0.732036
0.377508 0.965484 0.655085
0.539391 0.985031 0.439521
0.955001 0.961746 0.469154
0.999023 0.965591 0.495842
0.995956 0.958724 0.490349
0.328222 0.876219 0.838682
0.330282 0.878172 0.833509
0.331075 0.88069 0.829099
0.334142 0.884886 0.820996
0.337026 0.897459 0.803876
0.360372 0.957092 0.684459
0.815442 0.998932 0.500847
1 0.996185 0.54876
1 0.996765 0.554467
0.330068 0.862455 0.861708
0.323857 0.864744 0.862043
0.331182 0.863355 0.859297
0.331258 0.865064 0.856489
0.325612 0.873213 0.845808
0.340307 0.909682 0.790463
0.76054 0.998932 0.704326
1 0.998932 0.670726
1 0.998932 0.667277
0.0266728 0.0408331 0.051194
0.0823529 0.0391089 0.0873426
0.182116 0.0391241 0.154986
0.401953 0.0373388 0.190433
0.612528 0.0586709 0.17438
0.696757 0.117128 0.227268
0.721004 0.121324 0.299825
0.733486 0.120104 0.47718
0.696895 0.107073 0.565225
0.0268406 0.0513771 0.0479591
0.0264897 0.0403601 0.0785077
0.157778 0.0403754 0.130663
0.37438 0.0463874 0.0962844
0.585412 0.0652781 0.121508
0.684627 0.117098 0.1935
0.707729 0.11577 0.265126
0.738109 0.122545 0.453758
0.703593 0.109895 0.558633
0.0158083 0.113069 0.113268
0.016495 0.107057 0.100374
0.074876 0.087892 0.0768292
0.277256 0.0642252 0.0600443
0.563882 0.060914 0.0970321
0.666606 0.106966 0.163378
0.697536 0.112993 0.23801
0.74168 0.12546 0.425238
0.708888 0.112093 0.549416
0 0.237522 0.182818
0 0.247059 0.130236
0 0.25214 0.080415
0.226856 0.232181 0.0506752
0.567468 0.175692 0.106065
0.62063 0.0823987 0.0934615
0.669032 0.10837 0.167437
0.735088 0.128618 0.337881
0.724895 0.117617 0.512093
0.00616464 0.480903 0.258717
0.00640879 0.502937 0.209552
0.00828565 0.51458 0.176593
0.0220951 0.536324 0.0501411
0.492363 0.485969 0.0447395
0.833021 0.449012 0.224109
0.825193 0.342962 0.245182
0.631006 0.0801099 0.120378
0.728115 0.124956 0.318517
0.184863 0.801266 0.538186
0.188663 0.80618 0.512886
0.193439 0.811154 0.496223
0.224109 0.833936 0.466545
0.314031 0.84683 0.311513
0.777523 0.782025 0.253315
0.932998 0.777035 0.355383
0.927977 0.721233 0.328542
0.924834 0.622782 0.305653
0.349432 0.922271 0.773968
0.345724 0.926436 0.766186
0.349538 0.930465 0.757519
0.355749 0.937774 0.737667
0.375341 0.963928 0.665171
0.525368 0.990433 0.460609
0.956619 0.965393 0.472679
1 0.965881 0.496925
0.997925 0.956802 0.489494
0.328176 0.875929 0.8392
0.330114 0.877882 0.834104
0.330648 0.880751 0.828992
0.33402 0.884581 0.821485
0.336812 0.896925 0.804623
0.359762 0.956146 0.689189
0.806531 0.998932 0.510521
1 0.996658 0.553124
1 0.997101 0.558282
0.32987 0.861906 0.862791
0.323537 0.86421 0.863203
0.331106 0.862852 0.860227
0.331121 0.864454 0.85774
0.325429 0.872435 0.847608
0.338003 0.905089 0.79588
0.742535 0.998932 0.717067
1 0.998932 0.67808
1 0.998932 0.674174
0.0187076 0.0340581 0.210529
0.156008 0.0276188 0.276707
0.250721 0.0248722 0.29041
0.376761 0.023743 0.312184
0.629541 0.0553445 0.274067
0.712291 0.117342 0.277287
0.741299 0.131365 0.359564
0.724559 0.117327 0.513802
0.687007 0.100877 0.578195
0.0249332 0.0760052 0.153841
0.0151217 0.0305791 0.244022
0.146792 0.0268254 0.287739
0.361227 0.0251926 0.29395
0.620264 0.0562448 0.212497
0.699168 0.113313 0.242374
0.729107 0.12546 0.321065
0.729641 0.118791 0.494362
0.691585 0.103212 0.574273
0.00292973 0.137987 0.168551
0.0175174 0.103319 0.196643
0.0524605 0.0776989 0.198367
0.287816 0.0518502 0.226673
0.609384 0.0548714 0.198032
0.699184 0.122103 0.224506
0.718044 0.119921 0.29218
0.734508 0.120546 0.472084
0.696223 0.106096 0.568246
0.000244144 0.23125 0.225681
0.000198367 0.229618 0.215976
0.000259403 0.226429 0.207172
0.219821 0.237049 0.208453
0.588876 0.203967 0.203555
0.706325 0.149996 0.193347
0.697505 0.118425 0.226902
0.742809 0.127749 0.401984
0.711894 0.113283 0.543435
0.00737011 0.454109 0.318746
0.00608835 0.467918 0.284642
0.00492866 0.471183 0.255436
0.00518807 0.495048 0.178149
0.480323 0.481544 0.154833
0.861128 0.45034 0.292958
0.865324 0.354757 0.303105
0.692027 0.121981 0.205203
0.742824 0.128939 0.388632
0.176822 0.789349 0.564233
0.176043 0.791852 0.541466
0.174395 0.792538 0.522759
0.185382 0.80383 0.480964
0.24596 0.824353 0.354055
0.773342 0.777584 0.253986
0.962554 0.764553 0.37496
0.963409 0.70898 0.365469
0.962692 0.62385 0.363973
0.346166 0.916671 0.782162
0.342504 0.920943 0.775998
0.346517 0.92491 0.769116
0.353719 0.932982 0.751766
0.370047 0.958572 0.684993
0.497719 0.998932 0.505943
0.960128 0.973098 0.47747
1 0.966033 0.498253
1 0.954635 0.491096
0.327947 0.874174 0.842222
0.329671 0.876265 0.837308
0.330037 0.879225 0.831861
0.333288 0.883101 0.823667
0.335714 0.894408 0.807797
0.353979 0.949035 0.702037
0.792187 0.998932 0.540887
1 0.998184 0.567376
1 0.998459 0.573373
0.329366 0.860395 0.865904
0.323171 0.862669 0.866316
0.330907 0.861357 0.862959
0.330831 0.863203 0.859892
0.324865 0.870451 0.851362
0.334981 0.899336 0.802045
0.729213 0.998932 0.743587
1 0.998932 0.694011
1 0.998932 0.69073
0 0.0264286 0.436591
0.0931563 0.0271458 0.483635
0.206088 0.0273136 0.493812
0.406912 0.0269932 0.507408
0.589273 0.0351568 0.48954
0.736873 0.121752 0.4598
0.725689 0.117571 0.509575
0.690227 0.10222 0.575525
0.683055 0.0986496 0.607095
0 0.065919 0.346395
0 0.0263523 0.428656
0.0592508 0.0267033 0.453681
0.343465 0.0270542 0.506783
0.581323 0.0329595 0.478904
0.740887 0.124697 0.431739
0.73109 0.119188 0.487694
0.69482 0.105394 0.568414
0.68333 0.0974136 0.603601
0 0.114656 0.335622
0 0.066041 0.380575
0 0.0475776 0.385046
0.233783 0.0278019 0.43093
0.555261 0.0287785 0.453696
0.742473 0.126726 0.412543
0.735637 0.121035 0.46598
0.702663 0.1093 0.558267
0.682078 0.0960861 0.597833
0 0.225345 0.321996
0 0.203037 0.339361
0 0.186725 0.350179
0.15053 0.197925 0.382879
0.568582 0.133974 0.462257
0.762539 0.158419 0.343404
0.742245 0.12636 0.415244
0.721202 0.116213 0.523079
0.683604 0.0970016 0.584466
0.00762951 0.418479 0.409964
0.00648508 0.415625 0.400641
0.00654612 0.409491 0.391867
0.00602731 0.401709 0.373602
0.46537 0.476585 0.427314
0.913222 0.497139 0.464561
0.933425 0.398245 0.439673
0.739574 0.128466 0.365805
0.722301 0.116686 0.520729
0.160159 0.751919 0.621592
0.158358 0.754528 0.609354
0.154025 0.753796 0.596613
0.150607 0.758862 0.566796
0.150835 0.77203 0.479561
0.759716 0.775952 0.39646
1 0.762539 0.510796
1 0.723659 0.512413
1 0.648676 0.522103
0.33637 0.902129 0.798779
0.334493 0.905791 0.796826
0.337621 0.909545 0.792126
0.345678 0.916808 0.7823
0.354452 0.938262 0.734707
0.473152 0.998932 0.633433
0.955184 0.983291 0.500832
1 0.962142 0.543832
1 0.946456 0.552438
0.327535 0.869322 0.851225
0.328038 0.871397 0.847272
0.327794 0.874205 0.841825
0.331121 0.877806 0.833509
0.332464 0.88716 0.817441
0.347448 0.935302 0.743313
0.775692 0.998932 0.629129
1 0.998932 0.618936
1 0.998932 0.626108
0.329107 0.857893 0.871687
0.32221 0.859922 0.872969
0.3308 0.858045 0.869368
0.330816 0.859297 0.866667
0.323796 0.866087 0.859709
0.330617 0.889418 0.815503
0.728832 0.998932 0.79826
1 0.998932 0.734981
1 0.998932 0.732082
0.00189212 0.0392462 0.547692
0.0184634 0.0364843 0.551476
0.0976577 0.0379034 0.590173
0.283558 0.0417182 0.642954
0.545953 0.0631571 0.628168
0.683284 0.0986648 0.610239
0.682765 0.101564 0.629618
0.681315 0.10573 0.658366
0.679347 0.108797 0.680674
0.00590524 0.0995346 0.570932
0.00724804 0.0634165 0.565652
0.00308232 0.0482185 0.554314
0.163363 0.035111 0.597162
0.498695 0.0443275 0.616831
0.683131 0.0981918 0.607767
0.682109 0.100847 0.619425
0.679896 0.105577 0.65243
0.680018 0.108263 0.67863
0.0065919 0.14107 0.571603
0.0102083 0.105257 0.581949
0.0102388 0.0948501 0.579782
0.129824 0.0640116 0.597635
0.48365 0.0442969 0.621195
0.663447 0.0872969 0.580545
0.682628 0.099321 0.611612
0.680705 0.104356 0.645533
0.680018 0.107652 0.673411
0.00877394 0.235798 0.568215
0.0108034 0.209232 0.583291
0.0120394 0.194186 0.589837
0.0545205 0.171786 0.576547
0.463996 0.134539 0.662486
0.698085 0.127169 0.613779
0.682261 0.096849 0.599893
0.682643 0.102007 0.63267
0.681025 0.106355 0.662745
0.0267185 0.444923 0.582971
0.0250706 0.431388 0.58407
0.0239261 0.419669 0.584009
0.0229496 0.397787 0.590478
0.37406 0.431449 0.637675
0.843198 0.353445 0.726513
0.926711 0.323476 0.700267
0.705684 0.117479 0.590631
0.682704 0.101457 0.628885
0.166384 0.704372 0.705852
0.161028 0.699718 0.70016
0.153399 0.693584 0.692195
0.143221 0.686488 0.679438
0.106477 0.65861 0.630625
0.733974 0.746822 0.689723
1 0.777111 0.747692
1 0.71075 0.740398
1 0.585794 0.743297
0.329061 0.8804 0.830365
0.325643 0.882841 0.828702
0.326238 0.8851 0.824857
0.332692 0.887114 0.817807
0.334768 0.898192 0.800473
0.450462 0.998932 0.781445
0.931441 0.964645 0.683513
1 0.937255 0.716838
1 0.919036 0.727687
0.327153 0.859373 0.869368
0.323369 0.861677 0.867369
0.322911 0.863813 0.863951
0.329503 0.865095 0.857114
0.330129 0.871717 0.844755
0.333104 0.90396 0.800687
0.772915 0.998932 0.788098
1 0.998932 0.74377
1 0.998932 0.746868
0.329381 0.855085 0.88127
0.321981 0.85716 0.882673
0.33109 0.854932 0.879377
0.332357 0.855253 0.876936
0.323278 0.859159 0.874327
0.326009 0.873716 0.843595
0.735973 0.998932 0.882887
1 0.996719 0.816068
1 0.997131 0.811978
0.0653849 0.234638 0.662211
0.0640574 0.222095 0.657801
0.0584115 0.20293 0.648249
0.16022 0.20914 0.718334
0.437751 0.185351 0.791638
0.694606 0.180636 0.734493
0.682292 0.114733 0.692287
0.679179 0.111177 0.697902
0.678828 0.111177 0.697139
0.0726329 0.279942 0.678737
0.0720531 0.266377 0.675059
0.0648508 0.244297 0.664591
0.139712 0.253971 0.723201
0.419791 0.229084 0.805585
0.722301 0.2121 0.769802
0.698634 0.144045 0.705425
0.678965 0.111192 0.697505
0.678813 0.111177 0.697078
0.0759136 0.302068 0.685756
0.0759136 0.287037 0.682582
0.0707866 0.270375 0.675258
0.124697 0.27216 0.718761
0.403662 0.250019 0.80502
0.732845 0.22472 0.786831
0.71722 0.169406 0.717617
0.678981 0.111177 0.697475
0.678874 0.111177 0.697215
0.0850538 0.360388 0.701488
0.0850843 0.340841 0.699092
0.0843519 0.333959 0.697612
0.0885786 0.31812 0.700542
0.36759 0.308858 0.801938
0.755596 0.263523 0.828077
0.775814 0.231373 0.757687
0.679393 0.110033 0.690669
0.678782 0.111177 0.697032
0.115755 0.509865 0.727001
0.113359 0.493416 0.726864
0.111116 0.480262 0.72607
0.0997635 0.450324 0.71693
0.293812 0.461219 0.78143
0.761242 0.413352 0.882948
0.900526 0.347341 0.855375
0.812924 0.263294 0.785138
0.686748 0.12369 0.695842
0.213123 0.705211 0.786282
0.206912 0.696605 0.782376
0.200855 0.687861 0.777722
0.193637 0.675074 0.773587
0.164355 0.641489 0.747112
0.686809 0.715145 0.864652
1 0.654444 0.93022
0.982818 0.571969 0.918502
0.957107 0.477806 0.90161
0.327993 0.85745 0.874632
0.32134 0.858854 0.874723
0.319982 0.857511 0.872526
0.325444 0.85301 0.866026
0.319844 0.849515 0.854963
0.371084 0.876509 0.85362
0.901366 0.938125 0.887098
1 0.927596 0.904005
1 0.91519 0.904845
0.328283 0.854368 0.885161
0.321523 0.856352 0.886381
0.322118 0.856092 0.886275
0.326574 0.85539 0.883375
0.330694 0.855772 0.877317
0.32369 0.872694 0.851286
0.794171 0.998932 0.938842
0.999878 0.994385 0.892775
0.998184 0.995071 0.891615
0.328878 0.854154 0.885252
0.321599 0.856123 0.887022
0.326299 0.854566 0.886763
0.33312 0.852735 0.884978
0.323613 0.855467 0.886931
0.321172 0.858991 0.877668
0.69752 0.980194 0.94168
0.983276 0.994446 0.916213
0.996155 0.99411 0.912077
0.133562 0.503548 0.747478
0.137469 0.510582 0.750957
0.142962 0.511467 0.757641
0.218967 0.528023 0.82501
0.436042 0.544549 0.865492
0.782162 0.502586 0.94548
0.933013 0.442573 0.9364
0.906081 0.379034 0.910063
0.886534 0.350439 0.890105
0.141207 0.52462 0.753292
0.143435 0.5299 0.755032
0.14345 0.528664 0.755261
0.210422 0.546319 0.822293
0.428214 0.562799 0.86363
0.778103 0.523919 0.947021
0.937057 0.458457 0.94023
0.912505 0.391333 0.916091
0.892409 0.357992 0.895811
0.146777 0.538979 0.757443
0.145769 0.537102 0.756558
0.146532 0.535378 0.757809
0.201602 0.550362 0.817517
0.416663 0.566232 0.861997
0.768627 0.529656 0.946303
0.937423 0.460548 0.940597
0.913405 0.393149 0.91693
0.887984 0.352193 0.891417
0.162905 0.579782 0.768597
0.152514 0.558694 0.760418
0.153994 0.556771 0.762737
0.184039 0.567102 0.800992
0.391882 0.583627 0.859876
0.751904 0.556237 0.94583
0.942946 0.481453 0.946029
0.922774 0.413397 0.92639
0.896834 0.364462 0.900175
0.191379 0.64445 0.78674
0.182269 0.626307 0.780591
0.174563 0.610117 0.775341
0.175662 0.609094 0.777249
0.341344 0.632502 0.859709
0.717311 0.636423 0.940108
0.956588 0.558007 0.959091
0.945632 0.492439 0.948806
0.930541 0.435691 0.933837
0.255711 0.750332 0.832258
0.248844 0.743145 0.829084
0.244282 0.735073 0.826062
0.23537 0.719722 0.819486
0.241398 0.712551 0.824979
0.666438 0.752697 0.919844
0.957931 0.732921 0.977722
0.974014 0.6804 0.975525
0.966827 0.636378 0.968902
0.325765 0.855024 0.885969
0.321813 0.856138 0.886839
0.32137 0.855009 0.887022
0.321569 0.850965 0.884871
0.320867 0.842329 0.878279
0.414603 0.857954 0.920455
0.900114 0.920958 0.974609
0.996796 0.904967 0.995117
0.992874 0.888334 0.992828
0.32636 0.854795 0.886015
0.321462 0.856229 0.886885
0.321614 0.856107 0.887053
0.322103 0.855695 0.887755
0.328618 0.854292 0.8851
0.322698 0.859144 0.8851
0.786709 0.961654 0.979553
0.995544 0.990906 0.988479
0.994781 0.991196 0.987808
0.326619 0.854719 0.885939
0.321386 0.856291 0.886809
0.321874 0.85594 0.887251
0.330205 0.853513 0.885679
0.323003 0.855589 0.887175
0.321462 0.856519 0.886778
0.693736 0.945571 0.969207
0.980056 0.990829 0.993011
0.994705 0.991272 0.988357
0.266377 0.736675 0.851911
0.291234 0.744961 0.871092
0.312047 0.74641 0.878508
0.378393 0.747448 0.890822
0.565194 0.755276 0.90959
0.803525 0.798444 0.952636
0.982986 0.765606 0.983658
0.978851 0.715526 0.980041
0.97232 0.672587 0.97409
0.269047 0.741299 0.852689
0.291981 0.751217 0.872236
0.31046 0.751965 0.87921
0.374182 0.752926 0.891783
0.56199 0.75938 0.910216
0.802808 0.803571 0.951232
0.982864 0.771252 0.983581
0.978668 0.723507 0.979736
0.973144 0.680613 0.974823
0.267704 0.741558 0.849577
0.288289 0.752163 0.870298
0.304662 0.752163 0.878202
0.365698 0.752926 0.891585
0.551858 0.758999 0.90959
0.796536 0.803021 0.948577
0.982315 0.770459 0.983352
0.9794 0.731807 0.980499
0.974243 0.687694 0.975662
0.26598 0.744183 0.843
0.283619 0.75613 0.865583
0.295293 0.756634 0.87512
0.34847 0.757977 0.89012
0.532555 0.760967 0.908492
0.78854 0.805722 0.945449
0.979355 0.778729 0.983841
0.981537 0.743893 0.982513
0.97586 0.70692 0.977279
0.254154 0.751156 0.832685
0.279103 0.763073 0.850324
0.287114 0.76672 0.86302
0.319066 0.774472 0.888533
0.489662 0.77731 0.908736
0.775036 0.819501 0.942107
0.973159 0.808347 0.98378
0.984619 0.77612 0.985321
0.981552 0.753063 0.982513
0.283101 0.798138 0.854948
0.281758 0.795972 0.854307
0.27953 0.791119 0.852949
0.290883 0.78938 0.856336
0.387564 0.818158 0.909926
0.735576 0.842771 0.945602
0.953475 0.874983 0.985168
0.990448 0.848325 0.990555
0.987167 0.834653 0.987503
0.32137 0.856306 0.886793
0.321004 0.856001 0.886351
0.320714 0.8542 0.886336
0.31812 0.850782 0.883238
0.31693 0.847364 0.878813
0.546975 0.900282 0.942473
0.912077 0.947906 0.982559
0.998383 0.945068 0.997726
0.995087 0.938003 0.994934
0.321096 0.856535 0.886412
0.321248 0.856413 0.886625
0.321553 0.856168 0.886976
0.32195 0.855833 0.887495
0.321187 0.856474 0.886534
0.382239 0.887327 0.914183
0.823789 0.967865 0.985611
0.995132 0.991241 0.994904
0.993545 0.991928 0.993545
0.321096 0.856535 0.886412
0.321187 0.856458 0.886534
0.321386 0.856306 0.886809
0.321263 0.856397 0.886641
0.321096 0.85655 0.886412
0.328573 0.86125 0.886839
0.756008 0.955352 0.977615
0.980987 0.990539 0.995438
0.993545 0.991928 0.993545
