bundles/resolve-cinematic-luts/Phantom Luts/Apple Log Phantom LUTS/iPhone 15 Phantom ARRI LUTs/33x/Jamaica_Legacy iPhone15_33x.cube
TITLE "Generated by Resolve"
LUT_3D_SIZE 33
0.0273747 0.0403143 0.0273289
0.0273747 0.0403143 0.0273442
0.0273747 0.0403143 0.0273442
0.0273747 0.0403296 0.0273442
0.0273899 0.0403143 0.0273442
0.0292058 0.0403449 0.0273289
0.0552987 0.041886 0.0279698
0.096849 0.0428473 0.0283055
0.142184 0.0434272 0.0283055
0.191058 0.0419776 0.0273747
0.243 0.0404669 0.0251316
0.297719 0.0393072 0.0245365
0.351141 0.0382544 0.0234379
0.406317 0.0371557 0.023682
0.459464 0.0356909 0.0238346
0.506081 0.036347 0.0309148
0.545663 0.0401617 0.0456397
0.580133 0.0476539 0.0675059
0.610193 0.0610819 0.096788
0.635462 0.0801862 0.127764
0.664057 0.10547 0.159701
0.673869 0.111376 0.17499
0.685878 0.117449 0.196063
0.703822 0.129152 0.224018
0.697627 0.112825 0.238621
0.70988 0.116167 0.271382
0.724987 0.122957 0.311513
0.742077 0.131197 0.366308
0.741268 0.125109 0.431296
0.732021 0.1196 0.485069
0.717891 0.115602 0.533578
0.708629 0.112291 0.55053
0.708568 0.112261 0.549844
0.0273747 0.040238 0.0273289
0.0273747 0.0402991 0.0273442
0.0273899 0.0403449 0.0273442
0.0273747 0.0403601 0.0273442
0.0273747 0.0403449 0.0273442
0.0261082 0.040238 0.0273899
0.0340276 0.0404212 0.0269932
0.0598001 0.0423133 0.0281529
0.0982223 0.0445869 0.0292515
0.136934 0.0452888 0.0289769
0.185641 0.0436255 0.0260777
0.24715 0.0412299 0.0222782
0.316228 0.0391546 0.0210575
0.396368 0.0372931 0.0228428
0.454627 0.036408 0.025864
0.504402 0.0357977 0.0286259
0.538949 0.0349737 0.0294804
0.558312 0.0356909 0.0322881
0.578378 0.0436408 0.0569467
0.606958 0.0602884 0.0959182
0.63917 0.0845655 0.132036
0.665064 0.106218 0.160845
0.677455 0.113115 0.181064
0.698497 0.127733 0.211627
0.693919 0.112932 0.227268
0.705806 0.114855 0.260365
0.721279 0.121202 0.301335
0.741085 0.132052 0.3552
0.742 0.125963 0.423423
0.732937 0.119936 0.480705
0.719249 0.116045 0.530846
0.711223 0.113207 0.546853
0.710979 0.113176 0.546334
0.0273747 0.040238 0.0273136
0.0273899 0.0402991 0.0273442
0.0273899 0.0403449 0.0273594
0.0273747 0.0403754 0.0273594
0.0273747 0.0403754 0.0273594
0.0271763 0.0403143 0.0273442
0.0300145 0.0403449 0.0271611
0.0455787 0.042359 0.027985
0.0760357 0.045594 0.029984
0.108156 0.0482032 0.0309606
0.147204 0.0484779 0.0303502
0.199283 0.0462806 0.0270085
0.275135 0.0419776 0.0219272
0.361608 0.0386664 0.0198825
0.44506 0.0364385 0.0247654
0.498726 0.0363317 0.0296941
0.539086 0.0374914 0.0373541
0.567605 0.0404974 0.0473335
0.576654 0.04477 0.0517586
0.590066 0.0523079 0.0723888
0.616297 0.0664836 0.107744
0.653559 0.0970169 0.147127
0.671244 0.109972 0.170718
0.686351 0.117662 0.197116
0.696483 0.119249 0.222477
0.702525 0.113878 0.251743
0.717922 0.11957 0.292531
0.738277 0.130861 0.345068
0.742535 0.126757 0.415305
0.734096 0.120424 0.475303
0.720836 0.116487 0.526711
0.712917 0.113787 0.543969
0.712703 0.11371 0.543648
0.0273747 0.040238 0.0273289
0.0273747 0.0402991 0.0273442
0.0273747 0.0403449 0.0273442
0.0273899 0.0403754 0.0273594
0.0273747 0.0403906 0.0273594
0.0273747 0.0403449 0.0273442
0.0278172 0.0402838 0.0273289
0.0390631 0.0418708 0.027924
0.0629129 0.0466926 0.0299992
0.0940566 0.0496071 0.0319524
0.130694 0.0521859 0.0324559
0.179217 0.0498207 0.0295872
0.245457 0.0460212 0.024979
0.330037 0.0413214 0.0200961
0.41239 0.0374151 0.0199893
0.494255 0.0363622 0.0289769
0.537621 0.0374609 0.0370184
0.566964 0.0407416 0.0480507
0.58378 0.0474861 0.0615244
0.592004 0.0579232 0.0678416
0.599954 0.0560922 0.0876936
0.634134 0.0804456 0.126604
0.665873 0.106645 0.161913
0.681331 0.1149 0.187579
0.698924 0.124193 0.218814
0.699397 0.113161 0.243565
0.714855 0.118288 0.284398
0.735653 0.129702 0.336233
0.742916 0.127535 0.407553
0.73521 0.120958 0.469871
0.722545 0.117021 0.522072
0.714534 0.114427 0.541054
0.714397 0.114336 0.540825
0.0273747 0.040238 0.0273289
0.0273899 0.0403143 0.0273442
0.0273747 0.0403601 0.0273442
0.0273899 0.0403906 0.0273594
0.0273747 0.0404059 0.0273594
0.0273747 0.0403754 0.0273594
0.0272831 0.0402991 0.0273899
0.0355077 0.0415656 0.0278019
0.0547494 0.0468757 0.0300145
0.085481 0.0512245 0.032166
0.124346 0.052842 0.0328832
0.175128 0.0505226 0.030457
0.238865 0.046891 0.0257572
0.315068 0.0426947 0.0212253
0.402838 0.0381323 0.02121
0.477943 0.0354772 0.0224918
0.534524 0.0376135 0.0364538
0.565606 0.0406958 0.0473487
0.58323 0.0468605 0.0612039
0.596582 0.0588235 0.0757916
0.591516 0.0547189 0.0711223
0.615061 0.0656596 0.106249
0.658869 0.101686 0.152636
0.676493 0.112642 0.179202
0.700511 0.128466 0.215045
0.696696 0.112612 0.236118
0.712139 0.11722 0.277195
0.733074 0.128725 0.327047
0.74313 0.128313 0.398978
0.736309 0.121523 0.46424
0.724254 0.117479 0.516777
0.715648 0.114824 0.538766
0.715526 0.114748 0.538811
0.0273899 0.040177 0.0273136
0.0273747 0.0401923 0.0273136
0.0273747 0.0402228 0.0273136
0.0273747 0.040238 0.0273289
0.0273747 0.0402533 0.0273289
0.0273747 0.040238 0.0273289
0.0273289 0.0401465 0.0272679
0.0328527 0.0414435 0.0279088
0.0491188 0.0467384 0.0301823
0.078584 0.0520943 0.0331426
0.118135 0.0528267 0.0330816
0.16669 0.0517433 0.0310063
0.229908 0.0480964 0.0268254
0.306523 0.0438849 0.0220951
0.396094 0.0388342 0.0213474
0.472343 0.0360571 0.024155
0.531289 0.0372778 0.0351873
0.564111 0.0404364 0.0466773
0.58265 0.0464485 0.0606088
0.597025 0.0584268 0.0771649
0.592706 0.0589303 0.0677653
0.601862 0.0572366 0.0900893
0.646647 0.091249 0.139422
0.671855 0.110353 0.171557
0.696818 0.126879 0.208392
0.694682 0.112474 0.230274
0.709438 0.11606 0.270359
0.729885 0.126162 0.321324
0.74313 0.128954 0.390616
0.737469 0.122194 0.457694
0.725673 0.117876 0.512093
0.717006 0.115343 0.536049
0.716854 0.115312 0.536416
0.027863 0.0374762 0.0272984
0.0279698 0.035874 0.0263828
0.0278019 0.0365759 0.0265354
0.0277256 0.0378119 0.0268101
0.0275883 0.0384985 0.0270085
0.0268864 0.0385748 0.0270542
0.0237125 0.0374914 0.0265507
0.026688 0.0390631 0.0271305
0.0404822 0.0444343 0.0294499
0.0671092 0.0498054 0.0315862
0.107561 0.051194 0.0320134
0.157504 0.0517586 0.0314794
0.223056 0.0486 0.0272221
0.29575 0.0451667 0.0229191
0.379995 0.0404059 0.0220188
0.465431 0.0361028 0.0231937
0.524208 0.0358587 0.0291295
0.56286 0.0402838 0.0463569
0.582238 0.0462043 0.0601511
0.59649 0.057969 0.0764935
0.597604 0.0621195 0.073518
0.593927 0.0548257 0.0762188
0.631266 0.0784009 0.123247
0.667628 0.107973 0.164858
0.688502 0.119966 0.198718
0.694652 0.114733 0.225788
0.707576 0.115541 0.265126
0.726238 0.123568 0.314046
0.743008 0.129549 0.382177
0.73843 0.122744 0.452216
0.726879 0.118151 0.50724
0.71809 0.11574 0.533639
0.717922 0.115679 0.534005
0.02533 0.0505074 0.0324865
0.0260624 0.0464637 0.0292668
0.0277867 0.040528 0.0277562
0.0280003 0.0399329 0.0271458
0.0278172 0.0394751 0.0270085
0.026688 0.0389868 0.0270237
0.0287785 0.0405737 0.0274357
0.0355535 0.0446784 0.0290379
0.0482795 0.0497444 0.0319677
0.0705425 0.0563058 0.0348516
0.104524 0.0572671 0.0354009
0.150149 0.0548257 0.0334936
0.211582 0.0495613 0.0281071
0.286839 0.0446479 0.0228122
0.372702 0.0404364 0.0221103
0.456245 0.0365911 0.0228428
0.520668 0.0362402 0.0304112
0.561639 0.0400854 0.0455634
0.581308 0.045594 0.059205
0.595911 0.0574197 0.0757305
0.601846 0.0626993 0.0816968
0.591165 0.0568246 0.0674449
0.612421 0.063859 0.103136
0.662547 0.104768 0.157198
0.681529 0.115282 0.188586
0.697215 0.120256 0.222568
0.704524 0.114565 0.257069
0.722972 0.121935 0.305837
0.742763 0.130388 0.372946
0.739651 0.123491 0.444526
0.728038 0.118486 0.501503
0.719554 0.116213 0.52961
0.719493 0.116152 0.530007
0.019028 0.0805066 0.0430457
0.0172732 0.0806744 0.0361944
0.0215763 0.0672618 0.0348058
0.0271305 0.0598459 0.0325475
0.0330663 0.0578775 0.0309758
0.0347448 0.0558022 0.0289616
0.0397498 0.0565042 0.0297093
0.0478218 0.0587167 0.0312352
0.0626535 0.0640116 0.0343023
0.0865949 0.0713512 0.0390478
0.116106 0.0789044 0.0426947
0.155947 0.0754253 0.0416266
0.213642 0.0649271 0.0365759
0.278355 0.0567788 0.0285496
0.350561 0.0482032 0.0231632
0.430335 0.0397345 0.0228275
0.515557 0.0361486 0.0293736
0.559503 0.0398108 0.0445716
0.58027 0.0449683 0.0581979
0.595193 0.056733 0.0747845
0.602396 0.0628061 0.0826886
0.597925 0.06215 0.0741741
0.596368 0.0555428 0.0806287
0.646708 0.0912947 0.139544
0.67538 0.112245 0.177676
0.697337 0.123873 0.216129
0.701015 0.113497 0.247761
0.719417 0.120333 0.296422
0.741939 0.131762 0.359701
0.740948 0.124437 0.435294
0.730037 0.118959 0.492699
0.721538 0.116793 0.523278
0.721538 0.116701 0.52372
0.00993362 0.117815 0.0552987
0.00328069 0.12398 0.0369573
0.00851453 0.111604 0.0401617
0.0186007 0.0938277 0.038941
0.0301518 0.0881056 0.0366217
0.0381476 0.0866255 0.0349126
0.04477 0.0861982 0.0315251
0.0592508 0.0873426 0.0323644
0.0772869 0.0891737 0.033753
0.0990463 0.0949416 0.038117
0.129809 0.103593 0.0441291
0.16611 0.108446 0.0483864
0.219303 0.0967269 0.0462654
0.287236 0.0771649 0.0420691
0.356893 0.0658122 0.0342565
0.42385 0.0551003 0.0286412
0.487266 0.0430152 0.0283665
0.543816 0.0381476 0.0360571
0.580545 0.0446937 0.0593423
0.594553 0.0561379 0.0741741
0.602457 0.0628061 0.0828412
0.602487 0.0628061 0.082887
0.592676 0.0586252 0.0681315
0.614466 0.0654307 0.105272
0.666712 0.107332 0.163577
0.696117 0.126741 0.207416
0.696529 0.112581 0.23566
0.714733 0.118196 0.28397
0.737926 0.130449 0.344564
0.742107 0.125902 0.421897
0.732174 0.11957 0.483024
0.723735 0.117494 0.516167
0.723812 0.117403 0.516426
0 0.156329 0.0661173
0 0.167727 0.0310369
0 0.159686 0.0391394
0 0.144488 0.0412451
0.00732433 0.127947 0.0412146
0.0247196 0.12575 0.0391546
0.0395666 0.126085 0.0377508
0.0514076 0.129366 0.0302129
0.0816052 0.128908 0.0331273
0.109789 0.128298 0.0339208
0.137758 0.131594 0.039353
0.178042 0.140475 0.0461128
0.229007 0.140017 0.0520638
0.294743 0.124193 0.0520333
0.37203 0.103243 0.0525063
0.44329 0.0860456 0.0486915
0.500298 0.0690013 0.0429694
0.541131 0.0529183 0.041413
0.565011 0.0427558 0.043595
0.58967 0.0527199 0.0676738
0.602472 0.0628061 0.0828717
0.602472 0.0628061 0.0828565
0.602411 0.0627909 0.0827344
0.591638 0.0546731 0.0717479
0.644831 0.0897993 0.137362
0.678752 0.113802 0.183795
0.696818 0.118715 0.224475
0.708675 0.115785 0.268009
0.73228 0.12842 0.324956
0.743008 0.127749 0.404334
0.734493 0.120516 0.472175
0.726818 0.118196 0.505669
0.726864 0.118166 0.505257
0 0.198703 0.0722667
0 0.208469 0.0295567
0 0.208591 0.0267338
0 0.2 0.0327001
0 0.184741 0.0350347
0 0.167239 0.0373236
0.000381476 0.165972 0.0375525
0.0222629 0.170977 0.0357671
0.0512856 0.174487 0.0214694
0.099794 0.173663 0.0278477
0.140673 0.170596 0.0290837
0.180926 0.173297 0.0362249
0.238025 0.183078 0.0454414
0.304585 0.178561 0.0570382
0.382071 0.163088 0.0642252
0.462928 0.144656 0.0707866
0.532647 0.12401 0.0727855
0.576471 0.102388 0.0678111
0.594232 0.0785382 0.0632639
0.593332 0.0587015 0.0640726
0.596704 0.0589303 0.0757916
0.602472 0.0628061 0.0828717
0.602472 0.0628061 0.0828717
0.601938 0.0626993 0.0818647
0.59826 0.0571603 0.0822614
0.664439 0.105974 0.15996
0.697429 0.127092 0.210315
0.700725 0.113481 0.24683
0.722133 0.121569 0.303838
0.742641 0.129778 0.379965
0.737758 0.122301 0.455238
0.729595 0.118715 0.493767
0.729686 0.118715 0.493126
0 0.246281 0.0805371
0 0.256062 0.0375067
0 0.261372 0.0152132
0 0.25658 0.0206912
0 0.24921 0.0255131
0 0.240345 0.0268559
0 0.218814 0.0283055
0 0.211398 0.027512
0 0.220935 0.0259251
0.0319982 0.227588 0.00755322
0.104463 0.229587 0.0145418
0.171679 0.223331 0.0186923
0.231403 0.224231 0.0295415
0.30518 0.233082 0.0431525
0.385962 0.226627 0.0631418
0.469673 0.210758 0.0785687
0.551049 0.194842 0.0930648
0.613947 0.169558 0.103044
0.645212 0.150805 0.103365
0.648585 0.127398 0.101061
0.628382 0.0932326 0.0960708
0.6056 0.0664683 0.0841993
0.601923 0.0628214 0.0814374
0.602457 0.0628214 0.0826886
0.601617 0.0626535 0.0812848
0.60621 0.0605631 0.0944839
0.672938 0.110903 0.173587
0.697536 0.119768 0.224491
0.711666 0.117021 0.275593
0.737789 0.13022 0.345083
0.741222 0.125048 0.429511
0.733486 0.120012 0.476234
0.733654 0.120058 0.475257
0 0.300969 0.0910048
0 0.31191 0.0531319
0 0.317861 0.0259861
0 0.317693 0
0 0.315343 0.00442512
0 0.308431 0.0118105
0 0.303548 0.0129702
0 0.292317 0.0165103
0 0.268025 0.0171511
0 0.277577 0.0108186
0.00575265 0.2878 0.00483711
0.102647 0.292866 0
0.206744 0.282338 0.00373846
0.288365 0.280415 0.0208591
0.378408 0.290837 0.0429389
0.470298 0.285161 0.0715801
0.557382 0.269139 0.0971084
0.632624 0.250629 0.119432
0.684901 0.226719 0.137484
0.707073 0.205859 0.145937
0.701808 0.187976 0.147189
0.67924 0.155108 0.137423
0.635203 0.0988022 0.10631
0.604166 0.0651713 0.0830549
0.602457 0.0628214 0.0827039
0.602029 0.0627298 0.0820325
0.618341 0.0690471 0.108278
0.681147 0.115053 0.187884
0.698268 0.112963 0.240238
0.722683 0.121874 0.30518
0.742962 0.128908 0.390539
0.738491 0.122789 0.450828
0.73872 0.122927 0.449439
0 0.362493 0.108202
0 0.375937 0.0775158
0 0.383566 0.0537423
0 0.38555 0.0130007
0 0.382269 0
0 0.38439 0.0111391
0 0.380468 0.0140841
0 0.372457 0.0131991
0 0.368612 0.0127718
0 0.339651 0.00981155
0 0.341512 0.0099794
0 0.35433 0.0104982
0.106966 0.363699 0.002533
0.246632 0.350591 0.00378424
0.353201 0.34519 0.0192111
0.456504 0.355978 0.046067
0.553155 0.349874 0.0849317
0.638972 0.334539 0.119783
0.706523 0.311345 0.151492
0.751461 0.296788 0.176379
0.764294 0.268727 0.193912
0.75729 0.252308 0.197299
0.729046 0.217411 0.175341
0.687495 0.165438 0.143481
0.628779 0.0911727 0.101549
0.602365 0.0632029 0.0820172
0.602472 0.0628061 0.0828565
0.623987 0.0740368 0.113329
0.694621 0.125963 0.204654
0.705379 0.114916 0.258839
0.734783 0.129244 0.333684
0.742702 0.127245 0.407874
0.742763 0.127413 0.405493
0 0.435248 0.138048
0 0.450462 0.115251
0 0.45861 0.0976272
0.000656138 0.464317 0.0762951
0.00263981 0.465492 0.0298619
0.00434882 0.462623 0.00328069
0.00349432 0.462119 0.0111849
0.00292973 0.465705 0.0269017
0.002533 0.463172 0.0277562
0.00106813 0.454658 0.0258335
0 0.436393 0.0222477
0 0.422339 0.0197604
0.00576791 0.434607 0.02121
0.128161 0.446555 0.00996414
0.300862 0.425147 0.00794995
0.422919 0.414649 0.0269627
0.534768 0.425513 0.0587015
0.632547 0.420645 0.106432
0.713573 0.407416 0.147814
0.774075 0.388952 0.185931
0.811475 0.369772 0.21677
0.825193 0.349813 0.24062
0.80882 0.316945 0.236225
0.782788 0.282811 0.217594
0.746761 0.238453 0.189502
0.690898 0.169665 0.146029
0.617014 0.0780346 0.0928206
0.602472 0.0628214 0.0828565
0.616464 0.0699931 0.102724
0.694743 0.124712 0.207324
0.709758 0.116289 0.270726
0.733715 0.127459 0.335836
0.733196 0.127138 0.334524
0.00929274 0.519158 0.184604
0.0127718 0.535042 0.167956
0.0153658 0.543725 0.156573
0.0179904 0.549859 0.146258
0.0203708 0.553552 0.129961
0.0245365 0.554788 0.093492
0.0287633 0.55288 0.06009
0.0300603 0.550057 0.045655
0.0299992 0.548806 0.0424506
0.0314336 0.557458 0.0586709
0.0277409 0.549752 0.0559396
0.0214847 0.534142 0.0492103
0.0159762 0.518639 0.0433051
0.0360876 0.527642 0.0428321
0.16997 0.538933 0.025742
0.364797 0.505974 0.0187839
0.498116 0.490379 0.0465095
0.613245 0.499428 0.0865949
0.70808 0.499596 0.135668
0.779629 0.488136 0.18201
0.833936 0.470573 0.222156
0.867735 0.447333 0.259007
0.872465 0.428382 0.271199
0.858625 0.401099 0.263691
0.838697 0.364965 0.252918
0.806027 0.312856 0.234058
0.760189 0.25452 0.200198
0.683772 0.160967 0.140612
0.603693 0.064683 0.0824903
0.603754 0.0610361 0.0882887
0.691646 0.123629 0.200778
0.703853 0.114611 0.254475
0.703456 0.114534 0.253391
0.0342718 0.605982 0.252567
0.0400854 0.61825 0.239643
0.0448005 0.626307 0.231373
0.0490425 0.632105 0.224369
0.0534066 0.637171 0.218341
0.056733 0.640192 0.210849
0.0603952 0.640879 0.19353
0.0666819 0.638132 0.159487
0.0760204 0.63476 0.12668
0.0816663 0.634318 0.115633
0.0940719 0.637781 0.106188
0.0878462 0.639307 0.117479
0.0740978 0.623468 0.1037
0.0626078 0.608789 0.0922103
0.103899 0.621775 0.0842451
0.244266 0.634668 0.0577401
0.438651 0.594644 0.0435492
0.577173 0.571496 0.0797284
0.688624 0.576272 0.127459
0.773709 0.579156 0.174594
0.83856 0.570413 0.223728
0.885222 0.559014 0.26273
0.910216 0.539345 0.290303
0.904021 0.513176 0.2869
0.894759 0.481575 0.282658
0.881071 0.44538 0.27631
0.860746 0.405066 0.264805
0.826337 0.34493 0.245563
0.767132 0.263157 0.205554
0.669398 0.141283 0.131533
0.602869 0.0631418 0.0831464
0.635508 0.0798505 0.130953
0.629953 0.0757305 0.124468
0.0762646 0.686015 0.332418
0.0840162 0.695277 0.323476
0.089601 0.701106 0.316548
0.0946059 0.705806 0.312642
0.100023 0.710384 0.309194
0.105348 0.714656 0.306249
0.109697 0.717769 0.302541
0.113573 0.719905 0.296773
0.121477 0.721721 0.27863
0.13518 0.716091 0.231876
0.148821 0.717327 0.215335
0.168109 0.717525 0.193652
0.177111 0.725093 0.199573
0.155306 0.706096 0.182391
0.144137 0.695109 0.170382
0.207507 0.71722 0.152483
0.338582 0.726528 0.116091
0.524025 0.678141 0.0914015
0.654231 0.651408 0.127245
0.755886 0.655024 0.18085
0.832593 0.658869 0.231785
0.8869 0.654917 0.275044
0.923613 0.647089 0.307378
0.922362 0.630304 0.303929
0.919722 0.607324 0.299214
0.917067 0.58056 0.295583
0.911879 0.546075 0.291554
0.900847 0.501717 0.28542
0.879744 0.443168 0.275349
0.845273 0.376989 0.256168
0.777508 0.276127 0.213565
0.696651 0.177554 0.150103
0.703944 0.186725 0.155642
0.135607 0.757092 0.421103
0.143435 0.763836 0.414511
0.14873 0.767941 0.408927
0.153246 0.771267 0.404974
0.157549 0.77435 0.401297
0.162982 0.778607 0.400137
0.167498 0.781964 0.398245
0.172351 0.785397 0.396323
0.178393 0.789181 0.392218
0.191333 0.797223 0.383627
0.199008 0.794354 0.353719
0.218112 0.791135 0.306035
0.238575 0.794614 0.283543
0.273228 0.80856 0.274998
0.247318 0.787778 0.258412
0.240742 0.77995 0.249287
0.315404 0.802716 0.232563
0.44332 0.804044 0.191485
0.609674 0.752041 0.161944
0.725002 0.726253 0.193103
0.806226 0.723278 0.23856
0.879103 0.731456 0.29305
0.920684 0.73579 0.32842
0.92726 0.726162 0.330037
0.927657 0.712215 0.325689
0.927321 0.694713 0.320348
0.926528 0.674846 0.314977
0.924407 0.647807 0.308171
0.920439 0.613413 0.300328
0.915221 0.566293 0.29398
0.901335 0.505714 0.285191
0.878355 0.441093 0.274235
0.88072 0.446097 0.275578
0.203113 0.819364 0.512352
0.208438 0.823774 0.506157
0.212116 0.826627 0.501167
0.214588 0.828305 0.496025
0.217151 0.830167 0.491783
0.2206 0.832975 0.489311
0.224765 0.836484 0.488197
0.229038 0.839887 0.486259
0.234623 0.844053 0.484031
0.241764 0.849119 0.480781
0.25774 0.860349 0.47425
0.276356 0.871504 0.463249
0.282216 0.86183 0.40058
0.304433 0.868101 0.373007
0.354757 0.884077 0.346822
0.332097 0.865827 0.331853
0.330159 0.858701 0.321538
0.415122 0.878599 0.309514
0.543084 0.869535 0.267124
0.688014 0.816632 0.239277
0.786862 0.793057 0.265614
0.85713 0.789868 0.305394
0.915175 0.796414 0.35082
0.937789 0.797345 0.368963
0.936141 0.788998 0.363561
0.934142 0.779339 0.35729
0.931853 0.768093 0.350195
0.930129 0.754559 0.342824
0.927794 0.737362 0.334081
0.927886 0.71342 0.325856
0.927153 0.683284 0.31725
0.924331 0.650278 0.308446
0.924544 0.653712 0.309194
0.268254 0.874891 0.596033
0.268956 0.875731 0.591959
0.270298 0.877241 0.586221
0.270619 0.877989 0.580545
0.271733 0.879164 0.576761
0.273793 0.880873 0.573877
0.276799 0.883116 0.572473
0.279667 0.885435 0.569635
0.283772 0.888792 0.567239
0.288853 0.892821 0.563455
0.296803 0.899001 0.560113
0.313329 0.911238 0.556176
0.338964 0.928374 0.54992
0.328191 0.919936 0.50518
0.364385 0.931624 0.453574
0.418418 0.943496 0.412146
0.399344 0.927474 0.391348
0.417014 0.930953 0.386984
0.504372 0.942229 0.378714
0.633158 0.921416 0.336355
0.756909 0.872679 0.3149
0.840894 0.852522 0.338094
0.901152 0.850217 0.37203
0.946715 0.857237 0.406256
0.952926 0.852033 0.407645
0.951308 0.844953 0.402975
0.94873 0.836378 0.397024
0.946303 0.827604 0.390799
0.943267 0.81651 0.382742
0.939986 0.804196 0.37377
0.936187 0.790097 0.36347
0.932876 0.774899 0.353429
0.933288 0.777813 0.355154
0.323308 0.918242 0.675517
0.322515 0.918288 0.672892
0.321416 0.918883 0.666819
0.320104 0.919264 0.661723
0.319219 0.919493 0.656886
0.319768 0.920119 0.652644
0.321828 0.921279 0.650111
0.32459 0.922866 0.64741
0.325383 0.923018 0.646403
0.329091 0.92604 0.643259
0.333867 0.930022 0.638956
0.340978 0.935836 0.633875
0.353002 0.945342 0.628458
0.375326 0.960937 0.620264
0.398184 0.97409 0.599039
0.386007 0.958862 0.506401
0.433814 0.960769 0.428321
0.432456 0.96051 0.417777
0.465248 0.966232 0.414298
0.567926 0.978683 0.414221
0.710643 0.959915 0.38761
0.816724 0.921935 0.379522
0.888136 0.90454 0.398596
0.938842 0.901732 0.425391
0.965621 0.903304 0.442512
0.966598 0.898772 0.440833
0.964126 0.892958 0.436316
0.960861 0.885573 0.43035
0.95845 0.87863 0.425086
0.959686 0.874968 0.424186
0.957656 0.867323 0.418906
0.953857 0.85716 0.411017
0.954803 0.860502 0.413367
0.356878 0.93875 0.736584
0.355825 0.93875 0.734737
0.353765 0.939406 0.729793
0.350835 0.940047 0.724849
0.348974 0.94081 0.720714
0.348898 0.941543 0.717601
0.350195 0.942138 0.715145
0.352529 0.942824 0.71313
0.355322 0.94406 0.71043
0.357916 0.945968 0.706722
0.360479 0.948379 0.701411
0.364508 0.95227 0.695003
0.370321 0.957946 0.686778
0.375463 0.963287 0.674281
0.377584 0.965576 0.653452
0.389456 0.971344 0.620417
0.382223 0.960388 0.521675
0.424964 0.960433 0.423026
0.427039 0.960403 0.406897
0.501396 0.971954 0.413169
0.620417 0.978622 0.407385
0.763531 0.959243 0.39585
0.866728 0.953124 0.422171
0.930541 0.946929 0.44593
0.971771 0.947341 0.470222
0.984115 0.94493 0.475471
0.982574 0.940688 0.472435
0.980789 0.936248 0.469368
0.978866 0.931716 0.465858
0.976516 0.926772 0.461799
0.974334 0.922057 0.457969
0.972061 0.916533 0.453635
0.97229 0.918059 0.454582
0.352148 0.927169 0.765942
0.351873 0.927398 0.765286
0.351583 0.928725 0.762325
0.350195 0.929931 0.759243
0.348058 0.931334 0.755596
0.346746 0.932418 0.752361
0.346883 0.933181 0.749828
0.348669 0.93373 0.747982
0.351385 0.9346 0.745449
0.353597 0.935958 0.742306
0.355093 0.937652 0.737575
0.356344 0.939605 0.73167
0.358083 0.942458 0.723171
0.360494 0.946441 0.710933
0.366842 0.953979 0.694957
0.375174 0.962783 0.673915
0.382528 0.968078 0.637491
0.383276 0.962249 0.533974
0.398871 0.959121 0.441245
0.433417 0.962585 0.415869
0.547616 0.977478 0.416693
0.686549 0.973281 0.400336
0.811917 0.953796 0.404013
0.89546 0.954467 0.435279
0.954223 0.959548 0.466346
0.992615 0.97026 0.494972
0.996628 0.970779 0.49752
0.996399 0.969055 0.496422
0.995163 0.966094 0.494072
0.994018 0.963348 0.491875
0.992645 0.960647 0.489586
0.991485 0.957824 0.487251
0.991821 0.958465 0.487572
0.342565 0.911696 0.788632
0.342443 0.912047 0.788281
0.34313 0.913573 0.786282
0.343542 0.914946 0.784558
0.343236 0.91635 0.782788
0.342168 0.917525 0.781399
0.341375 0.918807 0.779751
0.342016 0.919936 0.778134
0.343938 0.920821 0.775967
0.346761 0.922286 0.773556
0.348913 0.924331 0.770275
0.350607 0.926741 0.765911
0.352758 0.930159 0.759625
0.354345 0.933745 0.750195
0.356008 0.938277 0.736782
0.358419 0.944259 0.717052
0.367269 0.955932 0.689815
0.375631 0.965515 0.649287
0.376822 0.962753 0.542672
0.364874 0.956909 0.481605
0.484581 0.981781 0.463584
0.62327 0.993362 0.430716
0.756374 0.96997 0.404685
0.863218 0.957031 0.424765
0.934279 0.960601 0.458091
0.980926 0.971038 0.488548
1 0.975082 0.501778
1 0.975097 0.502083
1 0.97528 0.502327
1 0.975586 0.502495
1 0.976028 0.502678
1 0.976501 0.50309
1 0.977096 0.503868
0.334462 0.897597 0.804791
0.334157 0.897871 0.80444
0.335103 0.898695 0.80296
0.336172 0.899763 0.80148
0.33637 0.90071 0.800336
0.336263 0.901884 0.799268
0.335836 0.902968 0.798459
0.335637 0.904097 0.79765
0.336706 0.905119 0.796643
0.338842 0.906416 0.795056
0.340826 0.907988 0.793027
0.342351 0.910231 0.790188
0.344182 0.913329 0.78648
0.346654 0.917342 0.781384
0.349325 0.922362 0.773678
0.352483 0.929091 0.761776
0.354437 0.936843 0.739895
0.358404 0.947982 0.703593
0.368429 0.963119 0.655787
0.371298 0.964446 0.587915
0.391455 0.969055 0.540993
0.534096 0.998932 0.492927
0.693568 0.998932 0.436301
0.820264 0.976135 0.423514
