bundles/resolve-cinematic-luts/Phantom Luts/Apple Log Phantom LUTS/iPhone 15 Phantom ARRI LUTs/33x/Jamaica_Legacy iPhone15_33x.cube
TITLE "Generated by Resolve"
LUT_3D_SIZE 5
0.0273747 0.0403143 0.0273289
0.142184 0.0434272 0.0283055
0.545663 0.0401617 0.0456397
0.697627 0.112825 0.238621
0.708568 0.112261 0.549844
0.019028 0.0805066 0.0430457
0.0626535 0.0640116 0.0343023
0.515557 0.0361486 0.0293736
0.67538 0.112245 0.177676
0.721538 0.116701 0.52372
0.00929274 0.519158 0.184604
0.0299992 0.548806 0.0424506
0.498116 0.490379 0.0465095
0.838697 0.364965 0.252918
0.703456 0.114534 0.253391
0.352148 0.927169 0.765942
0.351385 0.9346 0.745449
0.382528 0.968078 0.637491
0.954223 0.959548 0.466346
0.991821 0.958465 0.487572
0.330282 0.862913 0.860761
0.331655 0.863706 0.858259
0.325795 0.874205 0.8439
0.771145 0.998932 0.690288
1 0.998932 0.659373
0.0266728 0.0408331 0.051194
0.182116 0.0391241 0.154986
0.612528 0.0586709 0.17438
0.721004 0.121324 0.299825
0.696895 0.107073 0.565225
0.0158083 0.113069 0.113268
0.074876 0.087892 0.0768292
0.563882 0.060914 0.0970321
0.697536 0.112993 0.23801
0.708888 0.112093 0.549416
0.00616464 0.480903 0.258717
0.00828565 0.51458 0.176593
0.492363 0.485969 0.0447395
0.825193 0.342962 0.245182
0.728115 0.124956 0.318517
0.349432 0.922271 0.773968
0.349538 0.930465 0.757519
0.375341 0.963928 0.665171
0.956619 0.965393 0.472679
0.997925 0.956802 0.489494
0.32987 0.861906 0.862791
0.331106 0.862852 0.860227
0.325429 0.872435 0.847608
0.742535 0.998932 0.717067
1 0.998932 0.674174
0 0.0264286 0.436591
0.206088 0.0273136 0.493812
0.589273 0.0351568 0.48954
0.725689 0.117571 0.509575
0.683055 0.0986496 0.607095
0 0.114656 0.335622
0 0.0475776 0.385046
0.555261 0.0287785 0.453696
0.735637 0.121035 0.46598
0.682078 0.0960861 0.597833
0.00762951 0.418479 0.409964
0.00654612 0.409491 0.391867
0.46537 0.476585 0.427314
0.933425 0.398245 0.439673
0.722301 0.116686 0.520729
0.33637 0.902129 0.798779
0.337621 0.909545 0.792126
0.354452 0.938262 0.734707
0.955184 0.983291 0.500832
1 0.946456 0.552438
0.329107 0.857893 0.871687
0.3308 0.858045 0.869368
0.323796 0.866087 0.859709
0.728832 0.998932 0.79826
1 0.998932 0.732082
0.0653849 0.234638 0.662211
0.0584115 0.20293 0.648249
0.437751 0.185351 0.791638
0.682292 0.114733 0.692287
0.678828 0.111177 0.697139
0.0759136 0.302068 0.685756
0.0707866 0.270375 0.675258
0.403662 0.250019 0.80502
0.71722 0.169406 0.717617
0.678874 0.111177 0.697215
0.115755 0.509865 0.727001
0.111116 0.480262 0.72607
0.293812 0.461219 0.78143
0.900526 0.347341 0.855375
0.686748 0.12369 0.695842
0.327993 0.85745 0.874632
0.319982 0.857511 0.872526
0.319844 0.849515 0.854963
0.901366 0.938125 0.887098
1 0.91519 0.904845
0.328878 0.854154 0.885252
0.326299 0.854566 0.886763
0.323613 0.855467 0.886931
0.69752 0.980194 0.94168
0.996155 0.99411 0.912077
0.266377 0.736675 0.851911
0.312047 0.74641 0.878508
0.565194 0.755276 0.90959
0.982986 0.765606 0.983658
0.97232 0.672587 0.97409
0.267704 0.741558 0.849577
0.304662 0.752163 0.878202
0.551858 0.758999 0.90959
0.982315 0.770459 0.983352
0.974243 0.687694 0.975662
0.254154 0.751156 0.832685
0.287114 0.76672 0.86302
0.489662 0.77731 0.908736
0.973159 0.808347 0.98378
0.981552 0.753063 0.982513
0.32137 0.856306 0.886793
0.320714 0.8542 0.886336
0.31693 0.847364 0.878813
0.912077 0.947906 0.982559
0.995087 0.938003 0.994934
0.321096 0.856535 0.886412
0.321386 0.856306 0.886809
0.321096 0.85655 0.886412
0.756008 0.955352 0.977615
0.993545 0.991928 0.993545
