bundles/resolve-cinematic-luts/Phantom Luts/Apple Log Phantom LUTS/iPhone 15 Phantom ARRI LUTs/33x/Neutral_Legacy iPhone15_33x.cube
TITLE "Generated by Resolve"
LUT_3D_SIZE 33
0.0277104 0.0277104 0.0277104
0.0277104 0.0277104 0.0277104
0.0277104 0.0277104 0.0277104
0.0277104 0.0277104 0.0277104
0.0277104 0.0277104 0.0277104
0.039704 0.0286412 0.0278325
0.0758984 0.0306859 0.0292363
0.118669 0.032166 0.0307927
0.162142 0.0315862 0.031632
0.207553 0.0291142 0.0310979
0.255665 0.0273594 0.0314336
0.304982 0.0255283 0.0320439
0.355261 0.0239872 0.0330053
0.408804 0.0223087 0.0369116
0.463874 0.020737 0.0429389
0.521782 0.0233616 0.0590524
0.581491 0.0274815 0.0782177
0.646723 0.0317235 0.0979477
0.719036 0.0362554 0.118761
0.793759 0.0439002 0.143404
0.832074 0.0543374 0.166171
0.844343 0.0581826 0.185077
0.859358 0.0620737 0.210193
0.875456 0.0664988 0.24007
0.889754 0.0482185 0.266972
0.901061 0.0504311 0.307347
0.906325 0.0586557 0.354711
0.907469 0.0711986 0.413367
0.915328 0.0628977 0.488853
0.920623 0.0530251 0.552941
0.925612 0.0446479 0.614816
0.927993 0.0352483 0.654566
0.928008 0.0352483 0.654566
0.0277104 0.0277104 0.0277104
0.0277104 0.0277104 0.0277104
0.0277104 0.0277104 0.0277104
0.0277104 0.0277104 0.0277104
0.0277104 0.0277104 0.0277104
0.0289006 0.0278172 0.0277256
0.0471656 0.0294347 0.0279545
0.0830854 0.0316014 0.0295262
0.124819 0.0336461 0.0307164
0.16817 0.032105 0.0305486
0.220264 0.029633 0.0298009
0.276661 0.0263676 0.0288396
0.336889 0.0243076 0.0290684
0.401694 0.0208286 0.0323644
0.460166 0.0175937 0.0356451
0.519387 0.0138399 0.0398413
0.57821 0.00993362 0.0453651
0.641184 0.00476081 0.0512551
0.708431 0.00602731 0.0722972
0.783078 0.0144045 0.10515
0.819486 0.0328069 0.136217
0.832273 0.0543984 0.166445
0.848142 0.0591287 0.191073
0.865843 0.0642405 0.22211
0.883741 0.0494698 0.250446
0.897444 0.0491798 0.292653
0.90663 0.0556191 0.341299
0.90663 0.0717632 0.397894
0.914061 0.0643626 0.477852
0.919936 0.0540932 0.545846
0.925322 0.0455634 0.60943
0.927413 0.037171 0.647852
0.927443 0.0370794 0.648188
0.0277104 0.0277104 0.0277104
0.0277104 0.0277104 0.0277104
0.0277104 0.0277104 0.0277104
0.0277104 0.0277104 0.0277104
0.0277104 0.0277104 0.0277104
0.0277104 0.0277104 0.0277104
0.0375525 0.0284733 0.0277104
0.0622416 0.0317845 0.0286717
0.097734 0.035523 0.0306096
0.134081 0.0373846 0.0311894
0.17995 0.0352789 0.0306706
0.235737 0.031693 0.0292515
0.308415 0.0259709 0.0281071
0.377722 0.0226749 0.029221
0.453147 0.0179446 0.0351568
0.513863 0.0141604 0.0393683
0.57406 0.010193 0.0449226
0.638407 0.00502022 0.0510109
0.707927 0 0.0565042
0.776257 0 0.0774395
0.81146 0.0155032 0.113634
0.824155 0.0438544 0.149691
0.839765 0.0568246 0.177752
0.858915 0.0619364 0.2094
0.878431 0.0611734 0.24358
0.894347 0.0485542 0.281682
0.905196 0.0536507 0.330816
0.906126 0.068452 0.388113
0.912749 0.0655528 0.468009
0.919356 0.0550698 0.539544
0.92491 0.04654 0.603128
0.927092 0.0384375 0.64303
0.927123 0.0383154 0.643488
0.0277104 0.0277104 0.0277104
0.0277104 0.0277104 0.0277104
0.0277104 0.0277104 0.0277104
0.0277104 0.0277104 0.0277104
0.0277104 0.0277104 0.0277104
0.0277104 0.0277104 0.0277104
0.0324254 0.027985 0.0276188
0.0497444 0.0319982 0.0285191
0.0793774 0.0376287 0.0305486
0.113085 0.0404822 0.0316014
0.15433 0.0414435 0.0317998
0.207004 0.0374762 0.0301823
0.276539 0.0313573 0.0285801
0.354345 0.0255436 0.0284581
0.429053 0.0196078 0.0310216
0.509438 0.0146334 0.0391852
0.571069 0.0103456 0.0445869
0.635493 0.00531014 0.050782
0.705058 0 0.0562753
0.774456 0 0.0619516
0.804654 0.000335698 0.0915084
0.817365 0.0278019 0.1299
0.833112 0.0546883 0.167605
0.852476 0.0603037 0.198291
0.873274 0.0672923 0.236469
0.891279 0.0483101 0.271717
0.903929 0.0522774 0.321981
0.905882 0.0657206 0.379507
0.911635 0.0665904 0.459144
0.9187 0.0561837 0.532403
0.924498 0.0474861 0.596536
0.926848 0.0396124 0.63856
0.926879 0.0394751 0.639109
0.0277104 0.0277104 0.0277104
0.0277104 0.0277104 0.0277104
0.0277104 0.0277104 0.0277104
0.0277104 0.0277104 0.0277104
0.0277104 0.0277104 0.0277104
0.0277104 0.0277104 0.0277104
0.0296025 0.0279088 0.0277409
0.0425269 0.031754 0.0283513
0.0673228 0.0390631 0.0302434
0.100252 0.0431525 0.031632
0.140887 0.0447852 0.0322576
0.194659 0.0399329 0.0311589
0.259281 0.0344091 0.0289158
0.336629 0.0279393 0.0282444
0.417853 0.0206302 0.0303807
0.49662 0.0143282 0.0345617
0.56733 0.0107576 0.0443427
0.632303 0.00573739 0.0505989
0.70219 0 0.0560769
0.772076 0 0.0614328
0.797055 0 0.0683452
0.810987 0.0144656 0.112215
0.826474 0.049546 0.156298
0.846204 0.0586252 0.187991
0.868193 0.0651255 0.226535
0.888334 0.0482185 0.262654
0.902449 0.051133 0.313726
0.905867 0.0632486 0.371389
0.910506 0.0676738 0.449195
0.918029 0.0573587 0.524941
0.924132 0.0483711 0.589349
0.926635 0.0404669 0.634913
0.926665 0.0403449 0.635416
0.0277104 0.0277104 0.0277104
0.0277104 0.0277104 0.0277104
0.0277104 0.0277104 0.0277104
0.0277104 0.0277104 0.0277104
0.0277104 0.0277104 0.0277104
0.0277104 0.0277104 0.0277104
0.028336 0.0278325 0.0277256
0.0382239 0.0317235 0.028687
0.0587778 0.0401007 0.0306401
0.091249 0.0454414 0.0323339
0.131991 0.0459754 0.0325017
0.184161 0.0422827 0.0315099
0.248096 0.0366674 0.0292973
0.32401 0.0299382 0.0282597
0.409461 0.0216373 0.0299229
0.488548 0.0149538 0.0340581
0.5635 0.0109865 0.043946
0.628946 0.00605783 0.0503243
0.699489 0 0.0559396
0.770382 0 0.0612955
0.7944 0 0.0631113
0.805417 0.00192264 0.0940108
0.821057 0.0364385 0.140719
0.840314 0.0570077 0.178729
0.863325 0.0633249 0.217411
0.885405 0.0483101 0.254261
0.900649 0.050248 0.305562
0.906065 0.060914 0.363333
0.909499 0.0687114 0.439323
0.917372 0.0584726 0.517754
0.923751 0.0491188 0.582925
0.926452 0.0413672 0.631022
0.926482 0.0412451 0.631586
0.0277104 0.0277104 0.0277104
0.0277104 0.0277104 0.0277104
0.0277104 0.0277104 0.0277104
0.0277104 0.0277104 0.0277104
0.0277104 0.0277104 0.0277104
0.0277104 0.0277104 0.0277104
0.0278935 0.0277562 0.0278325
0.0353704 0.0316777 0.0287785
0.0528115 0.0402686 0.0309758
0.0835431 0.0464942 0.032517
0.124132 0.0471504 0.0327306
0.175174 0.0444495 0.0318608
0.239109 0.0386816 0.0296483
0.312459 0.0318303 0.0283207
0.395727 0.0238651 0.0296483
0.480583 0.0154574 0.0331579
0.556802 0.0100252 0.0395056
0.625711 0.00646983 0.0502785
0.69749 0 0.0557717
0.768368 0 0.0611276
0.794385 0 0.0631113
0.79942 0 0.0742962
0.815763 0.0242466 0.125338
0.835264 0.0554513 0.170748
0.8589 0.0619364 0.209369
0.88188 0.0535897 0.248005
0.898787 0.0495155 0.297887
0.90631 0.0588693 0.35555
0.908614 0.0697032 0.429267
0.916823 0.0594797 0.51133
0.923171 0.0496834 0.577737
0.926238 0.0422217 0.627222
0.926268 0.0420996 0.627817
0.024918 0.0465705 0.0305943
0.0259251 0.0410468 0.0298924
0.0265049 0.0357519 0.0289158
0.026978 0.0333257 0.0286107
0.0273899 0.0316472 0.0282597
0.0280003 0.0306401 0.0280613
0.0319066 0.0350652 0.0284581
0.0420996 0.0412451 0.0299687
0.058381 0.0480507 0.033402
0.0833753 0.0562753 0.0347295
0.120577 0.0554208 0.0353246
0.167803 0.0509346 0.0331884
0.228748 0.0424659 0.0302434
0.300389 0.0345922 0.0285191
0.380484 0.0263523 0.0290837
0.47129 0.0164187 0.032517
0.550439 0.0105135 0.038941
0.622812 0.00677501 0.0500649
0.694255 0 0.0555123
0.765728 0 0.0609293
0.794385 0 0.0631113
0.7944 0 0.0631113
0.809506 0.0108339 0.107134
0.828565 0.0530404 0.161166
0.852644 0.0603494 0.198596
0.877409 0.0632181 0.242313
0.896162 0.0488899 0.287999
0.906569 0.0567025 0.346181
0.907713 0.0708324 0.417273
0.916167 0.0608835 0.50222
0.922393 0.0505989 0.570321
0.925978 0.0432898 0.621927
0.925994 0.0431983 0.6224
0.0195926 0.0827955 0.0382544
0.0191501 0.080354 0.0349584
0.0216831 0.0692912 0.0338293
0.0257115 0.0622263 0.0328222
0.0308385 0.0577249 0.031632
0.0340734 0.0547951 0.0306554
0.0400854 0.0578927 0.0307469
0.0518044 0.0608835 0.0309148
0.0701305 0.0679026 0.0336461
0.096788 0.0763714 0.0389258
0.127275 0.0821088 0.040589
0.17113 0.0759594 0.039704
0.228641 0.0628061 0.0360113
0.2916 0.0518959 0.0311131
0.359518 0.0388952 0.0297856
0.438788 0.0240024 0.0315251
0.541039 0.0112917 0.0381781
0.618296 0.00715648 0.0496529
0.690211 0 0.0551919
0.76231 0 0.0606699
0.794385 0 0.0631113
0.7944 0 0.0631113
0.80087 0 0.0785534
0.820432 0.0349889 0.138949
0.844068 0.0581064 0.184634
0.870665 0.0661326 0.231312
0.89247 0.0483864 0.275517
0.905684 0.0543221 0.334524
0.906813 0.072343 0.400931
0.915419 0.0627146 0.49012
0.921416 0.0518502 0.561028
0.925612 0.0446326 0.614908
0.925628 0.0445869 0.615122
0.0121462 0.119127 0.0476997
0.00907912 0.121355 0.0375525
0.0121614 0.11133 0.0372778
0.0189059 0.099855 0.0365454
0.0282597 0.0938888 0.0357519
0.0360113 0.0901656 0.0345769
0.0438849 0.0915999 0.03299
0.0580911 0.0938582 0.0323644
0.0790112 0.0958877 0.0325933
0.10518 0.102174 0.036347
0.138888 0.110445 0.0417487
0.177554 0.111864 0.0451514
0.232364 0.0986038 0.043534
0.298863 0.0769513 0.0419623
0.363485 0.0640421 0.0371252
0.429679 0.047715 0.0355688
0.498604 0.0263828 0.0356756
0.583535 0.00953689 0.0419013
0.685512 7.62951e-05 0.0548562
0.758602 0 0.0603952
0.794385 0 0.0631113
0.7944 0 0.0631113
0.7944 0 0.0631113
0.809262 0.0102541 0.10631
0.832959 0.0546426 0.167391
0.861387 0.0626841 0.21387
0.887129 0.0482643 0.259098
0.903456 0.0518349 0.318929
0.906004 0.0674754 0.385046
0.913481 0.0648814 0.473625
0.920241 0.0535744 0.549249
0.925063 0.0462196 0.605417
0.925063 0.0462196 0.605386
0.00144961 0.155123 0.0558022
0 0.162478 0.0350805
0 0.157275 0.0357366
0.00325017 0.144289 0.0366674
0.0147555 0.133867 0.0371405
0.0250553 0.130083 0.0370184
0.0373083 0.129778 0.0364843
0.0501564 0.132692 0.0322271
0.0789197 0.134203 0.032166
0.109392 0.134813 0.0317845
0.142458 0.139208 0.0363317
0.187091 0.146593 0.0426184
0.238758 0.141619 0.048188
0.302861 0.126268 0.049134
0.376318 0.10518 0.052491
0.443809 0.0867323 0.0505837
0.507042 0.0636301 0.047776
0.566186 0.0371862 0.0453498
0.628153 0.0104372 0.0448005
0.735714 0 0.0557565
0.794385 0 0.0631113
0.7944 0 0.0631113
0.7944 0 0.0631113
0.794842 0 0.0639506
0.818662 0.0308537 0.133776
0.847654 0.0590066 0.190311
0.877928 0.0621805 0.242969
0.898894 0.049546 0.298299
0.90602 0.0614176 0.365148
0.910765 0.0674296 0.451514
0.918853 0.0559548 0.533867
0.924285 0.0480659 0.591943
0.924269 0.0481117 0.591562
0 0.194339 0.0601053
0 0.201236 0.0292363
0 0.199145 0.0278477
0 0.194949 0.0289464
0 0.180499 0.0315251
0.00129702 0.172213 0.0328679
0.0107576 0.170535 0.0332494
0.0304112 0.171862 0.0322576
0.0525063 0.175067 0.0259709
0.0953994 0.177005 0.0268254
0.137865 0.176669 0.0259556
0.183856 0.180789 0.0317845
0.245579 0.188174 0.0415198
0.309926 0.180041 0.0531624
0.382635 0.164782 0.0609293
0.459556 0.14667 0.068101
0.532662 0.124056 0.0705577
0.592157 0.0962692 0.0649882
0.644755 0.061326 0.061387
0.700282 0.0218357 0.0551919
0.770153 0 0.0579385
0.7944 0 0.0631113
0.7944 0 0.0631113
0.7944 0 0.0631113
0.799008 0 0.0731212
0.828016 0.052842 0.160418
0.862394 0.0630198 0.215686
0.891035 0.0482948 0.271
0.906386 0.0552377 0.339406
0.907927 0.0705425 0.420294
0.916838 0.0594339 0.511559
0.922957 0.0499275 0.575647
0.922881 0.0500191 0.57496
0 0.237842 0.0664073
0 0.244297 0.0324559
0 0.247242 0.0189822
0 0.243107 0.0199588
0 0.239857 0.0204013
0 0.227955 0.0222477
0 0.217472 0.0229801
0 0.214481 0.0231937
0.0099031 0.217639 0.0210575
0.0453651 0.223178 0.0127565
0.103197 0.228367 0.0153811
0.170062 0.227817 0.015198
0.232624 0.230304 0.0249332
0.309667 0.23682 0.0387732
0.38349 0.227375 0.0591897
0.461875 0.211856 0.0737011
0.541833 0.195865 0.08542
0.618097 0.165805 0.0927291
0.678294 0.139727 0.0880446
0.732982 0.103182 0.0803845
0.783215 0.050309 0.070985
0.816281 0 0.0590829
0.794247 0 0.0604562
0.7944 0 0.0631113
0.7944 0 0.0631113
0.802808 1.5259e-05 0.0851301
0.837812 0.0562753 0.174578
0.875837 0.0658732 0.240482
0.900481 0.0501717 0.304891
0.905913 0.0662242 0.381155
0.914168 0.064271 0.478614
0.920714 0.0528573 0.553994
0.920577 0.0530861 0.552544
0 0.286793 0.0742199
0 0.293431 0.0416266
0 0.296574 0.02121
0 0.298512 0.00155642
0 0.295033 0.00334173
0 0.291676 0.00535592
0 0.288701 0.00666819
0 0.274113 0.0127718
0 0.266911 0.0123903
0 0.269581 0.00230411
0.0299382 0.277302 0
0.108782 0.284855 0
0.206577 0.283909 0.000839246
0.286564 0.285161 0.0165866
0.377462 0.293294 0.0362554
0.460334 0.284245 0.0658732
0.544015 0.267826 0.0879683
0.623011 0.247471 0.103731
0.696666 0.219425 0.115084
0.766094 0.186938 0.112902
0.823178 0.153185 0.101762
0.863508 0.10544 0.0917067
0.837903 0.0453346 0.0746014
0.81001 0 0.0593423
0.7944 0 0.0631113
0.7944 0 0.0631113
0.804974 0.0010071 0.0925612
0.846723 0.0587625 0.188815
0.88658 0.0482643 0.257618
0.90602 0.0547494 0.336889
0.908553 0.0697642 0.428565
0.917784 0.0577554 0.522362
0.917556 0.0581521 0.51989
0 0.342153 0.0865949
0 0.350301 0.058854
0 0.354818 0.038819
0 0.355047 0.00437934
0 0.355795 0
0 0.355367 0
0 0.352377 0
0 0.349813 0
0 0.347631 0
0 0.326925 0
0 0.326894 0
0.0148623 0.337209 0
0.119478 0.34789 0
0.24683 0.347967 0
0.346899 0.347005 0.0117189
0.44741 0.356863 0.0339971
0.536706 0.347021 0.0733196
0.621561 0.329946 0.10042
0.699672 0.304814 0.12372
0.770779 0.283284 0.135668
0.842939 0.241779 0.140948
0.901183 0.209384 0.130205
0.8934 0.173266 0.113512
0.870649 0.121706 0.0962844
0.835584 0.0409247 0.073167
0.797116 0 0.0603647
0.7944 0 0.0631113
0.803693 1.5259e-05 0.0881666
0.852674 0.0603494 0.198611
0.89308 0.0484321 0.277485
0.90602 0.0614176 0.365179
0.91313 0.0652018 0.470954
0.912657 0.0656291 0.467308
0 0.407126 0.108324
0 0.417166 0.0865339
0 0.422461 0.0694743
0 0.425437 0.0435035
0 0.4262 0.00756847
0 0.426352 0
0 0.428565 0
0 0.430259 0
0 0.427131 0
0 0.424613 0
0 0.399832 0
0 0.399222 0
0.0128481 0.409674 0
0.140581 0.420737 0
0.297597 0.41767 0
0.410483 0.413199 0.0136263
0.518578 0.423743 0.0366064
0.611078 0.414649 0.0809796
0.694804 0.39852 0.11284
0.769619 0.375296 0.139803
0.839734 0.349172 0.154696
0.903014 0.318715 0.163302
0.92108 0.279927 0.160845
0.916732 0.243442 0.14641
0.904356 0.198581 0.125566
0.875395 0.133379 0.0995804
0.828077 0.0233768 0.0677958
0.7944 0 0.0631113
0.796628 1.5259e-05 0.0673991
0.853086 0.0604562 0.199298
0.89633 0.0489204 0.28864
0.905974 0.0671092 0.383932
0.905928 0.0665446 0.382162
0 0.48249 0.142245
0 0.49366 0.124102
0 0.499702 0.111452
0 0.504204 0.0993973
0 0.507668 0.0744793
0 0.511452 0.0446937
0 0.512734 0.0212253
0 0.512718 0.000534066
0 0.51603 0
0 0.519875 0
0 0.517433 0
0 0.49073 0
0 0.488182 0
0.0327459 0.495705 0
0.17557 0.502068 0
0.35404 0.492836 0
0.477897 0.483406 0.0231327
0.590723 0.49192 0.0476539
0.684291 0.487861 0.0866102
0.762921 0.47274 0.123995
0.83682 0.450309 0.15021
0.904784 0.419852 0.171603
0.936782 0.395636 0.177035
0.931624 0.369574 0.173907
0.925963 0.334829 0.169741
0.921004 0.281331 0.160922
0.911696 0.221317 0.136187
0.876432 0.135973 0.100282
0.81387 0 0.05832
0.794415 1.5259e-05 0.0631418
0.842741 0.0577401 0.18265
0.89485 0.0486305 0.283436
0.894682 0.0486 0.282841
0 0.564202 0.190158
0 0.575463 0.174029
0 0.582055 0.162814
0 0.587152 0.152972
0 0.591043 0.143908
0 0.594125 0.131243
0 0.596613 0.106477
0 0.599191 0.070634
0 0.602792 0.0414893
0 0.605798 0.0080415
0 0.616892 0
0 0.613947 0
0 0.58587 0
0 0.582376 0
0.0692302 0.588327 0
0.227878 0.592004 0
0.416892 0.575936 0
0.549081 0.558831 0.0362707
0.662623 0.563516 0.0621042
0.755337 0.562722 0.0870527
0.830625 0.549187 0.131289
0.901686 0.530755 0.152056
0.952895 0.506371 0.173892
0.949783 0.481376 0.17705
0.946563 0.45211 0.179568
0.941817 0.417075 0.179767
0.933654 0.380316 0.175174
0.924575 0.324453 0.168002
0.916274 0.240345 0.145068
0.874266 0.130709 0.0988022
0.796765 0 0.0604105
0.815595 0.0238499 0.124849
0.814908 0.0223697 0.122896
0 0.647074 0.244785
0 0.656657 0.230137
0 0.66273 0.220798
0 0.667842 0.212711
0 0.671687 0.204807
0 0.675364 0.197314
0 0.67863 0.189715
0 0.682536 0.179858
0 0.686595 0.142779
0 0.691783 0.0902113
0 0.698207 0.0506752
0.0031281 0.708202 0
0.00564584 0.709758 0
0 0.680964 0
0.00427253 0.680339 0
0.116228 0.685679 0
0.289235 0.684215 0
0.485496 0.658839 0
0.61976 0.636316 0.0423438
0.73077 0.638514 0.0690471
0.825376 0.636835 0.0878614
0.896162 0.62678 0.125994
0.956344 0.612482 0.152575
0.956649 0.597803 0.154803
0.957229 0.576181 0.156588
0.956222 0.551339 0.164401
0.954604 0.519112 0.171923
0.94931 0.478233 0.177325
0.943313 0.422889 0.180438
0.930861 0.364889 0.173388
0.919722 0.264729 0.157458
0.879347 0.142916 0.102205
0.883116 0.15169 0.104952
0 0.727825 0.304646
0 0.735729 0.292012
0 0.740597 0.282826
0 0.744518 0.275013
0 0.748165 0.268269
0 0.751217 0.261784
0 0.754147 0.255711
0 0.758511 0.248371
0.00137331 0.764172 0.238071
0.0128176 0.771664 0.222782
0 0.778164 0.148821
0 0.784451 0.0953384
0.0123903 0.794491 0.0188449
0.0294652 0.802548 0
0.0229343 0.771298 0
0.0303655 0.774578 0
0.166903 0.779049 0
0.359609 0.770352 0.00134279
0.554971 0.737667 0
0.688319 0.711421 0.0451667
0.781384 0.704448 0.0850538
0.885283 0.706813 0.0867933
0.953277 0.704341 0.103487
0.958618 0.69369 0.123644
0.957992 0.679637 0.132555
0.957397 0.662974 0.140688
0.956909 0.643458 0.147143
0.956619 0.619333 0.152117
0.956863 0.587411 0.155657
0.955978 0.544472 0.166125
0.950607 0.489357 0.176028
0.941741 0.41677 0.179736
0.942718 0.421332 0.180117
0 0.803632 0.368322
0 0.808942 0.356909
0 0.812604 0.348348
0 0.815427 0.340612
0 0.817578 0.333959
0 0.819913 0.327749
0 0.822416 0.322103
0 0.82562 0.315312
0 0.830839 0.306645
0.00430304 0.837949 0.295003
0.0187228 0.848325 0.278767
1.5259e-05 0.859693 0.232013
0 0.867597 0.139483
0.0185855 0.879255 0.051606
0.0521553 0.888563 0.00457771
0.047715 0.860258 0
0.0647898 0.864485 0
0.218082 0.866346 0
0.43241 0.846937 0.00892653
0.621744 0.808484 0
0.751034 0.780499 0.0450904
0.840681 0.772061 0.076112
0.934417 0.773831 0.0850996
0.967422 0.767514 0.0971084
0.966262 0.758923 0.0978866
0.964981 0.749615 0.098909
0.963409 0.738354 0.101411
0.961532 0.724712 0.10663
0.959564 0.708263 0.113085
0.958175 0.684321 0.129335
0.957168 0.654963 0.143709
0.956619 0.619669 0.152163
0.956649 0.623682 0.1514
0 0.871321 0.433967
0 0.874784 0.422797
0 0.876753 0.414313
0 0.878294 0.407355
0 0.880293 0.402014
0 0.881422 0.396033
0 0.882643 0.390143
0 0.884642 0.383124
0 0.888365 0.374533
0 0.893721 0.363638
0.00216678 0.902571 0.350622
0.0181277 0.915236 0.331884
0.0428626 0.929168 0.303593
0 0.941863 0.179919
0.0258183 0.956512 0.0750439
0.0724498 0.96672 0.0120851
0.073167 0.947326 0.00062562
0.131456 0.946471 0
0.277394 0.940871 0
0.510948 0.908415 0.00900282
0.686381 0.87013 0
0.807919 0.844068 0.043183
0.89189 0.834928 0.070161
0.975494 0.837461 0.0797284
0.975769 0.828519 0.0868544
0.974594 0.820569 0.0887465
0.973297 0.811612 0.0905776
0.971954 0.802029 0.0926528
0.970382 0.790356 0.0945602
0.968688 0.777203 0.0961013
0.966781 0.762692 0.0977035
0.964477 0.7458 0.0995804
0.964965 0.749432 0.0989242
0 0.929 0.501656
0 0.931044 0.492012
0 0.932113 0.484123
0 0.933059 0.477791
0 0.933394 0.471046
0 0.933959 0.464897
0 0.934615 0.458534
0 0.935668 0.451438
0 0.937728 0.442985
0 0.941756 0.433494
0 0.947646 0.420356
0 0.956558 0.402991
0.0126497 0.970855 0.380621
0.0395514 0.986145 0.347555
1.5259e-05 0.995377 0.223148
0.0273594 0.994629 0.0866102
0.0789197 0.994186 0.0151675
0.0885481 0.994064 0
0.194125 0.994842 0
0.364523 0.99025 0.00195315
0.594553 0.95906 0.000839246
0.746944 0.926055 0
0.859266 0.900999 0.0423896
0.935485 0.890776 0.0690623
0.975967 0.886458 0.0894331
0.974701 0.880659 0.0943313
0.971588 0.87393 0.0983902
0.968444 0.86569 0.102266
0.967742 0.858106 0.102098
0.976638 0.855039 0.0849928
0.978485 0.846296 0.081529
0.976715 0.83473 0.0852369
0.977264 0.838315 0.0840009
0 0.971954 0.567987
0 0.972717 0.560433
0 0.973434 0.553719
0 0.974105 0.547784
0 0.974823 0.542016
0 0.97528 0.536385
0 0.975494 0.531075
0 0.976104 0.525231
0 0.977218 0.517006
0 0.979416 0.506554
0 0.982528 0.492653
0.00102235 0.987823 0.4748
0 0.996612 0.453437
0 0.996063 0.423331
0.0179446 0.995117 0.382147
0.0074464 0.99498 0.290028
0.0311131 0.994598 0.0822003
0.0814832 0.994156 0.0108644
0.0983597 0.994186 0
0.251713 0.99411 0
0.472435 0.985412 0.0110323
0.673121 0.97763 0
0.804837 0.972686 0
0.90428 0.950164 0.0433204
0.972122 0.939864 0.0738842
0.980865 0.935912 0.0711376
0.980484 0.931273 0.0708476
0.979553 0.92604 0.0708782
0.979355 0.920867 0.0716716
0.978485 0.914733 0.0731212
0.978332 0.90898 0.0750439
0.977783 0.901976 0.0778973
0.977905 0.904601 0.0766918
0 0.965194 0.62826
0 0.966262 0.621698
0 0.967239 0.615473
0 0.968032 0.609689
0 0.968643 0.604181
0 0.969162 0.599069
0 0.969528 0.595071
0 0.970062 0.589166
0 0.970657 0.582223
0 0.971435 0.573388
0 0.972564 0.561852
0 0.974227 0.546746
0 0.97705 0.526146
0 0.983261 0.496193
0 0.995529 0.457206
0.00347906 0.995727 0.407858
0.0537881 0.993713 0.330037
0.0276646 0.994629 0.0862593
0.0753948 0.994202 0.0205081
0.182116 0.994919 0
0.350179 0.99086 0
0.560769 0.98175 0.00920119
0.729641 0.977417 0
0.849348 0.976028 0
0.935637 0.973693 0.0631723
0.979278 0.974823 0.088838
0.981048 0.975006 0.0880751
0.981872 0.970764 0.0850538
0.982116 0.965927 0.0822156
0.982452 0.960891 0.0793927
0.982879 0.956283 0.0778668
0.983139 0.951888 0.077409
0.983383 0.953887 0.0808118
0 0.953582 0.685527
0 0.954787 0.680644
0 0.955749 0.676509
0 0.956786 0.672068
0 0.95761 0.668376
0 0.958556 0.664134
0 0.959396 0.660227
0 0.960464 0.655146
0 0.961715 0.649058
0 0.963241 0.641276
0 0.964706 0.631724
0 0.966735 0.618692
0 0.96907 0.600244
0 0.971069 0.577478
0 0.974563 0.544152
0 0.98381 0.49395
0 0.996216 0.431724
0.046128 0.994018 0.340597
0 0.994888 0.146273
0.0547646 0.995682 0.101671
0.271672 0.994171 0.0627451
0.500237 0.984802 0.057084
0.679484 0.978134 0.0137331
0.80531 0.977722 0.01561
0.90367 0.975601 0.0436866
0.970413 0.974945 0.131197
0.979889 0.975647 0.13225
0.980041 0.975723 0.134859
0.980163 0.975784 0.137819
0.980255 0.97586 0.14049
0.980392 0.975937 0.143969
0.980575 0.976043 0.148211
0.980957 0.976226 0.15555
0 0.940398 0.731334
0 0.941405 0.728206
0 0.942504 0.724834
0 0.943358 0.722026
0 0.944396 0.718837
0 0.945281 0.716014
0 0.946258 0.712947
0 0.947265 0.709331
0 0.948486 0.704982
0 0.949798 0.700145
0 0.951598 0.693324
0 0.953826 0.68455
0 0.956786 0.672068
0 0.960525 0.654841
0 0.965118 0.628779
0 0.969924 0.590646
0 0.976135 0.532326
0 0.996582 0.45153
0.0439918 0.994095 0.343603
0 0.995438 0.23035
0.181979 0.997513 0.18378
0.425406 0.989609 0.163912
0.611383 0.981949 0.141527
0.762615 0.9794 0.12076
0.874311 0.977966 0.131777
0.949065 0.976257 0.2056
0.982971 0.977829 0.21294
0.983032 0.97792 0.215641
0.983108 0.978012 0.21854
0.9832 0.978119 0.221851
0.983215 0.978241 0.225544
0.983246 0.978393 0.230274
0.983276 0.978637 0.237812
0 0.93135 0.767285
0 0.93193 0.76466
0 0.932464 0.762264
0 0.933043 0.75964
0 0.933639 0.757137
0 0.934157 0.754879
0 0.934783 0.752377
0 0.935393 0.74992
0 0.936156 0.746838
