bundles/resolve-cinematic-luts/Phantom Luts/Apple Log Phantom LUTS/iPhone 15 Phantom ARRI LUTs/33x/Neutral_Legacy iPhone15_33x.cube
TITLE "Generated by Resolve"
LUT_3D_SIZE 9
0.0277104 0.0277104 0.0277104
0.0277104 0.0277104 0.0277104
0.162142 0.0315862 0.031632
0.355261 0.0239872 0.0330053
0.581491 0.0274815 0.0782177
0.832074 0.0543374 0.166171
0.889754 0.0482185 0.266972
0.915328 0.0628977 0.488853
0.928008 0.0352483 0.654566
0.0277104 0.0277104 0.0277104
0.0277104 0.0277104 0.0277104
0.0673228 0.0390631 0.0302434
0.259281 0.0344091 0.0289158
0.56733 0.0107576 0.0443427
0.797055 0 0.0683452
0.868193 0.0651255 0.226535
0.910506 0.0676738 0.449195
0.926665 0.0403449 0.635416
0.0195926 0.0827955 0.0382544
0.0308385 0.0577249 0.031632
0.0701305 0.0679026 0.0336461
0.228641 0.0628061 0.0360113
0.541039 0.0112917 0.0381781
0.794385 0 0.0631113
0.844068 0.0581064 0.184634
0.906813 0.072343 0.400931
0.925628 0.0445869 0.615122
0 0.237842 0.0664073
0 0.239857 0.0204013
0.0099031 0.217639 0.0210575
0.232624 0.230304 0.0249332
0.541833 0.195865 0.08542
0.783215 0.050309 0.070985
0.7944 0 0.0631113
0.900481 0.0501717 0.304891
0.920577 0.0530861 0.552544
0 0.48249 0.142245
0 0.507668 0.0744793
0 0.51603 0
0 0.488182 0
0.477897 0.483406 0.0231327
0.83682 0.450309 0.15021
0.925963 0.334829 0.169741
0.81387 0 0.05832
0.894682 0.0486 0.282841
0 0.803632 0.368322
0 0.817578 0.333959
0 0.830839 0.306645
0 0.867597 0.139483
0.0647898 0.864485 0
0.751034 0.780499 0.0450904
0.966262 0.758923 0.0978866
0.959564 0.708263 0.113085
0.956649 0.623682 0.1514
0 0.965194 0.62826
0 0.968643 0.604181
0 0.970657 0.582223
0 0.97705 0.526146
0.0537881 0.993713 0.330037
0.350179 0.99086 0
0.935637 0.973693 0.0631723
0.982116 0.965927 0.0822156
0.983383 0.953887 0.0808118
0 0.924117 0.807965
0 0.925734 0.797559
0 0.927733 0.78613
0 0.931701 0.765682
0 0.946441 0.712322
0.0142672 0.99678 0.446326
0.790494 0.984985 0.328634
0.982376 0.984512 0.378698
0.982315 0.985245 0.394873
0 0.913588 0.879896
0 0.913939 0.877317
0 0.914412 0.873838
0 0.915938 0.863035
0 0.92134 0.827451
0 0.959075 0.661707
0.711391 0.993774 0.568643
0.986954 0.990723 0.577081
0.986831 0.990646 0.57351
0.0277104 0.0277104 0.0277104
0.028336 0.0277562 0.0277256
0.190921 0.0297093 0.117784
0.390906 0.0329747 0.141543
0.621042 0.0544289 0.166232
0.867369 0.0648051 0.225025
0.902525 0.0511788 0.314122
0.917891 0.0575875 0.52343
0.930114 0.0296025 0.672526
0.0277104 0.0277104 0.0277104
0.0277104 0.0277104 0.0277104
0.155077 0.0321508 0.032639
0.350683 0.0315099 0.0478523
0.585214 0.0388647 0.0972457
0.835859 0.0556497 0.171603
0.890471 0.048249 0.269184
0.915404 0.0627451 0.489967
0.928038 0.0351263 0.655009
0.0160678 0.108705 0.0887465
0.0146944 0.108797 0.0459602
0.0938125 0.0914015 0.0356451
0.280735 0.0542458 0.0317082
0.566186 0.00941482 0.0404517
0.811566 0.0157473 0.11397
0.875395 0.0666209 0.239979
0.910719 0.0674601 0.451148
0.926772 0.0399023 0.637324
0 0.237629 0.135103
0 0.245716 0.0694285
0 0.253864 0.0179294
0.242527 0.240253 0.0231479
0.562585 0.182742 0.0878462
0.785092 0.04271 0.0690471
0.810987 0.0144503 0.112215
0.906538 0.057023 0.347616
0.923186 0.0496529 0.577981
0 0.461952 0.190036
0 0.481651 0.14287
0 0.496544 0.107012
0 0.49398 0
0.477623 0.481956 0.0225071
0.840284 0.437446 0.15285
0.924636 0.324163 0.168048
0.810971 0 0.0590066
0.904784 0.0531472 0.327886
0 0.791028 0.397757
0 0.798459 0.363867
0 0.805844 0.337682
0.023621 0.842725 0.266087
0.0536812 0.858991 0
0.746029 0.773266 0.0478828
0.965347 0.752331 0.0986191
0.958907 0.698924 0.119615
0.956603 0.611093 0.153353
0 0.963012 0.642344
0 0.9664 0.620829
0 0.969146 0.599252
0 0.973999 0.548806
0.0250248 0.994842 0.37113
0.356649 0.991028 0.0474708
0.934646 0.974289 0.0941634
0.986358 0.958633 0.129335
0.984985 0.947829 0.144671
0 0.923842 0.810086
0 0.925322 0.800031
0 0.92726 0.78883
0 0.930999 0.768933
0 0.944518 0.718441
0.0114137 0.996933 0.463371
0.779355 0.986053 0.352483
0.982391 0.985367 0.398535
0.982681 0.985824 0.411582
0 0.913222 0.882506
0 0.913603 0.879728
0 0.914046 0.876585
0 0.915419 0.866621
0 0.920485 0.833219
0 0.956313 0.674159
0.699718 0.993851 0.583261
0.987442 0.990936 0.589456
0.987243 0.99086 0.585031
0.0280766 0.026688 0.0914473
0.107866 0.0240787 0.106981
0.191974 0.0253605 0.156161
0.391821 0.0239567 0.204593
0.635782 0.0417792 0.201923
0.883482 0.0500496 0.250095
0.90663 0.0562448 0.344091
0.920058 0.0538796 0.547189
0.932479 0.0242008 0.687404
0.0270237 0.0446479 0.0539559
0.0282902 0.025742 0.105257
0.167483 0.0273289 0.137621
0.376196 0.035111 0.119417
0.608438 0.0523842 0.144518
0.857145 0.0614481 0.206302
0.899458 0.0497597 0.300511
0.917311 0.0585794 0.517082
0.930022 0.0298161 0.671885
0.0156252 0.112932 0.111604
0.0169528 0.106554 0.105043
0.0869001 0.0869001 0.0869001
0.283787 0.0645914 0.0775616
0.585962 0.0490578 0.120317
0.833906 0.0549783 0.168765
0.889128 0.0482185 0.265019
0.914748 0.0637675 0.482597
0.928069 0.0350195 0.655375
0 0.233463 0.169131
0 0.238758 0.12549
0 0.241962 0.078294
0.235859 0.233616 0.0637369
0.558343 0.176043 0.110231
0.782834 0.0387579 0.0818494
0.83415 0.0550546 0.1691
0.905852 0.0647593 0.37644
0.924727 0.0469673 0.600122
0 0.450874 0.221759
0 0.464988 0.175509
0 0.476234 0.141695
0 0.495232 0
0.469856 0.473274 0.0226902
0.833371 0.427085 0.153689
0.923735 0.309636 0.170642
0.819944 0.00334173 0.0903487
0.90605 0.0610666 0.363882
0 0.783047 0.417166
0 0.787778 0.384878
0 0.791577 0.358343
0 0.822416 0.290364
0.0491951 0.847013 0
0.742443 0.76733 0.0511635
0.964553 0.74638 0.0994583
0.958312 0.686564 0.130495
0.95729 0.594217 0.180209
0 0.960937 0.652811
0 0.96466 0.632074
0 0.967788 0.611734
0 0.972488 0.562509
0.0106203 0.995422 0.394476
0.347646 0.991897 0.0954604
0.93489 0.975128 0.134661
0.986282 0.954116 0.173999
0.984298 0.94168 0.192767
0 0.923522 0.812589
0 0.924971 0.80206
0 0.926955 0.790753
0 0.930663 0.770748
0 0.943236 0.722408
0.00741588 0.99704 0.473243
0.767712 0.986831 0.366735
0.982666 0.985763 0.410025
0.982803 0.986191 0.421866
0 0.912779 0.88574
0 0.91313 0.883131
0 0.913649 0.879499
0 0.914992 0.869841
0 0.919615 0.838407
0 0.951827 0.692531
0.682857 0.994049 0.597299
0.987915 0.991089 0.599542
0.987716 0.991028 0.595071
0.0204623 0.00537118 0.271885
0.180529 0 0.300221
0.270207 0 0.301747
0.385824 0 0.30898
0.642664 0.0361181 0.321813
0.905425 0.0539712 0.33257
0.908614 0.069688 0.429313
0.924987 0.0464027 0.60412
0.94136 0.00943008 0.722484
0.0220493 0.0673686 0.185138
0.0193484 0.0033875 0.286152
0.165194 0 0.312673
0.36875 0 0.295918
0.63682 0.0418555 0.261112
0.8963 0.0489204 0.288472
0.905928 0.0664378 0.381796
0.92311 0.0497597 0.577173
0.937713 0.0147707 0.710445
0.00779736 0.135348 0.186923
0.0132601 0.0960861 0.223972
0.0584268 0.0713512 0.229145
0.289891 0.0399786 0.238025
0.62388 0.0399786 0.247425
0.88687 0.048249 0.258396
0.906523 0.0570993 0.347967
0.920287 0.0534981 0.549767
0.934447 0.0202945 0.697276
0 0.226429 0.225559
0 0.223148 0.222095
0 0.219211 0.218616
0.236286 0.236286 0.236286
0.582177 0.209216 0.235203
0.824765 0.11873 0.214115
0.888579 0.0482185 0.263386
0.912535 0.0657359 0.466423
0.927886 0.0356298 0.653284
0 0.428656 0.296696
0 0.435431 0.270191
0 0.43827 0.243061
0 0.451164 0.167452
0.467933 0.47364 0.184802
0.848722 0.438087 0.280278
0.935103 0.335668 0.280903
0.869535 0.0717327 0.209567
0.911986 0.0662547 0.462043
0 0.771054 0.467536
0 0.771572 0.440955
0 0.769894 0.418112
0 0.779095 0.353491
0 0.819196 0.146822
0.737194 0.755962 0.175326
0.969253 0.727306 0.276799
0.966217 0.676829 0.294026
0.964767 0.599954 0.322118
0 0.954696 0.68098
0 0.958602 0.663966
0 0.962203 0.646571
0 0.968872 0.602136
0 0.996551 0.449561
0.331975 0.993957 0.222049
0.930938 0.969039 0.241123
0.985092 0.945418 0.287709
0.986099 0.9299 0.314305
0 0.921843 0.824048
0 0.923552 0.81239
0 0.925185 0.800793
0 0.928588 0.781292
0 0.938857 0.736324
0.00125124 0.998154 0.508705
0.748089 0.989059 0.417594
0.98323 0.987243 0.450645
0.983352 0.987655 0.461311
0 0.911528 0.894835
0 0.911879 0.892103
0 0.912413 0.888334
0 0.913725 0.878889
0 0.917723 0.850477
0 0.944106 0.719753
0.668528 0.994553 0.630289
0.988998 0.991501 0.625727
0.988754 0.991424 0.620981
0.0134279 0 0.550164
0.113512 0 0.550118
0.231205 0 0.542977
0.437659 0 0.538338
0.666239 0 0.5355
0.922881 0.0500038 0.575006
0.926635 0.0404974 0.634775
0.943297 0.00682078 0.728115
0.966293 0 0.792065
0 0.0497139 0.404196
0.000198367 0 0.489113
0.0652171 0 0.492699
0.371771 0 0.53933
0.647135 0 0.520821
0.919982 0.0540169 0.546334
0.925307 0.0456092 0.60911
0.938735 0.0131838 0.714076
0.964904 0 0.783276
0 0.105974 0.382971
0 0.0585184 0.432715
0 0.0336156 0.434577
0.253086 0 0.46157
0.576364 0 0.462913
0.918441 0.0565805 0.529793
0.923583 0.0492866 0.581292
0.934066 0.0209506 0.695628
0.962661 0 0.772717
0 0.222965 0.351354
0 0.198978 0.374426
0 0.180819 0.391012
0.15404 0.192142 0.422126
0.550958 0.128161 0.467643
0.873915 0.114687 0.435096
0.918822 0.0560159 0.533516
0.927138 0.0381781 0.643977
0.951431 0 0.74902
0 0.406531 0.409537
0 0.402014 0.405234
0 0.396094 0.399039
0 0.386114 0.389715
0.470054 0.470054 0.470054
0.888914 0.474678 0.490547
0.949981 0.379675 0.47219
0.908293 0.0783246 0.424063
0.92723 0.0377813 0.645457
0 0.734783 0.568612
0 0.733394 0.557229
0 0.730678 0.544686
0 0.731167 0.512779
0 0.734356 0.411399
0.730449 0.743191 0.425788
0.992157 0.73994 0.497475
0.991043 0.704845 0.510201
0.987778 0.628382 0.527977
0 0.938643 0.737118
0 0.941497 0.727947
0 0.944961 0.716976
0 0.951598 0.693324
0 0.97023 0.586969
0.37525 0.993423 0.492134
0.921248 0.955718 0.441627
0.995727 0.925856 0.487358
1 0.91191 0.50338
0 0.916976 0.855695
0 0.918517 0.845151
0 0.920455 0.833417
0 0.9234 0.813611
0 0.93022 0.772824
0 0.987839 0.593591
0.725551 0.993423 0.540703
0.986053 0.990219 0.553811
0.98645 0.990433 0.563516
0 0.909728 0.912398
0 0.90988 0.910002
0 0.910079 0.907286
0 0.910658 0.901259
0 0.913832 0.878157
0 0.932479 0.762173
0.682582 0.992767 0.717998
0.992111 0.992218 0.688609
0.991806 0.992172 0.683299
0 0.00302129 0.754452
0.00424201 0 0.786969
0.0753643 0 0.752041
0.285817 0 0.745708
0.709834 0 0.812818
0.970047 0 0.817761
0.973678 0 0.846647
0.97879 0 0.90161
0.980941 0 0.944427
0 0.112215 0.710002
0 0.0774395 0.751842
0 0.053254 0.737316
0.192798 0.0194858 0.713832
0.59118 0 0.735012
0.967971 0 0.803326
0.971908 0 0.831907
0.978271 0 0.894453
0.980758 0 0.938933
0 0.156725 0.686854
0 0.124422 0.730678
0 0.115206 0.735744
0.152087 0.0814527 0.691539
0.562158 0.031281 0.726009
0.890272 0 0.734173
0.970565 0 0.821637
0.977279 0 0.882322
0.980407 0 0.929854
0 0.25359 0.652766
0 0.232197 0.6795
0 0.218357 0.693462
0.0650797 0.195987 0.657069
0.483055 0.152117 0.698497
0.875273 0.08542 0.737423
0.959838 0 0.752941
0.974151 0 0.850843
0.979431 0 0.91133
0 0.459159 0.627375
0 0.446616 0.63389
0 0.436805 0.637247
0 0.416709 0.651072
0.371817 0.435447 0.665949
0.800046 0.342763 0.711528
0.961349 0.29247 0.740185
0.964202 0.0526589 0.778714
0.973785 0 0.847532
0 0.71107 0.72372
0 0.705455 0.718288
0 0.697353 0.709712
0 0.687892 0.699825
0 0.64863 0.654521
0.72546 0.72546 0.72546
1 0.734218 0.759548
1 0.663722 0.763043
0.990616 0.534218 0.758801
0 0.92079 0.831052
0 0.922072 0.822446
0 0.923461 0.813062
0 0.922881 0.800458
0 0.923049 0.756786
0.386542 0.930663 0.710979
0.920821 0.927535 0.701457
1 0.899519 0.727367
1 0.888273 0.743389
0 0.909789 0.911284
0 0.910216 0.905776
0 0.910964 0.898802
0 0.912764 0.885832
0 0.916487 0.858991
0 0.946868 0.755535
0.744442 0.9944 0.740673
0.994354 0.992508 0.731167
0.994202 0.99266 0.735607
0 0.908125 0.942138
0 0.908263 0.939483
0 0.908446 0.936538
0 0.908675 0.93167
0 0.909239 0.920729
0 0.918471 0.845472
0.702892 0.993454 0.830625
0.989899 0.995392 0.795575
0.991089 0.995254 0.790692
0 0.290974 0.903944
0 0.276066 0.900694
0 0.269093 0.897856
0.165209 0.27303 0.890196
0.477958 0.245594 0.890776
0.86865 0.185077 0.912612
0.98526 0.0957961 0.943572
0.981064 0 0.948608
0.981064 0 0.948608
0 0.335241 0.896513
0 0.32752 0.901625
0 0.306264 0.887282
0.131975 0.313558 0.888014
0.453773 0.288746 0.881224
0.849515 0.222477 0.903639
0.986954 0.138598 0.937591
0.981262 0 0.958221
0.981064 0 0.948608
0 0.357427 0.89163
0 0.347753 0.898253
0 0.32256 0.881178
0.108446 0.331014 0.882979
0.437064 0.308034 0.873411
0.834562 0.239551 0.897261
0.987274 0.15903 0.928679
0.98117 0 0.953552
0.981064 0 0.948608
0 0.413825 0.880278
0 0.398932 0.890654
0 0.393027 0.890379
0.041413 0.377813 0.874159
0.397055 0.367498 0.857771
0.801144 0.291585 0.884123
0.980011 0.221393 0.909712
0.983566 0.0554208 0.945678
0.981064 0 0.948608
0 0.556466 0.853925
0 0.543008 0.861616
0 0.531014 0.86595
0 0.496101 0.84651
0.316884 0.499001 0.824048
0.755077 0.447822 0.890501
0.946715 0.359747 0.876066
0.969146 0.26482 0.898756
0.985885 0.111177 0.941604
0 0.742672 0.869032
0 0.734524 0.866377
0 0.726085 0.862211
0 0.713878 0.860182
0 0.680079 0.828
0.677958 0.707652 0.884733
0.967025 0.63473 0.90399
0.960174 0.570459 0.891081
0.94786 0.493858 0.883177
0 0.908614 0.933532
0 0.906325 0.929946
0 0.902953 0.925307
0 0.895964 0.917784
0 0.88603 0.907347
0.40827 0.842512 0.85037
0.911604 0.911604 0.911604
1 0.900496 0.914794
1 0.879988 0.921691
0 0.907973 0.9458
0 0.907973 0.9458
0 0.907973 0.9458
0 0.907973 0.9458
0 0.908339 0.938384
0.00570687 0.915312 0.877592
0.77818 0.983963 0.919051
0.988174 0.995331 0.90071
0.988205 0.995346 0.902068
0 0.907973 0.9458
0 0.907973 0.9458
0 0.907973 0.9458
0 0.907973 0.9458
0 0.907973 0.9458
0 0.90869 0.931517
0.694438 0.952026 0.91902
0.974823 0.996796 0.918105
0.98851 0.9953 0.915038
0 0.592508 0.883741
0 0.594553 0.884123
0.0537575 0.595209 0.880751
0.226307 0.592096 0.865278
0.469825 0.609232 0.877821
0.788647 0.576867 0.945571
0.946502 0.510735 0.918593
0.943771 0.456336 0.912474
0.943465 0.434241 0.910735
0 0.607019 0.881498
0 0.610636 0.88481
0.0159915 0.609689 0.881163
0.209247 0.6065 0.867155
0.46125 0.620844 0.876661
0.783505 0.592172 0.948074
0.947707 0.522744 0.920501
0.94374 0.466697 0.91313
0.94345 0.438148 0.910979
0 0.613443 0.880201
0 0.616617 0.88452
0 0.614618 0.881926
0.19086 0.610849 0.869123
0.447349 0.622675 0.874128
0.774853 0.595361 0.94873
0.947692 0.522484 0.92047
0.943709 0.465126 0.912993
0.943618 0.427161 0.91043
0 0.632517 0.879789
0 0.635782 0.884138
0 0.63241 0.883925
0.142855 0.628092 0.873716
0.424964 0.633188 0.871153
0.757656 0.616373 0.950881
0.949554 0.539467 0.923308
0.944488 0.482658 0.91487
0.943297 0.436561 0.910735
0 0.707027 0.885344
0 0.680873 0.879805
0 0.678691 0.881224
0 0.675975 0.882506
0.373068 0.666896 0.868696
0.728359 0.678111 0.952514
0.958633 0.603296 0.935897
0.951186 0.552819 0.925704
0.946181 0.506432 0.918013
0 0.80354 0.916732
0 0.796872 0.914733
0 0.790478 0.912673
0 0.761837 0.900175
0.172976 0.753277 0.890303
0.681361 0.768246 0.931426
0.957732 0.748943 0.971817
0.978393 0.706493 0.960815
0.971557 0.673609 0.952407
0 0.907973 0.9458
0 0.907973 0.9458
0 0.907973 0.9458
0 0.903563 0.944411
0 0.873686 0.930434
0.48249 0.851835 0.912016
0.899229 0.916976 0.980713
0.997528 0.894621 0.990616
0.997223 0.880674 0.989395
0 0.907973 0.9458
0 0.907973 0.9458
0 0.907973 0.9458
0 0.907973 0.9458
0 0.907973 0.9458
0.133455 0.902647 0.92755
0.800687 0.962722 0.977996
0.993469 0.993469 0.993469
0.993469 0.993469 0.993469
0 0.907973 0.9458
0 0.907973 0.9458
0 0.907973 0.9458
0 0.907973 0.9458
0 0.907973 0.9458
0 0.909056 0.941268
0.714153 0.941939 0.962814
0.978012 0.993515 0.994278
0.993469 0.993469 0.993469
0.191959 0.758251 0.890867
0.259144 0.753231 0.884749
0.296208 0.751003 0.882658
0.386511 0.750103 0.885664
0.575784 0.761181 0.910994
0.801266 0.795972 0.964019
0.986252 0.746166 0.970596
0.976928 0.700664 0.959091
0.968643 0.658106 0.948714
0.177829 0.762539 0.893111
0.246799 0.757702 0.8869
0.287022 0.755016 0.884108
0.378714 0.753719 0.886213
0.570626 0.763684 0.910552
0.799207 0.800397 0.962325
0.987442 0.752255 0.972076
0.978561 0.707881 0.961059
0.969894 0.665553 0.950332
0.167407 0.76585 0.894865
0.237491 0.760601 0.888121
0.278569 0.758068 0.885267
0.370733 0.756237 0.886336
0.562814 0.765179 0.909606
0.792752 0.803403 0.958755
0.987671 0.758434 0.973251
0.979919 0.715801 0.962829
0.971405 0.672206 0.952178
0.136553 0.774975 0.89987
0.212085 0.76968 0.893126
0.255756 0.766094 0.888838
0.351583 0.762417 0.886748
0.547784 0.770016 0.908492
0.78436 0.810285 0.954269
0.98143 0.774212 0.974945
0.98349 0.732998 0.967208
0.974853 0.690898 0.956558
0.033341 0.797513 0.910979
0.131319 0.793729 0.905943
0.18529 0.789868 0.901167
0.298726 0.780713 0.890684
0.508217 0.784573 0.905135
0.771023 0.825635 0.952819
0.973373 0.809796 0.98024
0.989456 0.772442 0.975158
0.984161 0.73579 0.968002
0 0.846983 0.92694
0 0.84416 0.925521
0 0.841306 0.923552
0.134691 0.832624 0.914656
0.400015 0.817609 0.899977
0.738064 0.85098 0.955444
0.950347 0.877272 0.990127
0.995438 0.848066 0.985565
0.993622 0.824384 0.982315
0 0.907973 0.9458
0 0.906569 0.944579
0 0.905058 0.941817
0 0.902068 0.936477
0.153582 0.888594 0.922896
0.593729 0.897993 0.93402
0.911009 0.950286 0.986984
0.997726 0.943023 0.994079
0.998047 0.933196 0.993729
0 0.907973 0.9458
0 0.907973 0.9458
0 0.907973 0.9458
0 0.907973 0.9458
0 0.909407 0.942504
0.391943 0.890364 0.910704
0.83386 0.970611 0.98323
0.993469 0.993469 0.993469
0.993469 0.993469 0.993469
0 0.907973 0.9458
0 0.907973 0.9458
0 0.907973 0.9458
0 0.907973 0.9458
0 0.907973 0.9458
0.0946212 0.905409 0.930999
0.765454 0.953994 0.972213
0.980728 0.993606 0.994232
0.993469 0.993469 0.993469
