bundles/resolve-cinematic-luts/Phantom Luts/Apple Log Phantom LUTS/iPhone 15 Phantom ARRI LUTs/33x/Neutral_Legacy iPhone15_33x.cube
TITLE "Generated by Resolve"
LUT_3D_SIZE 5
0.0277104 0.0277104 0.0277104
0.162142 0.0315862 0.031632
0.581491 0.0274815 0.0782177
0.889754 0.0482185 0.266972
0.928008 0.0352483 0.654566
0.0195926 0.0827955 0.0382544
0.0701305 0.0679026 0.0336461
0.541039 0.0112917 0.0381781
0.844068 0.0581064 0.184634
0.925628 0.0445869 0.615122
0 0.48249 0.142245
0 0.51603 0
0.477897 0.483406 0.0231327
0.925963 0.334829 0.169741
0.894682 0.0486 0.282841
0 0.965194 0.62826
0 0.970657 0.582223
0.0537881 0.993713 0.330037
0.935637 0.973693 0.0631723
0.983383 0.953887 0.0808118
0 0.913588 0.879896
0 0.914412 0.873838
0 0.92134 0.827451
0.711391 0.993774 0.568643
0.986831 0.990646 0.57351
0.0280766 0.026688 0.0914473
0.191974 0.0253605 0.156161
0.635782 0.0417792 0.201923
0.90663 0.0562448 0.344091
0.932479 0.0242008 0.687404
0.0156252 0.112932 0.111604
0.0869001 0.0869001 0.0869001
0.585962 0.0490578 0.120317
0.889128 0.0482185 0.265019
0.928069 0.0350195 0.655375
0 0.450874 0.221759
0 0.476234 0.141695
0.469856 0.473274 0.0226902
0.923735 0.309636 0.170642
0.90605 0.0610666 0.363882
0 0.960937 0.652811
0 0.967788 0.611734
0.0106203 0.995422 0.394476
0.93489 0.975128 0.134661
0.984298 0.94168 0.192767
0 0.912779 0.88574
0 0.913649 0.879499
0 0.919615 0.838407
0.682857 0.994049 0.597299
0.987716 0.991028 0.595071
0.0134279 0 0.550164
0.231205 0 0.542977
0.666239 0 0.5355
0.926635 0.0404974 0.634775
0.966293 0 0.792065
0 0.105974 0.382971
0 0.0336156 0.434577
0.576364 0 0.462913
0.923583 0.0492866 0.581292
0.962661 0 0.772717
0 0.406531 0.409537
0 0.396094 0.399039
0.470054 0.470054 0.470054
0.949981 0.379675 0.47219
0.92723 0.0377813 0.645457
0 0.938643 0.737118
0 0.944961 0.716976
0 0.97023 0.586969
0.921248 0.955718 0.441627
1 0.91191 0.50338
0 0.909728 0.912398
0 0.910079 0.907286
0 0.913832 0.878157
0.682582 0.992767 0.717998
0.991806 0.992172 0.683299
0 0.290974 0.903944
0 0.269093 0.897856
0.477958 0.245594 0.890776
0.98526 0.0957961 0.943572
0.981064 0 0.948608
0 0.357427 0.89163
0 0.32256 0.881178
0.437064 0.308034 0.873411
0.987274 0.15903 0.928679
0.981064 0 0.948608
0 0.556466 0.853925
0 0.531014 0.86595
0.316884 0.499001 0.824048
0.946715 0.359747 0.876066
0.985885 0.111177 0.941604
0 0.908614 0.933532
0 0.902953 0.925307
0 0.88603 0.907347
0.911604 0.911604 0.911604
1 0.879988 0.921691
0 0.907973 0.9458
0 0.907973 0.9458
0 0.907973 0.9458
0.694438 0.952026 0.91902
0.98851 0.9953 0.915038
0.191959 0.758251 0.890867
0.296208 0.751003 0.882658
0.575784 0.761181 0.910994
0.986252 0.746166 0.970596
0.968643 0.658106 0.948714
0.167407 0.76585 0.894865
0.278569 0.758068 0.885267
0.562814 0.765179 0.909606
0.987671 0.758434 0.973251
0.971405 0.672206 0.952178
0.033341 0.797513 0.910979
0.18529 0.789868 0.901167
0.508217 0.784573 0.905135
0.973373 0.809796 0.98024
0.984161 0.73579 0.968002
0 0.907973 0.9458
0 0.905058 0.941817
0.153582 0.888594 0.922896
0.911009 0.950286 0.986984
0.998047 0.933196 0.993729
0 0.907973 0.9458
0 0.907973 0.9458
0 0.907973 0.9458
0.765454 0.953994 0.972213
0.993469 0.993469 0.993469
