bundles/resolve-cinematic-luts/Phantom Luts/Apple Log Phantom LUTS/iPhone 15 Phantom ARRI LUTs/33x/Utopia iPhone15_33x.cube
TITLE "Generated by Resolve"
LUT_3D_SIZE 5
0 0.0272374 0.0352636
0.164813 0.0202182 0.0260014
0.574273 0.0432288 0.0802472
0.800504 0.0815747 0.290517
0.771313 0.0673686 0.613077
0 0.105516 0.0327916
0.0660868 0.0859388 0.0336919
0.520119 0.0117037 0.0149386
0.806012 0.0846113 0.199924
0.787869 0.0763561 0.601236
0 0.568475 0.16643
0.0101167 0.624613 0
0.564935 0.528069 0.0703746
0.913451 0.410101 0.209171
0.806592 0.0892195 0.326863
0.0040589 0.981857 0.682795
0.0084535 0.989502 0.646311
0.051133 0.999969 0.372396
0.994888 0.933776 0.218616
0.999969 0.921965 0.243153
0.0256504 0.928084 0.894087
0.0232548 0.929274 0.889738
0.0196689 0.936141 0.851408
0.770199 0.999969 0.592432
0.999969 0.972824 0.630457
0 0.0291142 0.114824
0.189212 0.0169985 0.184329
0.62208 0.049897 0.229984
0.804349 0.0972152 0.385809
0.776867 0.0634775 0.634379
0 0.135378 0.146883
0.0755322 0.109056 0.118135
0.59324 0.0533608 0.123888
0.806134 0.0800031 0.292485
0.776989 0.0651713 0.616785
0 0.531807 0.283192
0 0.565835 0.166979
0.556481 0.518853 0.0687724
0.909819 0.395743 0.217487
0.801709 0.0958419 0.421393
0.0039826 0.976593 0.702525
0.00828565 0.98381 0.672236
0.0292363 0.999969 0.444572
0.993561 0.941772 0.281636
0.999969 0.915526 0.328191
0.0267948 0.92723 0.898314
0.0244602 0.928405 0.893919
0.0209201 0.934417 0.859922
0.73666 0.999969 0.611307
0.999969 0.97377 0.647623
0 0.0534524 0.537697
0.18526 0.0325475 0.554818
0.604623 0.0323949 0.509102
0.792187 0.0777447 0.595895
0.775067 0.0709392 0.695491
0 0.162036 0.389364
0 0.0898604 0.442161
0.542657 0.0241703 0.45922
0.799344 0.0855573 0.569482
0.774273 0.0699779 0.682414
0 0.489128 0.492134
0 0.480308 0.481437
0.510689 0.528832 0.522026
0.945357 0.459831 0.510964
0.785718 0.0701305 0.610529
0.00337224 0.956634 0.769116
0.0104372 0.959182 0.75433
0.00926223 0.989166 0.645655
0.961364 0.939818 0.513252
0.999969 0.900069 0.561288
0.0310216 0.924987 0.917189
0.0297856 0.925353 0.913649
0.0243687 0.92874 0.891676
0.714275 0.999969 0.716136
0.999969 0.97821 0.72192
0 0.381613 0.775799
0 0.348455 0.763882
0.423087 0.296117 0.865705
0.82182 0.157 0.816236
0.757656 0.0842756 0.790936
0 0.462196 0.779232
0 0.425391 0.764355
0.387304 0.379126 0.870573
0.867506 0.232288 0.831769
0.75761 0.0843061 0.790829
0 0.642496 0.821653
0 0.627741 0.821118
0.279133 0.604227 0.806729
0.894881 0.431067 0.834577
0.846159 0.191333 0.834806
0.0298161 0.923339 0.929183
0.0292668 0.919005 0.922698
0.0172885 0.908232 0.910796
0.917174 0.91751 0.906767
0.997406 0.892226 0.910597
0.0477455 0.930449 0.960586
0.0475013 0.930694 0.960357
0.0472877 0.930663 0.960433
0.697032 0.970825 0.928084
0.996139 0.992844 0.91693
0.177951 0.787228 0.891142
0.279957 0.787854 0.892805
0.550088 0.80795 0.912306
0.968338 0.779599 0.965896
0.952712 0.701228 0.942321
0.176287 0.796445 0.895018
0.270787 0.794385 0.894942
0.546471 0.812711 0.91371
0.968261 0.785946 0.968032
0.95639 0.713115 0.946136
0.0966812 0.825254 0.908019
0.197879 0.817075 0.902617
0.50341 0.824094 0.916548
0.959991 0.824903 0.977172
0.972473 0.767773 0.962798
0.0463569 0.928588 0.957977
0.0251011 0.908751 0.926665
0.17615 0.899748 0.922103
0.899229 0.957595 0.984344
0.994766 0.938552 0.991165
0.0512093 0.929351 0.959609
0.0485695 0.930159 0.960433
0.0512551 0.929335 0.959594
0.763516 0.969299 0.9823
0.993561 0.993652 0.993683
