bundles/resolve-cinematic-luts/Phantom Luts/Apple Log Phantom LUTS/iPhone 15 Phantom ARRI LUTs/33x/Utopia_Legacy iPhone15_33x.cube
TITLE "Generated by Resolve"
LUT_3D_SIZE 33
0.0120241 0.037583 0.0469215
0.0120241 0.037583 0.0469215
0.0120241 0.037583 0.0469215
0.0120241 0.037583 0.0469215
0.0120241 0.0375525 0.046891
0.0185092 0.0377966 0.0467994
0.0472572 0.0377508 0.0489357
0.0847944 0.0378576 0.0471046
0.12517 0.0361944 0.0437934
0.168841 0.032639 0.0390478
0.215763 0.0296483 0.0347906
0.264973 0.0265354 0.0306554
0.315099 0.0234684 0.0264439
0.367926 0.0209201 0.0244755
0.421897 0.019501 0.0251774
0.47538 0.021088 0.0326238
0.527443 0.0269627 0.0475776
0.580209 0.0338903 0.063859
0.636881 0.0424964 0.0822461
0.695979 0.0542306 0.104707
0.742092 0.0676127 0.128481
0.753841 0.0735943 0.146014
0.765942 0.0784924 0.167269
0.779095 0.0841993 0.194308
0.783841 0.0727855 0.214328
0.791241 0.0738689 0.248066
0.798077 0.080705 0.290211
0.800702 0.0943618 0.34136
0.796628 0.0986343 0.404257
0.789715 0.0951705 0.459525
0.784283 0.0919966 0.505699
0.776623 0.0861677 0.551583
0.777722 0.0841077 0.559106
0.0120241 0.0375219 0.0468452
0.0120241 0.0375677 0.0469062
0.0120241 0.0375982 0.0469368
0.0120241 0.0375982 0.046952
0.0120241 0.037583 0.0469215
0.0128634 0.0375982 0.0468452
0.0246738 0.0382849 0.0475013
0.0546731 0.0383307 0.0485237
0.0928817 0.0386358 0.0465248
0.133577 0.0362402 0.0423438
0.183429 0.0324102 0.0370794
0.238239 0.0278477 0.030869
0.29723 0.0241093 0.0255741
0.359915 0.0202029 0.021561
0.417136 0.0164492 0.0189975
0.470787 0.0140993 0.018204
0.518868 0.013489 0.0204166
0.566186 0.013901 0.0252842
0.617166 0.0178836 0.0380102
0.675776 0.029221 0.0654459
0.722988 0.0455482 0.0959335
0.741665 0.0658885 0.127016
0.756741 0.0748913 0.151003
0.771542 0.0809949 0.178241
0.784024 0.0823835 0.20705
0.788952 0.0728771 0.235523
0.797284 0.078584 0.278401
0.800565 0.0912032 0.329976
0.797818 0.0988022 0.395117
0.790631 0.0956283 0.453712
0.784649 0.0921035 0.501823
0.77731 0.086717 0.548318
0.778637 0.0850538 0.554589
0.0120241 0.0375219 0.0468452
0.0120241 0.0375677 0.0469062
0.0120241 0.0375982 0.046952
0.0120241 0.0376135 0.0469673
0.0120241 0.0375982 0.0469368
0.0120851 0.0375525 0.0468757
0.0182803 0.0377508 0.0467231
0.0375219 0.0389258 0.0492866
0.0694743 0.0404974 0.0486152
0.103532 0.0407263 0.0459602
0.147021 0.0377661 0.0415503
0.201434 0.0331426 0.0354314
0.269032 0.0269169 0.0281529
0.337713 0.0219577 0.0222934
0.407965 0.0172122 0.0189059
0.466941 0.0141146 0.0180209
0.516274 0.0131075 0.0195163
0.564233 0.0128328 0.0226902
0.613672 0.013138 0.0278477
0.665446 0.0189975 0.0415198
0.709239 0.0312352 0.0727398
0.731212 0.0542916 0.109194
0.75021 0.0720836 0.140078
0.765743 0.0781415 0.16611
0.781094 0.081651 0.197116
0.787488 0.0717479 0.225193
0.796323 0.0767681 0.26949
0.800519 0.0884871 0.321508
0.799054 0.0988937 0.386481
0.791959 0.095964 0.448081
0.785458 0.0921645 0.497963
0.778698 0.0873121 0.544961
0.779522 0.0854658 0.551629
0.0120241 0.0375372 0.0468605
0.0120241 0.037583 0.0469215
0.0120241 0.0376135 0.046952
0.0120394 0.0376287 0.0469825
0.0120241 0.0376135 0.0469673
0.0120241 0.037583 0.0469215
0.0150607 0.0375219 0.0465705
0.0275273 0.0398718 0.0479744
0.0538338 0.0423743 0.0496681
0.0843214 0.0435798 0.0481117
0.123522 0.0428168 0.0449073
0.174823 0.0382086 0.0392157
0.241306 0.031632 0.0318303
0.31632 0.0243992 0.024033
0.390066 0.0186618 0.0191958
0.460029 0.0140536 0.0171359
0.514076 0.0131075 0.019379
0.562478 0.0127413 0.0223697
0.611566 0.0121004 0.0253758
0.66302 0.0170443 0.0342718
0.699351 0.0240787 0.0534218
0.719646 0.0414282 0.0897536
0.742199 0.0654765 0.127382
0.760479 0.076112 0.156664
0.778271 0.0822003 0.189532
0.787091 0.0721447 0.218112
0.79588 0.0751659 0.261677
0.801236 0.0865187 0.314137
0.800259 0.09897 0.37818
0.792859 0.0963912 0.442863
0.785992 0.0923323 0.494392
0.779904 0.0878462 0.541848
0.780652 0.0859388 0.548638
0.0120241 0.0375372 0.0468605
0.0120241 0.037583 0.0469215
0.0120241 0.0376135 0.0469673
0.0120394 0.0376287 0.0469825
0.0120394 0.0376287 0.0469825
0.0120241 0.037583 0.0469368
0.0132906 0.0376287 0.0468147
0.0224002 0.039826 0.0474556
0.0434424 0.0439307 0.0505837
0.072343 0.0459297 0.0493935
0.109865 0.0460517 0.0469062
0.160815 0.0409857 0.0414282
0.22504 0.0344244 0.0339666
0.300633 0.0270085 0.0260624
0.379049 0.0194095 0.0193332
0.451667 0.0146181 0.0166781
0.511452 0.0133516 0.0195773
0.561257 0.0126955 0.0222171
0.612268 0.0116579 0.0247654
0.663783 0.0160678 0.0307012
0.694408 0.0205386 0.0415808
0.708782 0.0304723 0.0708019
0.733791 0.0567483 0.113512
0.755276 0.0740673 0.148257
0.774624 0.0818647 0.182193
0.787427 0.0771801 0.21445
0.795163 0.0738842 0.254185
0.80174 0.084184 0.306691
0.801678 0.0990005 0.369635
0.793759 0.0968032 0.437659
0.786236 0.0926986 0.490105
0.779934 0.0888075 0.537453
0.779217 0.0872206 0.545022
0.0120089 0.0374762 0.0467994
0.0120241 0.0375067 0.0468147
0.0120241 0.0375219 0.0468452
0.0120241 0.0375372 0.0468605
0.0120241 0.0375372 0.0468605
0.0120241 0.0375219 0.0468452
0.0124819 0.0376135 0.0468452
0.0192264 0.0398413 0.0475776
0.0353857 0.0453193 0.0498512
0.0643015 0.0479133 0.0505226
0.101198 0.0476234 0.0479286
0.150469 0.0432746 0.0430457
0.213413 0.0366522 0.0355383
0.287907 0.0289769 0.0275425
0.368566 0.020737 0.0201419
0.445014 0.0146181 0.0159609
0.507561 0.0129091 0.018204
0.559838 0.0127565 0.0221866
0.611276 0.0115663 0.0246433
0.663874 0.0157473 0.0299077
0.693004 0.0192416 0.0368505
0.701595 0.0255283 0.0552224
0.72607 0.0484169 0.100328
0.750729 0.072282 0.14136
0.770397 0.0800031 0.174365
0.786526 0.0807965 0.210071
0.794049 0.0729381 0.247196
0.801709 0.0821698 0.300023
0.802594 0.0977188 0.363607
0.794995 0.0968948 0.432883
0.786969 0.0928817 0.486305
0.780743 0.0893873 0.53373
0.779889 0.0877089 0.542367
0.0120241 0.0377813 0.0469215
0.0120699 0.037705 0.046891
0.0120241 0.0375982 0.0468757
0.0120241 0.0375525 0.0468605
0.0120241 0.0375372 0.0468605
0.0120241 0.0375372 0.0468605
0.0124819 0.0377966 0.0469978
0.0181735 0.0403449 0.0479286
0.0312352 0.0462348 0.0506447
0.0583047 0.0495155 0.0514229
0.0943313 0.0490578 0.0488594
0.142504 0.0453193 0.0442817
0.205081 0.0385138 0.0368963
0.277943 0.0307469 0.0287938
0.358557 0.0223392 0.0212558
0.439277 0.0149233 0.0159609
0.503731 0.0125124 0.0170291
0.558267 0.0128328 0.0221866
0.610437 0.011429 0.0244602
0.663584 0.0155184 0.0296483
0.69221 0.0191501 0.0340276
0.696513 0.0222782 0.046128
0.7178 0.0393988 0.0861982
0.744701 0.067216 0.131441
0.766003 0.0782635 0.166796
0.783551 0.0795148 0.203006
0.79295 0.0726482 0.241169
0.801328 0.0806134 0.29398
0.802701 0.0957351 0.356954
0.796307 0.0968643 0.42742
0.78819 0.0929122 0.48249
0.781826 0.0898299 0.529686
0.780529 0.0882277 0.539712
0.0102846 0.051194 0.0505837
0.0108797 0.0479438 0.0502174
0.0117342 0.0444953 0.0496071
0.0120851 0.0424811 0.0489509
0.0125277 0.0411841 0.0484016
0.0132448 0.0406653 0.0480507
0.0168765 0.043473 0.0489509
0.0244297 0.0477913 0.0506447
0.0373999 0.0532845 0.0536507
0.0601053 0.0585031 0.0539864
0.0939498 0.0576486 0.0532235
0.138552 0.0527047 0.0476539
0.196689 0.0437934 0.0397345
0.266117 0.0345312 0.0310521
0.344823 0.0252232 0.023209
0.430579 0.0157931 0.0164797
0.49868 0.0122988 0.0160678
0.555566 0.0124208 0.0211337
0.609155 0.0113832 0.0243687
0.663264 0.0151064 0.0291752
0.69369 0.0186618 0.0332036
0.693553 0.0192569 0.0381628
0.707897 0.0305486 0.0670939
0.736599 0.0591135 0.117769
0.760983 0.0763714 0.157702
0.780529 0.079942 0.195315
0.791104 0.0719005 0.233021
0.800443 0.0787366 0.28542
0.803098 0.0939498 0.348501
0.79762 0.0969863 0.420172
0.789868 0.092958 0.477546
0.783475 0.090013 0.525536
0.781659 0.088716 0.535927
6.10361e-05 0.0822156 0.0515297
0 0.081239 0.0486
0.00292973 0.0729686 0.0496681
0.00756847 0.0661021 0.0500496
0.0121767 0.0622568 0.0503395
0.0157473 0.0598917 0.0500191
0.0197757 0.0625315 0.0492561
0.0287175 0.0654765 0.0489509
0.0462196 0.0706188 0.0492103
0.0733959 0.0758068 0.0566262
0.101427 0.0807507 0.0577401
0.144793 0.0742657 0.0562142
0.201205 0.0614328 0.0481575
0.262547 0.0497749 0.0373388
0.328649 0.0373083 0.0292058
0.400763 0.0235904 0.0210269
0.487068 0.0133822 0.0162814
0.551492 0.0124514 0.0207828
0.607309 0.011368 0.0242924
0.662165 0.014786 0.0288243
0.694621 0.0184024 0.0329595
0.692592 0.0190127 0.0336309
0.698344 0.0231022 0.0487068
0.725155 0.0470588 0.0980545
0.753811 0.0732891 0.146181
0.776745 0.082002 0.186618
0.788647 0.0726024 0.222736
0.799359 0.0770733 0.274907
0.803326 0.0915694 0.336721
0.798917 0.0973526 0.410117
0.793851 0.0923171 0.472435
0.788602 0.0890516 0.521218
0.786908 0.087892 0.533364
0 0.116838 0.0531624
0 0.119768 0.0414588
0 0.111635 0.0429999
0 0.101564 0.0448463
0.00383001 0.0949416 0.0455787
0.0107118 0.0915999 0.0455787
0.017258 0.0932021 0.0433356
0.0297093 0.0959182 0.0416571
0.0522774 0.0967422 0.0419471
0.0818036 0.0999619 0.0501869
0.115572 0.106004 0.059266
0.152575 0.107286 0.0605478
0.209018 0.0938582 0.0590372
0.274846 0.0733959 0.0510262
0.337514 0.0591135 0.0397498
0.401129 0.044358 0.0316472
0.461769 0.0265354 0.0222782
0.52256 0.0144503 0.0178378
0.597452 0.0111849 0.0222324
0.657816 0.0150759 0.029099
0.692699 0.0188754 0.033402
0.691951 0.0191501 0.0336767
0.691997 0.0194095 0.0357519
0.707622 0.0310369 0.0656138
0.741115 0.0628519 0.125216
0.767865 0.0791943 0.17055
0.786786 0.0795605 0.213626
0.796063 0.074876 0.260136
0.802823 0.0878767 0.321523
0.800565 0.0977493 0.396521
0.793927 0.0935531 0.462028
0.789761 0.0895705 0.512474
0.789029 0.0883803 0.526452
0 0.15259 0.0533761
0 0.159213 0.0290837
0 0.155474 0.0298314
0 0.145037 0.0333104
0 0.134585 0.0357824
0 0.12961 0.03682
0.00648508 0.12961 0.0363165
0.0186618 0.132998 0.0325322
0.0462806 0.134478 0.0327153
0.0829175 0.132708 0.0378576
0.121279 0.133562 0.0516976
0.165743 0.13994 0.0597696
0.217075 0.134813 0.0627756
0.284443 0.118624 0.0632486
0.357229 0.0987411 0.0603037
0.423148 0.0808881 0.0515602
0.480735 0.0604257 0.0400092
0.52639 0.0393835 0.0322881
0.565698 0.0198978 0.0231022
0.633829 0.0134279 0.0248569
0.691264 0.0187381 0.0331579
0.692164 0.019089 0.0336156
0.691417 0.0193027 0.0338293
0.693782 0.0195315 0.040177
0.721172 0.0422065 0.0902266
0.756252 0.0740368 0.149554
0.780316 0.0788128 0.194568
0.793133 0.0726635 0.241443
0.802213 0.0829175 0.303181
0.803128 0.0981155 0.376333
0.795834 0.0946822 0.448768
0.790814 0.0901045 0.501991
0.79089 0.0890059 0.51603
0 0.192569 0.0479133
0 0.198947 0.016083
0 0.198169 0.0116884
0 0.194202 0.0133822
0 0.183017 0.0175937
0 0.173968 0.0210422
0 0.170474 0.0221866
0 0.171466 0.0209659
0.0173037 0.17557 0.0161135
0.0611887 0.177356 0.0202182
0.114641 0.172732 0.0312963
0.167239 0.173129 0.0491646
0.227359 0.17995 0.0579232
0.293355 0.171527 0.0663005
0.369802 0.155276 0.0737469
0.446067 0.138186 0.0765087
0.515557 0.117037 0.0720378
0.562707 0.0948806 0.0617838
0.599207 0.0668498 0.0525826
0.630045 0.0367132 0.0380865
0.665522 0.0167849 0.0276036
0.693172 0.0186923 0.0325475
0.693049 0.0188602 0.0333715
0.692256 0.0190738 0.0335851
0.698283 0.0225376 0.0471656
0.733623 0.0537423 0.110231
0.769024 0.0788891 0.170413
0.789715 0.0760052 0.219989
0.800885 0.0774243 0.27863
0.804395 0.0936751 0.350973
0.798917 0.0956588 0.429801
0.792905 0.0907607 0.488426
0.792676 0.0894484 0.50277
0 0.239017 0.0446479
0 0.244663 0.010193
0 0.247593 0
0 0.245029 0
0 0.24155 0
0 0.232181 0
0 0.223514 0.000808728
0 0.217563 0.00248722
0 0.218906 0.000213626
0.00965896 0.22501 0
0.0682231 0.230732 0.00128176
0.15201 0.223911 0.0216068
0.222629 0.221363 0.0446021
0.297917 0.228336 0.0562295
0.372915 0.218921 0.0713664
0.453925 0.202029 0.0856031
0.532464 0.187411 0.0961013
0.598215 0.161929 0.0986648
0.644724 0.141268 0.0923934
0.680079 0.112947 0.079469
0.705821 0.0708324 0.0624247
0.711986 0.0281376 0.037583
0.696422 0.0188449 0.031342
0.693034 0.0187991 0.0332341
0.6925 0.0190127 0.0335241
0.70161 0.0252537 0.0525978
0.743893 0.0625772 0.127382
0.778271 0.0788281 0.188876
0.794812 0.0724804 0.245014
0.804959 0.0860914 0.316747
0.802457 0.0968338 0.400076
0.795727 0.0920577 0.469551
0.795071 0.0902571 0.485725
0 0.292195 0.0424964
0 0.298543 0.0104067
0 0.301747 0
0 0.302922 0
0 0.300725 0
0 0.298024 0
0 0.294347 0
0 0.28484 0
0 0.274678 0
0 0.274205 0
0 0.282292 0
0.0743114 0.291722 0
0.195926 0.280644 0.0126192
0.285359 0.276097 0.0404059
0.373007 0.2851 0.0559091
0.453391 0.276982 0.07776
0.537957 0.259709 0.100069
0.613794 0.240848 0.11783
0.674601 0.219532 0.128603
0.725338 0.19292 0.126253
0.763287 0.165957 0.112947
0.783352 0.128603 0.0952316
0.754574 0.0752575 0.0690318
0.712932 0.0267185 0.036759
0.693904 0.0188449 0.0325628
0.692683 0.0189517 0.0334783
0.703105 0.0266117 0.0548867
0.751751 0.0693523 0.140826
0.785702 0.0785382 0.207309
0.800488 0.076524 0.273732
0.804685 0.0942397 0.355932
0.798199 0.0950179 0.439643
0.796582 0.0931106 0.458915
0 0.353765 0.0460975
0 0.361776 0.0183261
0 0.366217 0
0 0.366735 0
0 0.366751 0
0 0.366247 0
0 0.365286 0
0 0.363058 0
0 0.359991 0
0 0.342336 0
0 0.338155 0
0 0.349065 0
0.0880751 0.361761 0
0.24712 0.347265 0.013138
0.355596 0.33817 0.039826
0.450401 0.348974 0.0570687
0.532189 0.342733 0.0857862
0.616083 0.325429 0.114183
0.687465 0.3028 0.141726
0.746365 0.284504 0.157534
0.798306 0.253162 0.162341
0.837598 0.225513 0.152651
0.830228 0.19324 0.133165
0.801282 0.147616 0.106249
0.756466 0.0778363 0.0704204
0.703761 0.0216678 0.0334478
0.692622 0.0189517 0.0333715
0.701808 0.0254215 0.052781
0.755581 0.0723278 0.147814
0.790326 0.0771038 0.220737
0.803586 0.0811322 0.298009
0.803449 0.0971542 0.3897
0.801602 0.0962081 0.416037
0 0.4262 0.0604868
0 0.436179 0.0377203
0 0.441749 0.020264
0 0.445014 0
0 0.445914 0
0 0.446464 0
0 0.447242 0
0 0.44892 0
0 0.449866 0
0 0.446845 0
0 0.427909 0
0 0.419287 0
0 0.43061 0
0.116701 0.443305 0
0.310979 0.419409 0.0170138
0.429725 0.404654 0.0449989
0.529595 0.416129 0.0634928
0.607675 0.412467 0.0968338
0.685206 0.396979 0.131304
0.753277 0.37496 0.162417
0.812497 0.351843 0.183856
0.860563 0.328679 0.194308
0.875029 0.295552 0.190951
0.864027 0.260716 0.174533
0.84564 0.219974 0.149981
0.810941 0.162753 0.114961
0.750744 0.0703441 0.0661173
0.6963 0.0195926 0.0330205
0.695552 0.0194705 0.0422065
0.752621 0.0685588 0.141756
0.792035 0.0749218 0.225681
0.805737 0.085008 0.313329
0.807111 0.0923171 0.340124
0 0.510063 0.090898
0 0.520836 0.0717021
0 0.526879 0.0582284
0 0.531823 0.0457313
0 0.535164 0.0253452
0 0.537667 0.00196841
0 0.538811 0
0 0.539132 0
0 0.541466 0
0 0.546883 0
0 0.546197 0
0 0.528756 0
0 0.516258 0
0.0162661 0.525277 0
0.165667 0.53164 0
0.381659 0.495125 0.0224155
0.505745 0.474052 0.0564736
0.605661 0.483528 0.0819867
0.680323 0.48513 0.112886
0.749569 0.472572 0.148547
0.816083 0.451698 0.179812
0.873549 0.424186 0.20589
0.903014 0.403037 0.215854
0.897383 0.379232 0.212177
0.888548 0.347845 0.205554
0.87628 0.301518 0.192935
0.857572 0.246235 0.166094
0.815991 0.171817 0.121035
0.73611 0.0545968 0.0559091
0.690608 0.019089 0.0326848
0.734859 0.0503243 0.110491
0.791196 0.0794232 0.220554
0.796613 0.0729076 0.242573
0 0.595865 0.144121
0 0.60679 0.127077
0 0.613764 0.115145
0 0.618585 0.104219
0 0.622797 0.0941939
0 0.62591 0.0810559
0 0.628702 0.062623
0 0.630838 0.032639
0.0056611 0.6327 0
0.012314 0.635096 0
0.016846 0.642405 0
0.0171969 0.643748 0
0.0129702 0.626795 0
0.00965896 0.613367 0
0.0637675 0.623606 0
0.240894 0.621027 0
0.46067 0.574838 0.0357519
0.584924 0.547906 0.0783093
0.68072 0.552773 0.10634
0.752026 0.557702 0.128542
0.813184 0.548379 0.165286
0.875105 0.532006 0.191531
0.920394 0.509453 0.215534
0.921233 0.486931 0.219028
0.917082 0.460319 0.220218
0.911254 0.428717 0.219516
0.901503 0.394293 0.214527
0.888106 0.345602 0.204715
0.867201 0.271855 0.179065
0.819074 0.176333 0.123934
0.723842 0.0436255 0.0495613
0.71043 0.0330816 0.063798
0.731136 0.0510567 0.102251
0 0.679088 0.208331
0 0.68835 0.192905
0 0.694499 0.182239
0 0.699748 0.173419
0 0.703761 0.164752
0 0.707637 0.156878
0 0.711421 0.148943
0 0.715587 0.135927
0.00308232 0.719905 0.104753
0.0159457 0.723064 0.0532082
0.0267185 0.726116 0.0120699
0.0385901 0.732067 0
0.0434119 0.736446 0
0.0350195 0.716731 0
0.0362402 0.709728 0
0.132113 0.719615 0
0.32813 0.706111 0
0.541573 0.650019 0.0536965
0.660822 0.620203 0.0983444
0.752178 0.622431 0.128405
0.822003 0.626398 0.145647
0.877714 0.622202 0.176043
0.926848 0.61062 0.201984
0.93138 0.597772 0.205158
0.930892 0.579202 0.205936
0.929335 0.556237 0.210513
0.927092 0.527855 0.21529
0.921691 0.491188 0.218433
0.914046 0.442924 0.219791
0.900343 0.388891 0.21326
0.878492 0.307469 0.193835
0.831983 0.198047 0.136584
0.811749 0.165545 0.116518
0 0.756725 0.279088
0 0.764538 0.26537
0 0.770031 0.25565
0 0.774197 0.246769
0 0.778363 0.239704
0 0.781933 0.232822
0 0.785367 0.22565
0 0.789807 0.217151
0.00115969 0.796277 0.205707
0.0138857 0.804501 0.184421
0.0233768 0.81001 0.121767
0.0395361 0.812833 0.0603952
0.0639353 0.818677 0.00242618
0.0841382 0.826658 0
0.0720378 0.799191 0
0.0807202 0.803586 0
0.206226 0.808972 0
0.42298 0.781918 0.0204318
0.620539 0.720607 0.0728313
0.733623 0.689708 0.118013
0.808057 0.684016 0.153231
0.885328 0.690944 0.162127
0.93669 0.692744 0.178012
0.943084 0.684901 0.191959
0.94052 0.673442 0.195773
0.938308 0.659693 0.199557
0.935409 0.643137 0.201694
0.933288 0.6224 0.20351
0.931685 0.595071 0.205035
0.929458 0.557519 0.209598
0.924453 0.508766 0.216327
0.914412 0.445274 0.218662
0.911223 0.429648 0.217578
0 0.827115 0.352422
0 0.832898 0.340902
0 0.83711 0.332326
0 0.840467 0.324224
0 0.84332 0.316777
0 0.84622 0.31017
0 0.84918 0.303899
0 0.853315 0.295857
0.00175479 0.858869 0.286213
0.00929274 0.867384 0.273533
0.0261387 0.879164 0.253803
0.0386664 0.889158 0.206699
0.0548409 0.892531 0.112505
0.0889448 0.900069 0.0411078
0.126802 0.907591 0.00543221
0.11371 0.883162 0
0.131441 0.88925 0
0.282277 0.889006 0.00202945
0.517235 0.847395 0.0492256
0.694682 0.784482 0.0921492
0.799939 0.753506 0.134569
0.871061 0.746288 0.164843
0.940215 0.751965 0.178836
0.966049 0.74992 0.188525
0.962905 0.742855 0.188113
0.959792 0.735103 0.18706
0.956191 0.72607 0.186786
0.951919 0.714733 0.186633
0.947585 0.701579 0.187823
0.942458 0.682094 0.192874
0.937987 0.658183 0.198917
0.933852 0.628473 0.201816
0.933394 0.622431 0.202152
0 0.889372 0.424659
0 0.892897 0.414115
0 0.895567 0.406714
0 0.897566 0.399863
0 0.899763 0.394064
0 0.901686 0.387762
0 0.90367 0.381628
0.00062562 0.906722 0.374578
0.00300603 0.911025 0.365072
0.00675975 0.917388 0.35314
0.0145266 0.927092 0.338125
0.033341 0.942626 0.318059
0.055848 0.95816 0.280125
0.0688334 0.963027 0.168414
0.115984 0.971588 0.0788739
0.172259 0.978103 0.0344854
0.165194 0.961715 0.0192111
0.216403 0.964599 0.0155184
0.365057 0.955032 0.0209964
0.608438 0.897704 0.0759899
0.76376 0.840116 0.111208
0.860456 0.812284 0.150484
0.926238 0.804059 0.178119
0.986862 0.808896 0.196262
0.989471 0.803067 0.198871
0.986618 0.796857 0.198978
0.983093 0.78938 0.198093
0.979385 0.781353 0.196551
0.975235 0.772045 0.194339
0.970703 0.761227 0.19144
0.965988 0.749401 0.18822
0.960433 0.735515 0.184878
0.959792 0.733806 0.184466
0 0.94107 0.497307
0 0.943633 0.488548
0 0.945037 0.481407
0 0.946029 0.475166
0.00047303 0.946929 0.469139
0.00195315 0.947982 0.463386
0.00289921 0.949233 0.457893
0.00408942 0.951049 0.450217
0.00582895 0.953826 0.441184
0.0087129 0.958801 0.431083
0.0128481 0.966018 0.417243
0.0196231 0.976364 0.398718
0.0372015 0.99292 0.375311
0.0640421 0.999969 0.338125
0.0787976 0.999969 0.226154
0.135119 0.999969 0.102129
0.192721 0.999222 0.0483558
0.204334 0.999146 0.0400702
0.300221 0.999939 0.0321965
0.476265 0.993912 0.0462806
0.701274 0.935393 0.101686
0.827131 0.89015 0.13135
0.914382 0.864607 0.168322
0.973907 0.856184 0.195697
0.999344 0.853895 0.213642
0.998886 0.849165 0.216754
0.997192 0.843473 0.217548
0.994461 0.836912 0.217655
0.992828 0.830701 0.214588
0.99649 0.827848 0.205463
0.996201 0.820844 0.199985
0.992966 0.811109 0.198291
0.992935 0.811063 0.198093
0.00047303 0.978866 0.567071
0.00137331 0.980255 0.55996
0.00234989 0.981277 0.553918
0.00335698 0.982315 0.548211
0.00421149 0.982971 0.542947
0.00503548 0.983734 0.538125
0.00579843 0.984298 0.533135
0.00694286 0.985306 0.526864
0.00868238 0.987091 0.519173
0.0111238 0.990021 0.508827
0.0144198 0.993866 0.495308
0.018677 0.998047 0.476875
0.0245975 0.999969 0.454841
0.0318608 0.999969 0.422919
0.0510414 0.999969 0.377478
0.0793164 0.999969 0.274113
0.136614 0.999969 0.0982376
0.196597 0.999512 0.0461585
0.21828 0.999619 0.0382696
0.358724 0.999832 0.0329137
0.58912 0.980285 0.0750896
0.777005 0.947768 0.124758
0.886137 0.931701 0.154147
0.961852 0.910384 0.188464
0.999969 0.9019 0.217227
0.999969 0.89839 0.219074
0.999969 0.894102 0.219074
0.999969 0.889784 0.21828
0.999969 0.885374 0.216495
0.999969 0.880262 0.214145
0.999969 0.875273 0.212207
0.999969 0.869535 0.210513
0.999969 0.869993 0.209934
0 0.973739 0.627619
0 0.974868 0.621744
0 0.975937 0.616037
0.00015259 0.976715 0.611429
0.000549325 0.977523 0.606271
0.000762951 0.978241 0.601816
0.00148013 0.978744 0.597574
0.0030518 0.979232 0.592355
0.00466926 0.979904 0.585946
0.00596628 0.981018 0.5776
0.00732433 0.982895 0.565805
0.00918593 0.985626 0.550393
0.0119783 0.990219 0.528954
0.0170901 0.996765 0.498466
0.0259861 0.999969 0.458488
0.0391241 0.999969 0.405356
0.0797742 0.999969 0.295125
0.132052 0.999939 0.108888
0.180453 0.99971 0.0663767
0.296361 0.999954 0.0385901
0.472297 0.995071 0.0484169
0.678096 0.964294 0.102861
0.825071 0.942275 0.141909
0.922576 0.93434 0.170611
0.991699 0.933516 0.21326
0.999969 0.935424 0.241581
0.999969 0.931838 0.241779
0.999969 0.928893 0.241611
0.999969 0.924971 0.23917
0.999969 0.92108 0.236301
0.999969 0.918013 0.233799
0.999969 0.914672 0.232212
0.999969 0.916091 0.234607
0.00183108 0.959182 0.685374
0.00135805 0.96054 0.680949
0.000320439 0.961837 0.676997
0 0.963256 0.672755
0 0.964355 0.669001
0 0.965301 0.665217
0 0.966033 0.661601
0.000564584 0.966918 0.656916
0.0018616 0.967971 0.651545
0.00256352 0.969635 0.643885
0.00274662 0.971603 0.633906
0.00273136 0.974273 0.620951
0.00280766 0.977584 0.602808
0.00314336 0.981491 0.578805
0.00563058 0.987976 0.543847
0.0139773 0.998138 0.492027
0.0310216 0.999969 0.426749
0.0738384 0.999969 0.302571
0.104173 0.999969 0.154345
0.158968 0.999969 0.114961
0.370535 0.999969 0.0788586
0.612909 0.982773 0.11519
0.782177 0.94995 0.142245
0.888853 0.940246 0.172808
0.967849 0.935912 0.205646
0.999969 0.938659 0.264942
0.999969 0.939162 0.269703
0.999969 0.9393 0.27216
0.999969 0.939498 0.274235
0.999969 0.939742 0.27512
0.999969 0.940078 0.2757
0.999969 0.940444 0.277226
0.999969 0.940948 0.28098
0.00222782 0.94519 0.731106
0.00170901 0.946288 0.728389
0.00062562 0.947585 0.725307
0 0.948821 0.722606
0 0.950088 0.7196
0 0.951034 0.716915
0 0.951797 0.714351
0 0.952514 0.71107
0.00123598 0.953338 0.706798
0.00180056 0.954559 0.701457
0.0018616 0.95642 0.694957
0.00155642 0.959121 0.685832
0.000854505 0.962661 0.673381
0.000259403 0.967315 0.65565
0.000289921 0.97319 0.628809
0.00178531 0.980087 0.589181
0.00770581 0.991653 0.527932
0.025864 0.999969 0.445624
0.0690471 0.999969 0.329152
0.0759747 0.999969 0.238315
0.2495 0.999969 0.168414
0.515587 0.999969 0.164157
0.712215 0.975021 0.195514
0.848188 0.952819 0.218585
0.941939 0.944442 0.246326
0.998001 0.94374 0.30457
0.999969 0.944671 0.317601
0.999969 0.944884 0.320272
0.999969 0.945068 0.323125
0.999969 0.945312 0.325628
0.999969 0.945617 0.327535
0.999969 0.945998 0.330327
0.999969 0.946517 0.334722
0.00376898 0.934844 0.7664
0.00309758 0.935531 0.763943
0.00181582 0.936309 0.761837
0.000244144 0.93724 0.759426
0 0.937987 0.757458
0 0.938613 0.755566
0 0.939101 0.753628
0.000213626 0.939498 0.751095
0.00178531 0.939925 0.748104
