bundles/resolve-cinematic-luts/Phantom Luts/Apple Log Phantom LUTS/iPhone 15 Phantom ARRI LUTs/33x/Utopia iPhone15_33x.cube
TITLE "Generated by Resolve"
LUT_3D_SIZE 33
0 0.0272374 0.0352636
0 0.0272374 0.0352636
0 0.0272526 0.0352636
0 0.0272526 0.0352636
0 0.0272221 0.0352331
0.0146639 0.0261082 0.0341039
0.0611429 0.0241398 0.0332952
0.112001 0.0225528 0.0299229
0.164813 0.0202182 0.0260014
0.21503 0.0175784 0.0218662
0.265721 0.016083 0.0194858
0.315877 0.0148165 0.0176699
0.366552 0.0144503 0.0172885
0.417197 0.0150912 0.020737
0.467796 0.0185855 0.0302281
0.519448 0.0284733 0.0522621
0.574273 0.0432288 0.0802472
0.631861 0.0550088 0.103731
0.692912 0.0654459 0.127565
0.753506 0.0757763 0.152682
0.800641 0.0851606 0.179416
0.808484 0.0902266 0.203601
0.804303 0.0784924 0.22153
0.801389 0.0762951 0.252155
0.800504 0.0815747 0.290517
0.801358 0.0933242 0.334768
0.798352 0.0989395 0.390921
0.793774 0.0969406 0.446326
0.792432 0.0951247 0.493111
0.791012 0.0938735 0.538827
0.78381 0.0861524 0.579004
0.770748 0.0713664 0.607797
0.771313 0.0673686 0.613077
0 0.0271916 0.0352026
0 0.0272374 0.0352483
0 0.0272526 0.0352789
0 0.0272679 0.0352789
0 0.0272526 0.0352636
0.00138857 0.0271611 0.0350042
0.0275273 0.0254368 0.0356146
0.0717632 0.0238499 0.0320287
0.122835 0.023209 0.0285191
0.174685 0.020264 0.0233768
0.231327 0.017319 0.0186923
0.28864 0.0148623 0.0149538
0.348501 0.0131533 0.0126192
0.407507 0.0113832 0.0123293
0.459464 0.010956 0.0140841
0.505089 0.0110323 0.0166171
0.550546 0.0128634 0.0224308
0.599756 0.0158999 0.0318151
0.659693 0.0297856 0.062974
0.730663 0.0571908 0.112932
0.783413 0.0781262 0.151415
0.800244 0.0849622 0.179171
0.80763 0.0873884 0.20795
0.801968 0.0750896 0.231495
0.801144 0.0787518 0.271931
0.800931 0.0881819 0.318242
0.800702 0.099321 0.374334
0.794736 0.0972915 0.435996
0.792935 0.0951247 0.486839
0.791821 0.0941024 0.533608
0.785092 0.0870069 0.575967
0.77229 0.0723888 0.605905
0.773632 0.0693523 0.6112
0 0.0271916 0.0352026
0 0.0272374 0.0352483
0 0.0272679 0.0352789
0 0.0272679 0.0352941
0 0.0272526 0.0352789
0 0.0272068 0.0352026
0.0139467 0.0261845 0.0339971
0.0480354 0.0256352 0.0343175
0.0923781 0.0277104 0.0320287
0.13727 0.0280461 0.0289921
0.189868 0.0259098 0.0241398
0.249882 0.0221561 0.0190738
0.319295 0.0170291 0.0140841
0.38735 0.0133516 0.0118563
0.451255 0.0105592 0.0126497
0.501671 0.0108797 0.0162509
0.547463 0.0117647 0.0202945
0.595102 0.0122835 0.0248264
0.648325 0.018265 0.0369879
0.707515 0.0317693 0.0670634
0.766476 0.0619364 0.12398
0.790845 0.0810254 0.162387
0.806348 0.0878309 0.194247
0.806439 0.0817121 0.222553
0.80264 0.0766766 0.258488
0.801877 0.084947 0.305913
0.801999 0.0984512 0.362081
0.795514 0.0975967 0.427161
0.793194 0.0952316 0.480903
0.792569 0.0942245 0.528801
0.786465 0.0878004 0.573068
0.774746 0.0737163 0.604471
0.77557 0.0702678 0.609491
0 0.0272068 0.0352178
0 0.0272374 0.0352636
0 0.0272679 0.0352789
0 0.0272831 0.0353094
0 0.0272831 0.0352941
0 0.0272374 0.0352636
0.00636301 0.0269169 0.0343175
0.0323644 0.0268101 0.0357366
0.0723583 0.0307012 0.0344396
0.113542 0.0340124 0.0332189
0.16318 0.0336461 0.0290837
0.22182 0.0303349 0.0237888
0.290822 0.0239872 0.0177768
0.366293 0.0169223 0.0129397
0.435492 0.0116121 0.0110628
0.495796 0.0108339 0.0149844
0.545373 0.0116732 0.0200198
0.593301 0.0118868 0.0240177
0.643458 0.0146639 0.0294804
0.698039 0.0242771 0.0469062
0.746242 0.0408179 0.090959
0.780072 0.0745708 0.145174
0.800641 0.0851911 0.180377
0.807614 0.0851606 0.213443
0.803418 0.0754864 0.246876
0.803082 0.0821546 0.295964
0.802716 0.0955825 0.352758
0.796857 0.097673 0.418982
0.793515 0.0953689 0.475105
0.792996 0.0944076 0.523812
0.787259 0.0885939 0.569757
0.776242 0.0750591 0.602899
0.777127 0.071397 0.608133
0 0.0272068 0.0352178
0 0.0272374 0.0352636
0 0.0272679 0.0352941
0 0.0272831 0.0353094
0 0.0272831 0.0353094
0 0.0272526 0.0352636
0.00236515 0.0271916 0.0349126
0.0220188 0.0280308 0.0355535
0.0583963 0.0333867 0.0367285
0.0991989 0.0380102 0.0360876
0.147738 0.0386664 0.0320134
0.206531 0.0346227 0.0256657
0.274128 0.0282139 0.0200961
0.350774 0.0203403 0.0145266
0.425696 0.0127871 0.0108186
0.488029 0.0105898 0.0132906
0.543145 0.0116274 0.0198825
0.592676 0.0115511 0.0235752
0.644938 0.0137789 0.0279393
0.695903 0.0193637 0.0366217
0.732723 0.0310521 0.0608988
0.76463 0.0585031 0.119951
0.793317 0.0819104 0.166873
0.806806 0.0853895 0.203128
0.803189 0.0750439 0.236774
0.803052 0.0801251 0.28603
0.80322 0.0933547 0.343389
0.798352 0.0976577 0.410651
0.794156 0.0954452 0.469612
0.793286 0.0944839 0.51902
0.787686 0.0894789 0.566354
0.776654 0.0770123 0.599695
0.775158 0.0737163 0.604639
0 0.0271611 0.0351568
0 0.0271763 0.0351873
0 0.0271916 0.0352026
0 0.0272068 0.0352178
0 0.0272068 0.0352178
0 0.0271916 0.0352026
0.000564584 0.0272374 0.035111
0.0155795 0.0288853 0.0349584
0.0472267 0.0359808 0.0380407
0.0880751 0.0419776 0.038056
0.137636 0.0412451 0.034165
0.195682 0.0379187 0.0278325
0.262364 0.0318608 0.0207523
0.337697 0.0237125 0.0162051
0.415869 0.0145418 0.01149
0.481956 0.0104982 0.0120394
0.539544 0.0113222 0.0187076
0.591333 0.0115358 0.0234379
0.64419 0.0134432 0.0275883
0.695888 0.0188296 0.0338445
0.727764 0.0256657 0.0496986
0.74905 0.0434272 0.0919509
0.786068 0.0787671 0.154986
0.805249 0.0867628 0.194797
0.804654 0.0776074 0.229358
0.803082 0.0786603 0.277012
0.803632 0.0915389 0.334478
0.799634 0.097734 0.402533
0.795163 0.0953231 0.465202
0.794095 0.0942092 0.515465
0.788815 0.090013 0.563104
0.778042 0.0783246 0.597787
0.776257 0.0747997 0.603265
0 0.0276341 0.0354009
0 0.0274357 0.0352789
0 0.0272831 0.0352331
0 0.0272221 0.0352178
0 0.0272068 0.0352178
0 0.0272068 0.0352178
0.000701915 0.0275883 0.0353246
0.0132906 0.0303197 0.0357519
0.0396429 0.0391546 0.0388647
0.0798047 0.0453651 0.0395361
0.12929 0.0437324 0.0362554
0.187564 0.0406195 0.0296941
0.254307 0.0347143 0.0223697
0.327916 0.0267185 0.0176242
0.406104 0.0168002 0.0125887
0.476753 0.0106508 0.0116121
0.53611 0.0112459 0.0176547
0.589792 0.0115816 0.0233616
0.643336 0.0132448 0.0273442
0.695979 0.0185855 0.0335699
0.724086 0.0228885 0.0403449
0.738521 0.0359655 0.0709392
0.775494 0.0682383 0.137209
0.801938 0.0864729 0.185657
0.80679 0.0832227 0.224491
0.803403 0.0778821 0.268864
0.803769 0.0896925 0.325811
0.800534 0.0979324 0.395163
0.795926 0.0953689 0.459907
0.795193 0.0938125 0.511574
0.790509 0.0902724 0.560311
0.779889 0.079469 0.595773
0.777386 0.0758831 0.601816
0 0.0533761 0.0364538
0 0.0464637 0.0370184
0 0.0389105 0.0380865
0 0.0355688 0.038056
6.10361e-05 0.033341 0.0374609
0.0018616 0.0323033 0.0368963
0.0093843 0.0357977 0.0366217
0.0232395 0.0448615 0.0358434
0.0504768 0.0557259 0.03888
0.0845502 0.0629282 0.0421912
0.128542 0.059205 0.0422217
0.186358 0.0511025 0.035874
0.248829 0.0429541 0.0265812
0.315877 0.0331884 0.0193179
0.392737 0.0209354 0.0144503
0.469505 0.0113527 0.0111543
0.531502 0.010956 0.0163424
0.587167 0.0113069 0.0222934
0.642237 0.0129702 0.0270237
0.6963 0.0181735 0.0331121
0.72575 0.0220493 0.0377356
0.730541 0.0272221 0.053666
0.760937 0.0533455 0.11223
0.795865 0.0830549 0.171923
0.806516 0.0832837 0.213504
0.803357 0.0765698 0.257404
0.803677 0.0870222 0.315999
0.801877 0.0982528 0.384039
0.796384 0.0956741 0.452277
0.795789 0.0936751 0.506325
0.792615 0.0905776 0.556161
0.782818 0.0802777 0.593668
0.779568 0.0770275 0.599939
0 0.105516 0.0327916
0 0.10428 0.0267338
0 0.0914168 0.0294347
0 0.080705 0.0312657
0 0.0731518 0.0316625
0.00595102 0.0685588 0.0299992
0.019379 0.0722362 0.0285191
0.0381781 0.076524 0.0286259
0.0660868 0.0859388 0.0336919
0.103136 0.0937667 0.0431983
0.142397 0.0953841 0.045716
0.196902 0.0849317 0.0462348
0.260182 0.0685893 0.0405127
0.323949 0.0556344 0.031632
0.382681 0.0420386 0.0228428
0.446036 0.0248722 0.0169223
0.520119 0.0117037 0.0149386
0.58233 0.0110323 0.0208896
0.64036 0.0127718 0.0267948
0.695399 0.0179141 0.0328832
0.72668 0.0218204 0.0374456
0.724163 0.0225986 0.0388495
0.742794 0.0390478 0.0763104
0.784161 0.0747539 0.150317
0.806012 0.0846113 0.199924
0.803357 0.0754406 0.242664
0.803342 0.0835737 0.301503
0.802823 0.0974746 0.369635
0.796902 0.0961624 0.441871
0.795895 0.093843 0.498573
0.797284 0.0899062 0.552514
0.790158 0.0795758 0.593088
0.787869 0.0763561 0.601236
0 0.148608 0.0385595
0 0.153017 0.0129702
0 0.143359 0.0155642
0 0.130449 0.0183871
0 0.121492 0.019379
0.000640879 0.116686 0.0175326
0.0156252 0.118517 0.016083
0.0454414 0.119814 0.019501
0.0793622 0.119615 0.0261692
0.111879 0.126253 0.0344549
0.157565 0.132433 0.0438849
0.209201 0.127169 0.0481575
0.273198 0.113298 0.0504311
0.3411 0.096788 0.0499428
0.408515 0.0778821 0.044358
0.46302 0.0619364 0.0354162
0.505089 0.0388647 0.0269169
0.555001 0.0172122 0.0191196
0.62916 0.0126802 0.024033
0.690242 0.0184634 0.0334173
0.723812 0.0224765 0.0382239
0.722774 0.0228428 0.0386664
0.724926 0.0236667 0.0466773
0.758175 0.0501564 0.106477
0.799481 0.084947 0.179889
0.806531 0.0822614 0.227939
0.803052 0.0798352 0.282795
0.802853 0.0944533 0.351354
0.797482 0.0968948 0.427054
0.79617 0.0939803 0.488792
0.796628 0.0914778 0.542504
0.791913 0.0819562 0.58703
0.790768 0.0779889 0.597009
0 0.191455 0.0433814
0 0.201328 0
0 0.196338 0
0 0.183505 0.0011902
0 0.17023 0.00425727
0 0.163546 0.00460822
0 0.16321 0.00112917
0.0251926 0.167239 0.00299077
0.0725261 0.166873 0.0102388
0.117754 0.163745 0.0222171
0.161044 0.168673 0.0326085
0.220508 0.174502 0.0420386
0.28423 0.167376 0.05066
0.356146 0.154101 0.0588083
0.428305 0.139757 0.0649577
0.495506 0.118273 0.0654459
0.544991 0.0974289 0.0584421
0.578088 0.0693217 0.049012
0.604517 0.035584 0.0336767
0.665827 0.0162203 0.0271305
0.722805 0.0222019 0.0377508
0.723354 0.0226902 0.0384833
0.722148 0.0230106 0.0388647
0.732174 0.0299687 0.0587167
0.778149 0.0672007 0.139116
0.806668 0.0824598 0.202701
0.80444 0.0764019 0.257206
0.804425 0.0897231 0.32636
0.800153 0.097322 0.406256
0.796887 0.0942397 0.474968
0.797864 0.0921035 0.530678
0.794247 0.0844739 0.57879
0.793423 0.0805524 0.590463
0 0.239582 0.047013
0 0.250263 1.5259e-05
0 0.249424 0
0 0.244465 0
0 0.230228 0
0 0.217929 0
0 0.212787 0
0 0.214237 0
0.0220645 0.220417 0
0.0858015 0.222568 0
0.158679 0.21561 0.0168307
0.218479 0.218173 0.030396
0.290776 0.224598 0.0406195
0.362615 0.216587 0.0548867
0.438514 0.204318 0.0686351
0.510277 0.189792 0.0817121
0.574289 0.168414 0.0890822
0.624048 0.144625 0.0886854
0.657359 0.117784 0.077821
0.681178 0.0747234 0.0608225
0.699474 0.0266728 0.0345769
0.724102 0.0221866 0.0366522
0.724392 0.0224308 0.0381628
0.723476 0.0226596 0.0384527
0.741253 0.0370947 0.0722972
0.793011 0.0808728 0.165927
0.808255 0.083238 0.228977
0.804334 0.0817426 0.294347
0.803449 0.0972457 0.374578
0.798077 0.0949722 0.454368
0.799008 0.0922866 0.514687
0.79765 0.0868391 0.567834
0.79707 0.0835126 0.581064
0 0.291981 0.0526436
0 0.303319 1.5259e-05
0 0.30721 0
0 0.30454 0
0 0.300191 0
0 0.289418 0
0 0.278416 0
0 0.269627 0
0 0.270878 0
0.0130465 0.280247 0
0.0983597 0.285039 0
0.20444 0.274037 0.0162051
0.281163 0.272526 0.029984
0.362799 0.280705 0.0411078
0.439902 0.272587 0.0598459
0.516121 0.261173 0.0800031
0.588098 0.244099 0.101137
0.646677 0.228092 0.115328
0.697139 0.196963 0.119936
0.738506 0.170382 0.11165
0.763134 0.130983 0.0931411
0.761852 0.0669413 0.0641947
0.726635 0.023682 0.0350958
0.724361 0.0223697 0.0379339
0.723827 0.0225681 0.0383459
0.747829 0.0436866 0.0818799
0.800443 0.0847791 0.183154
0.804761 0.075761 0.248997
0.804639 0.0901045 0.331685
0.799786 0.096437 0.421561
0.798856 0.0929274 0.492424
0.799634 0.0895705 0.550195
0.800031 0.0869917 0.565805
0 0.350271 0.0605478
0 0.362936 0.0172427
0 0.368688 0
0 0.372519 0
0 0.371191 0
0 0.368322 0
0 0.363561 0
0 0.351476 0
0 0.337179 0
0 0.335531 0
0.00497444 0.346761 0
0.114366 0.353902 0
0.255299 0.337163 0.0168307
0.348699 0.331823 0.0327001
0.437247 0.342947 0.0439765
0.514702 0.338003 0.0657816
0.590082 0.325444 0.0926833
0.65774 0.30695 0.121736
0.716075 0.288746 0.141588
0.767391 0.26247 0.151415
0.811612 0.226627 0.147387
0.837324 0.192218 0.131014
0.810864 0.139483 0.101579
0.756268 0.0530404 0.0561074
0.724361 0.0223545 0.036286
0.723796 0.0225834 0.0383612
0.749645 0.0458381 0.0846418
0.801938 0.0792248 0.192248
0.804593 0.0783856 0.274327
0.80351 0.0958419 0.368429
0.798047 0.0947127 0.458747
0.799115 0.0920424 0.522652
0.799741 0.090959 0.540413
0 0.416785 0.0780652
0 0.430701 0.0438544
0 0.440208 0.0162051
0 0.444724 0
0 0.449149 0
0 0.45098 0
0 0.45127 0
0 0.448692 0
0 0.445197 0
0 0.421088 0
0 0.41323 0
0.00961318 0.424247 0
0.143725 0.430518 0
0.315068 0.407172 0.0198062
0.421027 0.396323 0.038941
0.511986 0.409003 0.0504311
0.585733 0.406897 0.074052
0.655375 0.394873 0.108873
0.72076 0.37615 0.13959
0.780575 0.35111 0.164736
0.830915 0.32903 0.178164
0.871702 0.294514 0.182589
0.87248 0.255985 0.168826
0.852842 0.210788 0.142779
0.812314 0.141558 0.102831
0.743023 0.0404669 0.0477455
0.723705 0.0225528 0.0380865
0.747814 0.0440833 0.0816358
0.803983 0.0799725 0.199939
0.804929 0.082002 0.294408
0.801953 0.0971389 0.399603
0.798749 0.0932326 0.484901
0.799908 0.0922255 0.503624
0 0.490166 0.113512
0 0.506294 0.0836194
0 0.516304 0.063386
0 0.524086 0.0427558
0 0.528878 0.00830091
0 0.531945 0
0 0.535622 0
0 0.539696 0
0 0.542275 0
0 0.538903 0
0 0.517754 0
0 0.503563 0
0.0350805 0.514366 0
0.195102 0.513802 0
0.385824 0.478447 0.0254673
0.49424 0.462608 0.05037
0.583902 0.472633 0.0674754
0.652903 0.476265 0.0877546
0.716396 0.464515 0.126299
0.780697 0.44564 0.154894
0.838209 0.41944 0.181735
0.887358 0.393332 0.199756
0.902449 0.369085 0.202808
0.893431 0.335866 0.195987
0.881178 0.286168 0.182605
0.860151 0.225803 0.151629
0.805127 0.130159 0.096788
0.728313 0.0261845 0.0385595
0.736736 0.0323033 0.06421
0.801343 0.0785382 0.193973
0.805844 0.0839246 0.303212
0.801007 0.0962539 0.417655
0.799908 0.0947738 0.446571
0 0.568475 0.16643
0 0.582513 0.141878
0 0.592493 0.125277
0 0.601129 0.11046
0 0.607874 0.0950942
0 0.613764 0.0755169
0 0.617151 0.0470741
0.00047303 0.619791 0.00738537
0.0101167 0.624613 0
0.0147097 0.633387 0
0.0147402 0.633173 0
0.0099794 0.614176 0
0.00608835 0.59527 0
0.0831159 0.604654 0
0.267887 0.59263 0
0.457771 0.548348 0.0355993
0.564935 0.528069 0.0703746
0.6533 0.534874 0.0898756
0.720897 0.540017 0.107271
0.778912 0.531701 0.141436
0.839307 0.51426 0.168048
0.893111 0.490486 0.195117
0.921935 0.465507 0.210468
0.919844 0.437781 0.211749
0.913451 0.410101 0.209171
0.903517 0.373587 0.203693
0.888899 0.317861 0.191959
0.862974 0.235264 0.157168
0.783825 0.0956893 0.0814374
0.721401 0.0226902 0.0371557
0.788373 0.0729229 0.164416
0.806134 0.0816968 0.291875
0.806592 0.0892195 0.326863
0 0.643961 0.230533
0 0.655482 0.208988
0 0.664088 0.194522
0 0.671321 0.18146
0 0.678065 0.170062
0 0.683818 0.15877
0 0.689876 0.147311
0 0.696483 0.127916
0.00396735 0.702541 0.0830854
0.019913 0.707225 0.0196536
0.0356909 0.719326 0
0.0388495 0.722377 0
0.0323796 0.70425 0
0.0298009 0.682811 0
0.141924 0.690425 0
0.350271 0.66804 0.00311284
0.531258 0.619074 0.0510414
0.636255 0.595102 0.0916457
0.720668 0.598581 0.112001
0.787289 0.602197 0.125261
0.841993 0.597696 0.151995
0.893492 0.584619 0.180804
0.928283 0.567132 0.195132
0.928237 0.547707 0.199908
0.926452 0.524376 0.2038
0.924422 0.495003 0.20763
0.92134 0.455406 0.210819
0.912993 0.408682 0.208804
0.89604 0.345357 0.197879
0.86479 0.240116 0.159243
0.770382 0.0775158 0.0704509
0.754833 0.045304 0.0873121
0.789242 0.0740978 0.149523
0 0.716884 0.300908
0 0.72517 0.280156
0 0.731655 0.266911
0 0.737606 0.255833
0 0.742824 0.245365
0 0.74815 0.23653
0 0.753231 0.22739
0 0.760021 0.215579
0 0.769238 0.199344
0.00648508 0.780652 0.16611
0.0263066 0.787289 0.0843214
0.0604257 0.799191 1.5259e-05
0.0771496 0.807324 0
0.0687724 0.786542 0
0.0705272 0.769192 0
0.207172 0.772091 0
0.432685 0.738354 0.0233768
0.602625 0.684855 0.0682231
0.703395 0.659068 0.111192
0.775128 0.655787 0.136995
0.849897 0.662196 0.142016
0.901915 0.662638 0.157015
0.934417 0.65272 0.184665
0.93431 0.64181 0.18909
0.932525 0.627253 0.190768
0.931334 0.608667 0.192905
0.930358 0.584298 0.194568
0.928542 0.551812 0.199008
0.925536 0.508888 0.205325
0.920913 0.449073 0.210407
0.90518 0.378439 0.203586
0.873915 0.263478 0.169619
0.861463 0.228855 0.151202
0 0.785794 0.372351
0 0.791623 0.35465
0 0.796124 0.342275
0 0.800153 0.331533
0 0.804181 0.322332
0 0.80766 0.313909
0 0.811566 0.30547
0 0.817258 0.295872
0 0.825071 0.282841
0 0.836439 0.265217
0.0153658 0.85098 0.235813
0.0364233 0.862791 0.158846
0.0721752 0.873487 0.0442206
0.115587 0.886809 0
0.101396 0.858045 0
0.118395 0.85124 0
0.277974 0.84686 0
0.514138 0.800778 0.0469673
0.670787 0.746578 0.0846723
0.767575 0.720272 0.128511
0.836072 0.71397 0.151537
0.906142 0.719203 0.15877
0.950881 0.720195 0.166934
0.951583 0.713527 0.172152
0.948577 0.705058 0.172702
0.945205 0.694591 0.174273
0.941817 0.680461 0.179629
0.938003 0.662379 0.184695
0.934356 0.639933 0.188724
0.93138 0.609308 0.191623
0.929366 0.566888 0.195361
0.925643 0.510048 0.203952
0.924666 0.495613 0.205509
0 0.849805 0.442191
0 0.853407 0.428962
0 0.856092 0.418601
0 0.858595 0.409384
0 0.860578 0.40029
0 0.862638 0.392065
0 0.86508 0.384482
0 0.868803 0.374884
0 0.874662 0.363546
0 0.88304 0.348348
0.00564584 0.895674 0.328481
0.0256657 0.913069 0.300023
0.0486 0.9308 0.23328
0.0909895 0.943191 0.0908827
0.1608 0.955962 0.0236362
0.144183 0.926741 0.00686656
0.196292 0.92462 0.00378424
0.35787 0.911925 0.0138094
0.594873 0.853483 0.0706951
0.73463 0.802792 0.102159
0.826291 0.776608 0.144167
0.891493 0.769268 0.165576
0.95465 0.773236 0.177325
0.974624 0.76936 0.181262
0.971389 0.762615 0.180453
0.968246 0.75552 0.179232
0.964858 0.747509 0.177401
0.960891 0.737835 0.174899
0.956191 0.726238 0.173114
0.951049 0.711742 0.172641
0.945159 0.693187 0.174823
0.9393 0.66743 0.182437
0.938293 0.662181 0.183749
0 0.907286 0.507179
0 0.909453 0.497063
0 0.910903 0.489464
0 0.911711 0.482246
0 0.912703 0.4757
0 0.913664 0.468925
0 0.914839 0.461952
0 0.916854 0.453513
0 0.919997 0.44213
0 0.925231 0.427329
0.00399786 0.934066 0.41004
0.0123293 0.947982 0.386954
0.031632 0.966445 0.354513
0.0649882 0.990738 0.290929
0.116472 0.99913 0.12781
0.196689 0.998993 0.047425
0.19234 0.989517 0.0317693
0.278172 0.986007 0.0227817
0.451026 0.962615 0.0362402
0.672129 0.897658 0.0911879
0.794797 0.853544 0.119768
0.880293 0.829358 0.159258
0.941253 0.821103 0.181765
0.993454 0.824002 0.194949
0.995804 0.819089 0.194125
0.99353 0.812985 0.19379
0.990677 0.806165 0.192828
0.987579 0.798856 0.191012
0.983749 0.790112 0.188144
0.9794 0.780072 0.18468
0.974578 0.76878 0.180545
0.969055 0.755917 0.176242
0.96846 0.754421 0.175738
0 0.955291 0.569436
0 0.95671 0.561654
0 0.957397 0.555138
0 0.957778 0.549142
0 0.958114 0.543786
0 0.958602 0.538354
0 0.959213 0.533272
0.000579843 0.960021 0.526467
0.00183108 0.961501 0.51751
0.0034638 0.964385 0.505531
0.00619516 0.969253 0.489006
0.0109407 0.977707 0.466743
0.0191806 0.991592 0.43946
0.035996 0.999969 0.40351
0.0661936 0.999969 0.331945
0.118822 0.999969 0.13286
0.197467 0.999466 0.0463874
0.211444 0.999451 0.039292
0.340017 0.999924 0.0328832
0.551873 0.984833 0.0655375
0.745968 0.935958 0.114717
0.850797 0.89929 0.13901
0.929183 0.876997 0.176043
0.98471 0.868452 0.200626
0.999969 0.865843 0.212833
0.999969 0.86067 0.214115
0.999954 0.855802 0.214481
0.999115 0.849882 0.213611
0.997314 0.843168 0.212528
0.994492 0.835813 0.210849
0.993469 0.829511 0.205814
0.996872 0.82565 0.195224
0.997162 0.82594 0.194461
0.00378424 0.989288 0.629084
0.00448615 0.990555 0.622339
0.00523384 0.991424 0.616403
0.00572213 0.992096 0.611658
0.00587472 0.992569 0.606744
0.00585946 0.993057 0.60267
0.00596628 0.993362 0.597925
0.00645457 0.993805 0.592401
0.0074464 0.994568 0.585519
0.00891127 0.995682 0.576257
0.0110018 0.997147 0.56376
0.0136873 0.998947 0.546227
0.0174105 0.999969 0.520073
0.0213626 0.999969 0.482811
0.028275 0.999969 0.435523
0.0559854 0.999969 0.356069
0.119387 0.999969 0.126818
0.203342 0.999283 0.0407416
0.257221 0.999954 0.0344244
0.409918 0.998993 0.0368658
0.639902 0.971786 0.0897993
0.801404 0.945083 0.131609
0.902068 0.935699 0.159899
0.971969 0.919005 0.194568
0.999969 0.910582 0.221683
0.999969 0.907027 0.223194
0.999969 0.903029 0.223209
0.999969 0.898894 0.222202
0.999969 0.89485 0.220295
0.999969 0.890211 0.217655
0.999969 0.885618 0.214954
0.999969 0.880278 0.21265
0.999969 0.880751 0.212192
0.0040589 0.981857 0.682795
0.0041352 0.983185 0.677852
0.00434882 0.984344 0.673167
0.0047303 0.98526 0.66923
0.00503548 0.986191 0.66511
0.00518807 0.987091 0.661265
0.00584421 0.987915 0.657115
0.00720226 0.988617 0.652369
0.0084535 0.989502 0.646311
0.00924697 0.990768 0.638483
0.00975052 0.992538 0.627329
0.0103456 0.994461 0.61297
0.0113222 0.996521 0.593942
0.0134585 0.99884 0.565957
0.0178988 0.999969 0.523003
0.0244297 0.999969 0.463478
0.051133 0.999969 0.372396
0.112001 0.999969 0.142489
0.17496 0.999908 0.0738537
0.336629 0.999939 0.0404974
0.538827 0.987442 0.0652171
0.719463 0.956466 0.112352
0.842802 0.940917 0.147173
0.931868 0.933837 0.173587
0.994888 0.933776 0.218616
0.999969 0.936019 0.241688
0.999969 0.93611 0.244205
0.999969 0.933944 0.244511
0.999969 0.930602 0.242924
0.999969 0.927275 0.240787
0.999969 0.924041 0.238941
0.999969 0.920607 0.238499
0.999969 0.921965 0.243153
0.00828565 0.968277 0.727916
0.00773632 0.969528 0.724224
0.00668345 0.970642 0.721523
0.00527962 0.971954 0.718166
0.00450141 0.973053 0.715068
0.00450141 0.973892 0.712291
0.00531014 0.974548 0.709316
0.00662242 0.975158 0.705669
0.00766003 0.975937 0.701442
0.00808728 0.977417 0.695598
0.0080415 0.979599 0.687694
0.0078584 0.982452 0.677333
0.00730907 0.986465 0.661875
0.0068513 0.991043 0.63978
0.00743114 0.995636 0.607355
0.0109865 0.999329 0.560067
0.0193332 0.999969 0.487739
0.0465095 0.999969 0.380041
0.0842908 0.999969 0.207553
0.201999 0.999969 0.136019
0.43267 0.999969 0.110185
0.649714 0.980423 0.145586
0.799161 0.951766 0.165255
0.898238 0.942458 0.193713
0.972793 0.938659 0.22678
0.999969 0.940444 0.281743
0.999969 0.941421 0.287114
0.999969 0.941619 0.289967
0.999969 0.941878 0.292882
0.999969 0.942153 0.294514
0.999969 0.94255 0.296345
0.999969 0.942992 0.299107
0.999969 0.943633 0.304433
0.0091249 0.956847 0.763424
0.00857557 0.957671 0.76144
0.00735485 0.958709 0.759106
0.00582895 0.959777 0.756832
0.00482185 0.960662 0.75465
0.00451667 0.961303 0.752926
0.00503548 0.961807 0.750927
0.00631724 0.962219 0.748547
0.00781262 0.962905 0.745373
0.00852979 0.964126 0.740841
0.00851453 0.965835 0.735515
0.00799573 0.968246 0.728252
0.00720226 0.971389 0.718639
0.00601205 0.97557 0.704662
0.00550851 0.981262 0.683604
0.00604257 0.989364 0.649393
0.00833143 0.99707 0.593286
0.0167544 0.999969 0.509407
0.0413367 0.999969 0.39469
0.0822003 0.999969 0.315312
0.291279 0.999969 0.211093
0.558267 0.999969 0.211429
0.729778 0.978363 0.236149
0.854093 0.957702 0.259785
0.943801 0.94847 0.283635
0.997635 0.947143 0.338125
0.999969 0.948135 0.349645
0.999969 0.948394 0.352621
0.999969 0.948623 0.355673
0.999969 0.948898 0.358526
0.999969 0.949218 0.361242
0.999969 0.949584 0.364385
0.999969 0.949935 0.369314
0.0115053 0.948135 0.795972
0.0108339 0.948791 0.794003
0.00952163 0.949645 0.791806
0.00790417 0.950545 0.789639
0.00669871 0.951339 0.787594
0.00607309 0.951888 0.786007
0.00634775 0.952316 0.784024
0.00755322 0.952636 0.781506
0.00907912 0.952926 0.778836
