bundles/resolve-cinematic-luts/Phantom Luts/Apple Log Phantom LUTS/iPhone 15 Phantom ARRI LUTs/33x/Utopia iPhone15_33x.cube
TITLE "Generated by Resolve"
LUT_3D_SIZE 9
0 0.0272374 0.0352636
0 0.0272221 0.0352331
0.164813 0.0202182 0.0260014
0.366552 0.0144503 0.0172885
0.574273 0.0432288 0.0802472
0.800641 0.0851606 0.179416
0.800504 0.0815747 0.290517
0.792432 0.0951247 0.493111
0.771313 0.0673686 0.613077
0 0.0272068 0.0352178
0 0.0272831 0.0353094
0.0583963 0.0333867 0.0367285
0.274128 0.0282139 0.0200961
0.543145 0.0116274 0.0198825
0.732723 0.0310521 0.0608988
0.803189 0.0750439 0.236774
0.794156 0.0954452 0.469612
0.775158 0.0737163 0.604639
0 0.105516 0.0327916
0 0.0731518 0.0316625
0.0660868 0.0859388 0.0336919
0.260182 0.0685893 0.0405127
0.520119 0.0117037 0.0149386
0.72668 0.0218204 0.0374456
0.806012 0.0846113 0.199924
0.796902 0.0961624 0.441871
0.787869 0.0763561 0.601236
0 0.291981 0.0526436
0 0.300191 0
0 0.270878 0
0.281163 0.272526 0.029984
0.588098 0.244099 0.101137
0.763134 0.130983 0.0931411
0.723827 0.0225681 0.0383459
0.804639 0.0901045 0.331685
0.800031 0.0869917 0.565805
0 0.568475 0.16643
0 0.607874 0.0950942
0.0101167 0.624613 0
0.00608835 0.59527 0
0.564935 0.528069 0.0703746
0.839307 0.51426 0.168048
0.913451 0.410101 0.209171
0.783825 0.0956893 0.0814374
0.806592 0.0892195 0.326863
0 0.849805 0.442191
0 0.860578 0.40029
0 0.874662 0.363546
0.0486 0.9308 0.23328
0.196292 0.92462 0.00378424
0.826291 0.776608 0.144167
0.971389 0.762615 0.180453
0.956191 0.726238 0.173114
0.938293 0.662181 0.183749
0.0040589 0.981857 0.682795
0.00503548 0.986191 0.66511
0.0084535 0.989502 0.646311
0.0113222 0.996521 0.593942
0.051133 0.999969 0.372396
0.538827 0.987442 0.0652171
0.994888 0.933776 0.218616
0.999969 0.930602 0.242924
0.999969 0.921965 0.243153
0.0153201 0.940551 0.831296
0.0102693 0.943236 0.823056
0.0110781 0.944701 0.813413
0.0103609 0.948577 0.795361
0.00604257 0.962371 0.748287
0.0996109 0.999969 0.488685
0.860258 0.979599 0.418082
0.999969 0.961013 0.475364
0.999969 0.962142 0.487541
0.0256504 0.928084 0.894087
0.0240177 0.928695 0.892714
0.0232548 0.929274 0.889738
0.0237125 0.930434 0.880644
0.0196689 0.936141 0.851408
0.00332647 0.974884 0.705699
0.770199 0.999969 0.592432
0.999969 0.97293 0.633768
0.999969 0.972824 0.630457
0 0.0272679 0.0352941
0.000274662 0.0272374 0.0352026
0.188128 0.0210269 0.143481
0.403815 0.0249332 0.165896
0.617945 0.0462348 0.179324
0.808057 0.0731975 0.237797
0.806088 0.0950332 0.346365
0.798611 0.0926223 0.520851
0.776715 0.0625315 0.626841
0 0.0272526 0.0352789
0 0.0272984 0.0353246
0.159396 0.0215152 0.0288243
0.370459 0.0274052 0.04448
0.586664 0.0498817 0.0996262
0.808621 0.085771 0.187778
0.805814 0.0807507 0.295247
0.796933 0.093431 0.498177
0.775723 0.065568 0.616236
0 0.13167 0.117815
0 0.136141 0.0374762
0.0951553 0.1122 0.0344854
0.310307 0.0570535 0.0328527
0.542199 0.0108949 0.0170596
0.775143 0.0634165 0.125521
0.806653 0.0747692 0.253468
0.798688 0.093492 0.475822
0.782696 0.0704662 0.610239
0 0.283574 0.156634
0 0.301549 0.055375
0 0.317021 0
0.291264 0.281712 0.0301671
0.601648 0.23505 0.104524
0.762402 0.121523 0.0876783
0.762692 0.0506905 0.107347
0.804395 0.0974746 0.382925
0.798032 0.0828565 0.582513
0 0.54432 0.239567
0 0.569299 0.168322
0 0.596048 0.115145
0.00836194 0.607401 0
0.564218 0.526787 0.0699016
0.841031 0.50544 0.170443
0.91165 0.403677 0.207797
0.780301 0.0891432 0.0775006
0.804501 0.0952926 0.379583
0 0.840726 0.473381
0 0.846448 0.439475
0 0.853758 0.404608
0.0128634 0.897551 0.308858
0.16762 0.920195 0.00236515
0.822049 0.771847 0.144259
0.969573 0.758206 0.179171
0.954269 0.721172 0.172946
0.936568 0.653361 0.185611
0.00393683 0.978912 0.693874
0.00511177 0.98294 0.678141
0.00860609 0.986389 0.66128
0.0106813 0.994446 0.612604
0.035996 0.999969 0.416938
0.52639 0.996719 0.105791
0.99501 0.938033 0.250996
0.999969 0.92842 0.281773
0.999969 0.919341 0.288777
0.0156558 0.940078 0.83357
0.0105135 0.94284 0.825101
0.0125582 0.943923 0.815564
0.010605 0.947906 0.798154
0.00611887 0.960952 0.752773
0.0911421 0.999969 0.505821
0.850126 0.984192 0.432044
0.999969 0.962234 0.487739
0.999969 0.962814 0.497826
0.0260624 0.927749 0.89572
0.0243839 0.928374 0.894194
0.0237888 0.928847 0.891875
0.0247959 0.929824 0.882933
0.020264 0.935317 0.855634
0.00373846 0.971572 0.717464
0.754925 0.999969 0.601221
0.999969 0.973419 0.642618
0.999969 0.97319 0.638972
0 0.0291142 0.114824
0.0842756 0.021561 0.132357
0.189212 0.0169985 0.184329
0.383688 0.0165408 0.2318
0.62208 0.049897 0.229984
0.807462 0.0767987 0.276219
0.804349 0.0972152 0.385809
0.797803 0.0915694 0.540322
0.776867 0.0634775 0.634379
0 0.046952 0.0668803
0 0.0288701 0.13492
0.165179 0.0193332 0.165454
0.401175 0.0244907 0.133318
0.61323 0.0480507 0.152819
0.807874 0.0763256 0.22002
0.805982 0.0906386 0.332921
0.796811 0.0933089 0.517296
0.773342 0.0637827 0.62388
0 0.135378 0.146883
0 0.129412 0.139528
0.0755322 0.109056 0.118135
0.314611 0.0768292 0.0927138
0.59324 0.0533608 0.123888
0.811872 0.0836805 0.183383
0.806134 0.0800031 0.292485
0.798886 0.0927138 0.497032
0.776989 0.0651713 0.616785
0 0.275837 0.20206
0 0.287098 0.144701
0 0.297581 0.067628
0.281544 0.278157 0.0853285
0.60293 0.233921 0.147066
0.765347 0.131762 0.118578
0.806683 0.0843214 0.18146
0.800855 0.0962387 0.419196
0.795132 0.0783551 0.595087
0 0.531807 0.283192
0 0.548745 0.223056
0 0.565835 0.166979
0.00691234 0.603387 0
0.556481 0.518853 0.0687724
0.834821 0.497139 0.173709
0.909819 0.395743 0.217487
0.799695 0.110658 0.123033
0.801709 0.0958419 0.421393
0 0.834958 0.494072
0 0.838972 0.46389
0 0.842847 0.434318
0 0.874311 0.339467
0.155047 0.909209 0
0.81796 0.766629 0.1449
0.967269 0.752895 0.179217
0.9514 0.713146 0.182971
0.938399 0.641047 0.237324
0.0039826 0.976593 0.702525
0.00523384 0.980224 0.687938
0.00828565 0.98381 0.672236
0.0111391 0.992432 0.626459
0.0292363 0.999969 0.444572
0.505364 0.999969 0.144305
0.993561 0.941772 0.281636
0.999969 0.926314 0.315999
0.999969 0.915526 0.328191
0.016022 0.939574 0.836057
0.0108186 0.942397 0.827253
0.010071 0.944106 0.818082
0.0108186 0.947341 0.800519
0.00621042 0.959854 0.756207
0.0809339 0.999969 0.519036
0.840116 0.988418 0.442573
0.999969 0.962798 0.497215
0.999969 0.963668 0.506371
0.0267948 0.92723 0.898314
0.0249943 0.927886 0.896834
0.0244602 0.928405 0.893919
0.0259251 0.929152 0.885679
0.0209201 0.934417 0.859922
0.00360113 0.967346 0.731456
0.73666 0.999969 0.611307
0.999969 0.973999 0.651148
0.999969 0.97377 0.647623
0 0.038056 0.312428
0.147738 0.0208591 0.340108
0.257328 0.0143282 0.332311
0.379934 0.0118105 0.326726
0.602594 0.0445106 0.355383
0.806683 0.0975052 0.370871
0.799985 0.0936599 0.463828
0.794003 0.0840467 0.580316
0.776532 0.0657206 0.651957
0 0.0907149 0.205463
0 0.0392462 0.330602
0.129717 0.0230259 0.359579
0.36614 0.011841 0.315557
0.609659 0.0500191 0.306447
0.807294 0.0862287 0.319936
0.800351 0.0958419 0.428367
0.795041 0.088365 0.563943
0.773266 0.0663615 0.64332
0 0.15993 0.215625
0 0.130495 0.241505
0 0.106432 0.266041
0.296361 0.0515602 0.269398
0.600824 0.0490425 0.286931
0.809339 0.0782483 0.288838
0.804639 0.0966964 0.392706
0.798291 0.0905776 0.546227
0.773816 0.0652628 0.636667
0 0.26482 0.272435
0 0.26244 0.267933
0 0.259022 0.263066
0.261204 0.289128 0.29247
0.625284 0.272892 0.280491
0.828305 0.195712 0.262242
0.808164 0.0800031 0.295491
0.798642 0.0930648 0.487007
0.783047 0.0648661 0.618402
0 0.50399 0.366003
0 0.511482 0.342596
0 0.517159 0.313237
0 0.537865 0.204517
0.537591 0.524926 0.245548
0.857221 0.514916 0.332311
0.928176 0.423545 0.351553
0.844602 0.168688 0.260288
0.799954 0.0924392 0.494194
0 0.819135 0.548699
0 0.823697 0.524163
0 0.825299 0.499443
0 0.834394 0.42858
0.0560311 0.891554 0.198138
0.8009 0.761288 0.259617
0.96733 0.735958 0.352453
0.96289 0.700252 0.363806
0.961334 0.642329 0.385046
0.00425727 0.970108 0.725155
0.00509651 0.973587 0.713008
0.00767529 0.976318 0.700114
0.0113832 0.984878 0.665324
0.0209354 0.999969 0.51133
0.454765 0.999969 0.2495
0.982574 0.943999 0.363439
0.999969 0.923003 0.403647
0.999969 0.909865 0.421607
0.0171817 0.937697 0.845853
0.0124666 0.940322 0.837217
0.0108949 0.942382 0.827176
0.0089723 0.9458 0.810407
0.00677501 0.955962 0.768505
0.0635233 0.999969 0.555505
0.817212 0.997879 0.479255
0.999969 0.965866 0.529641
0.999969 0.966552 0.538643
0.0289616 0.925826 0.904967
0.0275425 0.92639 0.903136
0.026566 0.927001 0.90045
0.0252689 0.928298 0.893187
0.0225223 0.932357 0.86981
0.0034638 0.960388 0.756741
0.718364 0.999969 0.638849
0.999969 0.97557 0.673899
0.999969 0.975204 0.669871
0 0.0534524 0.537697
0.0233921 0.0432441 0.554452
0.18526 0.0325475 0.554818
0.417105 0.0239414 0.531426
0.604623 0.0323949 0.509102
0.79881 0.0881971 0.559777
0.792187 0.0777447 0.595895
0.779263 0.0638743 0.646372
0.775067 0.0709392 0.695491
0 0.09897 0.416968
0 0.05066 0.493614
0 0.0462959 0.527184
0.354421 0.0250248 0.540978
0.593668 0.0306096 0.500648
0.80029 0.0904555 0.539651
0.796002 0.0821088 0.583505
0.776898 0.0638743 0.637705
0.771282 0.0718853 0.686885
0 0.162036 0.389364
0 0.118242 0.440375
0 0.0898604 0.442161
0.21236 0.0381628 0.483528
0.542657 0.0241703 0.45922
0.801862 0.0905623 0.530282
0.799344 0.0855573 0.569482
0.779614 0.0632792 0.629755
0.774273 0.0699779 0.682414
0 0.282109 0.382437
0 0.268025 0.390509
0 0.256565 0.398596
0.111269 0.278614 0.462364
0.559579 0.192569 0.500877
0.833616 0.184329 0.471794
0.801038 0.0904402 0.536629
0.787274 0.0739147 0.603861
0.777722 0.0666819 0.66746
0 0.489128 0.492134
0 0.485374 0.487343
0 0.480308 0.481437
0 0.467018 0.465431
0.510689 0.528832 0.522026
0.88954 0.534737 0.528344
0.945357 0.459831 0.510964
0.830488 0.163439 0.475578
0.785718 0.0701305 0.610529
0 0.785992 0.630945
0 0.785321 0.620615
0 0.783917 0.611292
0 0.785855 0.583886
0 0.791852 0.472724
0.773861 0.758404 0.48925
0.994522 0.751614 0.546868
0.994537 0.725383 0.560967
0.990051 0.66537 0.579004
0.00337224 0.956634 0.769116
0.00939956 0.957427 0.761624
0.0104372 0.959182 0.75433
0.00973526 0.965316 0.735561
0.00926223 0.989166 0.645655
0.43267 0.999969 0.499611
0.961364 0.939818 0.513252
0.999969 0.912062 0.547921
0.999969 0.900069 0.561288
0.0190738 0.933013 0.871717
0.0161746 0.934981 0.863935
0.0141604 0.936965 0.855421
0.0115816 0.94023 0.839277
0.00735485 0.947921 0.801907
0.0322881 0.997604 0.633204
0.790311 0.999969 0.571176
0.999969 0.971817 0.61355
0.999969 0.97232 0.622156
0.0310216 0.924987 0.917189
0.0310369 0.925032 0.915419
0.0297856 0.925353 0.913649
0.0284886 0.925795 0.90869
0.0243687 0.92874 0.891676
0.00683604 0.950118 0.79266
0.714275 0.999969 0.716136
0.999969 0.978515 0.726162
0.999969 0.97821 0.72192
0 0.0686809 0.659648
0 0.0696574 0.709392
0 0.0630198 0.730541
0.276967 0.0473182 0.730648
0.617151 0.0516823 0.717128
0.777081 0.0705272 0.700862
0.772885 0.0738537 0.721416
0.765805 0.0795911 0.756512
0.75816 0.0839704 0.788052
0 0.194949 0.633371
0 0.158938 0.664637
0 0.128832 0.652003
0.105425 0.0945602 0.675685
0.514748 0.0419928 0.658885
0.778134 0.0697337 0.6981
0.775097 0.0724651 0.714244
0.767498 0.078645 0.754498
0.757305 0.0842298 0.784115
0 0.249226 0.61735
0 0.217762 0.647013
0 0.20679 0.651652
0.0522164 0.15375 0.667948
0.508003 0.0927596 0.675563
0.758221 0.0579538 0.64242
0.776516 0.0716106 0.710033
0.769818 0.0772564 0.749523
0.759335 0.0834058 0.78175
0 0.363622 0.603311
0 0.340032 0.618173
0 0.327428 0.626688
0 0.297932 0.614771
0.472374 0.232395 0.704448
0.781735 0.176577 0.680537
0.77818 0.0663157 0.664805
0.771893 0.0748455 0.728435
0.763668 0.0813611 0.772732
0 0.546059 0.656733
0 0.538247 0.657954
0 0.531731 0.658457
0 0.515328 0.658198
0.380789 0.532326 0.6981
0.789212 0.432166 0.717647
0.914305 0.390082 0.713008
0.845487 0.178988 0.707973
0.773419 0.0745861 0.734401
0 0.766491 0.767483
0 0.761776 0.762158
0 0.756878 0.757153
0 0.749584 0.748806
0 0.697871 0.686442
0.745159 0.75314 0.739773
0.994919 0.759243 0.756725
0.99237 0.705989 0.756481
0.976242 0.602121 0.752865
0.0133516 0.937163 0.848585
0.0166629 0.937179 0.841459
0.0164645 0.938308 0.834394
0.0133669 0.939513 0.823453
0.00341802 0.943679 0.785168
0.409812 0.970275 0.725307
0.940658 0.924956 0.725719
0.998215 0.900847 0.743191
0.997803 0.890913 0.757366
0.0268406 0.925994 0.914183
0.024033 0.926833 0.91043
0.0251774 0.926925 0.904707
0.024445 0.928267 0.894926
0.0163424 0.933425 0.873564
0.0146487 0.951705 0.766705
0.772793 0.999969 0.733669
0.999969 0.980911 0.756222
0.999969 0.981491 0.760586
0.0404059 0.928298 0.948394
0.0367895 0.925078 0.939559
0.0355688 0.923796 0.934844
0.0336004 0.924239 0.931395
0.0296788 0.925185 0.923293
0.0140536 0.935607 0.863539
0.711757 0.999969 0.827405
0.999619 0.986542 0.812924
0.999741 0.986328 0.809552
0 0.381613 0.775799
0 0.372503 0.779065
0 0.348455 0.763882
0.0492866 0.349874 0.812863
0.423087 0.296117 0.865705
0.775174 0.23949 0.837827
0.82182 0.157 0.816236
0.754406 0.0856184 0.787457
0.757656 0.0842756 0.790936
0 0.435676 0.776928
0 0.427314 0.782132
0 0.398169 0.762066
0.0171359 0.405585 0.799451
0.401175 0.34992 0.870466
0.770169 0.280232 0.841871
0.854078 0.205692 0.830701
0.756664 0.0847028 0.789822
0.757656 0.0842756 0.791012
0 0.462196 0.779232
0 0.453346 0.783475
0 0.425391 0.764355
0 0.431037 0.789868
0.387304 0.379126 0.870573
0.763622 0.301305 0.842481
0.867506 0.232288 0.831769
0.756954 0.0845808 0.790021
0.75761 0.0843061 0.790829
0 0.528069 0.787854
0 0.514504 0.791821
0 0.509407 0.789303
0 0.48423 0.773312
0.352102 0.45391 0.865782
0.752407 0.360449 0.850858
0.883131 0.297292 0.830442
0.813458 0.14374 0.813626
0.757855 0.084184 0.791287
0 0.642496 0.821653
0 0.634668 0.822324
0 0.627741 0.821118
0 0.591653 0.791028
0.279133 0.604227 0.806729
0.738308 0.522072 0.88954
0.894881 0.431067 0.834577
0.885359 0.346929 0.830762
0.846159 0.191333 0.834806
0 0.791119 0.875807
0 0.785016 0.872694
0 0.779171 0.86923
0 0.769375 0.865553
0 0.723064 0.820279
0.668971 0.759701 0.89189
0.955978 0.683162 0.892607
0.943954 0.629664 0.878691
0.921584 0.558892 0.864683
0.0298161 0.923339 0.929183
0.0283055 0.921798 0.926848
0.0292668 0.919005 0.922698
0.0261845 0.914443 0.917754
0.0172885 0.908232 0.910796
0.427543 0.873472 0.869718
0.917174 0.91751 0.906767
0.998505 0.908522 0.905257
0.997406 0.892226 0.910597
0.0476081 0.930495 0.960601
0.0480354 0.930343 0.96051
0.0473945 0.930648 0.959152
0.0451362 0.929519 0.954925
0.0319219 0.92459 0.935058
0.057847 0.923522 0.87071
0.770977 0.99733 0.913207
0.997223 0.992096 0.900313
0.996674 0.992355 0.902678
0.0477455 0.930449 0.960586
0.047715 0.930465 0.960601
0.0475013 0.930694 0.960357
0.0474403 0.930694 0.960372
0.0472877 0.930663 0.960433
0.0263676 0.923125 0.923949
0.697032 0.970825 0.928084
0.986572 0.993927 0.91754
0.996139 0.992844 0.91693
0 0.636393 0.839689
0 0.634577 0.836469
0 0.643229 0.840711
0.157549 0.648096 0.837339
0.412787 0.657053 0.880568
0.747356 0.595148 0.949248
0.908614 0.522133 0.894621
0.898573 0.470512 0.882734
0.891371 0.426856 0.875547
0 0.655955 0.847807
0 0.651362 0.843824
0 0.655192 0.844083
0.151766 0.661891 0.841093
0.410651 0.67245 0.876661
0.7467 0.61384 0.953887
0.911116 0.537514 0.898421
0.900572 0.48423 0.886015
0.892393 0.437369 0.876967
0 0.668467 0.852323
0 0.659892 0.846952
0 0.658732 0.842618
0.142565 0.667521 0.842969
0.403876 0.67863 0.873549
0.741268 0.621973 0.956039
0.911742 0.542535 0.899336
0.901427 0.488792 0.886915
0.891951 0.43624 0.876692
0 0.691142 0.862715
0 0.679728 0.854978
0 0.675334 0.849439
0.110567 0.68336 0.85098
0.387106 0.695766 0.86894
0.729198 0.648432 0.962127
0.916609 0.564782 0.903777
0.90663 0.51223 0.892012
0.894926 0.456825 0.880537
0 0.753124 0.884459
0 0.729747 0.87396
0 0.719173 0.863523
0 0.713329 0.858274
0.348241 0.729503 0.869657
0.69984 0.716091 0.969543
0.930495 0.631113 0.92166
0.921721 0.585962 0.908858
0.910979 0.535866 0.898085
0 0.83653 0.919951
0 0.831205 0.917784
0 0.826169 0.914733
0 0.794308 0.893339
0.188098 0.787289 0.890944
0.656397 0.810864 0.935561
0.943938 0.768719 0.967483
0.962142 0.730739 0.951263
0.951705 0.700069 0.942504
0.0478065 0.930098 0.960449
0.047776 0.929778 0.960266
0.0465248 0.929458 0.959915
0.0444495 0.926177 0.957885
0.0126345 0.884565 0.920638
0.489189 0.880186 0.932464
0.885252 0.928954 0.981521
0.994629 0.901778 0.985275
0.992264 0.889815 0.984436
0.0476081 0.93051 0.960616
0.0482643 0.930266 0.96051
0.0474708 0.930571 0.960586
0.0475471 0.930694 0.960296
0.0482032 0.930282 0.96051
0.171618 0.914076 0.926101
0.792737 0.974624 0.985718
0.994888 0.993362 0.99266
0.994339 0.993484 0.993118
0.0476081 0.93051 0.960601
0.0486 0.930144 0.960433
0.047303 0.930648 0.960464
0.0474708 0.930694 0.960372
0.0472572 0.930678 0.960372
0.0231632 0.912734 0.926848
0.715282 0.959777 0.976104
0.980743 0.993957 0.993652
0.994339 0.993484 0.993118
0.177951 0.787228 0.891142
0.241932 0.786664 0.891279
0.279957 0.787854 0.892805
0.371679 0.791989 0.898314
0.550088 0.80795 0.912306
0.762737 0.826917 0.96936
0.968338 0.779599 0.965896
0.965972 0.742077 0.954147
0.952712 0.701228 0.942321
0.179187 0.793088 0.893523
0.239857 0.792035 0.893507
0.27747 0.792645 0.894713
0.36936 0.796338 0.900343
0.550958 0.811795 0.913878
0.763104 0.831846 0.967742
0.968826 0.783764 0.967193
0.966751 0.74725 0.956268
0.954452 0.707225 0.943999
0.176287 0.796445 0.895018
0.234333 0.794629 0.894392
0.270787 0.794385 0.894942
0.362371 0.797314 0.900145
0.546471 0.812711 0.91371
0.759884 0.833661 0.965606
0.968261 0.785946 0.968032
0.968917 0.753491 0.95848
0.95639 0.713115 0.946136
0.159792 0.804959 0.899184
0.216419 0.801266 0.896986
0.252033 0.799695 0.896574
0.343236 0.8009 0.900557
0.534966 0.814786 0.913695
0.753353 0.839078 0.960479
0.965469 0.797864 0.970642
0.972396 0.765103 0.961379
0.960754 0.729076 0.951171
0.0966812 0.825254 0.908019
0.159319 0.821485 0.905653
0.197879 0.817075 0.902617
0.294041 0.813397 0.902098
0.50341 0.824094 0.916548
0.74139 0.85417 0.954192
0.959991 0.824903 0.977172
0.978698 0.798306 0.968597
0.972473 0.767773 0.962798
0.00273136 0.858854 0.912642
0.0109102 0.85716 0.912459
0.0457618 0.858824 0.915663
0.159976 0.851804 0.912902
0.397864 0.848005 0.918685
0.716884 0.881498 0.954406
0.940414 0.884108 0.991318
0.988663 0.85951 0.979797
0.984894 0.844251 0.978286
0.0463569 0.928588 0.957977
0.0266423 0.914748 0.934279
0.0251011 0.908751 0.926665
0.0230564 0.906188 0.922988
0.17615 0.899748 0.922103
0.589303 0.918883 0.951171
0.899229 0.957595 0.984344
0.996094 0.944259 0.990005
0.994766 0.938552 0.991165
0.051194 0.929351 0.959625
0.0496071 0.929824 0.960204
0.0476234 0.930495 0.960601
0.0472877 0.930694 0.960357
0.0216831 0.911757 0.926085
0.397986 0.915404 0.929
0.823453 0.980056 0.989471
0.994247 0.9935 0.993179
0.993561 0.993652 0.993683
0.0512093 0.929351 0.959609
0.0500343 0.929702 0.960037
0.0485695 0.930159 0.960433
0.0495918 0.929839 0.960189
0.0512551 0.929335 0.959594
0.170245 0.91368 0.925856
0.763516 0.969299 0.9823
0.982513 0.993988 0.993805
0.993561 0.993652 0.993683
