bundles/resolve-cinematic-luts/Gamut/Emma K/EK BW.cube
TITLE "EK BW"
# Contributor - Emma K Films. Version 1.0 - 09/16/2024 - Designed for Rec.709 Color Space. Copyright 2024 Gamut, LLC
LUT_3D_SIZE 5
0.0220800000 0.0220800000 0.0220800000
0.0536177500 0.0536177500 0.0536177500
0.1480210000 0.1480210000 0.1480210000
0.2594550000 0.2594550000 0.2594550000
0.3461520000 0.3461520000 0.3461520000
0.0208975000 0.0208975000 0.0208975000
0.1166690000 0.1166690000 0.1166690000
0.2262887500 0.2262887500 0.2262887500
0.3299177500 0.3299177500 0.3299177500
0.4266572500 0.4266572500 0.4266572500
0.0718140000 0.0718140000 0.0718140000
0.1633977500 0.1633977500 0.1633977500
0.3832105000 0.3832105000 0.3832105000
0.4603557500 0.4603557500 0.4603557500
0.5277055000 0.5277055000 0.5277055000
0.1781270000 0.1781270000 0.1781270000
0.2563700000 0.2563700000 0.2563700000
0.4269142500 0.4269142500 0.4269142500
0.5762320000 0.5762320000 0.5762320000
0.6191395000 0.6191395000 0.6191395000
0.3370750000 0.3370750000 0.3370750000
0.4191712500 0.4191712500 0.4191712500
0.5512600000 0.5512600000 0.5512600000
0.6913737500 0.6913737500 0.6913737500
0.7700240000 0.7700240000 0.7700240000
0.0445370000 0.0445370000 0.0445370000
0.1250465000 0.1250465000 0.1250465000
0.2501445000 0.2501445000 0.2501445000
0.3290545000 0.3290545000 0.3290545000
0.3803320000 0.3803320000 0.3803320000
0.1052392500 0.1052392500 0.1052392500
0.2285971188 0.2285971188 0.2285971188
0.3477650719 0.3477650719 0.3477650719
0.4329387688 0.4329387688 0.4329387688
0.5038862500 0.5038862500 0.5038862500
0.1530817500 0.1530817500 0.1530817500
0.2678260469 0.2678260469 0.2678260469
0.4778650750 0.4778650750 0.4778650750
0.5337013812 0.5337013812 0.5337013812
0.5848807500 0.5848807500 0.5848807500
0.2417497500 0.2417497500 0.2417497500
0.3434428312 0.3434428312 0.3434428312
0.5218451906 0.5218451906 0.5218451906
0.6690600250 0.6690600250 0.6690600250
0.6935922500 0.6935922500 0.6935922500
0.4117775000 0.4117775000 0.4117775000
0.4900380000 0.4900380000 0.4900380000
0.6165070000 0.6165070000 0.6165070000
0.7508050000 0.7508050000 0.7508050000
0.8274002500 0.8274002500 0.8274002500
0.1239720000 0.1239720000 0.1239720000
0.2130630000 0.2130630000 0.2130630000
0.3867075000 0.3867075000 0.3867075000
0.4826370000 0.4826370000 0.4826370000
0.5274855000 0.5274855000 0.5274855000
0.2134760000 0.2134760000 0.2134760000
0.3302962562 0.3302962562 0.3302962562
0.5066822188 0.5066822188 0.5066822188
0.6063722312 0.6063722312 0.6063722312
0.6532027500 0.6532027500 0.6532027500
0.3568825000 0.3568825000 0.3568825000
0.4607364312 0.4607364312 0.4607364312
0.6178420937 0.6178420937 0.6178420937
0.6940183875 0.6940183875 0.6940183875
0.7316295000 0.7316295000 0.7316295000
0.4126502500 0.4126502500 0.4126502500
0.4985622781 0.4985622781 0.4985622781
0.6332243750 0.6332243750 0.6332243750
0.7800619719 0.7800619719 0.7800619719
0.8148735000 0.8148735000 0.8148735000
0.5168715000 0.5168715000 0.5168715000
0.5853930000 0.5853930000 0.5853930000
0.7010515000 0.7010515000 0.7010515000
0.8254837500 0.8254837500 0.8254837500
0.9033645000 0.9033645000 0.9033645000
0.2199550000 0.2199550000 0.2199550000
0.3112767500 0.3112767500 0.3112767500
0.4495717500 0.4495717500 0.4495717500
0.5860880000 0.5860880000 0.5860880000
0.6460610000 0.6460610000 0.6460610000
0.3032407500 0.3032407500 0.3032407500
0.4103591156 0.4103591156 0.4103591156
0.5885178438 0.5885178438 0.5885178438
0.7118951094 0.7118951094 0.7118951094
0.7699015000 0.7699015000 0.7699015000
0.4322085000 0.4322085000 0.4322085000
0.5359898344 0.5359898344 0.5359898344
0.6851627563 0.6851627563 0.6851627563
0.7935374031 0.7935374031 0.7935374031
0.8446950000 0.8446950000 0.8446950000
0.5502162500 0.5502162500 0.5502162500
0.6516292187 0.6516292187 0.6516292187
0.7708892875 0.7708892875 0.7708892875
0.8716561219 0.8716561219 0.8716561219
0.9146370000 0.9146370000 0.9146370000
0.6689307500 0.6689307500 0.6689307500
0.7310682500 0.7310682500 0.7310682500
0.8075712500 0.8075712500 0.8075712500
0.8967362500 0.8967362500 0.8967362500
0.9702285000 0.9702285000 0.9702285000
0.3227670000 0.3227670000 0.3227670000
0.4493062500 0.4493062500 0.4493062500
0.6118280000 0.6118280000 0.6118280000
0.7266312500 0.7266312500 0.7266312500
0.7637440000 0.7637440000 0.7637440000
0.3920395000 0.3920395000 0.3920395000
0.5201170000 0.5201170000 0.5201170000
0.6719340000 0.6719340000 0.6719340000
0.7793095000 0.7793095000 0.7793095000
0.8314370000 0.8314370000 0.8314370000
0.5000595000 0.5000595000 0.5000595000
0.6028525000 0.6028525000 0.6028525000
0.7375345000 0.7375345000 0.7375345000
0.8456875000 0.8456875000 0.8456875000
0.9004285000 0.9004285000 0.9004285000
0.6072750000 0.6072750000 0.6072750000
0.6969760000 0.6969760000 0.6969760000
0.8153417500 0.8153417500 0.8153417500
0.9087627500 0.9087627500 0.9087627500
0.9630007500 0.9630007500 0.9630007500
0.7651200000 0.7651200000 0.7651200000
0.8249407500 0.8249407500 0.8249407500
0.8963015000 0.8963015000 0.8963015000
0.9636070000 0.9636070000 0.9636070000
0.9979310000 0.9979310000 0.9979310000
