bundles/resolve-cinematic-luts/Gamut/Emma K/EK BW.cube
TITLE "EK BW"
# Contributor - Emma K Films. Version 1.0 - 09/16/2024 - Designed for Rec.709 Color Space. Copyright 2024 Gamut, LLC
LUT_3D_SIZE 33
0.0220800000 0.0220800000 0.0220800000
0.0244213438 0.0244213438 0.0244213438
0.0267626875 0.0267626875 0.0267626875
0.0283150313 0.0283150313 0.0283150313
0.0305568750 0.0305568750 0.0305568750
0.0328735937 0.0328735937 0.0328735937
0.0380486250 0.0380486250 0.0380486250
0.0446527500 0.0446527500 0.0446527500
0.0536177500 0.0536177500 0.0536177500
0.0632123437 0.0632123437 0.0632123437
0.0718235625 0.0718235625 0.0718235625
0.0807763125 0.0807763125 0.0807763125
0.0927960000 0.0927960000 0.0927960000
0.1080015937 0.1080015937 0.1080015937
0.1216263750 0.1216263750 0.1216263750
0.1351152188 0.1351152188 0.1351152188
0.1480210000 0.1480210000 0.1480210000
0.1634735625 0.1634735625 0.1634735625
0.1793683125 0.1793683125 0.1793683125
0.1948841250 0.1948841250 0.1948841250
0.2100627500 0.2100627500 0.2100627500
0.2242621562 0.2242621562 0.2242621562
0.2368283125 0.2368283125 0.2368283125
0.2484327813 0.2484327813 0.2484327813
0.2594550000 0.2594550000 0.2594550000
0.2695809687 0.2695809687 0.2695809687
0.2795404375 0.2795404375 0.2795404375
0.2904935000 0.2904935000 0.2904935000
0.3023306250 0.3023306250 0.3023306250
0.3136355000 0.3136355000 0.3136355000
0.3246777500 0.3246777500 0.3246777500
0.3352226875 0.3352226875 0.3352226875
0.3461520000 0.3461520000 0.3461520000
0.0197633125 0.0197633125 0.0197633125
0.0259244375 0.0259244375 0.0259244375
0.0290784688 0.0290784688 0.0290784688
0.0306308438 0.0306308438 0.0306308438
0.0321840938 0.0321840938 0.0321840938
0.0351903125 0.0351903125 0.0351903125
0.0403555625 0.0403555625 0.0403555625
0.0480099062 0.0480099062 0.0480099062
0.0568702813 0.0568702813 0.0568702813
0.0669300312 0.0669300312 0.0669300312
0.0756731562 0.0756731562 0.0756731562
0.0863431562 0.0863431562 0.0863431562
0.0984241875 0.0984241875 0.0984241875
0.1138280313 0.1138280313 0.1138280313
0.1284200000 0.1284200000 0.1284200000
0.1428838125 0.1428838125 0.1428838125
0.1556322187 0.1556322187 0.1556322187
0.1699172500 0.1699172500 0.1699172500
0.1843326875 0.1843326875 0.1843326875
0.1980997812 0.1980997812 0.1980997812
0.2116725625 0.2116725625 0.2116725625
0.2248751875 0.2248751875 0.2248751875
0.2365113750 0.2365113750 0.2365113750
0.2478172812 0.2478172812 0.2478172812
0.2588358437 0.2588358437 0.2588358437
0.2697266563 0.2697266563 0.2697266563
0.2807427812 0.2807427812 0.2807427812
0.2918858437 0.2918858437 0.2918858437
0.3037581563 0.3037581563 0.3037581563
0.3150018437 0.3150018437 0.3150018437
0.3262499062 0.3262499062 0.3262499062
0.3381900000 0.3381900000 0.3381900000
0.3498004375 0.3498004375 0.3498004375
0.0197140000 0.0197140000 0.0197140000
0.0266887812 0.0266887812 0.0266887812
0.0313951250 0.0313951250 0.0313951250
0.0337364687 0.0337364687 0.0337364687
0.0352888125 0.0352888125 0.0352888125
0.0390347188 0.0390347188 0.0390347188
0.0447667500 0.0447667500 0.0447667500
0.0531095000 0.0531095000 0.0531095000
0.0614624375 0.0614624375 0.0614624375
0.0706155313 0.0706155313 0.0706155313
0.0804930000 0.0804930000 0.0804930000
0.0920144062 0.0920144062 0.0920144062
0.1047416250 0.1047416250 0.1047416250
0.1188806562 0.1188806562 0.1188806562
0.1341606250 0.1341606250 0.1341606250
0.1495383750 0.1495383750 0.1495383750
0.1633707500 0.1633707500 0.1633707500
0.1752725937 0.1752725937 0.1752725937
0.1888083750 0.1888083750 0.1888083750
0.2023184062 0.2023184062 0.2023184062
0.2153294375 0.2153294375 0.2153294375
0.2282874687 0.2282874687 0.2282874687
0.2403356875 0.2403356875 0.2403356875
0.2517420625 0.2517420625 0.2517420625
0.2623280625 0.2623280625 0.2623280625
0.2732038750 0.2732038750 0.2732038750
0.2844262500 0.2844262500 0.2844262500
0.2965357500 0.2965357500 0.2965357500
0.3082379375 0.3082379375 0.3082379375
0.3201489375 0.3201489375 0.3201489375
0.3312783750 0.3312783750 0.3312783750
0.3429624375 0.3429624375 0.3429624375
0.3561182500 0.3561182500 0.3561182500
0.0197140000 0.0197140000 0.0197140000
0.0251847500 0.0251847500 0.0251847500
0.0321348125 0.0321348125 0.0321348125
0.0367673125 0.0367673125 0.0367673125
0.0390839375 0.0390839375 0.0390839375
0.0440540938 0.0440540938 0.0440540938
0.0501100625 0.0501100625 0.0501100625
0.0586254062 0.0586254062 0.0586254062
0.0679079063 0.0679079063 0.0679079063
0.0765307812 0.0765307812 0.0765307812
0.0870378438 0.0870378438 0.0870378438
0.0993260625 0.0993260625 0.0993260625
0.1127652812 0.1127652812 0.1127652812
0.1266520625 0.1266520625 0.1266520625
0.1412157813 0.1412157813 0.1412157813
0.1556925937 0.1556925937 0.1556925937
0.1697493750 0.1697493750 0.1697493750
0.1828099687 0.1828099687 0.1828099687
0.1958532813 0.1958532813 0.1958532813
0.2087899375 0.2087899375 0.2087899375
0.2215392187 0.2215392187 0.2215392187
0.2340035313 0.2340035313 0.2340035313
0.2460616875 0.2460616875 0.2460616875
0.2572599375 0.2572599375 0.2572599375
0.2683426875 0.2683426875 0.2683426875
0.2797506250 0.2797506250 0.2797506250
0.2914897500 0.2914897500 0.2914897500
0.3035389375 0.3035389375 0.3035389375
0.3157281563 0.3157281563 0.3157281563
0.3283935937 0.3283935937 0.3283935937
0.3404852500 0.3404852500 0.3404852500
0.3526750312 0.3526750312 0.3526750312
0.3676677500 0.3676677500 0.3676677500
0.0204043750 0.0204043750 0.0204043750
0.0236816875 0.0236816875 0.0236816875
0.0306061875 0.0306061875 0.0306061875
0.0375562187 0.0375562187 0.0375562187
0.0441728750 0.0441728750 0.0441728750
0.0495607500 0.0495607500 0.0495607500
0.0574338125 0.0574338125 0.0574338125
0.0658028438 0.0658028438 0.0658028438
0.0745547500 0.0745547500 0.0745547500
0.0838430000 0.0838430000 0.0838430000
0.0944085625 0.0944085625 0.0944085625
0.1072449062 0.1072449062 0.1072449062
0.1208845000 0.1208845000 0.1208845000
0.1346189375 0.1346189375 0.1346189375
0.1488021250 0.1488021250 0.1488021250
0.1629647500 0.1629647500 0.1629647500
0.1766612500 0.1766612500 0.1766612500
0.1897785938 0.1897785938 0.1897785938
0.2028111875 0.2028111875 0.2028111875
0.2156837188 0.2156837188 0.2156837188
0.2283325000 0.2283325000 0.2283325000
0.2409389688 0.2409389688 0.2409389688
0.2528906250 0.2528906250 0.2528906250
0.2648104062 0.2648104062 0.2648104062
0.2764856250 0.2764856250 0.2764856250
0.2883642188 0.2883642188 0.2883642188
0.3006165625 0.3006165625 0.3006165625
0.3135547812 0.3135547812 0.3135547812
0.3264246250 0.3264246250 0.3264246250
0.3392737812 0.3392737812 0.3392737812
0.3521593750 0.3521593750 0.3521593750
0.3656260625 0.3656260625 0.3656260625
0.3799321250 0.3799321250 0.3799321250
0.0198372812 0.0198372812 0.0198372812
0.0228197187 0.0228197187 0.0228197187
0.0289798750 0.0289798750 0.0289798750
0.0366933438 0.0366933438 0.0366933438
0.0456058125 0.0456058125 0.0456058125
0.0557026563 0.0557026563 0.0557026563
0.0647862500 0.0647862500 0.0647862500
0.0739882813 0.0739882813 0.0739882813
0.0832064063 0.0832064063 0.0832064063
0.0929063125 0.0929063125 0.0929063125
0.1038164062 0.1038164062 0.1038164062
0.1161159375 0.1161159375 0.1161159375
0.1291482500 0.1291482500 0.1291482500
0.1428016563 0.1428016563 0.1428016563
0.1569068125 0.1569068125 0.1569068125
0.1707481875 0.1707481875 0.1707481875
0.1842889375 0.1842889375 0.1842889375
0.1978947812 0.1978947812 0.1978947812
0.2113261563 0.2113261563 0.2113261563
0.2242583437 0.2242583437 0.2242583437
0.2369046563 0.2369046563 0.2369046563
0.2496921562 0.2496921562 0.2496921562
0.2622972188 0.2622972188 0.2622972188
0.2750721875 0.2750721875 0.2750721875
0.2876974375 0.2876974375 0.2876974375
0.3007262813 0.3007262813 0.3007262813
0.3132297813 0.3132297813 0.3132297813
0.3271098750 0.3271098750 0.3271098750
0.3404547187 0.3404547187 0.3404547187
0.3534138438 0.3534138438 0.3534138438
0.3655848750 0.3655848750 0.3655848750
0.3785246563 0.3785246563 0.3785246563
0.3922486562 0.3922486562 0.3922486562
0.0190737500 0.0190737500 0.0190737500
0.0235830937 0.0235830937 0.0235830937
0.0281918125 0.0281918125 0.0281918125
0.0359044375 0.0359044375 0.0359044375
0.0461547500 0.0461547500 0.0461547500
0.0591394062 0.0591394062 0.0591394062
0.0719375000 0.0719375000 0.0719375000
0.0831200000 0.0831200000 0.0831200000
0.0932475625 0.0932475625 0.0932475625
0.1034880313 0.1034880313 0.1034880313
0.1147443125 0.1147443125 0.1147443125
0.1268987188 0.1268987188 0.1268987188
0.1402346250 0.1402346250 0.1402346250
0.1542169375 0.1542169375 0.1542169375
0.1689056250 0.1689056250 0.1689056250
0.1826921250 0.1826921250 0.1826921250
0.1962830625 0.1962830625 0.1962830625
0.2100397187 0.2100397187 0.2100397187
0.2235665625 0.2235665625 0.2235665625
0.2363486563 0.2363486563 0.2363486563
0.2495523125 0.2495523125 0.2495523125
0.2630317187 0.2630317187 0.2630317187
0.2761542500 0.2761542500 0.2761542500
0.2888177812 0.2888177812 0.2888177812
0.3012666250 0.3012666250 0.3012666250
0.3140982187 0.3140982187 0.3140982187
0.3273050625 0.3273050625 0.3273050625
0.3411981250 0.3411981250 0.3411981250
0.3559090625 0.3559090625 0.3559090625
0.3692266875 0.3692266875 0.3692266875
0.3813883125 0.3813883125 0.3813883125
0.3930803750 0.3930803750 0.3930803750
0.4044531875 0.4044531875 0.4044531875
0.0189260000 0.0189260000 0.0189260000
0.0235584375 0.0235584375 0.0235584375
0.0288567500 0.0288567500 0.0288567500
0.0372358750 0.0372358750 0.0372358750
0.0474116875 0.0474116875 0.0474116875
0.0614034687 0.0614034687 0.0614034687
0.0771192500 0.0771192500 0.0771192500
0.0918734687 0.0918734687 0.0918734687
0.1046924687 0.1046924687 0.1046924687
0.1165345937 0.1165345937 0.1165345937
0.1289752188 0.1289752188 0.1289752188
0.1417696250 0.1417696250 0.1417696250
0.1552563125 0.1552563125 0.1552563125
0.1691124063 0.1691124063 0.1691124063
0.1830050625 0.1830050625 0.1830050625
0.1967656250 0.1967656250 0.1967656250
0.2103995625 0.2103995625 0.2103995625
0.2240834375 0.2240834375 0.2240834375
0.2378841563 0.2378841563 0.2378841563
0.2511744688 0.2511744688 0.2511744688
0.2644829375 0.2644829375 0.2644829375
0.2776875313 0.2776875313 0.2776875313
0.2911886875 0.2911886875 0.2911886875
0.3036333125 0.3036333125 0.3036333125
0.3151224687 0.3151224687 0.3151224687
0.3281754687 0.3281754687 0.3281754687
0.3411037188 0.3411037188 0.3411037188
0.3549108750 0.3549108750 0.3549108750
0.3684173125 0.3684173125 0.3684173125
0.3809816875 0.3809816875 0.3809816875
0.3927743438 0.3927743438 0.3927743438
0.4043007813 0.4043007813 0.4043007813
0.4163654688 0.4163654688 0.4163654688
0.0208975000 0.0208975000 0.0208975000
0.0255548125 0.0255548125 0.0255548125
0.0317403750 0.0317403750 0.0317403750
0.0394530938 0.0394530938 0.0394530938
0.0505586250 0.0505586250 0.0505586250
0.0635899688 0.0635899688 0.0635899688
0.0812164375 0.0812164375 0.0812164375
0.0994570625 0.0994570625 0.0994570625
0.1166690000 0.1166690000 0.1166690000
0.1327294375 0.1327294375 0.1327294375
0.1475940625 0.1475940625 0.1475940625
0.1616183125 0.1616183125 0.1616183125
0.1744153750 0.1744153750 0.1744153750
0.1866951875 0.1866951875 0.1866951875
0.1994248125 0.1994248125 0.1994248125
0.2127144375 0.2127144375 0.2127144375
0.2262887500 0.2262887500 0.2262887500
0.2403249375 0.2403249375 0.2403249375
0.2543940625 0.2543940625 0.2543940625
0.2681496563 0.2681496563 0.2681496563
0.2811081250 0.2811081250 0.2811081250
0.2938987500 0.2938987500 0.2938987500
0.3071302500 0.3071302500 0.3071302500
0.3188860000 0.3188860000 0.3188860000
0.3299177500 0.3299177500 0.3299177500
0.3418386250 0.3418386250 0.3418386250
0.3544193750 0.3544193750 0.3544193750
0.3677543125 0.3677543125 0.3677543125
0.3803227500 0.3803227500 0.3803227500
0.3921393750 0.3921393750 0.3921393750
0.4035558125 0.4035558125 0.4035558125
0.4152028750 0.4152028750 0.4152028750
0.4266572500 0.4266572500 0.4266572500
0.0251359375 0.0251359375 0.0251359375
0.0299902500 0.0299902500 0.0299902500
0.0354116562 0.0354116562 0.0354116562
0.0430070313 0.0430070313 0.0430070313
0.0531675938 0.0531675938 0.0531675938
0.0673138125 0.0673138125 0.0673138125
0.0846787188 0.0846787188 0.0846787188
0.1058525000 0.1058525000 0.1058525000
0.1264786250 0.1264786250 0.1264786250
0.1467137500 0.1467137500 0.1467137500
0.1655795938 0.1655795938 0.1655795938
0.1824166563 0.1824166563 0.1824166563
0.1967820312 0.1967820312 0.1967820312
0.2085938438 0.2085938438 0.2085938438
0.2199824375 0.2199824375 0.2199824375
0.2319749375 0.2319749375 0.2319749375
0.2444851250 0.2444851250 0.2444851250
0.2576240938 0.2576240938 0.2576240938
0.2707937500 0.2707937500 0.2707937500
0.2838241875 0.2838241875 0.2838241875
0.2967236562 0.2967236562 0.2967236562
0.3094187500 0.3094187500 0.3094187500
0.3217169062 0.3217169062 0.3217169062
0.3332123437 0.3332123437 0.3332123437
0.3441772187 0.3441772187 0.3441772187
0.3552176250 0.3552176250 0.3552176250
0.3676728125 0.3676728125 0.3676728125
0.3803765938 0.3803765938 0.3803765938
0.3925505938 0.3925505938 0.3925505938
0.4047012187 0.4047012187 0.4047012187
0.4156258125 0.4156258125 0.4156258125
0.4267265625 0.4267265625 0.4267265625
0.4379015938 0.4379015938 0.4379015938
0.0305573750 0.0305573750 0.0305573750
0.0346726875 0.0346726875 0.0346726875
0.0405871875 0.0405871875 0.0405871875
0.0472191250 0.0472191250 0.0472191250
0.0572443750 0.0572443750 0.0572443750
0.0709341875 0.0709341875 0.0709341875
0.0881160625 0.0881160625 0.0881160625
0.1101498750 0.1101498750 0.1101498750
0.1339710000 0.1339710000 0.1339710000
0.1578712812 0.1578712812 0.1578712812
0.1803442500 0.1803442500 0.1803442500
0.2007577500 0.2007577500 0.2007577500
0.2183298125 0.2183298125 0.2183298125
0.2327189063 0.2327189063 0.2327189063
0.2444430000 0.2444430000 0.2444430000
0.2549467500 0.2549467500 0.2549467500
0.2655840000 0.2655840000 0.2655840000
0.2772727500 0.2772727500 0.2772727500
0.2888050625 0.2888050625 0.2888050625
0.3000182813 0.3000182813 0.3000182813
0.3122939375 0.3122939375 0.3122939375
0.3244345625 0.3244345625 0.3244345625
0.3360533125 0.3360533125 0.3360533125
0.3472445000 0.3472445000 0.3472445000
0.3579765625 0.3579765625 0.3579765625
0.3688239688 0.3688239688 0.3688239688
0.3810540625 0.3810540625 0.3810540625
0.3941930625 0.3941930625 0.3941930625
0.4066874375 0.4066874375 0.4066874375
0.4180291563 0.4180291563 0.4180291563
0.4286553125 0.4286553125 0.4286553125
0.4390574375 0.4390574375 0.4390574375
0.4497508125 0.4497508125 0.4497508125
0.0359788125 0.0359788125 0.0359788125
0.0413562500 0.0413562500 0.0413562500
0.0459653750 0.0459653750 0.0459653750
0.0517656875 0.0517656875 0.0517656875
0.0616876875 0.0616876875 0.0616876875
0.0748253437 0.0748253437 0.0748253437
0.0915278750 0.0915278750 0.0915278750
0.1126689375 0.1126689375 0.1126689375
0.1383270625 0.1383270625 0.1383270625
0.1659568125 0.1659568125 0.1659568125
0.1924441250 0.1924441250 0.1924441250
0.2166777500 0.2166777500 0.2166777500
0.2371033750 0.2371033750 0.2371033750
0.2546408125 0.2546408125 0.2546408125
0.2688269062 0.2688269062 0.2688269062
0.2797184062 0.2797184062 0.2797184062
0.2895336875 0.2895336875 0.2895336875
0.2994922813 0.2994922813 0.2994922813
0.3095062813 0.3095062813 0.3095062813
0.3191448437 0.3191448437 0.3191448437
0.3292246875 0.3292246875 0.3292246875
0.3399744375 0.3399744375 0.3399744375
0.3505491250 0.3505491250 0.3505491250
0.3615245313 0.3615245313 0.3615245313
0.3731647188 0.3731647188 0.3731647188
0.3840103437 0.3840103437 0.3840103437
0.3953417188 0.3953417188 0.3953417188
0.4073742187 0.4073742187 0.4073742187
0.4195690000 0.4195690000 0.4195690000
0.4306883750 0.4306883750 0.4306883750
0.4417744063 0.4417744063 0.4417744063
0.4517881250 0.4517881250 0.4517881250
0.4619753437 0.4619753437 0.4619753437
0.0421213750 0.0421213750 0.0421213750
0.0464311563 0.0464311563 0.0464311563
0.0511691875 0.0511691875 0.0511691875
0.0577545313 0.0577545313 0.0577545313
0.0667157500 0.0667157500 0.0667157500
0.0794954375 0.0794954375 0.0794954375
0.0954949375 0.0954949375 0.0954949375
0.1155741563 0.1155741563 0.1155741563
0.1410100000 0.1410100000 0.1410100000
0.1711140625 0.1711140625 0.1711140625
0.2012070625 0.2012070625 0.2012070625
0.2292635625 0.2292635625 0.2292635625
0.2533106250 0.2533106250 0.2533106250
0.2729732500 0.2729732500 0.2729732500
0.2902805000 0.2902805000 0.2902805000
0.3039760000 0.3039760000 0.3039760000
0.3150353750 0.3150353750 0.3150353750
0.3238472187 0.3238472187 0.3238472187
0.3319915625 0.3319915625 0.3319915625
0.3403065000 0.3403065000 0.3403065000
0.3488823750 0.3488823750 0.3488823750
0.3575471250 0.3575471250 0.3575471250
0.3666693125 0.3666693125 0.3666693125
0.3764271250 0.3764271250 0.3764271250
0.3873325000 0.3873325000 0.3873325000
0.3984494688 0.3984494688 0.3984494688
0.4100561250 0.4100561250 0.4100561250
0.4213183750 0.4213183750 0.4213183750
0.4330515000 0.4330515000 0.4330515000
0.4436397813 0.4436397813 0.4436397813
0.4544533750 0.4544533750 0.4544533750
0.4641495000 0.4641495000 0.4641495000
0.4744423750 0.4744423750 0.4744423750
0.0475541875 0.0475541875 0.0475541875
0.0526055313 0.0526055313 0.0526055313
0.0578197813 0.0578197813 0.0578197813
0.0639228125 0.0639228125 0.0639228125
0.0731085000 0.0731085000 0.0731085000
0.0850965312 0.0850965312 0.0850965312
0.1006258437 0.1006258437 0.1006258437
0.1199635000 0.1199635000 0.1199635000
0.1444075312 0.1444075312 0.1444075312
0.1745685000 0.1745685000 0.1745685000
0.2075079687 0.2075079687 0.2075079687
0.2380006875 0.2380006875 0.2380006875
0.2655087500 0.2655087500 0.2655087500
0.2883644375 0.2883644375 0.2883644375
0.3080679687 0.3080679687 0.3080679687
0.3243941875 0.3243941875 0.3243941875
0.3375812500 0.3375812500 0.3375812500
0.3480445000 0.3480445000 0.3480445000
0.3564366250 0.3564366250 0.3564366250
0.3633363750 0.3633363750 0.3633363750
0.3700239687 0.3700239687 0.3700239687
0.3771669375 0.3771669375 0.3771669375
0.3853717812 0.3853717812 0.3853717812
0.3938474375 0.3938474375 0.3938474375
0.4037483438 0.4037483438 0.4037483438
0.4147732500 0.4147732500 0.4147732500
0.4257070625 0.4257070625 0.4257070625
0.4361898437 0.4361898437 0.4361898437
0.4471216562 0.4471216562 0.4471216562
0.4576380937 0.4576380937 0.4576380937
0.4676610625 0.4676610625 0.4676610625
0.4778035625 0.4778035625 0.4778035625
0.4874804375 0.4874804375 0.4874804375
0.0545120625 0.0545120625 0.0545120625
0.0593753125 0.0593753125 0.0593753125
0.0654063125 0.0654063125 0.0654063125
0.0715143125 0.0715143125 0.0715143125
0.0808695625 0.0808695625 0.0808695625
0.0926386875 0.0926386875 0.0926386875
0.1071586250 0.1071586250 0.1071586250
0.1260043438 0.1260043438 0.1260043438
0.1490294375 0.1490294375 0.1490294375
0.1775994687 0.1775994687 0.1775994687
0.2112460625 0.2112460625 0.2112460625
0.2445356250 0.2445356250 0.2445356250
0.2744930000 0.2744930000 0.2744930000
0.3007054688 0.3007054688 0.3007054688
0.3225321875 0.3225321875 0.3225321875
0.3404100312 0.3404100312 0.3404100312
0.3561248750 0.3561248750 0.3561248750
0.3690471562 0.3690471562 0.3690471562
0.3786737500 0.3786737500 0.3786737500
0.3861488437 0.3861488437 0.3861488437
0.3921008750 0.3921008750 0.3921008750
0.3985484062 0.3985484062 0.3985484062
0.4059552500 0.4059552500 0.4059552500
0.4136897500 0.4136897500 0.4136897500
0.4218826250 0.4218826250 0.4218826250
0.4322229375 0.4322229375 0.4322229375
0.4419687500 0.4419687500 0.4419687500
0.4518626875 0.4518626875 0.4518626875
0.4620917500 0.4620917500 0.4620917500
0.4721323750 0.4721323750 0.4721323750
0.4815219375 0.4815219375 0.4815219375
0.4913824687 0.4913824687 0.4913824687
0.5006213750 0.5006213750 0.5006213750
0.0629189063 0.0629189063 0.0629189063
0.0678719063 0.0678719063 0.0678719063
0.0738193438 0.0738193438 0.0738193438
0.0805759688 0.0805759688 0.0805759688
0.0901222500 0.0901222500 0.0901222500
0.1021466562 0.1021466562 0.1021466562
0.1157839375 0.1157839375 0.1157839375
0.1333254063 0.1333254063 0.1333254063
0.1557082500 0.1557082500 0.1557082500
0.1822275625 0.1822275625 0.1822275625
0.2137926250 0.2137926250 0.2137926250
0.2485189062 0.2485189062 0.2485189062
0.2810813750 0.2810813750 0.2810813750
0.3091505625 0.3091505625 0.3091505625
0.3328806562 0.3328806562 0.3328806562
0.3542301562 0.3542301562 0.3542301562
0.3717703750 0.3717703750 0.3717703750
0.3862941875 0.3862941875 0.3862941875
0.3981490937 0.3981490937 0.3981490937
0.4074178438 0.4074178438 0.4074178438
0.4146244375 0.4146244375 0.4146244375
0.4207599687 0.4207599687 0.4207599687
0.4271410312 0.4271410312 0.4271410312
0.4338506250 0.4338506250 0.4338506250
0.4412222500 0.4412222500 0.4412222500
0.4488500625 0.4488500625 0.4488500625
0.4577745938 0.4577745938 0.4577745938
0.4676167500 0.4676167500 0.4676167500
0.4772694062 0.4772694062 0.4772694062
0.4869130313 0.4869130313 0.4869130313
0.4955688437 0.4955688437 0.4955688437
0.5050349375 0.5050349375 0.5050349375
0.5144602812 0.5144602812 0.5144602812
0.0718140000 0.0718140000 0.0718140000
0.0775020000 0.0775020000 0.0775020000
0.0837913125 0.0837913125 0.0837913125
0.0911193750 0.0911193750 0.0911193750
0.1007835000 0.1007835000 0.1007835000
0.1127820938 0.1127820938 0.1127820938
0.1263580000 0.1263580000 0.1263580000
0.1428762813 0.1428762813 0.1428762813
0.1633977500 0.1633977500 0.1633977500
0.1882365000 0.1882365000 0.1882365000
0.2174950000 0.2174950000 0.2174950000
0.2506559063 0.2506559063 0.2506559063
0.2848288750 0.2848288750 0.2848288750
0.3155815000 0.3155815000 0.3155815000
0.3412367500 0.3412367500 0.3412367500
0.3638211875 0.3638211875 0.3638211875
0.3832105000 0.3832105000 0.3832105000
0.4004151250 0.4004151250 0.4004151250
0.4141731875 0.4141731875 0.4141731875
0.4258209063 0.4258209063 0.4258209063
0.4345695000 0.4345695000 0.4345695000
0.4409749688 0.4409749688 0.4409749688
0.4471318125 0.4471318125 0.4471318125
0.4538073125 0.4538073125 0.4538073125
0.4603557500 0.4603557500 0.4603557500
0.4664247188 0.4664247188 0.4664247188
0.4734067500 0.4734067500 0.4734067500
0.4820902188 0.4820902188 0.4820902188
0.4918155000 0.4918155000 0.4918155000
0.5011634062 0.5011634062 0.5011634062
0.5102058750 0.5102058750 0.5102058750
0.5190171250 0.5190171250 0.5190171250
0.5277055000 0.5277055000 0.5277055000
0.0819890313 0.0819890313 0.0819890313
0.0877515625 0.0877515625 0.0877515625
0.0946540000 0.0946540000 0.0946540000
0.1022369688 0.1022369688 0.1022369688
0.1123399688 0.1123399688 0.1123399688
0.1246402813 0.1246402813 0.1246402813
0.1384480000 0.1384480000 0.1384480000
0.1542306562 0.1542306562 0.1542306562
0.1728099063 0.1728099063 0.1728099063
0.1957001250 0.1957001250 0.1957001250
0.2229948438 0.2229948438 0.2229948438
0.2540597500 0.2540597500 0.2540597500
0.2878395938 0.2878395938 0.2878395938
0.3192700937 0.3192700937 0.3192700937
0.3466692813 0.3466692813 0.3466692813
0.3716602187 0.3716602187 0.3716602187
0.3925164688 0.3925164688 0.3925164688
0.4116135625 0.4116135625 0.4116135625
0.4270005000 0.4270005000 0.4270005000
0.4408315625 0.4408315625 0.4408315625
0.4515822500 0.4515822500 0.4515822500
0.4595202500 0.4595202500 0.4595202500
0.4661459062 0.4661459062 0.4661459062
0.4730351250 0.4730351250 0.4730351250
0.4786215625 0.4786215625 0.4786215625
0.4849260938 0.4849260938 0.4849260938
0.4907147500 0.4907147500 0.4907147500
0.4975092187 0.4975092187 0.4975092187
0.5056019375 0.5056019375 0.5056019375
0.5145734063 0.5145734063 0.5145734063
0.5239142812 0.5239142812 0.5239142812
0.5326979063 0.5326979063 0.5326979063
0.5410164688 0.5410164688 0.5410164688
0.0932008750 0.0932008750 0.0932008750
0.0993613125 0.0993613125 0.0993613125
0.1061027500 0.1061027500 0.1061027500
0.1147816875 0.1147816875 0.1147816875
0.1262771250 0.1262771250 0.1262771250
0.1377563438 0.1377563438 0.1377563438
0.1510381250 0.1510381250 0.1510381250
0.1660066875 0.1660066875 0.1660066875
0.1832698750 0.1832698750 0.1832698750
0.2049166875 0.2049166875 0.2049166875
0.2299792500 0.2299792500 0.2299792500
0.2590828750 0.2590828750 0.2590828750
0.2910291875 0.2910291875 0.2910291875
0.3215098438 0.3215098438 0.3215098438
0.3507827500 0.3507827500 0.3507827500
0.3771757813 0.3771757813 0.3771757813
0.4003457500 0.4003457500 0.4003457500
