bundles/resolve-cinematic-luts/Gamut/Emma K/EK Warm.cube
TITLE "EK Warm"
# Contributor - Emma K Films. Version 1.0 - 09/16/2024 - Designed for Rec.709 Color Space. Copyright 2024 Gamut, LLC
LUT_3D_SIZE 33
0.0118290000 0.0094630000 0.0063090000
0.0218335625 0.0102263750 0.0070723750
0.0389361250 0.0125677500 0.0086247500
0.0621600625 0.0148351562 0.0093890312
0.0955765000 0.0186302500 0.0109413750
0.1327209688 0.0232874688 0.0124938750
0.1721316875 0.0293746250 0.0134060000
0.2106305313 0.0355840625 0.0141940000
0.2482622500 0.0409792500 0.0147857500
0.2856660625 0.0467921875 0.0149830000
0.3219520625 0.0521726250 0.0157710000
0.3570025000 0.0571987813 0.0165600000
0.3901405000 0.0619277500 0.0173490000
0.4216432813 0.0664031250 0.0186054687
0.4512078125 0.0701298750 0.0193692500
0.4794564688 0.0742159687 0.0209221562
0.5065605000 0.0776405000 0.0216860000
0.5327927500 0.0811988125 0.0228690000
0.5582372500 0.0845988125 0.0240021875
0.5829248750 0.0876816250 0.0252340000
0.6072940000 0.0906743750 0.0263188750
0.6319286250 0.0935833437 0.0270828750
0.6573546875 0.0969446875 0.0283890000
0.6842219375 0.1004647188 0.0293989063
0.7132912500 0.1043487500 0.0307540000
0.7445169062 0.1088120937 0.0317155937
0.7779675000 0.1137897500 0.0332679375
0.8127799687 0.1195525312 0.0348202813
0.8478663750 0.1256771250 0.0363726250
0.8822469062 0.1324128750 0.0379258750
0.9151204375 0.1391125625 0.0394782500
0.9465999062 0.1462828750 0.0410179063
0.9768400000 0.1536150000 0.0425160000
0.0071955625 0.0179398750 0.0055200000
0.0241749062 0.0218089375 0.0078367188
0.0411451562 0.0241749062 0.0093890625
0.0654046250 0.0272057187 0.0131595625
0.0961501875 0.0280439375 0.0118535625
0.1346160312 0.0302858125 0.0117303750
0.1738888750 0.0348945312 0.0132827187
0.2121413125 0.0428807812 0.0134306250
0.2495815625 0.0501813125 0.0134306250
0.2873567813 0.0559652813 0.0141940000
0.3249996562 0.0613356250 0.0149830000
0.3605132812 0.0658423125 0.0162887812
0.3946298437 0.0701248437 0.0170777813
0.4268764063 0.0747010312 0.0186054687
0.4570893750 0.0781246250 0.0193692500
0.4860911250 0.0818835000 0.0209221562
0.5140805313 0.0854878438 0.0220553750
0.5411617187 0.0889811562 0.0232383750
0.5673698437 0.0923462500 0.0244460000
0.5929754063 0.0956202813 0.0255545312
0.6181330625 0.0989450000 0.0267873437
0.6435595625 0.1022468437 0.0278712188
0.6696972812 0.1057329687 0.0291523750
0.6973151562 0.1093436250 0.0301876250
0.7268797500 0.1132960938 0.0315183437
0.7585762812 0.1178405000 0.0325043750
0.7918663125 0.1230390000 0.0340320938
0.8260826875 0.1287603750 0.0355844687
0.8602439688 0.1347894062 0.0371369687
0.8931733437 0.1413345625 0.0386893438
0.9242071562 0.1481339063 0.0402409375
0.9535531250 0.1548795000 0.0417587500
0.9817562813 0.1618116875 0.0432640000
0.0040908750 0.0318883750 0.0055693125
0.0249382812 0.0342288125 0.0078859687
0.0412190625 0.0380978750 0.0094630000
0.0618039375 0.0404283438 0.0079598750
0.0953734375 0.0426345000 0.0117303750
0.1348068438 0.0461250625 0.0134060000
0.1747363125 0.0494580625 0.0126663750
0.2122657187 0.0550261250 0.0126170000
0.2499591875 0.0616829375 0.0126663125
0.2884069687 0.0672600000 0.0132334062
0.3265580000 0.0721145000 0.0139970000
0.3634682500 0.0766122812 0.0155001250
0.3984454375 0.0808723750 0.0165600000
0.4314843750 0.0847959062 0.0178661250
0.4627878125 0.0884951250 0.0193692500
0.4926861562 0.0922850625 0.0209221562
0.5215989375 0.0959438125 0.0224745000
0.5493963750 0.0995077500 0.0232383750
0.5764698750 0.1029348750 0.0247907500
0.6029443437 0.1064357813 0.0262942188
0.6289586250 0.1096525625 0.0271075000
0.6551465000 0.1131355313 0.0286105625
0.6819771875 0.1168613750 0.0294235625
0.7102858750 0.1205904687 0.0309266563
0.7404078750 0.1248117500 0.0317402500
0.7722606563 0.1294970000 0.0332925937
0.8055493750 0.1345981875 0.0347956875
0.8392954687 0.1401299063 0.0363480313
0.8723200000 0.1461863125 0.0371616250
0.9035647813 0.1524813438 0.0387139688
0.9327905625 0.1588022500 0.0402655625
0.9599743437 0.1651128750 0.0417826562
0.9858522500 0.1713833125 0.0432640000
0.0000000000 0.0489274375 0.0017988125
0.0166093125 0.0508026563 0.0048296250
0.0390343437 0.0515641875 0.0079845312
0.0584308437 0.0548206250 0.0087479687
0.0848302187 0.0577806875 0.0042387500
0.1268589063 0.0595413750 0.0056432500
0.1703683437 0.0644349375 0.0095369687
0.2094308750 0.0697333750 0.0103989375
0.2474240625 0.0761591250 0.0103249687
0.2869719375 0.0814795312 0.0111139687
0.3263914375 0.0860039375 0.0124446250
0.3642977187 0.0903341562 0.0139970000
0.4006599375 0.0944479375 0.0155493750
0.4349001563 0.0984091563 0.0171024375
0.4673387500 0.1024843437 0.0190980313
0.4981973438 0.1063021875 0.0209221562
0.5280786562 0.1100500312 0.0224745000
0.5568579375 0.1136878750 0.0233122500
0.5848047500 0.1173861563 0.0247907500
0.6121200625 0.1209769063 0.0263435312
0.6389631562 0.1245859063 0.0278958750
0.6658915625 0.1282832187 0.0286598750
0.6935725000 0.1321506875 0.0302122500
0.7224312813 0.1360491250 0.0314690313
0.7530430313 0.1403641250 0.0325290000
0.7851666875 0.1448076875 0.0340074063
0.8182929375 0.1499019688 0.0355597812
0.8512286562 0.1553230312 0.0363972812
0.8831001875 0.1610591250 0.0379505000
0.9129251563 0.1668125625 0.0395028750
0.9402565000 0.1725664062 0.0410418125
0.9652039687 0.1783454063 0.0425393750
0.9888005312 0.1839512500 0.0440050000
0.0000000000 0.0673282500 0.0000000000
0.0058650000 0.0693298750 0.0001478437
0.0321840625 0.0693483750 0.0040908750
0.0547464375 0.0703226875 0.0064321563
0.0799796250 0.0739076250 0.0050267500
0.1159915313 0.0772797188 0.0010354062
0.1588705000 0.0817273125 0.0016263750
0.2010525312 0.0868250937 0.0048789063
0.2414655000 0.0931971250 0.0070971250
0.2826395000 0.0984897812 0.0086495000
0.3231888750 0.1030548750 0.0107443125
0.3625494375 0.1074925625 0.0124446250
0.4000697500 0.1116701250 0.0139970000
0.4356855937 0.1157527187 0.0161164687
0.4692342500 0.1197028125 0.0178907500
0.5014292188 0.1238541875 0.0198622812
0.5322483750 0.1278330000 0.0216860000
0.5620716562 0.1318741562 0.0232383750
0.5909284375 0.1357799375 0.0247907500
0.6191572812 0.1396142813 0.0263435312
0.6467246250 0.1435321250 0.0278958750
0.6745648438 0.1475067500 0.0294482188
0.7029220000 0.1514106875 0.0309020625
0.7324987188 0.1556929687 0.0317649063
0.7635753750 0.1599505000 0.0333172500
0.7959165625 0.1645621875 0.0347710937
0.8288035625 0.1694660000 0.0361755000
0.8612486875 0.1744632812 0.0371862813
0.8919952500 0.1795861250 0.0387386250
0.9203333750 0.1848715313 0.0401185000
0.9458741250 0.1898836875 0.0410418125
0.9689209375 0.1949055000 0.0425393750
0.9905672500 0.1996320000 0.0440050000
0.0027844688 0.0850567188 0.0000000000
0.0007643437 0.0899487812 0.0000000000
0.0184327500 0.0900380312 0.0000739688
0.0471598437 0.0892441250 0.0025876875
0.0748734688 0.0912820000 0.0033757812
0.1074270000 0.0964146875 0.0003696875
0.1467487500 0.1012844375 0.0000000000
0.1892905313 0.1071298438 0.0015277500
0.2325796562 0.1126942813 0.0037951563
0.2751822812 0.1178311563 0.0062103750
0.3170308125 0.1223505313 0.0078858437
0.3573288750 0.1269163437 0.0101032500
0.3958175625 0.1311888438 0.0117795312
0.4324730000 0.1354439688 0.0139970000
0.4674871250 0.1396813125 0.0161164687
0.5007048750 0.1440240625 0.0178907500
0.5327395625 0.1482830313 0.0202317813
0.5635605625 0.1525949062 0.0221543437
0.5933060000 0.1568693125 0.0241254688
0.6223775000 0.1610840000 0.0256778125
0.6509100000 0.1654525000 0.0275265000
0.6795209375 0.1697652812 0.0294482188
0.7086802187 0.1740041562 0.0310005625
0.7390148750 0.1783571875 0.0323320000
0.7706469375 0.1828160625 0.0333172500
0.8032705937 0.1872856562 0.0348695937
0.8360877187 0.1919188750 0.0364219375
0.8681251875 0.1966989688 0.0378520000
0.8981388125 0.2015180625 0.0387386250
0.9253200000 0.2060543438 0.0402898437
0.9495291875 0.2103286875 0.0410418125
0.9710929688 0.2145019375 0.0425393750
0.9910811875 0.2184200937 0.0433797812
0.0031540000 0.1101282500 0.0027105625
0.0007890000 0.1140336875 0.0006410625
0.0058649375 0.1151975625 0.0000000000
0.0351129687 0.1142636562 0.0000000000
0.0678043750 0.1127379375 0.0010846875
0.1019015313 0.1172760000 0.0010354063
0.1386447500 0.1232827500 0.0000000000
0.1786193125 0.1287604375 0.0006164062
0.2224001875 0.1340982500 0.0021195000
0.2657921563 0.1387336250 0.0038690313
0.3078901250 0.1433883750 0.0055693125
0.3487932812 0.1477456562 0.0071218125
0.3880024375 0.1522607500 0.0091673125
0.4255650000 0.1565850000 0.0110153437
0.4613891875 0.1610151250 0.0132087500
0.4956549063 0.1655902500 0.0153274687
0.5285395625 0.1700915625 0.0176441875
0.5603855313 0.1747164688 0.0199609063
0.5910761250 0.1793522500 0.0219324375
0.6209957812 0.1839799688 0.0241254687
0.6504266250 0.1885621250 0.0261216250
0.6799611250 0.1933116875 0.0280191563
0.7099517500 0.1978398750 0.0295715000
0.7410582500 0.2024871875 0.0313457500
0.7732959375 0.2070104375 0.0333172500
0.8063477500 0.2116713125 0.0348695937
0.8393745000 0.2162918125 0.0357815000
0.8712975000 0.2208049687 0.0373342187
0.9008998750 0.2250576875 0.0387386250
0.9274940938 0.2291988438 0.0396506250
0.9508840625 0.2328466875 0.0409940000
0.9714975625 0.2362627500 0.0419245937
0.9905183125 0.2394418125 0.0426562500
0.0037704063 0.1354574375 0.0053474062
0.0034747188 0.1393928750 0.0042629375
0.0044107500 0.1421283437 0.0020702813
0.0246180000 0.1422767500 0.0000000000
0.0618123125 0.1398790938 0.0000000000
0.0978514375 0.1402021250 0.0007890000
0.1351910625 0.1458268438 0.0000000000
0.1722474687 0.1513120000 0.0000000000
0.2128536875 0.1559245000 0.0007643438
0.2557969375 0.1605585312 0.0023166875
0.2976551250 0.1652563125 0.0032527188
0.3381915937 0.1696387500 0.0048050937
0.3775371875 0.1740796562 0.0063580938
0.4152952187 0.1785827812 0.0079104375
0.4516180938 0.1832173125 0.0099060312
0.4865374062 0.1877290625 0.0118041250
0.5201779375 0.1924789375 0.0141449688
0.5527582500 0.1973061562 0.0164860312
0.5842486562 0.2021354062 0.0188271562
0.6150295000 0.2069868125 0.0211685000
0.6452994687 0.2119248125 0.0235094688
0.6755341563 0.2168047188 0.0253330625
0.7064360938 0.2217394062 0.0274032187
0.7384396875 0.2266400312 0.0295715000
0.7713908437 0.2314610938 0.0312964375
0.8051276875 0.2362532813 0.0328493438
0.8385993750 0.2408146250 0.0344017188
0.8706947812 0.2452085625 0.0357815000
0.9004010000 0.2492751250 0.0373342187
0.9269134375 0.2529986250 0.0388125937
0.9500540937 0.2562251562 0.0396013750
0.9703887187 0.2591214063 0.0404112500
0.9891085312 0.2617330625 0.0411613438
0.0039430000 0.1608537500 0.0055200000
0.0045340000 0.1646453750 0.0047556563
0.0072451875 0.1681431875 0.0047310000
0.0211682812 0.1694621250 0.0014538750
0.0540130000 0.1676853750 0.0000000000
0.0925100312 0.1648705000 0.0000000000
0.1306544375 0.1673053125 0.0001479375
0.1678726562 0.1733531875 0.0000000000
0.2059950000 0.1782252500 0.0000000000
0.2466075625 0.1826329375 0.0007890000
0.2873250625 0.1872947500 0.0017742500
0.3270289688 0.1918884063 0.0025630000
0.3657010000 0.1964436250 0.0038443750
0.4032480000 0.2010112500 0.0048051250
0.4394862500 0.2057268125 0.0063580625
0.4746725312 0.2104326563 0.0085262813
0.5086675000 0.2151605000 0.0102512500
0.5415396562 0.2199897813 0.0125926250
0.5736455000 0.2248753125 0.0146871875
0.6049472813 0.2298213750 0.0170035625
0.6358817500 0.2349157500 0.0193198750
0.6668924375 0.2399298750 0.0216365938
0.6985977500 0.2450721250 0.0239530625
0.7313594375 0.2501146875 0.0262693125
0.7651907500 0.2550825000 0.0281915000
0.7996312500 0.2599415312 0.0301134688
0.8337710000 0.2645656875 0.0320851875
0.8664938438 0.2689297812 0.0336375312
0.8967003750 0.2729291250 0.0351898750
0.9236480938 0.2763706563 0.0359541250
0.9472175000 0.2792860625 0.0372602500
0.9678426875 0.2818110313 0.0382462500
0.9869140000 0.2841517500 0.0390342500
0.0025876250 0.1872326250 0.0041646250
0.0054707187 0.1909295313 0.0039676250
0.0117544375 0.1938146875 0.0032033125
0.0258996562 0.1950614063 0.0017248438
0.0505388437 0.1941241250 0.0007890000
0.0853717187 0.1905187187 0.0000000000
0.1247468750 0.1904032500 0.0000000000
0.1629012813 0.1946764375 0.0000000000
0.2004169687 0.1996561875 0.0000000000
0.2386564375 0.2045271250 0.0005670937
0.2779222500 0.2095077500 0.0007890000
0.3165042812 0.2143395938 0.0015277500
0.3542983750 0.2192861875 0.0022920312
0.3910287500 0.2238996250 0.0030555000
0.4268275000 0.2287241250 0.0040413438
0.4614943125 0.2333890625 0.0053720625
0.4952143125 0.2381121875 0.0071465313
0.5282589375 0.2429346875 0.0086989062
0.5603287500 0.2477165625 0.0104731875
0.5918870938 0.2525834062 0.0128142813
0.6232048750 0.2575384687 0.0151553125
0.6547085000 0.2624759688 0.0169788750
0.6870603125 0.2676314375 0.0192952500
0.7205011875 0.2726711875 0.0216119688
0.7551402812 0.2776985000 0.0239284062
0.7904431563 0.2826325937 0.0260720313
0.8254476563 0.2873073125 0.0277728437
0.8589932188 0.2915569688 0.0297438125
0.8901796562 0.2954760625 0.0312964375
0.9180415312 0.2987305000 0.0327755313
0.9425191563 0.3015050938 0.0338347500
0.9640722500 0.3038651875 0.0345987813
0.9839693750 0.3058915625 0.0353624375
0.0018235625 0.2140644375 0.0026122500
0.0054707187 0.2174369688 0.0026122500
0.0125678125 0.2201885625 0.0018235625
0.0263189375 0.2212320625 0.0015770000
0.0491353750 0.2206567500 0.0007890000
0.0800940625 0.2182897500 0.0001232812
0.1172514375 0.2156674375 0.0000000000
0.1562787812 0.2171044688 0.0000000000
0.1941457500 0.2211678125 0.0000000000
0.2315268125 0.2264868437 0.0000000000
0.2698169375 0.2319113125 0.0007890000
0.3074836563 0.2370882500 0.0007890000
0.3442141250 0.2421332500 0.0007890000
0.3798968437 0.2469612188 0.0015770000
0.4147001875 0.2517671250 0.0022673750
0.4485870625 0.2566084063 0.0030308750
0.4816503750 0.2613413125 0.0040413125
0.5139273125 0.2659549688 0.0055939688
0.5457240000 0.2706761875 0.0071465625
0.5770163750 0.2753329062 0.0086989375
0.6083368125 0.2800766875 0.0104978750
0.6399968125 0.2848144375 0.0123214687
0.6726083125 0.2896692500 0.0146378750
0.7066330000 0.2946400625 0.0167322812
0.7418673125 0.2994830000 0.0190736250
0.7779518750 0.3042685937 0.0214149687
0.8139668750 0.3087665625 0.0229673125
0.8486187500 0.3129967813 0.0253085000
0.8810223750 0.3166978750 0.0268610000
0.9102138750 0.3198560938 0.0283393750
0.9360231875 0.3224818125 0.0291773125
0.9590811875 0.3246173125 0.0299410313
0.9803509375 0.3264561875 0.0314933750
0.0010598750 0.2410668437 0.0018482188
0.0046817187 0.2446266250 0.0016016562
0.0110647812 0.2474520000 0.0015770000
0.0242487813 0.2485555938 0.0008628750
0.0446824688 0.2480454063 0.0007890000
0.0734622812 0.2461259375 0.0001232812
0.1090779062 0.2439192187 0.0000000000
0.1480395312 0.2424013437 0.0000000000
0.1866931875 0.2440110938 0.0000000000
0.2251092813 0.2490729063 0.0000000000
0.2630657188 0.2546268750 0.0000000000
0.3001143125 0.2598043750 0.0000000000
0.3359606875 0.2649560937 0.0007890000
0.3706371562 0.2699439063 0.0007890000
0.4041447188 0.2747880625 0.0010598750
0.4368883438 0.2795515312 0.0015770000
0.4688194062 0.2842938437 0.0022427187
0.5001738125 0.2888614688 0.0030062500
0.5310429688 0.2934004688 0.0040412812
0.5616304375 0.2978317812 0.0055939687
0.5924236875 0.3023698750 0.0066291875
0.6238026250 0.3068991250 0.0081815313
0.6563365313 0.3114303438 0.0102513437
0.6904444062 0.3160302812 0.0120752187
0.7260799687 0.3205976875 0.0144159687
0.7628038437 0.3250485625 0.0159686875
0.7997316563 0.3293481250 0.0183097187
0.8356994687 0.3333235000 0.0198624375
0.8695453750 0.3368443125 0.0214149375
0.9003838125 0.3398256562 0.0229672812
0.9280690000 0.3422437813 0.0240024375
0.9529403125 0.3442026250 0.0252593125
0.9762061250 0.3458428125 0.0260473125
0.0007890000 0.2685105000 0.0010845000
0.0034005937 0.2721113438 0.0008136250
0.0095121250 0.2750114375 0.0007890000
0.0204290313 0.2762289375 0.0007890000
0.0392150000 0.2759178750 0.0007890000
0.0666343750 0.2741650313 0.0000000000
0.1011165625 0.2718270625 0.0000000000
0.1398877188 0.2701549062 0.0000000000
0.1798902500 0.2701185000 0.0000000000
0.2194076875 0.2729963125 0.0000000000
0.2576255000 0.2777156250 0.0000000000
0.2942864063 0.2825844375 0.0000000000
0.3294940000 0.2874370000 0.0000000000
0.3631778125 0.2923952187 0.0002958750
0.3956636875 0.2972486875 0.0007890000
0.4270636562 0.3019499688 0.0007890000
0.4576700000 0.3066056250 0.0010845000
0.4876907813 0.3110875000 0.0015770000
0.5173271875 0.3154886875 0.0022180625
0.5468853750 0.3198258438 0.0029816250
0.5766517500 0.3241095000 0.0040412500
0.6072817812 0.3283505313 0.0050268750
0.6392443125 0.3326111250 0.0063579375
0.6730649688 0.3368726562 0.0079102812
0.7087636250 0.3411351250 0.0097585000
0.7459169375 0.3452063438 0.0113108438
0.7835432500 0.3491612500 0.0130115625
0.8206993750 0.3527880625 0.0152045312
0.8560516250 0.3560430000 0.0166582500
0.8888647813 0.3588060937 0.0175212187
0.9186400000 0.3609754375 0.0190242500
0.9458297187 0.3627719688 0.0198132500
0.9714075000 0.3642541250 0.0206012500
0.0003205313 0.2961233125 0.0007890000
0.0026368438 0.3000081875 0.0007890000
0.0072696562 0.3028804687 0.0007890000
0.0173981875 0.3042498125 0.0003205312
0.0343768125 0.3038742500 0.0000000000
0.0604915625 0.3019859062 0.0000000000
0.0942351563 0.2992787812 0.0000000000
0.1328812187 0.2969825625 0.0000000000
0.1738083750 0.2963334062 0.0000000000
0.2142320938 0.2977062188 0.0000000000
0.2531449375 0.3007232813 0.0000000000
0.2899016250 0.3049328750 0.0000000000
0.3246624062 0.3094936563 0.0000000000
0.3575742813 0.3142024062 0.0000000000
0.3889950937 0.3188908125 0.0000000000
0.4192764375 0.3234866563 0.0003205313
0.4485793437 0.3280104688 0.0007890000
0.4771915000 0.3323532500 0.0007890000
0.5054360000 0.3366189687 0.0011091250
0.5336099375 0.3408399375 0.0015770000
0.5621508750 0.3449779375 0.0021934063
0.5916195937 0.3490928125 0.0029570000
0.6226561250 0.3531413437 0.0037210938
0.6556958125 0.3570670625 0.0048052812
0.6909758750 0.3610236562 0.0063579062
0.7281377812 0.3647902187 0.0079102500
0.7662604063 0.3683781875 0.0089945312
0.8043996875 0.3716894687 0.0105473125
0.8412185937 0.3746105000 0.0116806562
0.8759169688 0.3770711250 0.0128636562
0.9080105937 0.3791141250 0.0136275000
0.9377161562 0.3805219375 0.0143914063
0.9659992500 0.3818303125 0.0151551875
0.0000000000 0.3238898750 0.0003451875
0.0023413438 0.3277024688 0.0000000000
0.0064566250 0.3306700625 0.0000000000
0.0148102500 0.3320654687 0.0000000000
0.0306062500 0.3315676250 0.0000000000
0.0550992500 0.3293249688 0.0000000000
0.0879897500 0.3261586250 0.0000000000
0.1268295625 0.3231843125 0.0000000000
0.1684090625 0.3214305000 0.0000000000
0.2097614687 0.3215141250 0.0000000000
0.2492770625 0.3234934375 0.0000000000
0.2863134687 0.3267041562 0.0000000000
0.3209257500 0.3307191875 0.0000000000
0.3533670625 0.3351154063 0.0000000000
0.3840416250 0.3396081250 0.0000000000
0.4133067500 0.3440770000 0.0000000000
0.4414365000 0.3484241250 0.0000000000
0.4687432812 0.3525611563 0.0003451875
0.4956991250 0.3567775625 0.0007890000
0.5224281250 0.3607452812 0.0007890000
0.5495070625 0.3647766875 0.0011337500
0.5776289375 0.3687502812 0.0015770000
0.6073213750 0.3726410625 0.0021687500
0.6392674063 0.3764354375 0.0029323750
0.6737526250 0.3801511875 0.0036964375
0.7105136875 0.3837206875 0.0048053125
0.7487233125 0.3870079375 0.0055693125
0.7874480312 0.3900422188 0.0069989375
0.8255781875 0.3927029375 0.0077869375
0.8619812500 0.3948630312 0.0085759375
0.8963519375 0.3966290000 0.0093639375
0.9287376875 0.3979584688 0.0101529375
0.9598566250 0.3989919375 0.0104981250
0.0000000000 0.3513973750 0.0000000000
0.0015523750 0.3551993438 0.0000000000
0.0053721250 0.3581256563 0.0000000000
0.0125432187 0.3594160625 0.0000000000
0.0272549688 0.3587315313 0.0000000000
0.0505080313 0.3561189375 0.0000000000
0.0826153125 0.3523637812 0.0000000000
0.1211214688 0.3485795625 0.0000000000
0.1632184688 0.3456680937 0.0000000000
0.2053651563 0.3445233125 0.0000000000
0.2456261563 0.3453080938 0.0000000000
0.2832005625 0.3476457500 0.0000000000
0.3178656250 0.3511870000 0.0000000000
0.3500825625 0.3551467500 0.0000000000
0.3801768437 0.3593363750 0.0000000000
0.4087139063 0.3636569687 0.0000000000
0.4359671875 0.3677744375 0.0000000000
0.4622360000 0.3718744375 0.0000000000
0.4879138750 0.3757914687 0.0000000000
0.5133502813 0.3796644688 0.0006903750
0.5391542500 0.3836068125 0.0007890000
0.5657036562 0.3873902813 0.0007890000
0.5939529375 0.3911621563 0.0011583750
0.6245720000 0.3948854688 0.0015770000
0.6578626875 0.3984610312 0.0021440938
0.6937688125 0.4017846563 0.0027353750
0.7316371875 0.4049372188 0.0035238438
0.7705942500 0.4077300625 0.0043123750
0.8095214687 0.4101795000 0.0047807188
0.8475040625 0.4122161562 0.0054706875
0.8840013437 0.4137662813 0.0062592188
0.9189129375 0.4149525312 0.0062838750
0.9527767188 0.4158519063 0.0070482187
0.0000000000 0.3787820000 0.0000000000
0.0015523750 0.3823345312 0.0000000000
0.0046324375 0.3850656250 0.0000000000
0.0110648438 0.3861572187 0.0000000000
0.0246427500 0.3851490000 0.0000000000
0.0466628125 0.3822175937 0.0000000000
0.0774980625 0.3778235625 0.0000000000
0.1157276250 0.3729830625 0.0000000000
0.1580927500 0.3690695000 0.0000000000
0.2009982812 0.3667525625 0.0000000000
0.2419928750 0.3663616250 0.0000000000
0.2800591562 0.3678540625 0.0000000000
0.3149456250 0.3705671250 0.0000000000
0.3471351563 0.3742480938 0.0000000000
0.3770480625 0.3781907500 0.0000000000
0.4051394688 0.3823427500 0.0000000000
0.4317070000 0.3863495000 0.0000000000
0.4571754375 0.3901731562 0.0000000000
0.4818216250 0.3939576875 0.0000000000
0.5061947500 0.3977297813 0.0000000000
0.5305928750 0.4014213750 0.0000000000
0.5558484688 0.4051573750 0.0007890000
0.5826160000 0.4088247500 0.0007890000
0.6117485625 0.4123970312 0.0007890000
0.6436450000 0.4158262500 0.0011830000
0.6783815937 0.4191448750 0.0015770000
0.7155946875 0.4221673125 0.0019715000
0.7543850000 0.4248693750 0.0023660000
0.7937831250 0.4272292500 0.0027600000
0.8328792812 0.4291363750 0.0032283750
0.8710483750 0.4305756875 0.0035485000
0.9082352188 0.4317031562 0.0039425000
0.9445960000 0.4325590000 0.0043370000
0.0000000000 0.4056414063 0.0000000000
0.0015523750 0.4089946250 0.0000000000
0.0038444375 0.4113488125 0.0000000000
0.0103005000 0.4121299687 0.0000000000
0.0224005000 0.4108324375 0.0000000000
0.0429742500 0.4073547187 0.0000000000
0.0728577813 0.4023630938 0.0000000000
0.1103383125 0.3966878125 0.0000000000
0.1526613438 0.3915715625 0.0000000000
0.1960008750 0.3880626250 0.0000000000
0.2378211562 0.3866501562 0.0000000000
0.2765530938 0.3872194688 0.0000000000
0.3118755625 0.3892215937 0.0000000000
0.3442380312 0.3924368750 0.0000000000
0.3741099688 0.3961341875 0.0000000000
0.4019485000 0.4001006250 0.0000000000
0.4281375312 0.4040561875 0.0000000000
0.4530933437 0.4078457187 0.0000000000
0.4770190625 0.4114647187 0.0000000000
0.5004107187 0.4150838750 0.0000000000
0.5237741563 0.4185928125 0.0000000000
0.5476932813 0.4221355625 0.0000000000
0.5731300313 0.4256545625 0.0004191562
0.6007342812 0.4291312500 0.0007890000
0.6311989375 0.4324324063 0.0007890000
0.6646726562 0.4356883750 0.0007890000
0.7008880625 0.4386520625 0.0012076250
0.7391051250 0.4413159375 0.0013307500
0.7785697812 0.4436683438 0.0015770000
0.8183311875 0.4455408750 0.0019961563
0.8578120000 0.4470551875 0.0019961563
0.8967970938 0.4482003750 0.0019961563
0.9352163125 0.4490911875 0.0019961563
0.0000000000 0.4320076250 0.0000000000
0.0012076250 0.4350358125 0.0000000000
0.0034992500 0.4370702500 0.0000000000
0.0091673125 0.4375308750 0.0000000000
0.0201581875 0.4358248125 0.0000000000
0.0396723750 0.4318835938 0.0000000000
0.0682020625 0.4261474375 0.0000000000
0.1047915313 0.4196875313 0.0000000000
0.1469011250 0.4134973125 0.0000000000
0.1906217188 0.4088708750 0.0000000000
0.2330630000 0.4062813125 0.0000000000
0.2724473125 0.4057466875 0.0000000000
0.3084500000 0.4072490000 0.0000000000
0.3410960938 0.4098284062 0.0000000000
0.3710846250 0.4133658125 0.0000000000
0.3988644688 0.4171304688 0.0000000000
0.4248131250 0.4209363750 0.0000000000
