bundles/resolve-cinematic-luts/Gamut/Emma K/EK Warm.cube
TITLE "EK Warm"
# Contributor - Emma K Films. Version 1.0 - 09/16/2024 - Designed for Rec.709 Color Space. Copyright 2024 Gamut, LLC
LUT_3D_SIZE 5
0.0118290000 0.0094630000 0.0063090000
0.2482622500 0.0409792500 0.0147857500
0.5065605000 0.0776405000 0.0216860000
0.7132912500 0.1043487500 0.0307540000
0.9768400000 0.1536150000 0.0425160000
0.0039430000 0.1608537500 0.0055200000
0.2059950000 0.1782252500 0.0000000000
0.5086675000 0.2151605000 0.0102512500
0.7651907500 0.2550825000 0.0281915000
0.9869140000 0.2841517500 0.0390342500
0.0000000000 0.3787820000 0.0000000000
0.1580927500 0.3690695000 0.0000000000
0.4317070000 0.3863495000 0.0000000000
0.6436450000 0.4158262500 0.0011830000
0.9445960000 0.4325590000 0.0043370000
0.0000000000 0.5815952500 0.0000000000
0.0988710000 0.5424615000 0.0000000000
0.3870342500 0.5106317500 0.0000000000
0.5654467500 0.5406290000 0.0000000000
0.8450732500 0.5649312500 0.0000000000
0.0000000000 0.7310800000 0.0000000000
0.0124202500 0.7058227500 0.0000000000
0.2233305000 0.6622415000 0.0000000000
0.4662525000 0.6964882500 0.0000000000
0.7772100000 0.7667970000 0.0000000000
0.0376547500 0.0533082500 0.2246917500
0.2311135000 0.0583422500 0.1757480000
0.5018695000 0.0814755000 0.1800980000
0.7340395000 0.1037805000 0.1943945000
0.9897147500 0.1415867500 0.1781432500
0.0104482500 0.2326552500 0.2075310000
0.2573009576 0.2189570000 0.1882990938
0.5470996696 0.2425824286 0.1875113973
0.7940132098 0.2697985469 0.1860323237
0.9933500000 0.2861917500 0.1636507500
0.0007890000 0.4360397500 0.1509222500
0.1601180937 0.4233609777 0.1348929420
0.4752928214 0.4215762723 0.1316145893
0.7134263750 0.4481108817 0.1274367165
0.9719307500 0.4532202500 0.1114110000
0.0000000000 0.6264940000 0.0902495000
0.0768146942 0.6073471429 0.0692376964
0.4072257522 0.5593158437 0.0876717433
0.6096774375 0.5803570313 0.0742588460
0.8946767500 0.5958572500 0.0469972500
0.0000000000 0.7574525000 0.0080827500
0.0072945000 0.7507727500 0.0043367500
0.2193497500 0.7206487500 0.0092655000
0.5051147500 0.7473242500 0.0232630000
0.8239117500 0.8066560000 0.0179402500
0.0303600000 0.1208945000 0.5330600000
0.2787185000 0.1208160000 0.4833685000
0.4943630000 0.1195750000 0.4216385000
0.7245085000 0.1381482500 0.4661837500
0.9904280000 0.1694870000 0.5015180000
0.0256285000 0.3130547500 0.5725385000
0.2810720714 0.2827250268 0.5196205491
0.5520903616 0.2935528929 0.4749035402
0.7931143348 0.3259340134 0.5064668772
0.9940942500 0.3448970000 0.5142477500
0.0169545000 0.5511830000 0.5274225000
0.2039150179 0.5195444598 0.4917567857
0.5278693326 0.4778811540 0.4321361629
0.7608791116 0.4898013326 0.4321288103
0.9897755000 0.4841220000 0.3972630000
0.0007890000 0.7319657500 0.4565295000
0.0816361763 0.6903418661 0.4030841138
0.3924867612 0.6350915089 0.3541229196
0.6583550246 0.6320287813 0.3432721429
0.9550175000 0.6393352500 0.2947360000
0.0000000000 0.8380815000 0.2030795000
0.0029570000 0.8167765000 0.1609285000
0.1282955000 0.8077905000 0.1274055000
0.4959722500 0.8202567500 0.1755585000
0.8950750000 0.8761560000 0.1745495000
0.0396260000 0.1896270000 0.8430807500
0.2797110000 0.1918432500 0.8103075000
0.5623852500 0.1765252500 0.7437672500
0.7616457500 0.1851542500 0.7515867500
0.9877190000 0.2270667500 0.7697715000
0.0260230000 0.3773237500 0.9103710000
0.2600781964 0.3552988951 0.8637137478
0.6064958237 0.3524864442 0.8137266406
0.8113632589 0.3708412991 0.8055533080
0.9923140000 0.4026592500 0.8108292500
0.0029570000 0.6253370000 0.8801567500
0.1571690536 0.5877892701 0.8536445290
0.5313766473 0.5309565692 0.7811667121
0.7623256049 0.5351658170 0.7449880156
0.9900132500 0.5410572500 0.7182502500
0.0000000000 0.8191745000 0.8240405000
0.0900646875 0.7770659978 0.7772596496
0.3823984598 0.7164561696 0.7096154911
0.6910898571 0.6817973862 0.6679516585
0.9828207500 0.6856795000 0.6377017500
0.0000000000 0.9196625000 0.5800380000
0.0063087500 0.9036110000 0.5424640000
0.1041942500 0.8900442500 0.4922865000
0.4329387500 0.9143847500 0.5211860000
0.9605437500 0.9443077500 0.5653285000
0.0549340000 0.2560810000 0.9998660000
0.3209962500 0.2658395000 0.9997715000
0.6423140000 0.2654485000 0.9978910000
0.8488360000 0.2540317500 0.9939997500
0.9956680000 0.2542940000 0.9892450000
0.0230657500 0.4162620000 1.0000000000
0.2888345000 0.4098125000 1.0000000000
0.6666727500 0.4221952500 0.9988455000
0.8795072500 0.4323925000 0.9959447500
0.9968405000 0.4290207500 0.9925445000
0.0003945000 0.6652325000 0.9999600000
0.1455782500 0.6269010000 1.0000000000
0.5398780000 0.5883715000 0.9998660000
0.8104892500 0.5944102500 0.9986510000
0.9941960000 0.5755460000 0.9923145000
0.0000000000 0.8832475000 0.9999527500
0.0775560000 0.8392965000 1.0000000000
0.3318465000 0.7755657500 1.0000000000
0.7021185000 0.7552750000 0.9999460000
0.9903465000 0.7565635000 0.9935805000
0.0000000000 0.9989530000 0.9948580000
0.0565835000 0.9974062500 0.9954992500
0.2047745000 0.9944120000 0.9962475000
0.5861180000 1.0000000000 0.9981332500
0.9965850000 1.0000000000 1.0000000000
