bundles/resolve-cinematic-luts/Gamut/Hestia/Hestia 01.cube
TITLE "Hestia 01 by Gamut.io"
# Copyright 2021 Gamut.io (in collaboration with Russell Kent Nicholls)
LUT_3D_SIZE 5
0.0212000000 0.0307000000 0.0291000000
0.1954000000 0.0677000000 0.0528000000
0.6265000000 0.1455000000 -0.0001000000
0.8405000000 0.4205000000 0.1245000000
0.9133000000 0.6166000000 0.4775000000
0.0140000000 0.1222000000 0.0859000000
0.1412000000 0.1375000000 0.0854000000
0.5686000000 0.2706000000 0.0572000000
0.8214000000 0.4717000000 0.1625000000
0.9108000000 0.6376000000 0.4872000000
0.0002000000 0.3800000000 0.2160000000
0.0570000000 0.3766000000 0.1927000000
0.3974000000 0.3541000000 0.1708000000
0.7593000000 0.5593000000 0.2915000000
0.9047000000 0.7062000000 0.5627000000
0.0038000000 0.6642000000 0.4376000000
0.0306000000 0.6572000000 0.4178000000
0.3472000000 0.5414000000 0.3209000000
0.6059000000 0.5483000000 0.2996000000
0.9019000000 0.7872000000 0.6674000000
0.4550000000 0.8541000000 0.6858000000
0.4721000000 0.8566000000 0.6858000000
0.6159000000 0.8519000000 0.6906000000
0.7186000000 0.7783000000 0.5692000000
0.9493000000 0.9067000000 0.8082000000
0.0649000000 0.0775000000 0.1162000000
0.2314000000 0.0460000000 0.1418000000
0.6605000000 0.2276000000 0.1895000000
0.8412000000 0.4685000000 0.2841000000
0.9131000000 0.6250000000 0.4960000000
0.0654000000 0.1462000000 0.1505000000
0.1994000000 0.2065000000 0.1988000000
0.6096000000 0.3395000000 0.2410000000
0.8249000000 0.5142000000 0.3272000000
0.9103000000 0.6500000000 0.5214000000
0.0004000000 0.4315000000 0.3212000000
0.1063000000 0.4578000000 0.3266000000
0.4623000000 0.4301000000 0.2902000000
0.7698000000 0.5920000000 0.4061000000
0.9062000000 0.7249000000 0.6176000000
0.0056000000 0.6973000000 0.5242000000
0.0728000000 0.6913000000 0.5085000000
0.4089000000 0.6025000000 0.4151000000
0.6310000000 0.5811000000 0.3734000000
0.9066000000 0.8021000000 0.7053000000
0.4783000000 0.8631000000 0.7164000000
0.4922000000 0.8648000000 0.7143000000
0.6302000000 0.8629000000 0.7209000000
0.7338000000 0.7965000000 0.6144000000
0.9509000000 0.9105000000 0.8195000000
0.1273000000 0.1646000000 0.3317000000
0.2925000000 0.1028000000 0.4297000000
0.6721000000 0.1863000000 0.4494000000
0.8399000000 0.5577000000 0.5613000000
0.9112000000 0.7100000000 0.6726000000
0.2170000000 0.2675000000 0.3104000000
0.2979000000 0.2946000000 0.4137000000
0.6527000000 0.3669000000 0.5001000000
0.8299000000 0.6026000000 0.5885000000
0.9121000000 0.7227000000 0.6822000000
0.1398000000 0.4357000000 0.4391000000
0.2968000000 0.4854000000 0.4777000000
0.5875000000 0.5688000000 0.5533000000
0.7995000000 0.6719000000 0.6246000000
0.9165000000 0.7712000000 0.7266000000
0.0527000000 0.6939000000 0.6164000000
0.2464000000 0.7097000000 0.6328000000
0.5514000000 0.7122000000 0.6309000000
0.7001000000 0.6717000000 0.5686000000
0.9225000000 0.8392000000 0.7871000000
0.5500000000 0.8846000000 0.7973000000
0.5580000000 0.8870000000 0.7938000000
0.6469000000 0.8899000000 0.7911000000
0.7814000000 0.8508000000 0.7376000000
0.9562000000 0.9218000000 0.8501000000
0.3417000000 0.3500000000 0.6004000000
0.4432000000 0.3300000000 0.6476000000
0.7167000000 0.2892000000 0.7138000000
0.8320000000 0.5616000000 0.6936000000
0.9333000000 0.8218000000 0.8369000000
0.3959000000 0.4403000000 0.5772000000
0.4642000000 0.4434000000 0.6294000000
0.6936000000 0.4353000000 0.7132000000
0.8273000000 0.6110000000 0.7125000000
0.9369000000 0.8346000000 0.8468000000
0.4322000000 0.5437000000 0.5882000000
0.4935000000 0.5653000000 0.6082000000
0.6506000000 0.6164000000 0.6920000000
0.8244000000 0.7117000000 0.7611000000
0.9446000000 0.8605000000 0.8644000000
0.4289000000 0.6911000000 0.6950000000
0.4988000000 0.7010000000 0.7042000000
0.6505000000 0.7353000000 0.7366000000
0.8123000000 0.7972000000 0.7946000000
0.9512000000 0.8928000000 0.8830000000
0.6358000000 0.8758000000 0.8479000000
0.6434000000 0.8816000000 0.8510000000
0.7153000000 0.9016000000 0.8672000000
0.8511000000 0.9176000000 0.8805000000
0.9672000000 0.9428000000 0.9021000000
0.7052000000 0.6931000000 0.8179000000
0.7184000000 0.6849000000 0.8248000000
0.7765000000 0.6530000000 0.8421000000
0.8725000000 0.6961000000 0.8497000000
0.9436000000 0.8401000000 0.8825000000
0.7235000000 0.7241000000 0.8184000000
0.7332000000 0.7189000000 0.8261000000
0.7793000000 0.6954000000 0.8447000000
0.8748000000 0.7218000000 0.8591000000
0.9468000000 0.8505000000 0.8900000000
0.7646000000 0.7787000000 0.8218000000
0.7711000000 0.7799000000 0.8281000000
0.7976000000 0.7784000000 0.8523000000
0.8793000000 0.7853000000 0.8828000000
0.9563000000 0.8789000000 0.9106000000
0.8132000000 0.8487000000 0.8758000000
0.8206000000 0.8507000000 0.8770000000
0.8422000000 0.8565000000 0.8815000000
0.8896000000 0.8686000000 0.9071000000
0.9719000000 0.9232000000 0.9434000000
0.8824000000 0.9289000000 0.9406000000
0.8823000000 0.9300000000 0.9413000000
0.8896000000 0.9351000000 0.9453000000
0.9271000000 0.9508000000 0.9588000000
0.9916000000 0.9802000000 0.9837000000
