bundles/resolve-cinematic-luts/Gamut/Hestia/Hestia 05.cube
TITLE "Hestia 05 by Gamut.io"
# Copyright 2021 Gamut.io (in collaboration with Russell Kent Nicholls)
LUT_3D_SIZE 5
0.0213000000 0.0307000000 0.0289000000
0.1886000000 0.0051000000 0.0392000000
0.4714000000 0.0511000000 -0.0080000000
0.6163000000 0.1023000000 0.0432000000
0.8174000000 0.4143000000 0.3009000000
0.0204000000 0.1270000000 0.0829000000
0.1560000000 0.1693000000 0.0966000000
0.5212000000 0.1850000000 -0.0437000000
0.7115000000 0.2830000000 0.0027000000
0.8439000000 0.4836000000 0.2841000000
0.0859000000 0.4075000000 0.2368000000
0.2279000000 0.4685000000 0.2836000000
0.5706000000 0.5551000000 0.3726000000
0.7182000000 0.5631000000 0.2854000000
0.8795000000 0.6154000000 0.3904000000
0.2129000000 0.6679000000 0.4806000000
0.3555000000 0.6951000000 0.5151000000
0.7316000000 0.7866000000 0.6880000000
0.8114000000 0.8025000000 0.7150000000
0.8875000000 0.8111000000 0.6914000000
0.6809000000 0.8800000000 0.7575000000
0.7047000000 0.8864000000 0.7672000000
0.8472000000 0.9208000000 0.8451000000
0.9573000000 0.9566000000 0.9455000000
0.9669000000 0.9557000000 0.9299000000
0.0614000000 0.0750000000 0.1204000000
0.2276000000 0.0470000000 0.1444000000
0.5379000000 0.0341000000 0.1278000000
0.6869000000 0.0979000000 0.1565000000
0.8263000000 0.4322000000 0.3383000000
0.0550000000 0.1480000000 0.1533000000
0.2014000000 0.2102000000 0.2005000000
0.5477000000 0.2118000000 0.2121000000
0.7116000000 0.3285000000 0.2246000000
0.8416000000 0.5009000000 0.3531000000
0.0605000000 0.4148000000 0.3063000000
0.2065000000 0.4821000000 0.3539000000
0.5855000000 0.5749000000 0.4573000000
0.7654000000 0.5719000000 0.3701000000
0.8770000000 0.6316000000 0.4544000000
0.1780000000 0.6691000000 0.5207000000
0.3328000000 0.6967000000 0.5524000000
0.7220000000 0.7845000000 0.6886000000
0.8192000000 0.8105000000 0.7424000000
0.8981000000 0.8223000000 0.7186000000
0.6534000000 0.8788000000 0.7642000000
0.6832000000 0.8854000000 0.7719000000
0.8346000000 0.9188000000 0.8420000000
0.9568000000 0.9566000000 0.9461000000
0.9687000000 0.9571000000 0.9328000000
0.1005000000 0.1523000000 0.3455000000
0.2940000000 0.0894000000 0.4350000000
0.6525000000 0.1412000000 0.4475000000
0.7909000000 0.2890000000 0.4570000000
0.8644000000 0.5112000000 0.5121000000
0.1860000000 0.2595000000 0.3256000000
0.2785000000 0.2903000000 0.4237000000
0.6277000000 0.3250000000 0.4891000000
0.7743000000 0.4242000000 0.4821000000
0.8716000000 0.5556000000 0.5559000000
0.0904000000 0.4395000000 0.4449000000
0.2866000000 0.4875000000 0.4824000000
0.5954000000 0.5919000000 0.5784000000
0.7701000000 0.6065000000 0.5532000000
0.8719000000 0.6640000000 0.5963000000
0.1687000000 0.6694000000 0.5954000000
0.3415000000 0.6935000000 0.6208000000
0.6548000000 0.7633000000 0.6956000000
0.8358000000 0.8263000000 0.7923000000
0.9186000000 0.8392000000 0.7674000000
0.6149000000 0.8745000000 0.7914000000
0.6417000000 0.8817000000 0.7957000000
0.7481000000 0.9046000000 0.8216000000
0.9502000000 0.9547000000 0.9419000000
0.9740000000 0.9616000000 0.9417000000
0.3097000000 0.3237000000 0.6140000000
0.4370000000 0.3071000000 0.6556000000
0.7044000000 0.3114000000 0.6999000000
0.8210000000 0.5058000000 0.6840000000
0.8950000000 0.6917000000 0.7569000000
0.3557000000 0.4213000000 0.5929000000
0.4357000000 0.4249000000 0.6420000000
0.6756000000 0.4586000000 0.6979000000
0.8175000000 0.5730000000 0.6937000000
0.8980000000 0.7082000000 0.7670000000
0.3806000000 0.5457000000 0.6066000000
0.4515000000 0.5549000000 0.6128000000
0.6299000000 0.6207000000 0.6997000000
0.8198000000 0.6871000000 0.7358000000
0.9080000000 0.7474000000 0.7831000000
0.4055000000 0.6976000000 0.7012000000
0.4900000000 0.7069000000 0.7108000000
0.6387000000 0.7292000000 0.7339000000
0.8342000000 0.8221000000 0.8221000000
0.9288000000 0.8382000000 0.8217000000
0.6480000000 0.8710000000 0.8395000000
0.6630000000 0.8775000000 0.8434000000
0.7239000000 0.8982000000 0.8615000000
0.9002000000 0.9426000000 0.9157000000
0.9829000000 0.9689000000 0.9578000000
0.6812000000 0.6686000000 0.8203000000
0.6981000000 0.6630000000 0.8259000000
0.7704000000 0.6439000000 0.8418000000
0.8730000000 0.7016000000 0.8482000000
0.9419000000 0.8246000000 0.8720000000
0.6963000000 0.7010000000 0.8208000000
0.7093000000 0.6971000000 0.8267000000
0.7695000000 0.6816000000 0.8445000000
0.8791000000 0.7220000000 0.8606000000
0.9451000000 0.8351000000 0.8794000000
0.7324000000 0.7614000000 0.8188000000
0.7364000000 0.7598000000 0.8230000000
0.7788000000 0.7670000000 0.8528000000
0.8852000000 0.7768000000 0.8867000000
0.9547000000 0.8671000000 0.9019000000
0.7856000000 0.8400000000 0.8744000000
0.7943000000 0.8423000000 0.8763000000
0.8222000000 0.8490000000 0.8814000000
0.8745000000 0.8629000000 0.9056000000
0.9704000000 0.9169000000 0.9379000000
0.8642000000 0.9241000000 0.9369000000
0.8652000000 0.9253000000 0.9377000000
0.8712000000 0.9301000000 0.9413000000
0.9194000000 0.9487000000 0.9575000000
0.9916000000 0.9811000000 0.9855000000
