bundles/resolve-cinematic-luts/Gamut/Hestia/Hestia 01.cube
TITLE "Hestia 01 by Gamut.io"
# Copyright 2021 Gamut.io (in collaboration with Russell Kent Nicholls)
LUT_3D_SIZE 33
0.0212000000 0.0307000000 0.0291000000
0.0291000000 0.0323000000 0.0299000000
0.0417000000 0.0362000000 0.0315000000
0.0621000000 0.0439000000 0.0346000000
0.0790000000 0.0535000000 0.0401000000
0.0986000000 0.0609000000 0.0460000000
0.1245000000 0.0649000000 0.0495000000
0.1563000000 0.0671000000 0.0515000000
0.1954000000 0.0677000000 0.0528000000
0.2418000000 0.0654000000 0.0508000000
0.2952000000 0.0566000000 0.0453000000
0.3526000000 0.0392000000 0.0353000000
0.4125000000 0.0250000000 0.0203000000
0.4720000000 0.0384000000 0.0053000000
0.5285000000 0.0708000000 -0.0002000000
0.5804000000 0.1070000000 -0.0002000000
0.6265000000 0.1455000000 -0.0001000000
0.6672000000 0.1849000000 0.0009000000
0.7025000000 0.2236000000 0.0019000000
0.7329000000 0.2607000000 0.0068000000
0.7598000000 0.2961000000 0.0164000000
0.7837000000 0.3298000000 0.0338000000
0.8049000000 0.3617000000 0.0587000000
0.8239000000 0.3921000000 0.0892000000
0.8405000000 0.4205000000 0.1245000000
0.8549000000 0.4473000000 0.1624000000
0.8672000000 0.4728000000 0.2025000000
0.8777000000 0.4971000000 0.2441000000
0.8866000000 0.5208000000 0.2874000000
0.8941000000 0.5444000000 0.3324000000
0.9007000000 0.5679000000 0.3793000000
0.9068000000 0.5919000000 0.4277000000
0.9133000000 0.6166000000 0.4775000000
0.0204000000 0.0354000000 0.0315000000
0.0267000000 0.0370000000 0.0323000000
0.0385000000 0.0424000000 0.0330000000
0.0603000000 0.0502000000 0.0354000000
0.0770000000 0.0585000000 0.0401000000
0.0970000000 0.0638000000 0.0467000000
0.1225000000 0.0677000000 0.0502000000
0.1534000000 0.0704000000 0.0522000000
0.1923000000 0.0719000000 0.0522000000
0.2391000000 0.0703000000 0.0508000000
0.2922000000 0.0649000000 0.0460000000
0.3504000000 0.0547000000 0.0353000000
0.4099000000 0.0481000000 0.0203000000
0.4694000000 0.0578000000 0.0061000000
0.5262000000 0.0827000000 -0.0002000000
0.5781000000 0.1148000000 -0.0002000000
0.6244000000 0.1515000000 -0.0001000000
0.6652000000 0.1899000000 0.0009000000
0.7004000000 0.2282000000 0.0027000000
0.7311000000 0.2650000000 0.0068000000
0.7580000000 0.3004000000 0.0172000000
0.7821000000 0.3338000000 0.0338000000
0.8035000000 0.3655000000 0.0586000000
0.8227000000 0.3953000000 0.0896000000
0.8395000000 0.4235000000 0.1248000000
0.8541000000 0.4500000000 0.1626000000
0.8665000000 0.4751000000 0.2025000000
0.8770000000 0.4991000000 0.2442000000
0.8861000000 0.5227000000 0.2876000000
0.8937000000 0.5460000000 0.3327000000
0.9005000000 0.5694000000 0.3796000000
0.9066000000 0.5932000000 0.4281000000
0.9132000000 0.6178000000 0.4779000000
0.0212000000 0.0439000000 0.0362000000
0.0283000000 0.0468000000 0.0378000000
0.0378000000 0.0475000000 0.0378000000
0.0591000000 0.0554000000 0.0401000000
0.0755000000 0.0621000000 0.0431000000
0.0945000000 0.0672000000 0.0474000000
0.1196000000 0.0709000000 0.0502000000
0.1505000000 0.0745000000 0.0528000000
0.1890000000 0.0765000000 0.0528000000
0.2357000000 0.0760000000 0.0515000000
0.2886000000 0.0729000000 0.0460000000
0.3462000000 0.0682000000 0.0353000000
0.4062000000 0.0665000000 0.0203000000
0.4658000000 0.0744000000 0.0061000000
0.5227000000 0.0945000000 0.0006000000
0.5747000000 0.1242000000 -0.0002000000
0.6215000000 0.1594000000 -0.0001000000
0.6623000000 0.1967000000 0.0009000000
0.6978000000 0.2341000000 0.0027000000
0.7287000000 0.2705000000 0.0076000000
0.7559000000 0.3055000000 0.0180000000
0.7801000000 0.3386000000 0.0353000000
0.8018000000 0.3698000000 0.0599000000
0.8212000000 0.3993000000 0.0904000000
0.8383000000 0.4270000000 0.1250000000
0.8530000000 0.4530000000 0.1628000000
0.8657000000 0.4778000000 0.2028000000
0.8764000000 0.5015000000 0.2445000000
0.8854000000 0.5248000000 0.2879000000
0.8932000000 0.5478000000 0.3330000000
0.9000000000 0.5711000000 0.3800000000
0.9064000000 0.5947000000 0.4286000000
0.9130000000 0.6191000000 0.4786000000
0.0228000000 0.0592000000 0.0461000000
0.0259000000 0.0603000000 0.0461000000
0.0416000000 0.0609000000 0.0509000000
0.0579000000 0.0627000000 0.0495000000
0.0725000000 0.0672000000 0.0515000000
0.0912000000 0.0730000000 0.0535000000
0.1148000000 0.0770000000 0.0541000000
0.1454000000 0.0818000000 0.0547000000
0.1827000000 0.0850000000 0.0541000000
0.2284000000 0.0867000000 0.0521000000
0.2810000000 0.0867000000 0.0467000000
0.3389000000 0.0858000000 0.0360000000
0.3989000000 0.0876000000 0.0211000000
0.4588000000 0.0957000000 0.0069000000
0.5163000000 0.1131000000 0.0006000000
0.5693000000 0.1393000000 0.0006000000
0.6165000000 0.1715000000 0.0008000000
0.6580000000 0.2068000000 0.0009000000
0.6939000000 0.2427000000 0.0035000000
0.7253000000 0.2781000000 0.0092000000
0.7529000000 0.3122000000 0.0196000000
0.7776000000 0.3446000000 0.0369000000
0.7997000000 0.3752000000 0.0616000000
0.8194000000 0.4041000000 0.0917000000
0.8367000000 0.4313000000 0.1263000000
0.8517000000 0.4569000000 0.1635000000
0.8645000000 0.4811000000 0.2034000000
0.8754000000 0.5045000000 0.2448000000
0.8847000000 0.5275000000 0.2882000000
0.8927000000 0.5503000000 0.3335000000
0.8996000000 0.5732000000 0.3805000000
0.9061000000 0.5966000000 0.4292000000
0.9128000000 0.6208000000 0.4793000000
0.0243000000 0.0693000000 0.0567000000
0.0243000000 0.0699000000 0.0561000000
0.0369000000 0.0709000000 0.0573000000
0.0585000000 0.0714000000 0.0609000000
0.0704000000 0.0735000000 0.0597000000
0.0872000000 0.0789000000 0.0597000000
0.1095000000 0.0854000000 0.0603000000
0.1393000000 0.0911000000 0.0603000000
0.1760000000 0.0957000000 0.0597000000
0.2205000000 0.0997000000 0.0572000000
0.2724000000 0.1028000000 0.0521000000
0.3292000000 0.1051000000 0.0408000000
0.3892000000 0.1095000000 0.0266000000
0.4492000000 0.1189000000 0.0100000000
0.5072000000 0.1352000000 0.0022000000
0.5612000000 0.1584000000 0.0015000000
0.6094000000 0.1876000000 0.0016000000
0.6518000000 0.2202000000 0.0026000000
0.6887000000 0.2542000000 0.0051000000
0.7208000000 0.2882000000 0.0116000000
0.7492000000 0.3211000000 0.0227000000
0.7744000000 0.3526000000 0.0409000000
0.7969000000 0.3823000000 0.0651000000
0.8171000000 0.4103000000 0.0950000000
0.8348000000 0.4367000000 0.1287000000
0.8500000000 0.4616000000 0.1654000000
0.8631000000 0.4854000000 0.2047000000
0.8743000000 0.5084000000 0.2459000000
0.8838000000 0.5308000000 0.2891000000
0.8919000000 0.5533000000 0.3342000000
0.8990000000 0.5759000000 0.3813000000
0.9056000000 0.5990000000 0.4300000000
0.9125000000 0.6230000000 0.4802000000
0.0267000000 0.0794000000 0.0638000000
0.0267000000 0.0799000000 0.0632000000
0.0330000000 0.0809000000 0.0638000000
0.0535000000 0.0827000000 0.0644000000
0.0698000000 0.0813000000 0.0671000000
0.0832000000 0.0854000000 0.0655000000
0.1047000000 0.0920000000 0.0649000000
0.1325000000 0.1001000000 0.0654000000
0.1675000000 0.1080000000 0.0654000000
0.2113000000 0.1141000000 0.0632000000
0.2626000000 0.1195000000 0.0602000000
0.3195000000 0.1251000000 0.0528000000
0.3791000000 0.1319000000 0.0408000000
0.4398000000 0.1424000000 0.0227000000
0.4984000000 0.1581000000 0.0093000000
0.5528000000 0.1793000000 0.0047000000
0.6019000000 0.2062000000 0.0040000000
0.6448000000 0.2366000000 0.0058000000
0.6824000000 0.2685000000 0.0091000000
0.7153000000 0.3007000000 0.0164000000
0.7444000000 0.3321000000 0.0282000000
0.7703000000 0.3623000000 0.0468000000
0.7936000000 0.3909000000 0.0716000000
0.8142000000 0.4180000000 0.1002000000
0.8323000000 0.4435000000 0.1329000000
0.8479000000 0.4677000000 0.1686000000
0.8614000000 0.4908000000 0.2071000000
0.8729000000 0.5131000000 0.2477000000
0.8826000000 0.5352000000 0.2905000000
0.8910000000 0.5572000000 0.3354000000
0.8983000000 0.5793000000 0.3824000000
0.9051000000 0.6020000000 0.4311000000
0.9122000000 0.6257000000 0.4814000000
0.0259000000 0.0912000000 0.0698000000
0.0266000000 0.0916000000 0.0698000000
0.0290000000 0.0920000000 0.0698000000
0.0467000000 0.0941000000 0.0698000000
0.0677000000 0.0957000000 0.0730000000
0.0818000000 0.0937000000 0.0730000000
0.0985000000 0.0997000000 0.0714000000
0.1254000000 0.1080000000 0.0703000000
0.1595000000 0.1182000000 0.0708000000
0.2007000000 0.1285000000 0.0703000000
0.2511000000 0.1375000000 0.0682000000
0.3076000000 0.1454000000 0.0643000000
0.3675000000 0.1544000000 0.0566000000
0.4283000000 0.1664000000 0.0438000000
0.4877000000 0.1819000000 0.0275000000
0.5430000000 0.2023000000 0.0150000000
0.5928000000 0.2271000000 0.0112000000
0.6367000000 0.2551000000 0.0122000000
0.6750000000 0.2850000000 0.0171000000
0.7087000000 0.3152000000 0.0251000000
0.7387000000 0.3449000000 0.0385000000
0.7654000000 0.3737000000 0.0574000000
0.7894000000 0.4011000000 0.0815000000
0.8107000000 0.4271000000 0.1088000000
0.8293000000 0.4517000000 0.1398000000
0.8454000000 0.4750000000 0.1743000000
0.8591000000 0.4973000000 0.2113000000
0.8710000000 0.5190000000 0.2508000000
0.8811000000 0.5405000000 0.2928000000
0.8898000000 0.5618000000 0.3373000000
0.8974000000 0.5835000000 0.3841000000
0.9044000000 0.6058000000 0.4328000000
0.9118000000 0.6290000000 0.4830000000
0.0227000000 0.1047000000 0.0770000000
0.0227000000 0.1055000000 0.0770000000
0.0243000000 0.1059000000 0.0770000000
0.0408000000 0.1081000000 0.0765000000
0.0609000000 0.1110000000 0.0765000000
0.0827000000 0.1106000000 0.0813000000
0.0973000000 0.1095000000 0.0799000000
0.1182000000 0.1169000000 0.0779000000
0.1508000000 0.1276000000 0.0769000000
0.1909000000 0.1395000000 0.0769000000
0.2389000000 0.1523000000 0.0764000000
0.2937000000 0.1649000000 0.0750000000
0.3534000000 0.1770000000 0.0704000000
0.4145000000 0.1899000000 0.0627000000
0.4746000000 0.2059000000 0.0517000000
0.5310000000 0.2255000000 0.0395000000
0.5817000000 0.2488000000 0.0302000000
0.6265000000 0.2749000000 0.0272000000
0.6660000000 0.3029000000 0.0313000000
0.7009000000 0.3313000000 0.0401000000
0.7318000000 0.3594000000 0.0543000000
0.7596000000 0.3867000000 0.0727000000
0.7844000000 0.4128000000 0.0951000000
0.8065000000 0.4377000000 0.1205000000
0.8257000000 0.4612000000 0.1499000000
0.8423000000 0.4835000000 0.1821000000
0.8566000000 0.5050000000 0.2175000000
0.8688000000 0.5260000000 0.2557000000
0.8793000000 0.5467000000 0.2968000000
0.8883000000 0.5674000000 0.3404000000
0.8963000000 0.5885000000 0.3866000000
0.9036000000 0.6102000000 0.4348000000
0.9113000000 0.6329000000 0.4848000000
0.0140000000 0.1222000000 0.0859000000
0.0140000000 0.1228000000 0.0859000000
0.0148000000 0.1238000000 0.0854000000
0.0306000000 0.1254000000 0.0850000000
0.0547000000 0.1285000000 0.0841000000
0.0744000000 0.1313000000 0.0854000000
0.0977000000 0.1270000000 0.0889000000
0.1155000000 0.1279000000 0.0876000000
0.1412000000 0.1375000000 0.0854000000
0.1800000000 0.1502000000 0.0845000000
0.2267000000 0.1644000000 0.0845000000
0.2798000000 0.1798000000 0.0841000000
0.3379000000 0.1962000000 0.0823000000
0.3988000000 0.2124000000 0.0781000000
0.4595000000 0.2293000000 0.0721000000
0.5165000000 0.2486000000 0.0641000000
0.5686000000 0.2706000000 0.0572000000
0.6148000000 0.2953000000 0.0541000000
0.6555000000 0.3214000000 0.0555000000
0.6915000000 0.3482000000 0.0629000000
0.7239000000 0.3748000000 0.0753000000
0.7528000000 0.4007000000 0.0918000000
0.7787000000 0.4256000000 0.1118000000
0.8016000000 0.4493000000 0.1353000000
0.8214000000 0.4717000000 0.1625000000
0.8387000000 0.4932000000 0.1929000000
0.8535000000 0.5138000000 0.2263000000
0.8663000000 0.5340000000 0.2628000000
0.8772000000 0.5539000000 0.3024000000
0.8866000000 0.5740000000 0.3450000000
0.8949000000 0.5944000000 0.3902000000
0.9027000000 0.6155000000 0.4378000000
0.9108000000 0.6376000000 0.4872000000
0.0022000000 0.1435000000 0.0961000000
0.0022000000 0.1438000000 0.0961000000
0.0029000000 0.1446000000 0.0957000000
0.0132000000 0.1462000000 0.0949000000
0.0400000000 0.1492000000 0.0940000000
0.0660000000 0.1526000000 0.0932000000
0.0957000000 0.1531000000 0.0989000000
0.1162000000 0.1448000000 0.0985000000
0.1369000000 0.1484000000 0.0961000000
0.1682000000 0.1607000000 0.0940000000
0.2128000000 0.1756000000 0.0928000000
0.2652000000 0.1923000000 0.0928000000
0.3221000000 0.2106000000 0.0925000000
0.3820000000 0.2299000000 0.0913000000
0.4423000000 0.2497000000 0.0884000000
0.5003000000 0.2700000000 0.0845000000
0.5536000000 0.2916000000 0.0809000000
0.6010000000 0.3149000000 0.0792000000
0.6433000000 0.3398000000 0.0812000000
0.6809000000 0.3652000000 0.0872000000
0.7146000000 0.3904000000 0.0981000000
0.7450000000 0.4152000000 0.1126000000
0.7720000000 0.4390000000 0.1307000000
0.7958000000 0.4617000000 0.1526000000
0.8165000000 0.4832000000 0.1777000000
0.8345000000 0.5039000000 0.2061000000
0.8500000000 0.5236000000 0.2375000000
0.8633000000 0.5429000000 0.2724000000
0.8747000000 0.5621000000 0.3103000000
0.8847000000 0.5813000000 0.3514000000
0.8934000000 0.6011000000 0.3953000000
0.9016000000 0.6215000000 0.4418000000
0.9103000000 0.6430000000 0.4902000000
-0.0002000000 0.1682000000 0.1084000000
-0.0002000000 0.1687000000 0.1080000000
-0.0002000000 0.1692000000 0.1077000000
0.0021000000 0.1715000000 0.1069000000
0.0155000000 0.1735000000 0.1054000000
0.0547000000 0.1767000000 0.1043000000
0.0836000000 0.1794000000 0.1043000000
0.1162000000 0.1747000000 0.1106000000
0.1360000000 0.1639000000 0.1077000000
0.1617000000 0.1712000000 0.1051000000
0.1989000000 0.1865000000 0.1032000000
0.2487000000 0.2036000000 0.1021000000
0.3050000000 0.2227000000 0.1021000000
0.3644000000 0.2436000000 0.1026000000
0.4243000000 0.2652000000 0.1024000000
0.4824000000 0.2877000000 0.1014000000
0.5367000000 0.3102000000 0.1008000000
0.5856000000 0.3331000000 0.1009000000
0.6293000000 0.3571000000 0.1037000000
0.6686000000 0.3814000000 0.1100000000
0.7041000000 0.4060000000 0.1203000000
0.7359000000 0.4298000000 0.1336000000
0.7644000000 0.4528000000 0.1507000000
0.7893000000 0.4747000000 0.1711000000
0.8110000000 0.4955000000 0.1946000000
0.8297000000 0.5152000000 0.2214000000
0.8460000000 0.5342000000 0.2510000000
0.8600000000 0.5527000000 0.2841000000
0.8720000000 0.5711000000 0.3204000000
0.8824000000 0.5897000000 0.3600000000
0.8916000000 0.6086000000 0.4024000000
0.9003000000 0.6283000000 0.4474000000
0.9095000000 0.6492000000 0.4943000000
-0.0002000000 0.1971000000 0.1222000000
-0.0002000000 0.1975000000 0.1218000000
-0.0002000000 0.1981000000 0.1215000000
-0.0002000000 0.1997000000 0.1205000000
0.0021000000 0.2022000000 0.1192000000
0.0297000000 0.2045000000 0.1168000000
0.0692000000 0.2070000000 0.1144000000
0.1069000000 0.2072000000 0.1185000000
0.1375000000 0.1953000000 0.1209000000
0.1575000000 0.1835000000 0.1168000000
0.1886000000 0.1954000000 0.1141000000
0.2319000000 0.2143000000 0.1131000000
0.2858000000 0.2335000000 0.1121000000
0.3450000000 0.2548000000 0.1126000000
0.4049000000 0.2774000000 0.1142000000
0.4635000000 0.3010000000 0.1157000000
0.5184000000 0.3249000000 0.1172000000
0.5686000000 0.3486000000 0.1197000000
0.6138000000 0.3725000000 0.1240000000
0.6550000000 0.3965000000 0.1309000000
0.6922000000 0.4204000000 0.1411000000
0.7259000000 0.4439000000 0.1543000000
0.7557000000 0.4663000000 0.1706000000
0.7819000000 0.4877000000 0.1901000000
0.8046000000 0.5079000000 0.2124000000
0.8244000000 0.5270000000 0.2379000000
0.8414000000 0.5454000000 0.2664000000
0.8562000000 0.5633000000 0.2980000000
0.8689000000 0.5810000000 0.3328000000
0.8799000000 0.5987000000 0.3706000000
0.8896000000 0.6170000000 0.4115000000
0.8989000000 0.6360000000 0.4548000000
0.9088000000 0.6562000000 0.5002000000
-0.0002000000 0.2294000000 0.1375000000
-0.0002000000 0.2299000000 0.1372000000
-0.0002000000 0.2306000000 0.1369000000
-0.0002000000 0.2319000000 0.1358000000
-0.0002000000 0.2335000000 0.1337000000
0.0061000000 0.2357000000 0.1313000000
0.0515000000 0.2376000000 0.1285000000
0.0911000000 0.2386000000 0.1270000000
0.1343000000 0.2341000000 0.1343000000
0.1603000000 0.2155000000 0.1316000000
0.1816000000 0.2067000000 0.1260000000
0.2180000000 0.2216000000 0.1238000000
0.2663000000 0.2429000000 0.1233000000
0.3233000000 0.2643000000 0.1234000000
0.3837000000 0.2874000000 0.1245000000
0.4426000000 0.3114000000 0.1276000000
0.4986000000 0.3360000000 0.1311000000
0.5501000000 0.3607000000 0.1354000000
0.5969000000 0.3850000000 0.1412000000
0.6398000000 0.4093000000 0.1492000000
0.6789000000 0.4333000000 0.1599000000
0.7145000000 0.4568000000 0.1734000000
0.7459000000 0.4791000000 0.1895000000
0.7734000000 0.5002000000 0.2086000000
0.7974000000 0.5201000000 0.2304000000
0.8183000000 0.5390000000 0.2552000000
0.8363000000 0.5569000000 0.2829000000
0.8518000000 0.5743000000 0.3134000000
0.8652000000 0.5914000000 0.3470000000
0.8769000000 0.6086000000 0.3835000000
0.8874000000 0.6262000000 0.4227000000
0.8975000000 0.6447000000 0.4644000000
0.9080000000 0.6643000000 0.5081000000
-0.0002000000 0.2649000000 0.1547000000
-0.0002000000 0.2652000000 0.1545000000
-0.0002000000 0.2656000000 0.1539000000
-0.0002000000 0.2668000000 0.1527000000
-0.0002000000 0.2682000000 0.1503000000
0.0006000000 0.2696000000 0.1476000000
0.0180000000 0.2710000000 0.1443000000
0.0709000000 0.2716000000 0.1410000000
0.1180000000 0.2699000000 0.1422000000
0.1608000000 0.2582000000 0.1477000000
0.1836000000 0.2359000000 0.1419000000
0.2075000000 0.2308000000 0.1352000000
0.2486000000 0.2485000000 0.1341000000
0.3008000000 0.2716000000 0.1342000000
0.3596000000 0.2950000000 0.1353000000
0.4197000000 0.3194000000 0.1381000000
0.4768000000 0.3445000000 0.1428000000
0.5298000000 0.3698000000 0.1487000000
0.5784000000 0.3949000000 0.1558000000
0.6231000000 0.4198000000 0.1649000000
0.6642000000 0.4442000000 0.1764000000
0.7016000000 0.4680000000 0.1905000000
0.7348000000 0.4906000000 0.2070000000
0.7640000000 0.5119000000 0.2261000000
0.7894000000 0.5318000000 0.2481000000
0.8116000000 0.5506000000 0.2726000000
0.8306000000 0.5684000000 0.2999000000
0.8471000000 0.5854000000 0.3299000000
0.8613000000 0.6022000000 0.3626000000
0.8737000000 0.6189000000 0.3980000000
0.8850000000 0.6361000000 0.4359000000
0.8958000000 0.6542000000 0.4763000000
0.9071000000 0.6734000000 0.5184000000
-0.0001000000 0.3022000000 0.1734000000
-0.0001000000 0.3025000000 0.1730000000
-0.0001000000 0.3028000000 0.1727000000
-0.0001000000 0.3037000000 0.1711000000
-0.0001000000 0.3047000000 0.1688000000
0.0007000000 0.3056000000 0.1657000000
0.0015000000 0.3065000000 0.1621000000
0.0482000000 0.3063000000 0.1581000000
0.0987000000 0.3045000000 0.1541000000
0.1502000000 0.2981000000 0.1597000000
0.1867000000 0.2786000000 0.1594000000
0.2064000000 0.2554000000 0.1509000000
0.2344000000 0.2550000000 0.1450000000
0.2796000000 0.2753000000 0.1443000000
0.3346000000 0.3001000000 0.1458000000
0.3939000000 0.3248000000 0.1484000000
0.4527000000 0.3504000000 0.1531000000
0.5074000000 0.3762000000 0.1596000000
0.5579000000 0.4020000000 0.1681000000
0.6045000000 0.4276000000 0.1781000000
0.6478000000 0.4529000000 0.1906000000
0.6872000000 0.4773000000 0.2053000000
0.7224000000 0.5005000000 0.2224000000
0.7534000000 0.5222000000 0.2420000000
0.7805000000 0.5425000000 0.2644000000
0.8040000000 0.5615000000 0.2892000000
0.8243000000 0.5794000000 0.3166000000
0.8418000000 0.5965000000 0.3466000000
0.8570000000 0.6131000000 0.3789000000
0.8702000000 0.6296000000 0.4137000000
0.8824000000 0.6467000000 0.4509000000
0.8941000000 0.6645000000 0.4902000000
0.9062000000 0.6834000000 0.5312000000
-0.0000000000 0.3409000000 0.1939000000
-0.0000000000 0.3411000000 0.1935000000
-0.0000000000 0.3412000000 0.1929000000
-0.0000000000 0.3420000000 0.1915000000
-0.0000000000 0.3425000000 0.1890000000
-0.0000000000 0.3429000000 0.1856000000
0.0024000000 0.3430000000 0.1816000000
0.0213000000 0.3424000000 0.1772000000
0.0787000000 0.3402000000 0.1727000000
0.1322000000 0.3351000000 0.1709000000
0.1819000000 0.3227000000 0.1759000000
0.2114000000 0.2967000000 0.1704000000
0.2291000000 0.2742000000 0.1592000000
0.2612000000 0.2784000000 0.1544000000
0.3103000000 0.3017000000 0.1551000000
0.3670000000 0.3276000000 0.1581000000
0.4258000000 0.3537000000 0.1627000000
0.4826000000 0.3801000000 0.1693000000
0.5352000000 0.4065000000 0.1782000000
0.5839000000 0.4329000000 0.1891000000
0.6293000000 0.4589000000 0.2022000000
0.6710000000 0.4842000000 0.2177000000
0.7085000000 0.5083000000 0.2356000000
0.7415000000 0.5308000000 0.2560000000
0.7705000000 0.5517000000 0.2790000000
0.7957000000 0.5714000000 0.3046000000
0.8173000000 0.5897000000 0.3325000000
0.8361000000 0.6070000000 0.3627000000
0.8522000000 0.6238000000 0.3952000000
0.8665000000 0.6405000000 0.4300000000
0.8796000000 0.6576000000 0.4668000000
0.8923000000 0.6755000000 0.5057000000
0.9054000000 0.6945000000 0.5463000000
0.0002000000 0.3800000000 0.2160000000
0.0002000000 0.3800000000 0.2155000000
0.0002000000 0.3803000000 0.2149000000
0.0002000000 0.3807000000 0.2135000000
0.0002000000 0.3811000000 0.2111000000
0.0002000000 0.3810000000 0.2074000000
0.0017000000 0.3806000000 0.2032000000
0.0065000000 0.3793000000 0.1981000000
0.0570000000 0.3766000000 0.1927000000
0.1135000000 0.3716000000 0.1876000000
0.1671000000 0.3626000000 0.1891000000
0.2114000000 0.3430000000 0.1899000000
0.2339000000 0.3127000000 0.1795000000
0.2511000000 0.2921000000 0.1673000000
0.2877000000 0.3010000000 0.1636000000
0.3402000000 0.3270000000 0.1662000000
0.3974000000 0.3541000000 0.1708000000
0.4551000000 0.3812000000 0.1776000000
0.5101000000 0.4084000000 0.1865000000
0.5611000000 0.4356000000 0.1979000000
0.6087000000 0.4625000000 0.2116000000
0.6529000000 0.4888000000 0.2278000000
0.6928000000 0.5139000000 0.2464000000
0.7282000000 0.5374000000 0.2676000000
0.7593000000 0.5593000000 0.2915000000
0.7863000000 0.5798000000 0.3180000000
0.8097000000 0.5988000000 0.3468000000
0.8297000000 0.6167000000 0.3778000000
0.8471000000 0.6340000000 0.4108000000
0.8625000000 0.6511000000 0.4459000000
0.8767000000 0.6685000000 0.4831000000
0.8905000000 0.6869000000 0.5222000000
0.9047000000 0.7062000000 0.5627000000
0.0003000000 0.4189000000 0.2394000000
0.0003000000 0.4190000000 0.2390000000
0.0003000000 0.4193000000 0.2383000000
0.0003000000 0.4194000000 0.2370000000
0.0003000000 0.4195000000 0.2346000000
0.0003000000 0.4191000000 0.2308000000
0.0019000000 0.4182000000 0.2262000000
0.0066000000 0.4164000000 0.2208000000
0.0327000000 0.4133000000 0.2148000000
0.0930000000 0.4083000000 0.2089000000
0.1495000000 0.3998000000 0.2042000000
0.2017000000 0.3855000000 0.2065000000
0.2377000000 0.3596000000 0.2016000000
0.2541000000 0.3266000000 0.1869000000
0.2731000000 0.3097000000 0.1751000000
0.3139000000 0.3234000000 0.1731000000
0.3691000000 0.3517000000 0.1776000000
0.4264000000 0.3799000000 0.1843000000
0.4828000000 0.4077000000 0.1932000000
0.5360000000 0.4356000000 0.2046000000
0.5859000000 0.4634000000 0.2187000000
0.6325000000 0.4907000000 0.2353000000
0.6751000000 0.5170000000 0.2546000000
0.7132000000 0.5418000000 0.2766000000
0.7467000000 0.5649000000 0.3014000000
0.7759000000 0.5865000000 0.3289000000
0.8010000000 0.6065000000 0.3588000000
0.8227000000 0.6253000000 0.3909000000
0.8416000000 0.6433000000 0.4250000000
0.8583000000 0.6611000000 0.4611000000
0.8738000000 0.6794000000 0.4991000000
0.8887000000 0.6982000000 0.5387000000
0.9042000000 0.7183000000 0.5801000000
0.0005000000 0.4575000000 0.2643000000
0.0005000000 0.4576000000 0.2637000000
0.0005000000 0.4578000000 0.2631000000
0.0005000000 0.4579000000 0.2621000000
0.0005000000 0.4576000000 0.2594000000
0.0005000000 0.4569000000 0.2555000000
0.0021000000 0.4558000000 0.2512000000
0.0060000000 0.4537000000 0.2454000000
0.0162000000 0.4503000000 0.2389000000
0.0736000000 0.4451000000 0.2323000000
0.1341000000 0.4368000000 0.2257000000
0.1864000000 0.4244000000 0.2224000000
0.2328000000 0.4042000000 0.2214000000
0.2612000000 0.3739000000 0.2112000000
0.2739000000 0.3405000000 0.1939000000
0.2963000000 0.3291000000 0.1832000000
0.3411000000 0.3470000000 0.1833000000
