bundles/resolve-cinematic-luts/Gamut/Hestia/Hestia 05.cube
TITLE "Hestia 05 by Gamut.io"
# Copyright 2021 Gamut.io (in collaboration with Russell Kent Nicholls)
LUT_3D_SIZE 33
0.0213000000 0.0307000000 0.0289000000
0.0294000000 0.0315000000 0.0297000000
0.0423000000 0.0326000000 0.0302000000
0.0616000000 0.0355000000 0.0308000000
0.0797000000 0.0375000000 0.0376000000
0.0986000000 0.0386000000 0.0387000000
0.1240000000 0.0356000000 0.0388000000
0.1547000000 0.0204000000 0.0403000000
0.1886000000 0.0051000000 0.0392000000
0.2240000000 0.0047000000 0.0360000000
0.2625000000 0.0087000000 0.0307000000
0.3019000000 0.0139000000 0.0233000000
0.3420000000 0.0193000000 0.0196000000
0.3817000000 0.0241000000 0.0244000000
0.4108000000 0.0355000000 -0.0051000000
0.4422000000 0.0435000000 -0.0094000000
0.4714000000 0.0511000000 -0.0080000000
0.4975000000 0.0583000000 -0.0034000000
0.5202000000 0.0652000000 0.0013000000
0.5400000000 0.0719000000 0.0061000000
0.5575000000 0.0782000000 0.0109000000
0.5729000000 0.0843000000 0.0156000000
0.5868000000 0.0898000000 0.0213000000
0.6002000000 0.0961000000 0.0286000000
0.6163000000 0.1023000000 0.0432000000
0.6478000000 0.1070000000 0.1075000000
0.6723000000 0.1357000000 0.1362000000
0.6928000000 0.1961000000 0.1364000000
0.7199000000 0.2435000000 0.1691000000
0.7457000000 0.2867000000 0.2010000000
0.7705000000 0.3293000000 0.2343000000
0.7945000000 0.3720000000 0.2677000000
0.8174000000 0.4143000000 0.3009000000
0.0209000000 0.0355000000 0.0309000000
0.0291000000 0.0370000000 0.0316000000
0.0385000000 0.0410000000 0.0330000000
0.0583000000 0.0455000000 0.0305000000
0.0759000000 0.0490000000 0.0319000000
0.0944000000 0.0507000000 0.0362000000
0.1197000000 0.0472000000 0.0389000000
0.1514000000 0.0337000000 0.0385000000
0.1878000000 0.0075000000 0.0390000000
0.2238000000 0.0048000000 0.0352000000
0.2619000000 0.0087000000 0.0300000000
0.3017000000 0.0140000000 0.0226000000
0.3416000000 0.0193000000 0.0196000000
0.3816000000 0.0241000000 0.0244000000
0.4104000000 0.0355000000 -0.0058000000
0.4420000000 0.0435000000 -0.0101000000
0.4714000000 0.0511000000 -0.0080000000
0.4974000000 0.0582000000 -0.0034000000
0.5202000000 0.0652000000 0.0013000000
0.5400000000 0.0719000000 0.0061000000
0.5575000000 0.0782000000 0.0109000000
0.5728000000 0.0842000000 0.0156000000
0.5869000000 0.0904000000 0.0214000000
0.6003000000 0.0967000000 0.0286000000
0.6164000000 0.1050000000 0.0430000000
0.6494000000 0.1116000000 0.1121000000
0.6751000000 0.1430000000 0.1435000000
0.6949000000 0.2076000000 0.1376000000
0.7219000000 0.2532000000 0.1667000000
0.7478000000 0.2963000000 0.1988000000
0.7725000000 0.3384000000 0.2320000000
0.7964000000 0.3800000000 0.2656000000
0.8190000000 0.4212000000 0.2992000000
0.0222000000 0.0440000000 0.0350000000
0.0313000000 0.0460000000 0.0366000000
0.0401000000 0.0479000000 0.0374000000
0.0540000000 0.0541000000 0.0396000000
0.0710000000 0.0583000000 0.0375000000
0.0938000000 0.0585000000 0.0329000000
0.1155000000 0.0591000000 0.0355000000
0.1473000000 0.0514000000 0.0379000000
0.1847000000 0.0238000000 0.0378000000
0.2224000000 0.0079000000 0.0351000000
0.2612000000 0.0087000000 0.0293000000
0.3012000000 0.0140000000 0.0218000000
0.3413000000 0.0192000000 0.0195000000
0.3813000000 0.0239000000 0.0242000000
0.4100000000 0.0357000000 -0.0072000000
0.4416000000 0.0435000000 -0.0108000000
0.4712000000 0.0510000000 -0.0080000000
0.4975000000 0.0583000000 -0.0034000000
0.5200000000 0.0652000000 0.0013000000
0.5400000000 0.0718000000 0.0061000000
0.5575000000 0.0782000000 0.0109000000
0.5731000000 0.0848000000 0.0162000000
0.5871000000 0.0916000000 0.0213000000
0.6008000000 0.0994000000 0.0290000000
0.6171000000 0.1091000000 0.0436000000
0.6412000000 0.1274000000 0.0725000000
0.6677000000 0.1639000000 0.1048000000
0.6976000000 0.2197000000 0.1345000000
0.7249000000 0.2647000000 0.1639000000
0.7506000000 0.3070000000 0.1958000000
0.7751000000 0.3481000000 0.2294000000
0.7985000000 0.3884000000 0.2633000000
0.8208000000 0.4282000000 0.2976000000
0.0240000000 0.0591000000 0.0441000000
0.0281000000 0.0609000000 0.0447000000
0.0459000000 0.0620000000 0.0503000000
0.0579000000 0.0630000000 0.0508000000
0.0680000000 0.0674000000 0.0518000000
0.0881000000 0.0705000000 0.0452000000
0.1152000000 0.0700000000 0.0373000000
0.1409000000 0.0683000000 0.0346000000
0.1746000000 0.0628000000 0.0326000000
0.2182000000 0.0321000000 0.0323000000
0.2597000000 0.0127000000 0.0275000000
0.3001000000 0.0140000000 0.0202000000
0.3403000000 0.0188000000 0.0191000000
0.3807000000 0.0236000000 0.0240000000
0.4087000000 0.0358000000 -0.0100000000
0.4411000000 0.0436000000 -0.0122000000
0.4712000000 0.0510000000 -0.0080000000
0.4974000000 0.0582000000 -0.0034000000
0.5200000000 0.0652000000 0.0013000000
0.5400000000 0.0724000000 0.0059000000
0.5576000000 0.0793000000 0.0106000000
0.5733000000 0.0859000000 0.0159000000
0.5875000000 0.0936000000 0.0207000000
0.6018000000 0.1030000000 0.0287000000
0.6190000000 0.1181000000 0.0435000000
0.6440000000 0.1466000000 0.0726000000
0.6739000000 0.1923000000 0.1012000000
0.7023000000 0.2367000000 0.1292000000
0.7291000000 0.2791000000 0.1600000000
0.7545000000 0.3198000000 0.1927000000
0.7783000000 0.3591000000 0.2265000000
0.8011000000 0.3976000000 0.2611000000
0.8228000000 0.4355000000 0.2957000000
0.0260000000 0.0702000000 0.0547000000
0.0276000000 0.0707000000 0.0546000000
0.0399000000 0.0730000000 0.0564000000
0.0651000000 0.0736000000 0.0617000000
0.0703000000 0.0759000000 0.0608000000
0.0828000000 0.0807000000 0.0621000000
0.1061000000 0.0851000000 0.0518000000
0.1415000000 0.0839000000 0.0409000000
0.1734000000 0.0823000000 0.0326000000
0.2097000000 0.0742000000 0.0296000000
0.2547000000 0.0546000000 0.0282000000
0.2992000000 0.0247000000 0.0250000000
0.3396000000 0.0193000000 0.0196000000
0.3801000000 0.0239000000 0.0243000000
0.4078000000 0.0367000000 -0.0122000000
0.4408000000 0.0441000000 -0.0124000000
0.4710000000 0.0515000000 -0.0082000000
0.4972000000 0.0587000000 -0.0036000000
0.5200000000 0.0662000000 0.0009000000
0.5400000000 0.0734000000 0.0056000000
0.5577000000 0.0808000000 0.0101000000
0.5739000000 0.0895000000 0.0148000000
0.5889000000 0.0994000000 0.0196000000
0.6050000000 0.1135000000 0.0270000000
0.6250000000 0.1373000000 0.0388000000
0.6535000000 0.1775000000 0.0618000000
0.6824000000 0.2181000000 0.0925000000
0.7094000000 0.2576000000 0.1231000000
0.7350000000 0.2966000000 0.1552000000
0.7592000000 0.3344000000 0.1887000000
0.7823000000 0.3714000000 0.2233000000
0.8042000000 0.4077000000 0.2584000000
0.8252000000 0.4435000000 0.2937000000
0.0299000000 0.0809000000 0.0619000000
0.0293000000 0.0809000000 0.0612000000
0.0370000000 0.0825000000 0.0611000000
0.0595000000 0.0858000000 0.0630000000
0.0782000000 0.0880000000 0.0700000000
0.0839000000 0.0910000000 0.0676000000
0.0999000000 0.0970000000 0.0686000000
0.1281000000 0.1026000000 0.0568000000
0.1708000000 0.1035000000 0.0414000000
0.2118000000 0.1010000000 0.0263000000
0.2505000000 0.0937000000 0.0214000000
0.2930000000 0.0804000000 0.0175000000
0.3369000000 0.0523000000 0.0133000000
0.3744000000 0.0367000000 0.0002000000
0.4085000000 0.0402000000 -0.0100000000
0.4411000000 0.0472000000 -0.0124000000
0.4711000000 0.0539000000 -0.0089000000
0.4972000000 0.0610000000 -0.0043000000
0.5202000000 0.0690000000 0.0001000000
0.5408000000 0.0778000000 0.0050000000
0.5592000000 0.0883000000 0.0085000000
0.5767000000 0.1007000000 0.0127000000
0.5946000000 0.1178000000 0.0157000000
0.6166000000 0.1457000000 0.0190000000
0.6409000000 0.1768000000 0.0274000000
0.6669000000 0.2106000000 0.0493000000
0.6934000000 0.2458000000 0.0835000000
0.7188000000 0.2810000000 0.1164000000
0.7430000000 0.3160000000 0.1498000000
0.7657000000 0.3508000000 0.1844000000
0.7873000000 0.3851000000 0.2198000000
0.8078000000 0.4189000000 0.2559000000
0.8278000000 0.4523000000 0.2919000000
0.0307000000 0.0929000000 0.0676000000
0.0317000000 0.0941000000 0.0675000000
0.0340000000 0.0950000000 0.0674000000
0.0544000000 0.0989000000 0.0677000000
0.0802000000 0.1048000000 0.0757000000
0.0959000000 0.1076000000 0.0796000000
0.1017000000 0.1105000000 0.0750000000
0.1216000000 0.1184000000 0.0762000000
0.1542000000 0.1250000000 0.0622000000
0.2038000000 0.1279000000 0.0399000000
0.2586000000 0.1244000000 0.0240000000
0.2980000000 0.1202000000 0.0095000000
0.3380000000 0.1087000000 0.0011000000
0.3769000000 0.0973000000 -0.0093000000
0.4123000000 0.0879000000 -0.0199000000
0.4432000000 0.0735000000 -0.0185000000
0.4721000000 0.0662000000 -0.0110000000
0.4985000000 0.0724000000 -0.0071000000
0.5220000000 0.0812000000 -0.0031000000
0.5445000000 0.0964000000 -0.0005000000
0.5680000000 0.1195000000 -0.0006000000
0.5911000000 0.1428000000 -0.0010000000
0.6130000000 0.1643000000 0.0011000000
0.6406000000 0.1874000000 0.0011000000
0.6669000000 0.2129000000 0.0111000000
0.6913000000 0.2410000000 0.0337000000
0.7137000000 0.2721000000 0.0698000000
0.7354000000 0.3036000000 0.1054000000
0.7566000000 0.3356000000 0.1409000000
0.7768000000 0.3675000000 0.1772000000
0.7961000000 0.3992000000 0.2140000000
0.8146000000 0.4306000000 0.2512000000
0.8323000000 0.4618000000 0.2891000000
0.0288000000 0.1087000000 0.0741000000
0.0289000000 0.1094000000 0.0745000000
0.0284000000 0.1100000000 0.0739000000
0.0478000000 0.1144000000 0.0741000000
0.0733000000 0.1217000000 0.0765000000
0.1028000000 0.1288000000 0.0887000000
0.1182000000 0.1333000000 0.0907000000
0.1246000000 0.1363000000 0.0839000000
0.1488000000 0.1449000000 0.0854000000
0.1867000000 0.1537000000 0.0706000000
0.2421000000 0.1571000000 0.0411000000
0.3012000000 0.1556000000 0.0208000000
0.3551000000 0.1511000000 -0.0002000000
0.3949000000 0.1473000000 -0.0223000000
0.4305000000 0.1408000000 -0.0366000000
0.4607000000 0.1335000000 -0.0380000000
0.4888000000 0.1302000000 -0.0376000000
0.5152000000 0.1336000000 -0.0313000000
0.5405000000 0.1410000000 -0.0261000000
0.5664000000 0.1525000000 -0.0252000000
0.5938000000 0.1684000000 -0.0267000000
0.6209000000 0.1863000000 -0.0275000000
0.6468000000 0.2048000000 -0.0251000000
0.6712000000 0.2247000000 -0.0183000000
0.6936000000 0.2471000000 -0.0026000000
0.7148000000 0.2720000000 0.0239000000
0.7339000000 0.2994000000 0.0601000000
0.7526000000 0.3276000000 0.0966000000
0.7708000000 0.3565000000 0.1335000000
0.7886000000 0.3854000000 0.1707000000
0.8056000000 0.4144000000 0.2086000000
0.8219000000 0.4433000000 0.2474000000
0.8377000000 0.4721000000 0.2862000000
0.0204000000 0.1270000000 0.0829000000
0.0213000000 0.1279000000 0.0829000000
0.0201000000 0.1283000000 0.0824000000
0.0360000000 0.1337000000 0.0823000000
0.0672000000 0.1414000000 0.0837000000
0.0986000000 0.1520000000 0.0910000000
0.1301000000 0.1608000000 0.1042000000
0.1471000000 0.1667000000 0.1042000000
0.1560000000 0.1693000000 0.0966000000
0.1838000000 0.1786000000 0.0971000000
0.2257000000 0.1886000000 0.0799000000
0.2818000000 0.1939000000 0.0469000000
0.3423000000 0.1948000000 0.0172000000
0.4024000000 0.1911000000 -0.0055000000
0.4564000000 0.1854000000 -0.0195000000
0.4927000000 0.1843000000 -0.0389000000
0.5212000000 0.1850000000 -0.0437000000
0.5497000000 0.1878000000 -0.0466000000
0.5768000000 0.1935000000 -0.0488000000
0.6026000000 0.2024000000 -0.0509000000
0.6274000000 0.2140000000 -0.0517000000
0.6496000000 0.2285000000 -0.0435000000
0.6710000000 0.2449000000 -0.0328000000
0.6917000000 0.2630000000 -0.0179000000
0.7115000000 0.2830000000 0.0027000000
0.7308000000 0.3050000000 0.0302000000
0.7496000000 0.3285000000 0.0615000000
0.7680000000 0.3530000000 0.0945000000
0.7859000000 0.3781000000 0.1285000000
0.8012000000 0.4044000000 0.1662000000
0.8158000000 0.4308000000 0.2049000000
0.8300000000 0.4571000000 0.2443000000
0.8439000000 0.4836000000 0.2841000000
0.0195000000 0.1492000000 0.0937000000
0.0197000000 0.1499000000 0.0932000000
0.0200000000 0.1508000000 0.0932000000
0.0241000000 0.1559000000 0.0930000000
0.0504000000 0.1649000000 0.0939000000
0.0904000000 0.1769000000 0.0972000000
0.1364000000 0.1907000000 0.1154000000
0.1669000000 0.2015000000 0.1250000000
0.1833000000 0.2075000000 0.1202000000
0.1964000000 0.2106000000 0.1121000000
0.2269000000 0.2201000000 0.1104000000
0.2706000000 0.2304000000 0.0916000000
0.3247000000 0.2368000000 0.0583000000
0.3826000000 0.2392000000 0.0259000000
0.4380000000 0.2388000000 -0.0004000000
0.4901000000 0.2361000000 -0.0116000000
0.5352000000 0.2336000000 -0.0174000000
0.5728000000 0.2341000000 -0.0226000000
0.6017000000 0.2392000000 -0.0319000000
0.6285000000 0.2464000000 -0.0376000000
0.6529000000 0.2562000000 -0.0373000000
0.6748000000 0.2685000000 -0.0302000000
0.6954000000 0.2825000000 -0.0194000000
0.7142000000 0.2988000000 -0.0031000000
0.7317000000 0.3168000000 0.0180000000
0.7487000000 0.3365000000 0.0431000000
0.7653000000 0.3572000000 0.0706000000
0.7816000000 0.3791000000 0.1010000000
0.7976000000 0.4014000000 0.1327000000
0.8130000000 0.4243000000 0.1668000000
0.8267000000 0.4478000000 0.2036000000
0.8386000000 0.4720000000 0.2432000000
0.8506000000 0.4963000000 0.2835000000
0.0243000000 0.1767000000 0.1064000000
0.0247000000 0.1779000000 0.1063000000
0.0250000000 0.1790000000 0.1063000000
0.0266000000 0.1839000000 0.1061000000
0.0352000000 0.1917000000 0.1065000000
0.0800000000 0.2050000000 0.1101000000
0.1261000000 0.2214000000 0.1186000000
0.1769000000 0.2378000000 0.1404000000
0.2125000000 0.2510000000 0.1491000000
0.2274000000 0.2563000000 0.1391000000
0.2454000000 0.2595000000 0.1307000000
0.2784000000 0.2682000000 0.1279000000
0.3214000000 0.2777000000 0.1086000000
0.3698000000 0.2839000000 0.0808000000
0.4208000000 0.2876000000 0.0518000000
0.4707000000 0.2890000000 0.0265000000
0.5177000000 0.2889000000 0.0075000000
0.5594000000 0.2888000000 -0.0035000000
0.5960000000 0.2906000000 -0.0070000000
0.6282000000 0.2948000000 -0.0045000000
0.6569000000 0.3012000000 0.0024000000
0.6829000000 0.3100000000 0.0122000000
0.7069000000 0.3207000000 0.0256000000
0.7266000000 0.3345000000 0.0382000000
0.7450000000 0.3501000000 0.0536000000
0.7627000000 0.3669000000 0.0719000000
0.7799000000 0.3851000000 0.0927000000
0.7965000000 0.4041000000 0.1159000000
0.8112000000 0.4241000000 0.1433000000
0.8241000000 0.4449000000 0.1747000000
0.8367000000 0.4660000000 0.2082000000
0.8479000000 0.4877000000 0.2453000000
0.8579000000 0.5100000000 0.2852000000
0.0314000000 0.2092000000 0.1214000000
0.0317000000 0.2102000000 0.1217000000
0.0323000000 0.2117000000 0.1213000000
0.0345000000 0.2165000000 0.1214000000
0.0384000000 0.2244000000 0.1220000000
0.0596000000 0.2354000000 0.1246000000
0.1159000000 0.2531000000 0.1313000000
0.1794000000 0.2739000000 0.1519000000
0.2263000000 0.2923000000 0.1694000000
0.2645000000 0.3066000000 0.1761000000
0.2793000000 0.3107000000 0.1629000000
0.3024000000 0.3140000000 0.1562000000
0.3350000000 0.3207000000 0.1538000000
0.3745000000 0.3282000000 0.1369000000
0.4177000000 0.3334000000 0.1129000000
0.4625000000 0.3367000000 0.0875000000
0.5064000000 0.3387000000 0.0657000000
0.5480000000 0.3397000000 0.0493000000
0.5861000000 0.3412000000 0.0395000000
0.6197000000 0.3442000000 0.0361000000
0.6496000000 0.3490000000 0.0383000000
0.6764000000 0.3558000000 0.0445000000
0.7010000000 0.3646000000 0.0543000000
0.7239000000 0.3749000000 0.0674000000
0.7456000000 0.3867000000 0.0836000000
0.7664000000 0.3997000000 0.1028000000
0.7866000000 0.4139000000 0.1253000000
0.8037000000 0.4299000000 0.1473000000
0.8186000000 0.4475000000 0.1697000000
0.8330000000 0.4657000000 0.1937000000
0.8469000000 0.4845000000 0.2198000000
0.8574000000 0.5041000000 0.2525000000
0.8656000000 0.5246000000 0.2902000000
0.0405000000 0.2455000000 0.1393000000
0.0409000000 0.2463000000 0.1393000000
0.0418000000 0.2478000000 0.1391000000
0.0443000000 0.2527000000 0.1396000000
0.0492000000 0.2606000000 0.1405000000
0.0576000000 0.2712000000 0.1425000000
0.1059000000 0.2860000000 0.1511000000
0.1692000000 0.3085000000 0.1651000000
0.2350000000 0.3314000000 0.1891000000
0.2829000000 0.3512000000 0.2037000000
0.3185000000 0.3644000000 0.2056000000
0.3373000000 0.3674000000 0.1949000000
0.3626000000 0.3692000000 0.1929000000
0.3937000000 0.3739000000 0.1892000000
0.4286000000 0.3787000000 0.1729000000
0.4665000000 0.3824000000 0.1520000000
0.5052000000 0.3848000000 0.1303000000
0.5430000000 0.3865000000 0.1113000000
0.5788000000 0.3883000000 0.0974000000
0.6118000000 0.3908000000 0.0883000000
0.6417000000 0.3947000000 0.0843000000
0.6690000000 0.4001000000 0.0853000000
0.6940000000 0.4070000000 0.0900000000
0.7173000000 0.4153000000 0.0988000000
0.7395000000 0.4248000000 0.1113000000
0.7606000000 0.4355000000 0.1274000000
0.7810000000 0.4472000000 0.1468000000
0.8008000000 0.4597000000 0.1693000000
0.8201000000 0.4730000000 0.1949000000
0.8379000000 0.4874000000 0.2216000000
0.8512000000 0.5043000000 0.2448000000
0.8643000000 0.5216000000 0.2690000000
0.8740000000 0.5399000000 0.2995000000
0.0512000000 0.2842000000 0.1598000000
0.0518000000 0.2852000000 0.1599000000
0.0526000000 0.2866000000 0.1600000000
0.0551000000 0.2913000000 0.1606000000
0.0600000000 0.2988000000 0.1618000000
0.0691000000 0.3093000000 0.1644000000
0.0951000000 0.3230000000 0.1706000000
0.1632000000 0.3424000000 0.1862000000
0.2366000000 0.3678000000 0.2090000000
0.2928000000 0.3908000000 0.2283000000
0.3409000000 0.4102000000 0.2405000000
0.3722000000 0.4205000000 0.2384000000
0.3954000000 0.4212000000 0.2352000000
0.4214000000 0.4217000000 0.2358000000
0.4499000000 0.4244000000 0.2299000000
0.4807000000 0.4271000000 0.2143000000
0.5129000000 0.4292000000 0.1952000000
0.5454000000 0.4310000000 0.1762000000
0.5770000000 0.4327000000 0.1596000000
0.6070000000 0.4350000000 0.1470000000
0.6351000000 0.4381000000 0.1386000000
0.6615000000 0.4424000000 0.1343000000
0.6863000000 0.4477000000 0.1342000000
0.7099000000 0.4542000000 0.1383000000
0.7324000000 0.4618000000 0.1462000000
0.7540000000 0.4703000000 0.1581000000
0.7748000000 0.4799000000 0.1738000000
0.7951000000 0.4902000000 0.1931000000
0.8147000000 0.5013000000 0.2158000000
0.8341000000 0.5132000000 0.2416000000
0.8530000000 0.5256000000 0.2698000000
0.8675000000 0.5404000000 0.2944000000
0.8799000000 0.5563000000 0.3173000000
0.0628000000 0.3250000000 0.1832000000
0.0633000000 0.3258000000 0.1833000000
0.0641000000 0.3271000000 0.1834000000
0.0666000000 0.3316000000 0.1843000000
0.0714000000 0.3387000000 0.1859000000
0.0802000000 0.3485000000 0.1888000000
0.0979000000 0.3613000000 0.1946000000
0.1591000000 0.3783000000 0.2097000000
0.2314000000 0.4016000000 0.2307000000
0.3047000000 0.4268000000 0.2572000000
0.3526000000 0.4485000000 0.2703000000
0.3984000000 0.4656000000 0.2805000000
0.4254000000 0.4715000000 0.2791000000
0.4513000000 0.4704000000 0.2806000000
0.4763000000 0.4700000000 0.2818000000
0.5017000000 0.4712000000 0.2730000000
0.5277000000 0.4724000000 0.2576000000
0.5544000000 0.4736000000 0.2401000000
0.5810000000 0.4749000000 0.2230000000
0.6072000000 0.4766000000 0.2083000000
0.6324000000 0.4790000000 0.1968000000
0.6569000000 0.4822000000 0.1889000000
0.6802000000 0.4863000000 0.1850000000
0.7031000000 0.4913000000 0.1847000000
0.7253000000 0.4973000000 0.1884000000
0.7471000000 0.5040000000 0.1959000000
0.7684000000 0.5117000000 0.2073000000
0.7892000000 0.5201000000 0.2228000000
0.8094000000 0.5293000000 0.2420000000
0.8293000000 0.5394000000 0.2649000000
0.8486000000 0.5499000000 0.2904000000
0.8676000000 0.5610000000 0.3182000000
0.8825000000 0.5742000000 0.3424000000
0.0745000000 0.3664000000 0.2091000000
0.0751000000 0.3672000000 0.2092000000
0.0760000000 0.3686000000 0.2093000000
0.0790000000 0.3725000000 0.2103000000
0.0834000000 0.3791000000 0.2123000000
0.0918000000 0.3882000000 0.2157000000
0.1089000000 0.4000000000 0.2216000000
0.1522000000 0.4151000000 0.2342000000
0.2294000000 0.4338000000 0.2576000000
0.3047000000 0.4592000000 0.2823000000
0.3651000000 0.4820000000 0.3031000000
0.4135000000 0.5025000000 0.3160000000
0.4560000000 0.5166000000 0.3260000000
0.4807000000 0.5184000000 0.3272000000
0.5044000000 0.5157000000 0.3293000000
0.5261000000 0.5143000000 0.3277000000
0.5474000000 0.5143000000 0.3161000000
0.5690000000 0.5145000000 0.3010000000
0.5908000000 0.5150000000 0.2846000000
0.6128000000 0.5159000000 0.2693000000
0.6347000000 0.5174000000 0.2560000000
0.6564000000 0.5197000000 0.2457000000
0.6776000000 0.5226000000 0.2388000000
0.6991000000 0.5264000000 0.2352000000
0.7202000000 0.5310000000 0.2354000000
0.7414000000 0.5364000000 0.2392000000
0.7625000000 0.5425000000 0.2467000000
0.7836000000 0.5494000000 0.2582000000
0.8044000000 0.5570000000 0.2735000000
0.8246000000 0.5654000000 0.2926000000
0.8444000000 0.5744000000 0.3152000000
0.8638000000 0.5839000000 0.3405000000
0.8828000000 0.5937000000 0.3672000000
0.0859000000 0.4075000000 0.2368000000
0.0865000000 0.4083000000 0.2369000000
0.0882000000 0.4098000000 0.2374000000
0.0901000000 0.4132000000 0.2383000000
0.0949000000 0.4191000000 0.2404000000
0.1035000000 0.4274000000 0.2442000000
0.1203000000 0.4380000000 0.2504000000
0.1537000000 0.4514000000 0.2617000000
0.2279000000 0.4685000000 0.2836000000
0.3052000000 0.4895000000 0.3100000000
0.3784000000 0.5123000000 0.3365000000
0.4262000000 0.5332000000 0.3512000000
0.4748000000 0.5520000000 0.3667000000
0.5113000000 0.5624000000 0.3761000000
0.5343000000 0.5614000000 0.3787000000
0.5530000000 0.5573000000 0.3780000000
0.5706000000 0.5551000000 0.3726000000
0.5880000000 0.5541000000 0.3591000000
0.6056000000 0.5534000000 0.3441000000
0.6236000000 0.5533000000 0.3288000000
0.6419000000 0.5539000000 0.3150000000
0.6605000000 0.5550000000 0.3033000000
0.6794000000 0.5570000000 0.2941000000
0.6987000000 0.5597000000 0.2882000000
0.7182000000 0.5631000000 0.2854000000
0.7382000000 0.5673000000 0.2861000000
0.7585000000 0.5722000000 0.2903000000
0.7792000000 0.5779000000 0.2981000000
0.7998000000 0.5842000000 0.3097000000
0.8204000000 0.5912000000 0.3251000000
0.8407000000 0.5988000000 0.3441000000
0.8603000000 0.6069000000 0.3662000000
0.8795000000 0.6154000000 0.3904000000
0.0971000000 0.4475000000 0.2658000000
0.0977000000 0.4483000000 0.2661000000
0.0993000000 0.4498000000 0.2666000000
0.1017000000 0.4526000000 0.2676000000
0.1066000000 0.4578000000 0.2700000000
0.1159000000 0.4653000000 0.2740000000
0.1325000000 0.4748000000 0.2805000000
0.1660000000 0.4869000000 0.2919000000
0.2327000000 0.5020000000 0.3120000000
0.3095000000 0.5187000000 0.3391000000
0.3792000000 0.5404000000 0.3643000000
0.4408000000 0.5610000000 0.3864000000
0.4865000000 0.5805000000 0.4007000000
0.5328000000 0.5965000000 0.4198000000
0.5624000000 0.6034000000 0.4291000000
0.5831000000 0.6007000000 0.4306000000
0.5967000000 0.5957000000 0.4256000000
0.6103000000 0.5927000000 0.4168000000
0.6243000000 0.5908000000 0.4021000000
0.6387000000 0.5895000000 0.3871000000
0.6536000000 0.5889000000 0.3729000000
0.6690000000 0.5890000000 0.3602000000
0.6851000000 0.5898000000 0.3497000000
0.7020000000 0.5915000000 0.3418000000
0.7196000000 0.5939000000 0.3369000000
0.7379000000 0.5970000000 0.3350000000
0.7569000000 0.6009000000 0.3365000000
0.7765000000 0.6054000000 0.3413000000
0.7966000000 0.6107000000 0.3496000000
0.8170000000 0.6166000000 0.3614000000
0.8374000000 0.6230000000 0.3768000000
0.8574000000 0.6300000000 0.3956000000
0.8763000000 0.6376000000 0.4175000000
0.1072000000 0.4856000000 0.2962000000
0.1084000000 0.4866000000 0.2964000000
0.1098000000 0.4880000000 0.2969000000
0.1124000000 0.4906000000 0.2981000000
0.1181000000 0.4952000000 0.3006000000
0.1288000000 0.5017000000 0.3048000000
0.1471000000 0.5103000000 0.3117000000
0.1804000000 0.5209000000 0.3230000000
0.2412000000 0.5343000000 0.3417000000
0.3135000000 0.5491000000 0.3664000000
0.3832000000 0.5666000000 0.3925000000
0.4498000000 0.5866000000 0.4172000000
0.4993000000 0.6058000000 0.4349000000
0.5449000000 0.6232000000 0.4532000000
0.5864000000 0.6365000000 0.4752000000
0.6117000000 0.6406000000 0.4844000000
