bundles/resolve-cinematic-luts/Gamut/Hestia/Hestia 02.cube
TITLE "Hestia 02 by Gamut.io"
# Copyright 2021 Gamut.io (in collaboration with Russell Kent Nicholls)
LUT_3D_SIZE 33
0.0156000000 0.0144000000 0.0124000000
0.0215000000 0.0149000000 0.0127000000
0.0299000000 0.0166000000 0.0129000000
0.0399000000 0.0172000000 0.0132000000
0.0520000000 0.0186000000 0.0136000000
0.0628000000 0.0206000000 0.0139000000
0.0791000000 0.0226000000 0.0143000000
0.0959000000 0.0239000000 0.0143000000
0.1173000000 0.0275000000 0.0115000000
0.1434000000 0.0317000000 0.0115000000
0.1732000000 0.0329000000 0.0106000000
0.2085000000 0.0363000000 0.0083000000
0.2537000000 0.0373000000 0.0069000000
0.3087000000 0.0385000000 0.0011000000
0.3629000000 0.0403000000 -0.0005000000
0.4168000000 0.0442000000 -0.0005000000
0.4690000000 0.0543000000 -0.0005000000
0.5190000000 0.0676000000 -0.0005000000
0.5692000000 0.0836000000 -0.0005000000
0.6182000000 0.0986000000 -0.0004000000
0.6646000000 0.1128000000 -0.0003000000
0.7083000000 0.1263000000 -0.0002000000
0.7528000000 0.1376000000 -0.0000000000
0.7898000000 0.1454000000 0.0001000000
0.8259000000 0.1555000000 0.0003000000
0.8609000000 0.1645000000 0.0005000000
0.8888000000 0.1703000000 0.0006000000
0.9116000000 0.1764000000 0.0008000000
0.9346000000 0.1837000000 0.0009000000
0.9540000000 0.1884000000 0.0010000000
0.9723000000 0.1950000000 0.0011000000
0.9882000000 0.1990000000 0.0012000000
1.0012000000 0.1981000000 0.0012000000
0.0182000000 0.0216000000 0.0150000000
0.0231000000 0.0221000000 0.0139000000
0.0305000000 0.0229000000 0.0143000000
0.0383000000 0.0257000000 0.0154000000
0.0502000000 0.0270000000 0.0155000000
0.0626000000 0.0275000000 0.0152000000
0.0778000000 0.0319000000 0.0155000000
0.0971000000 0.0341000000 0.0160000000
0.1192000000 0.0374000000 0.0158000000
0.1459000000 0.0423000000 0.0132000000
0.1773000000 0.0458000000 0.0127000000
0.2131000000 0.0508000000 0.0105000000
0.2626000000 0.0523000000 0.0066000000
0.3173000000 0.0552000000 0.0008000000
0.3703000000 0.0595000000 -0.0005000000
0.4236000000 0.0660000000 -0.0005000000
0.4749000000 0.0762000000 -0.0005000000
0.5252000000 0.0895000000 -0.0005000000
0.5748000000 0.1038000000 -0.0004000000
0.6234000000 0.1178000000 -0.0003000000
0.6677000000 0.1320000000 -0.0002000000
0.7150000000 0.1426000000 -0.0000000000
0.7567000000 0.1532000000 0.0001000000
0.7963000000 0.1633000000 0.0003000000
0.8290000000 0.1711000000 0.0005000000
0.8629000000 0.1783000000 0.0006000000
0.8900000000 0.1830000000 0.0008000000
0.9127000000 0.1896000000 0.0009000000
0.9354000000 0.1944000000 0.0010000000
0.9547000000 0.1996000000 0.0011000000
0.9723000000 0.2059000000 0.0012000000
0.9897000000 0.2092000000 0.0012000000
1.0013000000 0.2116000000 0.0013000000
0.0202000000 0.0295000000 0.0180000000
0.0270000000 0.0302000000 0.0184000000
0.0333000000 0.0310000000 0.0189000000
0.0420000000 0.0319000000 0.0193000000
0.0513000000 0.0349000000 0.0198000000
0.0646000000 0.0381000000 0.0203000000
0.0802000000 0.0423000000 0.0208000000
0.0995000000 0.0469000000 0.0206000000
0.1232000000 0.0518000000 0.0182000000
0.1502000000 0.0565000000 0.0178000000
0.1844000000 0.0602000000 0.0153000000
0.2257000000 0.0663000000 0.0121000000
0.2788000000 0.0712000000 0.0066000000
0.3331000000 0.0769000000 0.0009000000
0.3852000000 0.0825000000 -0.0005000000
0.4366000000 0.0916000000 -0.0005000000
0.4884000000 0.1030000000 -0.0005000000
0.5344000000 0.1144000000 -0.0004000000
0.5834000000 0.1280000000 -0.0003000000
0.6285000000 0.1411000000 -0.0002000000
0.6736000000 0.1520000000 -0.0001000000
0.7177000000 0.1624000000 0.0001000000
0.7586000000 0.1714000000 0.0003000000
0.7965000000 0.1787000000 0.0005000000
0.8296000000 0.1864000000 0.0006000000
0.8628000000 0.1923000000 0.0008000000
0.8894000000 0.1982000000 0.0009000000
0.9123000000 0.2024000000 0.0010000000
0.9351000000 0.2070000000 0.0011000000
0.9547000000 0.2112000000 0.0012000000
0.9716000000 0.2172000000 0.0012000000
0.9890000000 0.2214000000 0.0013000000
1.0008000000 0.2257000000 0.0013000000
0.0253000000 0.0419000000 0.0235000000
0.0324000000 0.0423000000 0.0240000000
0.0390000000 0.0426000000 0.0245000000
0.0460000000 0.0442000000 0.0249000000
0.0533000000 0.0450000000 0.0239000000
0.0667000000 0.0493000000 0.0237000000
0.0833000000 0.0536000000 0.0241000000
0.1043000000 0.0594000000 0.0236000000
0.1270000000 0.0654000000 0.0233000000
0.1565000000 0.0709000000 0.0208000000
0.1938000000 0.0765000000 0.0184000000
0.2363000000 0.0830000000 0.0156000000
0.2905000000 0.0915000000 0.0084000000
0.3434000000 0.0988000000 0.0030000000
0.3946000000 0.1061000000 -0.0004000000
0.4442000000 0.1154000000 -0.0005000000
0.4935000000 0.1258000000 -0.0004000000
0.5422000000 0.1396000000 -0.0003000000
0.5889000000 0.1517000000 -0.0002000000
0.6337000000 0.1626000000 -0.0001000000
0.6781000000 0.1737000000 0.0001000000
0.7205000000 0.1818000000 0.0003000000
0.7616000000 0.1903000000 0.0005000000
0.7992000000 0.1973000000 0.0006000000
0.8333000000 0.2045000000 0.0008000000
0.8654000000 0.2098000000 0.0009000000
0.8917000000 0.2143000000 0.0010000000
0.9144000000 0.2185000000 0.0011000000
0.9374000000 0.2227000000 0.0012000000
0.9567000000 0.2269000000 0.0013000000
0.9729000000 0.2313000000 0.0013000000
0.9888000000 0.2356000000 0.0014000000
1.0012000000 0.2399000000 0.0014000000
0.0273000000 0.0578000000 0.0279000000
0.0360000000 0.0571000000 0.0298000000
0.0427000000 0.0563000000 0.0302000000
0.0517000000 0.0574000000 0.0286000000
0.0609000000 0.0578000000 0.0278000000
0.0689000000 0.0588000000 0.0278000000
0.0860000000 0.0647000000 0.0282000000
0.1073000000 0.0712000000 0.0284000000
0.1334000000 0.0802000000 0.0283000000
0.1635000000 0.0889000000 0.0265000000
0.1997000000 0.0975000000 0.0239000000
0.2439000000 0.1049000000 0.0197000000
0.3000000000 0.1135000000 0.0135000000
0.3507000000 0.1216000000 0.0053000000
0.4015000000 0.1309000000 -0.0005000000
0.4513000000 0.1406000000 -0.0004000000
0.4992000000 0.1530000000 -0.0003000000
0.5484000000 0.1647000000 -0.0002000000
0.5925000000 0.1761000000 -0.0001000000
0.6389000000 0.1875000000 0.0001000000
0.6826000000 0.1956000000 0.0003000000
0.7248000000 0.2034000000 0.0005000000
0.7646000000 0.2113000000 0.0007000000
0.8007000000 0.2193000000 0.0009000000
0.8369000000 0.2234000000 0.0010000000
0.8677000000 0.2275000000 0.0011000000
0.8939000000 0.2316000000 0.0012000000
0.9166000000 0.2359000000 0.0013000000
0.9365000000 0.2393000000 0.0013000000
0.9557000000 0.2433000000 0.0014000000
0.9744000000 0.2476000000 0.0014000000
0.9903000000 0.2494000000 0.0014000000
1.0015000000 0.2538000000 0.0015000000
0.0269000000 0.0748000000 0.0314000000
0.0375000000 0.0756000000 0.0341000000
0.0485000000 0.0744000000 0.0362000000
0.0581000000 0.0747000000 0.0347000000
0.0682000000 0.0760000000 0.0350000000
0.0802000000 0.0787000000 0.0339000000
0.0926000000 0.0798000000 0.0341000000
0.1135000000 0.0833000000 0.0324000000
0.1395000000 0.0939000000 0.0328000000
0.1703000000 0.1029000000 0.0334000000
0.2076000000 0.1141000000 0.0300000000
0.2518000000 0.1261000000 0.0275000000
0.3072000000 0.1385000000 0.0190000000
0.3588000000 0.1480000000 0.0109000000
0.4090000000 0.1576000000 0.0016000000
0.4577000000 0.1687000000 -0.0003000000
0.5054000000 0.1800000000 -0.0002000000
0.5535000000 0.1924000000 -0.0000000000
0.5972000000 0.2035000000 0.0002000000
0.6435000000 0.2132000000 0.0004000000
0.6872000000 0.2223000000 0.0006000000
0.7294000000 0.2301000000 0.0008000000
0.7684000000 0.2358000000 0.0009000000
0.8044000000 0.2421000000 0.0011000000
0.8399000000 0.2461000000 0.0012000000
0.8690000000 0.2494000000 0.0013000000
0.8950000000 0.2531000000 0.0013000000
0.9182000000 0.2562000000 0.0014000000
0.9382000000 0.2589000000 0.0014000000
0.9568000000 0.2611000000 0.0014000000
0.9759000000 0.2643000000 0.0015000000
0.9917000000 0.2679000000 0.0015000000
1.0015000000 0.2708000000 0.0015000000
0.0250000000 0.0964000000 0.0386000000
0.0387000000 0.0978000000 0.0417000000
0.0522000000 0.0992000000 0.0430000000
0.0647000000 0.0988000000 0.0436000000
0.0781000000 0.0995000000 0.0441000000
0.0914000000 0.1030000000 0.0430000000
0.1068000000 0.1050000000 0.0417000000
0.1200000000 0.1028000000 0.0404000000
0.1447000000 0.1075000000 0.0393000000
0.1773000000 0.1191000000 0.0386000000
0.2151000000 0.1312000000 0.0365000000
0.2587000000 0.1442000000 0.0345000000
0.3139000000 0.1612000000 0.0294000000
0.3652000000 0.1736000000 0.0211000000
0.4141000000 0.1858000000 0.0100000000
0.4629000000 0.1974000000 0.0014000000
0.5109000000 0.2091000000 -0.0000000000
0.5576000000 0.2208000000 0.0002000000
0.6015000000 0.2303000000 0.0004000000
0.6461000000 0.2407000000 0.0006000000
0.6916000000 0.2487000000 0.0008000000
0.7337000000 0.2558000000 0.0010000000
0.7722000000 0.2611000000 0.0011000000
0.8077000000 0.2655000000 0.0012000000
0.8411000000 0.2697000000 0.0013000000
0.8709000000 0.2717000000 0.0014000000
0.8953000000 0.2756000000 0.0014000000
0.9176000000 0.2773000000 0.0015000000
0.9388000000 0.2791000000 0.0015000000
0.9574000000 0.2818000000 0.0015000000
0.9734000000 0.2840000000 0.0015000000
0.9892000000 0.2861000000 0.0015000000
1.0015000000 0.2891000000 0.0015000000
0.0199000000 0.1263000000 0.0468000000
0.0391000000 0.1279000000 0.0495000000
0.0572000000 0.1291000000 0.0505000000
0.0721000000 0.1286000000 0.0532000000
0.0890000000 0.1287000000 0.0533000000
0.1048000000 0.1298000000 0.0531000000
0.1221000000 0.1332000000 0.0506000000
0.1410000000 0.1358000000 0.0505000000
0.1581000000 0.1346000000 0.0487000000
0.1824000000 0.1346000000 0.0471000000
0.2216000000 0.1474000000 0.0445000000
0.2654000000 0.1632000000 0.0429000000
0.3215000000 0.1801000000 0.0380000000
0.3710000000 0.1972000000 0.0321000000
0.4191000000 0.2128000000 0.0244000000
0.4677000000 0.2282000000 0.0125000000
0.5132000000 0.2392000000 0.0011000000
0.5594000000 0.2508000000 0.0005000000
0.6059000000 0.2590000000 0.0007000000
0.6497000000 0.2670000000 0.0009000000
0.6946000000 0.2750000000 0.0011000000
0.7358000000 0.2820000000 0.0012000000
0.7738000000 0.2869000000 0.0013000000
0.8080000000 0.2903000000 0.0014000000
0.8424000000 0.2937000000 0.0014000000
0.8702000000 0.2966000000 0.0015000000
0.8943000000 0.2975000000 0.0015000000
0.9169000000 0.2994000000 0.0015000000
0.9366000000 0.3006000000 0.0015000000
0.9554000000 0.3029000000 0.0015000000
0.9719000000 0.3038000000 0.0014000000
0.9876000000 0.3060000000 0.0014000000
1.0003000000 0.3086000000 0.0014000000
0.0113000000 0.1643000000 0.0579000000
0.0366000000 0.1670000000 0.0624000000
0.0606000000 0.1649000000 0.0635000000
0.0831000000 0.1669000000 0.0643000000
0.1033000000 0.1671000000 0.0651000000
0.1245000000 0.1669000000 0.0659000000
0.1423000000 0.1690000000 0.0665000000
0.1642000000 0.1706000000 0.0624000000
0.1868000000 0.1724000000 0.0579000000
0.2029000000 0.1677000000 0.0574000000
0.2310000000 0.1693000000 0.0558000000
0.2721000000 0.1793000000 0.0511000000
0.3261000000 0.1982000000 0.0474000000
0.3727000000 0.2156000000 0.0446000000
0.4214000000 0.2332000000 0.0378000000
0.4691000000 0.2506000000 0.0297000000
0.5157000000 0.2680000000 0.0180000000
0.5618000000 0.2790000000 0.0066000000
0.6071000000 0.2898000000 0.0015000000
0.6508000000 0.2974000000 0.0011000000
0.6932000000 0.3029000000 0.0013000000
0.7346000000 0.3098000000 0.0014000000
0.7718000000 0.3131000000 0.0014000000
0.8059000000 0.3171000000 0.0015000000
0.8397000000 0.3187000000 0.0015000000
0.8681000000 0.3196000000 0.0015000000
0.8917000000 0.3204000000 0.0015000000
0.9134000000 0.3230000000 0.0014000000
0.9357000000 0.3242000000 0.0014000000
0.9534000000 0.3260000000 0.0014000000
0.9711000000 0.3266000000 0.0013000000
0.9867000000 0.3271000000 0.0013000000
1.0003000000 0.3307000000 0.0012000000
0.0011000000 0.2085000000 0.0688000000
0.0345000000 0.2099000000 0.0755000000
0.0666000000 0.2086000000 0.0767000000
0.0939000000 0.2081000000 0.0775000000
0.1187000000 0.2071000000 0.0783000000
0.1421000000 0.2056000000 0.0791000000
0.1632000000 0.2064000000 0.0797000000
0.1852000000 0.2064000000 0.0772000000
0.2078000000 0.2079000000 0.0739000000
0.2314000000 0.2082000000 0.0695000000
0.2516000000 0.2055000000 0.0673000000
0.2772000000 0.2023000000 0.0636000000
0.3283000000 0.2161000000 0.0585000000
0.3765000000 0.2341000000 0.0546000000
0.4237000000 0.2503000000 0.0522000000
0.4688000000 0.2698000000 0.0474000000
0.5177000000 0.2865000000 0.0391000000
0.5641000000 0.3064000000 0.0320000000
0.6078000000 0.3172000000 0.0194000000
0.6514000000 0.3257000000 0.0086000000
0.6943000000 0.3337000000 0.0027000000
0.7346000000 0.3383000000 0.0016000000
0.7722000000 0.3426000000 0.0015000000
0.8053000000 0.3446000000 0.0015000000
0.8394000000 0.3467000000 0.0014000000
0.8667000000 0.3474000000 0.0014000000
0.8908000000 0.3481000000 0.0013000000
0.9123000000 0.3488000000 0.0013000000
0.9340000000 0.3499000000 0.0012000000
0.9505000000 0.3504000000 0.0012000000
0.9692000000 0.3510000000 0.0011000000
0.9850000000 0.3515000000 0.0010000000
1.0009000000 0.3522000000 0.0009000000
0.0018000000 0.2483000000 0.0794000000
0.0315000000 0.2496000000 0.0873000000
0.0744000000 0.2491000000 0.0902000000
0.1061000000 0.2478000000 0.0910000000
0.1342000000 0.2469000000 0.0918000000
0.1598000000 0.2473000000 0.0926000000
0.1848000000 0.2444000000 0.0934000000
0.2078000000 0.2435000000 0.0923000000
0.2331000000 0.2446000000 0.0883000000
0.2569000000 0.2461000000 0.0853000000
0.2837000000 0.2478000000 0.0791000000
0.3045000000 0.2431000000 0.0765000000
0.3325000000 0.2395000000 0.0748000000
0.3761000000 0.2521000000 0.0695000000
0.4221000000 0.2708000000 0.0652000000
0.4702000000 0.2876000000 0.0626000000
0.5160000000 0.3068000000 0.0593000000
0.5621000000 0.3244000000 0.0562000000
0.6085000000 0.3411000000 0.0514000000
0.6522000000 0.3563000000 0.0453000000
0.6951000000 0.3653000000 0.0315000000
0.7345000000 0.3700000000 0.0135000000
0.7700000000 0.3734000000 0.0080000000
0.8030000000 0.3763000000 0.0050000000
0.8388000000 0.3774000000 0.0043000000
0.8642000000 0.3784000000 0.0045000000
0.8890000000 0.3792000000 0.0053000000
0.9112000000 0.3790000000 0.0066000000
0.9301000000 0.3773000000 0.0096000000
0.9491000000 0.3781000000 0.0138000000
0.9645000000 0.3789000000 0.0215000000
0.9801000000 0.3797000000 0.0316000000
0.9955000000 0.3807000000 0.0457000000
0.0049000000 0.2936000000 0.0937000000
0.0408000000 0.2951000000 0.1015000000
0.0918000000 0.2950000000 0.1059000000
0.1242000000 0.2938000000 0.1072000000
0.1552000000 0.2941000000 0.1083000000
0.1845000000 0.2923000000 0.1093000000
0.2110000000 0.2926000000 0.1104000000
0.2381000000 0.2901000000 0.1114000000
0.2622000000 0.2910000000 0.1117000000
0.2861000000 0.2931000000 0.1075000000
0.3137000000 0.2949000000 0.1029000000
0.3402000000 0.2964000000 0.0965000000
0.3635000000 0.2916000000 0.0926000000
0.3816000000 0.2827000000 0.0899000000
0.4208000000 0.2917000000 0.0872000000
0.4675000000 0.3084000000 0.0823000000
0.5138000000 0.3272000000 0.0792000000
0.5597000000 0.3451000000 0.0802000000
0.6031000000 0.3615000000 0.0783000000
0.6480000000 0.3776000000 0.0782000000
0.6921000000 0.3934000000 0.0779000000
0.7310000000 0.4047000000 0.0753000000
0.7686000000 0.4107000000 0.0669000000
0.8006000000 0.4116000000 0.0591000000
0.8342000000 0.4123000000 0.0527000000
0.8613000000 0.4131000000 0.0530000000
0.8838000000 0.4112000000 0.0552000000
0.9062000000 0.4106000000 0.0597000000
0.9250000000 0.4112000000 0.0659000000
0.9431000000 0.4081000000 0.0733000000
0.9624000000 0.4087000000 0.0809000000
0.9779000000 0.4092000000 0.0912000000
0.9902000000 0.4097000000 0.1007000000
0.0120000000 0.3397000000 0.1091000000
0.0634000000 0.3412000000 0.1178000000
0.1168000000 0.3410000000 0.1232000000
0.1512000000 0.3401000000 0.1242000000
0.1816000000 0.3391000000 0.1252000000
0.2099000000 0.3387000000 0.1263000000
0.2384000000 0.3376000000 0.1283000000
0.2642000000 0.3367000000 0.1319000000
0.2892000000 0.3339000000 0.1330000000
0.3126000000 0.3337000000 0.1305000000
0.3364000000 0.3353000000 0.1260000000
0.3631000000 0.3369000000 0.1196000000
0.3897000000 0.3377000000 0.1125000000
0.4123000000 0.3333000000 0.1073000000
0.4286000000 0.3220000000 0.1067000000
0.4649000000 0.3270000000 0.1022000000
0.5103000000 0.3457000000 0.0997000000
0.5549000000 0.3626000000 0.0961000000
0.5996000000 0.3796000000 0.0976000000
0.6434000000 0.3954000000 0.0991000000
0.6859000000 0.4111000000 0.0997000000
0.7263000000 0.4246000000 0.1034000000
0.7629000000 0.4365000000 0.1075000000
0.7948000000 0.4418000000 0.1061000000
0.8274000000 0.4426000000 0.1034000000
0.8540000000 0.4430000000 0.1012000000
0.8776000000 0.4402000000 0.1025000000
0.8987000000 0.4402000000 0.1057000000
0.9187000000 0.4378000000 0.1097000000
0.9373000000 0.4372000000 0.1156000000
0.9544000000 0.4377000000 0.1224000000
0.9717000000 0.4380000000 0.1303000000
0.9859000000 0.4384000000 0.1382000000
0.0245000000 0.3777000000 0.1257000000
0.0896000000 0.3788000000 0.1327000000
0.1398000000 0.3796000000 0.1393000000
0.1712000000 0.3808000000 0.1416000000
0.2010000000 0.3787000000 0.1425000000
0.2306000000 0.3790000000 0.1436000000
0.2572000000 0.3759000000 0.1446000000
0.2845000000 0.3754000000 0.1455000000
0.3078000000 0.3722000000 0.1496000000
0.3311000000 0.3710000000 0.1513000000
0.3550000000 0.3722000000 0.1477000000
0.3818000000 0.3731000000 0.1413000000
0.4058000000 0.3738000000 0.1353000000
0.4312000000 0.3730000000 0.1273000000
0.4517000000 0.3700000000 0.1222000000
0.4691000000 0.3598000000 0.1216000000
0.5013000000 0.3605000000 0.1183000000
0.5462000000 0.3774000000 0.1147000000
0.5899000000 0.3943000000 0.1139000000
0.6339000000 0.4103000000 0.1149000000
0.6772000000 0.4264000000 0.1191000000
0.7178000000 0.4406000000 0.1234000000
0.7534000000 0.4528000000 0.1283000000
0.7872000000 0.4636000000 0.1335000000
0.8199000000 0.4716000000 0.1402000000
0.8458000000 0.4735000000 0.1407000000
0.8683000000 0.4704000000 0.1427000000
0.8907000000 0.4707000000 0.1450000000
0.9112000000 0.4684000000 0.1487000000
0.9304000000 0.4684000000 0.1545000000
0.9471000000 0.4672000000 0.1604000000
0.9648000000 0.4668000000 0.1669000000
0.9780000000 0.4670000000 0.1748000000
0.0646000000 0.4229000000 0.1452000000
0.1257000000 0.4235000000 0.1523000000
0.1703000000 0.4250000000 0.1599000000
0.1988000000 0.4233000000 0.1630000000
0.2277000000 0.4237000000 0.1639000000
0.2534000000 0.4204000000 0.1648000000
0.2779000000 0.4192000000 0.1660000000
0.3034000000 0.4170000000 0.1669000000
0.3279000000 0.4166000000 0.1678000000
0.3527000000 0.4129000000 0.1688000000
0.3754000000 0.4129000000 0.1715000000
0.4006000000 0.4118000000 0.1649000000
0.4249000000 0.4129000000 0.1594000000
0.4498000000 0.4143000000 0.1544000000
0.4748000000 0.4150000000 0.1456000000
0.4948000000 0.4112000000 0.1409000000
0.5118000000 0.3989000000 0.1395000000
0.5408000000 0.3981000000 0.1364000000
0.5828000000 0.4110000000 0.1344000000
0.6267000000 0.4270000000 0.1337000000
0.6697000000 0.4431000000 0.1362000000
0.7101000000 0.4576000000 0.1415000000
0.7458000000 0.4701000000 0.1475000000
0.7794000000 0.4808000000 0.1548000000
0.8127000000 0.4916000000 0.1637000000
0.8397000000 0.5006000000 0.1748000000
0.8622000000 0.5035000000 0.1819000000
0.8848000000 0.5028000000 0.1858000000
0.9042000000 0.5010000000 0.1890000000
0.9239000000 0.5005000000 0.1950000000
0.9396000000 0.4986000000 0.1998000000
0.9553000000 0.4993000000 0.2050000000
0.9713000000 0.4995000000 0.2118000000
0.1084000000 0.4644000000 0.1637000000
0.1550000000 0.4648000000 0.1708000000
0.1940000000 0.4655000000 0.1781000000
0.2216000000 0.4649000000 0.1809000000
0.2466000000 0.4625000000 0.1818000000
0.2714000000 0.4621000000 0.1827000000
0.2963000000 0.4611000000 0.1836000000
0.3199000000 0.4590000000 0.1855000000
0.3453000000 0.4583000000 0.1885000000
0.3690000000 0.4569000000 0.1901000000
0.3927000000 0.4541000000 0.1910000000
0.4195000000 0.4533000000 0.1918000000
0.4410000000 0.4541000000 0.1864000000
0.4652000000 0.4547000000 0.1780000000
0.4880000000 0.4556000000 0.1728000000
0.5139000000 0.4547000000 0.1663000000
0.5367000000 0.4521000000 0.1589000000
0.5511000000 0.4394000000 0.1573000000
0.5783000000 0.4337000000 0.1558000000
0.6185000000 0.4448000000 0.1546000000
0.6617000000 0.4604000000 0.1548000000
0.7020000000 0.4745000000 0.1581000000
0.7387000000 0.4870000000 0.1651000000
0.7730000000 0.4989000000 0.1739000000
0.8053000000 0.5103000000 0.1850000000
0.8316000000 0.5198000000 0.1983000000
0.8566000000 0.5282000000 0.2100000000
0.8765000000 0.5348000000 0.2242000000
0.8955000000 0.5356000000 0.2292000000
0.9148000000 0.5349000000 0.2342000000
0.9334000000 0.5334000000 0.2392000000
0.9499000000 0.5326000000 0.2457000000
0.9624000000 0.5331000000 0.2524000000
0.1417000000 0.5034000000 0.1824000000
0.1798000000 0.5045000000 0.1898000000
0.2171000000 0.5051000000 0.1965000000
0.2460000000 0.5038000000 0.2024000000
0.2686000000 0.5046000000 0.2035000000
0.2907000000 0.5033000000 0.2043000000
0.3142000000 0.5020000000 0.2051000000
0.3382000000 0.5006000000 0.2059000000
0.3606000000 0.4995000000 0.2084000000
0.3847000000 0.4974000000 0.2103000000
0.4082000000 0.4963000000 0.2122000000
0.4349000000 0.4940000000 0.2129000000
0.4571000000 0.4932000000 0.2109000000
0.4781000000 0.4941000000 0.2056000000
0.5021000000 0.4939000000 0.2002000000
0.5255000000 0.4941000000 0.1933000000
0.5518000000 0.4938000000 0.1851000000
0.5749000000 0.4898000000 0.1786000000
0.5885000000 0.4763000000 0.1772000000
0.6137000000 0.4686000000 0.1755000000
0.6520000000 0.4769000000 0.1757000000
0.6927000000 0.4919000000 0.1756000000
0.7308000000 0.5047000000 0.1816000000
0.7661000000 0.5170000000 0.1926000000
0.7997000000 0.5292000000 0.2051000000
0.8251000000 0.5383000000 0.2191000000
0.8489000000 0.5475000000 0.2330000000
0.8702000000 0.5567000000 0.2482000000
0.8898000000 0.5653000000 0.2671000000
0.9069000000 0.5688000000 0.2787000000
0.9255000000 0.5699000000 0.2839000000
0.9416000000 0.5689000000 0.2910000000
0.9563000000 0.5695000000 0.2999000000
0.1779000000 0.5431000000 0.2043000000
0.2082000000 0.5430000000 0.2113000000
0.2394000000 0.5431000000 0.2167000000
0.2680000000 0.5432000000 0.2222000000
0.2882000000 0.5415000000 0.2240000000
0.3083000000 0.5412000000 0.2244000000
0.3290000000 0.5393000000 0.2249000000
0.3507000000 0.5378000000 0.2274000000
0.3727000000 0.5357000000 0.2277000000
0.3959000000 0.5343000000 0.2294000000
0.4180000000 0.5322000000 0.2304000000
0.4452000000 0.5297000000 0.2327000000
0.4684000000 0.5274000000 0.2339000000
0.4887000000 0.5273000000 0.2305000000
0.5107000000 0.5275000000 0.2248000000
0.5332000000 0.5267000000 0.2189000000
0.5583000000 0.5272000000 0.2110000000
0.5844000000 0.5277000000 0.2031000000
0.6072000000 0.5243000000 0.1968000000
0.6218000000 0.5098000000 0.1954000000
0.6440000000 0.5015000000 0.1930000000
0.6806000000 0.5068000000 0.1957000000
0.7180000000 0.5190000000 0.1991000000
0.7555000000 0.5316000000 0.2064000000
0.7890000000 0.5435000000 0.2185000000
0.8152000000 0.5531000000 0.2339000000
0.8404000000 0.5630000000 0.2509000000
0.8610000000 0.5715000000 0.2672000000
0.8806000000 0.5824000000 0.2877000000
0.8999000000 0.5916000000 0.3069000000
0.9156000000 0.5999000000 0.3261000000
0.9320000000 0.6022000000 0.3364000000
0.9485000000 0.6035000000 0.3443000000
0.1971000000 0.5705000000 0.2185000000
0.2243000000 0.5713000000 0.2257000000
0.2528000000 0.5724000000 0.2323000000
0.2832000000 0.5730000000 0.2402000000
0.3037000000 0.5715000000 0.2427000000
0.3220000000 0.5717000000 0.2434000000
0.3426000000 0.5698000000 0.2446000000
0.3636000000 0.5691000000 0.2453000000
0.3844000000 0.5683000000 0.2474000000
0.4057000000 0.5669000000 0.2489000000
0.4291000000 0.5649000000 0.2502000000
0.4555000000 0.5648000000 0.2534000000
0.4783000000 0.5628000000 0.2546000000
0.5004000000 0.5607000000 0.2566000000
0.5210000000 0.5609000000 0.2517000000
0.5435000000 0.5610000000 0.2460000000
0.5665000000 0.5619000000 0.2401000000
