bundles/resolve-cinematic-luts/Gamut/Hestia/Hestia 04.cube
TITLE "Hestia 04 by Gamut.io"
# Copyright 2021 Gamut.io (in collaboration with Russell Kent Nicholls)
LUT_3D_SIZE 5
0.0063090000 0.0102510000 0.0102510000
0.2636630000 0.0000000000 0.0015770000
0.7268510000 0.0000000000 0.0000000000
0.9670600000 0.0000000000 0.0000000000
1.0000000000 0.1594680000 0.0000000000
0.0141940000 0.1705470000 0.0633820000
0.2213790000 0.1832980000 0.0975290000
0.6984620000 0.2686280000 0.0015770000
0.9439770000 0.2961560000 0.0000000000
1.0000000000 0.4009640000 0.0000000000
0.2449790000 0.5073920000 0.2482310000
0.4390850000 0.5296240000 0.3292430000
0.6190590000 0.5222010000 0.3509940000
0.8664220000 0.6032790000 0.2748580000
1.0000000000 0.6528770000 0.1817830000
0.5601390000 0.7204060000 0.5108730000
0.6233600000 0.7270550000 0.5528270000
0.7372430000 0.7422290000 0.5865200000
0.8158850000 0.7305930000 0.6179530000
0.9953710000 0.7993840000 0.6254470000
0.7704780000 0.9187430000 0.7462270000
0.8015070000 0.9236480000 0.7672540000
0.8789180000 0.9359100000 0.8245980000
0.9645880000 0.9520690000 0.8271880000
1.0000000000 0.9406100000 0.8771660000
0.0031540000 0.0409940000 0.1442410000
0.2684870000 0.0149830000 0.1569510000
0.7262790000 0.0000000000 0.1566970000
0.9613160000 0.0000000000 0.1022530000
1.0000000000 0.2312800000 0.0086740000
0.0000000000 0.2345850000 0.2059010000
0.2502200000 0.2597580000 0.2441970000
0.6954010000 0.2715560000 0.2274120000
0.9340620000 0.3315500000 0.1806930000
1.0000000000 0.4219070000 0.0610560000
0.2418350000 0.5184390000 0.3186680000
0.4169790000 0.5398600000 0.3913580000
0.6098280000 0.5449760000 0.4427900000
0.8592490000 0.6208140000 0.4056200000
1.0000000000 0.6568950000 0.3631000000
0.5522460000 0.7232070000 0.5360130000
0.6130440000 0.7289290000 0.5720810000
0.7297410000 0.7445280000 0.6246030000
0.8126130000 0.7387240000 0.6460770000
0.9969350000 0.8080450000 0.6525010000
0.7561960000 0.9195530000 0.7425470000
0.7893160000 0.9239460000 0.7661880000
0.8693990000 0.9361150000 0.8248750000
0.9615420000 0.9523270000 0.8371050000
1.0000000000 0.9444400000 0.8819350000
0.0000000000 0.1417280000 0.4426360000
0.3286900000 0.0925900000 0.4772710000
0.6969120000 0.1643810000 0.4650490000
0.9140750000 0.3052530000 0.5141330000
1.0000000000 0.3202690000 0.4505380000
0.1467100000 0.3399560000 0.4590790000
0.3290220000 0.3391060000 0.4968980000
0.6730640000 0.3702690000 0.5113220000
0.8935860000 0.4270860000 0.5361940000
1.0000000000 0.4400920000 0.4750270000
0.2454470000 0.5722470000 0.5234480000
0.3949170000 0.5806690000 0.5420090000
0.6084440000 0.5938380000 0.5771100000
0.8533210000 0.6187580000 0.5811590000
1.0000000000 0.6423540000 0.5558360000
0.5296860000 0.7272590000 0.5883470000
0.5813230000 0.7335850000 0.6076210000
0.7015900000 0.7510960000 0.6724330000
0.8110940000 0.7565840000 0.7054230000
0.9991950000 0.8253930000 0.7046580000
0.6871680000 0.9193730000 0.7217670000
0.7308770000 0.9239460000 0.7488630000
0.8305910000 0.9366420000 0.8161310000
0.9496310000 0.9568350000 0.8676530000
0.9999460000 0.9525270000 0.9017260000
0.3266930000 0.3345970000 0.6766600000
0.4635300000 0.3209530000 0.6890960000
0.7502740000 0.2575590000 0.7214790000
0.8925270000 0.4693580000 0.6928880000
1.0000000000 0.5734130000 0.7343510000
0.3787650000 0.4688580000 0.6792060000
0.4757300000 0.4630220000 0.6921490000
0.7170930000 0.4315550000 0.7242330000
0.8772620000 0.5442060000 0.7088070000
1.0000000000 0.6132470000 0.7490980000
0.4459240000 0.6311150000 0.6894460000
0.5124740000 0.6303300000 0.6933220000
0.6470740000 0.6307230000 0.7236170000
0.8460010000 0.6608350000 0.7382040000
1.0000000000 0.6859810000 0.7744740000
0.5201990000 0.7689630000 0.7382040000
0.5615070000 0.7702130000 0.7434200000
0.6601420000 0.7753750000 0.7584020000
0.8048030000 0.7841630000 0.7877010000
1.0000000000 0.8105280000 0.7945340000
0.6184060000 0.9219770000 0.7780700000
0.6510440000 0.9258500000 0.7837190000
0.7357990000 0.9366420000 0.8021530000
0.9111070000 0.9609200000 0.8988900000
0.9998660000 0.9684890000 0.9409590000
0.6405310000 0.6130440000 0.8911850000
0.6873000000 0.6070550000 0.8985500000
0.8101740000 0.5841450000 0.9141350000
0.9924230000 0.5589950000 0.9357340000
1.0000000000 0.6982900000 0.8911220000
0.6427370000 0.6629550000 0.8968480000
0.6827600000 0.6581030000 0.9036920000
0.7959500000 0.6383140000 0.9185030000
0.9848500000 0.6062300000 0.9412790000
1.0000000000 0.7241510000 0.8999700000
0.6333640000 0.7459510000 0.8979010000
0.6619420000 0.7432210000 0.9045200000
0.7518780000 0.7323740000 0.9208410000
0.9440930000 0.6996640000 0.9478760000
1.0000000000 0.7801570000 0.9183830000
0.6330710000 0.8691410000 0.9266220000
0.6575920000 0.8663900000 0.9278680000
0.7240280000 0.8552040000 0.9304700000
0.8510000000 0.8370030000 0.9511810000
1.0000000000 0.8734860000 0.9512950000
0.6381210000 0.9981730000 0.9619090000
0.6614350000 0.9981730000 0.9638840000
0.7290510000 0.9987110000 0.9696640000
0.8569830000 0.9991410000 0.9809520000
1.0000000000 1.0000000000 1.0000000000
