bundles/resolve-cinematic-luts/Gamut/Hestia/Hestia 02.cube
TITLE "Hestia 02 by Gamut.io"
# Copyright 2021 Gamut.io (in collaboration with Russell Kent Nicholls)
LUT_3D_SIZE 5
0.0156000000 0.0144000000 0.0124000000
0.1173000000 0.0275000000 0.0115000000
0.4690000000 0.0543000000 -0.0005000000
0.8259000000 0.1555000000 0.0003000000
1.0012000000 0.1981000000 0.0012000000
0.0113000000 0.1643000000 0.0579000000
0.1868000000 0.1724000000 0.0579000000
0.5157000000 0.2680000000 0.0180000000
0.8397000000 0.3187000000 0.0015000000
1.0003000000 0.3307000000 0.0012000000
0.1417000000 0.5034000000 0.1824000000
0.3606000000 0.4995000000 0.2084000000
0.5518000000 0.4938000000 0.1851000000
0.7997000000 0.5292000000 0.2051000000
0.9563000000 0.5695000000 0.2999000000
0.4405000000 0.7314000000 0.4216000000
0.5432000000 0.7345000000 0.4696000000
0.6541000000 0.7368000000 0.4984000000
0.7840000000 0.7440000000 0.4868000000
0.9133000000 0.7647000000 0.5855000000
0.7954000000 0.9151000000 0.7972000000
0.8259000000 0.9230000000 0.8199000000
0.8618000000 0.9316000000 0.8390000000
0.9123000000 0.9417000000 0.8635000000
0.9732000000 0.9602000000 0.8846000000
0.0145000000 0.0260000000 0.1013000000
0.1575000000 0.0117000000 0.1169000000
0.5423000000 -0.0005000000 0.1451000000
0.8661000000 -0.0005000000 0.0970000000
1.0009000000 0.1542000000 0.0965000000
-0.0005000000 0.2150000000 0.1803000000
0.2413000000 0.2284000000 0.2023000000
0.5836000000 0.2565000000 0.1994000000
0.8628000000 0.2959000000 0.1839000000
1.0009000000 0.3342000000 0.1899000000
0.0719000000 0.5241000000 0.2734000000
0.3470000000 0.5385000000 0.2994000000
0.5785000000 0.5303000000 0.3103000000
0.8047000000 0.5738000000 0.3607000000
0.9512000000 0.6002000000 0.4117000000
0.4263000000 0.7405000000 0.4586000000
0.5458000000 0.7456000000 0.5164000000
0.6733000000 0.7473000000 0.5671000000
0.7887000000 0.7570000000 0.5669000000
0.9152000000 0.7834000000 0.6460000000
0.7808000000 0.9171000000 0.7950000000
0.8143000000 0.9233000000 0.8172000000
0.8640000000 0.9334000000 0.8495000000
0.9139000000 0.9432000000 0.8731000000
0.9724000000 0.9630000000 0.8913000000
-0.0003000000 0.0601000000 0.3641000000
0.2983000000 -0.0004000000 0.3995000000
0.5953000000 -0.0005000000 0.4254000000
0.8688000000 -0.0004000000 0.3845000000
1.0012000000 0.1657000000 0.3538000000
0.0000000000 0.3203000000 0.4333000000
0.2617000000 0.2663000000 0.4719000000
0.6386000000 0.2373000000 0.4972000000
0.8705000000 0.2898000000 0.4325000000
0.9945000000 0.3991000000 0.4319000000
0.0183000000 0.5739000000 0.5160000000
0.3256000000 0.5791000000 0.5287000000
0.6098000000 0.5946000000 0.5601000000
0.8139000000 0.6206000000 0.5734000000
0.9475000000 0.6429000000 0.5805000000
0.4270000000 0.7490000000 0.5789000000
0.5168000000 0.7562000000 0.5991000000
0.6752000000 0.7696000000 0.6561000000
0.8007000000 0.7826000000 0.6920000000
0.9228000000 0.8282000000 0.7522000000
0.7445000000 0.9214000000 0.7971000000
0.7770000000 0.9260000000 0.8137000000
0.8436000000 0.9381000000 0.8535000000
0.9176000000 0.9508000000 0.8942000000
0.9734000000 0.9652000000 0.9103000000
-0.0005000000 0.1695000000 0.6870000000
0.2849000000 0.1663000000 0.7043000000
0.5770000000 0.1484000000 0.7323000000
0.8614000000 0.1061000000 0.7388000000
0.9746000000 0.3522000000 0.6177000000
0.1345000000 0.3721000000 0.7149000000
0.3097000000 0.3607000000 0.7277000000
0.5807000000 0.3720000000 0.7461000000
0.8477000000 0.3825000000 0.7513000000
0.9507000000 0.4947000000 0.6539000000
0.3617000000 0.6137000000 0.7167000000
0.4741000000 0.6245000000 0.7277000000
0.6162000000 0.6252000000 0.7502000000
0.8153000000 0.6495000000 0.7742000000
0.9342000000 0.6844000000 0.7417000000
0.5048000000 0.7799000000 0.7632000000
0.5651000000 0.7836000000 0.7709000000
0.6799000000 0.7989000000 0.7889000000
0.8189000000 0.8239000000 0.8207000000
0.9478000000 0.8450000000 0.8405000000
0.7191000000 0.9308000000 0.8583000000
0.7435000000 0.9367000000 0.8659000000
0.7994000000 0.9464000000 0.8817000000
0.8936000000 0.9608000000 0.9120000000
0.9790000000 0.9788000000 0.9515000000
0.3827000000 0.4443000000 0.8480000000
0.4730000000 0.4711000000 0.8565000000
0.6096000000 0.5040000000 0.8644000000
0.7845000000 0.5394000000 0.8743000000
0.9532000000 0.5768000000 0.8810000000
0.5171000000 0.5818000000 0.8558000000
0.5748000000 0.6008000000 0.8633000000
0.6747000000 0.6284000000 0.8747000000
0.8061000000 0.6434000000 0.8874000000
0.9582000000 0.6445000000 0.8908000000
0.6851000000 0.7640000000 0.8894000000
0.6950000000 0.7591000000 0.8923000000
0.7229000000 0.7414000000 0.8918000000
0.8242000000 0.7457000000 0.9028000000
0.9620000000 0.7480000000 0.9125000000
0.7205000000 0.8631000000 0.9151000000
0.7369000000 0.8642000000 0.9166000000
0.7757000000 0.8696000000 0.9210000000
0.8440000000 0.8607000000 0.9320000000
0.9681000000 0.8728000000 0.9492000000
0.7972000000 0.9712000000 0.9665000000
0.8092000000 0.9740000000 0.9683000000
0.8410000000 0.9773000000 0.9720000000
0.9015000000 0.9819000000 0.9819000000
0.9865000000 0.9927000000 0.9966000000
