bundles/resolve-cinematic-luts/Gamut/Hestia/Hestia 04.cube
TITLE "Hestia 04 by Gamut.io"
# Copyright 2021 Gamut.io (in collaboration with Russell Kent Nicholls)
LUT_3D_SIZE 33
0.0063090000 0.0102510000 0.0102510000
0.0189260000 0.0134060000 0.0102510000
0.0354860000 0.0126170000 0.0094630000
0.0598680000 0.0134060000 0.0094630000
0.0860720000 0.0141940000 0.0070970000
0.1210780000 0.0110400000 0.0063090000
0.1624340000 0.0063090000 0.0055200000
0.2096570000 0.0007890000 0.0031540000
0.2636630000 0.0000000000 0.0015770000
0.3226540000 0.0000000000 0.0000000000
0.3853980000 0.0000000000 0.0000000000
0.4547960000 0.0000000000 0.0000000000
0.5171140000 0.0000000000 0.0000000000
0.5763950000 0.0000000000 0.0000000000
0.6308210000 0.0000000000 0.0000000000
0.6818740000 0.0000000000 0.0000000000
0.7268510000 0.0000000000 0.0000000000
0.7679380000 0.0000000000 0.0000000000
0.8051950000 0.0000000000 0.0000000000
0.8390020000 0.0000000000 0.0000000000
0.8683980000 0.0000000000 0.0000000000
0.8948000000 0.0000000000 0.0000000000
0.9218870000 0.0000000000 0.0000000000
0.9449610000 0.0000000000 0.0000000000
0.9670600000 0.0000000000 0.0000000000
0.9876370000 0.0000000000 0.0000000000
0.9980660000 0.0000000000 0.0000000000
0.9998390000 0.0000000000 0.0000000000
0.9999460000 0.0015770000 0.0000000000
0.9999460000 0.0134060000 0.0000000000
0.9999460000 0.0604640000 0.0000000000
1.0000000000 0.1136200000 0.0000000000
1.0000000000 0.1594680000 0.0000000000
0.0078860000 0.0173490000 0.0126170000
0.0134060000 0.0197140000 0.0165600000
0.0299660000 0.0220800000 0.0126170000
0.0536510000 0.0260230000 0.0126170000
0.0838030000 0.0268120000 0.0102510000
0.1197550000 0.0236570000 0.0094630000
0.1614520000 0.0189260000 0.0078860000
0.2104000000 0.0086740000 0.0055200000
0.2649500000 0.0000000000 0.0015770000
0.3220880000 0.0000000000 0.0015770000
0.3836620000 0.0000000000 0.0000000000
0.4554640000 0.0000000000 0.0000000000
0.5165450000 0.0000000000 0.0000000000
0.5753480000 0.0000000000 0.0000000000
0.6315070000 0.0000000000 0.0000000000
0.6812520000 0.0000000000 0.0000000000
0.7268510000 0.0000000000 0.0000000000
0.7679380000 0.0000000000 0.0000000000
0.8051950000 0.0000000000 0.0000000000
0.8369350000 0.0000000000 0.0000000000
0.8670380000 0.0000000000 0.0000000000
0.8948000000 0.0000000000 0.0000000000
0.9209010000 0.0000000000 0.0000000000
0.9442960000 0.0000000000 0.0000000000
0.9668080000 0.0000000000 0.0000000000
0.9865730000 0.0000000000 0.0000000000
0.9978240000 0.0007890000 0.0000000000
0.9997850000 0.0039430000 0.0000000000
0.9999730000 0.0141940000 0.0000000000
1.0000000000 0.0503480000 0.0007890000
0.9999730000 0.0999160000 0.0000000000
0.9999730000 0.1431290000 0.0000000000
1.0000000000 0.1826500000 0.0000000000
0.0102510000 0.0283890000 0.0173490000
0.0181370000 0.0315430000 0.0189260000
0.0268120000 0.0307540000 0.0197140000
0.0468920000 0.0346970000 0.0181370000
0.0786190000 0.0409940000 0.0157710000
0.1153550000 0.0440050000 0.0126170000
0.1589680000 0.0409940000 0.0094630000
0.2081640000 0.0331200000 0.0078860000
0.2620810000 0.0173490000 0.0039430000
0.3228800000 0.0031540000 0.0015770000
0.3841200000 0.0000000000 0.0000000000
0.4544250000 0.0000000000 0.0000000000
0.5162280000 0.0000000000 0.0000000000
0.5748510000 0.0000000000 0.0000000000
0.6303300000 0.0000000000 0.0000000000
0.6799630000 0.0000000000 0.0000000000
0.7255030000 0.0000000000 0.0000000000
0.7665310000 0.0000000000 0.0000000000
0.8036580000 0.0000000000 0.0000000000
0.8367660000 0.0000000000 0.0000000000
0.8668760000 0.0000000000 0.0000000000
0.8942090000 0.0000000000 0.0000000000
0.9209010000 0.0000000000 0.0000000000
0.9442670000 0.0000000000 0.0000000000
0.9658250000 0.0007890000 0.0000000000
0.9854790000 0.0015770000 0.0000000000
0.9975810000 0.0063090000 0.0000000000
0.9996780000 0.0212920000 0.0000000000
0.9998930000 0.0568200000 0.0000000000
1.0000000000 0.1003090000 0.0000000000
1.0000000000 0.1400280000 0.0000000000
0.9999730000 0.1753600000 0.0000000000
1.0000000000 0.2083510000 0.0000000000
0.0141940000 0.0417590000 0.0228690000
0.0228690000 0.0454630000 0.0260230000
0.0346970000 0.0475960000 0.0260230000
0.0447380000 0.0454630000 0.0283890000
0.0689340000 0.0503480000 0.0268120000
0.1067860000 0.0592670000 0.0197140000
0.1533560000 0.0656460000 0.0149830000
0.2047590000 0.0650850000 0.0110400000
0.2610680000 0.0555680000 0.0055200000
0.3198130000 0.0378520000 0.0015770000
0.3826520000 0.0126170000 0.0000000000
0.4539780000 0.0015770000 0.0000000000
0.5161650000 0.0000000000 0.0000000000
0.5750720000 0.0000000000 0.0000000000
0.6292000000 0.0000000000 0.0000000000
0.6797850000 0.0000000000 0.0000000000
0.7245610000 0.0000000000 0.0000000000
0.7654260000 0.0000000000 0.0000000000
0.8028340000 0.0000000000 0.0000000000
0.8356440000 0.0000000000 0.0000000000
0.8650260000 0.0000000000 0.0000000000
0.8925580000 0.0000000000 0.0000000000
0.9194030000 0.0007890000 0.0000000000
0.9424700000 0.0015770000 0.0000000000
0.9640530000 0.0039430000 0.0000000000
0.9844120000 0.0118290000 0.0000000000
0.9968270000 0.0354860000 0.0000000000
0.9995170000 0.0756690000 0.0000000000
0.9999730000 0.1146640000 0.0000000000
0.9999460000 0.1494040000 0.0000000000
0.9999460000 0.1806930000 0.0000000000
1.0000000000 0.2094710000 0.0000000000
0.9999460000 0.2368680000 0.0000000000
0.0165600000 0.0586620000 0.0283890000
0.0268120000 0.0628060000 0.0331200000
0.0409940000 0.0662020000 0.0331200000
0.0580530000 0.0678520000 0.0339090000
0.0662020000 0.0633820000 0.0378520000
0.0954990000 0.0678520000 0.0339090000
0.1428500000 0.0805360000 0.0268120000
0.1967610000 0.0908920000 0.0165600000
0.2553390000 0.0954990000 0.0086740000
0.3169410000 0.0865200000 0.0031540000
0.3804370000 0.0715840000 0.0000000000
0.4516630000 0.0425160000 0.0000000000
0.5140050000 0.0134060000 0.0000000000
0.5726920000 0.0047310000 0.0000000000
0.6270310000 0.0015770000 0.0000000000
0.6774650000 0.0007890000 0.0000000000
0.7220970000 0.0007890000 0.0000000000
0.7628250000 0.0007890000 0.0000000000
0.8001760000 0.0007890000 0.0000000000
0.8335660000 0.0007890000 0.0000000000
0.8632370000 0.0023660000 0.0000000000
0.8903400000 0.0039430000 0.0000000000
0.9168190000 0.0063090000 0.0000000000
0.9400860000 0.0141940000 0.0000000000
0.9621630000 0.0299660000 0.0000000000
0.9819150000 0.0616430000 0.0000000000
0.9949930000 0.0987290000 0.0000000000
0.9988450000 0.1342040000 0.0000000000
0.9997580000 0.1665430000 0.0000000000
1.0000000000 0.1951580000 0.0000000000
0.9999730000 0.2210290000 0.0000000000
1.0000000000 0.2449790000 0.0000000000
0.9999730000 0.2679250000 0.0000000000
0.0173490000 0.0791020000 0.0339090000
0.0283890000 0.0833430000 0.0402170000
0.0468920000 0.0882910000 0.0440050000
0.0667560000 0.0930110000 0.0425160000
0.0851700000 0.0934290000 0.0432640000
0.0959080000 0.0856220000 0.0482940000
0.1287390000 0.0917450000 0.0468920000
0.1839420000 0.1056690000 0.0362740000
0.2435700000 0.1174050000 0.0220800000
0.3094450000 0.1274930000 0.0078860000
0.3763350000 0.1262350000 0.0007890000
0.4481250000 0.1132700000 0.0000000000
0.5101660000 0.0967210000 0.0000000000
0.5696840000 0.0756690000 0.0000000000
0.6238580000 0.0555680000 0.0000000000
0.6740550000 0.0386400000 0.0000000000
0.7191660000 0.0236570000 0.0000000000
0.7597130000 0.0165600000 0.0000000000
0.7969280000 0.0165600000 0.0000000000
0.8304880000 0.0189260000 0.0000000000
0.8600350000 0.0283890000 0.0000000000
0.8870790000 0.0432640000 0.0000000000
0.9135910000 0.0610560000 0.0000000000
0.9369050000 0.0819500000 0.0000000000
0.9590510000 0.1071560000 0.0000000000
0.9784710000 0.1336080000 0.0000000000
0.9922330000 0.1607110000 0.0000000000
0.9979310000 0.1879720000 0.0000000000
0.9996510000 0.2138870000 0.0000000000
0.9999460000 0.2380000000 0.0000000000
1.0000000000 0.2600500000 0.0000000000
1.0000000000 0.2807940000 0.0000000000
0.9999730000 0.3006220000 0.0000000000
0.0165600000 0.1049190000 0.0417590000
0.0291770000 0.1100720000 0.0475960000
0.0516860000 0.1150100000 0.0555680000
0.0756690000 0.1207480000 0.0561960000
0.1010900000 0.1252840000 0.0523470000
0.1220610000 0.1233600000 0.0549340000
0.1318030000 0.1143170000 0.0616430000
0.1674940000 0.1204180000 0.0622270000
0.2296070000 0.1345010000 0.0482940000
0.2959060000 0.1477940000 0.0299660000
0.3651520000 0.1612050000 0.0102510000
0.4411740000 0.1696130000 0.0007890000
0.5045340000 0.1646230000 0.0000000000
0.5638910000 0.1543920000 0.0000000000
0.6201130000 0.1436860000 0.0000000000
0.6696260000 0.1330090000 0.0000000000
0.7150120000 0.1240050000 0.0000000000
0.7558860000 0.1184180000 0.0000000000
0.7928610000 0.1167260000 0.0000000000
0.8256350000 0.1190880000 0.0000000000
0.8551050000 0.1246460000 0.0000000000
0.8824410000 0.1342040000 0.0000000000
0.9091620000 0.1467100000 0.0000000000
0.9328280000 0.1609580000 0.0000000000
0.9549270000 0.1780480000 0.0000000000
0.9746780000 0.1967610000 0.0000000000
0.9893270000 0.2169540000 0.0000000000
0.9967470000 0.2378390000 0.0000000000
0.9993020000 0.2585880000 0.0000000000
0.9998930000 0.2789210000 0.0000000000
0.9999460000 0.2980270000 0.0000000000
0.9999730000 0.3163630000 0.0000000000
1.0000000000 0.3341640000 0.0000000000
0.0157710000 0.1359770000 0.0523470000
0.0323320000 0.1400280000 0.0574390000
0.0561960000 0.1458910000 0.0650850000
0.0842610000 0.1523120000 0.0710600000
0.1111480000 0.1577100000 0.0673050000
0.1422900000 0.1624340000 0.0650850000
0.1619440000 0.1579630000 0.0705330000
0.1739990000 0.1464370000 0.0795820000
0.2124260000 0.1512610000 0.0791020000
0.2789210000 0.1679670000 0.0650850000
0.3505850000 0.1835130000 0.0440050000
0.4278080000 0.2016790000 0.0149830000
0.4952330000 0.2146130000 0.0039430000
0.5562390000 0.2178470000 0.0015770000
0.6122290000 0.2137050000 0.0007890000
0.6623110000 0.2079760000 0.0000000000
0.7081320000 0.2030330000 0.0000000000
0.7489410000 0.2005110000 0.0000000000
0.7860080000 0.1999240000 0.0000000000
0.8195250000 0.2009010000 0.0000000000
0.8495050000 0.2041850000 0.0000000000
0.8772930000 0.2098430000 0.0000000000
0.9034470000 0.2178470000 0.0000000000
0.9275120000 0.2279210000 0.0000000000
0.9499470000 0.2399260000 0.0000000000
0.9703070000 0.2538460000 0.0000000000
0.9861080000 0.2690480000 0.0000000000
0.9952090000 0.2852830000 0.0000000000
0.9989260000 0.3020930000 0.0000000000
0.9999200000 0.3190120000 0.0000000000
0.9999460000 0.3355690000 0.0000000000
1.0000000000 0.3518100000 0.0000000000
1.0000000000 0.3676730000 0.0000000000
0.0141940000 0.1705470000 0.0633820000
0.0339090000 0.1755850000 0.0700030000
0.0604640000 0.1809120000 0.0766620000
0.0934290000 0.1877620000 0.0865200000
0.1240050000 0.1941490000 0.0874090000
0.1543920000 0.1995320000 0.0805360000
0.1904690000 0.2028400000 0.0795820000
0.2089120000 0.1953590000 0.0878510000
0.2213790000 0.1832980000 0.0975290000
0.2613570000 0.1879720000 0.1014790000
0.3330780000 0.2053310000 0.0842610000
0.4114740000 0.2260490000 0.0586620000
0.4798490000 0.2432560000 0.0291770000
0.5437320000 0.2588810000 0.0110400000
0.6011970000 0.2682060000 0.0055200000
0.6521730000 0.2696080000 0.0031540000
0.6984620000 0.2686280000 0.0015770000
0.7402000000 0.2680660000 0.0007890000
0.7776220000 0.2682060000 0.0007890000
0.8114480000 0.2690480000 0.0000000000
0.8418710000 0.2711400000 0.0000000000
0.8701410000 0.2747210000 0.0000000000
0.8966620000 0.2801270000 0.0000000000
0.9209900000 0.2872370000 0.0000000000
0.9439770000 0.2961560000 0.0000000000
0.9651790000 0.3066980000 0.0000000000
0.9823540000 0.3184380000 0.0000000000
0.9933710000 0.3313310000 0.0000000000
0.9983350000 0.3449030000 0.0000000000
0.9997320000 0.3588550000 0.0000000000
1.0000000000 0.3729370000 0.0007890000
1.0000000000 0.3869440000 0.0000000000
1.0000000000 0.4009640000 0.0000000000
0.0110400000 0.2102140000 0.0746640000
0.0354860000 0.2151560000 0.0810100000
0.0678520000 0.2190910000 0.0891650000
0.1034030000 0.2257070000 0.1003090000
0.1411640000 0.2324430000 0.1093500000
0.1717060000 0.2394460000 0.1060430000
0.2096570000 0.2463790000 0.0979300000
0.2429410000 0.2473070000 0.0999160000
0.2617920000 0.2389650000 0.1089870000
0.2744480000 0.2255350000 0.1197550000
0.3140380000 0.2287660000 0.1268660000
0.3929640000 0.2489990000 0.1060430000
0.4628040000 0.2682060000 0.0824160000
0.5277810000 0.2865870000 0.0542950000
0.5868430000 0.3029480000 0.0291770000
0.6393760000 0.3155520000 0.0165600000
0.6867290000 0.3223140000 0.0110400000
0.7293350000 0.3255770000 0.0070970000
0.7674060000 0.3278040000 0.0039430000
0.8015070000 0.3295730000 0.0015770000
0.8326790000 0.3312220000 0.0007890000
0.8614750000 0.3336210000 0.0000000000
0.8885230000 0.3372890000 0.0000000000
0.9135310000 0.3423880000 0.0000000000
0.9370220000 0.3489430000 0.0000000000
0.9589940000 0.3568590000 0.0000000000
0.9776970000 0.3661240000 0.0000000000
0.9906860000 0.3762410000 0.0000000000
0.9973120000 0.3872160000 0.0000000000
0.9994630000 0.3986990000 0.0000000000
0.9999460000 0.4103790000 0.0000000000
1.0000000000 0.4222330000 0.0000000000
1.0000000000 0.4343190000 0.0007890000
0.0157710000 0.2541450000 0.0900320000
0.0461810000 0.2574120000 0.0959080000
0.0795820000 0.2625130000 0.1056690000
0.1163850000 0.2684870000 0.1156990000
0.1551640000 0.2754040000 0.1284290000
0.1919090000 0.2818580000 0.1311960000
0.2272420000 0.2873660000 0.1246460000
0.2673610000 0.2935140000 0.1187530000
0.2983990000 0.2936400000 0.1233600000
0.3167100000 0.2826520000 0.1336080000
0.3319870000 0.2698870000 0.1467100000
0.3775520000 0.2754040000 0.1517880000
0.4442460000 0.2930070000 0.1359770000
0.5092650000 0.3120460000 0.1136200000
0.5699640000 0.3302340000 0.0874090000
0.6240570000 0.3470860000 0.0610560000
0.6728390000 0.3612320000 0.0417590000
0.7163030000 0.3714150000 0.0291770000
0.7552650000 0.3782990000 0.0189260000
0.7901950000 0.3829270000 0.0110400000
0.8219970000 0.3859450000 0.0063090000
0.8515650000 0.3883920000 0.0031540000
0.8792680000 0.3910900000 0.0015770000
0.9048880000 0.3946510000 0.0007890000
0.9288740000 0.3993970000 0.0007890000
0.9515820000 0.4053630000 0.0000000000
0.9718130000 0.4123980000 0.0000000000
0.9869550000 0.4204360000 0.0000000000
0.9956950000 0.4292480000 0.0000000000
0.9990870000 0.4384630000 0.0000000000
0.9998660000 0.4481250000 0.0000000000
0.9999730000 0.4580500000 0.0000000000
0.9999730000 0.4682140000 0.0000000000
0.0354860000 0.3034350000 0.1111480000
0.0678520000 0.3065780000 0.1170660000
0.1007000000 0.3101570000 0.1259190000
0.1365630000 0.3167100000 0.1368550000
0.1760360000 0.3229930000 0.1502030000
0.2171330000 0.3293530000 0.1619440000
0.2499160000 0.3349210000 0.1589680000
0.2884020000 0.3413330000 0.1520500000
0.3265820000 0.3460480000 0.1472530000
0.3577590000 0.3437530000 0.1533560000
0.3756770000 0.3331860000 0.1653450000
0.3949170000 0.3206110000 0.1784910000
0.4330580000 0.3240070000 0.1828660000
0.4916800000 0.3391060000 0.1712430000
0.5513730000 0.3563580000 0.1507330000
0.6065390000 0.3740740000 0.1265510000
0.6564760000 0.3908210000 0.1010900000
0.7013760000 0.4056200000 0.0776460000
0.7415940000 0.4178880000 0.0568200000
0.7775840000 0.4270060000 0.0394290000
0.8101740000 0.4333740000 0.0252340000
0.8405570000 0.4375290000 0.0157710000
0.8689150000 0.4405560000 0.0094630000
0.8952350000 0.4434800000 0.0055200000
0.9198830000 0.4469890000 0.0039430000
0.9432820000 0.4514390000 0.0023660000
0.9647850000 0.4568700000 0.0015770000
0.9822170000 0.4630940000 0.0015770000
0.9933440000 0.4700000000 0.0007890000
0.9982540000 0.4774810000 0.0007890000
0.9997320000 0.4853650000 0.0007890000
0.9999730000 0.4935610000 0.0000000000
1.0000000000 0.5021140000 0.0000000000
0.0705330000 0.3488410000 0.1330090000
0.0979300000 0.3511980000 0.1397420000
0.1265510000 0.3545470000 0.1475230000
0.1607110000 0.3596490000 0.1594680000
0.1981510000 0.3648600000 0.1728560000
0.2378390000 0.3711290000 0.1864980000
0.2754040000 0.3772720000 0.1929310000
0.3105120000 0.3827440000 0.1873420000
0.3471890000 0.3887530000 0.1802550000
0.3837530000 0.3913580000 0.1782700000
0.4110530000 0.3864000000 0.1864980000
0.4297270000 0.3752070000 0.1993350000
0.4507630000 0.3675760000 0.2100290000
0.4865960000 0.3704600000 0.2138870000
0.5373400000 0.3829270000 0.2049500000
0.5898460000 0.3986990000 0.1877620000
0.6395200000 0.4154870000 0.1663040000
0.6852770000 0.4319510000 0.1420090000
0.7267690000 0.4473680000 0.1167260000
0.7638970000 0.4603250000 0.0917450000
0.7975060000 0.4705700000 0.0689340000
0.8287710000 0.4779000000 0.0503480000
0.8578700000 0.4831000000 0.0354860000
0.8848740000 0.4868680000 0.0260230000
0.9101960000 0.4902630000 0.0197140000
0.9342680000 0.4938290000 0.0149830000
0.9570060000 0.4980930000 0.0118290000
0.9764520000 0.5029660000 0.0094630000
0.9900340000 0.5085560000 0.0070970000
0.9970700000 0.5145140000 0.0055200000
0.9994360000 0.5210130000 0.0039430000
0.9999460000 0.5277810000 0.0031540000
1.0000000000 0.5346830000 0.0015770000
0.1111480000 0.3918050000 0.1587170000
0.1330090000 0.3945630000 0.1648640000
0.1592180000 0.3977350000 0.1728560000
0.1900550000 0.4013110000 0.1835130000
0.2245040000 0.4062180000 0.1963620000
0.2613570000 0.4113060000 0.2105850000
0.3003760000 0.4168140000 0.2239870000
0.3341640000 0.4222330000 0.2236410000
0.3687330000 0.4274070000 0.2174900000
0.4045910000 0.4327420000 0.2118760000
0.4369830000 0.4317930000 0.2138870000
0.4609090000 0.4251530000 0.2236410000
0.4799880000 0.4168970000 0.2342570000
0.5019830000 0.4117260000 0.2430980000
0.5352270000 0.4143210000 0.2463790000
0.5782630000 0.4245070000 0.2402460000
0.6239570000 0.4384630000 0.2269020000
0.6688080000 0.4542020000 0.2083510000
0.7109530000 0.4700720000 0.1860750000
0.7492550000 0.4848170000 0.1614520000
0.7840520000 0.4977620000 0.1356830000
0.8163060000 0.5085560000 0.1107910000
0.8463350000 0.5170510000 0.0891650000
0.8739990000 0.5232610000 0.0715840000
0.8999700000 0.5280270000 0.0586620000
0.9247500000 0.5320090000 0.0489850000
0.9484230000 0.5357720000 0.0409940000
0.9695240000 0.5398600000 0.0346970000
0.9856980000 0.5444430000 0.0291770000
0.9951550000 0.5493290000 0.0244460000
0.9988720000 0.5546230000 0.0197140000
0.9998660000 0.5601390000 0.0157710000
1.0000000000 0.5657550000 0.0118290000
0.1546500000 0.4333740000 0.1871310000
0.1735430000 0.4356540000 0.1931350000
0.1963620000 0.4382300000 0.2005110000
0.2232950000 0.4417130000 0.2105850000
0.2544440000 0.4453150000 0.2227740000
0.2885310000 0.4497860000 0.2367060000
0.3246810000 0.4542760000 0.2509810000
0.3594510000 0.4596660000 0.2590280000
0.3902830000 0.4644710000 0.2554870000
0.4238590000 0.4692870000 0.2499160000
0.4590050000 0.4718490000 0.2463790000
0.4861180000 0.4683570000 0.2515870000
0.5070040000 0.4625130000 0.2601960000
0.5256200000 0.4560570000 0.2696080000
0.5473930000 0.4523370000 0.2779790000
0.5768350000 0.4546480000 0.2814590000
0.6135020000 0.4629490000 0.2778440000
0.6539080000 0.4752380000 0.2676430000
0.6948390000 0.4897220000 0.2520400000
0.7336660000 0.5044690000 0.2324430000
0.7697210000 0.5186280000 0.2102140000
0.8031210000 0.5315210000 0.1862870000
0.8340780000 0.5428420000 0.1626790000
0.8626500000 0.5521300000 0.1414460000
0.8893070000 0.5594530000 0.1233600000
0.9148000000 0.5651350000 0.1089870000
0.9392410000 0.5697400000 0.0967210000
0.9617960000 0.5738000000 0.0865200000
0.9803460000 0.5778240000 0.0771550000
0.9924230000 0.5820300000 0.0683940000
0.9980390000 0.5864130000 0.0598680000
0.9997050000 0.5910210000 0.0530020000
1.0000000000 0.5957940000 0.0440050000
0.1999240000 0.4714230000 0.2173120000
0.2158770000 0.4741820000 0.2224260000
0.2355670000 0.4758700000 0.2296070000
0.2591740000 0.4788060000 0.2392860000
0.2865870000 0.4818580000 0.2508290000
0.3172870000 0.4854340000 0.2639500000
0.3503800000 0.4893830000 0.2782490000
0.3847600000 0.4939630000 0.2913540000
0.4142380000 0.4984900000 0.2932610000
0.4447810000 0.5027040000 0.2893040000
0.4777600000 0.5066800000 0.2835760000
0.5080390000 0.5068090000 0.2827850000
0.5306040000 0.5030970000 0.2884020000
0.5492710000 0.4978940000 0.2965310000
0.5662060000 0.4922180000 0.3059760000
0.5858200000 0.4890440000 0.3142720000
0.6116180000 0.4907360000 0.3184380000
0.6438850000 0.4977620000 0.3167100000
0.6803190000 0.5088780000 0.3086120000
0.7181310000 0.5222630000 0.2955290000
0.7546440000 0.5361940000 0.2787870000
0.7891690000 0.5498560000 0.2597580000
0.8212670000 0.5627010000 0.2394460000
0.8507350000 0.5742430000 0.2192680000
0.8782180000 0.5841450000 0.2003150000
0.9042750000 0.5924050000 0.1832980000
0.9294660000 0.5990020000 0.1686750000
0.9532420000 0.6042650000 0.1561880000
0.9740110000 0.6086490000 0.1450680000
0.9887820000 0.6126880000 0.1350930000
0.9965850000 0.6166420000 0.1256020000
0.9993290000 0.6206640000 0.1153550000
1.0000000000 0.6249510000 0.1052950000
0.2449790000 0.5073920000 0.2482310000
0.2591740000 0.5088780000 0.2536960000
0.2760840000 0.5107440000 0.2603410000
0.2965310000 0.5127930000 0.2693280000
0.3203830000 0.5153400000 0.2799930000
0.3476030000 0.5181870000 0.2922460000
0.3773650000 0.5215760000 0.3059760000
0.4089410000 0.5256200000 0.3199270000
0.4390850000 0.5296240000 0.3292430000
0.4662750000 0.5334090000 0.3272490000
0.4951670000 0.5372190000 0.3228800000
0.5266090000 0.5397410000 0.3180940000
0.5510230000 0.5389620000 0.3191260000
0.5708560000 0.5357110000 0.3249050000
0.5870050000 0.5307260000 0.3331860000
0.6017190000 0.5253100000 0.3425980000
0.6190590000 0.5222010000 0.3509940000
0.6418270000 0.5234480000 0.3557560000
0.6708050000 0.5297470000 0.3551520000
0.7042330000 0.5399200000 0.3488410000
0.7396020000 0.5524780000 0.3379320000
0.7745490000 0.5659250000 0.3238940000
0.8076190000 0.5791390000 0.3081350000
0.8381220000 0.5916600000 0.2916090000
0.8664220000 0.6032790000 0.2748580000
0.8933060000 0.6137050000 0.2584420000
0.9192530000 0.6226130000 0.2430980000
0.9441220000 0.6300850000 0.2296070000
0.9665550000 0.6360390000 0.2180250000
0.9840830000 0.6408670000 0.2081640000
0.9944530000 0.6450300000 0.1993350000
0.9987110000 0.6489210000 0.1904690000
1.0000000000 0.6528770000 0.1817830000
0.2896900000 0.5400400000 0.2802600000
0.3019710000 0.5411150000 0.2855440000
0.3164790000 0.5421880000 0.2919910000
0.3342720000 0.5439100000 0.3000070000
0.3551520000 0.5460390000 0.3098010000
0.3789510000 0.5484500000 0.3211800000
0.4051050000 0.5513150000 0.3338380000
0.4331370000 0.5546810000 0.3477060000
0.4625130000 0.5584230000 0.3608370000
0.4887050000 0.5615070000 0.3643720000
0.5135590000 0.5644000000 0.3613310000
0.5413540000 0.5677800000 0.3553530000
0.5678360000 0.5700750000 0.3523190000
0.5895250000 0.5691250000 0.3551520000
0.6067460000 0.5658680000 0.3611330000
0.6207640000 0.5610510000 0.3695020000
0.6337540000 0.5559510000 0.3786720000
0.6490160000 0.5528850000 0.3869440000
0.6691720000 0.5537550000 0.3921620000
0.6954880000 0.5594530000 0.3926080000
0.7267290000 0.5691250000 0.3878500000
0.7604060000 0.5811050000 0.3790450000
0.7937340000 0.5939970000 0.3675760000
0.8251510000 0.6066420000 0.3547490000
0.8542460000 0.6188080000 0.3413330000
0.8819350000 0.6304280000 0.3272490000
0.9084920000 0.6411070000 0.3131030000
0.9342380000 0.6506670000 0.2995130000
0.9582280000 0.6587990000 0.2873660000
0.9782220000 0.6654320000 0.2770340000
0.9913920000 0.6707140000 0.2686280000
0.9977430000 0.6752690000 0.2615020000
1.0000000000 0.6794740000 0.2548920000
0.3332950000 0.5696840000 0.3129860000
0.3440670000 0.5704660000 0.3178640000
0.3565590000 0.5715800000 0.3237820000
0.3717970000 0.5729140000 0.3312220000
0.3898340000 0.5746850000 0.3400620000
0.4104630000 0.5766150000 0.3503800000
0.4332950000 0.5790850000 0.3620200000
0.4579020000 0.5818130000 0.3749240000
0.4844740000 0.5849020000 0.3886630000
0.5107440000 0.5874350000 0.3986990000
0.5335300000 0.5908610000 0.3974720000
0.5583080000 0.5942610000 0.3929640000
0.5817040000 0.5972170000 0.3892040000
0.6057140000 0.5988970000 0.3867630000
0.6243050000 0.5974270000 0.3903730000
0.6394240000 0.5941020000 0.3967690000
0.6516560000 0.5893110000 0.4050200000
0.6630010000 0.5844700000 0.4139040000
