bundles/resolve-cinematic-luts/Phantom Luts/A7s3 Phntm Film LUTs - G6/SLog3/Bleach A7s3.cube
TITLE "Generated by Resolve"
LUT_3D_SIZE 33
0.0229496 0.0348516 0.0241398
0.0229496 0.0348516 0.0241398
0.0229496 0.0348516 0.0241398
0.0229496 0.0348516 0.0241398
0.0229496 0.0348516 0.0241398
0.0230106 0.0349432 0.0241703
0.0262913 0.0356756 0.02533
0.0327459 0.0365148 0.0274662
0.0388647 0.0373388 0.0283207
0.0526589 0.0384375 0.0311589
0.06804 0.0394293 0.0334325
0.085481 0.0406958 0.0360723
0.105333 0.0416266 0.0373999
0.130373 0.0429694 0.0403754
0.159869 0.0442969 0.0432746
0.193118 0.0458381 0.0476387
0.227344 0.0474556 0.0513771
0.262654 0.0489815 0.0556497
0.300389 0.049958 0.0632792
0.341497 0.0511635 0.0726177
0.388434 0.0522469 0.0818799
0.44094 0.0525978 0.0902724
0.491112 0.0539406 0.0995804
0.535576 0.0565652 0.112215
0.574639 0.0593118 0.125856
0.611276 0.0627604 0.143359
0.646067 0.0657511 0.163317
0.679088 0.0689403 0.184588
0.711971 0.0721904 0.208621
0.742702 0.0755779 0.23444
0.771847 0.0793011 0.260884
0.797848 0.0829938 0.288472
0.819486 0.0865187 0.317189
0.0229496 0.0348516 0.0241398
0.0229496 0.0348516 0.0241398
0.0229496 0.0348516 0.0241398
0.0229496 0.0348516 0.0241398
0.0229648 0.0348974 0.024155
0.0235142 0.0350805 0.0242618
0.0301823 0.0360571 0.0263523
0.0363928 0.0371405 0.0281071
0.0498054 0.0381781 0.0305486
0.0663157 0.0393072 0.0332341
0.0848249 0.0406806 0.0360266
0.104936 0.0416114 0.0373693
0.130785 0.0429847 0.0404212
0.160967 0.0443885 0.0434272
0.194263 0.0458839 0.047776
0.229007 0.0475471 0.0514687
0.264683 0.0491035 0.0560769
0.303365 0.0500343 0.0639048
0.345159 0.0513008 0.0735485
0.391577 0.0523079 0.0823529
0.443931 0.0526436 0.0907607
0.492699 0.0540627 0.100053
0.535866 0.0565805 0.112245
0.574655 0.0593423 0.125811
0.610407 0.0627451 0.142473
0.644404 0.0656901 0.161898
0.676677 0.0688792 0.182635
0.708568 0.0720684 0.20502
0.738491 0.0753185 0.229816
0.766781 0.078645 0.254597
0.791363 0.082063 0.280079
0.813748 0.0854963 0.307088
0.830564 0.0892195 0.335012
0.0229496 0.0348516 0.0241398
0.0229496 0.0348516 0.0241398
0.0229496 0.0348516 0.0241398
0.0229496 0.0348516 0.0241398
0.0229801 0.0349126 0.024155
0.0261845 0.0356298 0.0252384
0.0334936 0.0367132 0.0277562
0.0434272 0.0377203 0.0290684
0.0590372 0.0386511 0.0322118
0.0776532 0.040238 0.0351263
0.0967422 0.0412909 0.0367437
0.12134 0.0425269 0.0394903
0.15053 0.0438544 0.0425116
0.182696 0.0453956 0.0464179
0.217044 0.046952 0.05037
0.252094 0.0484932 0.0536049
0.289693 0.0496071 0.0608835
0.330449 0.0506905 0.0700847
0.373098 0.0519417 0.0787823
0.422049 0.0523842 0.0864576
0.471839 0.0533913 0.095201
0.516533 0.0552224 0.105379
0.55642 0.0581826 0.11751
0.593484 0.0614939 0.132906
0.627161 0.0644388 0.150072
0.658534 0.0671702 0.168048
0.691279 0.0705119 0.189731
0.722057 0.0737163 0.212314
0.751019 0.0771344 0.236637
0.777157 0.0804761 0.260945
0.800031 0.0835737 0.285435
0.819165 0.086656 0.31165
0.83505 0.0901808 0.339117
0.0229496 0.0348516 0.0241398
0.0229496 0.0348516 0.0241398
0.0229496 0.0348516 0.0241398
0.0229496 0.0348516 0.0241398
0.0229343 0.0349126 0.024155
0.0276799 0.0357214 0.025391
0.0336004 0.0367285 0.027512
0.0439612 0.0377813 0.028809
0.0598459 0.0387579 0.0319829
0.0795758 0.0403449 0.0352331
0.100282 0.0414588 0.0368963
0.125887 0.0427253 0.0397498
0.155657 0.0441291 0.0428321
0.18912 0.045655 0.0468299
0.222766 0.0471962 0.0500649
0.258824 0.0487373 0.0544289
0.297154 0.049897 0.061265
0.338048 0.0509957 0.070634
0.381018 0.0522621 0.0775006
0.431876 0.0530098 0.0852827
0.481468 0.0543679 0.0935225
0.525292 0.0565805 0.103929
0.564874 0.059556 0.116426
0.600763 0.0627909 0.131258
0.634485 0.0655528 0.148592
0.666484 0.0686351 0.167742
0.698421 0.0719005 0.188861
0.728985 0.0750439 0.212329
0.757198 0.0785077 0.236545
0.781628 0.0814374 0.260471
0.805676 0.0844892 0.286046
0.822232 0.0875715 0.312551
0.83769 0.0906996 0.339315
0.0229648 0.0351568 0.0241855
0.0229496 0.0353246 0.0242008
0.0229648 0.0354162 0.0242008
0.0231327 0.0353704 0.0242008
0.0234836 0.0357824 0.0243229
0.0286412 0.0376898 0.0257572
0.0333867 0.03888 0.0271763
0.0423743 0.0409094 0.0285191
0.0608835 0.0411383 0.0307774
0.0832837 0.0421912 0.0349889
0.106447 0.0431678 0.0376745
0.131029 0.0439155 0.038941
0.15996 0.0446784 0.0411994
0.194156 0.045716 0.0442969
0.231815 0.0475776 0.0486
0.270451 0.0491188 0.0539864
0.308797 0.0503548 0.0605783
0.350011 0.0512703 0.0692454
0.393622 0.0527199 0.0761273
0.442145 0.0536355 0.0818341
0.489937 0.0554665 0.0903487
0.533059 0.0581369 0.101137
0.571832 0.0606088 0.114153
0.606729 0.0641947 0.12871
0.640925 0.0669718 0.146517
0.673091 0.0700542 0.165774
0.705379 0.0732128 0.187228
0.734569 0.0762951 0.210727
0.762402 0.079408 0.234455
0.786343 0.0824445 0.259297
0.80975 0.0852827 0.285374
0.824979 0.088304 0.31136
0.838346 0.0915389 0.338872
0.0248722 0.0425574 0.0278019
0.025864 0.0458686 0.0293126
0.0263371 0.0478676 0.0296025
0.0277714 0.0480659 0.0287633
0.0321202 0.0486305 0.0291142
0.0365759 0.0503395 0.0304265
0.042771 0.0513619 0.0321965
0.0527657 0.0524758 0.0323796
0.0715648 0.0506142 0.0327459
0.0917067 0.0490272 0.034226
0.116915 0.0465248 0.0365759
0.144305 0.046891 0.0392309
0.17377 0.0472114 0.0404974
0.20557 0.0469673 0.0422827
0.235035 0.045716 0.0438544
0.272526 0.0479133 0.0490578
0.312001 0.0501411 0.0554208
0.356023 0.0512093 0.0636759
0.405295 0.052842 0.0723888
0.459739 0.0542458 0.0815595
0.502388 0.0567178 0.088838
0.540749 0.0591897 0.0976883
0.579293 0.0623636 0.111543
0.614221 0.0657054 0.126177
0.647166 0.0686198 0.143511
0.6804 0.0716716 0.163317
0.7122 0.0746624 0.184222
0.740993 0.07776 0.208072
0.76878 0.0810559 0.232013
0.792218 0.0838026 0.257374
0.813352 0.0865034 0.283452
0.827893 0.0891737 0.309743
0.838743 0.0923323 0.337942
0.0287938 0.0576028 0.0333867
0.0296178 0.0609903 0.0344854
0.0303044 0.0629587 0.0347753
0.0319371 0.0627756 0.0333867
0.0363928 0.0633555 0.0327001
0.0434272 0.0653239 0.0341344
0.0524453 0.067155 0.0357061
0.0657206 0.0682231 0.0361181
0.0874189 0.0662547 0.0368963
0.107942 0.0630198 0.0388647
0.129915 0.0601205 0.038819
0.157626 0.0552682 0.0396429
0.188449 0.0518654 0.0401617
0.219654 0.0493324 0.0398108
0.254719 0.0496681 0.0427863
0.286839 0.0483558 0.043534
0.321874 0.0481117 0.0480201
0.356954 0.0480201 0.0539712
0.408148 0.049897 0.0616007
0.464546 0.0546273 0.0741588
0.513222 0.057084 0.0851606
0.555138 0.0610361 0.0973373
0.588449 0.0643931 0.107591
0.621729 0.067689 0.121675
0.654551 0.0705577 0.138231
0.688319 0.0735027 0.158511
0.719722 0.0767834 0.179782
0.748577 0.0800031 0.20354
0.774777 0.0829786 0.227695
0.799146 0.0853437 0.253849
0.816999 0.0881208 0.279591
0.831083 0.0902571 0.305653
0.838849 0.0931716 0.334188
0.0322881 0.0779736 0.0379492
0.0332341 0.0830549 0.0393072
0.0332341 0.0857862 0.0391241
0.0343938 0.0853285 0.0371099
0.0387121 0.0860304 0.0352483
0.0466621 0.0882277 0.0366369
0.0596628 0.0898604 0.0387427
0.0747234 0.0914321 0.0402228
0.0972457 0.0921798 0.0386206
0.129793 0.086656 0.0408179
0.159533 0.0811017 0.0446632
0.18529 0.0774853 0.0451209
0.214771 0.0724041 0.0448005
0.245182 0.0673075 0.0449073
0.276631 0.0618296 0.0438544
0.307912 0.0551766 0.0408484
0.341802 0.0523537 0.0417334
0.3776 0.0480354 0.0432288
0.417166 0.0466011 0.0470893
0.468788 0.0480354 0.0576944
0.513863 0.0536049 0.0727398
0.558556 0.059205 0.0874495
0.601526 0.066743 0.105257
0.63209 0.0697032 0.11754
0.662455 0.0728161 0.13164
0.695628 0.076051 0.151141
0.726574 0.0793622 0.172961
0.755673 0.0826581 0.196048
0.781292 0.0850385 0.221454
0.805142 0.0875868 0.246387
0.819684 0.0895094 0.272038
0.833249 0.0913863 0.299138
0.838453 0.093904 0.326925
0.0342107 0.102876 0.0421912
0.0345159 0.108736 0.0429694
0.0345464 0.111803 0.0427405
0.0355383 0.111742 0.0411231
0.0390936 0.112886 0.0372625
0.0464485 0.114687 0.0364233
0.0598764 0.116945 0.0389715
0.081529 0.118669 0.0412757
0.101244 0.120638 0.0414893
0.133776 0.121614 0.0375525
0.182132 0.113161 0.04271
0.222522 0.104067 0.0497902
0.255894 0.0962692 0.0519417
0.284871 0.0919814 0.0513924
0.314961 0.0861677 0.0511482
0.347448 0.078706 0.0498512
0.380011 0.0702678 0.0471199
0.41532 0.0615091 0.0431067
0.448325 0.0519417 0.0388342
0.487053 0.0504768 0.0442206
0.51986 0.0480201 0.0505837
0.557824 0.0525521 0.0676127
0.595209 0.0580758 0.0863966
0.636378 0.0681773 0.106996
0.672129 0.0753033 0.12604
0.703975 0.0790723 0.142931
0.732341 0.0822309 0.161288
0.762478 0.0853742 0.18436
0.786694 0.0877852 0.20972
0.808682 0.0901198 0.233448
0.82121 0.0914931 0.259312
0.832898 0.0928206 0.286748
0.837858 0.094667 0.315984
0.0336309 0.131121 0.0459144
0.0333562 0.137652 0.0467689
0.0332494 0.141588 0.0463111
0.034287 0.142214 0.0433814
0.0360876 0.143221 0.0390784
0.0432593 0.14435 0.0350652
0.0565042 0.147326 0.0361334
0.0816358 0.150469 0.0397803
0.106554 0.15346 0.0415503
0.134478 0.155688 0.041413
0.17641 0.157656 0.035584
0.239734 0.147066 0.042771
0.29247 0.134371 0.0536507
0.335622 0.121294 0.0593881
0.369177 0.115969 0.0589151
0.407294 0.108766 0.0577401
0.445487 0.10074 0.0564889
0.479942 0.0892195 0.0549935
0.508019 0.0800793 0.0522774
0.529732 0.0696269 0.0476081
0.552544 0.0635386 0.0477302
0.569757 0.0521859 0.0466468
0.598962 0.0538338 0.0605173
0.62742 0.0557259 0.0815442
0.66891 0.0658122 0.104402
0.709911 0.0785077 0.129839
0.738552 0.0829938 0.148608
0.767224 0.0881208 0.169085
0.791562 0.091371 0.191775
0.810376 0.0932784 0.215961
0.822477 0.0940719 0.241749
0.831357 0.0946822 0.268452
0.836042 0.0955215 0.29865
0.0314794 0.163806 0.0496529
0.0314488 0.171588 0.050782
0.0319066 0.175387 0.0508736
0.032517 0.176196 0.0467994
0.0335699 0.176944 0.0417182
0.0359503 0.178058 0.034226
0.0486915 0.180468 0.0312657
0.0756695 0.185595 0.035584
0.106722 0.189761 0.0387884
0.136019 0.193622 0.0412299
0.174609 0.197879 0.0404974
0.226429 0.201175 0.0336309
0.301549 0.18967 0.0425422
0.372045 0.173495 0.0572671
0.433326 0.153262 0.0654612
0.479667 0.144106 0.0674754
0.516228 0.137819 0.0694896
0.542977 0.133379 0.0703899
0.569314 0.125917 0.07187
0.592844 0.11841 0.0724804
0.609033 0.10367 0.0690929
0.622049 0.0907149 0.0626535
0.629679 0.072221 0.0545205
0.642206 0.0616465 0.055848
0.662699 0.0611887 0.0702068
0.68864 0.0638285 0.0877394
0.729976 0.0752575 0.117357
0.766888 0.0839857 0.147448
0.791943 0.0882582 0.167559
0.810468 0.0953841 0.193332
0.822751 0.0980392 0.216205
0.828138 0.0975509 0.242298
0.833356 0.0973678 0.272328
0.0310521 0.200137 0.054612
0.0307622 0.208042 0.0557717
0.030869 0.212238 0.0556497
0.0309453 0.213733 0.0508736
0.0312352 0.214359 0.0449836
0.0324102 0.215167 0.037705
0.0391699 0.216144 0.0275883
0.0611124 0.220645 0.0286107
0.0988937 0.22739 0.0340887
0.134279 0.233448 0.0374304
0.17142 0.239063 0.0403449
0.222431 0.245365 0.0407111
0.281483 0.250965 0.0318151
0.371084 0.241154 0.0405432
0.464073 0.223377 0.0578775
0.526543 0.206302 0.073579
0.569192 0.195651 0.0842145
0.60412 0.187915 0.0929427
0.62771 0.186831 0.0961471
0.651377 0.18114 0.0998398
0.670848 0.173922 0.101518
0.686946 0.159686 0.0995499
0.701686 0.144564 0.0958114
0.705699 0.11873 0.0840314
0.705348 0.0925307 0.0707408
0.711177 0.0823835 0.0745403
0.714977 0.0676738 0.0795605
0.7458 0.0712596 0.102296
0.783078 0.0797894 0.131563
0.799741 0.0839857 0.152239
0.813123 0.0899367 0.173724
0.824262 0.100175 0.213519
0.830076 0.100481 0.244114
0.0289464 0.23772 0.0600443
0.0278782 0.245609 0.0604715
0.0277562 0.250355 0.0598611
0.0278935 0.251637 0.0547189
0.0280003 0.252476 0.0483253
0.0281529 0.253407 0.0418708
0.0319066 0.254017 0.0309758
0.0482795 0.256931 0.0243534
0.080705 0.26363 0.0263523
0.123873 0.271839 0.0320134
0.166094 0.279789 0.0361791
0.213336 0.289525 0.0403143
0.276463 0.299916 0.0404364
0.343542 0.3075 0.0312505
0.447761 0.300374 0.0384375
0.539803 0.294102 0.0636454
0.60119 0.286534 0.090013
0.646754 0.277089 0.111666
0.684398 0.267796 0.129442
0.710292 0.26537 0.134798
0.737041 0.258289 0.142184
0.756222 0.252796 0.144762
0.774578 0.240925 0.145724
0.787625 0.22385 0.141695
0.794812 0.197177 0.133196
0.79292 0.166598 0.119173
0.788006 0.140841 0.106157
0.772152 0.0997635 0.0924544
0.765072 0.0711223 0.0906081
0.786419 0.0755932 0.109819
0.80032 0.0782025 0.12752
0.807157 0.0837262 0.151583
0.819562 0.0937362 0.192706
0.0249943 0.276249 0.06392
0.0237888 0.283742 0.06421
0.0232853 0.288243 0.0627451
0.0233005 0.289708 0.0582284
0.0237278 0.29015 0.0524453
0.0239414 0.291585 0.0460975
0.0247807 0.292149 0.0361028
0.0345769 0.293431 0.0245518
0.0590372 0.298619 0.0216831
0.101869 0.308248 0.024979
0.153185 0.319127 0.0315099
0.204562 0.330846 0.0372015
0.259892 0.345342 0.0417945
0.33521 0.360616 0.0413062
0.418128 0.371298 0.0291752
0.518563 0.377539 0.0388037
0.603235 0.388785 0.0745861
0.671107 0.39147 0.115038
0.725505 0.392706 0.150942
0.767834 0.388495 0.177661
0.803784 0.38056 0.196643
0.835721 0.369955 0.212497
0.856764 0.36524 0.216968
0.876295 0.352346 0.219867
0.886687 0.332967 0.215183
0.89424 0.314626 0.209613
0.889082 0.276051 0.192111
0.883207 0.245426 0.174899
0.852445 0.17911 0.135714
0.82118 0.12018 0.105638
0.806027 0.0924392 0.0981765
0.808499 0.093843 0.110079
0.802762 0.0830701 0.114931
0.0198215 0.313588 0.0667277
0.0186923 0.321233 0.0669413
0.018204 0.326268 0.0655375
0.018143 0.327886 0.0615702
0.0184024 0.328359 0.0563668
0.0187686 0.32929 0.0499886
0.0201267 0.331167 0.0423896
0.024567 0.33225 0.0286717
0.0407111 0.336416 0.0211795
0.0731975 0.343908 0.0202487
0.126726 0.357046 0.0260014
0.190982 0.372686 0.0337682
0.248539 0.392233 0.040528
0.312245 0.415869 0.0429084
0.410101 0.4374 0.0446937
0.49958 0.458839 0.0355993
0.580636 0.479454 0.0480964
0.654948 0.494774 0.0864729
0.720211 0.50042 0.130343
0.774716 0.503899 0.170947
0.819593 0.501198 0.200641
0.857404 0.494026 0.224201
0.888716 0.483589 0.24271
0.910079 0.473716 0.252369
0.928435 0.460548 0.263279
0.940063 0.445533 0.268254
0.943114 0.425986 0.267414
0.943999 0.398886 0.26392
0.940414 0.37116 0.253452
0.931579 0.332647 0.235325
0.890211 0.235172 0.173342
0.852216 0.166964 0.127291
0.837766 0.14258 0.117342
0.0136873 0.35378 0.0696727
0.0123445 0.362692 0.0699168
0.0115969 0.36759 0.0684825
0.0117342 0.368536 0.0655985
0.0122377 0.36907 0.0608377
0.0131533 0.370459 0.0547646
0.0161135 0.373602 0.0476234
0.020676 0.376272 0.0372168
0.0274357 0.377874 0.0224155
0.0475013 0.384146 0.0182193
0.0919356 0.396887 0.0198825
0.162814 0.417304 0.0284123
0.241611 0.442435 0.0381933
0.308385 0.471687 0.047303
0.393301 0.501427 0.0596933
0.50518 0.524834 0.0673991
0.576303 0.546563 0.0553902
0.64036 0.563714 0.0635843
0.700648 0.574945 0.0994278
0.762127 0.580102 0.14284
0.816068 0.584283 0.187472
0.854963 0.583261 0.212238
0.886976 0.580758 0.232151
0.91078 0.575219 0.246708
0.927535 0.567269 0.257023
0.940352 0.554589 0.26511
0.942611 0.54493 0.26392
0.943084 0.529885 0.263386
0.944518 0.510414 0.268711
0.945861 0.488243 0.268879
0.947814 0.458854 0.272526
0.946975 0.404776 0.267521
0.92755 0.320317 0.22855
0.00622568 0.399939 0.0734417
0.00471504 0.4094 0.07364
0.00454719 0.414435 0.0727398
0.00471504 0.415396 0.0694743
0.00677501 0.416709 0.0653239
0.00999466 0.418692 0.0586862
0.0134279 0.421408 0.05243
0.0164645 0.424277 0.0440833
0.0215305 0.427665 0.0301366
0.0332036 0.431388 0.0167697
0.0650492 0.440955 0.0150301
0.134585 0.461753 0.0243992
0.234562 0.494041 0.0424964
0.325887 0.528069 0.0585031
0.402426 0.556344 0.0750439
0.497292 0.577737 0.0876783
0.581918 0.596124 0.097322
0.64094 0.615778 0.0793927
0.692409 0.628824 0.080766
0.744884 0.637583 0.115267
0.800473 0.64213 0.156527
0.849241 0.647135 0.200793
0.882445 0.64799 0.222553
0.908507 0.647532 0.240955
0.925277 0.644694 0.25095
0.93637 0.641413 0.256977
0.93901 0.633066 0.255802
0.940551 0.626001 0.2542
0.939834 0.613489 0.253529
0.94023 0.601511 0.255619
0.940978 0.585885 0.25716
0.941436 0.561822 0.259236
0.943526 0.532891 0.26656
0.00407416 0.450706 0.0818494
0.00479133 0.461006 0.0842908
0.00573739 0.466041 0.0843519
0.00679026 0.467475 0.0816663
0.00827039 0.468376 0.0776532
0.0105135 0.469444 0.0715648
0.0137026 0.471244 0.0649577
0.0169985 0.474784 0.0577554
0.0227665 0.478141 0.0451972
0.0352941 0.483207 0.0315404
0.0607309 0.491829 0.022385
0.115908 0.508003 0.0270085
0.230076 0.544457 0.0524147
0.338415 0.579614 0.0771191
0.424659 0.602777 0.0874342
0.504173 0.622293 0.104646
0.577279 0.639902 0.119051
0.6439 0.654917 0.130098
0.692973 0.671 0.107515
0.739757 0.68336 0.107607
0.785534 0.690593 0.136217
0.834546 0.695781 0.171038
0.874006 0.699611 0.208118
0.900893 0.700832 0.229679
0.918898 0.70222 0.242634
0.928527 0.700755 0.247089
0.934691 0.699199 0.247974
0.935317 0.693996 0.243214
0.935531 0.6869 0.239551
0.935622 0.680323 0.237339
0.936202 0.669306 0.238941
0.937575 0.659205 0.244114
0.937667 0.63859 0.24622
0.00889601 0.50396 0.102892
0.0109865 0.514717 0.108232
0.0121462 0.52018 0.109148
0.0137789 0.520912 0.107103
0.0154574 0.521233 0.102785
0.0182803 0.522286 0.0967575
0.0220188 0.524132 0.0888228
0.0265049 0.527474 0.0811017
0.0331121 0.531899 0.0726024
0.043946 0.537163 0.0560616
0.0690776 0.546532 0.0445106
0.123491 0.564157 0.0463569
0.230869 0.59382 0.0679637
0.354177 0.625208 0.0950332
0.452903 0.644419 0.108598
0.519951 0.660487 0.116991
0.581918 0.677577 0.137148
0.64097 0.693141 0.152163
0.695949 0.705699 0.165682
0.741436 0.720363 0.144823
0.783368 0.731197 0.14403
0.823056 0.737942 0.164782
0.86009 0.742031 0.186984
0.892027 0.743725 0.216266
0.914092 0.745037 0.235828
0.923858 0.746944 0.241108
0.930007 0.746365 0.241932
0.92874 0.745434 0.232303
0.927764 0.742824 0.223194
0.928496 0.737377 0.219623
0.928817 0.731853 0.215351
0.930419 0.723125 0.215824
0.932815 0.712016 0.220996
0.0218204 0.562509 0.139727
0.0255894 0.575067 0.148394
0.0280613 0.579904 0.150622
0.0298924 0.580835 0.147799
0.0320287 0.58088 0.143236
0.0354162 0.581735 0.136599
0.0404974 0.583688 0.128191
0.0474708 0.587396 0.120073
0.0547494 0.59176 0.111101
0.0659648 0.596551 0.0966201
0.0819867 0.602716 0.0729076
0.137438 0.617838 0.0704662
0.236789 0.639811 0.0867475
0.359487 0.665019 0.114443
0.479179 0.681285 0.126696
0.544701 0.696376 0.136568
0.590936 0.711604 0.150698
0.64181 0.727153 0.171649
0.692348 0.740978 0.188052
0.741695 0.751781 0.202426
0.783276 0.76408 0.187945
0.819318 0.772869 0.184466
0.853162 0.77879 0.195987
0.880964 0.782788 0.204349
0.90576 0.784527 0.228046
0.920516 0.785824 0.241138
0.926665 0.786496 0.241764
0.927733 0.786191 0.235569
0.926589 0.784558 0.221668
0.924331 0.783246 0.202472
0.923827 0.778347 0.19321
0.923125 0.773327 0.186053
0.923278 0.766461 0.183673
0.0427558 0.624475 0.190112
0.0479591 0.634958 0.199268
0.0505074 0.639246 0.200504
0.0521859 0.639323 0.196918
0.0548257 0.639109 0.191577
0.0592355 0.640208 0.185
0.0650492 0.641459 0.176394
0.072221 0.643366 0.165362
0.0799725 0.646372 0.154681
0.0917525 0.650446 0.13933
0.107134 0.654978 0.114565
0.148623 0.663844 0.0971237
0.246876 0.680507 0.108049
0.36257 0.69955 0.131167
0.489555 0.711864 0.145586
0.564492 0.726345 0.155306
0.606119 0.740597 0.169375
0.644953 0.754528 0.187732
0.690471 0.769146 0.206821
0.736324 0.781369 0.221454
0.782635 0.792035 0.23566
0.817502 0.801801 0.229664
0.849577 0.809857 0.226612
0.875868 0.815808 0.224277
0.896468 0.819806 0.227466
0.914549 0.820645 0.245609
0.924697 0.822049 0.250889
0.92723 0.821759 0.246693
0.927062 0.82208 0.238407
0.925582 0.820417 0.223377
0.922774 0.818875 0.197452
0.921477 0.815671 0.177844
0.920378 0.810803 0.164935
0.0657359 0.677607 0.236789
0.0696727 0.684215 0.241932
0.0720836 0.687007 0.242741
0.0744488 0.687068 0.239384
0.0774548 0.687099 0.234913
0.0813611 0.687114 0.228046
0.0872206 0.687373 0.218799
0.0948348 0.688502 0.207202
0.103105 0.689982 0.193057
0.113466 0.692699 0.178653
0.129213 0.695994 0.154025
0.16231 0.701915 0.127718
0.249287 0.713161 0.127169
0.366079 0.72784 0.147784
0.494835 0.737438 0.162615
0.576959 0.750744 0.175326
0.620569 0.764843 0.187503
0.652659 0.777401 0.203922
0.689006 0.790509 0.222599
0.733379 0.804929 0.239277
0.776959 0.816312 0.252934
0.817182 0.825681 0.267002
0.847868 0.834104 0.264668
0.874357 0.840772 0.265995
0.893645 0.846067 0.265415
0.910002 0.85034 0.266773
0.919844 0.851881 0.268208
0.928145 0.853391 0.269947
0.927993 0.852705 0.262913
0.927428 0.851987 0.254551
0.926101 0.85153 0.238651
0.923613 0.848981 0.213703
0.921523 0.84828 0.186374
0.0848402 0.715816 0.271046
0.0885939 0.721553 0.2757
0.0906996 0.723476 0.275334
0.0933242 0.723186 0.27129
0.0962997 0.722652 0.266621
0.100618 0.722698 0.260319
0.106157 0.722667 0.251789
0.113375 0.722911 0.240574
0.122667 0.723766 0.22565
0.133196 0.725383 0.210239
0.147784 0.727657 0.186618
0.1729 0.730892 0.155764
0.248463 0.738979 0.144778
0.359625 0.750896 0.161715
0.49514 0.758511 0.177768
0.587213 0.771435 0.194003
0.630228 0.7841 0.206836
0.662379 0.796506 0.220569
0.691371 0.808286 0.237613
0.729259 0.82208 0.255802
0.773556 0.836698 0.271214
0.813214 0.846723 0.284062
0.847044 0.853651 0.297444
0.873625 0.860548 0.298634
0.892363 0.865354 0.303517
0.907744 0.869749 0.303593
0.918334 0.872831 0.305043
0.925521 0.874067 0.305455
0.928283 0.875044 0.304143
0.92932 0.875288 0.297795
0.928588 0.875532 0.288411
0.92784 0.874998 0.276524
0.925963 0.873579 0.248035
0.101167 0.745022 0.298878
0.10399 0.748592 0.301427
0.106203 0.749569 0.300359
0.108812 0.749264 0.296361
0.111818 0.74847 0.29131
0.116106 0.747936 0.285222
0.121752 0.747967 0.276982
0.129366 0.748135 0.265507
0.138888 0.748226 0.251102
0.150149 0.748684 0.233951
0.162936 0.750484 0.215457
0.188968 0.753307 0.184466
0.243549 0.759258 0.162829
0.364141 0.769635 0.178958
0.491936 0.774487 0.192248
0.583871 0.785779 0.209125
0.639139 0.799832 0.223468
0.670558 0.811963 0.238285
0.699275 0.824033 0.254292
0.728634 0.835966 0.272404
0.76788 0.849989 0.288594
0.81117 0.863279 0.301808
0.84419 0.870695 0.314992
0.872618 0.875166 0.328023
0.891585 0.879927 0.332769
0.906157 0.883986 0.338689
0.917342 0.886687 0.339467
0.924651 0.888869 0.341146
0.929213 0.889769 0.340566
0.930495 0.889967 0.338354
0.930495 0.889967 0.334188
0.9299 0.88986 0.324971
0.929366 0.890059 0.316381
0.115038 0.766094 0.32163
0.1178 0.768719 0.323445
0.120012 0.768856 0.321324
0.122652 0.768185 0.31664
0.125933 0.767605 0.311788
0.129854 0.767163 0.305516
0.135821 0.766888 0.297627
0.143313 0.766735 0.28719
0.153231 0.766506 0.272053
0.164477 0.766598 0.254139
0.178241 0.767468 0.23444
0.195682 0.769543 0.209369
0.25095 0.774762 0.185153
0.355764 0.783047 0.192676
0.492546 0.786587 0.206699
0.586252 0.796582 0.223697
0.643305 0.810575 0.240375
0.677119 0.823056 0.255299
0.704356 0.834501 0.27158
0.732738 0.846326 0.288899
0.766979 0.859373 0.30573
0.805539 0.87187 0.320302
0.843351 0.882399 0.332311
0.86978 0.887236 0.345144
0.891569 0.890867 0.357855
0.904463 0.894102 0.364477
0.916564 0.896788 0.370413
0.923125 0.898405 0.373098
0.929717 0.90013 0.37499
0.931075 0.900374 0.374624
0.931365 0.899916 0.371511
0.931289 0.899962 0.369009
0.930953 0.899779 0.358434
0.126635 0.780591 0.339849
0.128603 0.781079 0.340169
0.130678 0.781125 0.337438
0.133715 0.780606 0.332876
0.136919 0.780285 0.327733
0.14139 0.779904 0.321859
0.147051 0.779583 0.31397
0.154665 0.779324 0.303166
0.164614 0.779095 0.288777
0.17705 0.779232 0.270954
0.190646 0.779538 0.250919
0.207202 0.780896 0.224735
0.253132 0.785138 0.203998
0.350469 0.792004 0.205783
0.487251 0.794827 0.219898
0.584878 0.803677 0.23682
0.646387 0.817426 0.255192
0.679957 0.829221 0.269917
0.708171 0.840772 0.286213
0.735821 0.852079 0.302937
0.768215 0.864103 0.319829
0.801343 0.874876 0.332906
0.8383 0.885451 0.345342
0.869413 0.893309 0.358144
0.889677 0.896376 0.370657
0.905028 0.899016 0.382467
0.915434 0.901671 0.389487
0.922866 0.904005 0.397696
0.928222 0.905562 0.401892
0.930419 0.906233 0.404898
0.932006 0.906828 0.406073
0.931868 0.906844 0.403723
0.93167 0.906401 0.399008
0.135073 0.78703 0.354208
0.136629 0.787518 0.354131
0.138766 0.787518 0.350393
0.142031 0.787198 0.345724
