bundles/resolve-cinematic-luts/Phantom Luts/A7s3 Phntm Film LUTs - G6/SLog3/Bleach A7s3.cube
TITLE "Generated by Resolve"
LUT_3D_SIZE 5
0.0229496 0.0348516 0.0241398
0.0388647 0.0373388 0.0283207
0.227344 0.0474556 0.0513771
0.574639 0.0593118 0.125856
0.819486 0.0865187 0.317189
0.0342107 0.102876 0.0421912
0.101244 0.120638 0.0414893
0.380011 0.0702678 0.0471199
0.672129 0.0753033 0.12604
0.837858 0.094667 0.315984
0.00622568 0.399939 0.0734417
0.0215305 0.427665 0.0301366
0.581918 0.596124 0.097322
0.925277 0.644694 0.25095
0.943526 0.532891 0.26656
0.115038 0.766094 0.32163
0.153231 0.766506 0.272053
0.643305 0.810575 0.240375
0.891569 0.890867 0.357855
0.930953 0.899779 0.358434
0.193164 0.789273 0.419974
0.225254 0.789242 0.362463
0.621592 0.817731 0.391943
0.871443 0.894774 0.495979
0.93875 0.910979 0.554986
0.0227817 0.0359655 0.0383459
0.0415351 0.0382544 0.0400397
0.248234 0.0443275 0.0878309
0.601984 0.0569772 0.18706
0.835004 0.092958 0.394018
0.0317693 0.104799 0.0826581
0.109834 0.120699 0.107866
0.455116 0.0766003 0.102388
0.697307 0.0708934 0.198215
0.851637 0.104875 0.431327
0.00172427 0.409628 0.122637
0.0135042 0.426093 0.0847028
0.573419 0.587579 0.115343
0.917067 0.632502 0.292165
0.946761 0.489525 0.28072
0.109529 0.763455 0.366674
0.137881 0.764157 0.325994
0.581842 0.792981 0.254017
0.884871 0.88513 0.369558
0.932952 0.894484 0.39379
0.192859 0.789105 0.475853
0.217365 0.789517 0.417288
0.579538 0.813184 0.445411
0.869261 0.896712 0.562463
0.938506 0.910903 0.554803
0.0226749 0.0405737 0.136492
0.0659648 0.0393072 0.167025
0.29041 0.045655 0.231388
0.639017 0.0645914 0.393133
0.856336 0.107042 0.591897
0.0157015 0.0873274 0.234974
0.0503853 0.0673838 0.310216
0.489982 0.0556497 0.373816
0.737591 0.0793164 0.508202
0.869459 0.118807 0.639673
0.000900282 0.407996 0.338704
0.01178 0.428809 0.357488
0.616312 0.601389 0.581842
0.918761 0.590661 0.595407
0.933669 0.279805 0.609216
0.101366 0.757137 0.553094
0.126314 0.755337 0.524834
0.469947 0.781231 0.513603
0.889479 0.880034 0.646525
0.962264 0.889693 0.693339
0.186984 0.797498 0.61677
0.212665 0.793439 0.577218
0.580484 0.83183 0.613153
0.885725 0.917052 0.72398
0.95819 0.932952 0.74377
0.0285496 0.047837 0.305852
0.0787976 0.0418097 0.370809
0.345769 0.0483558 0.491249
0.677684 0.074876 0.583505
0.87837 0.121004 0.718364
0.0116579 0.0836957 0.473564
0.046479 0.0584726 0.541009
0.514549 0.0523995 0.634058
0.778958 0.0949264 0.672389
0.891096 0.133608 0.764004
0.0047303 0.416632 0.576577
0.0059205 0.43003 0.603693
0.547265 0.555215 0.797498
0.950027 0.556573 0.857114
0.916381 0.18407 0.795087
0.113329 0.75111 0.698238
0.133211 0.749798 0.697719
0.456977 0.781903 0.733593
0.904387 0.8804 0.845563
0.962219 0.876982 0.856397
0.195743 0.810178 0.72874
0.21355 0.807782 0.715434
0.58024 0.848722 0.747326
0.906523 0.937514 0.860395
0.9626 0.945937 0.870115
0.0437324 0.0570687 0.519066
0.102129 0.0492561 0.584268
0.400305 0.0546578 0.663417
0.700252 0.0708629 0.692195
0.892607 0.130556 0.793271
0.0130617 0.109239 0.62797
0.0345922 0.0830701 0.662287
0.506752 0.0580301 0.743267
0.82414 0.106584 0.780453
0.899351 0.139544 0.818357
0.010193 0.444038 0.669993
0.0117189 0.458534 0.689143
0.503243 0.55668 0.857023
0.954116 0.576379 0.912642
0.944564 0.241703 0.86743
0.0725109 0.751812 0.746273
0.0879072 0.750332 0.750072
0.408347 0.769726 0.796048
0.898512 0.874098 0.897765
0.962173 0.869734 0.904814
0.202625 0.812192 0.763714
0.219272 0.809949 0.761273
0.576471 0.845808 0.798047
0.911696 0.93991 0.898695
0.962631 0.944976 0.904341
