bundles/resolve-cinematic-luts/Phantom Luts/A7s3 Phntm Film LUTs - G6/SLog3/Bleach A7s3-Legacy.cube
TITLE "Generated by Resolve"
LUT_3D_SIZE 33
0.0342107 0.0472877 0.0354467
0.0342107 0.0472877 0.0354467
0.0342107 0.0472877 0.0354467
0.0342107 0.0472877 0.0354467
0.0342107 0.0472877 0.0354467
0.0342412 0.0473335 0.0354772
0.0361334 0.0476387 0.035935
0.0396582 0.0481117 0.0368811
0.0433509 0.0487221 0.0379797
0.0507362 0.0497597 0.0379034
0.0631876 0.0500343 0.0390021
0.0756847 0.0499275 0.0405585
0.0903182 0.0502022 0.0429084
0.106935 0.0505226 0.0447852
0.127367 0.0522316 0.0469062
0.152026 0.0538338 0.0497902
0.178576 0.0557107 0.0521401
0.20885 0.0579843 0.0550393
0.241917 0.0599985 0.0597238
0.278355 0.0614176 0.0670634
0.31664 0.0627146 0.0742351
0.357671 0.0635538 0.0816968
0.404898 0.0636301 0.0884108
0.458167 0.0632486 0.0955825
0.504723 0.0637064 0.104372
0.5467 0.0651713 0.115328
0.584985 0.0673075 0.128145
0.621027 0.0699168 0.143481
0.656779 0.0731212 0.161212
0.693187 0.0767681 0.181521
0.728618 0.0805829 0.202502
0.764477 0.0843061 0.227848
0.79382 0.08748 0.251881
0.0342107 0.0472877 0.0354467
0.0342107 0.0472877 0.0354467
0.0342107 0.0472877 0.0354467
0.0342107 0.0472877 0.0354467
0.0342107 0.0472877 0.035462
0.0345006 0.0473945 0.035523
0.0379187 0.0479286 0.0364691
0.0421759 0.0485389 0.037644
0.0489357 0.0495613 0.0379492
0.0620584 0.0499733 0.0388647
0.0753033 0.0499123 0.0404822
0.090135 0.0501869 0.0428321
0.107164 0.0505226 0.0448005
0.128023 0.0523384 0.0470283
0.15288 0.0538796 0.0498665
0.179843 0.0558175 0.0522774
0.210544 0.0580453 0.0552834
0.244434 0.0600137 0.0601511
0.281086 0.0614633 0.0673991
0.31928 0.0626841 0.0746014
0.359716 0.0635538 0.0817731
0.407004 0.0635843 0.0886702
0.458488 0.0632486 0.0955825
0.504707 0.0637064 0.104326
0.545541 0.0651408 0.114763
0.58352 0.0673381 0.127214
0.618372 0.069749 0.141665
0.652934 0.0727703 0.158679
0.688319 0.0762798 0.177859
0.722622 0.080293 0.198581
0.755535 0.0833753 0.220691
0.785794 0.0867475 0.243549
0.810468 0.0893873 0.267231
0.0342107 0.0472877 0.0354467
0.0342107 0.0472877 0.0354467
0.0342107 0.0472877 0.0354467
0.0342107 0.0472877 0.0354467
0.034226 0.0473182 0.035462
0.035996 0.0476387 0.0359045
0.0402838 0.048188 0.0370184
0.0456092 0.0489662 0.0382086
0.0564584 0.0497749 0.0382696
0.0699168 0.0498207 0.0394598
0.0838483 0.0500496 0.0418555
0.100694 0.0504158 0.0441596
0.120394 0.0516365 0.0462348
0.144274 0.0533303 0.0488899
0.170672 0.055436 0.0516976
0.199359 0.057435 0.0538338
0.232731 0.0593423 0.0583352
0.268681 0.0609293 0.0648051
0.304631 0.0623484 0.0720836
0.341955 0.0635538 0.0785992
0.38497 0.0641031 0.0857862
0.435203 0.063508 0.0918593
0.483452 0.0633097 0.0987564
0.52639 0.0644388 0.108202
0.564279 0.0661479 0.119265
0.599069 0.0685588 0.131838
0.63505 0.071519 0.148074
0.668727 0.0746929 0.165087
0.703441 0.0781415 0.184085
0.736171 0.0818341 0.204456
0.768231 0.0851911 0.22623
0.79379 0.0878462 0.248142
0.817716 0.0903792 0.271046
0.0342107 0.0472877 0.0354467
0.0342107 0.0472877 0.0354467
0.0342107 0.0472877 0.0354467
0.0342107 0.0472877 0.0354467
0.0342107 0.0473182 0.035462
0.0364691 0.0476844 0.035996
0.0404669 0.048188 0.0369573
0.0458839 0.0490578 0.038117
0.0572366 0.0497597 0.0382239
0.0709239 0.0498665 0.0395056
0.0863355 0.0500496 0.0420081
0.103319 0.0504768 0.0442969
0.123735 0.0518959 0.0464637
0.14844 0.0535592 0.0491951
0.174975 0.0554208 0.0514382
0.205676 0.0578164 0.0543526
0.239384 0.0598917 0.0588388
0.275792 0.0614023 0.0654765
0.311666 0.0628672 0.0716259
0.350393 0.0640726 0.0780346
0.394858 0.0642863 0.0844587
0.445731 0.0636912 0.0904707
0.493507 0.0640726 0.098024
0.534829 0.0652476 0.107424
0.572885 0.0672007 0.119097
0.608301 0.0697795 0.132677
0.642802 0.0726177 0.148379
0.67689 0.0758221 0.165728
0.711315 0.079469 0.184924
0.743297 0.0830091 0.205676
0.775631 0.0863508 0.227237
0.79913 0.0887617 0.249027
0.821363 0.0911421 0.271534
0.034226 0.0473793 0.0354925
0.0342412 0.0474403 0.035523
0.0342565 0.0474708 0.0355383
0.0343023 0.0474708 0.035523
0.0344701 0.0476387 0.035584
0.0364233 0.0484932 0.0361791
0.0402686 0.0491951 0.0370642
0.0450446 0.0502174 0.038117
0.056733 0.0512856 0.0379797
0.0727398 0.0505074 0.0387121
0.0894179 0.0503853 0.0410773
0.106722 0.0504463 0.0432136
0.127291 0.0516365 0.0451514
0.153414 0.0534981 0.0476692
0.182925 0.0559396 0.0508888
0.216114 0.0582132 0.0541695
0.250217 0.0603037 0.0590219
0.286336 0.061799 0.0650339
0.321736 0.0632334 0.0709544
0.359564 0.064332 0.0758068
0.404379 0.0646067 0.0819104
0.455756 0.0642557 0.088716
0.501686 0.0646067 0.0966964
0.541939 0.0660105 0.106508
0.580362 0.0682536 0.118471
0.615274 0.0704356 0.13193
0.649729 0.0736553 0.14757
0.684306 0.0770275 0.165469
0.718227 0.0809491 0.184619
0.750805 0.0841382 0.206271
0.781231 0.0874037 0.226658
0.803174 0.0895552 0.248707
0.822019 0.0916457 0.271061
0.0355077 0.0512703 0.0370336
0.0360723 0.0526131 0.0377966
0.0366522 0.0535744 0.0383001
0.0370642 0.0536812 0.038117
0.0387274 0.0540017 0.0383917
0.0419471 0.055024 0.0390631
0.0460365 0.0554665 0.0400397
0.0509194 0.0560616 0.0404059
0.0623331 0.0567025 0.0394751
0.0780041 0.0550546 0.0398413
0.0953689 0.0529183 0.040528
0.114504 0.0523842 0.0429084
0.136721 0.0528267 0.0452583
0.161151 0.0536812 0.0469825
0.186481 0.05449 0.0485695
0.219348 0.0567483 0.0516976
0.253773 0.0589914 0.0554818
0.292439 0.0615244 0.0619974
0.331014 0.063508 0.0687419
0.375097 0.0648814 0.0762951
0.419593 0.0650034 0.0808118
0.465492 0.0648661 0.0861067
0.511009 0.0654459 0.0951705
0.550988 0.0669871 0.105196
0.587121 0.0690166 0.11667
0.623911 0.0718853 0.130983
0.657252 0.0751812 0.146105
0.692729 0.0787671 0.164599
0.726696 0.0822156 0.183749
0.758602 0.0855573 0.205341
0.78648 0.0887312 0.225986
0.80795 0.0906691 0.248188
0.822324 0.0921492 0.270512
0.0378576 0.0590066 0.0398566
0.0383154 0.0610208 0.0403601
0.0390631 0.062623 0.0408942
0.0393988 0.0625925 0.0405432
0.041474 0.0630503 0.0405737
0.0456855 0.0644083 0.0412909
0.0518349 0.0654002 0.0421149
0.0600137 0.0659648 0.0428626
0.0709544 0.0661784 0.0419165
0.0878309 0.0641642 0.0424506
0.102373 0.0619821 0.0426947
0.121111 0.0586709 0.0429389
0.144823 0.0561685 0.0448615
0.171298 0.0555581 0.0467384
0.200488 0.056672 0.0484779
0.229587 0.056733 0.0497139
0.262409 0.0572824 0.0527047
0.295293 0.0579385 0.0559091
0.335363 0.0608072 0.0627298
0.38027 0.0635843 0.0705882
0.433906 0.0643931 0.0781262
0.482704 0.0652476 0.0853132
0.522133 0.0663462 0.0926223
0.559548 0.0681163 0.102327
0.596277 0.0704356 0.114626
0.63267 0.0736858 0.129183
0.66714 0.0770275 0.144869
0.70193 0.0804913 0.162692
0.735912 0.0840314 0.182925
0.7682 0.0874952 0.204211
0.792508 0.090013 0.225116
0.812848 0.0918441 0.246418
0.82237 0.0927749 0.268025
0.0409705 0.0724041 0.0431373
0.0413062 0.075761 0.0436866
0.0417334 0.0778973 0.0439307
0.0419471 0.0776074 0.0428931
0.0438697 0.0783398 0.0423743
0.048661 0.0797436 0.0430304
0.0556039 0.0806439 0.0439612
0.0664988 0.0816968 0.0453651
0.0799115 0.0821393 0.0445106
0.100389 0.0789654 0.0439002
0.119905 0.0750134 0.0456092
0.137652 0.0728466 0.0465553
0.159991 0.0701762 0.0471046
0.185687 0.0665446 0.0486458
0.213352 0.0631266 0.049424
0.243503 0.0603952 0.0485389
0.276081 0.0594797 0.0489357
0.309911 0.0579232 0.0517739
0.342992 0.0575113 0.0553597
0.388037 0.058793 0.062974
0.436057 0.0607767 0.0698863
0.489082 0.0630198 0.079057
0.537652 0.0677348 0.0912947
0.572519 0.0696574 0.10071
0.605676 0.0723583 0.111345
0.641413 0.0755169 0.125673
0.676249 0.0789807 0.141527
0.712093 0.0826886 0.160113
0.745312 0.0863355 0.180056
0.777173 0.0897078 0.200885
0.797971 0.0915389 0.221897
0.816953 0.0932937 0.242359
0.822003 0.093492 0.26331
0.0430457 0.0899062 0.0466163
0.0435645 0.0938277 0.0472114
0.0436103 0.0958572 0.047013
0.0439307 0.095964 0.0458381
0.0452735 0.0967727 0.0441291
0.049012 0.0975204 0.0439307
0.0565957 0.0990768 0.0450446
0.0704204 0.0999161 0.0463874
0.0842451 0.101137 0.0471504
0.102907 0.101961 0.0443122
0.134524 0.095964 0.0453193
0.163577 0.0898909 0.0495308
0.190585 0.0840162 0.051667
0.213352 0.0819409 0.0528115
0.239322 0.0784466 0.053193
0.268772 0.073991 0.0534066
0.298207 0.0689403 0.0515755
0.329305 0.0645457 0.0499886
0.361486 0.0597696 0.0487831
0.402747 0.0582132 0.0530556
0.445075 0.0562295 0.0578622
0.490547 0.057969 0.0670634
0.533806 0.0611734 0.0788281
0.578485 0.0674601 0.0935225
0.616159 0.0724498 0.107286
0.650507 0.0771191 0.120928
0.685115 0.081239 0.136385
0.721401 0.0854658 0.153826
0.754421 0.0888075 0.174258
0.784253 0.0920272 0.194064
0.801572 0.0933394 0.21384
0.817594 0.0945296 0.23473
0.821622 0.0943618 0.255894
0.0445258 0.108629 0.0496223
0.0442664 0.113619 0.0501259
0.0444038 0.116289 0.0500649
0.0450141 0.116899 0.0481422
0.0458686 0.117449 0.0458686
0.0484779 0.118013 0.0446784
0.0553445 0.119692 0.0449989
0.0700999 0.121248 0.0466926
0.0873121 0.122408 0.0474708
0.104967 0.123827 0.0477607
0.130831 0.125307 0.0431678
0.17673 0.117189 0.0466773
0.218021 0.107805 0.0534218
0.252735 0.10013 0.0573434
0.28011 0.0976272 0.0586862
0.309483 0.0933852 0.0598306
0.339834 0.0890516 0.0599069
0.372869 0.0821546 0.0583963
0.405982 0.0749828 0.0555581
0.439307 0.0673991 0.0509957
0.475792 0.0628061 0.0520485
0.50428 0.0576638 0.0544442
0.5402 0.0587167 0.0640116
0.572534 0.0595254 0.0778821
0.616678 0.0666209 0.094667
0.657755 0.0742962 0.112505
0.693645 0.0797131 0.128069
0.729168 0.0864729 0.145998
0.762585 0.0916915 0.165011
0.788403 0.0942245 0.184375
0.805219 0.0955825 0.203265
0.816098 0.0961624 0.222721
0.820462 0.0956436 0.243473
0.0431678 0.131258 0.0525216
0.0429236 0.136858 0.052842
0.0429694 0.140108 0.0527657
0.0437018 0.141054 0.0509957
0.0449226 0.141894 0.0477607
0.0467079 0.143084 0.0445258
0.0523079 0.144106 0.0429084
0.0678721 0.146975 0.0454414
0.0880598 0.149248 0.0470893
0.108293 0.151507 0.0489204
0.132143 0.153689 0.048188
0.16846 0.156176 0.0428626
0.228656 0.145998 0.0490272
0.282216 0.134096 0.0597543
0.326879 0.123384 0.0655833
0.36733 0.117906 0.0682078
0.409155 0.112612 0.0695811
0.443854 0.108446 0.0694591
0.479484 0.101701 0.0688182
0.509346 0.0954452 0.0674907
0.533532 0.0869001 0.06392
0.551705 0.0782635 0.0597543
0.570275 0.0698253 0.0603189
0.590524 0.063859 0.0639506
0.610574 0.0601968 0.0729686
0.638911 0.0606241 0.0861219
0.686427 0.0708476 0.108003
0.731456 0.079408 0.130922
0.765972 0.0863203 0.149645
0.791028 0.09514 0.170275
0.807446 0.0984817 0.187304
0.813504 0.0983902 0.205325
0.817639 0.0978561 0.224613
0.041413 0.158907 0.0558175
0.0410773 0.16527 0.0566262
0.0410163 0.169009 0.0565499
0.0419471 0.170489 0.0536355
0.0430152 0.171374 0.05066
0.0442817 0.172488 0.0467231
0.049424 0.173495 0.0418708
0.0599832 0.176516 0.0415351
0.0839857 0.181308 0.0453956
0.109483 0.185199 0.0483406
0.13521 0.188815 0.0502937
0.170489 0.193606 0.0488594
0.217945 0.198367 0.042359
0.291173 0.189487 0.0509957
0.362249 0.175769 0.0667887
0.428824 0.157092 0.0749065
0.482124 0.148425 0.0788891
0.524849 0.144244 0.08336
0.553994 0.142748 0.086717
0.580728 0.138659 0.08925
0.602914 0.133867 0.0907454
0.620356 0.124117 0.0881971
0.636606 0.113268 0.0837262
0.647166 0.0990921 0.0781415
0.652918 0.0793927 0.0711223
0.662501 0.072282 0.0768444
0.669673 0.0639048 0.0832074
0.712139 0.0692607 0.103273
0.759747 0.0775311 0.127062
0.782162 0.0816052 0.142336
0.800015 0.0891585 0.159289
0.81059 0.0999008 0.186496
0.815335 0.100114 0.207141
0.0386511 0.190814 0.0599985
0.0380102 0.198352 0.0605783
0.038529 0.203006 0.060502
0.0397345 0.204379 0.0572061
0.0410773 0.205676 0.0536355
0.0426032 0.207126 0.0499428
0.046128 0.208545 0.043534
0.0542611 0.210452 0.0395514
0.0726177 0.216083 0.0406653
0.104204 0.222858 0.046128
0.136217 0.229648 0.0498054
0.172519 0.2365 0.0518502
0.220981 0.244358 0.0501106
0.276295 0.251118 0.0428626
0.362387 0.24419 0.0514076
0.458366 0.231754 0.0703288
0.528496 0.215778 0.0861372
0.576944 0.207111 0.0980545
0.61471 0.200351 0.107362
0.643244 0.198169 0.113787
0.671077 0.194842 0.119066
0.692226 0.191546 0.123171
0.712245 0.181949 0.123934
0.727687 0.168765 0.120577
0.737682 0.15111 0.112367
0.741222 0.127047 0.100603
0.744701 0.109422 0.096376
0.742306 0.0896773 0.0976425
0.745754 0.0748608 0.103548
0.774197 0.0767834 0.118273
0.790387 0.0772106 0.129152
0.795895 0.0825055 0.144884
0.806668 0.0930037 0.172915
0.0361181 0.227665 0.0639658
0.0356298 0.236057 0.0647593
0.0359503 0.240742 0.0640421
0.0372473 0.242878 0.0614328
0.0390173 0.24387 0.057145
0.0411383 0.245975 0.0533608
0.043534 0.247211 0.047364
0.0484016 0.248341 0.0398718
0.062501 0.253254 0.0386053
0.0906081 0.261387 0.0415045
0.128862 0.271061 0.0471504
0.16994 0.279301 0.0502327
0.216922 0.289281 0.0531777
0.277577 0.300862 0.0514687
0.342092 0.310292 0.0420844
0.444953 0.307942 0.0487373
0.538338 0.306828 0.0753643
0.605066 0.300435 0.102556
0.657633 0.295491 0.127306
0.69807 0.285939 0.145357
0.732799 0.283467 0.156924
0.76556 0.277821 0.1664
0.789761 0.273854 0.172595
0.815 0.26479 0.176562
0.831006 0.249699 0.174609
0.844129 0.234913 0.170336
0.843763 0.204532 0.153368
0.840864 0.178592 0.137255
0.828138 0.144335 0.124361
0.812863 0.111452 0.117418
0.801465 0.0889143 0.114748
0.800458 0.0860761 0.118563
0.796414 0.0810254 0.12195
0.0335851 0.268544 0.0687114
0.0328832 0.276493 0.0690471
0.033753 0.282017 0.0683146
0.0351415 0.284001 0.0653086
0.0366979 0.284977 0.0614176
0.0384985 0.286351 0.0566262
0.0403143 0.28838 0.0511177
0.0429999 0.28925 0.0419928
0.0514839 0.292927 0.037705
0.073991 0.299565 0.0376898
0.111559 0.30956 0.0418402
0.160281 0.32137 0.047364
0.212146 0.333837 0.0518196
0.26714 0.350225 0.0541848
0.341115 0.3664 0.0542153
0.4224 0.378683 0.0403601
0.517693 0.389212 0.0476234
0.603372 0.405676 0.0872663
0.676493 0.410651 0.129534
0.738506 0.413199 0.170581
0.78764 0.408957 0.200595
0.830137 0.402518 0.222141
0.867384 0.394278 0.237675
0.895323 0.384329 0.247944
0.916182 0.375982 0.252995
0.928893 0.362493 0.253971
0.927459 0.34229 0.24564
0.922911 0.31371 0.231891
0.911833 0.283864 0.212543
0.898024 0.252491 0.190951
0.859129 0.18201 0.143648
0.830198 0.127855 0.118425
0.820157 0.112062 0.114
0.0308995 0.310307 0.0725719
0.0303807 0.31902 0.072694
0.0308385 0.324208 0.07187
0.0322728 0.325307 0.0691844
0.0336461 0.326207 0.0654002
0.0347906 0.327337 0.0606699
0.0360418 0.329885 0.0552224
0.0377966 0.331884 0.0467231
0.041474 0.332876 0.0356603
0.0564126 0.337819 0.0325475
0.0892195 0.348058 0.0344549
0.141833 0.363012 0.0411688
0.20351 0.380407 0.0480354
0.258 0.400183 0.0525978
0.32163 0.424781 0.0572824
0.421057 0.448844 0.061265
0.50547 0.470665 0.0467689
0.583917 0.492134 0.0563668
0.656352 0.508522 0.0997024
0.726757 0.515526 0.145434
0.787976 0.5187 0.190478
0.837613 0.515114 0.2206
0.880827 0.508766 0.245335
0.914153 0.497093 0.2645
0.934447 0.487694 0.275807
0.947463 0.478431 0.280446
0.948623 0.461646 0.283146
0.949447 0.444343 0.282902
0.949187 0.426398 0.280842
0.947173 0.402075 0.275074
0.942626 0.375998 0.265019
0.927474 0.320134 0.236851
0.889738 0.234791 0.178439
0.0269627 0.35465 0.0753796
0.0260929 0.363684 0.0755627
0.0260929 0.368322 0.0746929
0.026627 0.369345 0.0721752
0.027512 0.370336 0.0681468
0.028748 0.371801 0.0637064
0.0302586 0.374044 0.0584878
0.0318456 0.376333 0.0511025
0.0356909 0.378698 0.0398108
0.0438544 0.382116 0.0284428
0.0664683 0.390051 0.0267948
0.114946 0.406241 0.0317845
0.185061 0.429328 0.0417945
0.258274 0.454948 0.051545
0.325017 0.48574 0.06421
0.411856 0.514473 0.0784466
0.515892 0.536568 0.0859083
0.584176 0.557778 0.0682536
0.643793 0.57409 0.0729229
0.705028 0.585534 0.113725
0.77116 0.591501 0.160464
0.833402 0.595789 0.209125
0.877211 0.594598 0.235462
0.912016 0.591638 0.257664
0.93196 0.584573 0.270573
0.944305 0.577798 0.278065
0.944259 0.565316 0.277409
0.944137 0.555871 0.276463
0.943893 0.545571 0.272374
0.944579 0.530694 0.27422
0.945083 0.511009 0.27689
0.947204 0.483711 0.279347
0.949035 0.449256 0.281956
0.0202487 0.403006 0.0779736
0.0192874 0.41297 0.0782025
0.0187381 0.418173 0.0767224
0.019379 0.419471 0.074052
0.0204013 0.420111 0.0707103
0.0218662 0.420966 0.0662394
0.0238651 0.42269 0.0606699
0.0254826 0.426215 0.0542
0.0297856 0.428748 0.0443885
0.0386511 0.433173 0.0333257
0.0559701 0.440085 0.0250095
0.0910964 0.452277 0.0260166
0.168292 0.478431 0.0406348
0.263935 0.512551 0.0610056
0.348348 0.543999 0.0767987
0.424063 0.569924 0.0940108
0.511925 0.58941 0.107057
0.590311 0.606577 0.115389
0.644907 0.624079 0.0942855
0.697383 0.638483 0.0955825
0.752239 0.647334 0.133227
0.814603 0.653086 0.177829
0.869184 0.656855 0.222629
0.90576 0.656611 0.248997
0.930297 0.655711 0.266255
0.940444 0.652216 0.272175
0.945434 0.650019 0.273335
0.945174 0.64361 0.270253
0.94406 0.635248 0.266926
0.944305 0.626932 0.266102
0.943511 0.612436 0.266117
0.944076 0.599832 0.269383
0.943618 0.578515 0.267369
0.0162661 0.455131 0.0846876
0.0164187 0.465263 0.0868544
0.0170901 0.4701 0.0867781
0.018143 0.470924 0.0844892
0.0194095 0.471199 0.0809339
0.0211795 0.472267 0.0762341
0.0236515 0.474098 0.0704051
0.0268101 0.476967 0.0641489
0.031342 0.481224 0.0573892
0.0383612 0.48542 0.0442054
0.054902 0.491936 0.0349126
0.0894484 0.504051 0.0335851
0.164263 0.530114 0.0484627
0.276387 0.568017 0.0769207
0.369635 0.596536 0.0971237
0.44947 0.615549 0.105165
0.520577 0.633799 0.122698
0.588281 0.650263 0.136172
0.64921 0.664073 0.14609
0.699443 0.680491 0.125612
0.748333 0.692607 0.125322
0.797772 0.700526 0.157473
0.849928 0.705135 0.193713
0.893156 0.708202 0.231312
0.922087 0.709468 0.256733
0.934829 0.709911 0.264881
0.941711 0.708293 0.268055
0.942016 0.706798 0.26276
0.942016 0.703487 0.257374
0.942611 0.696712 0.255558
0.942916 0.690288 0.252995
0.942626 0.680415 0.252781
0.942977 0.667506 0.255482
0.0203098 0.509407 0.102983
0.0226291 0.520668 0.107897
0.0240024 0.525902 0.108904
0.0250706 0.52668 0.106691
0.0267491 0.526741 0.102937
0.0291905 0.527687 0.0984512
0.0327153 0.529274 0.092607
0.0378424 0.533425 0.0863661
0.0435187 0.537911 0.0796674
0.0508431 0.543114 0.0693065
0.0629282 0.549218 0.0533455
0.100282 0.562524 0.0515755
0.174502 0.585565 0.065507
0.284733 0.617533 0.0944076
0.394125 0.642267 0.115175
0.47837 0.657603 0.124071
0.537102 0.67277 0.13315
0.591943 0.688701 0.152483
0.647105 0.703807 0.166827
0.70132 0.716274 0.178882
0.748653 0.730465 0.160311
0.791623 0.740353 0.157305
0.836332 0.74757 0.18468
0.875395 0.752468 0.204974
0.910231 0.755093 0.236851
0.929274 0.756069 0.25597
0.937041 0.755947 0.259556
0.937697 0.755383 0.255344
0.937407 0.753521 0.247501
0.935836 0.752239 0.237247
0.935485 0.746944 0.232776
0.935073 0.742275 0.229877
0.935897 0.734218 0.229328
0.0362097 0.573831 0.139254
0.0411383 0.586923 0.147585
0.0433509 0.592126 0.14931
0.0446479 0.592309 0.146715
0.0466773 0.592187 0.142855
0.0504463 0.593713 0.138918
0.0548714 0.595941 0.132708
0.060502 0.598444 0.124193
0.0674296 0.602518 0.117449
0.076173 0.608042 0.106844
0.088304 0.613321 0.0899519
0.119692 0.62356 0.0786755
0.193942 0.640879 0.0885023
0.293492 0.663661 0.111421
0.403876 0.683513 0.132555
0.507576 0.696132 0.141527
0.56054 0.711009 0.150881
0.602747 0.725063 0.164508
0.647745 0.739178 0.183536
0.696605 0.75259 0.197879
0.747494 0.765072 0.209705
0.789731 0.776043 0.198413
0.829267 0.785016 0.193515
0.865873 0.791592 0.204303
0.89546 0.796445 0.214954
0.920623 0.797574 0.23856
0.932738 0.79855 0.252049
0.934661 0.798245 0.249393
0.934493 0.798535 0.242435
0.933745 0.797086 0.233997
0.931853 0.795224 0.217472
0.93109 0.792065 0.2047
0.931029 0.78616 0.200763
0.0609293 0.641169 0.188159
0.065507 0.651087 0.195438
0.0675212 0.654521 0.195712
0.0691844 0.65478 0.192828
0.0715953 0.65507 0.18909
0.0751659 0.655451 0.183551
0.080293 0.656443 0.176226
0.0866407 0.658412 0.166522
0.0935073 0.661051 0.156558
0.101884 0.664424 0.146136
0.11426 0.669306 0.128237
0.139803 0.675715 0.109712
0.204929 0.686549 0.109804
0.30312 0.703685 0.128908
0.411093 0.719051 0.148257
0.516945 0.72874 0.158145
0.581933 0.742657 0.167727
0.616907 0.755642 0.178958
0.652689 0.768109 0.195071
0.695064 0.782315 0.213306
0.741222 0.795132 0.226123
0.789776 0.807492 0.238178
0.827802 0.817273 0.231159
0.861769 0.824369 0.230198
0.88925 0.831189 0.228107
0.912047 0.836957 0.226764
0.922545 0.837095 0.238041
0.932937 0.838026 0.250401
0.932769 0.837308 0.244587
0.932128 0.836591 0.237736
0.930861 0.836179 0.224537
0.929107 0.83418 0.208911
0.926726 0.832685 0.178103
0.0833753 0.694896 0.22916
0.0869612 0.703029 0.234821
0.0894636 0.705455 0.234974
0.0912184 0.705226 0.231495
0.0935988 0.704723 0.226871
0.0976272 0.704906 0.221042
0.102007 0.705257 0.213413
0.107942 0.705974 0.203311
0.11487 0.707485 0.190555
0.123598 0.71017 0.178058
0.135882 0.713039 0.160464
0.154726 0.716701 0.136858
0.209079 0.723629 0.127825
0.303853 0.736996 0.143282
0.414939 0.749035 0.16228
0.524346 0.756878 0.173434
0.589639 0.768902 0.184482
0.63154 0.781613 0.194797
0.660105 0.793378 0.207034
0.69572 0.806348 0.224002
0.738018 0.821088 0.241108
0.783658 0.833677 0.253086
0.826581 0.843854 0.265019
0.859922 0.851682 0.261082
0.885435 0.857267 0.262318
0.906844 0.863478 0.259297
0.92105 0.867658 0.258549
0.928649 0.868437 0.263752
0.930648 0.868833 0.25951
0.930953 0.868971 0.252171
0.930068 0.869505 0.241276
0.929458 0.869123 0.231296
0.928054 0.866896 0.205646
0.101381 0.735897 0.259968
0.104158 0.741283 0.262333
0.106233 0.742672 0.261936
0.108324 0.742336 0.258396
0.110353 0.741497 0.25362
0.113436 0.741039 0.248203
0.118074 0.741314 0.241123
0.124727 0.741772 0.231022
0.132601 0.742275 0.218051
0.14136 0.743282 0.203555
0.151873 0.745647 0.187549
0.172305 0.748775 0.163424
0.215152 0.753765 0.146471
0.310185 0.764691 0.159472
0.413535 0.773495 0.175189
0.524575 0.778698 0.185504
0.601419 0.791211 0.200412
0.640192 0.803296 0.210513
0.671702 0.815183 0.221698
0.698436 0.826825 0.235843
0.736049 0.840589 0.252308
0.779599 0.854917 0.267414
0.820447 0.865034 0.279088
0.857389 0.8719 0.290669
0.883299 0.877531 0.291325
0.903746 0.882216 0.293538
0.91841 0.886076 0.291325
0.926879 0.888716 0.291341
0.930114 0.889204 0.289998
0.930831 0.889067 0.287907
0.930617 0.889036 0.284092
0.930037 0.888991 0.276158
0.929534 0.889174 0.269245
0.114946 0.765667 0.282628
0.117357 0.768978 0.284672
0.118868 0.76939 0.282887
0.121126 0.768505 0.279088
0.123857 0.767895 0.274769
0.12697 0.767407 0.269352
0.131594 0.767361 0.262272
0.137377 0.767468 0.253178
0.145876 0.767727 0.239811
0.155352 0.768261 0.224613
0.1664 0.769467 0.207095
0.180179 0.771435 0.185306
0.223194 0.776165 0.16582
0.303593 0.784298 0.170962
0.416327 0.790753 0.188266
0.524849 0.794247 0.198276
0.600015 0.8047 0.212192
0.649119 0.818082 0.224689
0.678569 0.829175 0.235981
0.704845 0.840497 0.248631
0.73315 0.852049 0.264851
0.772595 0.865644 0.2804
0.817655 0.879225 0.293172
0.851545 0.886061 0.304967
0.881651 0.891112 0.31693
0.900374 0.895811 0.318379
0.916899 0.899229 0.320287
0.923964 0.900755 0.320653
0.929946 0.902007 0.320943
0.93022 0.901823 0.320348
0.930373 0.900771 0.316991
0.930129 0.901198 0.315633
0.929931 0.900877 0.306966
0.1252 0.785107 0.300542
0.12636 0.785824 0.300649
0.128115 0.78584 0.298375
0.130449 0.785382 0.294591
0.133455 0.785 0.290196
0.137041 0.784741 0.285222
0.141665 0.784482 0.278279
0.147616 0.78439 0.268849
0.155749 0.78439 0.256321
0.166033 0.784726 0.240467
0.177813 0.785489 0.222156
0.190875 0.786557 0.199832
0.226596 0.789899 0.18172
0.301152 0.796109 0.182315
0.412573 0.801511 0.198764
0.524102 0.803357 0.208103
0.601434 0.81268 0.223407
0.652094 0.825193 0.236149
0.682429 0.835828 0.247974
0.707988 0.846006 0.25977
0.734478 0.856458 0.274693
0.766659 0.867735 0.289494
0.810452 0.880705 0.302846
0.849485 0.890852 0.312596
0.878157 0.895155 0.323262
0.89987 0.898726 0.333059
0.914443 0.902495 0.335393
0.924697 0.905226 0.340154
0.929702 0.906935 0.342184
0.930053 0.9075 0.344396
0.93019 0.907774 0.345083
0.929885 0.908217 0.343923
0.929808 0.908217 0.341344
0.131289 0.792416 0.312963
0.132692 0.792874 0.312871
