bundles/resolve-cinematic-luts/Phantom Luts/A7s3 Phntm Film LUTs - G6/SLog3/Bleach A7s3.cube
TITLE "Generated by Resolve"
LUT_3D_SIZE 9
0.0229496 0.0348516 0.0241398
0.0229496 0.0348516 0.0241398
0.0388647 0.0373388 0.0283207
0.105333 0.0416266 0.0373999
0.227344 0.0474556 0.0513771
0.388434 0.0522469 0.0818799
0.574639 0.0593118 0.125856
0.711971 0.0721904 0.208621
0.819486 0.0865187 0.317189
0.0229648 0.0351568 0.0241855
0.0234836 0.0357824 0.0243229
0.0608835 0.0411383 0.0307774
0.15996 0.0446784 0.0411994
0.308797 0.0503548 0.0605783
0.489937 0.0554665 0.0903487
0.640925 0.0669718 0.146517
0.762402 0.079408 0.234455
0.838346 0.0915389 0.338872
0.0342107 0.102876 0.0421912
0.0390936 0.112886 0.0372625
0.101244 0.120638 0.0414893
0.255894 0.0962692 0.0519417
0.380011 0.0702678 0.0471199
0.51986 0.0480201 0.0505837
0.672129 0.0753033 0.12604
0.786694 0.0877852 0.20972
0.837858 0.094667 0.315984
0.0289464 0.23772 0.0600443
0.0280003 0.252476 0.0483253
0.080705 0.26363 0.0263523
0.276463 0.299916 0.0404364
0.60119 0.286534 0.090013
0.737041 0.258289 0.142184
0.794812 0.197177 0.133196
0.765072 0.0711223 0.0906081
0.819562 0.0937362 0.192706
0.00622568 0.399939 0.0734417
0.00677501 0.416709 0.0653239
0.0215305 0.427665 0.0301366
0.234562 0.494041 0.0424964
0.581918 0.596124 0.097322
0.800473 0.64213 0.156527
0.925277 0.644694 0.25095
0.939834 0.613489 0.253529
0.943526 0.532891 0.26656
0.0427558 0.624475 0.190112
0.0548257 0.639109 0.191577
0.0799725 0.646372 0.154681
0.246876 0.680507 0.108049
0.606119 0.740597 0.169375
0.782635 0.792035 0.23566
0.896468 0.819806 0.227466
0.927062 0.82208 0.238407
0.920378 0.810803 0.164935
0.115038 0.766094 0.32163
0.125933 0.767605 0.311788
0.153231 0.766506 0.272053
0.25095 0.774762 0.185153
0.643305 0.810575 0.240375
0.766979 0.859373 0.30573
0.891569 0.890867 0.357855
0.929717 0.90013 0.37499
0.930953 0.899779 0.358434
0.151858 0.788373 0.376287
0.161349 0.78822 0.359335
0.188693 0.787427 0.323095
0.264759 0.791104 0.240894
0.637003 0.817304 0.288502
0.769497 0.865873 0.355383
0.876646 0.896529 0.392844
0.925734 0.906355 0.432807
0.932982 0.908476 0.449287
0.193164 0.789273 0.419974
0.200336 0.789685 0.398322
0.225254 0.789242 0.362463
0.351064 0.794018 0.330907
0.621592 0.817731 0.391943
0.776394 0.866438 0.484169
0.871443 0.894774 0.495979
0.917784 0.904021 0.506676
0.93875 0.910979 0.554986
0.0229038 0.0348516 0.0241398
0.0229496 0.0348516 0.0241398
0.0401007 0.0374762 0.0319219
0.108293 0.0417029 0.0407111
0.236561 0.0472114 0.0593271
0.403723 0.0513771 0.0941482
0.587045 0.0584878 0.147066
0.722316 0.0721904 0.234028
0.825971 0.0881361 0.342992
0.0228733 0.0352636 0.0242161
0.0252537 0.0378119 0.0265507
0.0786297 0.0429084 0.0371862
0.175814 0.0449378 0.0453651
0.320607 0.0504005 0.0677348
0.510292 0.0548714 0.104479
0.657191 0.0668956 0.169818
0.777691 0.0802319 0.266346
0.843137 0.0949416 0.378225
0.0338445 0.107286 0.0514839
0.0367437 0.1178 0.0455634
0.105013 0.123919 0.0450599
0.261707 0.098909 0.056733
0.406104 0.0696422 0.0547799
0.553796 0.0566262 0.0793622
0.687251 0.075227 0.145922
0.800214 0.0872358 0.240314
0.842222 0.0961929 0.354345
0.0273136 0.243168 0.0725109
0.0267338 0.257298 0.0637217
0.0590982 0.264805 0.0289464
0.279454 0.302556 0.0426947
0.606561 0.285115 0.0996872
0.730846 0.263371 0.147021
0.789197 0.183185 0.131914
0.773083 0.0725567 0.0996719
0.827039 0.101122 0.222736
0.00462348 0.405142 0.084596
0.00421149 0.421271 0.0771649
0.0189059 0.42916 0.0432898
0.219486 0.492638 0.0446784
0.583856 0.597635 0.101946
0.808988 0.644358 0.173236
0.92517 0.644907 0.262989
0.940078 0.616358 0.26009
0.944091 0.52607 0.268772
0.0421302 0.628534 0.206821
0.0535134 0.642725 0.208392
0.0776684 0.64715 0.168872
0.214862 0.676341 0.10869
0.60296 0.739361 0.17583
0.781567 0.791028 0.239872
0.89958 0.819699 0.239139
0.929091 0.820035 0.26183
0.921813 0.810819 0.183764
0.111757 0.765667 0.334508
0.121401 0.767697 0.324804
0.146639 0.766033 0.289021
0.223651 0.771374 0.197604
0.632212 0.80679 0.245167
0.762951 0.857511 0.310506
0.891646 0.890974 0.360647
0.929992 0.899458 0.377691
0.931533 0.89839 0.366979
0.152697 0.788235 0.393729
0.160647 0.788525 0.376806
0.18558 0.788083 0.34136
0.261692 0.790448 0.259983
0.617609 0.812238 0.293889
0.763546 0.863401 0.362127
0.873014 0.895659 0.399145
0.925536 0.90631 0.432685
0.932998 0.908324 0.455436
0.193225 0.789258 0.439612
0.199573 0.789471 0.41767
0.221317 0.789471 0.379019
0.338384 0.79295 0.347097
0.604593 0.815076 0.406027
0.773297 0.865888 0.502113
0.870405 0.895155 0.515358
0.917372 0.90399 0.512337
0.938537 0.910842 0.552926
0.0227817 0.0359655 0.0383459
0.0279393 0.0363165 0.0364843
0.0415351 0.0382544 0.0400397
0.116686 0.0402991 0.0681468
0.248234 0.0443275 0.0878309
0.420035 0.047776 0.124239
0.601984 0.0569772 0.18706
0.738537 0.0734722 0.281285
0.835004 0.092958 0.394018
0.0220493 0.0365911 0.0387121
0.0238804 0.0396429 0.0556954
0.0784314 0.0401465 0.0666819
0.182452 0.0417792 0.0836194
0.331456 0.0466773 0.107469
0.521996 0.0501106 0.146227
0.670863 0.0649271 0.224079
0.791775 0.0819562 0.321767
0.850614 0.102724 0.442725
0.0317693 0.104799 0.0826581
0.0335851 0.115465 0.0921035
0.109834 0.120699 0.107866
0.276036 0.108583 0.105104
0.455116 0.0766003 0.102388
0.563851 0.0592355 0.120958
0.697307 0.0708934 0.198215
0.812406 0.0855726 0.304372
0.851637 0.104875 0.431327
0.0243534 0.247227 0.115068
0.0232242 0.261814 0.110216
0.0464637 0.269612 0.0816205
0.297475 0.316289 0.105089
0.589303 0.286656 0.145449
0.72369 0.224125 0.165774
0.795605 0.136645 0.143694
0.820462 0.0991226 0.201724
0.840558 0.100633 0.314076
0.00172427 0.409628 0.122637
0.00154116 0.424308 0.115908
0.0135042 0.426093 0.0847028
0.143297 0.470497 0.0502632
0.573419 0.587579 0.115343
0.813901 0.631174 0.234363
0.917067 0.632502 0.292165
0.942901 0.60087 0.296147
0.946761 0.489525 0.28072
0.0372625 0.626719 0.242435
0.0471046 0.640742 0.24445
0.0643778 0.641413 0.213519
0.124041 0.653468 0.125338
0.577218 0.725292 0.190951
0.770291 0.779904 0.246357
0.907347 0.807813 0.282567
0.935012 0.809873 0.315572
0.931792 0.805234 0.278614
0.109529 0.763455 0.366674
0.118959 0.765408 0.358526
0.137881 0.764157 0.325994
0.197864 0.76437 0.245823
0.581842 0.792981 0.254017
0.745022 0.847761 0.321523
0.884871 0.88513 0.369558
0.930892 0.897017 0.384176
0.932952 0.894484 0.39379
0.154299 0.788891 0.430457
0.163088 0.788937 0.415686
0.181369 0.789425 0.378988
0.24535 0.789136 0.3122
0.555108 0.803098 0.321798
0.749325 0.856947 0.407889
0.864073 0.892592 0.440574
0.924575 0.905837 0.458885
0.93402 0.908583 0.485847
0.192859 0.789105 0.475853
0.199481 0.788952 0.457908
0.217365 0.789517 0.417288
0.319905 0.792294 0.386481
0.579538 0.813184 0.445411
0.769268 0.866331 0.543526
0.869261 0.896712 0.562463
0.918349 0.905928 0.559472
0.938506 0.910903 0.554803
0.0220645 0.0382849 0.0753033
0.0271458 0.0376745 0.0741894
0.0603037 0.0385901 0.0853742
0.127977 0.0405737 0.103532
0.267445 0.0439307 0.151888
0.446983 0.0464942 0.205447
0.621744 0.0610513 0.274632
0.756466 0.0818341 0.369375
0.846891 0.102296 0.490074
0.0203708 0.0395056 0.0901503
0.0228885 0.0398718 0.112459
0.0812085 0.0386511 0.143359
0.205234 0.0426642 0.162066
0.357794 0.0462806 0.20412
0.5458 0.0514229 0.261601
0.690913 0.0709239 0.336538
0.809842 0.0922713 0.438575
0.858381 0.109636 0.535439
0.0231632 0.10164 0.144213
0.0213169 0.107179 0.168597
0.0829023 0.0995346 0.216281
0.286687 0.0826734 0.232441
0.449912 0.0555581 0.232288
0.590753 0.0567025 0.258778
0.720684 0.0741436 0.330022
0.832151 0.0958877 0.438743
0.860594 0.1131 0.541939
0.0203861 0.239734 0.201389
0.0185702 0.254231 0.215061
0.0347295 0.262058 0.22414
0.320851 0.321981 0.306844
0.598718 0.287861 0.28925
0.744503 0.250797 0.290501
0.815717 0.139071 0.290288
0.830884 0.0889754 0.345235
0.859266 0.114076 0.491463
0 0.413794 0.213306
0 0.429679 0.213901
0.00981155 0.434195 0.190738
0.147921 0.499229 0.204883
0.602274 0.607217 0.316335
0.805295 0.618143 0.402487
0.924544 0.600778 0.450599
0.950454 0.543801 0.444434
0.93579 0.362921 0.3523
0.0374456 0.631342 0.322423
0.047364 0.644038 0.329152
0.0636454 0.642206 0.299107
0.109514 0.64358 0.238025
0.520272 0.716182 0.306798
0.768139 0.772702 0.382269
0.922133 0.790188 0.501122
0.946792 0.798093 0.492103
0.94313 0.788434 0.416709
0.106081 0.761166 0.44445
0.115633 0.762402 0.434623
0.136431 0.759762 0.39588
0.180194 0.757916 0.334447
0.461189 0.77966 0.335241
0.728603 0.834089 0.439551
0.879194 0.876509 0.496956
0.941573 0.889525 0.544335
0.941772 0.888395 0.524468
0.151446 0.790661 0.507744
0.161532 0.790005 0.491203
0.183322 0.789151 0.452308
0.236149 0.789578 0.391379
0.497215 0.802945 0.411887
0.746273 0.858274 0.533608
0.863584 0.895491 0.567605
0.929656 0.910414 0.588647
0.941985 0.913176 0.589349
0.190402 0.791699 0.538201
0.19826 0.790661 0.520333
0.218143 0.789334 0.487938
0.318227 0.79411 0.464729
0.568002 0.817792 0.520562
0.769451 0.872557 0.609537
0.875227 0.904173 0.637461
0.923217 0.91371 0.638041
0.948074 0.919066 0.645716
0.0226749 0.0405737 0.136492
0.0268101 0.040116 0.140734
0.0659648 0.0393072 0.167025
0.149111 0.0391089 0.19649
0.29041 0.045655 0.231388
0.482826 0.0484627 0.293416
0.639017 0.0645914 0.393133
0.767483 0.0845655 0.514275
0.856336 0.107042 0.591897
0.0219272 0.0429236 0.176165
0.024567 0.043595 0.2056
0.0818952 0.0395514 0.251316
0.219226 0.041474 0.281971
0.391226 0.0489204 0.30605
0.573861 0.0560311 0.372808
0.706813 0.0744945 0.482673
0.82063 0.0962539 0.571756
0.866361 0.114778 0.627909
0.0157015 0.0873274 0.234974
0.0150759 0.0888838 0.265812
0.0503853 0.0673838 0.310216
0.250034 0.0526436 0.365072
0.489982 0.0556497 0.373816
0.622461 0.063508 0.427665
0.737591 0.0793164 0.508202
0.845273 0.102129 0.588968
0.869459 0.118807 0.639673
0.0187839 0.228534 0.307042
0.0176699 0.239094 0.335088
0.0173037 0.231571 0.360967
0.260349 0.266606 0.515648
0.615061 0.24007 0.539605
0.742077 0.181598 0.551247
0.805966 0.105623 0.532036
0.852399 0.103822 0.58056
0.870497 0.121263 0.634165
0.000900282 0.407996 0.338704
0.0037232 0.424811 0.352193
0.01178 0.428809 0.357488
0.12192 0.489113 0.428946
0.616312 0.601389 0.581842
0.799603 0.600809 0.590707
0.918761 0.590661 0.595407
0.945586 0.534493 0.600015
0.933669 0.279805 0.609216
0.0382086 0.629496 0.454643
0.0470893 0.641215 0.466728
0.0604715 0.641199 0.448188
0.100649 0.642451 0.400931
0.53051 0.725963 0.540337
0.777722 0.772946 0.603647
0.916915 0.779751 0.648981
0.957763 0.778241 0.655497
0.961517 0.756115 0.658824
0.101366 0.757137 0.553094
0.10927 0.758312 0.549065
0.126314 0.755337 0.524834
0.170626 0.750484 0.466606
0.469947 0.781231 0.513603
0.731258 0.837797 0.608118
0.889479 0.880034 0.646525
0.960586 0.88867 0.696178
0.962264 0.889693 0.693339
0.14931 0.795666 0.597299
0.157321 0.794659 0.587396
0.176455 0.792081 0.562234
0.233265 0.787594 0.512856
0.514641 0.812314 0.555749
0.735759 0.868284 0.639765
0.875959 0.907958 0.684169
0.939773 0.92134 0.701183
0.960266 0.92575 0.724315
0.186984 0.797498 0.61677
0.193896 0.796231 0.603433
0.212665 0.793439 0.577218
0.329595 0.799207 0.56556
0.580484 0.83183 0.613153
0.762661 0.884611 0.683452
0.885725 0.917052 0.72398
0.933547 0.928038 0.727565
0.95819 0.932952 0.74377
0.0244907 0.0442664 0.219486
0.0271916 0.0440528 0.228946
0.066865 0.0400397 0.264363
0.162661 0.0407263 0.311803
0.321721 0.0454566 0.346227
0.511818 0.0518807 0.398718
0.660212 0.0695048 0.50547
0.788159 0.0907912 0.590494
0.867063 0.113527 0.662638
0.0238499 0.0473793 0.274937
0.0296635 0.0475776 0.307256
0.086183 0.0416419 0.360296
0.232029 0.0447547 0.427726
0.420493 0.0467231 0.442924
0.594415 0.0610513 0.497246
0.728054 0.0807965 0.574807
0.839063 0.10367 0.641321
0.876249 0.12221 0.69752
0.012604 0.076051 0.336797
0.0121614 0.0767987 0.375906
0.0411688 0.0512703 0.414496
0.235004 0.0466316 0.515587
0.508919 0.0518654 0.535225
0.653223 0.0720073 0.558923
0.761105 0.0870069 0.602716
0.862699 0.110353 0.664759
0.881209 0.127321 0.716075
0.0153964 0.209079 0.44155
0.0149386 0.219669 0.480613
0.0143435 0.210391 0.506889
0.200244 0.203693 0.616602
0.593011 0.172473 0.657465
0.73814 0.134096 0.641352
0.825177 0.110658 0.652415
0.867826 0.113863 0.679042
0.885237 0.13167 0.728618
0.00077821 0.408133 0.478218
0.000335698 0.423789 0.494804
0.00103761 0.422156 0.510307
0.0564279 0.435447 0.560113
0.582986 0.577081 0.715312
0.822538 0.585229 0.748638
0.936996 0.561349 0.766903
0.96408 0.479744 0.790814
0.907317 0.183413 0.723354
0.0462806 0.625498 0.569253
0.054139 0.636423 0.580453
0.0663462 0.636118 0.581064
0.0936751 0.633494 0.579507
0.524269 0.724758 0.683986
0.785 0.764279 0.742336
0.91342 0.764569 0.751019
0.959304 0.76025 0.756878
0.96144 0.738766 0.749203
0.104829 0.753628 0.641077
0.111452 0.754971 0.64062
0.125322 0.751827 0.630808
0.154803 0.74667 0.60705
0.474449 0.786786 0.643259
0.752102 0.855772 0.730114
0.901061 0.885206 0.761852
0.956313 0.887068 0.786664
0.962356 0.884825 0.789471
0.151904 0.798611 0.671855
0.15816 0.797635 0.666346
0.173404 0.794751 0.652735
0.212161 0.789609 0.62501
0.529091 0.822553 0.656641
0.751568 0.886244 0.73727
0.888975 0.918746 0.784039
0.946197 0.928725 0.794644
0.962509 0.931243 0.817578
0.190036 0.804715 0.684138
0.195621 0.803647 0.675944
0.210376 0.801663 0.660685
0.305791 0.803861 0.649287
0.60032 0.847883 0.695384
0.778973 0.903838 0.766339
0.89688 0.930205 0.809537
0.94287 0.94049 0.813275
0.962676 0.943099 0.824033
0.0285496 0.047837 0.305852
0.0385138 0.0464485 0.326513
0.0787976 0.0418097 0.370809
0.180514 0.0441138 0.447105
0.345769 0.0483558 0.491249
0.535958 0.049546 0.518303
0.677684 0.074876 0.583505
0.806409 0.0982834 0.657221
0.87837 0.121004 0.718364
0.028397 0.0526436 0.383688
0.0397498 0.0522164 0.430182
0.0929427 0.0445106 0.489204
0.242649 0.0485389 0.558801
0.452216 0.0496223 0.569741
0.608881 0.0583658 0.585916
0.742748 0.0870985 0.641337
0.855848 0.112108 0.705623
0.886549 0.128786 0.747204
0.0116579 0.0836957 0.473564
0.011429 0.0837415 0.510811
0.046479 0.0584726 0.541009
0.231617 0.0510719 0.611811
0.514549 0.0523995 0.634058
0.678737 0.0751965 0.653452
0.778958 0.0949264 0.672389
0.876493 0.119173 0.729015
0.891096 0.133608 0.764004
0.0142061 0.198352 0.550027
0.014725 0.212039 0.578943
0.0149233 0.199863 0.600122
0.155337 0.169558 0.686625
0.543969 0.126452 0.724636
0.717922 0.0966964 0.702708
0.849439 0.123781 0.733074
0.886427 0.126741 0.75314
0.895247 0.138033 0.77882
0.0047303 0.416632 0.576577
0.00469978 0.433692 0.589075
0.0059205 0.43003 0.603693
0.0483406 0.429343 0.650477
0.547265 0.555215 0.797498
0.837644 0.579873 0.851377
0.950027 0.556573 0.857114
0.964721 0.461646 0.869932
0.916381 0.18407 0.795087
0.0286259 0.625818 0.637888
0.0307469 0.63476 0.647425
0.0311894 0.631403 0.650217
0.0749218 0.634836 0.6701
0.471382 0.703426 0.761364
0.771725 0.753597 0.830854
0.922118 0.756252 0.845853
0.961822 0.750195 0.85481
0.961975 0.727306 0.864698
0.113329 0.75111 0.698238
0.119905 0.75259 0.699718
0.133211 0.749798 0.697719
0.160342 0.745647 0.693248
0.456977 0.781903 0.733593
0.758984 0.860868 0.818112
0.904387 0.8804 0.845563
0.954635 0.880827 0.853162
0.962219 0.876982 0.856397
0.156359 0.797803 0.72108
0.16199 0.79678 0.718486
0.176379 0.794476 0.712673
0.210742 0.791089 0.700999
0.502785 0.820447 0.727596
0.76289 0.895155 0.809247
0.900633 0.924025 0.85272
0.949828 0.929931 0.856687
0.962554 0.930388 0.864378
0.195743 0.810178 0.72874
0.200626 0.809491 0.724071
0.21355 0.807782 0.715434
0.285023 0.807111 0.70782
0.58024 0.848722 0.747326
0.793225 0.913939 0.822919
0.906523 0.937514 0.860395
0.946685 0.944595 0.86537
0.9626 0.945937 0.870115
0.0366369 0.051667 0.407218
0.054612 0.0494698 0.44773
0.0921492 0.044419 0.494911
0.196704 0.0479896 0.558724
0.369451 0.051133 0.586954
0.558953 0.0523384 0.601526
0.689662 0.0763104 0.643061
0.819104 0.104952 0.707988
0.887648 0.127153 0.763531
0.0353552 0.0581979 0.505333
0.0462959 0.0584115 0.53991
0.0980697 0.0493324 0.579049
0.248768 0.052781 0.637247
0.480812 0.0531167 0.655268
0.623529 0.0583658 0.6542
0.751034 0.0902266 0.694118
0.865843 0.117952 0.749676
0.89424 0.133837 0.78883
0.0118563 0.0949722 0.566217
0.0119783 0.0943313 0.591333
0.0468605 0.0694285 0.617075
0.223346 0.0550851 0.673426
0.514824 0.0557565 0.701473
0.694667 0.0734722 0.71989
0.793256 0.100969 0.728527
0.88397 0.125139 0.772747
0.897368 0.138277 0.803174
0.0153048 0.198123 0.616587
0.0159304 0.213962 0.639796
0.0160372 0.202533 0.657755
0.123873 0.168429 0.728176
0.514031 0.122332 0.771878
0.721096 0.103487 0.763058
0.863218 0.133684 0.786633
0.897185 0.137957 0.803372
0.901091 0.142947 0.815091
0.00822461 0.427832 0.636606
0.00813306 0.44477 0.644999
0.00927749 0.440665 0.657359
0.0484016 0.436332 0.702693
0.522255 0.548806 0.839063
0.826535 0.579705 0.896468
0.954604 0.55903 0.895705
0.964508 0.463645 0.900649
0.927459 0.20145 0.835004
0.0334783 0.63563 0.685771
0.0357519 0.643702 0.693339
0.0352026 0.640085 0.696757
0.0411994 0.635462 0.708125
0.43389 0.695796 0.799466
0.75903 0.748547 0.871946
0.930968 0.760571 0.891722
0.961715 0.756054 0.899489
0.96199 0.73344 0.905928
0.0908522 0.750744 0.728954
0.0977035 0.751858 0.73077
0.116213 0.74963 0.732174
0.159045 0.746685 0.736294
0.456321 0.775525 0.779828
0.74992 0.850294 0.856306
0.899306 0.875319 0.879866
0.952819 0.874907 0.880125
0.962158 0.870817 0.882521
0.161608 0.797391 0.7467
0.167483 0.796277 0.745464
0.181292 0.794308 0.74374
0.215183 0.791592 0.740429
0.504158 0.817823 0.768795
0.758068 0.893645 0.84593
0.905501 0.924941 0.884611
0.94963 0.927535 0.887694
0.962646 0.927581 0.890517
0.200046 0.812207 0.75201
0.204944 0.811505 0.749386
0.216342 0.809567 0.74551
0.283299 0.809598 0.743328
0.570764 0.846052 0.779293
0.782879 0.913207 0.849973
0.911665 0.939803 0.885817
0.948608 0.94519 0.890898
0.962676 0.945876 0.893263
0.0437324 0.0570687 0.519066
0.0639048 0.0550851 0.551873
0.102129 0.0492561 0.584268
0.206332 0.0522774 0.633677
0.400305 0.0546578 0.663417
0.576196 0.0559548 0.664897
0.700252 0.0708629 0.692195
0.820752 0.107881 0.741421
0.892607 0.130556 0.793271
0.0366979 0.0672465 0.585245
0.0459297 0.0685435 0.610819
0.0971084 0.0587167 0.641749
0.244144 0.0564889 0.690486
0.49485 0.0562295 0.714763
0.649897 0.0637827 0.719326
0.758709 0.0855726 0.73492
0.864454 0.119692 0.775448
0.897063 0.136202 0.8121
0.0130617 0.109239 0.62797
0.0129702 0.110704 0.646784
0.0345922 0.0830701 0.662287
0.202548 0.0574655 0.708659
0.506752 0.0580301 0.743267
0.703471 0.075349 0.762127
0.82414 0.106584 0.780453
0.884565 0.127825 0.798215
0.899351 0.139544 0.818357
0.0162356 0.210529 0.661341
0.0171206 0.228183 0.680095
0.0173037 0.220035 0.69482
0.0972152 0.190585 0.752651
0.499718 0.145418 0.811658
0.722774 0.117525 0.80296
0.868238 0.138735 0.814878
0.904051 0.147997 0.824277
0.901976 0.143465 0.822293
0.010193 0.444038 0.669993
0.0106203 0.461402 0.677272
0.0117189 0.458534 0.689143
0.0458076 0.452415 0.728008
0.503243 0.55668 0.857023
0.811429 0.59057 0.913008
0.954116 0.576379 0.912642
0.964126 0.492348 0.911452
0.944564 0.241703 0.86743
0.0382849 0.64683 0.714061
0.0402991 0.6533 0.719692
0.0404974 0.650507 0.72372
0.0449989 0.644831 0.732876
0.431708 0.69723 0.819867
0.749081 0.749508 0.888716
0.931105 0.766537 0.913268
0.961868 0.763775 0.918196
0.961883 0.740459 0.920165
0.0725109 0.751812 0.746273
0.0747387 0.752163 0.747509
0.0879072 0.750332 0.750072
0.145388 0.748501 0.758434
0.408347 0.769726 0.796048
0.738155 0.844663 0.868681
0.898512 0.874098 0.897765
0.954025 0.874022 0.903655
0.962173 0.869734 0.904814
0.159808 0.797391 0.760418
0.163836 0.796353 0.760342
0.178836 0.794232 0.760067
0.22031 0.79205 0.761273
0.514794 0.816617 0.791806
0.759747 0.890806 0.86508
0.904418 0.923064 0.898848
0.947601 0.925933 0.901427
0.962432 0.925551 0.902602
0.202625 0.812192 0.763714
0.207172 0.811444 0.76289
0.219272 0.809949 0.761273
0.28864 0.809842 0.7617
0.576471 0.845808 0.798047
0.782254 0.912306 0.86508
0.911696 0.93991 0.898695
0.949401 0.944457 0.902846
0.962631 0.944976 0.904341
