bundles/resolve-cinematic-luts/Phantom Luts/A7s3 Phntm Film LUTs - G6/SLog3/Bleach A7s3-Legacy.cube
TITLE "Generated by Resolve"
LUT_3D_SIZE 9
0.0342107 0.0472877 0.0354467
0.0342107 0.0472877 0.0354467
0.0433509 0.0487221 0.0379797
0.0903182 0.0502022 0.0429084
0.178576 0.0557107 0.0521401
0.31664 0.0627146 0.0742351
0.504723 0.0637064 0.104372
0.656779 0.0731212 0.161212
0.79382 0.08748 0.251881
0.034226 0.0473793 0.0354925
0.0344701 0.0476387 0.035584
0.056733 0.0512856 0.0379797
0.127291 0.0516365 0.0451514
0.250217 0.0603037 0.0590219
0.404379 0.0646067 0.0819104
0.580362 0.0682536 0.118471
0.718227 0.0809491 0.184619
0.822019 0.0916457 0.271061
0.0430457 0.0899062 0.0466163
0.0452735 0.0967727 0.0441291
0.0842451 0.101137 0.0471504
0.190585 0.0840162 0.051667
0.298207 0.0689403 0.0515755
0.445075 0.0562295 0.0578622
0.616159 0.0724498 0.107286
0.754421 0.0888075 0.174258
0.821622 0.0943618 0.255894
0.0386511 0.190814 0.0599985
0.0410773 0.205676 0.0536355
0.0726177 0.216083 0.0406653
0.220981 0.244358 0.0501106
0.528496 0.215778 0.0861372
0.671077 0.194842 0.119066
0.737682 0.15111 0.112367
0.745754 0.0748608 0.103548
0.806668 0.0930037 0.172915
0.0269627 0.35465 0.0753796
0.027512 0.370336 0.0681468
0.0356909 0.378698 0.0398108
0.185061 0.429328 0.0417945
0.515892 0.536568 0.0859083
0.77116 0.591501 0.160464
0.93196 0.584573 0.270573
0.943893 0.545571 0.272374
0.949035 0.449256 0.281956
0.0362097 0.573831 0.139254
0.0466773 0.592187 0.142855
0.0674296 0.602518 0.117449
0.193942 0.640879 0.0885023
0.56054 0.711009 0.150881
0.747494 0.765072 0.209705
0.89546 0.796445 0.214954
0.934493 0.798535 0.242435
0.931029 0.78616 0.200763
0.114946 0.765667 0.282628
0.123857 0.767895 0.274769
0.145876 0.767727 0.239811
0.223194 0.776165 0.16582
0.600015 0.8047 0.212192
0.73315 0.852049 0.264851
0.881651 0.891112 0.31693
0.929946 0.902007 0.320943
0.929931 0.900877 0.306966
0.142123 0.794064 0.332357
0.151385 0.793591 0.318807
0.173617 0.792782 0.287037
0.238956 0.796307 0.213672
0.595651 0.813184 0.250126
0.735622 0.856916 0.302419
0.859098 0.893721 0.340352
0.927779 0.907759 0.36669
0.931334 0.90869 0.378607
0.172122 0.795239 0.368963
0.180468 0.794598 0.352377
0.201968 0.794125 0.322744
0.311955 0.798672 0.293645
0.566598 0.808286 0.325582
0.736568 0.854612 0.396963
0.851347 0.891295 0.42797
0.916396 0.904143 0.441764
0.93434 0.908782 0.492195
0.0341802 0.0472725 0.035462
0.0342107 0.0472877 0.0354467
0.0438239 0.0487831 0.0399176
0.0915999 0.0505226 0.0458076
0.184833 0.0560006 0.0558022
0.327459 0.0619516 0.0827192
0.518517 0.0628367 0.116762
0.667353 0.0730602 0.178592
0.802411 0.0875105 0.271641
0.0341802 0.047425 0.035523
0.0355993 0.0486458 0.0367742
0.0695811 0.0510872 0.0406043
0.138994 0.0531167 0.0481575
0.260243 0.0606546 0.0632181
0.426932 0.0636759 0.0915084
0.597192 0.0681926 0.132876
0.735927 0.0815747 0.207416
0.826474 0.0913405 0.299916
0.0433204 0.0926528 0.0521248
0.0446937 0.0997787 0.0488899
0.0863813 0.102953 0.0493935
0.195071 0.0854658 0.0535439
0.319951 0.0690166 0.0558633
0.484138 0.0607614 0.0738994
0.632685 0.0747387 0.121813
0.770916 0.089189 0.196262
0.825467 0.0935225 0.282765
0.0372168 0.195773 0.0688182
0.0398871 0.210132 0.0636912
0.0609445 0.217838 0.0431678
0.223072 0.246448 0.0521706
0.533776 0.213886 0.0919203
0.664012 0.198749 0.12076
0.734462 0.143648 0.109453
0.752102 0.0711376 0.108354
0.81178 0.0977646 0.192142
0.0257115 0.359869 0.0839704
0.0253452 0.375036 0.0776989
0.0334325 0.381201 0.0501564
0.172717 0.429572 0.0433661
0.518013 0.538506 0.0900282
0.780545 0.593713 0.174426
0.932708 0.584588 0.27834
0.944015 0.549798 0.275975
0.949172 0.442512 0.281804
0.0358282 0.578363 0.15317
0.0458686 0.596292 0.156359
0.0652628 0.603159 0.127871
0.169543 0.63711 0.0885786
0.557107 0.709621 0.156176
0.745983 0.763516 0.212314
0.899428 0.796185 0.224857
0.936263 0.796307 0.261006
0.932296 0.785809 0.213077
0.111116 0.765103 0.293477
0.119524 0.76759 0.285985
0.139803 0.766354 0.254643
0.203464 0.772946 0.175814
0.585824 0.801495 0.214679
0.729107 0.849851 0.267796
0.881819 0.891417 0.318547
0.930327 0.901091 0.322606
0.930571 0.899748 0.314519
0.141192 0.794598 0.346181
0.149096 0.794018 0.333227
0.170779 0.793133 0.302922
0.236164 0.795758 0.230564
0.571603 0.809247 0.254093
0.730343 0.854612 0.307942
0.854963 0.892836 0.345159
0.927657 0.907729 0.366629
0.931548 0.908782 0.383825
0.171557 0.795254 0.384375
0.177935 0.795056 0.367407
0.198215 0.79443 0.336736
0.300282 0.797299 0.30811
0.544106 0.80618 0.335103
0.732204 0.852689 0.413382
0.848234 0.890043 0.447944
0.915328 0.903838 0.447547
0.934264 0.908751 0.49012
0.0340276 0.0480812 0.0431373
0.0361486 0.0481575 0.0420539
0.0449836 0.0491493 0.0442969
0.0949416 0.0518349 0.0608225
0.194095 0.0548257 0.0741283
0.338567 0.0601358 0.101717
0.534005 0.0612802 0.141054
0.685206 0.0729534 0.213245
0.813184 0.0879988 0.309483
0.0338445 0.0482338 0.0433051
0.0346075 0.0494087 0.0540627
0.068864 0.0509651 0.0613718
0.140963 0.0529488 0.0711986
0.266911 0.0577554 0.0881056
0.438666 0.0603952 0.116442
0.610605 0.0663767 0.16759
0.752636 0.0809033 0.250385
0.832715 0.0926986 0.344106
0.0416419 0.0908522 0.0716106
0.0420691 0.0978866 0.0776379
0.0887312 0.100145 0.0875868
0.206348 0.0920729 0.0862898
0.356695 0.0752575 0.0886549
0.491875 0.0635843 0.101015
0.641642 0.0717632 0.153567
0.784131 0.0866712 0.240833
0.833051 0.0940871 0.335744
0.0354162 0.199161 0.0980087
0.0379034 0.213474 0.0959945
0.0542763 0.219928 0.0768902
0.236378 0.256245 0.0955673
0.510933 0.216892 0.120638
0.654994 0.167742 0.128481
0.762081 0.115633 0.132555
0.80528 0.09897 0.178286
0.824109 0.0981765 0.255695
0.0215152 0.363195 0.114076
0.0222019 0.377676 0.10898
0.030518 0.37847 0.0838788
0.120867 0.413901 0.0505989
0.505928 0.526482 0.0993973
0.78294 0.578378 0.219486
0.919997 0.570291 0.293736
0.945983 0.533257 0.299428
0.947707 0.40853 0.280827
0.0298314 0.576394 0.182193
0.0392767 0.592645 0.186587
0.0532692 0.594034 0.160739
0.100053 0.609949 0.0970474
0.521569 0.693996 0.166613
0.732784 0.74902 0.216388
0.908766 0.781231 0.268467
0.940764 0.783185 0.305455
0.938918 0.777615 0.28011
0.106538 0.762463 0.320592
0.114122 0.764828 0.314168
0.13106 0.762295 0.287266
0.181262 0.764263 0.216297
0.527642 0.791119 0.222431
0.713664 0.83975 0.275135
0.872816 0.884855 0.323964
0.931395 0.897993 0.327382
0.932601 0.894728 0.334066
0.141588 0.794842 0.376257
0.147814 0.795041 0.364126
0.166217 0.794263 0.335576
0.220737 0.794324 0.27776
0.497734 0.802136 0.27866
0.715557 0.847333 0.339849
0.843824 0.890364 0.376516
0.926863 0.907469 0.390433
0.93254 0.90898 0.415167
0.172549 0.795163 0.416251
0.177432 0.79527 0.400351
0.193484 0.795209 0.368734
0.283223 0.795651 0.340826
0.509133 0.804425 0.362737
0.7234 0.849973 0.456886
0.841398 0.888182 0.499763
0.912612 0.903181 0.498863
0.934325 0.908782 0.492149
0.0330053 0.0497597 0.0687266
0.0357671 0.0497292 0.0674601
0.0555428 0.0508125 0.0741588
0.102647 0.0519265 0.0867628
0.210208 0.0547494 0.118761
0.360403 0.0591897 0.157916
0.555535 0.0616159 0.204807
0.704829 0.0753643 0.284184
0.826734 0.0929885 0.383948
0.032166 0.0507362 0.0788891
0.0323796 0.0518959 0.0941482
0.0708782 0.0521401 0.114458
0.158282 0.0534829 0.128099
0.288716 0.0575723 0.157855
0.46836 0.0593271 0.199603
0.632273 0.0688487 0.255756
0.7738 0.0844434 0.336843
0.843885 0.102052 0.439963
0.0356146 0.0872969 0.114565
0.0338903 0.0915389 0.132525
0.0705425 0.086183 0.160815
0.214588 0.0745403 0.172961
0.357366 0.0627298 0.179812
0.520516 0.0601663 0.191531
0.663233 0.0699474 0.251453
0.804974 0.0867628 0.339864
0.84686 0.104952 0.447272
0.0339513 0.19234 0.159319
0.0351415 0.206271 0.172168
0.0447242 0.210895 0.178241
0.25095 0.255543 0.242725
0.51606 0.224384 0.221332
0.676143 0.191516 0.222751
0.775189 0.119097 0.231907
0.80975 0.0885939 0.274662
0.840818 0.100298 0.385748
0.0198367 0.367788 0.191333
0.0188907 0.383581 0.193011
0.0264744 0.385885 0.170291
0.122347 0.434287 0.166018
0.537133 0.546563 0.261234
0.766751 0.56286 0.343404
0.921401 0.542657 0.3991
0.951583 0.47567 0.39202
0.906752 0.275395 0.280842
0.0306401 0.579461 0.257954
0.0388647 0.594476 0.264942
0.0500038 0.593118 0.238117
0.0870069 0.597574 0.186755
0.455787 0.685191 0.266743
0.728481 0.73846 0.327428
0.918914 0.759777 0.455192
0.951522 0.767849 0.456107
0.948455 0.75729 0.388663
0.104402 0.757351 0.385794
0.11136 0.759579 0.378668
0.125612 0.757061 0.346227
0.163272 0.754437 0.295491
0.392828 0.776379 0.292012
0.690715 0.820523 0.360021
0.862577 0.872267 0.430091
0.940551 0.885954 0.484184
0.940642 0.885298 0.460151
0.141375 0.795514 0.448203
0.148882 0.795346 0.430549
0.164309 0.795117 0.395071
0.211582 0.794842 0.347875
0.417029 0.801785 0.349767
0.698558 0.841688 0.443137
0.833722 0.886183 0.504906
0.926543 0.906935 0.530938
0.936553 0.909529 0.530037
0.170581 0.7953 0.483299
0.177081 0.794965 0.462638
0.192218 0.794934 0.42797
0.27776 0.794965 0.400046
0.49012 0.806332 0.43238
0.710292 0.849775 0.531182
0.840848 0.891096 0.580743
0.913207 0.906935 0.583108
0.942245 0.913054 0.589807
0.0320745 0.0528878 0.112978
0.0352636 0.0524605 0.115282
0.0606851 0.0525978 0.132677
0.117235 0.0525521 0.155352
0.22858 0.0565347 0.182498
0.391775 0.0606699 0.237171
0.57673 0.0655222 0.306752
0.720821 0.0822919 0.420752
0.841871 0.103029 0.519951
0.0310521 0.0546883 0.143877
0.0327611 0.0557717 0.168231
0.0719005 0.0537423 0.203464
0.169635 0.0536202 0.22887
0.312657 0.0603037 0.249424
0.50222 0.0623178 0.298848
0.652064 0.0735485 0.3841
0.789715 0.0933547 0.495766
0.8542 0.109087 0.565026
0.0278019 0.0790417 0.187335
0.0263218 0.0801404 0.216419
0.0478065 0.0682841 0.253025
0.191333 0.0609293 0.297215
0.394217 0.0642252 0.305669
0.558236 0.0657054 0.336568
0.685405 0.0775006 0.415366
0.824964 0.0991379 0.517479
0.856992 0.111879 0.578195
0.0234379 0.182559 0.248234
0.0223239 0.192065 0.273686
0.025452 0.184771 0.296864
0.200046 0.211734 0.414466
0.530983 0.182559 0.439857
0.674556 0.142626 0.45565
0.764782 0.0963912 0.437873
0.83769 0.101137 0.50576
0.858091 0.113405 0.571664
0.0222934 0.361379 0.305821
0.0214847 0.376074 0.317143
0.0270085 0.378561 0.321096
0.103243 0.42475 0.36202
0.55378 0.540108 0.51928
0.758328 0.543587 0.53341
0.912184 0.538781 0.544259
0.950835 0.475731 0.554192
0.909651 0.221561 0.508629
0.0305333 0.577432 0.372808
0.0372625 0.591562 0.385458
0.0476234 0.59205 0.36907
0.0803235 0.597589 0.335454
0.464317 0.692363 0.481758
0.734874 0.733669 0.551965
0.902403 0.742138 0.606073
0.96054 0.73431 0.617243
0.961898 0.710231 0.619074
0.0970474 0.748669 0.496773
0.103624 0.750698 0.493141
0.116884 0.747616 0.464912
0.151553 0.743328 0.405035
0.390234 0.768948 0.437659
0.676509 0.811902 0.539864
0.863722 0.864164 0.594873
0.961593 0.875837 0.653819
0.962264 0.876539 0.648585
0.136049 0.798901 0.551934
0.142748 0.798138 0.540719
0.159213 0.796353 0.511849
0.206241 0.794369 0.455055
0.423804 0.805447 0.479469
0.667674 0.843381 0.563607
0.839643 0.894926 0.631662
0.932479 0.915221 0.650095
0.95375 0.919814 0.672999
0.164508 0.799908 0.575601
0.170565 0.798703 0.560052
0.186587 0.796536 0.530327
0.278676 0.795468 0.501549
0.496468 0.813306 0.542947
0.692882 0.857542 0.611872
0.848066 0.9019 0.670802
0.92076 0.918959 0.675334
0.954864 0.924987 0.693263
0.032639 0.0564431 0.180636
0.0344396 0.0565499 0.189075
0.0614633 0.0540169 0.217136
0.125551 0.0539712 0.256138
0.254459 0.0560311 0.285222
0.424414 0.0629587 0.325643
0.600549 0.0697032 0.418936
0.745068 0.0873579 0.523217
0.855497 0.109499 0.609018
0.0314031 0.0597543 0.234348
0.0350652 0.060853 0.263035
0.0737774 0.0561685 0.301778
0.177386 0.0560006 0.35172
0.335668 0.058854 0.366918
0.527047 0.0653849 0.413626
0.673243 0.078233 0.507057
0.81413 0.100404 0.58439
0.864836 0.116381 0.649393
0.0238041 0.0740978 0.283787
0.0226291 0.0750896 0.316976
0.0422065 0.065568 0.353582
0.177203 0.0576638 0.440711
0.420279 0.0631876 0.471412
0.591196 0.0708782 0.487694
0.710033 0.0835737 0.540108
0.848386 0.107485 0.611811
0.86978 0.12108 0.671519
0.0185397 0.168032 0.35523
0.0172122 0.17705 0.389425
0.0162966 0.168521 0.4177
0.145602 0.159121 0.537591
0.49868 0.135531 0.588022
0.673762 0.112963 0.575906
0.788357 0.102449 0.595499
0.855741 0.110307 0.629023
0.874388 0.124971 0.688228
0.00994888 0.35201 0.429175
0.0084535 0.365362 0.449424
0.0083772 0.362325 0.467567
0.0574807 0.375921 0.526284
0.512352 0.510933 0.669886
0.782788 0.525536 0.710079
0.932006 0.504814 0.731411
0.965743 0.418799 0.756024
0.893233 0.159762 0.668864
0.0362402 0.571206 0.509133
0.0433356 0.584527 0.524056
0.0522469 0.584329 0.524437
0.0744793 0.584573 0.526024
0.453803 0.68838 0.647654
0.741192 0.722576 0.701823
0.896773 0.724163 0.709957
0.96112 0.720333 0.716976
0.961898 0.698039 0.708965
0.0969863 0.740063 0.603784
0.10219 0.741817 0.603784
0.112062 0.73817 0.591211
0.134478 0.732341 0.564508
0.391318 0.768902 0.597635
0.696025 0.825345 0.678325
0.877348 0.865324 0.719234
0.957778 0.868528 0.751842
0.96228 0.866682 0.755535
0.136126 0.802197 0.642252
0.140887 0.800977 0.635187
0.152834 0.797696 0.617685
0.184665 0.79295 0.585763
0.430365 0.810468 0.600412
0.6804 0.860685 0.671931
0.853346 0.906416 0.735241
0.938933 0.923476 0.751751
0.962631 0.927001 0.78294
0.165682 0.807584 0.658869
0.170352 0.806317 0.648066
0.181582 0.804181 0.628824
0.25977 0.800229 0.607141
0.513878 0.825528 0.637339
0.706386 0.878065 0.703334
0.858488 0.916838 0.761593
0.930587 0.933303 0.771954
0.962615 0.938048 0.787533
0.0344091 0.0609598 0.261967
0.0406653 0.0604868 0.279454
0.0691539 0.0573281 0.313008
0.137377 0.0562142 0.367864
0.274464 0.05832 0.412238
0.458946 0.0600443 0.449805
0.617853 0.0732738 0.517968
0.76556 0.0946822 0.605463
0.867643 0.117418 0.677241
0.0339666 0.0658579 0.330816
0.0411231 0.066331 0.366613
0.0766155 0.0613413 0.416648
0.181857 0.0584421 0.494148
0.357946 0.0607614 0.516472
0.5458 0.0646983 0.528679
0.68777 0.0836957 0.585641
0.833707 0.109346 0.662104
0.876661 0.124865 0.71342
0.0202945 0.0816358 0.398322
0.0192874 0.08336 0.444602
0.0439765 0.0727245 0.487892
0.171679 0.0603189 0.556451
0.425513 0.0623941 0.591821
0.620417 0.0751965 0.601785
0.728038 0.0910506 0.619913
0.863828 0.11722 0.691859
0.882506 0.129992 0.734691
0.0152285 0.159213 0.470817
0.0142519 0.168399 0.507042
0.0138705 0.159716 0.534249
0.111666 0.140612 0.621042
0.439094 0.110201 0.671183
0.656947 0.088777 0.650843
0.817273 0.115755 0.69131
0.877546 0.124376 0.721935
0.887861 0.134203 0.753826
0.0113375 0.353552 0.54667
0.0102541 0.369406 0.563088
0.0111696 0.365957 0.579187
0.0539101 0.36524 0.629648
0.469017 0.485954 0.76791
0.796613 0.5205 0.833494
0.947127 0.501091 0.843
0.966155 0.406714 0.85568
0.905516 0.167178 0.762921
0.0222782 0.572824 0.59266
0.0248722 0.584237 0.604913
0.0244755 0.58027 0.609049
0.0555581 0.5841 0.631601
0.39089 0.666377 0.739605
0.724224 0.710628 0.808545
0.910323 0.717372 0.829938
0.961822 0.711818 0.839048
0.961868 0.687434 0.85037
0.10515 0.735714 0.678325
0.109697 0.737682 0.680293
0.119417 0.733852 0.676905
0.140002 0.728649 0.671763
0.379263 0.762783 0.711101
0.705104 0.831235 0.788403
0.883558 0.85951 0.827726
0.955886 0.859663 0.837186
0.962051 0.854643 0.838026
0.1411 0.801053 0.708354
0.145418 0.799695 0.704707
0.155932 0.796857 0.696803
0.182483 0.792386 0.681956
0.405966 0.811215 0.69662
0.694881 0.872816 0.764508
0.869429 0.916335 0.827543
0.945846 0.926711 0.837568
0.962509 0.926726 0.84889
0.171283 0.81413 0.718791
0.175525 0.813306 0.712505
0.185138 0.811826 0.70106
0.244694 0.809049 0.689479
0.491768 0.831083 0.709545
0.721202 0.892805 0.777829
0.870146 0.930343 0.832593
0.937606 0.942565 0.847486
0.962661 0.945815 0.852415
0.0391089 0.0657206 0.348272
0.0513619 0.0648966 0.380682
0.0761273 0.0617227 0.424689
0.147692 0.0582284 0.492821
0.291829 0.0607767 0.532448
0.483864 0.0597391 0.550744
0.632349 0.0760815 0.589502
0.779706 0.101488 0.661479
0.879881 0.125689 0.735439
0.0363317 0.0717632 0.44387
0.0439002 0.0726787 0.486229
0.0784161 0.0679789 0.530205
0.18558 0.0621347 0.586862
0.385138 0.0642863 0.616297
0.562356 0.0641337 0.609064
0.696925 0.0869154 0.645685
0.846754 0.116442 0.717067
0.888258 0.132616 0.769146
0.017258 0.0907454 0.512612
0.0175784 0.0931716 0.547219
0.0427405 0.0831464 0.581384
0.16492 0.0644999 0.629755
0.423835 0.0661173 0.670832
0.640208 0.0779583 0.68632
0.745937 0.0972763 0.687572
0.87425 0.124926 0.74847
0.893599 0.136767 0.789899
0.0140078 0.158602 0.554788
0.014313 0.172122 0.583719
0.0142977 0.164904 0.606836
0.0891737 0.145022 0.680873
0.396689 0.111467 0.734859
0.659113 0.0954757 0.729503
0.835569 0.126436 0.761013
0.893278 0.136446 0.790127
0.897292 0.141329 0.80766
0.0148928 0.363577 0.619181
0.0146487 0.380575 0.631678
0.0157015 0.377295 0.647013
0.0503395 0.373053 0.69659
0.43679 0.480354 0.829755
0.7794 0.519997 0.894438
0.952148 0.506508 0.896803
0.966064 0.410788 0.900389
0.91899 0.182895 0.817227
0.0225681 0.586358 0.654994
0.0248875 0.596811 0.665263
0.0251926 0.593057 0.671138
0.0292363 0.588602 0.685802
0.361486 0.658106 0.793027
0.708095 0.704982 0.86276
0.921767 0.72462 0.892714
0.961868 0.721294 0.901091
0.961883 0.697017 0.906844
0.0880903 0.735149 0.719722
0.0930037 0.736828 0.722362
0.106462 0.733837 0.724102
0.138979 0.729549 0.729351
0.37702 0.755444 0.771832
0.694972 0.817349 0.841367
0.87895 0.852399 0.877897
0.956344 0.851957 0.882429
0.961959 0.846738 0.886687
0.146822 0.800244 0.744167
0.151324 0.798703 0.742809
0.161364 0.795865 0.739925
0.188724 0.79263 0.736568
0.410666 0.808408 0.755444
0.691341 0.871229 0.821088
0.878126 0.919356 0.8766
0.946365 0.924315 0.884565
0.962417 0.923384 0.887877
0.176867 0.817975 0.75169
0.180728 0.817563 0.748394
0.189578 0.815839 0.742611
0.245899 0.814649 0.740047
0.480125 0.831266 0.756619
0.709682 0.893172 0.820539
0.880247 0.93611 0.873243
0.942214 0.946258 0.888258
0.962646 0.947707 0.888869
0.0423285 0.0712444 0.459464
0.0560922 0.0706798 0.498894
0.0811627 0.0678874 0.536492
0.153445 0.0614328 0.582376
0.313619 0.0647898 0.622232
0.504509 0.0632639 0.623407
0.647974 0.0757 0.650965
0.782513 0.104814 0.704189
0.888212 0.131304 0.777295
0.0359808 0.0803235 0.544503
0.0419623 0.0822919 0.574029
0.0771496 0.0782788 0.607889
0.182559 0.0660258 0.65156
0.396826 0.067689 0.689235
0.590173 0.0698405 0.689128
0.709178 0.0873579 0.702632
0.843091 0.118715 0.751247
0.894697 0.136477 0.805768
0.0159609 0.102541 0.586069
0.0159762 0.106432 0.613245
0.0338598 0.0978103 0.643442
0.149691 0.0724498 0.682033
0.408331 0.0698863 0.727504
0.647654 0.081529 0.746242
0.787686 0.106157 0.762066
0.875242 0.128496 0.785412
0.896635 0.139406 0.81532
0.0148165 0.170596 0.611627
0.0155184 0.185641 0.6365
0.0158999 0.181445 0.657206
0.0715343 0.164553 0.721752
0.374029 0.129152 0.786313
0.656519 0.106111 0.783795
0.843473 0.132311 0.806058
0.901473 0.145846 0.821149
0.899245 0.142718 0.81976
0.0162814 0.380453 0.663584
0.0158694 0.397803 0.672404
0.0168765 0.394675 0.687831
0.0461738 0.392035 0.730419
0.415457 0.492241 0.857832
0.759426 0.53196 0.913771
0.949462 0.525414 0.916228
0.965194 0.438437 0.917342
0.935882 0.216175 0.856977
0.0295415 0.603174 0.69543
0.0319066 0.611261 0.703532
0.0317235 0.608316 0.708476
0.0347753 0.601175 0.722286
0.361013 0.660685 0.822705
0.696269 0.705653 0.886015
0.920256 0.731914 0.921386
0.961822 0.730419 0.923888
0.961837 0.704875 0.924285
0.0726787 0.737362 0.745357
0.0742809 0.737621 0.746838
0.0827649 0.735058 0.750134
0.124468 0.732509 0.759533
0.336736 0.749157 0.795285
0.680232 0.810208 0.859022
0.872389 0.851118 0.903334
0.958495 0.853971 0.912642
0.962066 0.84863 0.915801
0.145678 0.800229 0.764065
0.148852 0.798764 0.763561
0.160098 0.795834 0.763516
0.193164 0.793072 0.765057
0.424781 0.8065 0.786984
0.696559 0.867918 0.850996
0.874281 0.915969 0.898054
0.943374 0.921843 0.904311
0.962478 0.920653 0.9028
0.180102 0.819257 0.768811
0.184298 0.818616 0.767559
0.193439 0.816846 0.764904
0.252232 0.817807 0.76669
0.48748 0.832181 0.782055
0.709789 0.892714 0.843137
0.878813 0.936919 0.892805
0.943938 0.946044 0.906264
0.962692 0.946883 0.906035
