bundles/resolve-cinematic-luts/Phantom Luts/A7s3 Phntm Film LUTs - G6/SLog3/Bleach A7s3-Legacy.cube
TITLE "Generated by Resolve"
LUT_3D_SIZE 5
0.0342107 0.0472877 0.0354467
0.0433509 0.0487221 0.0379797
0.178576 0.0557107 0.0521401
0.504723 0.0637064 0.104372
0.79382 0.08748 0.251881
0.0430457 0.0899062 0.0466163
0.0842451 0.101137 0.0471504
0.298207 0.0689403 0.0515755
0.616159 0.0724498 0.107286
0.821622 0.0943618 0.255894
0.0269627 0.35465 0.0753796
0.0356909 0.378698 0.0398108
0.515892 0.536568 0.0859083
0.93196 0.584573 0.270573
0.949035 0.449256 0.281956
0.114946 0.765667 0.282628
0.145876 0.767727 0.239811
0.600015 0.8047 0.212192
0.881651 0.891112 0.31693
0.929931 0.900877 0.306966
0.172122 0.795239 0.368963
0.201968 0.794125 0.322744
0.566598 0.808286 0.325582
0.851347 0.891295 0.42797
0.93434 0.908782 0.492195
0.0340276 0.0480812 0.0431373
0.0449836 0.0491493 0.0442969
0.194095 0.0548257 0.0741283
0.534005 0.0612802 0.141054
0.813184 0.0879988 0.309483
0.0416419 0.0908522 0.0716106
0.0887312 0.100145 0.0875868
0.356695 0.0752575 0.0886549
0.641642 0.0717632 0.153567
0.833051 0.0940871 0.335744
0.0215152 0.363195 0.114076
0.030518 0.37847 0.0838788
0.505928 0.526482 0.0993973
0.919997 0.570291 0.293736
0.947707 0.40853 0.280827
0.106538 0.762463 0.320592
0.13106 0.762295 0.287266
0.527642 0.791119 0.222431
0.872816 0.884855 0.323964
0.932601 0.894728 0.334066
0.172549 0.795163 0.416251
0.193484 0.795209 0.368734
0.509133 0.804425 0.362737
0.841398 0.888182 0.499763
0.934325 0.908782 0.492149
0.0320745 0.0528878 0.112978
0.0606851 0.0525978 0.132677
0.22858 0.0565347 0.182498
0.57673 0.0655222 0.306752
0.841871 0.103029 0.519951
0.0278019 0.0790417 0.187335
0.0478065 0.0682841 0.253025
0.394217 0.0642252 0.305669
0.685405 0.0775006 0.415366
0.856992 0.111879 0.578195
0.0222934 0.361379 0.305821
0.0270085 0.378561 0.321096
0.55378 0.540108 0.51928
0.912184 0.538781 0.544259
0.909651 0.221561 0.508629
0.0970474 0.748669 0.496773
0.116884 0.747616 0.464912
0.390234 0.768948 0.437659
0.863722 0.864164 0.594873
0.962264 0.876539 0.648585
0.164508 0.799908 0.575601
0.186587 0.796536 0.530327
0.496468 0.813306 0.542947
0.848066 0.9019 0.670802
0.954864 0.924987 0.693263
0.0344091 0.0609598 0.261967
0.0691539 0.0573281 0.313008
0.274464 0.05832 0.412238
0.617853 0.0732738 0.517968
0.867643 0.117418 0.677241
0.0202945 0.0816358 0.398322
0.0439765 0.0727245 0.487892
0.425513 0.0623941 0.591821
0.728038 0.0910506 0.619913
0.882506 0.129992 0.734691
0.0113375 0.353552 0.54667
0.0111696 0.365957 0.579187
0.469017 0.485954 0.76791
0.947127 0.501091 0.843
0.905516 0.167178 0.762921
0.10515 0.735714 0.678325
0.119417 0.733852 0.676905
0.379263 0.762783 0.711101
0.883558 0.85951 0.827726
0.962051 0.854643 0.838026
0.171283 0.81413 0.718791
0.185138 0.811826 0.70106
0.491768 0.831083 0.709545
0.870146 0.930343 0.832593
0.962661 0.945815 0.852415
0.0423285 0.0712444 0.459464
0.0811627 0.0678874 0.536492
0.313619 0.0647898 0.622232
0.647974 0.0757 0.650965
0.888212 0.131304 0.777295
0.0159609 0.102541 0.586069
0.0338598 0.0978103 0.643442
0.408331 0.0698863 0.727504
0.787686 0.106157 0.762066
0.896635 0.139406 0.81532
0.0162814 0.380453 0.663584
0.0168765 0.394675 0.687831
0.415457 0.492241 0.857832
0.949462 0.525414 0.916228
0.935882 0.216175 0.856977
0.0726787 0.737362 0.745357
0.0827649 0.735058 0.750134
0.336736 0.749157 0.795285
0.872389 0.851118 0.903334
0.962066 0.84863 0.915801
0.180102 0.819257 0.768811
0.193439 0.816846 0.764904
0.48748 0.832181 0.782055
0.878813 0.936919 0.892805
0.962692 0.946883 0.906035
