bundles/resolve-cinematic-luts/Phantom Luts/A7s3 Phntm Film LUTs - G6/SLog3/Eastman A7s3-Legacy.cube
TITLE "Generated by Resolve"
LUT_3D_SIZE 33
0.0451209 0.0390021 0.0432288
0.0451209 0.0390021 0.0432288
0.0451362 0.0390021 0.0432288
0.045243 0.0390021 0.0432288
0.0482185 0.0390021 0.0439765
0.0525216 0.0390021 0.0449073
0.0609293 0.0390021 0.0462043
0.0742199 0.0390021 0.0478218
0.0893568 0.0390021 0.0493172
0.10721 0.0390021 0.0506142
0.128801 0.0390021 0.0514839
0.154131 0.0390021 0.0523842
0.183185 0.0390021 0.0508125
0.214008 0.0390021 0.0490272
0.247883 0.0390021 0.047013
0.280766 0.0390021 0.0457008
0.31191 0.0390021 0.0457771
0.34168 0.0390021 0.0464332
0.370413 0.0390021 0.0478523
0.397513 0.0390021 0.0496223
0.422415 0.0390021 0.0521706
0.446708 0.0390021 0.0562142
0.468757 0.0390021 0.0625162
0.493248 0.0390021 0.0812543
0.518761 0.0390021 0.108064
0.546227 0.0486915 0.137209
0.573922 0.0596017 0.168643
0.597711 0.0705425 0.200305
0.61239 0.0798047 0.228763
0.613535 0.0871138 0.251911
0.617533 0.098146 0.277531
0.622995 0.113634 0.306462
0.628183 0.128252 0.334432
0.0467536 0.0390021 0.0428016
0.0457313 0.0390021 0.0430762
0.0451362 0.0390021 0.0432288
0.0453193 0.0390021 0.0432746
0.0479744 0.0390021 0.0439918
0.052079 0.0390021 0.0448768
0.0605478 0.0390021 0.0461128
0.0741741 0.0390021 0.0476997
0.0894789 0.0390021 0.0492256
0.107424 0.0390021 0.0505379
0.128939 0.0390021 0.051545
0.154833 0.0390021 0.052491
0.184451 0.0390021 0.0507362
0.215671 0.0390021 0.0489815
0.249607 0.0390021 0.0469368
0.282063 0.0390021 0.0457008
0.312474 0.0390021 0.045655
0.341939 0.0390021 0.0463874
0.369589 0.0390021 0.047715
0.396338 0.0390021 0.0493477
0.420844 0.0390021 0.0517739
0.445121 0.0390021 0.0555276
0.467277 0.0390021 0.0614633
0.491646 0.0390021 0.0774853
0.517388 0.0390021 0.103761
0.54406 0.0476844 0.132738
0.571832 0.0584115 0.163561
0.596597 0.069688 0.194888
0.611475 0.0785229 0.223026
0.612253 0.0855879 0.246281
0.61529 0.0957046 0.270893
0.61973 0.109987 0.299214
0.624842 0.125353 0.326696
0.0467842 0.0390021 0.0428168
0.0457465 0.0390021 0.0430915
0.0451514 0.0390021 0.0432441
0.0454414 0.0390021 0.0433051
0.047303 0.0390021 0.0438544
0.0505074 0.0390021 0.04448
0.0572671 0.0390021 0.0456092
0.0703288 0.0390021 0.0471656
0.0863508 0.0390021 0.0487221
0.104585 0.0390021 0.0501411
0.126085 0.0390021 0.0513466
0.151873 0.0390021 0.0524147
0.182513 0.0390021 0.0507668
0.215091 0.0390021 0.0489509
0.249195 0.0390021 0.0468605
0.2822 0.0390021 0.0457008
0.312581 0.0390021 0.0454414
0.342 0.0390021 0.0462501
0.369665 0.0390021 0.0475319
0.39678 0.0390021 0.0491798
0.421424 0.0390021 0.0516213
0.445426 0.0390021 0.0550393
0.468254 0.0390021 0.0615702
0.493126 0.0390021 0.0759136
0.518898 0.0390021 0.102327
0.546197 0.0482795 0.131823
0.573983 0.0591745 0.162646
0.597894 0.0698405 0.193988
0.611612 0.0785077 0.221942
0.612634 0.0857404 0.24593
0.615427 0.0957656 0.270893
0.620081 0.110369 0.299702
0.625422 0.125963 0.327489
0.0473945 0.0390021 0.043473
0.0463722 0.0390021 0.0438239
0.0459602 0.0390021 0.044007
0.0467384 0.0390021 0.0441596
0.0483864 0.0390021 0.0446326
0.0511482 0.0390021 0.0454566
0.0561685 0.0390021 0.0460822
0.068986 0.0398566 0.0478981
0.0862135 0.0390021 0.0484321
0.104616 0.0390021 0.0495003
0.125963 0.0390021 0.0502327
0.152544 0.0390021 0.050721
0.184466 0.0390021 0.0503243
0.219471 0.0391089 0.0485237
0.253178 0.0395361 0.0463722
0.286564 0.0390021 0.0453803
0.315435 0.0390021 0.0448463
0.34432 0.0390021 0.0450904
0.373053 0.0390021 0.0467384
0.399405 0.0390021 0.0489662
0.424796 0.0391699 0.0513619
0.448478 0.0394751 0.0551766
0.471611 0.0390021 0.0615396
0.49543 0.0390021 0.0725872
0.522072 0.0399786 0.100587
0.549203 0.0495003 0.130816
0.577676 0.0602274 0.161959
0.600473 0.0705119 0.193973
0.612009 0.0787823 0.222293
0.613321 0.086183 0.246876
0.616098 0.0963607 0.271916
0.620706 0.111086 0.301076
0.626596 0.127062 0.329595
0.050309 0.0422675 0.0465705
0.0489357 0.0423743 0.0467079
0.0483253 0.0420233 0.0464637
0.049836 0.0426184 0.0469215
0.0522011 0.0436408 0.0475624
0.0561532 0.0439918 0.0482338
0.0611276 0.0441138 0.0487678
0.0722362 0.0442512 0.0499123
0.0877089 0.0434272 0.0504921
0.106538 0.0408484 0.0501106
0.129534 0.0392004 0.0495918
0.156115 0.0390478 0.0498512
0.185657 0.0398413 0.0491035
0.220584 0.0406806 0.0467079
0.254948 0.0412757 0.0442512
0.289662 0.0402838 0.0439918
0.32076 0.0390021 0.0446784
0.348791 0.0390021 0.045243
0.375784 0.0402075 0.0465095
0.402045 0.0408331 0.0482032
0.427283 0.0422065 0.0505531
0.451637 0.0430304 0.0548409
0.474876 0.0408484 0.0615854
0.498817 0.0390021 0.0720073
0.525521 0.0411994 0.0980087
0.552911 0.0509346 0.129488
0.581399 0.0619364 0.16228
0.603311 0.0715496 0.19443
0.612161 0.0790417 0.222217
0.613947 0.0866255 0.247379
0.617166 0.0971542 0.273259
0.621164 0.111788 0.302068
0.627741 0.128405 0.331365
0.0539254 0.0515297 0.0508125
0.0525368 0.0514839 0.0508431
0.0517128 0.05066 0.0502785
0.0531472 0.0511177 0.0505837
0.0559396 0.0528878 0.0513619
0.0604715 0.0536355 0.0513771
0.0690623 0.0536355 0.0524147
0.0797284 0.0528878 0.0536507
0.0927901 0.0514382 0.0544747
0.108553 0.0491188 0.054078
0.129473 0.0473182 0.0527657
0.157855 0.0435492 0.0500191
0.191058 0.0426184 0.047776
0.223407 0.0421759 0.0443885
0.255482 0.0425422 0.0421149
0.2869 0.0417945 0.0414282
0.320867 0.0416724 0.0431373
0.352743 0.0410468 0.0448157
0.379614 0.0431373 0.0459754
0.404334 0.0450446 0.0475929
0.429969 0.0469062 0.0504158
0.454109 0.0474556 0.0542611
0.478355 0.0463569 0.0614176
0.502708 0.0416876 0.0712596
0.529183 0.0421302 0.094255
0.557504 0.0527352 0.128191
0.584878 0.0631571 0.16144
0.60618 0.0729076 0.194247
0.612055 0.0791943 0.221439
0.614298 0.0869764 0.247379
0.617807 0.097673 0.273564
0.621454 0.1122 0.302419
0.629175 0.129717 0.332647
0.0590219 0.0661631 0.0570077
0.0576791 0.0661173 0.0569772
0.0566262 0.0651255 0.0559548
0.0579538 0.0655222 0.0560006
0.0607919 0.0666209 0.0566262
0.0649882 0.0678416 0.057084
0.0741283 0.0686809 0.056733
0.0879683 0.0680095 0.0579232
0.10277 0.0647593 0.0587778
0.117693 0.0609293 0.0589303
0.135241 0.0578622 0.057496
0.15938 0.0557717 0.0548257
0.189837 0.0523995 0.0496071
0.226642 0.0484169 0.0437018
0.260929 0.0458991 0.040589
0.291493 0.0441444 0.0392157
0.319585 0.0428779 0.0390021
0.351064 0.0424811 0.0416571
0.382666 0.0450904 0.0446021
0.41062 0.0487678 0.0471962
0.433097 0.0518654 0.049546
0.457481 0.053315 0.0537728
0.482033 0.0526741 0.0607309
0.507759 0.0489967 0.0713207
0.534478 0.0436408 0.0892805
0.562875 0.0538186 0.125002
0.588495 0.0639048 0.158724
0.610071 0.0737774 0.191928
0.612467 0.0789807 0.219928
0.615503 0.0866102 0.246143
0.620157 0.0972 0.273228
0.6271 0.110933 0.302937
0.638697 0.12784 0.334661
0.0656138 0.0802625 0.0606851
0.0635538 0.080415 0.0607767
0.061677 0.0800488 0.0601968
0.0613718 0.0806134 0.0596933
0.0631113 0.0814984 0.0599985
0.0682536 0.0828107 0.0610208
0.076585 0.083711 0.0607156
0.0892348 0.08365 0.0594034
0.106233 0.0822919 0.0598306
0.129107 0.0751812 0.0617685
0.151781 0.0695048 0.0610208
0.178256 0.0654307 0.0577554
0.203708 0.0630503 0.0534066
0.234577 0.0599374 0.0474556
0.26598 0.0561227 0.040589
0.297002 0.0515908 0.0390021
0.324254 0.0483101 0.0390021
0.351904 0.0444648 0.0390021
0.37879 0.0451667 0.0404212
0.407446 0.0492561 0.0439765
0.437781 0.0562448 0.0491646
0.459602 0.0591897 0.0523537
0.485145 0.0599222 0.0599069
0.512169 0.0573892 0.0707256
0.538735 0.0506905 0.0852827
0.567147 0.0553902 0.118517
0.59118 0.0648814 0.153384
0.609781 0.0738231 0.186847
0.612085 0.078645 0.215076
0.615381 0.0863508 0.243809
0.620127 0.0968948 0.271321
0.627054 0.110521 0.301503
0.637293 0.126802 0.332525
0.0679637 0.0950637 0.0643015
0.0656748 0.0953689 0.0644236
0.0634165 0.0951247 0.0638132
0.0626078 0.0959945 0.0627909
0.0637522 0.0970474 0.062623
0.067689 0.0981155 0.0630655
0.0770733 0.0992599 0.0639658
0.0902724 0.101015 0.0637217
0.106157 0.100496 0.0627451
0.130739 0.0989242 0.0629892
0.166613 0.0871595 0.065156
0.202228 0.0795148 0.0623789
0.231907 0.0752117 0.0575723
0.25835 0.0729839 0.0521706
0.285023 0.0705577 0.0463874
0.310964 0.0678569 0.0415656
0.33576 0.0609751 0.0390021
0.357168 0.0560159 0.0390021
0.379004 0.0518654 0.0390021
0.40264 0.050782 0.0390936
0.428092 0.0535592 0.0436408
0.456153 0.0612192 0.0486152
0.486748 0.0659495 0.057145
0.516594 0.0659495 0.0708019
0.542596 0.0640421 0.0836652
0.57052 0.0572213 0.106798
0.593133 0.0658732 0.14342
0.608804 0.0734875 0.177279
0.611078 0.0779583 0.206592
0.614374 0.0854963 0.237827
0.619257 0.0957656 0.267185
0.626093 0.109422 0.297597
0.635172 0.125216 0.329046
0.0698405 0.113573 0.0687114
0.0675669 0.114 0.0690318
0.0653697 0.114092 0.0682994
0.0644694 0.115236 0.067216
0.0645304 0.116091 0.0661784
0.0672923 0.117266 0.0654765
0.0759747 0.11931 0.0667277
0.0924544 0.122698 0.0694896
0.107851 0.12462 0.0685893
0.129625 0.124117 0.0677348
0.166735 0.12192 0.0680552
0.216983 0.104387 0.0698863
0.26128 0.0956283 0.0659953
0.293858 0.0908675 0.06009
0.322759 0.0901198 0.055848
0.344366 0.088838 0.0518196
0.365667 0.0870527 0.0474098
0.383505 0.0843214 0.0445106
0.397574 0.0740063 0.0405585
0.411063 0.0659648 0.0390021
0.426825 0.0614023 0.0397955
0.442054 0.0580453 0.0412757
0.473136 0.0662242 0.046952
0.509148 0.0741131 0.059144
0.544152 0.0734875 0.0792859
0.575494 0.0658885 0.102068
0.593317 0.0667277 0.127001
0.606683 0.0732128 0.163088
0.610513 0.077821 0.194858
0.61384 0.0847944 0.229313
0.61799 0.0939498 0.260121
0.624308 0.107591 0.29192
0.63331 0.123598 0.324331
0.0717479 0.138872 0.0744335
0.068986 0.139422 0.0746777
0.0668803 0.139879 0.0736553
0.065568 0.140902 0.0719158
0.0650034 0.141939 0.0702983
0.0666056 0.142779 0.0679179
0.0713512 0.144945 0.0675212
0.0879377 0.149233 0.0708782
0.109239 0.155306 0.074876
0.13109 0.159594 0.0754406
0.16405 0.159564 0.0748913
0.218235 0.157351 0.0753948
0.279515 0.13576 0.0793011
0.329915 0.124743 0.0769513
0.366979 0.118227 0.0724498
0.396017 0.11783 0.0686503
0.416663 0.118685 0.0663767
0.434913 0.117494 0.0630503
0.448829 0.116075 0.0606088
0.455512 0.110185 0.0550851
0.458732 0.0977035 0.0482032
0.461677 0.0822003 0.0441291
0.469429 0.074403 0.0442664
0.490715 0.0751965 0.0475471
0.528786 0.0820783 0.0597848
0.567941 0.0805219 0.0843824
0.595026 0.068452 0.112856
0.60441 0.0729381 0.142107
0.60824 0.076936 0.175204
0.611704 0.0828717 0.212741
0.616388 0.0922255 0.249149
0.621332 0.104494 0.28249
0.631388 0.121538 0.317205
0.073167 0.170977 0.0800641
0.0699016 0.17174 0.0803235
0.0670939 0.172671 0.0789654
0.0660563 0.174212 0.0771801
0.0658732 0.176013 0.0758068
0.0665141 0.177218 0.073228
0.0697795 0.178973 0.0706188
0.0801251 0.184222 0.071931
0.105074 0.192996 0.0785077
0.134157 0.203876 0.0856184
0.169345 0.212894 0.0882124
0.221744 0.215732 0.0885023
0.286992 0.21651 0.0883497
0.353414 0.198398 0.0941634
0.407691 0.178378 0.0992905
0.450645 0.168826 0.0984665
0.478859 0.163867 0.0948348
0.500786 0.163149 0.0936446
0.517891 0.161089 0.0915999
0.531548 0.160006 0.0904402
0.535576 0.152758 0.0851759
0.53286 0.143099 0.0776837
0.523522 0.124941 0.0646372
0.517494 0.107286 0.0558022
0.515221 0.0899977 0.0510414
0.551949 0.0934005 0.0635538
0.575433 0.0867933 0.0806134
0.603159 0.0728313 0.118776
0.606119 0.0756847 0.149081
0.609812 0.0805066 0.186984
0.613718 0.0890669 0.231418
0.618189 0.100984 0.269413
0.627192 0.117098 0.305821
0.0799878 0.215381 0.0918898
0.0764019 0.216037 0.0919814
0.072694 0.217258 0.0907454
0.0711833 0.219074 0.0888685
0.0713512 0.221622 0.0871138
0.0729992 0.22446 0.0850843
0.074052 0.22591 0.0808423
0.0800183 0.229343 0.0788586
0.100725 0.24065 0.0852064
0.135393 0.254826 0.0953841
0.176684 0.270497 0.104265
0.231769 0.284581 0.105791
0.296513 0.288319 0.105577
0.364767 0.289784 0.102083
0.428656 0.276326 0.106722
0.482872 0.252644 0.117479
0.531929 0.234958 0.123049
0.562066 0.22359 0.122133
0.585641 0.218158 0.122271
0.605081 0.214755 0.122133
0.621241 0.210498 0.122118
0.629587 0.203387 0.121447
0.633021 0.196567 0.120714
0.617945 0.179355 0.110964
0.597299 0.1552 0.0941329
0.565911 0.119326 0.069749
0.573297 0.106188 0.0686503
0.580316 0.0968185 0.076585
0.601465 0.0777905 0.113939
0.608545 0.0792554 0.154681
0.611902 0.0859236 0.200916
0.61416 0.095964 0.248371
0.621912 0.111406 0.289952
0.0935836 0.272801 0.110582
0.0899214 0.273121 0.110292
0.0866712 0.275181 0.109148
0.0852522 0.276982 0.107622
0.0844434 0.279683 0.105867
0.084947 0.282963 0.103792
0.0856947 0.285222 0.0990311
0.086717 0.285649 0.0926833
0.098497 0.293263 0.0944381
0.12842 0.306691 0.101396
0.173709 0.323812 0.111406
0.235859 0.342138 0.117586
0.304952 0.357076 0.116182
0.374136 0.359823 0.11632
0.441352 0.360571 0.108461
0.501961 0.353857 0.1122
0.553613 0.33193 0.124056
0.605386 0.301427 0.140368
0.638361 0.286137 0.141299
0.665812 0.277897 0.143114
0.690013 0.269993 0.146334
0.706966 0.264866 0.14786
0.719982 0.258961 0.149798
0.724941 0.249836 0.1505
0.712612 0.232639 0.147814
0.688411 0.211337 0.139925
0.631662 0.158602 0.105516
0.592569 0.124926 0.0760204
0.583642 0.109911 0.0733654
0.603479 0.0892958 0.111467
0.61001 0.0832227 0.15993
0.616114 0.0952163 0.218601
0.623362 0.11017 0.274281
0.102312 0.330968 0.126314
0.0986954 0.330922 0.126101
0.0958419 0.332921 0.126085
0.0941634 0.335134 0.124926
0.0925154 0.336934 0.123461
0.0918441 0.339239 0.120897
0.0923171 0.341772 0.116915
0.0931106 0.342855 0.109483
0.0963912 0.344518 0.101457
0.114504 0.353933 0.102754
0.157198 0.36968 0.110704
0.224628 0.389532 0.120577
0.304555 0.413321 0.124773
0.374105 0.427619 0.120897
0.443717 0.428397 0.124163
0.507012 0.428183 0.113481
0.562081 0.425193 0.118624
0.611872 0.406806 0.13463
0.660731 0.37293 0.150057
0.699001 0.348791 0.163897
0.731945 0.338796 0.169131
0.756069 0.32694 0.174594
0.77171 0.31957 0.177493
0.781613 0.312474 0.177325
0.774517 0.29839 0.171725
0.763134 0.28098 0.165591
0.744137 0.259312 0.15877
0.680156 0.204288 0.139742
0.621622 0.153567 0.0939803
0.594308 0.12723 0.0770733
0.610193 0.107683 0.11281
0.621683 0.0974136 0.177874
0.631479 0.113329 0.248447
0.105638 0.38645 0.140764
0.101915 0.386328 0.14081
0.0985428 0.387961 0.141711
0.0961929 0.389197 0.140764
0.0945144 0.390402 0.139101
0.0944686 0.391989 0.136767
0.094728 0.394339 0.133227
0.0958419 0.396429 0.126238
0.0987259 0.397696 0.116304
0.109514 0.401709 0.108141
0.134997 0.410636 0.108431
0.202243 0.429908 0.116899
0.295888 0.457435 0.12636
0.374472 0.480156 0.129335
0.438422 0.49279 0.130877
0.505287 0.490959 0.138674
0.563684 0.490822 0.128267
0.613809 0.488289 0.134356
0.661631 0.476661 0.151659
0.707927 0.444587 0.166064
0.745739 0.417319 0.180545
0.77731 0.399863 0.195651
0.799435 0.388296 0.200137
0.813001 0.379095 0.202655
0.807294 0.364034 0.199451
0.799695 0.347127 0.19353
0.789593 0.326986 0.185046
0.77438 0.300862 0.172869
0.732692 0.250904 0.157214
0.674815 0.203082 0.137789
0.611246 0.149401 0.0878004
0.626474 0.125887 0.126421
0.638239 0.115572 0.20087
0.104601 0.437583 0.156619
0.101366 0.437293 0.157412
0.0982681 0.438315 0.158511
0.0965744 0.439185 0.158221
0.0955215 0.439841 0.157458
0.0955367 0.440558 0.15404
0.0958114 0.442359 0.150088
0.0971542 0.444404 0.144167
0.100328 0.44509 0.134035
0.107866 0.447242 0.121813
0.127169 0.453086 0.114427
0.17528 0.465232 0.117052
0.274205 0.49163 0.13109
0.369421 0.522576 0.139452
0.440024 0.541802 0.144442
0.496818 0.552254 0.148241
0.560265 0.549416 0.158495
0.614435 0.549172 0.147921
0.661738 0.547417 0.155261
0.706401 0.540307 0.171923
0.750652 0.5149 0.186343
0.781598 0.489372 0.197131
0.806867 0.471839 0.207736
0.823621 0.454673 0.216312
0.826383 0.442527 0.217609
0.82295 0.425803 0.214511
0.818677 0.406409 0.207874
0.811414 0.38056 0.202579
0.79733 0.344549 0.191012
0.766598 0.292027 0.170199
0.719356 0.241474 0.153811
0.651652 0.189181 0.123079
0.645808 0.148653 0.144335
0.10779 0.484398 0.181018
0.105425 0.483864 0.182101
0.102861 0.484443 0.184421
0.101472 0.484947 0.184588
0.100893 0.485664 0.183703
0.101686 0.486351 0.180423
0.103746 0.486931 0.175189
0.105409 0.48809 0.168368
0.108827 0.489448 0.159442
0.11397 0.489387 0.144717
0.128206 0.492958 0.132662
0.164721 0.501808 0.12871
0.251225 0.521279 0.13637
0.360616 0.558556 0.153933
0.433875 0.583093 0.158633
0.499519 0.600381 0.164523
0.550134 0.608911 0.17026
0.609445 0.605112 0.181277
0.659586 0.604257 0.172992
0.704509 0.603174 0.180163
0.744167 0.599664 0.194659
0.784497 0.583535 0.208392
0.809827 0.564843 0.217639
0.826764 0.547082 0.221485
0.832959 0.53434 0.221271
0.832639 0.523278 0.217319
0.829343 0.501778 0.213733
0.825742 0.471855 0.211536
0.823484 0.436118 0.215381
0.813703 0.39205 0.204517
0.791318 0.335531 0.18558
0.748348 0.275196 0.16408
0.691508 0.227955 0.149615
0.117159 0.529732 0.21294
0.115358 0.529076 0.214618
0.113725 0.52929 0.217441
0.112779 0.529793 0.218341
0.112322 0.530205 0.21735
0.113115 0.53019 0.213184
0.11458 0.530221 0.206729
0.11725 0.530373 0.197803
0.120119 0.531014 0.188815
0.124804 0.531243 0.173785
0.133089 0.531182 0.154604
0.159792 0.536889 0.144839
0.235233 0.551614 0.145739
0.339117 0.584604 0.162982
0.439002 0.621592 0.177615
0.495125 0.64123 0.181643
0.551537 0.655573 0.18819
0.59826 0.661631 0.196139
0.653208 0.65745 0.208591
0.702556 0.657053 0.203983
0.74258 0.65655 0.20914
0.778241 0.654246 0.220783
0.809308 0.645685 0.231342
0.831464 0.634424 0.239582
0.843519 0.623117 0.240558
0.843473 0.614603 0.235584
0.84152 0.603174 0.227649
0.8383 0.577798 0.220844
0.832944 0.544991 0.214664
0.82858 0.501534 0.212482
0.822583 0.442191 0.213947
0.803571 0.375753 0.195377
0.766033 0.307805 0.176455
0.129091 0.574136 0.245228
0.12784 0.573404 0.247166
0.126513 0.573983 0.251301
0.12604 0.574029 0.252796
0.125917 0.57409 0.252628
0.126604 0.573785 0.248386
0.127962 0.572915 0.240925
0.130068 0.572152 0.230579
0.133028 0.572061 0.220096
0.137209 0.572061 0.206043
0.14374 0.571023 0.183948
0.162539 0.573541 0.166445
0.227115 0.584039 0.1608
0.326757 0.611826 0.173281
0.429603 0.651881 0.192966
0.505058 0.679179 0.203433
0.550378 0.695338 0.208972
0.599542 0.708125 0.217472
0.644068 0.7131 0.227131
0.696284 0.710109 0.239353
0.739651 0.708614 0.237186
0.775662 0.707454 0.241749
0.804776 0.706096 0.246204
0.829694 0.700496 0.254047
0.848997 0.69189 0.261097
0.851667 0.685786 0.256794
0.851011 0.677272 0.249134
0.848173 0.666392 0.238499
0.845533 0.645747 0.231022
0.841688 0.612802 0.22356
0.835401 0.564782 0.217288
0.826337 0.499138 0.213046
0.806958 0.406531 0.207141
0.143755 0.616434 0.276814
0.142809 0.615686 0.279011
0.14168 0.615656 0.283619
0.141314 0.615503 0.28513
0.141344 0.615152 0.285344
0.141909 0.614298 0.281636
0.143206 0.613321 0.274922
0.144884 0.61178 0.264164
0.147372 0.610285 0.251713
0.150896 0.609781 0.238392
0.156756 0.608225 0.216556
0.170886 0.60827 0.192584
0.219242 0.61416 0.178607
0.318608 0.637385 0.186389
0.419791 0.675822 0.207095
0.504311 0.709438 0.223224
0.55964 0.728939 0.232013
0.598398 0.742565 0.239902
0.642267 0.753582 0.248997
0.685405 0.757336 0.259663
0.734752 0.754498 0.270176
0.773724 0.752834 0.269306
0.804898 0.751705 0.274098
0.828702 0.75169 0.273442
0.846876 0.747829 0.277409
0.857343 0.741268 0.280812
0.856657 0.7355 0.273213
0.855009 0.72694 0.261845
0.853193 0.714778 0.246555
0.851408 0.693263 0.237736
0.848493 0.662959 0.231495
0.840986 0.617884 0.224445
0.826993 0.549981 0.217456
0.159976 0.65388 0.306172
0.159121 0.652811 0.308354
0.158556 0.652598 0.312673
0.158404 0.652216 0.314183
0.158404 0.65156 0.31368
0.159121 0.650568 0.308614
0.160296 0.648707 0.300694
0.161761 0.64654 0.289219
0.163882 0.644038 0.274327
0.167346 0.641794 0.25803
0.172961 0.641108 0.240833
0.182681 0.638895 0.209339
0.220905 0.64184 0.191165
0.315511 0.660929 0.194202
0.417884 0.697902 0.216403
0.512596 0.736355 0.237369
0.575631 0.75874 0.246632
0.615061 0.771969 0.25481
0.650263 0.783276 0.263142
0.690944 0.792142 0.272862
0.732311 0.794369 0.284092
0.775814 0.791028 0.293126
0.809918 0.788556 0.293187
0.835554 0.787076 0.295308
0.856291 0.786816 0.294575
0.869215 0.78291 0.298421
0.870817 0.778225 0.291875
0.868528 0.772595 0.283513
0.864302 0.763836 0.270558
0.858152 0.752087 0.250446
0.854154 0.732204 0.242695
0.850355 0.702739 0.237263
0.844266 0.659098 0.230442
0.174914 0.685161 0.331975
0.174624 0.684306 0.333791
0.17438 0.683787 0.338079
0.174441 0.683238 0.339406
0.174441 0.682445 0.339208
0.174853 0.681208 0.334844
0.175235 0.679408 0.327611
0.176623 0.677058 0.316777
0.178866 0.674098 0.30222
0.181353 0.670817 0.284947
0.185931 0.668498 0.266194
0.195209 0.666728 0.24155
0.220569 0.666468 0.211963
0.311666 0.681407 0.210895
0.405295 0.711528 0.228656
0.500023 0.750378 0.251118
0.578561 0.779706 0.266026
0.6206 0.794354 0.273198
0.655818 0.806455 0.28307
0.688258 0.816678 0.291752
0.728389 0.824002 0.301701
0.765087 0.824521 0.31281
0.803738 0.820783 0.321248
0.831785 0.818082 0.322499
0.853758 0.817197 0.323735
0.870039 0.816205 0.322026
0.874525 0.812741 0.317067
0.874205 0.808377 0.310521
0.871611 0.803311 0.300511
0.866377 0.794888 0.279988
0.860655 0.782528 0.265126
0.856229 0.762875 0.252934
0.851637 0.734707 0.24683
0.187884 0.708675 0.356069
0.187488 0.707393 0.356023
0.187381 0.706905 0.358938
0.187442 0.706188 0.360357
0.187472 0.705028 0.359747
0.187747 0.70341 0.355612
0.188403 0.701518 0.348699
0.189456 0.699275 0.338903
0.190631 0.696147 0.325765
0.193256 0.692149 0.308019
0.197238 0.688869 0.288731
0.203601 0.685679 0.263249
0.224735 0.684703 0.234195
0.296208 0.693401 0.223117
0.393774 0.719463 0.239567
0.483009 0.754513 0.261906
0.562448 0.78703 0.279973
0.621134 0.807492 0.288914
0.656229 0.819959 0.296574
0.687877 0.830686 0.307103
0.718166 0.83978 0.317769
0.757214 0.845609 0.32755
0.792233 0.845411 0.33814
0.824933 0.841489 0.345907
0.848432 0.840421 0.347295
0.866133 0.839261 0.347585
0.875303 0.838575 0.346624
0.876158 0.835615 0.341863
0.874662 0.832197 0.335317
0.871489 0.828519 0.324758
0.868559 0.822644 0.305531
0.864897 0.809064 0.28658
0.861051 0.788678 0.267887
0.196124 0.72076 0.372381
0.196201 0.720012 0.372183
0.196323 0.719326 0.374533
0.196017 0.718456 0.374975
0.196246 0.71751 0.374487
0.196674 0.716274 0.370672
0.196994 0.71426 0.364004
0.197375 0.711666 0.355367
0.198779 0.708827 0.341421
0.200916 0.70454 0.325368
0.204578 0.700511 0.305028
0.210147 0.697108 0.282734
0.22443 0.694606 0.252522
0.278721 0.699031 0.233631
0.375158 0.720073 0.245838
0.46598 0.752407 0.267338
0.547143 0.785779 0.28809
0.611307 0.809567 0.29926
0.650263 0.823072 0.307408
0.682857 0.833707 0.315602
0.710857 0.842878 0.325368
0.744747 0.850095 0.335012
0.779965 0.853666 0.346212
0.814511 0.851942 0.354406
0.841718 0.848997 0.360754
0.861463 0.848081 0.362005
0.874281 0.848157 0.363317
0.875761 0.848157 0.363867
0.874052 0.846021 0.360067
0.872007 0.844404 0.353536
0.870481 0.842939 0.342214
0.869032 0.839094 0.323903
0.867552 0.826093 0.305318
0.202487 0.727199 0.385824
0.202502 0.726589 0.385138
0.202548 0.72604 0.386404
0.202396 0.725216 0.386526
0.202579 0.724208 0.385962
0.202808 0.722698 0.381262
0.203082 0.720897 0.375311
0.203113 0.718563 0.366384
0.204364 0.715831 0.35552
0.206241 0.711528 0.33994
0.209125 0.707012 0.319707
0.214237 0.702724 0.295552
0.225452 0.699672 0.269657
0.258915 0.700999 0.244663
0.352728 0.716884 0.25008
0.441749 0.744518 0.268757
0.527764 0.779355 0.290684
0.59736 0.805798 0.306142
0.638514 0.820905 0.31487
0.673838 0.832624 0.323384
0.702403 0.841749 0.331456
0.733837 0.84947 0.338842
0.764767 0.854368 0.348165
0.800397 0.85655 0.359319
0.829587 0.854536 0.367163
0.853925 0.852384 0.371588
0.869764 0.853117 0.373968
0.873655 0.853117 0.375692
0.87303 0.853284 0.376349
0.871321 0.853315 0.374594
0.870237 0.852918 0.368231
0.869474 0.851621 0.355718
0.869291 0.849287 0.339284
0.207492 0.731502 0.39707
0.207187 0.730648 0.395727
0.20734 0.730098 0.396826
0.20737 0.729168 0.396872
0.207309 0.727855 0.395483
0.207202 0.726207 0.391196
0.20737 0.724376 0.384665
0.20824 0.722057 0.376287
0.209247 0.719127 0.366079
0.210025 0.715465 0.35285
