bundles/resolve-cinematic-luts/Phantom Luts/A7s3 Phntm Film LUTs - G6/SLog3/EastmanRM A7s3.cube
TITLE "Generated by Resolve"
LUT_3D_SIZE 33
0.0443122 0.0362554 0.0384222
0.0441749 0.0363622 0.0386511
0.0441444 0.0363775 0.0386969
0.0444495 0.0362554 0.0383154
0.0489357 0.035523 0.0376135
0.0601358 0.0341802 0.0367132
0.07776 0.0328985 0.0360266
0.103395 0.0325475 0.0363317
0.129244 0.0325628 0.0368811
0.154314 0.0320134 0.0374762
0.183902 0.0314183 0.0383612
0.215091 0.0308232 0.0394598
0.24831 0.030396 0.0411841
0.286702 0.0292058 0.0427405
0.327108 0.0283665 0.0439765
0.366201 0.0278172 0.0470283
0.403159 0.0283513 0.0505531
0.438453 0.0283207 0.0552529
0.473045 0.0289006 0.0609751
0.50367 0.0298924 0.0678721
0.531472 0.0317082 0.0770886
0.554681 0.0344701 0.0886091
0.574884 0.0380102 0.1028
0.593988 0.0433509 0.120607
0.613321 0.0509957 0.142596
0.633158 0.0607614 0.168032
0.653101 0.0737469 0.19678
0.671504 0.0888075 0.229557
0.690181 0.107012 0.269184
0.702266 0.124254 0.314717
0.707485 0.138811 0.360082
0.709377 0.153918 0.405554
0.712154 0.168307 0.44686
0.0445869 0.0360571 0.0380865
0.0442206 0.0363317 0.0385901
0.0440681 0.0364538 0.0388495
0.0441444 0.0364996 0.038819
0.0482185 0.0360876 0.0385138
0.0567483 0.0350958 0.0379187
0.0735485 0.0336767 0.0371557
0.100252 0.0331121 0.0370336
0.129015 0.0327459 0.0372473
0.15404 0.0321965 0.0379797
0.182498 0.031693 0.0391241
0.214603 0.0311284 0.0405127
0.251316 0.0304265 0.0418555
0.291966 0.0291142 0.0429847
0.33225 0.0282139 0.0442359
0.370687 0.0277409 0.047776
0.407095 0.0281529 0.0511635
0.442527 0.0283513 0.0556802
0.475837 0.0289158 0.0614633
0.506096 0.030045 0.0684672
0.533364 0.0319219 0.0778058
0.556527 0.0346685 0.08925
0.576135 0.038117 0.103212
0.594965 0.0436713 0.121447
0.614237 0.0513619 0.14287
0.633722 0.060914 0.167758
0.653635 0.0736248 0.195895
0.67068 0.0878309 0.227543
0.689815 0.106508 0.267399
0.701579 0.123293 0.31194
0.706188 0.137453 0.355718
0.707103 0.151827 0.40032
0.709453 0.165988 0.44062
0.0446174 0.0360266 0.038056
0.0442206 0.0363317 0.0385901
0.0440681 0.0364538 0.0388495
0.0441138 0.0364691 0.0388037
0.0480659 0.0361334 0.0384833
0.0542 0.0354162 0.0381628
0.0665293 0.0344091 0.0379492
0.0887922 0.0339208 0.0381933
0.121736 0.0333715 0.0383001
0.149706 0.0324865 0.0382696
0.179416 0.0318608 0.039292
0.210712 0.031342 0.041062
0.247395 0.0307164 0.0429847
0.290806 0.0292668 0.0434272
0.333852 0.0281682 0.0444343
0.373495 0.0276951 0.0478676
0.409873 0.0280919 0.0512703
0.444633 0.0283513 0.055848
0.477745 0.0289006 0.0616159
0.507988 0.0300603 0.0686351
0.534905 0.0320897 0.0783398
0.557961 0.0347753 0.0896162
0.577493 0.0383459 0.103914
0.59617 0.0440528 0.122255
0.614939 0.0518502 0.143694
0.63444 0.061265 0.16846
0.654627 0.0737774 0.195972
0.670039 0.0873121 0.226917
0.690166 0.106584 0.266529
0.70103 0.122637 0.309743
0.705333 0.136477 0.352789
0.703197 0.151034 0.398474
0.700404 0.166186 0.442344
0.043595 0.0375525 0.0399786
0.0433661 0.0378271 0.0403601
0.0434272 0.0377203 0.0402838
0.0438239 0.0373999 0.039765
0.0474098 0.0371099 0.038941
0.0525216 0.036286 0.0379187
0.0622263 0.0354314 0.0378119
0.0803998 0.0348821 0.0384833
0.112245 0.0343633 0.0390631
0.144549 0.0333257 0.0390326
0.176349 0.032166 0.0393683
0.209277 0.0314336 0.0408026
0.245045 0.0307927 0.0431983
0.289326 0.0293736 0.0442206
0.333394 0.0282444 0.0454566
0.375448 0.0276646 0.0481727
0.412924 0.0280003 0.0505684
0.447562 0.0283207 0.0554208
0.480766 0.0289616 0.0612955
0.510567 0.0300755 0.0684062
0.537667 0.0321813 0.0782788
0.559915 0.0350042 0.0898299
0.579889 0.0388495 0.105074
0.598138 0.0448157 0.12343
0.61677 0.0525673 0.14461
0.636454 0.0620737 0.16965
0.655955 0.0746319 0.197147
0.670619 0.0877699 0.22739
0.691157 0.107408 0.267979
0.701534 0.123156 0.31133
0.706157 0.13727 0.354253
0.703548 0.15201 0.401022
0.700633 0.167132 0.445335
0.0447089 0.0475166 0.0429999
0.0442206 0.0480812 0.0432136
0.044358 0.048127 0.0429694
0.0456245 0.0483253 0.0428473
0.0483711 0.0484932 0.0421759
0.0544442 0.0471809 0.0416724
0.0652171 0.0455787 0.0406958
0.0861677 0.0419165 0.0395209
0.116075 0.0386816 0.0396735
0.146532 0.036347 0.0398413
0.180285 0.0344701 0.0401007
0.212558 0.0323033 0.0406043
0.250889 0.0305943 0.0422522
0.293294 0.0287633 0.0438849
0.337011 0.0280919 0.0456855
0.377859 0.0276951 0.0489509
0.416861 0.0280308 0.0519417
0.45156 0.0282139 0.0545968
0.485237 0.029099 0.0606546
0.514702 0.0303502 0.0680858
0.54107 0.0324102 0.0779126
0.562554 0.0351873 0.089662
0.58233 0.0395666 0.105684
0.600641 0.0455329 0.124559
0.619135 0.0534829 0.14551
0.638682 0.0630808 0.170718
0.656886 0.0755779 0.198322
0.671305 0.0884718 0.228565
0.691951 0.108049 0.269032
0.702266 0.124056 0.313359
0.707042 0.138262 0.356863
0.70425 0.153185 0.403632
0.70135 0.168368 0.448692
0.0456855 0.0608225 0.0451362
0.0449531 0.0613718 0.0458381
0.0451057 0.0604105 0.0449378
0.0464637 0.0597391 0.0444038
0.0487678 0.0613107 0.0444495
0.0542458 0.0608835 0.0434882
0.0714733 0.0573892 0.0436103
0.0932631 0.0536355 0.0426795
0.118486 0.0487831 0.0420081
0.145052 0.043122 0.0414282
0.176669 0.037995 0.0413672
0.216785 0.034638 0.0418555
0.258289 0.0314183 0.0419623
0.297902 0.027985 0.0426032
0.339208 0.0274205 0.04448
0.377737 0.0273442 0.0479438
0.417487 0.0281529 0.0520333
0.454185 0.0285954 0.0572519
0.485679 0.0295872 0.0619211
0.516945 0.0307927 0.0688182
0.543893 0.0327459 0.0776684
0.565377 0.0353552 0.0894636
0.584848 0.0401312 0.105852
0.602701 0.0462806 0.125261
0.621744 0.0544137 0.14638
0.640696 0.0638285 0.171145
0.657649 0.0762036 0.19881
0.672435 0.0893263 0.229572
0.692683 0.108522 0.270283
0.703426 0.124758 0.315099
0.70808 0.138979 0.358862
0.705242 0.154269 0.406256
0.7019 0.169558 0.451148
0.0467536 0.0810101 0.0475166
0.0458991 0.0817121 0.0482948
0.0476844 0.079057 0.045594
0.0491493 0.0785077 0.0449226
0.052491 0.0803082 0.0457923
0.0577859 0.0811933 0.045716
0.0747997 0.0803998 0.044007
0.109667 0.0736706 0.0443122
0.138872 0.0663767 0.043595
0.163027 0.0600137 0.0430304
0.186954 0.0536355 0.0427558
0.220447 0.0433204 0.0412604
0.262272 0.0341344 0.0406348
0.310796 0.0304723 0.0422827
0.348196 0.0267491 0.0420233
0.381567 0.0261692 0.0445258
0.415793 0.0270695 0.048661
0.453727 0.0285344 0.0560922
0.488975 0.0302434 0.0642252
0.515694 0.0314946 0.0710918
0.54081 0.0335241 0.0807202
0.563165 0.0361028 0.0923476
0.58471 0.0409857 0.107958
0.604288 0.0471504 0.125917
0.623819 0.0547799 0.146487
0.642237 0.0644236 0.170871
0.657984 0.076463 0.198184
0.672999 0.0897231 0.229496
0.692134 0.108202 0.269551
0.705287 0.125139 0.314656
0.711192 0.138735 0.356863
0.712978 0.153017 0.400412
0.713863 0.166629 0.440192
0.0519265 0.101793 0.047425
0.050248 0.102785 0.0484321
0.0497444 0.102419 0.0482185
0.0505379 0.102296 0.047013
0.0535439 0.103731 0.0469978
0.0591592 0.105608 0.0482948
0.0734875 0.106233 0.0478828
0.101472 0.104585 0.0463417
0.143114 0.0975814 0.0471962
0.177172 0.0873121 0.0480049
0.206607 0.0773327 0.0466926
0.236454 0.0681926 0.0454414
0.272557 0.057435 0.0441749
0.316136 0.0412451 0.0408026
0.357656 0.0305638 0.0400854
0.393194 0.0267796 0.041413
0.421897 0.0260777 0.0431983
0.452888 0.0265354 0.0492714
0.487007 0.028748 0.0592508
0.520439 0.0320592 0.070985
0.54229 0.0340124 0.0795605
0.563195 0.0367132 0.0925765
0.582361 0.0419928 0.11017
0.601953 0.0484169 0.129961
0.623011 0.0558633 0.150042
0.642725 0.0649577 0.170809
0.657847 0.0760815 0.195972
0.673106 0.0896468 0.22797
0.691722 0.107805 0.268315
0.70573 0.1252 0.313832
0.711788 0.139071 0.357107
0.713893 0.153689 0.401419
0.714488 0.167346 0.441566
0.0542153 0.125536 0.050309
0.0520333 0.126833 0.051545
0.051133 0.12668 0.0511482
0.0510719 0.126955 0.0495308
0.053727 0.128084 0.0482032
0.0603647 0.129488 0.0491035
0.0745708 0.131426 0.0504921
0.0979934 0.13315 0.0500191
0.132128 0.129549 0.0486458
0.17882 0.123171 0.0504768
0.225528 0.107942 0.0521096
0.267781 0.0919966 0.0492103
0.303014 0.0784466 0.047715
0.333883 0.0685893 0.0460365
0.368322 0.0547341 0.0444495
0.405661 0.0372168 0.0408484
0.43563 0.0286259 0.0403754
0.460792 0.0266117 0.0433051
0.485847 0.0272221 0.0501411
0.514382 0.0290837 0.0627298
0.545937 0.0344091 0.0779889
0.565866 0.0374762 0.0904402
0.58468 0.0423743 0.108293
0.603204 0.0492409 0.129534
0.622171 0.0571298 0.152316
0.639673 0.0658732 0.172427
0.653712 0.0757458 0.195773
0.67039 0.089128 0.226963
0.691157 0.107652 0.266804
0.706035 0.125032 0.312505
0.712154 0.139116 0.356085
0.714809 0.154116 0.40177
0.715541 0.168078 0.442527
0.0550698 0.151736 0.0553445
0.0518654 0.15375 0.0573892
0.0500038 0.154284 0.0574807
0.0499123 0.155093 0.0561837
0.0509957 0.155901 0.0522774
0.0569619 0.156619 0.0499428
0.0716869 0.157717 0.0506142
0.0983291 0.16083 0.0529183
0.125795 0.162737 0.0520027
0.166308 0.159533 0.0519875
0.228931 0.150683 0.0524605
0.289448 0.130129 0.054139
0.335134 0.110735 0.0512398
0.370733 0.0949111 0.0499733
0.39733 0.0847028 0.0483253
0.425147 0.0726482 0.0466468
0.4533 0.0545205 0.045243
0.478813 0.0349432 0.0415808
0.495186 0.0287327 0.0437629
0.510063 0.0277104 0.0505989
0.533272 0.0299992 0.0644999
0.564111 0.036759 0.0843519
0.58735 0.0428626 0.106218
0.606378 0.0498665 0.126299
0.624872 0.0576333 0.14934
0.639277 0.0660105 0.171313
0.649729 0.0749828 0.19321
0.664332 0.0879377 0.22562
0.687388 0.107515 0.266712
0.704341 0.125185 0.311727
0.712352 0.139315 0.355169
0.715679 0.15433 0.401556
0.716503 0.168841 0.443519
0.0565499 0.180941 0.0600137
0.0526131 0.183108 0.06215
0.0501106 0.183886 0.0622263
0.0494545 0.184756 0.0592203
0.0492714 0.186206 0.0568246
0.0512093 0.18616 0.0509957
0.0598611 0.187915 0.0496223
0.0829328 0.191699 0.0512703
0.117082 0.198108 0.053666
0.151232 0.202533 0.0528573
0.210132 0.199451 0.0542306
0.295552 0.189105 0.0548104
0.362448 0.165667 0.0588388
0.408728 0.140368 0.0575113
0.443153 0.120821 0.0563973
0.467964 0.109071 0.0552529
0.488304 0.100023 0.053666
0.508721 0.0828717 0.0525521
0.522072 0.0559396 0.0492866
0.527062 0.0354772 0.0477913
0.52871 0.0304265 0.0522927
0.544793 0.0319371 0.0651713
0.578012 0.0391699 0.0911879
0.608164 0.0496834 0.121447
0.627497 0.057847 0.144488
0.64062 0.0654765 0.166155
0.648661 0.0738231 0.186664
0.661448 0.0862593 0.219028
0.682811 0.104906 0.260853
0.702968 0.124559 0.308431
0.712154 0.139086 0.352926
0.716075 0.154314 0.399924
0.718013 0.16939 0.443473
0.0541848 0.216297 0.0610361
0.0505989 0.218738 0.0632792
0.0484932 0.219455 0.0632029
0.0475319 0.220829 0.0598306
0.0471351 0.222263 0.0565805
0.0470436 0.223316 0.0523537
0.0513924 0.224308 0.0466621
0.0648356 0.229175 0.0464332
0.0998703 0.238041 0.0497597
0.139178 0.249928 0.0529641
0.188571 0.260731 0.0547341
0.272435 0.258442 0.0574502
0.370718 0.24979 0.0577554
0.44358 0.225055 0.0651255
0.494545 0.193469 0.0712749
0.528725 0.171542 0.0713817
0.553002 0.153918 0.0734417
0.571191 0.143999 0.0735332
0.581613 0.129778 0.0719158
0.579477 0.104555 0.0680247
0.563806 0.0570077 0.0589151
0.551751 0.0404212 0.0628672
0.555795 0.0352789 0.0723735
0.589853 0.0412604 0.0975662
0.626535 0.055787 0.135515
0.641154 0.0646372 0.158434
0.647288 0.0718395 0.178683
0.657969 0.0824598 0.206668
0.678111 0.10071 0.249577
0.700282 0.122026 0.299779
0.712489 0.138552 0.348424
0.716381 0.153994 0.396262
0.72163 0.171466 0.444785
0.0527962 0.261784 0.0633707
0.049485 0.264302 0.0654002
0.0473487 0.26569 0.065919
0.04654 0.267445 0.0633707
0.0469368 0.268635 0.0589303
0.0467231 0.2701 0.0551614
0.0466773 0.269688 0.0487526
0.0533608 0.273136 0.0440986
0.0771344 0.282673 0.0448768
0.121828 0.296422 0.049424
0.17113 0.313268 0.0530556
0.244846 0.329122 0.0562448
0.348745 0.328725 0.0596017
0.45098 0.321431 0.0583658
0.525109 0.302174 0.068986
0.577478 0.269581 0.0821851
0.61912 0.243183 0.0891432
0.649027 0.220066 0.098558
0.669551 0.203845 0.105211
0.675517 0.190234 0.107149
0.667506 0.166583 0.108064
0.631006 0.119509 0.0952621
0.586053 0.0629587 0.08336
0.564721 0.0392767 0.0838788
0.593179 0.0416571 0.104311
0.633814 0.0611429 0.146761
0.644846 0.069337 0.16849
0.654582 0.0784466 0.191089
0.671122 0.0939803 0.231495
0.695705 0.117128 0.285222
0.712032 0.136782 0.339406
0.718563 0.154314 0.393042
0.72813 0.175357 0.447623
0.0517891 0.312184 0.0649119
0.0492714 0.314611 0.0683909
0.0476539 0.316106 0.0692607
0.0467689 0.317876 0.0667735
0.0462806 0.319219 0.0635233
0.0460059 0.321248 0.0599374
0.0457923 0.322164 0.0538186
0.047013 0.321782 0.046067
0.0564889 0.327428 0.042359
0.0894179 0.339651 0.043534
0.142519 0.356756 0.0478981
0.216815 0.380468 0.0526589
0.312642 0.401831 0.0570687
0.426474 0.401923 0.0608988
0.526604 0.397803 0.0606851
0.597131 0.386236 0.0760204
0.65037 0.354391 0.0893568
0.698756 0.321141 0.105547
0.731456 0.300877 0.115068
0.754025 0.276493 0.131731
0.761547 0.259724 0.140993
0.754452 0.235279 0.146685
0.725093 0.191608 0.145846
0.645655 0.104799 0.113344
0.584009 0.0454261 0.0944839
0.594781 0.043473 0.106081
0.632898 0.0649119 0.155383
0.647456 0.0754406 0.180224
0.662409 0.0866255 0.208316
0.686931 0.109026 0.262531
0.70808 0.131838 0.32253
0.723659 0.156207 0.388632
0.737804 0.180743 0.451148
0.0489815 0.362615 0.0657664
0.047013 0.364843 0.0695354
0.0457313 0.36669 0.0714733
0.0453346 0.368795 0.0704662
0.0449989 0.370398 0.0674601
0.0448157 0.371923 0.0640574
0.0451667 0.374151 0.059205
0.0464179 0.375387 0.0513313
0.0488746 0.375708 0.0434119
0.0618601 0.383154 0.0408331
0.105959 0.397742 0.0430152
0.178531 0.419974 0.0484627
0.284321 0.453437 0.0560006
0.38793 0.477256 0.0611276
0.502541 0.476738 0.0690318
0.593957 0.476463 0.071107
0.660121 0.467567 0.0916304
0.712047 0.440223 0.109865
0.758663 0.404089 0.129793
0.792676 0.381598 0.141604
0.813642 0.359701 0.15906
0.821027 0.335058 0.174456
0.817487 0.306081 0.180743
0.798657 0.261189 0.178988
0.72076 0.158556 0.145006
0.622232 0.0691844 0.106661
0.596429 0.0465248 0.103639
0.634867 0.070161 0.161135
0.650645 0.0824445 0.19472
0.674022 0.100618 0.23624
0.70605 0.128893 0.303761
0.732631 0.159716 0.381445
0.755062 0.190936 0.458198
0.046952 0.414267 0.0681621
0.0457771 0.41648 0.0734722
0.0449989 0.418647 0.0771801
0.0448157 0.421088 0.0778058
0.0446937 0.422889 0.0768597
0.0447852 0.424811 0.0734264
0.0452888 0.427527 0.0690471
0.0462806 0.429618 0.0613718
0.0485847 0.430365 0.0514839
0.054078 0.432319 0.0430457
0.0762798 0.440635 0.0411688
0.142947 0.458167 0.0452277
0.251225 0.491066 0.0552529
0.371618 0.529519 0.0660868
0.46688 0.550713 0.0775616
0.571923 0.548898 0.0897993
0.654185 0.548486 0.093431
0.714366 0.541894 0.120134
0.761822 0.519936 0.143099
0.800626 0.486473 0.1617
0.831098 0.462074 0.182498
0.849454 0.443595 0.195605
0.85745 0.415167 0.207584
0.850828 0.378195 0.203082
0.83566 0.332143 0.194751
0.79266 0.244083 0.182116
0.693507 0.132921 0.133272
0.617655 0.0635843 0.106813
0.651576 0.084535 0.172808
0.671443 0.103578 0.225513
0.709209 0.133379 0.289433
0.745083 0.167773 0.376135
0.773663 0.201877 0.4607
0.048127 0.46746 0.0819257
0.0471962 0.469673 0.0896315
0.0465705 0.472267 0.0960861
0.0463722 0.47454 0.0978866
0.0464027 0.476783 0.0982223
0.0470741 0.47834 0.0942092
0.0480507 0.480537 0.0900893
0.0491646 0.483268 0.0831159
0.0509499 0.484306 0.0729076
0.0560159 0.485176 0.0593118
0.0707866 0.489021 0.0494087
0.118135 0.499321 0.0477913
0.221134 0.524376 0.0568246
0.347768 0.56788 0.075761
0.45333 0.600168 0.0890974
0.542199 0.617929 0.106233
0.635462 0.615412 0.123827
0.707774 0.613565 0.131548
0.760891 0.609232 0.163058
0.802701 0.593881 0.197101
0.831815 0.568109 0.213001
0.853925 0.541573 0.223972
0.868544 0.520302 0.236027
0.869566 0.495048 0.228061
0.865034 0.458625 0.217212
0.856382 0.406882 0.206363
0.83209 0.322255 0.193622
0.774746 0.220096 0.175891
0.686244 0.124712 0.136843
0.683299 0.110399 0.189425
0.709606 0.132326 0.263142
0.759823 0.17467 0.354162
0.793774 0.212848 0.452873
0.0558633 0.519982 0.120119
0.0540169 0.52282 0.128893
0.0528115 0.526009 0.137728
0.0523079 0.528344 0.141085
0.0522316 0.530205 0.142077
0.0530098 0.531746 0.138354
0.0542306 0.53315 0.131884
0.0562753 0.534813 0.124178
0.0593118 0.536202 0.112474
0.0651408 0.53724 0.0945907
0.0771649 0.53698 0.0738689
0.113268 0.542947 0.0625315
0.199466 0.557717 0.063859
0.323278 0.59646 0.0866407
0.446311 0.641215 0.113436
0.529015 0.666316 0.127993
0.610162 0.68217 0.147524
0.693278 0.678935 0.170321
0.756283 0.675547 0.188266
0.801938 0.672297 0.228687
0.835477 0.662776 0.26305
0.856825 0.645747 0.279637
0.869169 0.627176 0.27892
0.87393 0.606622 0.267063
0.873289 0.576425 0.249851
0.871397 0.53547 0.238788
0.867781 0.483406 0.224231
0.854643 0.405325 0.203037
0.822477 0.298268 0.190478
0.762188 0.200931 0.171801
0.711788 0.134783 0.196841
0.761929 0.17055 0.311055
0.808942 0.219165 0.425818
0.0724041 0.569406 0.173922
0.0686809 0.572427 0.185061
0.0661479 0.575936 0.195331
0.0654765 0.5785 0.199969
0.0654307 0.580728 0.202869
0.066453 0.581994 0.19968
0.0683909 0.582727 0.193164
0.071397 0.583139 0.183017
0.0755322 0.584024 0.173251
0.0827802 0.584543 0.15581
0.0962997 0.583566 0.128496
0.12459 0.582788 0.0971237
0.193591 0.591318 0.0837415
0.307103 0.622461 0.102403
0.435416 0.67187 0.139971
0.528588 0.706127 0.163455
0.596231 0.727398 0.184741
0.671 0.741482 0.2094
0.743053 0.737652 0.237491
0.7991 0.733562 0.261921
0.837736 0.730571 0.296956
0.864195 0.724102 0.324651
0.879164 0.713268 0.339849
0.884504 0.703288 0.340505
0.880629 0.690303 0.324666
0.876997 0.665812 0.302419
0.873686 0.624521 0.274678
0.870344 0.56347 0.248173
0.864652 0.480613 0.223102
0.850858 0.378363 0.203494
0.812177 0.275044 0.189593
0.753674 0.175067 0.206165
0.806973 0.211551 0.381125
0.104005 0.614603 0.233112
0.0991073 0.618402 0.245563
0.0954452 0.622324 0.257023
0.0947127 0.624537 0.261967
0.0948501 0.626871 0.265064
0.0965438 0.628153 0.263249
0.0992752 0.628244 0.257572
0.103166 0.627344 0.246632
0.109346 0.626642 0.234623
0.116808 0.62652 0.222019
0.128771 0.624689 0.200137
0.15111 0.621469 0.165347
0.200946 0.623697 0.133913
0.299687 0.645853 0.132998
0.419028 0.690593 0.171588
0.526055 0.734951 0.208591
0.59382 0.760403 0.233616
0.654093 0.77995 0.259144
0.72517 0.793317 0.284047
0.787167 0.789715 0.30837
0.835142 0.785534 0.331655
0.866163 0.783261 0.357076
0.888319 0.778195 0.378042
0.89929 0.770596 0.387259
0.898192 0.763088 0.380301
0.891859 0.751553 0.362051
0.886137 0.731075 0.344472
0.882048 0.701579 0.324514
0.876234 0.65095 0.290745
0.868086 0.562112 0.249042
0.862394 0.464729 0.219196
0.841596 0.351064 0.208209
0.82208 0.278782 0.246067
0.149248 0.653834 0.287633
0.143862 0.657725 0.300572
0.140139 0.66186 0.312291
0.139544 0.664149 0.318105
0.139757 0.666224 0.321706
0.141253 0.666651 0.319875
0.144015 0.666438 0.31458
0.148241 0.665339 0.305852
0.153536 0.663447 0.292378
0.16025 0.661707 0.277806
0.169512 0.660029 0.261463
0.184298 0.657145 0.234806
0.215 0.653986 0.196216
0.291966 0.665171 0.177234
0.407843 0.703914 0.204013
0.516106 0.750805 0.245335
0.598901 0.784634 0.27808
0.648753 0.805112 0.303548
0.704967 0.823407 0.330083
0.772183 0.836118 0.354833
0.824903 0.832883 0.376043
0.862791 0.829465 0.393637
0.88957 0.826749 0.411475
0.906065 0.822477 0.425055
0.91043 0.816861 0.42533
0.907393 0.809491 0.413489
0.901167 0.799054 0.388663
0.896376 0.7823 0.367605
0.893278 0.758434 0.352789
0.888457 0.720211 0.327688
0.878706 0.645457 0.280064
0.867689 0.536934 0.241123
0.858747 0.434256 0.223239
0.201144 0.682261 0.320378
0.194675 0.686122 0.33344
0.190188 0.689906 0.346395
0.188327 0.692363 0.352895
0.187366 0.69427 0.356893
0.188724 0.695018 0.356374
0.190753 0.694911 0.352148
0.194476 0.693935 0.345022
0.198901 0.692149 0.334035
0.204715 0.689677 0.319417
0.212604 0.687678 0.3028
0.224445 0.685634 0.282979
0.243137 0.681315 0.248096
0.296849 0.684977 0.216648
0.403708 0.716167 0.227848
0.510796 0.761868 0.268772
0.605264 0.803037 0.305821
0.660441 0.825528 0.331579
0.703258 0.842969 0.357153
0.757504 0.859678 0.384619
0.817212 0.869825 0.408804
0.858625 0.866148 0.42501
0.888395 0.862974 0.437171
0.909102 0.860182 0.447791
0.918547 0.856641 0.453056
0.919799 0.852323 0.447318
0.917189 0.846311 0.434241
0.912398 0.838087 0.415183
0.907912 0.822568 0.386984
0.903655 0.80267 0.370031
0.898405 0.771237 0.352804
0.887419 0.713619 0.324575
0.868376 0.620523 0.278141
0.23386 0.710124 0.36878
0.231312 0.712077 0.374105
0.227863 0.715557 0.384161
0.225528 0.717525 0.390021
0.224857 0.719097 0.394263
0.22562 0.71957 0.393561
0.227512 0.719493 0.390402
0.230243 0.718791 0.384405
0.234165 0.717266 0.375204
0.238758 0.715053 0.362509
0.245472 0.711864 0.344945
0.254215 0.709255 0.325856
0.267689 0.705669 0.300771
0.299107 0.703227 0.26392
0.385351 0.722011 0.256016
0.49192 0.763058 0.288533
0.589456 0.806683 0.329412
0.659297 0.836973 0.35938
0.702998 0.855344 0.385092
0.74583 0.872251 0.414252
0.799893 0.887602 0.443641
0.84799 0.895094 0.468742
0.879927 0.891875 0.482856
0.902647 0.888838 0.490761
0.916747 0.886488 0.495338
0.921187 0.883787 0.493721
0.921019 0.880232 0.483085
0.919875 0.876112 0.468315
0.917052 0.870115 0.452491
0.914534 0.857389 0.437766
0.910201 0.839948 0.415717
0.904662 0.813046 0.384924
0.896162 0.764721 0.354299
0.260853 0.731579 0.404654
0.260288 0.732616 0.4065
0.257832 0.734554 0.412833
0.255268 0.736492 0.419013
0.253422 0.737652 0.421973
0.25388 0.737881 0.421378
0.255314 0.737652 0.418509
0.25742 0.73695 0.413245
0.259937 0.735653 0.405325
0.263493 0.733379 0.394034
0.268971 0.730205 0.378439
0.276539 0.72668 0.357839
0.286915 0.723033 0.336019
0.303929 0.717891 0.302327
0.36553 0.726299 0.281315
0.465995 0.75877 0.300725
0.564736 0.800946 0.342031
0.646571 0.837797 0.376669
0.696956 0.859678 0.403281
0.739422 0.876997 0.430915
0.786572 0.892638 0.46183
0.8327 0.903716 0.489372
0.87042 0.909346 0.516411
0.895109 0.906828 0.531716
0.909773 0.90576 0.541039
0.917617 0.904677 0.542428
0.919997 0.902586 0.534981
0.920348 0.90074 0.524224
0.919356 0.898039 0.509453
0.916808 0.89453 0.494423
0.915389 0.884764 0.479194
0.914046 0.870832 0.461112
0.910597 0.84741 0.429023
0.277119 0.742809 0.424155
0.276646 0.743328 0.425605
0.273686 0.744991 0.431312
0.270604 0.746563 0.436637
0.268772 0.747616 0.439521
0.269108 0.747875 0.439002
0.270191 0.747463 0.436515
0.272236 0.746715 0.431388
0.274174 0.745754 0.424949
0.276982 0.743709 0.414893
0.280461 0.740642 0.400504
0.286763 0.736584 0.381308
0.296727 0.732189 0.356695
0.308965 0.727672 0.330083
0.345129 0.727672 0.300633
0.431815 0.750286 0.305043
0.532815 0.788388 0.343328
0.62092 0.828183 0.383734
0.682155 0.855482 0.412741
0.729397 0.875074 0.440635
0.77612 0.891768 0.469505
0.820798 0.903807 0.495155
0.857114 0.911299 0.521248
0.884825 0.911803 0.542657
0.904875 0.911345 0.559792
0.913329 0.911604 0.571542
0.916396 0.911223 0.573144
0.917098 0.910369 0.567636
0.917464 0.909117 0.556924
0.91722 0.90692 0.539178
0.916396 0.90367 0.521614
0.916609 0.902358 0.514244
0.916014 0.893233 0.493767
0.283299 0.748608 0.43978
0.283101 0.748775 0.439673
0.280262 0.749981 0.443992
0.277546 0.751217 0.448112
0.275975 0.75201 0.450843
0.275853 0.752026 0.449592
0.276432 0.751781 0.447089
0.277592 0.75111 0.442145
0.279805 0.750134 0.436408
0.282109 0.74876 0.427787
0.285771 0.746029 0.415366
0.29102 0.74258 0.398581
0.299138 0.737697 0.37496
0.312383 0.73286 0.34548
0.33431 0.730205 0.317769
0.402487 0.743954 0.312352
0.498131 0.774578 0.341588
0.589151 0.813169 0.385016
0.661662 0.846647 0.42092
0.713314 0.869322 0.449531
0.76492 0.888624 0.47866
0.811109 0.902373 0.503212
0.846616 0.910536 0.524559
0.874601 0.913695 0.544182
0.896941 0.912093 0.561425
0.910384 0.912734 0.577768
0.915404 0.913252 0.587289
0.915938 0.913451 0.589349
0.915557 0.9131 0.586343
0.915022 0.911727 0.576059
0.915282 0.909514 0.557641
0.915816 0.907195 0.53962
0.916411 0.905898 0.530236
0.290013 0.753857 0.452369
0.289204 0.754192 0.453376
0.286992 0.755215 0.456489
0.285084 0.756054 0.459144
0.283833 0.756619 0.460853
0.283604 0.756619 0.459831
0.284123 0.756207 0.456886
0.284871 0.755566 0.452888
0.286702 0.754467 0.446601
